Tylouw/Master_Thesis_Code/test_recorded_data/real_test6/insertion_2_2026-02-24_18-35-34.csv
timestamp[s],tcp_force_x[N],tcp_force_y[N],tcp_force_z[N],tcp_force_rx[Nm?],tcp_force_ry[Nm?],tcp_force_rz[Nm?],tcp_pose_x[m],tcp_pose_y[m],tcp_pose_z[m],tcp_pose_rx[rot_vec_x],tcp_pose_ry[rot_vec_y],tcp_pose_rz[rot_vec_z],tcp_velo_x[m/s],tcp_velo_y[m/s],tcp_velo_z[m/s],tcp_velo_rx[rot_vec_x/s],tcp_velo_ry[rot_vec_y/s],tcp_velo_rz[rot_vec_z/s],q1[rad],q2[rad],q3[rad],q4[rad],q5[rad],q6[rad],qd1[rad/s],qd2[rad/s],qd3[rad/s],qd4[rad/s],qd5[rad/s],qd6[rad/s],tool_acc_x,tool_acc_y,tool_acc_z,current_of_whole_robot[A],voltage_of_whole_robot[V],current_J1[A],current_J2[A],current_J3[A],current_J4[A],current_J5[A],current_J6[A],temp_J1[C],temp_J2[C],temp_J3[C],temp_J4[C],temp_J5[C],temp_J6[C]
8.5899956e-07,-0.44184664,-0.8747218,-0.063207574,-0.049106356,0.036771636,-0.0071843304,-0.3815131,-0.34954098,0.08492438,-3.078462,0.6248834,-0.00029851845,-0.0010194315,-0.0005833747,0.00027634625,-0.0020804133,0.0036572847,0.00011602319,0.47916603,-1.4235384,1.9549874,-2.1004035,-1.5707573,2.4541326,-9.654129e-21,-3.7503075e-06,0.00042545729,-0.004626835,0.0001501751,-0.00011560725,0.076614454,0.114921674,-8.734048,0.68818194,47.728977,-0.14802636,-2.9992032,-2.1728375,-0.45085627,0.10901134,-0.23597148,28.3125,29.5,28.625,32.875,35.3125,36.5
0.010056886,0.3571695,0.5040852,-0.75054127,0.0020402914,0.00609413,-0.007014502,-0.3815375,-0.34954956,0.08492491,-3.0784853,0.624908,-0.00021373366,-0.0006297816,-0.0003650329,0.00024121178,-0.0012194593,0.00210412,0.000104714956,0.47916603,-1.4235145,1.954975,-2.1004746,-1.5707697,2.454145,-4.1963636e-30,3.9998577e-07,1.7571226e-06,-0.0024319405,0.00010640858,-0.00010442922,0.15322891,0.0,-9.002198,0.71951014,47.703903,-0.40451097,-2.4282157,-3.0620744,-0.40816796,0.08817638,-0.2751452,28.3125,29.5,28.625,32.875,35.3125,36.5
0.020054586,-1.4766589,-2.5145645,-1.4708425,-0.13343136,0.12451468,-0.032868456,-0.3815383,-0.3495504,0.08486327,-3.0784066,0.6248121,-0.00046027385,-0.006540041,-0.0009577469,-0.002155868,0.0025424936,-0.005166825,0.005284395,0.4791524,-1.4233406,1.9548978,-2.1003888,-1.5707458,2.4540815,-0.00442992,0.018167716,-0.016827198,0.004414865,9.50556e-05,-0.009704061,-0.40222588,0.82360536,-9.864111,0.7396539,47.71017,-0.49745718,-2.5941541,-3.2124434,-0.43129092,0.06293274,-0.23867497,28.3125,29.5,28.625,32.875,35.3125,36.5
0.030092293,-1.4076321,-1.4245735,-1.566087,-0.095015,0.090327986,-0.0785482,-0.38162485,-0.34957427,0.084830716,-3.0783665,0.6247497,-0.00056198955,-0.013637467,-0.0016405253,4.3036147e-05,-0.0004950739,0.0006748363,-0.0012251992,0.47911435,-1.4230741,1.9546541,-2.1003287,-1.5707458,2.4540098,-0.009781141,0.024762005,-0.029208582,0.003617986,6.8780384e-05,-0.00853826,-0.49799395,0.30645782,-9.844957,0.7463667,47.67793,-0.5742168,-2.4864378,-3.2272453,-0.37536865,0.051398866,-0.26043162,28.3125,29.5,28.625,32.875,35.3125,36.5
0.040096167,-1.2363378,-0.35691854,-1.2617494,-0.029710995,0.055165138,-0.11789936,-0.38180387,-0.34959942,0.08484154,-3.0784068,0.6248157,-0.0004618434,-0.01986195,-0.002262103,0.0004933537,-0.0010601628,0.002001953,-0.0032863603,0.47899297,-1.4227943,1.9543151,-2.100352,-1.5707458,2.4539247,-0.014361546,0.034787245,-0.04200165,0.004947745,-6.629321e-05,-0.0110495305,-0.17238252,-0.15322891,-9.5385,0.76874626,47.698532,-0.61978394,-2.619507,-3.0725455,-0.28917855,0.00832751,-0.2887708,28.3125,29.5,28.625,32.875,35.3125,36.5
0.05009341,-1.0337492,-1.7190683,-1.3365245,-0.05566246,0.06314191,-0.15123847,-0.38204113,-0.34962794,0.08489142,-3.078439,0.62495613,-0.00034721137,-0.023172526,-0.0020667529,0.0018035255,8.14008e-05,0.0015168984,-0.0025651106,0.47882402,-1.4224684,1.9538091,-2.1002662,-1.5707463,2.4538395,-0.017285407,0.038976923,-0.05113656,0.010851833,-0.0008620878,-0.014689111,-0.17238252,0.2681506,-9.5385,0.7486078,47.693153,-0.6325624,-2.3387163,-3.2503996,-0.30263793,-0.03268362,-0.26744747,28.3125,29.5,28.625,32.875,35.3125,36.5
0.060092784,-1.0149312,-2.3787456,-1.2339728,-0.08418517,0.04553391,-0.1490763,-0.38229913,-0.34965688,0.08491468,-3.0784264,0.6250498,-0.00030891967,-0.029195936,-0.0034167226,0.0034042564,-0.0010537005,0.0064288573,-0.0034001854,0.4786432,-1.4220335,1.9532317,-2.1001465,-1.5707577,2.4537191,-0.01968644,0.04669186,-0.06359973,0.010721418,-0.0021440522,-0.016245313,-0.1340753,0.4213795,-9.423578,0.7642693,47.709274,-0.5778417,-2.14918,-3.1230557,-0.26645496,-0.043056726,-0.23518845,28.3125,29.5,28.625,32.875,35.3125,36.5
0.0700905,-1.1881398,-1.4435889,-0.8483511,-0.05463325,0.042563163,-0.14957298,-0.38260433,-0.34968954,0.084924996,-3.0783932,0.6251961,-0.00028623233,-0.0328886,-0.0042615184,0.0029373425,-0.0012092064,0.006325149,-0.0034372911,0.47842646,-1.4214901,1.9525594,-2.1000268,-1.5707706,2.4535983,-0.02168551,0.054728944,-0.07178839,0.010891891,-0.001974749,-0.018202363,-0.05746084,0.2681506,-9.232041,0.8023209,47.66808,-0.62355053,-2.0035205,-3.417768,-0.2298811,-0.08362208,-0.22830442,28.3125,29.5,28.625,32.875,35.3125,36.5
0.08011148,-0.972668,-1.1363208,-0.7889322,-0.04454524,0.055013772,-0.14137247,-0.38294846,-0.34974295,0.08495286,-3.078432,0.62522185,-0.0001762078,-0.03732891,-0.005300272,0.0033976021,-0.000309787,0.0067020003,-0.0028463793,0.47821003,-1.4209107,1.9518136,-2.099942,-1.5707825,2.4533935,-0.023333965,0.06335331,-0.08344654,0.014007608,-0.0029624694,-0.020433685,-0.22984336,0.095768064,-9.251195,0.80456203,47.681515,-0.626908,-1.8748901,-3.4923043,-0.20773362,-0.11112453,-0.18655251,28.3125,29.5,28.625,32.875,35.3125,36.5
0.09009267,-1.5970521,-2.216285,-1.452017,-0.05956144,0.076176144,-0.13862462,-0.38334835,-0.3498003,0.085012205,-3.0784328,0.6251438,5.634992e-06,-0.041781355,-0.005219933,0.003978006,0.004045027,0.0081681125,-0.003027466,0.47799352,-1.4202594,1.9508885,-2.0997488,-1.5708684,2.4531288,-0.024836011,0.07109069,-0.09460789,0.0181469,-0.007515466,-0.021741405,-0.28730422,0.3256114,-9.442732,0.8112748,47.694946,-0.7789756,-1.7945695,-3.4647136,-0.19834265,-0.080390334,-0.15565278,28.3125,29.5,28.625,32.875,35.3125,36.5
0.10009059,-1.6903231,-2.0542524,-1.6465896,-0.08056679,0.06627165,-0.13497159,-0.38378665,-0.349848,0.08502944,-3.0783365,0.62525904,4.0050916e-05,-0.04713063,-0.006144218,0.0020127557,0.004055544,0.0049167066,-0.0052498127,0.4777161,-1.4194499,1.9498676,-2.0995095,-1.5709394,2.4529362,-0.028965665,0.08521724,-0.10650818,0.018803366,-0.0060536745,-0.023643149,-0.24899697,0.4213795,-9.787497,0.784413,47.71823,-0.6392665,-1.6174946,-3.5486283,-0.14268467,-0.09731987,-0.1154868,28.3125,29.5,28.625,32.875,35.3125,36.5
0.11009887,-1.160562,-2.0712967,-1.391658,-0.08785691,0.069949605,-0.13664126,-0.38431063,-0.34996584,0.08508508,-3.0784266,0.625354,0.00018375166,-0.05333322,-0.008145383,0.0012988064,0.0042468365,0.004540781,-0.006893567,0.4774275,-1.4185438,1.9486665,-2.099353,-1.5709156,2.452696,-0.031074274,0.09976003,-0.121916376,0.020089397,-0.0060771895,-0.024099357,-0.13407528,0.34476504,-9.461885,0.7709874,47.675243,-0.6138232,-2.0775483,-3.2723436,-0.08262939,-0.13273302,-0.13200435,28.3125,29.5,28.625,32.875,35.3125,36.5
0.12008964,-1.4022818,-1.7488208,-0.58600575,-0.06332524,0.075227976,-0.13736756,-0.38488254,-0.35006282,0.085138835,-3.0784345,0.62552786,0.00038572136,-0.057650965,-0.007105348,0.0008185814,0.011122111,0.0047410843,-0.009076238,0.47710273,-1.417568,1.9473833,-2.0991724,-1.5709656,2.4524796,-0.033117477,0.10865325,-0.132085,0.024363667,-0.012285124,-0.023946367,-0.2681506,0.2681506,-9.059659,0.7553206,47.686886,-0.6288842,-1.8794878,-3.2563071,-0.07641911,-0.048884675,-0.17376712,28.3125,29.5,28.625,32.875,35.3125,36.5
0.13009554,-0.9409689,-0.7206892,-0.3034775,-0.019673258,0.017459463,-0.12621437,-0.38551876,-0.3501534,0.08516051,-3.0783834,0.6256509,0.00059727253,-0.06089183,-0.008920719,-3.379966e-06,0.00800802,0.0007188488,-0.009971186,0.476742,-1.4164237,1.9459819,-2.099004,-1.5710725,2.452203,-0.03554976,0.11819376,-0.14180927,0.026667831,-0.007686215,-0.02548544,-0.095768064,0.05746084,-8.848969,0.8157518,47.667187,-0.7288555,-1.702126,-3.3865564,0.01567175,-0.1076106,-0.23765986,28.3125,29.5,28.625,32.875,35.3125,36.5
0.14009058,-1.0148528,-1.8603207,-0.9472657,-0.055278298,0.040189404,-0.13192181,-0.38610405,-0.3502277,0.08516908,-3.0782156,0.6257487,0.000548609,-0.063501894,-0.009149535,-0.0012345125,0.0125818085,-0.005209696,-0.0068559134,0.47639358,-1.415267,1.9445428,-2.0986063,-1.5711683,2.451938,-0.03665938,0.12856963,-0.1528906,0.03473681,-0.009041348,-0.029702192,-0.114921674,0.24899697,-9.212888,0.85155696,47.68599,-0.8277219,-1.8016233,-3.4399567,0.015375605,-0.083216295,-0.25510812,28.3125,29.5,28.625,32.875,35.3125,36.5
0.15009043,-1.7693467,-2.7495363,-1.7764969,-0.111944266,0.08583318,-0.13411991,-0.38671744,-0.35034344,0.08511638,-3.078046,0.6257108,0.00029377788,-0.06707805,-0.010853064,-0.0016130409,0.013199816,-0.008886426,-0.00470696,0.47605756,-1.4138697,1.9429601,-2.0981858,-1.5712045,2.4516008,-0.037511047,0.13925251,-0.16580382,0.040508535,-0.007931461,-0.03269605,-0.3256114,0.63206923,-9.595961,0.88289046,47.692257,-1.048191,-1.8303003,-3.4781604,-0.05042118,-0.11067845,-0.28318435,28.3125,29.5,28.625,32.875,35.3125,36.5
0.16009344,-0.7635461,-1.5775853,-1.5607519,-0.06889357,0.05388119,-0.13464853,-0.38744178,-0.35044417,0.08510946,-3.0778768,0.6258086,0.00027044647,-0.07055378,-0.01168487,-0.0020483867,0.015007806,-0.010144288,-0.004218164,0.47563723,-1.4124255,1.9412225,-2.097789,-1.5713123,2.4512641,-0.03849432,0.14805505,-0.17586967,0.043714173,-0.008986945,-0.03416015,-0.076614454,0.30645782,-9.672575,0.8940802,47.728977,-1.2259923,-1.8034303,-3.4228735,-0.105201386,-0.10290405,-0.34697986,28.3125,29.5,28.625,32.875,35.3125,36.5
0.17009898,-1.1480229,-0.24886642,-0.9185731,-0.041127697,0.041980784,-0.14049159,-0.3882112,-0.35057738,0.08512088,-3.0777678,0.62587935,0.000323649,-0.075745635,-0.011211782,-0.0031216778,0.01777844,-0.014386699,-0.002618922,0.47522753,-1.41092,1.9393758,-2.0974162,-1.5714091,2.4509137,-0.043619405,0.16009541,-0.18888523,0.04971935,-0.009533838,-0.040876567,-0.076614454,-0.05746084,-9.308657,0.8403672,47.678825,-1.1613277,-2.0253758,-3.6006572,-0.22566299,-0.12251655,-0.33908063,28.3125,29.5,28.625,32.875,35.3125,36.5
0.18008971,-2.1392143,-2.4626966,-1.0002865,-0.07766138,0.09005946,-0.12933365,-0.38894096,-0.3506925,0.08505836,-3.0775294,0.6257305,-8.0021455e-05,-0.0823499,-0.012330832,-0.0017358785,0.015402644,-0.01074234,0.0003430282,0.47479415,-1.4092475,1.937446,-2.096794,-1.5714568,2.450419,-0.047764502,0.1686787,-0.20233154,0.0502419,-0.009144012,-0.047973916,-0.5746084,0.3256114,-9.3661175,0.7620334,47.678825,-1.1531107,-1.8961558,-3.3564768,-0.33247766,-0.12208994,-0.28197697,28.3125,29.5,28.625,32.875,35.3125,36.5
0.19009665,-1.707101,-2.2840867,-0.8992467,-0.07732409,0.10435681,-0.14145394,-0.38986596,-0.35083553,0.085085064,-3.0774446,0.6257854,7.0155314e-05,-0.09058904,-0.014063234,-0.00045533644,0.009755686,0.0016397404,0.0045502703,0.47427684,-1.4075152,1.9352936,-2.0964034,-1.571577,2.449948,-0.05162091,0.17638268,-0.21173689,0.03833373,-0.009836014,-0.056029387,-0.5554548,0.4213795,-9.3661175,0.8090337,47.68062,-1.1168213,-1.7719028,-3.3986547,-0.26800245,-0.14138663,-0.12472079,28.3125,29.5,28.625,32.875,35.3125,36.5
0.20008868,-1.0719001,-1.3797244,-1.1706142,-0.055449937,0.06625019,-0.13359594,-0.39083242,-0.3509998,0.08507663,-3.0774348,0.62578624,0.00013167811,-0.09657648,-0.014905432,-0.0015089022,0.01011004,0.0015114484,-0.0037205892,0.47371155,-1.4056492,1.9330786,-2.0960796,-1.5716132,2.449386,-0.05520647,0.18915895,-0.22450906,0.038603883,-0.010117179,-0.05133654,-0.28730422,0.21068975,-9.32781,0.88960326,47.687782,-1.1254971,-1.9046327,-3.489166,-0.1226815,-0.15987293,-0.08360631,28.3125,29.5,28.625,32.875,35.3125,36.5
0.21009165,-1.0760533,-1.3478231,-1.3199066,-0.046620566,0.029917642,-0.1316386,-0.3918127,-0.35110337,0.0850023,-3.0771399,0.62590384,8.1880404e-05,-0.10266718,-0.013914653,-0.0013803715,0.011183468,-0.00026231055,-0.018986087,0.47312137,-1.4036282,1.9308037,-2.0956347,-1.5718054,2.4489083,-0.06212378,0.19877556,-0.23757459,0.044115756,-0.010284705,-0.042980194,-0.15322891,0.17238252,-9.346964,0.87393653,47.684196,-0.8305199,-2.119812,-3.4648504,-0.022448199,-0.15919393,-0.16508159,28.3125,29.5,28.625,32.875,35.3125,36.5
0.22009857,-1.4324591,-1.9922806,-1.2497027,-0.08709155,0.09828077,-0.1425768,-0.39284062,-0.35125223,0.08496387,-3.0769684,0.6261564,-4.2367614e-05,-0.10622358,-0.013772136,-0.0011055911,0.012834773,-0.0040154755,-0.022022124,0.47248438,-1.4015595,1.9283761,-2.0951412,-1.5718526,2.4484522,-0.065465234,0.20624417,-0.24912214,0.05227889,-0.0100628305,-0.04328045,-0.30645782,0.30645782,-9.576807,0.8672237,47.688675,-0.69812584,-2.0197635,-3.535723,-0.04667275,-0.15896142,-0.24277309,28.3125,29.5,28.625,32.875,35.3125,36.5
0.23009905,-1.1792326,-1.159362,-1.1944796,-0.058492634,0.06373123,-0.13733996,-0.39391464,-0.3513763,0.084920175,-3.0767057,0.6265232,-0.00020332319,-0.10868886,-0.013053933,-0.0017601772,0.017162587,-0.0108774295,-0.022797206,0.4717874,-1.3994066,1.9258393,-2.0945628,-1.5719374,2.4480193,-0.06822872,0.2144643,-0.26006237,0.063068256,-0.010815507,-0.045261174,-0.2681506,0.13407528,-9.404425,0.80679786,47.68062,-0.5962639,-2.0931842,-3.6940193,-0.08637861,-0.21457171,-0.3106407,28.3125,29.5,28.625,32.875,35.3125,36.5
0.24009041,-1.2420759,-1.7193278,-1.5172982,-0.048581813,0.043200526,-0.1261204,-0.39504114,-0.3515035,0.08489761,-3.0764115,0.62686294,-0.0003177709,-0.11397964,-0.014986165,-0.00064792164,0.018266182,-0.012917142,-0.021625198,0.47107926,-1.3971802,1.9231457,-2.0939014,-1.5720695,2.4475625,-0.06926105,0.22600555,-0.27861932,0.072386526,-0.010916228,-0.04745534,-0.076614454,0.22984336,-9.32781,0.82694155,47.694946,-0.6249338,-2.0833204,-3.3499675,-0.29572374,-0.22664616,-0.44678614,28.3125,29.5,28.625,32.875,35.3125,36.5
0.2500971,-1.3388921,-3.1224961,-1.6283777,-0.108733065,0.06530572,-0.13379224,-0.39619786,-0.3516517,0.08487817,-3.0761447,0.627048,-0.0004414764,-0.11832835,-0.017128173,0.00048714038,0.014802218,-0.0043874914,-0.009831731,0.4703835,-1.3948725,1.9203357,-2.093198,-1.5722016,2.4470181,-0.06862777,0.23034018,-0.28517854,0.065410495,-0.01176603,-0.058607314,-0.095768064,0.49799395,-9.423578,0.8314132,47.7254,-0.8547503,-1.8552499,-3.6585393,-0.29564705,-0.20862602,-0.43040347,28.3125,29.5,28.625,32.875,35.3125,36.5
0.26009047,-0.69014037,-2.7101057,-2.0693202,-0.089667924,0.048166197,-0.139382,-0.39744022,-0.35184926,0.08489283,-3.0760624,0.62698287,-0.0003701877,-0.12934172,-0.020417135,0.0014288629,0.008171238,0.006564079,0.0015648681,0.4696861,-1.3924893,1.9173788,-2.0926025,-1.5723094,2.4462924,-0.07288229,0.24559195,-0.30349615,0.055666763,-0.010906373,-0.07425039,0.11492168,0.38307226,-9.768343,0.8493211,47.67793,-0.8207097,-2.1324306,-3.441729,-0.13469309,-0.23675674,-0.18509674,28.3125,29.5,28.625,32.875,35.3125,36.5
0.2700969,-0.93733966,-2.6006494,-1.3884344,-0.09674056,0.075200416,-0.13393807,-0.39876032,-0.35206285,0.08493723,-3.076007,0.6269899,-9.738936e-05,-0.1306231,-0.022222403,0.00050191116,0.009238501,0.003473825,-0.0024445853,0.46897897,-1.3900474,1.9142927,-2.0920622,-1.5724653,2.4455986,-0.07082001,0.2531689,-0.3117029,0.05952634,-0.0104524875,-0.06817822,-0.21068975,0.24899697,-9.576807,0.95226496,47.688675,-1.1141979,-2.1035564,-3.6464906,-0.029702581,-0.29474637,-0.13092498,28.3125,29.5,28.625,32.875,35.3125,36.5
0.2800921,-0.97643363,-0.7078533,-1.3862755,-0.005054302,0.06380913,-0.13671593,-0.40008575,-0.35230735,0.0849707,-3.0759254,0.6271126,-1.1684923e-05,-0.13547726,-0.02242603,0.0027115243,0.0107147405,0.0028719723,-0.017061312,0.4682821,-1.3874998,1.911074,-2.0914004,-1.5725492,2.4449906,-0.07379947,0.25961912,-0.3272493,0.06983929,-0.011491077,-0.05653298,-0.30645782,-0.038307227,-9.500193,0.900793,47.667187,-1.1389718,-1.7303209,-3.4901595,0.030879933,-0.34814638,-0.26969132,28.3125,29.5,28.625,32.875,35.3125,36.5
0.29010516,-1.5601544,-1.2162379,-0.99922615,-0.041557502,0.07501736,-0.13799283,-0.40146357,-0.3525356,0.08501913,-3.0757604,0.62728906,2.7431997e-05,-0.13710345,-0.018811662,0.00089409546,0.02087163,-0.011278659,-0.020886185,0.46753612,-1.384866,1.907678,-2.0905802,-1.5726703,2.444378,-0.07954176,0.26872164,-0.33892852,0.08961704,-0.014168041,-0.058439065,-0.30645782,0.22984336,-9.308656,1.061927,47.695843,-0.954129,-1.8216054,-3.6018088,-0.20866466,-0.35579923,-0.31158802,28.3125,29.5,28.625,32.875,35.3125,36.5
0.3000978,-1.7691332,-2.4931107,-0.8900782,-0.09112414,0.078459404,-0.13451827,-0.4029067,-0.35274646,0.0850722,-3.0755494,0.6275873,2.2653525e-05,-0.14493899,-0.019312479,0.0019075728,0.018452596,-0.0058173323,-0.020610234,0.4667065,-1.3821362,1.9041318,-2.0896714,-1.5727905,2.4437635,-0.08490071,0.27825645,-0.35278884,0.0879484,-0.014530231,-0.06406567,-0.30645782,0.24899697,-9.251195,0.8806493,47.677036,-0.83469117,-1.6114523,-3.4518585,-0.28911692,-0.36060995,-0.35783124,28.3125,29.5,28.625,32.875,35.3125,36.5
0.3100929,-1.5176785,-1.6867499,-0.81669444,-0.048189364,0.089093514,-0.13846198,-0.4043654,-0.35293308,0.08503989,-3.0753064,0.62775606,2.4433135e-05,-0.15402189,-0.021917416,0.0014321388,0.012248515,0.0066648144,-0.0068659964,0.4658536,-1.3792851,1.9006685,-2.0889347,-1.5729588,2.4430492,-0.08778589,0.29058245,-0.3635026,0.072338074,-0.014703043,-0.08068661,-0.4213795,0.2681506,-9.212888,0.87617236,47.684196,-0.72121996,-1.8045948,-3.5843186,-0.06224111,-0.40645754,-0.16039304,28.3125,29.5,28.625,32.875,35.3125,36.5
0.32008934,-0.8880488,-2.3733113,-0.8956009,-0.09972571,0.0648116,-0.14358082,-0.40595084,-0.3531749,0.0850272,-3.0751507,0.6278176,0.0001526778,-0.15668638,-0.022857446,0.0017208084,0.016999189,0.0028857277,-0.009597858,0.46499023,-1.3762193,1.8969015,-2.0882123,-1.5731276,2.4422464,-0.086538486,0.2993469,-0.3778848,0.08345791,-0.01725478,-0.07669461,-0.19153613,0.36391866,-9.193734,0.8717007,47.689575,-0.78392136,-1.8082354,-3.52487,-0.011605822,-0.4163567,-0.08177854,28.3125,29.5,28.625,32.875,35.3125,36.5
0.3300962,0.27801225,-0.48660323,-0.8691641,0.0107237855,0.0058736387,-0.12690517,-0.40753847,-0.3534002,0.085003205,-3.074867,0.62803245,9.098222e-05,-0.1574838,-0.021616165,-0.0014581159,0.025691077,-0.013707155,-0.024059534,0.4641013,-1.3730801,1.8930205,-2.0872958,-1.573296,2.4415305,-0.08867899,0.31262782,-0.39164224,0.1026689,-0.017579287,-0.06436553,0.076614454,0.019153614,-9.021352,0.9634547,47.707485,-0.8835944,-1.964775,-3.5210962,-0.16327481,-0.42702156,-0.21753508,28.3125,29.5,28.625,32.875,35.3125,36.5
0.34009495,-1.4585596,-2.7031252,-1.3881097,-0.07588561,0.07470583,-0.125896,-0.40906197,-0.35358325,0.0849069,-3.074334,0.6283613,-0.00034991506,-0.16064875,-0.022939323,-0.0017214633,0.027135795,-0.010802005,-0.02575632,0.4632143,-1.3698463,1.8891271,-2.0861347,-1.5734891,2.4409199,-0.0871426,0.31955606,-0.40013546,0.10227221,-0.020235209,-0.06111081,-0.076614454,0.3256114,-9.461885,0.9701675,47.675243,-1.0180893,-2.0211372,-3.7149916,-0.27047747,-0.3897344,-0.3598772,28.3125,29.5,28.625,32.875,35.3125,36.5
0.35009277,-2.1108835,-3.5657463,-2.503533,-0.1174593,0.08073245,-0.12982567,-0.41073817,-0.35382295,0.084896035,-3.0739985,0.6286695,-0.00029641174,-0.17042984,-0.024073072,-0.0020937915,0.024406346,-0.000385467,-0.024191076,0.46232474,-1.3665627,1.8850144,-2.085169,-1.5737289,2.4402685,-0.09174261,0.33289307,-0.41390386,0.09212159,-0.022536438,-0.06725813,-0.38307226,0.5554548,-9.998186,0.9791215,47.737038,-1.0076975,-2.077437,-3.6552894,-0.11726989,-0.31791696,-0.4729401,28.3125,29.5,28.625,32.875,35.3125,36.5
0.36008886,-1.8073004,-1.550667,-1.8058434,-0.042993456,0.058856595,-0.12926376,-0.4124763,-0.3540993,0.084892705,-3.0738022,0.6288281,-0.00015136454,-0.17710984,-0.024597753,0.0017957417,0.021356085,0.0034820305,-0.007932258,0.46142316,-1.3631979,1.8807973,-2.0842927,-1.5739216,2.4394937,-0.09649629,0.33737227,-0.43084234,0.099657305,-0.021613702,-0.08827,-0.2873042,0.076614454,-9.672575,0.91198283,47.689575,-0.7952002,-2.0314894,-3.6498604,-0.05508841,-0.29870394,-0.29441836,28.3125,29.5,28.625,32.875,35.3125,36.5
0.3700953,-1.3142666,-0.5835168,-1.254095,-0.037125167,0.09427183,-0.14680292,-0.41426447,-0.3543448,0.08493259,-3.0735738,0.62881625,-0.00011167431,-0.1752779,-0.022381991,-0.0032618295,0.033682212,-0.019715674,-0.010606562,0.46043885,-1.3597962,1.8763665,-2.0831468,-1.5741252,2.438534,-0.09769639,0.35112068,-0.44228083,0.123576276,-0.02233044,-0.086787894,-0.24899697,-0.19153614,-9.519346,0.96569055,47.670765,-0.9113592,-2.1721928,-3.763709,-0.28768146,-0.2607111,-0.15360859,28.3125,29.5,28.625,32.875,35.3125,36.5
0.38011664,-1.7046801,-2.3609242,-1.6874444,-0.08382036,0.065893054,-0.12940799,-0.41609412,-0.3545722,0.084988885,-3.0732536,0.62911993,3.0498803e-05,-0.18789886,-0.025487665,0.0032064053,0.020902952,0.009364558,-0.025927018,0.45942968,-1.3563786,1.8718647,-2.081981,-1.5743898,2.4377584,-0.101582535,0.35264596,-0.45536813,0.10341008,-0.023855895,-0.07534166,-0.1340753,0.2873042,-9.595961,1.0216395,47.66539,-0.7725456,-1.6691782,-3.8161225,-0.11064407,-0.17552938,-0.31746322,28.3125,29.5,28.625,32.875,35.3125,36.5
0.39008948,-1.7609235,-2.450018,-1.5736458,-0.09029026,0.064591,-0.13575312,-0.4179973,-0.35482424,0.085048616,-3.073,0.6295426,0.00025440578,-0.19170445,-0.027363325,0.0024694004,0.02063684,0.0045872643,-0.025006965,0.45838565,-1.3528619,1.8672413,-2.080889,-1.5746168,2.4370136,-0.10224981,0.36446184,-0.47083527,0.11117256,-0.02152373,-0.07693524,-0.30645782,0.59376204,-9.423578,0.98807013,47.674347,-0.87188256,-1.6733848,-3.7294068,-0.04609677,-0.13692877,-0.41174757,28.3125,29.5,28.625,32.875,35.3125,36.5
0.40009984,-0.3718394,-1.1261594,-0.44024393,-0.050198693,0.029215245,-0.13301198,-0.4199313,-0.3551134,0.085065395,-3.0727704,0.6297531,0.00034879716,-0.19343834,-0.028095169,0.0018298617,0.024160283,-0.008074963,-0.009750317,0.45736527,-1.3491536,1.8624634,-2.079758,-1.5748085,2.436157,-0.10312024,0.37553942,-0.48834977,0.13041699,-0.019143254,-0.093067564,0.038307227,0.19153613,-8.829816,0.9835985,47.71823,-0.9328319,-1.7120907,-3.6551332,-0.2689815,-0.09851393,-0.22685874,28.3125,29.5,28.625,32.875,35.3125,36.5
0.41009673,-1.0965021,-2.2166667,-0.6199901,-0.07067196,0.05034586,-0.12337749,-0.4219106,-0.35540777,0.08509169,-3.0725248,0.62991047,0.00032677854,-0.20103163,-0.03160833,0.0017466006,0.016488714,0.0036370074,-0.010604909,0.45630938,-1.3453377,1.8574828,-2.0784576,-1.5749758,2.4352338,-0.10372965,0.3859264,-0.49901232,0.1167595,-0.0175043,-0.09282469,-0.17238252,0.3256114,-8.791509,0.9455522,47.696735,-0.9764893,-1.7092698,-3.777154,-0.0100073945,-0.14413925,-0.09309445,28.3125,29.5,28.625,32.875,35.3125,36.5
0.42009714,-1.6984258,-2.3019872,-1.1766143,-0.093684085,0.09539449,-0.12529632,-0.42392784,-0.35569638,0.08505067,-3.072146,0.63014305,0.00022340301,-0.20126203,-0.031029062,-0.0024001792,0.02351801,-0.011378239,-0.026833963,0.45525327,-1.3413173,1.8523878,-2.0771358,-1.5752033,2.434375,-0.10434175,0.3991021,-0.51038,0.13155854,-0.017182909,-0.0772028,-0.63206923,0.57460845,-9.212888,0.94331104,47.709274,-1.0410514,-1.8472257,-3.8010564,-0.047925442,-0.16229627,-0.2818894,28.3125,29.5,28.625,32.875,35.3125,36.5
0.4300903,0.66827494,0.51274794,-1.410548,0.0020241216,0.01889957,-0.14403765,-0.4259657,-0.35602304,0.08497844,-3.0717664,0.63063896,-8.095529e-05,-0.20552716,-0.031049684,-0.0022761985,0.026638497,-0.015765605,-0.032020483,0.45418474,-1.3371538,1.8471607,-2.0757558,-1.5753115,2.4336684,-0.10654614,0.40908194,-0.527044,0.14354634,-0.018107023,-0.07420747,0.019153614,-0.1340753,-9.32781,0.95226496,47.678825,-0.9659692,-2.036939,-3.6067476,-0.26137185,-0.17849845,-0.43942118,28.3125,29.5,28.625,32.875,35.3125,36.5
0.4400895,-1.4964637,-1.267672,-1.9761026,-0.079657055,0.10288484,-0.13833421,-0.4280542,-0.35633096,0.084914386,-3.071366,0.6309457,-0.00031981533,-0.21593013,-0.033154566,-0.0016054702,0.020624645,-0.0021072228,-0.015389452,0.45309144,-1.3329287,1.8418096,-2.0743115,-1.5754923,2.4328218,-0.110322915,0.42107648,-0.54216945,0.13163997,-0.018871972,-0.09460302,-0.19153613,0.1340753,-9.844957,1.0350704,47.664497,-0.7701404,-2.3063145,-3.7396662,-0.05370161,-0.21136689,-0.3287089,28.3125,29.5,28.625,32.875,35.3125,36.5
0.45009443,-1.4410063,-1.6313391,-2.482757,-0.08107951,0.067617536,-0.11575751,-0.43020692,-0.35663897,0.084901005,-3.071017,0.63098,-0.0004168769,-0.21336548,-0.03011722,-0.005148255,0.03356146,-0.02382508,-0.0076585608,0.4519874,-1.3286818,1.8362821,-2.0727818,-1.5757331,2.4317877,-0.11125986,0.43020472,-0.5529337,0.15838721,-0.02105681,-0.103253335,-0.15322891,0.21068975,-9.940725,1.005978,47.71286,-0.9099917,-2.4149852,-3.968342,-0.30874774,-0.20962912,-0.12342246,28.3125,29.5,28.625,32.875,35.3125,36.5
0.4600898,-1.0740447,-2.0669367,-1.8734965,-0.09640596,0.07266447,-0.11904583,-0.43244007,-0.35694838,0.084913455,-3.0707223,0.6312122,-0.000296241,-0.22621483,-0.03554381,0.0010092239,0.019115025,0.00614489,-0.026047608,0.4508354,-1.3244126,1.8306774,-2.0713646,-1.5759853,2.4308221,-0.11172736,0.43495938,-0.56965154,0.13712563,-0.02117476,-0.08532775,-0.038307227,0.076614454,-9.825804,1.1313014,47.694946,-0.9912935,-2.032606,-3.8716292,-0.06828288,-0.23976243,-0.30534145,28.3125,29.5,28.625,32.875,35.3125,36.5
0.47009197,-0.63009214,-2.2397625,-1.8282578,-0.06454543,0.06573302,-0.12942475,-0.43467084,-0.35732332,0.08494563,-3.0704978,0.6315244,-0.00021914156,-0.22652747,-0.035050184,0.0013622465,0.02502498,-0.005786084,-0.023593394,0.44975558,-1.3201067,1.8249549,-2.069896,-1.5761532,2.4299693,-0.11186943,0.4414283,-0.58507353,0.15934423,-0.021310667,-0.08792061,-0.21068975,0.47884035,-9.595961,1.1022091,47.681515,-1.1151567,-2.0140603,-4.203648,-0.08637624,-0.2652695,-0.38608873,28.3125,29.5,28.625,32.875,35.3125,36.5
0.48009023,-1.9729531,-2.9947,-1.1212789,-0.11274858,0.091255166,-0.118611656,-0.43700647,-0.35766038,0.085023284,-3.0701988,0.63183475,-0.00010816001,-0.2352061,-0.036133792,0.00235629,0.021888869,-0.0001956353,-0.009578411,0.44857794,-1.3157033,1.8189434,-2.0682094,-1.576393,2.4290276,-0.116227046,0.4531497,-0.6036629,0.1596677,-0.021055741,-0.106291,-0.13407528,0.36391866,-9.481039,1.0843065,47.651955,-0.8961334,-1.9463832,-3.9030538,-0.213276,-0.330942,-0.1850289,28.3125,29.5,28.625,32.875,35.3125,36.5
0.49009743,-1.0467899,-1.3653231,-0.1982769,-0.07041697,0.080661185,-0.118590385,-0.43943453,-0.35806713,0.085082345,-3.0700614,0.6319813,0.00019769471,-0.24178565,-0.037227232,0.003269429,0.021027042,0.004427343,-0.02070707,0.4474377,-1.3111187,1.812776,-2.0667236,-1.5766095,2.4279995,-0.11803489,0.46271092,-0.6199561,0.16187294,-0.022271661,-0.09696388,-0.7469909,0.36391866,-8.734048,1.1335373,47.625084,-1.0177381,-1.7249355,-3.7482147,0.037323743,-0.36016443,-0.16733237,28.3125,29.5,28.625,32.875,35.3125,36.5
0.5001115,-0.723859,-0.19419885,-0.07540723,-0.020558449,0.09704903,-0.1235194,-0.44188878,-0.35847396,0.085076444,-3.0697496,0.63238055,0.00019543762,-0.24446957,-0.036791645,0.0014783329,0.027959097,-0.0044742296,-0.033645663,0.44627357,-1.3062966,1.806394,-2.0650318,-1.5768021,2.4271286,-0.118596815,0.4750312,-0.6367146,0.17737356,-0.024648549,-0.08456819,-0.38307226,-0.21068975,-8.6574335,1.1290656,47.672558,-1.0735016,-1.8800116,-3.6432562,-0.12595212,-0.38606238,-0.34992984,28.3125,29.5,28.625,32.875,35.3125,36.5
0.5100886,0.10236068,-0.09963296,-0.95081,-0.02317414,0.042286303,-0.13319522,-0.44435492,-0.35880756,0.085018836,-3.0692723,0.6328871,0.0002459863,-0.23879719,-0.033463877,-0.0005435307,0.033433653,-0.0070014037,-0.030138751,0.4450625,-1.301443,1.8000783,-2.0633795,-1.5771273,2.4262998,-0.11650276,0.4663418,-0.6232029,0.17714001,-0.028515145,-0.08596279,0.17238252,-0.49799395,-9.193734,0.9925471,47.68599,-0.83483326,-2.6200676,-3.3443103,0.00094263494,-0.35092622,-0.46389353,28.3125,29.5,28.625,32.875,35.3125,36.5
0.5200897,3.7911656,2.2161162,-2.310121,0.0725099,-0.087614335,-0.15279283,-0.44672605,-0.35910514,0.08497396,-3.0688112,0.6331383,0.00016057483,-0.23211649,-0.030655649,-0.0061141956,0.04139147,-0.016133409,-0.0077667837,0.44386393,-1.2967699,1.7939137,-2.0616086,-1.5774287,2.425322,-0.11312538,0.46428922,-0.61001265,0.17749724,-0.03189145,-0.104936846,1.4556746,-0.7086837,-9.653421,0.90750587,47.696735,-0.7594727,-3.2199097,-3.300321,-0.10940446,-0.26379097,-0.20896012,28.3125,29.5,28.625,32.875,35.3125,36.5
0.5300891,-0.17117903,-3.6846218,-3.3579865,-0.14611048,0.017437031,-0.12783776,-0.44897348,-0.35933244,0.08490632,-3.0681574,0.63333017,-0.00012682725,-0.2259374,-0.028389899,-0.004341677,0.041961804,-0.018874113,-0.023723096,0.44270054,-1.2922451,1.7879261,-2.0596426,-1.5778121,2.4243684,-0.11152883,0.45021072,-0.59945476,0.18378319,-0.03119165,-0.087380916,0.9959879,0.2681506,-10.630256,0.9030289,47.674347,-0.62102246,-2.93691,-3.5741482,-0.18701941,-0.14941767,-0.24508414,28.3125,29.5,28.625,32.875,35.3125,36.5
0.5400926,-0.5936858,-4.167138,-2.6087825,-0.14592913,0.028646758,-0.122947484,-0.45117205,-0.359639,0.08488181,-3.0677238,0.6336407,-0.0002313422,-0.22481385,-0.031617757,-0.0020458996,0.029801294,-0.0051505943,-0.027907914,0.44164613,-1.2878854,1.7820791,-2.0578897,-1.5780748,2.4235682,-0.10738859,0.44026428,-0.58996695,0.16662435,-0.026097722,-0.07909289,0.2873042,0.19153613,-10.28549,0.91198283,47.695843,-0.56107306,-2.9150753,-3.6196635,-0.16042905,-0.10820252,-0.34997758,28.3125,29.5,28.625,32.875,35.3125,36.5
0.5500922,0.34697974,1.1214037,-0.92384714,0.047006715,-0.0010174131,-0.1346262,-0.453486,-0.36003366,0.08494378,-3.0676363,0.63395935,0.000243767,-0.22216311,-0.03325499,0.0009884,0.021008259,6.7936155e-05,-0.019344816,0.4406272,-1.2835764,1.7761706,-2.056526,-1.5782889,2.422762,-0.10497071,0.42938524,-0.583799,0.1627567,-0.020398423,-0.08529106,0.0,-0.30645782,-9.232042,0.97240865,47.693153,-0.6263941,-2.9069557,-3.2901607,0.007161425,-0.14503095,-0.3293785,28.3125,29.5,28.625,32.875,35.3125,36.5
0.56005883,-0.40115672,1.5806874,0.6197101,0.029303972,0.03529195,-0.14703394,-0.4556749,-0.36038062,0.084987685,-3.0674236,0.63405746,0.00025016893,-0.21576872,-0.034169078,0.0043633655,0.0210308,-0.00080772105,-0.0059619844,0.43960974,-1.2793512,1.7703112,-2.0547884,-1.5784563,2.4218364,-0.09808788,0.41645995,-0.5782816,0.17088337,-0.020068357,-0.09179783,0.3256114,-0.9385271,-8.293514,0.9164598,47.667187,-0.85857874,-2.6763835,-2.9499586,-0.1231162,-0.15311688,-0.095816165,28.3125,29.5,28.625,32.875,35.3125,36.5
0.5700986,2.223519,0.78691065,-0.5142384,0.036953777,-0.10170023,-0.14460453,-0.45779803,-0.3606927,0.084969014,-3.0671012,0.6341857,0.00027002482,-0.20925826,-0.031924576,0.0034608727,0.024242666,-0.0035639429,-0.021316182,0.43863887,-1.2751712,1.7646593,-2.053159,-1.5787095,2.420991,-0.09521226,0.4058911,-0.56435806,0.17149587,-0.02169491,-0.07356055,0.6703765,-0.22984336,-8.6574335,0.8918391,47.657326,-0.90243423,-2.5324445,-3.0983763,0.005790472,-0.14748363,-0.20389366,28.3125,29.5,28.625,32.875,35.3125,36.5
0.5800898,-0.794229,-3.636176,-1.5957779,-0.15041822,0.050097182,-0.14022584,-0.4598024,-0.36096016,0.08493411,-3.0665417,0.63458604,-0.00014791545,-0.20243865,-0.028955577,-0.0015657012,0.027072052,-0.016558483,-0.030728243,0.43767875,-1.271064,1.7590407,-2.0511596,-1.578936,2.4203584,-0.09574926,0.4025147,-0.5507611,0.1742684,-0.0187082,-0.06470358,0.68953013,0.24899697,-9.710882,0.87617236,47.690468,-0.8036969,-2.9974535,-3.1903691,-0.26345396,-0.14175329,-0.32289913,28.3125,29.5,28.625,32.875,35.3125,36.5
0.5900927,1.7169476,0.5587126,-3.0235305,0.035623416,-0.10891766,-0.13115188,-0.4618228,-0.36126694,0.08488071,-3.0662372,0.635055,-0.00023232035,-0.20077662,-0.03066823,-0.0032328467,0.019398691,-0.005845311,-0.029811386,0.4367319,-1.267039,1.7536615,-2.0496466,-1.5790795,2.4197474,-0.092410736,0.39686328,-0.53637606,0.15256679,-0.01632706,-0.06230708,0.63206923,0.0,-10.170568,0.9992599,47.652847,-0.638286,-3.4017687,-3.4096117,0.01128971,-0.18449068,-0.48235095,28.3125,29.5,28.625,32.875,35.3125,36.5
0.60009867,-0.30803737,-0.70082086,-2.6356378,-0.022110699,0.027527083,-0.15111385,-0.4637421,-0.361556,0.08488558,-3.0658803,0.6353119,-0.0004815613,-0.1935254,-0.028186368,-0.0008593544,0.022567328,-0.013184854,-0.012962121,0.4358447,-1.2631979,1.748309,-2.0478356,-1.5792354,2.4190707,-0.09044959,0.38281167,-0.5278383,0.16592504,-0.016178628,-0.077197365,0.63206923,-0.68953013,-10.362105,0.87617236,47.688675,-0.63616204,-3.1507277,-3.1899455,-0.3293972,-0.23928574,-0.33703673,28.3125,29.5,28.625,32.875,35.3125,36.5
0.6100899,-1.4809254,-0.7473154,-2.1165924,-0.020104084,0.022564152,-0.1337711,-0.46567875,-0.36188015,0.08494724,-3.065813,0.6352539,-0.00027172655,-0.19347313,-0.028941905,0.00022803481,0.015792355,0.002990038,-0.008872386,0.4350057,-1.2595344,1.7431244,-2.0463822,-1.5793914,2.4182062,-0.08828583,0.3736139,-0.5149011,0.14462452,-0.016898816,-0.079128474,0.038307227,-0.34476504,-10.132261,0.95226496,47.67166,-0.57276076,-3.090519,-3.4800858,-0.024471108,-0.2948067,-0.15729856,28.3125,29.5,28.625,32.875,35.3125,36.5
0.6200899,-0.3213784,-0.048124738,-0.7723447,-0.011463618,0.0005722798,-0.14621493,-0.46760705,-0.3621555,0.08502993,-3.0656652,0.6355334,-0.000112154594,-0.18475853,-0.027509281,0.0021247605,0.021616094,-0.00607535,-0.019900441,0.4340956,-1.2559557,1.7379726,-2.0448449,-1.5795358,2.4174922,-0.08289923,0.3608039,-0.50717044,0.16049881,-0.018209213,-0.062706545,0.24899697,-0.4213795,-9.251196,0.9410752,47.675243,-0.7429483,-2.734342,-3.2728019,-0.28434747,-0.32810676,-0.27772775,28.3125,29.5,28.625,32.875,35.3125,36.5
0.6300895,0.7841544,-0.16998859,0.1036633,-0.008144825,-0.05116864,-0.14262597,-0.46947718,-0.36243683,0.08507673,-3.0654647,0.6358164,0.0001939241,-0.18626192,-0.029149776,0.0039785393,0.012770985,0.014233154,-0.02243707,0.4332926,-1.2524356,1.7330045,-2.0434763,-1.5797762,2.4168944,-0.08066148,0.35216394,-0.495699,0.13553749,-0.018719107,-0.05793928,0.45968673,-0.095768064,-8.695741,0.9835985,47.703007,-0.7217506,-2.8259237,-3.0939832,0.08134016,-0.33537036,-0.32601014,28.3125,29.5,28.625,32.875,35.3125,36.5
0.64009076,0.41795748,-1.4840493,0.08975461,-0.04982782,-0.04265935,-0.14792322,-0.4712614,-0.36268014,0.08507102,-3.0651145,0.6362358,9.1941874e-05,-0.1712831,-0.025249373,-0.00038325845,0.026413988,-0.01708307,-0.019231385,0.43246618,-1.2489145,1.7280935,-2.041886,-1.5799559,2.416379,-0.07582946,0.3441699,-0.483012,0.16498262,-0.017876925,-0.056316376,0.49799395,0.1340753,-8.63828,0.9365982,47.66539,-0.7865324,-2.8111525,-3.058009,-0.22788203,-0.3683663,-0.40286726,28.3125,29.5,28.625,32.875,35.3125,36.5
0.6500909,0.87052715,-0.45450827,-0.5654933,-0.010331122,-0.062473666,-0.13931915,-0.47297773,-0.36292666,0.08499641,-3.0647824,0.6363862,-8.9503475e-05,-0.17612317,-0.028317409,0.0034234347,0.012086284,0.011149922,-0.008891466,0.43169865,-1.2453953,1.7233523,-2.0404012,-1.5801357,2.4157522,-0.07465239,0.3356539,-0.4745239,0.13326213,-0.016832257,-0.0654948,0.80445176,-0.21068975,-8.925584,0.8224646,47.70838,-0.7705418,-3.0852299,-2.8064628,-0.01101928,-0.40126616,-0.27676666,28.3125,29.5,28.625,32.875,35.3125,36.5
0.6600959,0.20250773,-0.023161683,-1.7497609,-0.012664136,-0.008134847,-0.1472631,-0.47461686,-0.3631582,0.084912375,-3.064464,0.6362726,-0.00035487924,-0.16273467,-0.023472298,-0.004501748,0.02641494,-0.01743676,-0.0029990827,0.4309679,-1.2419817,1.7187532,-2.0388868,-1.580316,2.4149954,-0.071614295,0.33206868,-0.45694637,0.15118304,-0.017864734,-0.068336524,0.53630114,-0.34476504,-9.653421,0.8851263,47.699425,-0.7674943,-3.4935431,-3.1136575,-0.1293244,-0.40787128,-0.08009792,28.3125,29.5,28.625,32.875,35.3125,36.5
0.67008865,-1.1009104,-0.8249186,-2.1130435,-0.054048147,0.019821184,-0.13655052,-0.4761576,-0.36338362,0.0848406,-3.064062,0.6363631,-0.000734169,-0.16160733,-0.02217483,-0.0018296714,0.023739876,-0.0036303874,-0.016297001,0.4302963,-1.2387147,1.7142876,-2.0372756,-1.5804847,2.4144368,-0.07078546,0.31899303,-0.44369948,0.1374725,-0.021135341,-0.054180298,0.36391866,-0.6703765,-9.998186,0.87617236,47.71286,-0.63842666,-3.3965921,-3.2201161,-0.23944315,-0.382253,-0.10582581,28.3125,29.5,28.625,32.875,35.3125,36.5
0.6800957,-0.33874732,-0.31605017,-2.3646865,-0.040449407,0.044205155,-0.15436783,-0.47779462,-0.36361697,0.08483238,-3.0638611,0.6367053,-0.00055746007,-0.15910496,-0.022915563,-0.0015397166,0.020102406,0.006954437,-0.02193175,0.42957768,-1.2355663,1.7099155,-2.0360725,-1.5806655,2.4139605,-0.0669397,0.3098232,-0.42966825,0.12154486,-0.022180608,-0.044698294,0.019153614,-0.34476504,-10.228029,0.8291774,47.691364,-0.82652557,-3.524896,-3.3905525,0.016204903,-0.33881035,-0.228002,28.3125,29.5,28.625,32.875,35.3125,36.5
0.6900977,0.5801049,0.2726717,-1.799352,0.006132127,-0.03332167,-0.13835065,-0.47937304,-0.36381203,0.08484446,-3.063576,0.63700837,-0.00031981073,-0.1504931,-0.018904343,0.0022160204,0.026041718,-0.0061040455,-0.02569919,0.42889392,-1.2325635,1.7056736,-2.0348313,-1.5809416,2.413506,-0.06673054,0.2934248,-0.42240962,0.14504294,-0.022050107,-0.04072286,0.49799395,-0.4405331,-9.653421,0.8560339,47.667187,-0.6897076,-3.1579087,-3.1493044,-0.25122592,-0.25401443,-0.32740682,28.3125,29.5,28.625,32.875,35.3125,36.5
0.700089,0.015867248,-0.9403221,-1.1563729,-0.026418267,-0.018323498,-0.13122055,-0.4809065,-0.36400804,0.08494706,-3.0633433,0.63736045,-1.5193486e-05,-0.15034686,-0.020118596,0.001669673,0.018012473,0.0074816826,-0.027629295,0.4282345,-1.2297736,1.7014822,-2.0334985,-1.5811929,2.4130993,-0.06527062,0.28703123,-0.4083378,0.1216756,-0.020395141,-0.03735806,0.59376204,-0.4405331,-9.404425,0.8918391,47.678825,-0.5907347,-3.181879,-3.1527765,-0.033951037,-0.19565432,-0.42436528,28.3125,29.5,28.625,32.875,35.3125,36.5
0.7100976,-0.44420826,-2.4314058,-1.1896613,-0.09698065,0.003951801,-0.13374043,-0.48237547,-0.36421221,0.08502724,-3.0631645,0.637679,0.00019805625,-0.14176072,-0.018796647,0.003671687,0.018910376,0.00071069633,-0.018432844,0.42759985,-1.2270579,1.6974453,-2.0322268,-1.5813721,2.412689,-0.061944526,0.2716559,-0.39502278,0.13018231,-0.018396456,-0.043251034,0.19153613,0.2873042,-9.32781,0.8918391,47.690468,-0.5278141,-2.793486,-3.2398014,-0.080026075,-0.14355418,-0.45276615,28.3125,29.5,28.625,32.875,35.3125,36.5
0.72009885,1.3778361,0.19855814,-0.7015507,0.030810053,-0.060684536,-0.14270954,-0.48379004,-0.3644327,0.08506745,-3.0630412,0.6377411,0.00031946242,-0.1377488,-0.020485459,0.0033465547,0.015770962,-0.00084143924,-0.007030483,0.42701322,-1.2243512,1.6935147,-2.031007,-1.5815152,2.412159,-0.057996187,0.26696366,-0.3882637,0.12812029,-0.014945618,-0.050739966,0.61291564,-0.3256114,-8.944737,0.81351066,47.694946,-0.6183189,-3.1280408,-2.771987,-0.22932619,-0.10330471,-0.34942666,28.3125,29.5,28.625,32.875,35.3125,36.5
0.73008966,-0.48794574,-1.3153238,-0.9276144,-0.041877784,-0.01221222,-0.1349208,-0.48516873,-0.36463502,0.08511191,-3.0629263,0.6378073,0.00046071282,-0.13324425,-0.021329066,0.0006692188,0.0116048325,0.0037579183,-0.00062664365,0.42642662,-1.2217411,1.6897057,-2.0298278,-1.5816582,2.4116304,-0.0542258,0.2598764,-0.36966693,0.110649645,-0.013078397,-0.053398557,0.61291564,-0.24899697,-9.232041,0.9097417,47.675243,-0.7229953,-3.1644368,-3.0873022,0.0074521406,-0.1036728,-0.18682069,28.3125,29.5,28.625,32.875,35.3125,36.5
0.7400891,0.22296403,-1.0511159,-1.3351086,-0.024471406,-0.02350362,-0.13723367,-0.48645392,-0.36484766,0.085100934,-3.0627978,0.63787645,0.00045156787,-0.12356963,-0.019608213,-0.00017168302,0.01695593,-0.009189439,-0.004832426,0.42589995,-1.2191801,1.6860932,-2.0287106,-1.5817541,2.4111655,-0.050166093,0.2493078,-0.35690776,0.12253582,-0.012487579,-0.04513781,0.22984336,-0.038307227,-9.32781,0.8179876,47.70838,-0.8147726,-3.0721178,-3.0365617,-0.04139798,-0.098501556,-0.15561621,28.3125,29.5,28.625,32.875,35.3125,36.5
0.75009036,0.67891085,0.39871958,-1.0053694,0.012001058,-0.024533646,-0.1430193,-0.48766294,-0.36503497,0.08507419,-3.0625591,0.63794434,0.0003075607,-0.11816225,-0.017250342,-0.0024868827,0.018107234,-0.014902522,-0.016198529,0.4254079,-1.2166897,1.6825823,-2.0274904,-1.5818857,2.4107497,-0.05051131,0.24233975,-0.34267366,0.12105157,-0.011082204,-0.03412995,0.57460845,-0.49799395,-9.251195,0.81351066,47.716442,-0.7404045,-3.5015368,-2.9732132,-0.26677433,-0.10609266,-0.23973489,28.25,29.5,28.625,32.875,35.3125,36.5
0.7601002,-1.0813309,-1.5625554,-1.2992971,-0.06235401,0.019901622,-0.13372897,-0.48882785,-0.3652169,0.08504258,-3.062352,0.63818544,0.00018015948,-0.11837813,-0.017834922,-0.00041825636,0.010383637,0.0010103217,-0.017486248,0.42491627,-1.2143083,1.6792463,-2.0263836,-1.5819696,2.410438,-0.049807657,0.23193558,-0.32947835,0.10059079,-0.010625315,-0.032149643,0.40222588,-0.36391866,-9.481039,0.81351066,47.681515,-0.63600016,-3.4522777,-3.045837,-0.03819655,-0.11251406,-0.28715864,28.25,29.5,28.625,32.875,35.3125,36.5
0.7700887,0.18160234,-0.5914337,-1.7268462,-0.017986355,-0.01220098,-0.13917744,-0.48994708,-0.36537352,0.08495468,-3.0621316,0.6383646,2.9001203e-05,-0.10964203,-0.015835494,-0.0022653379,0.015752958,-0.010495361,-0.0146206645,0.42442548,-1.211962,1.6761078,-2.0254118,-1.5820655,2.4100904,-0.046561554,0.22301249,-0.31559372,0.10832207,-0.010734855,-0.03176731,0.40222588,-0.17238252,-9.653421,0.8403672,47.675243,-0.6333578,-3.5630646,-3.215878,-0.08730666,-0.116876096,-0.3153496,28.25,29.5,28.625,32.875,35.3125,36.5
0.7800896,0.68281347,-0.32181904,-1.4876468,-0.02049701,-0.027845558,-0.14290462,-0.49098656,-0.36548465,0.08488845,-3.0618029,0.63857824,-0.00026962414,-0.10432707,-0.015342299,-0.0020994209,0.015711,-0.013626226,-0.013645712,0.4239343,-1.2097601,1.6730703,-2.0242622,-1.5821851,2.409779,-0.04414781,0.21439719,-0.30508238,0.109264754,-0.009388854,-0.030340837,0.59376204,-0.34476504,-9.423578,0.8157518,47.707485,-0.60873026,-3.7569313,-2.971311,-0.2673521,-0.11702038,-0.33165562,28.25,29.5,28.625,32.875,35.3125,36.5
0.7900929,0.12608306,-0.3593747,-2.1063454,-0.043920986,-0.0071187797,-0.13836335,-0.4920212,-0.3656475,0.084887974,-3.0616515,0.6387549,-0.00027507686,-0.10385876,-0.015456492,0.0015806771,0.0075718425,0.005539595,-0.012306512,0.42351484,-1.2077041,1.6701177,-2.0233004,-1.582281,2.4094915,-0.04326008,0.19892359,-0.28813565,0.08696443,-0.00987497,-0.030796768,0.61291564,-0.17238252,-9.768343,0.82022345,47.68599,-0.6052288,-3.460422,-3.171334,-0.08475705,-0.12672277,-0.36299533,28.25,29.5,28.625,32.875,35.3125,36.5
0.80008906,-0.63790566,-2.2899432,-2.4460695,-0.07487618,0.03481959,-0.13373837,-0.49300653,-0.36579484,0.08486424,-3.061507,0.6388347,-0.0003073951,-0.09839258,-0.014350612,-0.00035241822,0.009333924,0.0005923729,-0.008452073,0.42310745,-1.2057168,1.6673197,-2.022403,-1.5823773,2.4091547,-0.04125779,0.19283506,-0.27576944,0.08589201,-0.009442845,-0.032655038,0.34476504,-0.019153614,-10.093954,0.8247004,47.66271,-0.5661665,-3.606944,-3.111493,-0.029862996,-0.13996729,-0.36210164,28.25,29.5,28.625,32.875,35.3125,36.5
0.8100898,1.2297101,1.4190952,-1.5092989,0.031302914,-0.066409,-0.13391165,-0.49400577,-0.36596,0.084908485,-3.0614924,0.6389244,-9.619443e-05,-0.090917096,-0.012635167,-0.00040807278,0.012213524,-0.0072154496,-0.0040706573,0.42271236,-1.2038625,1.6645702,-2.0216234,-1.5824608,2.408818,-0.038899284,0.18209837,-0.26288125,0.09201097,-0.008836702,-0.034686234,0.4405331,-0.57460845,-9.461885,0.82022345,47.695843,-0.55937654,-3.6400585,-3.1417212,-0.12871017,-0.13689685,-0.29464066,28.25,29.5,28.625,32.875,35.3125,36.5
0.82009095,0.071846604,0.2803171,-1.059993,-0.008745476,0.02166213,-0.14669368,-0.4948568,-0.3660887,0.08494479,-3.0613716,0.63899225,-0.00024356674,-0.087472126,-0.012502537,0.003967913,0.008788091,-0.002483226,-0.002535245,0.42234093,-1.2021775,1.6620134,-2.0206177,-1.582496,2.4085064,-0.03722434,0.16820908,-0.25413838,0.09142973,-0.0076415977,-0.034560658,0.49799395,-0.63206923,-9.212888,0.8314132,47.681515,-0.5664859,-3.4239638,-2.7073326,-0.25049964,-0.1766918,-0.16394308,28.25,29.5,28.625,32.875,35.3125,36.5
0.83008987,-0.5139505,-1.5503329,-1.7155166,-0.07572638,0.009591732,-0.13021515,-0.4957249,-0.36620033,0.084978364,-3.0612767,0.6390103,-0.00016396208,-0.08367788,-0.011452917,0.0003211675,0.007137526,0.0037017732,-0.0053587784,0.42196956,-1.2005382,1.659563,-2.019799,-1.5826048,2.40816,-0.03562229,0.16094436,-0.23186202,0.07014821,-0.008635242,-0.030132663,0.1340753,0.038307227,-9.653421,0.80456203,47.757637,-0.4693105,-3.2527046,-3.1343205,-0.09181602,-0.1715486,-0.094116114,28.25,29.5,28.625,32.875,35.3125,36.5
0.8400892,0.34216118,-1.7538204,-1.7977551,-0.04863102,-0.016188938,-0.13365303,-0.4965576,-0.3663116,0.0850007,-3.0612009,0.6391302,-1.4029062e-06,-0.081162356,-0.011426348,0.0032206338,0.0037732928,0.008603718,-0.009925135,0.4216221,-1.1989837,1.6572818,-2.0191305,-1.582712,2.4078982,-0.03440857,0.1503186,-0.22348878,0.06660828,-0.0075108097,-0.02436703,0.5363012,0.038307227,-9.519346,0.72622824,47.694054,-0.35687655,-3.4667103,-2.8711495,-0.0018789829,-0.14051294,-0.09775407,28.25,29.5,28.625,32.875,35.3125,36.5
0.8500895,0.60710734,0.27031425,-1.346587,0.02693192,-0.068118826,-0.12708095,-0.4973474,-0.3664191,0.085040726,-3.0611553,0.6392936,0.00018309406,-0.072545424,-0.0105151115,0.00085092604,0.008550601,-0.0046957303,-0.011376372,0.42128748,-1.1975479,1.6551279,-2.0185044,-1.582796,2.4076722,-0.030415086,0.14406087,-0.21187781,0.075400285,-0.006334634,-0.018933011,0.7852981,-0.4405331,-9.32781,0.8247004,47.709274,-0.410978,-3.5514865,-2.8328226,-0.12161696,-0.17329933,-0.13725674,28.25,29.5,28.625,32.875,35.3125,36.5
0.86008656,0.10615645,-0.798424,-1.0536966,-0.017348327,-0.02570837,-0.13339216,-0.4980115,-0.36654884,0.08510905,-3.061049,0.639364,0.00013688687,-0.063748084,-0.008830315,6.0702696e-05,0.011104662,-0.0108038625,-0.008831909,0.42106062,-1.196246,1.6530384,-2.0176423,-1.5828556,2.4075046,-0.027020346,0.13094553,-0.192746,0.076009154,-0.006120637,-0.01808661,0.7086837,-0.4405331,-9.11712,0.7933669,47.67614,-0.53256804,-3.4677835,-2.7601461,-0.2661108,-0.19552284,-0.14221522,28.25,29.5,28.625,32.875,35.3125,36.5
0.8700963,-0.13995357,-1.5031044,-1.514661,-0.054079033,0.014870145,-0.13660479,-0.49859795,-0.36661914,0.085083306,-3.0608513,0.63951075,-6.644745e-05,-0.062189233,-0.010136206,0.0011525982,0.0046568187,0.0021197791,-0.008053381,0.42079768,-1.1949908,1.6512474,-2.0169075,-1.5829157,2.4073613,-0.024238642,0.12101453,-0.17772013,0.056502927,-0.005518105,-0.016095797,0.3256114,-0.076614454,-9.385271,0.84708,47.693153,-0.6359229,-3.3812997,-2.9671917,-0.18502057,-0.2293118,-0.16802007,28.25,29.5,28.625,32.875,35.3125,36.5
0.88008976,-0.033301413,-1.1355952,-1.695047,-0.04569074,0.016335633,-0.13661009,-0.49923104,-0.36673772,0.08512934,-3.0609014,0.6395986,0.00012909545,-0.05870587,-0.009960285,-0.0009994791,0.0042790486,0.0042831893,-0.0074370895,0.4205584,-1.1938543,1.6495165,-2.016456,-1.5829395,2.40717,-0.021838995,0.11592571,-0.16381419,0.045578215,-0.006034311,-0.014312161,0.30645782,-0.038307227,-9.5385,0.8090337,47.711964,-0.64191514,-3.5444732,-2.9495473,-0.0881861,-0.21328795,-0.18836851,28.25,29.5,28.625,32.875,35.3125,36.5
0.89009607,0.6662215,-0.34873912,-1.4009651,-0.016503649,-0.017844759,-0.13443767,-0.49981838,-0.36686748,0.08513859,-3.0608923,0.639673,0.00032474313,-0.054075338,-0.009227497,-0.0006657573,0.0039352044,0.0033788576,-0.0061386316,0.4203911,-1.1927189,1.6478804,-2.016062,-1.5830115,2.4070506,-0.020118648,0.10684869,-0.15197918,0.04350582,-0.005324383,-0.013900155,0.51714754,-0.4213795,-9.289502,0.8224646,47.72808,-0.59493697,-3.5630062,-2.7922797,-0.007925952,-0.21286765,-0.2160915,28.25,29.5,28.625,32.875,35.3125,36.5
0.9000939,0.11547642,-0.0880172,-1.4053838,-0.00090671924,-0.030667929,-0.12687668,-0.5002984,-0.36691642,0.08506802,-3.0607824,0.6398579,0.00016299452,-0.046375293,-0.0067327665,-0.0036856674,0.00763871,-0.0060111126,-0.0055209477,0.42013955,-1.1916789,1.6465439,-2.015643,-1.583011,2.4069302,-0.018870229,0.09868174,-0.13450356,0.04428554,-0.0048305993,-0.013274768,0.49799395,-0.5363012,-9.289502,0.8179876,47.71017,-0.6596477,-3.7409,-2.9273858,0.014893077,-0.21856491,-0.24680054,28.25,29.5,28.625,32.875,35.3125,36.5
0.9100955,0.43225977,-0.34464145,-1.2852179,-0.005944273,-0.018452644,-0.1409636,-0.5007215,-0.3669957,0.08508076,-3.0607042,0.6398406,0.00017547958,-0.03942694,-0.0048860284,-0.003219648,0.010550896,-0.011601339,-0.005291978,0.4200083,-1.19082,1.6452554,-2.0151742,-1.5830835,2.4067993,-0.016767249,0.08713479,-0.12094419,0.04858722,-0.0051549166,-0.01139763,0.38307226,-0.28730422,-9.3661175,0.8314132,47.72002,-0.618999,-3.6902194,-2.9234505,-0.07978663,-0.2226091,-0.26966518,28.25,29.5,28.625,32.875,35.3125,36.5
0.92008984,0.19348447,-1.4329137,-1.4925185,-0.05147368,0.016720552,-0.1437537,-0.50104725,-0.36702713,0.08501483,-3.0604746,0.63984585,-0.00015353321,-0.034334097,-0.003941409,-0.0019812547,0.011043776,-0.012916863,-0.004178713,0.419865,-1.1899728,1.6441344,-2.0146,-1.5831436,2.4066918,-0.014786076,0.076494865,-0.10951908,0.049212895,-0.005039446,-0.010530771,0.30645782,-0.19153613,-9.481039,0.7463667,47.66091,-0.5726203,-3.5945287,-2.7970324,-0.255207,-0.22612312,-0.2693057,28.25,29.5,28.625,32.875,35.3125,36.5
0.9300902,0.26845217,-0.6985071,-1.6338501,-0.010779233,-0.017343014,-0.128729,-0.5014073,-0.36704585,0.08499973,-3.060347,0.63993144,-0.00026559268,-0.0317973,-0.0039598565,-0.00051498716,0.0071883397,-0.006318403,-0.0039055345,0.41967356,-1.1892332,1.6430739,-2.01416,-1.5831913,2.4065719,-0.013441253,0.06639794,-0.097031705,0.039233882,-0.004198156,-0.009471813,0.4405331,-0.30645782,-9.442732,0.784413,47.661808,-0.5815822,-3.561567,-2.6726182,-0.33969936,-0.26397285,-0.295492,28.25,29.5,28.625,32.875,35.3125,36.5
0.94009286,0.3481722,-0.5843231,-1.8658246,-0.03221319,-0.0033714669,-0.12945494,-0.5016748,-0.36710703,0.0849668,-3.0602539,0.639912,-0.0003170688,-0.027372152,-0.003948879,-0.0020133886,0.0044535706,-0.003188408,-0.005068787,0.41961432,-1.1886009,1.6422294,-2.0138657,-1.5832509,2.4065137,-0.011086226,0.057915453,-0.079463385,0.02621247,-0.002937465,-0.0059712576,0.49799395,-0.40222588,-9.634268,0.83589023,47.70211,-0.64169157,-3.7251308,-2.904005,-0.31787756,-0.2648989,-0.32117236,28.25,29.5,28.625,32.875,35.3125,36.5
0.9500958,0.27181324,-1.2371801,-1.9704587,-0.043321483,0.0031641964,-0.12940538,-0.5019386,-0.36713836,0.08498202,-3.0602314,0.64000094,-0.00026678876,-0.023111634,-0.003514436,-0.001680697,0.0032829272,0.00048390916,-0.0037269176,0.41949522,-1.188125,1.6415037,-2.0136406,-1.5832747,2.4064534,-0.008658081,0.04757908,-0.06439844,0.017667491,-0.0033415458,-0.0048847427,0.36391866,-0.22984336,-9.615114,0.8179876,47.7254,-0.6132504,-3.7900493,-2.921625,-0.28832275,-0.26377553,-0.32617235,28.25,29.5,28.625,32.875,35.3125,36.5
0.9600882,0.4362097,-0.97057414,-1.5311536,-0.017074835,-0.015065114,-0.1274666,-0.5021305,-0.36718532,0.08496874,-3.0602062,0.64008975,-0.00028373234,-0.01723643,-0.0036295396,-0.0023051815,0.002309346,0.00031689383,-0.00086214143,0.41943637,-1.187709,1.6409348,-2.0134757,-1.5832747,2.4064536,-0.0050085913,0.037831448,-0.04845928,0.011237546,-0.0023571863,-0.0041135508,0.45968673,-0.28730422,-9.500193,0.8090337,47.693153,-0.5629723,-3.7782462,-2.9370441,-0.21975859,-0.2657494,-0.32823068,28.25,29.5,28.625,32.875,35.3125,36.5
0.97009504,0.5824877,-0.89549756,-1.5663192,-0.02156541,-0.022469897,-0.12878606,-0.50227314,-0.36722618,0.084944494,-3.0602298,0.64001703,-0.0002693444,-0.012503032,-0.003470234,-0.0010977885,0.0018412819,0.0016857934,0.0008191037,0.41940156,-1.1873891,1.6405433,-2.013417,-1.5832747,2.4063702,-0.0020093876,0.02734967,-0.036302086,0.008137623,-0.0024554185,-0.0027968406,0.53630114,-0.30645782,-9.385271,0.7396539,47.64837,-0.52151024,-3.7908378,-2.9258032,-0.20308018,-0.25200927,-0.34559548,28.25,29.5,28.625,32.875,35.3125,36.5
0.98009026,-0.14942849,-1.3402683,-1.7387952,-0.029800951,-0.020308781,-0.12401659,-0.5023537,-0.36726695,0.08493443,-3.0602334,0.63992095,-0.00027567928,-0.0078912545,-0.002726402,0.00014836653,0.0008320598,0.0025465784,0.001807657,0.41941404,-1.1871772,1.640261,-2.013334,-1.5832862,2.4063222,-0.0003132886,0.01632164,-0.023524648,0.005197344,-0.0018563067,-0.0020979089,0.47884035,-0.22984336,-9.500193,0.73741806,47.687782,-0.45444232,-3.7635932,-2.8195462,-0.24293008,-0.2598129,-0.34627587,28.25,29.5,28.625,32.875,35.3125,36.5
0.99009407,-0.44533044,-0.6832403,-1.7607832,-0.01119967,-0.0169223,-0.12345512,-0.50241214,-0.36729327,0.08492879,-3.060236,0.6399798,-0.00024436606,-0.0042373003,-0.0016081609,0.00077710865,-0.00085805444,0.004035856,0.0014407625,0.41941416,-1.1870487,1.6400975,-2.0133235,-1.5832862,2.4063587,-4.3882645e-07,0.0066203712,-0.010684614,1.4660536e-05,-0.0008967345,-0.0014311157,0.28730422,-0.30645782,-9.5385,0.7553206,47.667187,-0.21056944,-4.041032,-2.7991314,-0.29982615,-0.2758721,-0.34509677,28.25,29.5,28.625,32.875,35.3125,36.5
1.0000911,0.27659142,-0.041640714,-1.3827665,0.0046045464,-0.0147766415,-0.12572765,-0.5024135,-0.36731037,0.08493997,-3.060262,0.6399278,-0.00014871254,0.0017692106,0.00022748117,-0.0011895044,0.00076259195,4.2852957e-05,0.0018821536,0.41945058,-1.1870637,1.6401037,-2.0133727,-1.58331,2.406359,0.0012011267,-0.0019179976,0.0060900603,-0.0039061778,-0.0007157935,-0.0006750144,0.4213795,-0.6895301,-9.404425,0.8314132,47.68062,-0.3240816,-4.2537193,-3.1224937,-0.31865898,-0.27266473,-0.3523435,28.25,29.5,28.625,32.875,35.3125,36.5
1.0101016,-2.5705109,-3.8047845,-1.6527709,-0.14399923,0.10959919,-0.14629696,-0.5023503,-0.36726588,0.084922485,-3.0601382,0.63988006,-0.00030087927,0.0009875027,0.00086655666,-0.0003451564,0.0034780707,-0.0018346196,0.0034077882,0.41945037,-1.1871231,1.6401972,-2.013251,-1.5833586,2.4063463,0.00056830107,-0.0004976648,0.0008835498,0.0026808837,-0.0024466678,-0.002813062,-0.4213795,0.2681506,-9.787497,0.81351066,47.739727,-0.36593285,-4.213847,-2.685029,-0.3508968,-0.24834889,-0.34303647,28.25,29.5,28.625,32.875,35.3125,36.5
1.020099,0.008807695,-0.095817775,0.093085244,-0.015616062,0.005980249,-0.0014500753,-0.5023849,-0.36728543,0.08494632,-3.0602267,0.6398238,-0.00017284519,-0.0013021685,-0.00042254195,0.0011209572,-0.0007915217,0.0047885086,0.0018057472,0.41945028,-1.1871232,1.64016,-2.0133245,-1.5833462,2.4062986,0.00037231555,-0.00069160585,-0.00086751697,-0.0031493658,-0.0012496872,-0.0014215873,-0.05746084,0.095768064,-9.308656,0.7732232,47.71017,-0.33337384,-4.1934576,-2.6659358,-0.30515438,-0.26326236,-0.3537311,28.25,29.5,28.625,32.875,35.3125,36.5
1.0300974,1.2754047,1.0954416,0.44970086,0.05981086,-0.034743518,-0.0028384232,-0.5024055,-0.36727476,0.084946334,-3.0602338,0.6398062,-0.00013456572,-0.00051129406,0.00021619131,0.0006056188,0.0011743254,0.0017975161,0.002590874,0.4194263,-1.187111,1.6401485,-2.0133474,-1.5833582,2.4062626,0.00023074119,-0.00039095682,-0.00080495887,1.0590334e-05,-0.0018274381,-0.0023413247,0.36391866,-0.3256114,-9.021352,0.7530795,47.694946,-0.3281256,-4.208635,-2.679388,-0.31203952,-0.2613271,-0.3454064,28.25,29.5,28.625,32.875,35.3125,36.5
1.0400918,-0.17713311,-1.5703053,0.16926704,-0.041101657,0.025260836,0.0015744105,-0.50239986,-0.36726046,0.08493993,-3.060176,0.6397743,-0.00011054478,0.0008026258,0.00054897304,-7.807629e-05,0.0020972746,-0.0024029606,0.0024316062,0.41943818,-1.1871109,1.6401604,-2.0133345,-1.5834183,2.4062626,0.00018363571,-0.00027253898,-0.00020499551,0.003502319,-0.0009490238,-0.0022372075,0.13407528,0.076614454,-9.32781,0.7866488,47.694946,-0.39807323,-4.237562,-2.758142,-0.3481985,-0.26932564,-0.35336643,28.25,29.5,28.625,32.875,35.3125,36.5
1.0500892,-0.0698531,-1.5808694,-0.36510193,-0.031703785,0.010067078,0.009163041,-0.50236857,-0.3672704,0.08492857,-3.060203,0.63970286,-0.00021460158,-3.7338956e-05,8.497587e-05,8.315786e-05,0.0004958917,0.00037247746,0.0018803347,0.41945022,-1.187123,1.6401967,-2.013312,-1.5833696,2.4062264,0.00015251512,-0.00012797843,-4.2220404e-07,-2.8631312e-05,-0.0006202637,-0.0017215031,0.05746084,0.17238252,-9.5385,0.77545905,47.67614,-0.42026097,-3.9715762,-2.552833,-0.3625571,-0.27077314,-0.3825821,28.25,29.5,28.625,32.875,35.3125,36.5
1.060092,1.1416576,0.90377176,0.035673972,0.03098896,-0.0155769475,0.0033539599,-0.502408,-0.36728403,0.084917456,-3.060239,0.63969165,-0.00011091719,-0.0008044015,-0.00029466784,-0.00090208167,-0.0009409019,0.0030512954,0.0025092254,0.4194502,-1.1870626,1.6401609,-2.0134099,-1.583382,2.4062142,0.00010433162,0.0010569895,0.0019089391,-0.0061638793,-0.00041553087,-0.002402543,0.19153613,-0.28730422,-9.385271,0.7866488,47.7245,-0.49763405,-3.7909591,-2.3909173,-0.40187436,-0.25178996,-0.37471843,28.25,29.5,28.625,32.875,35.3125,36.5
1.0700916,0.38118526,-0.9444273,0.17718689,-0.019078337,0.04306781,-0.009105153,-0.50239086,-0.3672924,0.084909946,-3.0602577,0.63960075,-0.00011204969,-0.00071089464,-0.0002487171,-0.0031293333,-0.000873909,0.002761164,0.0017188229,0.41947427,-1.1870737,1.6401981,-2.0134351,-1.583382,2.406179,6.834521e-05,0.003286815,0.004907282,-0.011090753,-0.00035707644,-0.0016497787,-0.019153614,-0.11492168,-9.481039,0.75755644,47.695843,-0.5131951,-3.6085067,-2.3169725,-0.53069925,-0.23900315,-0.35958874,28.25,29.5,28.625,32.875,35.3125,36.5
1.0800989,-0.031721406,-1.0054684,0.374583,-0.035637707,0.035626754,-0.0009575411,-0.50241464,-0.36727506,0.08488336,-3.0602794,0.6397209,-4.6688423e-05,-0.0019141168,-0.0007385622,-0.004699614,-0.0028465067,0.006970109,0.0016703582,0.4194262,-1.1870612,1.640272,-2.0135825,-1.5833696,2.4062028,-4.249404e-05,0.0051370882,0.007955183,-0.020637456,-0.000286116,-0.001715559,0.019153614,-0.05746084,-9.270349,0.78888994,47.729877,-0.62763345,-3.5055068,-2.0860767,-0.6133125,-0.24185947,-0.36367053,28.25,29.5,28.625,32.875,35.3125,36.5
1.0900903,0.5661945,-0.095497705,0.66056883,-0.014117169,0.007161591,-0.0024294748,-0.5024135,-0.36729857,0.08481951,-3.0603545,0.6396036,5.9620954e-05,-0.0021119139,-0.00082157395,-0.007727443,-0.0037341365,0.008804485,0.0020996851,0.41946217,-1.1870124,1.6404055,-2.013849,-1.5833696,2.4061549,-7.6075834e-05,0.0076164007,0.013509402,-0.03071375,-0.00023868385,-0.0021816853,0.095768064,-0.1340753,-9.040505,0.7351769,47.687782,-0.672845,-3.3389,-1.9146914,-0.67013276,-0.2528892,-0.3936485,28.25,29.5,28.625,32.875,35.3125,36.5
1.1000961,0.49826458,-0.23367779,0.55612516,-0.01397365,-0.0023961542,0.0033523655,-0.5024551,-0.36730137,0.08472828,-3.060401,0.6396342,0.00023354587,-0.0029533487,-0.0009529489,-0.011528321,-0.0047631552,0.011010215,0.0006541353,0.41945,-1.186903,1.640539,-2.0142124,-1.5833935,2.406155,-0.0004639772,0.011886076,0.01876503,-0.042659886,-0.00020474414,-0.0011272576,0.17238252,-0.038307227,-9.021352,0.7418897,47.67345,-0.6906059,-3.2941399,-1.9295294,-0.6975653,-0.25397757,-0.39338484,28.25,29.5,28.625,32.875,35.3125,36.5
1.1100913,0.10958165,-0.85814273,0.64962846,-0.027254988,0.030655658,-0.0031705867,-0.5024818,-0.36730915,0.08459727,-3.0604842,0.6397296,0.0003547333,-0.0043677073,-0.00165459,-0.015691925,-0.006671554,0.015169149,0.0006813122,0.41942608,-1.1867814,1.6407675,-2.0146844,-1.5833577,2.406179,-0.00037866118,0.017117387,0.024251452,-0.057952665,-0.00017925487,-0.0010732617,0.095768064,-0.038307227,-9.059659,0.7217513,47.68062,-0.7719025,-3.1979737,-1.9406433,-0.64810514,-0.23058608,-0.38948804,28.25,29.5,28.625,32.875,35.3125,36.5
1.1200889,0.0918115,-0.17542382,0.72600484,-0.02065126,0.022188349,-0.004324726,-0.5025329,-0.36730796,0.08438452,-3.0605388,0.6396849,0.0005123148,-0.006079597,-0.0019088188,-0.019552814,-0.008648485,0.019376406,6.0652503e-05,0.4194018,-1.1865281,1.6410335,-2.015312,-1.583382,2.4061189,-0.0011841037,0.02195303,0.029477399,-0.07266455,-0.00011188068,-0.0012625338,-0.05746084,-0.095768064,-9.097966,0.75755644,47.691364,-0.7203548,-3.3096771,-1.8859916,-0.47985756,-0.24934709,-0.38265923,28.3125,29.5,28.625,32.875,35.3125,36.5
1.130095,0.42496526,0.14332905,0.45757025,-0.001498527,0.00075580535,-0.0023378045,-0.502576,-0.36729974,0.084137335,-3.0605516,0.63974565,0.0006595309,-0.00290921,-0.0006200135,-0.024139073,-0.003844628,0.008620206,0.00012562807,0.41937792,-1.1862509,1.6413583,-2.0160048,-1.5834178,2.4061308,-0.0009919885,0.025849035,0.033599857,-0.06890131,-9.950958e-05,-0.0011336368,0.05746084,-0.15322891,-9.155427,0.73069996,47.701214,-0.8296463,-3.3464334,-1.833504,-0.5154831,-0.25759473,-0.3914811,28.3125,29.5,28.625,32.875,35.3125,36.5
1.1400942,0.20065871,-0.30825615,0.49023753,-0.008915381,0.009714196,-0.0053245644,-0.50261825,-0.36733449,0.08391435,-3.060673,0.6396974,0.0008270946,-0.0014474889,0.00083793444,-0.028709028,-1.2024414e-05,2.0202471e-05,-0.0009666246,0.41938946,-1.1859856,1.6416472,-2.01671,-1.5833935,2.406095,-0.002201438,0.031237079,0.03616172,-0.06743728,-8.960235e-05,-0.0012495993,0.038307227,-0.1340753,-9.174581,0.7396539,47.73077,-0.7414456,-3.3169644,-1.826261,-0.6272252,-0.25452834,-0.3690505,28.3125,29.5,28.625,32.875,35.3125,36.5
1.1500925,0.05073591,-0.3986272,0.4935778,-0.020342065,0.0056809103,-0.0031331417,-0.502604,-0.36731592,0.08357993,-3.060628,0.6396877,0.0006945318,-0.0008207655,0.0013225354,-0.029660419,0.0012222826,-0.0027547101,-0.0013589223,0.4193654,-1.1856375,1.6420649,-2.0173805,-1.583382,2.4060712,-0.0025108475,0.032181486,0.03666644,-0.06584835,-8.148925e-05,-0.0011661391,0.019153614,0.076614454,-9.002198,0.7239871,47.70032,-0.75570744,-3.474104,-1.7433523,-0.7485616,-0.24840246,-0.38280648,28.3125,29.5,28.625,32.875,35.3125,36.5
1.1600959,-0.35166484,-0.9219264,-0.0026020522,-0.036326114,0.021743832,0.00404075,-0.5025921,-0.36729077,0.083262004,-3.060552,0.639767,0.0005974583,-0.0019088465,0.0010840574,-0.030978547,0.00031338888,-0.0007309909,-0.0014032873,0.41934115,-1.1853131,1.6424736,-2.018029,-1.5833935,2.406107,-0.0028821637,0.034618374,0.037496965,-0.07133824,-8.9667796e-05,-0.0014944106,0.019153614,0.0,-9.423578,0.7396539,47.72092,-0.73839915,-3.5540748,-1.776531,-0.76468897,-0.24892075,-0.39578414,28.3125,29.5,28.625,32.875,35.3125,36.5
1.1700947,-0.5243123,-1.2627356,-0.77026236,-0.011215507,0.004985896,0.0109954765,-0.5026373,-0.36729884,0.08294553,-3.0605865,0.6398324,0.0006658215,-0.005111717,5.0181785e-05,-0.030525824,-0.0043182266,0.009567691,-0.0017819374,0.41931704,-1.1849295,1.6428326,-2.0188348,-1.583382,2.4061186,-0.0034890801,0.035077386,0.038673926,-0.084269285,-8.2794e-05,-0.0017268446,0.05746084,0.05746084,-9.634268,0.75084364,47.707485,-0.8029744,-3.646892,-1.7181518,-0.5570157,-0.23410423,-0.4108397,28.3125,29.5,28.625,32.875,35.3125,36.5
1.1800915,0.86653996,0.10437387,-0.35434803,0.007121624,0.009235318,-0.0071510277,-0.5027046,-0.36729702,0.08261907,-3.0606425,0.6398274,0.0007779186,-0.0028548301,0.0014539334,-0.031416833,-0.0006186018,0.0013417295,-0.002502706,0.4192689,-1.184522,1.6431931,-2.0196931,-1.583382,2.4060593,-0.0040717884,0.035141982,0.038633,-0.07527159,-8.9715315e-05,-0.0015858639,0.05746084,-0.1340753,-9.595961,0.69041777,47.713753,-0.82267225,-3.6728206,-1.7535102,-0.5353849,-0.24964547,-0.41164136,28.3125,29.5,28.625,32.875,35.3125,36.5
1.1900947,-0.022906221,-0.47804847,-0.27311176,0.020290682,-0.007675324,0.012095483,-0.50269985,-0.3672708,0.08230107,-3.0606081,0.6398195,0.0006985624,-0.00041639767,0.0027289598,-0.031391498,0.0030935884,-0.006957462,-0.002028373,0.4192326,-1.1841987,1.6436104,-2.0203722,-1.583382,2.4060228,-0.004346256,0.034124434,0.037544988,-0.0640836,-8.375201e-05,-0.0023314299,0.17238252,-0.22984336,-9.404425,0.7105615,47.68599,-0.8193234,-3.6117992,-1.6069294,-0.6758054,-0.26828027,-0.40292525,28.3125,29.5,28.625,32.875,35.3125,36.5
1.2000911,0.07205206,-0.5253705,0.097043276,-0.024182843,0.009362917,-0.0024807772,-0.5027117,-0.3672523,0.08203764,-3.060582,0.63987124,0.000663967,0.0009560245,0.0034287416,-0.030915637,0.004272394,-0.009577277,-0.0026125207,0.41919675,-1.1839119,1.6439351,-2.0209572,-1.583382,2.4060228,-0.0044744345,0.031912673,0.03862552,-0.060073975,-7.853205e-05,-0.0018745108,0.19153613,-0.076614454,-9.423578,0.7351769,47.687782,-0.8414125,-3.4005399,-1.6146715,-0.7961327,-0.24963178,-0.40127757,28.3125,29.5,28.625,32.875,35.3125,36.5
1.2100892,0.37459555,-0.61365885,0.1033708,-0.04078181,0.028457774,0.0029786886,-0.50269634,-0.36723748,0.08170811,-3.0605423,0.63980544,0.00054831273,-0.0024754107,0.001886687,-0.030501524,-0.0012157408,0.0026648014,-0.0023734572,0.41918468,-1.1835643,1.6443418,-2.0216215,-1.583382,2.405975,-0.0044669225,0.03233374,0.04055917,-0.075847544,-8.439437e-05,-0.0021110254,0.019153614,0.15322891,-9.289503,0.79560274,47.709274,-0.8047793,-3.458162,-1.6663239,-0.69634366,-0.22827041,-0.4091638,28.3125,29.5,28.625,32.875,35.3125,36.5
1.2200948,0.19457854,-0.7798266,-0.116644,-0.015981244,0.01016125,0.002666632,-0.50270927,-0.3671952,0.081387125,-3.060519,0.63995403,0.000561637,-0.0034890107,0.0017834686,-0.030759856,-0.0037675817,0.008338783,-0.0023730053,0.41911244,-1.183265,1.644823,-2.0224135,-1.583382,2.4059987,-0.0049951845,0.03124237,0.04462516,-0.0850501,-7.980331e-05,-0.0026429107,0.114921674,-0.019153614,-9.385271,0.71951014,47.696735,-0.778535,-3.3789282,-1.830439,-0.49505666,-0.24144016,-0.42095804,28.3125,29.5,28.625,32.875,35.3125,36.5
1.2300922,0.9378943,0.19349638,0.03596844,0.01746981,-0.006641732,-0.0037261068,-0.502753,-0.367203,0.08108766,-3.0606043,0.6399535,0.00064187567,0.00060445495,0.0033944696,-0.032311138,0.0019228995,-0.0043645683,-0.0019660965,0.41907677,-1.1829175,1.6451944,-2.0232236,-1.5833458,2.4059505,-0.004661763,0.031136619,0.04536099,-0.07176128,-7.481614e-05,-0.0027121739,0.21068975,-0.24899697,-9.346964,0.7732232,47.695843,-0.84789586,-3.377337,-1.9461131,-0.52998966,-0.25786024,-0.4140138,28.3125,29.5,28.625,32.875,35.3125,36.5
1.240089,0.75231653,-0.13894834,-0.09120909,-0.0022295823,0.010944536,-0.007862812,-0.50273496,-0.36715525,0.0807661,-3.0605128,0.6399529,0.00057231187,0.0032796753,0.004445042,-0.032979168,0.0060476605,-0.013580019,-0.0016188504,0.41904065,-1.1826177,1.6456498,-2.0238903,-1.5833935,2.4059267,-0.004442001,0.031257246,0.04431271,-0.06073884,-7.019629e-05,-0.0028361636,0.076614454,-0.05746084,-9.423578,0.75084364,47.692257,-0.8588718,-3.3018146,-1.8184264,-0.68433833,-0.24485956,-0.4200324,28.3125,29.5,28.625,32.875,35.3125,36.5
1.2500885,0.5940641,-0.63308007,-0.092067875,-0.025878815,0.036375187,0.00082557905,-0.5026957,-0.367082,0.0804377,-3.0603466,0.6399739,0.0003562716,0.00395595,0.005027313,-0.03374437,0.0068407487,-0.015355711,-0.0025205608,0.41898072,-1.182318,1.6460928,-2.0244286,-1.5834416,2.405903,-0.0048641637,0.031233802,0.046008628,-0.06046079,-6.511736e-05,-0.002356481,0.019153614,0.076614454,-9.481039,0.7665104,47.68062,-0.8516075,-3.3085942,-1.9055445,-0.7742964,-0.24870625,-0.40277305,28.3125,29.5,28.625,32.875,35.3125,36.5
1.2600976,0.85896885,-0.39543977,0.13818496,-0.030764943,0.034149207,-0.015356706,-0.5026743,-0.36704874,0.08011271,-3.0603454,0.6400095,0.00023821463,0.0012830809,0.0027810112,-0.03188245,0.0018216637,-0.0041796276,-0.0002598948,0.4189214,-1.1820308,1.6465844,-2.0251505,-1.5833935,2.4058661,-0.0032948125,0.030326629,0.04543674,-0.07124151,-6.07239e-05,-0.0030516272,0.076614454,0.0,-9.442732,0.784413,47.695843,-0.5973517,-3.2764487,-1.8787048,-0.71423495,-0.2650327,-0.41016573,28.3125,29.5,28.625,32.875,35.3125,36.5
1.2700944,0.6343457,-1.1436297,-0.17173186,-0.029477704,0.0048914975,0.0033548311,-0.50265944,-0.3670348,0.07977386,-3.0603023,0.6399606,0.00018746327,-0.0011185687,0.0001323271,-0.031851653,-0.0026330675,0.005754846,0.0013675208,0.41892222,-1.1816826,1.6470274,-2.0258849,-1.5834178,2.4058423,-0.00094038155,0.0321271,0.04575203,-0.084235996,-5.6885823e-05,-0.0023285684,0.13407528,0.15322891,-9.404425,0.7396539,47.717335,-0.7904484,-3.3319702,-1.8758458,-0.48200646,-0.24356389,-0.42864454,28.3125,29.5,28.625,32.875,35.3125,36.5
1.2800899,1.3814083,0.12755111,-0.072479926,-0.01683568,0.010377312,-0.021000266,-0.50263494,-0.36702782,0.0794332,-3.0602932,0.63990194,0.00010790288,0.0019505956,0.0016076454,-0.033368252,0.0028558357,-0.0065043257,0.0009902656,0.41892216,-1.1813467,1.6474942,-2.0266345,-1.5834059,2.4058068,-0.0010928971,0.033694778,0.044089947,-0.07070687,-5.3504034e-05,-0.0020992293,0.2873042,0.076614454,-9.423578,0.7038487,47.695843,-0.77708054,-3.435777,-1.8019329,-0.54018074,-0.252326,-0.4099085,28.3125,29.5,28.625,32.875,35.3125,36.5
1.2900934,0.38824126,-0.3235627,-0.061129477,0.017190877,-0.0012449499,-0.0013520649,-0.5026113,-0.36702526,0.079126105,-3.0602658,0.63995296,7.204266e-06,0.0042645037,0.0023571372,-0.032119535,0.0057602795,-0.012953012,0.0014691582,0.4189223,-1.1810358,1.6478995,-2.0272887,-1.583382,2.4058425,-0.00065751397,0.03118898,0.042241752,-0.059280746,-6.0601786e-05,-0.0021393865,0.21068975,-0.1340753,-9.404425,0.7866488,47.71465,-0.8131569,-3.5198355,-1.7629105,-0.70004225,-0.2620033,-0.4032277,28.3125,29.5,28.625,32.875,35.3125,36.5
1.3000929,0.047127374,-0.5844529,-0.17257197,-0.014999052,0.032226678,0.0021970407,-0.50252527,-0.36697516,0.07876262,-3.0600884,0.6398748,-0.0003084976,0.0028512212,0.0015972598,-0.03037416,0.0042097145,-0.009632275,0.0013044539,0.41892236,-1.1807125,1.6483897,-2.0278275,-1.5834178,2.4058187,-0.00049715117,0.030865913,0.038763177,-0.059139743,-4.2390447e-09,-0.0018150683,-0.019153614,-0.038307227,-9.442732,0.7396539,47.66808,-0.8369502,-3.552548,-1.9537977,-0.8315629,-0.24272251,-0.39897913,28.3125,29.5,28.625,32.875,35.3125,36.5
1.310096,-0.7414777,-1.858817,-0.68889457,-0.06062766,0.066642314,-0.0036084186,-0.5025268,-0.36699572,0.07848598,-3.0601513,0.63983124,-0.00035794647,-0.0022404662,-0.000802391,-0.02873957,-0.0028074328,0.006020964,0.0013724623,0.41892242,-1.1804004,1.6487249,-2.0284803,-1.5833577,2.4057827,-0.00032023207,0.031990197,0.037212357,-0.07586596,-5.030327e-15,-0.0017115943,-0.15322891,0.19153613,-9.80665,0.7597976,47.703007,-0.81999016,-3.588255,-1.7622895,-0.72460395,-0.25719562,-0.39221412,28.3125,29.5,28.625,32.875,35.3125,36.5
1.3200903,0.6918889,-0.35676393,-0.3898169,-0.016001794,0.019292638,-0.0009083141,-0.50259036,-0.3670085,0.07820591,-3.0602365,0.63975555,-8.6187996e-05,-0.004730215,-0.0018907117,-0.028620005,-0.0065167523,0.014294869,0.0012325819,0.41892242,-1.1800644,1.6490849,-2.0293572,-1.5834059,2.405723,-0.00036151623,0.03282302,0.03817987,-0.086732544,-5.969315e-21,-0.0016164697,0.038307227,0.05746084,-9.576807,0.7351769,47.679718,-0.8706068,-3.6655855,-1.6994387,-0.5045445,-0.25513428,-0.40260363,28.3125,29.5,28.625,32.875,35.3125,36.5
1.3300906,1.1210359,0.7800704,0.13683738,0.03011462,-0.02525279,0.00053752406,-0.5026505,-0.36703503,0.07793763,-3.0603266,0.63989174,9.843911e-05,-0.0023999144,7.563129e-05,-0.028051184,-0.0024325028,0.0051971655,-0.00027355916,0.41890988,-1.1797296,1.6494073,-2.0301778,-1.583382,2.4057827,-0.0017429221,0.03098398,0.0364891,-0.073228694,-7.0835796e-27,-0.0014876168,0.24899697,-0.30645782,-9.232041,0.7172743,47.681515,-0.7757822,-3.619667,-1.5676239,-0.5052588,-0.25148594,-0.40520662,28.3125,29.5,28.625,32.875,35.3125,36.5
1.3400983,0.98612607,-0.020993223,0.20166528,-0.0031428626,0.0031254843,-0.0053748833,-0.5026163,-0.3669882,0.07762673,-3.0602305,0.63987017,-5.286835e-05,0.0012755534,0.0012731864,-0.03021471,0.0032392696,-0.007475288,0.0006486425,0.41887423,-1.1794413,1.6498374,-2.0307605,-1.5834059,2.405747,-0.0010706402,0.032765757,0.03623326,-0.060873866,-8.405839e-33,-0.0017331956,0.17238252,-0.11492168,-9.270349,0.71951014,47.692257,-0.83182156,-3.6160774,-1.693079,-0.69448185,-0.24886118,-0.39325768,28.3125,29.5,28.625,32.875,35.3125,36.5
1.3500924,-0.010048931,-1.229072,0.08228065,-0.027620515,0.023038773,0.007382354,-0.5025582,-0.36698228,0.077288866,-3.060149,0.6397945,-0.0002939532,0.0016392174,0.0017450736,-0.029481793,0.003083189,-0.007106143,-0.00020705925,0.41889805,-1.1790944,1.650246,-2.031335,-1.5833935,2.405735,-0.0015329829,0.030590571,0.03744463,-0.06030591,-9.97492e-39,-0.0013399272,0.038307227,0.15322891,-9.461885,0.7396539,47.721813,-0.83540833,-3.600968,-1.6139342,-0.81871974,-0.24914376,-0.3896734,28.3125,29.5,28.625,32.875,35.3125,36.5
1.360097,0.45565867,-0.39991826,-0.21415865,-0.031597286,0.030881356,-0.006655137,-0.502568,-0.3669748,0.07700443,-3.0601578,0.6397191,-0.00027858306,-0.0019858447,-0.00019899479,-0.028727321,-0.00251462,0.0053664343,0.0008814416,0.41888618,-1.1787827,1.6506051,-2.0320103,-1.5834059,2.4056747,-0.0010536743,0.031366825,0.037956916,-0.075273156,-1.1e-44,-0.0019540999,0.0,-0.076614454,-9.481039,0.784413,47.70032,-0.8591453,-3.6188161,-1.7330551,-0.72330403,-0.254995,-0.38315248,28.3125,29.5,28.625,32.875,35.3125,36.5
1.3700888,0.1031136,-0.7308958,-0.2285065,-0.03544911,0.039730802,-0.006677395,-0.5025934,-0.36698607,0.07669817,-3.06022,0.6397914,-0.00024584917,-0.0033378683,-0.00059022836,-0.029478554,-0.004743879,0.010345232,0.00014123046,0.4188621,-1.1784347,1.6509889,-2.0328038,-1.5833577,2.4056869,-0.0013756964,0.03219022,0.04042933,-0.08401888,-0.0,-0.0015386122,0.076614454,-0.1340753,-9.5385,0.7239871,47.704796,-0.92711866,-3.6960492,-1.7448118,-0.5313804,-0.2392157,-0.40257096,28.3125,29.5,28.5625,32.875,35.3125,36.5
1.3800939,1.210797,0.43171635,0.102903455,-0.003464994,0.0044722375,-0.0032551808,-0.5026297,-0.3669747,0.07641402,-3.0602465,0.6398558,-6.904877e-05,-4.7020338e-05,0.0009395404,-0.029266404,-0.000673643,0.0012639756,0.00069445063,0.4188381,-1.1781362,1.6513976,-2.0336254,-1.5833935,2.405699,-0.0014577316,0.029598875,0.040872075,-0.07192639,-0.0,-0.0021702875,0.11492168,-0.21068975,-9.481039,0.7217513,47.694946,-0.9067825,-3.4547725,-1.8103333,-0.6003875,-0.23811111,-0.39059988,28.3125,29.5,28.5625,32.875,35.3125,36.5
1.3900884,0.8044882,-0.09858152,-0.11571362,0.014070148,-0.007838334,0.005205671,-0.5026464,-0.36696988,0.07613909,-3.0602787,0.6398445,-3.902738e-05,0.0016854893,0.002161798,-0.029461898,0.0027006632,-0.0062531456,-0.00057543936,0.41881388,-1.1778365,1.6517552,-2.0343158,-1.583382,2.405663,-0.0021266313,0.02963847,0.03909537,-0.06194213,-0.0,-0.0015659459,0.21068975,-0.11492168,-9.289502,0.7665104,47.70838,-0.86018944,-3.4355702,-1.7773981,-0.7283811,-0.2530462,-0.3783307,28.3125,29.5,28.5625,32.875,35.3125,36.5
1.4000942,0.31243792,-0.8195271,-0.16119221,-0.044899434,0.040115803,-0.004767457,-0.50258493,-0.36692265,0.07585356,-3.0601707,0.6397821,-0.00020186979,0.0005710496,0.0018417105,-0.028407115,0.0006332505,-0.0016345633,-0.00069912674,0.41880175,-1.1776093,1.6521982,-2.0348322,-1.5834178,2.405627,-0.0023948364,0.028219134,0.03957674,-0.066066206,-0.0,-0.0017121057,0.095768064,0.076614454,-9.385271,0.73741806,47.678825,-0.8471006,-3.2808871,-1.7440288,-0.80478096,-0.24286163,-0.37709558,28.3125,29.5,28.5625,32.875,35.3125,36.5
1.4100869,0.11857401,-1.1484077,-0.370457,-0.037686534,0.03494929,0.0015375088,-0.5025877,-0.36692002,0.07555068,-3.060209,0.6397327,-0.00017722568,-0.0039910027,-0.00021553386,-0.026403306,-0.0070076324,0.01541618,-0.00014588427,0.41878995,-1.1772982,1.6526183,-2.0355928,-1.5834059,2.4055789,-0.0023734097,0.026788205,0.041142564,-0.0848922,-0.0,-0.0022505692,0.019153614,0.13407528,-9.576807,0.76874626,47.691364,-0.8585061,-3.2442355,-1.7487322,-0.61465466,-0.23913601,-0.39580297,28.3125,29.5,28.5625,32.875,35.3125,36.5
1.4200963,0.64593685,-0.004725558,0.061541423,-0.004746258,0.014201165,0.0013842703,-0.50265026,-0.36694008,0.07530577,-3.0603633,0.63980615,0.000115402574,-0.002909509,0.00011109203,-0.027954927,-0.0055646226,0.012195291,-0.00019068515,0.41876608,-1.1770339,1.6530021,-2.0364902,-1.583382,2.4055789,-0.0021373152,0.028076328,0.042738527,-0.08424342,-0.0,-0.001969174,0.076614454,-0.095768064,-9.461885,0.72622824,47.73256,-0.8936403,-3.274279,-1.8854749,-0.4873668,-0.24289782,-0.3863392,28.3125,29.5,28.5625,32.875,35.3125,36.5
1.430057,1.0502002,0.34619468,0.24124496,0.0010336805,0.015778212,-0.010324974,-0.50266564,-0.36690742,0.074995175,-3.060336,0.6398391,0.00019649805,0.001014959,0.0020027333,-0.029776257,0.0006179851,-0.0016176386,-2.440227e-05,0.41873005,-1.176722,1.6534446,-2.037275,-1.5834297,2.405567,-0.0023387854,0.028845787,0.042640142,-0.06978557,-0.0,-0.002331953,0.11492168,-0.2681506,-9.308657,0.75084364,47.699425,-0.9240763,-3.2638464,-1.909433,-0.5751878,-0.2538434,-0.3510071,28.3125,29.5,28.5625,32.875,35.3125,36.5
1.4400936,0.49824032,-0.021065649,0.3867536,-0.0140842255,0.003645758,-0.0031946965,-0.5026413,-0.36688846,0.07469616,-3.0603158,0.639854,9.4505216e-05,0.0024782403,0.0026394187,-0.029533269,0.0031531737,-0.007269716,-0.00025536434,0.41870606,-1.1764345,1.6538633,-2.0379188,-1.5834059,2.405555,-0.002310894,0.028539523,0.04068246,-0.061323754,-0.0,-0.0020703387,0.15322891,0.038307227,-9.232041,0.683705,47.687782,-0.9190748,-3.1718469,-1.7796835,-0.719033,-0.22619358,-0.35545605,28.3125,29.5,28.5625,32.875,35.3125,36.5
1.4500891,0.4762716,-0.6913687,0.19352284,-0.044071727,0.03817432,-0.0016701971,-0.50260854,-0.36688185,0.07442185,-3.060282,0.63984656,1.8399705e-05,0.0015033697,0.0024279652,-0.02967706,0.0021816762,-0.0051084436,-0.0004908308,0.418718,-1.1761706,1.6542467,-2.0385063,-1.5834059,2.405567,-0.0026489354,0.029448869,0.040435567,-0.06435705,-0.0,-0.0021738529,0.05746084,0.05746084,-9.442732,0.74413085,47.681515,-0.9454631,-3.1798573,-1.8485615,-0.7963389,-0.23251948,-0.34836,28.3125,29.5,28.5625,32.875,35.3125,36.5
1.4600931,-0.18336473,-0.89769685,0.039031617,-0.036236167,0.023218071,0.00060772785,-0.5026379,-0.36684728,0.07410352,-3.0602767,0.6398266,5.783331e-05,-0.003368431,0.00040677327,-0.028340125,-0.0041790074,0.009096074,-0.0009671758,0.41865796,-1.1758225,1.6546544,-2.0392778,-1.5834297,2.405495,-0.0028886301,0.030878218,0.038847912,-0.07975957,-2.3193002e-06,-0.0019423246,0.076614454,0.019153614,-9.481039,0.7396539,47.689575,-0.8677739,-3.204503,-1.8332,-0.6141647,-0.24891861,-0.37109703,28.3125,29.5,28.5625,32.875,35.3125,36.5
1.4700978,1.2865362,0.6135033,-0.15939516,-0.008305795,0.019316403,-0.0056026564,-0.5026919,-0.36687943,0.073845364,-3.060414,0.63987696,0.0003046431,-0.002436269,0.0006552032,-0.029867545,-0.0025449612,0.005425734,-0.0004391115,0.41865802,-1.1755222,1.6550139,-2.0401504,-1.5834059,2.4055068,-0.0026371973,0.03275783,0.039370198,-0.07814716,-2.7522333e-12,-0.0022181633,0.095768064,-0.095768064,-9.481039,0.7911258,47.733456,-0.8663421,-3.3312325,-1.8170266,-0.5047413,-0.23707914,-0.35945076,28.3125,29.5,28.5625,32.875,35.3125,36.5
1.4800893,0.37703875,0.12965189,-0.12578455,0.003181912,0.0026295222,-0.0017117839,-0.5026716,-0.36687025,0.07352231,-3.0603874,0.63985217,0.00017094366,-3.436083e-05,0.001797776,-0.030022163,0.0018704445,-0.004640488,-0.0006702134,0.41864595,-1.1751746,1.6554068,-2.0408037,-1.583382,2.405483,-0.0027797888,0.033114765,0.03623591,-0.06437703,8.499205e-05,-0.00212589,0.076614454,-0.22984336,-9.32781,0.7553206,47.696735,-0.8810725,-3.3450148,-1.6510952,-0.6174458,-0.22072048,-0.34808686,28.3125,29.5,28.5625,32.875,35.3125,36.5
1.4900911,0.19112578,-0.9122216,-0.056773085,-0.006977514,0.020239422,0.0009189058,-0.5026478,-0.3668121,0.07319654,-3.0602703,0.6398066,2.6923493e-05,0.0015983842,0.0025419332,-0.03130357,0.0049615554,-0.011483664,-0.0008441891,0.418598,-1.1748503,1.6558264,-2.0414007,-1.5834297,2.405423,-0.0027873274,0.03472843,0.03546779,-0.057711657,5.7716625e-05,-0.001956668,0.095768064,0.0,-9.3661175,0.7038487,47.698532,-0.8380002,-3.431374,-1.6593938,-0.7858126,-0.23844254,-0.33196294,28.3125,29.5,28.5625,32.875,35.3125,36.5
1.5000966,0.2973735,-1.292692,-0.16013634,-0.035644304,0.032706104,-0.0065461285,-0.5026523,-0.36680615,0.07289788,-3.060231,0.6398942,-8.3015264e-05,-0.00082399556,0.0016338001,-0.030388908,0.0014046627,-0.0035104693,-0.0008824978,0.41857412,-1.174491,1.6561373,-2.042002,-1.5834059,2.4054592,-0.0030447121,0.034543924,0.0355563,-0.0663489,4.3698874e-05,-0.0021786776,0.076614454,0.114921674,-9.3661175,0.679228,47.675243,-0.87113094,-3.4090326,-1.7177227,-0.79017967,-0.24079356,-0.32151967,28.3125,29.5,28.5625,32.875,35.3125,36.5
1.5100882,0.9392986,-0.3016974,0.063971005,-0.027052203,0.028518911,-0.008786673,-0.50268656,-0.3668017,0.07259657,-3.0603027,0.6398528,1.3243181e-05,-0.004021265,0.00026249196,-0.030890794,-0.0032028488,0.006795431,-0.0012512935,0.41853818,-1.1741548,1.6565336,-2.0428212,-1.5833935,2.4053872,-0.0031311184,0.036504433,0.037280127,-0.08131875,3.5160847e-05,-0.0019010068,0.1340753,0.038307227,-9.404425,0.7217513,47.68062,-0.9015424,-3.467654,-1.6564159,-0.5514923,-0.22080877,-0.332767,28.3125,29.5,28.5625,32.875,35.3125,36.5
1.5200896,0.714555,0.059977207,-0.070901066,0.0058438634,0.0010455272,-0.00017658334,-0.50276256,-0.36679193,0.07229982,-3.060336,0.6400529,0.00020288436,-0.001955295,0.0008770397,-0.03183353,-0.00015861372,5.7297825e-06,-0.00071274396,0.4184784,-1.1737827,1.6568798,-2.043681,-1.5834059,2.4054472,-0.0026631532,0.037124358,0.037015684,-0.07423414,2.9414312e-05,-0.0019690208,0.19153613,-0.095768064,-9.461885,0.7217513,47.690468,-0.7531847,-3.601858,-1.683038,-0.5130798,-0.23359403,-0.33086777,28.3125,29.5,28.5625,32.875,35.3125,36.5
1.5301011,0.5788555,-0.12268089,-0.12576985,0.0016465425,-0.010053452,0.0070804884,-0.5027415,-0.36678293,0.071976826,-3.0603034,0.63998693,0.00010173126,0.0013147827,0.0014497893,-0.0322469,0.004615392,-0.010658042,0.0010241151,0.41847885,-1.1734349,1.6572756,-2.0443456,-1.5834059,2.405411,-0.0013256558,0.037346534,0.03462894,-0.060390774,2.5282448e-05,-0.002363671,0.15322891,-0.11492168,-9.442732,0.7150385,47.685097,-0.8477987,-3.6437917,-1.6305815,-0.6122105,-0.24211946,-0.31912202,28.3125,29.5,28.5625,32.875,35.3125,36.5
1.5400952,0.3102418,-0.18965548,0.11313621,-0.01637773,0.010119131,-0.0021202404,-0.5026888,-0.3667753,0.07165274,-3.0602212,0.6398919,-0.00017995205,0.0024764994,0.0021430955,-0.03151388,0.005557748,-0.0127348825,0.0004357398,0.4184908,-1.173076,1.6576232,-2.0448477,-1.583382,2.4053752,-0.0015831436,0.034900103,0.03549737,-0.056528054,2.2168557e-05,-0.0020317356,0.15322891,-0.038307227,-9.3661175,0.7620334,47.694946,-0.79556644,-3.6511512,-1.6452112,-0.75917745,-0.21988544,-0.32878757,28.3125,29.5,28.5625,32.875,35.3125,36.5
1.5500968,0.44144538,-0.4562178,-0.10435278,-0.029469643,0.030642893,-9.6617405e-05,-0.5026959,-0.36672315,0.07133138,-3.0601075,0.6398867,-0.00023546373,0.0013489837,0.0016237224,-0.030271858,0.002995664,-0.0069854315,-1.3331656e-06,0.4184428,-1.1727171,1.6579946,-2.0454838,-1.5834535,2.4053397,-0.0015591189,0.032906074,0.036628682,-0.0619543,1.9737548e-05,-0.0015727532,0.076614454,-0.038307227,-9.461885,0.7665104,47.66808,-0.75640345,-3.538274,-1.6330332,-0.7950002,-0.21325019,-0.30827433,28.3125,29.5,28.5625,32.875,35.3125,36.5
1.5600893,-0.47801992,-1.0787375,-0.33837438,-0.036645718,0.023758775,0.011573243,-0.5026744,-0.36672547,0.0710201,-3.060119,0.63994604,-0.0003472966,-0.0017652567,-2.1456895e-05,-0.029475875,-0.0022567578,0.0047440636,0.00080792466,0.41843098,-1.1723934,1.6584018,-2.0461705,-1.5833935,2.4053633,-0.001180861,0.03282894,0.038056325,-0.076161854,1.7787082e-05,-0.0020087557,-0.019153614,-0.038307227,-9.691729,0.7083204,47.664497,-0.8711741,-3.4760344,-1.7072732,-0.6458966,-0.23587844,-0.28945076,28.3125,29.5,28.5625,32.875,35.3125,36.5
1.5700907,0.26500905,-0.22989552,-0.38367802,-0.018933052,0.015190037,0.0005538623,-0.5026979,-0.36673984,0.07074883,-3.060208,0.6399479,-0.00019078045,-0.002401522,-0.00023196815,-0.02897989,-0.0036229375,0.007812933,0.0003769005,0.41843092,-1.1721059,1.6587971,-2.0469859,-1.583382,2.4053516,-0.001290932,0.031944007,0.038885362,-0.07946125,1.6187478e-05,-0.001689038,0.076614454,-0.019153614,-9.595961,0.71951014,47.674347,-0.8190994,-3.343552,-1.7299331,-0.47177452,-0.22102627,-0.3101567,28.3125,29.5,28.5625,32.875,35.3125,36.5
1.5800897,0.6193361,0.26367924,0.17356515,0.0003106552,-0.002278671,0.0013202245,-0.50272036,-0.36675003,0.070449054,-3.0602875,0.63983095,-7.797349e-05,0.00096333877,0.0013341447,-0.029843789,0.0015679974,-0.0037733044,1.0975627e-06,0.41843092,-1.1717702,1.659192,-2.047807,-1.583382,2.4052672,-0.0013808487,0.0317727,0.038092047,-0.065797135,1.4851839e-05,-0.0013983708,0.2681506,-0.19153613,-9.385271,0.7396539,47.68062,-0.8482911,-3.419806,-1.7101862,-0.5968869,-0.241707,-0.29841578,28.3125,29.5,28.5625,32.875,35.3125,36.5
1.5900888,0.39079434,-0.28825864,0.12081679,-0.0014548725,-0.0028744566,0.0056801015,-0.5027066,-0.36674392,0.070174485,-3.0602508,0.63986117,-0.00014401313,0.0041099475,0.002804004,-0.030931283,0.005678224,-0.012948718,-0.00012863768,0.41843086,-1.1714709,1.6595281,-2.0483906,-1.583382,2.405291,-0.0014729284,0.030966168,0.039620012,-0.056464106,1.3719796e-05,-0.001357451,0.15322891,-0.095768064,-9.193734,0.7038487,47.678825,-0.79165614,-3.2913733,-1.8040568,-0.75537527,-0.2271446,-0.27217495,28.3125,29.5,28.5625,32.875,35.3125,36.5
1.6000966,0.019575601,-1.0455337,0.0013934446,-0.027606342,0.020410806,0.006128847,-0.5026594,-0.36669913,0.06986031,-3.0601437,0.63987565,-0.00030266636,0.0027131173,0.0022784667,-0.029916327,0.0030069537,-0.0069722305,-0.00023111222,0.41840687,-1.1711836,1.6599716,-2.0489795,-1.5834059,2.405291,-0.0016213437,0.029559674,0.040618308,-0.06260283,1.2748125e-05,-0.00140576,0.076614454,0.019153614,-9.423578,0.7217513,47.71465,-0.853328,-3.1492152,-1.9529606,-0.80461526,-0.2189352,-0.29068285,28.3125,29.5,28.5625,32.875,35.3125,36.5
1.6100895,0.50558364,-0.85045004,-0.09238514,-0.040550895,0.04494151,-0.007937801,-0.5026653,-0.36668578,0.069568224,-3.0601578,0.63991743,-0.000320878,-0.0015030083,0.00040598217,-0.02883188,-0.0030277742,0.0065056537,-8.240804e-05,0.41837096,-1.1708714,1.660355,-2.049679,-1.583382,2.4052792,-0.0016421383,0.030356435,0.040460408,-0.07801103,1.19049855e-05,-0.0015806728,0.095768064,0.038307227,-9.519346,0.75084364,47.66808,-0.7662146,-3.1349878,-1.9699435,-0.5895091,-0.22734767,-0.27636972,28.3125,29.5,28.5625,32.875,35.3125,36.5
1.6200901,0.6201456,-0.099404074,-0.17389517,-0.014158197,0.015824497,0.0015767907,-0.50266576,-0.36671,0.069268465,-3.060243,0.63987947,-0.00022466308,-0.001366743,0.000338985,-0.029252246,-0.002582443,0.0055091805,1.38735295e-05,0.4183949,-1.1705593,1.660786,-2.0505164,-1.5833577,2.4052672,-0.001450336,0.031287447,0.040010966,-0.07739993,1.1166466e-05,-0.0014848262,-0.038307227,-0.038307227,-9.481039,0.7083204,47.701214,-0.8695574,-3.2633777,-1.8730731,-0.52703565,-0.20696989,-0.29293048,28.3125,29.5,28.5625,32.875,35.3125,36.5
1.6300925,0.68412995,0.36885196,-0.11904659,-0.014182809,0.019249015,-0.0029343239,-0.50270087,-0.36668622,0.0689949,-3.0602474,0.63989943,-8.069628e-05,0.0008278716,0.0013638689,-0.030316137,0.0016941628,-0.004058446,0.0001778769,0.4183591,-1.1702591,1.661156,-2.0512664,-1.5834059,2.405243,-0.0015152162,0.032874748,0.037816994,-0.06631615,1.0514217e-05,-0.0017096681,0.076614454,-0.22984336,-9.500193,0.7732232,47.707485,-0.8487344,-3.239077,-1.8238778,-0.5692093,-0.2180486,-0.24610622,28.3125,29.5,28.5625,32.875,35.3125,36.5
1.6400933,0.635229,-0.10665272,-0.022549493,-0.014807294,0.012645562,-0.0013237118,-0.5026776,-0.36667573,0.06869945,-3.0602021,0.6399284,-0.00022953084,0.0030209245,0.0023424034,-0.031514846,0.0057020313,-0.013017699,-9.8899845e-06,0.41834706,-1.1699349,1.6615027,-2.0518377,-1.583382,2.4052553,-0.0015119192,0.034331415,0.036389705,-0.05652825,9.933956e-06,-0.0015149444,0.095768064,-0.05746084,-9.404425,0.70608455,47.695843,-0.8539846,-3.3368247,-1.7617245,-0.7533382,-0.21827042,-0.28078228,28.3125,29.5,28.5625,32.875,35.3125,36.5
1.6500965,0.46008274,-0.77464384,0.11183659,-0.02257496,0.018789941,0.0035207511,-0.50264436,-0.366637,0.06840452,-3.0601351,0.63981754,-0.00035938772,0.001192199,0.0020139006,-0.03028722,0.0033079768,-0.0076477365,-0.0003601486,0.41832283,-1.1696473,1.6618975,-2.0524018,-1.5834059,2.4051712,-0.0022411707,0.03352234,0.035701428,-0.060915034,1.1788282e-11,-0.001895649,0.076614454,0.038307227,-9.32781,0.7486078,47.66808,-0.78639364,-3.2810626,-1.664084,-0.82046926,-0.21318933,-0.26774156,28.3125,29.5,28.5625,32.875,35.3125,36.5
1.6600903,0.13631015,-0.62813014,-0.024679355,-0.030814713,0.022495018,0.0066894353,-0.50264287,-0.3666206,0.06807658,-3.0600848,0.6399022,-0.0004307843,-0.002461845,5.5841847e-05,-0.029231204,-0.0020221856,0.004266781,-0.00019684681,0.41829905,-1.1692753,1.6622804,-2.0531008,-1.5834059,2.4052072,-0.001756219,0.034385264,0.035042416,-0.074167505,1.3988747e-17,-0.0015786792,0.076614454,0.1340753,-9.404425,0.71951014,47.687782,-0.83439815,-3.3845096,-1.615945,-0.6965301,-0.20867899,-0.26940325,28.3125,29.5,28.5625,32.875,35.3125,36.5
1.6701001,0.33145696,-0.79059243,-0.20895581,-0.02003088,0.027942892,-0.00048882334,-0.5026814,-0.3666103,0.06777843,-3.0600808,0.6399592,-0.00032169383,-0.004035353,-0.0006336406,-0.0293656,-0.0043454734,0.00945122,-5.2095238e-05,0.4182751,-1.1689153,1.662628,-2.0538695,-1.5834416,2.405219,-0.0017780064,0.035214838,0.03581107,-0.08144906,1.6599959e-23,-0.001747733,0.038307227,0.019153614,-9.519346,0.73069996,47.685097,-0.840608,-3.3512893,-1.6802822,-0.5270757,-0.22673748,-0.24416873,28.3125,29.5,28.5625,32.875,35.3125,36.5
1.6801015,0.7843189,0.064823486,-0.20005265,0.008294974,0.0058284113,0.0024627182,-0.5027166,-0.36663398,0.067498624,-3.060199,0.63985103,-0.00018668006,-0.0007425574,0.0009695948,-0.03062238,0.00081379985,-0.0021000367,0.00059046416,0.41827503,-1.1685796,1.6629761,-2.0546787,-1.5834178,2.4051347,-0.0019738046,0.035522245,0.035459142,-0.06876364,1.9698592e-29,-0.0025815996,0.095768064,-0.22984336,-9.461885,0.69937176,47.70838,-0.8339622,-3.383712,-1.6230254,-0.5984131,-0.19428763,-0.22465244,28.3125,29.5,28.5625,32.875,35.3125,36.5
1.690088,0.4853057,0.034535892,0.028288249,0.008130465,-0.0046627866,0.0073870155,-0.5026946,-0.36662427,0.06719737,-3.0601542,0.63988006,-0.00033548835,0.0014610129,0.0018257014,-0.0314495,0.004016482,-0.009230041,-0.0005671908,0.41826305,-1.1682438,1.6633233,-2.0552623,-1.5833935,2.405147,-0.0017798691,0.035675388,0.035441343,-0.06106609,2.3375638e-35,-0.0012270635,0.13407528,-0.11492168,-9.251195,0.7418897,47.66987,-0.84381294,-3.3286338,-1.6273634,-0.7379645,-0.21443757,-0.24959719,28.3125,29.5,28.5625,32.875,35.3125,36.5
1.7000892,0.11467699,-1.2885401,-0.03978082,-0.03790898,0.036490336,0.00076077547,-0.50270456,-0.36660093,0.066913635,-3.0601068,0.6398314,-0.000363643,0.0008993614,0.0017203218,-0.031492516,0.0030191645,-0.0070193773,1.5790598e-05,0.41823903,-1.1679081,1.6636351,-2.0558627,-1.5834297,2.4050992,-0.0019987489,0.03560735,0.03636283,-0.064354636,2.7739e-41,-0.002030195,0.05746084,0.11492168,-9.442732,0.74413085,47.686886,-0.8516304,-3.3172295,-1.6567087,-0.78987277,-0.20432608,-0.24013267,28.3125,29.5,28.5625,32.875,35.3125,36.5
1.7100992,0.077899754,-0.7241482,-0.061152365,-0.04335759,0.035100766,-0.0042623663,-0.5027173,-0.36659464,0.06660518,-3.0601244,0.63987416,-0.00040722504,-0.0033915488,8.840285e-05,-0.029654957,-0.0038218335,0.008285827,-0.000661484,0.418203,-1.1675487,1.6639942,-2.056574,-1.5833935,2.4050872,-0.0024286066,0.034364786,0.03760183,-0.08111255,0.0,-0.0017890189,0.11492168,0.095768064,-9.461885,0.7239871,47.68599,-0.77067685,-3.1864328,-1.6924303,-0.6287547,-0.20086011,-0.25477654,28.3125,29.5,28.5625,32.875,35.3125,36.5
1.7200886,0.75473183,0.098671235,-0.039716277,0.0069178236,-0.00432201,0.0028985688,-0.50274485,-0.3665912,0.06628071,-3.0601459,0.6399749,-0.00031990797,-0.0032981848,-8.088555e-05,-0.030825997,-0.0030986862,0.0066503487,-7.682394e-05,0.41817912,-1.1671762,1.6644024,-2.0574243,-1.5833935,2.405123,-0.0021130664,0.03670503,0.037041448,-0.08110748,0.0,-0.002057879,0.095768064,-0.15322891,-9.423578,0.7866488,47.695843,-0.7626213,-3.4951797,-1.6723175,-0.48397893,-0.20821923,-0.22983986,28.3125,29.5,28.5625,32.875,35.3125,36.5
1.7300972,0.74369675,-0.066114396,0.09245011,-0.007286459,0.019093173,-0.0012904027,-0.5027673,-0.3665813,0.0659959,-3.0601707,0.6399616,-0.00030734282,0.0010592481,0.001624466,-0.032791473,0.003063511,-0.007130493,0.00031538677,0.41814336,-1.1668406,1.6647362,-2.0581133,-1.583382,2.4050753,-0.0017489129,0.037120342,0.03789445,-0.06728021,0.0,-0.0020807781,0.095768064,-0.17238252,-9.404425,0.7150385,47.709274,-0.80786765,-3.48319,-1.6917293,-0.58307827,-0.18269023,-0.21229099,28.3125,29.5,28.5625,32.875,35.3125,36.5
1.7400981,0.9350914,-0.20261312,-0.029205522,-0.000914252,0.011214912,0.0035290192,-0.50271344,-0.36657324,0.065670066,-3.0601158,0.639834,-0.00048192276,0.003868662,0.0030199175,-0.03376037,0.007088736,-0.016125185,-3.4560544e-05,0.41816723,-1.1665047,1.6651448,-2.0587208,-1.583382,2.4050272,-0.0019578617,0.036768008,0.0384745,-0.057651877,0.0,-0.0019362674,0.22984336,-0.1340753,-9.308656,0.7150385,47.703903,-0.815763,-3.445539,-1.856827,-0.7534469,-0.21190497,-0.19800976,28.3125,29.5,28.5625,32.875,35.3125,36.5
1.7500998,0.3453279,-0.5647501,-0.010466269,-0.019454306,0.015310622,0.0013703612,-0.5026785,-0.36653402,0.065334305,-3.0599952,0.6398453,-0.0006712733,0.0023981675,0.002293163,-0.032371603,0.0041481787,-0.0095395185,-2.8864173e-05,0.41814333,-1.1661457,1.6655401,-2.0593092,-1.5834059,2.4050272,-0.0018534118,0.034976017,0.039149996,-0.063746594,0.0,-0.001840016,0.17238252,-0.019153614,-9.32781,0.69041777,47.681515,-0.78724074,-3.4575508,-1.894442,-0.7533579,-0.19587836,-0.21236113,28.3125,29.5,28.5625,32.875,35.3125,36.5
1.7600904,0.1861575,-0.8345332,-0.19926205,-0.02931524,0.02863621,-0.0018099917,-0.5026505,-0.36650562,0.06499089,-3.0599177,0.63984746,-0.00083674246,-0.00047578092,0.0011968331,-0.031879853,-0.00046944642,0.0007846066,-0.0003378662,0.41811928,-1.1657737,1.6659487,-2.0599601,-1.5834059,2.4050152,-0.002136697,0.03496257,0.040941045,-0.076833665,0.0,-0.0018190467,0.095768064,0.0,-9.423578,0.7329411,47.701214,-0.758914,-3.629199,-1.9943161,-0.6461288,-0.20476754,-0.20496723,28.3125,29.5,28.5625,32.875,35.3125,36.5
1.77009,0.5146578,-0.6156021,-0.8814893,-0.021072932,0.022181345,0.00083041034,-0.50267,-0.36651444,0.06468192,-3.0599864,0.63986343,-0.00075068726,-0.0015603635,0.00047439928,-0.030953754,-0.002257466,0.004794059,-0.00030857814,0.41810748,-1.1654265,1.6663545,-2.0607994,-1.583382,2.4050035,-0.001779921,0.034474712,0.040226605,-0.08001741,0.0,-0.0014928645,0.05746084,0.038307227,-9.691729,0.7620334,47.70211,-0.8388792,-3.5206957,-1.9990867,-0.5027229,-0.19642866,-0.19466776,28.3125,29.5,28.5625,32.875,35.3125,36.5
1.7801002,0.24715304,-0.24634531,-0.63013357,-0.018751642,0.011507308,0.0072154766,-0.5026598,-0.3665022,0.06439958,-3.0599718,0.6398605,-0.00072118104,0.0018402559,0.00197342,-0.031589404,0.0028408184,-0.006607145,-9.2754366e-05,0.41810748,-1.1651388,1.6667498,-2.0614889,-1.5834059,2.4050035,-0.0017477976,0.033947084,0.039359424,-0.06613563,0.0,-0.0016716073,0.095768064,-0.11492168,-9.653421,0.7217513,47.717335,-0.8126691,-3.493826,-1.8805189,-0.63066757,-0.21073619,-0.19116732,28.3125,29.5,28.5625,32.875,35.3125,36.5
1.790089,0.57305104,-0.17571838,-0.051748984,-0.0030539986,0.0034961263,-0.0024485672,-0.50265664,-0.3664809,0.06411337,-3.0599568,0.63987696,-0.0007818742,0.0024108163,0.002464778,-0.030295884,0.0038267255,-0.008798281,-0.0005847486,0.41807136,-1.1648278,1.6671089,-2.0621212,-1.5833935,2.4049797,-0.00210151,0.032161772,0.03759019,-0.060176633,0.0,-0.0015315271,0.095768064,-0.11492168,-9.385271,0.8023209,47.71554,-0.80085874,-3.4425287,-1.8493979,-0.7864011,-0.20643863,-0.19637653,28.3125,29.5,28.5625,32.875,35.3125,36.5
1.8000884,0.7545452,-0.54825574,-0.068809174,-0.033779334,0.030006096,-0.0062292814,-0.5026605,-0.3664669,0.06383409,-3.0599275,0.63992745,-0.0008237196,-0.0005785167,0.00084705534,-0.028308716,-0.00046637448,0.000799532,0.00012569291,0.41804755,-1.164504,1.6674308,-2.0627344,-1.5833935,2.4049914,-0.0016787995,0.03169055,0.03548563,-0.06811862,0.0,-0.0018225097,0.05746084,0.0,-9.251195,0.7284641,47.681515,-0.7950283,-3.284884,-1.744792,-0.79962146,-0.19102708,-0.1963315,28.3125,29.5,28.5625,32.875,35.3125,36.5
1.810094,-3.353059,-1.857375,12.967053,-0.119348735,0.27473783,-0.017995613,-0.50270367,-0.36647388,0.06357239,-3.0600634,0.63991976,-0.0006387584,-0.0061483956,-0.0013005527,-0.025193855,-0.008774282,0.019378942,0.00024421155,0.41801134,-1.164217,1.6678137,-2.063578,-1.5833577,2.404931,-0.002190512,0.029976211,0.034726992,-0.086005636,0.0,-0.0024598602,-0.32561144,0.63206923,-11.626244,0.7329411,47.699425,-0.74433255,-3.2315893,-1.5912873,-0.53745794,-0.20490597,-0.19141218,28.3125,29.5,28.5625,32.875,35.3125,36.5
1.8200929,-2.844927,1.0108755,13.703322,-0.11146767,0.50168705,-0.04334372,-0.50284004,-0.36658302,0.063476086,-3.0604641,0.6399147,7.5817574e-05,-0.007729519,-0.002983986,-0.01977853,-0.012678915,0.02491129,0.0008600121,0.4180596,-1.1640508,1.6680154,-2.0645454,-1.583309,2.4049194,-0.0013719024,0.025056504,0.028166212,-0.08116881,0.0013213758,-0.0022699886,0.7469909,-0.6512228,-8.523358,0.7016076,47.667187,-0.7983725,-2.6626778,-1.0971413,-0.3436805,-0.19567692,-0.18295266,28.3125,29.5,28.5625,32.875,35.3125,36.5
1.830099,-5.251202,-2.2901034,18.89726,-0.21569312,0.72588927,-0.05111949,-0.50287426,-0.36662632,0.0633879,-3.060668,0.63992184,0.00041300632,-0.002178262,-0.0012356184,-0.01947621,-0.0062582847,0.007590811,0.0015196309,0.41808373,-1.1639918,1.6682667,-2.065148,-1.5832728,2.4049191,-0.00086810905,0.022301853,0.026175074,-0.05799391,0.0025361502,-0.0024294,0.21068975,0.019153614,-8.90643,0.7665104,47.737934,-0.91109824,-2.2210894,-0.8904571,-0.50345564,-0.1922763,-0.18419294,28.3125,29.5,28.5625,32.875,35.3125,36.5
1.8400999,-6.249075,-1.6205051,20.284477,-0.1959,0.80132747,-0.046952795,-0.5028954,-0.36662027,0.063245825,-3.0607395,0.6399191,0.0005588905,0.0015692853,-0.0007651854,-0.020108443,-0.0048102173,-0.0030405174,0.0020848003,0.4180599,-1.1638606,1.668518,-2.0656474,-1.5832719,2.4048834,-0.0005449055,0.020890392,0.02718145,-0.04729965,0.005555489,-0.0026968427,-0.24899697,0.038307227,-8.504205,0.7463667,47.705692,-1.0127816,-1.859885,-0.81870013,-0.6550747,-0.16608676,-0.16890717,28.3125,29.5,28.5625,32.875,35.3125,36.5
1.8500979,-5.9274406,-1.0725363,20.269642,-0.17831935,0.80482155,-0.046885945,-0.50287664,-0.3666754,0.06302105,-3.0608573,0.6398299,0.00044595593,0.0013329922,-0.0013241747,-0.023368916,-0.004363661,-0.006608847,0.0018168025,0.41809595,-1.1635824,1.6687568,-2.0661628,-1.5831517,2.4048474,-0.00037819412,0.027357634,0.02606782,-0.04920966,0.0065927138,-0.0022720504,0.13407528,-0.22984336,-8.331821,0.6769922,47.71823,-1.0358499,-1.9833841,-0.652215,-0.660277,-0.12828538,-0.15870216,28.3125,29.5,28.5625,32.875,35.3125,36.5
1.8600898,-5.4592156,-2.0726445,20.335724,-0.16011788,0.6650522,-0.036015697,-0.50286114,-0.3666604,0.06274772,-3.0608215,0.63982296,0.00029846016,0.0013902,-0.0005756713,-0.028360836,-0.003843017,-0.010410657,0.0002622699,0.41807142,-1.1632684,1.6690577,-2.0666802,-1.5831269,2.4048235,-0.0019872165,0.03380554,0.029963229,-0.055871785,0.007652338,-0.002338891,-0.19153613,0.038307227,-9.193734,0.7172743,47.703903,-0.9928647,-2.133303,-0.932047,-0.5622154,-0.09950505,-0.16360709,28.3125,29.5,28.5625,32.875,35.3125,36.5
1.87009,-3.5597034,-1.4944263,20.058645,-0.17720135,0.63043207,-0.04664923,-0.5028628,-0.3666328,0.062418263,-3.0607586,0.6398861,9.469352e-05,0.0007689484,-0.00056008087,-0.030755604,-0.0048738564,-0.0107571,-0.0004813451,0.41801107,-1.1628593,1.66937,-2.0672681,-1.5830911,2.4048114,-0.0029557354,0.03743481,0.03156492,-0.061210908,0.008723057,-0.002576934,0.22984336,-0.019153614,-9.576807,0.7038487,47.684196,-0.95655274,-2.3770142,-0.829742,-0.41092664,-0.053654823,-0.15796827,28.3125,29.5,28.5625,32.875,35.3125,36.5
