Tylouw/Master_Thesis_Code/test_recorded_data/real_test6/insertion_3_2026-02-24_18-35-48.csv
timestamp[s],tcp_force_x[N],tcp_force_y[N],tcp_force_z[N],tcp_force_rx[Nm?],tcp_force_ry[Nm?],tcp_force_rz[Nm?],tcp_pose_x[m],tcp_pose_y[m],tcp_pose_z[m],tcp_pose_rx[rot_vec_x],tcp_pose_ry[rot_vec_y],tcp_pose_rz[rot_vec_z],tcp_velo_x[m/s],tcp_velo_y[m/s],tcp_velo_z[m/s],tcp_velo_rx[rot_vec_x/s],tcp_velo_ry[rot_vec_y/s],tcp_velo_rz[rot_vec_z/s],q1[rad],q2[rad],q3[rad],q4[rad],q5[rad],q6[rad],qd1[rad/s],qd2[rad/s],qd3[rad/s],qd4[rad/s],qd5[rad/s],qd6[rad/s],tool_acc_x,tool_acc_y,tool_acc_z,current_of_whole_robot[A],voltage_of_whole_robot[V],current_J1[A],current_J2[A],current_J3[A],current_J4[A],current_J5[A],current_J6[A],temp_J1[C],temp_J2[C],temp_J3[C],temp_J4[C],temp_J5[C],temp_J6[C]
7.9099846e-07,-0.3109993,-0.26901758,1.1514473,0.0006465657,-0.0027783737,-0.029102597,-0.38153303,-0.34953514,0.08494396,-3.0784583,0.62490237,-0.00017787852,-0.00078443723,-0.00045195417,-6.8526624e-06,-0.0018668238,0.003302848,9.698615e-05,0.47916603,-1.4235624,1.9549755,-2.1004274,-1.5708054,2.454145,-5.180773e-25,-1.0605007e-05,0.0011497253,-0.0049311644,0.00012491964,-9.68201e-05,0.095768064,-0.05746084,-8.791509,0.7396539,47.694054,-0.24452183,-3.0841565,-2.211985,-0.4550401,0.17055255,-0.23943138,28.3125,29.5,28.625,32.875,35.25,36.5
0.010053923,0.5096069,1.2315907,0.5737397,0.035469074,-0.028755661,-0.039050236,-0.38154152,-0.34953406,0.084914014,-3.0784545,0.6249403,-0.00023033423,-0.0013896696,-0.00076340494,0.001513381,-0.0026097987,0.0047625476,9.152656e-05,0.47914195,-1.423503,1.9549869,-2.1004746,-1.5707816,2.454145,-2.2519276e-34,-0.0013397257,-0.0012911193,-0.002798991,0.00011103134,-9.074606e-05,0.0,0.19153613,-9.021352,0.7396539,47.693153,-0.42269036,-2.3778405,-2.97936,-0.40295488,0.15564373,-0.28143921,28.3125,29.5,28.625,32.875,35.25,36.5
0.020055551,-1.7770123,-1.5928506,-0.4785448,-0.058114383,0.06897226,-0.056808174,-0.38149932,-0.34954622,0.084856056,-3.078395,0.6247528,-0.0004768011,-0.0075444756,-0.0007408109,-0.001660819,0.0013605612,-0.0030148786,0.0038885167,0.47918797,-1.4233887,1.9549693,-2.1003892,-1.5707573,2.4540815,-0.005776617,0.017572999,-0.016863562,0.0025911285,0.00014741956,-0.0096547045,-0.45968673,0.57460845,-9.768343,0.7150385,47.71823,-0.57283086,-2.562894,-3.199615,-0.4681116,0.16492754,-0.26291797,28.3125,29.5,28.625,32.875,35.25,36.5
0.03010001,-1.0769536,-0.76818734,-0.47943115,-0.040430028,0.058080364,-0.11381052,-0.381626,-0.34956,0.08484127,-3.0784209,0.6248181,-0.0005238036,-0.013861029,-0.0015255897,-0.00029178028,-0.002475411,0.0010183157,-4.038854e-05,0.47906604,-1.4231461,1.9547261,-2.1003897,-1.5707091,2.4539971,-0.011145333,0.024469797,-0.027510254,0.0009884563,0.0016647176,-0.011090803,-0.68953013,0.3256114,-9.864111,0.81351066,47.652847,-0.674883,-2.543193,-3.2100043,-0.4339496,0.18964694,-0.27670032,28.3125,29.5,28.625,32.875,35.25,36.5
0.04010176,-0.33835942,0.5035467,-0.14296575,0.02238556,0.032795265,-0.16196755,-0.38181904,-0.3495665,0.08482186,-3.0783868,0.62492627,-0.00045949323,-0.020602416,-0.0023064404,0.0016621527,-0.00598205,0.00562998,-0.001676057,0.47892004,-1.4227957,1.9543756,-2.100414,-1.5707449,2.4539232,-0.016572509,0.03122629,-0.039622854,0.00063162635,0.0026234998,-0.014876982,-0.19153613,-0.076614454,-9.595961,0.74413085,47.642998,-0.656198,-2.4889445,-3.0313544,-0.38388562,0.15784696,-0.27468127,28.3125,29.5,28.625,32.875,35.25,36.5
0.050100397,-0.84754556,-0.9887284,-0.30295458,-0.0013549719,0.008107944,-0.15604486,-0.38205138,-0.34958044,0.08487225,-3.0784588,0.6250386,-0.00034199847,-0.023693526,-0.0024413115,0.001478528,-0.0053890552,0.0037216311,-0.0035871866,0.47871506,-1.422517,1.9539307,-2.1003644,-1.5707206,2.4537795,-0.019389985,0.037809547,-0.04746901,0.0038610634,0.0029697544,-0.015779352,-0.1340753,0.24899697,-9.595961,0.71951014,47.71017,-0.6408558,-2.3761218,-3.1504116,-0.35872954,0.1833271,-0.25493088,28.3125,29.5,28.625,32.875,35.25,36.5
0.060054366,-0.5370805,-1.6105907,-0.090648346,-0.03077484,0.009423236,-0.15666547,-0.38231733,-0.3496186,0.08491517,-3.0785403,0.6250738,-0.00023649802,-0.027904412,-0.003263955,0.002040975,-0.006969793,0.0046211104,-0.0036776506,0.47852197,-1.4221303,1.9533771,-2.1003044,-1.5706962,2.4535983,-0.02239374,0.04440322,-0.056515124,0.004784348,0.00394343,-0.01868868,-0.076614454,0.4405331,-9.500193,0.7463667,47.698532,-0.5747468,-2.1943932,-3.2573676,-0.33457372,0.15866151,-0.22601193,28.3125,29.5,28.625,32.875,35.25,36.5
0.07005325,-0.26215297,-0.4634782,0.39824048,-0.01434299,0.011675301,-0.1569404,-0.38261402,-0.34968907,0.08494578,-3.0786533,0.62521064,-0.00015111633,-0.03202259,-0.004268961,0.002499349,-0.00806963,0.0052417186,-0.0024015023,0.4783293,-1.4216474,1.952752,-2.1002915,-1.5706242,2.453477,-0.024804017,0.051553067,-0.066063434,0.0061252187,0.004619993,-0.022370115,-0.15322891,0.2681506,-9.136273,0.7866488,47.652847,-0.6319683,-2.0797215,-3.3104687,-0.29497927,0.14601225,-0.18705237,28.3125,29.5,28.625,32.875,35.25,36.5
0.08005178,-0.5834619,-0.28856984,0.39654112,0.010719674,0.02612857,-0.15969408,-0.38299033,-0.3497304,0.08498646,3.078753,-0.62519187,1.9462417e-05,-0.034897566,-0.004685639,0.0013706788,-0.006818277,0.0023505222,-0.0025205119,0.47804064,-1.4210799,1.9519962,-2.1002314,-1.5706004,2.4531643,-0.02681772,0.06006338,-0.07378562,0.008481016,0.0048330263,-0.024259876,-0.17238252,0.05746084,-9.251195,0.8314132,47.66539,-0.7221966,-1.9415342,-3.4799705,-0.29183894,0.14439471,-0.15779954,28.3125,29.5,28.625,32.875,35.25,36.5
0.09005189,-1.4143208,-0.70442927,-0.1998142,-0.010111029,0.026750818,-0.1545353,-0.3833415,-0.349798,0.08499931,3.078682,-0.62523437,5.5444438e-05,-0.03966995,-0.006013204,0.0020201223,-0.0071114143,0.0028843437,-0.0021831987,0.47779992,-1.4204283,1.9511908,-2.1000984,-1.5705398,2.4529595,-0.028838191,0.06890592,-0.08607451,0.011321396,0.0048296964,-0.02661071,-0.36391866,0.28730422,-9.461885,0.80456203,47.6636,-0.80609953,-1.8897189,-3.4494421,-0.2724321,0.13752362,-0.129365,28.3125,29.5,28.625,32.875,35.25,36.5
0.10005197,-0.95982945,-0.9779507,-0.47030774,-0.041795664,0.046797745,-0.16057836,-0.38378698,-0.34982985,0.08501854,3.078625,-0.6253576,2.955328e-05,-0.045548514,-0.0062608905,0.0014742622,-0.0074827657,0.003204747,-0.0060939454,0.47743824,-1.4196798,1.9502543,-2.099943,-1.5705274,2.4526825,-0.033862855,0.07954124,-0.097028054,0.0111860605,0.0049913577,-0.027717713,-0.36391866,0.38307226,-9.80665,0.78888994,47.696735,-0.6737059,-1.7151394,-3.4343095,-0.2819026,0.143814,-0.13203932,28.3125,29.5,28.625,32.875,35.25,36.5
0.11005212,-0.86906326,-1.1520299,-0.27817476,-0.013931011,0.02713549,-0.15316221,-0.38429797,-0.34992126,0.085068256,3.0784407,-0.62539804,-0.00018231089,-0.05245922,-0.008507218,0.0022922833,-0.010919092,0.0073428303,-0.0091789635,0.4771011,-1.4188713,1.9492091,-2.0999196,-1.5704798,2.4523945,-0.036860824,0.09050356,-0.111010835,0.008951533,0.0061163763,-0.027622096,-0.19153613,0.36391866,-9.461885,0.7665104,47.677036,-0.67935216,-1.8447002,-3.2592008,-0.23239878,0.1340096,-0.19394326,28.3125,29.5,28.625,32.875,35.25,36.5
0.12005235,-0.9156938,-0.6059474,0.40708458,-0.050313037,0.035779126,-0.16017483,-0.38483778,-0.35002902,0.085108034,3.078289,-0.62548137,-0.0002528231,-0.05795444,-0.009899116,0.0023598126,-0.011711639,0.008018291,-0.00922756,0.4767522,-1.4179311,1.9480075,-2.099776,-1.5704073,2.4521174,-0.03960479,0.101146884,-0.12369904,0.010036006,0.0064939437,-0.030309677,-0.21068975,0.36391866,-9.308657,0.8247004,47.689575,-0.7495338,-1.855031,-3.0880442,-0.19936523,0.138707,-0.25280723,28.3125,29.5,28.625,32.875,35.25,36.5
0.13005193,-0.35405967,-0.060397457,0.88820004,-0.0033971278,0.00758694,-0.1607601,-0.38544515,-0.35013926,0.08514108,3.0781252,-0.6254831,-0.00046866207,-0.060115136,-0.010795784,-0.00024678282,-0.010223221,0.0033251464,-0.0048975637,0.47636792,-1.4169064,1.9467505,-2.0997512,-1.570371,2.4517558,-0.040416747,0.1118636,-0.13032404,0.010799448,0.007324783,-0.035446487,-0.05746084,0.21068975,-9.059659,0.75084364,47.625084,-0.9152369,-1.8160305,-3.375093,-0.15340176,0.10008672,-0.27030337,28.3125,29.5,28.625,32.875,35.25,36.5
0.14005189,-0.2063116,0.023040438,0.5949323,0.0111056855,-0.009902133,-0.15382387,-0.386069,-0.35025042,0.08513467,3.0779805,-0.625605,-0.0004523434,-0.06310772,-0.011546286,-0.00093364593,-0.008401635,0.0008563536,-0.0023449545,0.47593567,-1.4157382,1.9453958,-2.0996306,-1.5702752,2.4514186,-0.041448254,0.12055484,-0.1397207,0.014543661,0.0068329917,-0.039024767,0.05746084,0.11492168,-8.944737,0.8403672,47.66539,-1.0345227,-1.8996208,-3.3771615,-0.10365234,0.12883423,-0.31406265,28.3125,29.5,28.625,32.875,35.25,36.5
0.15005189,-1.0272791,-1.4440154,-0.28989467,-0.017115735,0.021741685,-0.14909725,-0.38672346,-0.3503564,0.08513742,3.0779397,-0.6256326,-0.00042152472,-0.06867495,-0.01267439,-0.0009511195,-0.008554671,-0.001064879,-0.0016957877,0.47550237,-1.414497,1.9439076,-2.0993898,-1.5702385,2.4510086,-0.04503962,0.13227187,-0.15433392,0.019080466,0.0078324145,-0.043258317,-0.19153613,0.45968673,-9.32781,0.81351066,47.640312,-1.1907818,-1.8492954,-3.1885543,-0.1025131,0.10579425,-0.3611853,28.3125,29.5,28.625,32.875,35.25,36.5
0.16005173,-2.1291416,-1.6777929,-0.48358577,-0.06134333,0.060292386,-0.15311082,-0.3873971,-0.35048285,0.08508581,3.0778892,-0.6256396,-0.00017823845,-0.074006036,-0.012125715,-0.00075832685,-0.010114365,-0.0009370671,0.000107830434,0.47503206,-1.4130892,1.9423503,-2.09915,-1.5701064,2.4505498,-0.051522233,0.13943356,-0.16345863,0.020225624,0.009145927,-0.051541556,-0.34476504,0.34476504,-9.80665,0.8403672,47.711063,-1.1163852,-1.8614435,-3.3983488,-0.123308875,0.10441916,-0.32692218,28.3125,29.5,28.625,32.875,35.25,36.5
0.1700524,-0.99632835,-0.0114977155,-0.13867103,0.012571563,0.03764459,-0.1675356,-0.38819677,-0.3506187,0.08509521,3.0777445,-0.62545073,-0.00025013747,-0.07883459,-0.012603409,-0.003170084,-0.009053713,-0.0029090343,0.007482641,0.47447908,-1.4116553,1.9406494,-2.0990307,-1.5699981,2.4498982,-0.054895066,0.15248692,-0.1728842,0.018854462,0.009097054,-0.062281482,-0.3256114,0.038307227,-9.576807,0.86498255,47.691364,-1.1132997,-2.0924683,-3.5374856,-0.05367326,0.100853905,-0.1730837,28.3125,29.5,28.625,32.875,35.25,36.5
0.18005198,-0.52759784,-0.011022056,0.3132125,0.011587751,0.023613298,-0.15974092,-0.3890628,-0.35074198,0.08513434,3.077596,-0.62544364,-0.00044219612,-0.086265646,-0.012138112,-0.0013668247,-0.010030487,0.0013642276,-0.0038256103,0.47388873,-1.4101753,1.9388145,-2.098863,-1.5699629,2.4493234,-0.06162515,0.15988167,-0.18610652,0.020442778,0.007999463,-0.057694342,-0.24899697,0.11492168,-9.212888,0.8224646,47.67345,-0.99443936,-2.0642903,-3.4130645,0.0026717954,0.07563357,-0.10149419,28.3125,29.5,28.625,32.875,35.25,36.5
0.1900526,-1.6941454,-1.9571087,0.024057347,-0.05761236,0.03674803,-0.16035625,-0.38993087,-0.35085812,0.085103035,3.077541,-0.6255318,-0.00032473018,-0.09017206,-0.012748721,-0.00086765684,-0.009051228,-0.0009378809,-0.0133940885,0.473264,-1.4085023,1.9368871,-2.0985725,-1.5698909,2.4487617,-0.06399152,0.16797763,-0.19837607,0.02711532,0.008161178,-0.050487276,-0.3256114,0.57460845,-9.251195,0.87617236,47.687782,-0.99759614,-1.9906439,-3.3808541,-0.0346433,0.12796514,-0.20049773,28.3125,29.5,28.625,32.875,35.25,36.5
0.20005369,-0.8400686,-0.23773676,0.25871134,4.646778e-05,0.021912608,-0.15685555,-0.3908889,-0.35099936,0.0851097,3.077336,-0.6257995,-0.00036428438,-0.09592164,-0.012255061,-0.00096177607,-0.01120506,0.0005061626,-0.020289395,0.47258982,-1.4067711,1.9348177,-2.098346,-1.5697945,2.4482818,-0.070550986,0.17557983,-0.2069375,0.025814284,0.009407408,-0.0501464,-0.24899697,0.28730422,-9.174581,0.9298854,47.681515,-0.83721995,-1.8523932,-3.4108033,0.001371216,0.11561206,-0.29615676,28.3125,29.5,28.625,32.875,35.25,36.5
0.21005271,-0.63687587,0.040659558,0.067644686,0.013861567,0.02101312,-0.16456072,-0.39186817,-0.35112032,0.08504104,3.0772164,-0.62610185,-0.00019415138,-0.10045263,-0.011981373,-0.0026588528,-0.008744114,-0.006060141,-0.023725005,0.47185603,-1.4048568,1.9326986,-2.0980918,-1.5696858,2.447753,-0.075318344,0.18842013,-0.21988976,0.032904807,0.010191013,-0.0514729,-0.2681506,0.019153614,-9.346964,0.8224646,47.70659,-0.6190428,-2.136474,-3.4073508,-0.042300012,0.10915166,-0.42693615,28.3125,29.5,28.625,32.875,35.25,36.5
0.22010079,-1.228383,-0.86326283,0.022503229,-0.009091507,0.026536163,-0.15428169,-0.39287505,-0.35120037,0.084994026,3.0771656,-0.6264859,-1.2678128e-05,-0.10236523,-0.012783811,-0.0027659528,-0.0059297727,-0.009770628,-0.012458251,0.47106445,-1.4029443,1.9304961,-2.0976942,-1.5696381,2.4472086,-0.07487877,0.19551876,-0.22995384,0.040478833,0.009364838,-0.06229685,-0.15322891,0.21068975,-9.3661175,0.86498255,47.678825,-0.67671657,-2.0980656,-3.4315758,-0.17726758,0.15291929,-0.4640183,28.25,29.5,28.625,32.875,35.25,36.5
0.23010167,-0.35983804,-0.8444479,-0.1349868,-0.050983757,0.030220103,-0.17076267,-0.39393708,-0.35132343,0.08495799,3.0771806,-0.6265161,0.0001275202,-0.10659044,-0.014050559,-0.0023031314,-0.006168902,-0.008199027,0.0037564964,0.4703083,-1.4008998,1.9281038,-2.097263,-1.5696024,2.4464707,-0.075864546,0.20320894,-0.24068506,0.042040337,0.0088487845,-0.07949279,-0.13407528,0.2873042,-9.423578,0.82022345,47.691364,-0.9171307,-2.055447,-3.4314435,-0.2983518,0.17949641,-0.2813891,28.25,29.5,28.625,32.875,35.25,36.5
0.24005526,-0.05445599,-1.7036344,-0.16212282,-0.04731916,0.008920721,-0.16461773,-0.39499143,-0.3514866,0.08490217,3.0771632,-0.6262817,0.00034461913,-0.1131137,-0.016293144,-0.0017801276,-0.010754768,-0.0017233391,0.0013050975,0.4695753,-1.3988069,1.9257106,-2.0968935,-1.5694703,2.4455948,-0.07813287,0.21251087,-0.2517265,0.035943203,0.009960668,-0.079304844,0.019153614,0.47884035,-9.5385,0.93436235,47.719128,-0.82059395,-2.1253276,-3.5814333,-0.34217894,0.216484,-0.15147972,28.25,29.5,28.625,32.875,35.25,36.5
0.2500529,-0.6386815,-1.0564003,-0.100204274,-0.041144643,0.024968807,-0.15880664,-0.39615178,-0.35163143,0.084841646,3.077068,-0.6264987,0.00047098388,-0.1210403,-0.019603943,0.00030343927,-0.017374707,0.006034367,-0.014518158,0.46874672,-1.3965694,1.9231604,-2.0965483,-1.5693854,2.444915,-0.08044953,0.22249347,-0.26767084,0.03198309,0.012309414,-0.0657924,-0.11492168,0.45968673,-9.500193,0.90527004,47.698532,-1.0669956,-2.209464,-3.4109745,-0.3029856,0.23885645,-0.2940777,28.25,29.5,28.625,32.875,35.25,36.5
0.26005194,-1.2030251,-0.37462556,-0.30801097,-0.024577076,0.06449961,-0.16219687,-0.39739186,-0.35188538,0.08487563,3.0767334,-0.6265817,0.0003515488,-0.12495652,-0.020259706,0.001531215,-0.0203428,0.010601325,-0.015233889,0.46797806,-1.3943223,1.9203981,-2.0962856,-1.5691932,2.4442422,-0.08276724,0.22556154,-0.27404055,0.029892888,0.012907451,-0.06738925,-0.30645782,0.1340753,-9.768343,1.0395473,47.71017,-1.1499288,-1.8694649,-3.6816092,-0.22668044,0.23037414,-0.3536477,28.25,29.5,28.625,32.875,35.25,36.5
0.270052,-1.519523,-0.04000978,-0.36262125,-0.013203881,0.066064,-0.15501082,-0.39867368,-0.35209543,0.084887154,3.0764906,-0.6267205,0.0002800163,-0.13449718,-0.019931136,0.0013114793,-0.020838529,0.012288377,-0.012669893,0.46713495,-1.3919865,1.9175619,-2.0959504,-1.5690612,2.4435182,-0.091169424,0.24051435,-0.29179987,0.031009179,0.01259229,-0.07834454,-0.45968673,0.095768064,-9.787497,0.91198283,47.681515,-0.86845595,-2.2249181,-3.4003868,-0.12752198,0.23268768,-0.35001573,28.25,29.5,28.625,32.875,35.25,36.5
0.2800521,-1.2694827,-0.8127596,-0.16676876,-0.03936045,0.050935112,-0.1633835,-0.4000832,-0.35228342,0.08494117,3.0762215,-0.62677187,-1.1148551e-07,-0.13767016,-0.018508468,0.0012828936,-0.0191278,0.0105193285,-0.0015502528,0.4661737,-1.3895826,1.9145488,-2.095637,-1.5689772,2.442625,-0.09556298,0.24517442,-0.29882017,0.035767082,0.011918215,-0.093852215,-0.36391866,0.22984336,-9.481039,0.88289046,47.678825,-0.73655206,-1.9936314,-3.6887293,-0.07987298,0.28802645,-0.09794389,28.25,29.5,28.625,32.875,35.25,36.5
0.29005244,-0.17488974,0.4061512,-0.25080734,0.023646604,0.0033963362,-0.15567656,-0.40151027,-0.35248384,0.08498388,3.0759268,-0.6268316,-0.00023345025,-0.14308432,-0.021853788,0.0032774727,-0.023342434,0.012940358,-0.015503816,0.46520185,-1.3871176,1.9114846,-2.0953248,-1.5688561,2.4417298,-0.09558672,0.25416893,-0.3152562,0.039142735,0.0145922955,-0.079912,-0.076614454,0.21068975,-9.308656,0.9701675,47.657326,-0.93881357,-1.784975,-3.4284768,-0.0020049321,0.28774184,-0.15982139,28.25,29.5,28.625,32.875,35.25,36.5
0.30005324,-0.36719435,-1.5174537,-0.06182395,-0.039751716,0.006583601,-0.1626135,-0.40297902,-0.35269123,0.08504971,3.0756242,-0.627098,-0.0003749305,-0.14389214,-0.02011362,6.553639e-05,-0.017040525,0.001668986,-0.024613654,0.46420482,-1.3845675,1.9082206,-2.0948308,-1.568725,2.4409394,-0.098472,0.26384377,-0.32228738,0.049414843,0.014039818,-0.0736827,0.095768064,0.38307226,-9.423578,0.90750587,47.703903,-0.8219638,-1.907531,-3.6889298,-0.064854935,0.34425184,-0.3376661,28.25,29.5,28.625,32.875,35.25,36.5
0.31005254,0.036073327,-0.9313242,0.11964184,-0.0026738197,-0.027647343,-0.1604843,-0.40441108,-0.35292453,0.08503953,3.0753984,-0.6274495,-0.00029737598,-0.14652322,-0.022564061,0.00042607426,-0.017549602,-0.003302648,-0.021355812,0.46328115,-1.3818613,1.904931,-2.0943005,-1.56858,2.4402657,-0.09760075,0.2731743,-0.3369668,0.05900351,0.016723806,-0.076062545,0.15322891,0.38307226,-9.174581,0.92093146,47.693153,-0.9924784,-1.8256181,-3.429994,-0.18754303,0.32263824,-0.49517357,28.25,29.5,28.625,32.875,35.25,36.5
0.32010123,-1.1323915,-0.12329206,0.28183877,-0.0020112877,0.029266102,-0.16577566,-0.40590733,-0.3531645,0.08503294,3.07519,-0.62750703,-0.0001515508,-0.15190004,-0.023282763,-0.0012579261,-0.018163092,-0.0055261133,4.9906266e-05,0.46228406,-1.3790473,1.9014858,-2.0937135,-1.5683755,2.4393327,-0.10138694,0.2860299,-0.3493684,0.06035193,0.018297361,-0.10124791,-0.17238252,0.22984336,-9.078813,0.90527004,47.674347,-1.0637195,-1.918272,-3.43075,-0.30969828,0.3331551,-0.27253813,28.25,29.5,28.625,32.875,35.25,36.5
0.3301005,-1.7836126,-1.4190596,0.2568992,-0.035189852,0.055251632,-0.15268306,-0.40744376,-0.35342863,0.08500775,3.0750139,-0.62743336,3.384905e-06,-0.15972047,-0.025174342,0.0019949342,-0.024309207,0.008259448,-0.0059695793,0.46129945,-1.3761029,1.8979219,-2.0931299,-1.5681714,2.4383264,-0.10391872,0.29016942,-0.3606442,0.05244116,0.017621122,-0.0977559,-0.63206923,0.28730422,-9.193734,0.9410752,47.667187,-1.1023747,-1.7275286,-3.4466815,-0.2552743,0.34879935,-0.176449,28.25,29.5,28.625,32.875,35.25,36.5
0.34009895,-1.9980193,-0.031471428,0.13809098,-0.011702969,0.06879487,-0.14963543,-0.40904,-0.35364494,0.0849506,3.0747654,-0.6277721,0.00015318782,-0.16569956,-0.025728786,-0.0005182399,-0.026127854,0.009219376,-0.02005811,0.46019402,-1.373084,1.8943471,-2.0926049,-1.5679787,2.437466,-0.10814343,0.30309087,-0.36989442,0.047110237,0.01879432,-0.08788679,-0.59376204,0.1340753,-9.3661175,0.8940802,47.66091,-1.0485998,-1.8955812,-3.7473474,-0.11784552,0.31481108,-0.36501896,28.25,29.5,28.625,32.875,35.25,36.5
0.3501024,-0.9374277,-0.3322655,-0.4842817,0.0125420205,0.006877208,-0.14812063,-0.4107495,-0.35387272,0.084878914,3.0745332,-0.6280056,0.0001404185,-0.17276865,-0.026690437,0.0019785005,-0.029394876,0.01324668,-0.011675553,0.4590524,-1.3698739,1.8905901,-2.0921729,-1.5678462,2.4365017,-0.112519085,0.31051964,-0.3862007,0.050996434,0.019971326,-0.10063734,-0.3256114,0.24899697,-9.3661175,0.947788,47.71823,-0.75385284,-2.0628207,-3.3888686,-0.0120001305,0.31503248,-0.33686668,28.25,29.5,28.625,32.875,35.25,36.5
0.36005527,-0.46765316,-1.5150592,-0.8958023,-0.028751614,0.031151883,-0.14978604,-0.41251954,-0.35412169,0.084899336,3.0742335,-0.6281099,6.095869e-05,-0.175689,-0.026314275,-0.0002498564,-0.0260699,0.004886865,-0.0026806819,0.45787567,-1.3666986,1.8866204,-2.091583,-1.5676664,2.4354305,-0.1153723,0.32225645,-0.3981821,0.06028582,0.020756623,-0.11247748,-0.13407528,0.40222588,-9.749189,0.9567419,47.68062,-0.849214,-2.2436082,-3.5641723,-0.017399814,0.27569216,-0.07343623,28.25,29.5,28.625,32.875,35.25,36.5
0.37005296,0.1026181,-1.0619181,-0.5100947,-0.054905225,0.017687367,-0.15581167,-0.4143027,-0.35436884,0.08491863,3.0738986,-0.62837666,0.00010387015,-0.17433213,-0.025798142,-0.0012872389,-0.022038868,-0.007797728,-0.022649275,0.456664,-1.3634784,1.8825678,-2.0908945,-1.567437,2.4344304,-0.11550962,0.3270627,-0.40626925,0.07670854,0.0227386,-0.09264091,0.17238252,0.3256114,-9.595961,0.9545008,47.686886,-0.97545147,-1.9804101,-3.8100882,-0.16447166,0.24996053,-0.2667271,28.25,29.5,28.625,32.875,35.25,36.5
0.38005245,0.1470121,0.1257271,-0.41758668,-0.0015990302,-0.016831508,-0.16160524,-0.41609406,-0.35463938,0.084953524,3.0735638,-0.6287326,0.00020999678,-0.18028538,-0.026600264,-0.0018755157,-0.023415776,-0.010008834,-0.03116991,0.4554865,-1.3602084,1.8783816,-2.090079,-1.5671972,2.43352,-0.11964417,0.3393878,-0.4217399,0.08126057,0.024925191,-0.08824523,0.19153613,0.21068975,-9.557653,0.88289046,47.681515,-0.8756752,-2.2165523,-3.5674038,-0.30198628,0.15074275,-0.47508022,28.25,29.5,28.625,32.875,35.25,36.5
0.39005244,-1.1361063,-1.1373752,-0.695704,-0.04598952,0.060694773,-0.15808757,-0.41793117,-0.35492906,0.08497507,3.07323,-0.6289531,0.00026298338,-0.18982834,-0.030386422,0.0037098983,-0.03314296,0.013221307,-0.004398934,0.45431066,-1.3568388,1.8741087,-2.0893185,-1.5669574,2.4325268,-0.119616255,0.3413979,-0.4346511,0.06717761,0.023495914,-0.1149838,-0.38307226,0.47884035,-9.557653,1.0126908,47.66091,-0.9784401,-1.7193711,-3.5999103,-0.21177006,0.118157715,-0.3058645,28.25,29.5,28.625,32.875,35.25,36.5
0.40005246,-2.103814,-1.3346491,-0.40455446,-0.043789122,0.09962432,-0.14351535,-0.41987595,-0.35525998,0.08505955,3.0727808,-0.6288626,1.9077419e-05,-0.19581889,-0.030587722,0.0016007887,-0.032049634,0.014069036,-0.011163612,0.45310956,-1.3534411,1.8696779,-2.0886843,-1.5666937,2.4313295,-0.12268268,0.35452896,-0.44639573,0.06555738,0.022177555,-0.11127506,-0.57460845,0.34476507,-9.634268,0.9365982,47.66987,-0.8454665,-1.9900641,-3.7263358,-0.07246274,0.060520604,-0.20312439,28.25,29.5,28.625,32.875,35.25,36.5
0.41009557,-0.25435406,0.65496325,0.5598055,0.010208473,0.045712825,-0.1516726,-0.4218771,-0.35559395,0.08509332,3.0723305,-0.62906015,-0.00026701475,-0.20040552,-0.030655479,0.0010351992,-0.027698815,0.012837113,-0.023829723,0.4519095,-1.3498648,1.8651513,-2.0881193,-1.566491,2.4303133,-0.12362346,0.3652193,-0.46072122,0.072213575,0.018818779,-0.09954477,-0.40222588,0.11492168,-9.212888,1.0462601,47.695843,-1.1432191,-1.7347963,-3.7057045,0.033810385,0.061850525,-0.40659323,28.25,29.5,28.625,32.875,35.25,36.5
0.4201057,0.36460686,0.54903764,1.034303,0.015022968,0.011815976,-0.15608443,-0.4238967,-0.3558795,0.0850884,3.0720763,-0.6293044,-0.00026610307,-0.20365818,-0.028583925,0.0008661021,-0.019122222,-0.0003740191,-0.008486787,0.4506481,-1.3461319,1.8604435,-2.087261,-1.566336,2.4292395,-0.12786141,0.3765037,-0.4808874,0.09685749,0.016977577,-0.11912331,-0.19153613,0.17238252,-8.714894,0.99031126,47.675243,-0.8879583,-1.8847134,-3.3843076,-0.17242694,0.09415096,-0.27863503,28.25,29.5,28.625,32.875,35.25,36.5
0.43010405,-0.5547284,-1.3136765,0.21710147,-0.050828304,0.044298872,-0.14878304,-0.42596245,-0.3561486,0.08508176,3.0718863,-0.6294359,-0.00011900248,-0.20711492,-0.029776895,-0.0001692252,-0.020406667,0.0024445099,-0.0104449885,0.4493165,-1.342294,1.8555607,-2.0862334,-1.5661558,2.4280167,-0.12771404,0.38380727,-0.4879987,0.09360464,0.016891275,-0.117017426,-0.11492168,0.51714754,-8.90643,1.0641627,47.668976,-1.1525841,-1.8310063,-3.59552,-0.2509319,0.13779512,-0.16985635,28.25,29.5,28.625,32.875,35.25,36.5
0.44009498,-0.6389591,-1.8862569,-0.16823505,-0.06919773,0.054371793,-0.15353215,-0.42806515,-0.35644218,0.08501286,3.0716627,-0.6297838,-9.992351e-06,-0.21633902,-0.030262122,4.533106e-05,-0.026357837,0.013020916,-0.032836195,0.44801837,-1.3382864,1.8506283,-2.0853388,-1.5659994,2.426967,-0.13380523,0.3935003,-0.4993102,0.08307355,0.017581338,-0.10071344,-0.019153614,0.51714754,-9.3661175,1.0015011,47.67166,-0.8830509,-1.9904575,-3.8332286,-0.072985895,0.20597467,-0.40212113,28.25,29.5,28.625,32.875,35.25,36.5
0.45009685,-1.0323517,-0.3505416,-0.43821165,-0.02016165,0.034923576,-0.15553729,-0.43026286,-0.3567529,0.0849537,3.0713253,-0.63020176,-7.1402296e-06,-0.21891199,-0.030585928,-0.0045806016,-0.023713574,0.0027507555,-0.017823273,0.44666183,-1.3341688,1.8455399,-2.0845106,-1.5658067,2.4259174,-0.13552241,0.40904367,-0.510834,0.08957929,0.019731166,-0.11743429,-0.2681506,0.17238252,-9.710882,1.0015011,47.696735,-0.8697996,-2.4562747,-3.9438143,0.023865681,0.20576623,-0.42365754,28.25,29.5,28.625,32.875,35.25,36.5
0.46010038,0.10237063,1.0801362,-0.8298918,0.040724844,0.016492218,-0.16040349,-0.4325007,-0.35708082,0.084924296,3.0710695,-0.63025624,3.816016e-05,-0.21854705,-0.028618293,-0.005677236,-0.016036844,-0.01350203,-0.009293884,0.44530562,-1.3299819,1.840247,-2.0835202,-1.5656027,2.4246306,-0.1375705,0.41639924,-0.5244856,0.1139567,0.01990254,-0.12800804,-0.19153613,0.0,-9.844957,1.0417832,47.71017,-0.8980661,-2.371114,-3.827335,-0.24910156,0.2541332,-0.15297408,28.25,29.5,28.625,32.875,35.25,36.5
0.47009704,-1.1987278,-1.4838701,-0.7715203,-0.07218042,0.061742216,-0.16249281,-0.4347158,-0.35734385,0.0848902,3.0708785,-0.63066304,0.0002675406,-0.22837047,-0.033543225,0.00038291304,-0.027536176,0.009126401,-0.023296267,0.44389015,-1.3258213,1.8349298,-2.0823042,-1.5654343,2.423496,-0.13646246,0.41961873,-0.54089934,0.10174491,0.020430282,-0.112896025,-0.05746084,0.22984336,-9.921572,1.0708755,47.69763,-1.2033014,-2.0909634,-3.8016608,-0.21772772,0.29852358,-0.3648401,28.25,29.5,28.625,32.875,35.3125,36.5
0.48010236,-0.74410677,-1.9172816,-0.5085499,-0.06667396,0.029324844,-0.15783338,-0.43703884,-0.35768828,0.08494703,3.0704408,-0.6308298,-3.9946084e-05,-0.2368905,-0.035352208,0.0015585403,-0.035217218,0.018599713,-0.010174577,0.4425209,-1.3217058,1.8295182,-2.0813963,-1.5652412,2.4222906,-0.14073741,0.4288498,-0.554892,0.09479423,0.023411639,-0.13027595,-0.019153614,0.68953013,-9.768343,1.0238806,47.693153,-0.99365175,-2.0906596,-3.8586264,-0.021915883,0.34434628,-0.24018982,28.25,29.5,28.625,32.875,35.3125,36.5
0.4900991,-0.49664205,-0.4389899,0.43661985,-0.032766275,0.01536379,-0.16606535,-0.4394086,-0.35803914,0.08499669,3.0700343,-0.63092077,-0.00016241558,-0.23878941,-0.034730002,0.0028505265,-0.032053728,0.005377412,-0.020141425,0.44110402,-1.3174467,1.8238896,-2.0803106,-1.5649885,2.420986,-0.14366397,0.43633327,-0.5744573,0.12019944,0.026262335,-0.1232175,-0.45968673,0.5554548,-9.251196,1.1313014,47.666286,-0.8611281,-1.9055431,-3.6672375,-0.16893113,0.34622025,-0.18758729,28.25,29.5,28.625,32.875,35.3125,36.5
0.5000557,-2.275522,-0.5926818,1.4257282,-0.030624995,0.061931793,-0.16287193,-0.44181737,-0.35841146,0.085029885,3.0695736,-0.6312727,-9.734342e-05,-0.2473972,-0.03880817,0.0060094274,-0.040897734,0.018088764,-0.037091404,0.43966398,-1.313032,1.818056,-2.0790799,-1.5646633,2.4198282,-0.14385992,0.44479442,-0.59245664,0.11443741,0.028771311,-0.10644888,-0.45968676,0.095768064,-8.63828,1.0552088,47.677036,-0.9400172,-1.626045,-3.4789252,-0.15593407,0.32847297,-0.47420514,28.25,29.5,28.625,32.875,35.3125,36.5
0.51005614,-0.1313486,0.0009315418,1.3762444,-0.030555626,0.013543796,-0.1743829,-0.44433245,-0.35880947,0.08506204,3.0690382,-0.6315783,-0.00036632214,-0.24035533,-0.040189255,0.0022598496,-0.039654072,0.015685562,-0.0063857464,0.43822888,-1.3085018,1.8121151,-2.0780766,-1.5643996,2.4186568,-0.1350457,0.44083947,-0.57945496,0.108306885,0.028882086,-0.12833834,0.17238252,0.038307227,-8.561666,0.8784135,47.679718,-0.95769274,-2.4086614,-3.0789897,0.036259636,0.332037,-0.3066924,28.25,29.5,28.625,32.875,35.3125,36.5
0.52005506,3.2719648,3.287541,0.3462284,0.1461852,-0.17241658,-0.17303815,-0.44675973,-0.35918885,0.084998764,3.068624,-0.63174963,-0.00034683096,-0.2320285,-0.034415428,-0.0042399094,-0.030752582,-0.009818964,-0.021077748,0.4368224,-1.3039339,1.8063186,-2.0770524,-1.5640982,2.417414,-0.13845181,0.43996355,-0.5695829,0.12618053,0.031679608,-0.11704188,1.283292,-0.61291564,-8.944737,0.9298854,47.695843,-0.6883445,-3.041635,-3.1171997,-0.018684555,0.26615056,-0.25695208,28.25,29.5,28.625,32.875,35.3125,36.5
0.5300558,0.2663215,-1.1285535,-0.9978031,0.0017378639,-0.07709245,-0.16089809,-0.44893694,-0.35946792,0.08491088,3.0685148,-0.6321707,0.00033519825,-0.22619335,-0.03151731,-0.0029686482,-0.02973058,-0.010693082,-0.0322817,0.43546864,-1.2996114,1.8007354,-2.0754478,-1.5638231,2.4163387,-0.13736288,0.42549753,-0.5565656,0.1288451,0.031060327,-0.104771,1.340753,-0.2681506,-9.825804,0.9612189,47.71286,-0.41543818,-2.82164,-3.223077,-0.26885727,0.22543412,-0.42039663,28.25,29.5,28.625,32.875,35.3125,36.5
0.54005593,-0.5228649,-1.4559206,-1.7276213,-0.05716536,-0.000905213,-0.16828908,-0.4511431,-0.3597661,0.08486827,3.0682535,-0.6323285,0.000563856,-0.22217187,-0.033721548,-0.0036136478,-0.03433417,0.0009003386,-0.0038796337,0.43413952,-1.2954444,1.7953099,-2.0741975,-1.5635589,2.4151442,-0.12944703,0.41636842,-0.5409237,0.11010096,0.030456401,-0.12527049,0.076614454,0.36391866,-10.342952,0.9835985,47.695843,-0.5294965,-2.9494433,-3.7510047,-0.083536625,0.147916,-0.15779227,28.25,29.5,28.625,32.875,35.3125,36.5
0.5500562,-0.6437431,-0.36553183,-1.2438662,-0.0069423206,-0.005955333,-0.16137096,-0.45336694,-0.3601441,0.084903054,3.0678236,-0.6322843,0.0005120982,-0.21423037,-0.0321453,-0.0059148814,-0.024780806,-0.011041199,-0.01783607,0.43290427,-1.2913723,1.7898458,-2.0730798,-1.5632361,2.41394,-0.123145774,0.4117177,-0.5342889,0.12290259,0.026785124,-0.10502298,0.095768064,0.13407528,-10.362105,0.91198283,47.696735,-0.7093651,-3.0986073,-3.709652,-0.30613333,0.11851329,-0.18055016,28.25,29.5,28.625,32.875,35.3125,36.5
0.5600191,0.68766016,1.8129702,-0.2805499,0.09224127,-0.09133471,-0.17205131,-0.45556712,-0.36051738,0.08494898,3.0672905,-0.6325576,0.0002851405,-0.21825223,-0.034525413,0.0016750405,-0.03200239,0.019092513,-0.0313882,0.43170774,-1.28741,1.7845114,-2.0720942,-1.56295,2.4129868,-0.11817342,0.3984725,-0.531425,0.10283224,0.020629963,-0.086521864,0.7278373,-0.40222588,-9.442732,0.8784135,47.68062,-0.8479329,-2.925849,-3.1946986,-0.10647878,0.14893883,-0.4457643,28.25,29.5,28.625,32.875,35.3125,36.5
0.5700537,-0.29666936,-0.4017248,-0.007972845,0.023861174,-0.049134955,-0.16336685,-0.4577277,-0.3608053,0.084988534,3.0669408,-0.63287616,4.5702644e-05,-0.21440907,-0.031803656,0.00282556,-0.02939628,0.019840365,-0.015603423,0.4304947,-1.2835428,1.7792739,-2.0710037,-1.5628194,2.4120212,-0.117503196,0.38783556,-0.52231854,0.10494023,0.01812525,-0.101649806,0.51714754,0.2681506,-9.136273,0.84484416,47.67793,-0.76634836,-2.7310872,-3.0308223,0.013944233,0.16900957,-0.3930185,28.25,29.5,28.625,32.875,35.3125,36.5
0.5800519,0.061152894,0.6911685,1.3551506,0.030319136,-0.05887284,-0.1560873,-0.45980823,-0.36108756,0.08497185,3.0666845,-0.63293034,-1.7202065e-05,-0.20609982,-0.028031066,0.0013700646,-0.022423958,0.0044277213,-0.010111736,0.4293205,-1.2796998,1.7741822,-2.0699208,-1.5626515,2.4109166,-0.1167107,0.37918597,-0.5130596,0.12132483,0.018341424,-0.106350295,0.3256114,-0.05746084,-8.63828,0.91421866,47.682407,-0.6237606,-2.5741203,-3.1277823,-0.1063906,0.22156051,-0.15581739,28.25,29.5,28.625,32.875,35.3125,36.5
0.5900522,0.94633,1.7962534,1.3698626,0.0593471,-0.054366756,-0.16992706,-0.46182024,-0.36140904,0.08495584,3.066383,-0.6332008,0.000111622256,-0.20238318,-0.028922526,0.003048808,-0.024756001,0.010681528,-0.023116823,0.42822886,-1.2758807,1.7690762,-2.0687025,-1.5624112,2.4100354,-0.111518726,0.3689136,-0.50360554,0.11537931,0.01778215,-0.08816126,0.59376204,-0.59376204,-8.446744,0.91198283,47.668976,-0.59999925,-2.6330976,-3.0359478,-0.1580956,0.24875554,-0.30755776,28.25,29.5,28.625,32.875,35.3125,36.5
0.6000524,-0.5051812,-0.054732874,-0.37282595,0.0153659545,-0.01593892,-0.16763538,-0.46377933,-0.3616454,0.0848902,3.0661788,-0.63363266,0.0002893593,-0.19649124,-0.028154762,-0.0024395327,-0.023245733,0.0075682374,-0.022759944,0.4270919,-1.272143,1.7641782,-2.067509,-1.5622553,2.4091966,-0.10768278,0.36602482,-0.48634997,0.10447687,0.01770759,-0.08469108,0.24899697,0.038307227,-9.423578,0.88289046,47.683304,-0.639305,-3.1071477,-3.3557563,-0.00956219,0.2856423,-0.38805702,28.25,29.5,28.625,32.8125,35.3125,36.5
0.6100521,0.39554515,-1.6320418,-1.690613,-0.037569355,-0.026877914,-0.16694237,-0.46571645,-0.36190835,0.08485759,3.0659535,-0.6337817,0.00033256938,-0.18607628,-0.025759041,-0.0029163535,-0.01610885,-0.0073776967,-0.0010791116,0.42601374,-1.268504,1.7593373,-2.0663888,-1.5620869,2.408243,-0.1031875,0.35438243,-0.47547808,0.121994056,0.017581915,-0.10188125,0.59376204,0.1340753,-10.381259,0.85826975,47.689575,-0.70145607,-3.0686975,-3.47848,-0.22465795,0.33855328,-0.1613905,28.25,29.5,28.625,32.8125,35.3125,36.5
0.62005246,1.4669139,0.9823856,-1.2367698,0.0323383,-0.07489802,-0.16016452,-0.46761096,-0.36217776,0.084871,3.0656438,-0.63389575,0.00031047204,-0.1867114,-0.027441276,-0.0018232467,-0.024031596,0.0037968196,-0.015163107,0.42495826,-1.265031,1.7546018,-2.0652945,-1.5618705,2.4073014,-0.10165035,0.34931138,-0.4690536,0.10708365,0.020088706,-0.08625086,0.842759,-0.1340753,-10.113108,0.8224646,47.709274,-0.566677,-3.3844366,-3.1439848,-0.22687247,0.3118772,-0.15891467,28.25,29.5,28.625,32.8125,35.3125,36.5
0.6300528,-0.2641874,-0.87516445,-1.3677217,0.007377702,-0.037235763,-0.14381006,-0.46946564,-0.36246246,0.084917165,3.065298,-0.6341143,0.00012927609,-0.18283385,-0.028638372,0.0019146901,-0.028351579,0.013899965,-0.02381575,0.42398715,-1.2616806,1.7499532,-2.0642555,-1.5617026,2.4065146,-0.09623588,0.3345676,-0.45763853,0.09933212,0.019818436,-0.07218722,0.6512228,0.038307227,-9.959879,0.8851263,47.67345,-0.5825844,-3.0498338,-3.2074733,-0.027749453,0.33949608,-0.31971362,28.25,29.5,28.625,32.8125,35.3125,36.5
0.6400523,-0.15455732,-1.2380464,-0.41917866,-0.023066953,-0.034373157,-0.15779354,-0.4712671,-0.36276197,0.085002385,3.0648632,-0.6343622,-0.00019581984,-0.17576201,-0.025998874,0.0026275632,-0.024256248,0.005630488,-0.025883269,0.4230771,-1.2585086,1.7454613,-2.0633175,-1.5615228,2.4058194,-0.09464874,0.32314315,-0.44782662,0.11016475,0.019551007,-0.068530545,0.47884035,0.19153613,-9.576807,0.87617236,47.674347,-0.6693373,-2.8559766,-3.2600698,-0.098952755,0.367347,-0.47987998,28.25,29.5,28.625,32.8125,35.3125,36.5
0.6500531,0.5803427,2.1736872,1.1540112,0.07841556,-0.07246947,-0.15743212,-0.47304633,-0.36306337,0.08509804,3.0644372,-0.63446915,-0.00043703485,-0.17041837,-0.025132408,0.0028335133,-0.023493486,0.001729035,-0.0055722594,0.42216602,-1.255372,1.7409686,-2.062311,-1.5612944,2.4050338,-0.09224666,0.3147474,-0.43911102,0.113919966,0.020651378,-0.08643201,0.61291564,-0.3256114,-8.63828,0.8672237,47.64658,-0.57215905,-2.7877474,-2.9464564,-0.21442133,0.31856352,-0.30672073,28.25,29.5,28.625,32.8125,35.3125,36.5
0.660052,-0.23618661,0.07109826,1.1839615,0.032115452,-0.02535877,-0.15564781,-0.47475109,-0.36331224,0.08513825,3.0641255,-0.63451564,-0.00053039356,-0.1701986,-0.02628344,0.0037116685,-0.029260328,0.01594061,-0.0031913547,0.42124316,-1.252295,1.7366675,-2.0613005,-1.5610904,2.4041831,-0.08949909,0.30728796,-0.4278805,0.094857424,0.020108161,-0.0860727,0.28730422,-0.17238252,-8.580819,0.7866488,47.696735,-0.63936687,-2.8568554,-2.822658,-0.0065727565,0.33709782,-0.10874215,28.25,29.5,28.625,32.8125,35.3125,36.5
0.67005235,0.03727049,-0.7435329,0.36766452,0.016252648,-0.046976287,-0.14089037,-0.47633547,-0.36356524,0.08506547,3.0639875,-0.63455063,-0.0003252617,-0.15931629,-0.023902116,-0.00026729432,-0.022114055,0.0002066154,-0.01905736,0.4204288,-1.2491589,1.7325252,-2.0602558,-1.5609106,2.40341,-0.085019894,0.29884744,-0.41079947,0.10332548,0.019929362,-0.06573205,0.21068975,0.17238252,-9.002198,0.8873621,47.67345,-0.6157193,-2.865727,-3.2186322,0.002516843,0.30861127,-0.26598066,28.25,29.5,28.625,32.8125,35.3125,36.5
0.6800526,1.5587754,0.046740275,-0.2295787,0.013020974,-0.0364809,-0.15930451,-0.47790417,-0.3637693,0.08501708,3.063786,-0.6348915,-0.000118824195,-0.15167138,-0.020789102,-0.0051880158,-0.015076291,-0.017345972,-0.020936955,0.4195531,-1.2461394,1.728464,-2.0591748,-1.5607303,2.402775,-0.08447373,0.29685187,-0.40038487,0.1138057,0.02068757,-0.063303985,0.7086837,0.05746084,-9.32781,0.86945957,47.686886,-0.39257154,-3.2872977,-3.0836153,-0.27464473,0.274168,-0.3110438,28.25,29.5,28.625,32.8125,35.3125,36.5
0.69005257,1.002728,0.49549454,-0.84686816,0.043970197,-0.054303594,-0.15677695,-0.4793757,-0.36399856,0.08488676,3.0635967,-0.63515186,0.00033468675,-0.15299644,-0.025234604,-0.0009239071,-0.02635524,0.007271748,-0.010510153,0.41873983,-1.2431117,1.7245811,-2.0581553,-1.5604542,2.4021502,-0.07821169,0.28636125,-0.3911132,0.088025555,0.020953035,-0.0674806,0.63206923,-0.17238252,-9.595961,0.84484416,47.675243,-0.6495135,-3.4305992,-2.9712143,-0.0695437,0.1784589,-0.29517087,28.25,29.5,28.625,32.8125,35.3125,36.5
0.7000532,-0.48692897,-1.4874403,-1.5410551,-0.05041099,-0.014408073,-0.15452126,-0.4808363,-0.36422697,0.084841155,3.0634303,-0.63510704,0.00044426494,-0.14540665,-0.022132792,-0.0034800102,-0.020611394,-0.00041004585,0.00033145474,0.41798583,-1.2402862,1.7207845,-2.0572202,-1.5602745,2.4013913,-0.07636359,0.2773442,-0.37485227,0.0902665,0.018945182,-0.07649068,0.59376204,0.24899697,-10.151415,0.80679786,47.674347,-0.6465234,-3.6109962,-3.3049293,-0.021504708,0.14493103,-0.09776147,28.25,29.5,28.625,32.8125,35.3125,36.5
0.71005267,0.83264786,0.68731177,-1.1613433,0.039406825,-0.055831157,-0.14989686,-0.48227736,-0.36447957,0.084835395,3.0631742,-0.63509154,0.0004065976,-0.13867265,-0.021089617,0.00022726701,-0.018965654,-0.0026477096,-0.007824141,0.41728058,-1.2375716,1.7170566,-2.0563676,-1.5600833,2.4007118,-0.07265429,0.26185542,-0.36542565,0.0989424,0.018318001,-0.06462905,0.30645782,0.0,-9.9790325,0.8806493,47.701214,-0.72639596,-3.4125502,-3.07705,-0.14036211,0.09463596,-0.051298115,28.25,29.5,28.625,32.8125,35.3125,36.5
0.7200534,0.3563722,1.4649131,-0.24439885,0.060874995,-0.037613012,-0.16201952,-0.48364854,-0.36468294,0.084855214,3.0629165,-0.63526994,0.00051503716,-0.13404602,-0.0192889,-0.0010514734,-0.015173059,-0.0068889824,-0.019546948,0.41653833,-1.2350215,1.7134494,-2.0553734,-1.5598677,2.4001164,-0.07100399,0.25606015,-0.35590866,0.100519426,0.016497236,-0.0512679,0.5363012,-0.36391866,-9.423578,0.7866488,47.67166,-0.5792679,-3.4832082,-3.0168614,-0.29575762,0.04853093,-0.17004757,28.25,29.5,28.625,32.8125,35.3125,36.5
0.7300525,0.04498677,-0.04980129,-0.21668145,-0.004126646,-0.002427435,-0.14908785,-0.48500398,-0.3648721,0.08491365,3.0626717,-0.63554394,0.0003375954,-0.13634218,-0.01853937,0.0053601097,-0.021940487,0.018765654,-0.025658173,0.41585556,-1.2326063,1.7099508,-2.0544832,-1.5597852,2.3996391,-0.0712908,0.23920149,-0.34365466,0.078888655,0.012264013,-0.045476485,0.17238252,0.038307227,-9.442732,0.80456203,47.711964,-0.41880637,-2.9524279,-3.0038536,-0.081254706,0.07205632,-0.29037273,28.25,29.5,28.625,32.8125,35.3125,36.5
0.74005276,0.5248202,0.41984788,-0.22986618,0.0034453096,-0.014179827,-0.15259673,-0.4862875,-0.3650565,0.08492259,3.062421,-0.6358295,0.00025257308,-0.12971388,-0.01846616,0.0037516,-0.018520324,0.014370252,-0.021966308,0.41519883,-1.2302479,1.7066549,-2.053693,-1.5596656,2.3991957,-0.06591168,0.23251472,-0.33182156,0.07914364,0.010944871,-0.043799248,0.34476504,0.095768064,-9.481039,0.90527004,47.694054,-0.5305491,-3.0750232,-3.0666723,-0.03099851,0.06532882,-0.40187904,28.25,29.5,28.625,32.8125,35.3125,36.5
0.75005215,1.3516804,1.2165852,0.1893032,0.041307993,-0.059740465,-0.15854283,-0.48761654,-0.36524254,0.08505258,3.0620608,-0.6360692,-0.00015439211,-0.12085025,-0.0149118425,0.0013195666,-0.009627728,-0.001617323,-0.013327626,0.4145286,-1.2280571,1.7033108,-2.052922,-1.5595702,2.3987255,-0.06427924,0.22507259,-0.3202612,0.09333879,0.009393304,-0.050812904,0.59376204,-0.095768064,-9.097966,0.8806493,47.681515,-0.4376737,-3.1200166,-3.0027,-0.19197966,0.076441936,-0.41163805,28.25,29.5,28.625,32.8125,35.3125,36.5
0.7600523,1.3115698,0.75546974,0.094624795,0.041311838,-0.05366904,-0.15281197,-0.48877105,-0.3653741,0.085046,3.062017,-0.6360875,-4.6148518e-05,-0.11696203,-0.016803978,0.0026217676,-0.01316959,0.0040187705,0.0016399645,0.41390753,-1.2258672,1.7002305,-2.0519912,-1.5594977,2.3981223,-0.05902246,0.21598941,-0.30979273,0.08548684,0.010453424,-0.060522914,0.6895301,-0.095768064,-9.155427,0.8224646,47.74331,-0.5402154,-3.0209608,-2.82756,-0.26780653,0.07418385,-0.22637108,28.25,29.5,28.625,32.8125,35.3125,36.5
0.77005285,-0.6812611,-2.4066942,-0.4767582,-0.073817305,0.009172216,-0.14323822,-0.4899059,-0.3655582,0.085076086,3.0619004,-0.6360188,-6.861634e-05,-0.11155826,-0.018466493,-0.00045942963,-0.014050456,0.008212976,0.006827478,0.41337103,-1.2237475,1.6971749,-2.0511353,-1.5594019,2.3975594,-0.052155778,0.21015267,-0.29197267,0.069304295,0.009571841,-0.05885583,0.4405331,0.4213795,-9.615114,0.84708,47.678825,-0.84107816,-3.128344,-3.1300974,-0.16646092,0.116685554,-0.08742229,28.25,29.5,28.625,32.8125,35.3125,36.5
0.7800528,1.5606483,0.5369732,-0.47095364,0.033698555,-0.08866559,-0.1465243,-0.49102664,-0.36576048,0.08506682,3.0616643,-0.63597393,-0.00023867864,-0.11043258,-0.017461386,-0.0005510488,-0.01600218,0.011748148,-0.009946687,0.41285568,-1.2216643,1.694321,-2.050587,-1.5592698,2.397049,-0.05287456,0.20486513,-0.2834581,0.061878774,0.009824626,-0.04279916,0.7086837,0.17238252,-9.270349,0.7597976,47.701214,-0.72651243,-3.3656178,-2.9378116,0.014194956,0.15068476,-0.16393717,28.25,29.5,28.625,32.8125,35.3125,36.5
0.79005235,0.91936594,1.5581136,0.22774296,0.029890051,-0.013811412,-0.15976387,-0.49207777,-0.36593574,0.08507666,3.0614636,-0.63616014,-0.00026118616,-0.10131333,-0.015973812,-0.00022716263,-0.013306853,0.0011231273,-0.013287016,0.41235378,-1.2196909,1.6915272,-2.0498655,-1.5591496,2.3966913,-0.049724575,0.19217217,-0.26994306,0.07179745,0.0116240885,-0.03629552,0.57460845,-0.24899697,-9.289502,0.83589023,47.691364,-0.75421214,-3.2244382,-2.9925394,-0.052516993,0.12894522,-0.24462205,28.25,29.5,28.625,32.8125,35.3125,36.5
0.80005276,1.5363863,1.5485333,0.34124863,0.05093633,-0.032021325,-0.16774108,-0.4930444,-0.36605674,0.08505698,3.0613718,-0.63632923,-0.00012553227,-0.092725374,-0.013470725,-0.0027031656,-0.0054922057,-0.0108803585,-0.00947713,0.4118398,-1.2178242,1.6889232,-2.0490844,-1.5590543,2.3962958,-0.046469312,0.18443748,-0.2564211,0.08016335,0.009324764,-0.036867905,0.28730422,-0.28730422,-9.136273,0.784413,47.695843,-0.7578895,-3.4856548,-2.960373,-0.23894438,0.1528115,-0.24902053,28.25,29.5,28.625,32.8125,35.3125,36.5
0.8100525,-0.4111908,-0.58379734,-0.22528121,-0.014928598,0.0031683212,-0.14762715,-0.49393272,-0.36618122,0.08503377,3.0614011,-0.6364497,5.7238733e-05,-0.09006907,-0.012518152,-0.0028492936,-0.0071868845,-0.0045186584,-0.010739271,0.41142094,-1.2160294,1.6864017,-2.048227,-1.5590304,2.3959484,-0.04550651,0.17555867,-0.24183224,0.06792687,0.008310169,-0.03465692,0.19153613,0.095768064,-9.385271,0.81351066,47.681515,-0.7126667,-3.5961704,-2.91581,-0.30795813,0.19074479,-0.30804515,28.25,29.5,28.625,32.8125,35.3125,36.5
0.82005244,-0.6335955,0.61542505,-0.20378722,-0.003861394,-0.024820192,-0.15065223,-0.4948589,-0.3663132,0.085013874,3.0612178,-0.6366187,6.185235e-05,-0.089950696,-0.011667838,-0.0011369416,-0.012884991,0.009482061,-0.010780746,0.4109416,-1.2142833,1.6839985,-2.0476468,-1.5589107,2.3956,-0.0464006,0.16468358,-0.22716586,0.04904443,0.007937675,-0.035519544,0.24899697,0.095768064,-9.500193,0.779936,47.694054,-0.5432779,-3.467318,-3.1233354,-0.11922472,0.18883803,-0.294076,28.25,29.5,28.625,32.8125,35.3125,36.5
0.8300525,0.42268085,0.60352314,-0.574848,0.029459856,-0.06133469,-0.1447314,-0.49571696,-0.36643448,0.084950574,3.0610795,-0.6366994,2.7373784e-05,-0.08593649,-0.010368967,-0.0013206361,-0.011920274,0.0086361235,-0.0053799464,0.41051066,-1.2126204,1.6818355,-2.047229,-1.5588268,2.3952389,-0.045335226,0.15697798,-0.21631482,0.04712124,0.00745675,-0.039861117,0.59376204,-0.15322891,-9.653421,0.7866488,47.679718,-0.4441737,-3.6436331,-3.0589018,-0.011693217,0.22385651,-0.24186745,28.25,29.5,28.625,32.8125,35.3125,36.5
0.8400528,0.7666186,0.38002956,-0.4497919,0.026113937,-0.04351597,-0.15597755,-0.49655572,-0.3664918,0.08496251,3.0609756,-0.6368075,-0.000117865835,-0.08019885,-0.008802865,-0.00085855724,-0.009141889,0.002796019,-0.0025287326,0.41003224,-1.211161,1.6797546,-2.046724,-1.5588149,2.3948429,-0.043692734,0.14794454,-0.20688432,0.053207453,0.007293893,-0.041071046,0.59376204,-0.21068975,-9.653421,0.81351066,47.64658,-0.27287024,-3.7907124,-2.9291768,-0.023297569,0.24723521,-0.14216642,28.25,29.5,28.625,32.8125,35.3125,36.5
0.85005283,0.49618384,-0.15013261,-0.17833604,0.016103175,-0.030344287,-0.15304342,-0.4972698,-0.3665769,0.08492876,3.0609336,-0.63679653,4.571623e-05,-0.0706364,-0.0069449428,-0.0019273285,-0.004509401,-0.0085261855,-0.0026998916,0.40963826,-1.2097509,1.6778201,-2.0461347,-1.5587186,2.3944478,-0.04020214,0.13639739,-0.19111913,0.06118052,0.0075765625,-0.03740798,0.59376204,0.019153614,-9.461885,0.7911258,47.681515,-0.23144683,-3.6225824,-3.106518,-0.18163839,0.26465675,-0.036839753,28.25,29.5,28.625,32.8125,35.3125,36.5
0.8600525,1.1111472,0.6667139,-0.066039935,0.06934369,-0.08338626,-0.15141001,-0.49795434,-0.36662468,0.08489275,3.0609014,-0.63688797,0.00021070079,-0.06661108,-0.007210771,0.0005097887,-0.006472509,-0.0043523,-0.007775572,0.40922004,-1.2084244,1.6760038,-2.0455616,-1.5586466,2.3940911,-0.0370758,0.12470653,-0.18018143,0.057226945,0.0076555167,-0.029208684,0.7852981,-0.11492168,-9.270349,0.78217715,47.64927,-0.21877868,-3.5164795,-2.89691,-0.2699644,0.27737522,-0.019791543,28.25,29.5,28.625,32.8125,35.3125,36.5
0.8700527,0.34160835,-0.58089405,-0.7139353,-0.011479853,-0.01480077,-0.15318128,-0.49854127,-0.36668506,0.08485922,3.060938,-0.6370106,0.00040840387,-0.06278677,-0.009267899,0.0016397083,-0.008760182,0.0029607608,-0.008123207,0.40891072,-1.2072171,1.6743315,-2.044955,-1.5586232,2.3938534,-0.030920265,0.11561913,-0.16832478,0.046763383,0.0067885425,-0.022716843,0.6512228,0.17238252,-9.672575,0.8537928,47.71286,-0.35348266,-3.5742455,-2.7784266,-0.3251989,0.30079776,-0.035218194,28.25,29.5,28.625,32.8125,35.3125,36.5
0.8800532,0.6400432,-0.69905126,-0.780366,-0.032596517,-0.023135358,-0.15757191,-0.49916816,-0.36678192,0.08489064,3.060736,-0.637157,0.0003314524,-0.058969133,-0.010210674,0.0009451909,-0.011404757,0.008943718,-0.008407286,0.40858883,-1.2061175,1.6727079,-2.044565,-1.558515,2.393651,-0.026909707,0.10750489,-0.15292612,0.032888453,0.0068074483,-0.018426428,0.49799395,0.21068975,-9.80665,0.7709874,47.674347,-0.44164515,-3.5688467,-2.9895647,-0.2447614,0.3031728,-0.078838095,28.25,29.5,28.625,32.8125,35.3125,36.5
0.8900527,1.0516553,0.5210653,0.043292735,0.015964217,-0.06692413,-0.1646712,-0.49974167,-0.36691007,0.084924765,3.0605257,-0.637205,0.0001264203,-0.055396244,-0.010910194,0.0022211277,-0.013729376,0.013187503,-0.007235217,0.40836233,-1.2051139,1.6712373,-2.044316,-1.558431,2.3934839,-0.023660528,0.09825055,-0.14199491,0.0263688,0.007253038,-0.016348086,0.6512228,0.05746084,-9.481039,0.7351769,47.689575,-0.5634923,-3.64714,-2.8719926,-0.09736087,0.30941877,-0.100952834,28.25,29.5,28.625,32.8125,35.3125,36.5
0.9000525,0.5791698,0.58649075,0.25134802,0.01950236,-0.048562553,-0.15751767,-0.5002294,-0.36700475,0.08491705,3.0604286,-0.6372391,6.3282554e-05,-0.04926821,-0.010345631,0.0026494688,-0.012001922,0.008971764,-0.0049208393,0.40815982,-1.2041823,1.669948,-2.04404,-1.5583829,2.3933163,-0.02049245,0.08875024,-0.13101374,0.029434077,0.007370138,-0.015493917,0.6512229,-0.095768064,-9.270349,0.8247004,47.64658,-0.61873627,-3.785159,-2.7642927,-0.06831698,0.31610692,-0.17081034,28.25,29.5,28.625,32.8125,35.3125,36.5
0.91005266,0.098721966,0.12569913,-0.032065753,0.0049204794,-0.028666444,-0.15778431,-0.5006794,-0.3671178,0.084963724,3.0602593,-0.63731474,2.2924538e-05,-0.04402139,-0.0092627825,0.0039522727,-0.010216396,0.009273071,-0.0030809138,0.40798113,-1.2033714,1.6686839,-2.0436928,-1.5582756,2.3932083,-0.017784346,0.077305414,-0.11852255,0.028818177,0.0056343763,-0.014640419,0.4213795,0.095768064,-9.346964,0.78888994,47.678825,-0.6925585,-3.4351158,-2.7123582,-0.05580858,0.3104184,-0.17212692,28.25,29.5,28.625,32.8125,35.3125,36.5
0.9200531,0.88984406,0.73592806,0.01997315,0.022122862,-0.016516844,-0.17144766,-0.5010741,-0.3671949,0.08497129,3.0602155,-0.6372853,-2.0062556e-05,-0.038449056,-0.0079951435,0.0037761675,-0.0095459735,0.008066267,-0.002440327,0.40782592,-1.2026199,1.6675981,-2.0434072,-1.5582517,2.393041,-0.015950814,0.06687793,-0.103506096,0.02558938,0.0055153607,-0.013450882,0.4213795,-0.05746084,-9.32781,0.8023209,47.66808,-0.6408014,-3.4639945,-2.728938,-0.034783795,0.31838584,-0.19216597,28.25,29.5,28.625,32.8125,35.3125,36.5
0.93005276,1.6654754,1.6653816,0.11086323,0.034181274,-0.03303168,-0.17102395,-0.5014231,-0.36727175,0.08499524,3.0600932,-0.63733417,-0.00010074046,-0.031822104,-0.0060283504,0.0016715778,-0.0062571126,0.0026559671,-0.002020923,0.40768296,-1.2019998,1.6666702,-2.0432036,-1.5581921,2.3929455,-0.014127818,0.058408212,-0.08721522,0.024025911,0.004664117,-0.012055237,0.61291564,-0.22984336,-9.481039,0.75755644,47.696735,-0.7006184,-3.442817,-2.9143553,-0.019132148,0.32175872,-0.23656619,28.25,29.5,28.625,32.8125,35.3125,36.5
0.94005215,0.69273293,0.13507822,-0.048203655,0.0019560927,-0.032428794,-0.16382854,-0.5017106,-0.367306,0.08502944,3.06009,-0.6373329,-0.00014199571,-0.026065718,-0.0040266016,0.0013401841,-0.0026570507,-0.0015459361,-0.0016023641,0.4075517,-1.2014993,1.66586,-2.0429156,-1.5582045,2.3928142,-0.012558831,0.049126644,-0.074521326,0.025890166,0.003047814,-0.010918261,0.49799395,-0.05746084,-9.519346,0.8023209,47.66271,-0.61144286,-3.4236145,-2.9710858,-0.09594208,0.34474736,-0.23105288,28.25,29.5,28.625,32.8125,35.3125,36.5
0.9500523,0.5601061,-0.043748904,-0.17282073,-0.0050084605,-0.03294022,-0.15907043,-0.5019841,-0.36733025,0.08507086,3.0600476,-0.6373992,-0.00020424,-0.020578846,-0.002952964,-0.00020792619,-0.0011417527,-0.0043641143,-0.001056738,0.4074086,-1.2010586,1.6651224,-2.0426657,-1.5582045,2.3927186,-0.010434986,0.041500486,-0.060095504,0.02225958,0.0027827302,-0.009344203,0.36391866,0.076614454,-9.385271,0.76874626,47.688675,-0.6295041,-3.4338694,-3.0753183,-0.16852365,0.3536127,-0.23932849,28.25,29.5,28.625,32.8125,35.3125,36.5
0.96005297,1.0129454,0.64384043,0.06453186,0.014413868,-0.036540993,-0.1629656,-0.5021486,-0.36735472,0.08504643,3.0600297,-0.63745344,-8.8212204e-05,-0.017860588,-0.0034018394,0.002159614,-0.0036532832,0.0013201026,-0.0030805513,0.40731373,-1.2006905,1.6646465,-2.0425003,-1.5581564,2.39266,-0.007972675,0.031544495,-0.050716523,0.016565064,0.0028023047,-0.0048608435,0.51714754,-0.019153614,-9.3661175,0.74413085,47.66091,-0.5811221,-3.4081297,-2.7300406,-0.19734573,0.34841153,-0.2647665,28.25,29.5,28.625,32.8125,35.3125,36.5
0.9700522,0.34713665,-0.028624766,-0.1733109,0.020723643,-0.04714861,-0.15140827,-0.50227684,-0.36740342,0.08507531,3.0599775,-0.6374405,-7.572889e-05,-0.012608699,-0.004066394,0.0018871919,-0.0035488973,0.0014434967,8.952906e-05,0.40727937,-1.2004536,1.6642312,-2.0423458,-1.5581082,2.3926246,-0.0034483771,0.023476336,-0.038320836,0.0121489,0.0026625176,-0.0035101399,0.59376204,0.038307227,-9.3661175,0.7418897,47.657326,-0.6029021,-3.4975128,-2.6295228,-0.269076,0.3434473,-0.27086627,28.25,29.5,28.625,32.8125,35.3125,36.5
0.98005223,0.4501887,-0.32470125,-0.36831725,0.014720602,-0.03138189,-0.14914776,-0.5023673,-0.3674629,0.08508202,3.059983,-0.63736457,-6.615048e-05,-0.008679832,-0.0035097916,0.001076128,-0.0033087025,0.004042228,0.00074263755,0.40730414,-1.2002286,1.6638888,-2.0422294,-1.5580968,2.3926013,-0.0010907187,0.015719963,-0.02419857,0.003474708,0.001407597,-0.001818968,0.59376204,0.095768064,-9.442732,0.73741806,47.711964,-0.46190292,-3.5623248,-2.6484084,-0.29372996,0.3532288,-0.28213942,28.25,29.5,28.625,32.8125,35.3125,36.5
0.9900526,0.2962852,0.09037941,-0.27526385,0.018770447,-0.040316515,-0.15462516,-0.5024254,-0.36748037,0.085060805,3.0599766,-0.6373624,-8.0428545e-05,-0.0042812196,-0.0020908245,0.0012908516,-0.0031302536,0.003991097,0.0009404016,0.4072924,-1.2000881,1.6637505,-2.0422428,-1.5580968,2.392589,-0.00028237322,0.0060629807,-0.010957219,5.9653087e-07,0.0012798203,-0.0012119203,0.40222588,0.0,-9.500193,0.7486078,47.70032,-0.26573142,-3.7562041,-2.6140108,-0.36072996,0.3409437,-0.27122283,28.25,29.5,28.625,32.8125,35.3125,36.5
1.000053,1.2349472,1.2395487,0.038159013,0.049555365,-0.05716193,-0.15927279,-0.50243413,-0.36749637,0.08508003,3.0598905,-0.6373626,-0.00016871521,0.0016040531,-0.00054351665,-0.0003691792,-0.0016550368,0.0015998633,0.0020419697,0.407293,-1.2001272,1.6637801,-2.0423281,-1.5580605,2.3926017,0.0014342425,-0.0029498006,0.0059240125,-0.005094286,0.00089253124,-0.00060274015,0.51714754,-0.2681506,-9.423578,0.7709874,47.681515,-0.3925382,-3.8243895,-2.8697085,-0.3461724,0.33309424,-0.2667988,28.25,29.5,28.625,32.8125,35.3125,36.5
1.0100523,-2.1311746,-2.569708,-0.37589052,-0.09265918,0.06554342,-0.14782275,-0.5024126,-0.36747488,0.08507328,3.0599566,-0.6373382,-7.099991e-05,0.0012958874,-1.011057e-05,0.00078448415,0.00025339797,-0.0023070567,0.00290245,0.40728074,-1.2001387,1.6637906,-2.0422413,-1.5580729,2.392565,0.000514503,-0.002005877,1.9341843e-10,0.0042529805,0.0007134529,-0.0023817874,-0.076614454,0.47884035,-9.749189,0.779936,47.682407,-0.4077519,-3.9432154,-2.4476047,-0.43867317,0.33805704,-0.28425148,28.25,29.5,28.625,32.8125,35.3125,36.5
1.0200531,-0.8450133,-0.5624559,-0.07459501,0.008152318,-0.020192562,0.010316811,-0.50242776,-0.3675247,0.0851181,3.0598443,-0.63725644,-0.00018774836,-0.0008398827,-0.00093023444,0.0008311679,-0.002520867,0.0030320229,0.002004671,0.40731654,-1.2001743,1.6637539,-2.0423033,-1.5580128,2.3925653,0.00030194572,-0.00034047695,-0.0007676313,-0.0026565085,0.0011212489,-0.0016948613,-0.11492168,0.21068975,-9.270349,0.7866488,47.696735,-0.42479014,-3.8115945,-2.4383588,-0.3772923,0.30142805,-0.3080867,28.25,29.5,28.625,32.8125,35.3125,36.5
1.0300528,0.8744616,1.3541343,0.46824396,0.044784915,-0.04264089,0.006721635,-0.5024175,-0.3675201,0.08507922,3.0598881,-0.6371503,-0.000142788,-0.0010475856,-0.0008016328,0.0004605382,-0.002133679,0.003395468,0.003121747,0.4073165,-1.2001381,1.663802,-2.0423515,-1.5580133,2.3924928,0.00021271854,0.00023207415,-0.00049249025,-0.0036668377,0.00063113286,-0.0029054314,0.21068975,-0.21068975,-9.078813,0.75755644,47.696735,-0.48491126,-3.8621635,-2.434036,-0.35624444,0.3066678,-0.2876516,28.25,29.5,28.625,32.8125,35.3125,36.5
1.040052,-0.02380293,-0.9734444,-0.22455028,-0.04283143,0.012193242,0.0056311125,-0.50244606,-0.36750478,0.08514044,3.0598598,-0.6372022,-0.00027979622,0.00087238644,0.00018360143,-0.00036804343,0.0009286309,-0.0029680722,0.0020433005,0.40729252,-1.20021,1.6637543,-2.0423133,-1.5580496,2.3925054,0.00012315103,0.00020867995,-0.00015787643,0.00306606,0.00034814602,-0.0019167077,0.15322891,0.30645782,-9.423578,0.7665104,47.667187,-0.49573255,-3.8356333,-2.4405358,-0.40432164,0.2881899,-0.29965192,28.25,29.5,28.625,32.8125,35.3125,36.5
1.0500535,-0.14771105,-1.4932674,-0.8431139,-0.030357528,-0.010999162,0.0075013437,-0.502405,-0.36749488,0.085085064,3.0599415,-0.6371435,-0.00012880612,3.992454e-05,-2.4505904e-05,-0.00027375392,-4.373767e-05,-0.00048296087,0.0020434693,0.4073045,-1.200174,1.6638259,-2.0423024,-1.5580496,2.3924692,-6.0698945e-05,0.00045260205,-4.6771337e-10,3.924629e-08,0.0002509959,-0.0021023937,0.11492168,0.40222588,-9.691729,0.7933669,47.688675,-0.5018502,-3.4816418,-2.2095776,-0.4533326,0.29689515,-0.29972786,28.25,29.5,28.625,32.8125,35.3125,36.5
1.060053,0.60311884,0.37579846,-0.15561482,0.0291474,-0.032661706,0.006122996,-0.50241035,-0.36750907,0.08504304,3.0599222,-0.63712037,-8.300729e-05,-0.0014786171,-0.00064602564,-0.0009567708,-0.0024654663,0.00521835,0.0017759462,0.4073045,-1.2001019,1.6638392,-2.0423777,-1.5580133,2.3924572,-9.138316e-05,0.0013946842,0.0024018253,-0.009540902,0.00019624855,-0.0018685609,0.22984336,0.0,-9.346964,0.784413,47.677036,-0.6067842,-3.3140917,-2.1306093,-0.44305116,0.2898414,-0.31174016,28.25,29.5,28.625,32.8125,35.3125,36.5
1.0700525,0.028616518,-0.2935381,0.09417596,-0.03758927,0.020891398,-0.0050258436,-0.5024127,-0.36752206,0.085038744,3.0598946,-0.63709515,-0.00018589073,-0.001550495,-0.00065825094,-0.0036746112,-0.0027661556,0.0059705903,0.0013068889,0.40732846,-1.2001128,1.6638883,-2.0424883,-1.5580252,2.3924694,-0.00010420883,0.0039868513,0.006660371,-0.01720728,0.00016111074,-0.0014143515,0.1340753,0.2681506,-9.232041,0.7239871,47.7245,-0.5666983,-3.2871575,-1.9395834,-0.49800807,0.2716213,-0.31203538,28.25,29.5,28.625,32.8125,35.3125,36.5
1.080053,-0.7173303,-1.3427043,0.23433015,-0.026087083,0.007955518,0.0064992914,-0.5024473,-0.36751315,0.08498267,3.0598295,-0.637138,-0.00024329634,-0.0029945,-0.0012123281,-0.0062206723,-0.004817131,0.01074582,0.0016831128,0.4072805,-1.2000397,1.6639613,-2.0426958,-1.5580014,2.3924572,-0.00020373642,0.0072054663,0.010807445,-0.029763622,0.00013664684,-0.0018934738,0.019153614,0.17238252,-9.232041,0.7463667,47.71286,-0.6310475,-3.1164317,-1.8649566,-0.48034728,0.2598306,-0.3025462,28.25,29.5,28.625,32.8125,35.3125,36.5
1.0900518,-0.14908409,-0.1739461,0.3900184,-0.023274206,-0.01026039,0.0024839053,-0.5024755,-0.36751777,0.0849259,3.0598316,-0.6370038,-0.0004939954,-0.004591484,-0.0018666997,-0.009126911,-0.00653799,0.0147654675,0.00086072634,0.40730444,-1.1999904,1.6640939,-2.0430229,-1.5580734,2.3923974,-0.00024449758,0.011628485,0.014015586,-0.041777447,9.511641e-05,-0.0011148356,0.17238252,0.15322891,-9.136273,0.7642693,47.694054,-0.6094686,-2.9520407,-1.7686093,-0.43169862,0.26351386,-0.31730956,28.25,29.5,28.625,32.8125,35.3125,36.5
1.1000519,-0.035752133,-0.63520426,0.21618585,-0.01127946,-0.017853526,0.008840542,-0.5025186,-0.36754057,0.084815845,3.0597305,-0.63703954,-0.00066205673,-0.0031194456,-0.0012112843,-0.0137350485,-0.0041459273,0.009245986,0.00041785292,0.40730444,-1.1998448,1.6642398,-2.0434554,-1.558061,2.392434,-0.00026587068,0.016238289,0.018770352,-0.04513193,8.385291e-05,-0.0006936339,0.095768064,0.2681506,-8.925584,0.7597976,47.681515,-0.6918559,-2.9666214,-1.7842593,-0.46693802,0.25184968,-0.30422127,28.3125,29.5,28.625,32.8125,35.3125,36.5
1.1100519,-0.16771401,-0.7482147,0.21123485,-0.0014085474,-0.012540913,0.016828261,-0.5025061,-0.3675547,0.08463234,3.059733,-0.63692534,-0.0006108068,-0.0019232297,-0.0005933237,-0.017968299,-0.0018367681,0.003916551,8.597344e-05,0.4073163,-1.1996516,1.664481,-2.043875,-1.5580252,2.3923738,-0.00041282387,0.020883568,0.022465805,-0.047666837,7.5105694e-05,-0.00050878496,0.11492168,0.22984336,-8.925584,0.73741806,47.68062,-0.7108701,-2.956036,-1.6901145,-0.54444,0.24121892,-0.2941626,28.3125,29.5,28.625,32.8125,35.3125,36.5
1.1200519,0.024150014,-0.28646988,0.4836588,-0.010529723,-0.004745069,0.0065531475,-0.5025584,-0.36755368,0.08445466,3.0596566,-0.63702315,-0.00073005166,-4.6391608e-05,0.00039361016,-0.02333543,0.0011819516,-0.0030105535,-0.0002965928,0.40728033,-1.1994221,1.6646851,-2.0444024,-1.5580252,2.3924096,-0.00066340494,0.025990095,0.028220814,-0.05097376,5.1083633e-05,-0.00037716632,0.15322891,0.28730422,-8.963891,0.71279734,47.70032,-0.750151,-3.0089977,-1.7289749,-0.6444477,0.23683427,-0.28531602,28.3125,29.5,28.625,32.8125,35.3125,36.5
1.1300521,-0.117062435,-0.4058566,0.43984315,-0.0053152214,-0.017015874,0.00522639,-0.50252926,-0.367549,0.084165916,3.0597322,-0.63700277,-0.0005732977,0.000929257,0.0009623178,-0.027549233,0.0028918178,-0.006811307,-0.00056499336,0.4072922,-1.1991092,1.6650227,-2.0449307,-1.5580252,2.3923979,-0.0008522134,0.030243237,0.03291145,-0.05575116,-1.5110778e-05,-0.00029886427,0.21068975,0.17238252,-8.963891,0.7351769,47.703903,-0.7453388,-2.9320292,-1.7551525,-0.73455346,0.21871248,-0.2896511,28.3125,29.5,28.625,32.8125,35.3125,36.5
1.1400522,0.0911572,-0.4604122,0.5118487,-0.034221087,0.007508167,0.0008616368,-0.5025299,-0.3675254,0.08389535,3.0597503,-0.6370842,-0.0004956724,0.00042880376,0.0011270066,-0.032479603,0.0031672579,-0.0074007125,-0.0011817997,0.40725598,-1.1988193,1.6653599,-2.0454972,-1.5580252,2.3924098,-0.0014152892,0.03652499,0.037759043,-0.06623077,-4.9780083e-05,-0.0002474913,0.15322891,0.24899697,-9.040505,0.7329411,47.707485,-0.78465056,-3.0765662,-1.8252709,-0.8023759,0.20560855,-0.28237975,28.3125,29.5,28.625,32.8125,35.3125,36.5
1.1500524,-0.47800198,-1.536451,0.08638987,-0.017439732,-0.00016882278,0.020298976,-0.5025485,-0.3675297,0.08354705,3.0597527,-0.6371048,-0.00051070086,-0.0035578848,-0.00052659406,-0.03180111,-0.0030008939,0.006855965,-0.0013292689,0.40725595,-1.1984115,1.665768,-2.0463173,-1.5580372,2.3924222,-0.0015210422,0.03684789,0.039919514,-0.08424837,-7.208943e-05,-0.00021119023,0.038307227,0.30645782,-9.174581,0.7396539,47.655537,-0.7395642,-3.1976657,-1.9271505,-0.58266294,0.20148927,-0.27043357,28.3125,29.5,28.625,32.8125,35.3125,36.5
1.1600524,-0.26762074,-0.56025106,-0.15374199,-0.0051306635,-0.02153197,0.011924355,-0.5025899,-0.36754367,0.08322434,3.0596864,-0.63710964,-0.0006168361,-0.0015348706,0.00072548253,-0.034367185,0.00064883864,-0.0010117507,-0.0018137173,0.40724385,-1.1980273,1.6661633,-2.047189,-1.5580252,2.3924222,-0.001978369,0.039047703,0.041551135,-0.079409465,-0.00029187158,-0.00018417696,0.17238252,0.19153613,-9.346964,0.71951014,47.68599,-0.75729716,-3.3423266,-2.0001385,-0.5141616,0.20173731,-0.28220826,28.3125,29.5,28.625,32.8125,35.3125,36.5
1.170053,-0.19552115,-0.13497086,-0.42363435,0.0064803185,-0.036289718,0.013893054,-0.5025631,-0.36750445,0.08283758,3.059781,-0.637189,-0.00040637678,0.0019561476,0.0024676854,-0.035424475,0.0062208036,-0.013722259,-0.0021491726,0.4072078,-1.1976198,1.6666301,-2.0478904,-1.5580372,2.3924222,-0.0022969488,0.03914565,0.04038196,-0.06446036,-0.0003410164,-0.00016329074,0.13407528,0.11492168,-9.519346,0.6769922,47.70211,-0.7891449,-3.438572,-1.9398606,-0.6586764,0.1953064,-0.28833967,28.3125,29.5,28.625,32.8125,35.3125,36.5
1.1800519,0.30868304,-0.22303842,-0.5637769,-0.0145853935,-0.0019448312,0.008620844,-0.5025124,-0.36748645,0.08244891,3.0599372,-0.6371664,-0.00010883289,0.0036490464,0.003380357,-0.035222962,0.008480464,-0.018769192,-0.002403309,0.40721974,-1.1971887,1.6670488,-2.0484989,-1.5580496,2.3923979,-0.0025359083,0.03775641,0.040207814,-0.05736777,-0.00040026882,-0.00014665966,0.15322891,0.22984336,-9.500193,0.71279734,47.695843,-0.7734355,-3.3282328,-2.014858,-0.8300374,0.16539094,-0.27751604,28.3125,29.5,28.625,32.8125,35.3125,36.5
1.1900524,-0.38600603,-1.0404238,-0.541619,-0.040289264,0.014820687,0.008951308,-0.50249743,-0.36744836,0.082142614,3.0599592,-0.63728684,6.01534e-05,-0.00019416619,0.0018082983,-0.030590737,0.0016086905,-0.002408469,-0.0024672677,0.40715986,-1.1968791,1.6674446,-2.0490892,-1.5580252,2.3924098,-0.002580365,0.032367684,0.039948408,-0.06946358,-0.00060034165,-0.00013310318,0.076614454,0.24899697,-9.710882,0.7329411,47.71465,-0.7725475,-3.488339,-1.9755634,-0.77837116,0.16985898,-0.28177327,28.3125,29.5,28.625,32.8125,35.3125,36.5
1.2000535,-0.7350976,-0.94649756,-1.0279895,-0.03822956,0.008921412,0.008344334,-0.5025174,-0.36744526,0.0818332,3.0599608,-0.63730717,-2.244319e-05,-0.0038869425,0.00038261418,-0.028355092,-0.0042089173,0.011166542,-0.0027177199,0.40715978,-1.1965322,1.6678404,-2.0498717,-1.5580615,2.3924222,-0.0028147209,0.030620018,0.040417563,-0.08295405,-0.0006656995,-0.000121840894,0.095768064,0.24899697,-9.825804,0.65013564,47.677036,-0.74697655,-3.2667904,-1.986778,-0.57830787,0.14768307,-0.30138788,28.3125,29.5,28.625,32.8125,35.3125,36.5
1.2100527,-0.10572142,-0.5152387,-0.7692853,0.0026199995,-0.022493191,0.015834687,-0.5025707,-0.3674369,0.08155624,3.0598652,-0.63732374,-0.00021957468,-0.002988527,0.0009287235,-0.027641108,-0.0027690132,0.0077760057,-0.0029764634,0.4071118,-1.1962329,1.6682462,-2.0507314,-1.558061,2.3923979,-0.0030657772,0.029542876,0.0388659,-0.07664194,-0.0006331226,-0.00011233609,0.1340753,0.17238252,-9.653421,0.7553206,47.694946,-0.81598437,-3.2842922,-1.8263366,-0.5605135,0.14709052,-0.30517927,28.3125,29.5,28.625,32.8125,35.3125,36.5
1.2200527,0.42052674,-0.37654045,-0.21511078,-0.0013181847,-0.011897403,0.0111093195,-0.5026176,-0.36744907,0.081336334,3.0597398,-0.6373342,-0.00042192222,-0.000555817,0.0020823898,-0.028081654,0.0014784677,-0.0008205047,-0.0028999613,0.40708783,-1.1959933,1.6685814,-2.0514815,-1.5580376,2.3923979,-0.0029805042,0.029370567,0.037572313,-0.06559864,-0.0011059095,-0.00010427779,0.24899697,0.17238252,-9.270349,0.73741806,47.694946,-0.8155361,-3.2362828,-1.6193134,-0.68693775,0.1378794,-0.30349633,28.3125,29.5,28.625,32.8125,35.3125,36.5
1.2300532,0.7313197,0.07838682,0.28914553,-0.017386517,-0.008743601,-0.0023643917,-0.5026122,-0.3674077,0.081073865,3.059741,-0.6374294,-0.00037507052,0.0015038293,0.0012640471,-0.027955439,0.002865426,-0.0041545145,-0.00036672867,0.40702876,-1.1957538,1.6689762,-2.052079,-1.5580376,2.3923979,-0.00042226803,0.028588954,0.03729458,-0.060929205,-0.0010493451,-7.752888e-05,0.2681506,0.19153613,-9.174581,0.72622824,47.709274,-0.599722,-3.137559,-1.5970533,-0.8294287,0.1255244,-0.2991239,28.3125,29.5,28.625,32.8125,35.3125,36.5
1.2400522,0.18310295,-0.44782624,0.25639856,-0.039062474,-0.004016578,-0.0028963538,-0.50261486,-0.36740902,0.08078507,3.0597742,-0.63745636,-0.00041984816,-0.00054715737,0.0007023412,-0.027319662,0.0005816187,0.003818444,-0.00032362848,0.40705276,-1.1954305,1.6693362,-2.0527642,-1.5580863,2.3924341,-0.00038660792,0.028125579,0.038558975,-0.06995161,-0.0021273617,-9.646025e-05,0.21068975,0.3256114,-9.193734,0.779936,47.707485,-0.6252514,-3.0377586,-1.6067331,-0.79396206,0.1304165,-0.31146914,28.3125,29.5,28.625,32.8125,35.3125,36.5
1.2500522,0.20653267,-0.90575945,-0.1552002,-0.033877473,0.011708575,0.0014785127,-0.50261074,-0.36743134,0.08051821,3.059755,-0.63729835,-0.0005293656,-0.0032391187,-0.00084011984,-0.028181596,-0.0041760732,0.012582126,2.141434e-05,0.4070888,-1.1951659,1.6697439,-2.0535228,-1.5580858,2.392374,-0.00025150893,0.030493148,0.040549617,-0.08424159,-0.0012564792,-0.0003034398,0.076614454,0.30645782,-9.346964,0.784413,47.695843,-0.5933137,-3.0765011,-1.6750731,-0.59912825,0.112169474,-0.2956714,28.3125,29.5,28.625,32.8125,35.3125,36.5
1.2600521,0.53768367,0.75404704,0.17333639,-0.010344519,-0.011520632,-0.0014006833,-0.5026064,-0.36742976,0.08016728,3.0597851,-0.6373239,-0.0005797977,-0.00015695345,0.0005775778,-0.03219245,0.0013122055,0.0011068058,0.000100009966,0.40711278,-1.1947931,1.6702121,-2.0543706,-1.558134,2.3924098,-0.00014045174,0.034349836,0.04274587,-0.07758256,-0.0017320225,-0.0002722846,0.11492168,0.19153613,-9.3661175,0.7105615,47.681515,-0.63650143,-3.2065172,-1.7793992,-0.56161857,0.12234387,-0.29886955,28.3125,29.5,28.625,32.8125,35.3125,36.5
1.2700522,0.6903709,0.35435772,0.08667716,0.013160608,-0.00454449,0.0073867687,-0.5025787,-0.3674219,0.07984979,3.0598145,-0.63735074,-0.0004682766,0.003857175,0.0021772704,-0.033979367,0.0072601275,-0.013545768,8.264918e-05,0.4071128,-1.1944691,1.6706313,-2.0550358,-1.5581216,2.3924222,-0.00011104393,0.03542845,0.041682083,-0.061789334,-0.001356738,-0.00021744808,0.15322891,0.05746084,-9.308657,0.7418897,47.695843,-0.59369504,-3.2972465,-1.8367875,-0.7367619,0.10282089,-0.28836823,28.3125,29.5,28.625,32.8125,35.3125,36.5
1.2800528,-0.38635993,-1.0562583,-0.13334909,-0.019233413,0.0029327355,0.012152225,-0.50256455,-0.3673842,0.07953442,3.0598862,-0.63744354,-0.0003348938,0.004111339,0.0023314394,-0.03403536,0.007697489,-0.01411918,6.4087624e-05,0.40707693,-1.1941338,1.6710147,-2.0556333,-1.5581459,2.3924341,-9.2103444e-05,0.035287187,0.041856308,-0.06112245,-0.0015302398,-0.00018099986,0.17238252,0.22984336,-9.308656,0.73741806,47.707485,-0.596085,-3.2354167,-1.8547304,-0.8206318,0.09859096,-0.28584307,28.3125,29.5,28.625,32.8125,35.3125,36.5
1.2900527,-0.49045092,-1.5283892,-0.20519613,-0.03611951,-0.0055023837,0.012820112,-0.5025543,-0.36736783,0.07922029,3.059918,-0.6374316,-0.00023765698,0.0007492088,0.0008644889,-0.033317182,0.0024254571,-0.001967519,4.7065576e-05,0.40705284,-1.1937981,1.6714104,-2.056297,-1.558134,2.3923979,-7.868278e-05,0.035439394,0.043487784,-0.076152526,-0.0015331315,-0.00015501777,0.19153613,0.4405331,-9.461885,0.7329411,47.71465,-0.55880976,-3.3107715,-1.9534607,-0.70843387,0.09496273,-0.28915673,28.3125,29.5,28.625,32.8125,35.3125,36.5
1.300053,0.0015055431,-0.7017584,-0.27552432,-0.026752612,-0.008222871,0.0050838133,-0.502542,-0.36736673,0.07885792,3.0599592,-0.6374028,-0.00019084878,-0.0018290733,-0.00031989018,-0.032623276,-0.0014133606,0.0064206007,3.6179605e-05,0.40706488,-1.1934022,1.6718644,-2.0571024,-1.5581459,2.392386,-6.867617e-05,0.03595401,0.043484293,-0.08588714,-0.0013526259,-0.00013555861,0.19153613,0.24899697,-9.442732,0.7329411,47.68599,-0.56725675,-3.3902888,-1.9359508,-0.4792741,0.10537915,-0.2826568,28.3125,29.5,28.625,32.8125,35.3125,36.5
1.3100523,0.96974564,0.96486765,0.03333112,0.0004619208,-0.015999634,-0.0066160145,-0.5025478,-0.3673575,0.0785302,3.0599632,-0.6374423,-0.00019404208,0.0010164527,0.00082382956,-0.032924935,0.0029501042,-0.0042931563,3.508813e-05,0.40705284,-1.1930426,1.672283,-2.0578754,-1.5581578,2.3923979,-6.0927585e-05,0.035859693,0.041103225,-0.07184705,-0.00108942,-0.00012044068,0.15322891,-0.038307227,-9.308657,0.7486078,47.681515,-0.5327637,-3.4135966,-2.0461624,-0.54654795,0.08517733,-0.28212023,28.3125,29.5,28.625,32.8125,35.3125,36.5
1.3200533,-0.5620396,-0.88316226,-0.45886606,-0.010326934,-0.0033004433,0.009749615,-0.50250673,-0.36735573,0.078208186,3.0600498,-0.63740444,-2.0846997e-05,0.0031795937,0.0017610531,-0.03243383,0.0065827197,-0.01263861,3.302452e-05,0.40707693,-1.1926955,1.6726655,-2.05847,-1.5581578,2.392386,-5.475032e-05,0.03511137,0.038112715,-0.059006564,-0.0010967058,-0.000108356486,0.019153614,0.15322891,-9.576807,0.74413085,47.703007,-0.55490303,-3.3417954,-1.9547498,-0.7151444,0.08551136,-0.2684951,28.3125,29.5,28.625,32.8125,35.3125,36.5
1.3300518,-0.34538004,-1.1860623,-0.5330891,-0.023292027,0.010408705,0.0150940465,-0.5024813,-0.36734462,0.07791228,3.060086,-0.6374706,0.00015450103,0.0025728326,0.0015225856,-0.03143832,0.005909857,-0.0108691715,2.7561371e-05,0.40706488,-1.1923722,1.6730121,-2.0590203,-1.558134,2.3924098,-4.9710263e-05,0.034463722,0.036759607,-0.058896877,-0.0011824127,-9.847612e-05,0.05746084,0.24899697,-9.5385,0.7665104,47.717335,-0.51779705,-3.313075,-1.8539166,-0.84121084,0.08029796,-0.24993077,28.3125,29.5,28.625,32.8125,35.3125,36.5
1.3400527,-0.34054947,-0.8291501,-0.40411586,-0.02559839,0.0023596603,0.00070966216,-0.5024828,-0.36731783,0.077566795,3.0601947,-0.63747597,0.00023192255,-0.0021745951,-0.0005155678,-0.029445875,-0.0008125945,0.0048086126,1.7991426e-05,0.40705284,-1.1919647,1.6733836,-2.0596964,-1.558194,2.392386,-4.551999e-05,0.03440299,0.036151983,-0.07528664,-0.0012572992,-9.0247224e-05,0.21068975,0.2681506,-9.557653,0.73741806,47.707485,-0.5277511,-3.3808818,-1.7479297,-0.7091025,0.069196716,-0.26469576,28.3125,29.5,28.625,32.8125,35.3125,36.5
1.3500534,-0.109205976,-0.9541356,-0.5855092,-0.030356737,0.0026127787,0.0076955906,-0.5025259,-0.36733282,0.07728981,3.0601244,-0.6374411,3.3571778e-05,-0.005417306,-0.0018817115,-0.027521677,-0.005580246,0.016129773,9.839038e-06,0.40705287,-1.1916414,1.6737546,-2.060538,-1.558206,2.392374,-4.198124e-05,0.03340847,0.03569039,-0.086113825,-0.0013885191,-8.328762e-05,0.22984336,0.2873042,-9.481039,0.75084364,47.695843,-0.56496775,-3.3785293,-1.6684042,-0.5012988,0.06091807,-0.25111222,28.3125,29.5,28.625,32.875,35.3125,36.5
1.3600532,0.29714972,0.22788365,-0.16413428,-0.011318865,-0.025273379,0.00948827,-0.50256354,-0.367377,0.07701946,3.0600219,-0.6373609,-0.0001241045,-0.0012700234,-0.00017243983,-0.029978923,0.00026924862,0.0019688094,6.7094347e-06,0.40707695,-1.1913054,1.6740893,-2.0613587,-1.5581697,2.392362,-3.8952985e-05,0.034610234,0.036517628,-0.07282419,-0.001119853,-7.097481e-05,0.11492168,0.28730422,-9.442732,0.7642693,47.661808,-0.46571144,-3.4528608,-1.6920615,-0.54789937,0.060611553,-0.252688,28.3125,29.5,28.625,32.875,35.3125,36.5
1.3700532,0.72866124,0.53135514,0.054553118,0.00876125,-0.017723424,0.0034629724,-0.50257605,-0.36738658,0.07674263,3.0600262,-0.637362,-0.00014380891,0.00018028393,0.0006535895,-0.029633805,0.003805975,-0.004651244,-3.0144454e-06,0.40708888,-1.19097,1.6744012,-2.0620139,-1.5581816,2.392374,-3.6332236e-05,0.03462846,0.03329439,-0.062137634,-0.0017280016,-6.0131744e-05,0.21068975,0.11492168,-9.212888,0.77545905,47.709274,-0.4843012,-3.4656827,-1.4436462,-0.7148901,0.068977386,-0.24659458,28.3125,29.5,28.625,32.875,35.3125,36.5
1.3800538,-0.6593383,-0.9635286,-0.08825183,-0.032367494,0.010632116,0.007018418,-0.5025483,-0.36734694,0.076451845,3.0601237,-0.63744146,7.1295126e-06,9.407409e-05,0.00038679977,-0.030106405,0.0027198074,-0.0039049669,-9.483247e-06,0.4070649,-1.1906701,1.6747602,-2.0625293,-1.5582179,2.392386,-3.404187e-05,0.035009053,0.03445253,-0.06479453,-0.0010300924,-4.656257e-05,0.019153614,0.30645782,-9.346964,0.7553206,47.707485,-0.55513585,-3.466186,-1.4762899,-0.80719316,0.05090206,-0.23819046,28.3125,29.5,28.625,32.875,35.3125,36.5
1.3900523,-0.5054156,-0.7244344,-0.20510828,-0.037954476,0.0015747445,0.018809522,-0.5025469,-0.36736235,0.07611725,3.0601463,-0.63744664,6.195986e-05,-0.004393374,-0.0014560715,-0.028080648,-0.0043416894,0.013183046,-2.0120191e-05,0.40708888,-1.1902632,1.6751202,-2.0632546,-1.5582179,2.3924098,-3.2023203e-05,0.033513352,0.036253005,-0.08358563,-0.0013526938,-4.243501e-05,0.05746084,0.28730422,-9.423578,0.75084364,47.71465,-0.49501756,-3.4989958,-1.4881849,-0.61813986,0.07466473,-0.21785064,28.3125,29.5,28.625,32.875,35.3125,36.5
1.4000527,0.25824127,-0.07207387,-0.34498456,-0.004697971,-0.017146531,0.011537266,-0.5026259,-0.3673849,0.075862624,3.0600436,-0.63744324,-0.00025778607,-0.0033779521,-0.0011805769,-0.029160604,-0.004043921,0.011234427,-2.7262373e-05,0.40708888,-1.1899275,1.6754321,-2.0641277,-1.5582541,2.3924222,-3.0230514e-05,0.03354661,0.038774513,-0.08423516,-0.00085057114,-3.0074572e-05,0.1340753,0.21068975,-9.461885,0.73741806,47.674347,-0.49322775,-3.463255,-1.6631618,-0.5059742,0.048660077,-0.22048432,28.3125,29.5,28.625,32.875,35.3125,36.5
1.4100534,0.28591093,-0.44627658,-0.341101,0.0030017688,-0.015850795,0.018326003,-0.50263584,-0.36736977,0.07554987,3.0600297,-0.63749784,-0.00029187207,0.00033485872,0.00051105255,-0.030230815,0.001406116,-0.0005463092,-5.7298967e-05,0.4070649,-1.1895922,1.6758517,-2.0649016,-1.5582656,2.3924341,-2.8380453e-12,0.032883868,0.039003924,-0.0708256,-0.0011585023,3.1833617e-05,0.2681506,0.11492168,-9.289502,0.7217513,47.695843,-0.49010247,-3.3826375,-1.6309912,-0.5835824,0.062434528,-0.20356862,28.3125,29.5,28.625,32.875,35.3125,36.5
1.4200522,0.52188283,0.039414305,0.110995404,-0.013758113,-0.009754814,0.0006122498,-0.50258577,-0.36737573,0.07524152,3.0601027,-0.6373798,-0.00015395356,0.0034034115,0.0017434077,-0.03080204,0.0050585885,-0.0097206095,-6.997869e-05,0.40710092,-1.189281,1.6762589,-2.0655205,-1.5582541,2.392386,-1.2336137e-21,0.031692624,0.039488647,-0.060249686,-0.0008534096,5.011528e-05,0.21068975,0.22984336,-9.32781,0.7620334,47.693153,-0.46138412,-3.329743,-1.6399404,-0.78011996,0.059664555,-0.18956622,28.3125,29.5,28.625,32.875,35.3125,36.5
1.4300524,0.113321654,-1.1257815,-0.37369272,-0.016655467,0.0055958815,0.012740196,-0.502574,-0.3673511,0.074944265,3.0601082,-0.63749754,-5.2289575e-05,0.0012283805,0.0007388381,-0.029887712,0.0015993607,-0.0022250016,-0.00038393398,0.4070649,-1.1889694,1.6766423,-2.0661457,-1.5582412,2.3924224,-5.362152e-31,0.031518072,0.039562322,-0.06840628,-0.0006672064,0.0003629754,0.11492168,0.24899697,-9.404425,0.7217513,47.709274,-0.48805046,-3.3313646,-1.6922174,-0.78607774,0.052757844,-0.20044626,28.3125,29.5,28.625,32.875,35.3125,36.5
1.440052,-0.64162,-1.2847124,-0.28689694,-0.02672166,0.00057182205,0.011432349,-0.5025871,-0.36736482,0.07466667,3.060106,-0.63738126,-0.00017305663,-0.0025979285,-0.0008434269,-0.028594293,-0.004099789,0.0115081975,-0.0003449715,0.40708888,-1.188658,1.6770128,-2.0669053,-1.5582656,2.392374,-2.33077e-40,0.031195542,0.040706277,-0.08409363,-0.0009061092,0.00031707695,0.076614454,0.34476504,-9.461885,0.7732232,47.70211,-0.3840714,-3.3572707,-1.7321684,-0.5998173,0.05875365,-0.18172047,28.3125,29.5,28.625,32.875,35.3125,36.5
1.4500526,0.26222226,-0.024325846,-0.10910039,8.917669e-05,-0.02104692,0.01715465,-0.5025908,-0.36737448,0.07436328,3.0600224,-0.6374591,-0.00025061387,-0.00090229994,-0.00018423652,-0.03015192,-0.0022757223,0.006714662,-0.0003149408,0.40708888,-1.188346,1.6774582,-2.0677416,-1.5582412,2.3924341,-9.735452e-10,0.031791124,0.04284233,-0.08170177,-0.00067234226,0.0002896572,0.095768064,0.15322891,-9.232041,0.74413085,47.705692,-0.4282937,-3.3829775,-1.7696288,-0.5067833,0.044343438,-0.18264106,28.3125,29.5,28.625,32.875,35.3125,36.5
1.4600527,0.37311238,0.43723392,0.15353905,-0.0064603454,-0.015749099,0.012469909,-0.5025958,-0.3673885,0.07405884,3.0600195,-0.6374006,-0.00024956427,0.0024361638,0.0013131789,-0.030818157,0.0030310252,-0.0051348777,-0.00032024703,0.40710092,-1.1879867,1.6778163,-2.068467,-1.5582298,2.3924098,-4.2317118e-19,0.031550307,0.041288722,-0.06692455,-0.00082158024,0.00029838373,0.2681506,0.076614454,-9.270349,0.6971306,47.672558,-0.40068305,-3.2556036,-1.8000875,-0.641606,0.042806752,-0.17667086,28.3125,29.5,28.625,32.875,35.3125,36.5
1.4700531,0.21577139,-0.24891502,-0.09062672,-0.03415769,0.0031291514,0.01854521,-0.5025584,-0.3673369,0.0737395,3.0601337,-0.6374462,-7.7333745e-05,0.0046292464,0.0022878142,-0.032920994,0.00684913,-0.013765496,-0.00049974554,0.4070649,-1.1876744,1.6782359,-2.0690386,-1.5582656,2.3923862,-1.8393991e-28,0.033733957,0.041406382,-0.059790887,-0.0008950371,0.00048007228,0.095768064,0.28730422,-9.232041,0.7239871,47.685097,-0.3898174,-3.4438741,-1.8667412,-0.80658126,0.043999106,-0.15725237,28.3125,29.4375,28.625,32.875,35.3125,36.5
1.4800525,-0.43230888,-1.2914395,-0.38539833,-0.03303314,0.0064513544,0.023210486,-0.5025074,-0.36731893,0.07339659,3.0602326,-0.6375073,7.004172e-05,0.0018350924,0.0012046851,-0.031932134,0.0030663598,-0.004051951,-0.00040583537,0.40708888,-1.1873268,1.6786784,-2.069689,-1.5583018,2.3924344,-7.995321e-38,0.03363547,0.041789602,-0.070490316,-0.0012909711,0.00037983194,-0.038307227,0.40222588,-9.32781,0.7172743,47.686886,-0.3841365,-3.4134827,-1.8919368,-0.7684239,0.035648372,-0.15484801,28.3125,29.4375,28.625,32.875,35.3125,36.5
1.4900523,-0.21741411,-0.47194502,-0.36835593,-0.032338645,0.0068801963,0.018889083,-0.5025306,-0.36734486,0.073085815,3.0601707,-0.63745546,-2.0484797e-05,-0.0022224393,-0.0007063431,-0.030438548,-0.0029035127,0.008542188,-0.00039984914,0.40710092,-1.1869551,1.6790613,-2.070532,-1.558278,2.3924224,-0.0,0.03429274,0.040656652,-0.083944924,-0.00083050824,0.00037297246,0.038307227,0.28730422,-9.595961,0.6971306,47.713753,-0.373528,-3.5037084,-1.7273737,-0.55600566,0.049694203,-0.1409893,28.3125,29.4375,28.625,32.875,35.3125,36.5
1.5000523,0.48270318,-0.053383306,-0.41817957,0.004931592,-0.01436727,0.014462647,-0.50256777,-0.3673336,0.07279315,3.0601263,-0.6374834,-0.0001989625,-0.0009824308,-9.516842e-05,-0.030650731,-0.00023373071,0.0029547561,-0.00030624424,0.40707695,-1.1866312,1.679469,-2.0713785,-1.5583137,2.3924222,0.0,0.034842134,0.038648594,-0.07629634,-0.0010549454,0.0002799832,0.21068975,0.13407528,-9.5385,0.7351769,47.694946,-0.35428557,-3.5971913,-1.7698317,-0.5490587,0.043742307,-0.1431099,28.3125,29.4375,28.625,32.875,35.3125,36.5
1.5100529,0.31306654,-0.27921665,-0.44645107,-0.005869614,-0.006226703,0.02231369,-0.5025561,-0.3673562,0.07248239,3.060119,-0.63748217,-0.000115217124,0.0011755201,0.0007400462,-0.030417513,0.0032796666,-0.0059185782,-0.00036065673,0.40710092,-1.1862597,1.6798147,-2.0720565,-1.558278,2.392446,0.0,0.034648135,0.03544535,-0.063361734,-0.0007444154,0.00034086657,0.11492168,0.24899697,-9.308656,0.7150385,47.71017,-0.35466248,-3.5584865,-1.6430533,-0.67407227,0.0424706,-0.13134113,28.3125,29.4375,28.625,32.875,35.3125,36.5
1.5200528,-0.24957906,-0.9933368,-0.41255516,-0.008706482,-0.0117269475,0.02457018,-0.50251603,-0.36732355,0.07215696,3.0602553,-0.6374941,5.9863094e-05,0.0026745368,0.0013628918,-0.031101208,0.0050297934,-0.010163924,-0.00044252948,0.40710092,-1.1859123,1.6801986,-2.0726178,-1.5583252,2.3924344,0.0,0.034408063,0.03643135,-0.059517678,-0.0006597625,0.00042471525,0.17238252,0.19153613,-9.404425,0.7217513,47.67166,-0.33895046,-3.5669212,-1.6368556,-0.818714,0.026687793,-0.13917834,28.3125,29.4375,28.625,32.875,35.3125,36.5
1.530053,0.3102227,-0.38438377,-0.08872834,-0.03369107,0.008886889,0.01673887,-0.50253,-0.3673294,0.071870685,3.0602257,-0.6375263,7.621373e-05,-0.0002515924,0.00019815427,-0.030030368,0.0008503382,0.00027585047,-0.0003824583,0.40708888,-1.1855648,1.6805214,-2.0732925,-1.5583018,2.3924463,0.0,0.03410859,0.037108686,-0.07113495,-0.0009813918,0.0003583803,0.15322891,0.21068975,-9.442732,0.7418897,47.707485,-0.3273416,-3.6443672,-1.711441,-0.7519953,0.038918335,-0.1168922,28.3125,29.4375,28.625,32.875,35.3125,36.5
1.540053,-0.18315607,-0.98212826,-0.2663611,-0.02578693,0.012039694,0.024598802,-0.50254816,-0.36732572,0.07159868,3.0602155,-0.63750446,-5.0927363e-05,-0.0030782751,-0.0011265485,-0.029344238,-0.0037860493,0.010201902,-0.00034979233,0.40708888,-1.1852652,1.6808933,-2.0740387,-1.5583376,2.3924341,0.0,0.034335036,0.038056415,-0.08326042,-0.0006807926,0.00032401094,0.095768064,0.15322891,-9.500193,0.72622824,47.709274,-0.3638956,-3.6659632,-1.7461088,-0.59237003,0.023780458,-0.12298087,28.3125,29.4375,28.625,32.875,35.3125,36.5
1.5500526,-0.23629503,-0.21753013,0.00498148,0.005252072,-0.020882819,0.030360231,-0.5026012,-0.36735284,0.07128678,3.0600932,-0.6375156,-0.00021006187,-0.000629457,-0.00013105736,-0.029862951,-0.00024251104,0.0019613835,-0.00026866555,0.40707698,-1.1848696,1.6812643,-2.0749562,-1.5583013,2.392446,8.6106644e-05,0.03403081,0.037357494,-0.07328738,-0.00064962835,0.0003322697,0.22984336,0.17238252,-9.270349,0.7396539,47.681515,-0.28909457,-3.65621,-1.7366328,-0.56648123,0.028102208,-0.11183138,28.3125,29.4375,28.625,32.875,35.3125,36.5
1.5600519,0.41373456,0.29400417,-0.005883496,0.005791337,-0.01822904,0.01480389,-0.50256056,-0.36735132,0.07094712,3.0601957,-0.6375008,-5.6099292e-05,0.0024343545,0.0011948366,-0.030614842,0.004009106,-0.007897747,-0.00031734424,0.40711287,-1.1844864,1.6816477,-2.0755866,-1.5583252,2.3924582,7.862052e-05,0.03340657,0.037278157,-0.06184763,-0.00062295323,0.0003773639,0.17238252,0.038307227,-9.404425,0.75084364,47.70838,-0.28043047,-3.6001644,-1.7090112,-0.67494607,0.028479032,-0.116546735,28.3125,29.4375,28.625,32.875,35.3125,36.5
1.570052,-0.24807093,-0.37943527,-0.2680226,-0.030282738,-0.0031516117,0.026322065,-0.5025445,-0.36732054,0.070674285,3.0602484,-0.637513,-2.1113947e-06,0.0025889992,0.0013268507,-0.029940732,0.0044343695,-0.0083339345,-0.00035239238,0.4070889,-1.184211,1.6820182,-2.0761726,-1.55835,2.3924344,8.676529e-05,0.032570668,0.03638925,-0.059553638,-0.00083779433,0.0004195445,0.17238252,0.24899697,-9.442732,0.78217715,47.70211,-0.28262165,-3.5250103,-1.7038105,-0.81374097,0.016567012,-0.10963015,28.3125,29.4375,28.625,32.875,35.3125,36.5
1.5800519,-0.58236635,-1.3743997,-0.48425493,-0.039905854,0.01066057,0.0326633,-0.5025317,-0.36731508,0.07038294,3.0602708,-0.63746023,2.427576e-05,-0.0001645698,0.00012428871,-0.02856779,-0.0007766465,0.0036506655,-0.0004916619,0.4070889,-1.1839002,1.6824025,-2.0768473,-1.55835,2.392398,9.369884e-05,0.030713247,0.039023686,-0.07340097,-0.00082648994,0.00056107074,0.11492168,0.34476504,-9.519346,0.75084364,47.701214,-0.31114063,-3.4197135,-1.7543654,-0.7217077,0.029973257,-0.10776161,28.3125,29.4375,28.625,32.875,35.3125,36.5
1.5900527,0.04344058,-0.75660884,-0.43917724,-0.010061846,-0.00080826355,0.026487246,-0.5025712,-0.36731282,0.070056014,3.0602262,-0.63756555,-0.0001183542,-0.003296189,-0.0012454729,-0.028115908,-0.005147199,0.013662274,-0.00039648946,0.40707698,-1.1835043,1.6827973,-2.0777256,-1.5583857,2.3924582,9.917624e-05,0.031849194,0.03931165,-0.08574769,-0.00080520107,0.00046752958,0.114921674,0.28730422,-9.576807,0.7396539,47.71286,-0.31155977,-3.5690331,-1.7086318,-0.47504643,0.016766675,-0.11411342,28.3125,29.4375,28.625,32.875,35.3125,36.5
1.6000526,0.38640577,0.15807997,-0.16128862,0.012745609,-0.024952363,0.031096483,-0.50257343,-0.36732164,0.06976436,3.060154,-0.6376261,-0.00011409393,-0.00063430093,-0.00019882133,-0.027931431,-0.0015767565,0.004958521,-0.00018881242,0.40706497,-1.183181,1.6831807,-2.0784638,-1.5583376,2.3924937,0.00016754429,0.030506717,0.03796295,-0.073649384,-0.00061041507,0.00033337733,0.24899697,0.038307227,-9.442732,0.7016076,47.709274,-0.2182742,-3.4197598,-1.7224201,-0.4897214,0.006038826,-0.098618746,28.3125,29.4375,28.625,32.875,35.3125,36.5
1.6100518,0.3176351,-0.5329889,-0.23591258,0.011104921,-0.014072135,0.028518848,-0.50257725,-0.36732373,0.06952179,3.0601528,-0.63753,-0.00028758642,0.003278722,0.0014674807,-0.029535508,0.0034377545,-0.006693736,-0.00016389968,0.40708894,-1.1829417,1.6835645,-2.0791895,-1.5583853,2.392458,0.00019547915,0.029929582,0.039710555,-0.06213459,-0.00057009433,0.00034040512,0.19153613,0.1340753,-9.270349,0.7016076,47.68062,-0.20241915,-3.359076,-1.7927129,-0.6725862,0.02003227,-0.09953192,28.3125,29.4375,28.625,32.875,35.3125,36.5
1.6200526,-0.21212086,-0.5354922,-0.08545554,-0.034237668,0.00993855,0.025579492,-0.50255686,-0.3673265,0.06924287,3.0601625,-0.6375141,-0.00017591585,0.0039547533,0.0018439542,-0.02992565,0.005087628,-0.009855272,-0.00026837538,0.40708894,-1.1826298,1.6838998,-2.0797746,-1.55835,2.3924463,0.00019625682,0.030603735,0.038808502,-0.058350656,-0.00082720845,0.00044503706,0.11492168,0.17238252,-9.3661175,0.7620334,47.696735,-0.17536314,-3.2302723,-1.7768054,-0.81588745,0.0039367173,-0.10416038,28.3125,29.4375,28.625,32.875,35.3125,36.5
1.6300527,-0.22177182,-1.0199779,-0.18628873,-0.017330592,0.009055067,0.031591803,-0.5025225,-0.36729616,0.0689559,3.0602102,-0.6375629,-0.00017768606,0.00043696197,0.00023642278,-0.028910547,-0.00012674651,0.0019587874,-0.00016635959,0.40708897,-1.1823778,1.6843547,-2.0804498,-1.5583977,2.3924701,0.00027987288,0.031050134,0.039066665,-0.0719684,-0.0007485936,0.0004227916,0.076614454,0.30645782,-9.308657,0.73741806,47.674347,-0.17408276,-3.3083606,-1.8729389,-0.69843817,0.0073949927,-0.097060524,28.3125,29.4375,28.625,32.875,35.3125,36.5
1.6400522,-0.43919638,-1.1596438,-0.173998,-0.012787241,-0.00018465977,0.036445852,-0.5025267,-0.36729828,0.068637334,3.0601978,-0.6375413,-0.00021080741,-0.0026661581,-0.0011619064,-0.027828682,-0.0047884383,0.012178554,-0.00018285362,0.40708897,-1.1820184,1.6847619,-2.0812433,-1.5583972,2.3924582,0.00025617605,0.031278044,0.038950168,-0.08331082,-0.00054174755,0.00041337157,0.038307227,0.22984336,-9.442732,0.73741806,47.7254,-0.18621731,-3.2335052,-1.840852,-0.5199344,0.009972311,-0.09400388,28.3125,29.4375,28.625,32.875,35.3125,36.5
1.6500524,0.56792855,0.11708534,-0.13266638,-0.00079588214,-0.015820956,0.038609315,-0.50257087,-0.36731365,0.06836658,3.060129,-0.6375259,-0.0003971443,0.0007324875,0.00029133106,-0.02985892,0.00083180994,-0.0008316434,-0.00014175619,0.40708897,-1.1816821,1.6850971,-2.082053,-1.5584091,2.3924582,0.00027761515,0.033094093,0.03798152,-0.06998583,-0.0005214501,0.00039847012,0.19153613,0.1340753,-9.232041,0.7217513,47.70211,-0.14256151,-3.3979883,-1.7867085,-0.5799752,0.0063224416,-0.08871333,28.3125,29.4375,28.625,32.875,35.3125,36.5
1.6600528,0.26350662,0.059138585,-0.012566359,-0.0007227685,-0.017747542,0.032138195,-0.50255835,-0.3673082,0.06807556,3.0601528,-0.63758886,-0.00031555214,0.0027992001,0.001376109,-0.031120485,0.0050534704,-0.009316421,-0.00014617099,0.40708897,-1.181346,1.6854318,-2.0826604,-1.5584096,2.392494,0.00023790081,0.034487728,0.03679222,-0.060724925,-0.0010186797,0.0003625856,0.1340753,0.095768064,-9.289502,0.7553206,47.694946,-0.12731996,-3.4136672,-1.8157194,-0.6726694,0.0057596704,-0.10012235,28.3125,29.4375,28.625,32.875,35.3125,36.5
1.670052,0.0069028875,-0.94954926,-0.27666837,-0.020671807,0.0053426833,0.03317933,-0.50252175,-0.36730835,0.06774868,3.060227,-0.6375675,-0.00016160881,0.0029154068,0.0013214701,-0.031031897,0.004948793,-0.009753615,-0.000116222545,0.40711293,-1.1809746,1.6858023,-2.0832827,-1.5584096,2.392494,0.00026340244,0.03444737,0.036504906,-0.0600382,-0.0007481003,0.00036052067,0.1340753,0.30645782,-9.32781,0.7351769,47.64389,-0.12112151,-3.396327,-1.7948322,-0.80460715,0.0050565135,-0.09374116,28.3125,29.4375,28.625,32.875,35.3125,36.5
1.6800522,0.096701406,-0.8599295,-0.08913663,-0.038870182,0.019366784,0.039482314,-0.5024833,-0.36731946,0.06742977,3.060245,-0.6375537,-2.7474189e-05,-0.0016588038,-0.0007250575,-0.029623736,-0.0015844088,0.0049976585,-0.00011273784,0.4071369,-1.1806267,1.6861972,-2.083947,-1.5583733,2.3925064,0.00029823446,0.03519095,0.03613891,-0.07654913,-0.0006306885,0.0003873274,0.076614454,0.34476504,-9.519346,0.7239871,47.694946,-0.12833153,-3.4608302,-1.7616042,-0.63809323,0.0038834081,-0.08803189,28.3125,29.4375,28.625,32.875,35.3125,36.5
1.6900519,-0.2113009,-0.5384709,-0.3089289,-0.02022742,-0.00014654566,0.035641447,-0.5025263,-0.3672829,0.067104466,3.0602589,-0.63761336,-0.00010086678,-0.003033111,-0.0014645384,-0.030354887,-0.002758404,0.008582376,0.0002821983,0.4070772,-1.1802306,1.6865691,-2.084738,-1.558422,2.392482,0.0006887005,0.037530083,0.035961233,-0.08246577,-0.000986178,0.00037845434,0.038307227,0.2681506,-9.442732,0.7150385,47.705692,-0.14181834,-3.592062,-1.736309,-0.5079731,0.00023220379,-0.08298246,28.3125,29.4375,28.625,32.875,35.3125,36.5
1.700052,0.31769872,0.50960815,-0.008395067,0.0040585534,-0.024462547,0.031618968,-0.50254196,-0.36732948,0.06681195,3.0601676,-0.63755554,-0.0002552618,-0.0008501409,-0.0005054167,-0.031015906,0.0012429677,-0.0010821667,0.00021000086,0.4071251,-1.1798823,1.6869515,-2.0856082,-1.5583977,2.3925064,0.0005836276,0.038604267,0.033201408,-0.07032135,-0.00081078353,0.00035093795,0.17238252,0.15322891,-9.289502,0.74413085,47.692257,-0.044091992,-3.7674074,-1.56423,-0.5574272,0.0038084942,-0.07944931,28.3125,29.4375,28.625,32.875,35.3125,36.5
1.7100519,0.0043209754,-0.3986112,0.076408915,0.013887131,-0.02229979,0.042548053,-0.50252223,-0.36732116,0.066491924,3.060266,-0.63755876,-0.000102610815,0.002230029,0.0007904904,-0.03204602,0.0051186136,-0.010792009,7.777789e-05,0.40713698,-1.1794872,1.6872629,-2.086179,-1.5584215,2.3925064,0.00049157935,0.03811804,0.033815507,-0.0600001,-0.00049880054,0.00039702162,0.22984336,0.1340753,-9.270349,0.7217513,47.681515,-0.036073092,-3.6743374,-1.6975205,-0.70053595,0.0019692893,-0.08145163,28.3125,29.4375,28.625,32.875,35.3125,36.5
1.7200527,-0.09699563,-0.8677853,-0.24232142,-0.018124359,0.0095085595,0.04203424,-0.5024893,-0.36730692,0.06616996,3.0603335,-0.63757366,0.00011745025,0.0024028171,0.00084677583,-0.031373467,0.0047373003,-0.009492625,9.173711e-05,0.4071251,-1.1791161,1.68761,-2.0867422,-1.5583977,2.392494,0.00060166913,0.03637413,0.034835063,-0.060620517,-0.00066328666,0.00049153715,0.19153613,0.17238252,-9.346964,0.70608455,47.684196,-0.029505026,-3.670652,-1.6953833,-0.799348,-0.01835763,-0.07800953,28.3125,29.4375,28.625,32.875,35.25,36.5
1.730052,0.052787736,-0.84365445,-0.35085574,-0.03963936,0.008839701,0.03466801,-0.50246984,-0.36729077,0.06584229,3.0604298,-0.6375961,0.00020870689,-0.0011644494,-0.0005195098,-0.029493058,-0.00043422115,0.0034739568,9.964277e-05,0.40713698,-1.178733,1.6879705,-2.0873811,-1.5584458,2.3925064,0.0005325375,0.035157774,0.03531475,-0.07383572,-0.0010788407,0.00040677626,0.114921674,0.34476504,-9.442732,0.7329411,47.696735,-0.036714837,-3.6611884,-1.7595131,-0.72994906,-0.00088867475,-0.07424312,28.3125,29.4375,28.625,32.875,35.25,36.5
1.7400519,-0.28002697,-0.5745863,-0.5065126,-0.026907967,0.002843594,0.041642517,-0.5024865,-0.3673103,0.06554615,3.0603862,-0.63756716,7.297645e-05,-0.00360796,-0.0017175484,-0.028288962,-0.004940536,0.012843114,0.0001459982,0.40716094,-1.1783859,1.6883534,-2.0882103,-1.5584573,2.3925183,0.00054115424,0.034255702,0.036252428,-0.08426009,-0.0006738805,0.00036822268,0.095768064,0.2681506,-9.615114,0.69937176,47.694946,-0.08103969,-3.5899382,-1.7322695,-0.51274014,-0.00472655,-0.082776874,28.3125,29.4375,28.625,32.875,35.25,36.5
1.7500527,0.86676294,0.38924712,-0.5611216,0.0072328504,-0.0021379222,0.03343367,-0.5025095,-0.3673243,0.06524949,3.0603285,-0.63757324,-1.4435845e-05,0.0002600608,-0.00015993982,-0.029957566,0.00026949565,0.0003335011,0.00031894393,0.40716097,-1.1780263,1.6887134,-2.0890076,-1.5584453,2.39253,0.00062393124,0.03439584,0.036885858,-0.07148318,-0.000471203,0.00028391564,0.15322891,0.17238252,-9.5385,0.7016076,47.703007,-0.06595769,-3.5675187,-1.7438215,-0.58874196,-0.015342556,-0.06949705,28.3125,29.4375,28.625,32.875,35.25,36.5
1.7600523,0.12575085,-0.24485414,-0.3780601,0.012538593,-0.017714774,0.047430176,-0.5025014,-0.36732483,0.06495947,3.0603447,-0.6375191,3.0415395e-05,0.0021703485,0.0006348755,-0.028349351,0.0026244938,-0.004955586,0.00038224674,0.407161,-1.1776918,1.6890601,-2.0896623,-1.5584334,2.3924937,0.0007001385,0.031205319,0.035171762,-0.06078928,-0.0005174142,0.00029956174,0.19153613,0.11492168,-9.423578,0.74413085,47.678825,-0.017009774,-3.4265583,-1.6866863,-0.76398766,-0.005326118,-0.07972283,28.3125,29.4375,28.625,32.875,35.25,36.5
1.7700527,-0.6509322,-0.99605787,-0.50024,-0.032249752,-0.0021364274,0.056620996,-0.5024604,-0.36730725,0.064680934,3.0604138,-0.63751537,0.000114711336,0.0012820205,0.00018832604,-0.02769265,0.001248397,-0.0010303103,0.0005898932,0.40717313,-1.1774166,1.6894435,-2.0902383,-1.5584577,2.3924937,0.00094032456,0.030534886,0.035494003,-0.06458965,-0.0008168736,0.00032849683,0.095768064,0.30645782,-9.442732,0.7665104,47.6636,0.0048543084,-3.2880797,-1.7541298,-0.8368007,-0.0023313328,-0.06860028,28.3125,29.4375,28.625,32.875,35.25,36.5
1.7800678,-0.2154103,-0.9687731,-0.52669334,-0.052545406,0.019518727,0.053153776,-0.5024635,-0.3673008,0.0643923,3.0603952,-0.6375512,9.4098046e-05,-0.0029369898,-0.0014743338,-0.026765628,-0.0051716785,0.0134041,0.0001370517,0.40716097,-1.1770927,1.6898149,-2.0909507,-1.5584573,2.3925064,0.0006172583,0.03090892,0.036976177,-0.082244776,-0.00067799515,0.00045328468,0.095768064,0.40222588,-9.461885,0.73741806,47.716442,0.11222944,-3.2954807,-1.7293496,-0.6727389,-0.011459784,-0.07079299,28.3125,29.4375,28.625,32.875,35.25,36.5
1.7901014,0.27122578,-0.39284158,-0.37001687,-0.0010457354,-0.009034832,0.049273893,-0.50251883,-0.36734483,0.06414905,3.0602407,-0.6374971,-0.00023010306,-0.0038736188,-0.0022887106,-0.026588432,-0.006872734,0.017180458,0.0008085772,0.40718514,-1.1767929,1.690163,-2.091862,-1.5584453,2.3925183,0.0012054712,0.031296693,0.03714407,-0.08694084,-0.00062215654,0.0003686135,0.076614454,0.24899697,-9.3661175,0.7463667,47.733456,0.040845633,-3.3332796,-1.7077684,-0.47270775,-0.01858906,-0.06770797,28.3125,29.4375,28.625,32.875,35.25,36.5
1.8001021,0.2759378,-0.110307485,-0.17479256,0.01871916,-0.019204345,0.05606126,-0.50253326,-0.36735892,0.06387124,3.060177,-0.6374835,-0.0003069936,0.00069378753,-0.00011120366,-0.028997775,-5.752171e-07,0.0012152462,0.0004959966,0.40718502,-1.1764691,1.6905216,-2.092622,-1.5584215,2.3925183,0.00088439434,0.032250885,0.037592035,-0.070961684,-0.00057033444,0.00036616248,0.28730422,0.038307227,-9.078813,0.7083204,47.7245,0.069260664,-3.2424583,-1.7420583,-0.61418545,-0.0152074685,-0.06623131,28.3125,29.4375,28.625,32.875,35.25,36.5
1.8101022,0.42524776,-0.31909803,-0.28335863,0.009864207,-0.012413159,0.055883843,-0.50251037,-0.3673533,0.06360073,3.0602279,-0.6374562,-0.0003038014,0.0038850454,0.0010270359,-0.029934356,0.0039211004,-0.0078367945,0.0009091961,0.40720898,-1.1761817,1.6908807,-2.0932415,-1.5584573,2.392518,0.0012527901,0.031409472,0.03863389,-0.061296556,-0.00056031684,0.0003247051,0.28730422,0.15322891,-9.232041,0.7150385,47.698532,0.039030872,-3.1448562,-1.843229,-0.76307416,-0.029242696,-0.05568039,28.3125,29.4375,28.625,32.875,35.25,36.5
1.8201008,0.060915615,-0.42890915,-0.014824606,0.05171544,-0.062587544,0.059158813,-0.502492,-0.36730987,0.06328666,3.0603094,-0.6375699,-0.00023783154,0.0023141152,0.00059384765,-0.029839678,0.0017179347,-0.0022113698,0.00061870343,0.40718505,-1.1758461,1.691276,-2.0938785,-1.5585178,2.3925538,0.0009854849,0.03160274,0.03989771,-0.06879107,-0.00078063284,0.0003437051,0.076614454,0.30645782,-9.481039,0.68818194,47.678825,0.06691237,-3.137401,-1.8974786,-0.80063474,-0.016973019,-0.057295684,28.3125,29.4375,28.625,32.875,35.25,36.5
1.8301,1.4382716,-0.5760243,-0.30712384,0.0057806266,-0.196576,0.05210043,-0.5025168,-0.36732882,0.06301737,3.0602572,-0.63742435,-0.00041351412,-0.0028058714,-0.0015605926,-0.02839098,-0.0048618754,0.012491505,0.0003514204,0.40719703,-1.1755339,1.691645,-2.0946977,-1.5585173,2.392482,0.0007958119,0.033369917,0.03789247,-0.08466117,-0.00060506794,0.00041717786,-0.21068975,0.15322891,-9.653421,0.71951014,47.70838,0.016387722,-3.2100315,-1.8499603,-0.5989574,-0.011350496,-0.062430643,28.3125,29.4375,28.625,32.875,35.25,36.5
1.8401021,-0.080939345,-0.33397967,-0.15805764,0.02492256,-0.06809334,0.060150515,-0.5024932,-0.36733022,0.06268693,3.0602274,-0.6374573,-0.0004295657,-0.00232938,-0.0006692316,-0.028959425,-0.001965824,0.009513444,-0.00017799516,0.40720874,-1.175198,1.6921238,-2.095534,-1.5585059,2.3925183,0.0004878953,0.034284297,0.037043784,-0.0808425,-0.0020797332,0.0006285633,0.30645782,0.2681506,-9.193734,0.7239871,47.703903,-0.0051437444,-3.3061945,-1.7595886,-0.5351002,-0.012772561,-0.03999671,28.3125,29.4375,28.625,32.875,35.25,36.5
1.8500582,0.28551212,0.06833892,0.11008616,0.026747363,-0.08623896,0.056643024,-0.5024957,-0.36734346,0.06235749,3.06023,-0.63747734,-0.0003777079,0.0017539014,0.0008497774,-0.03166094,0.003774631,-0.0063564703,-0.00017639925,0.40722072,-1.1747776,1.692459,-2.0962589,-1.5584935,2.3925421,0.00035168772,0.036836825,0.036154144,-0.065661974,-0.00102973,0.000504646,0.038307227,0.28730422,-9.289502,0.6948948,47.703903,-0.00697053,-3.3699367,-1.7204804,-0.6760498,-0.026818156,-0.043350082,28.3125,29.4375,28.625,32.875,35.25,36.5
1.860097,1.0516777,-0.5337163,-0.17491929,0.014864513,-0.13700497,0.053897403,-0.50250405,-0.36731556,0.062081974,3.0602942,-0.6374535,-0.0004441682,0.0015549186,0.0010495699,-0.03172774,0.0044605965,-0.006125867,-0.00026044803,0.40720865,-1.1744658,1.6928052,-2.0969179,-1.558566,2.3925064,0.00027494077,0.037176043,0.035835415,-0.065619834,-0.0017516692,0.0005063506,0.15322891,0.15322891,-9.404425,0.7038487,47.687782,-0.016853264,-3.4521122,-1.7175925,-0.76584303,-0.018644208,-0.032602616,28.3125,29.4375,28.625,32.875,35.25,36.5
1.8700995,1.226796,-0.124375984,-0.40641737,0.015842201,-0.16168576,0.055437043,-0.5025219,-0.36731178,0.06176101,3.060281,-0.6375842,-0.0004426306,-0.0027940345,-0.0007456555,-0.03138251,-0.00087665254,0.0066198697,-0.0002761954,0.40719685,-1.1740574,1.6931399,-2.0976527,-1.5585779,2.392578,0.00022569155,0.03966354,0.035303943,-0.08139204,-0.0019374366,0.00046615716,0.05746084,0.28730422,-9.442732,0.74413085,47.672558,-0.036470953,-3.5983443,-1.6805243,-0.6523443,-0.013582207,-0.035703808,28.3125,29.4375,28.625,32.875,35.25,36.5
