Tylouw/Master_Thesis_Code/test_recorded_data/real_test6/insertion_5_2026-02-24_18-36-11.csv
timestamp[s],tcp_force_x[N],tcp_force_y[N],tcp_force_z[N],tcp_force_rx[Nm?],tcp_force_ry[Nm?],tcp_force_rz[Nm?],tcp_pose_x[m],tcp_pose_y[m],tcp_pose_z[m],tcp_pose_rx[rot_vec_x],tcp_pose_ry[rot_vec_y],tcp_pose_rz[rot_vec_z],tcp_velo_x[m/s],tcp_velo_y[m/s],tcp_velo_z[m/s],tcp_velo_rx[rot_vec_x/s],tcp_velo_ry[rot_vec_y/s],tcp_velo_rz[rot_vec_z/s],q1[rad],q2[rad],q3[rad],q4[rad],q5[rad],q6[rad],qd1[rad/s],qd2[rad/s],qd3[rad/s],qd4[rad/s],qd5[rad/s],qd6[rad/s],tool_acc_x,tool_acc_y,tool_acc_z,current_of_whole_robot[A],voltage_of_whole_robot[V],current_J1[A],current_J2[A],current_J3[A],current_J4[A],current_J5[A],current_J6[A],temp_J1[C],temp_J2[C],temp_J3[C],temp_J4[C],temp_J5[C],temp_J6[C]
7.140043e-07,-0.55994487,-0.69753015,0.15456258,-0.048601564,0.03709902,-0.013024343,-0.3815088,-0.34954807,0.084942326,-3.0784779,0.6248681,-0.00024281339,-0.0006984736,-0.00042151188,0.00018252523,-0.0015083528,0.0025250237,0.00012438318,0.47919,-1.4235744,1.9549874,-2.100403,-1.5707697,2.454145,0.0,-8.741395e-07,0.0003260712,-0.003261904,0.00016742005,-0.0001242097,0.15322891,0.076614454,-8.848969,0.7620334,47.713753,-0.12354806,-3.111908,-2.185034,-0.4704612,0.091100365,-0.24040462,28.3125,29.5,28.625,32.875,35.3125,36.5
0.010053261,-0.18762572,0.0111347735,-0.7971411,0.017704822,-0.011217755,-0.0003054593,-0.3815363,-0.34955567,0.08492535,-3.0785038,0.62493086,-0.00016966925,-0.00083366386,-0.00049265655,0.0006000869,-0.0018462974,0.0031708337,0.00011456002,0.47917795,-1.4235268,1.9549989,-2.1005223,-1.5707697,2.4541688,0.0,-0.00058765186,4.7990136e-07,-0.003078423,0.00016932016,-0.00011434642,0.1340753,0.0,-9.097966,0.7016076,47.694946,-0.42677623,-2.4868426,-2.9967194,-0.41804236,0.1057849,-0.27773187,28.3125,29.5,28.625,32.875,35.3125,36.5
0.020052606,-2.4501197,-3.6966908,-1.6646068,-0.09041943,0.100704476,-0.028887099,-0.3815263,-0.349536,0.084861785,-3.0784047,0.62473255,-0.00043627011,-0.007435566,-0.0009512842,-0.0013629241,-1.3388709e-05,-0.002687579,0.008574412,0.479152,-1.423377,1.9549454,-2.1004007,-1.5707692,2.4540317,-0.0059394254,0.016655877,-0.01638626,0.0021022912,0.0012133926,-0.014505785,-0.51714754,0.59376204,-9.768343,0.7553206,47.707485,-0.56003785,-2.5997658,-3.1407194,-0.4604575,0.11184218,-0.22287443,28.3125,29.5,28.625,32.875,35.3125,36.5
0.03010059,-2.1586826,-2.358053,-1.6313199,-0.07923157,0.07904589,-0.09836067,-0.3816209,-0.34953842,0.08482928,-3.078379,0.6247692,-0.0005331309,-0.013866046,-0.0014450246,2.370102e-06,-0.0037879976,0.00146607,0.003013542,0.47905397,-1.4231466,1.9547514,-2.1003778,-1.5707449,2.45396,-0.011864279,0.023280539,-0.026676172,0.00033687183,0.0026210085,-0.014866153,-0.5554548,0.36391866,-9.80665,0.7866488,47.687782,-0.6951057,-2.529357,-3.1921995,-0.45704734,0.110579714,-0.31423217,28.3125,29.5,28.625,32.875,35.3125,36.5
0.04010129,-1.7094638,-0.9081749,-1.2605227,0.002448385,0.050192058,-0.15591621,-0.38181832,-0.3495828,0.08484695,-3.078502,0.6247378,-0.00043576353,-0.019736925,-0.0028294728,0.0015319444,-0.008780292,0.0042102393,9.949142e-05,0.47892022,-1.4228439,1.9543761,-2.1004255,-1.5706958,2.4537911,-0.01672208,0.030183472,-0.03798889,1.2737796e-07,0.0057633063,-0.016808765,-0.17238252,-0.24899697,-9.730036,0.7620334,47.667187,-0.6669973,-2.613411,-3.03412,-0.41838428,0.049675576,-0.29157197,28.3125,29.5,28.625,32.875,35.3125,36.5
0.050105937,-0.8715321,-2.3891847,-1.4831808,-0.041466046,0.057374384,-0.14108282,-0.38202143,-0.34959736,0.0848664,-3.0785377,0.6248007,-0.00037419132,-0.024450095,-0.0025627948,0.0020402027,-0.008019861,0.006908212,0.00086090935,0.47875106,-1.4225415,1.953978,-2.1003902,-1.5706843,2.453657,-0.020389104,0.036255762,-0.04609751,1.51155e-13,0.0038287032,-0.021228319,-0.11492168,0.2681506,-9.500193,0.7709874,47.689575,-0.655144,-2.391992,-3.1446624,-0.39308196,0.09374833,-0.24239206,28.3125,29.5,28.625,32.875,35.3125,36.5
0.060109757,-1.6155016,-3.4261353,-1.2456107,-0.06442646,0.039313696,-0.1338707,-0.3823109,-0.34963962,0.0849206,-3.0786934,0.62483203,-0.00021948418,-0.027693555,-0.0028477053,0.0019636701,-0.008575185,0.0052684466,0.002612026,0.47852185,-1.422167,1.9534258,-2.1003892,-1.5706238,2.4534278,-0.023608271,0.042626183,-0.053789724,0.002519261,0.005070991,-0.026195673,-0.095768064,0.45968673,-9.442732,0.73069996,47.682407,-0.6449369,-2.2432775,-3.2703257,-0.3935784,0.09694652,-0.2073428,28.3125,29.5,28.625,32.875,35.3125,36.5
0.07010995,-0.3055886,-1.530411,-0.7531926,-0.04540353,0.05240784,-0.14779049,-0.38263306,-0.3496665,0.08494785,-3.0788007,0.6248142,-8.5717795e-05,-0.03284533,-0.0046433397,0.0029924323,-0.012351634,0.008021024,0.0031048055,0.47825703,-1.4216958,1.952825,-2.1003897,-1.5705994,2.4531386,-0.026399115,0.050091673,-0.06447502,0.0015518131,0.007137127,-0.029475177,-0.15322891,0.22984336,-9.270349,0.78217715,47.716442,-0.6207041,-2.091401,-3.2723343,-0.3281933,0.09398711,-0.19001386,28.3125,29.5,28.625,32.875,35.3125,36.5
0.080102526,-0.9134344,-0.987435,-0.5022853,-0.04672539,0.07007637,-0.14571856,-0.38298196,-0.3497197,0.084969126,3.0787168,-0.6247758,9.4593626e-05,-0.035965424,-0.0061490857,0.0028053783,-0.013835531,0.00585144,0.0050654216,0.47795656,-1.4211287,1.9521164,-2.1003401,-1.5704783,2.452825,-0.027961278,0.058099043,-0.073822334,0.0041335043,0.0094451215,-0.03299529,-0.1340753,0.13407528,-9.270349,0.7866488,47.695843,-0.74043655,-2.0062833,-3.3070605,-0.29380727,0.06597458,-0.14701349,28.3125,29.5,28.625,32.875,35.3125,36.5
0.09010174,-1.5808318,-1.7022309,-1.141658,-0.056008462,0.062674984,-0.14076222,-0.3833783,-0.34980583,0.08502944,3.0785418,-0.624646,-1.5004544e-05,-0.04078572,-0.005719176,0.0030919905,-0.013393674,0.0057437075,0.0001314226,0.47767866,-1.4205256,1.9512748,-2.10028,-1.5703701,2.4524887,-0.032918565,0.06535559,-0.083414756,0.006775725,0.009096732,-0.033011153,-0.21068975,0.21068975,-9.346964,0.80456203,47.67614,-0.59183145,-1.8605363,-3.4755702,-0.30673212,0.061704963,-0.17027344,28.3125,29.5,28.625,32.875,35.3125,36.5
0.10010011,-1.1585186,-2.3517356,-1.4015162,-0.07859419,0.07758475,-0.14114626,-0.38378203,-0.34983933,0.0850179,3.0785408,-0.6246263,-2.0692863e-05,-0.045073293,-0.0062889275,0.0011422704,-0.012150147,0.0024443055,-0.0017503074,0.47736582,-1.4197885,1.950435,-2.1001832,-1.5703701,2.4521642,-0.036053214,0.07766393,-0.09336811,0.0079244105,0.009493242,-0.034257997,-0.21068975,0.40222588,-9.557653,0.7911258,47.675243,-0.6829022,-1.8862724,-3.4789162,-0.32815528,0.06064841,-0.23582847,28.3125,29.5,28.625,32.875,35.25,36.5
0.11009948,-1.7023897,-2.3248243,-1.31675,-0.040364947,0.048889104,-0.1278357,-0.38427186,-0.3499334,0.08507189,3.0783443,-0.62456423,-0.00014477398,-0.052886,-0.00889319,0.0016269811,-0.015015025,0.005457864,0.0020007468,0.47701678,-1.4190152,1.9494122,-2.1001241,-1.5702618,2.4518018,-0.039252628,0.091771774,-0.11047163,0.006933003,0.010627498,-0.041197192,-0.17238252,0.28730422,-9.385271,0.7553206,47.679718,-0.67657286,-1.921639,-3.1184132,-0.26789123,0.047110897,-0.29708603,28.3125,29.5,28.625,32.875,35.25,36.5
0.12010475,-1.2640374,-2.5069354,-0.97581786,-0.05667355,0.073105775,-0.14059286,-0.38482794,-0.35002226,0.085107975,3.0781457,-0.6245403,-0.00019805458,-0.055939805,-0.009783163,0.0010589676,-0.014878446,0.0041227723,0.005753503,0.47658423,-1.4180996,1.9482611,-2.1000402,-1.5701298,2.45138,-0.040697753,0.099539675,-0.11850965,0.008463042,0.01111893,-0.04638924,-0.19153613,0.3256114,-9.385271,0.779936,47.691364,-0.79912543,-1.9070854,-3.098402,-0.26369005,0.041906234,-0.34274805,28.3125,29.5,28.625,32.875,35.25,36.5
0.13005613,-0.6655214,-1.9209629,-0.5989475,-0.045936592,0.05667242,-0.14180875,-0.38543215,-0.3501262,0.08514626,3.077982,-0.62438756,-0.00035517153,-0.05986339,-0.010493883,1.1436342e-05,-0.01429045,0.0038347708,0.010333122,0.47616363,-1.4170994,1.9470152,-2.099992,-1.5700458,2.4508855,-0.04271972,0.10887125,-0.12681043,0.007971698,0.010727755,-0.052982986,0.0,0.2681506,-9.11712,0.7732232,47.657326,-0.93784046,-1.901703,-3.2849927,-0.23243779,0.0559462,-0.34129772,28.3125,29.5,28.625,32.875,35.25,36.5
0.1400533,-0.03652576,-1.1120006,-0.66399765,-0.022334155,0.03663079,-0.14512089,-0.3860757,-0.3502417,0.085156076,3.0778425,-0.6240831,-0.00043358843,-0.06349003,-0.010678482,-0.0011741093,-0.0129728895,0.0016788599,0.019948224,0.4757068,-1.4159672,1.9456843,-2.0999558,-1.5699257,2.450257,-0.04550845,0.118091695,-0.1352053,0.009686835,0.01055403,-0.06538007,0.076614454,0.15322891,-9.078813,0.8023209,47.689575,-1.0105132,-1.9056778,-3.3370135,-0.18945253,0.057893705,-0.26889777,28.3125,29.5,28.625,32.875,35.25,36.5
0.15005244,-1.3415761,-2.2622535,-1.0164835,-0.059397504,0.060181376,-0.13658617,-0.38670155,-0.35033765,0.085125774,3.0778759,-0.6237596,-0.0003094833,-0.069262154,-0.01120968,0.00012918026,-0.014118716,0.0036073308,0.023985526,0.47526127,-1.4147273,1.9442815,-2.0997508,-1.5698537,2.4496062,-0.04980965,0.12568451,-0.1476479,0.012313203,0.010677368,-0.07371269,-0.22984336,0.30645782,-9.385271,0.7866488,47.64927,-1.0953391,-1.9100885,-3.3690896,-0.20585799,0.06395609,-0.107321486,28.3125,29.5,28.625,32.875,35.25,36.5
0.16005254,-2.360908,-3.319668,-1.6523236,-0.087829866,0.11774302,-0.13110487,-0.38739923,-0.3504497,0.085104086,3.0778203,-0.6234088,-0.00021416963,-0.07413966,-0.01157601,-0.0011136661,-0.014600609,0.0019656876,0.0091496855,0.47474384,-1.4134023,1.9427708,-2.0995953,-1.5697211,2.4488776,-0.054164898,0.13642803,-0.1573947,0.012558166,0.0118335355,-0.06322649,-0.7278373,0.40222588,-9.710882,0.8493211,47.664497,-1.1796095,-1.865067,-3.3947186,-0.22235994,0.07334873,-0.1668126,28.3125,29.5,28.625,32.875,35.25,36.5
0.17005266,-0.96956193,-1.2500831,-1.4499863,-0.033997335,0.08984691,-0.14519912,-0.38821077,-0.35056227,0.08511366,3.0776474,-0.62329876,-0.00037275476,-0.08023149,-0.011852779,-0.0017209481,-0.01597378,0.0046586166,0.0018910837,0.47415426,-1.4120058,1.9411296,-2.0995486,-1.5696377,2.4482422,-0.059040356,0.14623456,-0.16668771,0.009032104,0.011812136,-0.060834866,-0.36391866,-0.019153614,-9.749189,0.8247004,47.670765,-1.1301624,-1.8880572,-3.5052614,-0.13541143,0.09777124,-0.3023837,28.3125,29.5,28.625,32.875,35.25,36.5
0.18005306,-0.62286675,-1.0185536,-0.8902122,-0.03132828,0.06617755,-0.14064755,-0.3890753,-0.3506912,0.08512802,3.077394,-0.6233063,-0.00045734868,-0.086474486,-0.0115423,-0.0014807972,-0.017118584,0.0043135975,-0.0039053448,0.47350404,-1.4105133,1.9393562,-2.0994637,-1.5694813,2.4476297,-0.06574907,0.1556046,-0.1788402,0.011613884,0.012988374,-0.061738778,-0.1340753,0.038307227,-9.270349,0.8560339,47.667187,-0.9855256,-1.988585,-3.593471,-0.091595516,0.12949885,-0.45285276,28.3125,29.5,28.625,32.875,35.25,36.5
0.19005303,-1.173457,-2.8466165,-1.0002671,-0.08581339,0.07423335,-0.1414623,-0.38993752,-0.35080898,0.08510682,3.0772827,-0.6231779,-0.0004420909,-0.09154531,-0.011292195,-0.00074420345,-0.017113985,0.003378511,0.007577302,0.47286642,-1.4089252,1.9375347,-2.0993063,-1.5693725,2.446927,-0.070830226,0.16315977,-0.19065033,0.016738137,0.01343108,-0.078296356,-0.17238252,0.45968673,-9.251195,0.8247004,47.66808,-0.83822083,-1.8716502,-3.3889642,-0.089691035,0.17257622,-0.44196552,28.3125,29.5,28.625,32.875,35.25,36.5
0.20005266,-1.3789629,-2.4950154,-0.8979094,-0.048622586,0.07705004,-0.13886955,-0.39090016,-0.35092464,0.085090406,3.0771575,-0.6228158,-0.00042456106,-0.098059475,-0.012313432,0.00061304437,-0.021665674,0.0067058764,0.022104487,0.47210854,-1.4072049,1.9355477,-2.0991514,-1.5692161,2.44596,-0.07617206,0.17083915,-0.20276259,0.01617958,0.015990326,-0.09815761,-0.2873042,0.4405331,-9.136273,0.9365982,47.667187,-0.70524657,-1.7842175,-3.390784,-0.08363438,0.20726143,-0.162296,28.3125,29.5,28.625,32.875,35.25,36.5
0.21005277,-1.2455403,-1.2442474,-0.8823861,-0.016418997,0.07103037,-0.13396323,-0.39190927,-0.3510525,0.0850757,3.0770113,-0.62254405,-0.00044347678,-0.100824684,-0.012996462,-0.0023998276,-0.019709738,0.0010492118,0.0047001634,0.47134012,-1.4053988,1.9334544,-2.0989954,-1.5690721,2.4450417,-0.0776733,0.18329614,-0.21101391,0.017900888,0.01680153,-0.08224752,-0.19153614,0.019153614,-9.251195,0.85826975,47.689575,-0.74319553,-1.972161,-3.3682797,-0.025546018,0.22766781,-0.24419409,28.3125,29.5,28.625,32.875,35.25,36.5
0.22005203,-0.6499685,-2.0312383,-1.3568597,-0.050272577,0.053199407,-0.14506453,-0.39291915,-0.3511919,0.08502045,3.0768516,-0.6224508,-0.00032570426,-0.104545325,-0.0150496345,-0.002331813,-0.020775152,0.0004922922,0.0045504454,0.47057232,-1.403486,1.9313234,-2.0988266,-1.5688914,2.444237,-0.07784502,0.19233122,-0.22256698,0.020456154,0.01799594,-0.08226296,0.0,0.28730422,-9.481039,0.8806493,47.681515,-0.9906281,-2.20679,-3.409014,-0.020118378,0.26524252,-0.34296128,28.3125,29.5,28.625,32.8125,35.25,36.5
0.23005214,-0.62096,-3.5250866,-1.8021451,-0.07202677,0.05715471,-0.13306572,-0.39398804,-0.35131392,0.08497374,3.076736,-0.62230283,-0.00017456984,-0.10813371,-0.015375178,-0.0024971166,-0.022284893,-0.0013353847,0.016448935,0.46973124,-1.4014896,1.9290508,-2.0985625,-1.5687226,2.4433193,-0.08146367,0.19919291,-0.23114474,0.023170134,0.02019209,-0.09777581,0.11492168,0.5554548,-9.557653,0.8314132,47.689575,-0.99854636,-2.0009742,-3.5437262,-0.038186453,0.2998445,-0.30182323,28.3125,29.5,28.625,32.8125,35.25,36.5
0.24005233,-0.8079044,-2.7344272,-1.6238635,-0.038929585,0.054586187,-0.13186201,-0.39507538,-0.3514905,0.08493371,3.0766366,-0.6217754,-5.033547e-05,-0.11308912,-0.018036487,-0.0007733886,-0.026576575,0.0026976033,0.02634341,0.46895102,-1.3994216,1.9266814,-2.098323,-1.568518,2.4422235,-0.08210013,0.2060738,-0.24345209,0.023110928,0.022201829,-0.10829935,-0.095768064,0.4405331,-9.653421,0.87617236,47.645687,-1.0848485,-2.0708852,-3.6001525,-0.013408335,0.30212224,-0.07310955,28.3125,29.5,28.625,32.8125,35.25,36.5
0.25005224,-0.86264354,-1.5668926,-1.3424606,-0.03464142,0.05718639,-0.14022395,-0.39621493,-0.35168555,0.08490902,3.076436,-0.6214744,2.693079e-05,-0.11874219,-0.019009389,-0.000431035,-0.027467603,0.0012782397,0.005558282,0.46814576,-1.3972918,1.9242033,-2.0980937,-1.5682896,2.441257,-0.08590692,0.2167716,-0.25824818,0.028071616,0.023609543,-0.091311276,-0.076614454,0.21068975,-9.461885,0.9030289,47.652847,-1.1767454,-2.134949,-3.4643416,-0.038737103,0.31135315,-0.30193976,28.3125,29.5,28.625,32.8125,35.25,36.5
0.26005223,-2.300817,-1.8299029,-1.3704703,-0.06045222,0.114001565,-0.13026166,-0.39739582,-0.35186374,0.08487531,3.076215,-0.62139136,0.00024302525,-0.12234459,-0.018961001,0.0012411627,-0.029389657,0.00011683764,0.00015604624,0.46725667,-1.3950686,1.9216079,-2.0977561,-1.5680245,2.4403453,-0.09010866,0.22036654,-0.26819602,0.034630146,0.025854899,-0.09010613,-0.63206923,0.24899697,-9.461885,0.9030289,47.66539,-1.1902263,-1.8696263,-3.4873688,-0.16187148,0.29943377,-0.49750003,28.3125,29.5,28.625,32.8125,35.25,36.5
0.2700527,-1.1248577,-1.0273483,-1.6209038,-0.018943587,0.074514955,-0.13524422,-0.3986971,-0.352047,0.08490917,3.0759277,-0.62116337,0.00023954984,-0.12877049,-0.017454576,-0.0009424425,-0.029060874,-0.0027997978,0.022068813,0.46628183,-1.3928059,1.9188083,-2.097421,-1.5677723,2.439266,-0.09858276,0.23301023,-0.27864036,0.03531676,0.026945475,-0.12048209,-0.45968673,0.17238252,-9.442732,0.9321212,47.721813,-0.8207882,-2.066141,-3.6257403,-0.22872272,0.2902311,-0.2740432,28.3125,29.5,28.625,32.8125,35.25,36.5
0.2800525,-1.885429,-3.1157503,-1.5168967,-0.07245106,0.087129205,-0.12412385,-0.4000341,-0.35221592,0.084915355,3.0757182,-0.62077814,0.00029585866,-0.1339435,-0.02053346,0.0008669134,-0.03325906,0.0013914873,0.014538717,0.465262,-1.390437,1.9159368,-2.0970614,-1.5675315,2.4380336,-0.09839686,0.2407727,-0.29247254,0.03578339,0.02879833,-0.11275503,-0.36391866,0.49799395,-9.634268,1.0037369,47.664497,-0.93721926,-2.0696113,-3.4630437,-0.33938703,0.25316417,-0.26768452,28.3125,29.5,28.625,32.8125,35.25,36.5
0.2900519,-0.34837434,-1.5151423,-1.4152021,-0.04094687,0.035704657,-0.13058361,-0.4014186,-0.35244843,0.08495257,3.0752888,-0.6205575,0.00026257965,-0.14124376,-0.022623768,0.003754599,-0.04256998,0.0114982305,0.008328877,0.4642525,-1.3880332,1.9129714,-2.0968006,-1.567182,2.4369423,-0.10286342,0.24504003,-0.30299497,0.028881703,0.032604754,-0.1109946,0.076614454,0.36391866,-9.404425,0.8940802,47.66271,-0.84368163,-1.6726418,-3.5209198,-0.28535718,0.16325697,-0.41333106,28.3125,29.5,28.625,32.8125,35.25,36.5
0.30005193,-1.7508419,-3.3253868,-1.5584701,-0.10573131,0.051924374,-0.12729673,-0.40287885,-0.35267568,0.08501137,3.0749183,-0.6201957,0.00012960429,-0.14488058,-0.02434043,0.0013944968,-0.04026256,0.008878316,0.035347912,0.4632089,-1.385542,1.9098371,-2.0964887,-1.5668944,2.4357216,-0.1020896,0.25864562,-0.314541,0.030366356,0.03183126,-0.13722527,0.1340753,0.59376204,-9.576807,0.8157518,47.651955,-0.9310527,-2.007011,-3.4945369,-0.27894166,0.09588252,-0.12292602,28.3125,29.5,28.625,32.8125,35.25,36.5
0.3100524,-0.7243175,-1.927238,-1.3023388,-0.042745076,0.05282706,-0.13035892,-0.4043377,-0.35292083,0.08499868,3.0745862,-0.61973673,0.00015271023,-0.15258278,-0.02458005,0.003062815,-0.04249728,0.01781494,0.012403548,0.4621755,-1.382898,1.906691,-2.0962274,-1.5665597,2.4344454,-0.10663108,0.26553386,-0.326102,0.026054619,0.02981369,-0.11881337,-0.17238252,0.40222588,-9.270349,0.91198283,47.684196,-1.0370023,-1.7454988,-3.4892924,-0.18090719,0.06798891,-0.25770065,28.3125,29.5,28.625,32.8125,35.25,36.5
0.32005268,-2.4666524,-1.5451393,-1.141539,-0.03947589,0.1089589,-0.12161594,-0.40587384,-0.35319984,0.08502589,3.0742178,-0.6194136,3.671869e-05,-0.15657423,-0.023289211,0.0012733592,-0.03717163,0.013965805,0.0034247246,0.46116656,-1.3801551,1.9033188,-2.0959136,-1.5662726,2.4332833,-0.10998375,0.27615786,-0.3365756,0.031772442,0.026800606,-0.11318033,-0.51714754,0.15322891,-9.346964,0.95226496,47.681515,-1.1141907,-1.8391602,-3.4801166,-0.10178903,0.06791422,-0.48526266,28.3125,29.5,28.625,32.8125,35.25,36.5
0.33004555,-1.319209,-1.3046651,-0.59153837,-0.018828018,0.101901725,-0.13871753,-0.40751043,-0.35344768,0.08507704,3.0738168,-0.6190428,-0.0002276571,-0.16179818,-0.022696503,0.001139918,-0.033233043,0.015751362,0.03467612,0.4600378,-1.3773656,1.8998388,-2.0956376,-1.5660099,2.431976,-0.11247363,0.28518063,-0.3484029,0.034960575,0.022668485,-0.14691722,-0.4405331,0.17238252,-8.944737,0.9298854,47.67166,-1.1339163,-1.826483,-3.4663086,-0.023620684,0.13334823,-0.16251168,28.3125,29.5,28.625,32.8125,35.25,36.5
0.34010202,-1.5242009,-1.8645246,-0.6820693,-0.036551494,0.081414714,-0.12877731,-0.40916735,-0.35363194,0.08504278,3.0736213,-0.6186878,-0.00029192967,-0.16646767,-0.022071548,0.0010471074,-0.03221584,0.013726897,0.010694278,0.45883662,-1.3743963,1.8963097,-2.0952647,-1.5658296,2.43058,-0.11683188,0.29346186,-0.36009553,0.040596567,0.022623582,-0.12728597,-0.38307226,0.17238252,-9.059659,0.92093146,47.657326,-1.0191138,-1.7577133,-3.5260596,-0.017830133,0.20522186,-0.3591451,28.3125,29.5,28.625,32.8125,35.25,36.5
0.35010555,0.2370452,-1.0623946,-0.6986244,-0.06439886,0.053555973,-0.13430144,-0.4108123,-0.35381156,0.08494096,3.0734742,-0.6185137,-9.503514e-05,-0.17011249,-0.022928337,-0.00068626745,-0.031357076,0.00721164,0.024964925,0.45762372,-1.371281,1.8927325,-2.094807,-1.5656132,2.4292786,-0.119032264,0.30595884,-0.37355632,0.047916807,0.024817655,-0.14374737,-0.019153614,0.28730422,-9.251195,0.8918391,47.615234,-0.99599737,-2.0569487,-3.459711,-0.04019298,0.27571046,-0.3136525,28.3125,29.5,28.625,32.8125,35.25,36.5
0.3601014,-0.3608641,-2.6472502,-1.6329277,-0.07883002,0.05653625,-0.12136918,-0.41254696,-0.35400853,0.08491607,3.0732677,-0.61816466,6.9315547e-06,-0.17017332,-0.021265082,-0.0027605637,-0.028312534,-0.005355899,0.021940805,0.45635077,-1.3681437,1.8889207,-2.09424,-1.56536,2.4278157,-0.122820385,0.31239307,-0.38039827,0.061010305,0.027682342,-0.14450096,0.1340753,0.4213795,-9.5385,0.9545008,47.655537,-0.9334729,-2.1060848,-3.816938,-0.22733033,0.33216986,-0.18415055,28.3125,29.5,28.625,32.8125,35.25,36.5
0.3700933,-0.9247513,-2.698088,-1.9488597,-0.09998466,0.07096107,-0.12440395,-0.4142802,-0.35424703,0.084897816,3.0730016,-0.6178871,0.000266163,-0.17637512,-0.02456309,-0.0031491301,-0.034206264,-0.0036083534,0.0041513336,0.45510247,-1.3649446,1.8849849,-2.093558,-1.5650104,2.4264295,-0.12419565,0.32523987,-0.39529535,0.058875907,0.03211864,-0.12806754,-0.1340753,0.53630114,-9.825804,0.93436235,47.681515,-0.98139393,-2.3097088,-3.5156698,-0.36293694,0.3694216,-0.5178974,28.3125,29.5,28.625,32.8125,35.25,36.5
0.3801094,-0.9129916,-1.4684732,-1.7202832,-0.055093307,0.07684612,-0.13061889,-0.4160915,-0.35451007,0.08491185,3.0726616,-0.6174906,0.00020503758,-0.18576536,-0.027814249,0.0009697281,-0.046109024,0.013666432,0.036056567,0.45386547,-1.3617235,1.8809794,-2.0930479,-1.5647091,2.4249902,-0.12758344,0.3296309,-0.40806678,0.046792116,0.035391938,-0.16333956,-0.19153613,0.22984336,-9.691729,0.9321212,47.664497,-0.9283484,-2.1823554,-3.6859655,-0.2747325,0.36262792,-0.19257784,28.3125,29.5,28.625,32.8125,35.25,36.5
0.39001933,-1.9666144,-2.600513,-1.898754,-0.09091411,0.12507148,-0.13951534,-0.41795477,-0.3548085,0.08493748,3.072224,-0.6169856,0.00011850502,-0.18819375,-0.029826878,-0.0010282376,-0.049374096,0.010024698,0.018336574,0.45260572,-1.3584338,1.8768662,-2.0925815,-1.5643238,2.423473,-0.12792625,0.33935478,-0.41625768,0.047086522,0.039918456,-0.14593278,-0.45968673,0.2681506,-9.9790325,1.0037369,47.642998,-1.0172712,-2.0712695,-3.9551673,-0.14873195,0.3267456,-0.37663707,28.3125,29.5,28.625,32.8125,35.25,36.5
0.40005222,-1.2977216,-1.8349832,-1.3759552,-0.032293897,0.048083745,-0.14068176,-0.41990027,-0.35512927,0.08497558,3.0716655,-0.6164921,-8.345112e-05,-0.19421321,-0.032719642,2.7633618e-05,-0.056882516,0.011779288,0.039123062,0.4512968,-1.3550615,1.8726376,-2.09221,-1.5638899,2.4219294,-0.13062188,0.3490743,-0.43158957,0.04810043,0.046112645,-0.16936927,-0.076614454,0.24899697,-9.691729,1.0104496,47.615234,-1.1465161,-2.1437263,-3.7519455,-0.0370043,0.20309076,-0.16261412,28.3125,29.5,28.625,32.8125,35.25,36.5
0.4100496,-0.92053246,-2.1098752,-0.6746933,-0.048668154,0.04064922,-0.13443555,-0.4219221,-0.35549682,0.085080594,3.071081,-0.61586344,-0.0003382759,-0.19910249,-0.03361533,0.0027904864,-0.05784137,0.0138249,0.017602867,0.4500004,-1.3516072,1.8681124,-2.0916812,-1.5634335,2.4203174,-0.13220383,0.35418424,-0.44689023,0.056024034,0.0460918,-0.14940348,-0.22984336,0.34476504,-9.193734,1.0194036,47.67793,-1.1339698,-1.7260165,-3.6306624,0.0289202,0.11104705,-0.33050823,28.3125,29.5,28.625,32.8125,35.25,36.5
0.42010847,-0.7741146,-1.4110252,-0.29628733,-0.029761463,0.029590815,-0.14828391,-0.4239364,-0.3557791,0.08509431,3.070643,-0.61559427,-0.00034765262,-0.20267145,-0.02845158,2.7787126e-05,-0.044825647,0.0029012577,0.021999909,0.44861796,-1.3480306,1.8636092,-2.0910408,-1.563052,2.4188251,-0.13903776,0.3655383,-0.45945185,0.072953485,0.039276574,-0.16065194,0.076614454,0.30645782,-8.868123,0.99031126,47.681515,-0.8657162,-1.7937746,-3.6026301,-0.058856916,0.12889013,-0.4077235,28.3125,29.5,28.625,32.8125,35.25,36.5
0.4301065,-1.2338766,-1.1795876,0.04502929,-0.013250065,0.041915223,-0.14649339,-0.4259544,-0.35608807,0.085097075,3.070356,-0.6149205,-0.00021521503,-0.20693967,-0.027447198,0.0012264665,-0.038826652,0.0025188248,0.021261023,0.447286,-1.3443362,1.8589381,-2.090235,-1.5626696,2.4171107,-0.14034225,0.37239587,-0.47425464,0.08397692,0.03408603,-0.16123414,-0.22984336,0.2681506,-8.619126,1.0015011,47.682407,-0.9539984,-1.5210752,-3.3808131,-0.26382518,0.19174978,-0.3223015,28.3125,29.5,28.625,32.8125,35.25,36.5
0.44010496,-2.9475477,-2.655038,-0.6461809,-0.08413977,0.13265172,-0.1522951,-0.42805755,-0.35635188,0.08505347,3.0701087,-0.6145363,-5.7869415e-06,-0.21633556,-0.029506464,0.00010921056,-0.042960487,0.013312386,0.027740711,0.4458454,-1.3404466,1.8541068,-2.0893657,-1.562334,2.4154634,-0.14295891,0.3869574,-0.48799655,0.071820766,0.03319842,-0.17032985,-0.36391866,0.34476504,-9.212888,0.99702406,47.64658,-0.9701616,-1.9744668,-3.438724,-0.21684508,0.26361805,-0.3650205,28.3125,29.5,28.625,32.8125,35.25,36.5
0.45010766,-1.523631,-1.8724095,-1.735017,-0.034361187,0.05432494,-0.13832971,-0.43024576,-0.35667402,0.08499079,3.0697865,-0.6138733,2.1949427e-06,-0.22100607,-0.03328101,-0.0008447602,-0.048692856,0.018447904,0.02885872,0.4444302,-1.3364028,1.8491682,-2.0887215,-1.561973,2.4136772,-0.14101765,0.3973389,-0.49829584,0.06472846,0.03620588,-0.16948232,-0.5363012,0.28730422,-9.730036,0.9947882,47.63136,-1.2835737,-2.2275136,-3.6226916,-0.049598306,0.3147095,-0.23418823,28.3125,29.5,28.625,32.8125,35.25,36.5
0.46010527,-0.769022,-2.7422698,-2.0850754,-0.09130944,0.044765893,-0.14160646,-0.4324861,-0.35696474,0.08492201,3.069458,-0.6135414,3.58174e-05,-0.2247981,-0.031034498,-0.0022703656,-0.046026528,0.011318272,0.015476759,0.44295225,-1.3322756,1.8441056,-2.0879877,-1.5616487,2.4120362,-0.14704081,0.40626803,-0.5098463,0.07497384,0.03689002,-0.16211186,0.095768064,0.3256114,-9.921572,1.0261165,47.660015,-1.0400456,-2.4329271,-3.8325758,-0.04374565,0.3853519,-0.47865206,28.3125,29.5,28.625,32.8125,35.25,36.5
0.47011083,-0.083705895,-1.3546158,-2.4760225,-0.023131581,0.040307473,-0.14076479,-0.4347921,-0.35728425,0.08491943,3.0690107,-0.6129832,4.6514426e-05,-0.22501461,-0.029360045,-0.0049032085,-0.043766297,-0.0071275462,0.023014711,0.4414147,-1.3281479,1.8388613,-2.0871785,-1.5612029,2.4102094,-0.15214497,0.4158731,-0.52182156,0.09521653,0.04293277,-0.17470905,0.038307227,0.30645782,-9.940725,0.98807013,47.694054,-0.8302351,-2.4623265,-3.8332033,-0.22158489,0.35200506,-0.25732368,28.3125,29.5,28.625,32.8125,35.25,36.5
0.48010385,-1.7600845,-2.0865347,-1.9116389,-0.05844748,0.08139898,-0.14359637,-0.4370764,-0.3576062,0.084946096,3.0685325,-0.6126307,0.0001114938,-0.23190393,-0.034028146,-0.00051789614,-0.057366677,0.0041506984,0.024916023,0.4399028,-1.3240708,1.833568,-2.0862353,-1.5607437,2.408541,-0.15279621,0.41970184,-0.5367845,0.09049799,0.050475053,-0.17720547,-0.095768064,0.15322891,-9.787497,1.0731167,47.678825,-0.81830215,-2.081731,-3.8439226,-0.29201707,0.29589167,-0.3645092,28.3125,29.5,28.625,32.8125,35.25,36.5
0.49010468,-1.2176927,-2.8821425,-1.2587425,-0.0938612,0.071251884,-0.13820477,-0.43941566,-0.35799626,0.08500153,3.0679877,-0.6118615,1.654072e-05,-0.2398243,-0.040737458,0.0049766973,-0.0710436,0.022490734,0.030397747,0.4384401,-1.3199329,1.8281425,-2.085388,-1.5602263,2.4066699,-0.149276,0.42397982,-0.5537192,0.080912754,0.05514562,-0.1791157,-0.17238252,0.40222588,-9.3661175,1.0238806,47.639416,-1.2225103,-1.8109205,-3.5738463,-0.07276503,0.12768558,-0.24354702,28.3125,29.5,28.625,32.8125,35.25,36.5
0.5000998,-1.522783,-2.5183494,-1.0973444,-0.08590543,0.09347705,-0.14382674,-0.44182444,-0.35838088,0.085034534,3.067351,-0.6114591,-6.276152e-05,-0.24507949,-0.03859044,0.0017273802,-0.06424453,0.01605107,0.025655273,0.43691486,-1.3156601,1.8225869,-2.0845473,-1.5596875,2.4049778,-0.15383744,0.43908054,-0.5687773,0.089773856,0.051851396,-0.17893223,-0.095768064,0.7278373,-9.251195,1.0775883,47.60449,-1.1935462,-1.9156569,-3.7458067,0.0038127617,0.0606215,-0.4516558,28.3125,29.5,28.625,32.8125,35.25,36.5
0.5101,0.3464124,-0.112515315,0.01772002,0.020263731,0.033938743,-0.12994356,-0.44430766,-0.3587667,0.08506974,3.0667803,-0.61082304,-0.0002086136,-0.23884396,-0.033071138,0.0029556747,-0.04885928,0.007338269,0.024480898,0.43536776,-1.3112638,1.8168472,-2.083666,-1.5591873,2.4031093,-0.15134981,0.4287027,-0.5653047,0.11123404,0.041748933,-0.17532751,0.05746084,-0.05746084,-8.504205,0.91198283,47.664497,-0.761418,-2.2393568,-2.9026194,-0.19949213,0.14043884,-0.26636708,28.3125,29.5,28.625,32.8125,35.25,36.5
0.52010244,1.645698,2.3677135,-0.10300721,0.09686072,-0.042224344,-0.15219471,-0.4467381,-0.3590844,0.085034914,3.066393,-0.6104262,-0.00021780346,-0.23896591,-0.03152772,0.0016606775,-0.046981756,0.019010529,0.0339452,0.43383265,-1.3068408,1.8111919,-2.0826905,-1.5588173,2.4013784,-0.14925632,0.42463428,-0.5555255,0.095964864,0.035276465,-0.18274683,1.0342951,-0.93852705,-8.485051,0.91198283,47.698532,-0.5755248,-2.6531162,-2.7085228,-0.084232874,0.22147636,-0.21640396,28.3125,29.5,28.625,32.8125,35.25,36.5
0.53010267,0.18899912,-2.2417202,-2.3411925,-0.06098004,0.03072746,-0.13432615,-0.4489846,-0.35933846,0.08495039,3.066313,-0.60980296,7.033527e-05,-0.22872846,-0.031066742,-0.0039980337,-0.040479843,0.00821278,0.021196287,0.43239585,-1.302586,1.8057898,-2.0814931,-1.5585417,2.399563,-0.1403684,0.4199626,-0.5386231,0.096103214,0.033785664,-0.16113006,0.57460845,0.11492168,-9.787497,0.92764956,47.65912,-0.7163714,-3.0270011,-3.2967634,-0.083662495,0.34430927,-0.23332646,28.3125,29.5,28.625,32.8125,35.25,36.5
0.5401052,0.6903866,-2.4196274,-3.0585005,-0.084630825,-0.02304863,-0.13175893,-0.45123097,-0.35961977,0.08488127,3.0659902,-0.6096362,0.0002073777,-0.22018027,-0.028763711,-0.006451606,-0.038882345,-0.0052446146,0.023296054,0.4309807,-1.2984056,1.8004717,-2.0804727,-1.558204,2.3980873,-0.13892168,0.41133353,-0.52582127,0.104919754,0.03806397,-0.16175525,0.9768343,0.38307226,-10.43872,1.0015011,47.667187,-0.6137951,-3.0449567,-3.6234913,-0.20071441,0.42764646,-0.36205196,28.3125,29.5,28.625,32.8125,35.25,36.5
0.55010283,1.4326112,-0.22706601,-2.3009045,-0.022915933,-0.019651683,-0.13081926,-0.4534556,-0.3599355,0.08487878,3.0655484,-0.60908425,0.00027828067,-0.21891561,-0.030496445,-0.0008266591,-0.049210984,0.00711524,0.022178935,0.42957753,-1.2943848,1.7951978,-2.0794818,-1.5577344,2.3963978,-0.1364282,0.396647,-0.5197584,0.09807102,0.04232753,-0.15811001,0.7278373,-0.095768064,-10.093954,0.90750587,47.637623,-0.38653105,-2.8014274,-3.4714098,-0.26276344,0.410961,-0.24406621,28.3125,29.5,28.625,32.8125,35.25,36.5
0.5601021,-0.9743015,-1.9799782,-1.881831,-0.063297965,0.06580086,-0.14284934,-0.45557737,-0.3602884,0.08493051,3.0650208,-0.60858583,0.00025636665,-0.21537083,-0.034098413,-0.00034288305,-0.0600699,0.012539557,0.02549004,0.42830753,-1.2906007,1.7900933,-2.0785158,-1.5572399,2.3948865,-0.13114126,0.3891832,-0.5099434,0.08635151,0.050016604,-0.15606506,0.30645782,0.095768064,-9.883265,0.91198283,47.681515,-0.5348063,-2.9572392,-3.420736,-0.07471062,0.30037087,-0.3271878,28.3125,29.5,28.625,32.8125,35.25,36.5
0.5701005,-0.25323096,-0.84952915,-1.3348925,0.0047449768,0.03458979,-0.13586996,-0.45774493,-0.36066836,0.08501019,3.0643828,-0.6078146,-2.8844312e-05,-0.2114692,-0.03614476,0.0031351573,-0.063305035,0.019212926,0.03221298,0.42703837,-1.2868538,1.7850107,-2.0777628,-1.5567116,2.3932202,-0.12422752,0.37772906,-0.50406134,0.08465195,0.050340533,-0.155851,-0.019153614,0.076614454,-9.500193,0.8314132,47.709274,-0.7557113,-2.61666,-3.1940308,0.04226984,0.15523791,-0.10533705,28.3125,29.5,28.625,32.8125,35.25,36.5
0.5800966,0.8275831,0.30995193,-0.111503705,0.021126429,-0.0285762,-0.15002969,-0.4598416,-0.36101547,0.08502318,3.0638244,-0.607534,-7.2700146e-05,-0.20282881,-0.032611858,0.0026449896,-0.049265027,0.0051637064,0.011470826,0.42580438,-1.28307,1.7799886,-2.0768816,-1.5562342,2.3918855,-0.118969806,0.3694431,-0.49860352,0.10585612,0.04325385,-0.12989922,0.38307226,-0.076614454,-8.7532015,0.93436235,47.674347,-0.9552773,-2.7303352,-2.999154,-0.14789554,0.12971538,-0.45594242,28.3125,29.5,28.625,32.8125,35.25,36.5
0.590105,1.0098614,0.23865323,0.34221178,-0.0010423515,0.00875945,-0.161304,-0.4618783,-0.36125094,0.085022934,3.0635178,-0.6071293,3.841666e-05,-0.20171775,-0.027187198,0.002099237,-0.041729696,0.010527694,0.036430202,0.42450765,-1.2793939,1.7750696,-2.075782,-1.5558776,2.3903768,-0.12142227,0.3617798,-0.48789513,0.101576194,0.034536712,-0.15739857,0.9576807,-0.15322891,-8.42759,0.90750587,47.660015,-0.45822972,-2.721772,-2.8619516,-0.18226153,0.18578151,-0.13875413,28.3125,29.5,28.625,32.8125,35.25,36.5
0.60010123,0.14649181,-2.1914623,-1.0655509,-0.03665266,-0.015239767,-0.14008504,-0.4638032,-0.3615113,0.08494642,3.0633132,-0.6067316,0.00021946664,-0.19766542,-0.027522735,0.0011754704,-0.041245934,0.019765627,0.018024975,0.42336994,-1.27573,1.7703441,-2.0747697,-1.5555786,2.3890178,-0.11486451,0.35282418,-0.47206667,0.08620007,0.030067747,-0.13248143,0.47884032,0.2681506,-9.174581,0.86945957,47.66091,-0.6655488,-2.6526504,-3.2924032,-0.022936322,0.28590894,-0.31066328,28.3125,29.4375,28.625,32.8125,35.25,36.5
0.610104,0.30845538,-0.9056239,-1.6673203,-0.02729775,0.009591739,-0.15644383,-0.4656881,-0.3617713,0.08484838,3.0630956,-0.60629505,0.0004238589,-0.19038293,-0.024580225,-0.0033727526,-0.035137154,0.0026115717,0.030816738,0.42225435,-1.2721123,1.7657288,-2.0738204,-1.5552543,2.387658,-0.11447677,0.35095757,-0.46325058,0.09766672,0.0317516,-0.14487456,0.47884035,0.1340753,-9.691729,0.85826975,47.66808,-0.5147422,-3.2654238,-3.1574554,-0.08654598,0.30686614,-0.23302275,28.3125,29.4375,28.625,32.8125,35.25,36.5
0.6200956,0.4725718,-0.40080202,-2.250164,-0.008435188,0.003917984,-0.1546555,-0.4675668,-0.36203215,0.084856346,3.0628304,-0.6057101,0.00046165433,-0.1850114,-0.023959888,-0.0005942198,-0.036850125,0.00068098935,0.017142275,0.42115122,-1.2686892,1.7610964,-2.0727885,-1.5549296,2.3862245,-0.11210022,0.3380952,-0.45528895,0.10344528,0.034002736,-0.12879966,0.4405331,-0.24899697,-9.998186,0.8493211,47.693153,-0.4070915,-3.1015437,-3.1313233,-0.3166827,0.32895935,-0.20535983,28.3125,29.4375,28.625,32.8125,35.25,36.5
0.6301,-0.2831378,-1.9688256,-2.1787128,-0.08435081,0.059259422,-0.16384797,-0.46937174,-0.36229452,0.08483896,3.062542,-0.6054639,0.0005320267,-0.18387464,-0.028108934,0.00019879425,-0.044081725,0.016658174,0.005148401,0.42012227,-1.265336,1.7566079,-2.071791,-1.5546292,2.3850803,-0.104023166,0.3318344,-0.44496137,0.08158754,0.033869475,-0.10873066,0.61291564,0.15322891,-10.266336,0.8806493,47.650166,-0.7020155,-3.357376,-3.3308158,-0.16022393,0.32900876,-0.50052655,28.3125,29.4375,28.625,32.8125,35.25,36.5
0.6401014,-0.16256018,-2.142882,-1.9943932,-0.06370402,0.031530354,-0.15664867,-0.4711972,-0.36258462,0.08492949,3.0620215,-0.6050267,0.00020745618,-0.17658876,-0.02692671,4.8902013e-05,-0.042734917,0.015406702,0.037215948,0.4190919,-1.2622247,1.7522348,-2.0710251,-1.5542578,2.3838468,-0.09996966,0.31931746,-0.42913008,0.08050964,0.033594772,-0.13674483,0.2873042,0.3256114,-9.998186,0.9701675,47.683304,-0.6977768,-3.0464506,-3.391839,-0.032306742,0.36507803,-0.18107024,28.3125,29.4375,28.625,32.8125,35.25,36.5
0.6500965,1.9650121,0.15662107,-1.1358984,-0.008661015,-0.052001294,-0.1631803,-0.47302267,-0.3628675,0.085023895,3.061576,-0.60442096,-0.00025235105,-0.17152317,-0.027378589,0.0020708877,-0.045628432,0.011122486,0.019074427,0.4180986,-1.2591364,1.7478846,-2.070305,-1.5539683,2.382535,-0.097307846,0.30978215,-0.42357624,0.08693363,0.037857726,-0.11587808,0.57460845,0.095768064,-9.385271,0.91421866,47.63852,-0.6994261,-2.9698644,-3.101369,-0.028263014,0.32721505,-0.2644496,28.3125,29.4375,28.625,32.8125,35.25,36.5
0.66010255,1.3326812,0.24518012,-0.1459297,0.017252125,-0.02212377,-0.16044834,-0.4746823,-0.36316177,0.085082784,3.0610542,-0.6041394,-0.00018389024,-0.1645907,-0.024978342,0.002544039,-0.04490092,-0.0008152306,0.011041287,0.41714,-1.2561686,1.7437161,-2.0693786,-1.5534743,2.38147,-0.09784166,0.29946515,-0.4149605,0.09978948,0.042044375,-0.108324714,0.9576807,-0.17238252,-8.848969,0.85826975,47.694054,-0.6122029,-2.7296169,-2.853096,-0.24124274,0.2085299,-0.36955142,28.3125,29.4375,28.625,32.8125,35.25,36.5
0.67010343,-0.54558015,-1.5295585,-0.39393666,-0.026015703,0.018896138,-0.14539373,-0.47628072,-0.36342478,0.08509242,3.0607712,-0.60353,-7.3833515e-05,-0.16179171,-0.025786037,0.00045836557,-0.046381112,0.008880841,0.03185893,0.41624343,-1.2532101,1.7396549,-2.0684278,-1.5531033,2.3802295,-0.09292609,0.29387292,-0.39948654,0.08081303,0.039699066,-0.12425959,0.3256114,0.15322891,-8.887277,0.8224646,47.668976,-0.569922,-2.8188992,-3.0496407,-0.122296564,0.084463835,-0.08670448,28.3125,29.4375,28.625,32.8125,35.25,36.5
0.6801019,-1.210719,-1.5122111,-0.7633322,-0.01898133,0.022510905,-0.13073267,-0.4778383,-0.3636774,0.08507273,3.0604308,-0.6031035,1.9595891e-05,-0.15961617,-0.02491928,0.0025066861,-0.043353967,0.016890261,0.010567367,0.41535828,-1.2503138,1.7357615,-2.0676038,-1.5527219,2.3791227,-0.089090735,0.28443658,-0.39140728,0.07571091,0.033427767,-0.099197425,0.076614454,0.17238252,-9.021352,0.7642693,47.695843,-0.47241503,-2.8163495,-2.93933,0.011887917,0.05573091,-0.22257844,28.3125,29.4375,28.625,32.8125,35.25,36.5
0.6901019,0.12965418,-0.23921534,-0.88934696,0.01175065,-0.0038688951,-0.1450941,-0.47940657,-0.36388853,0.085023664,3.0601003,-0.603017,-1.0517002e-05,-0.1516189,-0.019425336,-0.0027584736,-0.02763541,0.001975254,-0.001855478,0.41446066,-1.2474154,1.7319459,-2.066882,-1.5524486,2.3782158,-0.08736263,0.28081298,-0.37814248,0.08587958,0.024966186,-0.085137166,0.38307226,-0.095768064,-9.308657,0.8806493,47.681515,-0.54325527,-3.3233771,-3.1170592,-0.068737276,0.09975538,-0.4778606,28.3125,29.4375,28.625,32.8125,35.25,36.5
0.7001012,0.2861242,-1.130525,-1.7410902,-0.010511044,0.0013689465,-0.14811966,-0.48084745,-0.36404982,0.084913045,3.0600243,-0.6028278,0.00034336862,-0.1405843,-0.018301511,-0.0037985658,-0.018654963,-0.009198727,0.029357176,0.41360116,-1.2445544,1.7282499,-2.0659082,-1.5522217,2.3772476,-0.07938776,0.26940873,-0.36448967,0.097963504,0.021590728,-0.10842606,0.68953013,-0.21068975,-9.500193,0.8672237,47.667187,-0.81603366,-3.3876019,-3.14392,-0.2807526,0.1711356,-0.27117205,28.3125,29.4375,28.625,32.8125,35.25,36.5
0.7100956,0.72038686,-1.9774703,-2.7407823,-0.026779082,-0.02577231,-0.14325063,-0.48224115,-0.3642364,0.084840715,3.0599358,-0.6022952,0.00049015495,-0.14346102,-0.019809183,-0.0028985606,-0.025450686,0.009529173,0.023037432,0.41282314,-1.24186,1.7247123,-2.065079,-1.5520061,2.3761475,-0.07793798,0.26540673,-0.35636178,0.07385466,0.020163247,-0.100678794,0.80445176,0.21068975,-9.864111,0.84484416,47.674347,-0.7373086,-3.6897721,-2.9807634,-0.15202141,0.24882025,-0.18029533,28.3125,29.4375,28.625,32.8125,35.25,36.5
0.7200948,-0.56313634,-3.0510843,-2.5612743,-0.09626441,0.035670448,-0.14239047,-0.48366475,-0.36441097,0.08483504,3.0597203,-0.6020627,0.00036226923,-0.13740015,-0.018730504,-0.0002993567,-0.028284505,0.011228182,0.009837412,0.41203317,-1.23929,1.7212027,-2.0643375,-1.5518373,2.3752415,-0.07601615,0.24901864,-0.34076977,0.07169471,0.02194671,-0.08553488,0.63206923,0.4405331,-10.036493,0.8560339,47.681515,-0.6149626,-3.3571796,-3.413772,-0.10408725,0.28613082,-0.33565187,28.3125,29.4375,28.625,32.875,35.25,36.5
0.7301032,0.93428427,0.4201975,-1.9332633,0.0116895605,-0.028857838,-0.15531175,-0.4850623,-0.36464578,0.08487725,3.059296,-0.6018329,5.913173e-06,-0.13402255,-0.019550392,0.0012315379,-0.03074204,0.0134079205,0.013088415,0.4113157,-1.2368722,1.7178339,-2.063823,-1.5515851,2.3744383,-0.072848566,0.24097492,-0.3336469,0.06966832,0.023392502,-0.08559601,0.59376204,-0.05746084,-9.691729,0.78888994,47.70838,-0.6751518,-3.453141,-3.077678,0.010634419,0.28678906,-0.3808979,28.3125,29.4375,28.625,32.875,35.25,36.5
0.7401025,0.7286071,0.5596641,-1.1233493,0.013428312,0.013781557,-0.14974755,-0.48633072,-0.36486426,0.08490733,3.0590725,-0.6012971,5.3560187e-05,-0.12458943,-0.016225824,0.00056283973,-0.024258658,-0.0029472983,0.028291723,0.41064548,-1.2345389,1.7145256,-2.0629914,-1.5512966,2.3734622,-0.07174159,0.2302583,-0.32261258,0.087249756,0.024264453,-0.09968334,0.45968673,-0.21068975,-9.32781,0.800085,47.66539,-0.57819396,-3.3808818,-2.9784138,-0.19665638,0.3153782,-0.0664413,28.3125,29.4375,28.625,32.875,35.25,36.5
0.75009423,-0.8047639,-1.2463988,-1.3396562,-0.02841604,0.026691629,-0.14022268,-0.48752722,-0.365002,0.08493358,3.058922,-0.6010278,0.00017696692,-0.1221141,-0.01513643,0.004418007,-0.02667669,0.0065230317,0.0076116584,0.40993896,-1.2323629,1.7114094,-2.062085,-1.5510815,2.372607,-0.07054599,0.21555752,-0.31060362,0.07990114,0.022426791,-0.077829495,0.24899697,-0.17238252,-9.289503,0.79560274,47.66987,-0.45907736,-2.9628518,-3.0258412,-0.29023993,0.3520651,-0.14579675,28.3125,29.4375,28.625,32.875,35.25,36.5
0.76010275,-0.47811028,-1.3217207,-1.3729957,-0.041419324,0.058409646,-0.14044961,-0.4887578,-0.36513868,0.08496929,3.0586154,-0.60094476,4.1903375e-05,-0.11980718,-0.016617091,0.0022961101,-0.031978812,0.015337426,-0.00056845363,0.40920976,-1.2302431,1.7084011,-2.0614336,-1.550865,2.3718677,-0.06704124,0.21041122,-0.29462048,0.058660433,0.023636919,-0.066129126,0.22984336,0.17238252,-9.461885,0.85826975,47.66539,-0.43911391,-3.164626,-3.2701416,-0.08175641,0.3400351,-0.31986684,28.3125,29.4375,28.625,32.875,35.25,36.5
0.7700996,0.52804303,-1.3309189,-1.3066853,-0.037500698,-0.018024988,-0.14088559,-0.48996273,-0.36530507,0.085018255,3.0582538,-0.60095894,-0.0002693961,-0.115440235,-0.017850125,0.0038439226,-0.032610912,0.016314302,0.0015195794,0.4085646,-1.2281966,1.7054871,-2.0609186,-1.5506848,2.3712814,-0.062062055,0.20222725,-0.28762123,0.058664963,0.02384389,-0.063229546,0.6703765,0.30645782,-9.174581,0.7933669,47.70838,-0.43906963,-3.2034876,-2.989449,-0.0032218958,0.33833322,-0.45863461,28.3125,29.4375,28.625,32.875,35.25,36.5
0.78010225,1.7151802,-0.47111917,-1.2181691,-0.034465067,-0.058776945,-0.14591241,-0.49110705,-0.36547858,0.08506531,3.0579119,-0.6007013,-0.00042784642,-0.10577747,-0.016709602,0.0005799774,-0.028898844,0.0017799371,0.019764548,0.40793106,-1.2262218,1.702658,-2.060353,-1.5504202,2.370533,-0.058454335,0.19505763,-0.27301878,0.066369936,0.026501711,-0.07783163,1.1875241,0.13407528,-9.232041,0.76874626,47.678825,-0.47751245,-3.1816804,-3.032496,-0.002969206,0.2842687,-0.29614857,28.3125,29.4375,28.625,32.875,35.25,36.5
0.79010904,1.0374756,-0.83785856,-1.3223733,-0.021785682,-0.044644102,-0.14020836,-0.49207032,-0.3656383,0.08505004,3.0578063,-0.6003124,-0.00015220711,-0.09860035,-0.016359102,0.00087516586,-0.025918141,-0.0075835646,0.025956063,0.40740538,-1.2243309,1.7000188,-2.0595477,-1.5501674,2.369777,-0.054549176,0.18681993,-0.26553282,0.07697705,0.027552657,-0.08010702,1.0534488,0.28730422,-9.193734,0.8247004,47.688675,-0.44926983,-3.2693396,-2.77038,-0.20195544,0.20486915,-0.12925391,28.3125,29.4375,28.625,32.875,35.25,36.5
0.80010915,-0.79012525,-2.12429,-1.8091385,-0.0827251,0.042473078,-0.13443787,-0.49297738,-0.36582726,0.085045464,3.0576367,-0.5998634,0.00014934913,-0.09237553,-0.016732328,-0.002656737,-0.023410039,-0.0067418404,0.012364392,0.40692857,-1.2225355,1.6974901,-2.0587862,-1.5498446,2.3690405,-0.048218004,0.18070555,-0.24710713,0.06451317,0.024639474,-0.060222674,0.30645782,0.24899697,-9.653421,0.83365434,47.66808,-0.7988919,-3.3919585,-3.0904405,-0.33606666,0.15933314,-0.20966637,28.3125,29.4375,28.625,32.875,35.25,36.5
0.8101,-0.18448314,-0.7280813,-1.2900633,-0.030827884,0.038486995,-0.14428325,-0.49392825,-0.3660255,0.08504516,3.0574024,-0.5996034,6.274662e-05,-0.09391737,-0.018100597,0.002495655,-0.02904062,0.014247561,0.009394449,0.40649837,-1.2207539,1.6950296,-2.0583017,-1.549642,2.3684793,-0.04539038,0.16894978,-0.2391746,0.046742655,0.021415602,-0.05446881,0.15322891,0.15322891,-9.308656,0.8291774,47.6636,-0.9024649,-3.2942004,-2.990996,-0.116684094,0.08826244,-0.2897427,28.3125,29.4375,28.625,32.875,35.25,36.5
0.8200961,0.2380246,0.27313107,-1.2342299,-0.0070355153,0.04157407,-0.13950963,-0.49485192,-0.36619884,0.08506685,3.057102,-0.5994812,-7.732286e-05,-0.088704415,-0.015040304,0.001039001,-0.022942599,0.010959241,0.0063245394,0.40604347,-1.2191024,1.6927027,-2.0578706,-1.5494274,2.3679888,-0.044332024,0.16094774,-0.2256173,0.046566367,0.01710567,-0.050395153,0.22984336,-0.095768064,-9.423578,0.7866488,47.7254,-0.8109021,-3.4055839,-2.7089086,-0.039036993,0.07828742,-0.38261676,28.3125,29.4375,28.625,32.875,35.25,36.5
0.83009523,0.24178597,-0.36596584,-1.1018436,-0.00762506,-0.00684805,-0.13309109,-0.49575192,-0.3663064,0.085085794,3.0569143,-0.5993381,-0.00024330983,-0.08246331,-0.011519046,-0.0014467065,-0.016117634,0.005871947,0.014441878,0.4055528,-1.2175353,1.6904844,-2.0574162,-1.5493087,2.3674345,-0.043414522,0.15276204,-0.20946223,0.046152096,0.013004777,-0.057653315,0.4405331,-0.076614454,-9.232041,0.82694155,47.70211,-0.70488083,-3.4721575,-3.1093907,0.034108035,0.09489715,-0.31201342,28.3125,29.4375,28.625,32.875,35.25,36.5
0.840108,0.50544125,-1.1581434,-1.4129462,-0.0395932,0.015994966,-0.13199581,-0.49654874,-0.36641943,0.085063666,3.0568492,-0.5989966,-0.00025427574,-0.076949164,-0.0086167045,-0.001876785,-0.010948408,-0.0009921794,0.018921742,0.40514562,-1.216028,1.6884278,-2.056935,-1.5492014,2.366822,-0.04313926,0.14456582,-0.19937982,0.052723207,0.011070495,-0.06188594,0.5554548,0.21068975,-9.289502,0.8157518,47.689575,-0.5710399,-3.5887947,-2.8948727,-0.025010476,0.13398714,-0.13612214,28.3125,29.4375,28.625,32.875,35.25,36.5
0.85010713,0.7677534,-0.779789,-1.4279233,-0.012440915,0.008634372,-0.13525261,-0.4972795,-0.36649978,0.08501209,3.0568225,-0.5987111,-0.00011969226,-0.070590705,-0.0061161993,-0.0023300564,-0.0078050955,-0.008096281,0.007950641,0.40472662,-1.2145934,1.6865257,-2.056431,-1.5490812,2.3662271,-0.042556424,0.1347178,-0.18653443,0.057252347,0.010842965,-0.050332937,0.61291564,0.15322891,-9.385271,0.72622824,47.667187,-0.4942714,-3.495224,-2.770015,-0.18376167,0.1448572,-0.09400344,28.3125,29.4375,28.625,32.875,35.3125,36.5
0.8601081,0.95903575,-0.21786334,-1.3590732,-0.021892456,0.0060383365,-0.1344463,-0.49794832,-0.36656454,0.08499539,3.0567257,-0.5987137,8.426707e-05,-0.0655933,-0.0049583395,-0.0012216865,-0.007861162,-0.0068364637,-0.0016114372,0.40430802,-1.2133149,1.6847366,-2.055857,-1.5489258,2.3658228,-0.04065012,0.12272174,-0.17238171,0.053675905,0.010244686,-0.038873147,0.7278373,-0.21068975,-9.500193,0.779936,47.679718,-0.32868135,-3.4918702,-2.9097428,-0.30674136,0.17711666,-0.1619125,28.3125,29.4375,28.625,32.875,35.3125,36.5
0.87010163,0.4689088,-1.0179282,-1.5488224,-0.045634057,0.03092078,-0.14108658,-0.49855244,-0.36660963,0.084943645,3.0567398,-0.5987175,0.00027587885,-0.06220071,-0.0060166265,-0.0013609151,-0.010242283,-0.0017387726,-0.002590388,0.4039501,-1.2120953,1.683112,-2.0553343,-1.5488657,2.365465,-0.036792714,0.11537717,-0.15995921,0.04287276,0.010354479,-0.034039505,0.40222588,0.15322891,-9.595961,0.77545905,47.689575,-0.3003101,-3.6290221,-2.9951086,-0.34521627,0.18606354,-0.22145936,28.3125,29.4375,28.625,32.875,35.3125,36.5
0.8801076,0.23298015,-1.4728922,-1.5622858,-0.06588618,0.050403982,-0.13861535,-0.4991505,-0.36665165,0.08489892,3.0566554,-0.59881204,0.00028502813,-0.058777884,-0.007250794,-0.0025218397,-0.011033031,0.0034035651,-0.00019912937,0.4035926,-1.2109708,1.6816438,-2.0550153,-1.5488065,2.3651783,-0.031945836,0.109822616,-0.14735864,0.030743439,0.009026366,-0.031605583,0.30645782,0.34476504,-9.595961,0.76874626,47.689575,-0.35319066,-3.7042904,-2.9948335,-0.24919102,0.21625249,-0.30105406,28.3125,29.4375,28.625,32.875,35.3125,36.5
0.89009845,1.009602,-0.8774871,-1.1889819,-0.03679598,0.002838738,-0.14072093,-0.49975866,-0.36672893,0.08491322,3.0564358,-0.598782,0.00013870934,-0.05572123,-0.008536864,0.0015115811,-0.015603047,0.012404125,9.5968004e-05,0.40324643,-1.2099445,1.6801981,-2.0547907,-1.548674,2.3648436,-0.028239321,0.096514374,-0.13696648,0.02351586,0.009660907,-0.028187232,0.6512228,0.11492168,-9.3661175,0.779936,47.689575,-0.43003666,-3.6862185,-2.8545861,-0.11823606,0.20922197,-0.38915527,28.3125,29.4375,28.625,32.875,35.3125,36.5
0.9001019,1.4393936,-0.20599142,-1.068651,0.0047497624,-0.016833134,-0.13865899,-0.5002789,-0.36682263,0.08492229,3.0562625,-0.59878206,4.3910957e-05,-0.04966422,-0.006562383,0.0019272958,-0.01244941,0.009077864,0.00034880842,0.40299553,-1.2090136,1.6788858,-2.0545504,-1.5485662,2.3646166,-0.026459651,0.08541336,-0.123681985,0.025606463,0.008084464,-0.026682306,0.8810662,-0.076614454,-9.346964,0.7530795,47.66808,-0.33775622,-3.5917933,-2.877553,-0.053274505,0.24063507,-0.4364407,28.3125,29.4375,28.625,32.875,35.3125,36.5
0.91009533,0.8361936,-0.78378665,-1.119042,-0.02785966,0.00075692707,-0.1346642,-0.500721,-0.36686713,0.08493409,3.0562165,-0.5986534,-2.52793e-05,-0.04181669,-0.0052428422,0.0008305899,-0.008641346,0.003460034,0.005158849,0.40275717,-1.2082381,1.6777648,-2.0542748,-1.5485309,2.364304,-0.022696787,0.07484091,-0.10751092,0.026700389,0.006843224,-0.027748656,0.7469909,0.11492168,-9.385271,0.80456203,47.675243,-0.4181977,-3.482757,-3.00301,-0.08162485,0.23733643,-0.4423991,28.3125,29.4375,28.625,32.875,35.3125,36.5
0.9200946,0.4105353,-1.3539674,-1.478083,-0.052117884,0.023582067,-0.14143808,-0.5010868,-0.36691457,0.08492724,3.056179,-0.59856635,4.63557e-05,-0.03676411,-0.0057458878,0.0021576334,-0.008347065,0.0043049403,0.011258692,0.4025551,-1.2075342,1.6767749,-2.0539758,-1.5484589,2.3640523,-0.018339958,0.0650094,-0.097116694,0.025520787,0.0062897075,-0.029502429,0.49799395,0.2681506,-9.653421,0.8090337,47.71017,-0.47607526,-3.39468,-2.997193,-0.09271562,0.26987836,-0.3754785,28.3125,29.4375,28.625,32.875,35.3125,36.5
0.9301089,0.83424443,-0.704762,-1.267905,-0.04567378,0.041939646,-0.14498141,-0.5013999,-0.36697432,0.084924586,3.0561473,-0.59832835,9.670455e-05,-0.03276002,-0.00618797,0.0020969373,-0.008992811,0.0044037756,0.01375392,0.40240043,-1.2069254,1.6759161,-2.0537374,-1.548375,2.3637524,-0.01532159,0.058392648,-0.08739396,0.0220603,0.0068520247,-0.028973544,0.34476504,0.22984336,-9.519346,0.8224646,47.694946,-0.51350003,-3.4135573,-2.937429,-0.09816591,0.25260517,-0.3022541,28.3125,29.4375,28.625,32.875,35.3125,36.5
0.94010574,0.5031281,-0.7713954,-1.1260904,-0.0043689827,-0.009104565,-0.12500736,-0.50171804,-0.36702034,0.08495271,3.0560944,-0.5981258,-1.8203025e-05,-0.027663795,-0.005156349,0.0019704215,-0.007051805,0.0027169655,0.012577865,0.40224555,-1.206401,1.6751174,-2.0535705,-1.5483392,2.363478,-0.012987648,0.04962772,-0.07519848,0.02086867,0.0057010073,-0.025479803,0.5363012,0.11492168,-9.346964,0.8224646,47.693153,-0.5637306,-3.6140857,-2.6977105,-0.10930902,0.25546563,-0.22495286,28.3125,29.4375,28.625,32.875,35.3125,36.5
0.95010835,0.3214512,-1.0635139,-1.1702163,-0.031246046,0.008292273,-0.13288528,-0.5019722,-0.36707053,0.08498375,3.056072,-0.59791297,-6.7633795e-05,-0.022501165,-0.0041304324,0.0014765229,-0.004426446,0.0001420632,0.008959048,0.4021387,-1.2059604,1.6744155,-2.053367,-1.5483035,2.3632407,-0.010449132,0.04171652,-0.06347549,0.020321006,0.004224599,-0.019342396,0.49799395,0.1340753,-9.346964,0.71951014,47.617023,-0.60471624,-3.6362002,-2.5605216,-0.15588757,0.29087213,-0.16126989,28.3125,29.4375,28.625,32.875,35.3125,36.5
0.9601093,0.89931256,-0.6371923,-0.97588634,-0.029475568,0.015516932,-0.14212477,-0.50215495,-0.36713323,0.08498962,3.0560582,-0.5977407,-4.4425487e-05,-0.017601594,-0.0032319722,0.00037584943,-0.0034393605,-0.0011272888,0.0040441,0.4020915,-1.2055796,1.6738576,-2.0532014,-1.5482558,2.3630872,-0.008376486,0.03397144,-0.049673457,0.015661934,0.0037246954,-0.012361996,0.51714754,0.076614454,-9.193734,0.76874626,47.681515,-0.5591394,-3.6557178,-2.6609216,-0.22030964,0.2683425,-0.14510828,28.3125,29.4375,28.625,32.875,35.3125,36.5
0.9701079,0.85484564,-0.7798006,-1.0891068,-0.02686819,0.0023788465,-0.13439645,-0.5022917,-0.36713743,0.08499965,3.0560894,-0.5977483,-3.9902243e-05,-0.012161491,-0.0035507479,2.951386e-05,-0.0026749836,-7.7065684e-05,0.0028359543,0.40202102,-1.2053311,1.6734656,-2.053036,-1.5482801,2.3630173,-0.0037696075,0.024990954,-0.035606347,0.009779971,0.0025375239,-0.00656492,0.63206923,0.1340753,-9.308656,0.7665104,47.67614,-0.46017942,-3.660718,-2.671926,-0.27096105,0.28186092,-0.115273505,28.3125,29.4375,28.625,32.875,35.3125,36.5
0.98010534,0.31298426,-1.2246232,-1.5664915,-0.042681463,-0.009838607,-0.13044493,-0.5023853,-0.36718982,0.084991544,3.056032,-0.5976791,-3.442615e-05,-0.0076929424,-0.003287856,-8.206332e-05,-0.0030770288,0.0020959377,0.00031256952,0.40201023,-1.2051184,1.6731957,-2.0530145,-1.5482205,2.3629708,-0.0009940687,0.015859354,-0.021534793,0.0025643439,0.001989507,-0.0012753609,0.63206923,0.11492168,-9.232041,0.8224646,47.737934,-0.3931057,-3.7798944,-2.7256112,-0.2846637,0.27555332,-0.079813145,28.3125,29.4375,28.625,32.875,35.3125,36.5
0.99010545,0.76416796,-0.8027316,-1.4315563,-0.034800574,0.018291421,-0.13572688,-0.50245965,-0.36722568,0.085000016,3.0559795,-0.5976871,-0.00011469694,-0.0030251208,-0.0015760618,0.000234892,-0.0022932624,0.001381174,0.0003096251,0.40201044,-1.20499,1.6730088,-2.053027,-1.5482086,2.3629835,-0.00034620625,0.005722203,-0.008200795,0.00031886465,0.0015624216,-0.00063271786,0.53630114,0.05746084,-9.5385,0.7732232,47.696735,-0.17729262,-3.973472,-2.6328783,-0.33139566,0.28231648,-0.02098831,28.3125,29.4375,28.625,32.875,35.3125,36.5
1.0001031,0.02747242,0.05241589,-1.4429158,0.006118626,0.0028528662,-0.12543969,-0.502403,-0.36721337,0.0849464,3.0560422,-0.5977016,6.629949e-05,0.0014383446,-0.0004092644,-0.00043355976,-0.0017546981,0.0010382048,0.0011005242,0.40202263,-1.204981,1.6731099,-2.053005,-1.5481967,2.3629956,0.0009566526,-0.0025457044,0.005401863,-0.004499763,0.0012119431,-0.00012859875,0.4213795,-0.19153613,-9.346964,0.7329411,47.696735,-0.13661785,-4.0347266,-2.8837204,-0.33349085,0.25295186,0.03915991,28.3125,29.4375,28.625,32.875,35.3125,36.5
1.0101042,-2.3685951,-3.5319839,-1.785926,-0.13360167,0.1215778,-0.12067799,-0.5023886,-0.36719534,0.08498707,3.05601,-0.5977132,9.727138e-05,0.0019320255,-9.143888e-05,0.00086383725,-0.00083311653,-0.0018856722,0.0007608163,0.4019868,-1.2050773,1.6731323,-2.0529306,-1.5481604,2.3629713,0.00064465206,-0.003664527,0.0023956911,0.0026747365,0.001517935,-9.471072e-05,-0.34476504,0.40222588,-9.730036,0.7642693,47.64658,-0.21052016,-3.9181604,-2.563379,-0.41635936,0.25536367,0.03315366,28.3125,29.4375,28.625,32.875,35.3125,36.5
1.0200597,-0.19225402,-0.8423172,-0.06188453,-0.00420061,0.00077117997,0.006723605,-0.50239336,-0.36724466,0.08499494,3.055984,-0.59763163,5.292829e-06,-0.0005131269,-0.0009221959,0.0005221716,-0.0025106678,0.0024623498,0.0004967001,0.4020585,-1.2050521,1.6730956,-2.052992,-1.5481604,2.3629956,0.00040362155,-0.00034655852,2.4475193e-07,-0.0029054545,0.0013412007,-7.4979405e-05,0.038307227,0.36391866,-9.442732,0.7172743,47.66091,-0.26729253,-4.0996075,-2.6691408,-0.36836886,0.24774991,0.05416748,28.3125,29.4375,28.625,32.875,35.3125,36.5
1.030101,1.1641333,0.4792811,0.38585687,0.06274017,-0.046005033,0.0067758965,-0.50241274,-0.36723292,0.084994234,3.0559485,-0.59766227,-3.0343706e-05,0.0002379748,-0.0004684371,6.4207044e-05,-0.0010991457,-0.00037014682,0.0003412391,0.40202245,-1.205052,1.673108,-2.0530393,-1.548149,2.3629837,0.00029380247,-9.2985596e-05,1.0638639e-16,-7.613e-08,0.0011569515,-3.1045332e-05,0.53630114,0.038307227,-8.848969,0.71279734,47.675243,-0.23655432,-4.1083965,-2.6140423,-0.3790291,0.26965985,0.073378086,28.3125,29.4375,28.625,32.875,35.3125,36.5
1.0401118,-0.71289325,-2.0180361,-0.02575305,-0.02595538,0.003283142,0.017154893,-0.50241256,-0.3672289,0.08499628,3.0559363,-0.59763956,3.1461088e-05,0.00068483705,-0.00014090045,-0.00024896377,-0.00024223368,-0.0018299766,0.00023263313,0.40199858,-1.205052,1.6730956,-2.0530026,-1.5481128,2.362947,0.0001924708,-6.130663e-05,0.00034457183,0.0013031291,0.00094335084,-2.6464379e-05,0.30645782,0.47884035,-9.289503,0.7396539,47.71017,-0.25810656,-4.079392,-2.6048381,-0.36573732,0.26490706,0.052908473,28.3125,29.4375,28.625,32.875,35.3125,36.5
1.0501096,-0.52833873,-1.5956421,-0.33690134,-0.045396373,0.012465971,0.008715751,-0.5023877,-0.3672458,0.08498556,3.0559466,-0.5976039,7.3075236e-05,0.00028644555,-0.00021810445,-0.00017917695,-0.0005671639,-0.00051854254,0.00016875805,0.40203446,-1.205052,1.6731194,-2.053003,-1.5481008,2.362959,0.00015856062,-7.6925005e-08,0.00045082925,-0.00019819953,0.00072545424,-2.3787644e-10,0.17238252,0.51714754,-9.576807,0.7396539,47.667187,-0.32392067,-3.822473,-2.3243365,-0.4262049,0.27220318,0.078571334,28.3125,29.4375,28.625,32.875,35.3125,36.5
1.0600986,0.16774197,-0.00028759736,-0.23566979,0.03410671,-0.03444973,0.013584348,-0.50238764,-0.36725754,0.08496301,3.0559359,-0.5976024,8.19969e-05,-0.0012672733,-0.0009851977,-0.00079546863,-0.0031624993,0.0046189604,0.00014790379,0.40204638,-1.2050155,1.6731323,-2.053054,-1.5480889,2.3629713,0.00013480936,0.0013348844,0.0020173555,-0.00884448,0.0010861977,-2.822798e-16,0.19153614,0.1340753,-9.3661175,0.7351769,47.678825,-0.3103931,-3.6978362,-2.204159,-0.46475726,0.2573468,0.08227738,28.3125,29.4375,28.625,32.875,35.3125,36.5
1.0700997,-0.76221573,-0.7181557,-0.017572854,-0.023765292,0.022813197,0.010352624,-0.5023889,-0.3672503,0.08493034,3.0559518,-0.597586,4.4555454e-05,-0.0014954857,-0.0009589143,-0.0028805095,-0.0036163144,0.0065493537,0.00012347219,0.40204635,-1.204991,1.6731938,-2.0531528,-1.5481128,2.362959,0.00011724723,0.0029634333,0.0062156823,-0.016624114,0.00073905394,-3.3497167e-22,-0.095768064,0.2681506,-9.442732,0.75755644,47.689575,-0.35770506,-3.540181,-2.077826,-0.52532107,0.25229856,0.0938059,28.3125,29.4375,28.625,32.875,35.3125,36.5
1.0800948,-0.9760973,-2.0467584,-0.022098726,-0.020764684,0.017257694,0.016355244,-0.5024195,-0.36723968,0.084916234,3.055914,-0.59755814,-0.000121382654,-0.003597787,-0.0017613284,-0.00426375,-0.0064453487,0.013839287,0.000102791404,0.4020224,-1.2049903,1.6732658,-2.0533369,-1.5481371,2.3629231,0.00010373364,0.005140259,0.009373502,-0.02977341,0.00046560136,-3.9749923e-28,0.076614454,0.36391866,-9.346964,0.74413085,47.693153,-0.37684453,-3.3251023,-1.8244679,-0.5332873,0.2509933,0.092469044,28.3125,29.4375,28.625,32.875,35.3125,36.5
1.0900981,-0.029627068,-0.83594865,0.64422995,-0.00864032,-0.007321181,0.012653561,-0.50246495,-0.36725911,0.08486607,3.0557718,-0.59758306,-0.00036289045,-0.0046709245,-0.0021613932,-0.0074558957,-0.008288625,0.018443065,6.8237525e-05,0.4020106,-1.2049413,1.6734003,-2.0537245,-1.5481132,2.362947,7.4410316e-05,0.008395373,0.015309149,-0.043921687,0.00033992314,-4.716986e-34,0.21068975,0.24899697,-9.059659,0.7597976,47.692257,-0.38578123,-3.2301316,-1.8039644,-0.4428624,0.24758673,0.094699964,28.3125,29.4375,28.625,32.875,35.3125,36.5
1.1000974,-0.3273463,-1.1531471,0.5456272,-0.012362483,-0.014994715,0.010774618,-0.5025001,-0.36728197,0.08477952,3.0556877,-0.59752613,-0.00057583867,-0.003179987,-0.001496956,-0.0120925335,-0.0056547164,0.012429765,-0.00020447769,0.4020224,-1.2048436,1.6735572,-2.0541446,-1.5481132,2.362935,6.7440786e-05,0.013296594,0.019577669,-0.046532784,0.0002676868,0.0002648214,0.22984336,0.30645782,-8.887277,0.6769922,47.67793,-0.44260404,-3.1718063,-1.7099984,-0.48329175,0.22755188,0.10256211,28.3125,29.5,28.625,32.875,35.3125,36.5
1.1101027,-0.55843776,-1.2298187,0.69250447,-0.0026194018,-0.01244616,0.019041302,-0.5025206,-0.36727118,0.084615916,3.0556514,-0.59759396,-0.00065905234,-0.0021339825,-0.0010225322,-0.015893413,-0.0038899311,0.008401537,-0.00020566439,0.40199855,-1.2046745,1.6737989,-2.0546124,-1.5481251,2.362959,4.8049602e-05,0.017214794,0.02351346,-0.049988557,0.00022077424,0.00024551825,0.11492168,0.21068975,-8.983045,0.71279734,47.666286,-0.484726,-3.0601962,-1.6779084,-0.57555485,0.24146193,0.09978008,28.3125,29.5,28.625,32.875,35.3125,36.5
1.1201061,-0.07558853,-0.81290454,0.6823599,0.0060707824,0.00040134825,0.006591768,-0.502522,-0.3673071,0.084455445,3.0555744,-0.5975593,-0.00067892263,-0.00013682814,-0.00015570935,-0.021533312,-0.00015306694,-0.00028590616,-0.00019867436,0.40202236,-1.2044924,1.6740149,-2.0550678,-1.5480651,2.3629713,4.260018e-05,0.023550425,0.027728623,-0.05108199,0.00018785543,0.00023322005,0.1340753,0.24899697,-8.848969,0.7553206,47.696735,-0.4919455,-3.2185876,-1.5658046,-0.7055397,0.24386327,0.08581711,28.3125,29.5,28.625,32.875,35.3125,36.5
1.130102,-0.32330945,-2.0647156,0.23573895,-0.10298504,-0.012266597,0.009455269,-0.502511,-0.36731446,0.08421765,3.0556033,-0.5975664,-0.00064105855,-0.00039828834,-0.00025905797,-0.025013061,-0.00013701063,-0.00028909763,-0.000188299,0.40204632,-1.2042273,1.6743034,-2.0555851,-1.548077,2.3629956,3.9485323e-05,0.0279,0.031443167,-0.059136458,0.0001634802,0.00021772666,0.05746084,0.19153613,-8.944737,0.7217513,47.694946,-0.4946959,-3.1072173,-1.6172516,-0.78748304,0.23183344,0.100422025,28.3125,29.5,28.625,32.875,35.3125,36.5
1.1401026,0.063494764,-3.715794,-0.5194664,-0.23734476,-0.038649384,0.011474457,-0.5025189,-0.36730224,0.083929524,3.0556664,-0.5975804,-0.00062364043,-0.0028962314,-0.0012692466,-0.0279521,-0.0036136839,0.0079785865,-0.00021669408,0.40204632,-1.2038902,1.6746291,-2.0562022,-1.5481251,2.3629956,-1.8364959e-05,0.032127026,0.036472645,-0.0773608,9.561817e-05,0.0001827277,0.038307227,0.40222588,-9.212888,0.6411817,47.694946,-0.5032825,-3.1831086,-1.5651809,-0.7425991,0.21938051,0.113984495,28.3125,29.5,28.625,32.875,35.3125,36.5
1.1501058,0.5294272,-5.046594,-0.85104614,-0.3236536,-0.07431989,0.015869854,-0.5025708,-0.3672656,0.08361252,3.0556524,-0.59765285,-0.00078861305,-0.005525716,-0.0021185505,-0.028638832,-0.006990413,0.017802266,-0.00030283423,0.40198657,-1.2035424,1.6750616,-2.057069,-1.5481852,2.3629837,-5.970793e-05,0.03335855,0.039768938,-0.09224817,-0.0006689081,0.00021219335,0.11492168,0.22984336,-9.155427,0.7284641,47.67345,-0.55672204,-3.347429,-1.7140846,-0.49052578,0.17150916,0.12221334,28.3125,29.5,28.625,32.875,35.3125,36.5
1.160101,0.6061803,-4.429052,-1.0927097,-0.33854496,-0.123641774,0.016759757,-0.5025831,-0.3672865,0.083281085,3.055654,-0.5975962,-0.0008081378,0.00013344029,0.00096410094,-0.033070043,0.0022435207,-0.0018365539,-0.0011103263,0.40201032,-1.2031461,1.6754459,-2.0578654,-1.5481857,2.3629715,-0.00068301056,0.035631616,0.042700686,-0.07576801,-0.0014396369,0.00038995594,0.38307226,0.1340753,-9.3661175,0.68146914,47.658226,-0.5138332,-3.4239569,-1.7829933,-0.5918125,0.15017988,0.11109049,28.3125,29.5,28.625,32.875,35.3125,36.5
1.1701027,0.9625956,-4.589978,-1.0705645,-0.40269253,-0.10121569,0.0053435257,-0.5025533,-0.36724988,0.08295493,3.0557418,-0.59765446,-0.0007195658,0.0042512924,0.0037291215,-0.034803167,0.010844866,-0.015333977,-0.0013290672,0.4019982,-1.2028346,1.6759008,-2.05853,-1.5482348,2.3629837,-0.0009231786,0.03532237,0.04334935,-0.060309626,-0.0040349215,0.0003348488,0.30645782,0.19153613,-9.442732,0.76874626,47.683304,-0.4903288,-3.3881106,-1.8820865,-0.7825015,0.12704116,0.12628175,28.3125,29.5,28.625,32.875,35.3125,36.5
1.1801034,-0.4143194,-5.7547784,-0.9856923,-0.4545829,-0.031918738,0.021352526,-0.50250363,-0.367217,0.082637854,3.0558617,-0.59771943,-0.00051933655,0.0040446175,0.0042140125,-0.03307701,0.011785732,-0.01188465,-0.0010999751,0.40199828,-1.2025241,1.6763085,-2.059069,-1.5482711,2.3630075,-0.0006986451,0.03212099,0.043819617,-0.0603756,-0.006249048,0.00029835873,0.095768064,0.28730422,-9.519346,0.779936,47.709274,-0.5933862,-3.217924,-1.9323099,-0.88654673,0.099494964,0.1282785,28.3125,29.5,28.625,32.875,35.3125,36.5
1.1901002,-1.0986023,-6.1607647,-1.0108606,-0.478902,-0.017318863,0.023597274,-0.50246304,-0.36716434,0.08227828,3.0560331,-0.59775734,-0.00035036696,0.00081346335,0.0031768354,-0.031245042,0.00830812,0.00041609348,-0.00081730966,0.40198645,-1.2021649,1.6767644,-2.059695,-1.5483559,2.3629956,-0.00041280594,0.03086897,0.04415132,-0.07212951,-0.007888836,0.0002756862,0.17238252,0.38307226,-9.519346,0.7016076,47.721813,-0.6188005,-3.1798725,-1.8587188,-0.7803185,0.074188314,0.11508891,28.3125,29.5,28.625,32.875,35.3125,36.5
1.200101,-1.1075242,-6.2184987,-0.71010286,-0.49462628,-0.013106051,0.030170701,-0.50245744,-0.36713457,0.081985734,3.0560558,-0.5978191,-0.00043649934,-0.00068529614,0.0028115534,-0.030538468,0.006652518,0.0068293605,-0.0007425533,0.40197444,-1.2019016,1.6772312,-2.0604517,-1.548416,2.3630195,-0.00033790967,0.030009149,0.045321785,-0.07898593,-0.008888108,0.0002591632,0.076614454,0.22984336,-9.346964,0.7150385,47.695843,-0.6556412,-3.15231,-1.9319898,-0.5966027,0.04108657,0.1318361,28.3125,29.5,28.625,32.875,35.3125,36.5
1.2101021,-0.44985,-5.9333816,-0.40579024,-0.5031916,0.006105598,0.023523415,-0.50248975,-0.36711687,0.08173428,3.0560653,-0.5977823,-0.00063235423,0.003393455,0.005384446,-0.03251243,0.015203116,-0.0067144195,-0.00080048863,0.40196252,-1.201638,1.6776022,-2.0611885,-1.548489,2.3629837,-0.00034313838,0.030268414,0.045840893,-0.063945815,-0.011421614,0.00027870748,0.19153613,0.19153613,-9.289502,0.6658024,47.67166,-0.61862785,-3.053002,-1.9956231,-0.6508702,0.030604603,0.13493092,28.3125,29.5,28.625,32.875,35.3125,36.5
1.2201024,-1.1810915,-6.525644,-0.4370177,-0.52185094,0.016677387,0.034948938,-0.5024298,-0.36704832,0.081380315,3.0562918,-0.5979086,-0.00043029914,0.0067514163,0.0069627995,-0.034448005,0.020920718,-0.019556483,-0.0010899353,0.4019625,-1.2013017,1.6780576,-2.0617344,-1.548621,2.3630316,-0.00045504794,0.031799946,0.045001864,-0.050586186,-0.01163172,0.0004601904,0.15322891,0.28730422,-9.212888,0.71279734,47.675243,-0.63953435,-3.1146655,-2.047957,-0.8566683,0.0014240493,0.15232469,28.3125,29.5,28.625,32.875,35.3125,36.5
1.2301056,-1.1005497,-6.306967,-0.2837642,-0.5466894,0.07060837,0.03067984,-0.5023432,-0.3669916,0.08104816,3.0565116,-0.59792,-9.757851e-05,0.006163593,0.007107171,-0.034050632,0.021338724,-0.018509658,-0.0013917969,0.4019624,-1.201002,1.6784886,-2.0621655,-1.5486816,2.3630078,-0.0006619185,0.031963263,0.043875214,-0.05042166,-0.012429308,0.0005476935,0.095768064,0.40222588,-9.2703495,0.69937176,47.70211,-0.592542,-3.1446137,-2.029014,-0.9151886,-0.025603827,0.15097624,28.3125,29.5,28.625,32.875,35.3125,36.5
1.2401104,-1.7126331,-6.0836086,-0.26682204,-0.5027561,0.08518395,0.037493158,-0.5022877,-0.36693302,0.080698304,3.0567446,-0.597914,6.0486767e-05,0.0031564224,0.005509655,-0.033542246,0.016658574,-0.009508356,-0.0012222148,0.40197435,-1.200666,1.678943,-2.062744,-1.5488132,2.362984,-0.0005656836,0.033450004,0.043339305,-0.06148859,-0.011670262,0.00048437796,0.1340753,0.40222588,-9.385271,0.7038487,47.707485,-0.62686443,-3.197799,-1.9128561,-0.84336257,-0.08188413,0.13171954,28.3125,29.5,28.625,32.875,35.3125,36.5
1.2501,-2.0934157,-5.206502,-0.47986177,-0.43611136,0.11575226,0.04942713,-0.5022626,-0.36687547,0.08035303,3.056861,-0.59807307,0.00019687177,0.0005178286,0.0041555283,-0.03266158,0.012759776,-0.0027440218,-0.0013283523,0.40193844,-1.200318,1.679386,-2.063381,-1.5488847,2.3630316,-0.0006789462,0.034765325,0.041271724,-0.06849077,-0.010750374,0.00048966537,0.15322891,0.38307226,-9.5385,0.7150385,47.703007,-0.64526653,-3.3070126,-1.8828261,-0.6970334,-0.12442018,0.13944885,28.3125,29.5,28.625,32.875,35.3125,36.5
1.2600976,-1.8412408,-3.6407423,-0.57192016,-0.33111674,0.13625123,0.055194452,-0.50224704,-0.36685345,0.08001171,3.0569966,-0.5980076,0.0002750604,0.00034116965,0.0035971573,-0.031217068,0.012440237,-0.004271019,-0.001179034,0.40195048,-1.1999345,1.6797799,-2.0640485,-1.5489568,2.362984,-0.00038731983,0.034787837,0.036739644,-0.06270758,-0.009857208,0.0006468631,0.095768064,0.30645782,-9.615114,0.7217513,47.682407,-0.6628951,-3.2053213,-1.8030407,-0.6249341,-0.17354742,0.14799663,28.3125,29.5,28.625,32.875,35.3125,36.5
1.2700995,-2.1570065,-2.8143039,-0.31065202,-0.23560706,0.16457249,0.052678764,-0.5022492,-0.3668469,0.079741076,3.0570536,-0.5980579,0.00029676114,0.0010755967,0.003746544,-0.028364722,0.012530201,-0.005437155,-0.0012612314,0.40196252,-1.1996123,1.6800779,-2.0646207,-1.5490044,2.3630197,-0.00032492063,0.030753693,0.03404565,-0.054875694,-0.00947298,0.0007987458,0.21068975,0.2681506,-9.730036,0.7217513,47.681515,-0.6967499,-3.2489662,-1.7030381,-0.7027577,-0.2022935,0.15632409,28.3125,29.5,28.625,32.875,35.3125,36.5
1.2801012,-1.2509772,-0.66221094,0.31182563,-0.12628172,0.16046965,0.046727363,-0.5022135,-0.36682022,0.07945452,3.0571606,-0.5981203,0.00040233965,0.002782183,0.00404002,-0.029708711,0.013244293,-0.010343506,-0.0011795667,0.40197447,-1.1993245,1.6804494,-2.0651586,-1.549064,2.363056,-0.0002913977,0.031198677,0.035872832,-0.052357163,-0.00819964,0.0007693772,0.21068975,0.17238252,-9.557653,0.7597976,47.678825,-0.71284163,-3.3361783,-1.7749946,-0.7444428,-0.23051104,0.1529069,28.3125,29.5,28.625,32.875,35.3125,36.5
1.290103,-0.98172486,-0.27190483,0.247932,-0.062324032,0.10827069,0.04916303,-0.50219536,-0.36680096,0.07919228,3.0572546,-0.5981018,0.0004411528,0.00212151,0.0034555783,-0.029231297,0.011873968,-0.008427819,-0.0007609425,0.40198657,-1.1990489,1.6807836,-2.065698,-1.5491241,2.3630435,-8.493659e-05,0.031361286,0.034974277,-0.053917583,-0.0076905536,0.0005639836,0.15322891,0.24899697,-9.481039,0.7239871,47.70032,-0.50942713,-3.22734,-1.7812321,-0.8157085,-0.25825474,0.1700546,28.3125,29.5,28.625,32.875,35.3125,36.5
1.3000998,-0.6161746,-1.0723226,0.37346143,-0.044863045,0.016435837,0.04974603,-0.5022104,-0.36673695,0.078920916,3.0573673,-0.59820217,0.00040821498,-0.001371011,0.001934092,-0.027488444,0.0069201025,0.0030099892,-0.0010058199,0.40193865,-1.1987612,1.6811303,-2.0662758,-1.5492438,2.3630435,-6.8715264e-05,0.031116132,0.03405984,-0.06522842,-0.007639636,0.0008229035,0.038307227,0.34476504,-9.155427,0.7463667,47.690468,-0.46573815,-3.1568568,-1.6852478,-0.7642938,-0.22582737,0.14984721,28.3125,29.5,28.625,32.875,35.3125,36.5
1.3100991,0.08099103,-0.9654713,0.356453,-0.03755361,0.0072891833,0.044311684,-0.50221664,-0.36677143,0.07865482,3.0573633,-0.59810567,0.00029437194,-0.0040447796,0.00065578416,-0.028165046,0.0030992795,0.010934757,-0.0010361295,0.4019985,-1.1984487,1.6814665,-2.0669982,-1.5492676,2.3630435,-5.7701123e-05,0.033628903,0.035029873,-0.07750111,-0.00725211,0.0008655529,0.19153613,0.2681506,-9.270349,0.7553206,47.68062,-0.45913774,-3.2188811,-1.6419526,-0.5939478,-0.22812152,0.15933737,28.3125,29.5,28.625,32.875,35.3125,36.5
1.3201048,0.44541866,-0.0676908,0.37286514,-0.026164187,0.0043819454,0.044638507,-0.5022809,-0.3667364,0.07834737,3.0573778,-0.5982421,0.00012507284,-0.0016210275,0.0012637412,-0.030455103,0.005457318,0.0021112675,-0.0009131129,0.40195057,-1.1980644,1.681815,-2.067798,-1.549363,2.3630798,-4.9730264e-05,0.035644077,0.036040895,-0.07148757,-0.0059516546,0.00076926977,0.3256114,0.2681506,-9.289503,0.7396539,47.678825,-0.48717302,-3.315657,-1.7011584,-0.550254,-0.25293627,0.16899395,28.3125,29.5,28.625,32.875,35.3125,36.5
1.3301032,-0.018642275,-0.7347618,0.14888853,-0.029965699,-0.028534956,0.052547403,-0.50226027,-0.3667198,0.078029476,3.0574625,-0.5982033,0.00023271353,0.0021407467,0.0028608982,-0.032237247,0.010606556,-0.009984268,-0.00086266623,0.40195057,-1.1977168,1.6821979,-2.0684283,-1.5493873,2.3630435,-4.36944e-05,0.035791438,0.03703578,-0.05948301,-0.0059266803,0.00072930276,0.19153613,0.2681506,-9.251195,0.66803825,47.66987,-0.44557962,-3.3569326,-1.7214795,-0.70323694,-0.22972417,0.17330313,28.3125,29.5,28.625,32.875,35.3125,36.5
1.3401023,-0.5271654,-0.97533643,0.031104313,-0.015458733,-0.0035428845,0.05383466,-0.50222796,-0.36668304,0.07769792,3.0576124,-0.5982364,0.00038997372,0.004245432,0.0030663821,-0.03304051,0.010633166,-0.015445059,-0.00079175533,0.4019506,-1.1973577,1.6825818,-2.0690014,-1.5494584,2.3630435,-3.896521e-05,0.035085,0.038920794,-0.055632714,-0.0038004406,0.0006927243,0.17238252,0.24899697,-9.308656,0.71951014,47.690468,-0.46610117,-3.3486729,-1.7766042,-0.8426401,-0.24878389,0.1825209,28.3125,29.5,28.625,32.875,35.3125,36.5
1.3500955,-0.39807144,-1.2338188,-0.40861714,-0.049230874,0.027243126,0.053748123,-0.50217,-0.36668217,0.07738667,3.057722,-0.5982234,0.0005683648,0.0015938999,0.001742093,-0.031207357,0.006140537,-0.0064067417,-0.00079704914,0.40199852,-1.1970344,1.6829652,-2.069555,-1.5494822,2.3630679,-3.5159628e-05,0.034180645,0.037991546,-0.06387699,-0.0032233961,0.0007071985,0.076614454,0.28730422,-9.557653,0.7396539,47.689575,-0.4348131,-3.297603,-1.862227,-0.8281729,-0.22973776,0.1824205,28.3125,29.5,28.625,32.875,35.3125,36.5
1.3601022,-0.4447333,-1.3737136,-0.7668294,-0.05257409,0.024202947,0.046851072,-0.50220996,-0.36666393,0.07707281,3.0577,-0.59833246,0.00046885313,-0.0023636343,0.000307218,-0.029520871,0.00069048797,0.008360878,-0.00092291815,0.40196264,-1.1966631,1.6833485,-2.0703628,-1.5495185,2.3631036,-3.2031323e-05,0.03316161,0.039315823,-0.079904586,-0.0040229047,0.0008207878,0.019153614,0.30645782,-9.710882,0.7620334,47.681515,-0.40458465,-3.284735,-1.7894284,-0.6547464,-0.21383515,0.17899916,28.3125,29.5,28.625,32.875,35.3125,36.5
1.3701023,-0.046820216,-0.8241982,-0.54623914,0.0017682626,-0.00885114,0.05550218,-0.5022406,-0.36668533,0.076777905,3.0576556,-0.59820783,0.00031854303,-0.0011873831,1.8770756e-05,-0.029095326,-0.00038934985,0.004725718,-0.00069332833,0.40197456,-1.1963159,1.6837319,-2.0712106,-1.5495175,2.3630435,-2.9414987e-05,0.03221546,0.03864228,-0.07536679,-0.0015946553,0.0006260165,0.13407528,0.24899697,-9.500193,0.7597976,47.651955,-0.44173077,-3.236537,-1.7185047,-0.58216286,-0.22366163,0.18058872,28.3125,29.5,28.625,32.875,35.3125,36.5
1.380108,0.23820592,-0.6629344,0.094946295,0.0024337298,-0.016629972,0.056745376,-0.50225246,-0.36665517,0.076505594,3.0576913,-0.5982535,0.00025427717,0.001260707,0.00094594015,-0.030702751,0.0032692424,-0.004754757,-0.0006575925,0.4019506,-1.1960279,1.6841024,-2.0718782,-1.5495776,2.3630435,-2.7193093e-05,0.033729468,0.038061757,-0.066144876,-0.0012313076,0.0006001809,0.3256114,0.11492168,-9.251195,0.75755644,47.70211,-0.4127485,-3.2131815,-1.6547623,-0.65481657,-0.2321519,0.1875979,28.3125,29.5,28.625,32.875,35.3125,36.5
1.3900992,-0.22500676,-1.2523386,0.1672405,-0.017692462,-0.001435314,0.06232732,-0.5021941,-0.36663827,0.0761878,3.057747,-0.5983621,0.000430501,0.003537727,0.00197651,-0.030699816,0.005781287,-0.010171113,-0.0007865452,0.40196264,-1.1957289,1.6845464,-2.0724862,-1.5495776,2.3631155,-2.5283402e-05,0.03157527,0.039397966,-0.05936159,-0.0014064696,0.0007306712,0.15322891,0.30645782,-9.136273,0.7150385,47.705692,-0.3832948,-3.0694213,-1.7783368,-0.79415214,-0.19705093,0.1922005,28.3125,29.5,28.625,32.875,35.3125,36.5
1.4001,-0.57176626,-1.2684114,-0.119886234,-0.033733808,0.014242234,0.06382706,-0.50217146,-0.36663255,0.07587506,3.0577953,-0.59833544,0.0005628774,0.0021967327,0.0011949628,-0.030448362,0.0030053856,-0.0052926666,-0.000591916,0.40196264,-1.1953813,1.6849178,-2.0731108,-1.5495657,2.3630917,-2.3624289e-05,0.03174179,0.040130988,-0.06583512,-0.00077156944,0.0005439394,0.1340753,0.3256114,-9.346964,0.7016076,47.694946,-0.41202897,-3.0452657,-1.8230133,-0.8265993,-0.2152488,0.1832054,28.3125,29.5,28.625,32.875,35.3125,36.5
1.4101012,-0.6372201,-1.2053058,-0.21949534,-0.033771615,0.009068268,0.06377684,-0.5021984,-0.36662465,0.07560179,3.0577857,-0.59835166,0.0003845511,-0.00070373673,-2.5576885e-05,-0.029441027,-0.0014370716,0.0052597653,-0.00047939515,0.40196264,-1.1950818,1.6853017,-2.0738924,-1.5496258,2.3631036,-2.2169486e-05,0.03144048,0.04110939,-0.07795883,-0.0008370027,0.00042818036,0.11492168,0.30645782,-9.442732,0.6926589,47.681515,-0.3802132,-3.0923238,-1.8545237,-0.66760135,-0.21438089,0.18209837,28.3125,29.5,28.625,32.875,35.3125,36.5
1.4201028,-0.22538072,-0.7700739,-0.32303187,-0.013108453,-0.008048694,0.065408126,-0.5021852,-0.36664286,0.07526565,3.0577698,-0.59832954,0.0004097049,-1.3881233e-05,0.00025330973,-0.031504676,0.0001266911,0.0014758486,-0.00045794834,0.4019866,-1.1947091,1.6857327,-2.0746944,-1.5496014,2.3631155,-2.0883492e-05,0.034316145,0.041692466,-0.07732321,-0.0007926592,0.00040919805,0.17238252,0.2681506,-9.442732,0.71279734,47.678825,-0.35832733,-3.3502038,-1.8348858,-0.56515217,-0.20387411,0.1783562,28.3125,29.5,28.625,32.875,35.3125,36.5
1.4301004,-0.31356832,-0.4025055,-0.1631275,-0.014511706,-0.01802877,0.06100044,-0.50218564,-0.36661947,0.074959785,3.057754,-0.59838414,0.00046687198,0.002956288,0.0014155065,-0.032621693,0.0046631014,-0.009878839,-0.0004388822,0.40193868,-1.1943853,1.6861395,-2.0753968,-1.5495771,2.3631036,-2.2988875e-06,0.03514823,0.040063094,-0.06430277,-0.0004978114,0.0004165804,0.21068975,0.17238252,-9.442732,0.7396539,47.692257,-0.31403986,-3.2985108,-1.7659408,-0.681975,-0.18748531,0.19985911,28.3125,29.5,28.625,32.875,35.3125,36.5
1.4401023,-0.22416501,-1.1560178,-0.1322345,-0.01786347,-0.0010048343,0.06531641,-0.50217205,-0.36661777,0.07467992,3.0577998,-0.59841305,0.00048546266,0.0026066834,0.0012679193,-0.031005815,0.005110462,-0.010903712,-0.0006920708,0.40196264,-1.1940739,1.6864852,-2.0760162,-1.5496134,2.3631394,-9.992581e-16,0.03473897,0.035661068,-0.05837875,-0.0005075335,0.00067373697,0.15322891,0.34476504,-9.385271,0.69937176,47.694946,-0.2980203,-3.302232,-1.688127,-0.81944597,-0.21233551,0.17646205,28.3125,29.5,28.625,32.875,35.3125,36.5
1.4500998,-0.57058626,-1.6779604,-0.030819744,-0.046138346,0.02630471,0.069099545,-0.5021412,-0.36659697,0.074349135,3.0579166,-0.5983632,0.0006615859,-0.00013008493,0.00012355321,-0.029916326,0.0013555641,-0.001916432,-0.0005284575,0.40196264,-1.1937025,1.6868566,-2.076606,-1.5496372,2.3630917,-4.3434775e-25,0.03483675,0.035306714,-0.06785824,-0.00058915187,0.00050619635,0.0,0.38307226,-9.461885,0.6971306,47.694946,-0.25721863,-3.28217,-1.6546779,-0.805776,-0.19751951,0.18292496,28.3125,29.5,28.625,32.875,35.3125,36.5
1.4601152,0.0681254,-1.3734022,-0.20443203,-0.028736614,0.029029896,0.06950234,-0.5021791,-0.36660147,0.074053705,3.0578532,-0.59840626,0.00050784193,-0.0037613893,-0.0014719332,-0.029037867,-0.0042851837,0.010939152,-0.0004420573,0.4019506,-1.1933548,1.6872405,-2.0774496,-1.5496491,2.3631155,-1.8879809e-34,0.03508715,0.03663919,-0.083477445,-0.00046069958,0.0004165638,0.05746084,0.3256114,-9.519346,0.7217513,47.71017,-0.27876955,-3.3416162,-1.6772928,-0.5739188,-0.19337587,0.19038522,28.3125,29.5,28.625,32.875,35.3125,36.5
1.4701011,0.4796815,-0.34592542,-0.08630086,0.019932052,-0.017724957,0.070610024,-0.5021878,-0.3666368,0.07374237,3.057817,-0.5982842,0.00044129952,-0.0008648982,-0.0002640085,-0.030602997,-0.0004124693,0.0016459504,-0.00039834116,0.4019866,-1.1929833,1.6876234,-2.0782726,-1.5496253,2.3630798,-8.3e-44,0.03543,0.037659895,-0.07477288,-0.00036535368,0.0003767226,0.1340753,0.076614454,-9.442732,0.65908957,47.667187,-0.25661922,-3.428948,-1.7757239,-0.5147107,-0.20159806,0.20168391,28.3125,29.5,28.625,32.875,35.3125,36.5
1.480096,-0.07667746,-0.5474582,-0.081340306,-0.008613706,-0.006228129,0.077511154,-0.50219125,-0.36661857,0.07340822,3.0578196,-0.5984379,0.000551086,0.0016777699,0.00080781366,-0.031089136,0.0035255963,-0.007679949,-0.00038114173,0.4019506,-1.1925877,1.6879939,-2.0789626,-1.5496134,2.3631394,0.0,0.035377447,0.036111128,-0.0630482,-0.0003160652,0.000363732,0.19153613,0.21068975,-9.404425,0.7418897,47.695843,-0.24233164,-3.3400874,-1.7170478,-0.6086341,-0.19774885,0.18737057,28.3125,29.5,28.625,32.875,35.3125,36.5
1.4901007,-0.021175465,-1.3873414,-0.34592685,-0.016099706,0.008953154,0.07308348,-0.5021272,-0.36659932,0.07309634,3.0579398,-0.5983887,0.0007358565,0.0035064812,0.0015819905,-0.03184792,0.0062186844,-0.014044429,-0.00058269774,0.40197456,-1.1922879,1.6884135,-2.0795228,-1.5496372,2.3631155,0.0,0.035620596,0.035894677,-0.056168545,-0.00029096362,0.00056786276,0.076614454,0.3256114,-9.442732,0.73741806,47.703903,-0.22281459,-3.3085246,-1.7328585,-0.77445793,-0.21102782,0.19757178,28.3125,29.5,28.625,32.875,35.3125,36.5
1.5000999,-0.121491276,-1.1709069,-0.18637258,-0.027940255,0.016118692,0.06475656,-0.50211996,-0.36661205,0.0728167,3.0579138,-0.59844166,0.00083713443,0.0010045562,0.00050047477,-0.030119354,0.0021913028,-0.0047121285,-0.00049101247,0.40197456,-1.1919528,1.6887244,-2.0801241,-1.549589,2.3631518,0.0,0.034274664,0.03591369,-0.065003864,-0.00025562913,0.00047362412,0.076614454,0.36391866,-9.461885,0.72622824,47.71465,-0.2713878,-3.296301,-1.7110604,-0.75183606,-0.2108027,0.19830342,28.3125,29.5,28.625,32.875,35.3125,36.5
1.5101031,0.162894,-0.48933274,0.06410895,-0.04308185,0.028095394,0.07142484,-0.50213593,-0.36658773,0.07248639,3.0579937,-0.598363,0.00078348146,-0.0027358045,-0.0010937053,-0.029306084,-0.0030158062,0.0075037014,-0.00037602903,0.40196264,-1.191569,1.6891202,-2.0808957,-1.549661,2.3630798,0.0,0.035194024,0.036230825,-0.079517044,-0.00027532407,0.00035394993,0.19153613,0.24899697,-9.442732,0.6702794,47.679718,-0.18010038,-3.375462,-1.6644936,-0.5802299,-0.22166663,0.19878872,28.3125,29.5,28.625,32.875,35.3125,36.5
1.5201014,0.38235444,-0.33140644,0.15545167,-0.024911817,0.0153833125,0.06113135,-0.50216055,-0.36660224,0.07220616,3.0579214,-0.59844196,0.0006928972,-0.001333194,-0.00047987784,-0.030414958,-0.0009164611,0.0027043913,-0.00033712617,0.40196264,-1.1912332,1.6894687,-2.08166,-1.5496491,2.3631392,0.0,0.035938963,0.036797572,-0.07558964,-0.00031847795,0.00031577938,0.05746084,0.30645782,-9.423578,0.679228,47.681515,-0.18300012,-3.3685565,-1.800914,-0.5215589,-0.20298569,0.18905076,28.3125,29.5,28.625,32.875,35.3125,36.5
1.5301008,0.5056465,-0.17064515,0.1342623,-0.0041198246,-0.0024859516,0.07302136,-0.50214964,-0.36663297,0.07191988,3.0578725,-0.5983744,0.00065491535,0.001890176,0.00088743673,-0.031188024,0.0039236327,-0.008693547,-0.00026761688,0.40199852,-1.1909214,1.6898631,-2.082421,-1.5496134,2.3631392,0.0,0.03579401,0.035533078,-0.061795868,-0.0002819908,0.00025093977,0.21068975,0.17238252,-9.232041,0.7016076,47.664497,-0.11902002,-3.4046845,-1.7344701,-0.6436852,-0.19230664,0.20482919,28.3125,29.5,28.625,32.875,35.3125,36.5
1.5401,0.29816246,-0.2793816,0.1476045,-0.021183476,0.003649899,0.069111355,-0.50212693,-0.36659986,0.07158328,3.0579755,-0.59847474,0.0008677517,0.0032553973,0.0014993782,-0.031151693,0.005659896,-0.012530205,-0.0002921452,0.40197456,-1.1905266,1.6902102,-2.0829823,-1.5496372,2.3631635,0.0,0.034801483,0.0356168,-0.05667714,-0.00036682433,0.00027588694,0.21068975,0.21068975,-9.346964,0.7217513,47.70838,-0.13802238,-3.3793344,-1.711897,-0.7560978,-0.20161332,0.18725652,28.3125,29.5,28.625,32.875,35.3125,36.5
1.5501002,-0.28651857,-1.6439695,-0.15880172,-0.03263374,0.020121194,0.08612576,-0.5021119,-0.36656213,0.071265444,3.058096,-0.5984441,0.0009920053,0.0025094214,0.001246787,-0.03133263,0.0038667903,-0.007821821,-0.00039673553,0.4019506,-1.1901672,1.6905698,-2.0835712,-1.5496854,2.3631036,0.0,0.03415948,0.03860914,-0.064063475,-0.0005713533,0.00037561712,0.19153613,0.40222588,-9.442732,0.7239871,47.688675,-0.1558309,-3.2858782,-1.8312333,-0.7595148,-0.20041114,0.1934394,28.3125,29.5,28.625,32.875,35.3125,36.5
1.5601021,-0.19833174,-1.1554257,-0.21022959,-0.027617041,0.011737106,0.07779691,-0.5021228,-0.3665669,0.0709739,3.0580685,-0.5984573,0.00093909714,-0.001805902,-0.0006250475,-0.029392263,-0.002774048,0.0074985493,-0.00039768685,0.4019506,-1.1898319,1.6909407,-2.0843194,-1.5496854,2.3631155,0.0,0.033408355,0.03911971,-0.08052051,-0.0004917738,0.0003721924,0.19153613,0.40222588,-9.442732,0.7105615,47.70032,-0.039280362,-3.3466525,-1.931623,-0.56575716,-0.21973619,0.1958789,28.3125,29.5,28.625,32.875,35.3125,36.5
1.5701022,0.061204214,-0.52417725,-0.226966,-0.004890628,-0.008954842,0.06979211,-0.5021277,-0.36659282,0.070671305,3.0580063,-0.59846354,0.0008726464,-0.00017017958,6.107165e-05,-0.030153206,-0.0006895851,0.0025208078,-0.00040540827,0.40197456,-1.1894844,1.6913351,-2.085131,-1.549661,2.3631518,0.0,0.03334091,0.039818987,-0.07575621,-0.0004499,0.00038187546,0.22984336,0.19153613,-9.519346,0.7083204,47.698532,-0.100842044,-3.3764572,-1.9755101,-0.5076474,-0.20163307,0.1965408,28.3125,29.5,28.625,32.875,35.3125,36.5
1.5800948,-0.27469277,-0.645096,-0.20982075,-0.008284966,-0.005594231,0.08113435,-0.5020815,-0.3665732,0.07032165,3.0580966,-0.59846425,0.0010115782,0.0019404645,0.000929314,-0.030410217,0.0024804075,-0.005154548,-0.00034825696,0.4019866,-1.1891247,1.6917895,-2.0858214,-1.5496854,2.3631516,0.0,0.033103652,0.038425524,-0.06582095,-0.00034267677,0.00032914485,0.11492168,0.22984336,-9.481039,0.7217513,47.681515,-0.045135606,-3.4263136,-1.8599873,-0.6068169,-0.1941533,0.19959976,28.3125,29.5,28.625,32.875,35.3125,36.5
1.590104,0.0369617,-0.88581425,-0.06841325,-0.015690668,0.006955615,0.08212346,-0.50206953,-0.36655244,0.07004575,3.0581357,-0.59851164,0.0011223677,0.0033779435,0.0015345414,-0.030199412,0.00488804,-0.010853891,-0.00031909812,0.40196264,-1.1888133,1.6921118,-2.0863693,-1.5496854,2.3631516,0.0,0.032759298,0.036459852,-0.057323456,-0.00031237595,0.0003029702,0.17238252,0.28730422,-9.32781,0.6635613,47.701214,-0.043494493,-3.3033037,-1.8815615,-0.76803744,-0.19392887,0.19582221,28.3125,29.5,28.625,32.875,35.3125,36.5
1.6000991,-0.18966435,-1.0766065,-0.076620735,-0.042339962,0.021210302,0.081762955,-0.5020443,-0.36656156,0.06975555,3.0581963,-0.5984482,0.0012005328,0.00061385805,0.0002184804,-0.028558625,0.0008527606,-0.0015089052,-0.00014456744,0.40199858,-1.188478,1.6924461,-2.086971,-1.5496973,2.3631392,0.00018591419,0.03224101,0.035529062,-0.06605356,-0.00027785925,0.00031188683,0.11492168,0.34476504,-9.32781,0.7486078,47.694946,-0.011375098,-3.226179,-1.7431294,-0.7807621,-0.20386735,0.19704577,28.3125,29.5,28.625,32.875,35.3125,36.5
1.610098,-0.2886024,-1.0438035,-0.23224013,-0.04175849,0.022802725,0.07657228,-0.50205326,-0.36654577,0.069428645,3.0581665,-0.5984993,0.001190607,-0.002861606,-0.0012808795,-0.028391175,-0.0039172005,0.009529355,-0.00012773775,0.4019627,-1.1881176,1.6928767,-2.0877779,-1.5496854,2.3631392,0.00018489466,0.033947855,0.036198013,-0.08045367,-0.00023945289,0.0002901321,0.038307227,0.34476504,-9.519346,0.71951014,47.682407,0.0146577,-3.3418136,-1.8069098,-0.6047741,-0.21957166,0.21096548,28.3125,29.5,28.625,32.875,35.3125,36.5
1.6201047,-0.18842408,-0.5640036,0.07525061,-0.014596658,-0.007408105,0.080914356,-0.5020961,-0.3665997,0.06916369,3.058065,-0.5984006,0.0009554557,-0.0027557225,-0.001329842,-0.028606871,-0.0033854712,0.008262528,-7.911305e-05,0.40201068,-1.1877699,1.6931986,-2.0886395,-1.5496734,2.3631394,0.0003243292,0.03480134,0.035177775,-0.07891502,-0.00023350742,0.0003815664,0.095768064,0.2681506,-9.461885,0.7016076,47.71554,0.036523778,-3.366483,-1.7440104,-0.50615025,-0.19942874,0.21594596,28.3125,29.5,28.625,32.875,35.3125,36.5
1.630103,0.54113555,-0.42009535,-0.060563244,-0.00496331,0.0034618094,0.08392458,-0.5021116,-0.3665828,0.06886505,3.058043,-0.5984926,0.0010156465,0.0005557256,8.941173e-05,-0.030283092,0.0021908863,-0.004720325,-0.0002597353,0.40196276,-1.1874099,1.6935338,-2.0893047,-1.5496491,2.3631518,0.00033197307,0.03634325,0.0335458,-0.06469932,-0.000257832,0.00057434925,0.15322891,0.22984336,-9.404425,0.7329411,47.68062,0.05834893,-3.4149146,-1.6491865,-0.64631414,-0.19206929,0.20268336,28.3125,29.5,28.625,32.875,35.3125,36.5
1.6401024,-0.042584307,-0.529135,0.10527827,-0.012154515,-0.006946268,0.08696452,-0.50210214,-0.36659074,0.06859363,3.0580995,-0.59842795,0.001016983,0.0013392778,0.0004398379,-0.02936959,0.0032040463,-0.006634061,-0.00012440179,0.40199867,-1.187087,1.6938447,-2.0899136,-1.5496854,2.3631394,0.00039530324,0.034646004,0.032719538,-0.06001598,-0.00043084164,0.0005013849,0.19153613,0.17238252,-9.270349,0.6859408,47.675243,0.06703591,-3.3402538,-1.5954807,-0.80183846,-0.19643965,0.18515928,28.3125,29.5,28.625,32.875,35.3125,36.5
1.650106,-0.9039693,-1.4919785,-0.056154773,-0.03438376,0.00991601,0.0978472,-0.5020577,-0.36659163,0.068262175,3.058203,-0.59839416,0.0012046406,-0.0011034455,-0.0005407505,-0.02901929,9.1830276e-05,0.0010875508,-7.812715e-05,0.40203452,-1.1867032,1.6942033,-2.0905035,-1.5496973,2.3631394,0.00038488206,0.035593428,0.03283985,-0.06940546,-0.0006093232,0.00043963362,0.095768064,0.30645782,-9.385271,0.71951014,47.688675,0.1301645,-3.481783,-1.5187646,-0.7939794,-0.21314766,0.19549453,28.3125,29.5,28.625,32.875,35.3125,36.5
1.6601036,-0.8164066,-1.5224341,-0.39240414,-0.024795184,0.0069112154,0.1032851,-0.50208235,-0.3666062,0.06797001,3.058113,-0.5984327,0.0011226695,-0.004595501,-0.0021227533,-0.029097822,-0.0052026105,0.013224777,-6.8068985e-05,0.40202254,-1.186355,1.6945738,-2.0913112,-1.549661,2.3631637,0.00047451345,0.037107006,0.03487869,-0.08620104,-0.000522937,0.00051503425,0.11492168,0.30645782,-9.442732,0.7553206,47.695843,0.13545465,-3.5751057,-1.6215215,-0.5642664,-0.22610828,0.21200883,28.3125,29.5,28.625,32.875,35.3125,36.5
1.6701037,0.6491768,-0.15419579,-0.07487021,-0.0017711393,-0.00789367,0.08913842,-0.5021239,-0.36660445,0.067659564,3.058071,-0.5984993,0.0010257061,-0.0017142,-0.001089236,-0.030006077,-0.0014333229,0.0044807834,0.00016091803,0.4019988,-1.1859596,1.6949209,-2.0921214,-1.5496734,2.3631876,0.000789444,0.03669952,0.03525556,-0.076650515,-0.0005476503,0.0006036686,0.2681506,0.21068975,-9.461885,0.66132545,47.684196,0.15470438,-3.535662,-1.5620406,-0.5497869,-0.2042117,0.21544129,28.3125,29.5,28.625,32.875,35.3125,36.5
1.680108,0.46735322,-0.66394234,-0.19956817,-0.00094876235,-0.0010279282,0.08717827,-0.50211847,-0.36661404,0.067359105,3.058093,-0.59840935,0.0010051813,0.0019424332,0.00060864125,-0.0314389,0.0037506067,-0.0076354574,-6.0787297e-05,0.40202257,-1.1856121,1.6952914,-2.0928476,-1.5496854,2.3631518,0.0005862807,0.0365476,0.035681836,-0.06374671,-0.00054583093,0.00062640035,0.24899697,0.19153614,-9.289502,0.6658024,47.674347,0.18295312,-3.5145237,-1.652955,-0.6797362,-0.20734036,0.21129279,28.3125,29.5,28.625,32.875,35.3125,36.5
1.6901065,-0.30016884,-1.1854724,0.0152242305,-0.022264648,0.0010688844,0.10449562,-0.5020658,-0.36659968,0.06705355,3.0581787,-0.59842855,0.0012091291,0.0033367062,0.0008907513,-0.031605676,0.0052921046,-0.011402066,0.00040359958,0.40203476,-1.1852887,1.6956624,-2.0933845,-1.5496854,2.3631637,0.0010309324,0.03605337,0.0356768,-0.059177842,-0.0004791374,0.0006089504,0.17238252,0.2681506,-9.270349,0.76874626,47.695843,0.14893207,-3.508185,-1.7102512,-0.8405308,-0.20376036,0.20031327,28.3125,29.5,28.625,32.875,35.3125,36.5
1.700114,-0.28457412,-0.89143145,-0.14386015,-0.025419636,0.007993338,0.0986773,-0.5020745,-0.36660743,0.06675941,3.0581985,-0.59847134,0.0012425968,0.00077875244,-2.3755045e-05,-0.030567706,0.0010729984,-0.0017692805,7.423353e-05,0.40204656,-1.1849055,1.6959499,-2.0940225,-1.5496973,2.3631995,0.0007135862,0.03519519,0.037104007,-0.07026306,-0.00038919027,0.0006183162,0.11492168,0.28730422,-9.32781,0.683705,47.703903,0.24690583,-3.4954557,-1.7661686,-0.7808861,-0.2011136,0.20448716,28.3125,29.5,28.625,32.875,35.3125,36.5
1.7101008,-0.63506967,-1.3144035,-0.35173804,-0.02042683,0.0037862833,0.106239505,-0.50208145,-0.36659902,0.06644242,3.058207,-0.59849185,0.0011749541,-0.0022218341,-0.0015762746,-0.030146541,-0.0038655803,0.010267074,0.000603753,0.40204674,-1.1845459,1.6963571,-2.0948184,-1.549733,2.3632114,0.0012180108,0.035420947,0.039501026,-0.0858935,-0.00058605254,0.00058570935,0.21068975,0.28730422,-9.423578,0.6658024,47.711063,0.20413512,-3.4974144,-1.936408,-0.5736793,-0.2119439,0.20407808,28.3125,29.5,28.625,32.875,35.3125,36.5
1.7200999,-0.4562666,-0.8769171,-0.46677527,0.004406049,-0.018340718,0.11103967,-0.5020702,-0.3666297,0.06614804,3.0581515,-0.5984227,0.0011216665,0.0013804863,2.7224636e-05,-0.03150209,0.00051320373,-0.0002049584,0.00049399235,0.4020827,-1.1842227,1.6967648,-2.095616,-1.5496973,2.3632114,0.0010760359,0.034477822,0.04142523,-0.075523876,-0.0004882966,0.00055793737,0.19153613,0.21068975,-9.576807,0.71279734,47.67166,0.29389426,-3.5035055,-2.0243216,-0.59701943,-0.1948704,0.21200591,28.3125,29.5,28.5625,32.875,35.3125,36.5
1.7301068,0.42271957,-0.2970852,-0.017911302,-0.011797423,0.0021988573,0.09519925,-0.5020287,-0.3666044,0.06582157,3.0582342,-0.5984224,0.0012433766,0.0038828107,0.0007491929,-0.030864954,0.0037154374,-0.0079328455,0.0005817767,0.40208286,-1.1838877,1.6971945,-2.0962703,-1.5497211,2.3631997,0.0015589065,0.03272269,0.03962193,-0.063609615,-0.0003916781,0.0009579623,0.21068975,0.21068975,-9.404425,0.6948948,47.67345,0.26344135,-3.440352,-1.9712818,-0.73816705,-0.20163584,0.2117426,28.3125,29.5,28.5625,32.875,35.3125,36.5
1.7401011,-0.40521348,-1.1865319,-0.28650755,-0.025368905,0.011564627,0.10622194,-0.50201327,-0.36657795,0.06552137,3.0582721,-0.5984507,0.001375306,0.0029240446,0.0006058009,-0.02967644,0.0030551434,-0.0062726587,0.00036206588,0.4020467,-1.1835523,1.6975521,-2.0968688,-1.5497092,2.3631756,0.0011752194,0.032327358,0.03727954,-0.06265441,-0.00043464208,0.0007936093,0.19153613,0.24899697,-9.346964,0.7217513,47.687782,0.25939208,-3.4426346,-1.9334362,-0.83777255,-0.20418257,0.20706314,28.3125,29.5,28.5625,32.875,35.3125,36.5
1.7501045,-0.49872008,-1.8461975,-0.4777717,-0.03905464,0.028442115,0.11119643,-0.5019914,-0.36658487,0.06521998,3.058294,-0.5984933,0.0013818924,-0.001046839,-0.0015531906,-0.027585478,-0.0033004894,0.008859529,0.00064817746,0.40208298,-1.1832168,1.6979355,-2.0975683,-1.549733,2.3632355,0.0019308305,0.031325467,0.037629984,-0.07842502,-0.0005507483,0.0012564367,0.076614454,0.38307226,-9.423578,0.7351769,47.703903,0.2630547,-3.3561075,-1.9355826,-0.7326619,-0.20895614,0.19625068,28.3125,29.5,28.5625,32.875,35.3125,36.5
1.7600985,-0.4837184,-1.0366069,-0.5824725,-0.01691663,0.0055073583,0.12039665,-0.50202686,-0.36659217,0.06493552,3.0582025,-0.59849197,0.0011774476,-0.0040715025,-0.0023647784,-0.026569866,-0.007254133,0.01821817,0.00025910066,0.40207082,-1.1828934,1.6983417,-2.098457,-1.549733,2.3632352,0.0012197534,0.031366296,0.037698016,-0.088686235,-0.00059482764,0.0009302511,0.15322891,0.36391866,-9.557653,0.71951014,47.693153,0.3029393,-3.3284717,-1.9086947,-0.49309823,-0.19807318,0.20046219,28.3125,29.5,28.5625,32.875,35.3125,36.5
1.7701014,0.16851877,-0.090901755,-0.32974103,-0.0029270146,-0.016896553,0.10923985,-0.5020393,-0.36662135,0.064651,3.05815,-0.5984232,0.0010980628,-0.0004128648,-0.001177291,-0.02866871,-0.0012917686,0.004072344,0.001132393,0.402095,-1.1825448,1.6986874,-2.09923,-1.5497092,2.3632233,0.001750564,0.033691317,0.035775684,-0.07373104,-0.0005100052,0.00059392356,0.24899697,0.21068975,-9.442732,0.7150385,47.696735,0.2689023,-3.4531655,-1.8071685,-0.5756797,-0.19360036,0.21550849,28.3125,29.5,28.5625,32.875,35.3125,36.5
1.7801024,-0.04352498,-0.46212968,-0.112863846,-0.018833425,-0.0053401864,0.11570977,-0.5019913,-0.3666207,0.06436279,3.058253,-0.59836936,0.0011426993,0.0012984073,-0.00033873433,-0.02792798,0.0016080538,-0.0030080327,0.00059196324,0.40215474,-1.1822457,1.6990689,-2.0998366,-1.5497693,2.3632352,0.001531261,0.032645505,0.032833435,-0.062099826,-0.000390479,0.00092025904,0.038307227,0.3256114,-9.308657,0.69041777,47.65643,0.28185284,-3.1919794,-1.6361825,-0.75670683,-0.19693187,0.19734974,28.3125,29.5,28.5625,32.875,35.3125,36.5
1.7900958,-0.38706803,-1.5935154,-0.41297808,-0.024363557,0.0033151058,0.12277773,-0.5020055,-0.3666268,0.06409768,3.0581918,-0.5983949,0.001151664,0.00010294926,-0.0008448759,-0.027232893,-2.5640584e-05,0.0010819021,0.0007175431,0.40213078,-1.1819223,1.6993793,-2.1004965,-1.5497211,2.3632352,0.001575381,0.032387983,0.032522433,-0.06593224,-0.00049669424,0.00083609385,0.15322891,0.3256114,-9.346964,0.72622824,47.67166,0.31519383,-3.1727335,-1.627938,-0.84196115,-0.19711807,0.20751512,28.3125,29.5,28.5625,32.875,35.3125,36.5
1.8001051,-1.3062506,-2.3459847,2.6417966,-0.024262678,0.025159037,0.13648075,-0.5020235,-0.36666617,0.06382986,3.0581353,-0.59832513,0.0010628842,-0.0033478562,-0.0024454503,-0.02720614,-0.0043968083,0.011350439,0.0010569532,0.40216684,-1.1815737,1.6996788,-2.1012309,-1.5496973,2.3632352,0.001774895,0.03479762,0.032304637,-0.079281114,-0.00052422227,0.00069160963,0.01915361,0.4213795,-9.921572,0.7105615,47.694946,0.38621557,-3.38237,-1.6002008,-0.70768374,-0.19744426,0.20371802,28.3125,29.5,28.5625,32.875,35.3125,36.5
1.8100994,-2.1575434,0.60722035,10.514974,0.017944781,0.32018286,0.110319436,-0.5021835,-0.36673445,0.063691884,3.0577931,-0.5983069,0.0003545521,-0.0070677013,-0.0037475491,-0.023762766,-0.010343626,0.024504155,0.0003517134,0.40215462,-1.1813352,1.6999058,-2.1022632,-1.5496734,2.3632596,0.001190317,0.03162244,0.031298686,-0.08953563,-0.00022907618,0.00081179093,0.93852705,0.0,-10.151415,0.7396539,47.71286,0.35299549,-3.2161403,-1.3249059,-0.37359157,-0.18557921,0.19688356,28.3125,29.5,28.5625,32.875,35.3125,36.5
1.8200971,-2.0684557,-0.71060497,17.41236,-0.006034463,0.36016232,0.12756957,-0.50226456,-0.36679712,0.063518345,3.0575812,-0.5981826,-0.00013969817,-0.004839576,-0.0032734852,-0.019962328,-0.007497607,0.017312616,0.0011483597,0.40219083,-1.1811093,1.7002028,-2.1031792,-1.549661,2.3632476,0.0018072603,0.026559107,0.02525872,-0.07069774,-2.7183678e-10,0.0006403095,0.7278373,-0.11492168,-9.461885,0.6971306,47.705692,0.1451805,-2.5535042,-0.90400755,-0.4234814,-0.15709886,0.18889952,28.3125,29.5,28.5625,32.875,35.3125,36.5
1.830108,-4.063076,-3.4545112,18.96794,-0.10572469,0.4292292,0.13857855,-0.5023349,-0.36683497,0.063426726,3.0574193,-0.5981467,-0.0005176497,-0.0006906336,-0.001055588,-0.01953246,-0.0022520164,0.0034921402,0.00015441453,0.40220243,-1.1809787,1.7003692,-2.1037705,-1.549661,2.3632596,0.00082995056,0.023387479,0.02417308,-0.051672444,0.0006254622,0.00067134394,-0.21068975,0.3256114,-9.11712,0.68146914,47.678825,0.17530403,-2.0775917,-0.76166797,-0.5887464,-0.13133222,0.19454679,28.3125,29.5,28.5625,32.875,35.3125,36.5
1.8401014,-4.162786,-1.3417722,22.125061,-0.07230568,0.54106724,0.12517816,-0.50238776,-0.36687386,0.06329813,3.0572655,-0.5981125,-0.00080485316,-0.0014742875,-0.0025665443,-0.020144703,-0.007870915,0.006018329,6.42061e-05,0.40221435,-1.1808103,1.7005733,-2.1043842,-1.5496353,2.3632715,0.0005535848,0.024564983,0.025709685,-0.058923505,0.004795295,0.0005407284,-0.076614454,0.21068975,-8.485051,0.7016076,47.678825,0.15649702,-1.9046645,-0.68626785,-0.53912556,-0.15570962,0.19660641,28.3125,29.5,28.5625,32.875,35.3125,36.5
1.8501008,-2.7592247,-2.2945724,21.143309,-0.08573137,0.43517846,0.13288443,-0.5023932,-0.36687988,0.063030235,3.0572603,-0.598054,-0.00081042934,-0.0021732308,-0.0022708832,-0.02370867,-0.006250501,0.0063569387,4.9994684e-05,0.40221432,-1.180485,1.7008847,-2.1050327,-1.5496243,2.3632352,0.00045528772,0.030001003,0.028045185,-0.06636387,0.0031604962,0.00043242544,0.30645782,0.19153613,-8.389283,0.6635613,47.686886,0.12070261,-2.0109982,-0.6385239,-0.38244873,-0.058536217,0.19722319,28.3125,29.5,28.5625,32.875,35.3125,36.5
1.8601025,-1.3866216,-2.4655921,20.632101,-0.08308487,0.31411007,0.1296301,-0.5024299,-0.36690375,0.06275322,3.0572245,-0.5981037,-0.00086327404,0.0010081723,-0.0010941854,-0.029942676,-0.0018558331,-0.005930666,0.00010730151,0.4022262,-1.180087,1.701125,-2.105714,-1.5496238,2.3632832,0.00034590822,0.036778588,0.03240377,-0.06447235,0.003943433,0.00027853958,-0.19153613,0.45968673,-9.461885,0.69041777,47.70032,0.12945384,-2.322512,-0.90853983,-0.26111954,-0.029364951,0.19096893,28.3125,29.5,28.5625,32.875,35.3125,36.5
1.8701018,-1.081047,-0.8609464,20.41793,-0.035272725,0.24268952,0.12585433,-0.5023749,-0.36687252,0.06236542,3.057298,-0.5981977,-0.000520459,0.004768726,-0.00018912632,-0.033893216,0.0020455911,-0.020898664,0.00014078319,0.4021903,-1.179654,1.7015561,-2.1063454,-1.5495752,2.363295,0.00027890582,0.041145306,0.032952078,-0.05409357,0.006239609,0.00021268752,0.19153613,0.095768064,-9.3661175,0.66803825,47.70032,0.16316292,-2.461139,-0.88668644,-0.28252724,-0.044129755,0.17360815,28.3125,29.5,28.5625,32.875,35.3125,36.5
1.8800949,0.37584415,-0.58077604,21.12698,-0.0057311393,0.11235042,0.119531855,-0.5023636,-0.366876,0.062048975,3.0573704,-0.59817636,-0.0003614326,0.0067006852,0.00022743813,-0.034363896,0.0033214577,-0.027311552,0.00015598752,0.40220222,-1.1792347,1.7018307,-2.1069171,-1.5495743,2.3632832,0.0002336515,0.040887076,0.03279525,-0.047282163,0.007592874,0.00017202568,0.28730422,0.3256114,-9.576807,0.7016076,47.695843,0.196018,-2.4821954,-0.9253445,-0.3325361,-0.015419446,0.16615394,28.3125,29.5,28.5625,32.875,35.3125,36.5
