Tylouw/Master_Thesis_Code/trial2_tight/insertion_4_2026-01-23_13-28-17.csv
num_insertion,tcp_force_x[N],tcp_force_y[N],tcp_force_z[N],tcp_force_rx[Nm?],tcp_force_ry[Nm?],tcp_force_rz[Nm?],tcp_pose_x[m],tcp_pose_y[m],tcp_pose_z[m],tcp_pose_rx[rot_vec_x],tcp_pose_ry[rot_vec_y],tcp_pose_rz[rot_vec_z],tcp_velo_x[m/s],tcp_velo_y[m/s],tcp_velo_z[m/s],tcp_velo_rx[rot_vec_x/s],tcp_velo_ry[rot_vec_y/s],tcp_velo_rz[rot_vec_z/s],q1[rad],q2[rad],q3[rad],q4[rad],q5[rad],q6[rad],qd1[rad/s],qd2[rad/s],qd3[rad/s],qd4[rad/s],qd5[rad/s],qd6[rad/s],tool_acc_x,tool_acc_y,tool_acc_z,current_of_whole_robot[A],voltage_of_whole_robot[V],current_J1[A],current_J2[A],current_J3[A],current_J4[A],current_J5[A],current_J6[A],temp_J1[C],temp_J2[C],temp_J3[C],temp_J4[C],temp_J5[C],temp_J6[C]
1.0,0.1863890002205464,0.48688300052236866,-0.841892981533178,-0.003390040647348363,-0.047463508868563056,-0.03699803800487636,-0.5388513135204013,-0.32447262941286215,0.25999805532713244,-3.078643104770504,0.6248364529751114,2.7274856518693783e-05,0.0022485968978510633,-0.0013050750276598088,0.0006629686148465559,-0.001330921039982948,0.004099537344773454,0.0011662799927087304,0.3265262246131897,-1.15189083040271,1.6623790899859827,-2.0797325573363246,-1.571369473134176,2.3015458583831787,0.00319840875454247,-0.0037928984966129065,0.005024590529501438,-0.005540975369513035,-5.623225661111064e-05,0.0020298894960433245,0.6703764796257019,-0.2298433631658554,-9.002198219299316,0.8269415497779846,47.679718017578125,-0.23325815796852112,-4.265249252319336,-2.7058753967285156,-0.4015975594520569,0.06906092911958694,-0.16328147053718567,24.0625,24.6875,23.8125,25.625,25.875,26.25
1.0,0.7493864615135587,0.9928072977087048,-0.9922242973491021,0.023675168483702484,-0.06144829742046145,-0.04740587007838919,-0.5388338967910272,-0.3244677152581717,0.26001563445891457,-3.078661959893498,0.6248596244571235,5.262168890258828e-05,0.001019570650015259,-0.001110156927479511,0.0019251965308605557,-0.002063227763683465,0.006241095444937924,0.0007224727879550413,0.32652586698532104,-1.1519507628730317,1.6624253431903284,-2.0797444782652796,-1.571357552205221,2.3015575408935547,0.0022530225105583668,-0.0034444257616996765,0.0014706915244460106,-0.004598953761160374,-5.533910371013917e-05,0.0015283826505765319,0.4596867263317108,-0.17238251864910126,-8.925583839416504,0.7754590511322021,47.681514739990234,-0.16240347921848297,-4.310306549072266,-2.3904342651367188,-0.4020124077796936,0.07851499319076538,-0.17022031545639038,24.0625,24.6875,23.8125,25.625,25.875,26.25
1.0,0.7493864615135587,0.9928072977087048,-0.9922242973491021,0.023675168483702484,-0.06144829742046145,-0.04740587007838919,-0.5388338967910272,-0.3244677152581717,0.26001563445891457,-3.078661959893498,0.6248596244571235,5.262168890258828e-05,0.001019570650015259,-0.001110156927479511,0.0019251965308605557,-0.002063227763683465,0.006241095444937924,0.0007224727879550413,0.32652586698532104,-1.1519507628730317,1.6624253431903284,-2.0797444782652796,-1.571357552205221,2.3015575408935547,0.0022530225105583668,-0.0034444257616996765,0.0014706915244460106,-0.004598953761160374,-5.533910371013917e-05,0.0015283826505765319,0.4596867263317108,-0.17238251864910126,-8.925583839416504,0.7754590511322021,47.681514739990234,-0.16240347921848297,-4.310306549072266,-2.3904342651367188,-0.4020124077796936,0.07851499319076538,-0.17022031545639038,24.0625,24.6875,23.8125,25.625,25.875,26.25
1.0,0.432272559314568,0.3577637717641521,-1.1841532813522688,0.013948747945914355,-0.04628522343455739,-0.04642204401114555,-0.5388251317641923,-0.3244866629051891,0.260009549910428,-3.0786629209591134,0.624802189991594,6.147075123685267e-05,0.0001677438795780509,-0.0010509478929744721,0.002355374428365746,-0.002143949615156884,0.006468234485431297,0.0011295142741906562,0.3265615701675415,-1.1519383949092408,1.662424389516012,-2.0797554455199183,-1.571369473134176,2.3015573024749756,0.0017146224854514003,-0.0024878457188606262,-0.0011553822550922632,-0.0031706318259239197,-5.4499407269759104e-05,0.0005834012408740819,0.07661445438861847,0.1149216815829277,-9.174580574035645,0.7441308498382568,47.681514739990234,-0.140435129404068,-4.271361827850342,-2.2427141666412354,-0.3960607051849365,0.060866355895996094,-0.17935366928577423,24.0625,24.6875,23.8125,25.625,25.875,26.25
1.0,-1.0819872973911242,-0.7697784296393462,-1.1292414439695924,-0.04687507941302491,0.005526394204439691,-0.04654141286304131,-0.5388499477397073,-0.32446142160212854,0.26001702382135927,-3.078611818203236,0.6248874440614391,4.6615421555560675e-05,0.0003672737559217958,-0.0007682990304770526,0.0016085481380073421,-0.0012706593100329604,0.003904515234452949,0.0011605649513898842,0.32651352882385254,-1.1519263547709961,1.66237718263735,-2.0796953640379847,-1.5713933149920862,2.3015689849853516,0.0013840942410752177,-0.002050709445029497,-0.00041942769894376397,-0.0016354057006537914,-5.36865736648906e-05,0.00022258487297222018,-0.09576806426048279,0.24899697303771973,-9.193734169006348,0.7575564384460449,47.645687103271484,-0.1811794936656952,-3.9784328937530518,-1.9901307821273804,-0.4721375107765198,0.07243505120277405,-0.1602044403553009,24.0625,24.6875,23.8125,25.625,25.875,26.25
1.0,-1.0819872973911242,-0.7697784296393462,-1.1292414439695924,-0.04687507941302491,0.005526394204439691,-0.04654141286304131,-0.5388499477397073,-0.32446142160212854,0.26001702382135927,-3.078611818203236,0.6248874440614391,4.6615421555560675e-05,0.0003672737559217958,-0.0007682990304770526,0.0016085481380073421,-0.0012706593100329604,0.003904515234452949,0.0011605649513898842,0.32651352882385254,-1.1519263547709961,1.66237718263735,-2.0796953640379847,-1.5713933149920862,2.3015689849853516,0.0013840942410752177,-0.002050709445029497,-0.00041942769894376397,-0.0016354057006537914,-5.36865736648906e-05,0.00022258487297222018,-0.09576806426048279,0.24899697303771973,-9.193734169006348,0.7575564384460449,47.645687103271484,-0.1811794936656952,-3.9784328937530518,-1.9901307821273804,-0.4721375107765198,0.07243505120277405,-0.1602044403553009,24.0625,24.6875,23.8125,25.625,25.875,26.25
1.0,-2.4805283258746105,-2.177525316809363,-1.1859480410582142,-0.0977030490340493,0.0727485944365417,-0.043843142716302165,-0.5388249055075294,-0.3244799036152177,0.2600256993719683,-3.0786580061030224,0.624781396970139,5.190811774655634e-07,0.0005843182671333198,-0.00038007029888604426,0.0002617167571877509,-0.00026268814459087466,0.0009404298273059056,0.0008854604345482405,0.32654935121536255,-1.1519619089416047,1.6624015013324183,-2.0796710453429164,-1.571357552205221,2.301532745361328,0.000900374841876328,-0.0010295636020600796,0.0010681151179596782,-0.0010133483447134495,-5.289766704663634e-05,1.4533201465383172e-05,-0.2106897532939911,0.26815059781074524,-9.366117477416992,0.831413209438324,47.66449737548828,-0.14926129579544067,-3.933722972869873,-2.041088342666626,-0.49487119913101196,0.0820990726351738,-0.16538022458553314,24.0625,24.6875,23.8125,25.625,25.875,26.25
1.0,-2.4805283258746105,-2.177525316809363,-1.1859480410582142,-0.0977030490340493,0.0727485944365417,-0.043843142716302165,-0.5388249055075294,-0.3244799036152177,0.2600256993719683,-3.0786580061030224,0.624781396970139,5.190811774655634e-07,0.0005843182671333198,-0.00038007029888604426,0.0002617167571877509,-0.00026268814459087466,0.0009404298273059056,0.0008854604345482405,0.32654935121536255,-1.1519619089416047,1.6624015013324183,-2.0796710453429164,-1.571357552205221,2.301532745361328,0.000900374841876328,-0.0010295636020600796,0.0010681151179596782,-0.0010133483447134495,-5.289766704663634e-05,1.4533201465383172e-05,-0.2106897532939911,0.26815059781074524,-9.366117477416992,0.831413209438324,47.66449737548828,-0.14926129579544067,-3.933722972869873,-2.041088342666626,-0.49487119913101196,0.0820990726351738,-0.16538022458553314,24.0625,24.6875,23.8125,25.625,25.875,26.25
1.0,-3.7318012340861384,-3.196631798212938,-1.0016854928965342,-0.12349281373533696,0.11353461106221036,-0.03507926616756076,-0.5388225289211748,-0.32446752390635036,0.26002390792419,-3.078602836091961,0.6248283670421964,-8.25185334504017e-06,0.002663425715455035,0.0003604786523765947,-0.003843415679599312,0.002725516688912905,-0.007827359691583335,0.0008516164655830663,0.3265373110771179,-1.1519735616496583,1.6624162832843226,-2.079646726647848,-1.5713933149920862,2.3015570640563965,0.0008518078248016536,-2.1964578991173767e-05,0.008850627578794956,-0.0005404435796663165,-5.213168333284557e-05,9.489141916674271e-07,-0.24899697303771973,0.24899697303771973,-9.423578262329102,0.8157517910003662,47.6734504699707,-0.1449938714504242,-3.9501776695251465,-2.5105972290039062,-0.5592055916786194,0.06522631645202637,-0.18743720650672913,24.0625,24.6875,23.8125,25.625,25.875,26.25
1.0,-2.8345857818458984,-2.301489807701866,-0.6436987831607661,-0.11208970322033246,0.11224578288139306,-0.04543168971948276,-0.538822050515192,-0.32447642765895257,0.2600092318471896,-3.078627456543895,0.6247950161935486,1.4609459687142668e-06,0.0019430883779679813,0.00010434110679845635,-0.002780665267296679,0.0015307140087193344,-0.004328398938695856,0.0008677389271686997,0.32654935121536255,-1.1519496005824585,1.6624272505389612,-2.079695840875143,-1.5713813940631312,2.3015451431274414,0.0008679178426973522,-2.9468284878930717e-07,0.00678936205804348,-0.0021981827449053526,-5.1387512939982116e-05,6.195731572233854e-08,-0.3256114423274994,0.17238251864910126,-9.21288776397705,0.7486078143119812,47.70838165283203,-0.19017460942268372,-3.8997936248779297,-2.4232735633850098,-0.6006665229797363,0.08282506465911865,-0.17454254627227783,24.0625,24.6875,23.8125,25.625,25.875,26.25
1.0,-2.8345857818458984,-2.301489807701866,-0.6436987831607661,-0.11208970322033246,0.11224578288139306,-0.04543168971948276,-0.538822050515192,-0.32447642765895257,0.2600092318471896,-3.078627456543895,0.6247950161935486,1.4609459687142668e-06,0.0019430883779679813,0.00010434110679845635,-0.002780665267296679,0.0015307140087193344,-0.004328398938695856,0.0008677389271686997,0.32654935121536255,-1.1519496005824585,1.6624272505389612,-2.079695840875143,-1.5713813940631312,2.3015451431274414,0.0008679178426973522,-2.9468284878930717e-07,0.00678936205804348,-0.0021981827449053526,-5.1387512939982116e-05,6.195731572233854e-08,-0.3256114423274994,0.17238251864910126,-9.21288776397705,0.7486078143119812,47.70838165283203,-0.19017460942268372,-3.8997936248779297,-2.4232735633850098,-0.6006665229797363,0.08282506465911865,-0.17454254627227783,24.0625,24.6875,23.8125,25.625,25.875,26.25
1.0,-2.054420016278804,-0.4669833375294014,-0.766395629701901,-0.04886975191950491,0.05277113749700472,-0.04665351682036513,-0.5388095840732281,-0.32450580097561876,0.2600134531870509,-3.0786781846903244,0.6247476986625715,3.55357611379511e-05,0.0007353958604611772,-0.0003167248584809811,-0.0011442828767151446,-0.0011713053450138242,0.003585364749199728,0.0008793524893707216,0.32659727334976196,-1.1519496005824585,1.6624262968646448,-2.079733987847799,-1.571357552205221,2.3015570640563965,0.0008821373921819031,-3.953546379165118e-09,0.004442599136382341,-0.008214039728045464,-5.066433368483558e-05,4.045369816907396e-09,-0.3447650372982025,0.17238251864910126,-9.078812599182129,0.7597975730895996,47.68867492675781,-0.16264395415782928,-3.7517690658569336,-2.1448163986206055,-0.5758302807807922,0.07244859635829926,-0.17673222720623016,24.0625,24.6875,23.8125,25.625,25.875,26.25
1.0,-2.054420016278804,-0.4669833375294014,-0.766395629701901,-0.04886975191950491,0.05277113749700472,-0.04665351682036513,-0.5388095840732281,-0.32450580097561876,0.2600134531870509,-3.0786781846903244,0.6247476986625715,3.55357611379511e-05,0.0007353958604611772,-0.0003167248584809811,-0.0011442828767151446,-0.0011713053450138242,0.003585364749199728,0.0008793524893707216,0.32659727334976196,-1.1519496005824585,1.6624262968646448,-2.079733987847799,-1.571357552205221,2.3015570640563965,0.0008821373921819031,-3.953546379165118e-09,0.004442599136382341,-0.008214039728045464,-5.066433368483558e-05,4.045369816907396e-09,-0.3447650372982025,0.17238251864910126,-9.078812599182129,0.7597975730895996,47.68867492675781,-0.16264395415782928,-3.7517690658569336,-2.1448163986206055,-0.5758302807807922,0.07244859635829926,-0.17673222720623016,24.0625,24.6875,23.8125,25.625,25.875,26.25
1.0,-0.7387895563615618,0.5430465571154188,-0.769283795218188,0.009060000650637473,0.0010254866041496066,-0.04335725790351253,-0.5388075435882286,-0.32449610938171125,0.2599843539491901,-3.0786571660954625,0.6246845501132559,-1.662975637907555e-05,-1.3854805575805956e-05,-0.0007743306202551891,-8.524414397259837e-05,-0.0034399202404359146,0.010209793942429076,0.0011869522296198433,0.3265853524208069,-1.1519256395152588,1.66246205965151,-2.0797482929625453,-1.571369473134176,2.3015084266662598,0.0011922448175027966,-5.30418695077195e-11,0.0033872921485453844,-0.014160863123834133,-4.380660902825184e-05,2.641337426556589e-10,-0.26815059781074524,0.17238251864910126,-9.002198219299316,0.6948947906494141,47.65284729003906,-0.21869271993637085,-3.733774423599243,-2.0354037284851074,-0.5040270090103149,0.07584388554096222,-0.18939080834388733,24.0625,24.6875,23.8125,25.625,25.875,26.25
1.0,-0.7387895563615618,0.5430465571154188,-0.769283795218188,0.009060000650637473,0.0010254866041496066,-0.04335725790351253,-0.5388075435882286,-0.32449610938171125,0.2599843539491901,-3.0786571660954625,0.6246845501132559,-1.662975637907555e-05,-1.3854805575805956e-05,-0.0007743306202551891,-8.524414397259837e-05,-0.0034399202404359146,0.010209793942429076,0.0011869522296198433,0.3265853524208069,-1.1519256395152588,1.66246205965151,-2.0797482929625453,-1.571369473134176,2.3015084266662598,0.0011922448175027966,-5.30418695077195e-11,0.0033872921485453844,-0.014160863123834133,-4.380660902825184e-05,2.641337426556589e-10,-0.26815059781074524,0.17238251864910126,-9.002198219299316,0.6948947906494141,47.65284729003906,-0.21869271993637085,-3.733774423599243,-2.0354037284851074,-0.5040270090103149,0.07584388554096222,-0.18939080834388733,24.0625,24.6875,23.8125,25.625,25.875,26.25
1.0,-0.5936550477897173,1.0366647627922945,-0.5829065450228058,0.0018765953011900182,-0.020073021527545573,-0.04464633378784557,-0.5388019283648371,-0.3245007672373777,0.26000578024521065,-3.0786785364452216,0.624708584381356,8.981410628888955e-05,7.35062830091434e-05,-0.0007217284326867024,-0.0005684701618600696,-0.0034835929369845305,0.010314450993991121,0.0011504526781360542,0.3265973925590515,-1.1519613426974793,1.6624739805804651,-2.0797959766783656,-1.5713813940631312,2.301532745361328,0.0011561685241758823,0.0003324163262732327,0.0043324935249984264,-0.015551642514765263,-3.7371646612882614e-05,1.7246046604690868e-11,-0.2106897532939911,0.07661445438861847,-9.002198219299316,0.8023208975791931,47.72808074951172,-0.18160270154476166,-3.6553843021392822,-1.981981873512268,-0.5024235248565674,0.06692376732826233,-0.1818673312664032,24.0625,24.6875,23.8125,25.625,25.875,26.25
1.0,-0.4207252262412928,0.45223025872289924,-0.5431983577341324,-0.02265493328578351,0.004444534625383043,-0.05059749614650347,-0.5388299723092089,-0.3244751159886819,0.26000248082984845,-3.0786840701584586,0.6248640332063474,7.59736578358123e-05,0.00043989426638631326,-0.0005709728106103009,-0.0014037758923796768,-0.0026050650287056986,0.007736652928964426,0.0011112809795466574,0.3265374004840851,-1.1519373220256348,1.6624506155597132,-2.0798074207701625,-1.571345631276266,2.3015689849853516,0.001116318628191948,0.0007150701130740345,0.0054045808501541615,-0.014282995834946632,-3.648595156846568e-05,1.1260435943058478e-12,-0.15322890877723694,0.0,-9.02135181427002,0.7195101380348206,47.687782287597656,-0.22933152318000793,-3.674307107925415,-2.044701099395752,-0.5418440699577332,0.07188336551189423,-0.1812976747751236,24.0625,24.6875,23.8125,25.625,25.875,26.25
1.0,-0.4207252262412928,0.45223025872289924,-0.5431983577341324,-0.02265493328578351,0.004444534625383043,-0.05059749614650347,-0.5388299723092089,-0.3244751159886819,0.26000248082984845,-3.0786840701584586,0.6248640332063474,7.59736578358123e-05,0.00043989426638631326,-0.0005709728106103009,-0.0014037758923796768,-0.0026050650287056986,0.007736652928964426,0.0011112809795466574,0.3265374004840851,-1.1519373220256348,1.6624506155597132,-2.0798074207701625,-1.571345631276266,2.3015689849853516,0.001116318628191948,0.0007150701130740345,0.0054045808501541615,-0.014282995834946632,-3.648595156846568e-05,1.1260435943058478e-12,-0.15322890877723694,0.0,-9.02135181427002,0.7195101380348206,47.687782287597656,-0.22933152318000793,-3.674307107925415,-2.044701099395752,-0.5418440699577332,0.07188336551189423,-0.1812976747751236,24.0625,24.6875,23.8125,25.625,25.875,26.25
1.0,-0.9384849749015133,-0.5149642523760504,-0.5367804026503608,-0.038930111812766274,0.028422474638679442,-0.04327617765121801,-0.538824092057055,-0.32448613175051727,0.2599928596966594,-3.078684218011922,0.6247875053551979,0.00010956467448195127,0.00047265148604197987,-0.0004653054611611402,-0.002708563642559409,-0.0016926342641902898,0.005049528234394347,0.0009665506151131303,0.32656130194664,-1.1519247752479096,1.6624630133258265,-2.0798431835570277,-1.571369473134176,2.3015451431274414,0.0009710139711387455,0.002302074572071433,0.006003424059599638,-0.013631031848490238,-3.597494287532754e-05,7.352260212320841e-14,-0.05746084079146385,-0.09576806426048279,-9.078812599182129,0.7956027388572693,47.6949462890625,-0.2130439132452011,-3.6539883613586426,-1.948015809059143,-0.5433241128921509,0.05360005795955658,-0.1902371495962143,24.0625,24.6875,23.8125,25.625,25.875,26.25
1.0,-0.9384849749015133,-0.5149642523760504,-0.5367804026503608,-0.038930111812766274,0.028422474638679442,-0.04327617765121801,-0.538824092057055,-0.32448613175051727,0.2599928596966594,-3.078684218011922,0.6247875053551979,0.00010956467448195127,0.00047265148604197987,-0.0004653054611611402,-0.002708563642559409,-0.0016926342641902898,0.005049528234394347,0.0009665506151131303,0.32656130194664,-1.1519247752479096,1.6624630133258265,-2.0798431835570277,-1.571369473134176,2.3015451431274414,0.0009710139711387455,0.002302074572071433,0.006003424059599638,-0.013631031848490238,-3.597494287532754e-05,7.352260212320841e-14,-0.05746084079146385,-0.09576806426048279,-9.078812599182129,0.7956027388572693,47.6949462890625,-0.2130439132452011,-3.6539883613586426,-1.948015809059143,-0.5433241128921509,0.05360005795955658,-0.1902371495962143,24.0625,24.6875,23.8125,25.625,25.875,26.25
1.0,-1.104306790814647,-0.09674967232262988,-0.49816977419890873,-0.03922047322428696,0.03537386451168109,-0.04678184991631479,-0.5388335490296453,-0.32449181725099085,0.25999864481635704,-3.0787262196161005,0.6247763309749609,0.00013989417743785567,0.00016906371303353484,-0.0004254429114970832,-0.0029272861542947197,-0.0015340708575678212,0.004577941512809587,0.0007460295525772297,0.32656124234199524,-1.1519124966910859,1.6624382177936,-2.079867025414938,-1.571345631276266,2.301532745361328,0.0007502753287553787,0.0031043170019984245,0.0052906121127307415,-0.013222935609519482,-3.550030669430271e-05,4.800500359773913e-15,0.038307227194309235,-0.2106897532939911,-9.02135181427002,0.7195101380348206,47.66360092163086,-0.2272796630859375,-3.621692180633545,-1.9011917114257812,-0.5843271017074585,0.07092919200658798,-0.18835613131523132,24.0625,24.6875,23.8125,25.625,25.875,26.25
1.0,-1.104306790814647,-0.09674967232262988,-0.49816977419890873,-0.03922047322428696,0.03537386451168109,-0.04678184991631479,-0.5388335490296453,-0.32449181725099085,0.25999864481635704,-3.0787262196161005,0.6247763309749609,0.00013989417743785567,0.00016906371303353484,-0.0004254429114970832,-0.0029272861542947197,-0.0015340708575678212,0.004577941512809587,0.0007460295525772297,0.32656124234199524,-1.1519124966910859,1.6624382177936,-2.079867025414938,-1.571345631276266,2.301532745361328,0.0007502753287553787,0.0031043170019984245,0.0052906121127307415,-0.013222935609519482,-3.550030669430271e-05,4.800500359773913e-15,0.038307227194309235,-0.2106897532939911,-9.02135181427002,0.7195101380348206,47.66360092163086,-0.2272796630859375,-3.621692180633545,-1.9011917114257812,-0.5843271017074585,0.07092919200658798,-0.18835613131523132,24.0625,24.6875,23.8125,25.625,25.875,26.25
1.0,-0.6087128268397988,0.43215409742833466,-0.34763474583060444,-0.015252001607844663,0.01931832698895035,-0.05001119509115891,-0.5388129159424744,-0.32448351244033147,0.25997404869138335,-3.078675128229709,0.624824049464909,6.804300834347607e-05,2.9573982567628818e-06,-0.0004293579215798639,-0.003000449869433829,-0.0018872069875971946,0.005608731241718265,0.0008206963943403956,0.32656121253967285,-1.151924507027008,1.6625106970416468,-2.079867502252096,-1.571357552205221,2.3015689849853516,0.0006691085291095078,0.0033956642728298903,0.005383740644901991,-0.01469703670591116,-3.503949847072363e-05,-0.00015637020987924188,0.1149216815829277,-0.3447650372982025,-9.059659004211426,0.7418897151947021,47.6895751953125,-0.22627346217632294,-3.5559630393981934,-1.8112423419952393,-0.5831041932106018,0.0667118951678276,-0.19910505414009094,24.0625,24.6875,23.8125,25.625,25.875,26.25
1.0,-0.6087128268397988,0.43215409742833466,-0.34763474583060444,-0.015252001607844663,0.01931832698895035,-0.05001119509115891,-0.5388129159424744,-0.32448351244033147,0.25997404869138335,-3.078675128229709,0.624824049464909,6.804300834347607e-05,2.9573982567628818e-06,-0.0004293579215798639,-0.003000449869433829,-0.0018872069875971946,0.005608731241718265,0.0008206963943403956,0.32656121253967285,-1.151924507027008,1.6625106970416468,-2.079867502252096,-1.571357552205221,2.3015689849853516,0.0006691085291095078,0.0033956642728298903,0.005383740644901991,-0.01469703670591116,-3.503949847072363e-05,-0.00015637020987924188,0.1149216815829277,-0.3447650372982025,-9.059659004211426,0.7418897151947021,47.6895751953125,-0.22627346217632294,-3.5559630393981934,-1.8112423419952393,-0.5831041932106018,0.0667118951678276,-0.19910505414009094,24.0625,24.6875,23.8125,25.625,25.875,26.25
1.0,-0.4745402307366154,0.7979725093413853,-0.8301359873581299,0.013544134412930387,-0.017555937590654956,-0.04419948146463349,-0.5388134095405102,-0.32449272824848713,0.2599601751270866,-3.0787050608346407,0.6247918308151721,9.234294474883906e-05,-8.754119517637218e-05,-0.0004184607201097008,-0.003252860975845114,-0.002228033494334908,0.006602630429777031,0.0007833561926475675,0.3265732228755951,-1.1519003373435517,1.6625221411334437,-2.079928060571188,-1.571345631276266,2.3015570640563965,0.0006048177601769567,0.003744694869965315,0.005902499426156282,-0.01661553978919983,-3.459058279986493e-05,-0.0001839878095779568,0.24899697303771973,-0.24899697303771973,-8.9064302444458,0.7642692923545837,47.657325744628906,-0.24932634830474854,-3.520895004272461,-1.8478120565414429,-0.5724724531173706,0.07520899921655655,-0.19077152013778687,24.0625,24.6875,23.8125,25.625,25.875,26.25
1.0,0.2269495283722437,0.6759212157162767,-0.9371199494530816,0.019805810259185833,-0.02845312186516796,-0.045277757499341965,-0.5388252113564064,-0.3244929800540564,0.2599595435772709,-3.078674071946196,0.6247854962728395,0.00011850166472667282,0.0001535519575883718,-0.00030183940707333704,-0.00387165839887939,-0.0019312056287956391,0.005729469485161434,0.0007889154686059521,0.3265731930732727,-1.1518762868693848,1.6624873320208948,-2.0799156628050746,-1.5713813940631312,2.3015570640563965,0.0005518209654837847,0.003979256842285395,0.0070892260409891605,-0.017114611342549324,-3.4153064916608855e-05,-0.00024258844496216625,0.2298433631658554,-0.2106897532939911,-9.117119789123535,0.7195101380348206,47.69853210449219,-0.2009442150592804,-3.497098207473755,-1.8927226066589355,-0.5435671210289001,0.06434009969234467,-0.18862387537956238,24.0625,24.6875,23.8125,25.625,25.875,26.25
1.0,0.2269495283722437,0.6759212157162767,-0.9371199494530816,0.019805810259185833,-0.02845312186516796,-0.045277757499341965,-0.5388252113564064,-0.3244929800540564,0.2599595435772709,-3.078674071946196,0.6247854962728395,0.00011850166472667282,0.0001535519575883718,-0.00030183940707333704,-0.00387165839887939,-0.0019312056287956391,0.005729469485161434,0.0007889154686059521,0.3265731930732727,-1.1518762868693848,1.6624873320208948,-2.0799156628050746,-1.5713813940631312,2.3015570640563965,0.0005518209654837847,0.003979256842285395,0.0070892260409891605,-0.017114611342549324,-3.4153064916608855e-05,-0.00024258844496216625,0.2298433631658554,-0.2106897532939911,-9.117119789123535,0.7195101380348206,47.69853210449219,-0.2009442150592804,-3.497098207473755,-1.8927226066589355,-0.5435671210289001,0.06434009969234467,-0.18862387537956238,24.0625,24.6875,23.8125,25.625,25.875,26.25
1.0,0.6666042841856775,0.7394996416391897,-0.9972141770131729,-0.014234123590843778,-0.021312950359746747,-0.056449516321546184,-0.5388144887849634,-0.3244893225976085,0.2599389039135175,-3.07869298957449,0.6246923055300605,0.00011848559533531098,0.0006031383838497934,-0.00011853124786759927,-0.00544093128666275,-0.0006707383533054768,0.0020568098338168933,0.0007345080764629747,0.3265731930732727,-1.1518758100322266,1.6625469366656702,-2.079975744287008,-1.5713813940631312,2.3014965057373047,0.0005073630600236356,0.005129017401486635,0.00881484616547823,-0.016107041388750076,-4.350271410658024e-05,-0.00023186125326901674,0.15322890877723694,-0.13407529890537262,-9.136273384094238,0.7665104269981384,47.692256927490234,-0.1762310266494751,-3.468505859375,-1.8664019107818604,-0.5614126920700073,0.08060117810964584,-0.1859453320503235,24.0625,24.6875,23.8125,25.625,25.875,26.25
1.0,0.6666042841856775,0.7394996416391897,-0.9972141770131729,-0.014234123590843778,-0.021312950359746747,-0.056449516321546184,-0.5388144887849634,-0.3244893225976085,0.2599389039135175,-3.07869298957449,0.6246923055300605,0.00011848559533531098,0.0006031383838497934,-0.00011853124786759927,-0.00544093128666275,-0.0006707383533054768,0.0020568098338168933,0.0007345080764629747,0.3265731930732727,-1.1518758100322266,1.6625469366656702,-2.079975744287008,-1.5713813940631312,2.3014965057373047,0.0005073630600236356,0.005129017401486635,0.00881484616547823,-0.016107041388750076,-4.350271410658024e-05,-0.00023186125326901674,0.15322890877723694,-0.13407529890537262,-9.136273384094238,0.7665104269981384,47.692256927490234,-0.1762310266494751,-3.468505859375,-1.8664019107818604,-0.5614126920700073,0.08060117810964584,-0.1859453320503235,24.0625,24.6875,23.8125,25.625,25.875,26.25
1.0,-0.04602089564280262,-0.5159291239699842,-0.8863830013891455,-0.03338161227659748,-0.017858301353446383,-0.04892970259659648,-0.538820086160969,-0.324465298931254,0.2599278484690286,-3.078637336024921,0.6247967277416072,0.00010342071629030217,0.0010179650283847225,4.7580644335682874e-05,-0.006297381339156928,0.00025401276925110506,-0.0006525048686178962,0.0007412543715629373,0.32653719186782837,-1.1518757206252594,1.6625717321978968,-2.07997526744985,-1.5714057127581995,2.301532745361328,0.00046954001300036907,0.005445021670311689,0.010008697398006916,-0.01475412305444479,-4.431808338267729e-05,-0.0002757117326837033,0.07661445438861847,0.0,-9.193734169006348,0.7463666796684265,47.68330383300781,-0.21607613563537598,-3.5049686431884766,-1.9313199520111084,-0.5841053128242493,0.07108922302722931,-0.20459048449993134,24.0625,24.6875,23.8125,25.625,25.875,26.25
1.0,-0.04602089564280262,-0.5159291239699842,-0.8863830013891455,-0.03338161227659748,-0.017858301353446383,-0.04892970259659648,-0.538820086160969,-0.324465298931254,0.2599278484690286,-3.078637336024921,0.6247967277416072,0.00010342071629030217,0.0010179650283847225,4.7580644335682874e-05,-0.006297381339156928,0.00025401276925110506,-0.0006525048686178962,0.0007412543715629373,0.32653719186782837,-1.1518757206252594,1.6625717321978968,-2.07997526744985,-1.5714057127581995,2.301532745361328,0.00046954001300036907,0.005445021670311689,0.010008697398006916,-0.01475412305444479,-4.431808338267729e-05,-0.0002757117326837033,0.07661445438861847,0.0,-9.193734169006348,0.7463666796684265,47.68330383300781,-0.21607613563537598,-3.5049686431884766,-1.9313199520111084,-0.5841053128242493,0.07108922302722931,-0.20459048449993134,24.0625,24.6875,23.8125,25.625,25.875,26.25
1.0,-0.2243841826921631,-1.0942278972004649,-1.2167277395253608,-0.04895857494188643,0.0040433429760228165,-0.05211977705360703,-0.5388135337996968,-0.324478608119854,0.2599374828696396,-3.0786659647406163,0.6247443357574135,0.00015088433253545412,0.0009055228726613498,3.0431365131381992e-05,-0.0065823457828816994,0.0007912822363161171,-0.002232540086957761,0.0007296779230840632,0.3265611231327057,-1.1518873435309906,1.6625712553607386,-2.0799981556334437,-1.5714057127581995,2.301520347595215,0.00043696441571228206,0.006145486142486334,0.009301356971263885,-0.013078367337584496,-4.3866311898455024e-05,-0.00029599800473079085,0.17238251864910126,0.07661445438861847,-9.327810287475586,0.7553206086158752,47.65911865234375,-0.2169477492570877,-3.472691059112549,-1.7833843231201172,-0.5998069047927856,0.06348369270563126,-0.2047857642173767,24.0625,24.6875,23.8125,25.625,25.875,26.25
1.0,-1.207674030182873,-1.402616175825171,-1.2567212111019186,-0.051010355667835086,0.00032569947582074266,-0.038988539244994846,-0.5388196237407165,-0.324470111049632,0.2599009264545062,-3.0786518184044134,0.6248389407408794,1.3961729752984224e-05,0.0011217554020551501,0.00027035775887045285,-0.0079822900168905,0.0016934564231967447,-0.00488716391296001,0.0004840624220322858,0.3265370726585388,-1.1518389743617554,1.66258412996401,-2.079986711541647,-1.571357552205221,2.3015570640563965,0.00018116377759724855,0.007362925913184881,0.010744634084403515,-0.012935333885252476,-4.3343919969629496e-05,-0.0003057834692299366,0.17238251864910126,0.13407529890537262,-9.366117477416992,0.7933669090270996,47.702110290527344,-0.24534639716148376,-3.4758870601654053,-1.8334414958953857,-0.6294362545013428,0.06978970766067505,-0.2172921597957611,24.0625,24.6875,23.8125,25.625,25.875,26.25
1.0,-1.207674030182873,-1.402616175825171,-1.2567212111019186,-0.051010355667835086,0.00032569947582074266,-0.038988539244994846,-0.5388196237407165,-0.324470111049632,0.2599009264545062,-3.0786518184044134,0.6248389407408794,1.3961729752984224e-05,0.0011217554020551501,0.00027035775887045285,-0.0079822900168905,0.0016934564231967447,-0.00488716391296001,0.0004840624220322858,0.3265370726585388,-1.1518389743617554,1.66258412996401,-2.079986711541647,-1.571357552205221,2.3015570640563965,0.00018116377759724855,0.007362925913184881,0.010744634084403515,-0.012935333885252476,-4.3343919969629496e-05,-0.0003057834692299366,0.17238251864910126,0.13407529890537262,-9.366117477416992,0.7933669090270996,47.702110290527344,-0.24534639716148376,-3.4758870601654053,-1.8334414958953857,-0.6294362545013428,0.06978970766067505,-0.2172921597957611,24.0625,24.6875,23.8125,25.625,25.875,26.25
1.0,-0.7864664988314749,-0.9430256410563282,-1.256265257499249,-0.06622611783478477,0.020409299575319884,-0.047628070485883016,-0.5388079971399811,-0.324464895901305,0.25988101225421234,-3.078635576754919,0.62477638237056,-2.514615485717831e-05,0.0012422019028277757,0.00033867820627693767,-0.008509168271295622,0.001963450665985715,-0.0056830855862469555,0.0005925028365086418,0.3265370726585388,-1.1518389147571106,1.6626318136798304,-2.079998632470602,-1.571369473134176,2.3015201091766357,0.00013919980847276747,0.007755741011351347,0.011449247598648071,-0.013192323036491871,-4.282863301341422e-05,-0.0004561567911878228,0.09576806426048279,0.2298433631658554,-9.385271072387695,0.7911257743835449,47.681514739990234,-0.20708683133125305,-3.434843063354492,-1.8181889057159424,-0.6549414396286011,0.07311376929283142,-0.21951095759868622,24.0625,24.6875,23.8125,25.625,25.875,26.25
1.0,-0.7864664988314749,-0.9430256410563282,-1.256265257499249,-0.06622611783478477,0.020409299575319884,-0.047628070485883016,-0.5388079971399811,-0.324464895901305,0.25988101225421234,-3.078635576754919,0.62477638237056,-2.514615485717831e-05,0.0012422019028277757,0.00033867820627693767,-0.008509168271295622,0.001963450665985715,-0.0056830855862469555,0.0005925028365086418,0.3265370726585388,-1.1518389147571106,1.6626318136798304,-2.079998632470602,-1.571369473134176,2.3015201091766357,0.00013919980847276747,0.007755741011351347,0.011449247598648071,-0.013192323036491871,-4.282863301341422e-05,-0.0004561567911878228,0.09576806426048279,0.2298433631658554,-9.385271072387695,0.7911257743835449,47.681514739990234,-0.20708683133125305,-3.434843063354492,-1.8181889057159424,-0.6549414396286011,0.07311376929283142,-0.21951095759868622,24.0625,24.6875,23.8125,25.625,25.875,26.25
1.0,-1.3406461675837127,-1.2351737210220126,-1.2099505463558333,-0.06724777110461112,0.00410548102615085,-0.044854508519140496,-0.5387888495409036,-0.32447517629885725,0.25985163300930403,-3.078626053771503,0.6248140435419568,-6.728884662660069e-05,0.0011848566646066284,0.00032586392992655836,-0.008683757839404171,0.0015957543026142178,-0.00460904955539658,0.0006788445577302535,0.3265610337257385,-1.1518267554095765,1.6626923719989222,-2.0800472698607386,-1.571357552205221,2.3015687465667725,0.0001288549101445824,0.007974367588758469,0.01196203287690878,-0.015058976598083973,-4.232513310853392e-05,-0.0005535090458579361,0.09576806426048279,0.3064578175544739,-9.308655738830566,0.7217512726783752,47.71375274658203,-0.1860312521457672,-3.394167423248291,-1.7400341033935547,-0.6522825360298157,0.06709034740924835,-0.19551652669906616,24.0625,24.6875,23.8125,25.625,25.875,26.25
1.0,-1.3406461675837127,-1.2351737210220126,-1.2099505463558333,-0.06724777110461112,0.00410548102615085,-0.044854508519140496,-0.5387888495409036,-0.32447517629885725,0.25985163300930403,-3.078626053771503,0.6248140435419568,-6.728884662660069e-05,0.0011848566646066284,0.00032586392992655836,-0.008683757839404171,0.0015957543026142178,-0.00460904955539658,0.0006788445577302535,0.3265610337257385,-1.1518267554095765,1.6626923719989222,-2.0800472698607386,-1.571357552205221,2.3015687465667725,0.0001288549101445824,0.007974367588758469,0.01196203287690878,-0.015058976598083973,-4.232513310853392e-05,-0.0005535090458579361,0.09576806426048279,0.3064578175544739,-9.308655738830566,0.7217512726783752,47.71375274658203,-0.1860312521457672,-3.394167423248291,-1.7400341033935547,-0.6522825360298157,0.06709034740924835,-0.19551652669906616,24.0625,24.6875,23.8125,25.625,25.875,26.25
1.0,-0.3505597107612059,-1.2270126138632504,-1.2259228912363624,-0.06908063870712648,0.015833801060591818,-0.04992080925548599,-0.5387951946910655,-0.32446582718769007,0.2598510528250404,-3.0786290539480223,0.6247366952028831,1.0537974493569617e-05,0.0012932851938674392,0.0003685165348454762,-0.009848929196218228,0.0018041775100004066,-0.005230640375263518,0.0006663411646809554,0.32654908299446106,-1.151826487188675,1.6627042929278772,-2.0800959072508753,-1.5713933149920862,2.3015081882476807,0.00012024036550428718,0.00913685467094183,0.013427645899355412,-0.01703150011599064,-4.1833332943497226e-05,-0.0005500839906744659,0.07661445438861847,0.325611412525177,-9.385271072387695,0.7172743082046509,47.687782287597656,-0.20754535496234894,-3.3347063064575195,-1.866694450378418,-0.6505181789398193,0.08074390143156052,-0.22144898772239685,24.0625,24.6875,23.8125,25.625,25.875,26.25
1.0,-0.3505597107612059,-1.2270126138632504,-1.2259228912363624,-0.06908063870712648,0.015833801060591818,-0.04992080925548599,-0.5387951946910655,-0.32446582718769007,0.2598510528250404,-3.0786290539480223,0.6247366952028831,1.0537974493569617e-05,0.0012932851938674392,0.0003685165348454762,-0.009848929196218228,0.0018041775100004066,-0.005230640375263518,0.0006663411646809554,0.32654908299446106,-1.151826487188675,1.6627042929278772,-2.0800959072508753,-1.5713933149920862,2.3015081882476807,0.00012024036550428718,0.00913685467094183,0.013427645899355412,-0.01703150011599064,-4.1833332943497226e-05,-0.0005500839906744659,0.07661445438861847,0.325611412525177,-9.385271072387695,0.7172743082046509,47.687782287597656,-0.20754535496234894,-3.3347063064575195,-1.866694450378418,-0.6505181789398193,0.08074390143156052,-0.22144898772239685,24.0625,24.6875,23.8125,25.625,25.875,26.25
1.0,-0.4151513004515485,-1.2852766484871099,-1.2093063961435457,-0.0742946882484935,0.011982825536992987,-0.05288776920438406,-0.5387945504148184,-0.32446153761960694,0.2598348826863607,-3.0786415528673796,0.624797598574939,-3.540516517245769e-05,0.0010554549335708844,0.00029236538344724926,-0.010304383863005319,0.0017009233477393942,-0.004937356613628164,0.0006473985998536933,0.32653704285621643,-1.1518140596202393,1.6627290884601038,-2.0801202259459437,-1.571357552205221,2.301532506942749,0.00011270956019870937,0.010148298926651478,0.013327885419130325,-0.018254075199365616,-4.135277777095325e-05,-0.0005390148144215345,0.13407528400421143,0.24899697303771973,-9.346963882446289,0.7396538853645325,47.6976318359375,-0.241935133934021,-3.4018445014953613,-1.7646328210830688,-0.6600953936576843,0.0682293027639389,-0.2058570832014084,24.0625,24.6875,23.8125,25.625,25.875,26.25
1.0,-0.8233929717195271,-1.8440858303575167,-1.1913137482562812,-0.0671543109219808,-0.0020430261784998814,-0.039420933837672,-0.5387876512120002,-0.3244722369560484,0.2597782367069354,-3.078589743112007,0.6247684824472931,-0.00011369064731340658,0.0010595784768967008,0.00029814151061312316,-0.01082763656169485,0.0015531829143336554,-0.004510260390414231,0.0005938509955742161,0.32656100392341614,-1.1517419678023835,1.6627653280841272,-2.0801569424071253,-1.5713813940631312,2.3015449047088623,0.0001060675349435769,0.0107009531930089,0.014158154837787151,-0.02008892595767975,-4.088314017280936e-05,-0.0004926758701913059,0.17238251864910126,0.28730422258377075,-9.308656692504883,0.7732232213020325,47.685096740722656,-0.19622766971588135,-3.3557984828948975,-1.7892937660217285,-0.6516573429107666,0.07339408993721008,-0.21065682172775269,24.0625,24.6875,23.8125,25.625,25.875,26.25
1.0,-0.8233929717195271,-1.8440858303575167,-1.1913137482562812,-0.0671543109219808,-0.0020430261784998814,-0.039420933837672,-0.5387876512120002,-0.3244722369560484,0.2597782367069354,-3.078589743112007,0.6247684824472931,-0.00011369064731340658,0.0010595784768967008,0.00029814151061312316,-0.01082763656169485,0.0015531829143336554,-0.004510260390414231,0.0005938509955742161,0.32656100392341614,-1.1517419678023835,1.6627653280841272,-2.0801569424071253,-1.5713813940631312,2.3015449047088623,0.0001060675349435769,0.0107009531930089,0.014158154837787151,-0.02008892595767975,-4.088314017280936e-05,-0.0004926758701913059,0.17238251864910126,0.28730422258377075,-9.308656692504883,0.7732232213020325,47.685096740722656,-0.19622766971588135,-3.3557984828948975,-1.7892937660217285,-0.6516573429107666,0.07339408993721008,-0.21065682172775269,24.0625,24.6875,23.8125,25.625,25.875,26.25
1.0,-0.8047980028714371,-1.5293448192117938,-1.0436448667786695,-0.06068781499359316,0.0050867089611814666,-0.042338050227049125,-0.5387953774860885,-0.32446056169323817,0.2597852794223885,-3.07862041413265,0.6247933083674871,-5.672145788090191e-05,0.0007787746175623543,0.00020618495224424091,-0.010623125753631602,0.0009761073631245028,-0.0028227707299564708,0.0006111287208984549,0.32653704285621643,-1.151753769522049,1.6627767721759241,-2.080205579797262,-1.571369473134176,2.301532506942749,0.00010016418673330918,0.010911867953836918,0.01376259047538042,-0.021687708795070648,-4.04240854550153e-05,-0.0005165110342204571,0.15322890877723694,0.28730422258377075,-9.346963882446289,0.7665104269981384,47.687782287597656,-0.21601369976997375,-3.3529250621795654,-1.8330051898956299,-0.6459169387817383,0.06147059053182602,-0.21647557616233826,24.0625,24.6875,23.8125,25.625,25.875,26.25
1.0,-0.8047980028714371,-1.5293448192117938,-1.0436448667786695,-0.06068781499359316,0.0050867089611814666,-0.042338050227049125,-0.5387953774860885,-0.32446056169323817,0.2597852794223885,-3.07862041413265,0.6247933083674871,-5.672145788090191e-05,0.0007787746175623543,0.00020618495224424091,-0.010623125753631602,0.0009761073631245028,-0.0028227707299564708,0.0006111287208984549,0.32653704285621643,-1.151753769522049,1.6627767721759241,-2.080205579797262,-1.571369473134176,2.301532506942749,0.00010016418673330918,0.010911867953836918,0.01376259047538042,-0.021687708795070648,-4.04240854550153e-05,-0.0005165110342204571,0.15322890877723694,0.28730422258377075,-9.346963882446289,0.7665104269981384,47.687782287597656,-0.21601369976997375,-3.3529250621795654,-1.8330051898956299,-0.6459169387817383,0.06147059053182602,-0.21647557616233826,24.0625,24.6875,23.8125,25.625,25.875,26.25
1.0,-0.53040293099583,-0.919491047454329,-0.9199201522330677,-0.06609893403688992,0.015444346551996134,-0.046628644608962454,-0.5387918307377618,-0.3244724067983765,0.2597511701673472,-3.0786093757089548,0.6247136520613625,-5.4515886211661905e-05,0.000652883514679269,0.00016674740835340995,-0.011032163074401802,0.000757049227166629,-0.002187527955109813,0.0005743103830660886,0.32656100392341614,-1.15170572817836,1.6628006140338343,-2.0802651844420375,-1.5713933149920862,2.3015081882476807,9.48835295275785e-05,0.011596135795116425,0.014124740846455097,-0.023406080901622772,-3.9975206163944677e-05,-0.0004855222359765321,0.13407528400421143,0.26815059781074524,-9.27034854888916,0.7441308498382568,47.68598937988281,-0.2641255855560303,-3.363889455795288,-1.8385701179504395,-0.647872269153595,0.08312071859836578,-0.2173939198255539,24.0625,24.6875,23.8125,25.625,25.875,26.25
1.0,-0.53040293099583,-0.919491047454329,-0.9199201522330677,-0.06609893403688992,0.015444346551996134,-0.046628644608962454,-0.5387918307377618,-0.3244724067983765,0.2597511701673472,-3.0786093757089548,0.6247136520613625,-5.4515886211661905e-05,0.000652883514679269,0.00016674740835340995,-0.011032163074401802,0.000757049227166629,-0.002187527955109813,0.0005743103830660886,0.32656100392341614,-1.15170572817836,1.6628006140338343,-2.0802651844420375,-1.5713933149920862,2.3015081882476807,9.48835295275785e-05,0.011596135795116425,0.014124740846455097,-0.023406080901622772,-3.9975206163944677e-05,-0.0004855222359765321,0.13407528400421143,0.26815059781074524,-9.27034854888916,0.7441308498382568,47.68598937988281,-0.2641255855560303,-3.363889455795288,-1.8385701179504395,-0.647872269153595,0.08312071859836578,-0.2173939198255539,24.0625,24.6875,23.8125,25.625,25.875,26.25
1.0,-0.5609291590721801,-0.9353091259526654,-1.0017276203542578,-0.056470396382730326,0.013898835937102214,-0.05306167944979807,-0.5387944474455354,-0.324457737399731,0.2597404856420781,-3.0786122642896867,0.6247335625900184,-3.6303025007368715e-05,0.00036311683777315616,6.788014750090298e-05,-0.010551093222189322,-1.4826215225714199e-05,-1.7484088350368265e-05,0.000594491939571876,0.32653704285621643,-1.1517058175853272,1.6628358999835413,-2.080313821832174,-1.5713933149920862,2.3014962673187256,9.013183444039896e-05,0.011464172974228859,0.013588515110313892,-0.02504098229110241,-1.0158254553971346e-05,-0.0005112392827868462,0.2106897532939911,0.2298433631658554,-9.27034854888916,0.7239871025085449,47.67255783081055,-0.2579837143421173,-3.312946319580078,-1.7646678686141968,-0.6327002644538879,0.06906141340732574,-0.21445874869823456,24.0625,24.6875,23.8125,25.625,25.875,26.25
1.0,-0.5609291590721801,-0.9353091259526654,-1.0017276203542578,-0.056470396382730326,0.013898835937102214,-0.05306167944979807,-0.5387944474455354,-0.324457737399731,0.2597404856420781,-3.0786122642896867,0.6247335625900184,-3.6303025007368715e-05,0.00036311683777315616,6.788014750090298e-05,-0.010551093222189322,-1.4826215225714199e-05,-1.7484088350368265e-05,0.000594491939571876,0.32653704285621643,-1.1517058175853272,1.6628358999835413,-2.080313821832174,-1.5713933149920862,2.3014962673187256,9.013183444039896e-05,0.011464172974228859,0.013588515110313892,-0.02504098229110241,-1.0158254553971346e-05,-0.0005112392827868462,0.2106897532939911,0.2298433631658554,-9.27034854888916,0.7239871025085449,47.67255783081055,-0.2579837143421173,-3.312946319580078,-1.7646678686141968,-0.6327002644538879,0.06906141340732574,-0.21445874869823456,24.0625,24.6875,23.8125,25.625,25.875,26.25
1.0,-0.8141185082163792,-0.9689507153957281,-0.882661586788907,-0.04307871431806001,0.0034379303266865602,-0.0413169665012017,-0.538787655697371,-0.32446573560496494,0.2596982927449237,-3.0786048328657634,0.6247510266263628,-0.00012108393449997841,0.00019361562602622756,1.2032258477621569e-05,-0.01131094243005259,-3.232876626262853e-05,-5.1381096549171745e-06,0.0005963469760016406,0.32654908299446106,-1.1516573292068024,1.6628721396075647,-2.0803500614561976,-1.571369473134176,2.3015201091766357,8.583354065194726e-05,0.012709204107522964,0.01394173689186573,-0.02665657177567482,-6.632614031332196e-07,-0.0005178274004720151,0.1149216815829277,0.2298433631658554,-9.21288776397705,0.7105615139007568,47.700321197509766,-0.18468983471393585,-3.339139461517334,-1.7641937732696533,-0.6214184761047363,0.06782026588916779,-0.22515033185482025,24.0625,24.6875,23.8125,25.625,25.875,26.25
1.0,-0.29411967588397114,-0.7015105721764734,-0.7397549188249342,-0.04735723176201566,0.008801997000884194,-0.04978938005847958,-0.5387987024993397,-0.3244641807648356,0.2596895659798499,-3.0786354602369674,0.6247965058106408,-9.053887399127016e-05,7.07148503857335e-07,-5.124971763439347e-05,-0.011191510251099478,-0.0005008043654938713,0.0013643633578989624,0.0006439790831607231,0.32653704285621643,-1.151633308534958,1.6628721396075647,-2.0804106197752894,-1.571345631276266,2.301532506942749,8.192662062356248e-05,0.0128592224791646,0.013788537122309208,-0.028100797906517982,-4.330623326609384e-08,-0.0005699429311789572,0.09576806426048279,0.13407529890537262,-9.251194953918457,0.8067978620529175,47.72629165649414,-0.2310798466205597,-3.3281307220458984,-1.7653839588165283,-0.6164592504501343,0.055679671466350555,-0.2236616015434265,24.0625,24.6875,23.8125,25.625,25.875,26.25
1.0,-0.29411967588397114,-0.7015105721764734,-0.7397549188249342,-0.04735723176201566,0.008801997000884194,-0.04978938005847958,-0.5387987024993397,-0.3244641807648356,0.2596895659798499,-3.0786354602369674,0.6247965058106408,-9.053887399127016e-05,7.07148503857335e-07,-5.124971763439347e-05,-0.011191510251099478,-0.0005008043654938713,0.0013643633578989624,0.0006439790831607231,0.32653704285621643,-1.151633308534958,1.6628721396075647,-2.0804106197752894,-1.571345631276266,2.301532506942749,8.192662062356248e-05,0.0128592224791646,0.013788537122309208,-0.028100797906517982,-4.330623326609384e-08,-0.0005699429311789572,0.09576806426048279,0.13407529890537262,-9.251194953918457,0.8067978620529175,47.72629165649414,-0.2310798466205597,-3.3281307220458984,-1.7653839588165283,-0.6164592504501343,0.055679671466350555,-0.2236616015434265,24.0625,24.6875,23.8125,25.625,25.875,26.25
1.0,-0.3239272841650464,-0.4329205662885033,-0.9414593340265456,-0.052128958960691835,0.0034437316738617357,-0.051159292630085194,-0.5387845867357275,-0.3244802438425895,0.25966363015147975,-3.07862084849583,0.6247357999516584,-8.743388865315573e-05,8.417805777981205e-06,-4.625622075890359e-05,-0.011542121920233668,-0.0006637275626651987,0.0018383977654614814,0.0006852806833110402,0.32657304406166077,-1.151609258060791,1.6629083792315882,-2.080459257165426,-1.571369473134176,2.301532506942749,7.835987344151363e-05,0.01320167351514101,0.014444795437157154,-0.029600778594613075,-2.8275877195227395e-09,-0.0006152964779175818,0.09576806426048279,0.07661445438861847,-9.251194953918457,0.6926589012145996,47.702110290527344,-0.25208836793899536,-3.342789649963379,-1.746034860610962,-0.6029832363128662,0.07158326357603073,-0.21281170845031738,24.0625,24.6875,23.8125,25.625,25.875,26.25
1.0,-0.3239272841650464,-0.4329205662885033,-0.9414593340265456,-0.052128958960691835,0.0034437316738617357,-0.051159292630085194,-0.5387845867357275,-0.3244802438425895,0.25966363015147975,-3.07862084849583,0.6247357999516584,-8.743388865315573e-05,8.417805777981205e-06,-4.625622075890359e-05,-0.011542121920233668,-0.0006637275626651987,0.0018383977654614814,0.0006852806833110402,0.32657304406166077,-1.151609258060791,1.6629083792315882,-2.080459257165426,-1.571369473134176,2.301532506942749,7.835987344151363e-05,0.01320167351514101,0.014444795437157154,-0.029600778594613075,-2.8275877195227395e-09,-0.0006152964779175818,0.09576806426048279,0.07661445438861847,-9.251194953918457,0.6926589012145996,47.702110290527344,-0.25208836793899536,-3.342789649963379,-1.746034860610962,-0.6029832363128662,0.07158326357603073,-0.21281170845031738,24.0625,24.6875,23.8125,25.625,25.875,26.25
1.0,-0.5432994673116767,-0.5178177112445823,-0.7209370877181751,-0.0460894820833841,-0.001065574452797497,-0.04497822567022896,-0.538773558854612,-0.3245010320820163,0.25963505128467973,-3.078635505726378,0.6246813117007156,-0.00011531935590521547,-0.00030854315614213453,-0.00015210827918435803,-0.011934209120044654,-0.0008423173891997474,0.002353033844462812,0.0010427519042072943,0.32660892605781555,-1.1515728396228333,1.6629331747638147,-2.0805069408812464,-1.571357552205221,2.301532506942749,7.509038550779223e-05,0.014295216649770737,0.014104318805038929,-0.030898626893758774,-1.8462126272211776e-10,-0.0009764236165210605,0.09576806426048279,0.05746084079146385,-9.289502143859863,0.8045620322227478,47.70838165283203,-0.286674439907074,-3.339029312133789,-1.6455259323120117,-0.6056750416755676,0.0711255818605423,-0.22768844664096832,24.0625,24.6875,23.8125,25.625,25.875,26.25
1.0,-0.5432994673116767,-0.5178177112445823,-0.7209370877181751,-0.0460894820833841,-0.001065574452797497,-0.04497822567022896,-0.538773558854612,-0.3245010320820163,0.25963505128467973,-3.078635505726378,0.6246813117007156,-0.00011531935590521547,-0.00030854315614213453,-0.00015210827918435803,-0.011934209120044654,-0.0008423173891997474,0.002353033844462812,0.0010427519042072943,0.32660892605781555,-1.1515728396228333,1.6629331747638147,-2.0805069408812464,-1.571357552205221,2.301532506942749,7.509038550779223e-05,0.014295216649770737,0.014104318805038929,-0.030898626893758774,-1.8462126272211776e-10,-0.0009764236165210605,0.09576806426048279,0.05746084079146385,-9.289502143859863,0.8045620322227478,47.70838165283203,-0.286674439907074,-3.339029312133789,-1.6455259323120117,-0.6056750416755676,0.0711255818605423,-0.22768844664096832,24.0625,24.6875,23.8125,25.625,25.875,26.25
1.0,-1.0608390541740997,-0.7027758141149032,-0.8304836784322792,-0.0347417637477702,-0.006045626077216743,-0.051949479051268455,-0.5387823067733584,-0.3244703902494159,0.259611406913667,-3.0785951159960225,0.6247494978845549,-0.00011115594885993827,-0.0002530551282862576,-0.0001312122162554669,-0.012022103362568027,-0.0011540573862358259,0.003266808860166011,0.0013975940676781865,0.32656100392341614,-1.1515610081008454,1.6629813353167933,-2.0805560551085414,-1.5713813940631312,2.30153226852417,7.208336319308728e-05,0.014188950881361961,0.014803397469222546,-0.03245701268315315,-1.2054449452514326e-11,-0.0013348483480513096,0.15322890877723694,0.07661445438861847,-9.232041358947754,0.7262282371520996,47.685096740722656,-0.267165869474411,-3.3442516326904297,-1.711308479309082,-0.5719802975654602,0.06970590353012085,-0.21708695590496063,24.0625,24.6875,23.8125,25.625,25.875,26.25
1.0,-0.8449471279011583,-0.38572414738875827,-0.8104322031168324,-0.041552183952117516,0.004876907899339849,-0.050842719780916035,-0.5387868236899116,-0.3244731749154314,0.25957880643626,-3.0786095683405144,0.6247326214265027,-0.00011959613067499922,-0.0005223177774026963,-0.00022112321360330718,-0.012343908027943927,-0.0013603659625584642,0.0038645540463004683,0.0013919338704640517,0.32656100392341614,-1.1515127283385773,1.663004223500387,-2.08062805751943,-1.571369473134176,2.3015198707580566,6.930764357093722e-05,0.015090328641235828,0.01457215752452612,-0.033759474754333496,-7.870694655916222e-13,-0.0013323725434020162,0.038307227194309235,0.05746084079146385,-9.21288776397705,0.7127973437309265,47.69673538208008,-0.2647521495819092,-3.3457202911376953,-1.6606218814849854,-0.5780671834945679,0.07095123827457428,-0.22036238014698029,24.0625,24.6875,23.8125,25.625,25.875,26.25
1.0,-0.8449471279011583,-0.38572414738875827,-0.8104322031168324,-0.041552183952117516,0.004876907899339849,-0.050842719780916035,-0.5387868236899116,-0.3244731749154314,0.25957880643626,-3.0786095683405144,0.6247326214265027,-0.00011959613067499922,-0.0005223177774026963,-0.00022112321360330718,-0.012343908027943927,-0.0013603659625584642,0.0038645540463004683,0.0013919338704640517,0.32656100392341614,-1.1515127283385773,1.663004223500387,-2.08062805751943,-1.571369473134176,2.3015198707580566,6.930764357093722e-05,0.015090328641235828,0.01457215752452612,-0.033759474754333496,-7.870694655916222e-13,-0.0013323725434020162,0.038307227194309235,0.05746084079146385,-9.21288776397705,0.7127973437309265,47.69673538208008,-0.2647521495819092,-3.3457202911376953,-1.6606218814849854,-0.5780671834945679,0.07095123827457428,-0.22036238014698029,24.0625,24.6875,23.8125,25.625,25.875,26.25
1.0,-1.0302225016485995,-0.20476170653241377,-0.9510363852340492,-0.03784830646608399,0.007892451941426314,-0.04439410016487109,-0.5387831690312476,-0.3244822454282237,0.25955909937760036,-3.078627634772415,0.6247759261754832,-0.0001232714324771146,-0.00047725540477454027,-0.00020406692013214743,-0.012585702956987238,-0.0014914606019891042,0.0042470912633572585,0.0013635660525884654,0.32657304406166077,-1.1514887374690552,1.6630290190326136,-2.0806881390013636,-1.571345631276266,2.3015565872192383,6.673789175692946e-05,0.015235131606459618,0.015179462730884552,-0.034915924072265625,-5.13900140703457e-14,-0.0013069577980786562,0.13407528400421143,0.0,-9.193734169006348,0.8672236800193787,47.6976318359375,-0.2682112157344818,-3.2886693477630615,-1.6606438159942627,-0.572996973991394,0.06753971427679062,-0.22655463218688965,24.0625,24.6875,23.8125,25.625,25.875,26.25
1.0,-1.0302225016485995,-0.20476170653241377,-0.9510363852340492,-0.03784830646608399,0.007892451941426314,-0.04439410016487109,-0.5387831690312476,-0.3244822454282237,0.25955909937760036,-3.078627634772415,0.6247759261754832,-0.0001232714324771146,-0.00047725540477454027,-0.00020406692013214743,-0.012585702956987238,-0.0014914606019891042,0.0042470912633572585,0.0013635660525884654,0.32657304406166077,-1.1514887374690552,1.6630290190326136,-2.0806881390013636,-1.571345631276266,2.3015565872192383,6.673789175692946e-05,0.015235131606459618,0.015179462730884552,-0.034915924072265625,-5.13900140703457e-14,-0.0013069577980786562,0.13407528400421143,0.0,-9.193734169006348,0.8672236800193787,47.6976318359375,-0.2682112157344818,-3.2886693477630615,-1.6606438159942627,-0.572996973991394,0.06753971427679062,-0.22655463218688965,24.0625,24.6875,23.8125,25.625,25.875,26.25
1.0,-0.6568427135794622,-0.20734115997487784,-0.9300280582503132,-0.035297736853320154,0.02061484563250559,-0.055748590899331193,-0.5387746195319267,-0.32448456793100006,0.2595307712794078,-3.078608887397439,0.6246750051496542,-0.0001525436501649753,-0.0005382050947329277,-0.00022326624730701434,-0.01277971848071233,-0.001671848450601477,0.004772732912122109,0.001367730931506826,0.32658496499061584,-1.151464657192566,1.663065258656637,-2.08071293453359,-1.571369473134176,2.3015079498291016,6.435181421693414e-05,0.01554231345653534,0.015446904115378857,-0.036046311259269714,-3.3554009536276375e-15,-0.0013138906797394156,0.0,-0.05746084079146385,-9.21288776397705,0.7351769208908081,47.702110290527344,-0.32431262731552124,-3.350922107696533,-1.619018316268921,-0.5562974810600281,0.07410391420125961,-0.22634534537792206,24.0625,24.6875,23.8125,25.625,25.875,26.25
1.0,-0.6568427135794622,-0.20734115997487784,-0.9300280582503132,-0.035297736853320154,0.02061484563250559,-0.055748590899331193,-0.5387746195319267,-0.32448456793100006,0.2595307712794078,-3.078608887397439,0.6246750051496542,-0.0001525436501649753,-0.0005382050947329277,-0.00022326624730701434,-0.01277971848071233,-0.001671848450601477,0.004772732912122109,0.001367730931506826,0.32658496499061584,-1.151464657192566,1.663065258656637,-2.08071293453359,-1.571369473134176,2.3015079498291016,6.435181421693414e-05,0.01554231345653534,0.015446904115378857,-0.036046311259269714,-3.3554009536276375e-15,-0.0013138906797394156,0.0,-0.05746084079146385,-9.21288776397705,0.7351769208908081,47.702110290527344,-0.32431262731552124,-3.350922107696533,-1.619018316268921,-0.5562974810600281,0.07410391420125961,-0.22634534537792206,24.0625,24.6875,23.8125,25.625,25.875,26.25
1.0,-1.106666697512165,-0.5892560278282719,-0.9759254606931163,-0.034871776501365845,0.009457781625797593,-0.0438798066418549,-0.5387904178180485,-0.3244899465981657,0.259494115515109,-3.0786250054284254,0.6247173223826827,-8.806897154744652e-05,-0.0006285838735435677,-0.00025250710852612793,-0.013591507311235899,-0.001546832747735119,0.004397804084458473,0.0012887760176590961,0.32658496499061584,-1.1513921481421967,1.663077179585592,-2.0808450184264125,-1.571369473134176,2.30153226852417,6.213042797753587e-05,0.016714097931981087,0.015941793099045753,-0.037317756563425064,-2.190837086136753e-16,-0.0012374378275126219,-0.019153613597154617,0.05746084079146385,-9.251194953918457,0.7530794739723206,47.692256927490234,-0.3024464249610901,-3.3542428016662598,-1.6516568660736084,-0.5452378392219543,0.0656319260597229,-0.20729008316993713,24.0625,24.6875,23.8125,25.625,25.875,26.25
1.0,-1.1557331145399201,-0.577630194490621,-0.9112238777900684,-0.04090439553876972,0.013867492688874217,-0.05208525215809959,-0.5388011060491797,-0.3244702857758386,0.2594791614706521,-3.0786317179609686,0.6247762432109317,-3.904819509609801e-05,-0.0007740772315465052,-0.0003007212623668296,-0.013532750752418832,-0.002011527051644666,0.005758850649420945,0.0012401430048792292,0.32654908299446106,-1.1513801676085968,1.6631134192096155,-2.0809294186034144,-1.571369473134176,2.30153226852417,6.005738759995438e-05,0.01683410257101059,0.016009191051125526,-0.0389433391392231,-1.4304601423363243e-17,-0.0011915098875761032,-0.038307227194309235,0.07661445438861847,-9.232041358947754,0.7217512726783752,47.66449737548828,-0.2817041277885437,-3.3720993995666504,-1.6575205326080322,-0.532084047794342,0.05687302350997925,-0.2075236439704895,24.0625,24.6875,23.8125,25.625,25.875,26.25
1.0,-1.1557331145399201,-0.577630194490621,-0.9112238777900684,-0.04090439553876972,0.013867492688874217,-0.05208525215809959,-0.5388011060491797,-0.3244702857758386,0.2594791614706521,-3.0786317179609686,0.6247762432109317,-3.904819509609801e-05,-0.0007740772315465052,-0.0003007212623668296,-0.013532750752418832,-0.002011527051644666,0.005758850649420945,0.0012401430048792292,0.32654908299446106,-1.1513801676085968,1.6631134192096155,-2.0809294186034144,-1.571369473134176,2.30153226852417,6.005738759995438e-05,0.01683410257101059,0.016009191051125526,-0.0389433391392231,-1.4304601423363243e-17,-0.0011915098875761032,-0.038307227194309235,0.07661445438861847,-9.232041358947754,0.7217512726783752,47.66449737548828,-0.2817041277885437,-3.3720993995666504,-1.6575205326080322,-0.532084047794342,0.05687302350997925,-0.2075236439704895,24.0625,24.6875,23.8125,25.625,25.875,26.25
1.0,-1.0033347311610532,-0.8126490254343578,-1.007830577656714,-0.033270597065070594,0.02296127611350126,-0.04557642900692366,-0.5387933898386466,-0.3244794117076509,0.25945702827741524,-3.078613572500924,0.6246759994313025,-2.7795267476513754e-05,-0.0005231965351893664,-0.00021379549400231802,-0.014799818971205091,-0.0014337981673319484,0.004057234708844993,0.0012510282927623276,0.32657304406166077,-1.151355819111206,1.6631377379046839,-2.0809651813902796,-1.5714057127581995,2.3014960289001465,5.81183448957745e-05,0.017914654687047005,0.01756451465189457,-0.039782244712114334,-9.33988241197406e-19,-0.0012043435126543045,0.019153613597154617,0.09576806426048279,-9.251194953918457,0.7306999564170837,47.702110290527344,-0.2439669668674469,-3.3168420791625977,-1.660780429840088,-0.5167563557624817,0.07928762584924698,-0.22547172009944916,24.0625,24.6875,23.8125,25.625,25.875,26.25
1.0,-1.0033347311610532,-0.8126490254343578,-1.007830577656714,-0.033270597065070594,0.02296127611350126,-0.04557642900692366,-0.5387933898386466,-0.3244794117076509,0.25945702827741524,-3.078613572500924,0.6246759994313025,-2.7795267476513754e-05,-0.0005231965351893664,-0.00021379549400231802,-0.014799818971205091,-0.0014337981673319484,0.004057234708844993,0.0012510282927623276,0.32657304406166077,-1.151355819111206,1.6631377379046839,-2.0809651813902796,-1.5714057127581995,2.3014960289001465,5.81183448957745e-05,0.017914654687047005,0.01756451465189457,-0.039782244712114334,-9.33988241197406e-19,-0.0012043435126543045,0.019153613597154617,0.09576806426048279,-9.251194953918457,0.7306999564170837,47.702110290527344,-0.2439669668674469,-3.3168420791625977,-1.660780429840088,-0.5167563557624817,0.07928762584924698,-0.22547172009944916,24.0625,24.6875,23.8125,25.625,25.875,26.25
1.0,-0.9454801022378682,-0.45539875609873587,-0.89922273198836,-0.043298915492802785,0.03084618646153217,-0.04576463686036245,-0.5387890974999426,-0.324481742756896,0.25941071916983555,-3.078631118151134,0.624717899068712,-7.236879361890639e-05,-0.0005305236710499137,-0.00021512909709672266,-0.01468651117032583,-0.001597284496813062,0.004537259288735357,0.0011986425469966266,0.32657304406166077,-1.1513080161860962,1.6631978193866175,-2.0810615024962367,-1.571369473134176,2.3015198707580566,5.6300414144061506e-05,0.017756324261426926,0.017620481550693512,-0.04018693044781685,-6.098275974947824e-20,-0.0011539618717506528,-0.038307227194309235,0.038307227194309235,-9.232041358947754,0.7150384783744812,47.681514739990234,-0.29806292057037354,-3.309539794921875,-1.6845793724060059,-0.49566882848739624,0.07808080315589905,-0.21334579586982727,24.0625,24.6875,23.8125,25.625,25.875,26.25
1.0,-0.9454801022378682,-0.45539875609873587,-0.89922273198836,-0.043298915492802785,0.03084618646153217,-0.04576463686036245,-0.5387890974999426,-0.324481742756896,0.25941071916983555,-3.078631118151134,0.624717899068712,-7.236879361890639e-05,-0.0005305236710499137,-0.00021512909709672266,-0.01468651117032583,-0.001597284496813062,0.004537259288735357,0.0011986425469966266,0.32657304406166077,-1.1513080161860962,1.6631978193866175,-2.0810615024962367,-1.571369473134176,2.3015198707580566,5.6300414144061506e-05,0.017756324261426926,0.017620481550693512,-0.04018693044781685,-6.098275974947824e-20,-0.0011539618717506528,-0.038307227194309235,0.038307227194309235,-9.232041358947754,0.7150384783744812,47.681514739990234,-0.29806292057037354,-3.309539794921875,-1.6845793724060059,-0.49566882848739624,0.07808080315589905,-0.21334579586982727,24.0625,24.6875,23.8125,25.625,25.875,26.25
1.0,-1.2579139336582088,-0.4811659978914486,-0.9958320967742895,-0.039429821437334624,0.016263397006932932,-0.04812214858327104,-0.5388040390384805,-0.32444914413219755,0.2593904631290744,-3.078634321752543,0.6248147271937895,-4.943463699267923e-05,-0.0005991327799700508,-0.00023730487954340206,-0.015062327276911223,-0.0016213866449134482,0.004604425877751963,0.001175306504762014,0.3265130817890167,-1.1512957078269501,1.6632455031024378,-2.0811454258360804,-1.571357552205221,2.3015198707580566,5.4592685046372935e-05,0.018334858119487762,0.017870338633656502,-0.041086651384830475,-3.981738487790918e-21,-0.0011325808009132743,-0.038307227194309235,0.019153613597154617,-9.27034854888916,0.7665104269981384,47.702110290527344,-0.24613243341445923,-3.342081069946289,-1.7131108045578003,-0.4957178235054016,0.07245958596467972,-0.2126249223947525,24.0625,24.6875,23.8125,25.625,25.875,26.25
1.0,-1.2579139336582088,-0.4811659978914486,-0.9958320967742895,-0.039429821437334624,0.016263397006932932,-0.04812214858327104,-0.5388040390384805,-0.32444914413219755,0.2593904631290744,-3.078634321752543,0.6248147271937895,-4.943463699267923e-05,-0.0005991327799700508,-0.00023730487954340206,-0.015062327276911223,-0.0016213866449134482,0.004604425877751963,0.001175306504762014,0.3265130817890167,-1.1512957078269501,1.6632455031024378,-2.0811454258360804,-1.571357552205221,2.3015198707580566,5.4592685046372935e-05,0.018334858119487762,0.017870338633656502,-0.041086651384830475,-3.981738487790918e-21,-0.0011325808009132743,-0.038307227194309235,0.019153613597154617,-9.27034854888916,0.7665104269981384,47.702110290527344,-0.24613243341445923,-3.342081069946289,-1.7131108045578003,-0.4957178235054016,0.07245958596467972,-0.2126249223947525,24.0625,24.6875,23.8125,25.625,25.875,26.25
1.0,-0.7492300906167493,-0.2483242358917271,-0.9619898519549667,-0.04265758280578783,0.02440225791206319,-0.04816822844349113,-0.5388010424612446,-0.32447798728206634,0.25936040138453464,-3.078641037520002,0.6247591580238698,-2.479209998557674e-05,-0.0004977796375473745,-0.00020163006574525462,-0.01591607569750763,-0.0012425349165606395,0.0034870349426024344,0.0011738856712071343,0.32656100392341614,-1.1512354475310822,1.663245979939596,-2.081217428246969,-1.571369473134176,2.30153226852417,5.298575706547126e-05,0.019208619371056557,0.018707802519202232,-0.041618023067712784,-2.5997906989565195e-22,-0.0011327603133395314,-0.019153613597154617,0.09576806426048279,-9.308655738830566,0.7396538853645325,47.703006744384766,-0.34725260734558105,-3.360304355621338,-1.655289649963379,-0.4951186180114746,0.05735306441783905,-0.21638238430023193,24.0625,24.6875,23.8125,25.625,25.875,26.25
1.0,-0.8343378743876023,-0.608785862638501,-1.0721234164897606,-0.0354696306782656,0.014884176702988906,-0.054667283178089304,-0.5387917021759134,-0.3244683042007144,0.25929859593524884,-3.0786353661390047,0.6247190888076395,-9.862508765562562e-05,-0.000550874841851933,-0.00021874061348672738,-0.015871570796564965,-0.001317324223717788,0.003705825662073318,0.0011511376453403096,0.32654908299446106,-1.1511875850013276,1.6633408705340784,-2.0813127956786097,-1.571357552205221,2.3014960289001465,5.1470600737957284e-05,0.01925576850771904,0.018575970083475113,-0.04176454246044159,-1.697477364513996e-23,-0.0011115962406620383,0.019153613597154617,0.09576806426048279,-9.251194953918457,0.7239871025085449,47.71196365356445,-0.3543687164783478,-3.355520248413086,-1.6825348138809204,-0.4889565706253052,0.072055384516716,-0.2153329849243164,24.0625,24.6875,23.8125,25.625,25.875,26.25
1.0,-0.8343378743876023,-0.608785862638501,-1.0721234164897606,-0.0354696306782656,0.014884176702988906,-0.054667283178089304,-0.5387917021759134,-0.3244683042007144,0.25929859593524884,-3.0786353661390047,0.6247190888076395,-9.862508765562562e-05,-0.000550874841851933,-0.00021874061348672738,-0.015871570796564965,-0.001317324223717788,0.003705825662073318,0.0011511376453403096,0.32654908299446106,-1.1511875850013276,1.6633408705340784,-2.0813127956786097,-1.571357552205221,2.3014960289001465,5.1470600737957284e-05,0.01925576850771904,0.018575970083475113,-0.04176454246044159,-1.697477364513996e-23,-0.0011115962406620383,0.019153613597154617,0.09576806426048279,-9.251194953918457,0.7239871025085449,47.71196365356445,-0.3543687164783478,-3.355520248413086,-1.6825348138809204,-0.4889565706253052,0.072055384516716,-0.2153329849243164,24.0625,24.6875,23.8125,25.625,25.875,26.25
1.0,-0.9013869206054396,-0.2303113340158403,-0.9753142549804673,-0.04797620624199146,0.007212417997448064,-0.045476342431196796,-0.5387996464842196,-0.32447625132293084,0.25929465938645657,-3.078638590022139,0.6247197250007087,-1.579336757000435e-05,-0.0006400808787629464,-0.00024818851374895694,-0.01610074194609001,-0.0010394918477247478,0.002888184477789388,0.001114684396785869,0.32656100392341614,-1.1511632067016144,1.6633294264422815,-2.0813728771605433,-1.5713813940631312,2.3015079498291016,5.003968544770032e-05,0.019791755825281143,0.01818721555173397,-0.041048239916563034,-1.1083314280347015e-24,-0.0010762400925159454,0.0,0.038307227194309235,-9.289502143859863,0.7038487195968628,47.66539001464844,-0.3152129650115967,-3.369198799133301,-1.6139371395111084,-0.4995967149734497,0.06931916624307632,-0.20289233326911926,24.0625,24.6875,23.8125,25.625,25.875,26.25
1.0,-0.9013869206054396,-0.2303113340158403,-0.9753142549804673,-0.04797620624199146,0.007212417997448064,-0.045476342431196796,-0.5387996464842196,-0.32447625132293084,0.25929465938645657,-3.078638590022139,0.6247197250007087,-1.579336757000435e-05,-0.0006400808787629464,-0.00024818851374895694,-0.01610074194609001,-0.0010394918477247478,0.002888184477789388,0.001114684396785869,0.32656100392341614,-1.1511632067016144,1.6633294264422815,-2.0813728771605433,-1.5713813940631312,2.3015079498291016,5.003968544770032e-05,0.019791755825281143,0.01818721555173397,-0.041048239916563034,-1.1083314280347015e-24,-0.0010762400925159454,0.0,0.038307227194309235,-9.289502143859863,0.7038487195968628,47.66539001464844,-0.3152129650115967,-3.369198799133301,-1.6139371395111084,-0.4995967149734497,0.06931916624307632,-0.20289233326911926,24.0625,24.6875,23.8125,25.625,25.875,26.25
1.0,-0.7336037414808743,-0.42744363422780274,-0.9503682725375168,-0.0460426265408098,0.007425799327367042,-0.048379785453109315,-0.5388169143300761,-0.32447439429584474,0.2592934357813915,-3.078674084349582,0.6247269878744481,8.134049678762688e-05,-0.00048615392684515663,-0.0001947377984738709,-0.016849485370266905,-0.0005862698438279646,0.0015555658540419154,0.001069749993237945,0.32654908299446106,-1.151139037018158,1.6633175055133265,-2.081456800500387,-1.5713813940631312,2.3014960289001465,4.868633550358936e-05,0.020448796451091766,0.018977316096425056,-0.041087791323661804,-7.236611816259459e-26,-0.0010324903996661305,0.019153613597154617,0.05746084079146385,-9.327810287475586,0.7239871025085449,47.67524337768555,-0.3309907913208008,-3.328458786010742,-1.6157286167144775,-0.5054794549942017,0.06232527643442154,-0.20211046934127808,24.0625,24.6875,23.8125,25.625,25.875,26.25
1.0,-0.7336037414808743,-0.42744363422780274,-0.9503682725375168,-0.0460426265408098,0.007425799327367042,-0.048379785453109315,-0.5388169143300761,-0.32447439429584474,0.2592934357813915,-3.078674084349582,0.6247269878744481,8.134049678762688e-05,-0.00048615392684515663,-0.0001947377984738709,-0.016849485370266905,-0.0005862698438279646,0.0015555658540419154,0.001069749993237945,0.32654908299446106,-1.151139037018158,1.6633175055133265,-2.081456800500387,-1.5713813940631312,2.3014960289001465,4.868633550358936e-05,0.020448796451091766,0.018977316096425056,-0.041087791323661804,-7.236611816259459e-26,-0.0010324903996661305,0.019153613597154617,0.05746084079146385,-9.327810287475586,0.7239871025085449,47.67524337768555,-0.3309907913208008,-3.328458786010742,-1.6157286167144775,-0.5054794549942017,0.06232527643442154,-0.20211046934127808,24.0625,24.6875,23.8125,25.625,25.875,26.25
1.0,-0.5285551457330706,-0.4471474736251173,-0.8535665094950896,-0.0443498460032624,0.006956370985250558,-0.05103617113509929,-0.5387901614718519,-0.3244820564477681,0.25921503325463624,-3.078642191939608,0.6246634583626691,-7.413269553209234e-05,-0.0003829549512603843,-0.00014390254230741624,-0.017361724568920513,-0.0002893025437958374,0.0006817111066093206,0.0009428407882844895,0.3265730142593384,-1.1510791343501587,1.6634252707110804,-2.0815168819823207,-1.571369473134176,2.3014843463897705,2.4655220840941183e-05,0.020888838917016983,0.019546277821063995,-0.04117383062839508,-4.724990243898136e-27,-0.0009295225027017295,0.07661445438861847,0.0,-9.27034854888916,0.8090336918830872,47.70121383666992,-0.2785149812698364,-3.2836341857910156,-1.6564679145812988,-0.5175448656082153,0.06519890576601028,-0.20133467018604279,24.0625,24.6875,23.8125,25.625,25.875,26.25
1.0,-0.7508325548508338,-0.5223717143621052,-0.8627566070451093,-0.0457512521924284,0.003584742182757502,-0.04245297922256053,-0.5387963524830705,-0.3244919037224541,0.25918954234092595,-3.078670599695599,0.6246119570819234,-2.723398135843869e-05,-4.6410752016495284e-05,-2.8069365630781204e-05,-0.01830002863829852,0.0005938006983404011,-0.0019098638279938923,0.0008372462086435606,0.32658493518829346,-1.1510308247855683,1.6634371916400355,-2.081611772576803,-1.571369473134176,2.3014605045318604,2.3106586013454944e-05,0.021488770842552185,0.02058963105082512,-0.04007919132709503,-3.085080974072075e-28,-0.0008248325320892036,0.13407529890537262,0.17238251864910126,-9.193734169006348,0.7127973437309265,47.685096740722656,-0.32778626680374146,-3.4096879959106445,-1.6721882820129395,-0.5221584439277649,0.06701825559139252,-0.20469900965690613,24.0625,24.6875,23.8125,25.625,25.875,26.25
1.0,-0.7508325548508338,-0.5223717143621052,-0.8627566070451093,-0.0457512521924284,0.003584742182757502,-0.04245297922256053,-0.5387963524830705,-0.3244919037224541,0.25918954234092595,-3.078670599695599,0.6246119570819234,-2.723398135843869e-05,-4.6410752016495284e-05,-2.8069365630781204e-05,-0.01830002863829852,0.0005938006983404011,-0.0019098638279938923,0.0008372462086435606,0.32658493518829346,-1.1510308247855683,1.6634371916400355,-2.081611772576803,-1.571369473134176,2.3014605045318604,2.3106586013454944e-05,0.021488770842552185,0.02058963105082512,-0.04007919132709503,-3.085080974072075e-28,-0.0008248325320892036,0.13407529890537262,0.17238251864910126,-9.193734169006348,0.7127973437309265,47.685096740722656,-0.32778626680374146,-3.4096879959106445,-1.6721882820129395,-0.5221584439277649,0.06701825559139252,-0.20469900965690613,24.0625,24.6875,23.8125,25.625,25.875,26.25
1.0,-0.4613094843603233,-0.7268986862471389,-0.9240600576570938,-0.04134468974141952,0.0033226645380602226,-0.045062553496670286,-0.5387992858996707,-0.3244657957109447,0.259150895685397,-3.0786149537659853,0.6246963309368533,-1.6109563698814146e-05,-0.00015603567418061423,-6.492642509006392e-05,-0.019099871872660414,0.0009984702035037794,-0.0031051139824426963,0.0007520428257227576,0.32654905319213867,-1.1510063868812104,1.6635096708880823,-2.081695695916647,-1.5714057127581995,2.3014843463897705,2.2516222088597715e-05,0.02276962623000145,0.02063426934182644,-0.04014280065894127,-2.0143373510719014e-29,-0.0007400386384688318,0.19153612852096558,0.19153612852096558,-9.251194953918457,0.7284641265869141,47.690467834472656,-0.3403404653072357,-3.397792339324951,-1.6309173107147217,-0.5494223833084106,0.058295100927352905,-0.21062608063220978,24.0625,24.6875,23.8125,25.625,25.875,26.25
1.0,-0.4613094843603233,-0.7268986862471389,-0.9240600576570938,-0.04134468974141952,0.0033226645380602226,-0.045062553496670286,-0.5387992858996707,-0.3244657957109447,0.259150895685397,-3.0786149537659853,0.6246963309368533,-1.6109563698814146e-05,-0.00015603567418061423,-6.492642509006392e-05,-0.019099871872660414,0.0009984702035037794,-0.0031051139824426963,0.0007520428257227576,0.32654905319213867,-1.1510063868812104,1.6635096708880823,-2.081695695916647,-1.5714057127581995,2.3014843463897705,2.2516222088597715e-05,0.02276962623000145,0.02063426934182644,-0.04014280065894127,-2.0143373510719014e-29,-0.0007400386384688318,0.19153612852096558,0.19153612852096558,-9.251194953918457,0.7284641265869141,47.690467834472656,-0.3403404653072357,-3.397792339324951,-1.6309173107147217,-0.5494223833084106,0.058295100927352905,-0.21062608063220978,24.0625,24.6875,23.8125,25.625,25.875,26.25
1.0,-0.14819148887916989,-0.46506820805443017,-0.9279778058743606,-0.035221706163399605,0.0015857086856332896,-0.04481498979352847,-0.5388133372091811,-0.32446656132442064,0.2591184077686749,-3.0786574288281425,0.6247052777869057,-1.27429691817086e-05,-0.0003431923014210296,-0.000114240665327629,-0.019346460502552194,0.0010102880953154643,-0.0031447187359059203,0.0006625177904864833,0.32653701305389404,-1.1509462755969544,1.6635211149798792,-2.0817910633482875,-1.571369473134176,2.3014724254608154,3.020838619249844e-07,0.02345314621925354,0.02031429298222065,-0.04046500474214554,-1.3152183113384279e-30,-0.000672785856295377,0.2106897532939911,0.17238251864910126,-9.193734169006348,0.6434228420257568,47.661808013916016,-0.34397563338279724,-3.39841365814209,-1.6267004013061523,-0.5456945300102234,0.05731501430273056,-0.21119223535060883,24.0625,24.6875,23.8125,25.625,25.875,26.25
1.0,-0.14819148887916989,-0.46506820805443017,-0.9279778058743606,-0.035221706163399605,0.0015857086856332896,-0.04481498979352847,-0.5388133372091811,-0.32446656132442064,0.2591184077686749,-3.0786574288281425,0.6247052777869057,-1.27429691817086e-05,-0.0003431923014210296,-0.000114240665327629,-0.019346460502552194,0.0010102880953154643,-0.0031447187359059203,0.0006625177904864833,0.32653701305389404,-1.1509462755969544,1.6635211149798792,-2.0817910633482875,-1.571369473134176,2.3014724254608154,3.020838619249844e-07,0.02345314621925354,0.02031429298222065,-0.04046500474214554,-1.3152183113384279e-30,-0.000672785856295377,0.2106897532939911,0.17238251864910126,-9.193734169006348,0.6434228420257568,47.661808013916016,-0.34397563338279724,-3.39841365814209,-1.6267004013061523,-0.5456945300102234,0.05731501430273056,-0.21119223535060883,24.0625,24.6875,23.8125,25.625,25.875,26.25
1.0,-0.6140455860083138,-0.5002452576941898,-0.9222597360080431,-0.030229008187696988,-0.016138267103887223,-0.05155004625636366,-0.5388079212103482,-0.3244700257123692,0.2590643596102955,-3.0786143769379803,0.6247536433444872,-2.651667090019654e-05,-0.0002679883357818791,-8.845998573187972e-05,-0.019103789313515543,0.0007150298371759865,-0.0022759183135784727,0.0005259060953996101,0.32654905319213867,-1.1508864623359223,1.6635821501361292,-2.0818878612914027,-1.5713933149920862,2.3015201091766357,4.0528407296847035e-09,0.022931145504117012,0.020659564062952995,-0.04120586812496185,-8.587434683851649e-32,-0.0005368233541958034,0.19153612852096558,0.17238251864910126,-9.193734169006348,0.7687462568283081,47.70658874511719,-0.374459832906723,-3.3473105430603027,-1.6516660451889038,-0.5705481171607971,0.06859981268644333,-0.20806297659873962,24.0625,24.6875,23.8125,25.625,25.875,26.25
1.0,-0.6140455860083138,-0.5002452576941898,-0.9222597360080431,-0.030229008187696988,-0.016138267103887223,-0.05155004625636366,-0.5388079212103482,-0.3244700257123692,0.2590643596102955,-3.0786143769379803,0.6247536433444872,-2.651667090019654e-05,0.00021802138211798145,7.720554945758176e-05,-0.01944593342255626,0.0010321930851801163,-0.003201884430428365,0.00046534886938832487,0.32652509212493896,-1.150850699549057,1.6636531988727015,-2.081923624078268,-1.5713813940631312,2.3014724254608154,5.4374033053861126e-11,0.02236211486160755,0.022234244272112846,-0.041232723742723465,-5.606980953095629e-33,-0.0004762104945257306,0.26815059781074524,0.1149216815829277,-9.117119789123535,0.7262282371520996,47.68598937988281,-0.35072630643844604,-3.300114154815674,-1.6587907075881958,-0.5805872082710266,0.060904815793037415,-0.21215897798538208,24.0625,24.6875,23.8125,25.625,25.875,26.25
1.0,-0.5096433765842434,-0.1610137372560768,-0.8303714642822828,-0.04317629301476982,-0.013215580991977824,-0.05215803089399239,-0.5388023239586474,-0.3244538017379727,0.2590145849923059,-3.078596792276951,0.6247120765638077,-0.00013241229791821299,0.00021802138211798145,7.720554945758176e-05,-0.01944593342255626,0.0010321930851801163,-0.003201884430428365,0.00046534886938832487,0.32652509212493896,-1.150850699549057,1.6636531988727015,-2.081923624078268,-1.5713813940631312,2.3014724254608154,5.4374033053861126e-11,0.02236211486160755,0.022234244272112846,-0.041232723742723465,-5.606980953095629e-33,-0.0004762104945257306,0.26815059781074524,0.1149216815829277,-9.117119789123535,0.7262282371520996,47.68598937988281,-0.35072630643844604,-3.300114154815674,-1.6587907075881958,-0.5805872082710266,0.060904815793037415,-0.21215897798538208,24.0625,24.6875,23.8125,25.625,25.875,26.25
1.0,-0.21563558283723375,-0.6536045757311673,-0.7482076535810738,-0.04039140623254383,-0.0038550407963410787,-0.049768460653346544,-0.5388010551110575,-0.3244714251143387,0.25898591120656966,-3.078617777321765,0.624735342100612,-0.00013927998889247156,0.0004896002256489164,0.0001699021074312028,-0.020446510007186156,0.001746250595190101,-0.0052996721686664255,0.00041986228288554264,0.32654905319213867,-1.1508024495891114,1.6636670271502894,-2.08199467281484,-1.571357552205221,2.3015081882476807,7.294971376102521e-13,0.023131132125854492,0.023357730358839035,-0.04090922325849533,-3.660957769491009e-34,-0.000430356158176437,0.26815059781074524,0.05746084079146385,-9.155426979064941,0.7597975730895996,47.71464920043945,-0.39906904101371765,-3.34700345993042,-1.6517826318740845,-0.6184898614883423,0.0704304501414299,-0.20214873552322388,24.0625,24.6875,23.8125,25.625,25.875,26.25
1.0,-0.21563558283723375,-0.6536045757311673,-0.7482076535810738,-0.04039140623254383,-0.0038550407963410787,-0.049768460653346544,-0.5388010551110575,-0.3244714251143387,0.25898591120656966,-3.078617777321765,0.624735342100612,-0.00013927998889247156,0.0004896002256489164,0.0001699021074312028,-0.020446510007186156,0.001746250595190101,-0.0052996721686664255,0.00041986228288554264,0.32654905319213867,-1.1508024495891114,1.6636670271502894,-2.08199467281484,-1.571357552205221,2.3015081882476807,7.294971376102521e-13,0.023131132125854492,0.023357730358839035,-0.04090922325849533,-3.660957769491009e-34,-0.000430356158176437,0.26815059781074524,0.05746084079146385,-9.155426979064941,0.7597975730895996,47.71464920043945,-0.39906904101371765,-3.34700345993042,-1.6517826318740845,-0.6184898614883423,0.0704304501414299,-0.20214873552322388,24.0625,24.6875,23.8125,25.625,25.875,26.25
1.0,-0.9201883622185236,-0.8098461773365044,-0.8866639518368259,-0.040944525464145724,-0.014088101904000203,-0.04839362054109618,-0.5387979652407561,-0.32447055364040467,0.25893265988022635,-3.078553785871721,0.6246839996222954,-0.00011159520897599732,-1.6545574656750765e-05,-2.5293601610193184e-06,-0.02078651078733737,0.0012283135861430885,-0.003792092480242318,0.0003814350902483165,0.32656097412109375,-1.1507421296885987,1.6637256781207483,-2.0820919475951136,-1.5714295546161097,2.3014962673187256,9.787133668608117e-15,0.02448909543454647,0.022773293778300285,-0.0432768352329731,-2.390343799072343e-35,-0.00039273794391192496,0.2106897532939911,0.09576806426048279,-9.059659004211426,0.7105615139007568,47.645687103271484,-0.3802264332771301,-3.333775043487549,-1.656172752380371,-0.6049549579620361,0.06811553239822388,-0.20691043138504028,24.0625,24.6875,23.8125,25.625,25.875,26.25
1.0,-0.9201883622185236,-0.8098461773365044,-0.8866639518368259,-0.040944525464145724,-0.014088101904000203,-0.04839362054109618,-0.5387979652407561,-0.32447055364040467,0.25893265988022635,-3.078553785871721,0.6246839996222954,-0.00011159520897599732,-1.6545574656750765e-05,-2.5293601610193184e-06,-0.02078651078733737,0.0012283135861430885,-0.003792092480242318,0.0003814350902483165,0.32656097412109375,-1.1507421296885987,1.6637256781207483,-2.0820919475951136,-1.5714295546161097,2.3014962673187256,9.787133668608117e-15,0.02448909543454647,0.022773293778300285,-0.0432768352329731,-2.390343799072343e-35,-0.00039273794391192496,0.2106897532939911,0.09576806426048279,-9.059659004211426,0.7105615139007568,47.645687103271484,-0.3802264332771301,-3.333775043487549,-1.656172752380371,-0.6049549579620361,0.06811553239822388,-0.20691043138504028,24.0625,24.6875,23.8125,25.625,25.875,26.25
1.0,-0.2129585146210416,-0.27291417691991204,-0.7390197715995542,-0.05416224065616401,-0.00045264860015470365,-0.05401891147311862,-0.5388073624408408,-0.32448005383587714,0.258908683241476,-3.0786207608551313,0.6247360146900904,-9.482264677509914e-05,-0.00013953052453386395,-4.4430347063270104e-05,-0.020873546629701714,0.0012429581039717762,-0.0038375713781008828,0.0003848712786819895,0.32656097412109375,-1.1506939393332978,1.6637371222125452,-2.0821992359557093,-1.571369473134176,2.3015201091766357,1.3130688866468403e-16,0.02486417628824711,0.022449133917689323,-0.04327996075153351,-1.5607236300916658e-36,-0.0003961521142628044,0.17238251864910126,0.1149216815829277,-9.136273384094238,0.6881819367408752,47.643890380859375,-0.36554205417633057,-3.4084525108337402,-1.5857722759246826,-0.6165393590927124,0.07402406632900238,-0.20022258162498474,24.0625,24.6875,23.8125,25.625,25.875,26.25
1.0,-0.2129585146210416,-0.27291417691991204,-0.7390197715995542,-0.05416224065616401,-0.00045264860015470365,-0.05401891147311862,-0.5388073624408408,-0.32448005383587714,0.258908683241476,-3.0786207608551313,0.6247360146900904,-9.482264677509914e-05,-0.00013953052453386395,-4.4430347063270104e-05,-0.020873546629701714,0.0012429581039717762,-0.0038375713781008828,0.0003848712786819895,0.32656097412109375,-1.1506939393332978,1.6637371222125452,-2.0821992359557093,-1.571369473134176,2.3015201091766357,1.3130688866468403e-16,0.02486417628824711,0.022449133917689323,-0.04327996075153351,-1.5607236300916658e-36,-0.0003961521142628044,0.17238251864910126,0.1149216815829277,-9.136273384094238,0.6881819367408752,47.643890380859375,-0.36554205417633057,-3.4084525108337402,-1.5857722759246826,-0.6165393590927124,0.07402406632900238,-0.20022258162498474,24.0625,24.6875,23.8125,25.625,25.875,26.25
1.0,-0.1949168949301859,-0.5703291007592336,-0.8465301345784703,-0.04557640015353692,0.0052757612791386795,-0.04569321502488008,-0.5388037797802968,-0.32446326476915954,0.258851492579258,-3.0785839845193674,0.6247287390522601,-0.00019590946333950532,0.000172172880037051,6.1905885659919e-05,-0.021724915383131253,0.0023260740967179145,-0.007015886286278821,0.0003885068142106049,0.32653701305389404,-1.150645689373352,1.6638100782977503,-2.0822459659972132,-1.571369473134176,2.3014962673187256,1.76164965248148e-18,0.02547798492014408,0.023038595914840698,-0.041125427931547165,-1.0190409467347017e-37,-0.0003987566160503775,0.19153612852096558,0.19153612852096558,-9.174580574035645,0.7642692923545837,47.70748519897461,-0.36371946334838867,-3.326338768005371,-1.6232075691223145,-0.6676321029663086,0.07342348992824554,-0.2096579670906067,24.0625,24.6875,23.8125,25.625,25.875,26.25
1.0,-0.1949168949301859,-0.5703291007592336,-0.8465301345784703,-0.04557640015353692,0.0052757612791386795,-0.04569321502488008,-0.5388037797802968,-0.32446326476915954,0.258851492579258,-3.0785839845193674,0.6247287390522601,-0.00019590946333950532,0.00019540334796758728,6.992497231820214e-05,-0.02240392146720879,0.0024910049547269613,-0.007504671598187436,0.0003628331315400703,0.32656097412109375,-1.1505975884250184,1.6638701597796839,-2.0823308430113734,-1.571369473134176,2.3014962673187256,2.363477799529764e-20,0.026265790686011314,0.02369004860520363,-0.042048823088407516,-6.653608934547024e-39,-0.0003732674813363701,0.1149216815829277,0.2106897532939911,-9.155426979064941,0.6881819367408752,47.64836883544922,-0.3974362909793854,-3.356081008911133,-1.6092729568481445,-0.696040153503418,0.07063652575016022,-0.21757137775421143,24.0625,24.6875,23.8125,25.625,25.875,26.25
1.0,-0.25347295620114624,-0.3049934437705252,-0.7189220474178798,-0.052674064834422114,0.003542147028369202,-0.050970775459050356,-0.5387917760433194,-0.32447472667364163,0.25880387900892515,-3.0785800356610906,0.6246895658609598,-0.00022760138581588322,0.00019540334796758728,6.992497231820214e-05,-0.02240392146720879,0.0024910049547269613,-0.007504671598187436,0.0003628331315400703,0.32656097412109375,-1.1505975884250184,1.6638701597796839,-2.0823308430113734,-1.571369473134176,2.3014962673187256,2.363477799529764e-20,0.026265790686011314,0.02369004860520363,-0.042048823088407516,-6.653608934547024e-39,-0.0003732674813363701,0.1149216815829277,0.2106897532939911,-9.155426979064941,0.6881819367408752,47.64836883544922,-0.3974362909793854,-3.356081008911133,-1.6092729568481445,-0.696040153503418,0.07063652575016022,-0.21757137775421143,24.0625,24.6875,23.8125,25.625,25.875,26.25
1.0,-0.4768681989406216,-0.6209791637259374,-0.9635649886606141,-0.04784858606288377,0.0037077527251053316,-0.044305441182330346,-0.5388057632502447,-0.32447698812866776,0.25877329239047786,-3.0785796693697596,0.6247086034647303,-0.00014468216214445613,0.0004057878806575524,0.00014174204498504782,-0.023221218556213112,0.0026091040479295545,-0.007855239679806579,0.0003925287624230547,0.32656097412109375,-1.1505375665477295,1.6638830343829554,-2.0824510059752406,-1.5713933149920862,2.3015081882476807,3.1709070616748067e-22,0.026792462915182114,0.025180915370583534,-0.04369645193219185,-4.344333525069084e-40,-0.0004033962031826377,0.17238251864910126,0.17238251864910126,-9.21288776397705,0.7508436441421509,47.66001510620117,-0.41523683071136475,-3.3763608932495117,-1.6396145820617676,-0.7125880718231201,0.06693176925182343,-0.22557669878005981,24.0625,24.6875,23.8125,25.625,25.875,26.25
1.0,-0.4768681989406216,-0.6209791637259374,-0.9635649886606141,-0.04784858606288377,0.0037077527251053316,-0.044305441182330346,-0.5388057632502447,-0.32447698812866776,0.25877329239047786,-3.0785796693697596,0.6247086034647303,-0.00014468216214445613,0.0004057878806575524,0.00014174204498504782,-0.023221218556213112,0.0026091040479295545,-0.007855239679806579,0.0003925287624230547,0.32656097412109375,-1.1505375665477295,1.6638830343829554,-2.0824510059752406,-1.5713933149920862,2.3015081882476807,3.1709070616748067e-22,0.026792462915182114,0.025180915370583534,-0.04369645193219185,-4.344333525069084e-40,-0.0004033962031826377,0.17238251864910126,0.17238251864910126,-9.21288776397705,0.7508436441421509,47.66001510620117,-0.41523683071136475,-3.3763608932495117,-1.6396145820617676,-0.7125880718231201,0.06693176925182343,-0.22557669878005981,24.0625,24.6875,23.8125,25.625,25.875,26.25
1.0,-0.7114726264482758,-1.053190505236072,-0.982728431965226,-0.04287213829536371,0.0039533863113354085,-0.05040925941324573,-0.5388086904272725,-0.32446111832994046,0.2587244918075216,-3.078551701314902,0.6247031070938753,-0.00018306343849008007,0.00028791349526495393,0.00010164718945607416,-0.023789653135587004,0.0024612147676233323,-0.007429422247864181,0.00037102307680060456,0.32653701305389404,-1.1504891973784943,1.6639426390277308,-2.0825234852232875,-1.5714057127581995,2.3014843463897705,4.254176978284925e-24,0.027673393487930298,0.025650545954704285,-0.045497771352529526,-2.8365083514862947e-41,-0.00038243638118728995,0.2106897532939911,0.15322890877723694,-9.27034854888916,0.7777001857757568,47.702110290527344,-0.34438779950141907,-3.433577537536621,-1.6647188663482666,-0.7224018573760986,0.06028958410024643,-0.2105630338191986,24.0625,24.6875,23.8125,25.625,25.875,26.25
1.0,-0.7114726264482758,-1.053190505236072,-0.982728431965226,-0.04287213829536371,0.0039533863113354085,-0.05040925941324573,-0.5388086904272725,-0.32446111832994046,0.2587244918075216,-3.078551701314902,0.6247031070938753,-0.00018306343849008007,0.00028791349526495393,0.00010164718945607416,-0.023789653135587004,0.0024612147676233323,-0.007429422247864181,0.00037102307680060456,0.32653701305389404,-1.1504891973784943,1.6639426390277308,-2.0825234852232875,-1.5714057127581995,2.3014843463897705,4.254176978284925e-24,0.027673393487930298,0.025650545954704285,-0.045497771352529526,-2.8365083514862947e-41,-0.00038243638118728995,0.2106897532939911,0.15322890877723694,-9.27034854888916,0.7777001857757568,47.702110290527344,-0.34438779950141907,-3.433577537536621,-1.6647188663482666,-0.7224018573760986,0.06028958410024643,-0.2105630338191986,24.0625,24.6875,23.8125,25.625,25.875,26.25
1.0,-0.9477954078324003,-0.8009411271652968,-0.8668713031741325,-0.05062065629217755,0.0007078090187050724,-0.039316898850667345,-0.5387970659299616,-0.3244843289669713,0.25867630665106,-3.0785803170199597,0.6246895564569797,-0.00022817398952250527,0.0005603630021431428,0.0001944817017457295,-0.023606121444583007,0.0024275122539141464,-0.00732416690568001,0.0003938641135225763,0.3265730142593384,-1.1504295629313965,1.663990322743551,-2.082618852654928,-1.571369473134176,2.3015081882476807,5.707520815433982e-26,0.026863371953368187,0.02636769413948059,-0.04551539197564125,-1.8525165698374082e-42,-0.0004053417651448399,0.19153612852096558,0.17238251864910126,-9.136273384094238,0.6837049722671509,47.64657974243164,-0.38640648126602173,-3.352283000946045,-1.6469783782958984,-0.7443817853927612,0.062381718307733536,-0.21852941811084747,24.0625,24.6875,23.8125,25.625,25.875,26.25
1.0,-0.9477954078324003,-0.8009411271652968,-0.8668713031741325,-0.05062065629217755,0.0007078090187050724,-0.039316898850667345,-0.5387970659299616,-0.3244843289669713,0.25867630665106,-3.0785803170199597,0.6246895564569797,-0.00022817398952250527,0.0005603630021431428,0.0001944817017457295,-0.023606121444583007,0.0024275122539141464,-0.00732416690568001,0.0003938641135225763,0.3265730142593384,-1.1504295629313965,1.663990322743551,-2.082618852654928,-1.571369473134176,2.3015081882476807,5.707520815433982e-26,0.026863371953368187,0.02636769413948059,-0.04551539197564125,-1.8525165698374082e-42,-0.0004053417651448399,0.19153612852096558,0.17238251864910126,-9.136273384094238,0.6837049722671509,47.64657974243164,-0.38640648126602173,-3.352283000946045,-1.6469783782958984,-0.7443817853927612,0.062381718307733536,-0.21852941811084747,24.0625,24.6875,23.8125,25.625,25.875,26.25
1.0,-0.47855386484071305,-0.5926836518840519,-0.9758732971993542,-0.043831877945341914,0.008205589761748048,-0.043825678186650854,-0.5387850392690103,-0.3244764216811678,0.25862428574281815,-3.0785295591558524,0.6246600745795291,-0.000265071883446932,0.0005989122173837812,0.00020760499210352272,-0.023553138974351448,0.002834808209564162,-0.008516832333419662,0.0003787050039744897,0.3265730142593384,-1.1503935617259522,1.6640742460833948,-2.0826903782286585,-1.5714057127581995,2.3014962673187256,7.657367458612404e-28,0.02683606743812561,0.02588867023587227,-0.04374878108501434,-1.2051166793193427e-43,-0.0003895209520123899,0.19153612852096558,0.09576806426048279,-9.174580574035645,0.7105615139007568,47.705692291259766,-0.4520255923271179,-3.3115673065185547,-1.6123168468475342,-0.7848515510559082,0.06729892641305923,-0.2137298285961151,24.0625,24.6875,23.8125,25.625,25.875,26.25
1.0,-0.6272132085651524,-0.3216707904204669,-0.8900559920907718,-0.038480720140423974,0.005784407593936287,-0.05273721223213508,-0.538794093305827,-0.324483301616817,0.2585801331432525,-3.0785739559266276,0.6246310171837618,-0.0002770503891657933,0.00047205344058449863,0.00016449970617827409,-0.024430905303666414,0.002722003809282622,-0.00819619540081411,0.0003584019312229176,0.3265730142593384,-1.1503212016871949,1.664098087941305,-2.082799097100729,-1.571369473134176,2.3014724254608154,1.0273335382118773e-29,0.028105204924941063,0.026645371690392494,-0.0461144857108593,-8.407790785948902e-45,-0.00036990296212024987,0.2106897532939911,0.05746084079146385,-9.27034854888916,0.6926589012145996,47.66718673706055,-0.3749772310256958,-3.374208927154541,-1.6510484218597412,-0.8153454661369324,0.051047854125499725,-0.20654520392417908,24.0625,24.6875,23.8125,25.625,25.875,26.25
1.0,-0.6272132085651524,-0.3216707904204669,-0.8900559920907718,-0.038480720140423974,0.005784407593936287,-0.05273721223213508,-0.538794093305827,-0.324483301616817,0.2585801331432525,-3.0785739559266276,0.6246310171837618,-0.0002770503891657933,0.00047205344058449863,0.00016449970617827409,-0.024430905303666414,0.002722003809282622,-0.00819619540081411,0.0003584019312229176,0.3265730142593384,-1.1503212016871949,1.664098087941305,-2.082799097100729,-1.571369473134176,2.3014724254608154,1.0273335382118773e-29,0.028105204924941063,0.026645371690392494,-0.0461144857108593,-8.407790785948902e-45,-0.00036990296212024987,0.2106897532939911,0.05746084079146385,-9.27034854888916,0.6926589012145996,47.66718673706055,-0.3749772310256958,-3.374208927154541,-1.6510484218597412,-0.8153454661369324,0.051047854125499725,-0.20654520392417908,24.0625,24.6875,23.8125,25.625,25.875,26.25
1.0,-1.1152665439776337,-0.6771799818509514,-0.9100565688851906,-0.03410822263997759,-0.0010581468885116716,-0.04764972301915467,-0.5387967265572022,-0.32447386912962073,0.2585072193434619,-3.0785151674843863,0.6246956675521858,-0.0003237221325216896,0.0002253330335234378,8.058498466137552e-05,-0.02561573384975941,0.002665964475918524,-0.008046911029937417,0.0003396069963368248,0.32656097412109375,-1.1502366823009034,1.6641700903521937,-2.082907339135641,-1.5713933149920862,2.3015081882476807,1.3782992173349096e-31,0.03001118265092373,0.027290182188153267,-0.04882465675473213,-0.0,-0.00035184549051336944,0.07661445438861847,0.15322890877723694,-9.174580574035645,0.7508436441421509,47.70121383666992,-0.4333392381668091,-3.3668432235717773,-1.7149295806884766,-0.8259248733520508,0.0919945240020752,-0.2031266689300537,24.0625,24.6875,23.8125,25.625,25.875,26.25
1.0,-1.1152665439776337,-0.6771799818509514,-0.9100565688851906,-0.03410822263997759,-0.0010581468885116716,-0.04764972301915467,-0.5387967265572022,-0.32447386912962073,0.2585072193434619,-3.0785151674843863,0.6246956675521858,-0.0003237221325216896,0.0002253330335234378,8.058498466137552e-05,-0.02561573384975941,0.002665964475918524,-0.008046911029937417,0.0003396069963368248,0.32656097412109375,-1.1502366823009034,1.6641700903521937,-2.082907339135641,-1.5713933149920862,2.3015081882476807,1.3782992173349096e-31,0.03001118265092373,0.027290182188153267,-0.04882465675473213,-0.0,-0.00035184549051336944,0.07661445438861847,0.15322890877723694,-9.174580574035645,0.7508436441421509,47.70121383666992,-0.4333392381668091,-3.3668432235717773,-1.7149295806884766,-0.8259248733520508,0.0919945240020752,-0.2031266689300537,24.0625,24.6875,23.8125,25.625,25.875,26.25
1.0,-0.835516332212661,-0.6021163888118334,-0.8292228189475866,-0.04782038565871973,0.015884228058142665,-0.04765795802112805,-0.5388038764102329,-0.3244685606585168,0.25848140984082835,-3.0785098441720478,0.6247530846335687,-0.00030734592677998863,3.47726333506564e-05,1.5610858144400915e-05,-0.025377571072230987,0.002117771221464647,-0.006441112483731694,0.0003176353145434654,0.32654905319213867,-1.1502006512931366,1.6641948858844202,-2.082980295220846,-1.5713933149920862,2.301532745361328,1.849164102135794e-33,0.03000117838382721,0.027103692293167114,-0.050324950367212296,-0.0,-0.00033050827914848924,0.038307227194309235,0.2298433631658554,-9.21288776397705,0.6859408020973206,47.658226013183594,-0.43358057737350464,-3.4525516033172607,-1.6069080829620361,-0.8323377370834351,0.06920193135738373,-0.18868222832679749,24.0625,24.6875,23.8125,25.625,25.875,26.25
1.0,-0.835516332212661,-0.6021163888118334,-0.8292228189475866,-0.04782038565871973,0.015884228058142665,-0.04765795802112805,-0.5388038764102329,-0.3244685606585168,0.25848140984082835,-3.0785098441720478,0.6247530846335687,-0.00030734592677998863,3.47726333506564e-05,1.5610858144400915e-05,-0.025377571072230987,0.002117771221464647,-0.006441112483731694,0.0003176353145434654,0.32654905319213867,-1.1502006512931366,1.6641948858844202,-2.082980295220846,-1.5713933149920862,2.301532745361328,1.849164102135794e-33,0.03000117838382721,0.027103692293167114,-0.050324950367212296,-0.0,-0.00033050827914848924,0.038307227194309235,0.2298433631658554,-9.21288776397705,0.6859408020973206,47.658226013183594,-0.43358057737350464,-3.4525516033172607,-1.6069080829620361,-0.8323377370834351,0.06920193135738373,-0.18868222832679749,24.0625,24.6875,23.8125,25.625,25.875,26.25
