Tylouw/Master_Thesis_Code/training_data/batch_1/big_rod_t0.3/sample_44_session_1.csv
timestamp[s],tcp_force_x[N],tcp_force_y[N],tcp_force_z[N],tcp_force_rx[Nm?],tcp_force_ry[Nm?],tcp_force_rz[Nm?],tcp_pose_x[m],tcp_pose_y[m],tcp_pose_z[m],tcp_pose_rx[rot_vec_x],tcp_pose_ry[rot_vec_y],tcp_pose_rz[rot_vec_z],tcp_velo_x[m/s],tcp_velo_y[m/s],tcp_velo_z[m/s],tcp_velo_rx[rot_vec_x/s],tcp_velo_ry[rot_vec_y/s],tcp_velo_rz[rot_vec_z/s],q1[rad],q2[rad],q3[rad],q4[rad],q5[rad],q6[rad],qd1[rad/s],qd2[rad/s],qd3[rad/s],qd4[rad/s],qd5[rad/s],qd6[rad/s],tool_acc_x,tool_acc_y,tool_acc_z,current_of_whole_robot[A],voltage_of_whole_robot[V],current_J1[A],current_J2[A],current_J3[A],current_J4[A],current_J5[A],current_J6[A],temp_J1[C],temp_J2[C],temp_J3[C],temp_J4[C],temp_J5[C],temp_J6[C]
1.0440126e-06,-0.74388075,-0.9353197,-0.41175297,-0.028734013,0.014529762,-0.0032451337,-0.37290877,-0.3282127,0.059946917,-3.078504,0.6248706,-0.00023693709,0.0029191088,0.0014047145,-0.0042064344,0.0042956593,-0.009276075,-9.9431374e-05,0.44811413,-1.470861,2.0095732,-2.1077268,-1.5706614,2.4230313,-9.673675e-05,0.004393185,0.004528658,0.0012989695,0.00016002929,-0.0,0.11492168,0.22984336,-8.848969,0.8179876,47.73614,-0.19526604,-2.9564624,-2.5456505,-0.47602642,0.10902627,-0.01586787,27.6875,28.875,27.9375,31.5625,33.5625,34.375
0.002054453,-0.7569995,-1.0284734,-0.5392666,-0.014087146,0.004346854,0.0070334487,-0.37287343,-0.3282084,0.05992981,-3.0784745,0.62484515,-0.00030714067,-0.00013113195,-7.013625e-05,-0.0029611003,-0.00021932519,7.196915e-05,-9.432339e-05,0.4481382,-1.470873,2.009621,-2.1077063,-1.5706614,2.4230433,-9.47009e-05,0.0041570733,0.004166141,-0.008483683,0.00015606504,-0.0,0.05746084,0.2681506,-8.848969,0.7016076,47.739727,-0.21633703,-2.8012166,-2.4496832,-0.47362533,0.09877757,-0.016438156,27.6875,28.875,27.9375,31.5625,33.5625,34.375
0.004054342,-0.38258258,-0.2974917,-0.5547614,-0.0124238385,0.011797796,0.0017629716,-0.3729039,-0.32821652,0.059923116,-3.078457,0.6248994,-0.0002262942,-0.001080119,-0.00052881794,-0.0024120295,-0.0015684477,0.00287183,-9.1396236e-05,0.44815025,-1.4708133,2.0095847,-2.1077669,-1.5706977,2.4230914,-9.274917e-05,0.0039402824,0.0036981418,-0.010906837,0.0001522922,-0.0,0.019153614,0.21068975,-8.925584,0.800085,47.780922,-0.175119,-3.0162542,-2.5492885,-0.37486532,0.13068004,-0.011479204,27.6875,28.875,27.9375,31.5625,33.5625,34.375
0.006053842,-0.5223985,-0.16235846,-0.5234186,0.0044861417,-0.011494339,-0.0008712939,-0.37288183,-0.32822528,0.059923083,-3.0785074,0.62475514,-0.0002776102,-0.00042945013,-0.00021361426,-0.0017693053,-0.000566547,0.0008144661,-9.0296606e-05,0.4481623,-1.4708375,2.009608,-2.1077526,-1.5706614,2.423007,-9.087629e-05,0.0028232373,0.0023689978,-0.0061723054,0.00014869758,-0.0,0.038307227,0.19153613,-8.887277,0.71951014,47.751366,-0.19497177,-2.9822633,-2.4858878,-0.38628194,0.10167566,0.0033820611,27.6875,28.875,27.9375,31.5625,33.5625,34.375
0.008053894,-0.19074313,0.06574242,-1.1940681,0.035134062,-0.026037494,0.012204967,-0.3728691,-0.32821038,0.059898354,-3.0784342,0.6247983,-0.0003449627,9.197644e-05,3.5299025e-05,-0.0014434422,0.00023767115,-0.0008605803,-8.910543e-05,0.4481623,-1.4708018,2.00962,-2.1077278,-1.5706857,2.4230433,-8.907715e-05,0.0021985588,0.0015543521,-0.0028748962,0.0001554701,-0.0,0.0,0.076614454,-9.021352,0.7284641,47.758533,-0.20917875,-2.9655795,-2.4231696,-0.4249756,0.10934971,-0.016337879,27.6875,28.875,27.9375,31.5625,33.5625,34.375
0.010053525,0.17026281,0.737239,-1.3214601,0.027003827,-0.010993668,-0.004202321,-0.37287936,-0.32820463,0.05990538,-3.0784242,0.62487364,-0.00030341995,0.00021736123,9.900184e-05,-0.0011438626,0.00044315238,-0.0012971521,-9.9050296e-05,0.44815025,-1.4708141,2.00962,-2.1077397,-1.5706977,2.4230795,-9.884333e-05,0.0017675669,0.0010066633,-0.0014137379,0.00016159052,-0.0,-0.05746084,0.076614454,-9.308657,0.6322331,47.7254,-0.66192335,-2.4037294,-2.9957218,-0.4691319,0.10801163,-0.059769794,27.6875,28.875,27.9375,31.5625,33.5625,34.375
0.012053547,-0.5926383,-0.57087463,-1.666692,0.011192298,-0.003368984,0.0029268784,-0.37286353,-0.32820788,0.059882984,-3.078444,0.62482005,-0.00041077528,0.00018762054,0.0003039763,-0.004213422,0.0034652478,-0.007580969,-0.0005134019,0.4481381,-1.4707874,2.009642,-2.1077392,-1.5706495,2.4230313,-0.00051532546,0.009719864,-0.00088480953,-0.00050179,0.0001586573,-0.0,0.076614454,-0.019153614,-9.423578,0.8157518,47.71017,-0.8242532,-2.4717863,-3.0939112,-0.47974154,0.097040966,-0.12781788,27.6875,28.875,27.9375,31.5625,33.5625,34.375
0.014053563,-1.3028623,-1.3369066,-1.845665,-0.016743368,0.014761836,0.004904586,-0.37286517,-0.32819363,0.05987665,-3.0783854,0.62481403,-0.00043777484,-0.0056060045,0.0031236722,-0.0039789653,0.003105482,-0.0068530655,-0.011087149,0.44813436,-1.4707615,2.009617,-2.107691,-1.5706857,2.4230313,-0.011093416,0.014683275,-0.0069265957,-0.00023532417,0.00015527653,-0.0,0.05746084,0.0,-9.595961,0.70608455,47.698532,-0.48988345,-2.8623981,-2.99351,-0.47426766,0.10055729,-0.17491367,27.6875,28.875,27.9375,31.5625,33.5625,34.375
0.01605504,-1.4517238,-1.4421304,-1.8741453,-0.048086796,0.043975946,-0.0032736561,-0.37287357,-0.3281742,0.059840925,-3.0783203,0.62483543,-0.0005303272,-0.0060546184,0.0032673927,-0.0038926806,0.0030708571,-0.0067857965,-0.0045997286,0.44809815,-1.4706776,2.0096042,-2.1076791,-1.5706977,2.4230168,-0.01177001,0.015084068,-0.0076118615,-2.7847764e-05,0.00015200116,-0.007163609,-0.24899697,0.22984336,-9.653421,0.7217513,47.67793,-0.34798187,-2.79304,-3.0215297,-0.4740573,0.10434474,-0.13666867,27.6875,28.875,27.9375,31.5625,33.5625,34.375
0.018053932,-2.2854033,-1.9088696,-1.7873206,-0.06233589,0.07007306,-0.011382409,-0.37288862,-0.32818204,0.05986459,-3.078377,0.6248832,-0.0004898466,-0.0051078657,0.0030242796,-0.004196195,0.0034027314,-0.007466195,-0.0002312359,0.44807467,-1.4707137,2.0095923,-2.107691,-1.5706614,2.4230158,-0.010448147,0.014662967,-0.00645998,-1.81826e-06,0.00014885858,-0.01021099,-0.53630114,0.22984336,-9.749189,0.7463667,47.72808,-0.5815892,-2.5318081,-3.334268,-0.4668021,0.10850756,-0.13251433,27.6875,28.875,27.9375,31.5625,33.5625,34.375
0.020053972,-2.2005367,-1.4466639,-1.7279065,-0.06677091,0.106348194,-0.019640915,-0.37285754,-0.3281772,0.059812337,-3.078305,0.6247724,-0.0006178542,-0.0058593173,0.0030681451,-0.004516821,0.0036376943,-0.007956937,-0.0012072076,0.4481103,-1.4706291,2.0096166,-2.1076791,-1.5706857,2.4229915,-0.011214838,0.016651798,-0.00790663,-1.18719385e-07,0.00014584327,-0.010000538,-0.61291564,0.28730422,-9.768343,0.7239871,47.694946,-0.7398714,-2.493216,-3.5650158,-0.46598727,0.0958533,-0.15834782,27.6875,28.875,27.9375,31.5625,33.5625,34.375
0.02205362,-2.4743414,-1.3207518,-1.6282629,-0.037382822,0.10277533,-0.027394101,-0.37287915,-0.32817686,0.059821405,-3.0783277,0.6247978,-0.0006250729,-0.008338821,0.0032441723,-0.0034800025,0.0025421414,-0.005717935,-0.0036503738,0.4480735,-1.4706166,2.0095794,-2.1076672,-1.5706614,2.4229677,-0.013809133,0.017833717,-0.011581077,-7.751527e-09,0.00015516956,-0.010149288,-0.61291564,0.2681506,-9.768343,0.7642693,47.68599,-0.76322156,-2.4550998,-3.463266,-0.4745065,0.10448855,-0.20325148,27.6875,28.875,27.9375,31.5625,33.5625,34.375
0.024054233,-1.8386701,-0.54668576,-1.7060807,-0.022934841,0.0931075,-0.044171717,-0.37291217,-0.3281864,0.059835788,-3.0783615,0.6248814,-0.00061498553,-0.009682221,0.0032045944,-0.0034879702,0.0024358167,-0.005543029,-0.0032558204,0.44803712,-1.4705919,2.0095193,-2.1076672,-1.5706257,2.422979,-0.014967052,0.020116204,-0.014067147,-5.0611937e-10,0.0001691876,-0.011699927,-0.6895301,0.24899697,-9.825804,0.7284641,47.69763,-0.8403536,-2.5072768,-3.339067,-0.4746343,0.10836534,-0.21714067,27.6875,28.875,27.9375,31.5625,33.5625,34.375
0.02605374,-1.6940638,-0.7493468,-1.6658614,-0.010341325,0.077669084,-0.056536406,-0.3729268,-0.32815468,0.059801593,-3.0782917,0.62486607,-0.00067039364,-0.010687433,0.0037771936,-0.0032511537,0.002179134,-0.0050400672,-0.0024357869,0.4479884,-1.47052,2.0095189,-2.1076672,-1.5706614,2.4229298,-0.016964313,0.02033706,-0.014853399,-3.3045976e-11,0.0001780421,-0.014516748,-0.7661445,0.2681506,-9.730036,0.7709874,47.73077,-0.73559636,-2.4213216,-3.4429085,-0.47800606,0.096316546,-0.21586648,27.6875,28.875,27.9375,31.5625,33.5625,34.375
0.028053619,-1.9476217,-0.7640452,-1.6377101,-0.026179666,0.06392499,-0.06385079,-0.3729324,-0.32815957,0.059792887,-3.0783072,0.6248875,-0.0006922483,-0.011720267,0.0036257405,-0.0020999233,0.0010556524,-0.002759595,-0.001168699,0.44797626,-1.4704964,2.0095184,-2.107691,-1.5706376,2.422929,-0.01763186,0.019321717,-0.016380116,-2.1576662e-12,0.00019833822,-0.016450671,-0.7278373,0.19153613,-9.672575,0.76874626,47.71554,-0.7482728,-2.3813767,-3.4429889,-0.48417777,0.09688726,-0.20025387,27.6875,28.875,27.9375,31.5625,33.5625,34.375
0.030054303,-1.8856539,-0.8117057,-1.498618,-0.034136675,0.07953233,-0.08226064,-0.37298203,-0.32816648,0.0598221,-3.0783372,0.62487483,-0.0006057467,-0.012683232,0.0033339062,-0.0021031138,0.0009726868,-0.0025903962,-0.00081785413,0.44795218,-1.4704717,2.0094216,-2.1076791,-1.5706495,2.4228933,-0.017956669,0.021335294,-0.018582413,-1.4088019e-13,0.0001956857,-0.017124664,-0.6703765,0.15322891,-9.730036,0.7329411,47.70838,-0.82994914,-2.41066,-3.4187102,-0.4561526,0.1090571,-0.19892955,27.6875,28.875,27.9375,31.5625,33.5625,34.375
0.03205396,-2.0686471,-0.87574524,-1.4813927,-0.0261349,0.08554285,-0.091237135,-0.3730135,-0.32815582,0.059810538,-3.0783267,0.62489265,-0.00062019646,-0.013865345,0.0036147176,-0.00221754,0.0010105363,-0.0026649316,-0.002737774,0.44790345,-1.4704112,2.0093844,-2.107691,-1.5706495,2.422857,-0.01955589,0.023164334,-0.0203278,-9.19847e-15,0.00019001313,-0.016802618,-0.6512228,0.095768064,-9.672575,0.7530795,47.71554,-0.8217894,-2.3857057,-3.3359213,-0.46281445,0.096803054,-0.20803802,27.6875,28.875,27.9375,31.5625,33.5625,34.375
0.03405399,-2.1316006,-0.82211435,-1.480521,0.002913711,0.07927287,-0.101891354,-0.37304848,-0.32815352,0.059808277,-3.0783272,0.624893,-0.00061955274,-0.015151008,0.0034962054,-0.0015508196,0.0003234125,-0.001233861,-0.0028863084,0.44786724,-1.4703512,2.0093238,-2.107691,-1.5706495,2.422821,-0.020497164,0.023754427,-0.022505466,-6.005943e-16,0.0001844636,-0.017593948,-0.51714754,-0.05746084,-9.557653,0.6926589,47.70032,-0.7927327,-2.3574214,-3.376523,-0.4687879,0.10870811,-0.1964185,27.6875,28.875,27.9375,31.5625,33.5625,34.375
0.03605337,-1.9984317,-0.3636885,-1.3836341,0.02434299,0.062392924,-0.12054992,-0.37307516,-0.32815355,0.059790477,-3.0783098,0.62490827,-0.0006490539,-0.01630294,0.0033223245,-0.0008497489,-0.00040864502,0.00023856905,-0.0026536302,0.44784304,-1.4702672,2.0092752,-2.107703,-1.5706495,2.4228086,-0.021228056,0.024112243,-0.0245077,-3.9214515e-17,0.00020144027,-0.018556304,-0.34476504,-0.095768064,-9.500193,0.7933669,47.682407,-0.840741,-2.3498425,-3.3590026,-0.46093875,0.09792474,-0.2008728,27.6875,28.875,27.9375,31.5625,33.5625,34.375
0.03805393,-1.0921531,0.16816056,-1.497251,0.024496766,0.045642056,-0.13319536,-0.37309474,-0.32813075,0.059775364,-3.0782697,0.62495893,-0.00070967665,-0.017726565,0.003589385,1.1641703e-05,-0.0012569214,0.0019983894,-0.0034264333,0.44778228,-1.4702193,2.0092518,-2.1076791,-1.5706495,2.4227846,-0.023021292,0.023876814,-0.026225992,-2.5604274e-18,0.0001989329,-0.01957575,-0.28730422,-0.095768064,-9.461885,0.7463667,47.68599,-0.76088196,-2.3080108,-3.327806,-0.44684464,0.12038472,-0.20754829,27.6875,28.875,27.9375,31.5625,33.5625,34.375
0.040053714,-0.58439124,-0.3700156,-1.3723627,0.043681763,0.019819798,-0.15211228,-0.3731563,-0.32811353,0.05978141,-3.0782862,0.6250388,-0.00067497115,-0.018825166,0.0038522903,9.4269366e-05,-0.0015123709,0.0022154122,-0.0036164538,0.44768584,-1.470171,2.0091903,-2.107703,-1.5706376,2.422736,-0.024600903,0.02506943,-0.027725227,-1.6717761e-19,0.0003321465,-0.020964528,-0.24899697,-0.1340753,-9.519346,0.7866488,47.67166,-0.74440014,-2.308064,-3.2947407,-0.4603315,0.09461808,-0.21073067,27.6875,28.875,27.9375,31.5625,33.5625,34.375
0.04205316,-0.004042819,-0.111837186,-1.4471407,0.025185797,0.014181055,-0.16461965,-0.37319925,-0.3281191,0.05979515,-3.0782967,0.6250023,-0.0006071286,-0.020002756,0.003941107,0.00034032945,-0.0018957851,0.002782943,-0.0034183222,0.44767335,-1.4701227,2.009106,-2.107703,-1.5706614,2.4226995,-0.025901718,0.026233178,-0.029567622,-1.0915503e-20,0.00042809593,-0.022462374,-0.095768064,-0.1340753,-9.519346,0.7911258,47.72719,-0.77818906,-2.3003626,-3.3518455,-0.4387968,0.100231156,-0.19328934,27.6875,28.875,27.9375,31.5625,33.5625,34.375
0.044053864,-1.2084194,-0.8258169,-1.559363,0.014288637,-0.019148046,-0.17302363,-0.37326297,-0.32809198,0.05980927,-3.0782673,0.6251115,-0.00052780646,-0.021074425,0.004089092,0.00034293806,-0.001939995,0.0029356335,-0.0032358223,0.447589,-1.4700862,2.0090334,-2.107703,-1.5706977,2.422687,-0.027130235,0.02778321,-0.031275373,-7.127044e-22,0.00039853746,-0.023872046,-0.095768064,-0.11492168,-9.557653,0.8291774,47.734352,-0.77248424,-2.3026667,-3.331102,-0.43968582,0.10390894,-0.19265696,27.6875,28.875,27.9375,31.5625,33.5625,34.375
0.046053555,-0.19158942,-0.6706362,-1.3075657,-0.019872433,0.020919176,-0.17841923,-0.37326702,-0.32808304,0.059765816,-3.078238,0.6249903,-0.0006065429,-0.022063639,0.0043329024,0.0005062142,-0.002115642,0.0033625653,-0.0029346247,0.4475765,-1.46999,2.009033,-2.1077268,-1.5707096,2.4226027,-0.028466258,0.02864511,-0.032598667,-4.65345e-23,0.00036659054,-0.025508305,-0.076614454,0.076614454,-9.500193,0.779936,47.709274,-0.72929513,-2.2996259,-3.3354168,-0.41988316,0.11567557,-0.19542712,27.6875,28.875,27.9375,31.5625,33.5625,34.375
0.048053306,-0.89339244,-1.5536921,-1.4037015,-0.012830338,0.016701302,-0.16961148,-0.37331766,-0.32810125,0.059793357,-3.0783079,0.62508136,-0.0006148445,-0.023065235,0.0046265335,0.00079572876,-0.0024019156,0.004017531,-0.0023856766,0.44751593,-1.4699539,2.0089247,-2.107703,-1.5706376,2.42259,-0.029905017,0.029137773,-0.033803973,-3.0383704e-24,0.00033898614,-0.027495138,0.0,0.1340753,-9.5385,0.784413,47.701214,-0.7168254,-2.2165473,-3.3258164,-0.4090566,0.11614211,-0.17461061,27.6875,28.875,27.9375,31.5625,33.5625,34.375
0.05005413,-0.9043636,-1.6875774,-1.7829261,-0.011727778,0.01608601,-0.13394208,-0.37337124,-0.32808435,0.05981186,-3.0783162,0.6251015,-0.0005591149,-0.023930259,0.0049725063,0.00094710506,-0.0025552567,0.00438792,-0.001888677,0.44744354,-1.4699298,2.0088532,-2.107691,-1.5706495,2.4225292,-0.031320747,0.029683156,-0.03475011,-1.9838386e-25,0.00031522714,-0.029407155,0.019153614,0.15322891,-9.519346,0.75755644,47.728977,-0.6719719,-2.1577296,-3.3551974,-0.4020167,0.114213265,-0.15776424,27.6875,28.875,27.9375,31.5625,33.5625,34.375
0.052053846,-0.8766399,-1.7642871,-1.7485918,-0.015160159,0.010339477,-0.137735,-0.37340268,-0.32806954,0.05978688,-3.0782788,0.62509304,-0.000607899,-0.024971414,0.0049735014,0.0014130855,-0.0030275986,0.0054065166,-0.0008772287,0.44739515,-1.4698337,2.008805,-2.107691,-1.5706614,2.4224803,-0.032251652,0.03021183,-0.03640203,-1.295305e-26,0.0002945782,-0.031348415,0.038307227,0.24899697,-9.634268,0.69937176,47.685097,-0.6830802,-2.1598852,-3.4818468,-0.40030456,0.12935182,-0.15080836,27.6875,28.875,27.9375,31.5625,33.5625,34.375
0.05405351,-0.50837946,-1.5747457,-1.6764537,-0.023434907,0.0092739,-0.1511387,-0.373467,-0.32805577,0.05979905,-3.0782971,0.6250764,-0.00057780073,-0.02575234,0.005104361,0.0016620625,-0.003048418,0.0054880255,0.0002136033,0.44731078,-1.4697735,2.0087082,-2.1076787,-1.5706614,2.4223833,-0.033188857,0.03099664,-0.038003404,0.00073385594,0.00027647006,-0.033375543,-0.019153614,0.28730422,-9.615114,0.7553206,47.728977,-0.68313754,-2.0559628,-3.4551039,-0.3871656,0.12723894,-0.13000067,27.6875,28.875,27.9375,31.5625,33.5625,34.375
0.05605423,-0.5483621,-1.8720671,-1.8942765,-0.022989927,0.00949416,-0.14350143,-0.37353185,-0.3280527,0.05980718,-3.0783017,0.6251731,-0.00046613283,-0.026143406,0.0052915723,0.0013095452,-0.0025295946,0.0044464893,0.00073182,0.44726261,-1.4697133,2.0086372,-2.1077387,-1.5706857,2.422395,-0.03388058,0.032553807,-0.03905606,0.0013918754,0.0002604611,-0.03458475,-0.019153614,0.30645782,-9.595961,0.6948948,47.728977,-0.6921442,-2.089854,-3.4158645,-0.39961725,0.12677377,-0.12228872,27.6875,28.875,27.9375,31.5625,33.5625,34.375
0.058054134,-0.3156322,-1.6568192,-1.9532356,-0.039869968,0.026976766,-0.14922193,-0.3735689,-0.32804102,0.059809215,-3.0783145,0.62509906,-0.0005342626,-0.026982538,0.005160363,0.0016831226,-0.002957902,0.0053065815,0.0008223951,0.4471905,-1.4696532,2.0085528,-2.1076787,-1.5706614,2.422275,-0.03439804,0.03314852,-0.040554717,0.001335826,0.00027020747,-0.03519181,-0.076614454,0.34476504,-9.615114,0.7396539,47.71017,-0.6848593,-2.0046177,-3.5034118,-0.39658046,0.11734992,-0.11627811,27.6875,28.875,27.9375,31.5625,33.5625,34.375
0.060054593,-1.0840163,-1.714673,-1.7870055,-0.04409499,0.027478326,-0.13873973,-0.3736266,-0.32802394,0.059810344,-3.0783114,0.6251169,-0.00053386623,-0.028274963,0.0053558773,0.0017051233,-0.0031084272,0.005589463,0.0017156764,0.44710594,-1.4695808,2.008468,-2.1076667,-1.5706614,2.422202,-0.03593886,0.03488073,-0.04248015,0.0012085167,0.00027846528,-0.037624467,-0.17238252,0.30645782,-9.634268,0.7463667,47.70211,-0.75861776,-2.0212107,-3.4905446,-0.39273766,0.1401946,-0.0741529,27.6875,28.875,27.9375,31.5625,33.5625,34.375
0.062053464,-1.319952,-1.8935089,-1.7367067,-0.037188698,0.04217107,-0.1395141,-0.37369403,-0.32801604,0.059822112,-3.0783317,0.6251404,-0.0005142983,-0.029193403,0.0053213607,0.0019132295,-0.0033795515,0.0061014188,0.0023950397,0.4470218,-1.4695083,2.0083587,-2.1076548,-1.5706495,2.42213,-0.036714233,0.035911452,-0.04409168,0.0012106778,0.0002989428,-0.039078116,-0.17238252,0.34476504,-9.634268,0.74413085,47.705692,-0.74712527,-1.9795763,-3.4892268,-0.35952604,0.12877539,-0.06112186,27.6875,28.875,27.9375,31.5625,33.5625,34.375
0.06405406,-0.97417986,-1.1416748,-1.5099356,-0.032112252,0.056459986,-0.1384397,-0.37374812,-0.3280038,0.059819724,-3.0783343,0.62516135,-0.0005009861,-0.030100642,0.0050952793,0.002395173,-0.0038661202,0.007034813,0.00039155083,0.44694966,-1.4694362,2.0082877,-2.1076667,-1.5706495,2.4220707,-0.037129067,0.036567234,-0.045954693,0.0013660381,0.00033241796,-0.037488356,-0.21068975,0.24899697,-9.615114,0.7709874,47.729877,-0.7951535,-1.967243,-3.504321,-0.36040008,0.1375593,-0.07981695,27.6875,28.875,27.9375,31.5625,33.5625,34.375
0.066053115,-1.395874,-1.4962087,-1.6052684,-0.010507587,0.04243261,-0.13562131,-0.37379712,-0.32799968,0.059810415,-3.0783439,0.6251257,-0.00052793033,-0.030722776,0.005198084,0.0023013882,-0.0036188145,0.0062884353,-0.0011005655,0.44688934,-1.46934,2.0082033,-2.1076663,-1.5706376,2.421987,-0.037948556,0.038060065,-0.047593907,0.0022925874,0.00043095148,-0.03681499,-0.26815057,0.22984336,-9.519346,0.80456203,47.73077,-0.7407069,-1.9184456,-3.4586096,-0.36519784,0.15420666,-0.088502936,27.6875,28.875,27.9375,31.5625,33.5625,34.375
0.06805384,-1.2834578,-0.8422926,-1.4180055,-0.0043990933,0.043755054,-0.14370649,-0.37388235,-0.3280067,0.059861556,-3.0784006,0.625117,-0.0003560748,-0.031090768,0.00516453,0.0016348698,-0.003791011,0.0040634447,-0.00025106713,0.44684106,-1.4693152,2.0080588,-2.1076663,-1.570661,2.4219263,-0.03897026,0.040559396,-0.04900099,0.0031273158,0.0015506304,-0.038687244,-0.28730422,0.17238252,-9.500193,0.784413,47.737934,-0.8195468,-1.9673479,-3.4904966,-0.3700991,0.13197893,-0.08759898,27.6875,28.875,27.9375,31.5625,33.5625,34.375
0.07005363,-1.408674,-0.88033956,-1.4975902,-0.002639722,0.035419136,-0.13454482,-0.3739477,-0.3279979,0.059851892,-3.078421,0.6251403,-0.00033751593,-0.031988643,0.004381346,0.0021106082,-0.005813825,0.0046633775,-0.00014652172,0.44675684,-1.469219,2.0079863,-2.1077144,-1.5706486,2.421854,-0.03936102,0.041534387,-0.051098738,0.0028300043,0.0031118053,-0.039183903,-0.34476504,0.1340753,-9.500193,0.75755644,47.7451,-0.80300426,-1.9795251,-3.4365296,-0.3567171,0.10604896,-0.07161091,27.6875,28.875,27.9375,31.5625,33.5625,34.375
0.07205434,-1.3008476,-0.7715755,-1.3190194,-4.736751e-05,0.039499093,-0.13943312,-0.37400666,-0.32799426,0.0598575,-3.078439,0.6251238,-0.00040183583,-0.033486273,0.004435323,0.002282175,-0.0063850735,0.005302013,6.3831045e-05,0.44667232,-1.4691225,2.0078537,-2.1076543,-1.5706128,2.421757,-0.040969994,0.04329918,-0.05335979,0.0025041702,0.003344497,-0.041002024,-0.2681506,0.05746084,-9.481039,0.73069996,47.705692,-0.84715724,-1.9817493,-3.441896,-0.33604982,0.098165214,-0.075716585,27.6875,28.875,27.9375,31.5625,33.5625,34.375
0.074053794,-1.1031812,-0.82772315,-1.2601235,-0.0007041431,0.050180692,-0.14117698,-0.37408212,-0.32797918,0.059871953,-3.0784674,0.6251313,-0.00034160021,-0.034712385,0.0049311654,0.0021979199,-0.006364814,0.005412068,-0.002018317,0.44657555,-1.4690621,2.007757,-2.1076663,-1.5706128,2.4216614,-0.04295859,0.044754237,-0.0547261,0.0023255004,0.0032781297,-0.040907096,-0.3256114,0.038307227,-9.3661175,0.7150385,47.694054,-0.74811506,-1.9799619,-3.4506445,-0.3187157,0.099026114,-0.07824671,27.6875,28.875,27.9375,31.5625,33.5625,34.375
0.07605423,-1.6733197,-1.0386289,-1.1673459,0.005638279,0.037044376,-0.13047124,-0.3741479,-0.32798132,0.059866767,-3.0784824,0.62515545,-0.00036512455,-0.0353402,0.004848757,0.0025775963,-0.0066107744,0.005710983,-0.0043300497,0.44650346,-1.4689423,2.0076373,-2.1076663,-1.5705885,2.4216025,-0.043426238,0.045228936,-0.05628503,0.0030349744,0.0033703924,-0.039062392,-0.38307226,0.038307227,-9.3661175,0.7597976,47.716442,-0.78447425,-1.9378105,-3.466671,-0.3241381,0.09915635,-0.09910318,27.6875,28.875,27.9375,31.5625,33.5625,34.375
0.07805408,-1.5996572,-0.9884588,-1.1210161,0.008831677,0.042219203,-0.13379268,-0.37418982,-0.32795486,0.05984882,-3.0784214,0.6251793,-0.00041769526,-0.03600012,0.003745381,0.0029416555,-0.0074613653,0.0050886986,-0.0023819623,0.44643188,-1.4688456,2.0075638,-2.1076295,-1.5706123,2.4215536,-0.04264284,0.047482822,-0.05997079,0.0046563833,0.004399915,-0.040227145,-0.36391866,-0.076614454,-9.3661175,0.78217715,47.744205,-0.9397323,-1.8795266,-3.3380866,-0.3367669,0.08030383,-0.12671646,27.6875,28.875,27.9375,31.5625,33.5625,34.375
0.08005377,-1.5771495,-0.956722,-1.2781428,0.012616751,0.03920832,-0.1307801,-0.3742854,-0.32796657,0.059876338,-3.078494,0.62511915,-0.0003277763,-0.03567613,0.004736421,0.0011483318,-0.0065978537,0.00049055956,-0.0041761217,0.44635886,-1.4687487,2.007397,-2.107641,-1.5705999,2.421434,-0.045022234,0.050226223,-0.05907894,0.0055379523,0.0056134993,-0.04081457,-0.28730422,0.076614454,-9.251195,0.80679786,47.739727,-0.8623878,-2.1034446,-3.4517798,-0.34200418,0.0684374,-0.122448266,27.6875,28.875,27.9375,31.5625,33.5625,34.375
0.08205421,-1.3451664,-0.57277167,-1.28699,-0.0005946468,0.028013865,-0.14220928,-0.37436152,-0.32794386,0.059890572,-3.0785315,0.62524253,-0.00032749464,-0.03712277,0.0044793165,0.002856909,-0.00928283,0.0033129577,-0.0055233873,0.4462144,-1.4687016,2.0073125,-2.107641,-1.5705513,2.4213617,-0.04664675,0.04843942,-0.061045043,0.0055845673,0.006815418,-0.04109286,-0.21068975,0.095768064,-9.346964,0.800085,47.71554,-0.8319454,-1.7931592,-3.4243798,-0.33391538,0.035647705,-0.12826784,27.6875,28.875,27.9375,31.5625,33.5625,34.375
0.084053986,-0.49883297,-0.6628712,-1.3180828,-0.011570328,0.045261838,-0.14453012,-0.37443575,-0.327943,0.059890207,-3.0785122,0.62522054,-0.00034570997,-0.040035985,0.0043638344,0.0040232576,-0.010599291,0.005891278,-0.0077568493,0.44615355,-1.4685571,2.0071437,-2.1075933,-1.5705632,2.4212897,-0.049100045,0.050411806,-0.0658872,0.005560036,0.0068795397,-0.041309774,-0.2873042,0.095768064,-9.404425,0.7396539,47.675243,-0.7229862,-1.8985077,-3.3594382,-0.32460487,0.02081488,-0.1374142,27.6875,28.875,27.9375,31.5625,33.5625,34.375
0.08605341,-1.5062332,-1.0126944,-1.2139822,-0.007780192,0.025308385,-0.1357837,-0.37451178,-0.3279242,0.05990317,-3.0785444,0.6252644,-0.00032338378,-0.039691858,0.0048521194,0.0028674852,-0.008250483,0.003978122,-0.006949514,0.44603366,-1.4684966,2.0070474,-2.1075933,-1.5705398,2.4211931,-0.048822653,0.052494444,-0.065618664,0.0059545524,0.0055898055,-0.041837163,-0.4405331,0.19153613,-9.308657,0.7709874,47.70032,-0.80016625,-1.8936609,-3.2688055,-0.31624472,0.0145422565,-0.16549997,27.6875,28.875,27.9375,31.5625,33.5625,34.375
0.088053904,-1.1374352,-0.86976844,-1.1470737,-0.008080813,0.05139553,-0.1414748,-0.37457395,-0.32790068,0.059870083,-3.0784862,0.6252714,-0.0003765716,-0.040129274,0.00529746,0.0017344664,-0.005640141,0.0019651733,-0.0065373066,0.44594958,-1.4683394,2.0069506,-2.1075928,-1.5705642,2.421121,-0.049040515,0.056125253,-0.0672325,0.006884353,0.0040994864,-0.042463623,-0.3256114,0.24899697,-9.346964,0.7396539,47.70032,-0.8713013,-2.0101023,-3.419415,-0.33196008,0.030740198,-0.16873288,27.6875,28.875,27.9375,31.5625,33.5625,34.375
0.090053365,-1.379749,-1.0312262,-1.1835448,-0.0036409665,0.057438787,-0.13343592,-0.37467152,-0.3279001,0.059898727,-3.078507,0.625219,-0.0002932352,-0.042688712,0.005791347,0.004099433,-0.0068270797,0.006615033,-0.00842769,0.44587672,-1.4682324,2.006759,-2.1075566,-1.5705885,2.4210129,-0.05163285,0.05409569,-0.07058162,0.007558531,0.0031617049,-0.04316226,-0.28730422,0.2681506,-9.404425,0.7866488,47.699425,-0.8121327,-1.86271,-3.3249068,-0.33902836,0.036272213,-0.18954697,27.6875,28.875,27.9375,31.5625,33.5625,34.375
0.09205416,-1.4137806,-1.0009582,-1.3351654,-0.009384367,0.055827484,-0.13834509,-0.3748026,-0.3279035,0.05993573,-3.0786035,0.625335,-0.00017403583,-0.043441117,0.006327327,0.0033554242,-0.00535046,0.0047674193,-0.008772458,0.44573238,-1.4681356,2.0065787,-2.1076047,-1.5705408,2.4209287,-0.052941374,0.057059005,-0.07240356,0.008725281,0.0026314773,-0.044123527,-0.2681506,0.24899697,-9.308657,0.7553206,47.728977,-0.7637742,-1.7721026,-3.1755085,-0.3469734,0.0420766,-0.21563709,27.6875,28.875,27.9375,31.5625,33.5625,34.375
0.09405399,-1.7805793,-1.6437494,-1.2909302,-0.0039138338,0.041110475,-0.13057502,-0.37487638,-0.3278686,0.059919696,-3.0785675,0.62532824,-0.00025084056,-0.04420891,0.006685555,0.0028114484,-0.004428265,0.0039352058,-0.009262176,0.4456001,-1.4680029,2.0064585,-2.107556,-1.5705408,2.4207969,-0.053972416,0.05935534,-0.07373016,0.008906043,0.0021536602,-0.044663116,-0.30645782,0.22984336,-9.251195,0.75755644,47.72271,-0.85442054,-1.8997424,-3.2583704,-0.3532986,0.044629212,-0.23085523,27.6875,28.875,27.9375,31.5625,33.5625,34.375
0.0960539,-1.5787013,-1.4482689,-1.3200328,-0.024853935,0.042862047,-0.13446812,-0.3749335,-0.32785565,0.05989694,-3.0785248,0.62533695,-0.0003655006,-0.04558789,0.0061212536,0.0033823936,-0.00504634,0.0056390334,-0.0066590537,0.44551602,-1.4678468,2.0063255,-2.107497,-1.5705289,2.4207237,-0.054021552,0.060829986,-0.076569796,0.008468526,0.001966132,-0.04731319,-0.53630114,0.2681506,-9.346964,0.69937176,47.70032,-0.82566524,-1.8511921,-3.1916733,-0.3263223,0.04610017,-0.23225991,27.6875,28.875,27.9375,31.5625,33.5625,34.375
0.098053545,-1.9495898,-1.6505029,-1.3493829,-0.025868924,0.02927736,-0.12804596,-0.37505126,-0.32785466,0.059939343,-3.0785728,0.62542284,-0.00023342935,-0.0455197,0.006778969,0.0022589779,-0.003678044,0.0035037457,-0.0070374208,0.44540778,-1.4677621,2.0061352,-2.107497,-1.5705289,2.420663,-0.05496934,0.06276382,-0.0761663,0.008649008,0.0016582,-0.047881886,-0.4213795,0.30645782,-9.3661175,0.7642693,47.703903,-0.88228047,-2.0078123,-3.189171,-0.35309792,0.05636722,-0.23777917,27.6875,28.875,27.9375,31.5625,33.5625,34.375
0.10005333,-1.3569375,-1.723391,-1.4432971,-0.030202009,0.04182642,-0.13429767,-0.37515762,-0.32783726,0.059945326,-3.0785916,0.62539,-0.00017722284,-0.04573296,0.007013342,0.0016934345,-0.0029017064,0.0024345284,-0.008763989,0.44528747,-1.4676299,2.0059788,-2.1075084,-1.5705413,2.42052,-0.055424154,0.0643545,-0.07667756,0.008869457,0.0014199939,-0.046609208,-0.30645782,0.3256114,-9.481039,0.8314132,47.71286,-0.8460152,-1.9340898,-3.3438244,-0.3534915,0.053823445,-0.28405976,27.6875,28.875,27.9375,31.5625,33.5625,34.375
0.102054015,-1.7043537,-1.4249913,-1.2174299,-0.035351563,0.035211302,-0.13231741,-0.37521303,-0.3278062,0.059919536,-3.078528,0.62545323,-0.00028109326,-0.048403576,0.006337403,0.0031183143,-0.004269989,0.005858117,-0.008040053,0.4451791,-1.4674977,2.0058815,-2.1074607,-1.5705413,2.4204593,-0.056381434,0.06602086,-0.081714444,0.008561899,0.001165361,-0.048286777,-0.21068975,0.3256114,-9.442732,0.72622824,47.694946,-0.99980927,-1.9827728,-3.1320498,-0.3360752,0.042486258,-0.30409935,27.6875,28.875,27.9375,31.5625,33.5625,34.375
0.10405406,-1.5796183,-1.7040861,-1.2868931,-0.010785003,0.031568583,-0.1259188,-0.37534258,-0.3277852,0.059939343,-3.0785367,0.6255892,-0.00020793162,-0.04777478,0.00742817,0.0012214562,-0.0025113567,0.002321763,-0.007643244,0.44502276,-1.4673651,2.0056903,-2.1074607,-1.5705413,2.4203868,-0.0578013,0.06814572,-0.0796597,0.008331651,0.001107776,-0.050104123,-0.15322891,0.22984336,-9.308657,0.8179876,47.73077,-0.9466624,-1.9526718,-3.2355857,-0.34164065,0.06236543,-0.30509606,27.6875,28.875,27.9375,31.5625,33.5625,34.375
0.1060534,-0.8977499,-0.9368745,-1.3307891,-0.014431621,0.026701111,-0.13895816,-0.37542883,-0.32779747,0.059944835,-3.0785754,0.62549937,-0.00023057556,-0.04879908,0.0057115364,0.002229791,-0.0036587536,0.00484536,-0.004017733,0.44495153,-1.4672089,2.0054977,-2.107425,-1.570517,2.4202547,-0.055448268,0.06957774,-0.08346552,0.007935241,0.0010482902,-0.051373925,-0.1340753,0.19153613,-9.346964,0.73069996,47.729877,-1.0979092,-2.0241117,-3.1948833,-0.3229003,0.056276336,-0.31547526,27.6875,28.875,27.9375,31.5625,33.5625,34.375
0.108054236,-0.3071244,-1.1561317,-1.1634412,-0.010908097,0.022125388,-0.14080228,-0.37553987,-0.32778424,0.059944086,-3.0785873,0.6255233,-0.00013421434,-0.050029363,0.006189553,0.0020140707,-0.003491798,0.004744659,-0.008040506,0.44484302,-1.4670644,2.0053542,-2.1074846,-1.5705413,2.4201598,-0.057363875,0.07140523,-0.084950045,0.007754366,0.00094128307,-0.049265325,0.0,0.21068975,-9.32781,0.7978386,47.72719,-1.1245435,-2.0065775,-3.1427355,-0.33098567,0.05752098,-0.3773123,27.6875,28.875,27.9375,31.5625,33.5625,34.375
0.110054165,-0.7233393,-1.109769,-1.3508623,-0.012686163,0.001352643,-0.13364446,-0.375649,-0.3277723,0.059968006,-3.0785766,0.62561685,-0.00011787648,-0.05191961,0.0065811593,0.0024403522,-0.0040017865,0.00626508,-0.009581515,0.44472218,-1.4669323,2.0051377,-2.1074135,-1.5705413,2.4200988,-0.05964739,0.07264562,-0.0871579,0.0071307383,0.0007427241,-0.05000584,-0.095768064,0.24899697,-9.289502,0.7911258,47.717335,-1.1208134,-2.0570269,-3.120623,-0.30646658,0.0725856,-0.4137476,27.6875,28.875,27.9375,31.5625,33.5625,34.375
0.11205377,-0.0938478,-0.7206972,-1.3854555,-0.019327438,0.011015005,-0.1476642,-0.37573963,-0.32772624,0.059968766,-3.0785272,0.6256439,-0.00011492174,-0.05219068,0.0063296733,0.0018687004,-0.0034858892,0.0051698787,-0.0068665873,0.44457826,-1.4668238,2.0050056,-2.1073654,-1.570577,2.4199781,-0.059404284,0.0749845,-0.088471316,0.0073140766,0.0007451161,-0.052476604,-0.11492168,0.22984336,-9.32781,0.7642693,47.71465,-1.1386442,-2.04239,-3.10918,-0.30918375,0.048624136,-0.43980983,27.6875,28.875,27.9375,31.5625,33.5625,34.375
0.114053816,-0.82805985,-1.3010632,-1.275443,-0.010459118,0.004208871,-0.13301936,-0.37585858,-0.32773855,0.059964497,-3.0785594,0.62562984,-5.6291785e-05,-0.05286815,0.0063040685,0.0027808945,-0.0039021391,0.006007801,-0.0047037913,0.44449416,-1.4666201,2.004802,-2.1074126,-1.570577,2.4198813,-0.059957135,0.07443971,-0.090306304,0.008758235,0.00076272717,-0.055191692,-0.076614454,0.19153613,-9.308657,0.72622824,47.698532,-1.2054117,-2.0051205,-3.1245186,-0.29997337,0.06704995,-0.4383888,27.6875,28.875,27.9375,31.5625,33.5625,34.375
0.11605392,-0.3859769,-0.85450995,-1.2775538,-0.019690307,0.022897217,-0.13398051,-0.37596175,-0.3277346,0.05998996,-3.0786273,0.62570137,-0.00010727993,-0.053760204,0.006985168,0.0009929464,-0.0022652457,0.002516401,-0.00472644,0.44433728,-1.4665105,2.0046093,-2.1073525,-1.5704931,2.4197605,-0.06203238,0.07961825,-0.09200372,0.009137866,0.00078507327,-0.057242602,-0.05746084,0.2681506,-9.289502,0.7351769,47.694946,-1.1719775,-2.13911,-3.103135,-0.31495997,0.06593035,-0.44750512,27.6875,28.875,27.9375,31.5625,33.5625,34.375
0.11805368,-1.4626905,-1.4077244,-1.3562722,-0.0050778934,0.00858102,-0.13176432,-0.37607783,-0.3277217,0.059988998,-3.078609,0.6256769,-3.0619532e-05,-0.054632448,0.0068739285,0.002550774,-0.0039752093,0.005193423,-0.0021414142,0.44424105,-1.466332,2.0044177,-2.1073644,-1.5705413,2.4196515,-0.06285115,0.07730484,-0.0930972,0.009388534,0.0011783952,-0.060646802,-0.05746084,0.22984336,-9.289502,0.7709874,47.707485,-1.1753895,-1.9188578,-3.1430383,-0.29892987,0.052663736,-0.44869173,27.6875,28.875,27.9375,31.5625,33.5625,34.375
0.12005355,-1.3143795,-1.2667825,-1.409885,-0.018745631,0.021463133,-0.13680713,-0.37620026,-0.32770795,0.060003858,-3.0786364,0.62566054,-1.472543e-05,-0.055233862,0.007247882,0.0016907126,-0.0030480574,0.0031840312,0.00047054753,0.44409677,-1.466175,2.0042026,-2.1073287,-1.5705289,2.4194937,-0.06408812,0.080239095,-0.094531804,0.0101025235,0.0012052543,-0.06449466,-0.095768064,0.2681506,-9.308656,0.76874626,47.687782,-1.1802944,-2.0247805,-3.187358,-0.31541818,0.066242546,-0.42561546,27.6875,28.875,27.9375,31.5625,33.5625,34.375
0.122053854,-1.229287,-1.1261475,-1.1349558,-0.024559362,0.036278524,-0.14194614,-0.37628746,-0.32766378,0.059976973,-3.0785677,0.62568396,-8.252484e-05,-0.05561803,0.008008502,0.0011434434,-0.0028503966,0.0018717158,0.003060846,0.44395193,-1.466007,2.004071,-2.107293,-1.5705532,2.4193723,-0.06609814,0.08116246,-0.0943439,0.010258349,0.0015866762,-0.0690957,-0.15322891,0.15322891,-9.32781,0.7396539,47.67793,-1.1314242,-2.1282377,-3.1981869,-0.3308149,0.05891058,-0.40436363,27.6875,28.875,27.9375,31.5625,33.5625,34.375
0.1240534,-0.9948012,-0.89748913,-1.1445719,-0.017449303,0.045496035,-0.14524566,-0.37641,-0.32768857,0.06000191,-3.078653,0.6256028,-6.8611924e-05,-0.056346852,0.008224964,0.00085046,-0.0026570945,0.0015188202,0.006717124,0.44385573,-1.4658269,2.0038073,-2.1072571,-1.570505,2.4192147,-0.06712017,0.08274216,-0.095398754,0.010138868,0.0015644783,-0.07377303,-0.22984336,0.11492168,-9.346964,0.7597976,47.70032,-1.1869457,-2.032304,-3.2921166,-0.33716947,0.054296143,-0.36869782,27.6875,28.875,27.9375,31.5625,33.5625,34.375
0.12605369,-1.6042007,-1.0626179,-1.2873887,-0.0023042357,0.034081448,-0.13242486,-0.3765191,-0.32765526,0.0599967,-3.0786378,0.62561774,-3.1836327e-05,-0.057288483,0.0084623555,0.00037516223,-0.0023710195,0.0009249087,0.009549551,0.4437113,-1.4656824,2.0036628,-2.1072686,-1.5705289,2.4190817,-0.0683846,0.08505525,-0.09681469,0.009899415,0.0015585857,-0.07786861,-0.095768064,0.076614454,-9.385271,0.76874626,47.660015,-1.1548643,-2.0532348,-3.321107,-0.31184554,0.058071736,-0.33266982,27.6875,28.875,27.9375,31.5625,33.5625,34.375
0.12805343,-1.1338844,-0.26049036,-0.9842729,-0.008201954,0.04246324,-0.14975983,-0.37665102,-0.32764572,0.06001104,-3.0786843,0.62550974,-1.3942867e-05,-0.057766203,0.008876566,1.866983e-05,-0.0022561934,0.00057357573,0.012349887,0.44356698,-1.4655024,2.0034235,-2.1072328,-1.570517,2.4188643,-0.06959445,0.08595199,-0.09689877,0.0094544,0.0016065034,-0.08187854,-0.21068975,0.076614454,-9.32781,0.8112748,47.698532,-1.2258246,-2.1027198,-3.3633823,-0.29970586,0.07499342,-0.2797801,27.6875,28.875,27.9375,31.5625,33.5625,34.375
0.13005382,-1.3665993,-0.33742967,-1.1222814,0.00023269551,0.041630745,-0.13201632,-0.376765,-0.32763824,0.060003027,3.0786862,-0.62547046,3.5377485e-05,-0.060023848,0.00823768,0.0012729935,-0.0034871683,0.0032137854,0.015338704,0.4434345,-1.46531,2.0032299,-2.1072328,-1.5704931,2.4187071,-0.07037634,0.08748635,-0.10151931,0.00962999,0.0015764817,-0.08564632,-0.30645782,0.019153614,-9.3661175,0.7642693,47.698532,-1.1931052,-2.0073771,-3.203844,-0.2966712,0.055284575,-0.22946444,27.6875,28.875,27.9375,31.5625,33.5625,34.375
0.13205363,-1.6999503,-0.15149434,-1.1399393,0.0018207671,0.041185122,-0.1395941,-0.37688667,-0.32760212,0.059994113,-3.0786808,0.6254303,7.287484e-06,-0.059122887,0.009396538,-0.0003303781,-0.0022035034,-0.00023591734,0.015730917,0.4432901,-1.4651301,2.003052,-2.1072328,-1.5705413,2.4185386,-0.07193567,0.088396944,-0.098893486,0.009755372,0.0019028148,-0.08759982,-0.24899697,0.076614454,-9.308656,0.84708,47.689575,-1.241605,-2.0746188,-3.3837402,-0.29977453,0.06725364,-0.18921164,27.6875,28.875,27.9375,31.5625,33.5625,34.375
0.13405395,-1.5528896,-0.6278573,-1.1784462,0.0067591215,0.045058865,-0.13293666,-0.37701207,-0.32759175,0.060016096,3.0786853,-0.62541187,-1.92692e-05,-0.061680775,0.008807568,0.0011265116,-0.0040827063,0.0028552935,0.015158415,0.4431335,-1.464986,2.0028346,-2.107197,-1.5705045,2.41837,-0.073340334,0.089633435,-0.10357042,0.00959968,0.0022681993,-0.08842947,-0.3256114,0.038307227,-9.32781,0.78217715,47.691364,-1.2093073,-1.9821874,-3.307013,-0.29157987,0.061267726,-0.14779288,27.6875,28.875,27.9375,31.5625,33.5625,34.375
0.13605428,-1.6621835,-0.7462914,-1.1392415,-0.003518346,0.044449415,-0.12967643,-0.37712222,-0.32758456,0.060024425,3.0787055,-0.6252636,-6.9950875e-06,-0.061068866,0.009898384,-8.153724e-05,-0.0027634099,-7.4864496e-05,0.013038169,0.44301322,-1.464818,2.0026195,-2.1071494,-1.5704926,2.4181547,-0.07485933,0.09040908,-0.10183213,0.010299697,0.002338043,-0.087829456,-0.4213795,0.05746084,-9.346964,0.8627467,47.701214,-1.3051782,-1.9592786,-3.4831276,-0.29832125,0.05302095,-0.14886668,27.6875,28.875,27.9375,31.5625,33.5625,34.375
0.13805409,-2.1255226,-0.8026619,-1.1584711,-0.010045672,0.037279595,-0.12784682,-0.3772657,-0.32756537,0.060011998,3.0786827,-0.62531894,3.371953e-05,-0.06256505,0.010352172,-0.00044004546,-0.0026065605,-0.00054540095,0.009356047,0.44283232,-1.4645773,2.0023797,-2.1071365,-1.5704683,2.4180114,-0.07705244,0.093099035,-0.10398918,0.010261505,0.0023922354,-0.08633889,-0.4405331,0.019153614,-9.423578,0.79560274,47.694946,-1.2173182,-2.1211476,-3.5035791,-0.30695343,0.051654626,-0.15021908,27.6875,28.875,27.9375,31.5625,33.5625,34.375
0.14005344,-1.5245789,-0.4062031,-1.058928,-0.016390977,0.051550273,-0.14078797,-0.37737674,-0.32752395,0.059992734,3.0787158,-0.6253084,6.4800246e-05,-0.063586794,0.010834596,0.00028898817,-0.0031776382,0.0012863899,0.0048126266,0.4426639,-1.4643981,2.0022237,-2.1071255,-1.5704812,2.4178324,-0.07865742,0.09213232,-0.10451706,0.009856472,0.0021187929,-0.08339989,-0.4213795,-0.019153614,-9.442732,0.8112748,47.682407,-1.2013307,-1.8664426,-3.5018644,-0.2973887,0.05103849,-0.16187523,27.6875,28.875,27.9375,31.5625,33.5625,34.375
0.14205398,-1.249418,-0.03343795,-1.065068,-0.010262627,0.053970713,-0.14261484,-0.37750405,-0.32749933,0.059990384,3.078717,-0.6252929,9.380803e-05,-0.06557946,0.010615382,1.9756691e-05,-0.0029203743,0.0013833006,-0.0014587612,0.4424955,-1.4642049,2.0020077,-2.1070893,-1.5704688,2.4176543,-0.079808034,0.09637942,-0.10856115,0.009678259,0.0018352843,-0.07827566,-0.51714754,0.05746084,-9.3661175,0.7978386,47.70032,-1.1874233,-1.967387,-3.4514713,-0.28836796,0.0714874,-0.21680358,27.6875,28.875,27.9375,31.5625,33.5625,34.375
0.14405358,-1.2394221,-0.18940806,-1.1889476,-0.004109977,0.05515113,-0.13792445,-0.37765795,-0.32748225,0.060024247,3.0786912,-0.62530875,-4.6057165e-05,-0.06637864,0.012418087,0.00019790186,-0.0029257648,0.0014718686,-0.005740506,0.44235027,-1.4640499,2.0017564,-2.1070774,-1.570505,2.4175224,-0.083847366,0.09478513,-0.10727546,0.009902094,0.0018124365,-0.07803416,-0.38307226,0.17238252,-9.3661175,0.8157518,47.74868,-1.1429217,-1.8750875,-3.594464,-0.2722014,0.064783625,-0.25650853,27.6875,28.875,27.9375,31.5625,33.5625,34.375
0.14605337,-1.155459,-0.2651494,-1.2205241,-0.005373692,0.06423183,-0.14446507,-0.37778285,-0.327444,0.059995174,3.0786908,-0.6253669,9.616891e-06,-0.06813253,0.010668451,0.0012132231,-0.004319986,0.0039244806,-0.0060189483,0.44215882,-1.4638332,2.0015867,-2.1070893,-1.5704931,2.4173675,-0.082236074,0.0974598,-0.11251645,0.00965566,0.0020091466,-0.07614125,-0.4405331,0.11492168,-9.404425,0.8112748,47.71554,-1.1309767,-1.9035063,-3.302982,-0.28142345,0.061837617,-0.26387358,27.6875,28.875,27.9375,31.5625,33.5625,34.375
0.14805378,-1.8685124,-0.5839032,-1.3112607,0.0014173804,0.049197186,-0.1380419,-0.3779015,-0.3274213,0.06000233,3.0786767,-0.6254227,3.7463426e-05,-0.06930392,0.011150094,0.0012121424,-0.0047849277,0.003976051,-0.008487716,0.44200197,-1.4636651,2.0013711,-2.1070292,-1.5704807,2.4172473,-0.08441856,0.09856811,-0.11371777,0.009503055,0.0024043221,-0.07585469,-0.45968673,0.095768064,-9.481039,0.8247004,47.696735,-1.1536208,-1.8655777,-3.454391,-0.27775264,0.06842581,-0.2943808,27.6875,28.875,27.9375,31.5625,33.5625,34.375
0.15005337,-1.7359521,-0.8340373,-1.5879511,-0.006728301,0.060463507,-0.13337354,-0.37806115,-0.32742825,0.060027048,3.0786407,-0.6253206,-1.5203876e-05,-0.07124582,0.012512169,0.0015344969,-0.0050099124,0.0038252538,-0.011453826,0.44185638,-1.4634494,2.0010707,-2.107005,-1.5704569,2.4170427,-0.08884489,0.0994553,-0.11571899,0.010658541,0.0026760148,-0.077314205,-0.49799395,0.19153613,-9.481039,0.8224646,47.68599,-0.90184975,-1.8925178,-3.4166374,-0.2848045,0.07037772,-0.32322735,27.6875,28.875,27.9375,31.5625,33.5625,34.375
0.15205395,-2.196901,-1.4627308,-1.5717324,-0.011997036,0.04901805,-0.12625599,-0.3782061,-0.32738864,0.060031854,3.0786266,-0.6253551,-2.9040759e-05,-0.0718482,0.01164433,0.0020281377,-0.005824395,0.004925195,-0.009665972,0.44165286,-1.4632694,2.0008557,-2.106981,-1.5704569,2.4168627,-0.08789367,0.100341685,-0.11781474,0.010525085,0.0029394939,-0.07814982,-0.49799395,0.15322891,-9.519346,0.800085,47.688675,-1.1026801,-1.8425968,-3.373715,-0.29585308,0.06489426,-0.3150942,27.6875,28.875,27.9375,31.5625,33.5625,34.375
0.15405329,-1.7108301,-1.0029941,-1.4426174,-0.034476694,0.058985423,-0.14068478,-0.37832764,-0.32735413,0.06002732,3.0786586,-0.62540257,-5.0406275e-06,-0.07364991,0.012547559,0.0021944456,-0.005703865,0.0054478976,-0.013127081,0.4414958,-1.4630772,2.0006402,-2.106921,-1.5704807,2.4167314,-0.09093074,0.101736315,-0.11979069,0.0106851775,0.002601531,-0.07772411,-0.45968673,0.21068975,-9.5385,0.81351066,47.7245,-0.9827307,-1.8164674,-3.3781133,-0.28498366,0.06537907,-0.35090452,27.6875,28.875,27.9375,31.5625,33.5625,34.375
0.15605427,-1.6197374,-1.1009862,-1.6233801,-0.038687073,0.061716586,-0.14575054,-0.37851018,-0.3273299,0.060048025,3.0785868,-0.6255198,-6.966258e-05,-0.074873194,0.012817228,0.0024285754,-0.0056731286,0.0061571263,-0.011717785,0.44127938,-1.4628612,2.0003517,-2.1069095,-1.5704683,2.4165974,-0.09225389,0.102876216,-0.121620804,0.010750179,0.0022736678,-0.08045477,-0.47884035,0.21068975,-9.5385,0.8873621,47.698532,-0.9614514,-1.5335181,-3.3643389,-0.28223452,0.059247974,-0.35433808,27.6875,28.875,27.9375,31.5625,33.5625,34.375
0.15805422,-1.4717712,-1.4081995,-1.6470822,-0.03134523,0.06801242,-0.13363592,-0.37864518,-0.32732558,0.0600449,3.0785873,-0.6254258,-4.5573648e-05,-0.07574907,0.01281685,0.0010589244,-0.0044720257,0.004393637,-0.013603385,0.4411353,-1.4626321,2.0001004,-2.1068861,-1.570445,2.4163947,-0.09277086,0.10754175,-0.12350658,0.010081309,0.0019358606,-0.079083696,-0.40222588,0.22984336,-9.576807,0.8605109,47.72271,-0.9859462,-1.7649982,-3.3192096,-0.27129087,0.06963126,-0.37663287,27.6875,28.875,27.9375,31.5625,33.5625,34.375
0.16005404,-2.3183236,-1.6812993,-1.6508089,-0.029692264,0.048195843,-0.13080694,-0.37881082,-0.3272732,0.06002584,3.0785868,-0.625522,-6.745414e-05,-0.0773862,0.014262047,0.0007223834,-0.0041262056,0.003816829,-0.014127228,0.44090572,-1.4623921,1.9998845,-2.10691,-1.5704688,2.4162254,-0.09683917,0.10909813,-0.12450568,0.010192333,0.0018690582,-0.082627326,-0.38307226,0.2681506,-9.5385,0.800085,47.709274,-0.6772039,-1.6584327,-3.3655715,-0.27789438,0.08596994,-0.39432818,27.6875,28.875,27.9375,31.5625,33.5625,34.375
0.16205457,-1.8071173,-0.9949448,-1.5374933,-0.039002318,0.06794153,-0.13798891,-0.3789669,-0.32724512,0.060042188,3.078552,-0.6255488,-0.00012549473,-0.07771145,0.013729198,0.0003907007,-0.0045878775,0.0030291285,-0.008317379,0.440714,-1.4622114,1.9996446,-2.1068976,-1.5704683,2.416055,-0.09659426,0.11108539,-0.12595467,0.010167614,0.0026251432,-0.08819206,-0.40222588,0.2681506,-9.5385,0.80456203,47.6636,-0.85822093,-1.9729815,-3.3785992,-0.26901644,0.08959429,-0.33929843,27.6875,28.875,27.9375,31.5625,33.5625,34.375
0.16405343,-1.9153472,-0.8537142,-1.6779102,-0.04183574,0.048807196,-0.135614,-0.37911475,-0.32723987,0.060053736,3.0784895,-0.6255768,-8.385646e-05,-0.07994274,0.014633436,0.00071986543,-0.006060791,0.0037501056,-0.010312513,0.44053233,-1.4619957,1.999369,-2.10685,-1.5704082,2.4158988,-0.100909226,0.1122442,-0.1278995,0.009675836,0.0036469998,-0.09051181,-0.36391866,0.28730422,-9.557653,0.75755644,47.705692,-0.6298086,-1.6998947,-3.3618042,-0.26333597,0.04835917,-0.33793506,27.6875,28.875,27.9375,31.5625,33.5625,34.375
0.16605347,-1.86468,-0.95987284,-1.4049461,-0.034437582,0.046025913,-0.14060362,-0.37930056,-0.32718948,0.060050584,3.0784988,-0.62561244,-0.00017474435,-0.08082297,0.013111061,0.0016006444,-0.0071995934,0.005421577,-0.002420429,0.44030523,-1.4617552,1.9991158,-2.1068738,-1.5704564,2.415693,-0.09900033,0.1136968,-0.13160583,0.009927988,0.0039632632,-0.096493006,-0.34476504,0.22984336,-9.461885,0.8314132,47.73077,-0.89178276,-1.902759,-3.2613146,-0.24186094,0.051292107,-0.26284572,27.6875,28.875,27.9375,31.5625,33.5625,34.375
0.16805398,-1.8592569,-1.0592804,-1.352327,-0.022801748,0.043417003,-0.13871658,-0.37945735,-0.32717612,0.060058486,3.0784936,-0.6255497,-0.00014769359,-0.08022306,0.013991941,-5.2400534e-05,-0.0048081493,0.0021563454,0.0026795047,0.44012496,-1.461515,1.9988183,-2.1068132,-1.5704325,2.4154744,-0.09955502,0.11602544,-0.13055828,0.010531129,0.0031966267,-0.10214713,-0.30645782,0.22984336,-9.461885,0.7911258,47.701214,-0.8656311,-1.83993,-3.4384446,-0.24104021,0.045219578,-0.20528981,27.6875,28.875,27.9375,31.5625,33.5625,34.375
0.17005381,-1.4880979,-0.9916378,-1.2643151,-0.015782526,0.05461749,-0.13582464,-0.379657,-0.32714236,0.06009534,3.0784335,-0.62555504,-0.00026839683,-0.08176517,0.013948356,0.0002826319,-0.005023274,0.0036107912,0.0068189236,0.43988466,-1.4613227,1.9985188,-2.1068022,-1.5704325,2.4152453,-0.10049929,0.11763023,-0.13298796,0.009951297,0.0027776384,-0.107228234,-0.22984336,0.24899697,-9.404425,0.7978386,47.70211,-0.88769495,-1.8479475,-3.3476841,-0.22093132,0.07186158,-0.15250185,27.6875,28.875,27.9375,31.5625,33.5625,34.375
0.17205352,-1.2420703,-0.70627546,-1.312753,-0.012483314,0.053830642,-0.13367511,-0.37979472,-0.3271203,0.060061373,3.078447,-0.6255357,-0.00018437326,-0.08221004,0.013454142,-2.2762754e-06,-0.004572783,0.0034757776,0.010287411,0.4397052,-1.4610467,1.9982914,-2.1068022,-1.5704087,2.4150522,-0.09968634,0.11979947,-0.1347453,0.009858073,0.0024198692,-0.109882146,-0.21068975,0.17238252,-9.289502,0.89631605,47.696735,-1.0075772,-1.859764,-3.3799486,-0.20905918,0.06193605,-0.0694806,27.6875,28.875,27.9375,31.5625,33.5625,34.375
0.1740533,-0.8640115,-0.6271831,-1.0555927,-0.011496382,0.04490109,-0.14417762,-0.37997285,-0.32707414,0.06006906,3.078461,-0.6255198,-0.00022387457,-0.08341324,0.012875671,0.00062096753,-0.005620511,0.0047918963,0.009799532,0.43947703,-1.4608188,1.9980134,-2.106766,-1.5704325,2.4148126,-0.099873334,0.1209341,-0.13743402,0.009771957,0.0028047543,-0.109579995,-0.11492168,0.19153613,-9.232041,0.76874626,47.70211,-1.0386908,-1.8472328,-3.2219026,-0.20352189,0.0710069,-0.044224992,27.6875,28.875,27.9375,31.5625,33.5625,34.375
0.17605403,-1.0307746,-1.0589345,-1.2626014,0.0042336495,0.01957145,-0.13011879,-0.38017324,-0.32707062,0.06010378,3.07844,-0.6254016,-0.00037823882,-0.08477692,0.012241933,-4.4691402e-05,-0.0057916953,0.0034929216,0.007052035,0.43930894,-1.4605772,1.9976667,-2.106766,-1.5704564,2.4145737,-0.10031849,0.12567745,-0.14121664,0.00990928,0.0035162556,-0.107275315,-0.1340753,0.1340753,-9.251195,0.7866488,47.687782,-1.0972126,-2.0085764,-3.137659,-0.1947352,0.05458346,-0.028507248,27.6875,28.875,27.9375,31.5625,33.5625,34.375
0.17805351,-0.38535514,-0.7518636,-1.1301227,-0.007432788,0.014012526,-0.13547325,-0.38032815,-0.32705387,0.060097963,3.0783966,-0.6254332,-0.00035896647,-0.08497105,0.012856067,0.00016211598,-0.0055703945,0.003379628,0.0026874265,0.43911648,-1.4603382,1.9974154,-2.1067655,-1.5704206,2.4144065,-0.101487085,0.124988005,-0.14114259,0.010726124,0.0033672752,-0.10407954,-0.076614454,0.19153613,-9.270349,0.8157518,47.68062,-1.1206701,-1.9271786,-3.3427405,-0.17897174,0.053227015,-0.056976497,27.6875,28.875,27.9375,31.5625,33.5625,34.375
0.1800533,-0.31001633,-0.83540905,-1.0954655,-0.015298352,0.0027573716,-0.13361557,-0.3804893,-0.3270058,0.0600944,3.0784364,-0.62544495,-0.00033369652,-0.08531057,0.01355937,-0.0010058118,-0.004069185,0.0010765599,-0.0029829757,0.4389001,-1.4600974,1.9971408,-2.106694,-1.5704445,2.4141927,-0.10279366,0.12777293,-0.14169121,0.0112118935,0.0029827764,-0.09971483,0.0,0.21068975,-9.174581,0.7866488,47.691364,-1.0932416,-2.211371,-3.2951446,-0.1706108,0.07097666,-0.11583388,27.6875,28.875,27.9375,31.5625,33.5625,34.375
0.18205392,-0.355017,-0.8254657,-1.1006253,-0.025109237,-0.0042685135,-0.13565959,-0.38068762,-0.32698804,0.060115524,3.0783699,-0.6254724,-0.0004269088,-0.08642046,0.014047495,-0.0014736014,-0.0033906542,0.00038137002,-0.007920626,0.4386836,-1.459857,1.9968289,-2.106706,-1.5704325,2.414002,-0.10441399,0.13022868,-0.14341006,0.011395322,0.002668034,-0.09639567,-0.038307227,0.30645782,-9.155427,0.83365434,47.686886,-1.0505695,-1.9833815,-3.3150969,-0.16511743,0.06649788,-0.15243855,27.6875,28.875,27.9375,31.5625,33.5625,34.375
0.18405363,0.19198523,-1.219237,-0.9796598,-0.029455137,0.022861656,-0.14215475,-0.38085037,-0.3269644,0.06010631,3.07835,-0.625508,-0.00038896137,-0.08698719,0.01399809,-0.00087554066,-0.0035913014,0.0010270306,-0.011469797,0.43847966,-1.4595937,1.9965528,-2.106681,-1.5704087,2.413823,-0.104703434,0.13015041,-0.14494088,0.012337548,0.00257234,-0.09313533,-0.038307227,0.28730422,-9.136273,0.77545905,47.677036,-1.110636,-1.9777645,-3.3479881,-0.16053447,0.10371872,-0.21873708,27.6875,28.875,27.9375,31.5625,33.5625,34.375
0.18605365,-0.53749543,-1.3033713,-0.9201571,-0.025618177,0.010810825,-0.12843585,-0.38102594,-0.3269422,0.06010648,3.0783267,-0.62554175,-0.00039046942,-0.08776935,0.013785296,-0.0014207073,-0.0036350775,-0.00010457014,-0.011389527,0.43827522,-1.459329,1.9962538,-2.1066573,-1.5703968,2.4136426,-0.105287,0.1330687,-0.14698946,0.0124738645,0.0030898757,-0.09379815,0.095768064,0.3256114,-9.11712,0.8537928,47.71554,-1.0921793,-2.0192354,-3.3381848,-0.15252686,0.08377471,-0.23629582,27.6875,28.875,27.9375,31.5625,33.5625,34.375
0.18805343,-0.60532165,-1.0207072,-1.0207515,-0.023984581,0.0067488714,-0.13550714,-0.3812328,-0.326883,0.06009867,3.0783422,-0.6256645,-0.00046208527,-0.09000857,0.0146879135,-0.0001434174,-0.0051341895,0.001591582,-0.018773468,0.438022,-1.4590418,1.9959534,-2.1066568,-1.5704564,2.4134643,-0.10930384,0.1325703,-0.14961413,0.013417818,0.0037247373,-0.09043058,0.095768064,0.34476504,-9.11712,0.8090337,47.70838,-0.9507098,-1.9458883,-3.2741032,-0.15295197,0.08714728,-0.31794688,27.6875,28.875,27.9375,31.5625,33.5625,34.375
0.19005339,-0.46797493,-0.9351676,-1.0560493,-0.019286375,0.0033166148,-0.12963404,-0.38136947,-0.3268798,0.06008689,3.0782845,-0.62566906,-0.000325103,-0.08898727,0.013643568,-0.0008577578,-0.00470036,6.630866e-05,-0.014491847,0.437831,-1.4587897,1.9956902,-2.106609,-1.5703601,2.4132836,-0.10657251,0.13418366,-0.14984176,0.013606283,0.0039763846,-0.091981016,0.076614454,0.34476504,-9.193734,0.7911258,47.675243,-1.221885,-1.8714433,-3.3288722,-0.1448157,0.063803226,-0.33182335,27.6875,28.875,27.9375,31.5625,33.5625,34.375
0.19205387,-0.13625029,-0.7641744,-1.2186251,-0.020883758,0.010002106,-0.13159655,-0.38155025,-0.32683554,0.060083278,3.0783262,-0.6256817,-0.0003276056,-0.09049792,0.015171166,-0.0012637931,-0.004158904,-0.0011243351,-0.021808367,0.43761334,-1.4585137,1.9953789,-2.106549,-1.5703963,2.4130688,-0.11070323,0.13586612,-0.15098861,0.014375741,0.003986842,-0.088794686,-0.019153614,0.30645782,-9.174581,0.7642693,47.651955,-1.0626609,-1.9407201,-3.296604,-0.14203039,0.08053137,-0.3738704,27.6875,28.875,27.9375,31.5625,33.5625,34.375
0.19405355,-0.79673713,-0.96779025,-1.4296124,0.0012373757,0.00018797367,-0.12841815,-0.38174692,-0.32682163,0.06008849,3.0782714,-0.62566924,-0.00038064297,-0.091445096,0.014468116,-0.0006245283,-0.0045269714,0.0006787574,-0.02076858,0.437398,-1.4582381,1.995067,-2.1065733,-1.570372,2.4128528,-0.10986936,0.13679153,-0.15345907,0.014136265,0.003556281,-0.08899836,-0.05746084,0.28730422,-9.193734,0.80679786,47.723602,-1.1979759,-1.725966,-3.4515975,-0.14325713,0.08214055,-0.44186193,27.6875,28.875,27.9375,31.5625,33.5625,34.375
0.19605339,-0.5851507,-0.4501998,-1.4307535,-0.010800321,0.02033218,-0.13723952,-0.38193098,-0.3267923,0.060091108,3.0782573,-0.6257419,-0.00037823542,-0.09202804,0.0150485905,-1.7517546e-05,-0.0048920815,0.0014756134,-0.019659916,0.43718132,-1.4579629,1.9947447,-2.1065247,-1.570372,2.4126835,-0.111398615,0.13565502,-0.15375066,0.014689188,0.0035517996,-0.09163652,-0.019153614,0.19153613,-9.232041,0.83365434,47.691364,-1.1788179,-1.8854787,-3.4219716,-0.11497876,0.060483735,-0.47192547,27.6875,28.875,27.9375,31.5625,33.5625,34.375
0.19805405,-0.81572014,-0.81794006,-1.5564579,-0.014590806,0.025893731,-0.1342854,-0.38209885,-0.32674685,0.0600771,3.078297,-0.62578624,-0.00033992916,-0.092846915,0.01496704,-0.0008737784,-0.0050483807,-0.0005658759,-0.01595575,0.43696514,-1.4576858,1.9944557,-2.1064646,-1.5703963,2.4124901,-0.11257839,0.13921435,-0.15584746,0.015005872,0.0045517315,-0.09652013,-0.095768064,0.15322891,-9.289502,0.8403672,47.691364,-1.2179526,-1.8609599,-3.2747915,-0.11912476,0.078333676,-0.48458064,27.6875,28.875,27.9375,31.5625,33.5625,34.375
0.20005362,-1.2847539,-1.0530674,-1.7507954,-0.016915957,0.03153902,-0.13439575,-0.38229507,-0.3267302,0.060075793,3.0782259,-0.6258076,-0.0002847374,-0.093600854,0.014677454,6.4145606e-05,-0.0060417694,0.00014971201,-0.009972336,0.43671283,-1.4573867,1.9941214,-2.1064403,-1.5703233,2.4122603,-0.11302808,0.13901316,-0.1581378,0.016436318,0.0051514753,-0.10295303,-0.17238252,0.19153613,-9.3661175,0.8537928,47.678825,-1.1050614,-1.714496,-3.380208,-0.13589212,0.05375784,-0.4154262,27.6875,28.875,27.9375,31.5625,33.5625,34.375
0.20205319,-1.3225263,-0.59119,-1.6193643,-0.014825754,0.04255956,-0.1368333,-0.38247353,-0.32670873,0.060089223,3.0782096,-0.6257998,-0.0002892939,-0.09482212,0.015211776,-1.5227369e-05,-0.006641507,-0.00041659616,-0.0051605217,0.43650824,-1.4571345,1.9937972,-2.1063812,-1.5703114,2.412053,-0.115559086,0.14048097,-0.1596992,0.016790755,0.005936623,-0.110295676,-0.15322891,0.1340753,-9.423578,0.8157518,47.68599,-1.272975,-1.7815247,-3.3358922,-0.13006678,0.050179355,-0.38443133,27.6875,28.875,27.9375,31.5625,33.5625,34.375
0.20405407,-1.2003608,-0.044008646,-1.6681366,-0.009146316,0.061712183,-0.15020159,-0.38264632,-0.32665056,0.060049865,3.0782287,-0.6258581,-0.00016082602,-0.096042424,0.014859314,0.0005492325,-0.0068741073,0.0011780618,0.0024175083,0.43623212,-1.4568228,1.993533,-2.106345,-1.5702876,2.411811,-0.11558568,0.1416178,-0.16227378,0.016692884,0.005461693,-0.11789866,-0.28730422,0.11492168,-9.500193,0.8291774,47.733456,-1.1521645,-1.7520804,-3.3180938,-0.12836942,0.034075238,-0.28012228,27.6875,28.875,27.9375,31.5625,33.5625,34.375
0.2060542,-2.0267897,-0.4898204,-1.8928943,0.012913243,0.06079032,-0.12939507,-0.38284653,-0.326611,0.060058337,3.0782616,-0.6258243,-0.0002336739,-0.09667389,0.016065115,-0.0011542154,-0.0045603714,-0.0018138122,0.0054119835,0.43601537,-1.4565462,1.9931983,-2.1063087,-1.5703362,2.4115694,-0.11776821,0.1455326,-0.16283502,0.01702807,0.004632707,-0.12307384,-0.4213795,0.076614454,-9.519346,0.8717007,47.677036,-1.1154801,-1.686208,-3.5140924,-0.12023553,0.050944682,-0.230436,27.6875,28.875,27.9375,31.5625,33.5625,34.375
0.2080541,-1.6242512,-0.6782575,-1.9025306,0.007416609,0.09208693,-0.13630502,-0.38301474,-0.32659552,0.060041483,3.0782833,-0.6257898,-0.00013613753,-0.0983118,0.016560439,0.00074271986,-0.006399243,0.0014849306,0.0062504965,0.4358225,-1.4562235,1.9928621,-2.1062367,-1.5703114,2.4113524,-0.12023895,0.14291409,-0.16441375,0.017462477,0.0048984513,-0.12638341,-0.47884035,0.05746084,-9.557653,0.800085,47.70659,-1.0476546,-1.5878757,-3.4520428,-0.1340902,0.052070115,-0.17828822,27.6875,28.875,27.9375,31.5625,33.5625,34.375
0.2100541,-2.167012,-0.39865255,-2.106641,-0.0039107027,0.09271541,-0.13039802,-0.38320646,-0.32657775,0.06004354,3.0782495,-0.62568784,-9.090526e-05,-0.09914556,0.017213184,-0.0006811194,-0.0054061343,-0.0018641247,0.0042582196,0.43558174,-1.4559343,1.9925278,-2.1062005,-1.5702518,2.4110525,-0.122456804,0.14723814,-0.1662109,0.018398013,0.005411566,-0.12660818,-0.59376204,0.019153614,-9.710882,0.83589023,47.71554,-0.99186647,-1.8455911,-3.4134576,-0.13051774,0.035622947,-0.14114359,27.6875,28.875,27.9375,31.5625,33.5625,34.375
0.2120537,-1.8462541,-0.5731052,-2.1283922,-0.013253067,0.10677626,-0.14139073,-0.383425,-0.32654038,0.060079068,3.0782204,-0.6256651,-0.00019116986,-0.10035724,0.018055953,-0.0014315129,-0.004652149,-0.003637036,-0.0013345771,0.435329,-1.4556937,1.9921683,-2.1061523,-1.5702637,2.4107895,-0.12505454,0.15025058,-0.16804394,0.01914305,0.0054813903,-0.12361156,-0.7278373,-0.038307227,-9.864111,0.84708,47.693153,-0.9264649,-1.8519616,-3.3967085,-0.1587767,0.026805893,-0.14333504,27.6875,28.875,27.9375,31.5625,33.5625,34.375
0.21405406,-2.0985937,-0.7318763,-2.0206106,-0.033819307,0.10754904,-0.13466492,-0.38363764,-0.32648328,0.060055975,3.0782335,-0.6257679,-0.00018195483,-0.101083286,0.018436376,-0.0021924425,-0.0038164167,-0.004861196,-0.007483616,0.43505263,-1.4553573,1.9918445,-2.1061404,-1.5702876,2.4105759,-0.12615114,0.15290257,-0.16931765,0.019225474,0.0052318107,-0.11855796,-0.8236054,0.05746084,-9.787497,0.8023209,47.73077,-0.91572714,-1.9092593,-3.4243152,-0.13764662,0.019884134,-0.2053425,27.6875,28.875,27.9375,31.5625,33.5625,34.375
0.21605375,-2.1880414,-0.8604354,-1.9171741,-0.03281948,0.10669349,-0.13584937,-0.38382822,-0.32644767,0.06004116,3.0782049,-0.6258218,-9.1063535e-05,-0.10266646,0.018903244,-0.0021686733,-0.0033120522,-0.00422929,-0.013024112,0.434788,-1.4550453,1.9915208,-2.1060922,-1.5702399,2.4103487,-0.12783496,0.1549163,-0.17164868,0.01919079,0.004496925,-0.11469905,-0.842759,0.076614454,-9.844957,0.8224646,47.7254,-0.8414792,-2.0226371,-3.4482718,-0.12327097,0.036206357,-0.26589993,27.6875,28.875,27.9375,31.5625,33.5625,34.375
0.21805345,-2.0602303,-0.4698269,-1.9041804,-0.017109752,0.09961393,-0.1278775,-0.38405475,-0.3264206,0.06005354,3.0781758,-0.6257977,-0.00019292513,-0.1033988,0.018602766,-0.0023635265,-0.0031188715,-0.003714047,-0.014188779,0.43454826,-1.4547453,1.9911617,-2.106105,-1.5702523,2.4100978,-0.12756932,0.15678984,-0.1731601,0.018443458,0.004106956,-0.113266736,-0.9002198,-0.05746084,-9.768343,0.8179876,47.73077,-0.9296446,-1.9745955,-3.443963,-0.115874656,0.046380483,-0.30403906,27.6875,28.875,27.9375,31.5625,33.5625,34.375
0.22005351,-2.0332723,-0.7879444,-1.7866062,0.007198714,0.09538927,-0.13378756,-0.38428652,-0.32640016,0.06009154,3.0780864,-0.62587553,-0.00024899168,-0.10506268,0.017932532,-0.0013936306,-0.0042744162,-0.0011012836,-0.014340468,0.43428406,-1.4544693,1.990754,-2.106045,-1.5702161,2.4098938,-0.12764399,0.15779994,-0.17640291,0.017825225,0.0040550446,-0.113187306,-0.7852981,-0.019153614,-9.730036,0.8918391,47.709274,-0.9982012,-2.0468874,-3.2749166,-0.12010798,0.02721126,-0.3125535,27.6875,28.875,27.9375,31.5625,33.5625,34.375
0.22205324,-1.987754,-0.6322913,-1.5321959,0.0015860127,0.08793281,-0.13069668,-0.3844996,-0.3263603,0.060082022,3.0780945,-0.6259156,-0.00024496726,-0.106785946,0.017411403,-0.00015677047,-0.0057229027,0.002028405,-0.01543994,0.43403214,-1.4541339,1.9903945,-2.1060092,-1.570228,2.409666,-0.128081,0.15797704,-0.1793195,0.017115727,0.004043818,-0.11252312,-0.7278373,0.038307227,-9.461885,0.8627467,47.699425,-1.0894318,-1.8885462,-3.3780198,-0.103961304,0.036165696,-0.34414542,27.6875,28.875,27.9375,31.5625,33.5625,34.375
0.22405382,-1.7913953,-0.61754405,-1.7213169,-0.0039653904,0.073588625,-0.13673697,-0.38468677,-0.32630348,0.060060184,3.0781374,-0.6259812,-0.00019101657,-0.10669755,0.01766712,-0.00094055675,-0.005079795,0.00077105296,-0.013990459,0.43377966,-1.4538217,1.9900836,-2.10595,-1.5702523,2.4094493,-0.12836544,0.15934968,-0.17904781,0.016881738,0.003983668,-0.11425721,-0.61291564,0.21068975,-9.442732,0.7911258,47.67793,-1.014303,-2.01783,-3.4228854,-0.09278472,0.034760475,-0.37605274,27.6875,28.875,27.9375,31.5625,33.5625,34.375
0.2260538,-0.9158979,-1.1808068,-1.9182363,-0.019009614,0.06830027,-0.13753238,-0.38491374,-0.32627568,0.0600766,3.078069,-0.62600815,-0.0002561098,-0.1082729,0.019538555,-0.0022904442,-0.003401324,-0.0020637163,-0.019287018,0.43351436,-1.4535329,1.9897245,-2.1059496,-1.570228,2.4092097,-0.1329136,0.16313699,-0.18041535,0.017744511,0.0036586581,-0.11350715,-0.4405331,0.22984336,-9.461885,0.84484416,47.691364,-0.9989648,-1.9777915,-3.4274487,-0.08749738,0.041242793,-0.4294253,27.6875,28.875,27.9375,31.5625,33.5625,34.375
0.22805382,-0.9757754,-1.6388342,-1.7321018,-0.03730806,0.051412594,-0.13911681,-0.3851273,-0.32622945,0.060073726,3.0780752,-0.6260229,-0.0002682075,-0.109460354,0.018434072,-0.0005008548,-0.0043899207,0.0013158402,-0.010756531,0.43325105,-1.4532218,1.9893764,-2.1059134,-1.5702404,2.408955,-0.13145043,0.16260438,-0.18414561,0.018528791,0.0031339338,-0.12057221,-0.30645782,0.21068975,-9.519346,0.85826975,47.698532,-1.0676565,-1.9150276,-3.4691243,-0.08095443,0.045188345,-0.36985266,27.6875,28.875,27.9375,31.5625,33.5625,34.375
0.23005362,-1.0156046,-1.833072,-1.5715655,-0.039649896,0.03589707,-0.1391888,-0.38537425,-0.32618535,0.060074825,3.0780241,-0.6261061,-0.00027481018,-0.10953704,0.018953566,-0.0008107204,-0.0036309422,0.00034253267,-0.0066797826,0.43293875,-1.4528745,1.9889816,-2.105889,-1.5702165,2.4087014,-0.13219969,0.1631858,-0.1843216,0.019331887,0.0028606853,-0.12539801,-0.24899697,0.24899697,-9.500193,0.87617236,47.701214,-1.056013,-1.8592515,-3.5080082,-0.088204205,0.060365744,-0.31723773,27.6875,28.875,27.9375,31.5625,33.5625,34.375
0.23205425,-0.72052467,-1.500572,-1.4007094,-0.036364924,0.04364223,-0.13037515,-0.38560072,-0.32615727,0.060088146,3.0780098,-0.6260803,-0.00034574769,-0.11106344,0.019765915,-0.0008504385,-0.0031905773,0.00040982966,-0.0013866121,0.4326981,-1.4525627,1.9885982,-2.1058652,-1.5702285,2.4084468,-0.1346649,0.1649047,-0.18627733,0.019695621,0.0024396477,-0.13315468,-0.17238252,0.2681506,-9.385271,0.8560339,47.660015,-1.0678865,-1.7368102,-3.4839377,-0.07938453,0.06505228,-0.2604433,27.6875,28.875,27.9375,31.5625,33.5625,34.375
0.23405425,-0.9936473,-1.0793974,-1.4173652,-0.012337204,0.022956338,-0.12053531,-0.385825,-0.32610512,0.060072877,3.0780108,-0.6260944,-0.00030480276,-0.11126365,0.018536298,0.00048329684,-0.004648572,0.0029070687,0.008070017,0.4323988,-1.4522157,1.9882382,-2.105829,-1.5702165,2.4081564,-0.1326359,0.16362873,-0.18798795,0.019807782,0.0027145455,-0.14058204,0.019153614,0.28730422,-9.385271,0.84484416,47.696735,-1.1244123,-1.7199008,-3.4220967,-0.0633562,0.0627792,-0.17954579,27.6875,28.875,27.9375,31.5625,33.5625,34.375
0.23605405,-0.44425693,-0.5906167,-1.25727,-0.0042453646,0.014053681,-0.12654041,-0.38604432,-0.32605994,0.06006638,3.0780265,-0.6261008,-0.00029888187,-0.11328431,0.019464606,0.00079031294,-0.005703628,0.0034347298,0.0042780195,0.43213287,-1.4518796,1.9878677,-2.1057813,-1.5702285,2.4078927,-0.13650663,0.16474845,-0.18997942,0.019755095,0.0034466363,-0.14066035,0.13407528,0.28730422,-9.289503,0.84708,47.70032,-0.9237145,-1.6673627,-3.4222035,-0.058935195,0.057630766,-0.15233117,27.6875,28.875,27.9375,31.5625,33.5625,34.375
0.23805368,-0.46110305,-0.51958054,-1.1014451,-0.011198256,-0.008335433,-0.12631908,-0.38629347,-0.32605803,0.060094558,3.0779693,-0.6259728,-0.0004387426,-0.114359595,0.018374175,0.0012687031,-0.0067084646,0.0045625307,0.0055268,0.4319057,-1.4515558,1.9874476,-2.1058052,-1.5702161,2.4075933,-0.13560948,0.16672248,-0.19330363,0.019661613,0.0038980967,-0.14100988,0.095768064,0.28730422,-9.174581,0.8537928,47.68599,-1.1037589,-1.6049136,-3.3630795,-0.041434214,0.071911864,-0.09697639,27.6875,28.875,27.9375,31.5625,33.5625,34.375
0.24005358,0.35127538,-0.859702,-1.2559475,0.0016807287,-0.010119503,-0.12354373,-0.38652432,-0.32599938,0.06009696,3.0779736,-0.62603396,-0.0004339146,-0.115840666,0.018809771,0.0015392731,-0.006957483,0.0050841663,-0.00025307678,0.4316051,-1.4512316,1.9870642,-2.1057336,-1.570228,2.4073305,-0.13759983,0.16802984,-0.1955041,0.019975185,0.0039002146,-0.13721916,0.095768064,0.28730422,-9.174581,0.800085,47.67345,-1.0784302,-1.6037557,-3.2458916,-0.030016586,0.06025494,-0.12054846,27.6875,28.875,27.9375,31.5625,33.5625,34.375
0.24205397,1.0076443,-0.40263766,-1.4927611,-0.0061625233,-0.0102647105,-0.13333355,-0.3867548,-0.32594487,0.060089447,3.0779753,-0.6260952,-0.0004029683,-0.116658024,0.019067183,0.0019522724,-0.006821057,0.0051174304,-0.0058162604,0.4313048,-1.4508842,1.9866799,-2.1056726,-1.570228,2.4070685,-0.13858758,0.16863222,-0.19750223,0.021398148,0.0037577376,-0.13264297,0.11492168,0.22984336,-9.308657,0.842603,47.65106,-1.0093808,-1.546252,-3.1228495,-0.027533732,0.07273951,-0.15635633,27.6875,28.875,27.9375,31.5625,33.5625,34.375
0.24405397,0.2923336,-1.3107034,-1.542329,-0.012504365,-0.018672142,-0.12651151,-0.38697323,-0.32591245,0.060089678,3.077942,-0.62612987,-0.0003931502,-0.11744682,0.019439965,0.0016382855,-0.0062431344,0.0039337883,-0.011385749,0.43104032,-1.4505601,1.9863094,-2.1056364,-1.5702041,2.40683,-0.13984516,0.17069794,-0.19940583,0.02255583,0.0037266503,-0.12833002,0.1340753,0.19153613,-9.289503,0.83365434,47.686886,-0.9802597,-1.5454934,-3.2152286,-0.042474058,0.065190956,-0.21819854,27.6875,28.875,27.9375,31.5625,33.5625,34.375
0.24605353,0.29693878,-1.050045,-1.3462546,-0.03708696,0.0073698345,-0.13922837,-0.38720596,-0.32586724,0.060096066,3.0779555,-0.62611586,-0.00040107997,-0.11827965,0.019821072,0.0007827016,-0.0059570023,0.0011897251,-0.016736427,0.43076366,-1.4502236,1.9859027,-2.1055639,-1.5702161,2.4065433,-0.14175911,0.17412287,-0.20165332,0.023986572,0.004610422,-0.12489279,0.095768064,0.24899697,-9.251195,0.8784135,47.650166,-0.97975963,-1.6949401,-3.24763,-0.04065349,0.07215728,-0.29559755,27.6875,28.875,27.9375,31.5625,33.5625,34.375
0.24805328,-0.58744216,-1.4740963,-1.3027189,-0.01720405,0.012762501,-0.13518482,-0.38742587,-0.32582903,0.060079105,3.0779233,-0.62624556,-0.0003471358,-0.119003326,0.020348167,-0.0008805784,-0.0045559215,-0.0026500013,-0.021342954,0.43048722,-1.4498626,1.9855303,-2.105528,-1.5701917,2.406352,-0.14348042,0.17916226,-0.20380849,0.025178712,0.00493401,-0.122006424,-0.038307227,0.28730422,-9.308657,0.8717007,47.713753,-0.94962597,-1.7461603,-3.204595,-0.04601787,0.05713032,-0.3607698,27.6875,28.875,27.9375,31.5625,33.5625,34.375
0.2500538,-0.74095285,-1.1087402,-1.8073169,-0.02379052,0.029955506,-0.13126343,-0.38767788,-0.3257861,0.060097996,3.0779183,-0.62620944,-0.0004030399,-0.12089962,0.020254495,0.00065224676,-0.006169767,-0.00019464627,-0.025754983,0.43019867,-1.4495273,1.9850987,-2.1054676,-1.5702037,2.4060419,-0.14511669,0.17887996,-0.20724112,0.025986547,0.0053738994,-0.11922935,-0.095768064,0.28730422,-9.442732,0.8940802,47.73614,-0.9183254,-1.7408528,-3.1065676,-0.044540893,0.06163638,-0.41890046,27.6875,28.875,27.9375,31.5625,33.5625,34.375
0.2520535,-0.7973579,-1.2347864,-1.4851947,-0.040162586,0.057358507,-0.13230842,-0.3878955,-0.32575327,0.06008291,3.07789,-0.62631774,-0.00025502386,-0.12073915,0.020406611,0.0001487567,-0.0054177167,-0.0015388832,-0.026179293,0.4299108,-1.4491436,1.98468,-2.1053603,-1.5701436,2.4058254,-0.14507301,0.18000348,-0.20758514,0.026751574,0.0052433177,-0.11876159,-0.17238253,0.28730422,-9.481039,0.83365434,47.709274,-1.0091059,-1.7256483,-3.1837325,-0.05416955,0.051343266,-0.47588304,27.6875,28.875,27.9375,31.5625,33.5625,34.375
0.2540542,-1.0660818,-1.4800396,-1.4234711,-0.042941242,0.07448324,-0.14223024,-0.38814306,-0.32571045,0.060076304,3.0778673,-0.62634987,-0.00025550547,-0.119993776,0.020482253,-0.0008170797,-0.0049201166,-0.0038966185,-0.023290759,0.42961082,-1.4487716,1.9842738,-2.1053355,-1.5701317,2.4055486,-0.14481896,0.18117382,-0.20685017,0.027199365,0.0057782424,-0.12139702,-0.38307226,0.2681506,-9.423578,0.8605109,47.719128,-0.9689056,-1.839077,-3.3945055,-0.08493544,0.05603724,-0.5072823,27.6875,28.875,27.9375,31.5625,33.5625,34.375
0.256054,-1.4956238,-1.1551163,-1.7023811,-0.04002469,0.075182185,-0.13863203,-0.38837597,-0.32567525,0.060087394,3.0778508,-0.62640023,-0.00026714223,-0.121036224,0.02154571,-0.0023135834,-0.0034479585,-0.0066895247,-0.01635393,0.42934576,-1.448435,1.9838556,-2.1052635,-1.5701317,2.4053173,-0.14747259,0.18532805,-0.20821357,0.02756714,0.0056059333,-0.13098606,-0.49799395,0.2681506,-9.519346,0.80679786,47.685097,-0.88848084,-1.75459,-3.4810073,-0.08946867,0.06466575,-0.46036434,27.6875,28.875,27.9375,31.5625,33.5625,34.375
0.2580536,-1.8667493,-1.1100698,-1.4738394,-0.035853986,0.08331942,-0.13200216,-0.38861784,-0.32563013,0.060084645,3.0778236,-0.6264844,-0.00025492097,-0.11981946,0.02093591,-0.0031678237,-0.0029226178,-0.00847137,-0.0068956963,0.42904684,-1.4480753,1.9834489,-2.1052158,-1.5701197,2.4050746,-0.14536774,0.18628621,-0.20741491,0.02765487,0.005873665,-0.13834016,-0.47884035,0.17238252,-9.423578,0.8717007,47.686886,-1.1003673,-1.6854177,-3.578989,-0.0941719,0.02168584,-0.41641626,27.6875,28.875,27.9375,31.5625,33.5625,34.375
0.2600536,-1.9395701,-1.0316979,-1.3259846,-0.02346917,0.09265246,-0.13513453,-0.3888438,-0.3256024,0.060081735,3.077818,-0.62642133,-0.0001638663,-0.12136711,0.021471167,-0.002233654,-0.0037353088,-0.0066995434,0.0018310075,0.42877007,-1.447704,1.9830183,-2.1051204,-1.5700716,2.4047594,-0.14757858,0.18589807,-0.20924878,0.027941335,0.005871276,-0.14927718,-0.5554548,0.15322891,-9.423578,0.88960326,47.681515,-1.1039095,-1.737961,-3.5729322,-0.10699762,0.04111912,-0.2833215,27.6875,28.875,27.9375,31.625,33.5625,34.375
0.2620541,-1.8193098,-0.4513631,-1.2342017,-0.01464474,0.09032148,-0.13694523,-0.3891153,-0.32556108,0.060112104,3.0777814,-0.6264311,-0.00026574614,-0.12354466,0.02246768,-0.0023277951,-0.0041358722,-0.0066705886,0.0046041873,0.42846882,-1.447368,1.982562,-2.1050723,-1.570083,2.4044693,-0.1514071,0.1882567,-0.21171267,0.027855927,0.006231178,-0.15587716,-0.63206923,0.038307227,-9.461885,0.90750587,47.691364,-1.0654372,-1.720412,-3.4009168,-0.11299367,0.020981781,-0.1947858,27.6875,28.875,27.9375,31.625,33.5625,34.375
0.26405486,-1.6221823,-0.40763018,-1.0187361,0.0004270594,0.09270976,-0.13064624,-0.3893644,-0.32550776,0.0600814,3.0777767,-0.6264477,-0.00017159301,-0.124027275,0.021197125,-0.0019571546,-0.004778021,-0.0054887473,0.008713652,0.42813343,-1.4469479,1.9821538,-2.1050365,-1.5700473,2.404145,-0.14939493,0.18973748,-0.21422553,0.027554883,0.0063107307,-0.1579733,-0.6703765,0.0,-9.3661175,0.8627467,47.72002,-1.0590066,-1.7806792,-3.4066553,-0.10931844,0.025684614,-0.13659826,27.6875,28.875,27.9375,31.625,33.5625,34.375
0.2660535,-1.5150671,-0.08710609,-1.2833115,0.016927414,0.086719014,-0.1336157,-0.3896279,-0.325467,0.060080487,3.0777557,-0.6264458,-0.00021465342,-0.12509105,0.021714924,-0.0023731852,-0.0042439257,-0.0066057895,0.0040641287,0.42783293,-1.446564,1.9817232,-2.105024,-1.5700473,2.4038463,-0.15112938,0.19217074,-0.21626072,0.028395487,0.006288694,-0.15505685,-0.6895301,-0.038307227,-9.308656,0.83589023,47.694946,-0.94848466,-1.7319121,-3.4515152,-0.12016242,0.018074773,-0.124826625,27.6875,28.875,27.9375,31.625,33.5625,34.375
0.26805404,-0.9454887,0.41319385,-0.9778859,0.011494438,0.09683282,-0.13771544,-0.38987595,-0.3254192,0.060085285,3.0777593,-0.62642944,-0.00021255373,-0.12612432,0.021454241,-0.0021385518,-0.004502777,-0.006219953,-0.0020201108,0.42753285,-1.4462041,1.9812926,-2.104952,-1.5700473,2.4035358,-0.15145512,0.19383135,-0.21882495,0.028839579,0.006355164,-0.149297,-0.7852981,-0.05746084,-9.346964,0.79560274,47.694946,-1.1166445,-1.8040631,-3.487712,-0.12804829,0.0106422845,-0.2081792,27.6875,28.875,27.9375,31.625,33.5625,34.375
0.27005374,-1.8242052,0.009530996,-0.9905351,0.01082948,0.08330069,-0.12657748,-0.39009595,-0.3253904,0.060048684,3.0777378,-0.6264487,-5.6838086e-05,-0.12797128,0.021388331,-0.0003863859,-0.005391044,-0.0028146396,-0.009489706,0.42724475,-1.4457849,1.9808959,-2.1049044,-1.5699757,2.4032626,-0.15238209,0.19301204,-0.22214988,0.02952768,0.005732293,-0.14275284,-0.82360536,-0.1340753,-9.3661175,0.8806493,47.711063,-1.1489471,-1.7402556,-3.332941,-0.15524477,0.01109317,-0.29613668,27.6875,28.875,27.9375,31.625,33.5625,34.375
0.2720532,-1.4476591,0.212098,-0.844529,0.0062109223,0.09815849,-0.13306367,-0.39039594,-0.3253447,0.0600747,3.0776947,-0.6265747,-0.00015572559,-0.12950051,0.020785904,0.00078759587,-0.006486801,-6.445426e-05,-0.010431825,0.42692065,-1.44539,1.9803799,-2.1048443,-1.5699996,2.403023,-0.15233459,0.19340621,-0.2253033,0.029328525,0.0055917474,-0.14176106,-0.6512228,-0.095768064,-9.270349,0.90527004,47.713753,-1.1635001,-1.7828066,-3.2527533,-0.13149962,0.014242729,-0.3256449,27.6875,28.875,27.9375,31.625,33.5625,34.375
0.27405402,-1.2308131,0.7074723,-1.0601268,0.0055600307,0.09927067,-0.13680424,-0.39064455,-0.3253031,0.060070813,3.077724,-0.6265044,-0.0001223061,-0.13098437,0.021014402,0.0011065044,-0.006183639,0.0005184431,-0.011876013,0.42663223,-1.4449939,1.9799255,-2.10476,-1.5699996,2.4026873,-0.15355423,0.19517744,-0.22827433,0.030126713,0.005066924,-0.14153461,-0.47884035,-0.019153614,-9.251195,0.8537928,47.729877,-1.1940262,-1.7005129,-3.21307,-0.15195002,0.008074431,-0.35597217,27.6875,28.875,27.9375,31.625,33.5625,34.375
0.2760538,-1.3439624,0.24512045,-1.2278578,0.02343116,0.07314869,-0.13516955,-0.39090773,-0.3252378,0.06006712,3.0777729,-0.6265329,-0.00013465212,-0.13146923,0.021359349,0.00087141397,-0.005302512,-0.000792075,-0.012464928,0.4263199,-1.444598,1.9794706,-2.1046755,-1.5700482,2.402387,-0.15430833,0.19685228,-0.23007219,0.03180326,0.0048039784,-0.14169899,-0.45968673,0.038307227,-9.270349,0.86498255,47.698532,-1.193025,-1.6402328,-3.1127872,-0.18497929,0.023561731,-0.36977047,27.6875,28.875,27.9375,31.625,33.5625,34.375
0.27805352,-1.2803749,-0.5073828,-1.3291068,0.01191,0.0531977,-0.12732518,-0.39118785,-0.32518452,0.0600784,3.0776932,-0.62667024,-0.000143946,-0.13194083,0.021811679,0.00036517569,-0.0047695055,-0.0019292483,-0.010552592,0.42595944,-1.4442255,1.9790162,-2.1046278,-1.5700115,2.4021225,-0.1554012,0.1984897,-0.2309324,0.032290727,0.0047946223,-0.14470357,-0.38307226,0.17238252,-9.346964,0.82022345,47.689575,-1.1928809,-1.7663796,-3.2708216,-0.1960088,0.035966985,-0.37399733,27.6875,28.875,27.9375,31.625,33.5625,34.375
0.28005415,-0.9588301,-0.89662796,-1.4613807,-0.020246424,0.04756066,-0.13288793,-0.3914642,-0.32513115,0.060064312,3.0777068,-0.6267264,-0.00012348242,-0.13302732,0.02255899,0.0009275446,-0.0043445625,-0.0015679987,-0.006300776,0.42563492,-1.4437823,1.978537,-2.1045668,-1.5700244,2.4018316,-0.15721743,0.19864756,-0.2328475,0.033899553,0.004257358,-0.15077071,-0.19153613,0.17238252,-9.385271,0.83589023,47.711063,-1.1574864,-1.7534447,-3.2502124,-0.20759532,0.032258127,-0.31525987,27.6875,28.875,27.9375,31.625,33.5625,34.375
0.28205374,-0.64067525,-1.1372555,-1.6237267,-0.03443292,0.040333338,-0.13288885,-0.39169845,-0.3250739,0.060043275,3.0777473,-0.6266923,-1.8741708e-05,-0.13280037,0.02377914,-0.0011085881,-0.0013629503,-0.0062027797,0.00080770184,0.4253228,-1.4433861,1.9781183,-2.104471,-1.5700125,2.4014933,-0.15863714,0.20252934,-0.23302762,0.035660975,0.003449921,-0.15929823,-0.038307227,0.17238252,-9.481039,0.92764956,47.705692,-1.1616927,-1.6820421,-3.2827473,-0.24941441,0.04584193,-0.25383312,27.6875,28.875,27.9375,31.625,33.5625,34.375
0.2840536,-0.35010794,-1.5792547,-1.5853336,-0.04242167,0.040678877,-0.13383846,-0.39196432,-0.32502675,0.060045425,3.0777485,-0.6266867,-1.6889424e-05,-0.1331156,0.024325918,-0.0028935012,-6.0599705e-05,-0.00894054,0.008389399,0.42501074,-1.4429896,1.977652,-2.1044,-1.5700125,2.401178,-0.15975109,0.20646104,-0.23329566,0.03503484,0.003392057,-0.16799307,0.0,0.17238252,-9.481039,0.84484416,47.686886,-1.0706986,-1.8040172,-3.4376855,-0.29087615,0.046896104,-0.12407282,27.6875,28.875,27.9375,31.625,33.5625,34.375
0.28605387,-0.8376628,-1.6577178,-1.3129253,-0.040394574,0.027155677,-0.11888592,-0.392242,-0.32497758,0.06003382,3.0777702,-0.6265769,-1.5903463e-05,-0.13541593,0.025165962,-0.0033423412,-0.0006056037,-0.007617383,0.00894905,0.4246852,-1.4425577,1.9771851,-2.1043646,-1.5700125,2.4007814,-0.16307257,0.20910254,-0.23471951,0.032390732,0.003333182,-0.17187251,-0.019153614,0.24899697,-9.404425,0.83365434,47.677036,-1.0027848,-1.8548975,-3.4619842,-0.26121253,0.058960654,-0.062292755,27.6875,28.875,27.9375,31.625,33.5625,34.375
0.28805366,-0.2167867,-1.0255487,-1.3440453,-0.0335495,0.03428782,-0.13218383,-0.39250082,-0.32492924,0.06003629,3.0777528,-0.6265945,2.1719676e-05,-0.13694023,0.024154155,-0.0018239827,-0.0026729614,-0.00456958,0.0048442907,0.42436135,-1.4421742,1.9767293,-2.1042807,-1.5699881,2.400471,-0.16275753,0.20909587,-0.23823665,0.032286573,0.003948506,-0.16745165,0.0,0.24899697,-9.346964,0.84484416,47.677036,-0.936762,-1.8930975,-3.4930894,-0.2570823,0.05957776,-0.064348504,27.6875,28.875,27.9375,31.625,33.5625,34.375
0.29005346,0.03158927,-1.2785,-1.5900524,-0.008739947,0.016327672,-0.117213346,-0.39277866,-0.32488233,0.060033508,3.0777252,-0.6266322,4.4933942e-05,-0.1373938,0.02445761,-0.0023839984,-0.0022392357,-0.0059015327,-0.0014036245,0.42402476,-1.4417545,1.97625,-2.1042206,-1.5699643,2.4001617,-0.16365872,0.21102954,-0.23934366,0.032854173,0.004096789,-0.1621045,0.15322891,0.2681506,-9.346964,0.78217715,47.66271,-0.92461324,-1.8051323,-3.398594,-0.2961518,0.066470504,-0.10564923,27.6875,28.875,27.9375,31.625,33.5625,34.375
0.2920542,0.6461837,-1.1639864,-1.232848,-0.03861466,0.01003857,-0.1300896,-0.3930688,-0.32481736,0.060017254,3.0777538,-0.62666214,5.7174853e-05,-0.13870381,0.025009865,-0.003083721,-0.00217377,-0.0067955935,-0.011022105,0.4236761,-1.4412973,1.9757594,-2.1041605,-1.5699881,2.3998284,-0.16583195,0.21393967,-0.24101809,0.032452848,0.0043914826,-0.15465842,0.05746084,0.3256114,-9.308657,0.87393653,47.672558,-0.96723664,-1.9959669,-3.563766,-0.28663674,0.05930639,-0.19694033,27.6875,28.875,27.9375,31.625,33.5625,34.375
0.29405418,0.29495007,-1.695279,-0.99569887,-0.05476331,0.0035234003,-0.12403806,-0.3933474,-0.3247801,0.060009785,3.0777457,-0.62664384,6.725659e-05,-0.1402699,0.023923906,-0.0014706122,-0.004284261,-0.0031737445,-0.017663976,0.42336476,-1.4408549,1.9752678,-2.1041129,-1.5699757,2.399507,-0.16527668,0.21370664,-0.24441046,0.031906832,0.0048149712,-0.14746001,-0.05746084,0.4213795,-9.174581,0.86945957,47.687782,-1.0705625,-1.8791698,-3.554945,-0.29561764,0.073317744,-0.27443087,27.6875,28.875,27.9375,31.625,33.5625,34.375
0.29605386,-0.0044887373,-1.4452224,-1.2361262,-0.05470189,0.011074283,-0.13268946,-0.39362296,-0.32472512,0.060014863,3.0777268,-0.6268152,7.015797e-05,-0.14222842,0.024006043,-0.00023870975,-0.0053318967,-0.00072610454,-0.022397183,0.42303985,-1.4404477,1.9747761,-2.1040175,-1.5699881,2.3992918,-0.16689178,0.21394876,-0.24766147,0.03225215,0.0047560805,-0.14434038,-0.1340753,0.5554548,-9.193734,0.8873621,47.701214,-1.0592078,-1.8120555,-3.391566,-0.29477972,0.063914046,-0.35451216,27.6875,28.875,27.9375,31.625,33.5625,34.375
0.29805332,-0.13309027,-1.615617,-1.5263759,-0.060617715,0.026713995,-0.12288799,-0.3938981,-0.32467872,0.060009167,3.0776968,-0.626908,0.00017809252,-0.14396518,0.024317013,0.0008078876,-0.006093127,0.0010894716,-0.02861484,0.42269155,-1.4400039,1.9742621,-2.1038978,-1.56994,2.3990054,-0.16873214,0.21411823,-0.25049645,0.03295593,0.004692992,-0.13996206,-0.038307227,0.59376204,-9.346964,0.8605109,47.71017,-1.0023217,-1.7939343,-3.3803499,-0.3177977,0.07037128,-0.4352243,27.6875,28.875,27.9375,31.625,33.5625,34.375
0.3000542,-0.83968514,-2.187768,-1.268634,-0.08686056,0.058206644,-0.12715201,-0.3941454,-0.324635,0.059967954,3.077737,-0.6269164,0.00027120006,-0.14491145,0.024489315,9.040109e-05,-0.005754877,-0.0001595835,-0.028590115,0.42240313,-1.4395362,1.9738187,-2.1038496,-1.5699395,2.3987174,-0.169841,0.21722434,-0.2524903,0.033123292,0.0048837294,-0.14109492,-0.13407528,0.63206923,-9.32781,0.9164598,47.721813,-0.9481199,-1.8546654,-3.3546035,-0.32837594,0.06793497,-0.48601842,27.6875,28.875,27.9375,31.625,33.5625,34.375
0.30205402,-1.6356912,-2.3097785,-1.2515792,-0.08173861,0.07225454,-0.12786554,-0.3944688,-0.32457572,0.05997444,3.0777075,-0.62700075,0.00021504414,-0.14621261,0.024616864,3.9697967e-05,-0.006398418,0.0001630564,-0.022124339,0.42203072,-1.43908,1.9732789,-2.103802,-1.5699514,2.3984017,-0.17129768,0.21906315,-0.25443956,0.032679506,0.005341485,-0.14901653,-0.24899697,0.45968673,-9.346964,0.91198283,47.698532,-0.9337354,-1.8169398,-3.3448799,-0.34334254,0.071046166,-0.47301936,27.6875,28.875,27.9375,31.625,33.5625,34.375
0.30405363,-1.5910759,-1.800869,-1.2540443,-0.06953015,0.09108892,-0.13865381,-0.3947489,-0.32453358,0.05997018,3.0776684,-0.6270445,0.00025048232,-0.14641467,0.024321023,-6.383101e-05,-0.007530825,-0.00020280524,-0.011365627,0.4216949,-1.4386487,1.9727887,-2.103742,-1.5699152,2.3980985,-0.17154813,0.21974766,-0.25501123,0.03244739,0.006526397,-0.16002685,-0.24899697,0.47884035,-9.346964,0.96569055,47.703903,-1.0537369,-1.8169487,-3.3406086,-0.3475885,0.066343196,-0.39778334,27.6875,28.875,27.9375,31.625,33.5625,34.375
0.3060541,-2.1037827,-1.4199135,-1.0408245,-0.059019476,0.098955974,-0.13086525,-0.39505586,-0.32450143,0.059978597,3.077646,-0.62703174,0.00023143491,-0.14747907,0.023138486,0.001043084,-0.009693238,0.0028408726,0.000873414,0.42137137,-1.438182,1.972227,-2.1036708,-1.5699033,2.3977702,-0.17057124,0.21968397,-0.25726193,0.031109115,0.0072549544,-0.17128843,-0.28730422,0.3256114,-9.3661175,0.9388393,47.70838,-1.023756,-1.7344931,-3.429996,-0.3566324,0.04516098,-0.27802885,27.6875,28.875,27.9375,31.625,33.5625,34.375
0.30805427,-1.8424356,-0.87883633,-1.201258,-0.034063157,0.09926868,-0.12744378,-0.3953302,-0.32444528,0.059941575,3.0776603,-0.627033,0.00033026218,-0.14833806,0.023044797,0.00036558686,-0.010072724,0.0026801287,0.0064810454,0.42102286,-1.437702,1.9717592,-2.1036236,-1.5698789,2.397421,-0.17122695,0.22219579,-0.25831693,0.029653817,0.007654897,-0.17755164,-0.34476504,0.24899697,-9.3661175,0.8493211,47.692257,-1.0279368,-1.7131251,-3.4569278,-0.31711137,0.030811746,-0.15443036,27.6875,28.875,27.9375,31.625,33.5625,34.375
0.31005406,-1.6626104,-0.26925296,-1.2371799,-0.004625432,0.08233132,-0.12523678,-0.39565518,-0.32440105,0.059961274,3.0775955,-0.6270577,0.00023639138,-0.149316,0.023320543,-0.00066596334,-0.009187999,0.0022511943,0.006500857,0.42066267,-1.4372694,1.9712209,-2.1036003,-1.569867,2.3970847,-0.17197192,0.22550105,-0.25946027,0.028252743,0.0070339935,-0.17831385,-0.45968673,0.15322891,-9.423578,0.87617236,47.71286,-1.1142807,-1.8007321,-3.5523272,-0.3135684,0.036533732,-0.12751709,27.6875,28.875,27.9375,31.625,33.5625,34.375
0.3120537,-1.0195032,0.29444143,-1.0625217,0.0021759951,0.09131796,-0.1273133,-0.3959574,-0.32437658,0.059960693,3.0775876,-0.6269248,0.00022859647,-0.15002632,0.02361173,-0.0011490925,-0.009005832,0.0026288405,0.001052358,0.4203504,-1.4367901,1.9706701,-2.1035526,-1.5698432,2.3966908,-0.17273198,0.22692282,-0.25974378,0.026848525,0.0067140595,-0.17362444,-0.45968673,0.076614454,-9.308657,0.90750587,47.73077,-1.1216795,-1.8493061,-3.5199785,-0.28143325,0.059445173,-0.16447967,27.6875,28.875,27.9375,31.625,33.5625,34.375
0.31405398,-1.1635603,0.3940785,-1.3215655,0.029620409,0.062465087,-0.119416796,-0.39621243,-0.32432193,0.0599161,3.0776148,-0.6269938,0.00041683216,-0.15227415,0.024064004,-0.0009521326,-0.010019649,0.0036948936,-0.009973382,0.42001376,-1.4362981,1.9701918,-2.1034453,-1.5698069,2.396394,-0.17559138,0.22912902,-0.2626344,0.026146987,0.007176324,-0.1654577,-0.40222588,-0.1340753,-9.442732,0.900793,47.728977,-1.2115463,-1.9403708,-3.5038536,-0.2683221,0.0277253,-0.2549203,27.6875,28.875,27.9375,31.625,33.5625,34.375
0.31605366,0.07896312,1.2393845,-1.2894171,0.025724242,0.057595216,-0.13958411,-0.3965485,-0.32427153,0.059927713,3.077577,-0.62704474,0.00026333265,-0.1543176,0.0234834,-0.0003155241,-0.010527488,0.0056624617,-0.012804657,0.4196656,-1.435842,1.9696525,-2.1034567,-1.5698432,2.3960829,-0.17582294,0.23171113,-0.26707256,0.025995405,0.0068459003,-0.16285437,-0.28730422,-0.19153613,-9.404425,0.8627467,47.703903,-1.2269008,-1.9918811,-3.4612565,-0.26018107,0.027784944,-0.32942384,27.6875,28.875,27.9375,31.625,33.5625,34.375
0.31805348,-0.5857402,0.29050764,-1.3324295,0.032713465,0.041088544,-0.13089456,-0.39685842,-0.32421955,0.059910268,3.0775194,-0.627168,0.00032316823,-0.15516505,0.023137892,-0.0006407863,-0.009480888,0.0059698885,-0.0138056325,0.41928187,-1.4353497,1.9691252,-2.103409,-1.569796,2.3957837,-0.17500095,0.23449443,-0.2695522,0.025850188,0.0057600574,-0.16102871,-0.4405331,-0.21068975,-9.423578,0.85826975,47.699425,-1.1532049,-2.0352404,-3.3631659,-0.2406052,0.032435644,-0.35873088,27.6875,28.875,27.9375,31.625,33.5625,34.375
0.3200543,-0.9096175,-0.1899917,-1.7039062,0.03506096,0.04118387,-0.12804201,-0.39715898,-0.32415965,0.0599039,3.0775673,-0.6271771,0.0003355958,-0.15608653,0.022872599,0.00023247737,-0.0097350115,0.00760554,-0.0135711245,0.41894594,-1.4348707,1.9685735,-2.1033013,-1.5698317,2.3954477,-0.17482375,0.2345873,-0.2719139,0.026519552,0.005320733,-0.16108483,-0.49799395,-0.15322891,-9.442732,0.84484416,47.67793,-1.3034431,-2.0762208,-3.4207962,-0.21165684,0.05914866,-0.37167332,27.6875,28.875,27.9375,31.625,33.5625,34.375
0.32205305,-0.98838204,-0.7126835,-1.8099127,0.019169586,0.060246658,-0.12911695,-0.3974678,-0.32413113,0.059908964,3.0775142,-0.62716156,0.00037916718,-0.15609796,0.023045935,-0.00054799166,-0.008842188,0.0053776256,-0.008090896,0.4185986,-1.4343909,1.9679998,-2.103217,-1.5697716,2.3950977,-0.17504552,0.23682396,-0.27307162,0.027855221,0.0054179807,-0.16678649,-0.38307226,0.019153614,-9.557653,0.82694155,47.684196,-1.4072266,-2.1014993,-3.4841645,-0.20099181,0.05774463,-0.35642374,27.6875,28.875,27.9375,31.625,33.5625,34.375
0.3240538,-1.4423822,-0.6864765,-1.4511145,-0.03400748,0.072763376,-0.13813923,-0.39776933,-0.3240712,0.05990675,3.0775504,-0.62712586,0.00034761586,-0.15673856,0.02406746,-0.0010123117,-0.008261848,0.0039942213,-0.0025755006,0.41826248,-1.4339354,1.9674729,-2.103145,-1.5698074,2.394735,-0.17731786,0.23802865,-0.2736842,0.02876508,0.005455244,-0.1745742,-0.2873042,0.038307227,-9.672575,0.8537928,47.691364,-1.3694093,-2.1130426,-3.4450798,-0.21438187,0.045452423,-0.31720373,27.6875,28.875,27.9375,31.625,33.5625,34.375
0.32605347,-1.3030334,-1.33369,-1.4270511,-0.055734765,0.08556211,-0.13528459,-0.39807525,-0.32400835,0.05987773,3.0775416,-0.6271748,0.00041712724,-0.15822066,0.024626872,-0.0003032599,-0.008457523,0.0049160453,0.005954977,0.41787866,-1.4334316,1.9669579,-2.1030967,-1.5697836,2.3943832,-0.17926309,0.23850043,-0.2762185,0.029921409,0.005255907,-0.18504898,-0.17238252,0.1340753,-9.691729,0.9164598,47.70032,-1.2627144,-2.0952408,-3.463366,-0.22593012,0.073177725,-0.18689731,27.6875,28.875,27.9375,31.625,33.5625,34.375
0.32805318,-1.7130811,-1.5042027,-1.804752,-0.053988952,0.065450214,-0.12558612,-0.3984097,-0.32396397,0.0599025,3.0775185,-0.62713057,0.00031552446,-0.16020295,0.026157832,-0.00028873183,-0.007971558,0.0049482235,0.007664064,0.41752976,-1.4329764,1.9663719,-2.1030366,-1.5697964,2.39401,-0.1832423,0.24004874,-0.2782599,0.03058807,0.0048133517,-0.19073549,-0.30645782,0.19153613,-9.691729,0.8627467,47.71286,-1.2634561,-2.06981,-3.537599,-0.21730383,0.069815174,-0.090101615,27.6875,28.875,27.9375,31.625,33.5625,34.375
0.3300536,-1.33127,-1.7103344,-2.1363988,-0.031092241,0.05819701,-0.12543535,-0.39871648,-0.3239168,0.05988358,3.0775304,-0.62705576,0.0003440605,-0.16159472,0.026230888,0.00035622102,-0.008729362,0.00751399,0.005808198,0.4171823,-1.4324731,1.965834,-2.102989,-1.569784,2.3936148,-0.1841148,0.24015604,-0.27966323,0.029236218,0.004460238,-0.189751,-0.30645782,0.19153613,-9.749189,0.8784135,47.694054,-1.2625065,-2.0493693,-3.5330367,-0.21299659,0.06725024,-0.049912088,27.6875,28.875,27.9375,31.625,33.5625,34.375
0.3320533,-1.2422844,-1.2363049,-1.8690196,-0.04132554,0.051919438,-0.13092859,-0.39909163,-0.3238888,0.059915327,3.0774343,-0.62702006,0.00022169344,-0.1624256,0.025999498,0.00092174683,-0.009987383,0.010017992,-0.0019098377,0.4167988,-1.4319705,1.9651865,-2.102966,-1.5697478,2.3932216,-0.18426162,0.23965073,-0.28006378,0.027345236,0.0046154684,-0.18217915,-0.24899697,0.30645782,-9.749189,0.9186956,47.689575,-1.1366346,-1.909921,-3.6126962,-0.18590625,0.08035826,-0.108736,27.6875,28.875,27.9375,31.625,33.5625,34.375
0.33405393,-1.1008437,-1.5847576,-1.7254134,-0.033344097,0.06001409,-0.124699034,-0.3993756,-0.32381794,0.059876572,3.0774922,-0.6270762,0.0003095741,-0.16358192,0.026381738,0.0004022251,-0.010351266,0.009945871,-0.012963875,0.41645086,-1.4314665,1.9646844,-2.1028826,-1.5697716,2.3929017,-0.18597242,0.2417666,-0.2811339,0.026206924,0.0049583097,-0.17283583,-0.47884035,0.22984336,-9.691729,0.92093146,47.677036,-1.1668193,-1.8381048,-3.641309,-0.13142799,0.08544008,-0.18154599,27.6875,28.875,27.9375,31.625,33.5625,34.375
0.33605367,-1.178633,-0.9429668,-1.783495,-0.031371903,0.059532143,-0.14048088,-0.39969894,-0.3237382,0.059871964,3.0774698,-0.6271697,0.00033716814,-0.1641284,0.026549608,0.00021779681,-0.010329742,0.008460578,-0.01954122,0.41603127,-1.4309988,1.9641451,-2.1027982,-1.5697597,2.3925436,-0.1869145,0.24350867,-0.28317636,0.027872343,0.005539766,-0.16720057,-0.30645782,0.24899697,-9.653421,0.8806493,47.693153,-1.0764729,-1.9644964,-3.5695243,-0.11137556,0.07749264,-0.28117675,27.6875,28.875,27.9375,31.625,33.5625,34.375
0.33805323,-0.9196963,-0.46747476,-1.6881196,-0.025538899,0.065249346,-0.13406281,-0.40003943,-0.32371128,0.059887867,3.077381,-0.62730825,0.00024183838,-0.16562052,0.026975853,0.0013566532,-0.011261127,0.009695139,-0.027062265,0.41569492,-1.430508,1.9635462,-2.102774,-1.5697473,2.3923054,-0.18896653,0.24318944,-0.2858726,0.029380629,0.005906649,-0.16173072,-0.24899697,0.19153613,-9.730036,0.9231726,47.689575,-0.94393325,-1.8836968,-3.5976605,-0.13184804,0.08500087,-0.3837499,27.6875,28.875,27.9375,31.625,33.5625,34.375
0.34005377,-0.884546,-0.97792506,-1.7731702,-0.016137946,0.059094545,-0.1321697,-0.40038833,-0.32365337,0.059896994,3.0773633,-0.6273431,0.00018932107,-0.16665457,0.027526481,0.00055832614,-0.010624785,0.007217146,-0.030592278,0.41531098,-1.4300035,1.9629358,-2.102701,-1.5697592,2.3919458,-0.1909011,0.24674058,-0.2885796,0.03105841,0.006331937,-0.1601342,-0.24899697,0.17238252,-9.595961,0.8940802,47.672558,-0.9686011,-1.9454203,-3.5658731,-0.11895025,0.08635477,-0.45936444,27.6875,28.875,27.9375,31.625,33.5625,34.375
0.34205347,-1.2214228,-0.6728534,-1.4390051,-0.013216526,0.039851226,-0.13509533,-0.40071678,-0.32361624,0.05990163,3.0772524,-0.62745214,0.00019384519,-0.16736832,0.027666098,0.00084706116,-0.010052123,0.0069969194,-0.028023686,0.41492793,-1.4295238,1.9623722,-2.1026647,-1.5696877,2.3916452,-0.1912658,0.24785234,-0.2910201,0.03283796,0.0059086266,-0.163066,-0.22984336,0.24899697,-9.595961,0.9030289,47.63673,-1.046784,-1.9259182,-3.5230124,-0.09915042,0.07961602,-0.4827043,27.6875,28.875,27.9375,31.625,33.5625,34.375
0.34405413,-0.8652071,-0.61788625,-1.2863044,-0.017358275,0.057797313,-0.14670728,-0.40103194,-0.3235538,0.0598848,3.0772712,-0.62742805,0.00022657709,-0.16785516,0.02829575,-0.00032106647,-0.009382196,0.0045641796,-0.017979471,0.41455615,-1.4290198,1.9618214,-2.1025927,-1.5696877,2.3912563,-0.19287442,0.25079486,-0.29192138,0.033304993,0.006279548,-0.1747188,-0.30645782,0.19153613,-9.519346,0.8403672,47.690468,-1.0386766,-2.0972176,-3.402183,-0.086807966,0.08714347,-0.42144585,27.6875,28.875,27.9375,31.625,33.5625,34.375
0.346054,-0.5858692,-0.19023493,-1.4328566,-0.017689323,0.056474652,-0.15210877,-0.4014032,-0.32351395,0.059917867,3.0771873,-0.6274784,0.00010153956,-0.16948427,0.027482321,-0.00035749472,-0.009774906,0.005646785,-0.004317372,0.4141729,-1.4285278,1.9611758,-2.1025455,-1.5696758,2.3909156,-0.19245525,0.2543259,-0.2957863,0.032507032,0.006222351,-0.1879586,-0.15322891,0.15322891,-9.5385,0.89631605,47.677036,-1.0849311,-2.00892,-3.5508425,-0.059363175,0.072447,-0.28690782,27.6875,28.875,27.9375,31.625,33.5625,34.375
0.34805384,-1.0458866,-0.6161525,-1.5184066,-0.019298524,0.041701112,-0.14790209,-0.40174252,-0.32346234,0.059911687,3.077196,-0.62739784,8.709756e-05,-0.16952983,0.026892917,0.00028082813,-0.009816475,0.006567764,0.004470748,0.41380215,-1.4280006,1.9605764,-2.102485,-1.5696758,2.3904939,-0.19099972,0.25407,-0.29728836,0.03341564,0.005898679,-0.1952906,-0.15322891,0.11492168,-9.557653,0.9164598,47.67166,-1.1733127,-2.0803156,-3.5014226,-0.03657229,0.08534085,-0.19818392,27.6875,28.875,27.9375,31.625,33.5625,34.375
0.35005355,-1.1900228,-1.4058375,-0.8822992,-0.041927513,0.056680795,-0.1340521,-0.40209,-0.3234248,0.0599279,3.0771518,-0.62738734,2.2442628e-05,-0.1697506,0.026332598,0.0016475848,-0.010416993,0.0077670044,0.0062432988,0.41344288,-1.427498,1.9599537,-2.1024244,-1.5696634,2.390134,-0.19000292,0.25278434,-0.29957852,0.035657365,0.0059826337,-0.19606586,-0.34476504,0.21068975,-9.3661175,0.91198283,47.711063,-1.266427,-1.9722807,-3.4011364,-0.050682846,0.091064766,-0.13144337,27.6875,28.875,27.9375,31.625,33.5625,34.375
0.3520541,-1.2059243,-1.048452,-0.7884868,-0.044883475,0.05536667,-0.13298075,-0.4024333,-0.32335648,0.05990476,3.077155,-0.62741,0.00010714329,-0.17157926,0.026645312,0.0019491838,-0.01026106,0.008580388,-0.0016669782,0.41302353,-1.4269345,1.9593433,-2.1023285,-1.5696396,2.3897288,-0.19153412,0.25496587,-0.30302033,0.036238454,0.0054985145,-0.18968499,-0.2681506,0.19153613,-9.212888,0.9455522,47.71465,-1.4119029,-1.9547248,-3.4102008,-0.04149783,0.088672906,-0.17316115,27.6875,28.875,27.9375,31.625,33.5625,34.375
0.35405356,-0.25627264,-0.6094148,-1.3157723,-0.016689355,0.05211441,-0.14947751,-0.40276402,-0.32329828,0.05992889,3.0771534,-0.62741184,4.1609946e-05,-0.17191997,0.026256839,0.0027845928,-0.0111788,0.009483971,-0.0076466133,0.4126644,-1.4264792,1.9587449,-2.1022198,-1.5696634,2.3893714,-0.19121729,0.2543427,-0.30454057,0.03717622,0.0059825345,-0.18338852,-0.076614454,0.24899697,-9.289502,0.9254084,47.716442,-1.436367,-1.8273246,-3.453762,-0.04607807,0.109773204,-0.27951163,27.6875,28.875,27.9375,31.625,33.5625,34.375
0.35605416,-0.3787423,-0.45796597,-1.2094543,-0.012028868,0.018887784,-0.13894898,-0.4031508,-0.32323757,0.059938677,3.0770695,-0.62749106,-6.955044e-05,-0.17331356,0.027007217,0.00343105,-0.011769225,0.01045909,-0.013084391,0.4122322,-1.4259522,1.9581221,-2.1022198,-1.569651,2.3889997,-0.19359636,0.25432688,-0.30626383,0.03778709,0.0061514466,-0.18032894,-0.1340753,0.22984336,-9.32781,0.9097417,47.693153,-1.391342,-1.7182381,-3.4339852,-0.043101355,0.10912202,-0.3306695,27.6875,28.875,27.9375,31.625,33.5625,34.375
0.35805404,0.23097752,-0.3040861,-1.0445336,-0.020400422,0.013609144,-0.1418805,-0.4034886,-0.3231773,0.059941757,3.0770652,-0.6275471,-5.311366e-05,-0.17301753,0.027304003,0.0022691917,-0.010553628,0.008449865,-0.014311139,0.41184917,-1.4254367,1.9575003,-2.1021006,-1.5696515,2.3886526,-0.19349968,0.2563829,-0.3061043,0.03790184,0.0058445176,-0.17900543,-0.11492168,0.11492168,-9.270349,0.88960326,47.705692,-1.3461177,-1.6752365,-3.3934393,-0.020747053,0.10481369,-0.3957586,27.6875,28.875,27.9375,31.625,33.5625,34.375
0.36005387,-0.3434268,-0.85942495,-1.2030163,0.0016211605,-0.008074333,-0.14479488,-0.40383115,-0.3231376,0.059943695,3.0770233,-0.62753844,-4.9096674e-05,-0.17393972,0.028137606,0.0026067495,-0.010227409,0.008595592,-0.015729018,0.41147688,-1.4249094,1.9568781,-2.1020281,-1.5696157,2.3882806,-0.19533731,0.25655162,-0.30746993,0.03910631,0.005495736,-0.17942463,-0.076614454,0.13407528,-9.232041,0.9679317,47.696735,-1.2310274,-1.6294112,-3.5953457,-0.015643988,0.12104362,-0.4091851,27.6875,28.875,27.9375,31.625,33.5625,34.375
0.36205387,0.106830046,-0.16707326,-1.0492505,-0.0068351207,0.021572666,-0.15799126,-0.4041754,-0.3230576,0.059928726,3.077001,-0.62766397,-5.3585068e-06,-0.17561184,0.028689882,0.0024024819,-0.009894955,0.0075147874,-0.010724953,0.41104496,-1.4243821,1.9562916,-2.1019437,-1.5696033,2.3879302,-0.19756293,0.25972652,-0.31112278,0.040719613,0.005624361,-0.18665284,-0.095768064,0.038307227,-9.32781,0.9455522,47.701214,-1.2280563,-1.5998262,-3.5800033,-0.008207637,0.13048878,-0.3553021,27.6875,28.875,27.9375,31.625,33.5625,34.375
0.3640535,-0.35769358,-0.41323927,-1.5252059,0.0133226,0.01718408,-0.15397076,-0.40454453,-0.32301226,0.059965953,3.0769594,-0.62760884,-0.00015281893,-0.17744377,0.029351788,0.001974574,-0.0094707925,0.0055375574,-0.0021616311,0.41067305,-1.4239005,1.955643,-2.1018832,-1.5696157,2.3875296,-0.2003091,0.26376206,-0.31537026,0.042923544,0.006053768,-0.19795997,0.22984336,0.076614454,-9.423578,0.94331104,47.731667,-1.238852,-1.791254,-3.3629863,-0.0075910836,0.12025918,-0.24641612,27.6875,28.875,27.9375,31.625,33.5625,34.375
0.3660549,-0.31886888,0.101030245,-1.3452996,0.0030444595,0.016636973,-0.14861181,-0.40487316,-0.32293987,0.059933975,3.0769782,-0.6276099,-8.562114e-06,-0.17810944,0.030083306,0.0014772081,-0.009643491,0.0029918773,0.0027016816,0.41025272,-1.4233369,1.9550451,-2.1017625,-1.569579,2.3871078,-0.2027261,0.2657399,-0.31709775,0.044952195,0.0072202375,-0.20524122,0.0,0.11492168,-9.442732,0.90750587,47.705692,-1.099653,-1.9448328,-3.4329724,-0.012992765,0.09587361,-0.13808757,27.6875,28.875,27.9375,31.625,33.5625,34.375
0.36805362,-0.9783702,-0.4183683,-1.0266562,-0.0056028324,0.031362426,-0.13363789,-0.40523344,-0.32289904,0.05996367,3.0769403,-0.6275058,-0.00010180832,-0.17895555,0.030483814,0.0020972951,-0.010117309,0.0023441939,0.0011384093,0.40988094,-1.4228446,1.9543985,-2.1016896,-1.5695666,2.3866763,-0.20437899,0.26607656,-0.31960833,0.04753445,0.00793261,-0.20533022,-0.28730422,0.0,-9.232041,0.90750587,47.7245,-1.0070924,-1.947893,-3.386078,-0.03867478,0.103616044,-0.10712985,27.6875,28.875,27.9375,31.625,33.5625,34.375
0.37005308,-0.86397195,-0.44609377,-1.7086531,0.016869018,0.035602108,-0.14697121,-0.4055835,-0.32283777,0.05997564,3.076924,-0.62756413,-4.5665427e-05,-0.1796618,0.031549785,0.0013572483,-0.00820725,-0.00021712355,-0.0080458205,0.40947327,-1.4223155,1.9537281,-2.1015213,-1.5695432,2.3863075,-0.20619425,0.26882318,-0.32176623,0.050059006,0.0071924324,-0.19796024,-0.15322891,0.019153614,-9.32781,0.9164598,47.71286,-1.0758913,-1.8590058,-3.3726056,-0.06649134,0.08959952,-0.15524262,27.6875,28.875,27.9375,31.625,33.5625,34.375
0.37205374,-0.7310537,-0.43117088,-1.6809075,0.012705552,0.050961506,-0.14048842,-0.40592945,-0.32275984,0.059958078,3.0769308,-0.6276076,-9.437824e-06,-0.17954685,0.032045167,0.00071883167,-0.0064711375,-0.0030452379,-0.017029826,0.40905398,-1.4217739,1.9531296,-2.1014364,-1.5695432,2.3859148,-0.20648037,0.27083775,-0.32341653,0.0529759,0.0067166598,-0.18926194,-0.47884035,0.11492168,-9.500193,0.8537928,47.70659,-1.0804753,-1.9598655,-3.4304943,-0.106874436,0.11291017,-0.25152642,27.6875,28.875,27.9375,31.625,33.5625,34.375
