Tylouw/Master_Thesis_Code/training_data/batch_1/big_rod_t0.3/sample_78_session_3.csv
timestamp[s],tcp_force_x[N],tcp_force_y[N],tcp_force_z[N],tcp_force_rx[Nm?],tcp_force_ry[Nm?],tcp_force_rz[Nm?],tcp_pose_x[m],tcp_pose_y[m],tcp_pose_z[m],tcp_pose_rx[rot_vec_x],tcp_pose_ry[rot_vec_y],tcp_pose_rz[rot_vec_z],tcp_velo_x[m/s],tcp_velo_y[m/s],tcp_velo_z[m/s],tcp_velo_rx[rot_vec_x/s],tcp_velo_ry[rot_vec_y/s],tcp_velo_rz[rot_vec_z/s],q1[rad],q2[rad],q3[rad],q4[rad],q5[rad],q6[rad],qd1[rad/s],qd2[rad/s],qd3[rad/s],qd4[rad/s],qd5[rad/s],qd6[rad/s],tool_acc_x,tool_acc_y,tool_acc_z,current_of_whole_robot[A],voltage_of_whole_robot[V],current_J1[A],current_J2[A],current_J3[A],current_J4[A],current_J5[A],current_J6[A],temp_J1[C],temp_J2[C],temp_J3[C],temp_J4[C],temp_J5[C],temp_J6[C]
7.740455e-07,-0.35204324,-0.20630014,0.27889434,-0.025112081,0.011817465,-0.029830327,-0.37289387,-0.32820314,0.05993563,-3.0784533,0.62491816,-0.00025714494,0.0028632327,0.0013970715,-0.0041271313,0.0039775167,-0.008488162,2.060436e-05,0.44812617,-1.4708611,2.0095966,-2.1077154,-1.5706857,2.4230795,-9.504316e-05,0.003906904,0.005091479,0.00037464668,0.00010455144,-0.00011838965,0.095768064,0.21068975,-8.887277,0.7642693,47.778233,-0.15778066,-2.9242387,-2.455037,-0.51143265,0.14764445,-0.14403418,27.875,29.125,28.1875,31.875,33.9375,34.75
0.002052265,-0.541446,-0.3894349,0.19713296,-0.00891516,0.005073953,-0.025917789,-0.37290722,-0.32823756,0.05994794,-3.0785217,0.62483597,-0.00021552447,-0.0007094375,-0.0003308821,-0.0026736145,-0.0010474501,0.0019089796,2.3700635e-05,0.4481623,-1.4708371,2.0095484,-2.107743,-1.5706614,2.4230556,-9.380493e-05,0.0039979555,0.004086733,-0.010259421,0.00010217737,-0.00011647439,0.019153614,0.21068975,-8.887277,0.7486078,47.737038,-0.13192505,-2.8838391,-2.3882086,-0.4602615,0.15134192,-0.13638878,27.875,29.125,28.1875,31.875,33.9375,34.75
0.004052281,-0.09283067,0.44826055,0.13509412,-0.016043043,0.008745822,-0.034377154,-0.37290385,-0.32822102,0.059934814,-3.0784996,0.6248504,-0.0002856515,-0.0018589143,-0.00088382384,-0.0017788224,-0.0027427312,0.005423998,1.9088813e-05,0.44812617,-1.4708254,2.0095603,-2.1077197,-1.5706495,2.4230313,-9.765238e-05,0.0033431381,0.0033197699,-0.012740109,9.990863e-05,-0.00011462023,0.076614454,0.11492168,-9.059659,0.7530795,47.723602,-0.108838886,-3.0675862,-2.5315335,-0.34989196,0.13154468,-0.14826305,27.875,29.125,28.1875,31.875,33.9375,34.75
0.006052283,0.063996226,0.44705486,0.007960164,0.0059955474,-0.0018423063,-0.033324897,-0.37289703,-0.3282025,0.05991607,-3.078438,0.6248376,-0.00025957613,-0.00089395,-0.00041689744,-0.0015004597,-0.0013614951,0.002577315,1.7596833e-05,0.4481382,-1.4708139,2.0095956,-2.1077416,-1.5707096,2.4230433,-9.624047e-05,0.002450995,0.0025608994,-0.007925023,9.773883e-05,-0.00011282414,0.019153614,0.19153613,-9.136273,0.7105615,47.721813,-0.13385636,-3.0469327,-2.4906673,-0.37590575,0.14147553,-0.12413296,27.875,29.125,28.1875,31.875,33.9375,34.75
0.008052404,0.66989124,0.95766205,-0.42876947,0.026618006,-0.018334713,-0.0390241,-0.37287173,-0.32820526,0.05988643,-3.0784278,0.62483615,-0.0003428029,-2.394893e-05,3.949733e-06,-0.0010388703,-0.00028870616,0.0003706248,1.672172e-05,0.44815025,-1.4707903,2.0096428,-2.107764,-1.5706857,2.4230556,-9.423463e-05,0.001130279,0.0019501938,-0.003539964,9.566088e-05,-0.00011108326,0.0,0.15322891,-9.11712,0.7351769,47.72092,-0.09899202,-2.9596763,-2.4415307,-0.42140782,0.14014994,-0.12525168,27.875,29.125,28.1875,31.875,33.9375,34.75
0.010052584,0.6449512,1.0065256,-0.77448756,0.038841758,-0.0229175,-0.035221666,-0.3728679,-0.32821006,0.05989091,-3.0784516,0.6248604,-0.00037833545,0.00024246027,0.00012665174,-0.0009271036,0.00012808565,-0.00052282476,1.6663687e-05,0.4481382,-1.4708023,2.0096428,-2.1077511,-1.5706495,2.4230556,-9.230155e-05,0.00091015885,0.0015743288,-0.0019582044,0.000109945075,-0.00010939559,0.05746084,0.05746084,-9.2703495,0.73741806,47.698532,-0.50541747,-2.2847347,-3.1349611,-0.44219798,0.12101348,-0.21950656,27.875,29.125,28.1875,31.875,33.9375,34.75
0.01205263,0.23338786,0.6813884,-0.8274772,0.013987862,-0.009668964,-0.03652021,-0.37287986,-0.3282027,0.059885662,-3.078419,0.62479585,-0.00037716253,-0.0016085005,-0.00039149073,-0.0032600889,0.0023137617,-0.0050541116,-0.0006594191,0.44813803,-1.4707628,2.0096061,-2.1077273,-1.5706857,2.4230194,-0.0007984536,0.011006268,-0.004343956,-0.0011051131,9.282226e-05,-0.00013452211,0.11492168,0.076614454,-9.423578,0.7329411,47.695843,-0.5934574,-2.5124903,-3.1792493,-0.4272963,0.095920205,-0.27260807,27.875,29.125,28.1875,31.875,33.9375,34.75
0.014052026,-0.18716207,0.08338771,-1.1057221,-0.01614311,0.0104841385,-0.032643035,-0.37288103,-0.32822144,0.05988368,-3.0784612,0.6248414,-0.00045989937,-0.005569313,0.0013909915,-0.003505149,0.0026757133,-0.0058095865,0.0014411601,0.4481234,-1.4707372,2.00958,-2.1077154,-1.5706137,2.4230278,-0.007751522,0.015985994,-0.009467564,-0.00012446982,8.1146965e-05,-0.009184566,-0.095768064,0.13407528,-9.576807,0.74413085,47.737934,-0.41211724,-2.830741,-2.9603121,-0.4105845,0.079765,-0.25257695,27.875,29.125,28.1875,31.875,33.9375,34.75
0.016051717,-1.3400519,-0.8489317,-1.106254,-0.04226198,0.033637352,-0.042658772,-0.372867,-0.32818446,0.059842493,-3.07836,0.62481797,-0.0005507239,-0.0056492696,0.0022386042,-0.0038084919,0.0033132036,-0.007116004,0.005708945,0.44809893,-1.4706893,2.0096161,-2.1076906,-1.5706614,2.4230015,-0.00941225,0.016094306,-0.009117533,0.0008694924,7.113209e-05,-0.015113557,-0.34476504,0.21068975,-9.749189,0.779936,47.681515,-0.23113908,-2.7289958,-3.2385283,-0.41027546,0.0891819,-0.19734775,27.875,29.125,28.1875,31.875,33.9375,34.75
0.018051766,-1.4366852,-1.4121147,-0.9763562,-0.06476833,0.08053172,-0.059914928,-0.37285078,-0.3281812,0.059837546,-3.0783405,0.62481236,-0.00062361686,-0.004021962,0.0022762977,-0.0044049965,0.0051614465,-0.0109037785,0.0091853505,0.44809946,-1.4706892,2.0096161,-2.1076415,-1.5706495,2.423001,-0.007990957,0.016498636,-0.009045673,0.0046078297,5.3072396e-05,-0.01716972,-0.4213795,0.34476504,-9.825804,0.75755644,47.71465,-0.38183582,-2.4472866,-3.5118484,-0.43549716,0.062041268,-0.1920158,27.875,29.125,28.1875,31.875,33.9375,34.75
0.020051928,-1.9848907,-1.1513425,-0.940027,-0.07155094,0.09662467,-0.07670969,-0.3728596,-0.3281813,0.059810333,-3.0783076,0.62470835,-0.0007022304,-0.0055066813,0.0013672751,-0.003567327,0.00468626,-0.009618679,0.010980617,0.4480996,-1.4705926,2.009567,-2.1076171,-1.5706614,2.4229405,-0.0075408206,0.01857336,-0.013467383,0.0055907895,-8.471624e-05,-0.018511862,-0.5554548,0.30645782,-9.787497,0.69041777,47.681515,-0.5899382,-2.4552417,-3.4465742,-0.44812727,0.04575547,-0.19056669,27.875,29.125,28.1875,31.875,33.9375,34.75
0.02205196,-1.5721651,-0.6778601,-0.9783068,-0.05698172,0.106256306,-0.10137326,-0.37287298,-0.32818532,0.059815302,-3.0783207,0.624731,-0.0006973745,-0.006883233,0.0018221375,-0.003998973,0.0048231757,-0.009732347,0.00997385,0.44808692,-1.4705799,2.0095417,-2.1076176,-1.5706495,2.4229403,-0.009596571,0.020956932,-0.014916164,0.0048181145,-0.0001642889,-0.019559199,-0.5554548,0.45968673,-9.787497,0.7463667,47.73883,-0.6600976,-2.4889867,-3.3779783,-0.43230596,0.023507852,-0.20632152,27.875,29.125,28.1875,31.875,33.9375,34.75
0.024052082,-1.9315336,-1.0088917,-1.2388365,-0.035320275,0.08219654,-0.11068682,-0.37289828,-0.32816264,0.05980777,-3.078285,0.624705,-0.0006235112,-0.009007582,0.0024651624,-0.0029331911,0.004842252,-0.006060737,0.008830918,0.44806224,-1.4705561,2.0095413,-2.1076539,-1.5707101,2.422904,-0.011644277,0.02061992,-0.016729051,0.0036715423,-0.0017791535,-0.02045917,-0.49799395,0.40222588,-9.864111,0.7709874,47.71823,-0.6697892,-2.417976,-3.464476,-0.40957877,0.019054752,-0.20987985,27.875,29.125,28.1875,31.875,33.9375,34.75
0.026052527,-1.5286256,-0.42297313,-0.96387273,-0.044890407,0.06866683,-0.13416614,-0.37293246,-0.3281836,0.05981862,-3.0783336,0.624697,-0.0006537283,-0.010251946,0.002533826,-0.0020025754,0.003876703,-0.0037620838,0.0075257192,0.44803786,-1.4704963,2.0094454,-2.1076305,-1.5706619,2.4228685,-0.012816301,0.019991022,-0.018052218,0.0031349892,-0.0019085434,-0.020324891,-0.6703765,0.36391866,-9.768343,0.779936,47.73614,-0.67662746,-2.2984486,-3.4818144,-0.38337564,0.0032770992,-0.19438595,27.875,29.125,28.1875,31.875,33.9375,34.75
0.02805266,-1.4436469,-0.1341664,-0.81291264,-0.04107056,0.057932243,-0.14398432,-0.37296253,-0.3281676,0.059814185,-3.0783064,0.6246722,-0.00059321744,-0.011687142,0.002548015,-0.0017989076,0.003945788,-0.0034506721,0.0063941274,0.44801334,-1.4704596,2.0094206,-2.1076539,-1.5707105,2.422832,-0.014012777,0.02208454,-0.020940572,0.0036787498,-0.0021105253,-0.020387467,-0.78529817,0.30645782,-9.710882,0.75084364,47.737038,-0.7025814,-2.3580604,-3.4403255,-0.37427658,0.014618671,-0.20085043,27.875,29.125,28.1875,31.875,33.9375,34.75
0.03005173,-1.5194352,-0.3026652,-0.93355554,-0.017220017,0.059484813,-0.16038042,-0.37298194,-0.32819012,0.059807226,-3.0783525,0.62462574,-0.00070759794,-0.012525795,0.0028660367,-0.001897681,0.004333428,-0.0048980783,0.004634692,0.44798887,-1.4703753,2.0093358,-2.1076171,-1.5706381,2.4227726,-0.015561462,0.024001474,-0.0232429,0.005537089,-0.0018343447,-0.020176094,-0.6703765,0.24899697,-9.595961,0.82022345,47.66808,-0.73022354,-2.3161352,-3.4173565,-0.36983716,-0.0019466332,-0.20540962,27.875,29.125,28.1875,31.875,33.9375,34.75
0.032051876,-1.2840995,0.31102744,-0.7314101,-0.008225568,0.072187126,-0.18488511,-0.37298998,-0.32817638,0.059798002,-3.0782971,0.624595,-0.00070728187,-0.01339968,0.0031908127,-0.0018039882,0.004297731,-0.0055237664,0.0033638051,0.4479883,-1.470339,2.0093114,-2.1075928,-1.5706862,2.42276,-0.017172238,0.025161346,-0.024989454,0.0066701323,-0.0015332531,-0.020515673,-0.59376204,0.15322891,-9.653421,0.76874626,47.716442,-0.6939672,-2.293101,-3.4954991,-0.37239233,-0.036281563,-0.21536717,27.875,29.125,28.1875,31.875,33.9375,34.75
0.03405213,-1.3315532,0.4301522,-0.44179115,0.009738933,0.07023607,-0.18951207,-0.37306392,-0.32816738,0.05982511,-3.078308,0.6246542,-0.0005682484,-0.014285477,0.0028725336,-0.001191054,0.0040154383,-0.004613041,0.0044926596,0.4479283,-1.4703028,2.009215,-2.1076167,-1.570722,2.4227357,-0.017280065,0.025842732,-0.027300244,0.007355823,-0.0016760342,-0.021750892,-0.45968673,0.05746084,-9.557653,0.7418897,47.71286,-0.69924784,-2.2566395,-3.452279,-0.37589008,-0.047933854,-0.19757082,27.875,29.125,28.1875,31.875,33.9375,34.75
0.03605181,-1.3249667,0.7823935,-0.47226834,0.026911706,0.066505864,-0.20547077,-0.37309736,-0.32816625,0.059818607,-3.0783193,0.624695,-0.00059003884,-0.015887793,0.0030916359,-0.00025654628,0.004416101,-0.0020210815,0.0053115683,0.44787994,-1.4702427,2.009167,-2.107629,-1.5706986,2.4227114,-0.018138248,0.026070638,-0.029696958,0.0073673087,-0.0031660188,-0.023423404,-0.49799395,-0.1340753,-9.557653,0.77545905,47.729877,-0.65668833,-2.1851506,-3.3771062,-0.35384023,-0.07715139,-0.19798048,27.875,29.125,28.1875,31.875,33.9375,34.75
0.0380521,-0.9679524,1.0851864,-0.3740755,0.039283447,0.055803094,-0.22489786,-0.3731056,-0.32815474,0.05980118,-3.0782852,0.6246874,-0.0006897318,-0.017514363,0.0039209705,0.00040804734,0.00630354,0.00016501629,0.0056165694,0.44784367,-1.4701825,2.0091298,-2.1075804,-1.5706881,2.4226747,-0.019378673,0.026599657,-0.031929858,0.007927399,-0.0058203167,-0.024961613,-0.3256114,-0.11492168,-9.519346,0.7553206,47.72808,-0.64757216,-2.19428,-3.4303246,-0.34080994,-0.066508695,-0.19626561,27.875,29.125,28.1875,31.875,33.9375,34.75
0.040052254,-0.91050524,1.1025963,-0.4589451,0.04601108,0.033440936,-0.227265,-0.37314358,-0.3281688,0.05980678,-3.078317,0.62459755,-0.00063168106,-0.018824294,0.0038544855,0.0007780955,0.0069781486,0.001000846,0.0065923682,0.44784358,-1.4701222,2.0090563,-2.1076047,-1.5707,2.4226146,-0.019784488,0.0284086,-0.034932476,0.00866274,-0.0067949984,-0.026339505,-0.19153613,-0.11492168,-9.423578,0.7217513,47.686886,-0.7051021,-2.225869,-3.3792405,-0.31835628,-0.06418969,-0.1917218,27.875,29.125,28.1875,31.875,33.9375,34.75
0.042052265,0.21673535,1.1522706,-0.4382386,0.028727094,0.03378751,-0.22989835,-0.3731913,-0.32813838,0.05980852,-3.0782619,0.6246624,-0.0006552101,-0.019340837,0.004396599,0.00034676393,0.0082394155,-0.0006149937,0.0072840666,0.4477591,-1.4700615,2.008972,-2.1075442,-1.5707239,2.4225776,-0.020973999,0.03032716,-0.036405098,0.010219392,-0.0072343927,-0.028218789,-0.076614454,-0.21068975,-9.442732,0.6948948,47.666286,-0.68255126,-2.1726055,-3.324482,-0.31655735,-0.07244029,-0.17876443,27.875,29.125,28.1875,31.875,33.9375,34.75
0.044052396,0.6426044,0.69662416,-0.48505163,0.020175688,0.020584576,-0.21206532,-0.37324032,-0.32814017,0.059817426,-3.0782747,0.6246074,-0.0005878485,-0.020348113,0.0050943927,0.00052327453,0.00953003,-0.00037563368,0.0077808197,0.44773462,-1.4700013,2.008888,-2.1075556,-1.5707487,2.4225173,-0.022340817,0.031235874,-0.038056836,0.01130864,-0.00850278,-0.030079108,-0.1340753,-0.038307227,-9.404425,0.75084364,47.692257,-0.6547367,-2.1423132,-3.3918843,-0.3378222,-0.055292472,-0.17215991,27.875,29.125,28.1875,31.875,33.9375,34.75
0.046051748,-0.359613,0.21718124,-0.71135473,0.017664105,-0.0031573705,-0.20325263,-0.37327504,-0.3281267,0.059818298,-3.0782616,0.62458444,-0.0005908102,-0.021588307,0.00594929,0.00080682937,0.012321909,0.0010573108,0.009044683,0.44768643,-1.4699531,2.0088274,-2.1075313,-1.5707616,2.4224565,-0.022946607,0.032294843,-0.04007055,0.012190262,-0.011643929,-0.031940833,-0.05746084,0.0,-9.3661175,0.7665104,47.696735,-0.63553643,-2.1681848,-3.405879,-0.34741265,-0.061551988,-0.14975704,27.875,29.125,28.1875,31.875,33.9375,34.75
0.048051786,-0.03732857,-0.24636702,-0.7882289,0.005172208,0.018425094,-0.2002434,-0.37330583,-0.32811153,0.059804197,-3.0781994,0.6245507,-0.00069899665,-0.022563765,0.006363087,0.00087388733,0.013295423,0.0015818651,0.010096789,0.44763824,-1.4698448,2.0087192,-2.1074355,-1.570774,2.4223952,-0.023856558,0.03346358,-0.041575145,0.012477155,-0.012755885,-0.033898298,0.05746084,0.19153613,-9.442732,0.81351066,47.705692,-0.62027323,-1.9938867,-3.4157515,-0.34073347,-0.033631176,-0.12801588,27.875,29.125,28.1875,31.875,33.9375,34.75
0.050052285,-0.43532073,-0.2646164,-0.66616225,-0.012982743,0.024666945,-0.19974591,-0.37333745,-0.3280859,0.059790265,-3.0781596,0.62454355,-0.0007201444,-0.023788782,0.0066000912,0.0013696193,0.0135829905,0.0026723356,0.010304414,0.44757771,-1.4697847,2.0086825,-2.1074235,-1.5707983,2.4223354,-0.024914125,0.034212973,-0.043640528,0.012935236,-0.013492872,-0.03516015,0.019153614,0.19153613,-9.442732,0.7642693,47.723602,-0.6333779,-2.0709798,-3.4412994,-0.33184823,-0.028211143,-0.11713061,27.875,29.125,28.1875,31.875,33.9375,34.75
0.052052528,0.19934149,-0.26314571,-0.774755,-0.02794337,0.044700332,-0.20657293,-0.3734004,-0.32806692,0.059802078,-3.0781398,0.62451977,-0.00064521265,-0.024231289,0.006614872,0.0012999726,0.013655988,0.0019187558,0.011089342,0.44751742,-1.4697242,2.0085862,-2.1074111,-1.5708464,2.422263,-0.025515774,0.03542224,-0.045006864,0.013799363,-0.01323397,-0.03654687,-0.05746084,0.24899697,-9.519346,0.78888994,47.686886,-0.6096687,-1.982091,-3.4074402,-0.3385116,-0.0415362,-0.12597479,27.875,29.125,28.1875,31.875,33.9375,34.75
0.054051667,-0.41652653,-0.50826174,-0.8710587,-0.039803337,0.025194341,-0.19829293,-0.37346563,-0.32807076,0.05981261,-3.0781589,0.62440693,-0.0005933111,-0.02567412,0.006251297,0.0022342151,0.012063151,0.003492199,0.0129754,0.44748116,-1.4696285,2.008454,-2.1073987,-1.5708698,2.422154,-0.026645306,0.035844095,-0.047637694,0.013895481,-0.012485674,-0.039562833,0.038307227,0.34476504,-9.500193,0.73069996,47.66808,-0.59334636,-2.0002947,-3.505917,-0.3570099,-0.039519295,-0.09000221,27.875,29.125,28.1875,31.875,33.9375,34.75
0.05605304,0.5418826,-0.92553407,-0.8281522,-0.04321069,0.03565798,-0.20404595,-0.3735096,-0.32805356,0.059822973,-3.0781324,0.6245365,-0.00059375,-0.02634681,0.0065189814,0.0020314418,0.012688837,0.0030583297,0.012374114,0.44740885,-1.469592,2.008382,-2.107363,-1.5708698,2.4221659,-0.027499966,0.037345726,-0.04892413,0.014342519,-0.012864134,-0.039814487,-0.095768064,0.45968673,-9.5385,0.78217715,47.71286,-0.60144204,-1.932246,-3.478576,-0.35000145,-0.051700518,-0.07466279,27.875,29.125,28.1875,31.875,33.9375,34.75
0.05805204,-0.1777563,-1.3517977,-1.0808661,-0.04447768,0.01415714,-0.19067758,-0.3735514,-0.3280309,0.059812933,-3.0780895,0.62437445,-0.00062276155,-0.02708614,0.006249193,0.0020558073,0.012649712,0.003288022,0.011182171,0.44736087,-1.4694957,2.0082858,-2.1073034,-1.570918,2.4220223,-0.02761487,0.038893227,-0.05067742,0.014322459,-0.0129336165,-0.03873523,-0.1340753,0.5554548,-9.615114,0.78888994,47.73256,-0.6455592,-1.8918276,-3.4702835,-0.3566215,-0.07287121,-0.10100779,27.875,29.125,28.1875,31.875,33.9375,34.75
0.060052063,-0.7509592,-1.3341835,-1.0198705,-0.04978149,0.013865997,-0.18981905,-0.3736061,-0.32803568,0.05981896,-3.0781176,0.62432253,-0.0006177801,-0.028332772,0.006852313,0.002129964,0.014240231,0.0043326365,0.011186513,0.44731236,-1.4694113,2.0081766,-2.1072915,-1.5709065,2.421938,-0.028597267,0.040274527,-0.052384265,0.014400383,-0.014823357,-0.03971664,-0.1340753,0.45968673,-9.653421,0.8112748,47.737038,-0.6113853,-1.8785727,-3.5442438,-0.34689116,-0.0416795,-0.094679415,27.875,29.125,28.1875,31.875,33.9375,34.75
0.062052105,-0.7388493,-1.1476501,-1.0006542,-0.039018035,0.034026913,-0.19217584,-0.3736588,-0.32802474,0.0598246,-3.0780857,0.6243542,-0.0006376479,-0.029410966,0.006940759,0.0017188366,0.014960325,0.0040026484,0.011979147,0.44725224,-1.4693265,2.0080569,-2.1072314,-1.5709189,2.4219017,-0.029391551,0.04302714,-0.05444876,0.0143210525,-0.015336903,-0.04130032,-0.11492168,0.47884035,-9.653421,0.7530795,47.711964,-0.626435,-1.945063,-3.520937,-0.35891348,-0.04235161,-0.094542384,27.875,29.125,28.1875,31.875,33.9375,34.75
0.06405244,-1.2482399,-1.4612341,-1.0368131,-0.021466909,0.039126668,-0.18735343,-0.37372035,-0.32800323,0.059842568,-3.0780942,0.62427795,-0.00055933744,-0.030469472,0.006679346,0.002084573,0.014712162,0.004949983,0.01324855,0.44718015,-1.46929,2.007973,-2.1072195,-1.5709547,2.421781,-0.02972689,0.044253152,-0.05663342,0.014315601,-0.01552743,-0.042903677,-0.076614454,0.40222588,-9.672575,0.7284641,47.723602,-0.55951595,-1.8931683,-3.54965,-0.35320395,-0.016182246,-0.08600041,27.875,29.125,28.1875,31.875,33.9375,34.75
0.06605195,-1.0754327,-0.5943207,-0.70221597,-0.03924063,0.052379526,-0.19561684,-0.3737716,-0.32799825,0.059830442,-3.078069,0.62425286,-0.0005917883,-0.031518105,0.0060183746,0.0022861862,0.013178567,0.005234647,0.013716492,0.44713193,-1.4691699,2.0078633,-2.1071956,-1.5709661,2.4217205,-0.030279428,0.046019945,-0.05895794,0.01394734,-0.014275847,-0.043924723,-0.17238252,0.36391866,-9.481039,0.7486078,47.73077,-0.6647574,-1.8609142,-3.5230713,-0.32987988,-0.034238186,-0.06561002,27.875,29.125,28.1875,31.875,33.9375,34.75
0.06805184,-1.3422788,-0.47647893,-0.6604303,-0.030176673,0.04473597,-0.18563817,-0.37384346,-0.32798353,0.059833508,-3.078057,0.6241176,-0.00054724247,-0.032002203,0.006249774,0.001761814,0.01361955,0.00411297,0.011056802,0.4470716,-1.4690614,2.0077317,-2.1071718,-1.5710143,2.4215775,-0.03120733,0.04790209,-0.059882108,0.0141890505,-0.014188634,-0.042192355,-0.30645782,0.34476504,-9.442732,0.76874626,47.716442,-0.65251523,-1.866843,-3.545763,-0.3383301,-0.036850315,-0.09499535,27.875,29.125,28.1875,31.875,33.9375,34.75
0.07005176,-1.1902939,-0.48995364,-0.8415921,-0.022878412,0.04149691,-0.18949829,-0.37392196,-0.32800028,0.05985906,-3.078096,0.6241253,-0.00049671007,-0.03426119,0.0048375903,0.0035116493,0.0112444395,0.007670528,0.011412661,0.44702375,-1.468965,2.007562,-2.107148,-1.5710024,2.4215295,-0.030997965,0.04903418,-0.065110706,0.01404847,-0.013594309,-0.042337548,-0.36391866,0.30645782,-9.404425,0.7866488,47.72629,-0.6553104,-1.9134934,-3.4572048,-0.31011948,-0.055973448,-0.11340599,27.875,29.125,28.1875,31.875,33.9375,34.75
0.07205188,-0.8650059,-0.22016728,-0.5893712,-0.01610521,0.041665245,-0.19227625,-0.37396866,-0.32800767,0.0598546,-3.078116,0.62407094,-0.00050874957,-0.03472671,0.0054473006,0.00285668,0.0129595585,0.006836496,0.012253087,0.44698745,-1.4688685,2.007466,-2.107148,-1.5709909,2.4214568,-0.03175844,0.050908074,-0.06572579,0.014286628,-0.014782379,-0.043935187,-0.3256114,0.24899697,-9.423578,0.784413,47.716442,-0.72755826,-1.8510852,-3.422031,-0.2994457,-0.032786965,-0.118797585,27.875,29.125,28.1875,31.875,33.9375,34.75
0.074051924,-1.2250324,-0.55110943,-0.600178,-0.0006454109,0.033492472,-0.18909122,-0.37406483,-0.32796845,0.059867017,-3.0780675,0.6240999,-0.00043984078,-0.035249326,0.0057753464,0.0014675222,0.014274266,0.004141675,0.011571645,0.44686717,-1.4687713,2.0073225,-2.1071112,-1.571051,2.421361,-0.032824963,0.05494783,-0.06704483,0.014559741,-0.014805414,-0.044319022,-0.4405331,0.24899697,-9.32781,0.7418897,47.72719,-0.7260927,-1.9519917,-3.4691458,-0.29448977,-0.051700354,-0.13759752,27.875,29.125,28.1875,31.875,33.9375,34.75
0.0760519,-1.1233891,-0.036424574,-0.43900034,-0.0015485855,0.03995722,-0.18608105,-0.374103,-0.32796335,0.05986502,-3.0780425,0.6240751,-0.00047023722,-0.03779467,0.004929552,0.0044182795,0.0119795,0.00963066,0.011442622,0.446831,-1.4686881,2.0072248,-2.1070635,-1.5710629,2.4213126,-0.03332566,0.053289074,-0.07218874,0.015420597,-0.015118602,-0.04468695,-0.34476504,0.24899697,-9.232041,0.8090337,47.721813,-0.74755144,-1.8794577,-3.400998,-0.2932756,-0.053978033,-0.14919141,27.875,29.125,28.1875,31.875,33.9375,34.75
0.07805197,-0.82078975,0.0025682922,-0.31616035,0.005556561,0.048804093,-0.19499673,-0.3742047,-0.3279419,0.0598867,-3.0780401,0.62401676,-0.00040710348,-0.038054686,0.0051353807,0.0036856707,0.012613584,0.007950872,0.0115375,0.4467227,-1.4685796,2.007045,-2.1070158,-1.5710987,2.4211683,-0.03404163,0.055434372,-0.07296582,0.01583702,-0.014964663,-0.045497827,-0.36391866,0.21068975,-9.212888,0.83589023,47.74331,-0.7688046,-1.7509347,-3.2296114,-0.29237002,-0.042484283,-0.1622872,27.875,29.125,28.1875,31.875,33.9375,34.75
0.08005199,-0.53895575,0.39280128,-0.42790428,0.0048333113,0.058909852,-0.19966657,-0.3742753,-0.3279438,0.05989071,-3.0780377,0.6239202,-0.0003594373,-0.038995955,0.0051071495,0.0033014633,0.01346911,0.006805183,0.011597106,0.44668642,-1.4684588,2.0069,-2.107003,-1.5711344,2.4210722,-0.034647502,0.058511246,-0.07571722,0.01691283,-0.015244661,-0.046161048,-0.40222588,0.15322891,-9.232041,0.8179876,47.729877,-0.7892095,-1.8520517,-3.4673486,-0.2845688,-0.058723323,-0.1822575,27.875,29.125,28.1875,31.875,33.9375,34.75
0.082052715,-0.48301846,0.7734887,-0.2827368,-0.012764373,0.060810477,-0.19873166,-0.37436354,-0.32794553,0.059894264,-3.078035,0.62393963,-0.0003876078,-0.04036326,0.0052519618,0.002786043,0.0138974115,0.0056657814,0.010348564,0.44660187,-1.4683018,2.0067084,-2.1069548,-1.571123,2.4210002,-0.036216937,0.062052924,-0.078551926,0.017417198,-0.015144561,-0.046479873,-0.28730422,0.19153613,-9.270349,0.8179876,47.71554,-0.735257,-1.9006758,-3.272746,-0.27115098,-0.06716322,-0.2091515,27.875,29.125,28.1875,31.875,33.9375,34.75
0.08405201,-1.1829652,0.12354862,-0.4105945,-0.0042127986,0.04377731,-0.18335505,-0.37441832,-0.3279397,0.05989917,-3.0780098,0.6238191,-0.00039526608,-0.0421926,0.0051940545,0.0050926814,0.012516715,0.010556395,0.009884436,0.4465657,-1.468195,2.0065634,-2.1068833,-1.5711592,2.4208922,-0.0371658,0.059473354,-0.08101969,0.017457848,-0.016018497,-0.046961077,-0.36391866,0.17238252,-9.289502,0.7463667,47.70211,-0.75570714,-1.7679409,-3.241087,-0.26126432,-0.05340346,-0.21021071,27.875,29.125,28.1875,31.875,33.9375,34.75
0.08605249,-1.0134255,0.0661025,-0.43777326,-0.001978623,0.04867106,-0.19265373,-0.37450185,-0.32790923,0.059891064,-3.0779338,0.62385994,-0.00034641454,-0.042151123,0.0057339054,0.003495831,0.015159228,0.0071701207,0.011229577,0.4464815,-1.4680618,2.0064328,-2.1068704,-1.5712312,2.4208434,-0.037511386,0.06336986,-0.081921086,0.018655488,-0.01694075,-0.048648655,-0.38307226,0.19153613,-9.346964,0.7597976,47.674347,-0.73513436,-1.7969584,-3.3543575,-0.23724225,-0.06277758,-0.2459088,27.875,29.125,28.1875,31.875,33.9375,34.75
0.0880525,-1.5333768,-0.49954507,-0.6138227,0.003061058,0.04644429,-0.1854079,-0.37463617,-0.32792085,0.05993557,-3.0780084,0.62383527,-0.00023704913,-0.043491468,0.00506871,0.0039551468,0.015302269,0.0076687178,0.014816455,0.44637364,-1.4679292,2.0061796,-2.1068466,-1.5712193,2.4207108,-0.037225053,0.0659505,-0.08609204,0.01985552,-0.017288838,-0.051947545,-0.4213795,0.19153613,-9.404425,0.78217715,47.701214,-0.83378756,-1.9046153,-3.20074,-0.23102126,-0.035055228,-0.23606896,27.875,29.125,28.1875,31.875,33.9375,34.75
0.09005246,-1.2224627,-0.61465,-0.62882805,-0.0052930024,0.05613694,-0.18648845,-0.37469575,-0.32790178,0.05992658,-3.0779543,0.62374836,-0.0002261732,-0.043723397,0.006738219,0.002667999,0.017642235,0.004932415,0.011801229,0.44632477,-1.4678087,2.0060594,-2.1068099,-1.5712799,2.4206147,-0.039936926,0.0677663,-0.0853547,0.020780299,-0.018216461,-0.05164192,-0.34476504,0.22984336,-9.346964,0.779936,47.66539,-0.7477939,-1.9092739,-3.3037276,-0.24873362,-0.039109252,-0.27078027,27.875,29.125,28.1875,31.875,33.9375,34.75
0.09205257,-0.6163914,-0.338577,-0.54170084,-0.020369714,0.061952136,-0.1919338,-0.37479714,-0.32786918,0.05994731,-3.0778966,0.62373614,-0.00013102496,-0.045517143,0.006363959,0.0033144678,0.017106725,0.0061244555,0.01162937,0.4462285,-1.4677002,2.0058792,-2.1067507,-1.5713638,2.4205184,-0.04081889,0.06983892,-0.089233965,0.021273991,-0.018255113,-0.05234969,-0.2681506,0.17238252,-9.404425,0.83365434,47.690468,-0.7041115,-1.8829925,-3.2999334,-0.22551867,-0.06200464,-0.30891377,27.875,29.125,28.1875,31.875,33.9375,34.75
0.09405254,-0.7712965,-0.9706425,-0.6345028,-0.02398557,0.05543645,-0.18325965,-0.3748607,-0.32788038,0.05992923,-3.0779073,0.6236427,-0.00024138005,-0.045729306,0.007406072,0.0021896134,0.01823637,0.0039937706,0.010549355,0.44616774,-1.46752,2.0057113,-2.1067026,-1.571328,2.420398,-0.04288944,0.07156031,-0.088565506,0.021294056,-0.018357402,-0.05333904,-0.30645782,0.24899697,-9.442732,0.683705,47.64837,-0.686095,-1.9119723,-3.221877,-0.22516756,-0.033602837,-0.31962106,27.875,29.125,28.1875,31.875,33.9375,34.75
0.096051686,-0.64296865,-0.8187922,-0.65318865,-0.029254662,0.052520283,-0.18797271,-0.37496674,-0.32786068,0.059945967,-3.0778809,0.62355953,-0.00014348105,-0.047457285,0.0069896756,0.0027946113,0.017825574,0.005660018,0.01260346,0.44608346,-1.4673876,2.0055192,-2.1066668,-1.5714,2.4202654,-0.043416057,0.07347895,-0.092040874,0.021163987,-0.018714452,-0.055917013,-0.30645782,0.24899697,-9.308657,0.8224646,47.696735,-0.6920308,-1.9150224,-3.2873354,-0.2016708,-0.03336428,-0.32676747,27.875,29.125,28.1875,31.875,33.9375,34.75
0.098051965,-0.93804836,-0.11771164,-0.53150666,-0.0323527,0.039587546,-0.19478448,-0.37507844,-0.32786143,0.059970465,-3.077909,0.62350816,-4.6420624e-05,-0.04814318,0.0061143455,0.002932449,0.017364614,0.005984666,0.011692467,0.44599995,-1.4672551,2.0053146,-2.1066544,-1.5714239,2.4201465,-0.04256508,0.07548075,-0.0945771,0.021204434,-0.018439505,-0.054154973,-0.22984336,0.22984336,-9.404425,0.82694155,47.694946,-0.7815266,-1.9947703,-3.2226863,-0.19377623,-0.06035264,-0.3623433,27.875,29.125,28.1875,31.875,33.9375,34.75
0.10005203,-1.3981074,-0.9237876,-0.7565629,-0.00089801825,0.01808911,-0.18056037,-0.37518492,-0.32784402,0.059979618,-3.0778716,0.6235009,-2.3378434e-06,-0.049503494,0.0066594747,0.0028336055,0.01792158,0.0055949357,0.009724641,0.44590324,-1.4670987,2.0051105,-2.1066062,-1.5714716,2.4200501,-0.044574864,0.077572264,-0.096833594,0.021958098,-0.018777274,-0.05419475,-0.15322891,0.19153613,-9.308656,0.78888994,47.72808,-0.7649456,-1.9130857,-3.184864,-0.17304325,-0.035553586,-0.42712036,27.875,29.125,28.1875,31.875,33.9375,34.75
0.10205204,0.10597308,0.10930847,-0.57562935,-0.02028819,0.05199731,-0.20105591,-0.37526974,-0.32782453,0.05995434,-3.0777826,0.6233658,-8.2544924e-05,-0.050119113,0.007220051,0.0025460857,0.019093698,0.004623615,0.011267133,0.4458308,-1.4668704,2.0048954,-2.10651,-1.5715321,2.419905,-0.045734894,0.07911722,-0.09815251,0.023108827,-0.019424554,-0.05689307,-0.038307227,0.24899697,-9.32781,0.842603,47.691364,-0.68404335,-2.0197828,-3.2359443,-0.16296971,-0.033966146,-0.45002842,27.875,29.125,28.1875,31.875,33.9375,34.75
0.104052104,-0.2767642,-0.3057668,-0.72148144,-0.008014946,0.03384421,-0.19216082,-0.3754082,-0.32780993,0.059996054,-3.0778012,0.6235224,5.0167997e-05,-0.051246095,0.0069441823,0.002920081,0.018306153,0.005160345,0.012972793,0.44568643,-1.4667622,2.004678,-2.106498,-1.571544,2.419856,-0.04653562,0.080428414,-0.10050968,0.023323271,-0.018946722,-0.05940087,-0.095768064,0.2681506,-9.346964,0.75084364,47.68599,-0.6782958,-1.9097164,-3.1757693,-0.15789676,-0.050810218,-0.45005363,27.875,29.125,28.1875,31.875,33.9375,34.75
0.10605187,-0.5634938,-0.22761077,-0.6318229,-0.022063043,0.027640713,-0.19283162,-0.37549183,-0.3278051,0.05999123,-3.0777786,0.6233442,2.3662544e-05,-0.051996306,0.007155912,0.0023745007,0.018814512,0.004494819,0.014446417,0.44562626,-1.466582,2.0044744,-2.1064265,-1.5715803,2.4196877,-0.047477882,0.08265605,-0.101665474,0.023065884,-0.019126574,-0.061814364,-0.1340753,0.24899697,-9.404425,0.7620334,47.707485,-0.7398251,-1.8873007,-3.1719942,-0.12293759,-0.04407018,-0.46136653,27.875,29.125,28.1875,31.875,33.9375,34.75
0.1080519,-0.9092467,-0.6953006,-0.5703956,-0.023320507,0.021994378,-0.18861042,-0.37558803,-0.32780454,0.060001615,-3.0777946,0.6233452,2.4433231e-05,-0.052337233,0.0068862643,0.0023144477,0.019161552,0.003437272,0.018992275,0.44553027,-1.4664376,2.0042832,-2.1063898,-1.5715684,2.4195905,-0.04735832,0.08436468,-0.103758,0.024547411,-0.018988285,-0.0662401,-0.11492168,0.2873042,-9.385271,0.8179876,47.73614,-0.7268753,-2.01167,-3.272592,-0.120045796,-0.052391075,-0.46346736,27.875,29.125,28.1875,31.875,33.9375,34.75
0.11005219,-0.7221284,-0.8103714,-0.37485456,-0.023022162,0.023767926,-0.19690894,-0.37571818,-0.32777944,0.06000798,-3.0777383,0.6232539,8.825998e-05,-0.05273324,0.006993285,0.0030115852,0.01888876,0.0034228342,0.022546768,0.445422,-1.4662341,2.004031,-2.1063292,-1.5716518,2.4194326,-0.04806473,0.08385583,-0.10523722,0.026417708,-0.018739454,-0.070501134,-0.11492168,0.17238252,-9.308657,0.7866488,47.756744,-0.74883217,-1.8591635,-3.237318,-0.116334654,-0.08826529,-0.44764155,27.875,29.125,28.1875,31.875,33.9375,34.75
0.1120523,-0.30961022,-0.39578688,-0.5430741,-0.0234102,0.027735583,-0.19446765,-0.37580863,-0.32777575,0.06000815,-3.0777376,0.6231544,0.00010773965,-0.052314583,0.0077031953,0.00022168961,0.022219695,-0.0028522026,0.027129583,0.44534984,-1.4660763,2.0038512,-2.106305,-1.5716761,2.4192986,-0.04880357,0.09000283,-0.10601566,0.02813889,-0.01904485,-0.07582114,-0.17238252,0.19153613,-9.346964,0.80456203,47.7451,-0.79923457,-2.0541053,-3.3278255,-0.12046407,-0.07266067,-0.39228645,27.875,29.125,28.1875,31.875,33.9375,34.75
0.114051685,-0.19561295,-0.2149099,-0.41284108,-0.017907029,0.03062098,-0.19760136,-0.37592974,-0.32778704,0.060032416,-3.0777636,0.62304074,0.00017599184,-0.053065952,0.006968658,0.001845432,0.021355912,0.00022106932,0.03367018,0.4452782,-1.4658972,2.0035875,-2.1062567,-1.5717005,2.419153,-0.04771436,0.088522956,-0.10824963,0.02869945,-0.019594654,-0.081271105,-0.076614454,0.21068975,-9.270349,0.76874626,47.670765,-0.8909365,-1.8776665,-3.3624578,-0.10803904,-0.06852062,-0.3710242,27.875,29.125,28.1875,31.875,33.9375,34.75
0.11605206,-0.39611748,-0.19517212,-0.5789618,0.0075662904,0.016414076,-0.20036684,-0.37603867,-0.3277362,0.060009632,-3.077687,0.62294656,0.00016744623,-0.05396316,0.00788669,0.0007402418,0.022370558,-0.0023068557,0.03635039,0.4451332,-1.4657044,2.0034192,-2.1062205,-1.5717725,2.4189591,-0.050335035,0.09173168,-0.109417275,0.029360957,-0.01943347,-0.08657021,-0.05746084,0.19153613,-9.251195,0.75755644,47.675243,-0.7954637,-2.0745463,-3.3421617,-0.085073784,-0.09035457,-0.3164167,27.875,29.125,28.1875,31.875,33.9375,34.75
0.118052125,-0.014295604,0.5327752,-0.4110256,0.011304858,0.015694704,-0.19523634,-0.3761686,-0.3277326,0.060032465,-3.077706,0.6228312,0.00022114582,-0.055071913,0.0070151864,0.001281604,0.02246864,-0.0009811952,0.04278479,0.44502574,-1.465524,2.0031545,-2.1061614,-1.5717968,2.4187775,-0.049228992,0.09371986,-0.11295011,0.029742746,-0.0201026,-0.09189528,-0.05746084,0.17238252,-9.289502,0.7642693,47.704796,-0.8436604,-2.0572565,-3.2065039,-0.07181011,-0.10917838,-0.25852355,27.875,29.125,28.1875,31.875,33.9375,34.75
0.120052144,-0.08570668,0.22013542,-0.26646537,0.01549867,0.014781756,-0.20082526,-0.3762604,-0.32772124,0.060036972,-3.0776918,0.6225951,0.00021883113,-0.053730737,0.007172257,-0.00026603934,0.0246281,-0.004623084,0.046801746,0.4449542,-1.4653555,2.0029395,-2.106077,-1.5718449,2.4185605,-0.048045937,0.095764995,-0.1119304,0.030886455,-0.020486062,-0.09472819,-0.038307227,0.19153613,-9.289502,0.7284641,47.703903,-1.0557287,-2.0140486,-3.4493194,-0.05884158,-0.08611976,-0.20556653,27.875,29.125,28.1875,31.875,33.9375,34.75
0.12205221,-0.15239614,0.2625162,-0.28424498,0.006475086,0.013135238,-0.19417651,-0.3763706,-0.32771423,0.060017798,-3.0776794,0.6224193,0.00018012889,-0.055288646,0.0071102055,0.00081563706,0.023662977,-0.0035763753,0.047273587,0.4448575,-1.465116,2.002711,-2.1060402,-1.5718683,2.418356,-0.04958979,0.09624933,-0.11531441,0.03241764,-0.020076733,-0.09674227,-0.05746084,0.19153613,-9.193734,0.8493211,47.686886,-1.0482776,-1.9703963,-3.257474,-0.045013934,-0.11872567,-0.17463186,27.875,29.125,28.1875,31.875,33.9375,34.75
0.124052316,-0.09557569,-0.0003677468,-0.47519606,0.0052832533,0.010266054,-0.19628906,-0.3764908,-0.32768595,0.060043488,-3.0776353,0.622392,0.00023594798,-0.05556701,0.007882793,-0.00011276508,0.025505222,-0.0062257843,0.046109874,0.44473717,-1.4649712,2.0024707,-2.105944,-1.5719289,2.4182243,-0.050917007,0.09878569,-0.11638295,0.034127522,-0.020600144,-0.09690402,0.0,0.15322891,-9.174581,0.8291774,47.71017,-1.0705848,-2.0964193,-3.4371479,-0.053881824,-0.13514498,-0.15389857,27.875,29.0625,28.1875,31.875,33.9375,34.75
0.12605183,-0.23822372,-0.2692161,-0.31379056,-0.0051899245,0.010131384,-0.19341451,-0.37660024,-0.32765695,0.06003834,-3.0775952,0.62225056,0.00021989275,-0.05621829,0.008697676,-7.6583354e-05,0.027385965,-0.0063491585,0.04355472,0.44461676,-1.4647796,2.0022547,-2.105871,-1.571977,2.418021,-0.051899172,0.099517174,-0.117609836,0.03554441,-0.022249613,-0.09532568,-0.019153614,0.19153613,-9.174581,0.7732232,47.70838,-1.0338485,-1.827687,-3.4371982,-0.056266636,-0.115068056,-0.15706293,27.875,29.0625,28.1875,31.875,33.9375,34.75
0.12805188,-0.6635712,-0.5227793,-0.44744596,-0.008596874,0.013099172,-0.18412098,-0.37670875,-0.32766432,0.060042426,-3.0776017,0.62200296,0.00022363583,-0.057466898,0.007632488,0.0013257045,0.026581006,-0.0036805416,0.041005693,0.4445573,-1.4645637,2.001991,-2.1057994,-1.5720133,2.4178064,-0.050722193,0.0999073,-0.121426694,0.03621813,-0.022676917,-0.09159603,-0.095768064,0.24899697,-9.174581,0.800085,47.716442,-1.1802477,-2.0187821,-3.3689861,-0.06263232,-0.09344579,-0.164733,27.875,29.0625,28.1875,31.875,33.9375,34.75
0.13005242,-0.7435316,-0.35251114,-0.6112139,-0.003718391,0.009345991,-0.18877992,-0.37681192,-0.32764512,0.060031045,-3.0775783,0.62188697,0.00015792291,-0.057036225,0.008551335,0.00016131287,0.02685236,-0.0067805587,0.03399179,0.44443655,-1.4643599,2.001776,-2.1057274,-1.5720252,2.4176164,-0.052771874,0.100819804,-0.119890496,0.036684744,-0.02158709,-0.08663406,-0.19153613,0.21068975,-9.32781,0.8224646,47.687782,-1.128606,-1.7523746,-3.5634055,-0.052436493,-0.13138905,-0.22358365,27.875,29.0625,28.1875,31.875,33.9375,34.75
0.1320525,-0.74550736,-0.4374039,-0.8362025,0.0075828806,0.008528369,-0.1936491,-0.37695384,-0.32764465,0.06005373,-3.077577,0.6218097,0.0002467912,-0.059222944,0.0077725016,0.0010606828,0.025687646,-0.005778081,0.033080835,0.44434017,-1.464155,2.001487,-2.1056788,-1.5720729,2.4174721,-0.05366913,0.10366525,-0.12539376,0.03792843,-0.02097387,-0.08661933,-0.038307227,0.24899697,-9.3661175,0.8314132,47.703007,-1.1107726,-2.0293407,-3.321933,-0.047809526,-0.15980767,-0.25591034,27.875,29.0625,28.1875,31.875,33.9375,34.75
0.13405171,-0.44469714,-0.06951192,-0.5322455,-0.008041964,0.022863584,-0.1960224,-0.3770454,-0.3276007,0.06002834,-3.077463,0.6217118,9.691729e-05,-0.059958756,0.008065147,0.0012458977,0.026196897,-0.005979284,0.029096525,0.44420797,-1.4639274,2.0012586,-2.1055229,-1.572121,2.4172935,-0.05459911,0.10457917,-0.12712312,0.039143786,-0.021360302,-0.08355998,-0.095768064,0.19153613,-9.404425,0.8224646,47.70838,-1.158552,-1.7847625,-3.4103994,-0.058455415,-0.1686686,-0.28588927,27.875,29.0625,28.1875,31.875,33.9375,34.75
0.13605209,-0.8556381,-0.6674903,-0.8288336,-0.0036078196,0.019228479,-0.18620898,-0.3771625,-0.3276009,0.06004875,-3.0774689,0.62151957,0.00015403473,-0.060927305,0.008340415,0.000670221,0.027450433,-0.0069616362,0.02974442,0.4441356,-1.4637464,2.0009959,-2.1054509,-1.5721692,2.4171007,-0.05548544,0.10759788,-0.12927693,0.039699093,-0.02207554,-0.08509102,-0.22984336,0.19153613,-9.442732,0.8605109,47.71286,-1.1502868,-1.906517,-3.4675467,-0.066329606,-0.16596459,-0.3248346,27.875,29.0625,28.1875,31.875,33.9375,34.75
0.13805206,-0.9099325,-0.4626518,-0.9655677,-0.01796379,0.04103516,-0.19562915,-0.37727338,-0.32757452,0.060029067,-3.0774057,0.6214492,5.7797428e-05,-0.06239405,0.009083817,0.001091489,0.02850247,-0.0063947528,0.029346447,0.444003,-1.4635067,2.0007546,-2.105355,-1.5721935,2.4169323,-0.057357747,0.10867948,-0.13176349,0.04104101,-0.023283537,-0.08655883,-0.24899697,0.26815057,-9.481039,0.7732232,47.68599,-1.1081389,-1.865896,-3.3649225,-0.059052475,-0.18837972,-0.33344018,27.875,29.0625,28.1875,31.875,33.9375,34.75
0.140052,-1.2259781,-0.77006817,-0.988374,-0.03495083,0.047203418,-0.18938723,-0.37741682,-0.32753828,0.06004251,-3.0773344,0.6213772,0.00013086283,-0.06282291,0.009354413,0.0010816606,0.029241491,-0.0072168913,0.028286947,0.44387093,-1.4633026,2.0004795,-2.1052706,-1.5722893,2.4167647,-0.058010325,0.10972743,-0.13325666,0.042536642,-0.023600677,-0.08615018,-0.30645782,0.22984336,-9.5385,0.8403672,47.682407,-1.217263,-1.8429427,-3.376068,-0.0673628,-0.16547881,-0.34909958,27.875,29.0625,28.1875,31.875,33.9375,34.75
0.142052,-1.4128064,-1.2256916,-0.8308463,-0.039032955,0.057843365,-0.19481498,-0.37751886,-0.3275268,0.06003237,-3.077297,0.6212141,4.857264e-05,-0.06370244,0.009822423,0.0013601967,0.029170873,-0.007999869,0.029372344,0.4437742,-1.4630749,2.0002267,-2.1051624,-1.5723137,2.4165711,-0.059915967,0.110504076,-0.13519044,0.04435951,-0.023213614,-0.08913965,-0.34476504,0.24899697,-9.557653,0.78217715,47.701214,-1.1765629,-1.7035061,-3.3531651,-0.09749259,-0.1753334,-0.35930097,27.875,29.0625,28.1875,31.875,33.9375,34.75
0.14405178,-1.2857182,-0.8929072,-1.0178769,-0.04512991,0.06991954,-0.19221754,-0.37767714,-0.3275102,0.060053706,-3.077277,0.62121195,6.840094e-05,-0.06477571,0.010351111,0.0012718473,0.029867018,-0.008741897,0.026761433,0.44361755,-1.4628466,1.999904,-2.105066,-1.572338,2.416416,-0.061624914,0.112338,-0.13732359,0.045624793,-0.02352762,-0.08823563,-0.49799395,0.34476504,-9.576807,0.78888994,47.678825,-1.118453,-1.6951272,-3.3808482,-0.115311265,-0.20530829,-0.3978001,27.875,29.0625,28.1875,31.875,33.9375,34.75
0.14605244,-1.7164093,-0.9451516,-1.0358891,-0.035533905,0.0660378,-0.18601036,-0.3777798,-0.32748884,0.060034785,-3.07723,0.6210458,-4.672689e-06,-0.06537775,0.010163051,0.0009643682,0.030258028,-0.010030587,0.031205881,0.44350955,-1.4626182,1.9996761,-2.1049821,-1.5723737,2.4162104,-0.06191474,0.11482469,-0.13965234,0.04678359,-0.0233464,-0.09296708,-0.5554548,0.21068975,-9.691729,0.8717007,47.67793,-1.2022277,-1.8012182,-3.354636,-0.1294052,-0.21732,-0.396201,27.875,29.0625,28.1875,31.875,33.9375,34.75
0.14805241,-1.4289788,-0.39142987,-0.882525,-0.03018783,0.075269334,-0.20192224,-0.37790766,-0.32747486,0.060027387,-3.077172,0.62091625,-5.265688e-05,-0.06540986,0.01079459,-0.00012790175,0.03190112,-0.0138007235,0.03419381,0.44340116,-1.4623538,1.9993762,-2.104873,-1.5724219,2.4160287,-0.06318414,0.11777141,-0.14099842,0.049277958,-0.023225827,-0.09722257,-0.4213795,0.24899697,-9.634268,0.85155696,47.670765,-1.1461425,-1.4537914,-3.4398375,-0.15624979,-0.23381385,-0.34573925,27.875,29.0625,28.1875,31.875,33.9375,34.75
0.1500525,-1.5488368,0.09159949,-0.8437208,-0.023488464,0.06917464,-0.20025584,-0.37803775,-0.32745996,0.060033873,-3.0771666,0.620836,-9.896119e-05,-0.0678529,0.010360211,0.00044938904,0.031262983,-0.011327787,0.038197458,0.44325677,-1.4621371,1.9991001,-2.1047776,-1.5724219,2.4158351,-0.064186275,0.1205446,-0.14514974,0.0481375,-0.023736194,-0.102222875,-0.47884035,0.22984336,-9.595961,0.8247004,47.691364,-1.1748741,-1.7996697,-3.3737705,-0.16295148,-0.2717414,-0.34127748,27.875,29.0625,28.1875,31.875,33.9375,34.75
0.15205243,-1.5783938,-0.13997912,-0.7170255,-0.001751534,0.06552714,-0.19828595,-0.37820688,-0.32744628,0.06004478,-3.0771308,0.6206726,-2.2452161e-05,-0.06810799,0.011119117,-0.0013782728,0.03340936,-0.014788263,0.043251634,0.44313625,-1.4618602,1.998753,-2.104706,-1.5725058,2.4156175,-0.06549043,0.124738775,-0.14571495,0.048532825,-0.024204314,-0.10857899,-0.45968673,0.21068975,-9.385271,0.8224646,47.690468,-1.1479595,-1.7721722,-3.4650424,-0.17539501,-0.28139466,-0.25614458,27.875,29.0625,28.1875,31.875,33.9375,34.75
0.15405238,-1.502579,0.16216111,-0.69658935,0.003844899,0.06293987,-0.1927942,-0.37835222,-0.3274233,0.060069352,-3.077132,0.62045777,4.7649526e-05,-0.06926031,0.011269203,-0.0002935833,0.033064116,-0.0132800555,0.048284832,0.44300395,-1.4616687,1.9984659,-2.1046216,-1.5725664,2.4153512,-0.066536635,0.12426614,-0.14797232,0.04973136,-0.024552468,-0.11465679,-0.4213795,0.15322891,-9.423578,0.83589023,47.70032,-1.0698524,-1.746484,-3.3866982,-0.19129637,-0.27433813,-0.21191633,27.875,29.0625,28.1875,31.875,33.9375,34.75
0.15605229,-1.2549615,0.5539557,-0.5826511,0.015677277,0.060027402,-0.20287909,-0.37848103,-0.32739472,0.060064204,-3.0770733,0.62030923,-4.1343894e-05,-0.06959429,0.012128931,-0.0011945223,0.035787553,-0.016457498,0.051918987,0.44285962,-1.4614161,1.9981655,-2.1044767,-1.5726026,2.4151218,-0.06766413,0.12735043,-0.15002273,0.052722,-0.025671607,-0.11941186,-0.36391866,0.038307227,-9.346964,0.8537928,47.71286,-1.1035295,-1.8326094,-3.387291,-0.2297251,-0.28510088,-0.093582906,27.875,29.0625,28.1875,31.875,33.9375,34.75
0.15805212,-0.77969664,0.2636089,-0.61934745,0.029659346,0.052999835,-0.19439277,-0.37863123,-0.32737646,0.060058955,-3.0770442,0.62016875,-6.788482e-05,-0.0714887,0.012061943,-0.00019911745,0.035163485,-0.014285969,0.051839937,0.4427152,-1.4611403,1.9978536,-2.1043937,-1.5726384,2.4148936,-0.06893899,0.12820274,-0.15332729,0.05293573,-0.02605645,-0.12060335,-0.38307226,0.076614454,-9.289503,0.8672237,47.729877,-1.0970063,-1.7936208,-3.371873,-0.2458973,-0.33359265,-0.06861436,27.875,29.0625,28.1875,31.875,33.9375,34.75
0.16005436,-0.26341078,0.8240497,-0.3216892,0.0072572636,0.05609181,-0.20720384,-0.37876883,-0.32733876,0.060037218,-3.0769744,0.61996377,-0.000107295324,-0.07266102,0.012615568,-0.0012522149,0.036376983,-0.01446391,0.048871476,0.44257078,-1.460864,1.997579,-2.1043103,-1.5727113,2.4146304,-0.070294164,0.13141875,-0.1540978,0.05116556,-0.027094021,-0.11898317,-0.4405331,0.019153614,-9.308656,0.85155696,47.741516,-1.1142029,-1.8537357,-3.274921,-0.23688221,-0.32041946,-0.070383385,27.875,29.0625,28.1875,31.875,33.9375,34.75
0.16205244,-0.80247897,0.5825968,-0.5642822,0.0015773646,0.038090743,-0.19298163,-0.3789353,-0.32731313,0.060069486,-3.0769453,0.6198246,-6.923735e-05,-0.07318183,0.012871021,-0.0019225772,0.038325038,-0.01685131,0.045127954,0.44241458,-1.4606351,1.997219,-2.1041653,-1.5727714,2.4143913,-0.07070558,0.134756,-0.15681791,0.05353889,-0.027833132,-0.11564691,-0.40222588,0.076614454,-9.270349,0.8537928,47.707485,-1.1590014,-1.8977437,-3.2044153,-0.25582588,-0.32126245,-0.092544846,27.875,29.0625,28.1875,31.875,33.9375,34.75
0.16405244,-0.8959717,-0.19236743,-0.4534458,0.010764638,0.038883783,-0.18814556,-0.3790959,-0.32730973,0.060081597,-3.0769594,0.6196599,-4.7421832e-05,-0.074736066,0.014443093,-0.00148775,0.038879536,-0.01694744,0.036850758,0.44228125,-1.4603716,1.9968833,-2.1040933,-1.5727957,2.4141536,-0.07468701,0.13481927,-0.15831853,0.055305462,-0.028289063,-0.111349344,-0.36391866,0.038307227,-9.289502,0.784413,47.694946,-0.92853117,-1.8793678,-3.4061902,-0.28717268,-0.34044057,-0.1410957,27.875,29.0625,28.1875,31.875,33.9375,34.75
0.16605246,-1.1626078,-0.19222835,-0.63080657,-0.0025090945,0.044785563,-0.18493268,-0.3792502,-0.32728952,0.060109068,-3.0769472,0.6195616,9.875078e-06,-0.07452521,0.01376462,-0.002888897,0.040381487,-0.019190222,0.035089254,0.44213793,-1.4601663,1.9965714,-2.1039975,-1.5728434,2.4139507,-0.07293173,0.13899286,-0.15972984,0.05521328,-0.028687492,-0.10783012,-0.4405331,0.038307227,-9.174581,0.8403672,47.687782,-1.0910956,-2.0471723,-3.3898387,-0.31551927,-0.3677457,-0.17257038,27.875,29.0625,28.1875,31.875,33.9375,34.75
0.16805251,-0.7711409,0.00868794,-0.26714078,-0.007774606,0.060007907,-0.19793788,-0.37938586,-0.32725093,0.06007761,-3.0768323,0.6194443,-8.8665685e-05,-0.07687835,0.014387121,-0.0020068604,0.039791316,-0.016664935,0.029661704,0.4419931,-1.4598547,1.9962715,-2.1038778,-1.5729154,2.4137475,-0.07577671,0.1396202,-0.16236134,0.054678813,-0.029255418,-0.105240226,-0.38307226,0.13407528,-9.174581,0.842603,47.686886,-1.0297748,-1.8623958,-3.3829181,-0.30980635,-0.36238652,-0.26159525,27.875,29.0625,28.1875,31.875,33.9375,34.75
0.17005251,-0.61505604,-0.08847562,-0.30852655,-0.008745497,0.06646686,-0.1991336,-0.37954062,-0.32721648,0.060069278,-3.076746,0.6193145,-9.96418e-05,-0.07943689,0.015010923,-0.00107164,0.03895422,-0.013925342,0.02516309,0.4418478,-1.459567,1.9959477,-2.1037705,-1.5730003,2.4135325,-0.07889279,0.14033212,-0.16515553,0.053918563,-0.029687367,-0.103852294,-0.34476504,0.1340753,-9.212888,0.7418897,47.72719,-0.8086853,-1.8952119,-3.3503723,-0.30671453,-0.37445825,-0.25808027,27.875,29.0625,28.1875,31.875,33.9375,34.75
0.17205228,-1.0196391,-0.34702018,-0.3278519,-0.006476327,0.046615034,-0.18753095,-0.3797287,-0.32719934,0.060096283,-3.0767386,0.61915886,-5.7037538e-05,-0.079845324,0.014641811,-0.0014785471,0.039609063,-0.013276744,0.02387537,0.44168028,-1.4592907,1.9955529,-2.1036513,-1.573048,2.413269,-0.07793551,0.14214633,-0.16596873,0.05261015,-0.03056197,-0.101603255,-0.40222588,0.2681506,-9.212888,0.76874626,47.70838,-1.0026202,-1.8338357,-3.4167697,-0.31623343,-0.40981263,-0.34163648,27.875,29.0625,28.1875,31.875,33.9375,34.75
0.17405239,-1.2820324,-0.62376386,-0.42266765,-0.001771829,0.03715741,-0.18118729,-0.37988394,-0.32717836,0.060091913,-3.0766985,0.6190552,-5.744609e-05,-0.08195086,0.015096066,-0.0008311373,0.038919087,-0.010382034,0.021375477,0.44153553,-1.4590153,1.9952415,-2.1035798,-1.5730966,2.413065,-0.08019553,0.1426975,-0.16770443,0.05087639,-0.03119015,-0.10135866,-0.34476504,0.22984336,-9.040505,0.8291774,47.739727,-0.8906518,-1.8547728,-3.4126673,-0.30616158,-0.40203774,-0.34502536,27.875,29.0625,28.1875,31.875,33.9375,34.75
0.17605236,-0.25710377,-0.2661546,-0.40741342,-0.020167856,0.06011686,-0.19329016,-0.38003692,-0.32712662,0.060065724,-3.076547,0.6190648,-0.0001167347,-0.084321216,0.014868197,-8.68878e-05,0.03806832,-0.007223338,0.017936965,0.4413671,-1.4587033,1.9949292,-2.1034615,-1.5731925,2.4129221,-0.08143288,0.14442518,-0.17098287,0.049200926,-0.03179278,-0.099149175,-0.3256114,0.19153613,-9.078813,0.8560339,47.71465,-0.838632,-1.7351147,-3.2790623,-0.2869094,-0.4015149,-0.45300925,27.875,29.0625,28.1875,31.875,33.9375,34.75
0.17805238,-0.92095834,-0.47620398,-0.5258211,-0.017971372,0.045967996,-0.19823295,-0.38021624,-0.32709387,0.060069192,-3.076485,0.6190894,-0.00017290999,-0.08597304,0.015119586,0.00019369157,0.03881436,-0.005187454,0.019340446,0.44116282,-1.4584032,1.9945587,-2.1033294,-1.5732168,2.4127414,-0.08226936,0.14598587,-0.17319229,0.04831815,-0.03335899,-0.101379864,-0.28730422,0.24899697,-9.308657,0.8537928,47.73256,-0.826059,-1.8479408,-3.5100203,-0.25142345,-0.39529774,-0.48130885,27.875,29.0625,28.1875,31.875,33.9375,34.75
0.18005252,-1.298319,-0.9857304,-0.52384174,-0.016442575,0.045146976,-0.179071,-0.3803847,-0.32705498,0.060068376,-3.0764222,0.61890167,-0.0001288574,-0.087961935,0.01704383,-0.0010860616,0.041063827,-0.006015382,0.020742744,0.44100544,-1.4581263,1.9942349,-2.1032465,-1.5733136,2.412475,-0.086442396,0.14960544,-0.1740621,0.047253005,-0.035063244,-0.10694654,-0.34476507,0.15322891,-9.385271,0.8157518,47.70659,-0.7405944,-1.8715441,-3.4262838,-0.239162,-0.38939697,-0.48381132,27.875,29.0625,28.1875,31.875,33.9375,34.75
0.1820525,-1.0636505,-0.29160017,-0.6094122,-0.031550895,0.069887266,-0.19734597,-0.38057715,-0.32703322,0.060087606,-3.0764089,0.61877877,-8.388607e-05,-0.08911183,0.015894165,0.0008875073,0.039790884,-0.0006857956,0.029366955,0.44082627,-1.45784,1.9938515,-2.1031506,-1.5733618,2.4122212,-0.08449311,0.14780517,-0.17632592,0.045927837,-0.036212415,-0.11361607,-0.30645782,0.19153613,-9.289502,0.7105615,47.701214,-0.76321834,-1.6526842,-3.4329164,-0.20689544,-0.3897246,-0.44726777,27.875,29.0625,28.1875,31.875,33.9375,34.75
0.18405266,-0.95362514,0.0071201366,-0.90509427,-0.013107588,0.06787921,-0.1995946,-0.3807415,-0.32699493,0.060071446,-3.0763297,0.6186991,-9.241838e-05,-0.09115734,0.015868219,0.001738216,0.03864622,0.0006876455,0.037852306,0.4406575,-1.4575399,1.9935397,-2.103079,-1.5734342,2.412013,-0.08648716,0.14918202,-0.17995253,0.046400994,-0.03580271,-0.124092855,-0.24899697,0.19153613,-9.404425,0.7911258,47.716442,-0.749725,-1.6608636,-3.3438165,-0.21156764,-0.40136963,-0.3872218,27.875,29.0625,28.1875,31.875,33.9375,34.75
0.18605201,-1.2920529,0.11258782,-0.92987573,-0.0054008565,0.06580805,-0.19368744,-0.38095117,-0.3269717,0.06009645,-3.0763032,0.6185385,-2.7558419e-05,-0.09277003,0.017160641,0.0008709627,0.04029888,0.0013057597,0.04200659,0.44047654,-1.4572273,1.9931086,-2.1029599,-1.5735062,2.4117355,-0.08907781,0.15164746,-0.18027893,0.04437863,-0.037584502,-0.13083018,-0.30645782,0.22984336,-9.500193,0.7732232,47.72002,-0.53936046,-1.7333236,-3.447001,-0.1485188,-0.39981154,-0.3019699,27.875,29.0625,28.1875,31.875,33.9375,34.75
0.18805209,-0.9155606,0.17760406,-1.0104761,-0.003851676,0.08004152,-0.19487822,-0.38112953,-0.32692766,0.0600719,-3.076208,0.61832154,-3.066022e-05,-0.093373194,0.016536878,0.0011765544,0.041539803,0.0034840712,0.05006901,0.44030935,-1.4568797,1.9927605,-2.102877,-1.5736154,2.4114454,-0.08700533,0.15279256,-0.18211554,0.0435972,-0.039668527,-0.13680789,-0.40222588,0.19153613,-9.423578,0.8090337,47.705692,-0.8142967,-1.6828071,-3.43289,-0.13026322,-0.3889814,-0.21470061,27.875,29.0625,28.1875,31.875,33.9375,34.75
0.19005212,-1.0818212,-0.079616874,-1.0862423,0.0039497437,0.082030036,-0.19093113,-0.38129067,-0.3268942,0.060067434,-3.076148,0.6181357,-4.2798958e-05,-0.094014056,0.017601406,4.4055752e-05,0.04502223,0.0015863376,0.05191567,0.44015306,-1.4565915,1.9924263,-2.1027682,-1.5736884,2.411181,-0.087935686,0.15617006,-0.18359427,0.04488286,-0.04202813,-0.13957243,-0.3256114,0.17238252,-9.634268,0.78217715,47.703903,-0.8006153,-1.6502538,-3.3946915,-0.11653745,-0.3597922,-0.17122963,27.875,29.0625,28.1875,31.875,33.9375,34.75
0.19205223,-1.5241348,-0.4112892,-1.3760679,-0.0010523868,0.08163312,-0.1822021,-0.38146976,-0.3268246,0.060023718,-3.0759912,0.61804557,-0.0001233407,-0.095185354,0.017769247,0.0015234062,0.046173196,0.004087996,0.05141061,0.43993714,-1.45622,1.9920896,-2.10266,-1.5737966,2.4109292,-0.08780436,0.15540636,-0.18664344,0.04690831,-0.044158984,-0.13892062,-0.53630114,0.15322891,-9.691729,0.88960326,47.72719,-0.7825707,-1.6661025,-3.4034033,-0.092125624,-0.32668585,-0.18065198,27.875,29.0625,28.1875,31.875,33.9375,34.75
0.19405238,-1.279116,-0.18469273,-1.2959048,-0.010728227,0.07719143,-0.18565172,-0.38166556,-0.3268166,0.060065642,-3.0760205,0.61780363,-3.973184e-05,-0.09427741,0.017928183,-0.00040718957,0.0486589,-0.0014423274,0.04784371,0.43978128,-1.455955,1.9916719,-2.1025393,-1.5738448,2.4106188,-0.087330736,0.15969871,-0.18765257,0.04968702,-0.044037454,-0.13488153,-0.36391866,0.076614454,-9.691729,0.83589023,47.683304,-0.9310176,-1.8753605,-3.5056815,-0.105440676,-0.31732732,-0.19863462,27.875,29.0625,28.1875,31.875,33.9375,34.75
0.1960525,-0.73096824,-0.5422447,-1.5105861,-0.0069720517,0.071974844,-0.18845071,-0.3818797,-0.32679558,0.06006614,-3.0759969,0.61766726,4.1818308e-05,-0.09597396,0.017722467,-0.00053852063,0.04936566,0.00040863256,0.042301483,0.43960133,-1.4556066,1.9912757,-2.102504,-1.5739173,2.410357,-0.08743523,0.16263403,-0.1902815,0.048012536,-0.045462985,-0.12943637,-0.24899697,0.038307227,-9.844957,0.8537928,47.66808,-0.96957326,-1.7953963,-3.494746,-0.08628381,-0.29974413,-0.25001898,27.875,29.0625,28.1875,31.875,33.9375,34.75
0.19805257,-0.87284267,-0.40275085,-1.3250858,-0.015120788,0.05078755,-0.18172802,-0.38206592,-0.3267223,0.060059473,-3.075856,0.6174857,0.00014828141,-0.097589344,0.01779442,-0.00074016134,0.05204598,0.0009656373,0.040149778,0.43942145,-1.4553179,1.9909514,-2.1024196,-1.5740985,2.410082,-0.08715983,0.16653527,-0.19437064,0.048823528,-0.048136353,-0.12699376,-0.24899697,0.05746084,-9.749189,0.9030289,47.679718,-0.9562249,-1.9364443,-3.484103,-0.05526,-0.26274142,-0.31171316,27.875,29.0625,28.1875,31.875,33.9375,34.75
0.2000525,-0.6291233,-0.35972583,-1.5533384,0.0041262554,0.039026175,-0.17867358,-0.38224596,-0.32670003,0.06006135,-3.0758014,0.6173785,0.00011424235,-0.09787529,0.018656129,-0.0014339703,0.05453711,-0.00051863154,0.039221995,0.43925318,-1.4549937,1.9905571,-2.102288,-1.5741466,2.4098542,-0.08787585,0.16841209,-0.19522114,0.050192643,-0.049769327,-0.12677212,-0.11492168,0.05746084,-9.691729,0.8403672,47.699425,-0.9858979,-2.0309067,-3.4845548,-0.042447884,-0.23066969,-0.35256106,27.875,29.0625,28.1875,31.875,33.9375,34.75
0.2020525,0.06090538,0.22158523,-1.6825051,0.0031934641,0.030594679,-0.19461639,-0.38245562,-0.32664862,0.06006315,-3.0756853,0.61723953,0.0001615104,-0.09861862,0.01889684,-0.0015288661,0.05595721,-0.0009455306,0.037433427,0.43906105,-1.4546459,1.9901365,-2.102156,-1.5742792,2.4095905,-0.08817856,0.17029697,-0.19744405,0.05150422,-0.050883133,-0.12527767,0.019153614,0.19153613,-9.691729,0.8493211,47.66808,-1.0401382,-1.9784439,-3.416354,-0.030785765,-0.1907579,-0.38206524,27.875,29.0625,28.1875,31.875,33.9375,34.75
0.20405246,-0.32888487,-0.34107,-1.5739408,-0.0007131547,0.010805191,-0.18876748,-0.38266176,-0.3266191,0.060055654,-3.07562,0.6170729,0.00017427809,-0.0993866,0.019616157,-0.0017077553,0.05645589,-0.0018440713,0.036833476,0.43888032,-1.454274,1.9897183,-2.1020591,-1.5743631,2.4093144,-0.090081245,0.17142847,-0.19857633,0.052506115,-0.050967157,-0.12657711,0.019153614,0.22984336,-9.730036,0.8717007,47.666286,-0.9372422,-1.9772329,-3.469229,-0.031381976,-0.15512995,-0.37949657,27.875,29.0625,28.1875,31.875,33.9375,34.75
0.20605256,0.16875556,-1.1666868,-1.5481358,-0.023622476,0.02406426,-0.18542098,-0.38287213,-0.32657447,0.060070522,-3.0755348,0.616996,0.00031049867,-0.10038775,0.019580105,-0.0019508197,0.057291895,-0.0034394844,0.039033324,0.43870017,-1.4539737,1.989334,-2.1019866,-1.5744952,2.4090974,-0.09077758,0.17463706,-0.20210603,0.054589838,-0.051059987,-0.12947172,0.019153614,0.24899697,-9.615114,0.94331104,47.74331,-0.9573201,-1.9421514,-3.5665221,-0.0237626,-0.13651976,-0.41978347,27.875,29.0625,28.1875,31.875,33.9375,34.75
0.20805253,-0.33941412,-1.4854269,-1.3763592,-0.04111275,0.008842319,-0.18301377,-0.3830753,-0.32652634,0.060072392,-3.0754473,0.6168593,0.00032235275,-0.1004789,0.019962419,-0.0010928195,0.057201114,-0.0035795881,0.044358082,0.438496,-1.4536388,1.9889272,-2.1018546,-1.5745915,2.4088194,-0.09158533,0.17313206,-0.20300214,0.0570313,-0.050944865,-0.13560225,0.038307227,0.30645782,-9.519346,0.8560339,47.749577,-0.9765516,-1.9162841,-3.5870254,-0.03562159,-0.1052466,-0.37689984,27.875,29.0625,28.1875,31.875,33.9375,34.75
0.21005256,-0.17538436,-1.0349064,-1.1173646,-0.06176676,0.01386499,-0.18990046,-0.38325074,-0.32649752,0.060064472,-3.0753791,0.6165901,0.0003164953,-0.100497425,0.020382574,-0.00164798,0.057990856,-0.006682544,0.051605396,0.4383516,-1.4533029,1.9885443,-2.101734,-1.5746869,2.408516,-0.092715405,0.17499487,-0.20446482,0.059719034,-0.05037742,-0.1439782,0.05746084,0.3256114,-9.500193,0.85155696,47.746887,-1.056231,-1.8299747,-3.5388322,-0.030343343,-0.100657046,-0.32442248,27.875,29.0625,28.1875,31.875,33.9375,34.75
0.2120525,0.0076894984,-1.2746239,-1.0060353,-0.043430105,0.005407481,-0.18654984,-0.38347992,-0.32646188,0.060079042,-3.075341,0.61638606,0.00039981847,-0.100580156,0.020417703,-0.001904523,0.05791567,-0.009619737,0.059489638,0.43814743,-1.4529546,1.9881014,-2.1016366,-1.5747823,2.4081895,-0.09364617,0.1767126,-0.20650078,0.06259926,-0.049092397,-0.1527982,0.019153614,0.28730422,-9.442732,0.86945957,47.719128,-1.1239057,-1.9433742,-3.5516553,-0.05145926,-0.08687604,-0.23190525,27.875,29.0625,28.1875,31.875,33.9375,34.75
0.21405236,-0.02818485,-0.5631272,-0.93389887,-0.031839024,-0.0038386856,-0.19036041,-0.3836955,-0.326422,0.060082983,-3.0753016,0.6161841,0.00041889862,-0.10073179,0.019149289,-0.00049231696,0.05578269,-0.009809419,0.06353487,0.43793157,-1.4526075,1.9876813,-2.101528,-1.5748538,2.407853,-0.09268193,0.17619434,-0.20994483,0.06578703,-0.047101747,-0.15588526,0.095768064,0.36391866,-9.385271,0.78217715,47.716442,-0.97617906,-1.7398968,-3.480448,-0.08948117,-0.07599774,-0.13156995,27.875,29.0625,28.1875,31.875,33.9375,34.75
0.21605241,0.44760856,-0.40876356,-0.7024739,-0.0075600087,-0.0037586817,-0.19604394,-0.3838891,-0.326376,0.0600768,-3.0751736,0.6160035,0.0004200073,-0.10157527,0.018392071,0.00086124503,0.053419095,-0.009910112,0.06418372,0.43776342,-1.4522485,1.9872602,-2.1013715,-1.5749849,2.4075887,-0.09339773,0.17605938,-0.21360187,0.06862623,-0.044943847,-0.15725398,0.019153614,0.3256114,-9.193734,0.8314132,47.71554,-1.1479423,-1.742054,-3.422422,-0.12563847,-0.0879654,-0.08025551,27.875,29.0625,28.1875,31.875,33.9375,34.75
0.2180517,0.25723246,-0.19319503,-0.7154203,0.012131283,-0.016486036,-0.18417099,-0.3840737,-0.32634875,0.060063187,-3.0751202,0.6157076,0.0004016482,-0.10273932,0.018661689,0.0012565979,0.05200781,-0.011948912,0.057303555,0.43760636,-1.4518884,1.9868659,-2.1012628,-1.5750684,2.407254,-0.09629187,0.17750432,-0.2168784,0.07169678,-0.042806126,-0.15327312,-0.038307227,0.30645782,-9.078813,0.7978386,47.717335,-0.9654837,-1.624677,-3.3965678,-0.14615363,-0.1130783,-0.13779135,27.875,29.0625,28.1875,31.875,33.9375,34.75
0.22005254,0.27236038,0.21922415,-0.8748776,0.014927181,-0.013893418,-0.18774563,-0.3842702,-0.3263235,0.06008547,-3.07506,0.61558276,0.0003782305,-0.10243875,0.017761448,0.0011249423,0.05147651,-0.0142030455,0.05304762,0.4374269,-1.4515644,1.98641,-2.1010702,-1.575128,2.4070046,-0.095254935,0.17930575,-0.2191615,0.07399776,-0.041368496,-0.14798333,-0.11492168,0.24899697,-9.212888,0.95897776,47.77286,-1.1413814,-1.5531666,-3.4272308,-0.16976568,-0.12534353,-0.18978396,27.875,29.0625,28.1875,31.875,33.9375,34.75
0.22205256,0.31529474,0.33130074,-0.68967754,0.0013086417,0.0041003437,-0.18432,-0.38449025,-0.32628733,0.060092144,-3.0750027,0.61542,0.00040739594,-0.1024773,0.018128633,0.00087252894,0.051625222,-0.01689023,0.046270862,0.43722242,-1.4512048,1.9859666,-2.10095,-1.5752114,2.406706,-0.096579224,0.18046275,-0.22055307,0.07673097,-0.040357593,-0.14253384,-0.076614454,0.22984336,-9.193734,0.83365434,47.694054,-1.1047378,-1.5353665,-3.3473363,-0.22797422,-0.121471204,-0.2486807,27.875,29.0625,28.1875,31.875,33.9375,34.75
0.22405253,-0.22223076,-0.24280274,-0.78112894,-0.0048120744,0.013657735,-0.18061288,-0.3846885,-0.32624313,0.06008579,-3.074908,0.61528677,0.00030830156,-0.10342467,0.017516213,0.0016279019,0.050482005,-0.016803348,0.04223314,0.43700635,-1.450833,1.9855231,-2.1007578,-1.575271,2.4064193,-0.096860565,0.18153997,-0.22394548,0.07848085,-0.039374862,-0.13877577,-0.11492168,0.22984336,-9.155427,0.8291774,47.71554,-1.1297808,-1.4641128,-3.2885284,-0.24830651,-0.13362545,-0.32172397,27.875,29.0625,28.1875,31.875,33.9375,34.75
0.22605169,-1.1487191,-0.28321654,-0.85566694,-0.016638685,0.02025849,-0.18144862,-0.38489,-0.32620165,0.060086567,-3.0748136,0.6151751,0.00025156044,-0.10582172,0.018145036,0.0019834808,0.050298646,-0.017169403,0.03575162,0.43680093,-1.4504727,1.9850787,-2.1005776,-1.575343,2.4061565,-0.10026396,0.18444824,-0.22849306,0.08037012,-0.039069835,-0.13569295,-0.30645782,0.19153613,-9.289502,0.83365434,47.7254,-0.88407564,-1.4870005,-3.1069345,-0.31263444,-0.163264,-0.40893406,27.875,29.0625,28.1875,31.875,33.9375,34.75
0.2280517,-1.1012658,-0.83458793,-0.94854236,-0.012656952,0.046370994,-0.17780955,-0.38508454,-0.3261625,0.060097054,-3.0747156,0.61502016,0.00023199826,-0.105513886,0.01675084,0.00095637003,0.049604405,-0.01770324,0.03607173,0.43662184,-1.4501362,1.9846362,-2.1003873,-1.5754389,2.4058936,-0.09790423,0.18728897,-0.22884317,0.078056835,-0.038232062,-0.13365309,-0.30645782,0.15322891,-9.385271,0.8717007,47.7245,-1.1938626,-1.570411,-3.1484895,-0.3259636,-0.15633377,-0.47363645,27.875,29.0625,28.1875,31.875,33.9375,34.75
0.23005176,-1.2566603,-0.58084184,-0.8961275,-0.024228169,0.06945286,-0.18345945,-0.38529718,-0.32612628,0.060079366,-3.0746167,0.61488473,0.00015405421,-0.10634173,0.018769756,-0.0012849509,0.051372655,-0.022272535,0.033693336,0.43641633,-1.4497149,1.9841713,-2.1002314,-1.5755104,2.4056165,-0.102510795,0.19150789,-0.2285708,0.0784247,-0.037932232,-0.13587832,-0.36391866,0.15322891,-9.385271,0.8717007,47.71554,-0.962711,-1.8436732,-3.3895586,-0.310275,-0.16532415,-0.52191114,27.875,29.0625,28.1875,31.875,33.9375,34.75
0.2320519,-2.000611,-0.9232639,-0.8327339,-0.021463126,0.071021006,-0.18342637,-0.38551125,-0.32608297,0.06007467,-3.074531,0.6147832,8.734749e-05,-0.10713063,0.017741691,-0.0018296156,0.050505873,-0.020920807,0.044074453,0.43618897,-1.4493312,1.9837159,-2.100065,-1.5755705,2.405337,-0.101317994,0.19414592,-0.22959785,0.0751591,-0.037783075,-0.14506239,-0.36391866,0.1340753,-9.346964,0.88960326,47.72808,-1.1025403,-1.8025084,-3.4014544,-0.31428242,-0.20943552,-0.4868321,27.875,29.0625,28.1875,31.875,33.9375,34.75
0.23405188,-1.7953877,-0.72914594,-0.6959842,-0.02585749,0.09391628,-0.18598862,-0.38571945,-0.3260575,0.060064685,-3.0744567,0.6145335,0.000111128036,-0.108967096,0.017824667,-0.001511361,0.049014904,-0.01693897,0.05171952,0.4360323,-1.4489359,1.9832734,-2.0999587,-1.5756792,2.4050343,-0.10275074,0.19437559,-0.22963595,0.0706619,-0.038171995,-0.1541352,-0.38307226,0.21068975,-9.232041,0.9388393,47.699425,-1.043139,-1.7006135,-3.5660992,-0.28336236,-0.22402,-0.40622342,27.875,29.0625,28.1875,31.875,33.9375,34.75
0.23605205,-1.1278245,-0.03810978,-0.9971594,-0.03238263,0.111233406,-0.19871922,-0.38594842,-0.32602012,0.06007117,-3.0744164,0.6143084,8.857203e-05,-0.11145186,0.018480955,-0.0011052458,0.049146682,-0.013429715,0.061233148,0.4358036,-1.4485524,1.9827951,-2.0998042,-1.5757397,2.4046705,-0.10494314,0.19569248,-0.2315026,0.06801357,-0.039844155,-0.16582875,-0.36391866,0.1340753,-9.308657,0.8627467,47.707485,-1.0004417,-1.6018369,-3.6541147,-0.25679502,-0.18545789,-0.29666677,27.875,29.0625,28.1875,31.875,33.9375,34.75
0.23805238,-1.310186,-0.02513885,-0.90305644,-0.025777686,0.09387947,-0.2036897,-0.38616315,-0.32597664,0.06006743,-3.0743313,0.61409545,6.9089045e-05,-0.11413443,0.017856855,-7.319792e-06,0.046551418,-0.009166214,0.06692288,0.4355992,-1.4481689,1.9823402,-2.0996497,-1.5758351,2.4043443,-0.10637406,0.19684458,-0.23470768,0.06504301,-0.039351616,-0.17294644,-0.47884035,0.21068975,-9.404425,0.84484416,47.682407,-0.953942,-1.5891017,-3.6217089,-0.21538505,-0.20981628,-0.20767325,27.875,29.0625,28.1875,31.875,33.9375,34.75
0.24005245,-1.299527,-0.5797961,-0.8956552,-0.026649745,0.09406596,-0.18631715,-0.38641807,-0.32596898,0.06009469,-3.0743706,0.6138915,0.0001862676,-0.11577638,0.017551865,-0.0002875847,0.044540253,-0.008150321,0.06804426,0.43539453,-1.4477967,1.9818481,-2.0995905,-1.5758823,2.4040074,-0.10806858,0.19922985,-0.23619898,0.06234375,-0.03797173,-0.1757703,-0.6895301,0.22984336,-9.385271,0.87617236,47.67345,-0.81457496,-1.6566911,-3.560191,-0.1599636,-0.24606672,-0.15369275,27.875,29.0625,28.1875,31.875,33.9375,34.75
0.24205168,-1.1738938,-0.49770516,-0.9215563,-0.030389093,0.091540344,-0.19222735,-0.38663468,-0.32592136,0.060074273,-3.0742655,0.6136451,0.00014753206,-0.11732963,0.01800605,-0.0005817006,0.045588825,-0.0073146583,0.0598106,0.4351903,-1.4473765,1.9813927,-2.099447,-1.5759915,2.4036632,-0.109319516,0.20176515,-0.23825693,0.0615669,-0.039278366,-0.1687749,-0.8810662,0.21068975,-9.385271,0.84484416,47.68599,-0.8852728,-1.6796706,-3.6148329,-0.12119143,-0.2525294,-0.17231783,27.875,29.0625,28.1875,31.875,33.9375,34.75
0.24405253,-1.612955,-1.1052603,-1.1524282,-0.016976329,0.082590446,-0.1737631,-0.38685158,-0.32588693,0.06006767,-3.0741932,0.61342216,8.891405e-05,-0.1194902,0.018043716,0.00015321404,0.045475967,-0.0054601445,0.052596744,0.4349857,-1.4469686,1.9809135,-2.0992792,-1.5760635,2.403329,-0.11073389,0.20367897,-0.24223661,0.06191806,-0.03996379,-0.16296563,-0.8236054,0.22984336,-9.461885,0.88960326,47.68062,-0.8063488,-1.684452,-3.5339963,-0.09666698,-0.26354295,-0.26370904,27.875,29.0625,28.1875,31.875,33.9375,34.75
0.24605261,-1.4780568,-0.95477504,-1.0375817,-0.031387575,0.09812773,-0.18795127,-0.38709214,-0.32583588,0.060044285,-3.0740802,0.6133427,6.8144014e-05,-0.12099389,0.017820682,0.00031262377,0.04576501,-0.005135429,0.04845863,0.43474576,-1.4465244,1.9804457,-2.0991714,-1.5761594,2.4030542,-0.1112669,0.20643751,-0.24594921,0.06269626,-0.04037375,-0.15935282,-0.7661445,0.1340753,-9.481039,0.9388393,47.666286,-0.82340074,-1.6954508,-3.443713,-0.08024751,-0.28322512,-0.3186557,27.875,29.0625,28.1875,31.875,33.9375,34.75
0.24805254,-1.6921989,-0.69406736,-0.8903918,-0.026683494,0.091595955,-0.18269348,-0.3873301,-0.32581347,0.060069673,-3.0740867,0.61311316,0.00010794428,-0.12224763,0.017569417,0.00068461354,0.04608488,-0.004236758,0.04787279,0.43452972,-1.4461644,1.9799546,-2.0990393,-1.5762075,2.4026942,-0.11135355,0.20827363,-0.24905577,0.06327547,-0.041050836,-0.15884815,-0.6895301,0.1340753,-9.423578,0.83813137,47.6421,-0.88780314,-1.7348585,-3.3038545,-0.055058956,-0.28589296,-0.34518528,27.875,29.0625,28.1875,31.875,33.9375,34.75
0.25005248,-1.3672284,-0.32537568,-1.1640513,-0.0045747664,0.08353544,-0.18527348,-0.38761872,-0.32577828,0.06008231,-3.074026,0.6130231,0.00019235883,-0.12214417,0.016924122,0.000810303,0.045548517,-0.006710166,0.048618477,0.43427792,-1.4457089,1.979391,-2.0989306,-1.5763034,2.4023943,-0.11097686,0.2097907,-0.25188148,0.066569425,-0.039529506,-0.15922485,-0.6703765,0.19153613,-9.500193,0.8157518,47.70659,-0.929693,-1.6903307,-3.2507844,-0.05175168,-0.314275,-0.38113958,27.875,29.0625,28.1875,31.875,33.9375,34.75
0.2520524,-1.1601874,0.0052339016,-1.2854452,0.006928285,0.07945406,-0.18361118,-0.38786185,-0.32574534,0.06008245,-3.0739872,0.61280155,0.00023543536,-0.122736126,0.017000183,0.000700534,0.04595179,-0.0059869858,0.051733498,0.43406197,-1.4453014,1.9789127,-2.0988352,-1.5763873,2.4020452,-0.11108268,0.210715,-0.25257015,0.0658095,-0.040225226,-0.16244048,-0.59376204,0.2681506,-9.557653,0.9097417,47.698532,-1.0148604,-1.6238389,-3.3881915,-0.027585978,-0.3390467,-0.39837712,27.875,29.0625,28.1875,31.875,33.9375,34.75
0.25405243,-0.84708345,-0.2614132,-1.139223,-0.0056605446,0.08184456,-0.18832546,-0.3881079,-0.32570222,0.060078546,-3.073917,0.6127257,0.00021136299,-0.12308904,0.017721184,0.00051204936,0.047264382,-0.005954585,0.058191113,0.43380934,-1.4448819,1.9784216,-2.0987031,-1.5764478,2.4017546,-0.111801825,0.21107075,-0.25265673,0.06600531,-0.04147539,-0.16960816,-0.34476504,0.17238252,-9.461885,0.8672237,47.687782,-0.8153068,-1.6498046,-3.3468971,0.0095784515,-0.3493063,-0.33294678,27.875,29.0625,28.1875,31.875,33.9375,34.75
0.2560526,-0.7133271,-0.03242185,-0.82673025,-0.031534806,0.07712744,-0.19657513,-0.3883779,-0.32563174,0.06006178,-3.0737712,0.6125368,0.00026822014,-0.12333279,0.018812478,-0.0003997053,0.050097063,-0.009355326,0.066707626,0.43355724,-1.4444139,1.9779085,-2.0985825,-1.5766166,2.4014037,-0.113145545,0.21381846,-0.25446242,0.069245346,-0.04267445,-0.17945845,-0.24899697,0.15322891,-9.442732,0.91421866,47.68599,-1.0562809,-1.6163173,-3.5567317,0.030346602,-0.34080678,-0.23270461,27.875,29.0625,28.1875,31.875,33.9375,34.75
0.2580518,-0.7003209,-0.47005293,-0.82055634,-0.03127808,0.05872349,-0.18316504,-0.38862097,-0.32559815,0.06006436,-3.073716,0.61225253,0.00025160235,-0.1239629,0.01938096,-0.00022534946,0.051605377,-0.009598308,0.07319147,0.43334097,-1.4439827,1.9773811,-2.0984147,-1.576701,2.4010172,-0.113783225,0.21461219,-0.2562278,0.07100793,-0.043990813,-0.18656917,-0.17238252,0.095768064,-9.346964,0.842603,47.70032,-0.8077942,-1.4876539,-3.54815,0.007591361,-0.35523367,-0.12997717,27.875,29.0625,28.1875,31.875,33.9375,34.75
0.2600517,-0.006248881,0.028231816,-0.84088516,-0.016868789,0.03947897,-0.19273302,-0.3888748,-0.32558018,0.060072705,-3.0737345,0.6119293,0.00034228922,-0.12476671,0.019857397,-0.0004272811,0.053046077,-0.0099878255,0.07471653,0.43313664,-1.4435747,1.9768904,-2.098354,-1.5767735,2.4006088,-0.11450353,0.21638197,-0.25804833,0.0719851,-0.0451483,-0.1888081,-0.05746084,0.076614454,-9.212888,0.94331104,47.71286,-0.9450562,-1.5319862,-3.6116772,0.034178477,-0.360896,-0.07771193,27.875,29.0625,28.1875,31.875,33.9375,34.75
0.2620518,0.9460707,0.6543019,-0.7056309,0.014127766,0.02318756,-0.18484682,-0.38910633,-0.32553887,0.06006137,-3.073637,0.61175835,0.00025263266,-0.12593244,0.020385154,-0.000871226,0.05568893,-0.011830209,0.069755115,0.43290845,-1.4431301,1.976374,-2.0981615,-1.576846,2.4002867,-0.11531466,0.22021666,-0.26209313,0.07498493,-0.04678799,-0.18464087,-0.05746084,0.076614454,-9.346964,0.8717007,47.691364,-0.9242988,-1.7264143,-3.5337222,0.030739728,-0.3543214,-0.09157438,27.875,29.0625,28.1875,31.875,33.9375,34.75
0.26405168,0.9766415,0.80316955,-0.75985414,0.04329275,-0.0027509772,-0.18785681,-0.38938594,-0.32549357,0.060067836,-3.0735788,0.61156046,0.0003285666,-0.12640482,0.022301244,-0.002435151,0.059663035,-0.016983248,0.058727127,0.43265542,-1.4426854,1.9758352,-2.0980518,-1.5769542,2.3999178,-0.11822843,0.22433698,-0.26420113,0.07934291,-0.04820565,-0.17651688,-0.038307227,0.019153614,-9.232041,0.8851263,47.70032,-0.95793915,-1.8107064,-3.5194345,0.004271538,-0.335217,-0.16865447,27.875,29.0625,28.1875,31.875,33.9375,34.75
0.26605177,1.4638144,1.0511729,-0.8134189,0.06068855,-0.010766901,-0.18267603,-0.38961235,-0.325442,0.060030837,-3.0734532,0.6113252,0.00021566718,-0.12596385,0.021409875,-0.0020711601,0.06229464,-0.018203804,0.053725265,0.43242872,-1.4422059,1.9753436,-2.0978835,-1.5770506,2.3995607,-0.11487798,0.22610655,-0.2680968,0.0837137,-0.050080534,-0.1681445,0.13407528,0.038307227,-9.174581,0.93436235,47.703007,-0.9978894,-1.9210114,-3.5709496,-0.022773687,-0.33462757,-0.24398306,27.875,29.0625,28.1875,31.875,33.9375,34.75
0.26805243,0.8073365,0.64294034,-0.87897056,0.06006241,-0.031015953,-0.18525834,-0.3899132,-0.32539487,0.060064968,-3.0733843,0.6112016,0.0003348271,-0.12767255,0.023666954,-0.001267137,0.064941905,-0.019808656,0.044307712,0.43216297,-1.4417744,1.9747452,-2.0977256,-1.5771717,2.399227,-0.11927731,0.22664924,-0.271956,0.089602575,-0.051793963,-0.16311574,0.15322891,0.15322891,-9.212888,0.90750587,47.704796,-0.90729773,-1.812618,-3.3806825,-0.060083926,-0.32050455,-0.34364825,27.875,29.0625,28.1875,31.875,33.9375,34.75
0.27005237,1.2733347,0.40221012,-0.46341944,0.02954775,-0.006887485,-0.19155458,-0.39013153,-0.32535207,0.060051363,-3.0732465,0.6109805,0.00020363485,-0.12669832,0.023432607,-0.0020088041,0.06924479,-0.024166726,0.04287365,0.43196014,-1.4413177,1.9742059,-2.097472,-1.5772685,2.398904,-0.116546996,0.23007701,-0.27551964,0.09550737,-0.053888634,-0.15892868,0.095768064,0.2681506,-9.193734,0.86498255,47.73614,-1.0843387,-1.9832871,-3.3636498,-0.14290638,-0.29666036,-0.45568174,27.875,29.0625,28.1875,31.875,33.9375,34.75
0.27205238,0.52745825,-0.37703592,-0.5807596,0.00039612743,-0.0046608327,-0.1851302,-0.39038292,-0.32529145,0.060040507,-3.0731022,0.61083376,0.00018445855,-0.1267252,0.024798645,-0.0016875239,0.07248438,-0.02633135,0.044182595,0.43171984,-1.4408625,1.9736785,-2.0972912,-1.577401,2.398591,-0.117635585,0.23008221,-0.2775318,0.10079352,-0.05595845,-0.16130792,0.076614454,0.38307226,-9.212888,0.9701675,47.701214,-1.047658,-1.9235501,-3.3160548,-0.22165233,-0.27710834,-0.5049038,27.875,29.0625,28.1875,31.875,33.9375,34.75
0.27405247,0.56323737,-0.4002138,-0.45300156,-0.06818564,0.02923962,-0.1974936,-0.3906261,-0.3252135,0.060010158,-3.0729237,0.6107149,1.0370816e-05,-0.12806769,0.026147384,-0.00040510035,0.07528886,-0.024791164,0.05249795,0.43143135,-1.4403719,1.9731392,-2.097038,-1.5774983,2.3982518,-0.11900855,0.22929777,-0.28042614,0.10415952,-0.05924584,-0.17096351,0.038307227,0.36391866,-9.270349,0.8851263,47.703903,-1.012323,-1.7547901,-3.3082805,-0.2904865,-0.24415663,-0.4613883,27.875,29.0625,28.1875,31.875,33.9375,34.75
0.27605182,0.0600357,-1.857903,-0.5533803,-0.07389568,0.04484247,-0.1940803,-0.39090493,-0.32519394,0.060040597,-3.0728636,0.61038804,0.00012321999,-0.12903534,0.026069257,0.00012285846,0.07496661,-0.023798618,0.065309696,0.43125132,-1.4399165,1.9725169,-2.0968587,-1.5776423,2.3978755,-0.11946538,0.22981335,-0.2823658,0.1044191,-0.059450187,-0.18422982,-0.038307227,0.34476504,-9.308656,0.9186956,47.68599,-1.0077243,-1.7120335,-3.3397279,-0.33354384,-0.22363278,-0.36209148,27.875,29.0625,28.1875,31.875,33.9375,34.75
0.27805185,-0.8982087,-1.950947,-0.482173,-0.09172327,0.054003023,-0.18893877,-0.39110398,-0.32512173,0.059992056,-3.0726814,0.6101136,-0.00012672029,-0.13005799,0.026545564,-0.0014007472,0.07648666,-0.023622846,0.07563626,0.431011,-1.4394366,1.9720262,-2.0965846,-1.5777386,2.3974876,-0.12009685,0.23344742,-0.28230155,0.101091765,-0.06103152,-0.19516112,-0.15322891,0.36391866,-9.289503,0.90527004,47.71465,-1.0319917,-1.7066975,-3.374731,-0.3636188,-0.1838908,-0.2021169,27.875,29.0625,28.1875,31.875,33.9375,34.75
0.28005195,-0.932702,-1.4394677,-0.3709794,-0.094750375,0.08307889,-0.19147585,-0.39139345,-0.3250761,0.059994258,-3.0725565,0.609913,-6.365254e-05,-0.13224442,0.027329087,-0.0012326055,0.07740421,-0.02017814,0.07832903,0.4307825,-1.4389329,1.9714168,-2.0964181,-1.5778955,2.3971503,-0.12177299,0.23475537,-0.28362137,0.0982893,-0.06336035,-0.19950946,-0.22984336,0.34476504,-9.346964,0.8627467,47.704796,-1.0256237,-1.8060365,-3.5052643,-0.3495984,-0.15225103,-0.14037642,27.875,29.0625,28.1875,31.875,33.9375,34.75
0.28205204,-1.3765701,-1.0699493,-0.2475468,-0.07281111,0.09841218,-0.1851037,-0.39164373,-0.32501903,0.059974596,-3.0724614,0.6096286,-0.0001693451,-0.1360784,0.025984693,0.00035638767,0.07228225,-0.010782435,0.07278686,0.4305182,-1.4384538,1.970877,-2.0962179,-1.577979,2.396721,-0.12291803,0.23499954,-0.28564683,0.08939192,-0.06266879,-0.19510546,-0.4213795,0.34476504,-9.212888,0.8985519,47.699425,-1.0108294,-1.6234901,-3.5050051,-0.2767412,-0.10464036,-0.1762537,27.875,29.0625,28.1875,31.875,33.9375,34.75
0.28405216,-1.2473152,-0.4994078,-0.3173131,-0.0451759,0.097200915,-0.19119227,-0.3919418,-0.3249795,0.059995342,-3.07239,0.609484,-3.568108e-05,-0.13797753,0.025339454,0.0008128463,0.06944138,-0.0072409194,0.06322315,0.43027785,-1.4379983,1.9702896,-2.0960991,-1.578111,2.3963997,-0.12398208,0.23592891,-0.2869417,0.085373454,-0.061536454,-0.1866128,-0.47884035,0.2873042,-9.251195,0.9254084,47.689575,-1.0142131,-1.6326406,-3.541957,-0.21491604,-0.1272157,-0.2674169,27.875,29.0625,28.1875,31.875,33.9375,34.75
0.28605253,-1.32593,-0.01236025,-0.40809032,-0.008699318,0.08841901,-0.18259646,-0.3922142,-0.32494986,0.05998415,-3.0723445,0.60920703,-6.493233e-05,-0.14121948,0.023935357,0.0017943729,0.066574395,-0.0010908433,0.060284827,0.4300378,-1.4374942,1.969715,-2.095958,-1.5781826,2.3959928,-0.12405751,0.23841828,-0.2909228,0.080074005,-0.061521012,-0.18374223,-0.4405331,0.15322891,-9.232041,0.8806493,47.69763,-0.9770353,-1.6407185,-3.461668,-0.16818102,-0.12362242,-0.33921087,27.875,29.0625,28.1875,31.875,33.9375,34.75
0.28805256,-1.0127833,0.6441032,-0.6242453,0.009830138,0.07875175,-0.18330535,-0.39249524,-0.32487372,0.05995913,-3.0721736,0.6090589,-8.078478e-05,-0.14374198,0.024154518,0.002501503,0.063905254,0.0018501481,0.05722101,0.4297605,-1.4369785,1.9691533,-2.0957906,-1.5783385,2.3956454,-0.12725759,0.23918061,-0.2929429,0.077495724,-0.060361248,-0.18387815,-0.61291564,0.114921674,-9.232041,1.0238806,47.72271,-0.8173083,-1.7973982,-3.476005,-0.077593185,-0.12615612,-0.37475118,27.875,29.0625,28.1875,31.875,33.9375,34.75
0.29005164,-0.8519359,0.6013185,-0.670368,0.026046937,0.076244846,-0.18569505,-0.39278352,-0.3248414,0.059954073,-3.0720937,0.60882795,-3.6547914e-05,-0.14365898,0.021940034,0.0019821932,0.06281721,0.0009019082,0.060510743,0.4295339,-1.4364628,1.9685534,-2.095659,-1.5784577,2.3952851,-0.123893306,0.242914,-0.29602656,0.0772155,-0.058998354,-0.18380876,-0.6512228,0.05746084,-9.3661175,0.91198283,47.70838,-1.0301458,-1.7625867,-3.5067968,-0.052245658,-0.12729102,-0.40919232,27.875,29.0625,28.1875,31.875,33.9375,34.75
0.29205257,-0.96853083,0.31707495,-1.1340392,0.016134845,0.072461866,-0.19026718,-0.3930632,-0.32480395,0.059965186,-3.072013,0.6085585,-1.0138521e-05,-0.14358445,0.022233851,0.0007701287,0.06266099,-0.0034131547,0.065261155,0.42930534,-1.4359822,1.9679426,-2.0954673,-1.5785769,2.394899,-0.12550582,0.24582219,-0.29707587,0.07912232,-0.057111975,-0.190182,-0.6512228,0.019153614,-9.557653,0.9365982,47.687782,-1.0007826,-1.8233806,-3.483142,-0.032289375,-0.14124449,-0.3648939,27.875,29.0625,28.1875,31.875,33.9375,34.75
0.2940517,-1.6762202,-0.08801648,-0.7338128,-0.026504831,0.07755206,-0.19548953,-0.39333922,-0.32474533,0.05994813,-3.0718832,0.6083522,-6.0069517e-05,-0.14326188,0.022164026,-0.00017819199,0.06345933,-0.0074959164,0.07648754,0.4290414,-1.4354669,1.9673566,-2.0952752,-1.5786966,2.3945231,-0.12556927,0.2487615,-0.29899073,0.08201047,-0.056234524,-0.20147169,-0.68953013,0.038307227,-9.519346,0.87393653,47.695843,-1.1757526,-1.8348472,-3.5771742,-0.03387002,-0.13943344,-0.2751,27.875,29.0625,28.1875,31.875,33.9375,34.75
0.2960521,-1.1956409,-0.33227327,-0.9176351,-0.042627115,0.09636212,-0.20123476,-0.39365274,-0.32469225,0.059955925,-3.071834,0.6080878,-2.742218e-05,-0.14420345,0.022437438,-0.00011255183,0.06306452,-0.00917861,0.08464479,0.42874077,-1.4349629,1.9667338,-2.0951178,-1.5787929,2.394064,-0.12738617,0.2505319,-0.30176985,0.084264204,-0.055253774,-0.21145067,-0.45968673,-0.076614454,-9.557653,0.88289046,47.705692,-1.0031638,-1.8806188,-3.4648428,-0.04204632,-0.17096892,-0.1289622,27.875,29.0625,28.1875,31.875,33.9375,34.75
0.2980523,-1.6950738,-1.0189312,-0.88964945,-0.026189134,0.07706482,-0.17804082,-0.393931,-0.3246365,0.059923474,-3.0717096,0.6077744,-8.178247e-05,-0.14566393,0.02289964,-0.00028909306,0.06306214,-0.010869684,0.08355216,0.42848817,-1.4344106,1.9661463,-2.09495,-1.5789241,2.393632,-0.12979454,0.25343785,-0.30524245,0.086313665,-0.054596495,-0.21276295,-0.7086837,0.0,-9.672575,0.83589023,47.692257,-1.0739282,-2.0057323,-3.4507098,-0.027980076,-0.17696828,-0.07585472,27.875,29.0625,28.1875,31.875,33.9375,34.75
0.30005231,-1.1829076,-0.41607237,-0.90319353,-0.036177553,0.08012196,-0.1861543,-0.39423043,-0.32459027,0.05993512,-3.0716293,0.6075121,-1.7438955e-05,-0.14374891,0.02333425,-0.0021242965,0.06488821,-0.017176494,0.07736492,0.42823613,-1.4339185,1.9655255,-2.0947812,-1.5790561,2.3932266,-0.12950605,0.2555067,-0.30426762,0.08977571,-0.053606585,-0.20629369,-0.6512228,0.038307227,-9.615114,0.87617236,47.71554,-0.9568468,-2.0046015,-3.5200062,-0.05682943,-0.18581781,-0.107499,27.875,29.0625,28.1875,31.875,33.9375,34.75
0.30205235,-0.57611555,0.052366205,-0.96091396,-0.021317504,0.06710151,-0.19484694,-0.39452988,-0.32455817,0.05991894,-3.0715601,0.6073146,-6.498542e-05,-0.14559262,0.0247112,-0.0020290057,0.064241245,-0.018509379,0.06248692,0.42797044,-1.4333556,1.9648904,-2.0946248,-1.5791277,2.3928468,-0.13424568,0.25702992,-0.30680242,0.0917856,-0.052431457,-0.19615865,-0.5554548,-0.05746084,-9.749189,0.8851263,47.67614,-0.8216874,-2.1008773,-3.616736,-0.052000843,-0.21944688,-0.21263382,27.875,29.0625,28.1875,31.875,33.9375,34.75
0.3040525,-0.23372595,0.17287126,-0.9003749,0.001966739,0.042249613,-0.1936619,-0.3948336,-0.3245058,0.059936903,-3.0714576,0.60710335,3.5801277e-05,-0.14424624,0.023945276,-0.0014568892,0.065546766,-0.023251569,0.057541244,0.42771932,-1.4328753,1.9642676,-2.094454,-1.5792831,2.3924773,-0.13211611,0.2577963,-0.31094772,0.10003665,-0.05161461,-0.18908785,-0.45968673,-0.1340753,-9.595961,0.9164598,47.658226,-0.91080797,-2.082187,-3.5891519,-0.13875487,-0.22858652,-0.31433535,27.875,29.0625,28.1875,31.875,33.9375,34.75
0.30605176,-0.00549966,0.9977755,-1.033935,0.02024421,0.010137857,-0.1930824,-0.395122,-0.32445157,0.059918504,-3.0713406,0.6069851,-4.536837e-05,-0.14389509,0.024139816,-0.0011182278,0.065408655,-0.024742348,0.051369052,0.42743126,-1.4323372,1.9636573,-2.094262,-1.5793675,2.3921309,-0.13254362,0.2571411,-0.3117287,0.102789834,-0.05086645,-0.18334334,-0.45968673,-0.21068975,-9.500193,0.9791215,47.70211,-0.8762817,-1.9787407,-3.5041094,-0.18327698,-0.2592729,-0.42523116,27.875,29.0625,28.1875,31.875,33.9375,34.75
0.30805185,0.75604594,1.4727097,-0.9325536,0.042503037,-0.003965139,-0.20101574,-0.39540964,-0.32440358,0.059892755,-3.071228,0.6068086,-0.00014498524,-0.14421105,0.02426398,-0.0007270117,0.065119766,-0.026602523,0.050015055,0.4271549,-1.431774,1.963035,-2.0940692,-1.579451,2.3917592,-0.13357177,0.25777042,-0.31424662,0.10622234,-0.049866516,-0.18301854,-0.21068975,-0.22984336,-9.481039,0.9298854,47.70838,-0.9275061,-1.8621135,-3.5482125,-0.21241608,-0.27962357,-0.5219903,27.875,29.0625,28.1875,31.875,33.9375,34.75
0.31005195,0.53220695,1.3131431,-0.8352834,0.040752586,-0.003919061,-0.19915643,-0.39569294,-0.32433847,0.05987455,-3.071081,0.60663646,-0.00025149307,-0.14477533,0.024019009,-0.0002823236,0.06521653,-0.027226156,0.05986712,0.42686698,-1.4312348,1.9624118,-2.093829,-1.5795587,2.3913832,-0.13351476,0.2588651,-0.31714544,0.108512595,-0.049805727,-0.19280632,-0.1340753,-0.24899697,-9.423578,0.8784135,47.721813,-0.909734,-1.9542669,-3.5107665,-0.23229712,-0.31190926,-0.46751982,27.875,29.0625,28.1875,31.875,33.9375,34.75
0.31205204,0.34624466,0.7556875,-0.9921245,0.03789696,0.008635484,-0.19806772,-0.39601454,-0.32431227,0.059914175,-3.0710602,0.6063932,-0.00018322899,-0.14526698,0.024282536,-0.0012890511,0.065439485,-0.030214775,0.073053434,0.4266027,-1.4307426,1.961717,-2.0936253,-1.5796422,2.3909698,-0.13488665,0.26208115,-0.3188663,0.10966643,-0.048883665,-0.20737211,0.076614454,-0.19153613,-9.385271,0.9030289,47.71465,-0.9532453,-1.851408,-3.4340696,-0.2723984,-0.34824842,-0.38935807,27.875,29.0625,28.1875,31.875,33.9375,34.75
0.31405193,-0.24448553,0.62989026,-0.9295588,0.006919839,0.016996318,-0.19953695,-0.39628786,-0.32423994,0.05988885,-3.0709152,0.606033,-0.00029925202,-0.14714395,0.02392065,-0.0005522434,0.065631025,-0.028030552,0.082601175,0.4263266,-1.4302028,1.9611067,-2.093374,-1.5797747,2.3904877,-0.13489355,0.26403132,-0.32289878,0.10971554,-0.05008751,-0.21690689,0.11492168,-0.11492168,-9.557653,0.90750587,47.71554,-1.0003368,-1.9206927,-3.4781814,-0.29687545,-0.3599692,-0.2552309,27.875,29.0625,28.1875,31.875,33.9375,34.75
0.31605196,-0.88280636,-0.7321948,-0.8074414,-0.012418139,0.034834094,-0.19431499,-0.3965928,-0.32419935,0.059899557,-3.0708349,0.60572743,-0.00028651528,-0.14826278,0.023665119,-0.0006627083,0.065105796,-0.026703417,0.0850824,0.42607445,-1.4296751,1.9604353,-2.0931594,-1.5798949,2.3900552,-0.13515711,0.26570234,-0.32426664,0.10792377,-0.050212342,-0.2196465,0.076614454,0.038307227,-9.557653,0.90527004,47.698532,-0.9389945,-1.9822819,-3.428064,-0.30293798,-0.37657344,-0.182058,27.875,29.0625,28.1875,31.875,33.9375,34.75
0.31805202,-0.667612,-1.0246879,-0.93504316,-0.05385878,0.064761765,-0.19172749,-0.39689237,-0.32414928,0.059900116,-3.0707357,0.60551894,-0.000368448,-0.1511335,0.023425749,-0.00021305952,0.06508775,-0.021359636,0.078825705,0.42578647,-1.4291352,1.9597648,-2.092909,-1.5799798,2.38965,-0.13554963,0.26813298,-0.32720548,0.10358892,-0.052419294,-0.21375494,0.0,0.19153613,-9.595961,0.8851263,47.728977,-1.0173303,-1.9875768,-3.4763827,-0.27532336,-0.39025515,-0.20689577,27.875,29.0625,28.1875,31.875,33.9375,34.75
0.32005188,-1.4225471,-1.8786578,-0.9783281,-0.06869084,0.056531295,-0.19232745,-0.39721233,-0.3240953,0.059908006,-3.0706468,0.60536927,-0.00040496726,-0.15367712,0.023278374,0.00023041437,0.064855725,-0.016266298,0.07084015,0.42547423,-1.4285959,1.9590834,-2.0926836,-1.5800642,2.3892562,-0.13603382,0.26990196,-0.32939878,0.09932288,-0.05430386,-0.20623073,0.019153614,0.24899697,-9.615114,0.9254084,47.7254,-0.9312902,-2.0638225,-3.4456663,-0.23836608,-0.3891762,-0.29981384,27.875,29.0625,28.1875,31.875,33.9375,34.75
0.32205203,-0.88012064,-1.5800458,-0.91527444,-0.082879774,0.048783973,-0.19986911,-0.39751652,-0.32403407,0.05990421,-3.0705366,0.60510254,-0.00034405314,-0.15643527,0.024074843,-6.929249e-05,0.062931255,-0.013559574,0.062530935,0.42520896,-1.4280807,1.9584726,-2.0925295,-1.5802201,2.3888388,-0.14008541,0.27200732,-0.33021826,0.094770335,-0.05367215,-0.20197406,-0.038307227,0.38307226,-9.576807,0.9164598,47.728977,-0.9362848,-2.038673,-3.5489292,-0.17423053,-0.41234198,-0.38055336,27.875,29.0625,28.1875,31.875,33.9375,34.75
0.32405216,-0.34350738,-1.6592227,-0.9353285,-0.07637432,0.03343545,-0.19865166,-0.39782315,-0.3239851,0.05989599,-3.0704222,0.6049027,-0.00038980963,-0.15721637,0.023379328,0.000847269,0.063639715,-0.009450116,0.06533304,0.42493385,-1.4275172,1.9578027,-2.0923145,-1.5803293,2.388454,-0.13776928,0.27165166,-0.33166105,0.093084976,-0.05605473,-0.20243299,-0.095768064,0.47884035,-9.576807,0.9186956,47.711964,-0.9337513,-2.01329,-3.624305,-0.12692755,-0.41436297,-0.4117487,27.875,29.0625,28.1875,31.875,33.9375,34.75
0.32605252,-0.3753562,-2.1453905,-1.0663402,-0.06955468,0.028420862,-0.19715716,-0.3981543,-0.32395262,0.05991353,-3.07039,0.60464495,-0.00028385664,-0.1587306,0.025838198,3.2474634e-06,0.06772004,-0.008185224,0.0676898,0.4246688,-1.4269902,1.9571337,-2.0921834,-1.5804385,2.3880322,-0.14059973,0.27301365,-0.33103052,0.09154971,-0.060340505,-0.20758393,-0.076614454,0.63206923,-9.5385,0.9679317,47.686886,-0.8433024,-1.9237852,-3.767284,-0.0770046,-0.4056772,-0.39409387,27.875,29.0625,28.1875,31.875,33.9375,34.75
0.3280526,-0.7188062,-1.796817,-1.1121386,-0.060569152,0.0079531,-0.20367217,-0.39845657,-0.32389864,0.059896898,-3.070302,0.6043313,-0.0003537991,-0.16076767,0.02563117,0.0019103035,0.06788728,-0.0024251365,0.079894066,0.42438087,-1.4264271,1.9564856,-2.0919802,-1.5805358,2.38756,-0.1400467,0.2718685,-0.33393794,0.09027922,-0.062994316,-0.21920452,-0.038307227,0.61291564,-9.576807,0.90527004,47.70659,-0.86198914,-1.7286232,-3.694095,-0.022385566,-0.358325,-0.32524878,27.875,29.0625,28.1875,31.875,33.9375,34.75
0.33005255,-0.4753446,-1.1559676,-0.9246456,-0.055065632,0.021640902,-0.2077987,-0.3987771,-0.3238488,0.059904024,-3.070208,0.60405666,-0.0002928741,-0.16257918,0.02625923,0.0031835712,0.06890651,-0.0016346698,0.08918981,0.42411646,-1.4258878,1.9558152,-2.0917995,-1.5806803,2.3871362,-0.14168258,0.2725703,-0.33855292,0.09373858,-0.06435032,-0.2301207,-0.038307227,0.51714754,-9.634268,0.83589023,47.70211,-0.8369176,-1.6557032,-3.74405,-0.04443035,-0.36701974,-0.18120202,27.875,29.0625,28.1875,31.875,33.9375,34.75
0.33205256,-0.56045103,-1.0777489,-0.7479845,-0.05528851,0.03982759,-0.19819514,-0.39911026,-0.32379642,0.059909806,-3.070116,0.6036726,-0.00020830534,-0.16415936,0.026106546,0.0038289942,0.07142802,0.0018737714,0.09194476,0.42385328,-1.4253242,1.9551204,-2.0916202,-1.5808495,2.386645,-0.14011222,0.27421197,-0.34189954,0.09322953,-0.06812764,-0.23126714,-0.17238252,0.49799395,-9.5385,1.0171678,47.677036,-1.1099243,-1.6449096,-3.6100583,-0.0018434823,-0.31086123,-0.13824897,27.875,29.0625,28.1875,31.875,33.9375,34.75
0.33405173,-0.61508757,-0.39563847,-0.6205569,-0.047484465,0.05879711,-0.20547368,-0.39945662,-0.32375348,0.059938297,-3.0700881,0.6034595,-0.0001414571,-0.16459687,0.026597315,0.0035694542,0.07462961,0.00040546767,0.08572508,0.42354137,-1.4247966,1.9544133,-2.0914395,-1.5809339,2.3862038,-0.13973457,0.2766955,-0.3449857,0.096523546,-0.07040156,-0.22464797,-0.19153613,0.2873042,-9.576807,0.9186956,47.71286,-1.0177202,-1.5485139,-3.5471342,0.01939046,-0.30977786,-0.17002691,27.875,29.0625,28.1875,31.875,33.9375,34.75
0.33605185,-0.8283329,-0.25014347,-0.86744833,-0.008950466,0.056390196,-0.20011528,-0.3997818,-0.32372466,0.059946723,-3.070013,0.6030863,-8.088738e-05,-0.1658012,0.027666159,0.00330431,0.07780859,-0.0014974198,0.074536175,0.42331266,-1.4242203,1.9536942,-2.0912468,-1.5810789,2.3857517,-0.14121392,0.27988967,-0.34903154,0.10047775,-0.07246297,-0.21491449,-0.24899697,0.21068975,-9.442732,0.9410752,47.685097,-1.0501769,-1.7001723,-3.4196587,0.009735606,-0.2611584,-0.28198588,27.875,29.0625,28.1875,31.875,33.9375,34.75
0.33805186,-0.18864514,0.866512,-1.0825514,0.014256133,0.047416218,-0.21419366,-0.40009755,-0.323646,0.059909478,-3.0698326,0.6029185,-0.0001615912,-0.16567959,0.02890299,0.0022101996,0.08211164,-0.006572104,0.065239176,0.42300054,-1.4236083,1.9530357,-2.0910404,-1.5812234,2.3853586,-0.14204916,0.2835005,-0.35209814,0.10637148,-0.074276455,-0.20642371,-0.22984336,0.05746084,-9.5385,0.99031126,47.709274,-0.9802071,-1.876451,-3.3636918,-0.028131373,-0.22338346,-0.41269818,27.875,29.0625,28.1875,31.875,33.9375,34.75
0.34005183,-0.1239498,1.1169345,-0.86418647,0.029911838,0.03937316,-0.20392504,-0.40044302,-0.32360643,0.059961095,-3.0698059,0.6026084,3.029146e-05,-0.16224787,0.032383557,-0.0021430985,0.09078881,-0.020115804,0.05980177,0.42273602,-1.4231274,1.952331,-2.0908701,-1.5813683,2.3849037,-0.14392662,0.2879377,-0.34918845,0.11493409,-0.07657959,-0.20284933,-0.2681506,-0.13407528,-9.519346,0.8627467,47.682407,-0.9664856,-1.9987044,-3.518416,-0.11028114,-0.20641148,-0.51898545,27.875,29.0625,28.1875,31.875,33.9375,34.75
0.34205195,-0.37387827,1.6909621,-0.6807698,0.022536147,0.03793268,-0.20806143,-0.40078303,-0.32355568,0.05995502,-3.0696743,0.6023861,-7.7695177e-07,-0.16271098,0.033167418,-0.0018092664,0.09273429,-0.020371718,0.064000495,0.42244765,-1.422503,1.9515785,-2.0906298,-1.5815009,2.3844938,-0.14445841,0.28815082,-0.35088095,0.11735138,-0.07832253,-0.20755593,-0.38307226,-0.24899697,-9.385271,0.9365982,47.70211,-0.9656112,-1.9279151,-3.7669594,-0.15897758,-0.170713,-0.5508493,27.875,29.0625,28.1875,31.875,33.9375,34.75
0.344052,-0.26550546,1.3394953,-0.74753755,0.0742984,0.0271143,-0.2117275,-0.40108377,-0.32347682,0.059934765,-3.0694795,0.6021074,-6.478594e-05,-0.16204211,0.034031942,-0.002562501,0.095157005,-0.027028313,0.07550925,0.42217138,-1.4219254,1.9509066,-2.0903637,-1.5816807,2.384069,-0.14559853,0.29073536,-0.3538741,0.1246251,-0.07794588,-0.22019656,-0.19153613,-0.28730422,-9.3661175,0.96569055,47.701214,-0.94946843,-1.9987241,-3.7090445,-0.21386325,-0.1432897,-0.4356622,27.875,29.0625,28.1875,31.875,33.9375,34.75
0.34605223,-0.35670874,1.5823903,-0.64549124,0.06705376,0.031788547,-0.20404866,-0.4014434,-0.3234289,0.05997352,-3.069427,0.60182095,4.2075724e-05,-0.1631668,0.032864872,-0.0010395043,0.0923585,-0.026215184,0.08959206,0.42187145,-1.4213847,1.9501518,-2.0901477,-1.5818113,2.383597,-0.14559157,0.29087266,-0.35813138,0.12664041,-0.07586095,-0.23429206,-0.2681506,-0.34476507,-9.385271,0.9612189,47.711063,-0.9515302,-1.9187546,-3.5821898,-0.2783391,-0.15082583,-0.29225942,27.875,29.0625,28.1875,31.875,33.9375,34.75
0.3480522,-0.67702514,1.1592938,-0.47265908,0.040381424,0.049919948,-0.21048552,-0.40175882,-0.323362,0.059982784,-3.0692925,0.6015046,-3.767206e-06,-0.16530153,0.03333842,-0.0003085365,0.09198568,-0.024019169,0.09289948,0.42158252,-1.4208322,1.9494327,-2.0898497,-1.5819558,2.383128,-0.14764632,0.2918887,-0.36101303,0.12623648,-0.07651819,-0.23963773,-0.4213795,-0.36391866,-9.346964,0.85155696,47.707485,-0.896436,-1.7440802,-3.5287948,-0.3079658,-0.14780486,-0.19146347,27.875,29.0625,28.1875,31.875,33.9375,34.75
0.35005215,-1.4210644,0.595788,-0.43293682,0.008334216,0.064819634,-0.1983126,-0.40210927,-0.32329264,0.059985083,-3.0691473,0.60128444,-3.742606e-05,-0.16862178,0.03017128,0.0024015417,0.08499267,-0.01687337,0.08874098,0.4212594,-1.4202193,1.9486655,-2.089575,-1.5820984,2.3826864,-0.14666522,0.29267618,-0.36749667,0.122540615,-0.073087245,-0.23451848,-0.49799395,-0.36391866,-9.32781,0.83365434,47.666286,-1.1316547,-1.779164,-3.3355095,-0.28834906,-0.14666918,-0.19922358,27.875,29.0625,28.1875,31.875,33.9375,34.75
0.35205215,-0.76988846,0.33786812,-0.6505043,-0.0298968,0.09728916,-0.20918292,-0.40242815,-0.32322797,0.05999632,-3.0690153,0.6008769,-2.0350111e-05,-0.17089444,0.028422708,0.004327117,0.07979428,-0.0100271795,0.081151664,0.4209955,-1.4196671,1.9479479,-2.0893023,-1.5822786,2.382185,-0.14647023,0.29149577,-0.3695863,0.11746085,-0.07113089,-0.22674386,-0.51714754,-0.2873042,-9.5385,0.84484416,47.66091,-1.0774809,-1.6150167,-3.2946248,-0.24500911,-0.17485055,-0.30763182,27.875,29.0625,28.1875,31.875,33.9375,34.75
0.35405216,-1.6428223,-0.95625347,-0.8237847,-0.043982156,0.09360564,-0.20283909,-0.40276328,-0.32317194,0.059997153,-3.0689046,0.6006453,-4.599498e-05,-0.1718157,0.028162839,0.0034923474,0.07802875,-0.008022059,0.0757831,0.42069504,-1.4190778,1.9472183,-2.0890644,-1.5823983,2.3817544,-0.14710641,0.29297522,-0.3683564,0.11220564,-0.07034285,-0.22201201,-0.6703764,-0.15322891,-9.615114,0.92093146,47.660015,-1.1086338,-1.5145392,-3.363381,-0.19105211,-0.18037044,-0.37925878,27.875,29.0625,28.1875,31.875,33.9375,34.75
0.35605222,-1.9623384,-1.5769182,-1.0689787,-0.0489471,0.080308124,-0.19249925,-0.40310147,-0.32309425,0.05998869,-3.0687444,0.6003825,3.3123983e-05,-0.17277513,0.027972447,0.0010211486,0.077960655,-0.010035443,0.07480651,0.420407,-1.4184995,1.9465364,-2.088886,-1.5826014,2.381323,-0.14794558,0.29901958,-0.36895078,0.10850005,-0.06949548,-0.2218768,-0.49799395,-0.1340753,-9.595961,1.0283576,47.66987,-1.0962273,-1.685461,-3.594007,-0.1413945,-0.17976648,-0.4173665,27.875,29.0625,28.1875,31.875,33.9375,34.75
0.35805222,-1.5850762,-1.2978934,-1.1909286,-0.05798043,0.073914595,-0.21009621,-0.4034656,-0.32304668,0.060012724,-3.0687194,0.60002625,7.305348e-05,-0.17330785,0.027599134,0.0004996097,0.076963976,-0.009721238,0.083785206,0.42008308,-1.417922,1.9457716,-2.088671,-1.5826968,2.3807797,-0.147969,0.30059883,-0.3692561,0.106378675,-0.068814725,-0.2308846,-0.30645782,0.038307227,-9.691729,0.9947882,47.683304,-1.2211933,-1.8145425,-3.7402897,-0.10400911,-0.20849425,-0.38529414,27.875,29.0625,28.1875,31.875,33.9375,34.75
0.36005217,-1.2367357,-1.9314734,-1.1875553,-0.045526706,0.060381874,-0.20108421,-0.4037824,-0.3229951,0.059994772,-3.0686083,0.59972745,1.8413191e-05,-0.174081,0.026905283,-1.41849205e-05,0.07568747,-0.010394893,0.095582955,0.41980696,-1.417321,1.9450759,-2.088456,-1.582817,2.3803315,-0.14802761,0.3033449,-0.37120518,0.1054811,-0.067521416,-0.24274641,-0.3256114,0.21068975,-9.634268,1.0887781,47.678825,-1.0745144,-1.7180395,-3.773559,-0.035236273,-0.20548928,-0.24556774,27.875,29.0625,28.1875,31.875,33.9375,34.75
0.36205244,-0.8036571,-1.5531032,-1.0336138,-0.04804378,0.058003392,-0.19611995,-0.40416828,-0.3229456,0.060032025,-3.0685747,0.5993561,0.00016378475,-0.17598628,0.027560007,0.00012710506,0.07449828,-0.010084473,0.0973821,0.4194936,-1.416744,1.9442862,-2.0882642,-1.5829605,2.3797903,-0.15118529,0.30498973,-0.3735397,0.105283394,-0.0666172,-0.2477136,-0.49799395,0.34476504,-9.5385,1.0082139,47.650166,-1.0402453,-1.7555027,-3.9050097,-0.012772296,-0.25554013,-0.13718817,27.875,29.0625,28.1875,31.875,33.9375,34.75
0.36405167,-0.38473013,-1.308471,-1.1553164,-0.042286664,0.04182923,-0.19516951,-0.40451917,-0.322907,0.06005402,-3.0685377,0.59904355,0.00023065617,-0.17678963,0.027048372,0.0010112178,0.073836364,-0.011080692,0.0934956,0.4192059,-1.4161787,1.9435443,-2.0880716,-1.5830683,2.379312,-0.15140836,0.30625015,-0.37804544,0.10916632,-0.06559178,-0.24405804,-0.5363012,0.4405331,-9.500193,1.005978,47.694946,-1.1615298,-1.730447,-3.7443748,-0.01717834,-0.24765274,-0.14726362,27.875,29.0625,28.1875,31.875,33.9375,34.75
0.3660517,-0.738851,-1.3177267,-1.0729687,-0.046137374,0.026377091,-0.19269836,-0.4048575,-0.32284775,0.060054153,-3.0683954,0.59877026,0.0002482307,-0.17734008,0.026310196,0.0017274382,0.072754666,-0.010957597,0.08467902,0.41893005,-1.4155778,1.9428014,-2.0878322,-1.5832361,2.378884,-0.15099138,0.3069377,-0.38105714,0.11099302,-0.06461076,-0.23482683,-0.40222588,0.49799395,-9.519346,0.947788,47.723602,-1.1430202,-1.6673893,-3.6066513,-0.011165008,-0.29136494,-0.24418508,27.875,29.0625,28.1875,31.875,33.9375,34.75
0.3680526,-0.7071171,-1.9878998,-1.2530811,-0.039849646,0.013387075,-0.18086748,-0.4052306,-0.32277507,0.06006242,-3.0682912,0.59856087,0.00024402323,-0.17558102,0.02713171,0.00017476542,0.07595084,-0.020191256,0.07401647,0.41857058,-1.4149643,1.9420236,-2.087589,-1.5833558,2.3784075,-0.15145236,0.31032872,-0.38355547,0.11991261,-0.0637063,-0.22462894,-0.49799395,0.53630114,-9.557653,0.9992599,47.694946,-1.1461439,-1.5254904,-3.6576257,-0.08475237,-0.31333542,-0.37532493,27.875,29.0625,28.1875,31.875,33.9375,34.75
0.37005174,-0.26862296,-1.9177572,-0.88501203,-0.051174335,0.015283192,-0.19331373,-0.4055879,-0.32272115,0.06006469,-3.0681736,0.598387,0.0002281385,-0.17469305,0.028762277,-0.0012178428,0.079688326,-0.027149152,0.064405076,0.4182588,-1.4143384,1.9412454,-2.0873473,-1.583476,2.3780026,-0.15317415,0.31306738,-0.38520092,0.12675346,-0.064249,-0.21672791,-0.24899697,0.53630114,-9.519346,1.0328293,47.728977,-1.1197736,-1.6961033,-3.6407266,-0.13696775,-0.32445687,-0.49567726,27.875,29.0625,28.1875,31.8125,33.9375,34.75
0.37205186,-0.41480052,-1.6269557,-0.75498277,-0.05409656,0.0122242505,-0.19289027,-0.4059485,-0.3226729,0.0600766,-3.0680635,0.598112,0.00024967908,-0.17416915,0.030218562,-0.0013019218,0.08207968,-0.03172375,0.066061325,0.4179704,-1.4137138,1.9404439,-2.0870936,-1.58362,2.3775568,-0.15498184,0.3133157,-0.38691115,0.13327451,-0.0646302,-0.22018456,-0.17238252,0.5554548,-9.385271,1.0104496,47.687782,-1.0966983,-1.6014233,-3.6975505,-0.2329046,-0.3481543,-0.55225295,27.875,29.0625,28.1875,31.8125,33.9375,34.75
0.3740519,-0.20079572,-1.1490815,-0.66021425,-0.054342415,0.017563911,-0.19985135,-0.40633893,-0.3226467,0.060114905,-3.0680356,0.59780914,0.00037494526,-0.17455098,0.030680772,-0.0014748949,0.083959654,-0.033597495,0.080045216,0.41768306,-1.413101,1.9396056,-2.0868895,-1.5837406,2.3770838,-0.15524617,0.3151528,-0.38944823,0.13622263,-0.06572698,-0.23442419,0.076614454,0.40222588,-9.32781,0.9365982,47.687782,-1.0732467,-1.5582824,-3.7107925,-0.26265594,-0.3465548,-0.46005818,27.875,29.0625,28.1875,31.8125,33.9375,34.75
0.37605202,-0.31966946,-0.85241115,-0.26655167,-0.0405826,0.030427037,-0.19930965,-0.40668404,-0.32257324,0.06010934,-3.0679128,0.5975259,0.0003007537,-0.17703721,0.030899879,-9.308002e-05,0.0834911,-0.029206347,0.093283355,0.41734707,-1.4124874,1.9388512,-2.0866148,-1.5838612,2.376587,-0.15649013,0.3152409,-0.39256018,0.13480711,-0.06727229,-0.24888231,0.22984336,0.28730422,-9.251195,0.9791215,47.66987,-0.9599106,-1.6169825,-3.6870148,-0.2982027,-0.36574024,-0.3103596,27.875,29.0625,28.1875,31.8125,33.9375,34.75
