Tylouw/Master_Thesis_Code/training_data/batch_1/big_rod_t0.3/sample_47_session_1.csv
timestamp[s],tcp_force_x[N],tcp_force_y[N],tcp_force_z[N],tcp_force_rx[Nm?],tcp_force_ry[Nm?],tcp_force_rz[Nm?],tcp_pose_x[m],tcp_pose_y[m],tcp_pose_z[m],tcp_pose_rx[rot_vec_x],tcp_pose_ry[rot_vec_y],tcp_pose_rz[rot_vec_z],tcp_velo_x[m/s],tcp_velo_y[m/s],tcp_velo_z[m/s],tcp_velo_rx[rot_vec_x/s],tcp_velo_ry[rot_vec_y/s],tcp_velo_rz[rot_vec_z/s],q1[rad],q2[rad],q3[rad],q4[rad],q5[rad],q6[rad],qd1[rad/s],qd2[rad/s],qd3[rad/s],qd4[rad/s],qd5[rad/s],qd6[rad/s],tool_acc_x,tool_acc_y,tool_acc_z,current_of_whole_robot[A],voltage_of_whole_robot[V],current_J1[A],current_J2[A],current_J3[A],current_J4[A],current_J5[A],current_J6[A],temp_J1[C],temp_J2[C],temp_J3[C],temp_J4[C],temp_J5[C],temp_J6[C]
1.0170043e-06,0.07846402,-0.26796523,0.3285123,-0.020432359,0.017854827,-0.030260919,-0.37290373,-0.32821667,0.059941385,-3.0784934,0.6248881,-0.00025141297,0.002791666,0.001345389,-0.0036276046,0.0036068875,-0.007893517,-0.00011751798,0.44812617,-1.4708494,2.0095732,-2.1077268,-1.5706614,2.4230556,-0.00011452953,0.0030169787,0.0048147095,0.0008445703,0.00018145928,-2.8569016e-09,0.05746084,0.21068975,-8.983045,0.66803825,47.741516,-0.1718944,-2.8895369,-2.5270786,-0.46381575,0.0842244,-0.1097984,27.6875,28.875,27.9375,31.625,33.5625,34.375
0.002055093,-0.4724146,-0.7413314,0.12462556,0.0031854655,-0.0045959833,-0.025119882,-0.37290245,-0.3282094,0.059933253,-3.0784497,0.6248598,-0.0002575711,0.0001604113,7.292347e-05,-0.002671212,-5.8609872e-05,-0.0003039169,-0.000112329355,0.4481382,-1.4708254,2.0095608,-2.1077058,-1.5706977,2.4230556,-0.000112150956,0.0032819905,0.004168586,-0.0072027114,0.00017699845,-1.8653527e-10,0.05746084,0.21068975,-8.944737,0.7351769,47.744205,-0.12355621,-2.609078,-2.3465965,-0.45892504,0.097943686,-0.09502895,27.6875,28.875,27.9375,31.625,33.5625,34.375
0.004054213,-0.03614488,-0.39002448,0.11567884,0.002879628,0.00077969977,-0.023822412,-0.37289593,-0.32821718,0.059924044,-3.0785058,0.6248517,-0.00027235603,-0.0006992714,-0.00034292816,-0.0028432873,-0.0010191514,0.0016868102,-0.00010889588,0.44812617,-1.470837,2.0096085,-2.1077669,-1.5706495,2.4230313,-0.00010986917,0.004336674,0.0041470355,-0.010446181,0.0001727511,-1.21794215e-11,0.0,0.19153613,-8.944737,0.7284641,47.745995,-0.12115154,-3.0824866,-2.524171,-0.39236945,0.08868775,-0.09137203,27.6875,28.875,27.9375,31.625,33.5625,34.375
0.006053706,0.33119804,0.23462409,0.14140537,0.0024120966,-0.00059281813,-0.03427301,-0.37287524,-0.32821572,0.05990313,-3.0784602,0.62480384,-0.00035345572,0.0004977471,0.00023637735,-0.003051691,0.00076103944,-0.0019837953,-0.000107958236,0.44815025,-1.4708012,2.0096085,-2.1077287,-1.5706614,2.4230313,-0.00010767829,0.0040597143,0.0038711852,-0.00581386,0.00016870335,-7.9522917e-13,0.019153614,0.11492168,-9.040505,0.8224646,47.77286,-0.14963952,-3.0980432,-2.5773315,-0.3937028,0.078006335,-0.09113218,27.6875,28.875,27.9375,31.625,33.5625,34.375
0.008054023,0.45542678,0.35255894,-0.2793855,0.034568056,-0.019778883,-0.022621738,-0.37289563,-0.32821918,0.059903767,-3.0784738,0.6248839,-0.00029324312,0.000757044,0.00036238914,-0.0021875217,0.0010393296,-0.0025426592,-0.00010631999,0.4481382,-1.4707898,2.009608,-2.1077878,-1.5706614,2.4230676,-0.0001055732,0.0026336696,0.0027239462,-0.0026162958,0.00016484079,-5.1922784e-14,0.038307227,0.095768064,-9.11712,0.78217715,47.751366,-0.18980855,-3.0743203,-2.5079596,-0.4349665,0.075358555,-0.0942647,27.6875,28.875,27.9375,31.625,33.5625,34.375
0.0100542065,0.1698532,0.42733487,-0.6623608,0.050997853,-0.027230807,-0.029809766,-0.37287062,-0.32822427,0.05987636,-3.0784543,0.6248801,-0.00045798745,0.00042231905,0.00020680501,-0.0014045569,0.0007255507,-0.0018813971,-0.0001153227,0.4481382,-1.4707421,2.0096076,-2.1077397,-1.5706137,2.4230676,-0.000114904884,0.0019778337,0.0013526522,-0.0013210751,0.00016115123,-3.390187e-15,0.05746084,0.13407528,-9.232041,0.7620334,47.71554,-0.6548728,-2.4455864,-2.9855917,-0.45275998,0.062605,-0.18090653,27.6875,28.875,27.9375,31.625,33.5625,34.375
0.012053972,0.09642375,0.043245163,-0.79801154,0.025056306,-0.0038935116,-0.03013333,-0.3728588,-0.3281992,0.059859943,-3.0783865,0.62484676,-0.0005162365,-0.00044738952,-4.5773806e-05,-0.002290069,0.0017301927,-0.0039732186,-0.00038732227,0.44812605,-1.4707283,2.009619,-2.107691,-1.5706495,2.4230433,-0.00043250597,0.006428476,-0.0017111037,-0.00038739294,0.00015762326,-4.3332027e-05,0.0,0.076614454,-9.423578,0.7620334,47.716442,-0.78336823,-2.4630668,-3.0672855,-0.47217935,0.07574047,-0.22126356,27.6875,28.875,27.9375,31.625,33.5625,34.375
0.014054137,-0.630761,-0.4070313,-0.85490406,-0.009461731,0.0060213776,-0.031011306,-0.37285152,-0.32820243,0.059840787,-3.078407,0.6247725,-0.00056726753,-0.0056070546,0.0027015116,-0.0034381028,0.0025872446,-0.005788674,0.0006454537,0.4481226,-1.4707019,2.0096395,-2.1077154,-1.5706257,2.4229908,-0.01029926,0.013909512,-0.007312593,-0.00026071904,0.0001542464,-0.01093834,-0.038307227,0.11492168,-9.615114,0.73741806,47.684196,-0.39487737,-2.8156378,-2.8518214,-0.46293408,0.067680046,-0.17575288,27.6875,28.875,27.9375,31.625,33.5625,34.375
0.016053936,-1.7325419,-1.4209814,-0.9853586,-0.025086258,0.021548864,-0.038427133,-0.37286642,-0.3281903,0.059852228,-3.0783708,0.6248021,-0.0005353296,-0.005233813,0.0031770177,-0.0043237093,0.0034966301,-0.0076730773,0.004190223,0.44811043,-1.4707016,2.0096047,-2.1076791,-1.5706614,2.4230018,-0.010852208,0.014951374,-0.006472459,-5.1378756e-05,0.00015101102,-0.0150364535,-0.4405331,0.19153613,-9.730036,0.77545905,47.7451,-0.36850637,-2.8012888,-3.0835812,-0.47318122,0.078139365,-0.15690832,27.6875,28.875,27.9375,31.625,33.5625,34.375
0.018053494,-1.8708797,-1.6216979,-0.9317181,-0.062128354,0.0708305,-0.053829968,-0.37289008,-0.32818252,0.05984768,-3.0783498,0.6247965,-0.00048660111,-0.004709442,0.0031486708,-0.0043833773,0.0036030458,-0.007884775,0.0063435463,0.44809875,-1.4706658,2.0095813,-2.107703,-1.5706977,2.4229894,-0.010318624,0.014303538,-0.0056365854,-3.3546658e-06,0.00014790884,-0.016656805,-0.61291564,0.2681506,-9.883265,0.7038487,47.728977,-0.59986347,-2.579588,-3.3315604,-0.47244248,0.07455603,-0.15925291,27.6875,28.875,27.9375,31.625,33.5625,34.375
0.020053243,-2.8310163,-1.9618988,-1.0492287,-0.053552356,0.087832525,-0.057754185,-0.3728904,-0.32819763,0.059855793,-3.078404,0.6247701,-0.000543513,-0.005835814,0.0033158876,-0.004527206,0.0036623494,-0.008011415,0.005745626,0.4480862,-1.4706652,2.0095565,-2.1076791,-1.5706376,2.4229534,-0.011657467,0.016280195,-0.0074756364,-2.1903568e-07,0.00014493139,-0.017396303,-0.51714754,0.24899697,-9.730036,0.7911258,47.737038,-0.70033085,-2.4618325,-3.5077643,-0.49659383,0.0714808,-0.17301434,27.6875,28.875,27.9375,31.625,33.5625,34.375
0.022053659,-2.2598624,-1.2513192,-1.0414634,-0.025825037,0.101702295,-0.0964838,-0.37286776,-0.3281693,0.059815727,-3.07832,0.62481093,-0.0006656695,-0.008093302,0.00331818,-0.0034218857,0.0025200357,-0.005652716,0.00495213,0.44806153,-1.470629,2.0096033,-2.1076553,-1.5706495,2.4229648,-0.013715973,0.017178182,-0.010994957,-1.4301464e-08,0.00014230827,-0.018659066,-0.61291564,0.3256114,-9.749189,0.7866488,47.72271,-0.7285423,-2.4370787,-3.4859834,-0.48302376,0.065733574,-0.18583383,27.6875,28.875,27.9375,31.625,33.5625,34.375
0.02405341,-2.272408,-0.67181766,-1.0976359,-0.0073875575,0.0759117,-0.103498206,-0.37291124,-0.3281709,0.059805363,-3.0783424,0.62473834,-0.0006508359,-0.009795489,0.0033457908,-0.003361338,0.0023540326,-0.005296873,0.005083089,0.44802496,-1.4705442,2.0095422,-2.107691,-1.5706495,2.4228802,-0.015309228,0.01978373,-0.0139933545,-9.337835e-10,0.00013033931,-0.020381039,-0.7278373,0.2681506,-9.80665,0.6971306,47.709274,-0.75212413,-2.516056,-3.3342047,-0.47611633,0.076669306,-0.18013947,27.6875,28.875,27.9375,31.625,33.5625,34.375
0.026054226,-2.3245943,-0.99344915,-1.0045631,0.014699358,0.05776967,-0.11656545,-0.3729292,-0.32816657,0.059802435,-3.0783389,0.6247192,-0.0006664809,-0.01042698,0.0038680374,-0.0032099583,0.0022106564,-0.0049908105,0.0034094816,0.44800043,-1.4705085,2.009507,-2.1076791,-1.5706495,2.4228442,-0.016862439,0.019682081,-0.014229634,-6.096938e-11,0.00012617187,-0.020260511,-0.7661445,0.30645782,-9.80665,0.7284641,47.72719,-0.70443916,-2.4443245,-3.4455814,-0.48778385,0.0828922,-0.16208467,27.6875,28.875,27.9375,31.625,33.5625,34.375
0.028053844,-2.0582955,-0.82745874,-1.0614158,0.008355551,0.06468497,-0.12889257,-0.37295887,-0.3281637,0.05981423,-3.078344,0.62475914,-0.0006084374,-0.011790105,0.0037667786,-0.0019621246,0.0009837885,-0.0024903754,0.0019210665,0.44797614,-1.4704967,2.0094697,-2.107691,-1.5706614,2.4228442,-0.017923659,0.018892363,-0.016225273,-3.980865e-12,0.00014558971,-0.019832278,-0.80445176,0.17238252,-9.749189,0.7083204,47.693153,-0.7222862,-2.3447912,-3.4451723,-0.4839996,0.07706437,-0.175726,27.6875,28.875,27.9375,31.625,33.5625,34.375
0.030053508,-2.2699926,-0.84628254,-0.79143554,-0.007600201,0.070654064,-0.14999036,-0.37297007,-0.32818234,0.059821032,-3.0784,0.62477124,-0.00067759625,-0.012562048,0.0034269672,-0.0020826522,0.0010037357,-0.002563176,0.0016860618,0.44795215,-1.470472,2.0094216,-2.1076672,-1.5705894,2.4228206,-0.017993707,0.02095651,-0.018213755,-2.5992205e-13,0.00015495026,-0.019665819,-0.842759,0.11492168,-9.653421,0.79560274,47.70032,-0.81066746,-2.3471904,-3.444759,-0.47543144,0.06756308,-0.17003888,27.6875,28.875,27.9375,31.625,33.5625,34.375
0.032054108,-2.0351698,-0.39556968,-0.6309134,-0.020396333,0.088638626,-0.16462515,-0.37300453,-0.32814735,0.059788946,-3.0783324,0.62481606,-0.0007020391,-0.013769235,0.0035436985,-0.0018694965,0.00072675565,-0.0020160172,0.0010549619,0.44787952,-1.4703878,2.0094082,-2.107691,-1.5706257,2.4227846,-0.019315375,0.022229236,-0.020100428,-1.6971052e-14,0.00016208981,-0.020355077,-0.7086837,0.019153614,-9.634268,0.7284641,47.67793,-0.7291986,-2.3628938,-3.3670373,-0.47421595,0.07415899,-0.19726285,27.6875,28.875,27.9375,31.625,33.5625,34.375
0.03405363,-1.994657,-0.6546294,-0.5617879,0.015410209,0.0808408,-0.17213024,-0.37304193,-0.32813978,0.05978926,-3.0783257,0.6248141,-0.0007170107,-0.015259131,0.003544055,-0.0011645851,-2.1432448e-05,-0.00051042007,0.00094813155,0.4478312,-1.4703277,2.0093362,-2.1076672,-1.5706257,2.422736,-0.020680575,0.022882065,-0.022434562,-1.1080885e-15,0.00017842925,-0.021611981,-0.61291564,0.0,-9.615114,0.7284641,47.701214,-0.77799475,-2.3028853,-3.3394985,-0.4704436,0.08612965,-0.20267543,27.6875,28.875,27.9375,31.625,33.5625,34.375
0.03605412,-1.753924,0.30252796,-0.6444891,0.029617863,0.06432995,-0.18637522,-0.37307855,-0.32815957,0.05980211,-3.0783877,0.6247882,-0.000664069,-0.016268736,0.0032671285,-0.00047784593,-0.0010234277,0.00078226515,0.0015367398,0.44781896,-1.4702916,2.0092752,-2.107703,-1.5706018,2.4226997,-0.021306464,0.023130815,-0.024283221,-7.2350265e-17,0.00051854114,-0.022826025,-0.5363012,0.038307227,-9.557653,0.7016076,47.73077,-0.835289,-2.3260162,-3.3258545,-0.4675594,0.06355753,-0.17344007,27.6875,28.875,27.9375,31.625,33.5625,34.375
0.038053937,-0.99439037,0.19547582,-0.60840315,0.050758712,0.04988757,-0.18990138,-0.37310532,-0.32813868,0.05976942,-3.078362,0.6248207,-0.000737032,-0.017522095,0.0033400706,8.2078564e-05,-0.0017887022,0.0018939847,0.0020153958,0.44774655,-1.4702075,2.0092633,-2.1077268,-1.570589,2.4226508,-0.02271847,0.023623098,-0.026109504,-4.7239557e-18,0.0007209505,-0.024715973,-0.34476504,-0.076614454,-9.442732,0.6635613,47.723602,-0.7658471,-2.3107202,-3.351009,-0.4693466,0.06673277,-0.17432234,27.6875,28.875,27.9375,31.625,33.5625,34.375
0.040053513,-0.8440896,0.36707163,-0.62111014,0.058186803,0.016821237,-0.17430452,-0.37314555,-0.32814696,0.05979349,-3.078396,0.62475145,-0.00066439126,-0.01864949,0.0036613634,0.0002710039,-0.00200088,0.0023712069,0.0019211174,0.44773394,-1.4701831,2.0091789,-2.1077154,-1.5706013,2.4225907,-0.02433384,0.024535518,-0.02754434,-3.0844055e-19,0.0007028902,-0.026235987,-0.22984336,-0.095768064,-9.3661175,0.7866488,47.71554,-0.71854496,-2.2004251,-3.3083153,-0.46155566,0.07547787,-0.17423823,27.6875,28.875,27.9375,31.625,33.5625,34.375
0.042054094,-0.47408321,0.29352358,-0.65131575,0.05273499,0.005725247,-0.16664444,-0.37320456,-0.32813033,0.059807982,-3.0783916,0.6248845,-0.00061809167,-0.01979685,0.004028578,0.00033387926,-0.0020572245,0.0026356552,0.0026271346,0.44764933,-1.470147,2.009106,-2.1077154,-1.5706018,2.4225898,-0.026018294,0.025746133,-0.02901767,-2.0138962e-20,0.00063595764,-0.02862522,-0.22984336,-0.095768064,-9.385271,0.7866488,47.72002,-0.72989964,-2.2093787,-3.33194,-0.4518615,0.06724402,-0.1533169,27.6875,28.875,27.9375,31.625,33.5625,34.375
0.044053663,0.04429937,-0.14657484,-0.7124527,0.030077558,0.016708609,-0.16819875,-0.3732244,-0.3280991,0.059792485,-3.0783234,0.6248315,-0.0006234346,-0.021006411,0.0042209346,0.00032769568,-0.0020776442,0.0027973652,0.003225074,0.44761285,-1.4700984,2.0090826,-2.107691,-1.5706614,2.422529,-0.027440006,0.0274837,-0.030911643,-1.3149304e-21,0.0005778217,-0.030643374,-0.076614454,-0.038307227,-9.385271,0.7911258,47.701214,-0.67404294,-2.2035034,-3.35052,-0.45694566,0.07754961,-0.1533083,27.6875,28.875,27.9375,31.625,33.5625,34.375
0.04605403,-0.7094263,-0.97016394,-0.8646461,0.01692252,0.0057164803,-0.15587065,-0.37327853,-0.32810605,0.059800357,-3.07837,0.62482154,-0.00062632817,-0.022129288,0.004287082,0.00061776215,-0.0023695605,0.0035087864,0.0038837548,0.4475525,-1.4700261,2.0089853,-2.107691,-1.5706257,2.4224565,-0.028547881,0.028506096,-0.03270062,-8.5855557e-23,0.0005292453,-0.032408584,-0.019153614,0.019153614,-9.3661175,0.74413085,47.754055,-0.73956317,-2.2278006,-3.3338466,-0.4365275,0.0942777,-0.12807181,27.6875,28.875,27.9375,31.625,33.5625,34.375
0.048053805,-0.1488745,-1.2662463,-0.73553646,0.00042137702,0.029432707,-0.17215082,-0.3733246,-0.3280897,0.059807315,-3.0783923,0.624825,-0.00058008585,-0.023199793,0.0046165315,0.0010670465,-0.0027869106,0.00446821,0.0043781684,0.44747993,-1.4700022,2.0089486,-2.1077154,-1.5706257,2.4223833,-0.030107956,0.028658427,-0.033898547,-5.6057545e-24,0.00048819318,-0.03446223,-0.038307227,0.17238252,-9.442732,0.6971306,47.73614,-0.6688465,-2.1501849,-3.3636866,-0.44395697,0.07751379,-0.11305572,27.6875,28.875,27.9375,31.625,33.5625,34.375
0.050053675,-0.46902058,-0.9882493,-0.8179823,-0.014930348,0.02133348,-0.16225547,-0.37336463,-0.32807693,0.05978412,-3.078381,0.62480414,-0.000612114,-0.02400783,0.004857477,0.0011809244,-0.0029021343,0.00478117,0.0047276244,0.44741946,-1.4699062,2.0089018,-2.1077392,-1.5706257,2.4223113,-0.03126786,0.029355455,-0.034927595,-3.660157e-25,0.00045305808,-0.035970807,-0.05746084,0.21068975,-9.461885,0.784413,47.723602,-0.642956,-2.10693,-3.3527427,-0.43495047,0.090457335,-0.108196504,27.6875,28.875,27.9375,31.625,33.5625,34.375
0.05205338,-0.29298106,-1.3136961,-0.9417016,-0.008851906,0.014657441,-0.1610187,-0.3734244,-0.32808658,0.059815377,-3.0784101,0.6248088,-0.0005516837,-0.024684856,0.0050024623,0.0010718576,-0.0028645783,0.00465018,0.0053109294,0.44738322,-1.4698578,2.0087688,-2.107703,-1.5706257,2.4222744,-0.0321659,0.030533817,-0.035971843,-2.3898211e-26,0.0004748078,-0.037451364,0.0,0.28730422,-9.519346,0.73069996,47.694946,-0.60181636,-2.0805614,-3.397714,-0.41618818,0.091970876,-0.09576842,27.6875,28.875,27.9375,31.625,33.5625,34.375
0.054054067,-0.7781924,-1.662163,-0.96673465,-0.00072861824,-0.0063516037,-0.15707572,-0.3734658,-0.32806176,0.059806406,-3.0784075,0.62474996,-0.0005817597,-0.025716994,0.0049994895,0.0015256692,-0.0033232055,0.005646217,0.007026269,0.4472989,-1.4697977,2.0087206,-2.107691,-1.5706257,2.4221537,-0.03307793,0.031087672,-0.0376223,-1.5603825e-27,0.00045210207,-0.040077627,0.019153614,0.40222588,-9.557653,0.76874626,47.694054,-0.60082424,-2.0203323,-3.446921,-0.3981042,0.09569003,-0.06395408,27.6875,28.875,27.9375,31.625,33.5625,34.375
0.05605354,-0.22334287,-1.5541158,-1.1348872,-0.008359347,0.005823946,-0.15887575,-0.3735098,-0.3280381,0.059788987,-3.0783625,0.62476045,-0.0005761072,-0.026817784,0.0050084954,0.0018548786,-0.0036714713,0.006422689,0.006254059,0.44723865,-1.4697137,2.008671,-2.107703,-1.5706614,2.4221058,-0.03407296,0.032053325,-0.03944001,-1.0188183e-28,0.00042581817,-0.04029917,-0.019153614,0.36391866,-9.557653,0.784413,47.749577,-0.65136766,-2.0171611,-3.3822517,-0.41093844,0.10348976,-0.054375973,27.6875,28.875,27.9375,31.625,33.5625,34.375
0.058054056,-0.9390627,-1.2719641,-1.1506522,-0.01944319,-0.0005953699,-0.15468752,-0.373582,-0.32801303,0.05980626,-3.0783644,0.62476164,-0.0005092,-0.027578868,0.0050320397,0.0020435348,-0.00387114,0.0068881894,0.004713633,0.44714242,-1.4696653,2.0085757,-2.107691,-1.5706857,2.4220102,-0.034786697,0.03280013,-0.040693585,-6.652155e-30,0.00040449644,-0.039471556,-0.095768064,0.3256114,-9.481039,0.7933669,47.721813,-0.66040206,-2.0152059,-3.4319441,-0.39536393,0.10311385,-0.08183851,27.6875,28.875,27.9375,31.625,33.5625,34.375
0.06005471,-1.1606388,-1.6324351,-0.9735871,-0.020493919,0.01218169,-0.15615629,-0.37363955,-0.32803446,0.05981992,-3.078445,0.6247982,-0.000518389,-0.029041914,0.005286329,0.0025736918,-0.0043931715,0.00806721,0.0038455536,0.4470817,-1.4695932,2.008468,-2.107703,-1.5706137,2.421962,-0.036557995,0.033499762,-0.042679116,-4.3433816e-31,0.0003631745,-0.040373378,-0.11492168,0.3256114,-9.5385,0.7530795,47.73256,-0.65098155,-2.035574,-3.456677,-0.3858653,0.099177346,-0.062311776,27.6875,28.875,27.9375,31.625,33.5625,34.375
0.0620543,-0.87743497,-1.3963995,-0.91793084,-0.028860115,0.034344137,-0.1641337,-0.37369114,-0.3280189,0.05982394,-3.078431,0.6247373,-0.0005104988,-0.029373648,0.005204897,0.002474052,-0.004091759,0.0072800927,0.0045426665,0.44702172,-1.4695209,2.008371,-2.1076667,-1.5706376,2.421866,-0.036747064,0.034819104,-0.044120863,0.00096118654,0.00043039268,-0.041258913,-0.21068975,0.30645782,-9.481039,0.7396539,47.734352,-0.62095267,-1.9397438,-3.4081564,-0.39604658,0.09820676,-0.07376072,27.6875,28.875,27.9375,31.625,33.5625,34.375
0.06405406,-1.2133112,-1.1858841,-0.7735778,-0.021261167,0.042102486,-0.15801904,-0.3737372,-0.32800493,0.059831668,-3.0784533,0.62475944,-0.0005181733,-0.030178634,0.005162298,0.002342622,-0.0039832536,0.006909644,0.0056781,0.44693756,-1.4694844,2.0083106,-2.1076548,-1.5706137,2.4217927,-0.03743263,0.036676567,-0.04593782,0.0013022609,0.00048987346,-0.043078743,-0.17238252,0.2681506,-9.500193,0.7642693,47.73614,-0.6791473,-1.9390386,-3.511757,-0.38714257,0.11465664,-0.057452105,27.6875,28.875,27.9375,31.625,33.5625,34.375
0.06605401,-1.1992922,-0.71152425,-0.7472871,-0.0132568665,0.04620363,-0.1609879,-0.37380782,-0.3279943,0.059838116,-3.0784824,0.62468886,-0.0004900415,-0.030851893,0.005111738,0.0024034097,-0.0048117097,0.0064561227,0.0053550596,0.44685313,-1.4694002,2.0082033,-2.1076548,-1.5706133,2.4216607,-0.038578443,0.037687622,-0.047275845,0.0016768138,0.0014322589,-0.04390249,-0.15322891,0.2681506,-9.481039,0.7866488,47.737934,-0.7278745,-1.8927014,-3.4261138,-0.38190746,0.084022015,-0.044059332,27.6875,28.875,27.9375,31.625,33.5625,34.375
0.06805367,-1.2904398,-0.4871928,-0.44491792,0.003999192,0.03506713,-0.16212778,-0.3738807,-0.32799113,0.05983731,-3.07848,0.62467074,-0.00041119085,-0.03149758,0.0047668503,0.002141185,-0.0054350337,0.0057887384,0.0032648342,0.44680488,-1.4692916,2.008094,-2.1076906,-1.5706486,2.4216015,-0.039084632,0.039713148,-0.048882235,0.0015859114,0.002281823,-0.04231872,-0.21068975,0.21068975,-9.481039,0.7911258,47.701214,-0.7524427,-1.9789097,-3.4322753,-0.36428034,0.10068789,-0.09491508,27.6875,28.875,27.9375,31.625,33.5625,34.375
0.070053354,-1.1457579,-0.081009395,-0.3191248,0.0030505524,0.038315002,-0.16904329,-0.37397,-0.32797235,0.059858885,-3.0784953,0.62469304,-0.00034080332,-0.032607574,0.0044268384,0.0022276668,-0.005868485,0.0062939366,0.0029688803,0.4466967,-1.4692193,2.0079625,-2.1076787,-1.5706605,2.4215055,-0.039557178,0.041640073,-0.0511239,0.0012568962,0.0024517584,-0.042493783,-0.36391866,0.095768064,-9.519346,0.81351066,47.71554,-0.7598284,-1.9378649,-3.4386182,-0.37243235,0.098478004,-0.106476575,27.6875,28.875,27.9375,31.625,33.5625,34.375
0.07205422,-1.3082759,-0.22373052,-0.394824,0.013998234,0.03770134,-0.16414496,-0.37400314,-0.32797128,0.05983529,-3.0785284,0.6246615,-0.00044204062,-0.034159705,0.0046305144,0.00266484,-0.0065422184,0.007403273,0.0025958067,0.44662428,-1.4691229,2.0079134,-2.1076906,-1.5706009,2.4214091,-0.041423667,0.042661082,-0.053197842,0.0010204483,0.0025737693,-0.043986056,-0.34476504,0.019153614,-9.519346,0.7105615,47.688675,-0.81344825,-1.9620686,-3.426465,-0.3628538,0.08506967,-0.09853234,27.6875,28.875,27.9375,31.625,33.5625,34.375
0.0740538,-1.7289402,-0.5134306,-0.50675106,0.0268747,0.027728418,-0.15160786,-0.37407437,-0.32798013,0.059848525,-3.0785701,0.6247472,-0.00041684014,-0.035205547,0.0048208153,0.002490175,-0.0061703287,0.007326392,0.0020412062,0.44655177,-1.4690386,2.0077932,-2.1077025,-1.5705646,2.4213848,-0.042515416,0.04462436,-0.05496505,0.0010571862,0.0022704646,-0.04452117,-0.4405331,0.019153614,-9.385271,0.77545905,47.685097,-0.706594,-1.9417412,-3.3527198,-0.34218466,0.0954902,-0.12682433,27.6875,28.875,27.9375,31.625,33.5625,34.375
0.07605405,-1.4877361,-0.13956662,-0.24628156,0.016131172,0.038676538,-0.1571529,-0.37413818,-0.3279809,0.059864786,-3.0786116,0.62460166,-0.00036166888,-0.03595632,0.0048327795,0.0028443763,-0.006522645,0.008074347,0.001749302,0.4465035,-1.4689665,2.007674,-2.1076906,-1.5705765,2.4212406,-0.04320658,0.044956803,-0.056150857,0.0010833734,0.002264684,-0.044919595,-0.38307226,0.076614454,-9.289503,0.7530795,47.739727,-0.8184036,-1.9392041,-3.4811885,-0.33388186,0.08907229,-0.12436566,27.6875,28.875,27.9375,31.625,33.5625,34.375
0.07805364,-1.1015584,0.11506326,-0.19139984,0.009820751,0.049814753,-0.16939631,-0.37421006,-0.32795396,0.05985844,-3.078593,0.62457746,-0.0003793992,-0.036908228,0.0041607595,0.0035443523,-0.0065618195,0.008331906,0.002967736,0.44639573,-1.4688581,2.0075638,-2.1076658,-1.5705885,2.4211202,-0.04274298,0.046579115,-0.059992213,0.0030531385,0.002184931,-0.04567237,-0.38307226,0.038307227,-9.404425,0.7866488,47.73256,-0.8113198,-1.8878102,-3.2710853,-0.32161263,0.09957383,-0.15378788,27.6875,28.875,27.9375,31.625,33.5625,34.375
0.080053516,-0.94390035,0.058010537,-0.4262883,0.019194094,0.049749795,-0.1635432,-0.37428787,-0.32793993,0.059865456,-3.0785975,0.62465674,-0.00033792848,-0.036623586,0.005629306,0.0015267216,-0.004200772,0.0032004914,0.0008719589,0.44629887,-1.4687731,2.007457,-2.1076772,-1.5705885,2.4210722,-0.045298897,0.04985453,-0.059367944,0.0048012226,0.002277679,-0.046132974,-0.4405331,0.019153614,-9.32781,0.83813137,47.72271,-0.8432629,-1.9816145,-3.3904915,-0.3532086,0.08108986,-0.17269559,27.6875,28.875,27.9375,31.625,33.5625,34.375
0.082053676,-0.8979333,-0.5040459,-0.26441836,0.024700869,0.045041572,-0.1709484,-0.37435943,-0.32792097,0.05987601,-3.0785959,0.6247526,-0.00033334634,-0.038011394,0.005707218,0.00279878,-0.005701333,0.005452058,9.514866e-05,0.4461904,-1.4687016,2.0073488,-2.1076534,-1.5705765,2.4210238,-0.04694587,0.04880529,-0.06117483,0.004978062,0.0026571031,-0.047002934,-0.38307226,0.11492168,-9.308657,0.7933669,47.701214,-0.7906265,-1.9260514,-3.3419633,-0.34065592,0.090533555,-0.19173393,27.6875,28.875,27.9375,31.625,33.5625,34.375
0.08405337,-1.0458957,-0.51712817,-0.48591495,0.011203102,0.03655488,-0.15867157,-0.37445655,-0.32791385,0.059883926,-3.0786078,0.62464136,-0.00029262813,-0.040980678,0.005400042,0.004365586,-0.008047287,0.0090066185,-0.0016928716,0.44610545,-1.4685576,2.007167,-2.10763,-1.5706009,2.4208682,-0.04942943,0.04975206,-0.06565665,0.004291211,0.0032298611,-0.047696445,-0.34476504,0.11492168,-9.232041,0.7597976,47.685097,-0.74144804,-1.8296511,-3.3563497,-0.32442737,0.0765946,-0.21717891,27.6875,28.875,27.9375,31.625,33.5625,34.375
0.08605343,-0.8523807,-0.46275222,-0.51718795,0.0047144657,0.045779712,-0.16441436,-0.3745202,-0.32791755,0.059897806,-3.0786664,0.6246893,-0.00028059652,-0.040814582,0.0047869743,0.0036804075,-0.008008998,0.0078111514,0.0017164003,0.44602194,-1.468497,2.0070713,-2.1076415,-1.5705522,2.4208071,-0.048443682,0.051865015,-0.06633228,0.0039496925,0.0037113759,-0.050119817,-0.34476504,0.19153613,-9.289502,0.86945957,47.72719,-0.76658154,-1.8354809,-3.1994023,-0.31953198,0.0724515,-0.23731175,27.6875,28.875,27.9375,31.625,33.5625,34.375
0.08805409,-1.3109217,-0.6742604,-0.43961543,0.002127824,0.041223448,-0.1611144,-0.37461936,-0.32791182,0.05991292,-3.0786908,0.6246152,-0.00020030442,-0.040566586,0.005267373,0.001866953,-0.0063943407,0.0034999978,0.0032986004,0.4459376,-1.4683759,2.0069034,-2.107641,-1.5705761,2.4206736,-0.049386095,0.05574671,-0.06668901,0.005008197,0.0041183624,-0.052644435,-0.30645782,0.24899697,-9.3661175,0.75084364,47.67793,-0.8434862,-2.0447888,-3.35446,-0.3195361,0.057950698,-0.22098434,27.6875,28.875,27.9375,31.625,33.5625,34.375
0.09005385,-1.3389051,-0.5387013,-0.5769301,-0.0036935722,0.043474223,-0.16443814,-0.37469643,-0.32790172,0.059938867,-3.078722,0.6246241,-0.000164482,-0.042511337,0.0055374103,0.0036408694,-0.007530205,0.006096783,3.3195327e-05,0.4458408,-1.4683164,2.0067704,-2.1076052,-1.5705642,2.4205785,-0.05157305,0.054714147,-0.06995815,0.006478606,0.0040225624,-0.05156432,-0.24899697,0.24899697,-9.423578,0.76874626,47.73077,-0.7639263,-1.8857898,-3.2713265,-0.32465413,0.05901746,-0.2655362,27.6875,28.875,27.9375,31.625,33.5625,34.375
0.09205345,-1.4183546,-1.2432038,-0.6600937,0.01139828,0.032939054,-0.15537483,-0.37481135,-0.32788652,0.059946667,-3.0787568,0.62463105,-9.19026e-05,-0.04361059,0.005740686,0.004033926,-0.0075380616,0.0064206715,0.00013086542,0.4457084,-1.4681844,2.0066154,-2.1076405,-1.5705642,2.4204462,-0.052841507,0.055656444,-0.072110064,0.0073935585,0.0038915335,-0.052928858,-0.24899697,0.22984336,-9.32781,0.8179876,47.71554,-0.7714751,-1.8080845,-3.2165422,-0.3377548,0.055012614,-0.27896023,27.6875,28.875,27.9375,31.625,33.5625,34.375
0.09405427,-1.657514,-0.76938325,-0.75228053,-0.0035786033,0.014268916,-0.15855809,-0.37485167,-0.3278697,0.05991909,-3.0787115,0.6246598,-0.00023503134,-0.04413262,0.0057254247,0.0028366577,-0.006973315,0.0043891356,0.0011764967,0.44562417,-1.4680512,2.0065186,-2.107581,-1.5705403,2.4203856,-0.053520232,0.05933691,-0.07333315,0.0070129987,0.0042494265,-0.054652784,-0.30645782,0.2681506,-9.346964,0.78888994,47.723602,-0.84678745,-1.8744268,-3.230105,-0.3429531,0.06236128,-0.3200182,27.6875,28.875,27.9375,31.625,33.5625,34.375
0.09605366,-1.0820372,-1.1542381,-0.66823316,-0.0050672297,0.032050926,-0.16637021,-0.3749566,-0.32783914,0.05992741,-3.0787175,0.6246213,-0.00020820418,-0.04544087,0.005429592,0.0033890666,-0.007506783,0.005854037,0.003125619,0.44548002,-1.4679312,2.0063622,-2.107557,-1.5705522,2.4202168,-0.054024007,0.060454983,-0.0757855,0.0067959223,0.0040951264,-0.057103686,-0.24899697,0.2681506,-9.423578,0.73741806,47.7648,-0.83591425,-1.9737682,-3.294709,-0.32448143,0.050833873,-0.3067389,27.6875,28.875,27.9375,31.625,33.5625,34.375
0.09805349,-1.3273214,-1.175974,-0.7378444,-0.016798453,0.03208952,-0.15920481,-0.37505475,-0.32782438,0.0599415,-3.0787077,0.6246211,-0.00019828761,-0.045751713,0.0057828026,0.0028255135,-0.006737719,0.0044933227,-0.00044544227,0.4453717,-1.4677987,2.0061705,-2.107497,-1.5705642,2.4201097,-0.054880597,0.06215832,-0.07650583,0.007372523,0.003988455,-0.054388527,-0.21068975,0.2681506,-9.3661175,0.7620334,47.755844,-0.885183,-1.9080958,-3.0672426,-0.32663563,0.046268433,-0.37066934,27.6875,28.875,27.9375,31.625,33.5625,34.375
0.100054,-1.3406018,-1.394263,-0.5479785,-0.02518978,0.032376587,-0.1614794,-0.37513566,-0.32783565,0.05994322,-3.0787382,0.62462664,-0.00016539033,-0.045377273,0.006181938,0.0018783348,-0.005162637,0.0022309038,0.0007827805,0.4453117,-1.4676664,2.0060265,-2.1075208,-1.5705522,2.4200494,-0.05498181,0.06385742,-0.07642682,0.008317099,0.0035459276,-0.055717167,-0.21068975,0.34476504,-9.500193,0.84708,47.729877,-0.87405074,-1.9299252,-3.2530298,-0.33583653,0.047518462,-0.4126882,27.6875,28.875,27.9375,31.625,33.5625,34.375
0.10205383,-1.2181625,-1.7700025,-0.6701548,-0.016936205,0.038846526,-0.15875632,-0.37524644,-0.32782903,0.05995752,-3.0787864,0.62469316,-0.00016485617,-0.04807445,0.0059589283,0.0029002582,-0.0062110466,0.00491716,0.0016582247,0.44516706,-1.4675338,2.0058453,-2.107509,-1.5705045,2.4199402,-0.05682841,0.06589037,-0.08091765,0.007903082,0.0033272651,-0.058435638,-0.24899697,0.3256114,-9.461885,0.7933669,47.7451,-0.9081465,-2.005748,-3.1865377,-0.34976414,0.055021517,-0.4226172,27.6875,28.875,27.9375,31.625,33.5625,34.375
0.1040542,-0.72193354,-0.9996438,-0.6245124,-0.020239854,0.039478984,-0.16285706,-0.3753571,-0.32779226,0.059954215,-3.0787337,0.62466204,-9.833312e-05,-0.0476699,0.0066857636,0.0016159145,-0.0047404836,0.002572418,0.0039036863,0.44504675,-1.4673777,2.0056784,-2.107497,-1.5705765,2.4198074,-0.057598244,0.06748307,-0.07972815,0.007867483,0.003012212,-0.061450902,-0.17238252,0.24899697,-9.3661175,0.7150385,47.67345,-0.8643018,-1.9483602,-3.1470022,-0.33242476,0.0679144,-0.4504879,27.6875,28.875,27.9375,31.625,33.5625,34.375
0.106053784,-0.7891643,-0.8827873,-0.7049027,-0.0030980369,0.013100262,-0.16124402,-0.3754615,-0.3277962,0.059979822,-3.0788152,0.62463737,-6.866613e-05,-0.04889829,0.00522515,0.002446089,-0.005566462,0.004895421,0.008686331,0.44492748,-1.4672693,2.0054977,-2.107485,-1.5705284,2.4196625,-0.05577017,0.06935377,-0.08359039,0.0074109277,0.0027527518,-0.064402185,-0.076614454,0.21068975,-9.3661175,0.7553206,47.721813,-1.1159883,-2.0420551,-3.2037504,-0.33505255,0.07594712,-0.45255345,27.6875,28.875,27.9375,31.625,33.5625,34.375
0.10805337,-0.9736489,-0.9695954,-0.47680688,0.007848784,0.00021899228,-0.15589947,-0.37555388,-0.32779774,0.059971046,-3.0788484,0.6246424,-6.216711e-05,-0.049996614,0.005558387,0.0022336517,-0.0054845153,0.0048239715,0.0116352355,0.44483095,-1.467113,2.0053542,-2.1075213,-1.5705045,2.419565,-0.057338998,0.0711153,-0.08499341,0.00715421,0.0027079259,-0.06891862,0.0,0.21068975,-9.308656,0.8157518,47.684196,-1.1037619,-1.9752558,-3.1344175,-0.32602564,0.063398935,-0.42821553,27.6875,28.875,27.9375,31.625,33.5625,34.375
0.11005432,-0.4654291,-0.5562698,-0.62471664,0.008251992,0.002644471,-0.1546923,-0.37565893,-0.32779223,0.05998883,-3.078879,0.62455153,-6.487531e-06,-0.051872928,0.0060561625,0.002723879,-0.0062325294,0.0061183386,0.01327464,0.444734,-1.4669807,2.0051625,-2.1074975,-1.5705165,2.4194076,-0.060023203,0.07207959,-0.08710857,0.0068138554,0.0028241246,-0.073240824,-0.019153614,0.21068975,-9.232041,0.8023209,47.734352,-1.0582391,-2.0444286,-3.169084,-0.3149627,0.06615063,-0.426183,27.6875,28.875,27.9375,31.625,33.5625,34.375
0.11205413,-0.7788187,-0.90723526,-0.5975451,0.009806867,-0.009109497,-0.16207397,-0.37576684,-0.32775453,0.059989404,-3.0788486,0.62452185,1.2340496e-05,-0.051853575,0.005630929,0.0021233778,-0.005479672,0.0051578954,0.020105949,0.44459042,-1.4668365,2.0049942,-2.1074612,-1.5705527,2.4192495,-0.059007365,0.074256904,-0.088151164,0.006868546,0.0025556134,-0.079055004,0.019153614,0.28730422,-9.232041,0.8157518,47.72629,-1.1428416,-2.0018306,-3.0736904,-0.3033584,0.07428895,-0.38945615,27.6875,28.875,27.9375,31.625,33.5625,34.375
0.11405407,-0.8667039,-0.9516049,-0.5277872,0.00016694299,0.00089311786,-0.16031103,-0.37587562,-0.32774487,0.05998908,-3.0789049,0.624416,1.9224677e-05,-0.052752167,0.005994414,0.0024891873,-0.005326197,0.005189379,0.024356723,0.44445798,-1.4666804,2.0048258,-2.1074731,-1.5705284,2.419044,-0.06037528,0.07484566,-0.08992908,0.00809805,0.0024053787,-0.084672645,0.05746084,0.24899697,-9.289503,0.7911258,47.71554,-1.1703905,-2.0757701,-3.0945258,-0.3139683,0.07689345,-0.33415562,27.6875,28.875,27.9375,31.625,33.5625,34.375
0.11605331,-1.1931509,-1.0800728,-0.7670016,0.0028229856,-0.0006394974,-0.15772828,-0.37597275,-0.32771638,0.05998029,-3.0788817,0.6243321,-3.1380565e-05,-0.0532632,0.00670651,0.00093609607,-0.0037535927,0.0020350774,0.027696172,0.4443254,-1.4665112,2.004646,-2.107413,-1.5705408,2.418862,-0.062107805,0.07881864,-0.090867996,0.008587409,0.0023369663,-0.089743614,-0.05746084,0.22984336,-9.251195,0.79560274,47.696735,-1.1467886,-2.095347,-3.1596239,-0.32000676,0.07471379,-0.27938768,27.6875,28.875,27.9375,31.625,33.5625,34.375
0.11805381,-0.9569487,-0.5477443,-0.5846614,-0.009027132,0.015043212,-0.16709058,-0.37607187,-0.3277128,0.059980225,-3.0789225,0.62424314,-8.0227685e-05,-0.054300547,0.006749574,0.00234333,-0.005247977,0.0048842635,0.030628638,0.444205,-1.4663445,2.0044544,-2.1073768,-1.5705045,2.4186811,-0.06318086,0.0767784,-0.09180538,0.008353347,0.0024585496,-0.093749076,-0.11492168,0.24899697,-9.251195,0.7709874,47.72002,-1.1164414,-2.0145268,-3.0832384,-0.31187466,0.07997677,-0.2322868,27.6875,28.875,27.9375,31.625,33.5625,34.375
0.12005419,-1.9010413,-1.1756732,-0.6312708,-0.00024005206,0.0026394906,-0.15860598,-0.37619948,-0.3277077,0.06001236,3.0789578,-0.62413377,-6.124866e-05,-0.055104747,0.006948799,0.0020068507,-0.0048355795,0.0039999974,0.03231131,0.44409677,-1.466224,2.0042508,-2.1073887,-1.5705284,2.4185004,-0.064265355,0.07890729,-0.093512505,0.008905252,0.0024734384,-0.096514866,-0.05746084,0.22984336,-9.251195,0.7239871,47.695843,-1.185508,-1.9197214,-3.155816,-0.31040746,0.07959451,-0.18918929,27.6875,28.875,27.9375,31.625,33.5625,34.375
0.12205374,-1.659099,-1.0498513,-0.7328901,-0.00028376406,0.014196876,-0.15744326,-0.3762942,-0.3277081,0.06000128,3.0789394,-0.6240141,3.924118e-05,-0.055622056,0.007684683,0.0003322468,-0.0036161265,0.0006383935,0.031580918,0.44396406,-1.4660428,2.004071,-2.1073644,-1.5704569,2.4182954,-0.06632014,0.08295636,-0.09419374,0.009103054,0.0028133392,-0.097838864,-0.11492168,0.15322891,-9.32781,0.8023209,47.72002,-1.1204506,-2.200911,-3.1734571,-0.31474143,0.07052413,-0.13683586,27.6875,28.875,27.9375,31.625,33.5625,34.375
0.12405344,-1.0460465,-0.6259819,-0.6582975,-0.0034897316,0.031041944,-0.16351001,-0.37646237,-0.327684,0.060034703,3.078919,-0.6239541,-8.874819e-05,-0.056079067,0.0076409103,0.001295015,-0.0048720846,0.0022877485,0.029527148,0.44378385,-1.4658757,2.0038078,-2.1073525,-1.5704807,2.4180806,-0.06690576,0.081274286,-0.094564326,0.009123505,0.0032472182,-0.09637115,-0.21068975,0.17238252,-9.385271,0.7620334,47.70838,-1.1784756,-1.971904,-3.26609,-0.3010788,0.07152487,-0.13609603,27.6875,28.875,27.9375,31.625,33.5625,34.375
0.1260536,-1.1300112,-0.3965784,-0.55759686,0.00329252,0.03550624,-0.16260111,-0.3765583,-0.32766572,0.060026657,3.0789402,-0.62388206,-7.421066e-05,-0.056990303,0.00826365,0.00029657278,-0.0040136985,0.00061130803,0.02767154,0.44366333,-1.4657189,2.003651,-2.107341,-1.5704807,2.4179125,-0.068832844,0.084373735,-0.09568066,0.009023644,0.003188355,-0.09644143,-0.2681506,0.17238252,-9.3661175,0.779936,47.716442,-1.142142,-2.0894468,-3.3027601,-0.31572518,0.085568234,-0.14513406,27.6875,28.875,27.9375,31.625,33.5625,34.375
0.1280532,-1.4362497,-0.61920506,-0.71174276,0.017709346,0.02711203,-0.15462108,-0.3766612,-0.3276618,0.06002528,3.0789628,-0.6237564,-4.5613244e-05,-0.057789706,0.008165197,0.00041787184,-0.004315892,0.000659677,0.020482913,0.4435549,-1.4655387,2.0034473,-2.1073048,-1.5704678,2.417723,-0.0695113,0.08560999,-0.09740776,0.009341536,0.0034361253,-0.08993056,-0.26815057,0.11492168,-9.32781,0.8112748,47.672558,-1.1820852,-2.1010382,-3.283043,-0.3025108,0.07103212,-0.17797291,27.6875,28.875,27.9375,31.625,33.5625,34.375
0.13005348,-1.4791187,-0.021150365,-0.5459159,0.020506551,0.031312924,-0.16391449,-0.37676078,-0.3276324,0.060009457,3.0789833,-0.623686,-3.1792166e-05,-0.05986517,0.007792882,0.0012868281,-0.005749268,0.0029101102,0.016694216,0.44341037,-1.4653825,2.0033143,-2.1073172,-1.5704678,2.417532,-0.07086718,0.08702219,-0.100819424,0.0086925095,0.003755903,-0.08749583,-0.4405331,0.038307227,-9.251195,0.8247004,47.71823,-1.2138611,-2.0228925,-3.250593,-0.30150768,0.06480481,-0.24265614,27.6875,28.875,27.9375,31.625,33.5625,34.375
0.13205403,-1.8200549,-0.24595012,-0.5546345,0.024621733,0.035051603,-0.1564038,-0.3768685,-0.32761538,0.059997674,3.079036,-0.623659,3.332618e-05,-0.05940377,0.008582259,0.0001359294,-0.0047265748,0.00043863748,0.014025554,0.44329014,-1.4651666,2.0030868,-2.1072447,-1.5704802,2.4173884,-0.072001584,0.08810513,-0.09944259,0.008902855,0.00389078,-0.08596274,-0.3256114,0.05746084,-9.32781,0.7911258,47.678825,-1.1541697,-2.078097,-3.351438,-0.2973924,0.07844235,-0.26241732,27.6875,28.875,27.9375,31.625,33.5625,34.375
0.13405396,-1.9198375,-0.36200085,-0.5464534,0.02200127,0.03307038,-0.16094653,-0.37702414,-0.32760006,0.060014825,3.0789537,-0.6236621,-3.8045342e-05,-0.061054017,0.008821317,0.0005805737,-0.00524766,0.00070912106,0.011297389,0.44309747,-1.4649984,2.0028703,-2.107281,-1.570444,2.4172082,-0.07413382,0.08970014,-0.10244935,0.009849439,0.004248997,-0.08536526,-0.28730422,0.019153614,-9.32781,0.76874626,47.694054,-1.2804341,-1.9801836,-3.325474,-0.30874363,0.050540254,-0.29537648,27.6875,28.875,27.9375,31.625,33.5625,34.375
0.13605417,-1.61125,-0.4796884,-0.6744971,0.015025539,0.042753484,-0.1647834,-0.37714326,-0.32759693,0.0600457,3.0789351,-0.6235622,-8.558572e-05,-0.061319496,0.009551583,0.00029782002,-0.004865625,2.392058e-05,0.011527867,0.44297686,-1.4648666,2.0026433,-2.1072328,-1.5704321,2.4170277,-0.0756827,0.089916416,-0.10210111,0.010069644,0.004203362,-0.08714461,-0.4405331,-0.05746084,-9.3661175,0.8918391,47.71465,-1.1979036,-2.0485926,-3.358904,-0.301543,0.06884961,-0.3082666,27.6875,28.875,27.9375,31.625,33.5625,34.375
0.13805383,-1.8220358,-0.67088544,-0.6136958,0.015585961,0.043350257,-0.16089751,-0.37728262,-0.32757574,0.060047403,3.0789323,-0.6234864,-5.9337355e-05,-0.062117174,0.010158494,-0.001424852,-0.0036726801,-0.0029583522,0.010393843,0.44279623,-1.4646612,2.002405,-2.107197,-1.5704082,2.4168003,-0.077635705,0.09453935,-0.10319678,0.009750449,0.004400457,-0.08796244,-0.51714754,-0.076614454,-9.404425,0.86945957,47.70211,-1.2094105,-2.0537329,-3.4368277,-0.29442337,0.057489753,-0.336488,27.6875,28.875,27.9375,31.625,33.5625,34.375
0.1400535,-2.192651,-0.5146646,-0.71510786,0.01220042,0.035788506,-0.15857132,-0.37739244,-0.32754257,0.0600197,3.0789595,-0.6235493,-3.9040428e-05,-0.0632546,0.0104097165,0.0004152934,-0.005155007,-0.00017427317,0.009449167,0.44265178,-1.4644586,2.0022476,-2.1072085,-1.5704321,2.4166918,-0.07919196,0.091825984,-0.10467638,0.01079087,0.0045435335,-0.08857426,-0.4405331,0.038307227,-9.289502,0.84708,47.703903,-1.153934,-1.8644809,-3.4231415,-0.31965315,0.0505153,-0.3495244,27.6875,28.875,27.9375,31.625,33.5625,34.375
0.14205334,-2.2243526,-0.51110524,-0.6679005,0.028907517,0.03233654,-0.15925877,-0.37751177,-0.32753122,0.060039934,3.0789375,-0.6234868,-4.6934216e-05,-0.06518274,0.009724595,0.0005538351,-0.0053443057,0.0012034776,0.010390297,0.44250762,-1.4643137,2.0020306,-2.1071608,-1.5704082,2.4165115,-0.07931728,0.095358916,-0.108716294,0.0099762175,0.004116769,-0.089636885,-0.36391866,0.095768064,-9.404425,0.80456203,47.701214,-1.1663542,-1.883313,-3.3533087,-0.30421293,0.05158032,-0.35172734,27.6875,28.875,27.9375,31.625,33.5625,34.375
0.1440541,-1.2986709,0.003991415,-0.60017943,0.021122139,0.05415697,-0.16559577,-0.37765175,-0.327484,0.06001711,3.078968,-0.6234952,-1.0472006e-05,-0.06573481,0.011856596,-0.00015273396,-0.004863076,-0.00033169537,0.005997918,0.44230202,-1.4640863,2.0018294,-2.1071494,-1.5704201,2.4163074,-0.08391843,0.09494725,-0.106651,0.009915081,0.0043405057,-0.08984743,-0.4213795,0.0,-9.404425,0.8784135,47.71465,-1.0251821,-1.9068983,-3.524257,-0.28100458,0.049259275,-0.3877562,27.6875,28.875,27.9375,31.625,33.5625,34.375
0.14605343,-1.4163404,-0.0795547,-0.5843828,0.023262605,0.05233725,-0.16914356,-0.37778565,-0.3274781,0.060015243,3.0789442,-0.6233882,-8.102494e-06,-0.067939475,0.0098867,0.0012365435,-0.0068481746,0.0030379994,0.0148843685,0.4421468,-1.4638817,2.0016105,-2.1071608,-1.5703839,2.4160886,-0.08239404,0.09757758,-0.11263004,0.009372512,0.004682299,-0.09720581,-0.34476504,0.095768064,-9.32781,0.7642693,47.716442,-1.1291202,-1.8623282,-3.3461506,-0.28234592,0.043719515,-0.3647992,27.6875,28.875,27.9375,31.625,33.5625,34.375
0.14805381,-1.5412612,-0.16557346,-0.7557266,0.015457106,0.05262608,-0.16485144,-0.3779131,-0.32747212,0.060028095,3.0789146,-0.62330604,2.3116658e-05,-0.06905687,0.011141984,0.0008588544,-0.0063654096,0.0023564908,0.014582215,0.44198966,-1.4637017,2.0013716,-2.1071131,-1.5703362,2.415884,-0.08561238,0.0986603,-0.113003336,0.0094921,0.0045392155,-0.10012143,-0.40222588,0.095768064,-9.3661175,0.7665104,47.71286,-1.1914077,-1.8934772,-3.4188306,-0.27540237,0.04016133,-0.32136625,27.6875,28.875,27.9375,31.625,33.5625,34.375
0.15005359,-2.032145,-0.73638713,-0.9170182,0.024001893,0.03849873,-0.15634926,-0.37808615,-0.32742992,0.06005417,3.0789266,-0.6233073,-0.000108254215,-0.07066994,0.012085916,0.0009923673,-0.005867486,0.0022275723,0.017688796,0.44179654,-1.4635215,2.0011075,-2.1070888,-1.5703963,2.4156904,-0.08851478,0.10016671,-0.11522663,0.01053552,0.004149859,-0.10612843,-0.40222588,0.11492168,-9.461885,0.800085,47.699425,-0.87977195,-1.9280066,-3.32516,-0.2660306,0.04676271,-0.282944,27.6875,28.875,27.9375,31.625,33.5625,34.375
0.15205324,-2.0610857,-1.0965992,-1.083774,0.010851518,0.038742486,-0.15522726,-0.37821078,-0.32741243,0.060046062,3.0789602,-0.623213,-7.754244e-05,-0.071739316,0.011904065,0.0016900748,-0.005975882,0.0034253744,0.023833834,0.4416525,-1.4633057,2.0008795,-2.1070526,-1.5703963,2.4154835,-0.088813215,0.10081418,-0.11772602,0.011261226,0.0037312808,-0.11257014,-0.4405331,0.13407528,-9.595961,0.8157518,47.716442,-1.0226638,-1.6511563,-3.2988153,-0.28843644,0.045584485,-0.21362102,27.6875,28.875,27.9375,31.625,33.5625,34.375
0.15405391,-1.5138755,-0.7598039,-0.9089248,-0.021719404,0.058752116,-0.16672628,-0.37834078,-0.3273735,0.060043514,3.0789704,-0.6231367,-2.4777524e-05,-0.07313166,0.012703972,0.0008261922,-0.0049962876,0.0021672496,0.027127944,0.44144765,-1.463125,2.000675,-2.107005,-1.5703725,2.4152298,-0.09127747,0.10419048,-0.119478,0.011198604,0.003378464,-0.11832658,-0.4405331,0.19153613,-9.634268,0.7620334,47.70211,-0.9105332,-1.7322538,-3.3038383,-0.30281973,0.047089588,-0.14196126,27.6875,28.875,27.9375,31.625,33.5625,34.375
0.15605408,-2.1171904,-1.6357733,-1.226979,-0.016313413,0.051509716,-0.15715699,-0.3784944,-0.32736754,0.060036723,3.0789447,-0.6230351,7.662135e-06,-0.07457724,0.013183549,0.0010603399,-0.0052335826,0.003360324,0.028549477,0.4412671,-1.4628729,2.0004122,-2.107005,-1.5703243,2.4149892,-0.093219124,0.10506192,-0.12084791,0.010525087,0.0030814782,-0.12168827,-0.38307226,0.30645782,-9.595961,0.7732232,47.729877,-0.825692,-1.7870861,-3.3045626,-0.30092517,0.064794205,-0.10130255,27.6875,28.875,27.9375,31.625,33.5625,34.375
0.15805386,-1.9856633,-1.3868911,-1.1312995,-0.02814811,0.061431266,-0.15745348,-0.37863398,-0.3273054,0.060022365,3.0790155,-0.62297374,3.5033685e-05,-0.07559859,0.013632774,0.00066799077,-0.005122928,0.0023598166,0.026291274,0.44105047,-1.4626687,2.0002086,-2.1069572,-1.5703601,2.4147255,-0.09514393,0.107205875,-0.12242512,0.010905526,0.0034012594,-0.12135435,-0.49799395,0.2873042,-9.5385,0.80679786,47.733456,-0.9366001,-1.7376235,-3.333047,-0.3018018,0.055091947,-0.048534572,27.6875,28.875,27.9375,31.625,33.5625,34.375
0.16005363,-1.623999,-1.4606245,-0.96473587,-0.025272932,0.071412854,-0.16581805,-0.3788172,-0.32729623,0.06005315,3.0789843,-0.62287277,-7.00392e-05,-0.076418795,0.013403363,0.0010216141,-0.0060755946,0.0033967625,0.023389664,0.44087017,-1.462453,1.9998974,-2.1069453,-1.5703601,2.4144864,-0.095679566,0.107661575,-0.12362174,0.010300928,0.0038269416,-0.118987754,-0.5746084,0.22984336,-9.5385,0.83589023,47.72719,-0.7534849,-1.767586,-3.3251503,-0.29238114,0.06766082,-0.0638942,27.6875,28.875,27.9375,31.625,33.5625,34.375
0.16205369,-2.4442818,-1.92434,-1.2746608,-0.0031109327,0.04120269,-0.14657575,-0.37896264,-0.327271,0.060052462,3.078973,-0.6227969,-6.119141e-05,-0.07789747,0.013767321,1.550911e-05,-0.005572371,0.0018267882,0.0172564,0.44067755,-1.4622476,1.9996694,-2.1069338,-1.5703362,2.414248,-0.09777489,0.11196796,-0.12603895,0.010048538,0.004037382,-0.11494793,-0.4405331,0.2681506,-9.595961,0.7396539,47.734352,-0.8854144,-1.9684668,-3.281733,-0.28866506,0.061324835,-0.09013879,27.6875,28.875,27.9375,31.625,33.5625,34.375
0.164054,-1.5535834,-1.0812248,-1.1133597,-0.016132463,0.059418075,-0.16037199,-0.37913486,-0.32724133,0.06006107,3.0789402,-0.6228324,-8.078484e-05,-0.07945523,0.01441512,0.0008423513,-0.0068577034,0.0039511994,0.010241271,0.44046053,-1.4620205,1.9993933,-2.10691,-1.5703238,2.4140575,-0.10048944,0.11113743,-0.12684983,0.009220907,0.0042934986,-0.11064705,-0.4596867,0.34476504,-9.615114,0.8179876,47.70659,-0.6209301,-1.7197828,-3.286134,-0.27738258,0.061874136,-0.13447778,27.6875,28.875,27.9375,31.625,33.5625,34.375
0.166054,-1.8426425,-1.2156118,-0.8736607,-0.010837649,0.04591906,-0.15297355,-0.3792987,-0.32721874,0.06006047,3.07895,-0.62275887,-0.0001226704,-0.081004456,0.01303504,0.0012878783,-0.0077034463,0.005571317,0.007126634,0.44028097,-1.4617797,1.9991287,-2.1069105,-1.5703362,2.413831,-0.09928099,0.114261776,-0.13121504,0.008634135,0.004360296,-0.106320806,-0.47884035,0.24899697,-9.5385,0.90527004,47.7451,-0.8293929,-2.0093935,-3.3272362,-0.2678631,0.04244359,-0.2093175,27.6875,28.875,27.9375,31.625,33.5625,34.375
0.16805379,-1.1760367,-1.0876684,-0.9592647,-0.00557728,0.052501332,-0.16520543,-0.3794415,-0.3271646,0.060044203,3.0789645,-0.62276113,-9.052646e-05,-0.08027539,0.0136809675,-0.00029216107,-0.006556689,0.0028011566,0.0066966894,0.44005284,-1.4615756,1.9989375,-2.106898,-1.5703362,2.4136026,-0.099893525,0.11586958,-0.12926938,0.008076022,0.0045049395,-0.10650446,-0.36391866,0.21068975,-9.461885,0.8224646,47.74868,-0.8267735,-1.8125906,-3.3557448,-0.25228143,0.04983076,-0.23702043,27.6875,28.875,27.9375,31.625,33.5625,34.375
0.17005377,-1.3340813,-0.98672175,-0.7637547,0.0055751787,0.047423124,-0.1546689,-0.3796416,-0.32715932,0.060083486,3.078888,-0.6227487,-0.00018717871,-0.08220825,0.012789476,0.0008123416,-0.0082258405,0.0048845415,0.002499007,0.4398488,-1.4613475,1.9985899,-2.1068742,-1.5703114,2.4134007,-0.10029962,0.11749902,-0.13366318,0.008245172,0.005129225,-0.10271046,-0.2873042,0.15322891,-9.423578,0.8291774,47.747787,-0.85536027,-1.8497286,-3.2191958,-0.24130684,0.056427024,-0.30740732,27.6875,28.875,27.9375,31.625,33.5625,34.375
0.17205347,-0.8363585,-0.29365006,-0.6210785,-0.00016886233,0.04293955,-0.16214536,-0.37979758,-0.32713282,0.06008743,3.078895,-0.6226909,-0.00022666363,-0.08203832,0.012914518,-8.3825595e-05,-0.007164706,0.0029942193,0.004056767,0.43966886,-1.4611313,1.998339,-2.1068623,-1.5703233,2.413184,-0.10023556,0.11952499,-0.13397953,0.008698395,0.0049782027,-0.10420355,-0.28730422,0.21068975,-9.3661175,0.83589023,47.72719,-1.0006562,-1.8813214,-3.2694097,-0.23340133,0.03785624,-0.33437315,27.6875,28.875,27.9375,31.625,33.5625,34.375
0.17405427,-0.7426663,-0.31654888,-0.59197533,0.008091953,0.028004097,-0.16475122,-0.37997708,-0.32711938,0.060098715,3.0788536,-0.62266594,-0.000291686,-0.08341263,0.012294823,0.00027416184,-0.0072931875,0.0042962725,0.00036512295,0.43947703,-1.460891,1.9980501,-2.1068742,-1.5703119,2.412982,-0.09994563,0.12176825,-0.13726468,0.008510281,0.004538901,-0.10021895,-0.038307227,0.1340753,-9.404425,0.79560274,47.721813,-0.99210054,-1.8692087,-3.2201867,-0.22940856,0.055305682,-0.40617758,27.6875,28.875,27.9375,31.625,33.5625,34.375
0.17605424,-0.27230284,-0.5978484,-0.6669263,0.019771589,0.02180199,-0.16224033,-0.3801659,-0.32707798,0.060090344,3.0788553,-0.6227228,-0.00032711495,-0.08541901,0.012114756,-0.00018817226,-0.0070449593,0.003940119,0.0001616244,0.43924865,-1.4606137,1.9977626,-2.1068742,-1.5703362,2.412789,-0.101275094,0.12644751,-0.14138602,0.008379462,0.004459691,-0.101341695,0.0,0.19153613,-9.251195,0.8627467,47.734352,-1.1122633,-2.0102718,-3.157541,-0.20333318,0.046653256,-0.45883793,27.6875,28.875,27.9375,31.625,33.5625,34.375
0.17805338,-0.67169386,-0.49882177,-0.5253713,0.018610956,-0.0057584746,-0.1659641,-0.3803456,-0.32707107,0.060102105,3.0787761,-0.6226671,-0.0002917244,-0.08457427,0.0131727,-0.0005075622,-0.0060445974,0.0026968403,0.0023809066,0.4390204,-1.460363,1.9974526,-2.10685,-1.5702523,2.4125361,-0.10220015,0.12481975,-0.1390869,0.009270526,0.004095921,-0.10448741,-0.038307227,0.21068975,-9.11712,0.75755644,47.653748,-1.045818,-1.9455715,-3.2622619,-0.1991998,0.068010494,-0.48184663,27.6875,28.875,27.9375,31.625,33.5625,34.375
0.18005405,-0.041799564,-0.2763638,-0.5907915,0.005093231,-0.0041850726,-0.1702702,-0.38052237,-0.3270474,0.060118053,3.0788052,-0.6226106,-0.00037944128,-0.08554836,0.01343477,-0.0017748476,-0.0051704766,0.0004264725,0.009364777,0.4388518,-1.4601216,1.9971408,-2.1068137,-1.5703,2.412329,-0.10362079,0.12921686,-0.14108771,0.009297945,0.004273499,-0.11289018,0.11492168,0.21068975,-9.193734,0.82022345,47.72719,-1.0690944,-2.1243951,-3.2026906,-0.19568145,0.054428354,-0.44401687,27.6875,28.875,27.9375,31.625,33.5625,34.375
0.18205391,0.07558568,-0.9615736,-0.61528397,0.0034486463,-0.007341794,-0.16657057,-0.38068315,-0.32699478,0.060088586,3.0788763,-0.6225448,-0.0003532886,-0.08616889,0.0139420135,-0.0017722048,-0.0051673236,-0.00033663804,0.014102923,0.4386353,-1.4598461,1.9969004,-2.1068017,-1.5703357,2.4120626,-0.10527883,0.12990317,-0.14212653,0.010339745,0.004592838,-0.119286545,0.11492168,0.24899697,-9.270349,0.7418897,47.65464,-1.031172,-2.0353408,-3.3532755,-0.18083751,0.050389953,-0.4014872,27.6875,28.875,27.9375,31.625,33.5625,34.375
0.18405376,-0.32869053,-0.9364502,-0.37876344,-0.0066905604,-0.009568707,-0.16050485,-0.38086274,-0.32698137,0.06011797,3.0788052,-0.6224878,-0.00039640532,-0.08659064,0.013789355,-0.0015071848,-0.0052549224,-0.00043945413,0.023882857,0.4384193,-1.4596423,1.9966019,-2.1067774,-1.5702876,2.4118202,-0.10539701,0.13055694,-0.14370899,0.0113331,0.0047283457,-0.12918378,-0.019153614,0.30645782,-9.212888,0.7463667,47.716442,-1.0629319,-1.977719,-3.310553,-0.17577553,0.06696942,-0.29739842,27.6875,28.875,27.9375,31.625,33.5625,34.375
0.18605408,-0.20077705,-0.47039807,-0.40366408,-0.012596299,-0.001170493,-0.16422349,-0.38100687,-0.32695514,0.060072754,3.0788696,-0.62236196,-0.0002527141,-0.087315805,0.0137835145,-0.001833673,-0.004695604,-0.0007652105,0.030097924,0.43822736,-1.459318,1.9963382,-2.1067417,-1.5702642,2.4115417,-0.10572239,0.13266973,-0.14536111,0.011411887,0.0043472443,-0.1357231,0.095768064,0.30645782,-9.155427,0.8784135,47.705692,-1.1632308,-2.0211544,-3.3089767,-0.18038505,0.06225261,-0.22657889,27.6875,28.875,27.9375,31.625,33.5625,34.375
0.18805358,-0.48804724,-0.6547824,-0.4201453,-0.0024811376,-0.0064169215,-0.16406243,-0.38122138,-0.32691455,0.060109258,3.0788593,-0.6222628,-0.00040859135,-0.089299574,0.01427515,-0.0006990606,-0.005787141,0.0012912722,0.03145808,0.4379863,-1.4591025,1.996013,-2.1067293,-1.5703,2.4112403,-0.10840501,0.13254425,-0.14793006,0.011777817,0.004474433,-0.13976428,0.17238252,0.3256114,-9.212888,0.82694155,47.71017,-0.90773976,-1.9499022,-3.267488,-0.17620829,0.065629505,-0.17831549,27.6875,28.875,27.9375,31.625,33.5625,34.375
0.19005328,-0.19358705,-0.92345446,-0.5057216,-0.0017531244,0.002049745,-0.16145308,-0.38138705,-0.326899,0.060106266,3.0788276,-0.6221401,-0.00036542816,-0.08898106,0.013748588,-0.00089901104,-0.006158372,0.00055860006,0.032595303,0.43777072,-1.4588509,1.9957384,-2.1067173,-1.5702394,2.4109523,-0.1075173,0.13323678,-0.14831969,0.011988409,0.0051233126,-0.14001417,0.038307227,0.2681506,-9.193734,0.7978386,47.65106,-1.1691377,-1.9384887,-3.2934356,-0.17817177,0.06521149,-0.16048485,27.6875,28.875,27.9375,31.625,33.5625,34.375
0.1920539,-0.35474038,-0.786205,-0.4585671,-0.0015162475,0.0025750825,-0.15290543,-0.38157067,-0.32686076,0.060093347,3.078875,-0.62207663,-0.0003562986,-0.09018068,0.014393906,-0.0011877475,-0.0060043274,-0.00030741934,0.027035246,0.43755382,-1.4585507,1.995427,-2.106681,-1.5702637,2.41069,-0.10986631,0.13522778,-0.15003446,0.012558047,0.0053439913,-0.1368024,-0.11492168,0.21068975,-9.11712,0.8291774,47.64479,-1.0157931,-1.9143794,-3.3236535,-0.16306865,0.06621635,-0.16362873,27.6875,28.875,27.9375,31.625,33.5625,34.375
0.19405371,-0.6130485,-0.60817003,-0.46494943,0.006230758,0.0016556728,-0.15790677,-0.38176277,-0.32683802,0.060090013,3.078852,-0.6220178,-0.00036234508,-0.09006302,0.014384686,-0.001269542,-0.0071520796,-0.0011259128,0.021156503,0.43732566,-1.4582634,1.9951161,-2.106681,-1.570239,2.4104283,-0.11060878,0.13504599,-0.14970773,0.012666711,0.006732433,-0.13166767,-0.05746084,0.17238252,-9.232041,0.84708,47.66271,-1.1641347,-1.8264523,-3.412237,-0.15002657,0.052561045,-0.21768749,27.6875,28.875,27.9375,31.625,33.5625,34.375
0.19605356,-0.9245265,-0.73952025,-0.7350661,0.0014459826,0.0082378695,-0.15765971,-0.3819293,-0.32680047,0.060078807,3.078873,-0.621986,-0.0003306645,-0.09164406,0.014283478,-0.00052933465,-0.008058013,0.00019858679,0.016583057,0.43710908,-1.4579991,1.9948405,-2.1066449,-1.570239,2.4101894,-0.111918636,0.13602939,-0.1526018,0.012993596,0.006982655,-0.12840284,-0.095768064,0.28730422,-9.212888,0.7418897,47.694946,-1.115966,-1.8832753,-3.330162,-0.15536344,0.033876084,-0.2774821,27.6875,28.875,27.9375,31.625,33.5625,34.375
0.19805425,-0.9062975,-0.7077468,-0.70267195,-0.008374852,0.021518914,-0.15740407,-0.38210666,-0.32678926,0.06009174,3.0788577,-0.6219263,-0.0003236246,-0.09388388,0.015188237,-0.00034322237,-0.007449955,0.0005325943,0.01288491,0.43691626,-1.457735,1.9945043,-2.1065853,-1.5702151,2.4099615,-0.11504919,0.1384837,-0.15598835,0.013887362,0.006287173,-0.12783247,-0.19153613,0.17238252,-9.32781,0.80456203,47.72002,-1.1472212,-1.7977769,-3.3264585,-0.15228373,0.06205207,-0.32242435,27.6875,28.875,27.9375,31.625,33.5625,34.375
0.20005411,-1.1538188,-1.132278,-0.98194695,0.007569718,0.030075585,-0.14537199,-0.38229927,-0.32674086,0.060094297,3.078842,-0.6219413,-0.0002857466,-0.09330675,0.014530753,-8.6382104e-05,-0.007394217,0.0007129823,0.014374329,0.43664083,-1.4574716,1.9941925,-2.1065247,-1.5701913,2.4096975,-0.11315859,0.13810074,-0.15631834,0.014465649,0.0061602187,-0.12743135,-0.30645782,0.15322891,-9.404425,0.83365434,47.707485,-1.1593661,-1.6938381,-3.3290982,-0.15707925,0.046593122,-0.34709117,27.6875,28.875,27.9375,31.625,33.5625,34.375
0.2020538,-1.6080805,-0.7408593,-0.9935981,0.008598976,0.034715503,-0.16144875,-0.3824708,-0.32673723,0.060089085,3.0788403,-0.6217698,-0.0002645805,-0.09552217,0.015901046,-0.00023444621,-0.007876837,-4.2659765e-05,0.010694048,0.43645924,-1.4571836,1.9938821,-2.1065128,-1.570155,2.4094093,-0.118104294,0.14027703,-0.15855749,0.015012904,0.0069161016,-0.12869605,-0.34476504,0.038307227,-9.461885,0.85155696,47.70032,-1.0824714,-1.777438,-3.4037387,-0.16120496,0.027947247,-0.3698076,27.6875,28.875,27.9375,31.625,33.5625,34.375
0.20405366,-1.7916073,-0.58359194,-1.1445141,0.017485656,0.043675587,-0.15257618,-0.38263336,-0.32668975,0.06004972,3.0788825,-0.621758,-0.00014728057,-0.09624436,0.014616486,0.00044345076,-0.0092747025,0.0013744682,0.011792398,0.43621978,-1.4568717,1.9936179,-2.106477,-1.5701426,2.4091573,-0.116713814,0.14135996,-0.16130655,0.014804881,0.0075678714,-0.12840348,-0.30645782,0.095768064,-9.500193,0.8224646,47.72002,-1.1315112,-1.7346108,-3.3909292,-0.14661543,0.0223119,-0.39994007,27.6875,28.875,27.9375,31.625,33.5625,34.375
0.20605439,-2.0343237,-0.6300321,-1.335089,0.027597435,0.054744296,-0.15925947,-0.38283443,-0.32667223,0.060064804,3.0788572,-0.6216932,-0.00019447436,-0.096317805,0.015940992,-0.000947056,-0.00801844,-0.0013374578,0.016208027,0.43600288,-1.4565959,1.9932717,-2.1064532,-1.5701307,2.4089034,-0.11919181,0.1431309,-0.1601398,0.014861997,0.00758723,-0.13529727,-0.5746084,0.0,-9.634268,0.7866488,47.717335,-1.0629578,-1.7228967,-3.4794245,-0.14200641,-0.0029913443,-0.3703,27.6875,28.875,27.9375,31.625,33.5625,34.375
0.20805395,-1.8292819,-0.26464903,-1.3776244,0.018103221,0.0791759,-0.1553117,-0.38304356,-0.32663274,0.060072474,3.0788639,-0.6215747,-0.00019878166,-0.09812974,0.016358918,0.000317578,-0.008414153,0.0014882755,0.0223475,0.43573844,-1.4563085,1.9929241,-2.106405,-1.5701193,2.4085643,-0.12092127,0.1426131,-0.16254543,0.0150667075,0.006754455,-0.14316413,-0.51714754,0.05746084,-9.615114,0.87617236,47.71823,-1.0283257,-1.682575,-3.4176097,-0.13626516,0.019250918,-0.33865318,27.6875,28.875,27.9375,31.625,33.5625,34.375
0.21005382,-2.2289093,-0.47173563,-1.4661427,0.023869615,0.078964755,-0.15403695,-0.38324538,-0.32659405,0.06006636,3.0788596,-0.6215717,-0.00014330367,-0.09952459,0.017172344,-0.0012104928,-0.0069752266,-0.0017374532,0.027244722,0.43547347,-1.4559948,1.992576,-2.106345,-1.570095,2.4082983,-0.12361884,0.14795713,-0.16522785,0.015945347,0.006807771,-0.1507571,-0.5363012,-0.019153614,-9.691729,0.8918391,47.728977,-0.9405629,-1.9306984,-3.3914318,-0.14367488,0.016533779,-0.24772382,27.6875,28.875,27.9375,31.625,33.5625,34.375
0.21205352,-2.5148368,-0.7297406,-1.6974335,0.025482912,0.077974945,-0.15749949,-0.38342214,-0.32656506,0.06004948,3.078883,-0.62147737,-0.00010180307,-0.10025056,0.01768175,-0.0016035873,-0.006618067,-0.0026669386,0.03134858,0.43525687,-1.455695,1.9922761,-2.106321,-1.570083,2.40802,-0.1251803,0.14958641,-0.16627699,0.016364383,0.0068735746,-0.156422,-0.63206923,-0.05746084,-9.825804,0.87617236,47.731667,-0.9300381,-1.7649513,-3.4269643,-0.15115371,0.013281204,-0.13227734,27.6875,28.875,27.9375,31.625,33.5625,34.375
0.21405426,-1.8519949,-0.5838864,-1.2081311,-0.0036015094,0.107401304,-0.15949246,-0.3836535,-0.32651424,0.060065452,3.0788922,-0.6213058,-0.0001861259,-0.10161328,0.01844998,-0.0021056877,-0.0054250946,-0.0030666965,0.031960618,0.43496835,-1.4554186,1.9919294,-2.1063087,-1.5700954,2.4076235,-0.12710954,0.15222374,-0.16811454,0.016434466,0.005966694,-0.15896063,-0.7661445,-0.11492168,-9.825804,0.84484416,47.72719,-0.824636,-1.9965472,-3.442164,-0.14525545,-0.0050126845,-0.106668085,27.6875,28.875,27.9375,31.625,33.5625,34.375
0.21605416,-2.2561696,-1.0453383,-1.3813493,0.006140735,0.0921156,-0.14626627,-0.38383052,-0.32650042,0.0600404,3.0788774,-0.62122846,-5.8889244e-05,-0.10250378,0.018455321,-0.0024655284,-0.0051221848,-0.003357869,0.02754242,0.43474022,-1.4550825,1.9916052,-2.106273,-1.5700239,2.407349,-0.12771466,0.15453893,-0.16988061,0.016288519,0.0058011375,-0.15514636,-0.80445176,-0.095768064,-9.787497,0.8605109,47.73256,-0.8910839,-1.9812651,-3.4544241,-0.14561884,0.022272691,-0.119346395,27.6875,28.875,27.9375,31.625,33.5625,34.375
0.21805385,-2.2924588,-0.5871346,-1.3754339,0.0050743767,0.091388285,-0.15972048,-0.384069,-0.32644662,0.060062088,3.0788758,-0.6212124,-0.00019377295,-0.10360659,0.01837016,-0.0023725808,-0.0051472285,-0.0023253346,0.022296198,0.43446386,-1.4548067,1.9912461,-2.1062615,-1.5700716,2.4070632,-0.12815496,0.15604307,-0.17164946,0.015599683,0.0053923707,-0.15033829,-0.80445176,-0.019153614,-9.749189,0.8918391,47.72719,-0.92208457,-1.9949499,-3.4316983,-0.1349375,-0.0059453296,-0.17248711,27.6875,28.875,27.9375,31.625,33.5625,34.375
0.22005363,-2.4034064,-0.6565781,-1.1763256,0.011779931,0.08162419,-0.14655192,-0.3842527,-0.32640788,0.0600679,3.0788488,-0.6211142,-0.00016405812,-0.10592817,0.017702471,-0.0006404563,-0.006537564,0.0014646718,0.016405012,0.43419978,-1.4545667,1.9909576,-2.1062248,-1.5700239,2.4067414,-0.1286246,0.15656663,-0.17624411,0.015654724,0.005048608,-0.14491376,-0.7469909,0.0,-9.5385,0.84484416,47.741516,-0.97602904,-1.9257238,-3.3699765,-0.12855881,0.03191969,-0.24028558,27.6875,28.875,27.9375,31.625,33.5625,34.375
0.22205345,-1.8269432,-0.6756574,-1.0306185,0.02139316,0.0827289,-0.15155824,-0.3844838,-0.32638487,0.060072873,3.078828,-0.6210941,-0.00018145535,-0.106461085,0.01848107,-0.001251504,-0.0062503754,0.0003019173,0.009931043,0.4339474,-1.454219,1.9905514,-2.1061895,-1.5700115,2.4064794,-0.13060275,0.15782796,-0.17629242,0.015617477,0.0052786935,-0.14041792,-0.7086837,0.076614454,-9.500193,0.8627467,47.728977,-1.0413094,-1.9272883,-3.4424262,-0.10953881,0.019808799,-0.30990732,27.6875,28.875,27.9375,31.625,33.5625,34.375
0.22405343,-1.5212373,-0.5631444,-1.2646434,0.023875678,0.07009222,-0.15099612,-0.38468304,-0.3263451,0.060057413,3.07886,-0.6209845,-0.00019251993,-0.10618265,0.017187444,-0.0013979815,-0.0061583375,-8.7947294e-05,0.0096610915,0.43370825,-1.4539065,1.990239,-2.1061895,-1.5700239,2.406168,-0.12792447,0.15970358,-0.1781853,0.016025048,0.005354979,-0.1374686,-0.49799395,0.15322891,-9.481039,0.9545008,47.72629,-1.0904593,-2.0766206,-3.3497322,-0.09941017,-0.008114535,-0.38129133,27.6875,28.875,27.9375,31.625,33.5625,34.375
0.22605371,-1.4506288,-1.1106268,-1.2373396,0.013337555,0.04354631,-0.14933872,-0.38493523,-0.3263052,0.06007927,3.078836,-0.6210219,-0.0002885933,-0.10800371,0.0187394,-0.0019884813,-0.0053743543,-0.0008367472,0.0026356275,0.4334307,-1.4535828,1.9898204,-2.1061532,-1.5700477,2.4059172,-0.132038,0.16207972,-0.17952058,0.015991377,0.0049620597,-0.13455498,-0.4405331,0.21068975,-9.404425,0.8537928,47.7245,-0.90727055,-1.8242826,-3.3839726,-0.08440031,0.019349342,-0.4552257,27.6875,28.875,27.9375,31.625,33.5625,34.375
0.22805402,-1.0651517,-1.5166383,-1.2638665,-0.013140657,0.034720484,-0.15229593,-0.3851782,-0.32627022,0.060103834,3.0787947,-0.6210119,-0.00037948773,-0.10841887,0.018553304,-0.0012138232,-0.0055429167,0.00096702215,0.004115302,0.4331549,-1.4532834,1.9894255,-2.1061294,-1.5700482,2.4056406,-0.13155758,0.16122791,-0.18039611,0.016014913,0.004366819,-0.13555317,-0.36391866,0.22984336,-9.481039,0.8314132,47.70838,-1.0171732,-1.8800093,-3.4746084,-0.08571015,0.026269171,-0.5206641,27.6875,28.875,27.9375,31.625,33.5625,34.375
0.23005375,-1.425579,-2.102258,-1.0974277,-0.020841071,0.020495396,-0.15288098,-0.38536325,-0.32621458,0.060077034,3.0788047,-0.6210287,-0.0002540608,-0.10879139,0.019109154,-0.0017358124,-0.0044909352,-0.00018525115,0.011010813,0.4328666,-1.4529713,1.9891256,-2.1060693,-1.570012,2.4053617,-0.13251723,0.16275309,-0.18110542,0.016698537,0.0038909728,-0.14340787,-0.22984336,0.28730422,-9.481039,0.84484416,47.728977,-1.0531274,-1.8618386,-3.4232783,-0.071084894,0.028607756,-0.5322498,27.6875,28.875,27.9375,31.625,33.5625,34.375
0.23205352,-1.3125981,-1.8680358,-0.8009525,-0.025153408,0.03125268,-0.14903623,-0.38559914,-0.3261757,0.06008599,3.0788171,-0.62096953,-0.00034787526,-0.11115367,0.019474039,-2.074915e-05,-0.0057599135,0.002985257,0.017150657,0.43261388,-1.4526485,1.9887427,-2.106057,-1.5700482,2.4050708,-0.13503549,0.1621729,-0.18458126,0.017345019,0.003720661,-0.15206406,-0.05746084,0.21068975,-9.251195,0.87617236,47.71554,-0.9676121,-1.8044746,-3.4035316,-0.07095243,0.05527506,-0.4403144,27.6875,28.875,27.9375,31.625,33.5625,34.375
0.23405422,-0.5918126,-1.3046136,-0.9689203,-0.0014034453,0.030139295,-0.15906458,-0.38584203,-0.32613885,0.060091212,3.078791,-0.6209751,-0.00036598416,-0.111269146,0.01819697,0.00079069415,-0.006660024,0.003949093,0.032297764,0.43232673,-1.4523008,1.988335,-2.1060207,-1.5700358,2.4047906,-0.13294053,0.16243339,-0.18698789,0.018247135,0.0041447156,-0.16511543,0.095768064,0.19153613,-9.232041,0.842603,47.701214,-1.1632612,-1.7488849,-3.3977633,-0.060298126,0.049758963,-0.30921537,27.6875,28.875,27.9375,31.625,33.5625,34.375
0.2360539,-0.7266804,-0.8742552,-0.9232985,0.013174356,-0.008592391,-0.15444574,-0.3860655,-0.32610464,0.060102805,3.0787878,-0.6207603,-0.00043054382,-0.11257082,0.018483644,0.00049609056,-0.007182763,0.0033894917,0.038261134,0.43206176,-1.4520127,1.9879874,-2.1060212,-1.5700239,2.4043922,-0.13498777,0.16475256,-0.18892227,0.018156448,0.0048667323,-0.17312497,0.17238252,0.24899697,-9.193734,0.8940802,47.70838,-1.003204,-1.7724319,-3.379622,-0.05635941,0.045507684,-0.21338865,27.6875,28.875,27.9375,31.625,33.5625,34.375
0.23805366,0.58679175,-0.44836754,-0.5291258,0.009591592,0.00057534646,-0.15628032,-0.3862963,-0.32605708,0.060083605,3.0787735,-0.62071735,-0.00038103637,-0.11383086,0.018083695,0.0011540571,-0.008883594,0.0046198885,0.04067771,0.4317497,-1.4516532,1.9876279,-2.1060088,-1.5699877,2.4040554,-0.13591291,0.16546325,-0.19122371,0.017924113,0.0058932616,-0.1764662,0.17238252,0.2681506,-9.136273,0.8627467,47.711964,-1.1118814,-1.5734094,-3.3212798,-0.05126387,0.04626681,-0.16093211,27.6875,28.875,27.9375,31.625,33.5625,34.375
0.24005337,0.36675787,-0.72995675,-0.7611916,0.026900405,-0.028243843,-0.14900473,-0.38651142,-0.32604238,0.06009482,3.0787907,-0.62053347,-0.00035809394,-0.11584209,0.018664323,0.0016265305,-0.008938719,0.005539565,0.03291741,0.4315207,-1.4513172,1.9872082,-2.1059248,-1.5699638,2.4037097,-0.1384119,0.16710897,-0.19433163,0.018531784,0.005551385,-0.1712029,0.17238252,0.21068975,-9.155427,0.8112748,47.691364,-0.9992726,-1.6381644,-3.2257686,-0.03138818,0.036796708,-0.18233013,27.6875,28.875,27.9375,31.625,33.5625,34.375
0.2420534,0.4541268,-0.6309303,-1.0398564,0.03500999,-0.04423137,-0.15441383,-0.38676938,-0.32598144,0.060089786,3.0788052,-0.6204634,-0.00045120137,-0.11741957,0.018711332,0.0023026993,-0.009024293,0.006913159,0.025268318,0.43120855,-1.4509692,1.9868373,-2.1059492,-1.5699996,2.4033523,-0.13942,0.16831383,-0.19741243,0.019118069,0.0050555784,-0.16455966,0.24899697,0.1340753,-9.308657,0.8940802,47.687782,-1.0171373,-1.6192496,-3.323514,-0.030201752,0.059080303,-0.24117708,27.6875,28.875,27.9375,31.625,33.5625,34.375
0.24405415,0.90456337,-0.5417299,-0.8709496,0.0069668116,-0.021618037,-0.15745391,-0.38699728,-0.32595342,0.060098108,3.0787826,-0.620442,-0.00044296522,-0.11771484,0.01939822,0.0016483436,-0.00808072,0.0050361175,0.019894194,0.43094417,-1.4506333,1.9864296,-2.1058886,-1.5699757,2.4030776,-0.14080635,0.16996488,-0.19806375,0.020221334,0.004984884,-0.16057156,0.15322891,0.21068975,-9.289502,0.8537928,47.72629,-1.0122373,-1.564396,-3.3314214,-0.021149904,0.062171675,-0.32127374,27.6875,28.875,27.9375,31.625,33.5625,34.375
0.24605401,0.0029711598,-1.2373399,-0.67439556,-0.008248877,-0.0075350218,-0.1562653,-0.38720253,-0.32591045,0.06008779,3.0788198,-0.62035483,-0.00036877333,-0.11790049,0.02012653,0.00011100212,-0.0067388844,0.00094364077,0.01742197,0.4306795,-1.4502966,1.9860581,-2.1058042,-1.5699638,2.402754,-0.1425524,0.17368692,-0.19912744,0.021843161,0.0054691476,-0.15984535,0.019153614,0.24899697,-9.193734,0.8672237,47.729877,-0.94506574,-1.64704,-3.2303772,-0.044880964,0.056127757,-0.3587031,27.6875,28.875,27.9375,31.625,33.5625,34.375
0.24805368,-0.3794314,-1.1946222,-0.9886634,-0.0051351325,0.0060452144,-0.15835568,-0.38744342,-0.32585618,0.060078166,3.078858,-0.6202856,-0.00034693675,-0.11911762,0.020163441,6.599681e-05,-0.007584247,-5.1245064e-05,0.015819391,0.43037894,-1.4499246,1.9856509,-2.1057436,-1.5699753,2.4024057,-0.14434357,0.17596696,-0.201861,0.02284399,0.006646093,-0.1600335,0.095768064,0.2681506,-9.2703495,0.8403672,47.72002,-0.92460614,-1.7229023,-3.208934,-0.053983428,0.03784897,-0.3924282,27.6875,28.875,27.9375,31.625,33.5625,34.375
0.25005388,-0.98208314,-1.3648931,-1.2058642,-0.0031842445,0.015240064,-0.15519233,-0.38767278,-0.3258372,0.060101137,3.0787961,-0.6202143,-0.00037799854,-0.120205104,0.020315684,0.0005135557,-0.008186619,2.568197e-05,0.017201154,0.43011454,-1.449625,1.9852556,-2.105708,-1.5699271,2.4021049,-0.14580669,0.17682257,-0.2041448,0.023960624,0.00717169,-0.16287735,-0.1340753,0.24899697,-9.423578,0.9410752,47.70211,-0.86272156,-1.8623766,-3.2810683,-0.05002827,0.048396945,-0.41389048,27.6875,28.875,27.9375,31.625,33.5625,34.375
0.2520539,-1.3502599,-1.9079384,-0.93909127,-0.014228174,0.04241245,-0.15333201,-0.38792333,-0.32577598,0.060089376,3.0788162,-0.6201763,-0.00031877472,-0.121178254,0.021511443,-0.00034478027,-0.0072012693,-0.001834303,0.021518867,0.42977765,-1.4492406,1.9848365,-2.1056354,-1.5699152,2.401742,-0.14866768,0.17920867,-0.20505863,0.024599334,0.007050527,-0.17005566,-0.22984336,0.30645782,-9.461885,0.87393653,47.719128,-0.922227,-1.869782,-3.2395818,-0.05376844,0.038515013,-0.34479553,27.6875,28.875,27.9375,31.625,33.5625,34.375
0.25405368,-1.4279872,-1.6199006,-0.9919812,-0.022218859,0.06743869,-0.16231743,-0.38814646,-0.32574198,0.060096256,3.078798,-0.6200704,-0.0002721261,-0.11988567,0.02002238,-0.0010412529,-0.006795419,-0.0031986102,0.034796793,0.42949107,-1.4489168,1.9844426,-2.1055639,-1.569867,2.4013917,-0.14482704,0.18088795,-0.20542231,0.024709253,0.007255914,-0.1794928,-0.47884035,0.38307226,-9.5385,0.90750587,47.737038,-0.9974129,-1.8493606,-3.3473566,-0.06980266,0.06142005,-0.25461924,27.6875,28.875,27.9375,31.625,33.5625,34.375
0.25605336,-1.7665188,-0.98009175,-1.1740421,-0.024248155,0.07525628,-0.15897702,-0.38836187,-0.3257119,0.06008716,3.0788567,-0.6198481,-0.00024003995,-0.12054486,0.020584038,-0.0018845643,-0.006341674,-0.004935446,0.040375486,0.42925027,-1.4485568,1.9840473,-2.1055038,-1.5698665,2.401005,-0.14654694,0.18333821,-0.20635317,0.02496388,0.0075652916,-0.18679112,-0.45968673,0.2681506,-9.595961,0.82022345,47.744205,-0.89171493,-1.6758108,-3.4760509,-0.07425272,0.04562828,-0.15567249,27.6875,28.875,27.9375,31.625,33.5625,34.375
0.25805414,-2.2945325,-0.9906015,-0.8966145,-0.028063565,0.081177846,-0.1513035,-0.388627,-0.3256747,0.06008495,3.0788317,-0.6198034,-0.00024668427,-0.12051573,0.020498537,-0.0017231919,-0.006846948,-0.0048235697,0.042923894,0.4289383,-1.4481615,1.9836048,-2.1054795,-1.5698427,2.4006686,-0.14652105,0.1829914,-0.20643108,0.025084043,0.007983794,-0.18931398,-0.4405331,0.24899697,-9.576807,0.77545905,47.711964,-1.1197635,-1.718019,-3.484199,-0.07988772,0.039445583,-0.08992466,27.6875,28.875,27.9375,31.625,33.5625,34.375
0.26005396,-2.3838933,-1.2752725,-0.8859055,-0.009419077,0.084277764,-0.14708021,-0.38885272,-0.3256215,0.060067464,3.0788972,-0.6196461,-0.00023737844,-0.12150712,0.02060467,-0.0018329932,-0.0068048793,-0.0042267265,0.038605236,0.4286621,-1.4478017,1.9832343,-2.1054442,-1.5698665,2.4002862,-0.14726743,0.18451296,-0.20778699,0.024389552,0.0076854033,-0.18574063,-0.61291564,0.15322891,-9.442732,0.87393653,47.698532,-1.1823118,-1.7657187,-3.5417032,-0.08419292,0.03131691,-0.100757994,27.6875,28.875,27.9375,31.625,33.5625,34.375
0.26205388,-2.354925,-1.0334759,-1.1753829,0.0050854613,0.07449613,-0.14386961,-0.3891262,-0.3255765,0.06008685,3.0788908,-0.61955476,-0.00025684884,-0.12372368,0.021278929,-0.0015943485,-0.0074424855,-0.0034210978,0.028069485,0.42833698,-1.4474295,1.9827546,-2.1053607,-1.5698546,2.3999052,-0.1504453,0.18652755,-0.21060823,0.024197431,0.007923192,-0.17838097,-0.8619126,0.076614454,-9.481039,0.8672237,47.716442,-0.9653374,-1.7308203,-3.587564,-0.06030474,0.021865837,-0.17715546,27.6875,28.875,27.9375,31.625,33.5625,34.375
0.2640537,-1.7970452,-0.4640941,-0.7822585,0.011542424,0.077917,-0.15010916,-0.3893563,-0.32554197,0.060074203,3.0788925,-0.6194822,-0.00021907521,-0.12574503,0.021364484,-0.0014176695,-0.00834109,-0.0024018008,0.01850689,0.4280606,-1.4470574,1.9823588,-2.105325,-1.5698308,2.3995836,-0.15247272,0.18892686,-0.21360348,0.023492822,0.008302089,-0.17084412,-0.7661445,-0.05746084,-9.404425,0.88289046,47.723602,-1.0983378,-1.7302889,-3.5544572,-0.069639154,0.037475113,-0.26235887,27.6875,28.875,27.9375,31.625,33.5625,34.375
0.2660533,-1.6495961,-0.272756,-0.8147397,0.037069142,0.069100164,-0.14705841,-0.3896056,-0.3255058,0.060080864,3.0788574,-0.6194204,-0.00018939584,-0.12594438,0.021094566,-0.0018069877,-0.007636777,-0.002356653,0.014210769,0.4277489,-1.4466978,1.9819273,-2.105265,-1.5697826,2.3992379,-0.15158334,0.19051518,-0.21444517,0.023006702,0.0076382533,-0.16565734,-0.7278373,-0.019153614,-9.442732,0.98135734,47.731667,-1.0905825,-1.7965065,-3.5166345,-0.056232594,0.020385722,-0.34454423,27.6875,28.875,27.9375,31.625,33.5625,34.375
0.2680539,-1.3110005,0.6520423,-0.7839153,0.03148504,0.07245298,-0.15934542,-0.38988054,-0.32545933,0.060067773,3.0788276,-0.61943495,-0.00018229175,-0.12671678,0.020614527,-0.0018723626,-0.007374049,-0.0023788698,0.010482538,0.42741293,-1.4462775,1.9814838,-2.1052535,-1.5697592,2.398915,-0.15106602,0.19283867,-0.21707587,0.023447163,0.0074028885,-0.16140999,-0.8236054,-0.11492168,-9.32781,0.8851263,47.721813,-1.1153481,-1.754783,-3.4868789,-0.046042234,0.038396776,-0.46467656,27.6875,28.875,27.9375,31.625,33.5625,34.375
0.2700535,-1.4969559,0.5755718,-0.64996576,0.03845044,0.08391403,-0.16039437,-0.3901165,-0.32542086,0.060076397,3.0788496,-0.61930364,-0.00022232358,-0.12792388,0.020959457,-0.0013690161,-0.0072504943,-0.0014843474,0.011786737,0.42714858,-1.4459418,1.9810771,-2.1052053,-1.5697712,2.3985662,-0.15230665,0.19349195,-0.21917857,0.024137594,0.006922729,-0.16395335,-0.6512228,-0.095768064,-9.251195,0.86945957,47.71465,-1.1202092,-1.7856079,-3.4453266,-0.04537861,0.040635742,-0.5059771,27.6875,28.875,27.9375,31.625,33.5625,34.375
0.27205327,-1.680493,0.38186875,-0.66695434,0.042975713,0.0896162,-0.15594128,-0.39040676,-0.3253984,0.06007591,3.0787625,-0.619338,-0.00019779848,-0.12899671,0.020954255,-0.0009675655,-0.007454067,-0.0012614625,0.020681746,0.42681244,-1.4454978,1.980575,-2.1051805,-1.5696992,2.3982627,-0.15313825,0.19473498,-0.22183375,0.025284978,0.007026191,-0.17367864,-0.51714754,-0.038307227,-9.289503,0.9030289,47.699425,-1.1755986,-1.9684927,-3.5195882,-0.073399805,0.02074685,-0.4696268,27.6875,28.875,27.9375,31.625,33.5625,34.375
0.27405378,-1.2824539,0.24110855,-0.637424,0.040984523,0.09060501,-0.16191171,-0.39063725,-0.32532904,0.06005516,3.0788403,-0.6192704,-0.0001569226,-0.13111977,0.020765416,4.7304675e-05,-0.0077970712,0.00046908273,0.03233388,0.426512,-1.4451262,1.9801892,-2.105108,-1.5697354,2.3979106,-0.1542078,0.19654699,-0.2265232,0.02645301,0.00661475,-0.186398,-0.36391866,-0.05746084,-9.3661175,0.8537928,47.716442,-1.143339,-1.8376076,-3.2759032,-0.06905844,0.030181164,-0.3462863,27.6875,28.875,27.9375,31.625,33.5625,34.375
0.27605337,-1.1810455,-0.081195556,-0.8194777,0.03391062,0.06601288,-0.15794846,-0.39093214,-0.32526544,0.06005262,3.0788653,-0.6191927,-0.00016748083,-0.13256916,0.020860326,0.0012834084,-0.008243175,0.002529683,0.04252826,0.42615175,-1.4446954,1.9796981,-2.1050475,-1.5697473,2.397499,-0.15517856,0.19629212,-0.22939003,0.027525108,0.0061747367,-0.19756174,-0.34476504,-0.038307227,-9.346964,0.89631605,47.72719,-1.1676701,-1.6530383,-3.1728458,-0.07972488,0.022349918,-0.22721772,27.6875,28.875,27.9375,31.625,33.5625,34.375
0.27805346,-0.6479013,-0.208936,-1.0164156,0.019931879,0.055650387,-0.14457926,-0.39117068,-0.32522973,0.060049087,3.0789082,-0.6190064,-0.00012369224,-0.13175236,0.021374548,-0.0004946215,-0.0055977497,-0.0019369922,0.04674998,0.42587578,-1.4443108,1.9792556,-2.1049635,-1.5697359,2.3971016,-0.15495723,0.19960666,-0.22958341,0.029574066,0.005614298,-0.20156188,-0.40222588,0.076614454,-9.251195,0.88960326,47.71465,-1.2319797,-1.6758802,-3.2320986,-0.093583256,0.039832763,-0.14671253,27.6875,28.875,27.9375,31.625,33.5625,34.375
0.2800542,-0.96628267,-0.909102,-1.0435278,0.00025690405,0.035173908,-0.15285784,-0.3914589,-0.3251756,0.060056165,3.078893,-0.6189489,-0.00011393406,-0.13229875,0.022044228,-0.00095790846,-0.00450128,-0.0032254783,0.041291818,0.42551538,-1.4439031,1.9787654,-2.104891,-1.5697116,2.3967075,-0.15621021,0.20130369,-0.23076007,0.030685201,0.0051467,-0.19735582,-0.34476504,0.1340753,-9.423578,0.83813137,47.70032,-1.1951355,-1.6340432,-3.2970414,-0.121666715,0.068297796,-0.15638797,27.6875,28.875,27.9375,31.625,33.5625,34.375
0.28205395,-0.61128795,-1.6595317,-1.199114,-0.01602481,0.029470589,-0.151978,-0.39170367,-0.32512456,0.060037903,3.0789437,-0.6188327,-5.385981e-05,-0.13436227,0.024001433,-0.00031479218,-0.004761757,-0.0018159114,0.027603373,0.42521375,-1.4434961,1.9783338,-2.1048195,-1.5697116,2.3963273,-0.1612192,0.2005395,-0.23146914,0.030762658,0.004785812,-0.18867622,-0.15322891,0.19153613,-9.461885,0.8605109,47.71286,-1.15796,-1.5949044,-3.334568,-0.16778457,0.06492678,-0.26022458,27.6875,28.875,27.9375,31.625,33.5625,34.375
0.28405342,-1.1630797,-2.2095602,-0.9573935,-0.030021647,0.018921424,-0.14718404,-0.39198542,-0.32506725,0.060041703,3.0789557,-0.6187592,-9.150139e-05,-0.13441902,0.024154808,-0.0021732512,-0.0031733573,-0.0048899394,0.024580577,0.42487767,-1.4430991,1.9778684,-2.1047719,-1.569724,2.395944,-0.16129676,0.20496204,-0.2322108,0.030534947,0.004605645,-0.18572976,-0.11492168,0.2681506,-9.461885,0.8672237,47.71286,-1.1062759,-1.763106,-3.4640908,-0.1408911,0.06763627,-0.31666324,27.6875,28.875,27.9375,31.625,33.5625,34.375
0.28605416,-0.26275524,-1.2838666,-0.4385056,-0.052361082,0.043745816,-0.15729421,-0.39226776,-0.32502073,0.060063966,3.0789602,-0.6187044,-0.00019968685,-0.13535409,0.025422651,-0.0031523148,-0.002147944,-0.0074123945,0.021152023,0.42457688,-1.4427273,1.9773887,-2.1047232,-1.5697597,2.395609,-0.16437565,0.2076659,-0.23334396,0.031679448,0.0047203316,-0.1853793,-0.019153614,0.2681506,-9.385271,0.88289046,47.71286,-0.91787213,-1.8457723,-3.4696536,-0.1636661,0.0846708,-0.37084138,27.6875,28.875,27.9375,31.625,33.5625,34.375
0.28805378,-0.052325793,-1.1660576,-0.783342,-0.012987078,0.024580656,-0.15819485,-0.3925235,-0.32496402,0.06002851,3.0789607,-0.61866486,-5.270577e-05,-0.13586144,0.025535462,-0.003452543,-0.0029394326,-0.008014338,0.020764647,0.4242166,-1.4422835,1.9769577,-2.104664,-1.5696996,2.395224,-0.16550344,0.20879458,-0.2339473,0.031387202,0.0056724357,-0.18612044,0.11492168,0.3256114,-9.270349,0.9164598,47.717335,-1.0645864,-1.7648844,-3.511713,-0.17627332,0.094649106,-0.40587196,27.6875,28.875,27.9375,31.625,33.5625,34.375
0.2900535,-0.26105386,-1.06891,-0.8390051,0.013343432,-0.015486545,-0.15405877,-0.3927729,-0.32490078,0.059984896,3.0790079,-0.618592,5.1020383e-05,-0.13708508,0.02376009,-0.002179161,-0.0047448454,-0.0049610124,0.029644085,0.42388156,-1.4418399,1.9765505,-2.1046278,-1.5696877,2.3948379,-0.16336073,0.20979767,-0.23796037,0.030880451,0.006040836,-0.19285564,0.17238252,0.36391866,-9.3661175,0.86498255,47.711964,-1.0388652,-1.8509427,-3.5972438,-0.17356034,0.094393045,-0.33205605,27.6875,28.875,27.9375,31.625,33.5625,34.375
0.29205325,0.28675267,-0.7988598,-0.5606387,-0.01474944,-0.024965653,-0.16494863,-0.39306548,-0.3248542,0.06000074,3.078991,-0.61850613,4.5950885e-05,-0.13814847,0.023954669,-0.003165118,-0.0043792687,-0.00744034,0.039664518,0.4235329,-1.4414314,1.9760355,-2.1045434,-1.5696629,2.394438,-0.16492485,0.21402164,-0.24076843,0.031890202,0.006733203,-0.2044389,0.11492168,0.34476504,-9.251195,0.86498255,47.679718,-0.9511305,-1.9068681,-3.5861733,-0.19096448,0.085237175,-0.24478309,27.6875,28.875,27.9375,31.625,33.5625,34.375
0.29405385,0.26822382,-1.3245589,-0.33018896,-0.017182525,-0.02152595,-0.16560848,-0.39333883,-0.3248224,0.06000185,3.0790544,-0.618227,-3.367679e-05,-0.13975653,0.024009265,-0.0018931929,-0.0056101005,-0.0051883576,0.04716679,0.42326823,-1.4410125,1.9755563,-2.1045196,-1.5696992,2.3939915,-0.16637993,0.21363153,-0.24343838,0.03239316,0.006937799,-0.2133951,0.038307227,0.59376204,-9.232041,0.86945957,47.707485,-1.0563548,-1.7769268,-3.4560504,-0.1983028,0.10076319,-0.107334435,27.6875,28.875,27.9375,31.625,33.5625,34.375
0.29605347,0.11725414,-1.7631024,-0.8235515,-0.0064228303,-0.015543198,-0.15724047,-0.39362478,-0.324781,0.059995227,3.0790505,-0.61811095,3.9409053e-05,-0.14220287,0.023937946,3.7956972e-05,-0.0069488795,-0.0008299023,0.046338823,0.42291984,-1.4405571,1.9750398,-2.1044362,-1.569651,2.3935714,-0.16776502,0.21306142,-0.24728367,0.03230024,0.006355961,-0.21395011,-0.038307227,0.5746084,-9.212888,0.842603,47.709274,-1.0366833,-1.8027623,-3.3679795,-0.1942564,0.08967519,-0.05216619,27.6875,28.875,27.9375,31.625,33.5625,34.375
0.29805368,-0.12905523,-1.753315,-0.8924196,-0.03467532,0.0067738895,-0.15692349,-0.3938979,-0.32471412,0.059979513,3.079092,-0.61806625,0.00014335,-0.14408095,0.024328357,4.4066705e-06,-0.0068576466,-0.0010869018,0.037834868,0.4225593,-1.4401128,1.9745482,-2.104316,-1.5696391,2.393178,-0.16991313,0.21606888,-0.25088042,0.03316054,0.0063540037,-0.20759271,-0.095768064,0.51714754,-9.346964,0.8291774,47.72002,-0.9674818,-1.712331,-3.3530402,-0.22730294,0.11881113,-0.0974824,27.6875,28.875,27.9375,31.625,33.5625,34.375
0.3000533,-1.1276343,-2.2933247,-0.3886486,-0.06516586,0.033991825,-0.15627955,-0.39419833,-0.32466185,0.060004417,3.079132,-0.61790913,6.72309e-05,-0.14412025,0.024963459,-0.00039837946,-0.0070264405,-0.0033452008,0.025902182,0.42223457,-1.4397054,1.9740103,-2.1042197,-1.5696748,2.3927505,-0.17168163,0.21675944,-0.25118124,0.034743484,0.0074380636,-0.19742954,-0.2873042,0.51714754,-9.2703495,0.8851263,47.695843,-0.9149279,-1.7656024,-3.2489474,-0.26349768,0.10615696,-0.21044481,27.6875,28.875,27.9375,31.625,33.5625,34.375
0.30205396,-1.5892614,-1.992326,-0.6117106,-0.05787882,0.0477827,-0.15150413,-0.3944639,-0.32460013,0.059962865,3.0791326,-0.6179698,0.00019387578,-0.14524253,0.024667364,-0.00010256721,-0.008032972,-0.0031225688,0.018040886,0.4218744,-1.4392376,1.9735674,-2.1041715,-1.5696386,2.3924284,-0.17245461,0.21832536,-0.2538255,0.03520712,0.008242374,-0.19034119,-0.4213795,0.51714754,-9.270349,0.9545008,47.70838,-0.91441894,-1.7922213,-3.2506843,-0.28711224,0.12080024,-0.30482504,27.6875,28.875,27.9375,31.625,33.5625,34.375
0.3040537,-1.4515256,-1.9305096,-0.5294223,-0.029182421,0.07327071,-0.1625061,-0.39475015,-0.32457536,0.05996011,3.0791156,-0.6178354,0.00026377957,-0.14697784,0.024838174,0.0007025562,-0.008946324,-0.00092452875,0.01123687,0.4215499,-1.4387708,1.9730285,-2.104088,-1.5695785,2.3920224,-0.17401442,0.21877234,-0.25615576,0.03472054,0.008165493,-0.1850958,-0.34476504,0.34476504,-9.308657,0.8851263,47.734352,-0.90947354,-1.7724085,-3.2725167,-0.314361,0.09448847,-0.407493,27.6875,28.875,27.9375,31.625,33.5625,34.375
0.30605325,-1.6762439,-0.96280634,-0.30292162,-0.03720588,0.091676466,-0.16597664,-0.3950246,-0.3245284,0.059952326,3.0791395,-0.61776334,0.0003194501,-0.14821617,0.024300227,0.0015949208,-0.011010235,0.0016715412,0.010749607,0.4212259,-1.4383277,1.972525,-2.1039932,-1.5695661,2.3916507,-0.17443691,0.21860266,-0.2577711,0.033294737,0.008975206,-0.18503118,-0.36391866,0.2873042,-9.346964,0.8717007,47.755844,-1.0879556,-1.7139137,-3.3044803,-0.31948727,0.08564436,-0.5019727,27.6875,28.875,27.9375,31.625,33.5625,34.375
0.30805454,-1.7747029,-0.33469927,-0.44410384,-0.0032524508,0.07178141,-0.16628414,-0.39533737,-0.32449642,0.059967965,3.0790896,-0.61766845,0.00023745917,-0.14719123,0.023507934,0.00013869871,-0.011040872,-0.00054862426,0.022986814,0.42089042,-1.4378955,1.971999,-2.1039808,-1.5695423,2.3912625,-0.17258558,0.22090831,-0.25686032,0.032107193,0.009932235,-0.19541727,-0.24899697,0.21068975,-9.308656,0.86498255,47.7451,-1.0878222,-1.6654694,-3.3368652,-0.31701404,0.07918166,-0.41460165,27.6875,28.875,27.9375,31.625,33.5625,34.375
0.3100535,-1.3781688,0.08559365,-0.36521918,0.010548734,0.074267656,-0.17327514,-0.39564067,-0.32446837,0.059966262,3.0790637,-0.6175583,0.00026642156,-0.1483869,0.02346493,0.00036032512,-0.011632277,0.0011243817,0.036291786,0.4205544,-1.437416,1.9714483,-2.1039217,-1.5694941,2.3908613,-0.17324844,0.22185938,-0.25824198,0.030797811,0.009794552,-0.20938393,-0.34476504,0.095768064,-9.3661175,0.95226496,47.744205,-1.1229813,-1.7854937,-3.4895334,-0.29709738,0.07681734,-0.3093724,27.6875,28.875,27.9375,31.625,33.5625,34.375
0.31205398,-1.8178339,-0.35183486,-0.508267,0.03526729,0.06305299,-0.1602219,-0.3959076,-0.32439154,0.059927966,3.0791242,-0.6174502,0.00038435962,-0.14909363,0.022716023,0.0005360918,-0.011810025,0.0027176049,0.04674854,0.42018268,-1.4369603,1.9710053,-2.1038506,-1.5694822,2.3904147,-0.17197093,0.22323997,-0.26005507,0.029721478,0.0092894975,-0.2185623,-0.4405331,-0.019153614,-9.385271,0.9567419,47.71554,-1.2551236,-1.8887346,-3.5612433,-0.29391623,0.08357015,-0.20389342,27.6875,28.875,27.9375,31.625,33.5625,34.375
0.31405407,-1.4704996,0.49737525,-0.74650115,0.03654836,0.048461255,-0.16885124,-0.39621925,-0.32435584,0.05991435,3.079161,-0.6172663,0.00038665443,-0.15046428,0.023115069,-0.00041636056,-0.011473546,0.0014851966,0.04679329,0.4198578,-1.4364443,1.9704427,-2.1038024,-1.5694822,2.3899708,-0.17381062,0.22707829,-0.26223376,0.02932913,0.009481884,-0.22044535,-0.28730422,-0.19153613,-9.404425,0.86945957,47.717335,-1.1081727,-1.9194522,-3.5947807,-0.27653918,0.068089575,-0.15796596,27.6875,28.875,27.9375,31.625,33.5625,34.375
0.31605357,-0.6388392,0.72961277,-0.6205698,0.038795993,0.05025871,-0.16969942,-0.39652106,-0.32430443,0.059920173,3.079142,-0.61719114,0.00037827584,-0.152817,0.023765014,0.00021103493,-0.011697374,0.003639211,0.03754828,0.41949722,-1.4360123,1.9699277,-2.1037428,-1.5694588,2.389566,-0.17634983,0.22847635,-0.2652389,0.028881654,0.008805372,-0.213737,-0.47884032,-0.15322891,-9.481039,0.9365982,47.729877,-1.0444915,-1.9839025,-3.432004,-0.28028983,0.09222177,-0.20581071,27.6875,28.875,27.9375,31.625,33.5625,34.375
0.31805342,-1.0322012,0.42761472,-0.38223168,0.029450255,0.048097778,-0.16782796,-0.39684275,-0.32426038,0.05993528,3.0791397,-0.61705786,0.00031630154,-0.15380819,0.02376029,-1.6770806e-05,-0.010463937,0.0046087923,0.031711824,0.41914967,-1.4355565,1.9693645,-2.1036837,-1.5694593,2.3891358,-0.17599535,0.23066841,-0.2671422,0.028211102,0.0072881174,-0.20754297,-0.59376204,-0.21068975,-9.346964,0.9186956,47.721813,-1.2601771,-1.9619765,-3.3935673,-0.27969286,0.10255082,-0.28579038,27.6875,28.875,27.9375,31.625,33.5625,34.375
0.32005373,-0.52398956,0.6825317,-0.76822686,0.046101958,0.056785673,-0.17635956,-0.3971449,-0.32420516,0.0599109,3.0791605,-0.6170073,0.00037387703,-0.15497312,0.023360658,5.640766e-05,-0.010485867,0.005057321,0.028089909,0.41878986,-1.4350529,1.9688371,-2.1036236,-1.5694474,2.3887422,-0.1759404,0.23305856,-0.27017593,0.028437894,0.0071133007,-0.20386453,-0.40222588,-0.19153613,-9.500193,0.8918391,47.728977,-1.3627119,-2.0034537,-3.379212,-0.26256865,0.11125155,-0.35776037,27.6875,28.875,27.9375,31.625,33.5625,34.375
0.32205382,-1.0333898,0.05067679,-1.0429592,0.038166843,0.049939983,-0.17181428,-0.39745626,-0.3241652,0.059911888,3.07915,-0.61692524,0.00038488122,-0.15486982,0.023771765,-0.0009132155,-0.009795898,0.002771059,0.028171493,0.41844252,-1.4345728,1.9682754,-2.1035511,-1.5694226,2.3883452,-0.17664258,0.23493871,-0.27034453,0.029103383,0.0074183033,-0.20464854,-0.3256114,-0.095768064,-9.672575,0.9410752,47.701214,-1.4211642,-2.0114832,-3.2874634,-0.26857737,0.1172317,-0.41002154,27.6875,28.875,27.9375,31.625,33.5625,34.375
0.32405338,-1.3228941,-0.26130292,-0.8323606,-0.013666047,0.05812645,-0.18258736,-0.3977534,-0.324088,0.05989117,3.0792441,-0.6168441,0.00039207446,-0.15616922,0.024520025,-0.0011519179,-0.009493946,0.002260694,0.032110613,0.41809452,-1.4340932,1.9677609,-2.1034677,-1.5694832,2.3879352,-0.1788823,0.23689424,-0.27224115,0.029631073,0.007341929,-0.21082671,-0.30645782,-0.038307227,-9.576807,0.8873621,47.699425,-1.3161358,-2.1390336,-3.4484696,-0.27671206,0.103725,-0.38488215,27.6875,28.875,27.9375,31.625,33.5625,34.375
0.32605422,-1.4367104,-1.1528692,-1.0824943,-0.014981057,0.058989882,-0.17651944,-0.39805865,-0.32404825,0.059868902,3.07922,-0.61669725,0.00047378737,-0.15760076,0.024852937,-0.0005006388,-0.009549285,0.0036935778,0.042994257,0.41772234,-1.4335896,1.9672335,-2.1034315,-1.5694112,2.3874745,-0.18015154,0.2375046,-0.27464956,0.030131467,0.006812234,-0.22297819,-0.2681506,0.13407528,-9.557653,0.8605109,47.71286,-1.377738,-1.9877675,-3.4908764,-0.2709785,0.12668373,-0.26927996,27.6875,28.875,27.9375,31.625,33.5625,34.375
0.328054,-1.7749171,-1.7027737,-1.2751015,-0.027529383,0.055298924,-0.16318762,-0.39834833,-0.32399338,0.0598526,3.079282,-0.616474,0.00054595096,-0.15867512,0.025087383,0.00026935432,-0.010171658,0.0054979045,0.049890555,0.41737476,-1.4331108,1.9667066,-2.1033356,-1.5693992,2.38698,-0.18118988,0.23706527,-0.27599856,0.030033482,0.006641702,-0.23091258,-0.28730422,0.17238252,-9.787497,0.88960326,47.694946,-1.1810273,-1.9656744,-3.487897,-0.2865191,0.12994173,-0.13369797,27.6875,28.875,27.9375,31.625,33.5625,34.375
0.33005375,-1.2511139,-1.5013483,-1.2750467,-0.038325887,0.060277894,-0.16871037,-0.3986952,-0.32394373,0.0598788,3.0792496,-0.6163354,0.0004497053,-0.16032168,0.0262892,-0.00019921301,-0.010465706,0.00499617,0.04623991,0.41699025,-1.4326551,1.9661196,-2.103288,-1.5693873,2.3865135,-0.18488285,0.23905095,-0.27717134,0.029564224,0.007132937,-0.23095405,-0.38307226,0.19153613,-9.768343,0.9321212,47.71286,-1.0756227,-1.881948,-3.4006023,-0.27408457,0.14253835,-0.09833482,27.6875,28.875,27.9375,31.625,33.5625,34.375
0.332053,-1.1170688,-1.0929656,-1.3141023,-0.03833533,0.057923995,-0.17363127,-0.3990258,-0.32389382,0.059877127,3.0792296,-0.6162774,0.00041695652,-0.16098021,0.02663333,-0.00013596703,-0.0109998435,0.005652227,0.037901863,0.41661856,-1.4321637,1.9655584,-2.1032526,-1.5693749,2.3861084,-0.18601708,0.23919739,-0.27743235,0.028859062,0.007361043,-0.22375016,-0.45968673,0.2681506,-9.710882,0.92764956,47.709274,-1.1884942,-1.927226,-3.5670946,-0.25563145,0.1491078,-0.16706347,27.6875,28.875,27.9375,31.625,33.5625,34.375
0.33405402,-0.96266687,-1.3355119,-1.2342781,-0.02773074,0.07241704,-0.16390076,-0.39935195,-0.32383275,0.059868935,3.0792809,-0.61613774,0.00043626942,-0.16295096,0.026857464,0.00083175424,-0.012313623,0.008765038,0.026740197,0.41624662,-1.4316487,1.9649714,-2.1031568,-1.5693873,2.3856432,-0.1878111,0.2392217,-0.2794767,0.02749021,0.0072899377,-0.21438153,-0.5363012,0.3256114,-9.80665,0.86498255,47.701214,-1.0636828,-1.8157258,-3.6191344,-0.24252081,0.13652264,-0.29330444,27.6875,28.875,27.9375,31.625,33.5625,34.375
0.33605388,-1.7370746,-1.5091335,-1.2640877,-0.009683379,0.054892637,-0.16098237,-0.39967045,-0.32378775,0.05987275,3.0792508,-0.61607844,0.0004143906,-0.16525288,0.0270232,0.0010155751,-0.013496268,0.00976843,0.016033782,0.41588664,-1.431181,1.9644212,-2.1031091,-1.5693625,2.3852503,-0.1902564,0.24194585,-0.28294247,0.0268319,0.007964999,-0.20611867,-0.45968673,0.24899697,-9.921572,0.91421866,47.679718,-1.0885369,-1.7748802,-3.6813145,-0.21332556,0.1596141,-0.3909986,27.6875,28.875,27.9375,31.625,33.5625,34.375
0.33805373,-1.7473733,-1.2045684,-1.1283591,-0.009424703,0.04980142,-0.17133456,-0.4000139,-0.323732,0.059864916,3.0792148,-0.6160319,0.0004166341,-0.16603397,0.02662521,0.0013655471,-0.014562312,0.009878187,0.013110394,0.41547933,-1.4306651,1.9638456,-2.1030734,-1.5693263,2.3848188,-0.19056922,0.24304426,-0.28526622,0.027530946,0.008901884,-0.20350783,-0.34476504,0.24899697,-9.653421,0.9164598,47.670765,-1.0498252,-1.8830003,-3.5316014,-0.19823283,0.16000621,-0.48023665,27.6875,28.875,27.9375,31.625,33.5625,34.375
0.34005347,-1.1672578,-0.97916055,-0.9436694,-0.010596235,0.058811117,-0.17139797,-0.40032393,-0.32368526,0.059872277,3.0792143,-0.6159111,0.00039863246,-0.16680104,0.026828347,0.0010278842,-0.01444083,0.009805048,0.020060292,0.41513187,-1.4302098,1.9632953,-2.1030014,-1.5693139,2.3843963,-0.19134125,0.24471547,-0.28640538,0.02713092,0.008831135,-0.21122882,-0.3256114,0.24899697,-9.595961,0.90527004,47.695843,-1.0566143,-1.8853188,-3.5844045,-0.19505577,0.15019022,-0.4836262,27.6875,28.875,27.9375,31.625,33.5625,34.375
0.34205428,-0.8990073,-0.3883114,-0.9332778,-0.007171742,0.05718472,-0.1748367,-0.40069294,-0.3236309,0.05987805,3.0791626,-0.6158735,0.0003014486,-0.1688571,0.027075889,0.0011993109,-0.014949021,0.011555677,0.03252709,0.4147236,-1.4296939,1.9626964,-2.1030018,-1.5693029,2.3839715,-0.19311525,0.24687222,-0.28907695,0.025864271,0.008615354,-0.22546704,-0.3256114,0.22984336,-9.500193,0.9231726,47.68599,-0.944788,-1.9997115,-3.5980606,-0.17084734,0.16739902,-0.38643083,27.6875,28.875,27.9375,31.625,33.5625,34.375
0.34405395,-1.2162384,-0.79318357,-0.94318664,0.0058152373,0.053681996,-0.17113939,-0.4010182,-0.32358587,0.059870776,3.0791323,-0.61564815,0.00033775685,-0.17036577,0.026936619,0.0005118083,-0.015414142,0.011634562,0.044091534,0.41432816,-1.4292016,1.9621457,-2.1029665,-1.56923,2.3834393,-0.1941517,0.25049973,-0.29139298,0.024329312,0.009021243,-0.23806629,-0.05746084,0.19153613,-9.519346,0.9634547,47.70838,-0.9928055,-2.0729809,-3.6042528,-0.1345338,0.16331935,-0.21917799,27.6875,28.875,27.9375,31.625,33.5625,34.375
0.34605408,-0.89072955,-0.40871966,-0.8015581,-0.008470265,0.041912362,-0.16741021,-0.40137213,-0.32355347,0.059887394,3.0791178,-0.61550784,0.000245794,-0.17165361,0.026487011,0.0015313093,-0.015811205,0.013396056,0.04726779,0.4139808,-1.4286855,1.9615101,-2.1029184,-1.5692304,2.3830066,-0.1939571,0.25121644,-0.2948904,0.025346305,0.008696041,-0.2410457,-0.1340753,0.15322891,-9.557653,0.88960326,47.71465,-1.0458114,-2.1278841,-3.5501845,-0.101394415,0.15875496,-0.15236762,27.6875,28.875,27.9375,31.625,33.5625,34.375
0.3480539,-0.81863177,-0.65479475,-0.7562752,-0.0069984347,0.031000422,-0.17086324,-0.40174896,-0.323497,0.059917673,3.0791156,-0.6153746,0.00011851263,-0.17040952,0.025757464,0.000991949,-0.014025614,0.010508802,0.042896055,0.41358665,-1.4281824,1.960852,-2.1028454,-1.5692548,2.38253,-0.19109662,0.25289086,-0.29641074,0.028543612,0.008246343,-0.23381239,-0.17238252,0.17238252,-9.442732,0.88960326,47.709274,-1.2587909,-2.2341707,-3.455678,-0.09332734,0.16334584,-0.21528584,27.6875,28.875,27.9375,31.625,33.5625,34.375
0.35005376,-1.005661,-0.6608229,-0.67981315,-0.013626028,0.018298961,-0.15739118,-0.4020586,-0.32346028,0.059906498,3.079126,-0.6151489,0.000110532885,-0.16993882,0.02497962,0.0008376458,-0.013930524,0.009108343,0.03673637,0.413252,-1.4276911,1.9603132,-2.102821,-1.5692304,2.3820534,-0.18941702,0.25410858,-0.29793143,0.030163694,0.008725742,-0.22597285,-0.38307226,0.30645782,-9.404425,0.9254084,47.696735,-1.4330326,-2.104865,-3.528644,-0.07882863,0.19664115,-0.30738774,27.6875,28.875,27.9375,31.625,33.5625,34.375
0.3520542,-0.74767065,-1.2456672,-0.8005969,-0.0039185937,0.026549393,-0.16680542,-0.40241393,-0.32337305,0.059901692,3.0791085,-0.6152228,0.00013923534,-0.17165622,0.025562836,0.0015786047,-0.0136934165,0.01000224,0.030853495,0.41279608,-1.4271749,1.9597148,-2.1027248,-1.5692185,2.3816462,-0.1912807,0.2551539,-0.301306,0.031772897,0.008146021,-0.22195216,-0.19153613,0.21068975,-9.3661175,0.9791215,47.709274,-1.3479033,-2.073504,-3.487526,-0.07605191,0.18675846,-0.35897014,27.6875,28.875,27.9375,31.625,33.5625,34.375
0.35405374,-0.50588816,-1.0998558,-0.82048887,-0.0036377325,0.01721465,-0.16691431,-0.40276495,-0.32331872,0.059908014,3.079154,-0.6150007,4.4460645e-05,-0.17290096,0.026511068,0.0027371834,-0.014022052,0.011058277,0.03076558,0.41243577,-1.4266609,1.959104,-2.1026762,-1.5692548,2.381142,-0.19375539,0.25398213,-0.30318707,0.033725396,0.008042315,-0.22433841,0.05746084,0.19153613,-9.32781,0.9030289,47.716442,-1.2968254,-1.9047879,-3.4367952,-0.08546963,0.20568585,-0.39839846,27.6875,28.875,27.9375,31.625,33.5625,34.375
0.3560534,-0.35975885,-0.6328245,-0.51941234,-0.013440107,0.00012380851,-0.17077386,-0.40313357,-0.32327366,0.05991602,3.0791025,-0.6148663,3.8822716e-05,-0.17427644,0.027071815,0.0034947726,-0.014541172,0.01199023,0.039074186,0.41201606,-1.4261218,1.9584578,-2.1026156,-1.5691947,2.380645,-0.19574969,0.2541134,-0.30544508,0.034821596,0.008169149,-0.23464042,-0.038307227,0.2681506,-9.155427,0.9231726,47.71554,-1.2740352,-1.7751275,-3.433425,-0.0733345,0.21428163,-0.31680775,27.6875,28.875,27.9375,31.625,33.5625,34.375
0.3580541,-0.19224758,-0.69222397,-0.6053195,-0.0058725025,0.0011190297,-0.16559613,-0.40347043,-0.32322565,0.059906863,3.079139,-0.61467737,3.925903e-05,-0.17628218,0.02774222,0.0036978757,-0.01614034,0.013408265,0.04684122,0.4116557,-1.4255825,1.957848,-2.102545,-1.5691942,2.3801625,-0.19898301,0.25524136,-0.3069767,0.033301465,0.009076947,-0.24564032,-0.095768064,0.22984336,-9.289502,0.8806493,47.71554,-1.2590673,-1.6966009,-3.5053535,-0.05629205,0.20150648,-0.18641286,27.6875,28.875,27.9375,31.625,33.5625,34.375
0.36005372,-0.2814062,-0.23062521,-0.7181064,0.0013459643,0.002602522,-0.17079324,-0.40381944,-0.32318485,0.059941076,3.079121,-0.61438406,-6.20364e-05,-0.17659235,0.02792675,0.003601278,-0.016165378,0.012915703,0.04987952,0.4112841,-1.4251269,1.9572366,-2.1024845,-1.5691704,2.3796103,-0.19952291,0.25596887,-0.30782318,0.033875767,0.009330304,-0.24921764,0.15322891,0.11492168,-9.346964,0.91198283,47.711964,-1.286103,-1.6738782,-3.4487462,-0.011345642,0.20906672,-0.09378037,27.6875,28.875,27.9375,31.625,33.5625,34.375
0.36205333,-0.10965046,-0.20030636,-0.7780374,0.005462696,0.014805944,-0.16237843,-0.40418857,-0.32312042,0.059965804,3.0790977,-0.61434376,-0.00016216618,-0.17665817,0.028315183,0.0032757125,-0.015237048,0.010821441,0.043205243,0.41087654,-1.4246349,1.9566025,-2.1024115,-1.5691823,2.379181,-0.20006645,0.25739065,-0.30936813,0.0362822,0.00933574,-0.24308603,-0.1340753,-0.019153614,-9.3661175,0.9388393,47.70211,-1.2299213,-1.8193157,-3.6079652,-0.027092118,0.21459012,-0.11832778,27.6875,28.875,27.9375,31.625,33.5625,34.375
0.364054,-0.326279,-0.22817546,-0.6520104,0.015346476,0.012301748,-0.1603995,-0.40452546,-0.32307112,0.059929077,3.0790825,-0.6142498,-3.6387344e-05,-0.17836438,0.028687567,0.0028928875,-0.016182845,0.009482764,0.03101107,0.41046834,-1.4240476,1.9560026,-2.102352,-1.5691098,2.3787162,-0.20279868,0.26068994,-0.31257737,0.03704484,0.010716818,-0.23362343,-0.15322891,0.076614454,-9.3661175,0.9947882,47.7451,-1.0727664,-1.8053868,-3.4503875,-0.0012322762,0.20635185,-0.23699817,27.6875,28.875,27.9375,31.625,33.5625,34.375
0.36605382,-0.73577327,-0.19689612,-0.8004101,0.03859023,0.0044024903,-0.15872735,-0.40490368,-0.32301638,0.059966348,3.0790272,-0.61418545,-0.00011842189,-0.17931844,0.029492915,0.0016804356,-0.014804639,0.00686368,0.018786985,0.4100487,-1.4235549,1.9553331,-2.1022556,-1.5690855,2.3782637,-0.20466866,0.26466474,-0.31472105,0.03816071,0.0105080735,-0.22326721,-0.1340753,-0.038307227,-9.385271,0.95897776,47.73525,-0.99881756,-1.8796394,-3.3857665,-0.021191835,0.20936449,-0.36207992,27.6875,28.875,27.9375,31.625,33.5625,34.375
0.36805394,-0.7984721,0.36312702,-0.82191116,0.036827993,0.024338335,-0.16785006,-0.40521535,-0.32294735,0.059942238,3.0790496,-0.61413425,-5.8367834e-05,-0.1800257,0.029872078,9.220886e-05,-0.013436783,0.0036363099,0.01182203,0.40966502,-1.4230493,1.9547943,-2.1021836,-1.569074,2.3778455,-0.20574176,0.26954213,-0.31700158,0.039066818,0.010525416,-0.21737432,-0.17238252,-0.076614454,-9.385271,0.94331104,47.721813,-0.9679394,-2.0022345,-3.3856797,-0.016372077,0.21060872,-0.49908307,27.6875,28.875,27.9375,31.625,33.5625,34.375
0.3700539,-1.28819,0.07433169,-0.9731757,0.039773,0.02349792,-0.168123,-0.40559825,-0.32290268,0.059974883,3.0789862,-0.61400175,-0.00012169612,-0.18108445,0.029619928,0.00195512,-0.015238916,0.0062701525,0.0190775,0.40924522,-1.4225336,1.9541115,-2.1020992,-1.5690254,2.3773513,-0.20629351,0.2675614,-0.3194112,0.040349178,0.0111592775,-0.22518057,-0.17238252,-0.019153614,-9.308657,0.9030289,47.723602,-0.8918424,-1.9372246,-3.365963,-0.0040685786,0.2059257,-0.5161774,27.6875,28.875,27.9375,31.625,33.5625,34.375
0.37205333,-1.5171349,-0.25597817,-0.7546441,0.021417327,0.05620777,-0.1719604,-0.40593636,-0.32282755,0.0599518,3.0790436,-0.6139261,-2.7351429e-05,-0.18252073,0.029641032,0.0020247113,-0.014745576,0.0058169793,0.03391019,0.40883774,-1.4219682,1.9534878,-2.101967,-1.5690259,2.3768897,-0.20708643,0.2705031,-0.32348248,0.042121284,0.010887655,-0.2408051,-0.38307226,0.076614454,-9.385271,0.88960326,47.709274,-0.8212768,-1.9288301,-3.3247528,-0.027657527,0.20226866,-0.3697946,27.6875,28.875,27.9375,31.625,33.5625,34.375
