Tylouw/Master_Thesis_Code/training_data/batch_1/big_rod_t0.3/sample_64_session_2.csv
timestamp[s],tcp_force_x[N],tcp_force_y[N],tcp_force_z[N],tcp_force_rx[Nm?],tcp_force_ry[Nm?],tcp_force_rz[Nm?],tcp_pose_x[m],tcp_pose_y[m],tcp_pose_z[m],tcp_pose_rx[rot_vec_x],tcp_pose_ry[rot_vec_y],tcp_pose_rz[rot_vec_z],tcp_velo_x[m/s],tcp_velo_y[m/s],tcp_velo_z[m/s],tcp_velo_rx[rot_vec_x/s],tcp_velo_ry[rot_vec_y/s],tcp_velo_rz[rot_vec_z/s],q1[rad],q2[rad],q3[rad],q4[rad],q5[rad],q6[rad],qd1[rad/s],qd2[rad/s],qd3[rad/s],qd4[rad/s],qd5[rad/s],qd6[rad/s],tool_acc_x,tool_acc_y,tool_acc_z,current_of_whole_robot[A],voltage_of_whole_robot[V],current_J1[A],current_J2[A],current_J3[A],current_J4[A],current_J5[A],current_J6[A],temp_J1[C],temp_J2[C],temp_J3[C],temp_J4[C],temp_J5[C],temp_J6[C]
9.26957e-07,-0.5774684,-0.22123425,0.27598864,-0.018699035,0.0065560285,-0.016845256,-0.37289217,-0.32821757,0.05993766,-3.078496,0.62490803,-0.00033060357,0.0026003283,0.00125707,-0.003696854,0.0037890635,-0.008143379,8.6897984e-07,0.44811413,-1.470849,2.0095732,-2.107691,-1.5706257,2.4230556,-8.465132e-05,0.003768338,0.004085314,0.0011269256,0.00012448568,-8.7939276e-05,0.0,0.2681506,-8.944737,0.72622824,47.711063,-0.1012412,-2.8692484,-2.4779348,-0.51065785,0.07555938,-0.10233298,27.75,29.0625,28.125,31.75,33.75,34.5625
0.002054604,0.021542955,-0.2449244,0.111390226,-0.0049873986,0.01622921,-0.021365888,-0.3728801,-0.32821804,0.05992733,-3.078468,0.6248444,-0.00032055783,-0.0007071774,-0.00034273544,-0.0027450377,-0.0009488,0.0016573339,4.6098157e-06,0.44815025,-1.470837,2.0095847,-2.1076953,-1.5706614,2.4230556,-8.334488e-05,0.0042627505,0.0039212443,-0.010089253,0.00012237001,-8.687809e-05,0.038307227,0.15322891,-8.868123,0.6948948,47.71554,-0.13430911,-2.817443,-2.3824825,-0.4618228,0.08307447,-0.0844573,27.75,29.0625,28.125,31.75,33.75,34.5625
0.0040537,-0.15097286,-0.086951196,0.038620956,-0.0056084753,0.0149794575,-0.025125839,-0.37288323,-0.32821748,0.05989441,-3.0784602,0.6248621,-0.0003607503,-0.0019728448,-0.00095461257,-0.0021275445,-0.0030390096,0.005987337,5.9663257e-06,0.4481382,-1.4707773,2.0096085,-2.107756,-1.5706495,2.4230556,-8.2078135e-05,0.003734761,0.0041029933,-0.014551115,0.000120325014,-8.58423e-05,0.038307227,0.21068975,-8.944737,0.75755644,47.698532,-0.089875706,-3.0859087,-2.5107179,-0.34421498,0.09523158,-0.115321785,27.75,29.0625,28.125,31.75,33.75,34.5625
0.006053418,0.16296841,-0.14614616,-0.04653755,0.003572318,0.010374585,-0.028232658,-0.37290937,-0.32821706,0.059916954,-3.0784664,0.62486327,-0.00025344387,-0.0007482252,-0.00036199164,-0.00190044,-0.0013175244,0.0024373378,4.788144e-06,0.4481382,-1.4707898,2.0095727,-2.107766,-1.5706857,2.4230556,-8.084924e-05,0.0027287279,0.0033936235,-0.00889034,0.00011834716,-8.483089e-05,0.0,0.19153613,-9.040505,0.7709874,47.721813,-0.1018219,-3.0629487,-2.5295253,-0.36957794,0.07576035,-0.09591134,27.75,29.0625,28.125,31.75,33.75,34.5625
0.008053435,0.39503255,0.08775908,-0.39760464,0.049939614,-0.018757325,-0.015372251,-0.37290192,-0.3282244,0.05990182,-3.0784817,0.6249049,-0.00033069128,-4.298712e-05,-2.0705773e-05,-0.001323945,-0.00016998341,7.411786e-05,4.208637e-06,0.44812617,-1.4707662,2.0095837,-2.1077754,-1.5706376,2.4230676,-7.9656646e-05,0.0017651721,0.0019882976,-0.0038943554,0.000116433264,-8.384314e-05,0.038307227,0.15322891,-9.11712,0.73741806,47.744205,-0.10750154,-2.9502182,-2.5125706,-0.42299432,0.10811343,-0.10974451,27.75,29.0625,28.125,31.75,33.75,34.5625
0.010054366,1.1124038,1.4488944,-0.75221133,0.05440617,-0.014929207,-0.026807956,-0.37289113,-0.32820824,0.05989597,-3.07843,0.6248941,-0.00031447946,0.00026229993,0.00012696264,-0.0011114476,0.00043260888,-0.0011663474,-7.481752e-06,0.4481382,-1.4707781,2.0096076,-2.1077635,-1.5706857,2.4230795,-7.849876e-05,0.0015406796,0.0012018317,-0.001504317,0.000114580485,-7.126324e-05,-0.019153614,0.15322891,-9.2703495,0.7732232,47.72808,-0.4910047,-2.3443022,-3.1006398,-0.44780838,0.060843714,-0.17602141,27.75,29.0625,28.125,31.75,33.75,34.5625
0.012053885,0.08759308,0.6722039,-0.85291517,0.044115175,-0.023379,-0.024298673,-0.3728849,-0.32820755,0.059892792,-3.0784452,0.62483937,-0.00036945747,-0.000109715314,-1.7449554e-05,-0.0031962167,0.0024535588,-0.005374315,-5.7753383e-05,0.44812614,-1.4707756,2.0096066,-2.1077397,-1.5706614,2.4230313,-0.00014903644,0.007946607,-0.0011939269,-0.00084637536,0.000112785565,-8.9263514e-05,0.1340753,0.076614454,-9.519346,0.7709874,47.754948,-0.6276953,-2.4809487,-3.210886,-0.45291027,0.04202024,-0.21408589,27.75,29.0625,28.125,31.75,33.75,34.5625
0.014053657,-0.35180065,0.079131484,-0.8236677,-0.00065439317,-0.001032466,-0.02484235,-0.37286532,-0.32820305,0.059861876,-3.0784063,0.6247723,-0.00047551753,-0.0053090276,0.0016774144,-0.003868196,0.0028471842,-0.0062323213,0.0002117747,0.44813544,-1.4707252,2.0096166,-2.1077154,-1.5706614,2.4230037,-0.008073792,0.015843023,-0.00836238,-0.000631798,0.000111046145,-0.008278051,0.076614454,0.076614454,-9.710882,0.7105615,47.704796,-0.35068727,-2.8636189,-2.9387794,-0.43171751,0.042865317,-0.19543396,27.75,29.0625,28.125,31.75,33.75,34.5625
0.016053641,-0.72705024,-0.89365494,-1.2244523,-0.04183437,0.047801036,-0.029193824,-0.37286952,-0.32820693,0.05986447,-3.0784142,0.6247928,-0.00051328534,-0.005861839,0.0024328101,-0.0038880222,0.0032355175,-0.007038133,0.002105867,0.4481227,-1.4707131,2.0095918,-2.1076906,-1.5706376,2.4230027,-0.0099968,0.016203266,-0.008973464,0.00051324477,0.00010935945,-0.012095064,-0.3256114,0.17238252,-9.768343,0.77545905,47.729877,-0.303883,-2.7695448,-3.143859,-0.42401654,0.03417228,-0.14702848,27.75,29.0625,28.125,31.75,33.75,34.5625
0.018054336,-1.6388917,-1.577093,-0.98598456,-0.074679926,0.08567636,-0.049757384,-0.3728588,-0.32818463,0.05983381,-3.078327,0.62477386,-0.00057303923,-0.004429167,0.0023589479,-0.004163443,0.004238053,-0.009085631,0.0047910362,0.44812313,-1.4706653,2.0096042,-2.1076663,-1.5706857,2.4230025,-0.008546203,0.015543782,-0.008086677,0.0025648882,9.772449e-05,-0.0133308675,-0.40222588,0.38307226,-9.80665,0.77545905,47.7254,-0.41900575,-2.5257196,-3.441746,-0.43173078,0.024286853,-0.14491121,27.75,29.0625,28.125,31.75,33.75,34.5625
0.020053968,-2.1443384,-1.276438,-0.9577888,-0.080975786,0.10579199,-0.059652627,-0.3728897,-0.3281677,0.059836503,-3.0783114,0.62484694,-0.0005743545,-0.005102103,0.002073412,-0.00418569,0.004731311,-0.010109344,0.0059100413,0.44806316,-1.4706405,2.009568,-2.1076539,-1.5706857,2.42299,-0.008619844,0.017852265,-0.010955052,0.0042609354,9.3094764e-05,-0.014521914,-0.45968673,0.34476504,-9.844957,0.7709874,47.729877,-0.6445863,-2.4984248,-3.5291343,-0.46307755,0.0098722,-0.15299655,27.75,29.0625,28.125,31.75,33.75,34.5625
0.022053657,-1.8148909,-0.489402,-0.9479577,-0.05218213,0.100839354,-0.0800153,-0.37288812,-0.3281795,0.05981788,-3.0783272,0.62477416,-0.00066705013,-0.007558119,0.0022481664,-0.0033735135,0.0037334904,-0.008051644,0.004192797,0.4480622,-1.4705802,2.0095417,-2.1076415,-1.5706495,2.4229417,-0.011183685,0.01941863,-0.014456004,0.0039090663,9.153413e-05,-0.015366055,-0.59376204,0.36391866,-9.672575,0.7150385,47.707485,-0.6388047,-2.423117,-3.3829541,-0.4687829,0.01502258,-0.1807615,27.75,29.0625,28.125,31.75,33.75,34.5625
0.024054345,-1.7055122,-0.5974414,-1.0887212,-0.009843579,0.076607406,-0.09291308,-0.37287715,-0.32818466,0.05979639,-3.0783226,0.6247348,-0.0007232553,-0.00878563,0.0024911223,-0.0032206085,0.003219285,-0.0069920467,0.0038044984,0.4480738,-1.470544,2.0095541,-2.1076543,-1.5706376,2.4229293,-0.012757677,0.020280173,-0.015532449,0.002946226,9.0209825e-05,-0.016550682,-0.80445176,0.36391866,-9.710882,0.779936,47.72002,-0.6624863,-2.4722185,-3.3592877,-0.44815212,-0.0050818445,-0.19797558,27.75,29.0625,28.125,31.75,33.75,34.5625
0.026054,-1.2905164,-0.46142042,-0.98662335,-0.01538013,0.062256034,-0.10584284,-0.37293267,-0.32817933,0.059810296,-3.0783296,0.62481344,-0.0006772517,-0.010373412,0.0025972608,-0.0024213453,0.002148721,-0.004662461,0.0036374978,0.4480132,-1.470496,2.0094697,-2.1076548,-1.5706376,2.422917,-0.014365725,0.020306988,-0.017181227,0.002004765,3.9588365e-05,-0.017990349,-0.6895301,0.30645782,-9.787497,0.7284641,47.704796,-0.73284423,-2.4028344,-3.3997889,-0.42516667,-0.016616791,-0.1814811,27.75,29.0625,28.125,31.75,33.75,34.5625
0.028053746,-1.2863346,-0.6774973,-0.9839272,-0.022941869,0.06996554,-0.1131863,-0.37296268,-0.3281874,0.059815336,-3.0783718,0.6248227,-0.00068107725,-0.011682916,0.0026377407,-0.0020359098,0.0015802184,-0.003455885,0.0031370812,0.4479768,-1.4704597,2.009421,-2.1076667,-1.5706018,2.422881,-0.015622117,0.02122208,-0.018963505,0.0015388158,2.4320276e-05,-0.018744938,-0.7469909,0.21068975,-9.710882,0.78217715,47.72092,-0.6829374,-2.297526,-3.4927714,-0.40525144,-0.029330444,-0.16643074,27.75,29.0625,28.125,31.75,33.75,34.5625
0.030054372,-1.645745,-0.9076949,-0.8358143,-0.017166423,0.07877526,-0.12923837,-0.37298647,-0.32814714,0.05979217,-3.0782561,0.6248188,-0.0006376622,-0.013030019,0.002688404,-0.0016977182,0.001116894,-0.0024596623,0.0019273037,0.44795242,-1.4703995,2.0094082,-2.1076667,-1.5707096,2.422869,-0.016929876,0.022389553,-0.020958733,0.0012659911,4.5602874e-06,-0.018841418,-0.68953013,0.1340753,-9.691729,0.7530795,47.71465,-0.7090092,-2.3040948,-3.4095302,-0.38992852,-0.040869024,-0.17272152,27.75,29.0625,28.125,31.75,33.75,34.5625
0.032054108,-2.0585341,-0.80689615,-0.63168794,-0.0006272041,0.07854912,-0.14059727,-0.3730187,-0.32818002,0.0598145,-3.0783439,0.62479794,-0.0005936329,-0.014285967,0.0022955043,-0.0010780776,0.000452966,-0.0010770952,0.0010879475,0.44795227,-1.4703752,2.0093358,-2.1076906,-1.5706614,2.4228446,-0.017329901,0.023441097,-0.023531357,0.0012543428,2.9775416e-07,-0.018400362,-0.63206923,0.11492168,-9.557653,0.7933669,47.721813,-0.67098707,-2.4264493,-3.375158,-0.37448126,-0.058637276,-0.16990092,27.75,29.0625,28.125,31.75,33.75,34.5625
0.03405413,-1.5224454,0.31640154,-0.5961808,0.019307483,0.078122966,-0.16132745,-0.37303895,-0.32817486,0.05980354,-3.0783527,0.62480116,-0.00069870893,-0.014741384,0.0027216517,-0.0010745928,0.0014319066,-0.0031112249,-0.00012841601,0.4478918,-1.4703147,2.0092862,-2.1076539,-1.5706137,2.422785,-0.01854514,0.024911135,-0.025865937,0.0043772026,1.9441217e-08,-0.018398523,-0.51714754,-0.019153614,-9.500193,0.7463667,47.711063,-0.72026944,-2.3794713,-3.377842,-0.38005245,-0.07340033,-0.19239701,27.75,29.0625,28.125,31.75,33.75,34.5625
0.036053438,-1.2940806,0.8860378,-0.685729,0.04845273,0.05393682,-0.17063226,-0.3730775,-0.32818234,0.059798025,-3.0783463,0.62474155,-0.0007032054,-0.01603874,0.0034208337,-0.00062526274,0.0035864706,-0.0014885598,0.00037413958,0.44787946,-1.4702185,2.0091903,-2.107641,-1.5706266,2.4227364,-0.019244818,0.025720535,-0.027960522,0.0051419837,-0.0026485336,-0.019593975,-0.38307226,-0.038307227,-9.500193,0.78888994,47.71465,-0.7396364,-2.395901,-3.3977373,-0.3869092,-0.04497903,-0.16678208,27.75,29.0625,28.125,31.75,33.75,34.5625
0.038053323,-0.6860265,0.9557477,-0.72901416,0.06150308,0.03746242,-0.18192136,-0.37313887,-0.32816073,0.059817042,-3.0783432,0.6248374,-0.0005777867,-0.0175215,0.0032787065,5.759108e-05,0.0030867534,0.0007876135,0.00013659909,0.44780722,-1.4702064,2.0091417,-2.1076777,-1.5706624,2.4227245,-0.019956665,0.026375944,-0.030057343,0.0043162666,-0.0031890203,-0.02006576,-0.34476507,-0.05746084,-9.442732,0.6971306,47.70659,-0.68408036,-2.2634726,-3.3286455,-0.37186176,-0.07530539,-0.17119782,27.75,29.0625,28.125,31.75,33.75,34.5625
0.040054,-0.33582196,0.7615938,-0.5522374,0.04149595,0.029887754,-0.18346772,-0.3731549,-0.32816407,0.059788883,-3.0783226,0.6248148,-0.0006908169,-0.018959163,0.0031583076,0.0002697883,0.001964897,0.0018197715,-0.00050185487,0.44778273,-1.470098,2.009082,-2.1076543,-1.5706385,2.4226885,-0.021413665,0.027825417,-0.031905036,0.003296645,-0.0026328852,-0.020883625,-0.22984336,-0.11492168,-9.442732,0.7486078,47.709274,-0.632358,-2.224487,-3.3279848,-0.32715112,-0.08236398,-0.1666623,27.75,29.0625,28.125,31.75,33.75,34.5625
0.0420534,0.01899211,0.6504813,-0.65751123,0.015081423,0.026819477,-0.19477645,-0.37318593,-0.32814243,0.059783887,-3.0782897,0.62478817,-0.0006434533,-0.020156274,0.0031591288,0.00038853785,0.001494167,0.0020959124,-0.00052970764,0.44774646,-1.4700617,2.0090563,-2.1076663,-1.5706867,2.4226398,-0.022705803,0.029419046,-0.033919394,0.003262247,-0.0023332192,-0.02214708,-0.17238252,-0.17238252,-9.442732,0.84708,47.72719,-0.6974175,-2.3061113,-3.309132,-0.32125145,-0.09181376,-0.17185475,27.75,29.0625,28.125,31.75,33.75,34.5625
0.04405412,0.42043814,0.6665455,-0.5645034,-0.0036401434,0.029167721,-0.17965789,-0.37324944,-0.32813448,0.059815012,-3.0782824,0.6248249,-0.00055126497,-0.020829827,0.0034870233,0.0005345176,0.0021046225,0.0015206839,0.00017758277,0.4476979,-1.4700252,2.0089366,-2.1076295,-1.5707225,2.4226153,-0.023727398,0.03041971,-0.03571223,0.004837034,-0.0026346794,-0.02387468,-0.095768064,-0.13407528,-9.385271,0.76874626,47.696735,-0.6744391,-2.3039768,-3.3360758,-0.32165736,-0.1062606,-0.15419842,27.75,29.0625,28.125,31.75,33.75,34.5625
0.046054088,0.20607506,0.0388355,-0.62745076,0.009101427,0.013865252,-0.17241536,-0.37327984,-0.32812127,0.059809033,-3.0782735,0.6248034,-0.00060806057,-0.021248594,0.004222813,0.00083410426,0.0036168853,0.0005014985,0.0005559312,0.44763768,-1.4699653,2.008876,-2.1075923,-1.570711,2.4225428,-0.024865683,0.03074113,-0.037432097,0.007811944,-0.0035555216,-0.025389068,-0.05746084,0.05746084,-9.519346,0.7553206,47.694054,-0.63250023,-2.1440067,-3.3876944,-0.32883695,-0.1052942,-0.15836331,27.75,29.0625,28.125,31.75,33.75,34.5625
0.048053797,-0.28139594,-0.2647428,-0.8271643,0.014746212,0.0034781103,-0.15717457,-0.37332073,-0.32811534,0.059801657,-3.0782695,0.62482166,-0.0006090826,-0.021762447,0.0047754436,0.0008338905,0.00480349,-8.962613e-05,0.0012868141,0.44758928,-1.4698931,2.0088165,-2.1076043,-1.570711,2.4225063,-0.025817806,0.031574212,-0.03868231,0.009277954,-0.004369884,-0.027069904,0.0,0.15322891,-9.461885,0.7665104,47.691364,-0.64723706,-2.149669,-3.3619223,-0.32950598,-0.10586102,-0.12618572,27.75,29.0625,28.125,31.75,33.75,34.5625
0.050054263,0.03765667,-0.15660301,-0.7510872,0.0077103595,0.012775751,-0.16728878,-0.373359,-0.3281082,0.05979401,-3.078267,0.62480175,-0.00062241784,-0.022478104,0.004858288,0.0011867575,0.004515717,0.00012785025,0.0015435768,0.44754103,-1.4698211,2.008755,-2.1076043,-1.570711,2.422446,-0.026731199,0.031999823,-0.040118,0.00996641,-0.0042071985,-0.028239638,0.095768064,0.21068975,-9.442732,0.68146914,47.687782,-0.60283506,-2.1421723,-3.4371257,-0.32626566,-0.11774069,-0.12077674,27.75,29.0625,28.125,31.75,33.75,34.5625
0.05205395,-0.06314833,-0.5081605,-0.8229023,0.000636159,0.0064665237,-0.16331895,-0.37341484,-0.3280794,0.059810527,-3.0782075,0.624866,-0.00059338444,-0.02363779,0.0048965113,0.0014036341,0.004062917,0.000356455,0.0014875053,0.44746843,-1.4697728,2.0086477,-2.1075323,-1.5707587,2.4224212,-0.028059127,0.033372283,-0.042190343,0.010261208,-0.0039029564,-0.02951072,0.076614454,0.28730422,-9.461885,0.75755644,47.713753,-0.59631175,-2.0783455,-3.432996,-0.3314801,-0.11665605,-0.11900769,27.75,29.0625,28.125,31.75,33.75,34.5625
0.054053597,-0.14876659,-1.1214741,-1.0416425,-0.019208465,0.0073526236,-0.16038066,-0.37344772,-0.3280825,0.059795216,-3.0782256,0.6248119,-0.00067224895,-0.023976708,0.0050635664,0.0012295136,0.0044942694,-0.00088029396,0.0024591794,0.44742012,-1.4696766,2.0085742,-2.1075194,-1.5707229,2.4223368,-0.028776301,0.03467856,-0.043533698,0.011599908,-0.0037588999,-0.03119913,-0.038307227,0.3256114,-9.481039,0.7463667,47.694946,-0.5713021,-2.033032,-3.4066687,-0.33759153,-0.13071789,-0.10477348,27.75,29.0625,28.125,31.75,33.75,34.5625
0.056054108,-0.11646338,-1.3907254,-1.0407842,-0.031169677,0.011669396,-0.15746951,-0.373485,-0.32805333,0.059786852,-3.0781426,0.62483287,-0.00067640905,-0.024832977,0.005152088,0.0015621837,0.0050346223,-0.0007536861,0.0030088003,0.44737202,-1.4696043,2.0085032,-2.1074717,-1.570783,2.4223125,-0.029348597,0.03577084,-0.04579052,0.012883664,-0.004305214,-0.032318506,-0.076614454,0.38307226,-9.557653,0.7732232,47.73077,-0.61495733,-1.9926363,-3.4359937,-0.34405988,-0.14153372,-0.09009093,27.75,29.0625,28.125,31.75,33.75,34.5625
0.058053654,-0.5817212,-1.3284413,-1.024054,-0.035876516,0.013203753,-0.15896538,-0.37354305,-0.32804063,0.05978327,-3.0781515,0.6248346,-0.0006879729,-0.025720356,0.0058062673,0.0017578892,0.0064358413,-0.00026620476,0.0032754312,0.44728762,-1.4695201,2.0084188,-2.1074712,-1.5707716,2.422228,-0.030379409,0.036453616,-0.047195118,0.01377702,-0.005781621,-0.033611987,-0.038307227,0.4213795,-9.5385,0.7351769,47.70032,-0.5983093,-1.9459864,-3.4610996,-0.3525536,-0.1234767,-0.081411615,27.75,29.0625,28.125,31.75,33.75,34.5625
0.06005409,-0.34128964,-1.2655418,-1.0676731,-0.029311448,0.036893178,-0.1684258,-0.3735922,-0.3280472,0.05980424,-3.0781922,0.6248035,-0.0006793181,-0.026845984,0.0060105245,0.001932622,0.007074237,0.00079549185,0.004843026,0.44723946,-1.4694719,2.0083096,-2.107435,-1.5707482,2.4221554,-0.031077418,0.03767599,-0.048893128,0.013575189,-0.0068214103,-0.035874184,-0.019153614,0.36391866,-9.500193,0.78888994,47.728977,-0.6238293,-1.9535725,-3.4822295,-0.36722547,-0.14589095,-0.05691114,27.75,29.0625,28.125,31.75,33.75,34.5625
0.062054235,-0.41296038,-0.59641814,-0.813251,-0.032122053,0.04639524,-0.16049303,-0.37366396,-0.32801977,0.05980686,-3.0781286,0.6248873,-0.000649378,-0.027969854,0.006073907,0.0019299824,0.007577534,0.0015620128,0.0036237072,0.44715536,-1.4693755,2.0081894,-2.1073987,-1.5707964,2.4221318,-0.03167626,0.03942037,-0.05071529,0.01318018,-0.0076116193,-0.0352504,-0.076614454,0.36391866,-9.519346,0.73741806,47.71823,-0.6488636,-1.9070332,-3.4905283,-0.3775479,-0.12915352,-0.058264516,27.75,29.0625,28.125,31.75,33.75,34.5625
0.06405374,-0.9122731,-0.6023599,-0.8731784,-0.01841792,0.046215154,-0.16305183,-0.3737181,-0.32801142,0.059820324,-3.0781455,0.624853,-0.0006595157,-0.029700505,0.0063924827,0.0020233202,0.007978369,0.0033524702,0.0013794429,0.44708276,-1.4693147,2.0080812,-2.107352,-1.5707849,2.4220357,-0.033067506,0.04120209,-0.0525785,0.011824701,-0.008753656,-0.034393076,-0.095768064,0.3256114,-9.595961,0.78888994,47.744205,-0.6743499,-1.9358981,-3.4936442,-0.3658666,-0.11369152,-0.07491218,27.75,29.0625,28.125,31.75,33.75,34.5625
0.06605381,-0.80344146,-0.61915034,-0.6519867,-0.014628872,0.05676669,-0.16119228,-0.37377188,-0.3280161,0.059818264,-3.078155,0.62481666,-0.00068675546,-0.030833406,0.0063616876,0.0019104308,0.008168731,0.0038657233,0.0018525852,0.44703457,-1.4692063,2.0079615,-2.1073282,-1.570773,2.4219637,-0.033762418,0.04322636,-0.0544184,0.011260932,-0.009153702,-0.035558555,-0.21068975,0.28730422,-9.442732,0.78217715,47.74062,-0.650796,-1.9485557,-3.5251498,-0.34896165,-0.14720699,-0.07117131,27.75,29.0625,28.125,31.75,33.75,34.5625
0.06805437,-1.2741339,-0.67849964,-0.967218,-0.009438642,0.045746453,-0.15292151,-0.3738365,-0.32801744,0.05983528,-3.0781715,0.62480015,-0.0006294381,-0.0320517,0.0056694313,0.002612343,0.007237121,0.005876177,0.0030169121,0.44698656,-1.4691341,2.0078404,-2.1073163,-1.5707849,2.4219034,-0.03353694,0.044166677,-0.056912147,0.010597751,-0.00918879,-0.03649584,-0.19153613,0.22984336,-9.404425,0.79560274,47.7245,-0.7173568,-1.8863127,-3.4327874,-0.33771205,-0.13584787,-0.0743838,27.75,29.0625,28.125,31.75,33.75,34.5625
0.070053734,-1.1369923,-0.8780869,-0.79349756,0.0066262404,0.05140031,-0.15645255,-0.3739022,-0.3280085,0.059843857,-3.0781858,0.62474483,-0.00056194037,-0.032548778,0.006162665,0.0017798521,0.008652186,0.0044008303,0.0026702317,0.44692624,-1.4690614,2.0077436,-2.1073282,-1.5708088,2.4218068,-0.034477685,0.046666633,-0.05783503,0.010963417,-0.009827315,-0.037088025,-0.24899697,0.21068975,-9.500193,0.7732232,47.72719,-0.74333644,-1.9133027,-3.5172307,-0.34068358,-0.12011506,-0.05561655,27.75,29.0625,28.125,31.75,33.75,34.5625
0.07205344,-1.3293595,-0.7766205,-0.71075815,0.006335377,0.0441962,-0.14961313,-0.3739883,-0.32800105,0.059857722,-3.07818,0.6247999,-0.0005208332,-0.034768496,0.0052821347,0.0034068292,0.006602384,0.007998197,0.0042802417,0.44684213,-1.4689534,2.0075877,-2.1073043,-1.5708207,2.421758,-0.035018053,0.047209777,-0.06206513,0.010517493,-0.009543738,-0.03923651,-0.3256114,0.28730422,-9.3661175,0.81351066,47.729877,-0.73735857,-1.948894,-3.4087148,-0.3350553,-0.13762917,-0.042707816,27.75,29.0625,28.125,31.75,33.75,34.5625
0.0740541,-0.7713278,-0.30190143,-0.580069,-0.0034255525,0.054456074,-0.15946297,-0.37403697,-0.3280052,0.059869785,-3.0782094,0.6247302,-0.00049048057,-0.03562006,0.0051605566,0.0033898621,0.006274023,0.007807642,0.0022421752,0.4468058,-1.4688928,2.0074909,-2.1072924,-1.5708207,2.4216745,-0.035812378,0.048842482,-0.06386767,0.010715992,-0.009166749,-0.03799252,-0.4405331,0.17238252,-9.423578,0.78217715,47.73077,-0.7678374,-1.8783786,-3.3367445,-0.34440604,-0.13580766,-0.05582577,27.75,29.0625,28.125,31.75,33.75,34.5625
0.07605339,-1.0929384,-0.5743637,-0.56182826,0.0063435454,0.049965665,-0.15797712,-0.3741227,-0.32799548,0.05987158,-3.0782082,0.6247313,-0.00049322494,-0.035576094,0.0057950504,0.0016763879,0.008748886,0.0040378617,-0.00010559274,0.44670975,-1.4687598,2.007335,-2.1072676,-1.5708207,2.4215794,-0.036550716,0.05284523,-0.064621195,0.01193759,-0.009767693,-0.036381092,-0.4405331,0.15322891,-9.442732,0.8157518,47.74868,-0.7520846,-2.0243096,-3.5248103,-0.3215239,-0.13286686,-0.091599,27.75,29.0625,28.125,31.75,33.75,34.5625
0.078054205,-0.9176451,-0.40141505,-0.68956816,0.004230543,0.054887902,-0.16156177,-0.37420335,-0.32798454,0.059883546,-3.0781887,0.62474686,-0.0004006672,-0.037727,0.0058496883,0.0035767353,0.007522993,0.008467355,-0.00014308332,0.446649,-1.4686645,2.0072029,-2.107268,-1.5708693,2.421531,-0.038041677,0.051468227,-0.06738062,0.011549602,-0.010581612,-0.037831716,-0.30645782,0.095768064,-9.346964,0.77545905,47.728977,-0.7620802,-1.8685277,-3.467608,-0.32444698,-0.14387608,-0.10161358,27.75,29.0625,28.125,31.75,33.75,34.5625
0.080054045,-1.0876294,-0.25262752,-0.61193943,0.009319443,0.05171887,-0.15549982,-0.37424338,-0.32794625,0.05986332,-3.0781147,0.624751,-0.00054968527,-0.04018556,0.005542653,0.004713593,0.00714163,0.011253485,0.00011373188,0.44654068,-1.468556,2.0071056,-2.1071603,-1.5708693,2.4214346,-0.03909411,0.05329687,-0.07203678,0.011701023,-0.011455324,-0.03913479,-0.26815057,0.15322891,-9.3661175,0.7709874,47.70659,-0.737221,-1.8321316,-3.2098775,-0.31611735,-0.13764009,-0.10824404,27.75,29.0625,28.125,31.75,33.75,34.5625
0.08205412,-1.5418082,-0.21183395,-0.5915724,0.011001655,0.037961148,-0.1541666,-0.37434843,-0.32796013,0.0598825,-3.0781403,0.62471753,-0.00038630154,-0.039537434,0.0063524153,0.0030642408,0.009271943,0.007930187,-0.00042593962,0.44650447,-1.4684235,2.0069268,-2.107208,-1.570918,2.4213746,-0.03969584,0.05554425,-0.070837736,0.012171405,-0.011934232,-0.039197434,-0.40222588,0.1340753,-9.385271,0.74413085,47.694946,-0.8003098,-1.8182559,-3.4277172,-0.3082031,-0.1323424,-0.11231283,27.75,29.0625,28.125,31.75,33.75,34.5625
0.08405369,-0.90938425,-0.08784188,-0.42630112,0.00579428,0.061334595,-0.16094185,-0.3744295,-0.32795247,0.05989545,-3.0781295,0.6247144,-0.00034780582,-0.040795907,0.0055455156,0.002704095,0.009484448,0.007684792,0.00070952374,0.44643274,-1.4683143,2.006769,-2.1071723,-1.5709418,2.4213023,-0.03924919,0.059649337,-0.07449891,0.012038845,-0.0120277135,-0.039883345,-0.38307226,0.22984336,-9.308657,0.77545905,47.711063,-0.816513,-1.9793321,-3.2671828,-0.30724552,-0.14846362,-0.13024436,27.75,29.0625,28.125,31.75,33.75,34.5625
0.08605386,-1.32036,-0.53198683,-0.58989024,0.008193848,0.047062557,-0.15644383,-0.37452334,-0.3279333,0.05991408,-3.0781326,0.62477344,-0.00031786965,-0.04314942,0.0061308513,0.0049539767,0.008167286,0.012038014,-0.0017121859,0.44631177,-1.4682193,2.0066135,-2.107136,-1.5709418,2.421218,-0.04199306,0.05735124,-0.0772656,0.012609225,-0.012722068,-0.040203266,-0.40222588,0.24899697,-9.289502,0.7933669,47.72002,-0.8125728,-1.8371911,-3.2866025,-0.28233474,-0.112691894,-0.14858371,27.75,29.0625,28.125,31.75,33.75,34.5625
0.08805343,-0.7477706,-0.08408014,-0.5920022,-0.0070484537,0.051719557,-0.16869529,-0.3746121,-0.32793322,0.05993077,-3.0781403,0.6247568,-0.0002789351,-0.043601222,0.0062902384,0.0037289117,0.008990841,0.009197681,-0.0020743243,0.4462393,-1.468098,2.0064337,-2.1070998,-1.5709537,2.4211342,-0.04301804,0.061154347,-0.07878883,0.0132435635,-0.012239888,-0.04086606,-0.4405331,0.21068975,-9.404425,0.7732232,47.70838,-0.72587717,-1.7913806,-3.2709725,-0.28902188,-0.12899198,-0.15790752,27.75,29.0625,28.125,31.75,33.75,34.5625
0.090054125,-0.7289372,-0.6141246,-0.7149728,-0.011316607,0.04591494,-0.16059275,-0.37468606,-0.32792786,0.059926488,-3.0781193,0.62469476,-0.00028506052,-0.045275867,0.0067653856,0.0037741712,0.009195295,0.008769938,-0.0038195017,0.44617862,-1.4679533,2.0062764,-2.107064,-1.570978,2.4210377,-0.04541328,0.06356656,-0.08179644,0.014311047,-0.012244758,-0.041513987,-0.38307226,0.15322891,-9.423578,0.7866488,47.701214,-0.7048565,-2.0097075,-3.1687279,-0.30967712,-0.13294518,-0.17028674,27.75,29.0625,28.125,31.75,33.75,34.5625
0.09205374,-0.57937855,-0.2967175,-0.5528473,-0.027252693,0.053903885,-0.16375808,-0.3747713,-0.3279137,0.059928592,-3.0781336,0.62471706,-0.00031100155,-0.04440632,0.007244214,0.0024127236,0.010873355,0.0060041663,-0.0030224617,0.44605848,-1.4678332,2.0061338,-2.1070397,-1.5709537,2.4209297,-0.045298576,0.06510711,-0.08045316,0.014646724,-0.012561843,-0.042196315,-0.4405331,0.19153613,-9.346964,0.8112748,47.698532,-0.6599174,-1.907852,-3.1538775,-0.2989812,-0.11516109,-0.18112123,27.75,29.0625,28.125,31.75,33.75,34.5625
0.094053276,-1.0655807,-0.7443282,-0.7058544,-0.012179344,0.053625606,-0.15224333,-0.37484202,-0.3278728,0.059904672,-3.0780332,0.6246956,-0.00030493017,-0.044558473,0.0073915212,0.0018990025,0.012630504,0.0052042664,-0.0020884345,0.44597474,-1.4676889,2.0060246,-2.1070158,-1.5710381,2.4208455,-0.044864032,0.06695836,-0.08146503,0.015286561,-0.013805543,-0.04269174,-0.38307226,0.28730422,-9.3661175,0.7284641,47.683304,-0.83924794,-1.9594303,-3.3896267,-0.29184937,-0.12864351,-0.22158635,27.75,29.0625,28.125,31.75,33.75,34.5625
0.09605391,-1.4971106,-0.56859577,-0.6330457,-0.010245811,0.053726602,-0.15737104,-0.37497202,-0.3278728,0.059939753,-3.0780506,0.6248145,-0.00018784216,-0.048021287,0.007432911,0.003652606,0.011709246,0.009117746,-0.002329983,0.44586587,-1.4675565,2.0057957,-2.1070035,-1.571051,2.4208088,-0.047467776,0.06845131,-0.08720741,0.015607645,-0.014671267,-0.045049798,-0.22984336,0.30645782,-9.385271,0.75755644,47.655537,-0.73921096,-1.9313829,-3.147777,-0.29251346,-0.0925608,-0.23008502,27.75,29.0625,28.125,31.75,33.75,34.5625
0.09805339,-1.0079064,-0.124909684,-0.3320832,-0.019305067,0.06236944,-0.16741647,-0.3750559,-0.32785138,0.059940062,-3.0780127,0.62480605,-0.00023952736,-0.047582556,0.008025181,0.0020470603,0.012646305,0.0059738373,-0.001332968,0.4457575,-1.4674119,2.005617,-2.1069195,-1.5710624,2.4207,-0.04851439,0.07073764,-0.08599026,0.015339835,-0.014162453,-0.047094062,-0.19153613,0.24899697,-9.404425,0.7620334,47.689575,-0.665437,-1.9712157,-3.2442884,-0.26932502,-0.12132444,-0.21634063,27.75,29.0625,28.125,31.75,33.75,34.5625
0.1000541,-0.9700505,-0.34577325,-0.4195038,-0.010243867,0.042623676,-0.15540093,-0.3751622,-0.3278577,0.0599765,-3.078059,0.6248355,-0.00013424455,-0.049358856,0.0073837694,0.0027329877,0.011533481,0.0078230165,-0.0027585698,0.44567335,-1.4673156,2.0054247,-2.106908,-1.5710624,2.4206285,-0.049036432,0.072590865,-0.0894931,0.014839799,-0.013959577,-0.046189595,-0.19153613,0.2681506,-9.346964,0.7597976,47.73256,-0.73325557,-1.9907283,-3.2187705,-0.2607354,-0.12499647,-0.25675607,27.75,29.0625,28.125,31.75,33.75,34.5625
0.10205345,-0.22061521,-0.3460317,-0.48337287,-0.015318148,0.038440842,-0.16338873,-0.37529725,-0.32783052,0.059975814,-3.0780172,0.6247682,1.3625597e-06,-0.050069742,0.0073702876,0.002622332,0.011708328,0.0070904284,-0.0025873552,0.44556504,-1.4671232,2.0052202,-2.106932,-1.5711583,2.4204838,-0.049741052,0.07440471,-0.09144561,0.015707849,-0.01380233,-0.047065075,-0.19153613,0.21068975,-9.404425,0.78217715,47.711964,-0.78167456,-1.9966558,-3.1264143,-0.23399553,-0.11447541,-0.29053164,27.75,29.0625,28.125,31.75,33.75,34.5625
0.1040544,0.4599443,-0.031250875,-0.38821262,-0.020860747,0.03776623,-0.17217375,-0.3753832,-0.32781816,0.05997092,-3.077988,0.62474275,-5.0157214e-06,-0.05122188,0.007485313,0.0029768322,0.012332931,0.008192404,-0.0017184241,0.44548094,-1.466967,2.0050514,-2.1068957,-1.5711831,2.4203877,-0.050278377,0.07554931,-0.093590766,0.015983636,-0.014846457,-0.048467588,-0.15322891,0.2873042,-9.385271,0.779936,47.698532,-0.824628,-2.0047004,-3.0965433,-0.23070158,-0.086808264,-0.29860225,27.75,29.0,28.125,31.75,33.75,34.5625
0.10605439,-0.48472193,-0.7441237,-0.53706014,0.002011869,0.010730465,-0.15727898,-0.37549075,-0.3278059,0.059997056,-3.0779738,0.6247769,7.1272065e-05,-0.051643454,0.007471954,0.0026045435,0.012755584,0.006485314,0.00018157912,0.4453847,-1.4668465,2.0048478,-2.106847,-1.5712184,2.4203148,-0.050857227,0.07775039,-0.0954905,0.017398795,-0.014492575,-0.050946593,-0.24899697,0.30645782,-9.270349,0.7642693,47.72002,-0.8235326,-1.9418736,-3.1340246,-0.23272479,-0.10361863,-0.29972637,27.75,29.0,28.125,31.75,33.75,34.5625
0.108053975,-0.03202755,-0.17359023,-0.29444093,-0.014682409,0.028254822,-0.15606086,-0.3756005,-0.32778847,0.059994068,-3.0779705,0.62479657,7.1823735e-05,-0.051847894,0.0069197505,0.0027175052,0.012047338,0.006416528,-0.0009339103,0.44525295,-1.4666785,2.004667,-2.1068351,-1.5712184,2.4201958,-0.050436933,0.07852515,-0.09664581,0.017533204,-0.013825091,-0.04941138,-0.17238252,0.24899697,-9.251195,0.80679786,47.74331,-0.8649945,-2.0570624,-3.1157084,-0.22332737,-0.08328212,-0.33691567,27.75,29.0,28.125,31.75,33.75,34.5625
0.11005404,-0.71041644,-1.0053787,-0.4833443,-0.0034746896,0.024148164,-0.15170832,-0.37569222,-0.3277769,0.05999596,-3.077935,0.6248475,4.945483e-05,-0.052971415,0.0070871883,0.0015044342,0.012146547,0.0038927135,-0.004024044,0.4451562,-1.4665213,2.0044758,-2.106775,-1.5712298,2.4201355,-0.052420124,0.08301287,-0.09881796,0.01753354,-0.012833172,-0.04830406,-0.21068975,0.2681506,-9.404425,0.7172743,47.74868,-0.9257718,-2.0088801,-3.1458738,-0.21060176,-0.108769014,-0.39559227,27.75,29.0,28.125,31.75,33.75,34.5625
0.11205414,-0.2255558,-0.2640793,-0.48407754,-0.024717387,0.03571648,-0.16144691,-0.3757787,-0.32775226,0.059981477,-3.0778754,0.6248342,-1.659542e-05,-0.053638056,0.0070682955,0.0030974518,0.010818363,0.0062713763,-0.002191342,0.44504803,-1.4663426,2.004296,-2.1067035,-1.5712537,2.4200268,-0.05308196,0.08045104,-0.0998647,0.018418403,-0.01266361,-0.050798114,-0.11492168,0.28730422,-9.3661175,0.7239871,47.71554,-0.8125802,-1.9599844,-3.1895037,-0.19905524,-0.11302541,-0.41496724,27.75,29.0,28.125,31.75,33.75,34.5625
0.114054404,-0.7384708,-0.7650434,-0.39565673,-0.016330143,0.021512989,-0.15643373,-0.37589768,-0.32774988,0.059999317,-3.0778925,0.62479717,6.549684e-05,-0.053355336,0.0057873284,0.0024943037,0.010675987,0.004804481,0.0025331036,0.44495273,-1.4661859,2.00408,-2.1066916,-1.571278,2.4199064,-0.05091906,0.08330243,-0.10168534,0.018643342,-0.011905906,-0.053360336,0.0,0.21068975,-9.404425,0.72622824,47.73077,-1.1090645,-1.8094459,-3.1771317,-0.18938878,-0.11300038,-0.42158455,27.75,29.0,28.125,31.75,33.75,34.5625
0.116054304,-0.54648364,-0.5749007,-0.41573244,-0.028250584,0.020591697,-0.1561363,-0.376034,-0.32775322,0.060012385,-3.0779068,0.62485725,0.00014933149,-0.053858545,0.0066111768,0.0011761026,0.012056767,0.0023368332,0.0026878726,0.44484416,-1.4659929,2.0038402,-2.106703,-1.5712899,2.4198337,-0.052773517,0.08638524,-0.10211136,0.018805444,-0.01208883,-0.05536924,-0.038307227,0.17238252,-9.308656,0.74413085,47.716442,-1.0395049,-2.1380363,-3.235773,-0.1768545,-0.10860483,-0.4271077,27.75,29.0,28.125,31.75,33.75,34.5625
0.11805435,0.017228788,-0.3196541,-0.2893487,-0.023005048,0.026394537,-0.16551487,-0.3761295,-0.32773274,0.060019974,-3.07789,0.6247754,0.00014187203,-0.055097755,0.0066840765,0.0016166281,0.011655993,0.0030679863,0.004216626,0.4447358,-1.4658492,2.003648,-2.106631,-1.5713137,2.4196765,-0.05403573,0.08735333,-0.10428193,0.019170508,-0.012048384,-0.058158696,-0.076614454,0.28730422,-9.270349,0.8112748,47.71286,-1.0911462,-1.8870931,-3.221929,-0.15030997,-0.10938523,-0.44999933,27.75,29.0,28.125,31.75,33.75,34.5625
0.1200548,0.16587645,0.08294557,-0.4226671,-0.010978986,0.015886461,-0.16476223,-0.37626055,-0.3277183,0.060043156,-3.0778725,0.6247902,0.00020604754,-0.055512924,0.007185982,0.0008420287,0.0123695135,0.0011783825,0.0067511993,0.4446152,-1.4656807,2.0033958,-2.1065714,-1.57135,2.4195676,-0.055442058,0.08950355,-0.10502555,0.019769281,-0.011880705,-0.062099636,0.019153614,0.21068975,-9.270349,0.7866488,47.71554,-1.0234833,-2.034193,-3.3437376,-0.1607345,-0.11984971,-0.41393685,27.75,29.0,28.125,31.75,33.75,34.5625
0.12205376,0.34313545,0.12327218,-0.2020321,0.0012428911,0.012651618,-0.16729803,-0.37637365,-0.32769814,0.060030844,-3.0778363,0.62477934,0.000250856,-0.05692087,0.006179467,0.0021006525,0.011635366,0.0038862827,0.011098493,0.44450772,-1.4654887,2.003215,-2.1065829,-1.5713977,2.4194582,-0.05445736,0.090287805,-0.108853124,0.020046836,-0.012391844,-0.065458976,-0.076614454,0.17238252,-9.270349,0.8403672,47.734352,-1.1958361,-2.0931096,-3.17948,-0.1421994,-0.1125605,-0.41736424,27.75,29.0,28.125,31.75,33.75,34.5625
0.124053895,-0.30398577,0.07279583,-0.32303327,0.0068049263,0.007867496,-0.16548873,-0.3764835,-0.3276948,0.060021788,-3.0778303,0.62468034,0.00022854882,-0.0565492,0.0072611077,0.00028486756,0.013298023,0.0002739986,0.014029405,0.44441098,-1.4652722,2.002989,-2.1065466,-1.5714101,2.4193006,-0.05616727,0.09274617,-0.10744294,0.020148216,-0.012340934,-0.070100084,0.0,0.17238252,-9.308656,0.784413,47.723602,-1.1508592,-2.0303075,-3.3196993,-0.12868612,-0.117418855,-0.37589598,27.75,29.0,28.125,31.75,33.75,34.5625
0.12605438,-0.13209157,0.25233734,-0.44234005,0.009930804,0.01940637,-0.17111512,-0.37657782,-0.32768235,0.060012136,-3.0778232,0.6245423,0.0001555936,-0.058802683,0.007086569,0.0014192895,0.012836686,0.0028972742,0.017398614,0.4443027,-1.46508,2.002783,-2.106475,-1.5714101,2.4191072,-0.057357173,0.09406311,-0.11156407,0.020382777,-0.013067319,-0.07465448,0.019153614,0.17238252,-9.232041,0.7978386,47.71554,-1.1641563,-1.9851962,-3.1739168,-0.12134271,-0.1097385,-0.33673555,27.75,29.0,28.125,31.75,33.75,34.5625
0.12805434,-0.4670461,0.106164604,-0.34356984,0.0033107346,0.025643334,-0.16386905,-0.37673002,-0.32767385,0.060049597,-3.0778635,0.62454885,0.00027038995,-0.058701154,0.007537252,0.0008199687,0.012804621,0.00061412057,0.020252464,0.4441581,-1.4649241,2.0025198,-2.1064508,-1.571422,2.4189618,-0.05876733,0.09501255,-0.11148078,0.021387657,-0.012051039,-0.07892176,-0.019153614,0.17238252,-9.289502,0.7911258,47.694054,-1.1326103,-1.9648874,-3.3418062,-0.1057872,-0.1166843,-0.2923454,27.75,29.0,28.125,31.75,33.75,34.5625
0.13005392,-0.13959749,-0.15942809,-0.1849923,-0.00728441,0.04296879,-0.17016906,-0.3768189,-0.32766512,0.0600553,-3.0778356,0.62446374,0.00027060002,-0.059063572,0.008061419,9.4407966e-05,0.014651693,-0.0015376027,0.02382455,0.44408593,-1.4647675,2.0023177,-2.1063788,-1.5714577,2.4188402,-0.05955759,0.09757699,-0.113055654,0.023129614,-0.012798483,-0.08328151,-0.076614454,0.0,-9.308656,0.8112748,47.7245,-1.1859328,-1.9527494,-3.4023485,-0.107398525,-0.11890307,-0.23319803,27.75,29.0,28.125,31.75,33.75,34.5625
0.13205382,-0.15947628,0.25112107,-0.25678557,-0.01164602,0.041289117,-0.17547911,-0.37695777,-0.32764784,0.06004798,-3.0778158,0.62438285,0.00028991647,-0.060099363,0.008276967,0.0012233356,0.013591501,-0.00085930474,0.024458049,0.4439532,-1.4645281,2.002065,-2.106354,-1.571494,2.4186597,-0.06131024,0.09679945,-0.115237,0.025011223,-0.012135924,-0.08566824,-0.13407528,0.11492168,-9.308657,0.79560274,47.71465,-1.1136092,-1.9178802,-3.426156,-0.11267668,-0.13630275,-0.19451727,27.75,29.0,28.125,31.75,33.75,34.5625
0.13405392,-0.6993414,0.11100647,-0.4321979,0.010562616,0.022092042,-0.16240421,-0.3770703,-0.32762483,0.060046617,-3.0778062,0.6242842,0.00022832994,-0.060177427,0.008551723,0.0010064439,0.013747545,-0.0019482261,0.025439136,0.44380903,-1.4643365,2.0018375,-2.1062696,-1.571494,2.4184554,-0.06208761,0.09737027,-0.115571946,0.025821218,-0.011814252,-0.087426744,-0.3256114,0.095768064,-9.385271,0.7978386,47.71465,-1.1567634,-1.7762868,-3.4354076,-0.09313553,-0.14084713,-0.18469122,27.75,29.0,28.125,31.75,33.75,34.5625
0.13605434,-0.3549662,0.005011184,-0.54756635,0.012849317,0.03344785,-0.16305554,-0.37720677,-0.3276043,0.06005107,-3.0777671,0.6242767,0.00030073404,-0.0627961,0.008437189,0.0017372853,0.014035411,-0.00027686593,0.023945458,0.44368857,-1.4641315,2.0015957,-2.1062458,-1.5715541,2.4183354,-0.0635325,0.10052366,-0.1209284,0.026635326,-0.012801017,-0.08737275,-0.28730422,0.11492168,-9.423578,0.7709874,47.703903,-1.1232982,-2.1038933,-3.3894055,-0.10133368,-0.12637997,-0.14042792,27.75,29.0,28.125,31.75,33.75,34.5625
0.13805412,-1.2677505,-0.06641788,-0.57063156,0.016256608,0.022340668,-0.1570796,-0.37733868,-0.32759047,0.060051937,-3.077782,0.62416524,0.00028327704,-0.06252111,0.008665317,0.0013055461,0.014122064,-0.0016469428,0.021731379,0.44354433,-1.463916,2.001345,-2.106197,-1.5715541,2.41812,-0.06402907,0.10093131,-0.12051233,0.027084459,-0.012290553,-0.08565645,-0.28730422,0.019153614,-9.481039,0.7642693,47.70032,-1.2030314,-1.7567744,-3.4894202,-0.09968117,-0.16797525,-0.1310185,27.75,29.0,28.125,31.75,33.75,34.5625
0.14005432,-0.9660414,0.26205444,-0.6407428,0.007434311,0.04328754,-0.16562395,-0.37743428,-0.3275761,0.06006664,-3.077767,0.62406796,0.0002735675,-0.063764594,0.009265674,0.0007080011,0.015561525,-0.0030729293,0.019524973,0.44344774,-1.463771,2.0011294,-2.1061013,-1.5715779,2.4179647,-0.06578261,0.10425187,-0.123083115,0.028240157,-0.012984436,-0.08520017,-0.38307226,0.11492168,-9.442732,0.7866488,47.701214,-1.2717953,-1.9390199,-3.4094696,-0.085066475,-0.14675969,-0.1408619,27.75,29.0,28.125,31.75,33.75,34.5625
0.14205422,-1.6852536,-0.37539357,-0.70931655,0.012005767,0.043320585,-0.15332396,-0.37753442,-0.32755753,0.06002541,-3.0777175,0.6239653,9.748562e-05,-0.06513582,0.009263973,0.0015364756,0.014448039,-0.0024206198,0.012125773,0.4433151,-1.4634953,2.0009005,-2.1060174,-1.571566,2.4177744,-0.06746445,0.10477982,-0.12586337,0.029428355,-0.012269957,-0.07948135,-0.47884035,0.19153613,-9.500193,0.7597976,47.71823,-1.1328728,-1.8276708,-3.2990232,-0.085601866,-0.156366,-0.16080566,27.75,29.0,28.125,31.75,33.75,34.5625
0.1440543,-1.6215117,-0.22237414,-0.86581576,-0.013584632,0.060111556,-0.16156061,-0.3776815,-0.32752943,0.060037024,-3.0776885,0.6239036,0.00016640457,-0.06605548,0.009813602,0.0014127595,0.015427405,-0.0028281992,0.0070927977,0.44317085,-1.4632913,2.0006378,-2.1059692,-1.5716256,2.4175956,-0.068809465,0.10633621,-0.12751931,0.030316267,-0.012979242,-0.07579105,-0.45968673,0.17238252,-9.615114,0.7597976,47.694946,-1.1402164,-1.7792609,-3.3427043,-0.10348186,-0.17798507,-0.23751572,27.75,29.0,28.125,31.75,33.75,34.5625
0.14605403,-1.921953,-0.783607,-0.73779,-0.02675808,0.07041842,-0.15738739,-0.3778112,-0.3275227,0.06005664,-3.077679,0.62390137,0.00017724233,-0.06691715,0.009885352,0.0015953998,0.015651599,-0.0028274811,0.007425746,0.44305044,-1.4630989,2.0003612,-2.1058848,-1.571638,2.4174752,-0.0695481,0.10759413,-0.12954038,0.031171994,-0.0131863225,-0.07686108,-0.49799395,0.15322891,-9.557653,0.8627467,47.681515,-1.1247447,-1.8382068,-3.3220015,-0.10660866,-0.16876504,-0.22256202,27.75,29.0,28.125,31.75,33.75,34.5625
0.1480542,-1.5226551,-1.2632558,-0.92963463,-0.021139124,0.08539714,-0.1627148,-0.3779474,-0.3274785,0.060036086,-3.0776196,0.6238726,0.00013665984,-0.0683344,0.010314355,0.0020095736,0.015983501,-0.0018544184,0.003224986,0.44287014,-1.4628592,2.0001328,-2.105837,-1.5716742,2.4172847,-0.07109839,0.10859193,-0.13171549,0.03161294,-0.01391103,-0.07420696,-0.57460845,0.15322891,-9.557653,0.80679786,47.684196,-1.1271335,-1.5578732,-3.2826655,-0.11831111,-0.15266362,-0.28953004,27.75,29.0,28.125,31.75,33.75,34.5625
0.15005437,-1.8183215,-0.8166547,-0.9917569,-0.023014419,0.075486965,-0.15994175,-0.37810552,-0.32747898,0.060054757,-3.0776157,0.6239097,0.00017426307,-0.069131285,0.010705273,0.0006746906,0.017604588,-0.004030765,0.0032421509,0.44273758,-1.462618,1.9998101,-2.105777,-1.5716861,2.417176,-0.07214998,0.112843186,-0.13339652,0.03170176,-0.014447138,-0.07527325,-0.61291564,0.22984336,-9.653421,0.7732232,47.72719,-1.1482042,-1.7378331,-3.3859742,-0.11334731,-0.17391673,-0.29456252,27.75,29.0,28.125,31.75,33.75,34.5625
0.15205444,-1.7350984,-1.0546863,-1.1335962,-0.01568363,0.07881382,-0.16170332,-0.37824884,-0.32745492,0.060065538,-3.0776079,0.6238505,0.00019693805,-0.0702517,0.011203103,0.0003504027,0.01808457,-0.0037124208,0.0031175718,0.44258115,-1.4624139,1.9995464,-2.1057174,-1.571711,2.4169838,-0.07366148,0.114553206,-0.13437787,0.030887358,-0.01502393,-0.07665788,-0.49799395,0.28730422,-9.595961,0.76874626,47.72629,-1.1375551,-1.6828151,-3.3830545,-0.105438784,-0.16631445,-0.31547314,27.75,29.0,28.125,31.75,33.75,34.5625
0.15405414,-1.9582728,-0.6520613,-0.74244255,-0.022552446,0.06645587,-0.15967937,-0.3783998,-0.32743952,0.06008484,-3.0775821,0.6238252,0.00025548585,-0.070620686,0.011069823,-0.00046231755,0.01839065,-0.005178507,0.0036058824,0.44244915,-1.4621972,1.9992465,-2.105646,-1.5717582,2.4168396,-0.07394351,0.11727202,-0.13551195,0.03075085,-0.014676672,-0.07742808,-0.7086837,0.34476504,-9.576807,0.7732232,47.689575,-1.1709822,-1.933469,-3.363734,-0.093904465,-0.17489232,-0.30336073,27.75,29.0,28.125,31.75,33.75,34.5625
0.15605442,-1.3704828,-0.6215886,-0.76009715,-0.010135615,0.067346804,-0.16873354,-0.37852925,-0.327406,0.060064208,-3.0775297,0.6238555,0.00019286147,-0.07356465,0.012153837,0.0004596557,0.017670142,-0.0029448655,-0.0007907358,0.44227943,-1.4619576,1.9990181,-2.1055982,-1.571771,2.4166956,-0.078350075,0.11825239,-0.13870864,0.030637797,-0.014995265,-0.07743445,-0.7086837,0.24899697,-9.634268,0.8023209,47.705692,-0.9892812,-1.6795852,-3.2886271,-0.081156805,-0.18044369,-0.35584557,27.75,29.0,28.125,31.75,33.75,34.5625
0.15805466,-0.854515,0.33536658,-0.6536525,-0.023114752,0.069509804,-0.1768585,-0.37870285,-0.32737976,0.060085636,-3.0774992,0.6238275,0.00030504458,-0.074613884,0.010950569,0.0014791631,0.016611338,-0.0009663938,0.0027313274,0.44212386,-1.4617296,1.9987062,-2.10555,-1.571843,2.4165268,-0.07706501,0.11921837,-0.14219943,0.030910203,-0.0148920575,-0.07967017,-0.36391866,0.095768064,-9.519346,0.8291774,47.71554,-1.213428,-1.7786996,-3.3675742,-0.07472457,-0.17436579,-0.34399265,27.75,29.0,28.125,31.75,33.75,34.5625
0.16005386,-1.3913959,-0.10343481,-0.6604779,-0.0049010417,0.048540767,-0.15464947,-0.37884742,-0.3273881,0.060103018,-3.0775006,0.623753,0.000339318,-0.07572097,0.012488219,0.00024008042,0.018674875,-0.0026154984,-0.0008910032,0.4420268,-1.461489,1.9983839,-2.105478,-1.5718673,2.4163833,-0.08011692,0.122108065,-0.14254136,0.030737426,-0.01605255,-0.079096675,-0.2681506,0.17238252,-9.500193,0.779936,47.734352,-1.0394735,-1.805462,-3.3726535,-0.074383944,-0.18229586,-0.38609144,27.75,29.0,28.125,31.75,33.75,34.5625
0.1620541,-0.7037554,0.22210898,-0.5297367,-0.0012217535,0.0536288,-0.16922988,-0.37901232,-0.3273318,0.060096156,-3.0774372,0.6238146,0.00032553633,-0.07715347,0.012706794,0.000263519,0.018597918,-0.0027533246,0.0022598624,0.44179815,-1.4612486,1.9981202,-2.105418,-1.5719026,2.4162014,-0.08183423,0.124293886,-0.1451553,0.031243736,-0.015937496,-0.08396286,-0.34476504,0.15322891,-9.423578,0.7866488,47.717335,-0.82000107,-1.795474,-3.376693,-0.058572568,-0.19342548,-0.38227168,27.75,29.0,28.125,31.75,33.75,34.5625
0.16405435,-0.95744514,-0.41386864,-0.5727094,0.011785204,0.037116256,-0.15960917,-0.37916312,-0.3273095,0.060083088,-3.0774121,0.6237495,0.00027762703,-0.07859857,0.012297334,0.0007544283,0.018482005,-0.0018744441,0.0055068983,0.44163033,-1.4609721,1.9978307,-2.1053584,-1.571915,2.4159963,-0.08212447,0.12634948,-0.1487407,0.03192193,-0.016223019,-0.08749659,-0.30645782,0.15322891,-9.404425,0.7709874,47.716442,-1.0197034,-1.8448997,-3.3570313,-0.054705136,-0.19024837,-0.33489338,27.75,29.0,28.125,31.75,33.75,34.5625
0.16605452,-0.98985696,0.15067263,-0.39591137,0.0001669141,0.027490456,-0.16726872,-0.37929824,-0.32729846,0.060104966,-3.0774312,0.6236762,0.00031626323,-0.07856992,0.013333618,0.00015489169,0.018743739,-0.0042793187,0.0068025305,0.4414974,-1.4607928,1.9975685,-2.1052978,-1.571927,2.4158154,-0.08453348,0.12673208,-0.14809677,0.033170342,-0.0154301245,-0.09120411,-0.28730422,0.15322891,-9.193734,0.800085,47.71823,-0.9534823,-1.7448102,-3.3018913,-0.029389486,-0.20181872,-0.29578117,27.75,29.0,28.125,31.75,33.75,34.5625
0.16805473,-0.8989299,0.42716548,-0.33681735,0.005544831,0.021050762,-0.17184283,-0.37948143,-0.3272674,0.06011139,-3.077376,0.6237006,0.0003692182,-0.079439946,0.013836123,-0.001019154,0.020680778,-0.0071362737,0.010906365,0.44131693,-1.460515,1.9972328,-2.1052372,-1.5719875,2.4156575,-0.08584011,0.13117361,-0.1507114,0.03473989,-0.015969971,-0.0966116,-0.17238252,0.076614454,-9.212888,0.8537928,47.71554,-0.8724543,-2.0051267,-3.164208,-0.061924886,-0.20776068,-0.25994977,27.75,29.0,28.125,31.75,33.75,34.5625
0.17005388,-1.211545,0.17148812,-0.23960896,0.010038626,0.010394613,-0.16022038,-0.37968564,-0.32724905,0.06013536,-3.0773878,0.62364155,0.00046109702,-0.07949239,0.014171632,-0.0024072705,0.022431418,-0.010589603,0.01597448,0.441125,-1.4602389,1.9968613,-2.105189,-1.5720233,2.4154274,-0.08638911,0.13491006,-0.15202829,0.036176126,-0.016080739,-0.10222833,-0.17238252,0.038307227,-9.232041,0.900793,47.72808,-0.9337268,-1.8542938,-3.3134682,-0.071865864,-0.21971782,-0.18372971,27.75,29.0,28.125,31.75,33.75,34.5625
0.17205404,-0.45699534,0.2666213,-0.021633592,0.0023005793,0.037625,-0.16697808,-0.3798256,-0.32721198,0.060129017,-3.0773494,0.6236145,0.00036899836,-0.08167865,0.015436638,-0.0011854648,0.021793699,-0.008733617,0.016328147,0.4409313,-1.4599996,1.9965862,-2.1050808,-1.5720233,2.415222,-0.09049496,0.13411996,-0.15421392,0.03719237,-0.016313268,-0.106685355,-0.22984336,0.076614454,-9.212888,0.8403672,47.721813,-0.66176,-1.9489651,-3.3545384,-0.058698468,-0.21299523,-0.14394695,27.75,29.0,28.125,31.75,33.75,34.5625
0.17405385,-0.4446998,0.46445215,-0.07390674,0.005710607,0.042072665,-0.16956683,-0.3799765,-0.3271769,0.060113702,-3.0772877,0.6235422,0.00033611848,-0.08087945,0.015251728,-0.0020580157,0.023759287,-0.012236223,0.020014897,0.44076395,-1.459723,1.9962987,-2.1050084,-1.5720714,2.4150176,-0.08920571,0.13658491,-0.1556553,0.040164817,-0.01660454,-0.109080836,-0.28730422,0.076614454,-9.097966,0.83589023,47.709274,-0.823707,-1.9517269,-3.327354,-0.08087227,-0.22184107,-0.06947281,27.75,29.0,28.125,31.75,33.75,34.5625
0.176054,-0.8458569,0.62657374,0.22878103,0.0035390407,0.03715498,-0.16739713,-0.38016075,-0.32713073,0.060118917,-3.0772152,0.6234913,0.00038387073,-0.083123624,0.016598295,-0.0015357301,0.023969656,-0.012193691,0.015137856,0.44057038,-1.4594471,1.995962,-2.1049235,-1.5721554,2.4148018,-0.093516834,0.13788137,-0.15873817,0.041991934,-0.016821561,-0.108512595,-0.19153613,0.05746084,-9.021352,0.8224646,47.72719,-0.6932074,-1.8017383,-3.2612958,-0.124379635,-0.22927783,-0.07187635,27.75,29.0,28.125,31.75,33.75,34.5625
0.17805414,-0.6365298,0.62517345,0.33913335,0.006169832,0.04387462,-0.17072617,-0.38030908,-0.32711583,0.060108982,-3.077215,0.623395,0.00031128712,-0.08304063,0.015764188,-0.0012566164,0.024332488,-0.010869286,0.014975628,0.44040325,-1.4591714,1.995663,-2.104852,-1.5721439,2.4145749,-0.09123724,0.13820137,-0.15966997,0.04156613,-0.017723814,-0.10606713,-0.24899697,0.11492168,-8.983045,0.800085,47.729877,-0.7114391,-1.8529701,-3.3004107,-0.121194206,-0.2253922,-0.048159428,27.75,29.0,28.125,31.75,33.75,34.5625
0.1800543,-0.7813846,0.17951769,-0.12047673,0.021120036,0.029464427,-0.15512969,-0.380479,-0.32707223,0.060101748,-3.0771332,0.6233808,0.00029001836,-0.0836935,0.015984176,-0.0010423291,0.023931734,-0.01201643,0.0097642355,0.4402107,-1.4588836,1.9953388,-2.1047552,-1.572203,2.4143841,-0.09274547,0.13909121,-0.16162252,0.043489438,-0.01687873,-0.10236434,-0.3256114,0.1340753,-9.059659,0.8605109,47.701214,-0.8282397,-1.8517272,-3.3407063,-0.14484082,-0.23468363,-0.07574184,27.75,29.0,28.125,31.75,33.75,34.5625
0.1820544,-0.49353164,0.38090616,-0.113887146,0.020689156,0.029460339,-0.15458293,-0.38067496,-0.3270366,0.060124226,-3.0771148,0.6233982,0.00035256107,-0.08480146,0.015310363,-0.0005410396,0.023529978,-0.011761522,0.006341186,0.4399948,-1.4586315,1.9949917,-2.1046836,-1.5722393,2.4141817,-0.092581704,0.14111537,-0.16534181,0.04478082,-0.01662737,-0.09877649,-0.22984336,0.1340753,-9.021352,0.7933669,47.69763,-0.8854834,-1.7965168,-3.3465643,-0.15354642,-0.26185665,-0.122776225,27.75,29.0,28.125,31.75,33.75,34.5625
0.18405434,-0.4459625,0.4533378,-0.20067136,0.0146456985,0.026183316,-0.15987463,-0.380839,-0.32700735,0.060115676,-3.077056,0.6233106,0.00031799526,-0.083438925,0.01586227,-0.0013414571,0.025317615,-0.015299398,0.0032440329,0.4398269,-1.4583318,1.9946569,-2.1045864,-1.572287,2.413967,-0.09228871,0.14133857,-0.16443972,0.047616806,-0.016736172,-0.09538636,-0.24899697,-0.019153614,-9.155427,0.8291774,47.707485,-0.8950848,-1.7591305,-3.3761902,-0.19627163,-0.26042682,-0.1503141,27.75,29.0,28.125,31.75,33.75,34.5625
0.18605378,-0.020428097,0.071300246,-0.17827082,0.013336067,0.037103947,-0.16062905,-0.38102293,-0.3269828,0.0601274,-3.0770106,0.62336034,0.000308305,-0.084411174,0.01591889,-0.0013878925,0.026343992,-0.01576525,-0.000351463,0.43963483,-1.4580432,1.9942855,-2.1044781,-1.5723118,2.413812,-0.09270971,0.14368638,-0.16728231,0.048972838,-0.017473377,-0.09220799,-0.2681506,0.019153614,-9.11712,0.80679786,47.713753,-0.88978815,-1.9312513,-3.3683443,-0.24777624,-0.2531883,-0.22837341,27.75,29.0,28.125,31.75,33.75,34.5625
0.18805379,-0.51009214,0.09098375,-0.39490268,0.0011345525,0.025872894,-0.16530022,-0.38116485,-0.32692155,0.060095884,-3.0768926,0.62337434,0.00016286687,-0.085963525,0.0153214345,-0.0012782657,0.025933264,-0.013441571,0.00036904425,0.43941888,-1.4577554,1.9940089,-2.104348,-1.5723475,2.41362,-0.09248943,0.14595182,-0.16956761,0.046709504,-0.01811939,-0.092701815,-0.05746084,0.076614454,-9.155427,0.8023209,47.70032,-0.98842305,-1.7319617,-3.271937,-0.22695786,-0.2652401,-0.22202495,27.75,29.0,28.125,31.75,33.75,34.5625
0.19005391,-0.34308732,-0.15481615,-0.47960985,-0.009241184,0.030697195,-0.15732546,-0.38133344,-0.32689825,0.060092937,-3.0768507,0.6232908,0.00013426795,-0.08669179,0.015376435,-0.00029206582,0.025054311,-0.012802161,-0.0038425722,0.4392506,-1.4574562,1.9936618,-2.1042511,-1.5723838,2.4134052,-0.09353422,0.14519444,-0.17140023,0.048344705,-0.017600385,-0.08953512,-0.05746084,0.15322891,-9.270349,0.83365434,47.698532,-1.0263917,-1.6845047,-3.3533702,-0.25426376,-0.27640826,-0.3078454,27.75,29.0,28.125,31.75,33.75,34.5625
0.19205406,-0.20253292,-0.5175077,-0.73816437,-0.0030291341,0.02026488,-0.16170444,-0.38149723,-0.32686415,0.060072485,-3.0767617,0.6232321,8.156933e-05,-0.08625012,0.016044222,-0.0014715599,0.027345292,-0.015801061,-0.0020868706,0.4390824,-1.457132,1.993327,-2.1041548,-1.5724438,2.413212,-0.093804084,0.14732172,-0.17146888,0.049965262,-0.018409828,-0.09155705,0.0,0.15322891,-9.346964,0.842603,47.692257,-1.0706267,-1.6663077,-3.3549817,-0.28619373,-0.2704943,-0.33709556,27.75,29.0,28.125,31.75,33.75,34.5625
0.19405435,-0.38973016,-0.2975961,-0.94679576,-0.020521434,0.005451917,-0.1644268,-0.38166183,-0.32683662,0.060067244,-3.0766895,0.623278,1.3273628e-05,-0.08805081,0.016195528,-0.0007951657,0.027194789,-0.014096822,-0.0075293416,0.43890193,-1.456832,1.9929789,-2.1040351,-1.5724682,2.4130697,-0.09522512,0.14854155,-0.17444856,0.05012296,-0.019009292,-0.08753078,-0.019153614,0.3256114,-9.481039,0.8291774,47.67166,-0.97341573,-1.6694305,-3.3033328,-0.32759672,-0.2808941,-0.40308392,27.75,29.0,28.125,31.75,33.75,34.5625
0.19605455,-0.58550876,-0.7779557,-1.1035148,-0.021571225,-0.0065720906,-0.15650618,-0.38186496,-0.32679102,0.060085513,-3.0766256,0.6233033,7.79378e-05,-0.089224994,0.016175069,-0.0022930235,0.02753441,-0.016387956,-0.008167195,0.43868554,-1.456555,1.992608,-2.1039402,-1.5725397,2.4128776,-0.09660229,0.15379609,-0.1767106,0.04933482,-0.018356612,-0.088269725,0.038307227,0.3256114,-9.5385,0.91421866,47.686886,-0.97559214,-1.6732209,-3.3826284,-0.33073077,-0.28807682,-0.43547478,27.75,29.0,28.125,31.75,33.75,34.5625
0.19805402,0.09155484,-0.98176974,-1.242422,-0.04161702,0.016206637,-0.16130693,-0.38204747,-0.3267506,0.060051486,-3.0765226,0.6232607,-2.7671751e-05,-0.09028702,0.015792836,-0.00074825564,0.025961878,-0.012533558,-0.005372746,0.4384817,-1.4561722,1.9922365,-2.1038325,-1.5725883,2.4126606,-0.09660881,0.1517979,-0.17785025,0.04830244,-0.018594341,-0.09106732,0.038307227,0.34476504,-9.653421,0.8627467,47.713753,-1.1016102,-1.6046735,-3.4063194,-0.34937686,-0.27519044,-0.45953152,27.75,29.0,28.125,31.75,33.75,34.5625
0.20005427,-0.02175273,-1.398102,-1.3940259,-0.05129897,0.030865224,-0.1611101,-0.38220516,-0.3267263,0.060048033,-3.0764942,0.62327117,-0.0001158198,-0.09160459,0.015672555,-0.0011202099,0.026166007,-0.011732677,5.1277915e-05,0.43828937,-1.4558957,1.9919127,-2.1037252,-1.5725764,2.4124787,-0.0971257,0.15451263,-0.1797102,0.046796605,-0.019145818,-0.09700363,0.0,0.2681506,-9.672575,0.9410752,47.723602,-1.0401042,-1.766752,-3.4384573,-0.34378138,-0.30004323,-0.4546762,27.75,29.0,28.125,31.75,33.75,34.5625
0.20205435,-0.36339924,-1.0224369,-1.6787852,-0.06160402,0.033442345,-0.16906878,-0.3823861,-0.32668054,0.06004954,-3.0764053,0.62325215,-0.00015451433,-0.09343376,0.016442811,-0.0024026989,0.026152018,-0.012908836,0.001874363,0.43808427,-1.455595,1.9915427,-2.1035821,-1.5726355,2.4122734,-0.1004403,0.1587882,-0.18115912,0.045007035,-0.018661637,-0.102139585,0.038307227,0.28730422,-9.844957,0.8023209,47.69763,-1.0311192,-1.8243227,-3.4987714,-0.34538108,-0.3093186,-0.41787294,27.75,29.0,28.125,31.75,33.75,34.5625
0.20405425,-0.42610928,-1.3221955,-1.3831948,-0.0611677,0.044528946,-0.16442774,-0.38257626,-0.32665697,0.06004826,-3.0763953,0.62314737,-9.508479e-05,-0.0934786,0.014904478,-0.0029797645,0.025913324,-0.012829908,0.012265186,0.4379052,-1.4552941,1.991206,-2.1035588,-1.5726837,2.4120305,-0.097664304,0.16179354,-0.18288839,0.043533202,-0.0185015,-0.10975342,0.019153614,0.3256114,-9.864111,0.8247004,47.672558,-1.1675302,-1.9282587,-3.4594464,-0.3491671,-0.30406016,-0.37980562,27.75,29.0,28.125,31.75,33.75,34.5625
0.20605431,-0.36053607,-1.0632156,-1.4067849,-0.060165495,0.055462107,-0.16888168,-0.3827973,-0.32664686,0.06008383,-3.0764048,0.62312853,-5.4397184e-05,-0.09686257,0.015445137,-0.0021893154,0.024201278,-0.009603571,0.015387214,0.43769997,-1.4549822,1.9907507,-2.10344,-1.5726956,2.4118125,-0.10168142,0.16369365,-0.18639117,0.0414671,-0.018344225,-0.116890796,-0.095768064,0.30645782,-9.768343,0.8403672,47.66987,-1.1555529,-2.0063136,-3.3867364,-0.33562005,-0.3344887,-0.27799603,27.75,29.0,28.125,31.75,33.75,34.5625
0.2080547,-0.49862927,-1.1334113,-1.4802318,-0.03491529,0.058044672,-0.1595665,-0.38295946,-0.32660985,0.06004806,-3.0763206,0.6230296,-0.0001461889,-0.09765016,0.014081383,-0.0020306304,0.023330055,-0.007977553,0.02244071,0.43752056,-1.4546342,1.9904269,-2.1033566,-1.5727438,2.4115825,-0.09982491,0.16579969,-0.18879543,0.03990284,-0.018277785,-0.12208408,-0.05746084,0.36391866,-9.730036,0.9030289,47.698532,-1.1304221,-1.9459081,-3.4876974,-0.31425744,-0.3494997,-0.24320687,27.75,29.0,28.125,31.75,33.75,34.5625
0.21005386,-0.724657,-0.8162684,-1.6463279,-0.026615024,0.04914731,-0.16978477,-0.38317636,-0.32657838,0.060056895,-3.076308,0.62292963,-8.9055415e-05,-0.09881906,0.014730921,-0.0022749011,0.02355419,-0.0069656535,0.02381692,0.437304,-1.4543105,1.990033,-2.103297,-1.5727924,2.4113054,-0.1015618,0.16685733,-0.18910117,0.0383148,-0.018921498,-0.12519467,-0.15322891,0.38307226,-9.80665,0.84484416,47.751366,-1.1981025,-1.9565182,-3.4380755,-0.2874638,-0.33451372,-0.172227,27.75,29.0,28.125,31.75,33.75,34.5625
0.21205406,-0.61951977,-0.6732745,-1.3851862,-0.04463046,0.063826405,-0.16636398,-0.38335967,-0.32654008,0.06005358,-3.0762768,0.6228473,-0.00012818516,-0.09973585,0.014869395,-0.0030935013,0.023981385,-0.007196077,0.023138339,0.43708768,-1.4540102,1.9896849,-2.1032016,-1.5728163,2.411042,-0.10235897,0.16964021,-0.1900362,0.036850486,-0.019226031,-0.12531012,-0.24899697,0.36391866,-9.787497,0.82694155,47.716442,-1.1456828,-1.8597865,-3.5025625,-0.25372466,-0.36713293,-0.14867988,27.75,29.0,28.125,31.75,33.75,34.5625
0.21405391,-1.2351713,-0.9743888,-1.3048525,-0.043838315,0.060741443,-0.15399778,-0.3835404,-0.32651302,0.060041547,-3.0762424,0.6227858,-0.00016539147,-0.10279337,0.015083748,-0.0005388338,0.021257231,-0.001420876,0.017100416,0.43689469,-1.4536872,1.9893368,-2.1031306,-1.5728401,2.4108152,-0.10538106,0.16756737,-0.19342586,0.035927963,-0.019214215,-0.12229173,-0.4213795,0.30645782,-9.749189,0.87393653,47.703007,-1.164362,-1.8308104,-3.4893637,-0.24493496,-0.37959224,-0.16792351,27.75,29.0,28.125,31.75,33.75,34.5625
0.21605423,-1.4920167,-1.0208082,-1.177723,-0.043064453,0.06690553,-0.1505852,-0.38374645,-0.32651356,0.06004651,-3.0762613,0.62261796,-0.00010396277,-0.10324842,0.013976706,-0.00047063464,0.021327559,-0.0007114198,0.014571281,0.4367393,-1.4533393,1.9889301,-2.1030948,-1.5728763,2.410553,-0.103415795,0.16964814,-0.19590649,0.035719287,-0.019574456,-0.11779491,-0.51714754,0.2681506,-9.595961,0.8627467,47.709274,-1.1734202,-1.8403013,-3.5967484,-0.22705397,-0.36889958,-0.19885203,27.75,29.0,28.125,31.75,33.75,34.5625
0.21805398,-1.3090413,-0.3815037,-0.84935516,-0.047378223,0.07781317,-0.1624729,-0.3839742,-0.32646766,0.06004173,-3.0761752,0.6227764,-9.3301016e-05,-0.10498042,0.0151855135,-0.001140306,0.02144232,-0.0010747467,0.0065792804,0.43648624,-1.4529788,1.9885234,-2.1030228,-1.572924,2.4104102,-0.10713458,0.17200376,-0.19680944,0.03464407,-0.019526886,-0.11352031,-0.57460845,0.095768064,-9.481039,0.8985519,47.72808,-1.2471693,-1.9681098,-3.5594337,-0.20066842,-0.40226656,-0.23843792,27.75,29.0,28.125,31.75,33.75,34.5625
0.2200541,-1.1734167,0.13153659,-0.70296586,-0.021863047,0.08183925,-0.15984015,-0.38418737,-0.3264562,0.060063742,-3.0762022,0.62259007,-5.4805314e-05,-0.105989546,0.014293587,-3.551342e-05,0.019938875,0.0020965505,0.0060030394,0.43629456,-1.4526557,1.9880913,-2.102928,-1.5729483,2.410099,-0.10629703,0.17159751,-0.19865441,0.033382762,-0.019509027,-0.11210566,-0.51714754,0.076614454,-9.519346,0.8627467,47.719128,-1.1513274,-1.8276486,-3.4990237,-0.15199499,-0.42241883,-0.2944493,27.75,29.0,28.125,31.75,33.75,34.5625
0.22205491,-0.96846735,0.6091729,-0.5539939,0.0065487213,0.08672314,-0.16570835,-0.38438606,-0.32642433,0.060062073,-3.076194,0.62257004,-1.8566961e-05,-0.1080305,0.0147144515,0.0010630789,0.019714851,0.004668993,0.0039390437,0.43607783,-1.4523559,1.9877557,-2.102904,-1.5729727,2.409871,-0.108199015,0.17187156,-0.20157346,0.033598296,-0.020398075,-0.11193944,-0.51714754,-0.038307227,-9.461885,0.96569055,47.72002,-1.1530325,-1.8212168,-3.5274186,-0.12128955,-0.41558596,-0.32164887,27.75,29.0,28.125,31.75,33.75,34.5625
0.22405401,-1.0983112,0.9476217,-0.5095204,0.036550384,0.07339471,-0.16447964,-0.38462272,-0.32639325,0.06006269,-3.0761726,0.62260514,4.2685897e-05,-0.10964689,0.0152561255,0.001480231,0.020386798,0.004331707,0.0012154839,0.4358371,-1.4519958,1.9873475,-2.1028793,-1.5730084,2.4096553,-0.11022417,0.17381367,-0.20528717,0.03595406,-0.020864496,-0.11123833,-0.6703765,-0.019153614,-9.3661175,0.92093146,47.71554,-1.1114587,-1.7359154,-3.4430404,-0.0911569,-0.44013974,-0.3458724,27.75,29.0,28.125,31.75,33.75,34.5625
0.22605444,-1.2329187,1.2610692,-0.4461643,0.058944546,0.05849419,-0.15749843,-0.38487667,-0.3263657,0.060071006,-3.0761368,0.62273204,5.148265e-05,-0.11132851,0.015544475,0.002376388,0.019814564,0.0056472286,0.0011801986,0.4355725,-1.4516008,1.9868687,-2.102795,-1.5730208,2.4094748,-0.11210403,0.17434524,-0.20821403,0.03690415,-0.020909484,-0.11308141,-0.63206923,-0.076614454,-9.404425,0.8851263,47.705692,-1.0679895,-1.5816576,-3.4438877,-0.06540487,-0.4556566,-0.37104037,27.75,29.0,28.125,31.75,33.75,34.5625
0.2280544,-0.9361844,1.4405146,-0.64015406,0.0602281,0.06357232,-0.16414157,-0.38510376,-0.3263318,0.060094796,-3.076102,0.6226683,0.00017201997,-0.111745514,0.017020361,0.0016952456,0.021978844,0.0029567478,-0.0019864417,0.4353676,-1.4512889,1.9864501,-2.1027224,-1.5731052,2.409235,-0.114589505,0.17594361,-0.20907657,0.03951168,-0.021728657,-0.11239837,-0.61291564,-0.11492168,-9.3661175,0.92093146,47.703903,-0.97749627,-1.5563114,-3.4792793,-0.076850474,-0.4557212,-0.39894074,27.75,29.0,28.125,31.75,33.75,34.5625
0.23005448,-1.0693303,0.9423039,-0.65873563,0.051488392,0.06689873,-0.1624453,-0.3852954,-0.32631156,0.060076896,-3.076068,0.6226189,7.833789e-05,-0.11240955,0.017830776,0.001743498,0.023726393,0.0018140452,0.0039353147,0.43516326,-1.4509172,1.9860543,-2.1026251,-1.5731057,2.4090044,-0.11585475,0.17711343,-0.2111579,0.04217746,-0.022852719,-0.119579576,-0.49799395,-0.19153613,-9.308657,0.8314132,47.719128,-0.9038975,-1.5410194,-3.364575,-0.06682588,-0.44205338,-0.38663352,27.75,29.0,28.125,31.75,33.75,34.5625
0.23205464,-1.2987269,0.24686989,-0.7320556,0.039793696,0.078587264,-0.1602541,-0.3855353,-0.3262449,0.060082894,-3.0759954,0.62260276,0.00014063607,-0.11519564,0.018213252,0.0026277357,0.024409687,0.0051838504,0.0068970923,0.43488666,-1.450581,1.9856466,-2.1025422,-1.5731901,2.4087274,-0.117526874,0.1790729,-0.21527915,0.04155002,-0.024914581,-0.12420378,-0.5554548,-0.17238252,-9.404425,0.84484416,47.683304,-0.8571365,-1.5018659,-3.2442248,-0.04309693,-0.4615838,-0.3184162,27.75,29.0,28.125,31.75,33.75,34.5625
0.23405364,-1.6815122,0.19254842,-0.7954096,0.033714958,0.080037884,-0.15567434,-0.38577157,-0.3262046,0.06009809,-3.0759454,0.6225294,0.00016220585,-0.11628198,0.018513797,0.0020111555,0.026784293,0.0033422783,0.014037064,0.43464655,-1.45022,1.9851788,-2.1024091,-1.5732507,2.4084482,-0.11801338,0.18320318,-0.21905331,0.043835357,-0.026314579,-0.13182294,-0.57460845,-0.1340753,-9.442732,0.82694155,47.723602,-0.86322856,-1.6551526,-3.3079147,-0.042296614,-0.44480827,-0.26859957,27.75,29.0,28.125,31.75,33.75,34.5625
0.23605378,-1.4673078,0.35995242,-0.7077058,0.0144316545,0.09380062,-0.16031428,-0.38598824,-0.32616815,0.060093407,-3.075888,0.62241703,0.00015197668,-0.11591309,0.018863164,-0.00027471033,0.030001162,-0.0021343383,0.02139171,0.43443072,-1.4498467,1.9847482,-2.1023004,-1.5733112,2.40817,-0.11784525,0.188889,-0.22075164,0.046138715,-0.02694824,-0.1390049,-0.45968673,-0.038307227,-9.346964,0.8873621,47.701214,-0.9348065,-1.7672628,-3.2531123,-0.053346284,-0.43734807,-0.19599567,27.75,29.0,28.125,31.75,33.75,34.5625
0.23805359,-1.1857831,-0.0054024425,-0.7171532,0.00730764,0.098965295,-0.1688895,-0.3862017,-0.326143,0.06008693,-3.0758595,0.62235427,0.00012594319,-0.115488,0.01965587,-0.0004457814,0.031362854,-0.003120898,0.02142825,0.4342144,-1.4494759,1.9843296,-2.102216,-1.573335,2.4079185,-0.11832,0.18824537,-0.22001538,0.047506616,-0.027773116,-0.13951339,-0.47884035,0.095768064,-9.308656,0.8851263,47.716442,-1.0511785,-1.7117591,-3.2766542,-0.042693134,-0.45037165,-0.117705226,27.75,29.0,28.125,31.75,33.75,34.5625
0.24005459,-0.8267721,-0.065447435,-0.6541074,-0.004914012,0.100922085,-0.17161138,-0.38643283,-0.32610005,0.060079437,-3.0758069,0.62226593,0.00013438547,-0.11627941,0.020250691,-0.00081748224,0.031915244,-0.0038175946,0.02088947,0.433974,-1.4490921,1.9838995,-2.1021335,-1.5733951,2.40763,-0.11987839,0.1898158,-0.2210586,0.047826897,-0.02799377,-0.14053066,-0.59376204,0.15322891,-9.308656,0.83589023,47.694946,-1.0788171,-1.7416553,-3.419409,-0.035629597,-0.41976857,-0.071528316,27.75,29.0,28.125,31.75,33.75,34.5625
0.24205376,-0.93196476,-0.30704445,-0.8700644,-0.0032673867,0.07322049,-0.16173479,-0.3867006,-0.3260355,0.060082298,-3.0757236,0.6222498,0.00020728393,-0.1158102,0.019975469,-0.00097643095,0.033770114,-0.0037587802,0.018953048,0.43368664,-1.4486965,1.9834317,-2.102049,-1.5734924,2.4073436,-0.11772831,0.19041634,-0.22157654,0.048467208,-0.029699702,-0.13643782,-0.36391866,0.24899697,-9.385271,0.83813137,47.71554,-1.0782367,-1.7474852,-3.5089474,-0.024950176,-0.41667277,-0.12610143,27.75,29.0,28.125,31.75,33.75,34.5625
0.244054,0.15448776,-0.44938514,-0.9015693,-0.0036098324,0.05815415,-0.1643243,-0.3869471,-0.32599205,0.060103048,-3.0756598,0.62216586,0.00029128967,-0.117847785,0.022938902,-0.0018318979,0.03733348,-0.0049692965,0.0087097455,0.43345675,-1.4483355,1.9829534,-2.1019285,-1.5735892,2.40707,-0.12309858,0.19283064,-0.22266091,0.04973742,-0.03241926,-0.1315547,-0.21068975,0.24899697,-9.289503,0.92764956,47.698532,-0.9411675,-1.8684218,-3.5510569,-0.025686782,-0.395797,-0.17635036,27.75,29.0,28.125,31.75,33.75,34.5625
0.24605386,0.31058064,-0.4817783,-0.62011635,-0.02400599,0.037652675,-0.1627118,-0.38716593,-0.32593736,0.060086165,-3.0755706,0.62218636,0.0002693649,-0.11754452,0.022764016,-0.0024678276,0.039521594,-0.0062088985,0.0060672224,0.4332057,-1.4479642,1.9825577,-2.101844,-1.5736493,2.4068434,-0.12145244,0.19491725,-0.22386536,0.050901733,-0.033888947,-0.12725832,-0.15322891,0.28730422,-9.270349,0.8806493,47.66808,-1.0461221,-1.7358186,-3.4696007,-0.018568942,-0.35990542,-0.22030143,27.75,29.0,28.125,31.75,33.75,34.5625
0.2480549,0.0643834,-1.0690318,-0.6712184,-0.022087691,0.014972282,-0.15207043,-0.3874041,-0.32589915,0.060094118,-3.0755174,0.6221203,0.00032016807,-0.11873106,0.022990325,-0.0017555015,0.04030742,-0.005216175,0.0016760697,0.43297726,-1.4475927,1.9821023,-2.1017482,-1.5737222,2.406581,-0.1220593,0.19565272,-0.22673976,0.0524686,-0.0350201,-0.12346842,-0.15322891,0.30645782,-9.308657,0.8627467,47.701214,-0.99610054,-1.7209046,-3.4881625,-0.010602346,-0.32032573,-0.28417647,27.75,29.0,28.125,31.75,33.75,34.5625
0.25005433,0.60951555,-1.2009431,-0.86133265,-0.010440143,0.017355788,-0.15558025,-0.3876557,-0.32584855,0.06008236,-3.0754075,0.6220786,0.00035443436,-0.11924561,0.02297911,-0.0016985481,0.041624002,-0.0065770256,-0.00097077776,0.43273747,-1.4471607,1.981624,-2.1016514,-1.57383,2.4063296,-0.121974304,0.1977024,-0.22989434,0.05535085,-0.035650425,-0.120731376,-0.15322891,0.36391866,-9.212888,0.83813137,47.70032,-1.1052481,-1.6714994,-3.4634523,-0.037536684,-0.30172777,-0.36110887,27.75,29.0,28.125,31.75,33.75,34.5625
0.25205454,0.62128407,-0.6912988,-0.6675995,-0.010984491,0.0123654585,-0.16063982,-0.38791248,-0.3258019,0.060093224,-3.0753548,0.62210846,0.0003795936,-0.11942078,0.023161257,-0.0017563765,0.042152744,-0.009063365,-0.0044187102,0.4324609,-1.4467769,1.9811448,-2.1015427,-1.5738777,2.4060788,-0.12273747,0.19920626,-0.23227765,0.05870088,-0.035088252,-0.11804758,0.038307227,0.36391866,-9.155427,0.80679786,47.672558,-1.0370373,-1.7136052,-3.4493823,-0.06694257,-0.28991252,-0.408665,27.75,29.0,28.125,31.75,33.75,34.5625
0.25405458,0.33734027,-0.61301935,-0.63729113,-0.015131568,-0.0015471075,-0.1575153,-0.38816145,-0.32576022,0.060117602,-3.075278,0.62217087,0.0004944844,-0.1202187,0.02412421,-0.002318893,0.042390857,-0.012536314,-0.008931786,0.43223214,-1.4464285,1.980677,-2.1014454,-1.5739731,2.4058993,-0.12594281,0.20162743,-0.23444329,0.061679576,-0.033848,-0.11674439,0.019153614,0.34476504,-9.289502,0.91198283,47.689575,-1.1352062,-1.7387799,-3.3950543,-0.09899687,-0.2798355,-0.48366338,27.75,29.0,28.125,31.75,33.75,34.5625
0.25605455,0.3835223,-0.5360737,-0.38659096,-0.011661195,-0.0009441019,-0.15548481,-0.38837373,-0.3256975,0.060074806,-3.0751278,0.6221946,0.000282655,-0.121717036,0.022701006,-0.00071324507,0.04225334,-0.010325682,-0.0043074735,0.4319569,-1.445973,1.9802212,-2.1012528,-1.5740093,2.4056585,-0.123946674,0.20322256,-0.24053857,0.06409527,-0.034692664,-0.119360104,-0.019153614,0.34476504,-9.232041,0.8784135,47.672558,-1.0571,-1.6841348,-3.2438405,-0.13788599,-0.25219965,-0.52948225,27.75,29.0,28.125,31.75,33.75,34.5625
0.25805393,0.7524686,-0.1613529,-0.4909085,0.0019528673,0.002282118,-0.1591958,-0.38862866,-0.32567123,0.060088553,-3.075094,0.62208664,0.00032108263,-0.12320972,0.022857537,-0.0004187147,0.04285324,-0.010844679,0.002313948,0.43172842,-1.4455645,1.9797047,-2.101133,-1.5740694,2.4053674,-0.12518996,0.20573048,-0.244609,0.066338986,-0.03504976,-0.12722121,0.05746084,0.3256114,-9.078813,0.8672237,47.705692,-1.0861725,-1.8231702,-3.176547,-0.17682676,-0.23789516,-0.50989944,27.75,29.0,28.125,31.75,33.75,34.5625
0.260054,1.0475323,0.034490284,-0.81337357,0.016174674,0.0034787508,-0.16469258,-0.38886952,-0.32561,0.060067084,-3.0749786,0.62209827,0.00030424466,-0.12344072,0.023845496,-0.0012654748,0.043734435,-0.013578171,0.008156857,0.4314637,-1.4451449,1.9792618,-2.1010363,-1.5741538,2.4051251,-0.12732925,0.20741978,-0.24497981,0.06782241,-0.034740236,-0.13520221,0.15322891,0.40222588,-9.155427,0.83589023,47.73525,-1.0371966,-1.8618572,-3.1406004,-0.19167271,-0.223365,-0.42217618,27.75,29.0,28.125,31.75,33.75,34.5625
0.2620538,0.32429382,-0.22810641,-0.7880679,0.00745281,-0.002287327,-0.16296902,-0.38912275,-0.325568,0.060069274,-3.074905,0.6220565,0.00025462772,-0.12390137,0.023658397,-0.00029831502,0.04327067,-0.0120057715,0.02014348,0.43119976,-1.4447141,1.9787358,-2.100869,-1.5742015,2.404845,-0.12708825,0.20635197,-0.24622162,0.06845261,-0.03502413,-0.14694418,0.19153613,0.30645782,-9.251195,0.80679786,47.72719,-1.0840923,-1.617486,-3.2803967,-0.24161878,-0.19580352,-0.30539685,27.75,29.0,28.125,31.75,33.75,34.5625
0.26405466,0.02159421,-0.905578,-0.47120398,-0.01822041,0.015941966,-0.16829157,-0.38935357,-0.32549998,0.06003902,-3.0747724,0.62198645,0.00013456961,-0.1238944,0.024520451,-0.0012597899,0.04534363,-0.0156778,0.025641927,0.43092346,-1.4442703,1.978269,-2.1007001,-1.574274,2.4045424,-0.12832566,0.20889227,-0.247639,0.0714883,-0.035416856,-0.1536732,0.038307227,0.3256114,-9.193734,0.8627467,47.72002,-1.0717466,-1.6216154,-3.3902493,-0.2642948,-0.18050301,-0.23198259,27.75,29.0,28.125,31.75,33.75,34.5625
0.2660546,-0.4447423,-0.60039836,-0.25690576,-0.049693648,0.03287446,-0.15593974,-0.3895881,-0.3254554,0.06004764,-3.0747087,0.6218576,0.00016390008,-0.12471825,0.02467329,-0.0014642109,0.044337045,-0.015092244,0.02770154,0.43069494,-1.4438984,1.9778026,-2.1005695,-1.5743574,2.404242,-0.12964988,0.20971774,-0.24779403,0.0698297,-0.03477286,-0.15705805,-0.05746084,0.24899697,-9.174581,0.8784135,47.699425,-1.0085223,-1.6108584,-3.4935653,-0.31104746,-0.18026379,-0.15626356,27.75,29.0,28.125,31.75,33.75,34.5625
0.2680546,-0.013123846,-0.68496263,-0.650841,-0.026665265,0.0534317,-0.16478308,-0.38982898,-0.3254239,0.060040604,-3.0746403,0.6217296,5.7812915e-05,-0.12597853,0.024929954,-0.0018776987,0.043265585,-0.014726625,0.02537089,0.43045405,-1.4434427,1.9772638,-2.1003783,-1.5743936,2.4039304,-0.13163117,0.21150622,-0.24852605,0.06797858,-0.03398134,-0.15670739,-0.019153614,0.095768064,-9.270349,0.8851263,47.691364,-0.99853575,-1.5960805,-3.4821568,-0.30679885,-0.16422854,-0.11960043,27.75,29.0,28.125,31.75,33.75,34.5625
0.2700547,-0.18744747,-0.076019354,-0.67488956,-0.016658401,0.05056983,-0.16186152,-0.39009237,-0.3253689,0.060026802,-3.074554,0.62169766,0.00011174172,-0.12731753,0.024817262,-0.0024857107,0.043116864,-0.015275487,0.016046932,0.43018973,-1.4430104,1.9767965,-2.1003182,-1.574489,2.4036577,-0.13270831,0.215047,-0.25107247,0.06742856,-0.033613313,-0.14845936,-0.17238252,0.0,-9.289502,0.9835985,47.71554,-0.980045,-1.6495878,-3.5437655,-0.30673602,-0.14609739,-0.20605356,27.75,29.0,28.125,31.75,33.75,34.5625
0.27205378,-0.13891855,-0.00028999723,-0.48405504,-0.004964863,0.061582826,-0.15758324,-0.39033154,-0.32532844,0.060017787,-3.074495,0.62161106,1.0296205e-05,-0.12947887,0.023868805,-0.0026091496,0.04146152,-0.012611299,0.009984645,0.42992592,-1.4425781,1.9762939,-2.1001527,-1.5745128,2.4033477,-0.13294712,0.21853018,-0.25395334,0.06372415,-0.033239566,-0.14263147,-0.36391866,-0.038307227,-9.270349,0.9231726,47.71286,-1.0740118,-1.8979496,-3.511486,-0.3048272,-0.1474252,-0.28487322,27.75,29.0,28.125,31.75,33.75,34.5625
0.27405408,-0.8096346,0.36714858,-0.7060821,0.0076071117,0.054600064,-0.16049986,-0.39057454,-0.32527444,0.06001019,-3.0744066,0.6215364,1.1136555e-05,-0.13179125,0.023033695,-0.0016958552,0.038636573,-0.007258717,0.0073217954,0.4296737,-1.4421704,1.9758266,-2.1000345,-1.5745968,2.4030607,-0.13348296,0.2190453,-0.25559255,0.058792815,-0.032925334,-0.14050199,-0.45968673,0.038307227,-9.193734,0.8985519,47.737934,-0.95736146,-1.7551687,-3.6566517,-0.2402825,-0.14591897,-0.31596345,27.75,29.0,28.125,31.75,33.75,34.5625
0.2760543,-1.1076597,0.18186207,-0.9161214,0.01736653,0.060005546,-0.15400492,-0.39083079,-0.32523692,0.0599968,-3.0743458,0.6214469,-6.470558e-05,-0.13440377,0.022815261,-0.0010023481,0.036569677,-0.005263131,0.0049048886,0.429409,-1.4417025,1.9752988,-2.099891,-1.5746325,2.4027483,-0.13587235,0.22130513,-0.25961185,0.057860345,-0.031905364,-0.14047381,-0.4405331,0.05746084,-9.346964,0.87393653,47.709274,-1.1082146,-1.8473799,-3.53168,-0.20332517,-0.14344859,-0.34847146,27.75,29.0,28.125,31.75,33.75,34.5625
0.2780546,-1.4430076,-0.48045963,-0.8935649,0.012290223,0.08222294,-0.15107815,-0.39109576,-0.3251888,0.059985712,-3.0742493,0.6215031,-8.8940105e-05,-0.13490081,0.021381563,-0.0007706205,0.03526657,-0.00418463,0.0063096522,0.42913356,-1.4412464,1.9747843,-2.0997717,-1.5746926,2.402521,-0.13400503,0.2229699,-0.2619069,0.056950144,-0.031188821,-0.14001112,-0.7469909,0.21068975,-9.404425,0.89631605,47.71286,-1.0969565,-1.9398547,-3.4740534,-0.20138559,-0.14415026,-0.38304526,27.75,29.0,28.125,31.75,33.75,34.5625
0.28005382,-1.4641511,-0.56943315,-0.98933357,-0.025789598,0.109387204,-0.15805887,-0.3913473,-0.32513404,0.059969287,-3.074166,0.6214266,-0.00014298223,-0.13667294,0.021054097,0.000100662786,0.033850525,-0.001699319,0.0072573107,0.4288572,-1.4408032,1.9742936,-2.0996406,-1.5747522,2.4022079,-0.13494554,0.22373714,-0.26465917,0.056060772,-0.03096523,-0.1418962,-0.8810662,0.24899697,-9.442732,0.86945957,47.684196,-1.1450329,-1.9513426,-3.5462146,-0.17010008,-0.14080898,-0.3978696,27.75,29.0,28.125,31.75,33.75,34.5625
0.28205398,-2.3113987,-1.6681145,-0.9513985,-0.050474867,0.11975678,-0.16001731,-0.39164338,-0.32509324,0.05998138,-3.0741284,0.62137705,-8.894808e-05,-0.13782613,0.02060588,0.00092013413,0.03262887,0.0004270991,0.012721685,0.42856932,-1.4403481,1.9737295,-2.0995328,-1.5748123,2.4018943,-0.13510287,0.2239041,-0.26667798,0.055429164,-0.03076558,-0.14751793,-0.82360536,0.2681506,-9.519346,0.84708,47.694946,-1.1080159,-1.817724,-3.5120804,-0.16817991,-0.15289927,-0.36509937,27.75,29.0,28.125,31.75,33.75,34.5625
0.28405407,-2.181688,-1.9643506,-0.9789445,-0.07684086,0.14508899,-0.16052021,-0.39189366,-0.32504362,0.059952375,-3.074031,0.6212959,-0.0001734235,-0.13908228,0.0212217,0.0007476221,0.032334607,-8.302858e-05,0.018734772,0.42830426,-1.4398688,1.9732264,-2.0994012,-1.5748724,2.4015915,-0.1374817,0.22556095,-0.26831114,0.05569295,-0.030335762,-0.15590793,-0.8810662,0.3256114,-9.557653,0.85826975,47.696735,-0.9726969,-1.7362814,-3.4941635,-0.13813242,-0.14853981,-0.2843708,27.75,29.0,28.125,31.75,33.75,34.5625
0.28605393,-2.4753046,-1.9898733,-1.2127702,-0.0723117,0.13485794,-0.16200009,-0.39216813,-0.32500327,0.059952818,-3.0739524,0.62119824,-0.0001641017,-0.14065291,0.022171665,-1.0415776e-05,0.032170452,-0.0014930378,0.02462667,0.42805138,-1.4394006,1.9726657,-2.0992577,-1.5749558,2.4012883,-0.14090826,0.22850841,-0.2699634,0.055548683,-0.02964726,-0.16522719,-0.9385271,0.30645782,-9.500193,0.8940802,47.73077,-1.152202,-1.8239189,-3.5622163,-0.13584456,-0.137323,-0.17536318,27.75,29.0,28.125,31.75,33.75,34.5625
0.2880545,-2.1462765,-1.5927396,-1.0593594,-0.05281913,0.12896986,-0.15730454,-0.3924838,-0.32495397,0.059967715,-3.0739174,0.62118906,-5.5303146e-05,-0.1411517,0.021184137,0.00059364573,0.031109223,-0.000117987634,0.02881199,0.42773986,-1.438945,1.972102,-2.0991857,-1.5750278,2.400976,-0.13962024,0.22901031,-0.27195984,0.055316858,-0.02926497,-0.16812648,-0.9768343,0.30645782,-9.787497,0.91198283,47.72092,-1.0917809,-1.8385992,-3.5939016,-0.11497486,-0.15228373,-0.11340015,27.75,29.0,28.125,31.75,33.75,34.5625
0.29005465,-1.936447,-0.6711083,-0.87773246,-0.055430897,0.12623051,-0.15527079,-0.39277112,-0.32491517,0.0599719,-3.073895,0.6209929,-3.300974e-05,-0.14131443,0.021019213,0.00041089888,0.03025054,-0.00010155217,0.027910657,0.42746377,-1.4384778,1.9715389,-2.099067,-1.5750874,2.4005806,-0.13983293,0.22944707,-0.2719471,0.05447907,-0.028497452,-0.16744085,-0.93852705,0.22984336,-9.615114,0.9612189,47.717335,-1.1120858,-1.753124,-3.7102547,-0.082720384,-0.15394971,-0.068405055,27.75,29.0,28.125,31.75,33.75,34.5625
0.2920537,-1.2015284,-0.089282565,-0.9237146,-0.013702953,0.11328276,-0.15295736,-0.3930448,-0.324876,0.05994153,-3.0738597,0.62089264,-9.2873626e-05,-0.14258738,0.020969454,0.000698093,0.029630817,0.00031179015,0.021954382,0.42717525,-1.4379742,1.9710239,-2.098994,-1.5751113,2.4002345,-0.1409504,0.23098016,-0.27454692,0.05492168,-0.028106973,-0.16260086,-0.7086837,0.05746084,-9.423578,0.8537928,47.678825,-1.1909045,-1.7900372,-3.658391,-0.047706593,-0.15805055,-0.10520714,27.75,29.0,28.125,31.75,33.75,34.5625
0.29405445,-1.0181029,0.8697199,-0.68667346,0.019412918,0.08223006,-0.15703334,-0.39333954,-0.32484466,0.059933603,-3.073821,0.6208884,-5.4175496e-05,-0.14309807,0.02088089,0.00012930167,0.030188847,-0.0016901124,0.014112443,0.42689928,-1.437482,1.9704732,-2.098934,-1.575159,2.3999612,-0.1413147,0.2339371,-0.27705747,0.056546614,-0.027766133,-0.15512355,-0.51714754,0.019153614,-9.461885,0.9097417,47.672558,-1.1368903,-1.8481569,-3.7804332,-0.033599593,-0.16512057,-0.1664818,27.75,29.0,28.125,31.75,33.75,34.5625
0.2960547,-0.38666365,1.1275303,-0.59601843,0.035170976,0.06152459,-0.15429097,-0.3936705,-0.32479912,0.059957046,-3.0737715,0.6209202,0.00010594914,-0.14604181,0.020244615,0.0011943586,0.028025404,0.0027062136,0.006999382,0.42659888,-1.4370134,1.9698747,-2.098863,-1.5752553,2.3996875,-0.14258792,0.2358094,-0.28109938,0.05382269,-0.027606389,-0.14928322,-0.34476504,-0.1340753,-9.442732,0.88289046,47.675243,-1.106493,-2.033179,-3.5547779,0.020758053,-0.17557025,-0.23678342,27.75,29.0,28.125,31.75,33.75,34.5625
0.29805472,0.30012867,1.3906027,-0.7863962,0.052412435,0.033934675,-0.1628362,-0.39395833,-0.32476407,0.059931636,-3.0736961,0.6208863,5.502868e-05,-0.1469932,0.020117108,0.001185237,0.028374694,0.0023268964,0.0022826216,0.4263228,-1.4364743,1.9692997,-2.0987546,-1.5753034,2.3994005,-0.1429186,0.23803818,-0.28397498,0.054966293,-0.027769664,-0.14489299,-0.17238252,-0.11492168,-9.442732,0.84708,47.68062,-1.1718102,-2.027058,-3.4020185,0.063647136,-0.18614998,-0.35410252,27.75,29.0,28.125,31.75,33.75,34.5625
0.30005392,0.41830117,1.3469676,-0.97266793,0.056416444,-0.0016775011,-0.1587565,-0.3942597,-0.3247046,0.059953384,-3.0736437,0.62093663,0.000121059755,-0.14788803,0.020696748,0.0013446881,0.029694388,0.0013614043,-0.0038551257,0.4259984,-1.4360545,1.9687485,-2.0986345,-1.5753635,2.3991146,-0.14408205,0.23962402,-0.28683385,0.05767333,-0.028557144,-0.13991418,0.0,-0.1340753,-9.423578,0.8179876,47.71017,-1.1092441,-2.0261128,-3.4169533,0.07395741,-0.17600864,-0.42674685,27.75,29.0,28.125,31.75,33.75,34.5625
0.30205408,0.8256169,0.46664545,-0.87574756,0.048302416,-0.0068097617,-0.15671189,-0.3945648,-0.32464442,0.05992542,-3.0735095,0.62100506,8.540638e-05,-0.14794013,0.022076918,0.00023983892,0.03264906,-0.0032478524,-0.006588506,0.4256858,-1.4355025,1.9681615,-2.098513,-1.5754479,2.3988626,-0.14600806,0.24252342,-0.28868636,0.062031046,-0.029351532,-0.1391003,0.076614454,-0.05746084,-9.423578,0.8224646,47.695843,-1.1234095,-2.0193682,-3.4442048,0.041062757,-0.16161622,-0.48824438,27.75,29.0,28.125,31.75,33.75,34.5625
0.30405435,0.9001542,0.08237001,-0.93913144,0.022333968,-0.012055256,-0.15770969,-0.39486635,-0.32458308,0.059928462,-3.0734298,0.6209849,0.00012795164,-0.14800604,0.02166998,-0.00032628866,0.03420837,-0.004190241,-0.00015530965,0.42537436,-1.4350348,1.9675988,-2.0983932,-1.5755323,2.3985493,-0.1444797,0.24508138,-0.29055935,0.06280705,-0.030410865,-0.14399832,0.15322891,0.038307227,-9.423578,0.9186956,47.683304,-1.153023,-2.0641692,-3.4195292,0.08159761,-0.16803238,-0.5081807,27.75,29.0,28.125,31.75,33.75,34.5625
0.30605444,0.72816885,-0.53075194,-0.86117774,-0.013115247,-0.001709574,-0.16288781,-0.3951758,-0.32456762,0.059945326,-3.073413,0.62088007,0.00013689576,-0.14826427,0.0235697,-0.0009302763,0.036346182,-0.008766251,0.0062829326,0.42510915,-1.4345192,1.9669412,-2.0982354,-1.5755681,2.3982213,-0.14799653,0.24656081,-0.29210976,0.067866266,-0.030504731,-0.15395297,0.24899697,0.095768064,-9.442732,0.8537928,47.670765,-0.8995894,-2.059432,-3.4430752,0.052932523,-0.15421346,-0.43103734,27.75,29.0,28.125,31.75,33.75,34.5625
0.3080546,0.4939431,-0.8561851,-0.71283287,-0.040934898,0.0048168804,-0.16420224,-0.39543128,-0.3245018,0.05990612,-3.0732925,0.6207546,1.4361114e-05,-0.14830965,0.02453236,-0.00091786805,0.037523333,-0.012618749,0.015665,0.42482054,-1.4340156,1.9664258,-2.098078,-1.5756401,2.3978703,-0.1499814,0.24749179,-0.29452968,0.07327176,-0.030052593,-0.16531815,0.24899697,0.15322891,-9.404425,0.9254084,47.705692,-0.96038187,-2.1181839,-3.436602,0.011551246,-0.1626651,-0.34266257,27.75,29.0,28.125,31.75,33.75,34.5625
0.3100547,0.28605652,-0.8035149,-0.8390607,-0.03176803,0.0026495482,-0.15749866,-0.3957615,-0.32444152,0.059902098,-3.0731995,0.62082595,1.6704699e-06,-0.1484692,0.025410186,-0.0012549522,0.038874865,-0.01617712,0.023300955,0.42447188,-1.4334761,1.9657916,-2.097933,-1.5757002,2.3975787,-0.15169683,0.24915959,-0.2967349,0.077539936,-0.029865855,-0.17466903,0.19153613,0.3256114,-9.385271,0.76874626,47.716442,-0.83419555,-1.9936192,-3.4418316,-0.031701345,-0.17622527,-0.21917951,27.75,29.0,28.125,31.75,33.75,34.5625
0.312054,0.874411,-0.24458691,-1.0455254,-0.027477143,0.012607907,-0.16151737,-0.39606345,-0.3244099,0.059927404,-3.0731726,0.6206634,6.177526e-05,-0.14795347,0.02637515,-0.0015455332,0.04106398,-0.019294325,0.027415207,0.42420784,-1.433009,1.9651693,-2.0977762,-1.5757722,2.397217,-0.15242635,0.2496016,-0.29760596,0.08166846,-0.030596582,-0.17950971,0.17238252,0.34476504,-9.404425,0.82022345,47.737934,-0.95218337,-1.9721357,-3.5319467,-0.079318576,-0.16388895,-0.16916361,27.75,29.0,28.125,31.75,33.75,34.5625
0.31405422,0.53768855,-0.6820184,-0.9873891,-0.022213707,-0.002244314,-0.14596541,-0.39633888,-0.32433644,0.059899233,-3.0730422,0.6205432,-5.049809e-05,-0.14606844,0.02531837,-0.002050174,0.04145956,-0.023394495,0.025020843,0.42389667,-1.4324933,1.9646062,-2.0975835,-1.5758556,2.3968482,-0.1496374,0.25055173,-0.29852134,0.085532255,-0.029280733,-0.17432947,0.15322891,0.28730422,-9.500193,0.91198283,47.716442,-1.0593402,-1.9400535,-3.5241175,-0.15410906,-0.1660397,-0.16070986,27.75,29.0,28.125,31.75,33.75,34.5625
0.31605372,1.1074239,-0.35156816,-0.68163204,-0.02819534,0.0055387793,-0.15911344,-0.3966779,-0.32430142,0.059922002,-3.0730262,0.62058276,2.243162e-05,-0.14738013,0.025475467,-0.00043540692,0.039909016,-0.022835074,0.015319132,0.42357218,-1.4319906,1.9639596,-2.0974743,-1.5758914,2.396551,-0.15165426,0.24971949,-0.302154,0.08887112,-0.028074518,-0.16665106,0.05746084,0.17238252,-9.404425,0.9254084,47.691364,-0.96655273,-1.8905382,-3.5723677,-0.20437865,-0.17762706,-0.247574,27.75,29.0,28.125,31.75,33.75,34.5625
0.31805474,1.1306938,-0.17590979,-0.7285572,-0.021235427,0.017263308,-0.16078132,-0.39692885,-0.32426122,0.05989427,-3.0729141,0.62044644,-0.00015305012,-0.14778277,0.025785822,-0.0005241525,0.039951675,-0.024377774,0.010163947,0.42331976,-1.4314632,1.9633735,-2.0972464,-1.575939,2.3962283,-0.1528193,0.2508622,-0.30380696,0.09081008,-0.027500615,-0.16265897,-0.038307227,0.17238252,-9.289502,0.97464454,47.723602,-0.99399704,-1.7515113,-3.5142157,-0.22436702,-0.22202909,-0.30205917,27.75,29.0,28.125,31.75,33.75,34.5625
0.32005408,0.47141013,0.14301395,-1.0592732,-0.002927777,0.009419378,-0.16319335,-0.39724955,-0.32420883,0.059902556,-3.0728455,0.6204705,-0.00013322293,-0.14875825,0.026038732,-0.0005657936,0.040844094,-0.024876336,0.008466043,0.42299545,-1.4309591,1.9627503,-2.0971024,-1.5759996,2.3959284,-0.15353824,0.25292683,-0.30649245,0.092241265,-0.02812489,-0.16167477,0.05746084,0.15322891,-9.385271,0.95226496,47.72002,-1.0017047,-1.92011,-3.507667,-0.2904407,-0.2202577,-0.34765714,27.75,29.0,28.125,31.75,33.75,34.5625
0.32205456,-0.22639765,0.078669466,-0.7385889,-0.0039862925,0.016485978,-0.15375954,-0.397535,-0.32415769,0.059912167,-3.0727744,0.62041783,-0.00018550661,-0.15052633,0.026624082,-0.00030852566,0.040047668,-0.023661891,0.0061363694,0.4226947,-1.4304917,1.9621519,-2.0968993,-1.5760473,2.3956044,-0.1560773,0.2540385,-0.30827767,0.09146297,-0.027926799,-0.16188227,0.019153614,0.15322891,-9.461885,0.90750587,47.723602,-0.94596964,-1.8044294,-3.512906,-0.3177431,-0.22771549,-0.34935516,27.75,29.0,28.125,31.75,33.75,34.5625
0.32405493,-0.4109107,-0.18133867,-0.43924803,-0.008536097,0.045611657,-0.1493149,-0.3978241,-0.32411033,0.059892576,-3.0726995,0.6203445,-0.00031957947,-0.15281688,0.025716532,-0.0002749028,0.03845627,-0.021185614,0.0066914367,0.42238247,-1.4299515,1.9615406,-2.096709,-1.5760711,2.3952565,-0.15642592,0.2575888,-0.31186518,0.08857073,-0.0275397,-0.16278219,-0.24899697,0.17238252,-9.32781,0.8560339,47.72629,-0.9318304,-1.7901365,-3.557108,-0.32030275,-0.25185952,-0.41398066,27.75,29.0,28.125,31.75,33.75,34.5625
0.32605374,-0.41852993,-0.34155995,-0.7839391,0.0073082875,0.060638566,-0.16241658,-0.39815804,-0.32407433,0.059911977,-3.0726593,0.6203126,-0.0002965277,-0.15474969,0.025745234,5.182844e-05,0.03740694,-0.018653056,0.01213793,0.42207012,-1.429424,1.9608592,-2.0965421,-1.5761193,2.39493,-0.15783842,0.2589795,-0.3138171,0.08633841,-0.027671158,-0.16963886,-0.2873042,0.19153613,-9.423578,0.9097417,47.747787,-0.91599876,-1.9155688,-3.4020612,-0.30828613,-0.2674333,-0.32956028,27.75,29.0,28.125,31.75,33.75,34.5625
0.3280546,-1.3693072,-0.46372688,-0.9914913,-0.0029383462,0.07333483,-0.16338892,-0.3984161,-0.3240194,0.05987226,-3.0725734,0.62015367,-0.000490042,-0.1562985,0.024517681,-0.0007615253,0.03667637,-0.015771724,0.023357946,0.42177063,-1.4288957,1.960307,-2.0963523,-1.5761436,2.3945427,-0.15633997,0.26291963,-0.31534022,0.080929756,-0.02828016,-0.17935039,-0.28730422,0.22984336,-9.576807,0.93436235,47.709274,-0.9398887,-1.8350664,-3.5217466,-0.28763616,-0.28561836,-0.25342065,27.75,29.0,28.125,31.75,33.75,34.5625
0.33005473,-1.5911204,-1.4081945,-0.66626626,-0.029207883,0.1068945,-0.15796272,-0.39877182,-0.32398665,0.059923634,-3.0725672,0.6200899,-0.0003121484,-0.15897226,0.023903066,-0.00059132173,0.034766477,-0.011369294,0.031161075,0.4214702,-1.4284154,1.9596142,-2.0962226,-1.5762275,2.3942037,-0.15719308,0.2655259,-0.31764728,0.07576062,-0.028386317,-0.18800618,-0.30645782,-0.019153614,-9.615114,0.86498255,47.678825,-1.0086551,-2.066132,-3.4878263,-0.2167635,-0.31077984,-0.12656589,27.75,29.0,28.125,31.75,33.75,34.5625
0.3320539,-1.5876867,-1.3182359,-0.45950288,-0.057646997,0.11291486,-0.15849575,-0.39906758,-0.32392424,0.05989661,-3.072452,0.6199506,-0.0004324447,-0.16096914,0.024509303,0.0005865348,0.033801313,-0.008691675,0.031163072,0.42115742,-1.4278525,1.95899,-2.096019,-1.5762995,2.3938193,-0.15963505,0.2650816,-0.31994978,0.07563439,-0.028650695,-0.19044396,-0.5363012,0.038307227,-9.500193,0.85826975,47.68599,-0.96975935,-1.9997289,-3.480266,-0.20780376,-0.31726968,-0.07305429,27.75,29.0,28.125,31.75,33.75,34.5625
0.33405402,-1.6116176,-0.7604157,-0.6170035,-0.049554694,0.11075094,-0.16130887,-0.399378,-0.3238797,0.059887692,-3.0724206,0.6198687,-0.00047681184,-0.16231945,0.023142032,0.0010224557,0.032755632,-0.0033547203,0.029074408,0.42083454,-1.4273254,1.958381,-2.0958889,-1.5763239,2.3934498,-0.15727696,0.266051,-0.32101014,0.070443705,-0.029887185,-0.18598692,-0.8236054,0.24899697,-9.346964,0.87617236,47.70838,-1.1444625,-1.9246435,-3.5795903,-0.17024678,-0.340462,-0.056899287,27.75,29.0,28.125,31.75,33.75,34.5625
0.3360541,-1.3461146,-0.8064174,-1.0141758,-0.025708027,0.10597228,-0.16201086,-0.39972916,-0.32384878,0.059917945,-3.072396,0.61969393,-0.00031936346,-0.16360901,0.023209818,0.0019128984,0.032570865,-0.00037070387,0.020974912,0.42055836,-1.4267986,1.9576854,-2.0957692,-1.5764326,2.393068,-0.15764008,0.26571018,-0.32259458,0.06959061,-0.030903367,-0.17824525,-0.7661445,0.22984336,-9.595961,0.90750587,47.716442,-1.1666553,-1.8629563,-3.5870671,-0.11101727,-0.3341518,-0.14359315,27.75,29.0,28.125,31.75,33.75,34.5625
0.33805427,-1.6932092,-0.68350697,-0.7560355,-0.018011913,0.08437453,-0.15883115,-0.40004304,-0.32377502,0.05988851,-3.0722582,0.6197652,-0.00039760573,-0.16270965,0.023156382,0.0015063287,0.03314404,-0.0007148024,0.014138783,0.42021075,-1.4262357,1.9570769,-2.0956142,-1.5765046,2.3927834,-0.15639593,0.26519704,-0.32113254,0.06921593,-0.031271722,-0.17016035,-0.63206923,0.19153613,-9.557653,0.88289046,47.713753,-1.2382653,-1.7088475,-3.66158,-0.08821604,-0.34264463,-0.2554592,27.75,29.0,28.125,31.75,33.75,34.5625
0.34005424,-0.13872585,0.2828725,-0.5720266,-0.024567947,0.09423107,-0.17343737,-0.4003976,-0.3237487,0.059906445,-3.0722673,0.6196573,-0.0002700486,-0.16512126,0.024067428,0.002000877,0.033305258,0.00079151586,0.004607104,0.41990918,-1.4256963,1.956405,-2.0955427,-1.5765647,2.3924136,-0.15940462,0.2669589,-0.32446977,0.0695042,-0.032004353,-0.16363312,-0.7278373,0.19153613,-9.5385,0.90750587,47.682407,-1.0922786,-1.6260165,-3.6944602,-0.054651193,-0.35882932,-0.34239358,27.75,29.0,28.125,31.75,33.75,34.5625
0.34205455,-0.6994316,0.20600949,-0.6393836,0.00014916433,0.06281147,-0.16154258,-0.40074477,-0.3236979,0.05993236,-3.072207,0.6196471,-0.00018472642,-0.16841713,0.024482058,0.0037677968,0.032076232,0.0046937135,-0.0018981912,0.4195847,-1.4251809,1.9557232,-2.0953867,-1.5766486,2.392091,-0.16239984,0.2676913,-0.3295384,0.06977547,-0.032468725,-0.16011827,-0.7086837,0.038307227,-9.404425,0.88289046,47.66539,-1.2171175,-1.6765094,-3.6772845,-0.031585716,-0.3640734,-0.41227576,27.75,29.0,28.125,31.75,33.75,34.5625
0.34405467,-0.56728625,0.37532678,-0.7931679,0.013455584,0.06462793,-0.16824085,-0.40105283,-0.32363647,0.059896134,-3.0720758,0.61959887,-0.00026711953,-0.16906121,0.023654498,0.003542287,0.033375073,0.0045654834,-0.00024337626,0.4192735,-1.4245923,1.9550999,-2.0952308,-1.576733,2.3917673,-0.16050139,0.27093554,-0.33307394,0.0706954,-0.03362943,-0.15986203,-0.5363012,-0.076614454,-9.5385,1.0037369,47.695843,-1.1989062,-1.7528386,-3.5278692,-0.015242167,-0.3534909,-0.48234963,27.75,29.0,28.125,31.75,33.75,34.5625
0.34605396,-0.69230413,0.82455933,-0.8428504,0.021975564,0.063508555,-0.16993171,-0.4013924,-0.32359692,0.059911657,-3.072058,0.6195881,-0.00025190852,-0.16972832,0.023735076,0.0035634902,0.034312192,0.0040929625,0.008430547,0.41893774,-1.4240649,1.95443,-2.0950868,-1.5767573,2.3914275,-0.16055857,0.27261126,-0.3355031,0.07219594,-0.034338508,-0.16858816,-0.4213795,-0.17238252,-9.557653,0.8784135,47.66808,-1.2904081,-1.8130105,-3.5307503,0.012787999,-0.37442616,-0.4619099,27.75,29.0,28.125,31.75,33.75,34.5625
0.34805402,-0.8009365,0.93247986,-1.0836217,0.031057356,0.052117113,-0.17604262,-0.40175554,-0.32353747,0.05991684,-3.0719855,0.6196439,-0.00019426613,-0.16981678,0.024193514,0.0020701324,0.037273757,-0.00097278284,0.018359695,0.41857824,-1.4235007,1.9537467,-2.0949647,-1.5768303,2.3911128,-0.16083306,0.2776038,-0.33884656,0.07629402,-0.03503407,-0.17878652,-0.24899697,-0.1340753,-9.653421,0.98807013,47.66987,-1.3502781,-1.9296821,-3.4301872,0.012878542,-0.39261106,-0.36466274,27.75,29.0,28.125,31.75,33.75,34.5625
0.35005388,-0.6397922,0.76143223,-0.61294353,0.0150248585,0.07626345,-0.18101843,-0.4020875,-0.3234946,0.05995211,-3.0719283,0.61949086,-0.00013099544,-0.17054833,0.025432589,0.0009468149,0.04028173,-0.0046265367,0.027736662,0.41829023,-1.4229946,1.9530395,-2.0947483,-1.5769266,2.390737,-0.16267829,0.28150967,-0.3416043,0.079613574,-0.0363558,-0.18999952,-0.2681506,-0.15322891,-9.576807,0.9768804,47.692257,-1.3366169,-2.0935516,-3.401509,-0.030820541,-0.36665237,-0.23308918,27.75,29.0,28.0625,31.75,33.75,34.5625
0.35205412,-0.17638555,0.7467976,-0.88594496,0.0057344898,0.07755484,-0.18302915,-0.40242073,-0.32344967,0.059945755,-3.0718768,0.61932284,-9.49557e-05,-0.16909182,0.027763307,2.2935403e-05,0.04399584,-0.008913641,0.031547584,0.41798988,-1.4224309,1.9523829,-2.0946276,-1.577011,2.390339,-0.16449094,0.2803414,-0.3392275,0.08377453,-0.03803271,-0.19561462,-0.24899697,-0.11492168,-9.500193,0.8851263,47.658226,-1.1997066,-2.0146492,-3.5899224,-0.048258975,-0.3709231,-0.14398365,27.75,29.0,28.0625,31.75,33.75,34.625
0.35405436,-0.13291793,0.14152744,-1.0880635,0.023877958,0.04930159,-0.16536392,-0.40277642,-0.3233864,0.059944566,-3.0718026,0.6192708,-8.978459e-05,-0.1672453,0.030491443,-0.002559402,0.051064953,-0.019226536,0.026680684,0.41763029,-1.4218532,1.9516896,-2.0944688,-1.5770835,2.389957,-0.1663177,0.28422424,-0.33994576,0.09290464,-0.04029553,-0.19256003,-0.22984336,0.05746084,-9.634268,0.9254084,47.679718,-1.2666602,-2.0214338,-3.7520418,-0.13164118,-0.34913832,-0.15777653,27.75,29.0,28.0625,31.75,33.75,34.625
0.35605443,-0.386705,-0.041090723,-0.8709044,0.00822413,0.0148124965,-0.1622984,-0.40310964,-0.3233172,0.059944358,-3.071682,0.61919135,-0.0001305455,-0.16795617,0.030945472,-0.0017198629,0.05218263,-0.018798077,0.018816656,0.4172944,-1.4212887,1.9509934,-2.0942404,-1.5771803,2.3895876,-0.16678295,0.28411064,-0.34249577,0.09565116,-0.041486353,-0.18514945,-0.3256114,0.095768064,-9.5385,0.9612189,47.68062,-1.1531049,-1.8765095,-3.7762341,-0.16554801,-0.3282422,-0.21196818,27.75,29.0,28.0625,31.75,33.75,34.625
0.3580545,0.3964313,-0.48554784,-0.96943676,0.006142244,0.008975764,-0.15805842,-0.4034623,-0.32324788,0.05997341,-3.0716057,0.61910176,-1.6032236e-05,-0.16947845,0.032350354,-0.0011642379,0.054367293,-0.018634034,0.010684278,0.4169583,-1.4207842,1.950312,-2.0940716,-1.5773009,2.389206,-0.16908355,0.2850102,-0.34557524,0.098576866,-0.043533806,-0.17930432,-0.2873042,0.17238252,-9.423578,0.9186956,47.716442,-0.9954916,-1.8037925,-3.7622406,-0.22265166,-0.30200613,-0.280423,27.75,29.0,28.0625,31.75,33.75,34.625
0.3600547,0.223727,-0.24756268,-0.9136554,0.00026419887,0.00062459527,-0.16781002,-0.4038071,-0.32319003,0.059962884,-3.0715063,0.6191014,-7.644744e-05,-0.17075616,0.033121597,-0.00046203777,0.055069882,-0.018115526,0.005760615,0.41661054,-1.420183,1.9496049,-2.09388,-1.577361,2.3888714,-0.17078789,0.2854034,-0.3482593,0.100677624,-0.044400483,-0.17607513,-0.21068975,0.19153613,-9.500193,0.9298854,47.74062,-1.0203807,-1.7917647,-3.625992,-0.26731265,-0.2815506,-0.33254582,27.75,29.0,28.0625,31.75,33.75,34.625
0.3620538,-0.22593984,-0.70693284,-0.9349712,-0.0012343081,0.014462519,-0.16549659,-0.4041388,-0.3231177,0.059961844,-3.0713634,0.619031,-9.68643e-05,-0.17401868,0.03298818,0.0025449924,0.054332215,-0.011636798,0.005552424,0.41628662,-1.4196191,1.9489106,-2.093652,-1.5774816,2.3885226,-0.17173438,0.28430164,-0.3541932,0.10145688,-0.04638999,-0.17679426,-0.076614454,0.21068975,-9.500193,0.8851263,47.73883,-1.0468118,-1.6849685,-3.5014005,-0.30479285,-0.26067352,-0.38148987,27.75,29.0,28.0625,31.75,33.75,34.625
0.36405393,-0.22960414,-0.60697657,-0.79978913,-0.024455085,0.041240267,-0.17485666,-0.40452594,-0.32306528,0.060007617,-3.0713408,0.61900383,-3.0993804e-06,-0.17576304,0.033069964,0.0029758825,0.053962298,-0.009980742,0.0077015823,0.41591516,-1.419078,1.9481429,-2.0934608,-1.5775417,2.3881376,-0.17286134,0.2858827,-0.35702726,0.100997016,-0.046749815,-0.18006845,0.019153614,0.15322891,-9.500193,0.88960326,47.690468,-1.0178452,-1.4832752,-3.3213515,-0.31781787,-0.23670256,-0.37222594,27.75,29.0,28.0625,31.75,33.75,34.625
0.3660541,-0.89607954,-0.6545193,-0.7941482,-0.02399428,0.040602412,-0.17324907,-0.40484768,-0.32299706,0.060001925,-3.0712183,0.6189333,-4.7568992e-05,-0.17688757,0.032310996,0.0012511606,0.05294141,-0.011516245,0.01679656,0.41559154,-1.4185236,1.9474725,-2.0932462,-1.5776376,2.3877864,-0.1731698,0.29146373,-0.35902563,0.09830373,-0.04528122,-0.18947533,-0.095768064,0.095768064,-9.442732,0.91198283,47.684196,-0.9573924,-1.7356603,-3.4383945,-0.30789712,-0.23161654,-0.30967295,27.75,29.0,28.0625,31.75,33.75,34.625
0.36805448,-0.75528413,-0.5849917,-0.93629485,-0.030100076,0.068576604,-0.17818934,-0.40518895,-0.32294548,0.06000006,-3.0711465,0.6187771,-8.3310784e-05,-0.17816816,0.03306071,0.0002410439,0.053693697,-0.010258658,0.02571494,0.41526753,-1.4179344,1.9467558,-2.093044,-1.57771,2.3873746,-0.1745641,0.29372165,-0.35865104,0.0947278,-0.046561223,-0.19977626,-0.24899697,0.22984336,-9.557653,0.9701675,47.701214,-0.8504251,-1.7760816,-3.5380921,-0.30145538,-0.22916284,-0.20845413,27.75,29.0,28.0625,31.75,33.75,34.625
0.3700538,-1.3167636,-1.1777366,-0.6927133,-0.036976546,0.08597863,-0.17582536,-0.40555516,-0.32285723,0.06001241,-3.071039,0.61865664,-1.8395878e-05,-0.17990921,0.033754542,-0.00048692062,0.05397055,-0.007810567,0.028004153,0.4148958,-1.4173809,1.94605,-2.0928538,-1.5778426,2.3869421,-0.17620502,0.29581085,-0.35853422,0.09032633,-0.04785054,-0.20369573,-0.17238252,0.1340753,-9.615114,0.98135734,47.711964,-0.9019609,-1.814532,-3.6918826,-0.26572603,-0.20570551,-0.101315215,27.75,29.0,28.0625,31.75,33.75,34.625
0.37205392,-1.271748,-0.82327867,-0.26978984,-0.05463739,0.10063173,-0.17981829,-0.40593493,-0.3227986,0.060018983,-3.0709896,0.61858964,6.541581e-05,-0.18226036,0.03378219,-0.00036442617,0.05451192,-0.0031859179,0.025365675,0.41453645,-1.4167917,1.9453324,-2.092736,-1.577927,2.3865478,-0.17641896,0.29795003,-0.36047217,0.08610315,-0.050218496,-0.20125438,-0.4213795,0.22984336,-9.442732,1.005978,47.695843,-0.9782856,-1.7084517,-3.6739879,-0.21826088,-0.14163893,-0.07675618,27.75,29.0,28.0625,31.75,33.75,34.625
0.3740543,-0.8219964,-0.5508864,-0.36817023,-0.04956527,0.09712344,-0.18252152,-0.40627807,-0.3227286,0.0600151,-3.0708718,0.6184524,3.178664e-05,-0.18464261,0.03207634,0.00063252385,0.050662138,0.0015121732,0.018157259,0.41420096,-1.4162023,1.9446138,-2.0925095,-1.5780343,2.3861425,-0.17609757,0.29965088,-0.36397272,0.08206492,-0.04859075,-0.1937282,-0.51714754,0.24899697,-9.346964,0.9768804,47.705692,-0.98544776,-1.7934048,-3.7918203,-0.14529456,-0.1354046,-0.15914449,27.75,29.0,28.0625,31.75,33.75,34.625
0.37605464,-0.8230217,-0.9396759,-0.5064837,-0.03504782,0.07773243,-0.1743352,-0.40666533,-0.32267356,0.060044006,-3.0708108,0.61840427,0.00019619857,-0.18622607,0.030593008,0.0026490581,0.047857754,0.006527608,0.010850316,0.41386598,-1.4156382,1.9438704,-2.0923784,-1.5781544,2.3857858,-0.1748455,0.29861832,-0.36724845,0.080677055,-0.048003342,-0.18517387,-0.51714754,0.2873042,-9.346964,0.94331104,47.696735,-1.0842829,-1.6483748,-3.6653337,-0.08310461,-0.12255755,-0.26839304,27.75,29.0,28.0625,31.75,33.75,34.625
0.37805417,-0.59651834,-0.81886405,-0.45973474,-0.03243678,0.059659243,-0.1732651,-0.4070619,-0.32262215,0.060066063,-3.0707703,0.61839724,0.00032472814,-0.18751912,0.030012297,0.0026493254,0.04754672,0.0069662863,0.00405421,0.41350707,-1.4150491,1.9431161,-2.0922592,-1.5782384,2.3854282,-0.17470539,0.30148932,-0.37073973,0.08079108,-0.04786295,-0.17823881,-0.49799395,0.2873042,-9.346964,1.0149267,47.694946,-1.2909973,-1.6221945,-3.4610233,-0.07565264,-0.104681164,-0.3551175,27.75,29.0,28.0625,31.75,33.75,34.625
