Tylouw/Master_Thesis_Code/training_data/batch_1/big_rod_t0.3/sample_55_session_2.csv
timestamp[s],tcp_force_x[N],tcp_force_y[N],tcp_force_z[N],tcp_force_rx[Nm?],tcp_force_ry[Nm?],tcp_force_rz[Nm?],tcp_pose_x[m],tcp_pose_y[m],tcp_pose_z[m],tcp_pose_rx[rot_vec_x],tcp_pose_ry[rot_vec_y],tcp_pose_rz[rot_vec_z],tcp_velo_x[m/s],tcp_velo_y[m/s],tcp_velo_z[m/s],tcp_velo_rx[rot_vec_x/s],tcp_velo_ry[rot_vec_y/s],tcp_velo_rz[rot_vec_z/s],q1[rad],q2[rad],q3[rad],q4[rad],q5[rad],q6[rad],qd1[rad/s],qd2[rad/s],qd3[rad/s],qd4[rad/s],qd5[rad/s],qd6[rad/s],tool_acc_x,tool_acc_y,tool_acc_z,current_of_whole_robot[A],voltage_of_whole_robot[V],current_J1[A],current_J2[A],current_J3[A],current_J4[A],current_J5[A],current_J6[A],temp_J1[C],temp_J2[C],temp_J3[C],temp_J4[C],temp_J5[C],temp_J6[C]
8.1100734e-07,-0.4237529,-0.48696646,0.46012563,-0.008458746,0.0067290375,-0.01592073,-0.3729053,-0.3282023,0.05992843,-3.0784492,0.6248983,-0.0002735229,0.0026155924,0.0012453544,-0.0039670104,0.0036833617,-0.007891588,2.417273e-05,0.44811416,-1.4708251,2.0095737,-2.1077154,-1.5706857,2.4230556,-3.851998e-05,0.003961958,0.004750613,-4.670186e-06,0.000109509005,-6.511889e-05,0.076614454,0.19153613,-8.810662,0.7866488,47.699425,-0.13214128,-2.8836923,-2.496151,-0.4865472,0.05073582,-0.119564265,27.75,29.0,28.0,31.6875,33.6875,34.5
0.002055066,-0.26492766,0.046377514,0.66928875,-0.010631681,0.011797797,-0.016968204,-0.37289006,-0.32821006,0.059938673,-3.0784633,0.62493926,-0.00029133318,-0.00013451907,-8.469915e-05,-0.0033402743,-0.00022416096,0.00019045708,2.7005264e-05,0.4481262,-1.4708608,2.0095847,-2.1076949,-1.5706614,2.4230914,-3.771291e-05,0.004635996,0.0047856043,-0.009690788,0.00010763785,-6.4190004e-05,0.05746084,0.17238252,-8.829816,0.7642693,47.72002,-0.1111473,-2.9049778,-2.4145153,-0.43730226,0.061208937,-0.10916659,27.75,29.0,28.0,31.6875,33.6875,34.5
0.004054537,0.23010583,0.44264925,0.79199696,-0.010967206,0.014392854,-0.024184372,-0.3728999,-0.32822123,0.0599359,-3.078485,0.6249052,-0.00026150484,-0.0011334029,-0.0005675376,-0.0026507347,-0.0016686426,0.0031841416,2.7864286e-05,0.44813824,-1.470837,2.0095732,-2.107731,-1.5706614,2.4230795,-3.6939076e-05,0.004227578,0.004179988,-0.012000707,0.00010582967,-6.328723e-05,0.019153614,0.15322891,-8.90643,0.7284641,47.711964,-0.06884722,-3.0418744,-2.570914,-0.35666227,0.053799722,-0.10660615,27.75,29.0,28.0,31.6875,33.6875,34.5
0.006054638,0.41105646,0.5228446,0.6791114,0.01372316,-0.0022552388,-0.028521413,-0.37289405,-0.3282227,0.059919816,-3.0784867,0.62494385,-0.0002734491,-0.00034477992,-0.00018551703,-0.0020033978,-0.0006421291,0.0010731237,2.6696058e-05,0.44813824,-1.4708257,2.009608,-2.1077769,-1.5706495,2.4231033,-3.61962e-05,0.0027972602,0.0031722516,-0.0072152927,0.00010408157,-6.2409505e-05,-0.05746084,0.17238252,-8.963891,0.7217513,47.696735,-0.07267614,-3.0208073,-2.5476792,-0.39106575,0.04749304,-0.09729423,27.75,29.0,28.0,31.6875,33.6875,34.5
0.008054659,0.61089486,1.0916235,0.31985918,0.03942542,-0.022713855,-0.026793106,-0.37286645,-0.32822436,0.059887286,-3.0784812,0.6248471,-0.00038606496,2.2065251e-05,-7.721185e-06,-0.0015184773,-7.101902e-05,-9.964267e-05,2.6097348e-05,0.44815028,-1.47079,2.0096433,-2.107776,-1.5706257,2.4230556,-3.5482673e-05,0.0020125443,0.0022289662,-0.004182862,0.000102389844,-6.155576e-05,0.076614454,0.038307227,-9.021352,0.69937176,47.684196,-0.12477786,-2.9607992,-2.5070682,-0.4243993,0.048126057,-0.12089446,27.75,29.0,28.0,31.6875,33.6875,34.5
0.010054374,0.69304395,1.5423934,-0.16084448,0.040483456,-0.019313386,-0.024817502,-0.37287876,-0.32823446,0.059902906,-3.078495,0.62479156,-0.00031906058,0.00015893018,5.8754515e-05,-0.0011979492,0.00019183634,-0.0006370269,2.5797704e-05,0.44817424,-1.4707901,2.0096076,-2.1077754,-1.5706495,2.4230433,-3.479681e-05,0.0015992475,0.0015648201,-0.0025072016,0.00010075241,-6.0725175e-05,-0.019153614,0.05746084,-9.232041,0.7284641,47.658226,-0.51521146,-2.3767073,-3.0349507,-0.427114,0.033402655,-0.1851868,27.75,29.0,28.0,31.6875,33.6875,34.5
0.012054749,0.48989138,0.8713514,-0.4287771,0.020208133,-0.0058874846,-0.0272077,-0.3728744,-0.32820678,0.059869368,-3.0784326,0.62487584,-0.0004110902,9.6310454e-05,0.0001065798,-0.00334017,0.0023829665,-0.005097907,-6.038983e-05,0.44812614,-1.4707519,2.0096424,-2.107775,-1.5706495,2.4230556,-0.0001564631,0.00743731,-0.0001103255,-0.0017001801,5.7000896e-05,-9.443043e-05,0.019153614,0.038307227,-9.500193,0.7239871,47.679718,-0.6603793,-2.5075395,-3.1621053,-0.42636973,0.043165494,-0.23021449,27.75,29.0,28.0,31.6875,33.6875,34.5
0.014054046,-0.6017371,0.08900591,-0.54660904,-0.016732164,0.007482023,-0.023135226,-0.3728817,-0.32819796,0.059879057,-3.0784094,0.62487024,-0.00042914972,-0.005892505,0.0018166301,-0.0033911834,0.002505296,-0.0053639296,-0.0015644016,0.44811094,-1.4707493,2.0096037,-2.1077154,-1.5706614,2.42304,-0.008819565,0.015472006,-0.009086758,-0.00046677282,4.2389922e-05,-0.007247183,-0.019153614,0.076614454,-9.5385,0.75084364,47.716442,-0.3645263,-2.826043,-2.9370754,-0.42862695,0.024262313,-0.23345068,27.75,29.0,28.0,31.6875,33.6875,34.5
0.016054643,-0.7566151,-0.7408012,-0.72939205,-0.046579022,0.04811715,-0.039527886,-0.37289795,-0.32819086,0.059874568,-3.0784042,0.6248658,-0.00047256157,-0.0059054648,0.002609867,-0.003997777,0.0032247743,-0.006860884,0.0047445837,0.4480747,-1.4707133,2.009569,-2.107691,-1.5706495,2.4230015,-0.010322018,0.016071599,-0.00845078,-4.2497835e-05,4.0567254e-05,-0.0150590325,-0.34476507,0.22984336,-9.615114,0.78217715,47.694054,-0.32112718,-2.8134155,-3.078711,-0.4278298,0.022503197,-0.13758321,27.75,29.0,28.0,31.6875,33.6875,34.5
0.018053975,-1.5639416,-1.1152207,-0.5873349,-0.07823748,0.08734556,-0.044861663,-0.3728794,-0.328197,0.059840843,-3.0783844,0.62484175,-0.0005848287,-0.0052418103,0.0025740415,-0.0040968205,0.003370134,-0.0071591516,0.006342459,0.44808695,-1.4706537,2.0095809,-2.107691,-1.5706257,2.4230013,-0.009649803,0.015301695,-0.0073885494,-2.7748051e-06,3.9617673e-05,-0.015985468,-0.45968673,0.3256114,-9.864111,0.7620334,47.640312,-0.5125819,-2.546531,-3.437738,-0.42487147,0.02121538,-0.1553171,27.75,29.0,28.0,31.6875,33.6875,34.5
0.020054555,-2.207563,-1.0047466,-0.65621006,-0.084274665,0.10677528,-0.06600272,-0.3728464,-0.32820234,0.05983546,-3.0783856,0.6247465,-0.00068315206,-0.005436283,0.0023976527,-0.004339214,0.0045333314,-0.009577162,0.006777643,0.44811085,-1.4706646,2.0095913,-2.10763,-1.5706018,2.4229655,-0.009497502,0.017818458,-0.010293348,0.0030688585,3.876082e-05,-0.016267113,-0.5746084,0.2681506,-9.787497,0.7172743,47.65106,-0.6678791,-2.5095074,-3.5262866,-0.45071685,0.010173148,-0.16428733,27.75,29.0,28.0,31.6875,33.6875,34.5
0.022054287,-2.1477287,-0.8506981,-0.835893,-0.043731097,0.099121585,-0.07674877,-0.3729041,-0.32818505,0.05983851,-3.078383,0.6247652,-0.0005886306,-0.007829539,0.002604013,-0.00335763,0.00366128,-0.0077370536,0.004949948,0.44805005,-1.4706163,2.0095422,-2.1076777,-1.5706376,2.422917,-0.012050875,0.019153222,-0.014111295,0.003515172,2.023715e-05,-0.016990377,-0.57460845,0.2681506,-9.844957,0.7486078,47.651955,-0.5476609,-2.450531,-3.359786,-0.45977992,-0.011227751,-0.18296382,27.75,29.0,28.0,31.6875,33.6875,34.5
0.024054702,-1.5994303,-0.54057515,-0.92820024,-0.01756484,0.08983043,-0.09722111,-0.37291795,-0.32818952,0.059825372,-3.078378,0.6247645,-0.0006300213,-0.008866038,0.002674289,-0.0033318957,0.003221567,-0.0068312488,0.0045950594,0.44803774,-1.4705561,2.0095065,-2.1076782,-1.5706257,2.4229047,-0.013125297,0.020217894,-0.015089727,0.0024221672,1.86627e-05,-0.017708829,-0.59376204,0.3256114,-9.710882,0.800085,47.66539,-0.7295671,-2.5056238,-3.4272046,-0.43987426,0.0021357948,-0.1790326,27.75,29.0,28.0,31.6875,33.6875,34.5
0.026055634,-1.4473329,-0.14629947,-0.6923752,-0.027708812,0.07353952,-0.11478071,-0.37294137,-0.32817918,0.059812713,-3.0783458,0.6247584,-0.0006359994,-0.0102844,0.0029379674,-0.0027828673,0.002414004,-0.005163583,0.0041034324,0.44801307,-1.470496,2.0094697,-2.1076787,-1.5706495,2.4228804,-0.014910816,0.020452494,-0.016438428,0.0016827583,1.8209634e-05,-0.019001657,-0.68953013,0.3256114,-9.749189,0.8023209,47.678825,-0.76545763,-2.4803636,-3.462892,-0.42949903,-0.011398047,-0.18095769,27.75,29.0,28.0,31.6875,33.6875,34.5
0.028055187,-1.5844476,-0.39279342,-0.5728288,-0.026484627,0.068468384,-0.124785796,-0.37296355,-0.32818973,0.059820816,-3.0783648,0.6247047,-0.0006199655,-0.011792646,0.0028388703,-0.0021106733,0.001561608,-0.0034020562,0.003070657,0.44801268,-1.4704599,2.0094087,-2.1076667,-1.5706495,2.4228442,-0.016096208,0.02117197,-0.018668042,0.001235953,1.7843664e-05,-0.019152688,-0.7086837,0.24899697,-9.749189,0.7172743,47.66987,-0.7805221,-2.3130999,-3.4189265,-0.41842955,-0.030518983,-0.17871982,27.75,29.0,28.0,31.6875,33.6875,34.5
0.030054448,-1.6696863,0.07684483,-0.37821925,-0.028749544,0.075930506,-0.14149827,-0.37299114,-0.32817525,0.0598126,-3.0783486,0.62476087,-0.000660655,-0.012985917,0.003135687,-0.0018537662,0.0012541551,-0.0027328797,0.001313256,0.44795224,-1.4704118,2.009372,-2.1076548,-1.5706376,2.4228208,-0.017727736,0.022018554,-0.020168003,0.001153319,1.1650638e-06,-0.019025723,-0.7086837,0.1340753,-9.730036,0.7239871,47.66808,-0.69060266,-2.3019488,-3.3667395,-0.3923576,-0.03379631,-0.1815063,27.75,29.0,28.0,31.6875,33.6875,34.5
0.03205465,-1.848963,0.18384835,-0.16398658,-0.015410609,0.07823697,-0.15440927,-0.37302127,-0.32816204,0.059809428,-3.0783231,0.6247554,-0.0006532496,-0.014061292,0.0026434103,-0.0014376079,0.0007705863,-0.0017373194,0.0014266246,0.44791612,-1.4703634,2.0093234,-2.1076424,-1.5706614,2.4227846,-0.017779082,0.023431838,-0.02266957,0.0011343474,7.6070336e-08,-0.019188704,-0.6703765,0.11492168,-9.595961,0.7284641,47.64658,-0.7339504,-2.3950803,-3.3889973,-0.38546145,-0.056242973,-0.18508926,27.75,29.0,28.0,31.6875,33.6875,34.5
0.03405468,-1.7444643,0.6052412,-0.17818639,0.006874516,0.079884164,-0.16356114,-0.373017,-0.32816628,0.059784643,-3.0783193,0.6247356,-0.0007622111,-0.015520177,0.0025912453,-0.0009892121,0.00047371455,-0.000419449,0.00078129506,0.4479037,-1.470303,2.0093114,-2.107631,-1.5706257,2.4227602,-0.01879866,0.02473331,-0.025080169,0.0009287864,-0.0003100903,-0.019560568,-0.59376204,0.0,-9.461885,0.71279734,47.705692,-0.7100769,-2.3827813,-3.395288,-0.37350976,-0.061025187,-0.19715536,27.75,29.0,28.0,31.6875,33.6875,34.5
0.036054436,-1.2674617,1.1777561,-0.09002905,0.022003172,0.06177675,-0.18464313,-0.37307563,-0.32817066,0.059812345,-3.0783482,0.6247992,-0.0006446477,-0.017102253,0.0032192832,-0.00051582826,0.0017035847,0.0014288479,0.00025751552,0.44786733,-1.4702786,2.0092266,-2.1076548,-1.5706385,2.42276,-0.020121051,0.025610097,-0.0271408,0.000985742,-0.0022221718,-0.020353856,-0.4213795,-0.019153614,-9.461885,0.7284641,47.677036,-0.7251517,-2.3609087,-3.344871,-0.38055933,-0.05370183,-0.17002729,27.75,29.0,28.0,31.6875,33.6875,34.5
0.03805471,-0.93112314,0.96501565,-0.2086591,0.049192537,0.038239248,-0.20104289,-0.3731276,-0.32814258,0.059797402,-3.0783339,0.62477654,-0.0006226437,-0.017984657,0.0032457116,3.668788e-05,0.001444727,0.0016126567,0.00050558243,0.44778302,-1.4702066,2.0091898,-2.10769,-1.5706619,2.4226635,-0.021072883,0.026173558,-0.02933664,0.0023389678,-0.0020706933,-0.021553066,-0.36391866,-0.095768064,-9.404425,0.784413,47.71554,-0.72495973,-2.2896268,-3.2905416,-0.36374706,-0.056547176,-0.18747321,27.75,29.0,28.0,31.6875,33.6875,34.5
0.040054895,-0.22775431,0.7940306,-0.35738918,0.050167147,0.017399289,-0.21485287,-0.37317637,-0.32814452,0.059807505,-3.078322,0.6247743,-0.00058491284,-0.018678186,0.003207978,0.000117911426,0.0012535236,0.0012431103,0.0009919831,0.44775876,-1.4701345,2.009082,-2.1076663,-1.5706862,2.4226394,-0.0218543,0.027409825,-0.031045908,0.0030603143,-0.0017408198,-0.022820586,-0.21068975,-0.1340753,-9.404425,0.72622824,47.701214,-0.6718353,-2.2516248,-3.3365817,-0.35429972,-0.0615068,-0.1848959,27.75,29.0,28.0,31.6875,33.6875,34.5
0.042054303,-0.18840392,0.5435229,-0.37887144,0.03380458,0.007900614,-0.2006472,-0.37318876,-0.3281378,0.059789896,-3.078329,0.62477636,-0.0006641279,-0.019885777,0.0033473852,0.00015490981,0.001124975,0.0014531235,0.0008445261,0.44771022,-1.470086,2.0090692,-2.1076663,-1.57065,2.4225912,-0.023226826,0.029098164,-0.03298678,0.0030683784,-0.0017215246,-0.024044206,-0.1340753,-0.17238252,-9.481039,0.72622824,47.68599,-0.6720795,-2.282164,-3.297083,-0.33921164,-0.08092231,-0.16560192,27.75,29.0,28.0,31.6875,33.6875,34.5
0.04405462,0.06520678,0.32977682,-0.32826206,0.0087360535,0.014953577,-0.20454063,-0.3732599,-0.32812482,0.05979789,-3.0783074,0.6247518,-0.0005629089,-0.020682205,0.0037964063,9.849113e-05,0.0014601616,0.001137518,0.001426019,0.44766182,-1.4700016,2.008961,-2.1076777,-1.5707101,2.4225304,-0.024678372,0.030160515,-0.034145076,0.0035925885,-0.0018886712,-0.026076255,0.0,-0.076614454,-9.461885,0.76874626,47.70032,-0.64778316,-2.2148364,-3.2906973,-0.3226202,-0.08749587,-0.15872267,27.75,29.0,28.0,31.6875,33.6875,34.5
0.046054237,0.25905782,0.03719958,-0.397666,0.0030715403,0.028474104,-0.1935005,-0.37328836,-0.32812133,0.059813354,-3.0783305,0.6248724,-0.0006199339,-0.021972414,0.004482289,0.00075768854,0.0024367354,0.0025058854,0.001750937,0.44758934,-1.4699897,2.0089014,-2.1076295,-1.5706509,2.4225302,-0.026138118,0.030298442,-0.03602094,0.004526076,-0.0033642054,-0.027856983,0.019153614,0.019153614,-9.423578,0.78888994,47.689575,-0.68179643,-2.2281408,-3.3037553,-0.3246748,-0.08021071,-0.15489721,27.75,29.0,28.0,31.6875,33.6875,34.5
0.04805425,0.0074110515,-0.36276364,-0.3242707,-0.00249118,0.030428927,-0.18417372,-0.37333727,-0.3280891,0.0597838,-3.0782413,0.6248331,-0.0005998234,-0.022453904,0.0049832184,0.0008658714,0.0035382363,0.0016270622,0.0025487689,0.44754106,-1.4698695,2.0088398,-2.1076405,-1.5707349,2.422469,-0.027099594,0.031100018,-0.03762436,0.006596187,-0.0039780284,-0.029614357,0.019153614,0.13407528,-9.423578,0.7978386,47.691364,-0.66983724,-2.148808,-3.3621519,-0.32953766,-0.06586024,-0.12974814,27.75,29.0,28.0,31.6875,33.6875,34.5
0.050054193,-0.14714701,-0.33093718,-0.57043,-0.0061114924,0.0184974,-0.17892465,-0.3733656,-0.32809627,0.059784025,-3.0782657,0.6248183,-0.00064951874,-0.022918262,0.0054143285,0.0009929667,0.003920197,0.0005988543,0.0032411763,0.44750452,-1.4698094,2.0087678,-2.1076162,-1.5706991,2.42242,-0.028397819,0.031704865,-0.039008617,0.008468015,-0.003877837,-0.03160478,0.038307227,0.17238252,-9.481039,0.7083204,47.68062,-0.5958234,-2.1063972,-3.414327,-0.353815,-0.06902672,-0.12008958,27.75,29.0,28.0,31.6875,33.6875,34.5
0.052054208,-0.039374348,-0.50506115,-0.7415381,-0.009563042,0.0047926344,-0.17478053,-0.37343356,-0.3280887,0.059817232,-3.0783036,0.6248645,-0.00058625493,-0.02363227,0.005426396,0.0011758122,0.0033833568,0.00044795126,0.004058974,0.44742015,-1.4697852,2.0086596,-2.1075923,-1.5706867,2.4223597,-0.029434737,0.032520466,-0.040442463,0.008987815,-0.0033297287,-0.033460032,-0.019153614,0.28730422,-9.519346,0.779936,47.696735,-0.58344775,-2.1151724,-3.4255867,-0.33372086,-0.07960346,-0.11974119,27.75,29.0,28.0,31.6875,33.6875,34.5
0.05405404,0.44157404,-0.61033773,-0.63533086,-0.020239638,0.009259274,-0.1838262,-0.37346345,-0.32806677,0.059805334,-3.0782382,0.6248513,-0.0006008569,-0.024619954,0.005184315,0.0013164767,0.0027716872,0.000851545,0.0043168385,0.447384,-1.469713,2.0085995,-2.1075566,-1.5707344,2.4223237,-0.03012598,0.033974,-0.042314243,0.008774308,-0.0029595613,-0.034408357,-0.05746084,0.34476504,-9.481039,0.7463667,47.66808,-0.61336404,-2.0229857,-3.3708172,-0.3249526,-0.08988228,-0.097481504,27.75,29.0,28.0,31.6875,33.6875,34.5
0.05605426,-0.029504122,-0.67752886,-0.47922435,-0.035391208,0.0031476275,-0.17754373,-0.37350246,-0.32805985,0.05978687,-3.0782542,0.6246994,-0.00063128764,-0.025459785,0.0054792706,0.0015896586,0.0029837915,0.0009958326,0.0051248902,0.44733554,-1.4696169,2.008539,-2.107568,-1.5707344,2.4221785,-0.031265877,0.034649324,-0.043879688,0.009626436,-0.0032167658,-0.036354896,-0.05746084,0.40222588,-9.615114,0.7553206,47.709274,-0.5789209,-2.0122492,-3.416246,-0.33519167,-0.092967704,-0.085729666,27.75,29.0,28.0,31.6875,33.6875,34.5
0.05805467,0.35515773,-0.52501214,-0.5037025,-0.04387205,0.028041566,-0.18738407,-0.37355345,-0.32803512,0.059788417,-3.0782046,0.6247851,-0.0006639113,-0.026084313,0.0058606104,0.0014517263,0.004336342,0.000475796,0.0058400715,0.44725138,-1.4695444,2.0084422,-2.107508,-1.5707473,2.4221542,-0.031870406,0.036164284,-0.045491662,0.01077985,-0.0042144475,-0.03767145,-0.05746084,0.45968673,-9.576807,0.7351769,47.685097,-0.63014764,-2.0236573,-3.4329422,-0.34705508,-0.0987822,-0.051542893,27.75,29.0,28.0,31.6875,33.6875,34.5
0.060054705,-0.9409955,-1.3180956,-0.6691403,-0.030972973,0.023103923,-0.17389816,-0.37359768,-0.3280203,0.05978718,-3.0781891,0.6247448,-0.00068248366,-0.026945617,0.0058886334,0.0019640347,0.0043637753,0.0011569324,0.004482776,0.4471911,-1.4694724,2.0083578,-2.1074722,-1.5707587,2.4220707,-0.032483082,0.03664778,-0.047383744,0.011586811,-0.004536333,-0.036925055,-0.17238252,0.40222588,-9.557653,0.7351769,47.70211,-0.62335205,-1.9858589,-3.473514,-0.36459288,-0.10010356,-0.077817395,27.75,29.0,28.0,31.6875,33.6875,34.5
0.06205474,-1.0673568,-0.73526967,-0.4932367,-0.03891859,0.03730474,-0.17477126,-0.3736548,-0.32803088,0.059813596,-3.0782428,0.6247173,-0.0006475803,-0.027759215,0.005740765,0.0022382447,0.004042081,0.0015207737,0.0034215814,0.447143,-1.4694241,2.0082386,-2.1074474,-1.5707349,2.4219987,-0.0330278,0.03762316,-0.04916161,0.011922444,-0.0044045774,-0.036407955,-0.11492168,0.34476504,-9.557653,0.7709874,47.672558,-0.6286305,-1.9106605,-3.4644165,-0.3641904,-0.10708771,-0.07957481,27.75,29.0,28.0,31.6875,33.6875,34.5
0.06405458,-0.80869234,-0.73028827,-0.3478023,-0.027305651,0.052959614,-0.17544445,-0.37373295,-0.32803458,0.059834573,-3.0783124,0.62478834,-0.0006015895,-0.02870562,0.0058476077,0.0016841408,0.0042179273,0.0007951335,0.004069815,0.4470467,-1.4693635,2.0081294,-2.1074722,-1.5706872,2.421938,-0.03418359,0.04024944,-0.050694373,0.0115597285,-0.004252007,-0.03821118,-0.1340753,0.24899697,-9.5385,0.69041777,47.672558,-0.5822941,-1.8866882,-3.46389,-0.35606015,-0.11084557,-0.07534195,27.75,29.0,28.0,31.6875,33.6875,34.5
0.066054165,-0.9237541,-0.46530637,-0.38739508,-0.01989174,0.05286109,-0.171252,-0.3738053,-0.3280268,0.05984478,-3.0783002,0.6247277,-0.00052781927,-0.029640565,0.005431678,0.0020260527,0.0037539813,0.0014153564,0.0046495474,0.44699863,-1.4692671,2.0079973,-2.1074593,-1.5707349,2.4218538,-0.03434351,0.041578062,-0.052986823,0.011761015,-0.0041057584,-0.038949717,-0.1340753,0.3256114,-9.5385,0.8112748,47.684196,-0.732146,-1.9738221,-3.4671235,-0.34570694,-0.12707414,-0.07401455,27.75,29.0,28.0,31.6875,33.6875,34.5
0.06805467,-1.0937057,0.008153048,-0.19794849,-0.0146354465,0.045239974,-0.17418681,-0.3738833,-0.3280213,0.059867904,-3.078305,0.6247293,-0.00048469295,-0.031228669,0.0056516128,0.0022962294,0.003953612,0.002857632,0.004688106,0.44692618,-1.4691827,2.0078409,-2.107412,-1.5707477,2.4217818,-0.03564244,0.043094475,-0.055143926,0.011189179,-0.0049148216,-0.040283967,-0.17238252,0.3256114,-9.442732,0.7351769,47.691364,-0.6903887,-1.9254367,-3.4442587,-0.3500373,-0.12903017,-0.059952613,27.75,29.0,28.0,31.6875,33.6875,34.5
0.070053816,-1.0209088,0.22034396,-0.2537002,-0.0068858475,0.041267175,-0.17533855,-0.3739205,-0.3279942,0.059854098,-3.0782638,0.6246055,-0.00052572845,-0.032489877,0.0057730437,0.0024102682,0.0047272006,0.0045460393,0.004898042,0.446866,-1.4690983,2.0077689,-2.1073644,-1.570784,2.4216497,-0.036039207,0.044540495,-0.05676656,0.010180733,-0.0063505704,-0.040885873,-0.19153613,0.22984336,-9.442732,0.85826975,47.67345,-0.7447172,-1.9428878,-3.4778109,-0.3408264,-0.13010858,-0.07077087,27.75,29.0,28.0,31.6875,33.6875,34.5
0.07205492,-0.96760505,0.2570346,-0.13657889,0.0026504572,0.046976637,-0.17681329,-0.37398785,-0.32798654,0.059845146,-3.0782819,0.6247063,-0.000573114,-0.03337655,0.0058986587,0.0020919673,0.005819588,0.0045635523,0.0028180403,0.4467579,-1.46899,2.007673,-2.1073759,-1.5707358,2.4216022,-0.036397822,0.046789847,-0.05849962,0.01012589,-0.0073458627,-0.03916099,-0.36391866,0.1340753,-9.404425,0.7665104,47.69763,-0.7514806,-1.9843504,-3.5014224,-0.3398863,-0.11923537,-0.08304788,27.75,29.0,28.0,31.6875,33.6875,34.5
0.07405423,-0.66873235,0.29291028,1.7632856e-05,-0.004261652,0.055320982,-0.1798767,-0.37403297,-0.32797608,0.05985271,-3.07826,0.6246063,-0.0005653549,-0.035600495,0.0049914652,0.0037815336,0.003927085,0.0084252665,0.0025464378,0.44672182,-1.4689177,2.0075629,-2.1073167,-1.570772,2.4215066,-0.036722787,0.047246914,-0.06276632,0.009633386,-0.007318349,-0.039211497,-0.36391866,0.15322891,-9.404425,0.7105615,47.642998,-0.8050921,-1.8668518,-3.3098927,-0.33603454,-0.097500056,-0.10604189,27.75,29.0,28.0,31.6875,33.6875,34.5
0.076054834,-1.5239097,-0.09933736,-0.25883743,0.003928989,0.034136772,-0.1646486,-0.37412718,-0.3279937,0.05987583,-3.0783074,0.62467337,-0.00047419246,-0.03558495,0.005941203,0.002052024,0.0049896855,0.0048213447,0.001920932,0.44666108,-1.468809,2.007396,-2.107341,-1.5707597,2.4214818,-0.03889255,0.05014752,-0.062001664,0.009674985,-0.0067155333,-0.040757604,-0.4213795,0.1340753,-9.3661175,0.7284641,47.658226,-0.79163647,-1.8823967,-3.3821898,-0.3139943,-0.12960988,-0.11337735,27.75,29.0,28.0,31.6875,33.6875,34.5
0.07805415,-0.54603374,0.06281591,-0.07672253,-0.0031336609,0.06398548,-0.18172544,-0.3742063,-0.3279674,0.05988445,-3.0783079,0.624635,-0.00039572254,-0.03674724,0.0062262104,0.002172177,0.005304184,0.0047693234,0.0011508384,0.44656456,-1.4687366,2.0072992,-2.107352,-1.5707959,2.4213614,-0.04029437,0.05174127,-0.064213604,0.010474578,-0.0069782822,-0.04138771,-0.4405331,0.17238252,-9.32781,0.8314132,47.683304,-0.66796815,-1.9806321,-3.4172637,-0.32228684,-0.124634765,-0.11719208,27.75,29.0,28.0,31.6875,33.6875,34.5
0.0800545,-1.0841832,0.04686418,-0.06404967,0.000909048,0.047722794,-0.17728835,-0.37427065,-0.32795998,0.059892334,-3.078295,0.6246706,-0.0004075952,-0.039613195,0.005498084,0.004828251,0.0032844488,0.0101703005,0.000696566,0.44649222,-1.468641,2.0071652,-2.1073043,-1.5707959,2.421313,-0.041159827,0.05101712,-0.06959432,0.010837075,-0.0074997703,-0.0417948,-0.28730422,0.019153614,-9.481039,0.6948948,47.66539,-0.76998454,-1.7991408,-3.3167975,-0.32774073,-0.116786614,-0.12544951,27.75,29.0,28.0,31.6875,33.6875,34.5
0.08205461,-0.73673517,0.6099806,-0.13912064,-0.0066618565,0.054837156,-0.17886695,-0.37435436,-0.32794073,0.059886616,-3.0782642,0.6246442,-0.00041838395,-0.03852931,0.005532197,0.003295098,0.0051793773,0.007140555,0.0024284907,0.44639665,-1.4684964,2.0070112,-2.107268,-1.5708202,2.421205,-0.039963376,0.05330243,-0.068676986,0.011184928,-0.0078989705,-0.04232956,-0.36391866,0.15322891,-9.385271,0.77545905,47.691364,-0.80941176,-1.8372039,-3.2731438,-0.32354617,-0.12692934,-0.14899863,27.75,29.0,28.0,31.6875,33.6875,34.5
0.08405474,-0.68700135,0.31722626,-0.10026773,-0.0038302175,0.056272417,-0.17562373,-0.37443975,-0.32795167,0.059920102,-3.0783234,0.6245618,-0.00030212113,-0.04034572,0.0056679025,0.0026018012,0.005033547,0.005881965,0.0004169158,0.44634792,-1.4684231,2.0068538,-2.107268,-1.5708321,2.4210975,-0.042309303,0.057680044,-0.071876846,0.011076103,-0.0072275563,-0.04266326,-0.34476504,0.24899697,-9.32781,0.7553206,47.687782,-0.83097374,-1.8818481,-3.3519168,-0.32897913,-0.13235536,-0.17026974,27.75,29.0,28.0,31.6875,33.6875,34.5
0.086054675,-0.9073104,-0.08464334,-0.3871039,-0.0038563285,0.05253426,-0.16735724,-0.3744954,-0.3279189,0.0598968,-3.078254,0.6246635,-0.00043385266,-0.04206755,0.005653014,0.0036762906,0.0039418857,0.008425024,-0.00018781134,0.4462275,-1.4682913,2.006746,-2.1071966,-1.5708197,2.4210494,-0.043745514,0.05766417,-0.074243136,0.010692954,-0.007350367,-0.043492302,-0.22984336,0.24899697,-9.404425,0.7911258,47.703903,-0.792826,-1.9746101,-3.2257698,-0.31853837,-0.13836731,-0.17512473,27.75,29.0,28.0,31.6875,33.6875,34.5
0.08805397,-0.99780923,-0.23914655,-0.24474491,-0.010621118,0.04445527,-0.1767147,-0.37458456,-0.3279141,0.059910648,-3.078261,0.6246077,-0.00037952562,-0.04371974,0.006558233,0.004520319,0.0044585764,0.00941984,-0.0015072764,0.44615453,-1.4681716,2.0065773,-2.1071723,-1.5708445,2.4209409,-0.046322677,0.057823908,-0.076738544,0.012355363,-0.008246456,-0.044747353,-0.40222588,0.21068975,-9.461885,0.800085,47.728977,-0.70000935,-1.7236705,-3.196272,-0.31726936,-0.13192889,-0.20520893,27.75,29.0,28.0,31.6875,33.6875,34.5
0.09005387,-1.321042,-0.686388,-0.27805606,-0.009423481,0.040679235,-0.16660541,-0.37464765,-0.3279017,0.059911873,-3.0782619,0.62458825,-0.00035391498,-0.043828037,0.0067232572,0.0031646318,0.0063893334,0.007255289,-0.000993303,0.4460825,-1.4680866,2.006481,-2.1071723,-1.5708569,2.4208567,-0.04617688,0.06137719,-0.07755178,0.012402712,-0.009055264,-0.045112967,-0.34476504,0.24899697,-9.423578,0.7620334,47.72271,-0.662402,-1.9476578,-3.279833,-0.32165474,-0.124533296,-0.23056781,27.75,29.0,28.0,31.6875,33.6875,34.5
0.092053935,-1.405241,-0.9027388,-0.40230536,-0.016980821,0.050712306,-0.16826768,-0.3747789,-0.32789898,0.05992344,-3.0782619,0.6246039,-0.0002866005,-0.04549568,0.0058375043,0.0041847313,0.005678207,0.0096215205,0.0025965555,0.44597477,-1.4678942,2.0062401,-2.1071599,-1.5708808,2.420759,-0.04574233,0.06291211,-0.08160574,0.012478435,-0.009442341,-0.048265226,-0.34476507,0.3256114,-9.385271,0.7553206,47.709274,-0.84054327,-1.9058192,-3.0375798,-0.3144797,-0.12903196,-0.22275758,27.75,29.0,28.0,31.6875,33.6875,34.5
0.09405445,-1.2758459,-0.86664647,-0.4585184,-0.01976823,0.0613029,-0.1689688,-0.37485358,-0.3278832,0.059930846,-3.0782683,0.6245686,-0.0002872594,-0.045174163,0.007613935,0.0023120283,0.00837587,0.0061778543,0.0011241041,0.4458779,-1.4677978,2.006109,-2.1071246,-1.5708812,2.4206393,-0.048138544,0.064857624,-0.07951008,0.012709768,-0.010386117,-0.049188133,-0.2873042,0.24899697,-9.461885,0.7866488,47.687782,-0.7478372,-1.9837477,-3.28625,-0.30348295,-0.12753794,-0.2274852,27.75,29.0,28.0,31.6875,33.6875,34.5
0.09605451,-1.3564395,-0.79874235,-0.4026478,-0.02468233,0.05684424,-0.1664191,-0.3749741,-0.32786614,0.059959613,-3.0782657,0.62456954,-0.0001678382,-0.046761766,0.007914086,0.0025431463,0.008905298,0.007175456,-0.0013702692,0.44576946,-1.4676776,2.0059054,-2.1071002,-1.5709294,2.420532,-0.049505528,0.06665211,-0.08203204,0.012765681,-0.011295526,-0.048057858,-0.28730422,0.24899697,-9.481039,0.8179876,47.694054,-0.7531452,-1.8835912,-3.3106155,-0.3143542,-0.10263455,-0.27476197,27.75,29.0,28.0,31.6875,33.6875,34.5
0.09805424,-1.2551944,-0.7661652,-0.23253596,-0.027705282,0.048701245,-0.1662748,-0.3750756,-0.32785955,0.059967678,-3.0782669,0.6245879,-0.00012768035,-0.047823645,0.0075988015,0.0028531232,0.0086980015,0.007499252,-1.0376916e-05,0.44567338,-1.467533,2.0057251,-2.1070879,-1.5709413,2.4204473,-0.04988767,0.06833887,-0.08475552,0.013418338,-0.011251723,-0.04979856,-0.28730422,0.2681506,-9.423578,0.7709874,47.694054,-0.7614268,-1.9577107,-3.0636258,-0.30309978,-0.08663051,-0.29730225,27.75,29.0,28.0,31.6875,33.6875,34.5
0.10005435,-0.97658324,-0.6294885,-0.34703103,-0.016079748,0.03691671,-0.16788504,-0.37516207,-0.32782638,0.05996438,-3.0782254,0.6246753,-0.00014567102,-0.048668094,0.00773329,0.00240787,0.008814591,0.007157124,0.0005869825,0.44554102,-1.4674126,2.005592,-2.107052,-1.5709532,2.4203749,-0.05091277,0.07040821,-0.085885994,0.012835545,-0.011214701,-0.051419683,-0.24899697,0.22984336,-9.385271,0.75755644,47.68599,-0.71363693,-1.9291381,-3.2919693,-0.3066597,-0.108977824,-0.31608066,27.75,29.0,28.0,31.6875,33.6875,34.5
0.10205422,-0.841569,-0.31494904,-0.46637633,-0.010004821,0.02407164,-0.16386586,-0.37527594,-0.3278406,0.059985727,-3.0782428,0.62463915,-6.4160624e-05,-0.049648374,0.007067111,0.0026239837,0.0075673126,0.007325803,0.0020946672,0.44548094,-1.4672444,2.0053527,-2.1070282,-1.5709771,2.4202902,-0.051241007,0.07222461,-0.088388436,0.012825418,-0.010165308,-0.053256348,-0.17238252,0.21068975,-9.385271,0.80679786,47.686886,-0.80822647,-2.0018098,-3.1863132,-0.2793939,-0.12322408,-0.31836668,27.75,29.0,28.0,31.6875,33.6875,34.5
0.10405475,-0.24478836,-0.046088442,-0.2638427,-0.0152771445,0.025991188,-0.17211716,-0.37538114,-0.32782078,0.059982948,-3.078243,0.6246414,-6.4021064e-05,-0.050618228,0.0068858746,0.0026444024,0.0071878186,0.00758236,-0.0007733169,0.44534877,-1.467088,2.0051844,-2.1070168,-1.5709771,2.4201596,-0.051912345,0.07389012,-0.09022801,0.012603368,-0.009936414,-0.05105874,-0.24899697,0.21068975,-9.3661175,0.75084364,47.701214,-0.8591842,-1.966116,-3.134438,-0.27536923,-0.10703675,-0.37543947,27.75,29.0,28.0,31.6875,33.6875,34.5
0.10605446,-0.5160629,-0.4152801,-0.37574983,-0.0054511335,0.016503097,-0.16638854,-0.3754721,-0.32780057,0.05998321,-3.0782144,0.6246328,-0.0001252048,-0.05120018,0.00655149,0.002725368,0.0076947743,0.007932309,0.0007488104,0.44522905,-1.4669318,2.0049927,-2.1069324,-1.5709776,2.4200382,-0.05137927,0.075376265,-0.09213312,0.012925397,-0.010550476,-0.05204488,-0.17238252,0.17238252,-9.308656,0.78217715,47.694946,-0.9169539,-1.9864553,-3.1593213,-0.23902678,-0.11966607,-0.40345716,27.75,28.9375,28.0,31.6875,33.6875,34.5
0.10805463,-0.88954157,-0.18190326,-0.34889302,-0.0013254494,0.013514946,-0.16427258,-0.37560165,-0.3277917,0.06001123,-3.0782115,0.624651,6.290818e-05,-0.05297483,0.0072747134,0.0027117825,0.0082830135,0.008052822,0.00059936865,0.44514412,-1.4667994,2.0047882,-2.1069562,-1.5710496,2.4199653,-0.053925004,0.0775944,-0.09465169,0.013366566,-0.011133151,-0.05443942,-0.038307227,0.22984336,-9.308657,0.7463667,47.693153,-0.9035171,-1.9679847,-3.1099045,-0.24851246,-0.12063734,-0.4294414,27.75,28.9375,28.0,31.6875,33.6875,34.5
0.11005438,-0.6041026,-0.15751696,-0.3159173,0.00072741346,0.024148561,-0.17707534,-0.3756879,-0.3277754,0.060004603,-3.0781937,0.6246274,1.6980746e-05,-0.053152945,0.007523579,0.0028176524,0.0093101915,0.007937636,0.0032873699,0.44503605,-1.4666435,2.0046208,-2.106908,-1.57105,2.4198449,-0.053942822,0.07789008,-0.095476426,0.014442303,-0.012012667,-0.057142995,-0.038307227,0.21068975,-9.346964,0.78888994,47.688675,-0.88531435,-1.8937068,-3.1728203,-0.26276442,-0.08839055,-0.43668592,27.75,28.9375,28.0,31.6875,33.6875,34.5
0.11205447,-1.1267643,-0.6383038,-0.44412833,0.008020066,0.016245345,-0.16452862,-0.37577605,-0.3277543,0.059985198,-3.0781763,0.6246021,-2.9842538e-05,-0.052438382,0.006882176,0.0014693566,0.011086444,0.005043602,0.007761421,0.44491696,-1.4664743,2.0044763,-2.1068957,-1.57105,2.4197123,-0.051838294,0.0814809,-0.0965472,0.015297663,-0.012373546,-0.05951046,0.0,0.19153613,-9.385271,0.80456203,47.693153,-1.1261857,-2.1332517,-3.1657681,-0.23043771,-0.07664149,-0.45391482,27.75,28.9375,28.0,31.6875,33.6875,34.5
0.11405477,-0.23298408,-0.14134154,-0.30790448,-0.025435809,0.028894596,-0.17725277,-0.37588412,-0.32774818,0.059982464,-3.0781467,0.6245379,-2.4766927e-05,-0.05433108,0.006952366,0.0032976521,0.00939968,0.008463407,0.009570085,0.44483218,-1.4662715,2.0042484,-2.106848,-1.5710858,2.4195914,-0.053684816,0.079984136,-0.09917481,0.0156038245,-0.012330392,-0.06316426,-0.05746084,0.21068975,-9.32781,0.76874626,47.679718,-1.0678499,-1.8946128,-3.1441574,-0.21857548,-0.08278984,-0.44834986,27.75,28.9375,28.0,31.6875,33.6875,34.5
0.11605452,-0.62883896,-0.7194769,-0.42978203,-0.016091593,0.011771844,-0.17051667,-0.37599784,-0.32774714,0.060005896,-3.0781724,0.62454087,5.792256e-05,-0.05422668,0.007848473,0.00065651507,0.011346227,0.0027863202,0.01119687,0.44473547,-1.4661379,2.0040448,-2.1068356,-1.5710973,2.4194934,-0.05572086,0.085335284,-0.09915876,0.016192418,-0.011641273,-0.06682843,-0.076614454,0.24899697,-9.346964,0.7732232,47.670765,-1.1085162,-2.0071235,-3.1689582,-0.2265979,-0.067036055,-0.43691206,27.75,28.9375,28.0,31.6875,33.6875,34.5
0.118054375,-0.29232526,-0.39585474,-0.37949252,-0.026944067,0.010071859,-0.1786934,-0.3761131,-0.32771927,0.05999474,-3.078129,0.6244329,1.683148e-05,-0.054936893,0.0072812326,0.0018852354,0.009497255,0.0048633525,0.01634435,0.44460353,-1.4659226,2.0038168,-2.1067636,-1.571133,2.4192998,-0.055790674,0.08407572,-0.10061292,0.01622593,-0.010875034,-0.0720459,0.0,0.17238252,-9.346964,0.79560274,47.65106,-1.0619887,-2.0040731,-3.228055,-0.21927594,-0.117159076,-0.40139908,27.75,28.9375,28.0,31.6875,33.6875,34.5
0.12005443,-0.56576425,-0.4185937,-0.16020855,-0.02103771,0.003952254,-0.17085545,-0.3762403,-0.3277097,0.060015343,-3.0781546,0.6243782,0.00013985761,-0.05521204,0.007303617,0.0008102734,0.010541298,0.0030655637,0.021261126,0.44449553,-1.4657776,2.0036128,-2.1067755,-1.5711693,2.4191546,-0.05594695,0.087210454,-0.101593085,0.016136952,-0.011043629,-0.07711834,-0.038307227,0.17238252,-9.289502,0.800085,47.672558,-1.2132885,-2.0687022,-3.289812,-0.20107958,-0.084656924,-0.3507666,27.75,28.9375,28.0,31.6875,33.6875,34.5
0.122054204,-0.25490493,-0.1121537,-0.29414496,-0.0016318888,0.017050395,-0.17174308,-0.37634712,-0.32770726,0.06002276,-3.0781898,0.6243256,0.00015774554,-0.056339562,0.007835301,0.00066949846,0.010721308,0.0027360234,0.024227295,0.44438678,-1.4656216,2.003421,-2.1067636,-1.5711573,2.4190087,-0.057922255,0.088785194,-0.103084035,0.016424766,-0.011067138,-0.08205901,-0.038307227,0.21068975,-9.289502,0.8112748,47.687782,-1.228874,-2.0246782,-3.3092709,-0.18705177,-0.07424058,-0.31341332,27.75,28.9375,28.0,31.6875,33.6875,34.5
0.12405466,-0.62757415,0.38263795,-0.27858406,0.0057397676,0.008974688,-0.17462265,-0.3764649,-0.3276824,0.060018215,-3.078151,0.6242192,0.0001576197,-0.05796393,0.0073784757,0.001456163,0.009266335,0.004361325,0.02785741,0.44426638,-1.4654175,2.0031931,-2.106704,-1.571205,2.418827,-0.05891101,0.0899105,-0.10609412,0.016206121,-0.010463834,-0.086676635,-0.019153614,0.1340753,-9.289502,0.7486078,47.684196,-1.1483786,-2.0093493,-3.1729217,-0.16308813,-0.10869064,-0.24903403,27.75,28.9375,28.0,31.6875,33.6875,34.5
0.12605436,-0.85369074,0.31871825,-0.28459537,0.008591395,0.010483638,-0.16602643,-0.37659094,-0.32768288,0.06005139,-3.0782173,0.6241549,0.00023410731,-0.057309348,0.008584264,1.9078512e-05,0.011330305,0.0010184948,0.02936332,0.44414595,-1.4652853,2.0029657,-2.1066792,-1.5711931,2.4186583,-0.060279243,0.09124697,-0.10450896,0.017189253,-0.010880427,-0.08955179,-0.019153614,0.05746084,-9.270349,0.7709874,47.64479,-1.1932765,-1.9915161,-3.4064193,-0.16468315,-0.100677215,-0.20939803,27.75,28.9375,28.0,31.6875,33.6875,34.5
0.12805462,-0.5343471,-0.07534145,-0.19775431,0.010018406,0.027954228,-0.17419758,-0.37668577,-0.32766843,0.0600225,-3.0781798,0.6240312,0.00016762463,-0.05933951,0.0080490885,0.0011269895,0.009858627,0.0025977,0.03014607,0.44404966,-1.4650574,2.0027726,-2.1066434,-1.571217,2.4184897,-0.06150998,0.09278251,-0.10895299,0.018032616,-0.0102449125,-0.09156312,-0.19153614,0.095768064,-9.212888,0.80679786,47.67166,-1.1655766,-2.0442717,-3.197742,-0.14676845,-0.09755956,-0.17649372,27.75,28.9375,28.0,31.6875,33.6875,34.5
0.13005453,-0.904682,0.25416854,-0.42490938,-0.0019857222,0.02343388,-0.16664031,-0.3767976,-0.32763195,0.060031693,-3.0781448,0.62394726,0.00015466193,-0.059222497,0.008771382,9.618537e-05,0.011336695,0.00019719666,0.029337535,0.44390523,-1.4649009,2.002557,-2.106547,-1.5712532,2.4182975,-0.062530704,0.094577014,-0.10876936,0.018853322,-0.01055031,-0.091774434,-0.17238252,0.05746084,-9.32781,0.7463667,47.694946,-1.1049112,-1.9912568,-3.3919876,-0.15187529,-0.103495464,-0.14194599,27.75,28.9375,28.0,31.6875,33.6875,34.5
0.13205454,-1.2560697,-0.21804588,-0.286657,-0.005210441,0.028395265,-0.17334944,-0.37692145,-0.3276184,0.060032193,-3.0781512,0.6238541,0.00019170396,-0.059577696,0.009146758,-0.0007429579,0.012527451,-0.0020276245,0.026607202,0.44378498,-1.4647084,2.002341,-2.1065352,-1.5712775,2.4181185,-0.06345036,0.097258486,-0.110082634,0.020004075,-0.010669387,-0.08996282,-0.21068975,0.095768064,-9.251195,0.7978386,47.666286,-1.1511731,-1.9483979,-3.424271,-0.15238842,-0.09918331,-0.14501283,27.75,28.9375,28.0,31.6875,33.6875,34.5
0.13405368,-1.2409185,-0.1998376,-0.31135643,-0.005868266,0.032445695,-0.16642292,-0.37704253,-0.3276013,0.06002593,-3.0781498,0.6237777,0.00018695762,-0.06116585,0.009372489,0.0010211576,0.010890736,0.0011792897,0.024850138,0.4436523,-1.4645053,2.002126,-2.1065109,-1.5712894,2.4179385,-0.065335415,0.09520987,-0.11195853,0.020326726,-0.01057304,-0.090090215,-0.2681506,0.0,-9.385271,0.7553206,47.61434,-1.1337528,-1.8549821,-3.4428735,-0.13945892,-0.091363,-0.12936129,27.75,28.9375,28.0,31.6875,33.6875,34.5
0.13605437,-1.1166917,-0.43362737,-0.3129749,0.0010584051,0.04295746,-0.16854177,-0.37718484,-0.32760322,0.06004511,-3.078188,0.6236722,0.00018882354,-0.061860878,0.009360221,0.00038623883,0.011409236,0.00045735625,0.018062746,0.44352016,-1.464289,2.001827,-2.1064394,-1.5712775,2.4177358,-0.065800555,0.09784123,-0.113341056,0.019957589,-0.0107322065,-0.08376648,-0.36391866,-0.019153614,-9.308656,0.7463667,47.692257,-1.2213031,-1.8223696,-3.4158707,-0.1405071,-0.09939312,-0.18610935,27.75,28.9375,28.0,31.6875,33.6875,34.5
0.13805442,-1.0075347,0.55191916,-0.34223562,-0.0047522695,0.053687114,-0.17938913,-0.37727258,-0.32755712,0.060003184,-3.0781057,0.6236022,0.00011598993,-0.06457669,0.009197591,0.002298555,0.009632322,0.0043249163,0.013001299,0.44338748,-1.4640853,2.001693,-2.106415,-1.5713257,2.41757,-0.06786107,0.09779457,-0.117731586,0.020136163,-0.010802149,-0.08076193,-0.30645782,0.076614454,-9.308656,0.8023209,47.71465,-1.2079899,-1.8467512,-3.503193,-0.119172156,-0.11353102,-0.23657641,27.75,28.9375,28.0,31.6875,33.6875,34.5
0.14005466,-1.4431586,0.088555135,-0.36854407,0.01103462,0.04524234,-0.16805021,-0.37742892,-0.32754847,0.060039878,-3.0781422,0.6235336,0.00025302864,-0.06439107,0.009878566,0.0007029296,0.010635128,0.0003529748,0.011032995,0.44325492,-1.4639167,2.0014174,-2.1063912,-1.571361,2.4173903,-0.06948364,0.10077758,-0.117582545,0.021015465,-0.0099954,-0.08041852,-0.36391866,0.05746084,-9.461885,0.8090337,47.693153,-1.2081659,-1.8888228,-3.431852,-0.12744877,-0.10241625,-0.2562651,27.75,28.9375,28.0,31.6875,33.6875,34.5
0.14205472,-1.601821,-0.073437,-0.63307273,0.017018827,0.03911742,-0.16786945,-0.37754413,-0.3275456,0.06004006,-3.0781512,0.6235559,0.00018742602,-0.06599343,0.01002977,0.0013697102,0.0108648585,0.0015887701,0.008077669,0.4431226,-1.4637126,2.001178,-2.1063306,-1.5713257,2.417271,-0.070673734,0.102016054,-0.12069211,0.021874305,-0.010739274,-0.07864986,-0.47884035,0.095768064,-9.481039,0.8179876,47.71465,-1.207869,-1.8712311,-3.33036,-0.105957866,-0.12195745,-0.29731953,27.75,28.9375,28.0,31.6875,33.6875,34.5
0.14405455,-1.3536536,-0.033099625,-0.6127767,0.0036994715,0.058492072,-0.17358857,-0.37768942,-0.3274952,0.060036793,-3.0781007,0.623545,0.0002027754,-0.06707067,0.01032683,0.0012744348,0.0116563365,0.0013043414,0.008833193,0.44293013,-1.4635082,2.0009491,-2.106283,-1.5713733,2.4170783,-0.07175703,0.10405755,-0.12292432,0.022656072,-0.011338763,-0.0804859,-0.5746084,0.095768064,-9.423578,0.8247004,47.674347,-1.1724159,-1.8786552,-3.3368993,-0.11765346,-0.124476686,-0.3136354,27.75,28.9375,28.0,31.6875,33.6875,34.5
0.14605466,-1.8274143,-0.20615785,-0.8460246,-0.010959039,0.05647981,-0.17109911,-0.37781996,-0.3274997,0.060032737,-3.0781329,0.62349427,0.00015275914,-0.06814263,0.0104591865,0.0017336659,0.010743636,0.0013405572,0.008187333,0.44279766,-1.4632684,2.0006855,-2.1062467,-1.5713376,2.4169102,-0.07347433,0.104713626,-0.12493813,0.023587683,-0.01053381,-0.08155781,-0.57460845,0.19153613,-9.5385,0.7866488,47.684196,-1.1963638,-1.8225577,-3.3441978,-0.09832112,-0.09598329,-0.319813,27.75,28.9375,28.0,31.6875,33.6875,34.5
0.1480548,-1.2657325,-0.57885873,-0.6864306,-0.017336179,0.08343679,-0.17307742,-0.3779485,-0.32746434,0.060052894,-3.0780618,0.62344223,0.00017415298,-0.06911635,0.011037698,0.0019001627,0.012025633,0.0012579416,0.0066991094,0.4426652,-1.4630883,2.0004103,-2.1061146,-1.5714101,2.4167545,-0.07464158,0.10592326,-0.12700887,0.025069697,-0.011661186,-0.08123324,-0.6895301,0.19153613,-9.615114,0.8224646,47.686886,-1.1381819,-1.7495883,-3.3558037,-0.124672174,-0.120364934,-0.343506,27.75,28.9375,28.0,31.6875,33.6875,34.5
0.15005396,-1.5909531,-0.5899338,-0.85940033,-0.029481936,0.07460825,-0.1737809,-0.37809744,-0.32745227,0.060061466,-3.0780804,0.6234241,0.00020192975,-0.06942295,0.011065662,0.0014601962,0.0123399105,-0.00025693644,0.008753584,0.44250914,-1.4628719,2.0001462,-2.1060898,-1.5714096,2.416585,-0.07517839,0.107823506,-0.1283312,0.025990004,-0.0112973,-0.08382475,-0.53630114,0.11492168,-9.519346,0.8291774,47.686886,-1.1501192,-1.5735524,-3.3617272,-0.12680265,-0.112920955,-0.35306388,27.75,28.9375,28.0,31.6875,33.6875,34.5
0.15205441,-1.6996717,-0.7748441,-0.8388607,-0.02695034,0.06983453,-0.17736009,-0.37825575,-0.3274137,0.06006564,-3.078032,0.62343514,0.00023047089,-0.0715341,0.012495419,0.0005442686,0.013199845,-0.0019477144,0.0033469158,0.44232756,-1.4626429,1.9998702,-2.1060302,-1.5714573,2.4164166,-0.079663,0.11170468,-0.1306078,0.026276687,-0.011356514,-0.08290061,-0.61291564,0.17238252,-9.576807,0.82022345,47.684196,-1.0624716,-1.8006474,-3.3268769,-0.12337318,-0.11201687,-0.3763054,27.75,28.9375,28.0,31.6875,33.6875,34.5
0.15405412,-1.9053103,-0.9190981,-0.8051823,-0.023273569,0.05852449,-0.17408514,-0.37839156,-0.32740405,0.06006334,-3.0780342,0.62337726,0.00024074267,-0.07153683,0.011751666,0.0002945071,0.013254135,-0.0020312974,0.008024044,0.44219616,-1.4624152,1.9996184,-2.106006,-1.5714692,2.416249,-0.0782292,0.11323206,-0.13166021,0.025895078,-0.011375603,-0.08614299,-0.51714754,0.24899697,-9.634268,0.7553206,47.68062,-1.0688661,-1.6513135,-3.3108888,-0.116274536,-0.10912553,-0.40018383,27.75,28.9375,28.0,31.6875,33.6875,34.5
0.15605435,-1.3442534,-1.0684842,-0.9579967,-0.01564814,0.06938082,-0.17234561,-0.37853637,-0.32735735,0.060055394,-3.0779743,0.6233812,0.0002116321,-0.07244736,0.011715963,-0.00025559685,0.012404229,-0.0033867848,0.012178666,0.4420035,-1.4621865,1.9993676,-2.1059344,-1.571505,2.4160666,-0.0798356,0.11585508,-0.13329014,0.025747985,-0.010040331,-0.09190483,-0.38307226,0.17238252,-9.595961,0.75755644,47.707485,-1.1390635,-1.9568636,-3.3519845,-0.095404215,-0.1581704,-0.338554,27.75,28.9375,28.0,31.6875,33.6875,34.5
0.1580545,-1.3551389,-0.5943862,-0.6591675,-0.019523576,0.060349263,-0.17653777,-0.37867963,-0.3273583,0.060068827,-3.0780137,0.6233136,0.00023260048,-0.07610094,0.012825721,0.0009835499,0.011642033,-0.00045175088,0.010495707,0.44186977,-1.4619706,1.9990901,-2.1058986,-1.5714935,2.415886,-0.084745236,0.117282026,-0.13773914,0.0257897,-0.010616324,-0.09512784,-0.30645782,0.19153613,-9.519346,0.842603,47.670765,-0.88937885,-1.7336458,-3.2558799,-0.092666686,-0.13299064,-0.34313053,27.75,28.9375,28.0,31.6875,33.6875,34.5
0.1600541,-1.3049363,-0.09508225,-0.6226855,-0.023128835,0.050254043,-0.18173972,-0.37883052,-0.3273173,0.060068697,-3.0779748,0.6231665,0.00021510739,-0.0753324,0.012573223,0.00043538935,0.012749353,-0.0011926903,0.018153384,0.44169056,-1.4617307,1.9988035,-2.1058028,-1.5715412,2.41562,-0.08308387,0.11787313,-0.13715194,0.025744626,-0.011308678,-0.101122506,-0.3256114,0.11492168,-9.519346,0.8179876,47.70211,-1.0174642,-1.8355129,-3.4219065,-0.08567169,-0.11252837,-0.25772795,27.75,28.9375,28.0,31.6875,33.6875,34.5
0.16205443,-1.1718948,-0.34403452,-0.55822307,-0.008113528,0.0493477,-0.17117414,-0.37900007,-0.3273032,0.060071893,-3.0779972,0.6231105,0.00026862288,-0.07673836,0.013358275,-0.00023435843,0.012937752,-0.0024313633,0.021274097,0.44152144,-1.4614781,1.9985169,-2.1058028,-1.5715536,2.4154134,-0.085999705,0.12067606,-0.13873969,0.025719283,-0.010954173,-0.10715885,-0.3256114,0.15322891,-9.461885,0.83813137,47.701214,-0.9144094,-1.84256,-3.293885,-0.06547221,-0.13730496,-0.20327389,27.75,28.9375,28.0,31.6875,33.6875,34.5
0.16405441,-1.06463,0.21532214,-0.35694823,-0.007885152,0.042218726,-0.17773262,-0.37917247,-0.32728684,0.06008287,-3.0780084,0.6230342,0.00032063026,-0.07829001,0.013474478,0.000104287734,0.0130246505,-0.0015362065,0.024325764,0.44135326,-1.4612262,1.9982051,-2.105767,-1.5715774,2.4151964,-0.08723976,0.12241108,-0.14152426,0.025989456,-0.011421433,-0.11144814,-0.4405331,0.17238252,-9.32781,0.800085,47.693153,-0.96615124,-1.7534803,-3.2712712,-0.064520836,-0.1324167,-0.14162543,27.75,28.9375,28.0,31.6875,33.6875,34.5
0.16605443,-0.86239624,-0.29842907,-0.23583122,0.01258758,0.03952277,-0.16896062,-0.37933224,-0.32723227,0.06009866,-3.0779939,0.62301034,0.00034195615,-0.07878007,0.013420064,-0.0003875264,0.0132509945,-0.0029751088,0.02630299,0.4411251,-1.4610456,1.9979528,-2.105695,-1.5716013,2.4149554,-0.08779998,0.124765635,-0.14318,0.026679095,-0.011016681,-0.1139853,-0.40222588,0.076614454,-9.385271,0.82022345,47.66987,-0.8948756,-1.8898094,-3.2681832,-0.0494921,-0.13855971,-0.07042128,27.75,28.9375,28.0,31.6875,33.6875,34.5
0.16805457,-1.083974,-0.21164387,-0.25518927,0.009991983,0.029634928,-0.16660969,-0.37951085,-0.3272199,0.06011024,-3.0780048,0.6229198,0.0004201549,-0.08133611,0.014913693,0.0005371353,0.0129130045,-0.0013222205,0.020862058,0.44096744,-1.4607819,1.997629,-2.1056707,-1.5716375,2.41474,-0.09254762,0.12488527,-0.14561471,0.027351616,-0.011417057,-0.11329043,-0.34476504,0.1340753,-9.308657,0.74413085,47.667187,-0.77958685,-1.8213646,-3.1827674,-0.05469811,-0.14965901,-0.051604062,27.75,28.9375,28.0,31.6875,33.6875,34.5
0.17005454,-0.86094725,0.1385236,-0.42259452,0.010837728,0.035931736,-0.17133243,-0.3796608,-0.32719934,0.060100336,-3.0779836,0.6227818,0.00038082135,-0.08182315,0.014024416,-0.00033211918,0.014597889,-0.0028892234,0.01986682,0.44081193,-1.4605047,1.9973286,-2.1055987,-1.5716618,2.4145014,-0.09069875,0.12966613,-0.14914893,0.028242996,-0.01228281,-0.11044153,-0.30645782,0.15322891,-9.32781,0.76874626,47.68062,-0.84511673,-1.9870763,-3.2511823,-0.047165815,-0.1500673,-0.0677066,27.75,28.9375,28.0,31.6875,33.6875,34.5
0.17205438,-1.1701334,0.06276171,-0.2100714,0.012530642,0.032689042,-0.16828153,-0.3798506,-0.3271755,0.060119662,-3.0779939,0.6227871,0.0004338793,-0.08223254,0.015702214,-0.0018649074,0.015858106,-0.0065905694,0.012669273,0.4406068,-1.4602525,1.9969944,-2.1055505,-1.5716738,2.4142985,-0.094443776,0.13210835,-0.14856876,0.029104583,-0.011837204,-0.10699055,-0.22984336,0.1340753,-9.32781,0.79560274,47.672558,-0.81859285,-1.9201899,-3.3028724,-0.033060774,-0.13974144,-0.09519203,27.75,28.9375,28.0,31.6875,33.6875,34.5
0.17405438,-0.6785322,0.112908036,0.041206203,-0.0008960644,0.053050015,-0.17652628,-0.38000324,-0.32715198,0.06012018,-3.0779798,0.62274724,0.00038646683,-0.082622334,0.015104167,-0.0014773799,0.01636805,-0.005827737,0.010525473,0.44042727,-1.4600005,1.9966949,-2.1054661,-1.5716738,2.414096,-0.093095034,0.13307509,-0.150721,0.029822296,-0.012631006,-0.10349483,-0.3256114,0.11492168,-9.174581,0.8873621,47.658226,-0.68931067,-1.9724936,-3.3225026,-0.03717805,-0.1500237,-0.1266836,27.75,28.9375,28.0,31.6875,33.6875,34.5
0.17605446,-1.1796305,0.09691508,-0.03836916,0.0024854874,0.039087623,-0.16844715,-0.38017285,-0.32711026,0.060116727,-3.0779386,0.62266374,0.0004541226,-0.083469994,0.014877805,-0.0011727609,0.015733218,-0.005632751,0.0064439843,0.44024715,-1.4597489,1.9964188,-2.1054423,-1.5717458,2.4138694,-0.09370419,0.1341519,-0.15275875,0.030329142,-0.0121432245,-0.100022346,-0.30645782,0.095768064,-9.078813,0.6948948,47.6636,-0.85965824,-1.9228631,-3.3427682,-0.028456759,-0.15528078,-0.18602523,27.75,28.9375,28.0,31.6875,33.6875,34.5
0.17805406,-0.9618681,0.21942292,0.05434891,0.0017458776,0.044546176,-0.16878851,-0.38036492,-0.3270706,0.06012006,-3.0779161,0.622679,0.0004761176,-0.08424599,0.014849737,-0.0010360791,0.015950643,-0.0057698246,0.0041393265,0.440019,-1.4594728,1.9960946,-2.1053941,-1.5717701,2.4136539,-0.09418739,0.13554955,-0.15486528,0.03125237,-0.012285636,-0.09819949,-0.3256114,0.15322891,-9.11712,0.83589023,47.64927,-0.8269701,-1.9126523,-3.3205419,-0.026289847,-0.13279511,-0.23119503,27.75,28.9375,28.0,31.6875,33.6875,34.5
0.18005429,-0.6795051,0.047011856,0.07795711,0.0058980472,0.04175145,-0.16333038,-0.38052827,-0.32706675,0.060141508,-3.0779338,0.6227226,0.0004652822,-0.084696785,0.014791684,-0.0012539382,0.01607411,-0.0068526175,0.0015494011,0.43985078,-1.4592327,1.9957603,-2.1053102,-1.5717458,2.4135108,-0.09466413,0.13726892,-0.15652423,0.032225985,-0.011937517,-0.09608622,-0.28730422,0.19153613,-9.040505,0.7284641,47.67166,-0.90122885,-1.9482813,-3.2592034,-0.04100822,-0.16780947,-0.2765166,27.75,28.9375,28.0,31.6875,33.6875,34.5
0.18205424,-0.3740155,-0.09775655,-0.040626537,0.020396607,0.029364642,-0.16215913,-0.3806714,-0.32703614,0.060106367,-3.0778635,0.62257457,0.0004145949,-0.08484287,0.014604804,-0.0012368168,0.016442219,-0.007456706,0.00021669104,0.43970704,-1.4589208,1.9954842,-2.1052616,-1.5718058,2.4132838,-0.09434819,0.13822189,-0.15791973,0.03336686,-0.012022812,-0.09443583,-0.28730422,0.17238252,-9.021352,0.7866488,47.65912,-0.942362,-1.8240669,-3.3097622,-0.05054543,-0.1537945,-0.32540447,27.75,28.9375,28.0,31.6875,33.6875,34.5
0.1840543,-0.26459336,0.040797755,-0.08431837,0.020787366,0.017698713,-0.16430539,-0.38087487,-0.32697827,0.060112022,-3.0777946,0.6227323,0.00043151248,-0.08443848,0.014795953,-0.0015977109,0.01787111,-0.008990115,0.0006428659,0.43944317,-1.4586452,1.9951495,-2.1051896,-1.5718421,2.4131274,-0.09385541,0.13903871,-0.1584138,0.035035677,-0.01266564,-0.09436783,-0.2681506,0.17238252,-9.040505,0.7866488,47.678825,-1.0032854,-1.8011721,-3.3077898,-0.05572211,-0.13681425,-0.3548516,27.75,28.9375,28.0,31.6875,33.6875,34.5
0.18605436,-0.24807344,0.0783854,-0.18578027,0.012747927,0.009301537,-0.16742626,-0.38105923,-0.3269411,0.060113803,-3.077776,0.6226914,0.00043682262,-0.08586052,0.014913546,-0.00082300603,0.017356882,-0.0079908725,-0.002703061,0.43922672,-1.4583693,1.9948257,-2.105129,-1.5718659,2.412888,-0.09529862,0.13967948,-0.16115788,0.036013477,-0.01263215,-0.09246368,-0.1340753,0.24899697,-9.155427,0.8247004,47.70211,-1.0793233,-1.759403,-3.263746,-0.05708192,-0.16823055,-0.42815495,27.75,28.9375,28.0,31.6875,33.6875,34.5
0.18805462,-0.17885144,-0.2758801,-0.3036197,0.011545457,0.0023815678,-0.16449368,-0.3812154,-0.32693127,0.06010497,-3.0777164,0.622659,0.00039361743,-0.08701013,0.015214657,-0.0008252047,0.019233566,-0.008683171,-0.00092958857,0.43909457,-1.4580568,1.9944776,-2.1050327,-1.5719022,2.4127436,-0.095886536,0.14236541,-0.16468629,0.038277358,-0.014048083,-0.094819464,0.0,0.24899697,-9.155427,0.8940802,47.701214,-1.0490803,-1.9783354,-3.2824688,-0.07943359,-0.16262531,-0.4729587,27.75,28.9375,28.0,31.6875,33.6875,34.5
0.19005401,-0.16339973,-0.7803177,-0.5249538,0.002215918,-0.0037045586,-0.16374645,-0.3813849,-0.32689118,0.06009139,-3.0776613,0.6226652,0.00031156413,-0.08713623,0.015820587,-0.0007828153,0.019710911,-0.010522682,0.0018114779,0.43887794,-1.4577576,1.9941548,-2.104936,-1.5719141,2.412538,-0.09730284,0.14267208,-0.16576211,0.040903497,-0.013708521,-0.0989767,0.095768064,0.24899697,-9.174581,0.8179876,47.719128,-1.0353981,-1.7151,-3.3306308,-0.09970702,-0.15760082,-0.48134297,27.75,28.9375,28.0,31.6875,33.6875,34.5
0.19205426,-0.27634782,-0.78162,-0.428276,-0.009155249,-0.009134311,-0.16573927,-0.38154417,-0.32686114,0.060080178,-3.0776274,0.6225584,0.000258955,-0.08852912,0.016094577,-0.000112277725,0.019527119,-0.008788866,0.00786126,0.43869758,-1.45747,1.9938425,-2.104852,-1.5719384,2.4122956,-0.098599076,0.1429684,-0.16764861,0.040833,-0.014298024,-0.106319495,0.038307227,0.22984336,-9.251195,0.8403672,47.691364,-1.0482303,-1.7055767,-3.2853575,-0.13873738,-0.14285535,-0.42737186,27.75,28.9375,28.0,31.6875,33.6875,34.5
0.19405472,-0.14168012,-0.8425819,-0.7977472,-0.009293296,-0.0049474784,-0.16457614,-0.38172734,-0.32681692,0.060086314,-3.0775852,0.6224881,0.00029846616,-0.08924613,0.015583612,-0.00029472634,0.01908564,-0.009960578,0.014144636,0.4384936,-1.4572052,1.9935182,-2.10478,-1.5719985,2.4120533,-0.09881519,0.14558128,-0.17038976,0.041812785,-0.013414612,-0.112819225,0.095768064,0.2681506,-9.232041,0.8224646,47.67166,-1.0389378,-1.7450025,-3.2025824,-0.12422119,-0.18182686,-0.40856332,27.75,28.9375,28.0,31.6875,33.6875,34.5
0.1960548,-0.37272167,-0.81281286,-0.82086414,-0.004083831,-0.001526445,-0.16491765,-0.38190982,-0.32679793,0.060065236,-3.0775638,0.6224214,0.00019239925,-0.08901432,0.016300138,-0.001060628,0.020728307,-0.012418984,0.022489494,0.4382893,-1.4568458,1.9931482,-2.104695,-1.5719866,2.4118104,-0.09958298,0.1469352,-0.17058639,0.043565843,-0.013875461,-0.121930026,0.038307227,0.22984336,-9.32781,0.83589023,47.64389,-1.0631573,-1.7578796,-3.4008949,-0.16391125,-0.17442091,-0.28184927,27.75,28.9375,28.0,31.6875,33.6875,34.5
0.198054,-0.3473877,-0.82837796,-1.1600261,0.0038897505,-0.003600624,-0.16079101,-0.38207477,-0.3267597,0.06007633,-3.077523,0.6223351,0.00016291603,-0.08992178,0.017326416,-0.0017561316,0.021272032,-0.015005618,0.024860173,0.43809626,-1.4565938,1.992813,-2.104563,-1.5720218,2.4115689,-0.102640614,0.14931762,-0.17204441,0.045197375,-0.013285046,-0.12735842,0.15322891,0.24899697,-9.385271,0.90750587,47.678825,-1.0760014,-1.627085,-3.4168549,-0.20815448,-0.1679059,-0.23704958,27.75,28.9375,28.0,31.6875,33.6875,34.5
0.20005436,-0.2038306,-0.5305646,-1.1155736,-0.0071944487,0.0042506466,-0.1615316,-0.38225475,-0.32671416,0.06005361,-3.077478,0.6222452,9.3330964e-05,-0.08931514,0.016380938,-0.0008885897,0.021006607,-0.015065446,0.030594787,0.43786907,-1.4562702,1.9924892,-2.1044905,-1.5720462,2.4112916,-0.10045235,0.14846185,-0.17367752,0.047615673,-0.01303533,-0.13090439,0.076614454,0.28730422,-9.423578,0.8023209,47.692257,-1.1642455,-1.6697915,-3.3559227,-0.26261356,-0.1882186,-0.16425157,27.75,28.9375,28.0,31.6875,33.6875,34.5
0.20205456,-0.55122644,-0.70341605,-1.191593,-0.023600085,0.015104986,-0.15956819,-0.382445,-0.32665536,0.060057335,-3.0773902,0.6222097,8.3101186e-05,-0.091709964,0.017325623,-0.0019479565,0.02112537,-0.015596702,0.027695877,0.43763986,-1.4559809,1.9921297,-2.1043599,-1.5721177,2.4110518,-0.10432435,0.15294988,-0.17587137,0.045838926,-0.012940624,-0.1318746,0.0,0.24899697,-9.519346,0.8627467,47.701214,-1.1720196,-1.8580278,-3.4189239,-0.27904826,-0.20742194,-0.14741385,27.75,28.9375,28.0,31.6875,33.6875,34.5
0.20405462,-1.0014411,-0.87469816,-1.2697649,-0.026854187,0.021961223,-0.16331786,-0.38261443,-0.3266453,0.0600606,-3.0773854,0.62205493,7.2736316e-06,-0.091831274,0.016700715,-0.0025063283,0.02164603,-0.015691055,0.026387075,0.43747243,-1.455669,1.9917458,-2.1042283,-1.5721182,2.4107885,-0.102917,0.1551156,-0.1768409,0.0449526,-0.013384947,-0.12915547,-0.05746084,0.22984336,-9.615114,0.80456203,47.681515,-1.1559539,-1.8377726,-3.45749,-0.28615582,-0.1796062,-0.17208123,27.75,28.9375,28.0,31.6875,33.6875,34.5
0.20605418,-0.9919986,-0.9161269,-1.1793542,-0.035567008,0.044935074,-0.16434185,-0.38281685,-0.32661584,0.06008305,-3.0774045,0.6219668,7.180102e-05,-0.09264476,0.016837448,-0.0033897436,0.022751588,-0.018136574,0.02025246,0.43725592,-1.4554043,1.9913863,-2.1041677,-1.5721425,2.4105148,-0.10384895,0.15909848,-0.17962065,0.046435438,-0.013348243,-0.1239516,-0.05746084,0.19153613,-9.691729,0.80456203,47.65912,-1.1233886,-1.912538,-3.3775973,-0.31708682,-0.17950492,-0.21539098,27.75,28.9375,28.0,31.6875,33.6875,34.5
0.20805435,-1.1198725,-1.0589918,-1.1760998,-0.02912741,0.04989355,-0.16875234,-0.3829689,-0.32657355,0.060046654,-3.077321,0.6219709,-7.06308e-05,-0.092852786,0.017529141,-0.0042962884,0.023615202,-0.020342682,0.014748349,0.4370515,-1.4550802,1.9910878,-2.1040723,-1.5721544,2.4103239,-0.10536131,0.16100867,-0.17987743,0.047148205,-0.013211163,-0.11995845,-0.095768064,0.15322891,-9.730036,0.84484416,47.685097,-1.1105458,-2.0262327,-3.4627118,-0.3545071,-0.21431842,-0.2542588,27.75,28.9375,28.0,31.6875,33.6875,34.5
0.2100548,-1.7312901,-0.65447474,-1.058021,-0.020225419,0.034060568,-0.16315979,-0.38315406,-0.32655492,0.060050145,-3.0773041,0.6218163,-0.00011039394,-0.09573661,0.018422764,-0.00385866,0.02276486,-0.017950853,0.009464967,0.43687022,-1.4547559,1.990692,-2.1039526,-1.5721782,2.4100485,-0.10932192,0.16272494,-0.18245876,0.04548429,-0.013471214,-0.11863225,-0.38307226,0.28730422,-9.634268,0.84484416,47.692257,-1.0081466,-1.9905987,-3.3884683,-0.37011418,-0.1972825,-0.2837854,27.75,28.9375,28.0,31.6875,33.6875,34.5
0.21205494,-1.5922912,-0.6162038,-1.2270435,-0.0077180774,0.044704158,-0.15780298,-0.38336033,-0.32651746,0.06003793,-3.077261,0.62178564,-0.000121112986,-0.09608133,0.016014237,-0.0033312838,0.02074929,-0.015191004,0.013236309,0.43664345,-1.4544083,1.9903201,-2.1038945,-1.572214,2.4098084,-0.10549523,0.1641436,-0.1847287,0.042972922,-0.012832299,-0.118576184,-0.49799395,0.2681506,-9.730036,0.842603,47.677036,-1.2604746,-1.9257658,-3.3730361,-0.3512727,-0.21600237,-0.33892667,27.75,28.9375,28.0,31.6875,33.6875,34.5
0.21405426,-1.030717,-0.3408868,-1.0002699,-0.026100885,0.078135714,-0.1724596,-0.3835418,-0.32648584,0.0600241,-3.0772183,0.6218198,-0.00019774116,-0.09914474,0.01762056,-0.0024495348,0.019353606,-0.012123445,0.00634543,0.4364255,-1.4540849,1.989973,-2.103811,-1.572214,2.4096174,-0.11107127,0.16399863,-0.18625048,0.041269433,-0.012881426,-0.117259264,-0.49799395,0.2681506,-9.691729,0.8224646,47.689575,-1.0783615,-1.8574835,-3.4457831,-0.35089958,-0.22695936,-0.3729638,27.75,28.9375,28.0,31.6875,33.6875,34.5
0.21605489,-1.5767702,-1.0014263,-0.8712976,-0.022280397,0.08044578,-0.16790813,-0.38377744,-0.3264703,0.060065806,-3.077269,0.62176985,-8.455421e-05,-0.09930017,0.016629089,-0.0021150182,0.018450731,-0.010908336,0.009300436,0.4361982,-1.4537969,1.9895433,-2.1037514,-1.5722259,2.4093528,-0.109485,0.16440348,-0.18732707,0.04045084,-0.012577191,-0.1186291,-0.51714754,0.19153613,-9.615114,0.8717007,47.70032,-1.2105123,-1.9457431,-3.5536742,-0.35509187,-0.24566376,-0.38806823,27.75,28.9375,28.0,31.6875,33.6875,34.5
0.21805441,-1.6731644,-0.61045295,-0.75613314,-0.040469434,0.105075,-0.17086111,-0.3839215,-0.32640216,0.060024265,-3.0771163,0.6216994,-0.0002429631,-0.10141502,0.017318984,-0.0024490368,0.019354256,-0.009788451,0.009810467,0.43599355,-1.4534726,1.9892424,-2.1035964,-1.5722984,2.409124,-0.11168092,0.16742015,-0.18966705,0.039129607,-0.013905953,-0.12132687,-0.6512228,0.19153613,-9.557653,0.7933669,47.66271,-1.1741182,-2.0159457,-3.4849944,-0.34057575,-0.24222443,-0.40617603,27.75,28.9375,28.0,31.6875,33.6875,34.5
0.22005422,-1.9522337,-0.59585804,-0.71686363,-0.041614346,0.11363472,-0.17196964,-0.38415155,-0.32637453,0.060026087,-3.07712,0.6216785,-0.00024640054,-0.10313571,0.017510578,-0.0021268025,0.018574068,-0.008281194,0.01424574,0.435741,-1.4531131,1.9888242,-2.1035364,-1.5722984,2.408858,-0.11349241,0.16873626,-0.19170402,0.03814028,-0.013855288,-0.12757228,-0.6512229,0.114921674,-9.576807,0.8314132,47.67166,-1.0398798,-1.7961217,-3.4766092,-0.34448823,-0.26473102,-0.34777668,27.75,28.9375,28.0,31.6875,33.6875,34.5
0.22205383,-1.9201345,-0.19270557,-0.33370307,-0.022253614,0.11670252,-0.1756933,-0.38437557,-0.3263654,0.060050637,-3.0771642,0.62149197,-0.00010990947,-0.10532026,0.017649263,-0.001365236,0.017304305,-0.005495551,0.019261064,0.43556017,-1.4528013,1.9884156,-2.1035135,-1.5723461,2.4085555,-0.11555899,0.16957225,-0.19407958,0.0365975,-0.01389136,-0.13465336,-0.63206923,0.13407528,-9.519346,0.85826975,47.66808,-1.0030389,-1.8400092,-3.559369,-0.3303295,-0.28290856,-0.3047436,27.75,28.9375,28.0,31.6875,33.6875,34.5
0.224054,-1.9916253,0.5994282,-0.4098936,-0.010712026,0.09884235,-0.17627928,-0.3845795,-0.32630372,0.060036276,-3.077115,0.62146026,-0.00016550782,-0.107428245,0.01767385,-0.001003296,0.015497731,-0.0036985937,0.023655415,0.43528327,-1.4524772,1.9880685,-2.10343,-1.5723699,2.4082654,-0.11792968,0.171201,-0.19638179,0.034857497,-0.013041398,-0.14141822,-0.7852981,0.11492168,-9.461885,0.84708,47.677036,-0.95907676,-1.7369639,-3.5284853,-0.30200985,-0.27532616,-0.24075153,27.75,28.9375,28.0,31.6875,33.6875,34.5
0.22605447,-1.504954,0.46927914,-0.39984033,0.0121179335,0.10032086,-0.17884083,-0.38480595,-0.32628706,0.060039885,-3.077139,0.62138224,-0.00015040634,-0.10974594,0.017511347,0.00017247975,0.014393235,0.00028230142,0.027761143,0.43505508,-1.4521182,1.9876493,-2.1033828,-1.5723704,2.4079857,-0.119099796,0.17171569,-0.19933201,0.033207525,-0.01373584,-0.14669016,-0.80445176,0.095768064,-9.346964,0.8717007,47.658226,-0.92740786,-1.5947111,-3.4567752,-0.2928724,-0.29815108,-0.14151381,27.75,28.9375,28.0,31.6875,33.6875,34.5
0.22805475,-1.1274356,0.74619716,-0.21469867,0.035323408,0.092177674,-0.16527435,-0.38500056,-0.3262642,0.060033735,-3.0771673,0.6212744,-0.0002037347,-0.1122174,0.017250482,0.0022099994,0.012534547,0.0054269037,0.02933398,0.4348268,-1.4517947,1.9872893,-2.1033232,-1.5723461,2.4076867,-0.12035408,0.17067261,-0.20263939,0.0321065,-0.014235822,-0.14951363,-0.61291564,-0.1340753,-9.232041,0.88289046,47.686886,-0.8982487,-1.5860571,-3.3974476,-0.2520053,-0.2976167,-0.095424235,27.75,28.9375,28.0,31.6875,33.6875,34.5
0.23005399,-1.3653635,0.7124658,-0.43018028,0.049155705,0.07135978,-0.16933711,-0.38527015,-0.3262245,0.060063563,-3.077146,0.6212531,-3.5847817e-05,-0.11397097,0.016799133,0.002759377,0.012587674,0.0074856626,0.025029795,0.43457475,-1.4514467,1.986822,-2.1032755,-1.572431,2.4074244,-0.12033971,0.17282706,-0.20626917,0.031732246,-0.0151426885,-0.14519112,-0.7278373,-0.1340753,-9.232041,0.83813137,47.66808,-0.9397342,-1.5540409,-3.409214,-0.22115642,-0.31237757,-0.10436217,27.75,28.9375,28.0,31.6875,33.6875,34.5
0.23205432,-0.86451,1.0637611,-0.47821802,0.03184363,0.081894696,-0.17666577,-0.38549206,-0.32618618,0.060065668,-3.077139,0.62125516,-5.2676023e-05,-0.11471908,0.016656853,0.0027746353,0.012683561,0.007898235,0.020459983,0.4343105,-1.4511108,1.9864262,-2.1032035,-1.572431,2.4071627,-0.12046396,0.1742238,-0.20789455,0.03163255,-0.015402021,-0.14074358,-0.7469909,-0.095768064,-9.289502,0.8291774,47.691364,-0.9747998,-1.5440718,-3.453627,-0.2098754,-0.29964873,-0.16458616,27.75,28.9375,28.0,31.6875,33.6875,34.5
0.23405433,-1.1317511,0.714686,-0.428329,0.019318445,0.082458764,-0.1737967,-0.38571662,-0.32615787,0.060075797,-3.077119,0.6211567,-1.0673193e-05,-0.11461755,0.016804798,0.0022752844,0.01404387,0.006886368,0.015992934,0.43409473,-1.4507631,1.9859961,-2.10312,-1.5724791,2.4068882,-0.12003594,0.17555033,-0.20845075,0.032354873,-0.016202906,-0.13584596,-0.49799395,-0.1340753,-9.32781,0.8940802,47.666286,-1.0039638,-1.4825779,-3.41333,-0.18204385,-0.3133424,-0.23574632,27.75,28.9375,28.0,31.6875,33.6875,34.5
0.23605439,-0.72414833,0.6496611,-0.45513386,0.002688579,0.08975338,-0.1688703,-0.38594988,-0.3260855,0.060052186,-3.0769908,0.6211344,-4.6557693e-06,-0.11639893,0.017790508,0.0018816381,0.015384931,0.0054834443,0.009090176,0.43382964,-1.4503665,1.9855884,-2.1030352,-1.5725874,2.406626,-0.12290468,0.17896703,-0.21183664,0.03415252,-0.016837008,-0.13180706,-0.51714754,-0.076614454,-9.346964,0.91198283,47.703007,-0.8863026,-1.5751505,-3.2474978,-0.17130327,-0.32346895,-0.2914735,27.75,28.9375,28.0,31.6875,33.6875,34.5
0.23805438,-0.89863515,0.25957605,-0.9150757,-0.0052034236,0.06730368,-0.16560405,-0.38619512,-0.3260601,0.060061816,-3.0770102,0.62109995,5.0663493e-05,-0.11826953,0.017395137,0.0024459807,0.015840713,0.0070663593,0.006252822,0.4335779,-1.4500062,1.9851559,-2.102999,-1.5725998,2.4063506,-0.12297965,0.18160622,-0.21625908,0.034694776,-0.017915452,-0.12903948,-0.30645782,0.038307227,-9.404425,0.88960326,47.711063,-1.0716811,-1.6940262,-3.2625227,-0.15414788,-0.288717,-0.35105234,27.75,28.9375,28.0,31.6875,33.6875,34.5
0.24005419,-0.38417947,-0.6422121,-0.89276993,-0.013152511,0.062299035,-0.1617983,-0.38642025,-0.32601005,0.060064346,-3.0769918,0.6210415,7.931927e-05,-0.11868273,0.017683072,0.00106484,0.016527623,0.004793316,0.0023431813,0.43331352,-1.4496812,1.9847735,-2.1029394,-1.5726355,2.4060524,-0.12400393,0.18507224,-0.21691915,0.03423593,-0.017583078,-0.12615415,-0.22984336,0.21068975,-9.461885,0.85155696,47.686886,-0.87465537,-1.9295814,-3.3222904,-0.1308417,-0.31185704,-0.3905933,27.75,28.9375,28.0,31.6875,33.6875,34.5
0.24205402,-0.6506833,-1.1577841,-1.0317526,-0.028370624,0.032846313,-0.15957287,-0.3866577,-0.32597002,0.06007667,-3.0769298,0.62106687,0.00011684755,-0.1177629,0.01843234,-0.00036654068,0.0186386,0.00079627195,0.00092745054,0.43307343,-1.4493212,1.9843186,-2.1028311,-1.5726956,2.4058363,-0.12435513,0.18696359,-0.21625994,0.03619088,-0.017816631,-0.1250894,-0.22984336,0.2681506,-9.5385,0.8717007,47.658226,-1.0016727,-1.9744875,-3.3679013,-0.12609208,-0.3178617,-0.49352774,27.75,28.9375,28.0,31.6875,33.6875,34.5
0.24405417,-0.5252798,-1.7409192,-0.9412874,-0.03580939,0.025866529,-0.16253778,-0.38689086,-0.32592556,0.0600604,-3.076886,0.6209788,0.000113511334,-0.118357085,0.01878702,-0.0005896924,0.019918516,0.00066246145,0.0032439227,0.43282136,-1.4489261,1.9839009,-2.1027715,-1.5727443,2.4055352,-0.12469398,0.18840672,-0.21753988,0.036673885,-0.018934507,-0.12774009,-0.1340753,0.2681506,-9.519346,0.87393653,47.692257,-0.97433424,-1.7345538,-3.4589381,-0.10487421,-0.31069544,-0.51285976,27.75,28.9375,28.0,31.6875,33.6875,34.5
0.24605453,-0.37283695,-1.0536515,-1.0202104,-0.041777402,0.015816888,-0.16921829,-0.3871575,-0.32588112,0.060081765,-3.0768533,0.6211029,0.00018925771,-0.11871318,0.02022147,-0.0013766963,0.021244474,-0.002209049,0.00969817,0.43253216,-1.4485662,1.9834331,-2.1026986,-1.57278,2.405328,-0.12755436,0.18983714,-0.21785988,0.038695816,-0.018942382,-0.13705562,0.076614454,0.28730422,-9.461885,0.8985519,47.709274,-0.88600683,-1.7720304,-3.5507183,-0.10302885,-0.30656588,-0.4597097,27.75,28.9375,28.0,31.6875,33.6875,34.5
0.24804579,0.094841175,-1.2160102,-1.0412302,-0.026615802,0.014650568,-0.17164022,-0.38737833,-0.32584894,0.06006253,-3.0768178,0.6209536,0.00014325842,-0.11817077,0.019228054,-0.0012100931,0.02112978,-0.0030257388,0.020918628,0.4323053,-1.4481589,1.9830025,-2.1026142,-1.5728158,2.4050128,-0.12543626,0.19046998,-0.21937428,0.04023977,-0.018520724,-0.14615776,0.076614454,0.36391866,-9.557653,0.9097417,47.719128,-1.158371,-1.6853749,-3.5352292,-0.122486636,-0.31237376,-0.40774274,27.75,28.9375,28.0,31.6875,33.6875,34.5
0.2500408,0.27597642,-0.7673982,-0.5085333,-0.05165335,0.017002312,-0.16671726,-0.38763478,-0.325817,0.06007999,-3.076801,0.62083,0.0002120937,-0.119444594,0.019477854,-0.0015868729,0.020722302,-0.0026854386,0.029981265,0.43206456,-1.4477748,1.9825114,-2.1025188,-1.5728759,2.4046974,-0.12703711,0.19252333,-0.22056377,0.038857736,-0.018316321,-0.15682095,0.076614454,0.4405331,-9.404425,0.7732232,47.716442,-0.9852118,-1.7824618,-3.5033648,-0.085779384,-0.33031303,-0.27620924,27.75,28.9375,28.0,31.6875,33.6875,34.5
0.25205082,0.42064103,-0.9594118,-0.583795,-0.04267407,0.01280312,-0.1734828,-0.3878822,-0.3257702,0.060087193,-3.0768054,0.62084717,0.00022513467,-0.12119846,0.018738614,-0.0008701191,0.01896348,-0.0009188502,0.035955153,0.43176445,-1.4474267,1.9820918,-2.1024592,-1.5728759,2.4044077,-0.12762748,0.19424419,-0.224064,0.038273133,-0.017478488,-0.16338575,0.11492168,0.34476504,-9.270349,0.86945957,47.692257,-1.1350245,-1.7567146,-3.4019756,-0.047382794,-0.3358379,-0.19884358,27.75,28.9375,28.0,31.6875,33.6875,34.5
0.25404403,0.6313853,-0.775431,-0.86523384,-0.03258724,0.0022808914,-0.16716506,-0.38812155,-0.32573006,0.06006352,-3.0767598,0.6206838,0.0002161826,-0.12240662,0.01958198,-0.00082985626,0.01964574,-0.002087285,0.035767242,0.43152362,-1.4469947,1.9816488,-2.1023986,-1.5729359,2.404071,-0.13004172,0.19590934,-0.22659945,0.040471606,-0.017623613,-0.16560987,0.076614454,0.4213795,-9.289502,0.88960326,47.67345,-1.0639135,-1.8181231,-3.4351654,-0.057144478,-0.3396015,-0.14238417,27.75,28.9375,28.0,31.6875,33.6875,34.5
0.2560459,-0.1077477,-1.458731,-0.8580992,-0.015053185,-0.017682655,-0.1534914,-0.3883778,-0.32568312,0.06006897,-3.0767272,0.6205843,0.00022865253,-0.12297279,0.019447885,-0.0009509777,0.020176789,-0.0030671111,0.030371437,0.43124765,-1.4465988,1.9811686,-2.1022909,-1.5729836,2.4037375,-0.13012789,0.1979704,-0.22904283,0.041966736,-0.017696513,-0.16029845,0.19153613,0.40222588,-9.308657,0.8806493,47.701214,-1.0372636,-1.7407999,-3.4347987,-0.034789316,-0.3502295,-0.15663865,27.75,28.9375,28.0,31.6875,33.6875,34.5
0.2580466,0.19022997,-0.9942128,-0.65092087,-0.026753806,-0.010066652,-0.15982895,-0.3886216,-0.3256494,0.060072448,-3.0767028,0.6205062,0.0002679896,-0.12362178,0.019954992,-0.0012882765,0.020514175,-0.0046551,0.022338234,0.4310071,-1.4462149,1.9807142,-2.102218,-1.5730313,2.4034517,-0.1317701,0.19970334,-0.2306062,0.043383796,-0.017332608,-0.1539079,0.076614454,0.38307226,-9.212888,0.78888994,47.694946,-1.0604169,-1.7752769,-3.402204,-0.047282435,-0.34107745,-0.20580815,27.75,28.9375,28.0,31.6875,33.6875,34.5
0.26004013,0.42676786,-0.71446264,-0.38702813,-0.024579,0.016289167,-0.16459171,-0.38887915,-0.32561538,0.06007352,-3.0767078,0.6204718,0.00029362377,-0.12631655,0.019440677,0.0011326667,0.018796077,-1.878148e-05,0.016881026,0.43073094,-1.44582,1.9802583,-2.1021698,-1.5730437,2.4031537,-0.13276885,0.19924636,-0.2359006,0.04421105,-0.01771124,-0.14944601,-0.076614454,0.30645782,-9.251195,0.8537928,47.70211,-1.0621408,-1.7502234,-3.2857978,-0.024643136,-0.35553014,-0.30254036,27.75,28.9375,28.0,31.6875,33.6875,34.5
0.26204076,0.14239505,-0.28984195,-0.53645426,-0.00305314,0.027241457,-0.16283509,-0.38910004,-0.32560316,0.06006879,-3.0766993,0.6202585,0.00021171664,-0.12843838,0.019165913,0.002467366,0.017175982,0.0017657987,0.014799692,0.43052623,-1.4454005,1.9797662,-2.1020257,-1.5730551,2.4028172,-0.13445783,0.20016256,-0.24034199,0.045431685,-0.01700216,-0.14905252,0.019153614,0.24899697,-9.136273,0.9231726,47.66539,-0.9873488,-1.7155862,-3.1656861,-0.0122854095,-0.36588836,-0.33427316,27.75,28.9375,28.0,31.6875,33.6875,34.5
0.264046,-0.40364707,0.18097232,-0.6684712,0.0121214865,0.024484804,-0.1619482,-0.38934997,-0.3255373,0.060054637,-3.0766275,0.62032247,0.0001807597,-0.12852095,0.019979386,0.0016412057,0.018165996,-0.0011954836,0.012415064,0.43021384,-1.4450046,1.9793357,-2.1019418,-1.5730914,2.4025543,-0.13614316,0.2019976,-0.24102493,0.04737411,-0.016671855,-0.14835343,-0.076614454,0.24899697,-9.308657,0.8851263,47.672558,-0.93593466,-1.7556353,-3.1882436,-0.02644046,-0.38241607,-0.35291618,27.75,28.9375,28.0,31.6875,33.6875,34.5
0.26604912,-0.8875521,-0.32152393,-0.70816106,0.014777606,0.0435599,-0.16396132,-0.3896374,-0.3255237,0.060083844,-3.0766594,0.62032586,0.00027755369,-0.12759471,0.01973745,0.0011401401,0.018970445,-0.0036407283,0.014853282,0.42995033,-1.444597,1.9787978,-2.1018808,-1.5731033,2.4022892,-0.13498141,0.20286554,-0.24139476,0.04942384,-0.016374078,-0.14963229,-0.2681506,0.28730422,-9.423578,0.85826975,47.66271,-1.0156718,-1.582901,-3.2553215,-0.025003651,-0.3926868,-0.39226145,27.75,28.9375,28.0,31.6875,33.6875,34.5
0.26804435,-1.2077287,0.20949616,-0.44448194,-0.016856005,0.0741287,-0.17488942,-0.3898615,-0.3254823,0.06007288,-3.0766156,0.62016207,0.00017543546,-0.12820995,0.020512547,0.0014556943,0.019969381,-0.0043011056,0.01868572,0.4296976,-1.4441893,1.97833,-2.1017244,-1.5731272,2.40194,-0.13641049,0.20314823,-0.24304883,0.051793154,-0.017031593,-0.15488997,-0.36391866,0.095768064,-9.308657,0.8224646,47.660015,-0.899348,-1.6379019,-3.2643538,-0.036082726,-0.42100453,-0.36975187,27.75,28.9375,28.0,31.6875,33.6875,34.5
0.2700486,-0.8157654,0.43086612,-0.34802896,-0.0068627307,0.1043382,-0.16936822,-0.39011872,-0.32541907,0.060052235,-3.0765455,0.62010473,9.716688e-05,-0.12831767,0.022455486,0.0006576255,0.022597957,-0.007561145,0.024827082,0.42938483,-1.443746,1.9778522,-2.1016033,-1.5731639,2.4016008,-0.13928534,0.2041528,-0.24313837,0.054906223,-0.018091096,-0.16390201,-0.38307226,-0.076614454,-9.346964,0.7709874,47.642998,-1.0220622,-1.5567976,-3.4425902,-0.05517041,-0.42290768,-0.27965182,27.75,28.9375,28.0,31.6875,33.6875,34.5
0.27204105,-1.2421157,0.85098773,-0.51308537,0.010415085,0.09600353,-0.17226706,-0.3903711,-0.32539314,0.060060777,-3.0765438,0.6199232,0.00011081964,-0.12719889,0.022100044,-0.0016112535,0.025956793,-0.013483231,0.037490077,0.4291455,-1.443337,1.9773487,-2.1014946,-1.5732006,2.4012487,-0.13716748,0.20978396,-0.24502549,0.057909183,-0.018703945,-0.1744439,-0.36391866,-0.19153613,-9.404425,0.8537928,47.692257,-1.0884931,-1.6549325,-3.4615679,-0.096964285,-0.42267916,-0.16538571,27.75,28.9375,28.0,31.6875,33.6875,34.5
0.27404603,-1.1349216,0.955965,-0.223853,0.042866614,0.09203145,-0.17096604,-0.39060923,-0.32534313,0.06003363,-3.0764904,0.6197768,5.898005e-05,-0.12714025,0.02297309,-0.0033388394,0.02827579,-0.017470948,0.040407892,0.42888114,-1.4429045,1.9769062,-2.1014106,-1.5732483,2.4009001,-0.13831976,0.21346743,-0.24563017,0.05939917,-0.019179242,-0.17851068,-0.4405331,-0.21068975,-9.251195,0.84484416,47.687782,-1.1133509,-1.7026389,-3.5743878,-0.1297273,-0.42771268,-0.086668864,27.75,28.9375,28.0,31.6875,33.6875,34.5
0.2760394,-0.91290665,1.5404602,-0.3946504,0.0691808,0.06839312,-0.1695758,-0.3908953,-0.32530847,0.06005831,-3.0765018,0.6197426,9.7581935e-05,-0.12882544,0.022828452,-0.00266186,0.028926212,-0.015889242,0.03829558,0.4285813,-1.4424968,1.9763669,-2.1013024,-1.5732607,2.4005778,-0.13853577,0.21536383,-0.24959663,0.06030298,-0.020435195,-0.17660852,-0.49799395,-0.24899697,-9.193734,0.8873621,47.681515,-1.1293497,-1.9195831,-3.5360413,-0.12626924,-0.43690616,-0.048757054,27.75,28.9375,28.0,31.6875,33.6875,34.5
0.27804103,-0.13218059,1.913706,-0.18590283,0.067309506,0.06895378,-0.17026357,-0.39112678,-0.3252459,0.060018368,-3.0764263,0.61961603,-2.3333918e-05,-0.13000089,0.023624191,-0.0028977792,0.03000062,-0.016772125,0.031078428,0.42829219,-1.4420527,1.9759349,-2.1011946,-1.5732969,2.4002197,-0.14048794,0.21747144,-0.25182652,0.061679363,-0.02106581,-0.17133789,-0.57460845,-0.2681506,-9.232041,0.8672237,47.677036,-0.97613776,-1.7965205,-3.612339,-0.16089857,-0.43080747,-0.104887664,27.75,28.9375,28.0,31.6875,33.6875,34.5
0.28005287,0.13891785,1.3604275,-0.21222945,0.06532339,0.06383082,-0.17504792,-0.39137706,-0.32520923,0.060010936,-3.0763867,0.6194976,-9.665197e-05,-0.13265945,0.02484602,-0.0013427723,0.030115394,-0.013951102,0.019705543,0.42802742,-1.4416096,1.9754208,-2.1010501,-1.5733212,2.3998864,-0.14404963,0.2171517,-0.25544,0.06311049,-0.022349421,-0.16351919,-0.45968673,-0.17238252,-9.270349,0.86945957,47.65106,-1.0058975,-1.8217638,-3.515874,-0.19502744,-0.4320045,-0.1663341,27.75,28.9375,28.0,31.6875,33.6875,34.5
0.2820517,-0.57679445,0.81255955,-0.15992105,0.038448732,0.053891696,-0.16677134,-0.39164475,-0.32515296,0.060024388,-3.0763204,0.61948735,-0.00011558145,-0.13330892,0.02411985,-0.0006670999,0.03089333,-0.013134884,0.013644657,0.4277279,-1.4412016,1.974893,-2.1008818,-1.5733699,2.3995893,-0.14244731,0.21849154,-0.25898066,0.06490236,-0.02339855,-0.15584958,-0.6895301,-0.076614454,-9.270349,0.9321212,47.66808,-1.0167339,-1.8088291,-3.3711095,-0.2227045,-0.43466282,-0.25346905,27.75,28.9375,28.0,31.6875,33.6875,34.5
0.28405216,-1.1266127,-0.31837898,-0.18269902,0.01935542,0.06479362,-0.15547146,-0.3919093,-0.32508856,0.060022164,-3.0762203,0.61942935,-0.0001311062,-0.13336223,0.024782289,-0.001494216,0.033398148,-0.015070275,0.00961166,0.42743978,-1.4407699,1.974377,-2.100726,-1.5734543,2.3992782,-0.14262311,0.22067818,-0.26000044,0.06653211,-0.024884026,-0.15198494,-0.80445176,0.1340753,-9.212888,0.86945957,47.66091,-1.0908847,-1.8284755,-3.2590384,-0.26890928,-0.41585928,-0.3460375,27.75,28.9375,28.0,31.6875,33.6875,34.5
0.28605214,-1.3596798,-0.8397898,-0.52513635,-0.024595937,0.10457988,-0.16284056,-0.392178,-0.3250148,0.059993707,-3.0760994,0.6193878,-0.00024768876,-0.13532054,0.02526514,-0.00055452186,0.034432523,-0.013689214,0.0039648646,0.42711538,-1.4402785,1.9738511,-2.1005576,-1.5735148,2.3989437,-0.14403899,0.22205754,-0.26427013,0.06859511,-0.02642144,-0.14774306,-0.7086837,0.22984336,-9.155427,0.9186956,47.678825,-1.10425,-1.698715,-3.3549714,-0.3382399,-0.39730102,-0.44419163,27.75,28.9375,28.0,31.6875,33.6875,34.5
0.28805214,-1.9669873,-1.2943655,-0.37479123,-0.049090587,0.13309793,-0.16299699,-0.39245608,-0.3249801,0.060001425,-3.0760517,0.6193764,-0.0002613867,-0.13712531,0.025088431,0.00033474393,0.034068283,-0.009693172,0.0054011643,0.4268394,-1.4398233,1.9732884,-2.100415,-1.573551,2.398667,-0.14422849,0.22240856,-0.2663163,0.0664897,-0.027769892,-0.14936134,-0.6895301,0.24899697,-9.289502,0.8672237,47.711063,-1.1282952,-1.5771008,-3.3451998,-0.32065502,-0.37464815,-0.48081356,27.75,28.9375,28.0,31.6875,33.6875,34.5
0.29005197,-1.7383271,-1.1405152,-0.26630625,-0.07070856,0.15130141,-0.18019366,-0.39271122,-0.32490236,0.05996544,-3.0758986,0.61930233,-0.00033287334,-0.13758956,0.02574102,-0.0014309346,0.035330452,-0.011669082,0.012100138,0.42655095,-1.4393429,1.9727973,-2.1002715,-1.5736593,2.3983524,-0.14546329,0.22602972,-0.26609546,0.06492178,-0.028150842,-0.15728946,-0.57460845,0.30645782,-9.308657,0.95002913,47.691364,-1.1390781,-1.7634234,-3.3433478,-0.32778984,-0.35817754,-0.47444332,27.75,28.9375,28.0,31.6875,33.6875,34.5
0.29205194,-1.9322112,-1.6772634,-0.6856613,-0.055380758,0.1314837,-0.17151137,-0.39296374,-0.32484055,0.05992786,-3.07581,0.6192197,-0.0004961858,-0.13872156,0.025646128,-0.000772894,0.03510758,-0.009889645,0.023649015,0.42623916,-1.4388515,1.9722942,-2.100116,-1.5736836,2.3980007,-0.14572895,0.22643292,-0.2681313,0.06479518,-0.028749999,-0.16909668,-0.40222588,0.38307226,-9.442732,0.8537928,47.67166,-1.1191076,-1.7769259,-3.4902663,-0.36576754,-0.33348078,-0.37426385,27.75,28.9375,28.0,31.6875,33.6875,34.5
0.294052,-1.4734284,-1.503032,-0.5042118,-0.056627456,0.12112169,-0.1694435,-0.39328593,-0.32479322,0.059974123,-3.0757802,0.61918396,-0.00028959804,-0.14165185,0.025155535,0.00015041445,0.0326725,-0.002634509,0.033898402,0.42595086,-1.438444,1.9717082,-2.1000235,-1.5737919,2.3976943,-0.14661746,0.226825,-0.26918346,0.057783164,-0.029569183,-0.18023182,-0.36391866,0.38307226,-9.385271,0.95897776,47.677036,-1.1602087,-1.659106,-3.5328703,-0.33502895,-0.33873025,-0.25546747,27.75,28.9375,28.0,31.6875,33.6875,34.5
0.29605266,-1.2282113,-0.9469788,-0.57125384,-0.049755346,0.07777155,-0.16676854,-0.39358267,-0.32474428,0.059962746,-3.0757587,0.6190859,-0.00031736374,-0.1438395,0.02543952,0.00023222339,0.03173062,0.00078060414,0.037773203,0.42562604,-1.4379528,1.9711584,-2.0999281,-1.5738162,2.3973114,-0.14845714,0.22825302,-0.27019227,0.053834714,-0.030159296,-0.18594146,-0.4213795,0.4405331,-9.423578,0.8717007,47.691364,-1.1233987,-1.7308736,-3.569479,-0.28722742,-0.30483106,-0.1554136,27.75,28.9375,28.0,31.6875,33.6875,34.5
0.29805213,-0.6971945,-1.086358,-0.67043734,-0.03614064,0.04795303,-0.16015811,-0.39388987,-0.3246859,0.05995694,-3.0756948,0.61899614,-0.0002723058,-0.14498273,0.025028927,-0.00022061872,0.030551724,0.0020123795,0.035899635,0.42531443,-1.4374605,1.9705952,-2.0998342,-1.5739001,2.3969524,-0.1488855,0.23044623,-0.27107063,0.05088969,-0.029606668,-0.18449663,-0.24899697,0.40222588,-9.404425,0.9388393,47.695843,-1.2525957,-1.7578954,-3.6759217,-0.23548712,-0.26160413,-0.14562136,27.75,28.9375,28.0,31.6875,33.6875,34.5
0.3000522,0.6053611,-0.4821057,-0.63942176,-0.04413477,0.050181035,-0.17087112,-0.39417043,-0.32464054,0.059939582,-3.0756366,0.6188738,-0.00022866209,-0.14819014,0.02478039,0.0012132709,0.02861946,0.006780642,0.027694104,0.42504963,-1.4369806,1.9700798,-2.0997746,-1.573984,2.396619,-0.15085933,0.23165984,-0.27536178,0.048825603,-0.029817447,-0.17826064,-0.22984336,0.36391866,-9.385271,0.7709874,47.691364,-1.0914736,-1.9224375,-3.6184456,-0.19836622,-0.26884663,-0.18641481,27.75,28.9375,28.0,31.6875,33.6875,34.5
0.30205217,0.56873184,-0.24268724,-0.76537806,-0.027584977,0.028969064,-0.16565393,-0.39446953,-0.32458144,0.059922714,-3.0755632,0.6188054,-0.000224985,-0.15092927,0.02538157,0.0013181452,0.02886231,0.008744405,0.019667884,0.4247366,-1.4364772,1.9695286,-2.0996797,-1.5740565,2.3962731,-0.15344684,0.2347385,-0.27891177,0.047608696,-0.030853944,-0.17281383,-0.11492168,0.34476504,-9.500193,0.94331104,47.70032,-0.95999676,-1.9171126,-3.4948082,-0.15644173,-0.25630862,-0.28464615,27.75,28.9375,28.0,31.6875,33.6875,34.5
0.30405235,0.26088217,-0.67759645,-0.7440164,0.0012649437,0.006997516,-0.16488636,-0.39478278,-0.32454437,0.059936117,-3.0755658,0.61870694,-0.00013891963,-0.15251528,0.02523413,0.0015071011,0.028312195,0.009817714,0.017107634,0.42443633,-1.4360094,1.968953,-2.0996077,-1.5741042,2.3959115,-0.15439826,0.23683412,-0.28169686,0.04708197,-0.030792609,-0.17120467,-0.038307227,0.28730422,-9.634268,0.9254084,47.684196,-0.8747837,-1.93806,-3.4506917,-0.122164086,-0.21118775,-0.3318098,27.75,28.9375,28.0,31.6875,33.6875,34.5
0.30605197,1.0578663,0.17459632,-0.7515631,-0.017231053,0.02799107,-0.17270775,-0.39506805,-0.32448098,0.059904985,-3.0754871,0.6186169,-0.00022153521,-0.1539169,0.025612094,0.0008759613,0.028353473,0.008171929,0.015180665,0.42411157,-1.4354931,1.9684137,-2.0994875,-1.5741524,2.395541,-0.15653297,0.24038704,-0.2845718,0.0479002,-0.030175375,-0.17141047,0.038307227,0.2681506,-9.557653,0.8784135,47.686886,-0.85436857,-1.9568698,-3.3685784,-0.08681229,-0.19118196,-0.3511356,27.75,28.9375,28.0,31.6875,33.6875,34.5
0.30805206,0.38018224,-0.23309729,-0.93190074,-0.017492788,-0.0036915087,-0.1625536,-0.3953882,-0.32443616,0.059901435,-3.0754535,0.6186466,-0.0002217227,-0.15306275,0.025639351,-0.00022231198,0.029406456,0.0052258763,0.017406447,0.4237762,-1.4349772,1.9678167,-2.0993917,-1.5741762,2.3952289,-0.15587094,0.24210055,-0.28438357,0.049096685,-0.029928958,-0.17297521,0.11492168,0.24899697,-9.615114,0.8806493,47.68062,-1.0450306,-2.0243123,-3.4358838,-0.07728693,-0.20177093,-0.39821976,27.75,28.9375,28.0,31.6875,33.6875,34.5
0.31005204,0.4923495,-0.55208904,-0.7484493,-0.049853075,0.014137566,-0.17305438,-0.3956935,-0.32438025,0.059895888,-3.0753806,0.618531,-0.00014333232,-0.15334895,0.02540983,-0.0005889065,0.030296894,0.0035067091,0.02425826,0.42348814,-1.4344853,1.967254,-2.0993073,-1.574284,2.3948784,-0.15546153,0.24459873,-0.2869155,0.051013455,-0.030057615,-0.17941575,0.019153614,0.21068975,-9.519346,0.83589023,47.661808,-1.0211208,-2.0544028,-3.4787774,-0.060748715,-0.17407572,-0.32838553,27.75,28.9375,28.0,31.6875,33.6875,34.5
0.31205207,0.35012224,-0.57346725,-0.78336185,-0.058995012,0.024004469,-0.18194748,-0.39600638,-0.32431835,0.059905354,-3.075335,0.6183629,-5.9307575e-05,-0.15427437,0.02582647,-0.00022985986,0.030690456,0.003188484,0.03420343,0.42317557,-1.4340178,1.966679,-2.099199,-1.5743803,2.394467,-0.15667965,0.2455075,-0.28929064,0.052863915,-0.030320583,-0.19057733,0.11492168,0.2681506,-9.500193,0.91198283,47.677036,-0.9941697,-2.1676521,-3.440154,-0.04581032,-0.14745378,-0.24408305,27.75,28.9375,28.0,31.6875,33.6875,34.5
0.3140521,0.03553869,-0.65408707,-1.1250323,-0.033882603,0.011349526,-0.17048186,-0.3962992,-0.32429293,0.05988518,-3.075336,0.61816525,-0.0001829715,-0.15466115,0.026076099,-0.0007288417,0.03064862,0.0011842964,0.04162533,0.42287552,-1.4334661,1.9660677,-2.0990546,-1.5743674,2.394044,-0.1578511,0.2473985,-0.2907161,0.05416719,-0.02950374,-0.1991713,0.15322891,0.24899697,-9.653421,0.9097417,47.72719,-0.97532403,-2.0977275,-3.397718,-0.0587844,-0.13045496,-0.107133076,27.75,28.9375,28.0,31.6875,33.6875,34.5
0.31605244,-0.1518787,-0.7167574,-0.9555335,-0.033473298,0.020394422,-0.16541055,-0.3966348,-0.32422775,0.059901662,-3.0753083,0.61816,-8.825654e-05,-0.15463744,0.026790394,-0.00094009185,0.03105956,-0.0013660397,0.040876675,0.42251486,-1.4329993,1.9654821,-2.0989697,-1.5744275,2.393684,-0.15942053,0.2479997,-0.29165885,0.056975666,-0.028828064,-0.1999963,-0.095768064,0.19153613,-9.653421,0.85826975,47.709274,-0.9252143,-2.0208743,-3.5656338,-0.045328327,-0.13892217,-0.03654543,27.75,28.9375,28.0,31.6875,33.6875,34.5
0.31805244,-0.2559391,-0.38244575,-0.6668222,-0.027356662,0.027062394,-0.16747399,-0.3969274,-0.3242061,0.0599247,-3.0753324,0.61788267,-3.3201406e-05,-0.15577656,0.026997006,-0.0009722721,0.030214518,-0.0012920476,0.032172162,0.4222623,-1.4325432,1.9648827,-2.098838,-1.5744752,2.3932555,-0.16110533,0.24942137,-0.29325128,0.05674085,-0.028073044,-0.19297923,-0.2681506,0.17238252,-9.615114,0.83589023,47.693153,-0.92269504,-2.044325,-3.576438,-0.041092128,-0.124740176,-0.08101501,27.75,28.9375,28.0,31.6875,33.6875,34.5
0.32005244,-0.14257537,0.36331925,-0.8735643,-0.012756441,0.042570643,-0.173163,-0.39723936,-0.3241586,0.059902966,-3.0752783,0.6178345,-8.045572e-05,-0.15787889,0.026035892,0.0014037951,0.027052071,0.0036657772,0.022320973,0.42193815,-1.4319928,1.9642843,-2.0987303,-1.5745105,2.3929086,-0.16148697,0.2479328,-0.29701298,0.056191728,-0.027216455,-0.18351012,-0.3256114,0.13407528,-9.634268,0.83365434,47.68062,-0.9075028,-1.9564514,-3.5799584,0.0072170896,-0.121119805,-0.16984794,27.75,28.9375,28.0,31.6875,33.6875,34.5
0.322052,-0.61284846,0.5644322,-0.55041516,-0.003094265,0.052112795,-0.1797121,-0.3975657,-0.32411906,0.059913788,-3.075267,0.6178012,5.307249e-06,-0.1583133,0.02677386,0.0004230089,0.02738542,0.0011031725,0.01373929,0.4216255,-1.4315008,1.9636854,-2.0986588,-1.5745586,2.392577,-0.16354585,0.25027886,-0.2977408,0.057054408,-0.02644894,-0.17699122,-0.2681506,-0.1340753,-9.595961,0.8403672,47.677036,-0.94833857,-1.9026674,-3.505246,0.017175153,-0.12442522,-0.2682254,27.75,28.9375,28.0,31.6875,33.6875,34.5
0.32405207,-0.63635546,0.5500839,-0.49991778,0.006097028,0.07118739,-0.17949949,-0.3978695,-0.324057,0.059891433,-3.0751908,0.61776805,-4.8609472e-05,-0.1572474,0.025807012,0.0002340315,0.028054299,-0.0016095998,0.010508679,0.4212905,-1.4309738,1.9631113,-2.0985377,-1.5746068,2.3922315,-0.1610564,0.25161308,-0.2997163,0.060449123,-0.025946353,-0.17127118,-0.3256114,-0.05746084,-9.595961,0.8806493,47.681515,-1.0488824,-1.9734014,-3.5756998,0.01727982,-0.13151729,-0.3769639,27.75,28.9375,28.0,31.6875,33.6875,34.5
0.32605165,-1.0973765,0.7678464,-0.5892434,0.019586438,0.06208526,-0.1768905,-0.39818347,-0.3240034,0.059904918,-3.0751565,0.617722,-5.096306e-05,-0.15828587,0.02517218,0.0010208255,0.026588624,3.3512762e-05,0.008829119,0.42095473,-1.4304942,1.9625009,-2.0983822,-1.5746425,2.3918717,-0.16101861,0.25204965,-0.3020895,0.06027742,-0.025289135,-0.16955502,-0.36391866,0.0,-9.519346,0.94331104,47.617023,-1.0293825,-1.8569376,-3.583061,0.0049915733,-0.11906624,-0.4619317,27.75,28.9375,28.0,31.6875,33.6875,34.5
0.3280519,-0.37599927,0.9129699,-0.52523214,0.0112894755,0.091819376,-0.18702635,-0.39848992,-0.32395715,0.05989314,-3.075094,0.6176485,-6.178411e-05,-0.1591379,0.025257,0.00064138934,0.027152693,-0.0017692505,0.0120403115,0.4206546,-1.4299661,1.9619011,-2.098262,-1.5747021,2.391534,-0.16185668,0.25501564,-0.30515456,0.062217835,-0.025093561,-0.17360269,-0.24899697,-0.095768064,-9.500193,0.9925471,47.64658,-1.1201353,-1.907139,-3.5692914,0.029748477,-0.13242555,-0.48933482,27.75,28.9375,28.0,31.6875,33.6875,34.5
0.3300521,-0.48015508,1.1717389,-0.29950145,0.008297886,0.07724104,-0.19363731,-0.39882421,-0.3239164,0.059904482,-3.0750673,0.6175988,1.5468664e-05,-0.15850481,0.025688326,1.885288e-05,0.02841448,-0.005405764,0.022711076,0.42034227,-1.4294509,1.9612678,-2.0981643,-1.5747622,2.3911946,-0.16216055,0.2563003,-0.3060854,0.06563419,-0.024788653,-0.18457966,-0.26815057,-0.076614454,-9.481039,0.9254084,47.670765,-1.1402345,-1.9785899,-3.5642705,0.007989196,-0.12279397,-0.40104198,27.75,28.9375,28.0,31.6875,33.6875,34.5
0.33205208,-0.516163,0.85283494,-0.37436807,0.013533385,0.06912785,-0.18422577,-0.3991486,-0.3238749,0.05991849,-3.0750408,0.6175294,5.3146137e-05,-0.15913889,0.02717012,-0.00090527884,0.030453442,-0.009738465,0.03297076,0.42002916,-1.4289466,1.9606327,-2.0980313,-1.5748104,2.390842,-0.16515589,0.25933978,-0.30846164,0.0696869,-0.024924217,-0.19783364,-0.30645782,-0.038307227,-9.500193,0.8985519,47.666286,-1.2208508,-1.9289768,-3.5425572,0.0091517065,-0.14054914,-0.2705229,27.75,28.9375,28.0,31.6875,33.6875,34.5
0.33405215,-0.43688977,0.12005829,-0.6730981,0.0040735183,0.061933137,-0.18062493,-0.3994763,-0.32381165,0.059934836,-3.0750098,0.6173642,7.0816524e-05,-0.15809229,0.027385268,-0.002047683,0.032683913,-0.014891974,0.041016944,0.4196816,-1.4284544,1.9599975,-2.0978625,-1.5748705,2.3903956,-0.16454387,0.26198572,-0.30997568,0.07411821,-0.024889054,-0.20526746,-0.40222588,0.05746084,-9.615114,0.9254084,47.666286,-1.2317846,-2.1043417,-3.4711158,-0.054536313,-0.13165936,-0.18991373,27.75,28.9375,28.0,31.6875,33.6875,34.5
0.33605257,-0.70656604,-0.36669925,-0.27976787,-0.0155857345,0.06128598,-0.17931019,-0.3997985,-0.32375017,0.059920162,-3.0749385,0.61719686,6.534157e-05,-0.1586261,0.027008396,-0.00065433315,0.03279219,-0.014724327,0.040361717,0.41935766,-1.4279041,1.9593753,-2.0977294,-1.5749544,2.3899767,-0.16401099,0.26169503,-0.31389022,0.078195564,-0.025072891,-0.20407626,-0.45968673,0.076614454,-9.519346,0.9164598,47.664497,-1.1731209,-2.040104,-3.5121012,-0.10930259,-0.1181812,-0.15936047,27.75,28.9375,28.0,31.6875,33.6875,34.5
0.33805203,-0.4889848,-0.16505207,-0.11151572,-0.033013184,0.06314931,-0.17887467,-0.40012676,-0.32369745,0.05993311,-3.0749118,0.6170989,8.8440655e-05,-0.1588027,0.027185716,-0.00032439712,0.033110667,-0.016227702,0.033263274,0.41902158,-1.4274011,1.9587406,-2.097585,-1.5750021,2.3895833,-0.16453099,0.26222333,-0.31609032,0.0813805,-0.024741068,-0.19749866,-0.63206923,0.15322891,-9.346964,0.9410752,47.694054,-1.2215266,-1.9295247,-3.5379777,-0.1614831,-0.12813349,-0.20124811,27.75,28.9375,28.0,31.6875,33.6875,34.5
0.34005204,-0.52767867,-0.24893676,-0.37249646,-0.011910934,0.040089354,-0.1706281,-0.40044206,-0.32365632,0.059910756,-3.0748525,0.6170311,2.2613993e-05,-0.1587883,0.027087867,-0.0001938897,0.033671517,-0.018044133,0.02739177,0.41871017,-1.4268252,1.9581059,-2.097452,-1.5750383,2.3892376,-0.16432697,0.2632912,-0.3184745,0.08459627,-0.024517175,-0.19142188,-0.3256114,0.17238252,-9.193734,0.8985519,47.698532,-1.3582506,-1.8032281,-3.478957,-0.20905435,-0.12232284,-0.29457593,27.75,28.9375,28.0,31.6875,33.6875,34.5
0.34205207,-0.021844251,0.27136728,-0.12543587,-0.022244945,0.044231612,-0.18594,-0.4007621,-0.32361484,0.05993308,-3.0748427,0.6168767,-7.049197e-06,-0.15841904,0.027672814,0.00041065068,0.033584293,-0.018739235,0.022603467,0.41838652,-1.4263227,1.9574364,-2.0972478,-1.5750622,2.3888192,-0.1651678,0.26138416,-0.31834698,0.08697987,-0.024153685,-0.18747628,-0.22984336,0.095768064,-9.2703495,0.9634547,47.672558,-1.3554778,-1.7066588,-3.4983602,-0.2570192,-0.111110106,-0.3711469,27.75,28.9375,28.0,31.6875,33.6875,34.5
0.34405193,0.30887517,0.19363436,0.008220933,-0.025784621,0.03906282,-0.18645588,-0.40109727,-0.32353395,0.059923977,-3.0747566,0.6169163,-1.9387742e-05,-0.16002858,0.028441122,0.0006977072,0.033360984,-0.0183158,0.020986708,0.41800222,-1.4257952,1.9568266,-2.0971162,-1.5751222,2.3884711,-0.1677216,0.26254937,-0.32059142,0.087557286,-0.024149092,-0.18841131,-0.15322891,0.11492168,-9.270349,0.90527004,47.64927,-1.31166,-1.6100304,-3.6285725,-0.29330987,-0.1326159,-0.3914641,27.75,28.9375,28.0,31.6875,33.6875,34.5
0.34605253,0.3858893,0.21320981,0.22755465,-0.010011084,0.02357725,-0.1832269,-0.40142822,-0.32346708,0.059940264,-3.0746562,0.6168335,1.3348341e-05,-0.16252142,0.028206486,0.0013686446,0.032265153,-0.015275203,0.024735728,0.41767842,-1.4252794,1.9561557,-2.096913,-1.57523,2.388109,-0.16898637,0.26463693,-0.32424518,0.08584997,-0.02442789,-0.19342056,0.0,0.076614454,-9.155427,0.8851263,47.674347,-1.1766417,-1.6155864,-3.5982795,-0.30542836,-0.13361077,-0.3717625,27.75,28.9375,28.0,31.6875,33.6875,34.5
0.3480526,0.401457,0.6529605,-0.0063573606,0.0025385297,0.01251659,-0.19421597,-0.40175045,-0.32343873,0.059926365,-3.0746965,0.6165861,-4.7467325e-05,-0.16538641,0.027526537,0.0020724514,0.029818771,-0.011420108,0.03337522,0.41735446,-1.4247155,1.95552,-2.0968063,-1.5752176,2.3876257,-0.17031077,0.2670232,-0.32800034,0.08264982,-0.023818146,-0.20338407,0.076614454,-0.019153614,-9.11712,0.99031126,47.71017,-1.0718191,-1.6478486,-3.3855162,-0.29174837,-0.110547386,-0.31028032,27.75,28.9375,28.0,31.6875,33.6875,34.5
0.35005254,0.32421,0.7607948,0.016499726,0.013083516,0.004131613,-0.19209354,-0.40207624,-0.32337686,0.059937697,-3.0746384,0.6165104,-8.166048e-05,-0.16836886,0.027894342,0.0027380323,0.0275495,-0.008146548,0.041322973,0.41700596,-1.4242005,1.954861,-2.0966046,-1.5752658,2.3872378,-0.17368597,0.2685325,-0.33075854,0.07991373,-0.023139132,-0.21470733,0.038307227,0.038307227,-9.174581,0.8023209,47.687782,-0.97162664,-1.7258165,-3.377853,-0.2643447,-0.13254362,-0.19728716,27.75,28.9375,28.0,31.6875,33.6875,34.5
0.35205242,0.18276402,0.7424349,-0.24076149,0.009539989,0.006870498,-0.18651949,-0.40240145,-0.32330897,0.059937663,-3.0745869,0.6163625,-0.00013671331,-0.17040211,0.027310576,0.002209002,0.026450202,-0.0064426237,0.04372488,0.4166466,-1.4236717,1.9542145,-2.0964139,-1.575313,2.3867931,-0.17427324,0.2724681,-0.33343023,0.07661393,-0.022869466,-0.21769397,-0.05746084,-0.038307227,-9.346964,0.9835985,47.709274,-1.0859134,-1.7997582,-3.3171642,-0.26594105,-0.1456075,-0.11279787,27.75,28.9375,28.0,31.6875,33.6875,34.5
0.3540516,-0.18183269,-0.2156078,-0.31672123,0.00074365747,0.044024866,-0.18514131,-0.40275073,-0.3232682,0.059939846,-3.0745742,0.61620945,-0.00013809174,-0.17325287,0.026949905,0.0018117765,0.025185969,-0.0030852074,0.03644018,0.4163108,-1.4230956,1.9535192,-2.0962713,-1.5753497,2.3863637,-0.17561425,0.27654552,-0.33623368,0.071772076,-0.023078319,-0.21174599,-0.21068975,0.11492168,-9.346964,0.89631605,47.684196,-1.0255519,-1.9014945,-3.3351088,-0.20351833,-0.1453258,-0.11165503,27.75,28.9375,28.0,31.625,33.6875,34.5
0.35605192,-0.49907023,-0.48716444,-0.494001,-0.027168108,0.077266484,-0.18370546,-0.40306512,-0.32319266,0.05992266,-3.0744944,0.61613965,-0.0002513618,-0.17303868,0.02715352,0.0012822668,0.025332194,-0.0042414297,0.027455378,0.41593957,-1.4225547,1.9528974,-2.09608,-1.5753855,2.3859596,-0.17584923,0.27724165,-0.33600852,0.07199271,-0.02274094,-0.20299564,-0.2681506,0.22984336,-9.385271,0.8224646,47.668976,-1.0087093,-1.9070039,-3.305952,-0.17667264,-0.15780172,-0.19807558,27.75,28.9375,28.0,31.625,33.6875,34.5
0.35805175,-1.3110299,-1.2760141,-0.74267733,-0.04348805,0.077999525,-0.18475997,-0.40341982,-0.32312855,0.059943706,-3.0744379,0.61603534,-0.00013202369,-0.17272155,0.02784173,-0.00010964892,0.026586132,-0.0061273156,0.018411163,0.41560388,-1.4220377,1.9522289,-2.0959485,-1.5754937,2.3855665,-0.17643194,0.27896017,-0.3347548,0.07126585,-0.023096373,-0.19453324,-0.19153613,0.24899697,-9.5385,0.9612189,47.695843,-1.0081146,-1.8662984,-3.5920453,-0.1916925,-0.16514395,-0.3253155,27.75,28.9375,28.0,31.625,33.6875,34.5
0.3600517,-1.0780907,-1.6238977,-0.6941793,-0.071716234,0.0988718,-0.17809673,-0.4037664,-0.32308567,0.05996197,-3.0744483,0.6159836,-0.00013888878,-0.17424928,0.028180376,0.0001237378,0.026014596,-0.003309541,0.009584179,0.41524374,-1.421509,1.9515475,-2.095794,-1.5754937,2.385173,-0.17770617,0.27945134,-0.3353937,0.0686362,-0.023697088,-0.18697669,-0.38307226,0.36391866,-9.5385,0.9410752,47.67614,-0.92437017,-1.8549054,-3.82931,-0.14830759,-0.17288682,-0.44122398,27.75,28.9375,28.0,31.625,33.6875,34.5
0.36205167,-1.4869236,-1.7216992,-0.75008464,-0.07660277,0.08822638,-0.1767824,-0.4041212,-0.32303405,0.05996956,-3.0743928,0.61592865,-9.323741e-05,-0.17578937,0.02865499,0.0010663745,0.025851976,-0.0007645482,0.007725181,0.41490832,-1.4209447,1.9508523,-2.095651,-1.5755662,2.384811,-0.1790549,0.27913293,-0.33728534,0.06843656,-0.024583751,-0.18646112,-0.57460845,0.38307226,-9.519346,1.0126908,47.658226,-1.0667207,-1.7446978,-3.809618,-0.119980246,-0.15188816,-0.49576086,27.75,28.9375,28.0,31.625,33.6875,34.5
0.36405253,-1.2935693,-1.3795812,-0.9621664,-0.062464967,0.0828555,-0.19026336,-0.4044502,-0.32298362,0.059941422,-3.0743525,0.6158022,-0.00014576991,-0.17722102,0.028632859,0.00092749635,0.025575971,-0.0004929185,0.016129006,0.41457257,-1.4203556,1.9502181,-2.0955431,-1.5756019,2.3844018,-0.18004665,0.28167382,-0.3399713,0.06816028,-0.0244965,-0.19585441,-0.3256114,0.45968673,-9.730036,0.99702406,47.686886,-1.0145545,-1.6527181,-3.799819,-0.092490315,-0.15974641,-0.46351382,27.75,28.9375,28.0,31.625,33.6875,34.5
0.36605185,-0.79165965,-0.99369603,-1.1746415,-0.05019989,0.0734326,-0.19673602,-0.4047874,-0.32291946,0.059939817,-3.0742962,0.61570376,-0.00018775897,-0.17824191,0.028037773,0.0023066509,0.024712497,0.0018454414,0.030401789,0.41421345,-1.4198028,1.9495481,-2.095363,-1.5756501,2.3839889,-0.17944902,0.2811737,-0.34288982,0.069005035,-0.024718195,-0.20952636,-0.38307226,0.36391866,-9.940725,1.0350704,47.64837,-1.0739647,-1.601456,-3.7677846,-0.07833134,-0.18104823,-0.35679722,27.75,28.9375,28.0,31.625,33.6875,34.5
0.3680518,-0.5500399,-0.8664263,-1.1289427,-0.057745073,0.0787639,-0.1875258,-0.40519723,-0.32287413,0.05997787,-3.0743287,0.6156251,-2.7358297e-05,-0.18090366,0.026785849,0.00462962,0.023124352,0.006771128,0.042705093,0.41383052,-1.419238,1.9487923,-2.095267,-1.5756983,2.383553,-0.17872244,0.28182557,-0.3491944,0.069433615,-0.025282279,-0.22109999,-0.40222588,0.30645782,-9.787497,0.9679317,47.668976,-1.1682632,-1.5426258,-3.570643,-0.06469487,-0.18710828,-0.22302231,27.75,28.9375,28.0,31.625,33.6875,34.5
0.3700523,-0.68900436,-0.7489964,-0.99857163,-0.050683837,0.069419436,-0.18961707,-0.4055397,-0.32282302,0.0599839,-3.0742908,0.6154437,-4.459188e-07,-0.18164274,0.026388278,0.003971022,0.023213806,0.0054629347,0.045369487,0.41350722,-1.418684,1.9481086,-2.0951111,-1.5757703,2.3831217,-0.1786797,0.28522968,-0.351835,0.06986552,-0.024859516,-0.22372188,-0.4405331,0.2681506,-9.749189,0.8717007,47.66091,-1.313835,-1.7062012,-3.5059018,-0.035533953,-0.17895788,-0.14542013,27.75,28.9375,28.0,31.625,33.6875,34.5
0.37205234,-0.74573994,-0.87810737,-1.3150921,-0.021247013,0.06888928,-0.17345753,-0.4058919,-0.32279587,0.059999708,-3.074297,0.61529315,3.670378e-05,-0.18053712,0.025607558,0.0014495362,0.024714423,0.00030518768,0.040864524,0.41319636,-1.4181181,1.9473909,-2.0949671,-1.5758055,2.3827164,-0.17664267,0.2906476,-0.35258707,0.07054236,-0.024138942,-0.21718289,-0.59376204,0.24899697,-9.787497,1.0037369,47.687782,-1.5282893,-1.8162408,-3.6089687,-0.025999323,-0.19953874,-0.1880555,27.75,28.9375,28.0,31.625,33.6875,34.5
0.37405226,-0.806264,-0.50018096,-1.1524107,-0.03084312,0.07954804,-0.18339029,-0.40626425,-0.3227114,0.059986424,-3.074224,0.6152036,2.6339336e-05,-0.17936489,0.026699837,-2.4910201e-05,0.027357426,-0.0063641127,0.031948034,0.41278896,-1.4175166,1.9466985,-2.0948217,-1.5758775,2.382263,-0.17765887,0.2931576,-0.35352454,0.07615517,-0.023860399,-0.20928322,-0.21068975,0.22984336,-9.864111,0.9321212,47.694054,-1.4711936,-1.8761835,-3.6865487,-0.068505906,-0.21099319,-0.2853909,27.75,28.9375,28.0,31.625,33.6875,34.5
0.37605253,-0.8347515,-0.47743922,-0.5541656,-0.036748525,0.065887995,-0.18604214,-0.40667805,-0.32267013,0.06003773,-3.074266,0.61515623,0.000190473,-0.180458,0.02786404,-0.00027465707,0.027993537,-0.0069912476,0.025072083,0.41240466,-1.4169637,1.9459194,-2.0947015,-1.5759143,2.381844,-0.18023625,0.29441994,-0.35472715,0.076932825,-0.024161639,-0.20498522,-0.1340753,0.114921674,-9.672575,0.947788,47.658226,-1.3319565,-1.8905532,-3.6593614,-0.06648395,-0.21600217,-0.35377687,27.75,28.9375,28.0,31.625,33.6875,34.5
0.37805238,-0.25910506,-0.19548239,-0.40812314,-0.013242192,0.042116728,-0.18219937,-0.40704277,-0.32262066,0.060026295,-3.0742438,0.61503685,0.00018095115,-0.18037385,0.029457873,-0.0011150156,0.031226892,-0.01119034,0.02299439,0.41204488,-1.4163502,1.9452137,-2.0945804,-1.5759505,2.381413,-0.18203855,0.2964179,-0.35633382,0.08167492,-0.025446575,-0.20470278,-0.28730422,-0.038307227,-9.519346,0.9634547,47.66539,-1.3074714,-1.9149499,-3.807137,-0.06627215,-0.22145936,-0.38194504,27.75,28.9375,28.0,31.625,33.6875,34.5
