Tylouw/Master_Thesis_Code/training_data/batch_1/big_rod_t0.3/sample_80_session_3.csv
timestamp[s],tcp_force_x[N],tcp_force_y[N],tcp_force_z[N],tcp_force_rx[Nm?],tcp_force_ry[Nm?],tcp_force_rz[Nm?],tcp_pose_x[m],tcp_pose_y[m],tcp_pose_z[m],tcp_pose_rx[rot_vec_x],tcp_pose_ry[rot_vec_y],tcp_pose_rz[rot_vec_z],tcp_velo_x[m/s],tcp_velo_y[m/s],tcp_velo_z[m/s],tcp_velo_rx[rot_vec_x/s],tcp_velo_ry[rot_vec_y/s],tcp_velo_rz[rot_vec_z/s],q1[rad],q2[rad],q3[rad],q4[rad],q5[rad],q6[rad],qd1[rad/s],qd2[rad/s],qd3[rad/s],qd4[rad/s],qd5[rad/s],qd6[rad/s],tool_acc_x,tool_acc_y,tool_acc_z,current_of_whole_robot[A],voltage_of_whole_robot[V],current_J1[A],current_J2[A],current_J3[A],current_J4[A],current_J5[A],current_J6[A],temp_J1[C],temp_J2[C],temp_J3[C],temp_J4[C],temp_J5[C],temp_J6[C]
7.3498813e-07,-0.08953511,-0.16437535,0.5483827,-0.023818722,0.017336136,-0.034306105,-0.3728982,-0.32819882,0.059942342,-3.0784492,0.6248984,-0.0002733701,0.0029199198,0.0014083867,-0.0034523895,0.0039060698,-0.008371846,5.925734e-06,0.44811413,-1.4708614,2.0095732,-2.1076787,-1.5706857,2.4230556,-7.5281954e-05,0.0028078577,0.004363941,0.0020653945,0.00012074013,-8.4217914e-05,0.038307227,0.19153613,-8.887277,0.69937176,47.737038,-0.19076878,-2.7470129,-2.4772298,-0.508774,0.1400079,-0.102800354,27.8125,29.0625,28.1875,31.875,33.9375,34.8125
0.002052159,-0.40443873,-0.18180218,0.505147,-0.011302223,0.0078825755,-0.027980547,-0.37288257,-0.32820863,0.059930578,-3.078468,0.6249023,-0.00035883315,-0.00031794183,-0.00015758025,-0.0029616745,-0.0003783832,0.00048822162,9.696506e-06,0.44811413,-1.4708489,2.0095847,-2.107671,-1.5706376,2.4230556,-7.424686e-05,0.0043614837,0.00406896,-0.009034851,0.000117584845,-8.3244195e-05,-0.019153614,0.22984336,-8.925584,0.77545905,47.729877,-0.1671611,-2.8554769,-2.3455682,-0.49846083,0.15073106,-0.092765234,27.8125,29.0625,28.1875,31.875,33.9375,34.8125
0.004051756,-0.6412576,-0.34254438,0.32102227,-0.0139081385,0.007583342,-0.021237163,-0.37289104,-0.32821456,0.059928685,-3.0784707,0.62488306,-0.0002365151,-0.0019518266,-0.00094723265,-0.002425828,-0.0029425663,0.0057983203,1.1341651e-05,0.44815025,-1.4708489,2.0096085,-2.107756,-1.5706857,2.4230795,-7.323979e-05,0.004211005,0.0043909084,-0.0151031185,0.00011459052,-8.229283e-05,0.076614454,0.17238252,-9.002198,0.7418897,47.7254,-0.12301327,-3.1273036,-2.5662365,-0.34792146,0.14528811,-0.103048414,27.8125,29.0625,28.1875,31.875,33.9375,34.8125
0.006052022,-0.12518285,-0.27443656,0.26094612,-0.0069856313,0.012157596,-0.026685802,-0.37287357,-0.32821488,0.059908293,-3.078454,0.6248416,-0.00035026536,-0.0008682207,-0.0004278865,-0.0018050476,-0.0014860311,0.002801196,2.0680409e-05,0.44815025,-1.4708138,2.009608,-2.1077182,-1.5706614,2.4230556,-6.162081e-05,0.0026752704,0.0032889354,-0.009133112,0.00011174477,-8.136286e-05,0.019153614,0.19153613,-9.002198,0.7105615,47.728977,-0.16305396,-3.014639,-2.487833,-0.37343884,0.14626394,-0.110535145,27.8125,29.0625,28.1875,31.875,33.9375,34.8125
0.008051994,0.23780635,0.6326596,-0.17837837,0.024195831,-0.018988682,-0.023563845,-0.37287894,-0.32819593,0.059894454,-3.0784159,0.6248914,-0.0003442043,0.00020938338,9.3294686e-05,-0.0015759488,0.00012041292,-0.0005101802,2.0769274e-05,0.44812617,-1.470802,2.0096319,-2.1077402,-1.5706857,2.4230676,-5.9440245e-05,0.0018753404,0.0024201104,-0.003783885,0.00010903696,-8.045371e-05,0.019153614,0.095768064,-9.11712,0.7866488,47.750473,-0.11279682,-2.9982448,-2.4776387,-0.4361071,0.1509917,-0.10490826,27.8125,29.0625,28.1875,31.875,33.9375,34.8125
0.01005202,0.84762937,1.317651,-0.51521826,0.05084929,-0.024130275,-0.027672464,-0.37287596,-0.32820967,0.05989395,-3.0784345,0.6248951,-0.00036785533,0.00047448586,0.00022613729,-0.0013521787,0.0006151442,-0.0015255834,1.2736115e-05,0.4481382,-1.4707901,2.00962,-2.1077397,-1.5706614,2.4230795,-6.63716e-05,0.001580969,0.0017525527,-0.001692443,0.00010645738,-7.961063e-05,0.05746084,0.076614454,-9.2703495,0.70608455,47.698532,-0.54264414,-2.367169,-3.0617504,-0.4600182,0.11928665,-0.1823488,27.8125,29.0625,28.1875,31.875,33.9375,34.8125
0.012052057,-0.104138605,0.6044617,-0.689859,0.040602773,-0.026716556,-0.026657352,-0.37289387,-0.3282119,0.059899114,-3.078459,0.62484217,-0.00034030416,0.00040314312,0.0002443129,-0.003788521,0.0029581902,-0.006399068,-7.614786e-05,0.44812614,-1.4707755,2.0095947,-2.1077511,-1.5706614,2.4230313,-0.00016864642,0.00812128,3.10753e-05,-0.0011038025,0.00010399702,-9.1092916e-05,0.1340753,0.05746084,-9.461885,0.75084364,47.72002,-0.7248246,-2.4798782,-3.1651087,-0.45018452,0.1278978,-0.23086174,27.8125,29.0625,28.1875,31.875,33.9375,34.8125
0.014052311,-0.6024227,-0.19684811,-0.89858204,0.0014399831,-0.0007939386,-0.028047606,-0.37288326,-0.32821795,0.059875276,-3.078456,0.6248223,-0.0004477767,-0.005938568,0.0018617328,-0.0033068575,0.0022587609,-0.004989439,-0.0003119359,0.44812292,-1.4707255,2.0095918,-2.1077397,-1.5706257,2.423016,-0.008986022,0.01509567,-0.0087828385,-0.0008388142,0.000101647776,-0.008666352,-0.038307227,0.1340753,-9.653421,0.7351769,47.71286,-0.30069223,-2.8442578,-2.9643793,-0.44899803,0.1114626,-0.2012412,27.8125,29.0625,28.1875,31.875,33.9375,34.8125
0.016052172,-1.3873627,-1.0916766,-1.0202923,-0.03962011,0.033362605,-0.032237772,-0.37286347,-0.32817388,0.059840012,-3.0783231,0.624831,-0.0005572135,-0.0059888256,0.002556521,-0.0037613083,0.0029616687,-0.0064517455,0.004007645,0.4480987,-1.4706894,2.0096166,-2.1076672,-1.5706857,2.4230142,-0.010338122,0.015685815,-0.008575749,-1.5113189e-05,9.940241e-05,-0.014338318,-0.26815057,0.22984336,-9.787497,0.7396539,47.703903,-0.27262843,-2.7474017,-3.1262646,-0.44323367,0.117004395,-0.14388132,27.8125,29.0625,28.1875,31.875,33.9375,34.8125
0.018052349,-2.4342477,-1.5584048,-0.8121597,-0.07966878,0.0720169,-0.048486203,-0.3728501,-0.32817638,0.059825905,-3.0783129,0.6248277,-0.00064235437,-0.004583593,0.0027271998,-0.0041330764,0.0041069025,-0.008816435,0.006654928,0.44809905,-1.4706657,2.009617,-2.107642,-1.5706614,2.4230137,-0.009378763,0.015031857,-0.0075118057,0.0022024058,9.7253884e-05,-0.016027642,-0.49799395,0.30645782,-9.730036,0.7665104,47.71823,-0.5790903,-2.5315843,-3.4157333,-0.43677288,0.0918748,-0.15714349,27.8125,29.0625,28.1875,31.875,33.9375,34.8125
0.02005244,-2.2945597,-1.5189421,-0.85214186,-0.07949951,0.115755655,-0.07029328,-0.37288064,-0.32818273,0.05982045,-3.0783405,0.624775,-0.00063915324,-0.00473576,0.0025730452,-0.0046229656,0.005202359,-0.0110922465,0.007959704,0.4480751,-1.4706049,2.0095685,-2.1076658,-1.5706495,2.4229534,-0.009227536,0.017678255,-0.009782637,0.0043526115,9.5196476e-05,-0.017180035,-0.38307226,0.2681506,-9.883265,0.73069996,47.73256,-0.6740029,-2.4549055,-3.4924035,-0.4826566,0.09899911,-0.1730696,27.8125,29.0625,28.1875,31.875,33.9375,34.8125
0.022052357,-2.04022,-0.81322366,-0.87570477,-0.047411155,0.10851583,-0.08619374,-0.37288827,-0.32819223,0.059841983,-3.0783782,0.62470627,-0.00059129007,-0.007827436,0.0024307182,-0.0031890774,0.0034105496,-0.0073864525,0.006581087,0.44808602,-1.4706284,2.0095422,-2.1076543,-1.5706495,2.4229167,-0.011772916,0.018923467,-0.014227431,0.0034357826,9.322438e-05,-0.01834365,-0.47884032,0.28730422,-9.921572,0.75084364,47.723602,-0.67241275,-2.4205747,-3.3146214,-0.49100894,0.09374754,-0.19076842,27.8125,29.0625,28.1875,31.875,33.9375,34.8125
0.02405229,-1.7537016,-0.6610279,-0.8506421,-0.017467512,0.08575142,-0.1060663,-0.3729124,-0.32819325,0.0598206,-3.0783603,0.62474126,-0.00067535223,-0.008814312,0.002745254,-0.0034001386,0.003050272,-0.0066465014,0.0062034624,0.44804975,-1.4705323,2.009483,-2.1076424,-1.5706257,2.4229045,-0.013260854,0.01995314,-0.014518057,0.0018740591,9.133219e-05,-0.019453168,-0.59376204,0.30645782,-9.768343,0.7396539,47.70659,-0.709461,-2.473551,-3.4532986,-0.4669708,0.07181521,-0.18334724,27.8125,29.0625,28.1875,31.875,33.9375,34.8125
0.026051829,-1.7685366,-0.827872,-0.73771447,-0.006341978,0.063198335,-0.11910565,-0.37291852,-0.32817018,0.05979575,-3.0783155,0.624714,-0.00068476377,-0.010380698,0.0030163913,-0.0027976981,0.0022032356,-0.0048556793,0.004770593,0.44802502,-1.4704962,2.009506,-2.1076667,-1.5706614,2.4228685,-0.015183635,0.020290475,-0.016102497,0.0011394542,7.280491e-05,-0.019941822,-0.8236054,0.30645782,-9.768343,0.78217715,47.709274,-0.8289058,-2.417572,-3.4826534,-0.43274444,0.07184453,-0.16437466,27.8125,29.0625,28.1875,31.875,33.9375,34.8125
0.028051844,-1.6026045,-0.70982754,-0.7932203,-0.014126107,0.056833442,-0.12945172,-0.3729821,-0.3281796,0.059823155,-3.0783677,0.6247629,-0.0005903222,-0.01153892,0.0029914891,-0.0020157786,0.001338778,-0.0030564093,0.0035064712,0.44797674,-1.4704603,2.0094092,-2.1076906,-1.5706495,2.4228442,-0.01618613,0.020120239,-0.017645435,0.0008567594,7.0293354e-05,-0.0196792,-0.7661445,0.2681506,-9.768343,0.7351769,47.71554,-0.72636724,-2.2716362,-3.4490876,-0.41552848,0.057512134,-0.17785972,27.8125,29.0625,28.1875,31.875,33.9375,34.8125
0.030051878,-1.8497534,-0.552939,-0.6421577,-0.016582793,0.064061135,-0.14962374,-0.37298495,-0.3281913,0.059817746,-3.0783746,0.6246701,-0.0006454711,-0.013426716,0.0029388275,-0.0012711035,0.00041265672,-0.0011087619,0.0016856961,0.4479881,-1.4704119,2.0093606,-2.1076553,-1.5706376,2.4227967,-0.017794149,0.021216614,-0.02045587,0.00041452618,5.391561e-05,-0.019464422,-0.7469909,0.11492168,-9.749189,0.7284641,47.707485,-0.7148724,-2.3100598,-3.4113145,-0.39040852,0.044030927,-0.18191725,27.8125,29.0625,28.1875,31.875,33.9375,34.8125
0.032051925,-2.4742324,-0.76405054,-0.42557558,-0.0008636618,0.06767325,-0.15059736,-0.37302205,-0.3281688,0.05980762,-3.0783372,0.6247581,-0.000623464,-0.014191433,0.0026668303,-0.0013081073,0.0007785765,-0.0016582606,0.0019201324,0.44792813,-1.4703633,2.0093358,-2.1076787,-1.5706614,2.4227965,-0.017913587,0.023417478,-0.023018146,0.0014295345,-4.1342446e-05,-0.01981651,-0.6512229,0.1340753,-9.634268,0.7732232,47.701214,-0.7659242,-2.4040337,-3.3456404,-0.39823812,0.029384963,-0.181737,27.8125,29.0625,28.1875,31.875,33.9375,34.8125
0.034052297,-1.5458527,-0.19924691,-0.35453862,0.012916755,0.09214552,-0.17518146,-0.3730589,-0.3281609,0.059816122,-3.078326,0.6247748,-0.0006398196,-0.015106808,0.0027720928,-0.0009550532,0.0007834448,-0.0015353183,0.0018003784,0.44787973,-1.4703151,2.0092523,-2.1076305,-1.5706614,2.42276,-0.018901879,0.024325471,-0.025058609,0.0024533789,-0.000101866535,-0.020683855,-0.5363012,0.05746084,-9.461885,0.7709874,47.693153,-0.7555442,-2.3009887,-3.3944736,-0.40661547,0.029057255,-0.19961219,27.8125,29.0625,28.1875,31.875,33.9375,34.8125
0.036052536,-1.5702391,0.14951953,-0.34999096,0.041804772,0.067867905,-0.19441333,-0.37308955,-0.32816714,0.059825063,-3.0783997,0.6247522,-0.0006237003,-0.016357496,0.0030530558,-0.000624749,0.00074353634,-0.0013458413,0.0014790521,0.44783124,-1.4703028,2.0092266,-2.1076663,-1.5706137,2.422688,-0.020533403,0.025529109,-0.027340218,0.0033442955,-0.00015058156,-0.02199266,-0.30645782,-0.1340753,-9.461885,0.70608455,47.701214,-0.7030728,-2.262813,-3.3990703,-0.3913107,0.009779433,-0.18218613,27.8125,29.0625,28.1875,31.875,33.9375,34.8125
0.038052615,-1.2163411,0.39228588,-0.22485025,0.04783145,0.039135613,-0.2084641,-0.3731363,-0.32815748,0.059817452,-3.0783644,0.62478215,-0.00058947457,-0.017348722,0.0029817699,-5.2455733e-05,0.00052532204,0.0003579367,0.0023575672,0.4477951,-1.4702188,2.0091546,-2.1076782,-1.57065,2.4226751,-0.020928657,0.02574539,-0.028804887,0.0029633918,-0.0006963505,-0.023264287,-0.2681506,-0.095768064,-9.404425,0.7530795,47.709274,-0.7334777,-2.191233,-3.3680983,-0.36993226,0.010194365,-0.17560324,27.8125,29.0625,28.1875,31.875,33.9375,34.8125
0.04005165,-0.88625354,0.43256775,-0.31408563,0.04068115,0.016099505,-0.22100998,-0.37317228,-0.32815352,0.05982533,-3.0783849,0.6247673,-0.0005854431,-0.018666241,0.0030372562,0.00040024714,0.00039701138,0.0019306856,0.002772617,0.44774684,-1.4701825,2.009094,-2.1076663,-1.5706381,2.422615,-0.0218423,0.026593262,-0.030670619,0.0025101113,-0.0012670376,-0.02459044,-0.24899697,-0.05746084,-9.461885,0.69937176,47.685097,-0.69965667,-2.1854532,-3.3431015,-0.3613984,-0.0015947972,-0.18367648,27.8125,29.0625,28.1875,31.875,33.9375,34.8125
0.042051684,-0.30261865,-0.102622114,-0.34163126,0.036050964,0.01675296,-0.22218041,-0.37322187,-0.32813427,0.05982434,-3.0783436,0.62481695,-0.0005237468,-0.020307178,0.0030869162,0.0009208517,-0.00020265781,0.003278279,0.0030036964,0.44769812,-1.4701223,2.009033,-2.1076782,-1.5706862,2.4226027,-0.023391875,0.027815375,-0.03315918,0.0023007975,-0.001316175,-0.026369264,-0.19153613,-0.05746084,-9.519346,0.78888994,47.70211,-0.67550683,-2.1391976,-3.321684,-0.3400566,-0.0021494543,-0.1676673,27.8125,29.0625,28.1875,31.875,33.9375,34.8125
0.04405163,-0.62836576,-0.10766645,-0.44841003,0.013202113,0.003580399,-0.21185254,-0.37327722,-0.32813314,0.059844874,-3.0783646,0.6248009,-0.0004263488,-0.02098141,0.0036837882,0.00058174896,0.0008056658,0.0023400597,0.0035302273,0.4476618,-1.4700859,2.0089486,-2.10769,-1.5707101,2.4225538,-0.024784276,0.029388174,-0.034303036,0.0031548354,-0.0018187738,-0.028286604,-0.076614454,-0.038307227,-9.461885,0.7150385,47.716442,-0.66558313,-2.2434764,-3.334609,-0.33527756,-0.0050723734,-0.15065375,27.8125,29.0625,28.1875,31.875,33.9375,34.8125
0.046051826,-0.61556137,-0.4701309,-0.41949868,0.010692399,-0.0019671815,-0.19226928,-0.37330833,-0.32810113,0.059805524,-3.0782921,0.6247661,-0.0005260575,-0.021012565,0.00426424,0.00043744227,0.0017958804,0.0001130367,0.0045942906,0.4475894,-1.4699658,2.0089014,-2.1076653,-1.5707339,2.422469,-0.025950283,0.030173114,-0.035482828,0.0059843333,-0.0017476403,-0.030516652,-0.1340753,0.019153614,-9.481039,0.7911258,47.72719,-0.68799996,-2.1475196,-3.3488424,-0.34096283,-0.02252014,-0.14467637,27.8125,29.0625,28.1875,31.875,33.9375,34.8125
0.04805176,-0.10127639,-0.31124988,-0.38338313,-0.002141224,0.005463718,-0.19312204,-0.37333283,-0.32809788,0.0598087,-3.0783253,0.6247916,-0.0005714608,-0.021623334,0.0047100396,0.000684767,0.0027065387,-0.00065383624,0.005426396,0.44752908,-1.4699417,2.0088646,-2.1076524,-1.5706867,2.4224203,-0.02701013,0.030966194,-0.037433274,0.008229893,-0.0022369788,-0.03240696,-0.019153614,0.1340753,-9.385271,0.7553206,47.737038,-0.67617,-2.0871575,-3.4256124,-0.35466108,-0.028003177,-0.13075441,27.8125,29.0625,28.1875,31.875,33.9375,34.8125
0.050052434,-0.3930119,-0.6359637,-0.48503745,0.0036502073,0.0064777443,-0.19072662,-0.37336335,-0.32809997,0.059797782,-3.0783403,0.6247558,-0.00065020146,-0.022669964,0.005052619,0.0008393836,0.003206489,-0.0003589602,0.0059691654,0.44748065,-1.4698573,2.0087917,-2.1076286,-1.5706505,2.4223475,-0.028208058,0.03214559,-0.039210517,0.008781146,-0.0028201423,-0.03414527,0.019153614,0.21068975,-9.385271,0.75755644,47.72719,-0.6666466,-2.0754762,-3.432929,-0.34847048,-0.023999881,-0.11061626,27.8125,29.0625,28.1875,31.875,33.9375,34.8125
0.052052565,-0.7762875,-1.019498,-0.6637724,-0.0006498237,0.00046789917,-0.18839228,-0.37342027,-0.32807967,0.059805304,-3.0782657,0.6247014,-0.0005728921,-0.023726385,0.005307371,0.0010940857,0.0032236848,0.00058051967,0.006248218,0.44745627,-1.4697732,2.008671,-2.1075804,-1.5707473,2.422299,-0.029354881,0.032844327,-0.040508393,0.008538561,-0.003246783,-0.035569258,0.019153614,0.2681506,-9.442732,0.7709874,47.72271,-0.6292171,-2.045092,-3.4135973,-0.35631508,-0.033232365,-0.101975426,27.8125,29.0625,28.1875,31.875,33.9375,34.8125
0.05405252,-0.38954774,-1.1187994,-0.49222618,-0.016001675,0.00780342,-0.18492073,-0.37344477,-0.3280493,0.059780456,-3.0782418,0.62473494,-0.00067254854,-0.024611035,0.0052872514,0.0013305062,0.0031716235,0.0008164937,0.0071782083,0.44736007,-1.469713,2.0086591,-2.107568,-1.5707225,2.4222267,-0.030076202,0.033973675,-0.042416465,0.0090824505,-0.0033081383,-0.03721908,-0.05746084,0.40222588,-9.461885,0.8179876,47.71286,-0.6175096,-1.9928797,-3.440217,-0.34850195,-0.03543009,-0.07913615,27.8125,29.0625,28.1875,31.875,33.9375,34.8125
0.05605175,-0.41282684,-1.2664013,-0.5876964,-0.027512573,0.0062456555,-0.19001408,-0.3734856,-0.328056,0.059792444,-3.0782502,0.62465924,-0.0006870778,-0.025312899,0.0054384232,0.0017757008,0.0028101215,0.00088566885,0.008670949,0.44733557,-1.469641,2.008539,-2.1075084,-1.5707225,2.422154,-0.031193046,0.034181718,-0.043911297,0.010148804,-0.0030151785,-0.039828658,-0.038307227,0.36391866,-9.461885,0.76874626,47.737934,-0.6364628,-1.9731853,-3.4578283,-0.35567504,-0.04417939,-0.065374106,27.8125,29.0625,28.1875,31.875,33.9375,34.8125
0.058051735,-0.7331665,-1.6130993,-0.6530124,-0.02644813,0.00020770193,-0.1847024,-0.373551,-0.32803857,0.059819058,-3.0782826,0.62466645,-0.0005874248,-0.025903596,0.0054294094,0.0018998283,0.0030037602,0.0003734054,0.007822417,0.44725144,-1.4696287,2.008467,-2.1075194,-1.5707344,2.4220703,-0.031740177,0.035374478,-0.045785163,0.011374712,-0.0029664363,-0.03952662,-0.019153614,0.28730422,-9.461885,0.7978386,47.72271,-0.659637,-1.9714992,-3.444748,-0.36306268,-0.08396736,-0.05702149,27.8125,29.0625,28.1875,31.875,33.9375,34.8125
0.06005184,-0.7073798,-1.093001,-0.43201515,-0.037412755,0.012045081,-0.18480004,-0.3736223,-0.3280387,0.05982508,-3.0782812,0.6246864,-0.000612626,-0.026783634,0.0055897958,0.0018617071,0.0034864887,0.00040134758,0.0055180304,0.4471791,-1.4695083,2.00831,-2.1074717,-1.5707229,2.4220107,-0.032530304,0.03691285,-0.047465324,0.011702249,-0.0034161322,-0.038010225,-0.076614454,0.36391866,-9.595961,0.73741806,47.72002,-0.64954805,-1.8743591,-3.486075,-0.35984272,-0.0709725,-0.07538086,27.8125,29.0625,28.1875,31.875,33.9375,34.8125
0.06205194,-1.2750267,-1.5275828,-0.5759683,-0.019009702,0.020752741,-0.18781377,-0.37366727,-0.32803488,0.059823517,-3.0783086,0.62473017,-0.00063239835,-0.027670728,0.0055955495,0.0018113235,0.0038617367,0.0007218533,0.0067764986,0.4471069,-1.4694479,2.00825,-2.1074836,-1.5706872,2.4219623,-0.033016063,0.03853872,-0.049113978,0.011600818,-0.003897565,-0.039752204,-0.19153613,0.3256114,-9.615114,0.75084364,47.72719,-0.665322,-1.9029706,-3.454363,-0.36179075,-0.054750666,-0.07992748,27.8125,29.0625,28.1875,31.875,33.9375,34.8125
0.06405188,-1.2059249,-0.5598703,-0.44372118,-0.024034467,0.040871717,-0.18534285,-0.37373465,-0.32802683,0.0598372,-3.07832,0.62461597,-0.0005949129,-0.028737238,0.005768378,0.001875956,0.003998952,0.0010750737,0.006807874,0.4470467,-1.4693636,2.008118,-2.1074479,-1.570711,2.4218295,-0.034113493,0.039949607,-0.05082301,0.011639383,-0.0041778246,-0.04087924,-0.19153613,0.30645782,-9.557653,0.73741806,47.728977,-0.65595853,-1.9414458,-3.466801,-0.3615973,-0.08153347,-0.08212948,27.8125,29.0625,28.1875,31.875,33.9375,34.8125
0.066052444,-0.98788065,-0.48168027,-0.34153435,-0.013294487,0.057864986,-0.18646821,-0.3737761,-0.32802108,0.059841026,-3.0782962,0.62455255,-0.0005757197,-0.029464273,0.0055906246,0.0016679617,0.004677418,0.0008691427,0.00860921,0.4470228,-1.4692909,2.008021,-2.1074116,-1.5707473,2.4217691,-0.034079745,0.042152293,-0.05283252,0.011925096,-0.0047058603,-0.0426442,-0.2681506,0.2681506,-9.3661175,0.7620334,47.691364,-0.7653785,-1.9578587,-3.5024533,-0.3642065,-0.08811697,-0.05860406,27.8125,29.0625,28.1875,31.875,33.9375,34.8125
0.06805225,-1.2037067,-0.3649687,-0.24355035,-0.0064478973,0.05553286,-0.19150864,-0.373841,-0.32802248,0.059846155,-3.0783334,0.62450266,-0.00058364583,-0.031131953,0.0056319432,0.0021786217,0.0043887435,0.0027784342,0.007866404,0.44695038,-1.4691947,2.007901,-2.1073997,-1.5707234,2.421661,-0.03527663,0.04333657,-0.055144396,0.011208831,-0.005277173,-0.04309536,-0.2681506,0.2681506,-9.308656,0.78888994,47.707485,-0.7278953,-1.9312166,-3.4559588,-0.3629412,-0.087930486,-0.07714529,27.8125,29.0625,28.1875,31.875,33.9375,34.8125
0.07005229,-1.2106856,-0.28648666,-0.11189808,-0.0071376646,0.05225076,-0.19415909,-0.3739008,-0.328017,0.059856247,-3.078349,0.62450826,-0.00057942513,-0.032561783,0.0056668147,0.0022193524,0.0050634397,0.0041130823,0.0052574743,0.44687802,-1.469122,2.0077927,-2.1073763,-1.570712,2.42159,-0.0358278,0.045421157,-0.057350636,0.010423302,-0.006467019,-0.04103331,-0.24899697,0.22984336,-9.385271,0.7866488,47.71286,-0.7099021,-1.8987292,-3.3987982,-0.35340106,-0.0746569,-0.088020146,27.8125,29.0625,28.1875,31.875,33.9375,34.8125
0.072052345,-1.4712645,-0.2933782,-0.18128975,0.0010173282,0.038300026,-0.18136618,-0.37396178,-0.32798848,0.05985116,-3.0783021,0.62455535,-0.00056049024,-0.033497144,0.0060498947,0.0021589706,0.0064348346,0.0050250604,0.005926162,0.4467939,-1.4690379,2.0077093,-2.1073644,-1.5707487,2.4215415,-0.036282968,0.046742104,-0.058597565,0.010122966,-0.00810227,-0.042152613,-0.28730422,0.17238252,-9.346964,0.7642693,47.709274,-0.77518976,-1.9136788,-3.4943876,-0.34477693,-0.05876682,-0.101657055,27.875,29.0625,28.1875,31.875,33.9375,34.8125
0.07405244,-1.3793727,-0.29857472,-0.004609284,0.00015985878,0.042377815,-0.18861526,-0.3740444,-0.3279857,0.059874166,-3.0783195,0.6245007,-0.0005176231,-0.035599448,0.0056979703,0.0035539635,0.0061644763,0.008377731,0.0065273503,0.44672185,-1.4689417,2.00754,-2.1073167,-1.5707606,2.4214332,-0.036698256,0.04747144,-0.06264081,0.010299449,-0.009314434,-0.04316431,-0.2681506,0.15322891,-9.32781,0.77545905,47.71286,-0.77474475,-1.8622419,-3.344766,-0.3430657,-0.07302661,-0.11769354,27.875,29.0625,28.1875,31.875,33.9375,34.8125
0.07605187,-1.3713108,-0.46580946,-0.06463281,0.002208192,0.04543007,-0.17413506,-0.37411982,-0.32798338,0.059873994,-3.07833,0.62448484,-0.0005035054,-0.03568697,0.006725793,0.001571604,0.00788827,0.00473688,0.0051383753,0.44664907,-1.4688207,2.0074074,-2.1073167,-1.5707606,2.4213493,-0.03871534,0.05107421,-0.062012814,0.01009607,-0.009295125,-0.043792322,-0.34476504,0.17238252,-9.385271,0.7418897,47.709274,-0.8045422,-1.8894095,-3.4174385,-0.34999663,-0.052302413,-0.1300091,27.875,29.0625,28.1875,31.875,33.9375,34.8125
0.07805174,-1.4372566,-0.11022161,-0.025992392,-0.0026046694,0.048729934,-0.1839286,-0.3741854,-0.32796127,0.059876494,-3.07828,0.6244547,-0.00046212808,-0.03706004,0.006973472,0.0018038899,0.008111858,0.0056127394,0.004014839,0.44658864,-1.4687244,2.0072877,-2.107281,-1.5708207,2.4212766,-0.04002253,0.052486967,-0.06409611,0.010072085,-0.009880134,-0.04397318,-0.4213795,0.17238252,-9.385271,0.7620334,47.699425,-0.67244506,-1.9635494,-3.4443212,-0.33756608,-0.051761877,-0.1340426,27.875,29.0625,28.1875,31.875,33.9375,34.8125
0.080051824,-1.3416945,0.17290728,0.11248188,-0.008397637,0.05504793,-0.18721841,-0.3742499,-0.32796258,0.059893154,-3.0783257,0.6244068,-0.00045143388,-0.039630435,0.0057427627,0.0046725487,0.0046742065,0.010925589,0.0039353804,0.4465165,-1.468653,2.0071657,-2.1072571,-1.5707968,2.4211688,-0.040567245,0.05115131,-0.069259316,0.010291858,-0.009083175,-0.04443754,-0.38307226,0.13407528,-9.385271,0.784413,47.68599,-0.8117492,-1.7583678,-3.361227,-0.3250032,-0.05618958,-0.17159963,27.875,29.0625,28.1875,31.875,33.9375,34.8125
0.08205195,-1.1600114,-0.21066993,-0.04742914,0.0007907397,0.05502597,-0.1843691,-0.37435648,-0.32795888,0.059904687,-3.07834,0.6244663,-0.00036882967,-0.038550064,0.005510717,0.0031619833,0.00523575,0.0070350845,0.005089049,0.44642073,-1.4685203,2.0069988,-2.1072805,-1.5708083,2.4211085,-0.03993905,0.05361956,-0.06867263,0.010982835,-0.007904146,-0.044966057,-0.40222588,0.13407528,-9.289502,0.75084364,47.70032,-0.89900863,-1.8310648,-3.3488505,-0.32383633,-0.0651764,-0.2010518,27.875,29.0625,28.1875,31.875,33.9375,34.8125
0.084052,-1.291433,-0.34037158,-0.14318222,0.0011964685,0.046089996,-0.18100071,-0.37442523,-0.32792538,0.059890382,-3.0782924,0.6244573,-0.00040709288,-0.040267073,0.005879808,0.0023202603,0.005797247,0.005706077,0.0038209832,0.44631195,-1.468399,2.00689,-2.1072443,-1.5708326,2.4210002,-0.04221858,0.05800759,-0.071556926,0.010917818,-0.007845577,-0.045974836,-0.36391866,0.11492168,-9.270349,0.7866488,47.685097,-0.83462214,-1.855634,-3.3771977,-0.3310591,-0.07792166,-0.20794907,27.875,29.0625,28.1875,31.875,33.9375,34.8125
0.08605223,-1.1733863,-0.16838811,-0.076537944,-0.0076401276,0.04491023,-0.1864507,-0.37451202,-0.32793486,0.059924915,-3.0783498,0.6243547,-0.0003319371,-0.041769598,0.0062604006,0.002938266,0.0062737297,0.0072619645,0.0030311688,0.4462515,-1.4683149,2.0067103,-2.1072085,-1.5708331,2.4208686,-0.043536913,0.05873951,-0.07386977,0.011304199,-0.008948294,-0.046500266,-0.38307226,0.15322891,-9.346964,0.7866488,47.70032,-0.7410073,-1.9848019,-3.2992592,-0.32045364,-0.08710301,-0.23494875,27.875,29.0625,28.1875,31.875,33.9375,34.8125
0.08805215,-0.9832894,-0.43817952,-0.1975033,-0.01162004,0.04590454,-0.18427147,-0.37459075,-0.3279213,0.05991129,-3.0783257,0.6243684,-0.00037613037,-0.043610226,0.0065201987,0.0045406776,0.004925736,0.009632882,0.003385953,0.4461547,-1.4681598,2.0065653,-2.1071837,-1.5708331,2.4207835,-0.045803215,0.05777276,-0.076744944,0.012423263,-0.008761547,-0.049120203,-0.3256114,0.21068975,-9.3661175,0.80456203,47.703007,-0.70856845,-1.7371022,-3.320218,-0.31383628,-0.074092485,-0.24429835,27.875,29.0625,28.1875,31.875,33.9375,34.8125
0.09005214,-1.0709993,-0.7216104,-0.36133125,-0.0075367466,0.042917993,-0.18685181,-0.3746881,-0.32789114,0.0599188,-3.0782845,0.62432003,-0.0002949531,-0.043954723,0.007147992,0.0029457968,0.0073334947,0.0070600053,0.0047763954,0.44605833,-1.4680386,2.0064094,-2.1071599,-1.5709046,2.4206624,-0.046564456,0.06174262,-0.07748873,0.0125557175,-0.009825004,-0.05126883,-0.38307226,0.24899697,-9.3661175,0.7418897,47.67166,-0.6978755,-1.8514869,-3.261814,-0.32065713,-0.092767656,-0.22411221,27.875,29.0625,28.1875,31.875,33.9375,34.8125
0.09205215,-1.4100025,-0.6662249,-0.40583196,-0.009354778,0.035846364,-0.18425417,-0.37477744,-0.32787862,0.059927166,-3.078267,0.6243936,-0.00026709953,-0.045473307,0.0063565252,0.0039106184,0.00687981,0.0090740705,0.0045159296,0.44596267,-1.4679182,2.0062525,-2.107136,-1.5709175,2.420615,-0.046124037,0.063217685,-0.08143302,0.013012565,-0.010290424,-0.05056471,-0.30645782,0.24899697,-9.404425,0.77545905,47.684196,-0.79238486,-1.9045622,-3.115464,-0.31862196,-0.05673509,-0.25489184,27.875,29.0625,28.1875,31.875,33.9375,34.8125
0.09405208,-0.78096336,-1.0833004,-0.4703294,-0.01145587,0.06664771,-0.19266452,-0.37485653,-0.32787603,0.0599319,-3.0782807,0.6243388,-0.0002952183,-0.045592446,0.0075605316,0.0024851167,0.008461177,0.006697915,0.003451173,0.44587782,-1.4677857,2.0060852,-2.1070883,-1.5709051,2.4204943,-0.04821011,0.0652422,-0.08033071,0.0127123725,-0.010691571,-0.051585358,-0.22984336,0.28730422,-9.461885,0.76874626,47.668976,-0.7336273,-1.8464204,-3.4022636,-0.30836874,-0.06605704,-0.29413944,27.875,29.0625,28.1875,31.875,33.9375,34.8125
0.09605215,-1.6025909,-0.8237399,-0.31566334,-0.023960168,0.042844173,-0.17736578,-0.37493923,-0.32785365,0.05993507,-3.0782707,0.6243369,-0.00028464166,-0.046783824,0.0075932336,0.0025821344,0.008418276,0.0065353774,0.0036006037,0.44576943,-1.4676772,2.005953,-2.107064,-1.5709175,2.420386,-0.049406014,0.06719752,-0.08287235,0.013424166,-0.010587055,-0.052929293,-0.22984336,0.2873042,-9.481039,0.80456203,47.739727,-0.70850873,-1.9643455,-3.293517,-0.30915678,-0.08406394,-0.3011448,27.875,29.0625,28.1875,31.875,33.9375,34.8125
0.09805246,-1.3171401,-1.2344575,-0.22317623,-0.018149337,0.043060098,-0.17887518,-0.3750322,-0.32782987,0.059929963,-3.0782342,0.6242517,-0.0002695433,-0.04833858,0.0076924628,0.003082565,0.0091022765,0.008144686,0.0056236456,0.44567326,-1.4675211,2.0057847,-2.1070278,-1.5709656,2.4202416,-0.050092056,0.06867361,-0.0856953,0.013613739,-0.011906097,-0.055633612,-0.32561144,0.2681506,-9.404425,0.84484416,47.71554,-0.6992794,-1.8397815,-3.1044798,-0.3195355,-0.038193874,-0.3170412,27.875,29.0625,28.1875,31.875,33.9375,34.8125
0.100052565,-1.1142757,-0.887981,-0.23833919,-0.0146723995,0.044714525,-0.17292829,-0.37517098,-0.3278264,0.059965815,-3.0782683,0.6243755,-0.00015135025,-0.0483093,0.007928121,0.0024141949,0.009630192,0.006039005,0.0028955992,0.44554105,-1.4673886,2.0055568,-2.1070273,-1.5709652,2.4201825,-0.05078354,0.07033221,-0.086222574,0.01460789,-0.011467221,-0.053598758,-0.34476504,0.22984336,-9.3661175,0.7911258,47.71554,-0.7632122,-1.9315635,-3.3225448,-0.29355922,-0.066834636,-0.35187888,27.875,29.0625,28.1875,31.875,33.9375,34.8125
0.102051616,-0.6368208,-0.56337637,-0.44474557,-0.01248223,0.040644538,-0.19165058,-0.37526387,-0.32781732,0.059962854,-3.0782647,0.624297,-0.00012774556,-0.049916152,0.007527962,0.002532148,0.009137245,0.007235869,0.002824878,0.44545686,-1.4672321,2.005389,-2.1070163,-1.57099,2.42005,-0.05141596,0.0728373,-0.08903356,0.013619066,-0.011546416,-0.05415798,-0.17238252,0.2681506,-9.461885,0.7709874,47.716442,-0.8195033,-1.9258394,-3.2142515,-0.2951659,-0.06117659,-0.40860602,27.875,29.0625,28.1875,31.875,33.9375,34.8125
0.10405165,-0.6459329,-0.81277186,-0.32641283,0.00035742455,0.025055148,-0.18014483,-0.37534857,-0.32780895,0.059971802,-3.0782597,0.624237,-0.00013212515,-0.05096506,0.007441943,0.0026920738,0.008911612,0.008096628,0.004543222,0.44537267,-1.4670998,2.0052092,-2.1069567,-1.5710019,2.419929,-0.052070335,0.07410464,-0.09069286,0.013134912,-0.011719801,-0.056528915,-0.15322891,0.19153613,-9.385271,0.779936,47.71286,-0.8304342,-1.9745595,-3.170741,-0.26368546,-0.037474833,-0.4256385,27.875,29.0625,28.1875,31.875,33.9375,34.8125
0.10605221,-0.9056396,-0.47763696,-0.14457294,-0.005013889,0.01464921,-0.18592775,-0.3754648,-0.32779452,0.059982892,-3.0782688,0.6241989,-3.7629812e-05,-0.051455688,0.006930375,0.002767143,0.00892107,0.00840125,0.007727501,0.44526485,-1.4669558,2.005028,-2.1069682,-1.5710377,2.4197965,-0.05143969,0.07551176,-0.09243698,0.013196981,-0.011861058,-0.059081636,-0.22984336,0.19153613,-9.442732,0.7665104,47.703903,-0.84834725,-1.9375933,-3.160359,-0.25034145,-0.038825646,-0.42601663,27.875,29.0625,28.1875,31.875,33.9375,34.8125
0.108052105,-1.1225922,-0.87275565,-0.36192355,0.009013347,0.0050952383,-0.17359883,-0.3755712,-0.32778114,0.059985988,-3.0782459,0.62427115,-5.4075736e-05,-0.05314196,0.007830232,0.002533415,0.010023404,0.008060209,0.0072331466,0.44514403,-1.4667872,2.0048244,-2.10692,-1.5710381,2.4197237,-0.054054897,0.078030325,-0.094836034,0.013860474,-0.012713975,-0.0611991,-0.095768064,0.28730422,-9.385271,0.86945957,47.728977,-0.88597804,-1.9383867,-3.1751013,-0.24367751,-0.04786928,-0.45603633,27.875,29.0625,28.1875,31.875,33.9375,34.8125
0.11005223,-0.519696,-0.38294405,-0.23855826,0.0010731551,0.016590951,-0.1849771,-0.37568766,-0.3277581,0.059986092,-3.078211,0.62420374,1.3868207e-06,-0.053361136,0.007676321,0.0028448289,0.010102956,0.007861561,0.011544957,0.445036,-1.4666075,2.0046208,-2.1068957,-1.5710977,2.4195783,-0.0539531,0.07836042,-0.09621144,0.01511185,-0.012701891,-0.065408655,-0.076614454,0.28730422,-9.346964,0.7284641,47.711964,-0.8406007,-1.95979,-3.210097,-0.25170287,-0.03522955,-0.4607141,27.875,29.0625,28.1875,31.875,33.9375,34.8125
0.1120526,-0.19830507,-0.46675617,-0.22925352,-0.011941758,0.024790715,-0.1907466,-0.37579075,-0.32775885,0.059998956,-3.0782418,0.6241096,5.647108e-05,-0.052545886,0.007034941,0.0013600676,0.011882958,0.0047614253,0.017889526,0.4449528,-1.4664621,2.0044286,-2.1068838,-1.5711101,2.4194326,-0.05181843,0.0820492,-0.09703955,0.015812248,-0.012973592,-0.06961764,-0.019153614,0.2681506,-9.385271,0.8179876,47.705692,-1.0874858,-2.1034915,-3.1335528,-0.23718211,-0.05122323,-0.4300452,27.875,29.0625,28.1875,31.875,33.9375,34.8125
0.114052184,-0.7564484,-0.8152241,-0.19553196,-0.018191714,0.017259818,-0.186838,-0.37588653,-0.3277363,0.059995674,-3.0782204,0.6240267,8.845121e-06,-0.054090656,0.006994091,0.0031715569,0.009868932,0.0074428073,0.021374691,0.44483218,-1.4662952,2.004236,-2.1068113,-1.571122,2.4192631,-0.0535556,0.08032753,-0.099514686,0.016714066,-0.012318285,-0.074839726,-0.095768064,0.2681506,-9.308656,0.7777002,47.723602,-1.04452,-1.9502318,-3.2120345,-0.23487684,-0.042361595,-0.39874858,27.875,29.0625,28.1875,31.875,33.9375,34.8125
0.11605236,-1.1161122,-1.0804611,-0.2862693,-0.01711251,0.0026981002,-0.18741156,-0.3759793,-0.32772744,0.059997726,-3.0782237,0.6239861,-3.468897e-05,-0.05415693,0.007954469,0.00056134706,0.012347335,0.0023053894,0.025044339,0.44472358,-1.4661378,2.0040443,-2.1067522,-1.5711097,2.419129,-0.05538186,0.08582766,-0.09968587,0.017085524,-0.0123492,-0.080334425,0.019153614,0.28730422,-9.346964,0.83813137,47.705692,-1.0858936,-1.9016078,-3.2598934,-0.24080546,-0.03514614,-0.3676994,27.875,29.0625,28.1875,31.875,33.9375,34.8125
0.118052445,-0.8129663,-0.8663481,-0.4789009,-0.025812337,0.0041270847,-0.18484473,-0.3761042,-0.3277297,0.060013454,-3.078268,0.62387675,9.164652e-06,-0.05520641,0.0076913848,0.0018484062,0.011011871,0.005221503,0.029663721,0.44461536,-1.4659586,2.0038054,-2.1067278,-1.5711097,2.418947,-0.05577441,0.08446863,-0.1010396,0.01658722,-0.012401553,-0.085346,0.076614454,0.19153613,-9.3661175,0.7777002,47.721813,-0.989766,-2.07148,-3.256794,-0.21259886,-0.04239815,-0.31332958,27.875,29.0625,28.1875,31.875,33.9375,34.8125
0.12005249,-0.14601696,-0.30568355,-0.11013105,-0.031289447,0.027017096,-0.19383942,-0.37621918,-0.32770607,0.06001246,-3.0782747,0.62381816,5.9879454e-05,-0.055266578,0.0077066417,0.0006098108,0.012208874,0.0027495413,0.03463777,0.4444836,-1.4658016,2.0036376,-2.1067398,-1.5711335,2.418778,-0.05582508,0.08782504,-0.101985924,0.01691696,-0.012420737,-0.09037,0.0,0.19153613,-9.32781,0.8291774,47.698532,-1.1820884,-1.9709707,-3.321517,-0.20640592,-0.04084524,-0.2571622,27.875,29.0625,28.1875,31.875,33.9375,34.8125
0.12205251,-0.8992624,-0.5798022,-0.14694296,0.0008735874,0.0064185373,-0.18461731,-0.37633252,-0.32770652,0.06001286,-3.078272,0.6236639,5.2861236e-05,-0.056580886,0.008271985,0.00047071595,0.012361372,0.002793501,0.035387702,0.44439882,-1.4655855,2.0033848,-2.1066797,-1.5711578,2.4185975,-0.057938047,0.08949036,-0.103487045,0.016774183,-0.012584462,-0.09323114,-0.05746084,0.17238252,-9.308657,0.7486078,47.694946,-1.1158838,-2.0903764,-3.3525052,-0.18145052,-0.021532275,-0.2026864,27.875,29.0625,28.1875,31.875,33.9375,34.8125
0.12405286,-0.36435652,0.46563706,-0.22476757,-0.004120443,0.021554245,-0.19060361,-0.37643516,-0.32766786,0.060003567,-3.0782433,0.62354094,6.7648354e-05,-0.057905313,0.008018391,0.0010361545,0.011664736,0.0035702104,0.036462516,0.44426647,-1.4654292,2.0032284,-2.1066554,-1.571206,2.4183922,-0.05882671,0.090789326,-0.10635506,0.017334022,-0.012297623,-0.09519316,-0.11492168,0.15322891,-9.3661175,0.78217715,47.70032,-1.1341146,-2.0217862,-3.1970668,-0.17825477,-0.027726583,-0.16624342,27.875,29.0625,28.1875,31.875,33.9375,34.8125
0.12605263,-0.7582502,-0.20166631,-0.28402725,0.013923566,0.019111788,-0.18986496,-0.37656793,-0.32768226,0.060020227,-3.0783334,0.6233683,0.000116898336,-0.057379637,0.009069877,-0.00047680942,0.013489601,0.0003992447,0.03536141,0.44415802,-1.4652371,2.0029786,-2.1066554,-1.5711821,2.4181647,-0.060116183,0.09250199,-0.10490244,0.017818056,-0.012573478,-0.095382474,-0.095768064,0.11492168,-9.32781,0.7642693,47.703903,-1.1899838,-2.0427794,-3.4687893,-0.17227963,-0.032930702,-0.13581058,27.875,29.0625,28.1875,31.875,33.9375,34.8125
0.12805167,-1.2572091,-0.5933052,-0.20175923,0.015694037,0.011950817,-0.17409874,-0.37670478,-0.32764068,0.060037494,-3.0782611,0.6233931,0.00019775594,-0.059508983,0.008587784,0.0006309938,0.012257903,0.0022828577,0.033193454,0.44401368,-1.4650688,2.0027373,-2.1065838,-1.571266,2.4180453,-0.061298523,0.09410707,-0.109364934,0.018435322,-0.012278646,-0.09439476,-0.24899697,0.11492168,-9.3661175,0.7911258,47.70211,-1.1597294,-2.040704,-3.314722,-0.15462789,-0.041137733,-0.1484882,27.875,29.0625,28.1875,31.875,33.9375,34.8125
0.13005246,-0.4566694,0.018087396,-0.2851385,-0.009061535,0.03736045,-0.19333142,-0.37681255,-0.3276409,0.060049456,-3.0782776,0.62316746,0.00022985454,-0.059447583,0.009286642,0.0003192418,0.0132638635,0.0009051678,0.02905711,0.44394132,-1.464889,2.002498,-2.1065233,-1.5713018,2.4178302,-0.062324014,0.09441133,-0.10929921,0.019740911,-0.01259133,-0.0912837,-0.15322891,0.05746084,-9.32781,0.81351066,47.690468,-1.1724076,-1.9516199,-3.4282932,-0.15423724,-0.032137193,-0.15859988,27.875,29.0625,28.1875,31.875,33.9375,34.8125
0.13205253,-1.4161158,-0.7243694,-0.4543032,-0.00080537103,0.031907033,-0.17726831,-0.37692648,-0.32762066,0.060046893,-3.0782888,0.6231351,0.00017596199,-0.059927586,0.009720976,-0.00092717836,0.014701242,-0.0017681239,0.022524558,0.44378498,-1.4647081,2.0022933,-2.106475,-1.571278,2.4176524,-0.063442804,0.09807432,-0.1106672,0.020482343,-0.012743577,-0.085868195,-0.24899697,0.095768064,-9.346964,0.7866488,47.694054,-1.1538471,-2.0331905,-3.4352403,-0.15974487,-0.021136902,-0.20627993,27.875,29.0625,28.1875,31.875,33.9375,34.8125
0.13405259,-1.3534929,-0.24377489,-0.16267936,-0.00930293,0.039653137,-0.19167939,-0.3770526,-0.3275909,0.060041122,-3.0782375,0.62306666,0.00022992383,-0.061592244,0.009634856,0.0008616132,0.012451139,0.0016147839,0.02088883,0.44366452,-1.4645051,2.0020773,-2.1064513,-1.57135,2.417496,-0.06513483,0.09625248,-0.11274638,0.020352334,-0.012170047,-0.08592453,-0.28730422,0.038307227,-9.385271,0.7620334,47.655537,-1.1236693,-1.8079772,-3.5028875,-0.14237717,-0.020975549,-0.2543062,27.875,29.0625,28.1875,31.875,33.9375,34.8125
0.13605204,-0.63456017,0.39977682,0.0777618,-0.015116055,0.06350424,-0.19809747,-0.37716687,-0.32757926,0.060035773,-3.078259,0.62297803,0.00020439652,-0.061930683,0.009659309,4.062537e-05,0.0130295595,-0.0001718174,0.017112374,0.44353217,-1.4643126,2.0018718,-2.1064274,-1.571338,2.4173057,-0.06562413,0.09895278,-0.1139436,0.020712502,-0.0119275125,-0.082636714,-0.36391866,0.0,-9.270349,0.8023209,47.68062,-1.1231331,-1.8130257,-3.4610515,-0.14442843,-0.033339046,-0.28793192,27.875,29.0625,28.1875,31.875,33.9375,34.8125
0.13805202,-1.4294152,0.0010924902,-0.242627,0.005341639,0.048322458,-0.19296962,-0.37729922,-0.32758066,0.06004898,-3.078279,0.6229045,0.00024381373,-0.064688176,0.0087282,0.0021806988,0.00971867,0.0036320286,0.016555151,0.44342378,-1.4641088,2.0016086,-2.1063912,-1.5713495,2.417149,-0.06723187,0.099200614,-0.11916589,0.020822575,-0.0105788,-0.08368704,-0.3256114,0.0,-9.3661175,0.90750587,47.694054,-1.3001499,-1.882391,-3.4853384,-0.13121492,-0.0636276,-0.31275332,27.875,29.0625,28.1875,31.875,33.9375,34.8125
0.14005196,-1.4211947,0.23335256,-0.29258662,0.010597541,0.04056407,-0.19663757,-0.3774272,-0.32757106,0.060049325,-3.0782936,0.62279207,0.0002255009,-0.064686075,0.009799091,0.0008704904,0.011184829,0.00069223583,0.01631341,0.44329104,-1.4638926,2.0013583,-2.106343,-1.5713495,2.4169445,-0.069166474,0.101271205,-0.118620634,0.021488722,-0.010641715,-0.085379854,-0.36391866,-0.038307227,-9.404425,0.8291774,47.68599,-1.1607769,-1.8167125,-3.4703956,-0.12565446,-0.061772827,-0.32218552,27.875,29.0625,28.1875,31.875,33.9375,34.8125
0.14205188,-1.2555047,0.1190835,-0.4332221,0.016710458,0.043130096,-0.18888558,-0.37756667,-0.32752857,0.06003839,-3.0782337,0.62280023,0.00019859771,-0.06628342,0.0099333655,0.0010351829,0.011306766,0.0009299713,0.014606151,0.44311056,-1.463664,2.0011175,-2.106283,-1.5713853,2.416777,-0.070667006,0.10359485,-0.12172375,0.02210178,-0.010863746,-0.08517022,-0.49799395,0.038307227,-9.404425,0.84484416,47.686886,-1.1626487,-1.8993239,-3.3982477,-0.107819885,-0.05007824,-0.34267256,27.875,29.0625,28.1875,31.875,33.9375,34.8125
0.14405169,-1.5693451,-0.3835221,-0.40582126,0.010713007,0.04233965,-0.18338114,-0.3777001,-0.32750016,0.060052734,-3.0782154,0.6228338,0.00023740366,-0.067365095,0.009890917,0.0019579316,0.010839968,0.0021168708,0.0153235,0.4429543,-1.4634964,2.0008886,-2.1062348,-1.5714096,2.416644,-0.071463704,0.103602774,-0.12411517,0.023208126,-0.010953523,-0.08668318,-0.53630114,0.114921674,-9.461885,0.800085,47.672558,-1.1599118,-1.8324299,-3.318272,-0.09642367,-0.061289653,-0.37366956,27.875,29.0625,28.1875,31.875,33.9375,34.8125
0.14605245,-1.6168449,-0.33804277,-0.42914268,-0.0069528497,0.05518405,-0.18954006,-0.37784016,-0.32747054,0.060055114,-3.0781937,0.6227925,0.00026884253,-0.06855952,0.01041454,0.0019037976,0.012037378,0.0014232054,0.013266169,0.4427978,-1.463292,2.0006492,-2.106198,-1.5714458,2.4164648,-0.072951704,0.105807826,-0.12681746,0.024843782,-0.011740571,-0.08611086,-0.61291564,0.11492168,-9.481039,0.83365434,47.70838,-1.2258928,-1.7705551,-3.3045135,-0.10523169,-0.060519457,-0.36724088,27.875,29.0625,28.1875,31.875,33.9375,34.8125
0.14805242,-1.4850001,-0.444707,-0.5896015,-0.016595881,0.06819507,-0.194016,-0.3779522,-0.3274706,0.0600538,-3.0782123,0.62264204,0.00021109504,-0.06889843,0.010735785,0.0018154596,0.012125051,0.00020469986,0.014451163,0.44268936,-1.4630761,2.0003974,-2.106126,-1.5714334,2.4162602,-0.07412571,0.1066189,-0.12783958,0.02618954,-0.011301693,-0.088470004,-0.6703765,0.11492168,-9.500193,0.8224646,47.707485,-1.138326,-1.6283941,-3.368816,-0.12257288,-0.0556045,-0.4060387,27.875,29.0625,28.1875,31.875,33.9375,34.8125
0.15005246,-1.4584368,-0.8252796,-0.62105703,-0.028225448,0.07860885,-0.19283138,-0.37807912,-0.32742175,0.06003596,-3.0781288,0.62254304,0.00018707383,-0.07008551,0.0109254215,0.0014546377,0.01301994,-0.00082914165,0.02002757,0.44253314,-1.4628476,2.0001695,-2.1060536,-1.5715059,2.416053,-0.07525706,0.10973914,-0.13072464,0.027258491,-0.011682543,-0.095174335,-0.49799395,0.15322891,-9.5385,0.80456203,47.694946,-1.1508908,-1.6321226,-3.328308,-0.12491441,-0.06949079,-0.34677947,27.875,29.0625,28.1875,31.875,33.9375,34.8125
0.15205246,-1.7805285,-1.0881473,-0.55100775,-0.029155402,0.07396814,-0.19272645,-0.378235,-0.3274014,0.06005111,-3.0781188,0.6225806,0.00021183069,-0.0715224,0.012343129,0.00052307313,0.014095211,-0.002419627,0.01928241,0.44236374,-1.462631,1.9998821,-2.105994,-1.5715178,2.4159086,-0.07895875,0.112529285,-0.13171521,0.0273517,-0.011977068,-0.098129444,-0.45968673,0.19153613,-9.595961,0.82694155,47.71286,-1.0801846,-1.7354648,-3.3461237,-0.11758532,-0.05840396,-0.3529654,27.875,29.0625,28.1875,31.875,33.9375,34.8125
0.15405177,-2.028874,-1.3536942,-0.61950153,-0.020756526,0.07001553,-0.18159917,-0.37837467,-0.32738286,0.060050473,-3.0781152,0.62257564,0.00016972059,-0.07182464,0.011572018,0.00044542717,0.013915141,-0.0026021847,0.026514074,0.44219622,-1.4624029,1.9996179,-2.105934,-1.5715059,2.4157386,-0.07790492,0.11433828,-0.13359492,0.027502695,-0.011747308,-0.10430618,-0.49799395,0.22984336,-9.653421,0.84484416,47.70838,-1.0221691,-1.6584799,-3.3426037,-0.12689093,-0.061485205,-0.27971518,27.875,29.0625,28.1875,31.875,33.9375,34.8125
0.15605217,-1.7024258,-0.8705938,-0.6964731,-0.022281757,0.072854236,-0.19166411,-0.37850967,-0.32737008,0.06004876,-3.0781372,0.6222493,0.00017100848,-0.07248505,0.012216135,5.1129457e-05,0.014864056,-0.002971846,0.031549986,0.4420758,-1.4621627,1.9993428,-2.1058738,-1.5715417,2.415412,-0.07919247,0.11562196,-0.13413142,0.02748665,-0.012455621,-0.1106274,-0.4213795,0.15322891,-9.691729,0.8291774,47.70032,-1.1449733,-1.7775781,-3.4640064,-0.11702528,-0.06354824,-0.2292346,27.875,29.0625,28.1875,31.875,33.9375,34.8125
0.1580523,-1.6203475,-0.91030884,-0.49180654,-0.014665634,0.06163726,-0.17718597,-0.3787195,-0.32736224,0.060104873,-3.0782092,0.6222452,0.00034686088,-0.07528346,0.013414899,-1.0066686e-05,0.013942765,-0.003102811,0.03142107,0.44188195,-1.4619582,1.9989828,-2.10585,-1.5715536,2.4152067,-0.084478654,0.11845411,-0.13711284,0.027348183,-0.011563205,-0.11578588,-0.38307226,0.1340753,-9.500193,0.8403672,47.73077,-0.9316054,-1.7562282,-3.2187781,-0.11013311,-0.071879946,-0.14638674,27.875,29.0625,28.1875,31.875,33.9375,34.8125
0.16005212,-1.5428312,-0.75370246,-0.4403815,-0.008520704,0.04647154,-0.18465376,-0.378877,-0.3273478,0.06010633,-3.078233,0.6220164,0.00039445344,-0.075678095,0.012191105,0.00096918305,0.012862285,-0.0010061444,0.03637947,0.44173884,-1.4617069,1.9986962,-2.1058261,-1.5715898,2.414918,-0.08255222,0.118296504,-0.13917741,0.027203789,-0.0114889145,-0.11881697,-0.3256114,0.15322891,-9.442732,0.7396539,47.677036,-1.0226107,-1.7223134,-3.446907,-0.09057891,-0.087694526,-0.08588947,27.875,29.0625,28.1875,31.875,33.9375,34.8125
0.16205254,-1.2492933,-0.480664,-0.35196835,-0.0120354295,0.043076556,-0.1826368,-0.37902606,-0.32729387,0.060089357,-3.078168,0.6220634,0.00034224248,-0.077126935,0.013471748,-2.0581416e-05,0.014165265,-0.0023351721,0.03244795,0.4415215,-1.461466,1.9984554,-2.105767,-1.5716141,2.4147384,-0.085778765,0.121383235,-0.1403023,0.026998043,-0.012109941,-0.11810893,-0.30645782,0.21068975,-9.385271,0.8090337,47.729877,-0.9650146,-1.8049002,-3.3737671,-0.07564491,-0.06324453,-0.06361817,27.875,29.0625,28.1875,31.875,33.9375,34.8125
0.16405252,-1.1856141,-0.32383156,-0.313115,-0.009074435,0.038775716,-0.17974132,-0.37916392,-0.32724375,0.060063135,-3.0781124,0.621901,0.0002535391,-0.07860522,0.013756921,0.00034964774,0.014293102,-0.0012327598,0.028123045,0.44132924,-1.4612021,1.9982046,-2.105683,-1.5716504,2.414452,-0.087183945,0.12262471,-0.14257266,0.027083699,-0.012712223,-0.115185335,-0.36391866,0.24899697,-9.461885,0.84484416,47.71554,-0.91537154,-1.7673895,-3.3680968,-0.060778312,-0.06435358,-0.08032564,27.875,29.0625,28.1875,31.875,33.9375,34.8125
0.16605164,-0.626194,0.14671898,-0.16023707,-0.008465428,0.046476286,-0.1923804,-0.37932009,-0.32724723,0.060075548,-3.0781476,0.6218337,0.0002969426,-0.07969018,0.013834695,0.0001764556,0.014705731,-0.0017893859,0.023065532,0.44119674,-1.4609617,1.9979047,-2.1056588,-1.5716504,2.4142733,-0.088165484,0.12507056,-0.14507878,0.027826995,-0.012845754,-0.111107945,-0.3256114,0.15322891,-9.461885,0.82022345,47.686886,-0.83946735,-1.8117726,-3.3257864,-0.060819946,-0.081505075,-0.12625414,27.875,29.0625,28.1875,31.875,33.9375,34.8125
0.16805257,-1.0334202,-0.2363955,-0.34324232,0.006833865,0.030965477,-0.18524218,-0.37948397,-0.32722634,0.060089275,-3.078152,0.6217228,0.00031934676,-0.08081146,0.015171056,-0.00069772603,0.01514526,-0.00416923,0.015224705,0.44102758,-1.4607214,1.9975909,-2.1055863,-1.5716738,2.4140346,-0.09203263,0.12744613,-0.14591508,0.028625133,-0.012226145,-0.10713498,-0.36391866,0.095768064,-9.385271,0.8112748,47.694946,-0.81630313,-1.8633213,-3.2700233,-0.056445405,-0.08552431,-0.15264356,27.875,29.0625,28.1875,31.875,33.9375,34.8125
0.17005259,-1.126881,0.3047121,0.06941058,0.00034791883,0.035295688,-0.19068022,-0.3796893,-0.32720414,0.060120158,-3.0781589,0.62170607,0.0004522497,-0.08182442,0.0140438825,5.875127e-05,0.015147959,-0.002521342,0.012805141,0.4408362,-1.460469,1.9972328,-2.1055505,-1.5717224,2.4138322,-0.090298936,0.12919721,-0.14975111,0.029220993,-0.012930795,-0.102978885,-0.36391866,0.05746084,-9.385271,0.8179876,47.67345,-0.79055685,-1.933892,-3.2329082,-0.042832226,-0.07368785,-0.21635857,27.875,29.0625,28.1875,31.875,33.9375,34.8125
0.17205165,-1.364375,-0.17742191,-0.0025369537,0.013866575,0.030996881,-0.18254524,-0.379824,-0.32716733,0.06009026,-3.0781126,0.621774,0.000319631,-0.0818228,0.015424606,-0.0029713844,0.01795385,-0.0088139195,0.0104745645,0.4406314,-1.4602036,1.9969939,-2.1054904,-1.5716981,2.4136758,-0.09293045,0.13516907,-0.14963481,0.030020209,-0.012793678,-0.1032784,-0.3256114,0.076614454,-9.289502,0.7933669,47.701214,-0.76863503,-1.9811971,-3.3463867,-0.046634644,-0.093899325,-0.24724935,27.875,29.0625,28.1875,31.875,33.9375,34.8125
0.17405196,-1.1295435,0.09618904,0.04945561,0.0033411859,0.045973297,-0.18615478,-0.38000014,-0.32712644,0.060108133,-3.0781155,0.6216631,0.00034161337,-0.08290261,0.01546745,-0.0014146839,0.016911443,-0.0065578693,0.0056945817,0.4404149,-1.4599767,1.9966825,-2.105406,-1.5717224,2.41339,-0.09390055,0.1335009,-0.1516577,0.03122558,-0.0128151225,-0.09946795,-0.28730422,0.095768064,-9.193734,0.85826975,47.707485,-0.6124758,-1.9146059,-3.3662157,-0.04495569,-0.10046154,-0.30992994,27.875,29.0625,28.1875,31.875,33.9375,34.8125
0.17605217,-1.177818,-0.46474323,0.12896438,0.012015032,0.043793112,-0.18847801,-0.38017932,-0.32710442,0.060112707,-3.0780895,0.6216355,0.00040119307,-0.08356229,0.015234738,-0.0011091157,0.016962104,-0.0065323757,0.0076427944,0.4402471,-1.4597007,1.9963583,-2.1053698,-1.5717705,2.4132085,-0.09396125,0.13462403,-0.15388559,0.03231976,-0.0128762955,-0.1014758,-0.28730422,0.076614454,-9.136273,0.7777002,47.688675,-0.8305892,-1.9247898,-3.376371,-0.046814017,-0.08611059,-0.3519833,27.875,29.0625,28.1875,31.875,33.9375,34.8125
0.17805232,-1.4426588,-0.40489164,0.21177223,0.012757045,0.03294003,-0.17602882,-0.38034955,-0.3270739,0.06011769,-3.078052,0.6216502,0.00039079873,-0.084061645,0.014981338,-0.0013598695,0.017498251,-0.007478274,0.0034713144,0.44005504,-1.4594364,1.996035,-2.1052854,-1.5717944,2.4130306,-0.09382382,0.13688546,-0.15608168,0.033339586,-0.012963163,-0.0971651,-0.34476504,0.095768064,-9.136273,0.7978386,47.691364,-0.7558044,-1.9673157,-3.3397412,-0.0558221,-0.09783042,-0.417886,27.875,29.0625,28.1875,31.875,33.9375,34.8125
0.18005222,-0.7308493,0.5243691,0.13329631,0.0007447833,0.041444823,-0.19152726,-0.38053206,-0.32705125,0.06009938,-3.078045,0.62161016,0.00035718107,-0.08422352,0.015009653,-0.0014992537,0.017865984,-0.008353438,0.004159238,0.439851,-1.4591126,1.9957126,-2.105261,-1.5717944,2.4128027,-0.09398934,0.1378774,-0.1571328,0.0343435,-0.012929196,-0.09801788,-0.2873042,0.13407528,-9.097966,0.8291774,47.67166,-0.8187585,-1.8470795,-3.3269305,-0.058352984,-0.10428156,-0.4808538,27.875,29.0625,28.1875,31.875,33.9375,34.8125
0.18205221,-0.47156465,0.12878221,0.20533857,0.022154946,0.032746624,-0.18886368,-0.38069803,-0.3270271,0.06010212,-3.0780146,0.6215827,0.0003756896,-0.08496493,0.014772933,-0.0009883008,0.017778544,-0.007856607,0.006686742,0.43968287,-1.4588491,1.9954008,-2.1052015,-1.5718302,2.4126215,-0.094062656,0.13860758,-0.15937915,0.035364434,-0.013069413,-0.10061719,-0.22984336,0.15322891,-9.021352,0.80456203,47.67166,-0.9145787,-1.898294,-3.3205104,-0.058869235,-0.10981977,-0.49275446,27.875,29.0625,28.1875,31.875,33.9375,34.8125
0.18405212,-0.6517076,0.20182994,0.19072868,0.02228957,0.0152356215,-0.18791313,-0.3808507,-0.32698384,0.060088724,-3.0779383,0.6215607,0.00030256654,-0.085040264,0.014827738,-0.0013117895,0.019133188,-0.008757076,0.015681546,0.43949118,-1.458573,1.9951009,-2.1050932,-1.5718664,2.412426,-0.09361014,0.14008518,-0.1605555,0.036440093,-0.013929999,-0.10915593,-0.19153613,0.095768064,-9.097966,0.84708,47.65643,-0.9554564,-1.8376327,-3.3980975,-0.07731939,-0.12490731,-0.4643926,27.875,29.0625,28.1875,31.875,33.9375,34.8125
0.18605173,-0.5481261,-0.023348609,0.043896165,0.015292353,0.0108769,-0.18588689,-0.38098162,-0.32695347,0.060065843,-3.0779037,0.6213411,0.00020144317,-0.08506218,0.015238692,-0.0011192838,0.019970939,-0.010119039,0.019877873,0.4393349,-1.4582975,1.9948257,-2.104996,-1.5718907,2.4121373,-0.09422897,0.14023499,-0.16180922,0.039122365,-0.0141227385,-0.11396935,-0.076614454,0.19153613,-9.078813,0.85826975,47.66539,-1.0605379,-1.7892414,-3.3858876,-0.0856527,-0.12501311,-0.43540454,27.875,29.0625,28.1875,31.875,33.9375,34.8125
0.18805186,-0.6498808,-0.25171408,-0.27985904,0.0067102825,0.0016997105,-0.18401143,-0.3812063,-0.326916,0.06009499,-3.0778894,0.62138855,0.00025349014,-0.086308725,0.015621414,-0.000653846,0.021135328,-0.009728685,0.029951073,0.43908265,-1.4580092,1.9944175,-2.1049001,-1.571915,2.4119167,-0.095152564,0.141574,-0.16480194,0.040900815,-0.015355751,-0.124962285,0.095768064,0.28730422,-9.11712,0.7620334,47.685097,-1.0646636,-1.9155178,-3.298411,-0.13423684,-0.10463779,-0.35186195,27.875,29.0625,28.1875,31.875,33.9375,34.8125
0.19005181,0.0587762,-0.27216196,-0.26542768,-0.0095884185,0.010365076,-0.19367683,-0.38137963,-0.326884,0.06008911,-3.0778294,0.62123996,0.00028587418,-0.08785908,0.016103573,-0.0011212761,0.021231055,-0.010223995,0.033441156,0.43892592,-1.457709,1.9940819,-2.1048286,-1.571999,2.4116752,-0.0974458,0.14444958,-0.16688679,0.040577482,-0.015249354,-0.13074367,0.05746084,0.24899697,-9.289502,0.78888994,47.65912,-1.0091269,-1.7957499,-3.3319764,-0.118010625,-0.11890742,-0.27571377,27.875,29.0625,28.1875,31.875,33.9375,34.8125
0.19205257,0.33586085,-0.4943756,-0.42403093,-0.017507894,0.0045109526,-0.19016685,-0.3815611,-0.3268327,0.060078707,-3.077798,0.62115425,0.00024556587,-0.0882131,0.016053908,-0.00020621168,0.020845274,-0.009812698,0.037806146,0.43868598,-1.4574218,1.9937705,-2.1047556,-1.5720228,2.411386,-0.0977141,0.1436093,-0.1685302,0.042510845,-0.015088889,-0.1353764,0.1340753,0.2873042,-9.308657,0.83589023,47.711063,-1.0128608,-1.6820853,-3.3574228,-0.14021148,-0.10122804,-0.20483792,27.875,29.0625,28.1875,31.875,33.9375,34.8125
0.19405203,-0.17174448,-1.180752,-0.5507406,-0.008800519,-0.012455697,-0.18688986,-0.38172597,-0.3267924,0.06006926,-3.0777698,0.6209756,0.0001743724,-0.08850142,0.016465936,-0.00088316225,0.021560885,-0.012089604,0.03801198,0.43848157,-1.4571335,1.9934477,-2.1046474,-1.5720471,2.411074,-0.09889028,0.1457394,-0.16969986,0.043906305,-0.014784385,-0.13675751,0.1340753,0.22984336,-9.308656,0.82022345,47.687782,-0.9949458,-1.7924579,-3.2732058,-0.16963068,-0.1151865,-0.17871542,27.875,29.0625,28.1875,31.875,33.9375,34.8125
0.19605221,-0.11735127,-0.9276426,-0.7084421,-0.006382305,-0.004959571,-0.17959537,-0.38188407,-0.3267748,0.060061418,-3.0777426,0.62083626,0.00012075155,-0.08918647,0.016580416,-0.0005249307,0.022007545,-0.012941344,0.035721723,0.43832526,-1.4568338,1.993111,-2.104551,-1.572071,2.4108343,-0.09962591,0.14688253,-0.1724035,0.046424754,-0.0148370005,-0.1352009,0.0,0.30645782,-9.3661175,0.87393653,47.72002,-1.0282305,-1.716226,-3.4737523,-0.21082649,-0.13245368,-0.18345162,27.875,29.0625,28.1875,31.875,33.9375,34.8125
0.19805238,-0.07470232,-0.3847323,-0.96200347,-0.011182295,-0.0034690478,-0.17844465,-0.3820702,-0.32674682,0.0600705,-3.077733,0.62062645,0.00010358704,-0.08938086,0.017254,-0.0025311797,0.02337522,-0.01789399,0.02910036,0.4381326,-1.4565327,1.9927286,-2.104431,-1.5721062,2.4105122,-0.1015751,0.15169324,-0.173497,0.047769405,-0.013977854,-0.1305294,0.019153614,0.28730422,-9.519346,0.87617236,47.71465,-1.0454571,-1.6718411,-3.3788037,-0.26051646,-0.14068995,-0.23479772,27.875,29.0625,28.1875,31.875,33.9375,34.8125
0.20005238,-0.52921337,-0.8072115,-0.9516731,-0.025061,0.00782525,-0.1869125,-0.38225588,-0.3266932,0.06006637,-3.077642,0.620609,9.5057534e-05,-0.09041161,0.015928049,-0.00092636497,0.021015301,-0.013111227,0.026289742,0.4379173,-1.456234,1.9923819,-2.1043236,-1.5721782,2.4102979,-0.10001173,0.1502304,-0.17506604,0.045463704,-0.013885753,-0.12615365,0.11492168,0.30645782,-9.634268,0.7620334,47.723602,-1.067857,-1.5818093,-3.432119,-0.27168477,-0.14065021,-0.28180373,27.875,29.0625,28.1875,31.875,33.9375,34.8125
0.2020524,-0.9210269,-0.9638195,-0.9777783,-0.047604583,0.022628928,-0.17964093,-0.38241625,-0.32665896,0.06004561,-3.0776083,0.6204895,-2.6998248e-05,-0.09204112,0.016739244,-0.0012932112,0.021279993,-0.013912333,0.02174424,0.43771228,-1.4559212,1.9920577,-2.1042163,-1.5721782,2.4100227,-0.10295927,0.15284628,-0.17727335,0.045892533,-0.013804047,-0.124553114,0.0,0.30645782,-9.576807,0.8403672,47.709274,-1.1153126,-1.833905,-3.4197795,-0.28813714,-0.18300192,-0.30637956,27.875,29.0625,28.1875,31.875,33.9375,34.8125
0.20405245,-0.8269485,-1.5592078,-1.0471145,-0.04292011,0.044315852,-0.18251717,-0.38260028,-0.32662794,0.06004714,-3.0775795,0.6204243,-5.3765714e-05,-0.09147313,0.016739067,-0.002714349,0.02331435,-0.017657999,0.022385677,0.4375085,-1.455621,1.9916986,-2.1041195,-1.5722021,2.4097822,-0.10222862,0.15630254,-0.17831913,0.047732312,-0.014066878,-0.12446209,-0.095768064,0.24899697,-9.615114,0.82022345,47.694946,-1.0688688,-1.7923322,-3.471623,-0.3210238,-0.16403449,-0.36724135,27.875,29.0625,28.1875,31.875,33.9375,34.8125
0.20605165,-1.0997953,-0.938079,-0.93554384,-0.050140128,0.04482976,-0.18146566,-0.38277963,-0.32660896,0.060054976,-3.0775802,0.62035,-8.4270265e-05,-0.09285805,0.017071877,-0.0031469641,0.023798982,-0.018419676,0.019928403,0.43731582,-1.4553323,1.9913381,-2.1040242,-1.5722026,2.4095433,-0.103923514,0.15936835,-0.1808628,0.048104536,-0.014194846,-0.12369727,-0.11492168,0.2681506,-9.749189,0.8112748,47.67345,-1.077129,-1.9684044,-3.392871,-0.36546648,-0.15333709,-0.4078912,27.875,29.0625,28.1875,31.875,33.9375,34.8125
0.20805164,-0.71347964,-0.92555,-0.87389463,-0.03332602,0.05100555,-0.18108906,-0.38295478,-0.3265818,0.06003909,-3.0775285,0.6202432,-0.00014314118,-0.09483933,0.01672656,-0.0027877318,0.023002785,-0.015700066,0.01932512,0.43713555,-1.4549961,1.9909791,-2.1039288,-1.5722388,2.4093032,-0.104659684,0.16132876,-0.18341029,0.045885187,-0.014649346,-0.12382561,-0.21068975,0.28730422,-9.768343,0.8537928,47.713753,-1.070789,-1.9332142,-3.5081754,-0.37114173,-0.17564891,-0.40321797,27.875,29.0625,28.1875,31.875,33.9375,34.8125
0.21005164,-0.8996278,-0.42152178,-0.8058983,-0.027326668,0.04678443,-0.1875018,-0.38317072,-0.32653302,0.060042392,-3.0774968,0.6202728,-0.00013790844,-0.09689294,0.017361525,-0.002961743,0.021496117,-0.01407423,0.020661986,0.43687075,-1.4546841,1.9906086,-2.1038582,-1.5722622,2.4090612,-0.10800645,0.16285564,-0.18407969,0.042900063,-0.013994651,-0.12850964,-0.21068975,0.2681506,-9.710882,0.7553206,47.72092,-1.0493389,-2.011384,-3.4591618,-0.35370702,-0.1933733,-0.43378234,27.875,29.0625,28.1875,31.875,33.9375,34.8125
0.21205266,-0.8781709,-0.41650367,-0.8557638,-0.020821325,0.052355025,-0.1947456,-0.3833408,-0.32652104,0.060035177,-3.0774784,0.62005424,-0.00020697726,-0.09805495,0.015878405,-0.0021417264,0.020063384,-0.0108886,0.02805098,0.4367152,-1.4543486,1.9902247,-2.1037385,-1.572286,2.4087718,-0.106153674,0.16398333,-0.18683746,0.04102301,-0.014074597,-0.13404253,-0.2873042,0.28730422,-9.672575,0.8560339,47.70659,-1.1233158,-1.8555331,-3.4154198,-0.3566836,-0.18051812,-0.38335007,27.875,29.0625,28.1875,31.875,33.9375,34.8125
0.21405172,-2.0743973,-0.724461,-0.9586473,-0.022795111,0.048076164,-0.18312356,-0.38355717,-0.32647395,0.060051635,-3.0774672,0.61993253,-0.00018861966,-0.09977429,0.016937193,-0.002343375,0.019733697,-0.010649557,0.032891262,0.43646207,-1.4540486,1.989829,-2.1036317,-1.5723222,2.4084444,-0.10967379,0.16545707,-0.18787673,0.04020876,-0.013899329,-0.14240238,-0.4213795,0.28730422,-9.615114,0.8605109,47.705692,-1.1308284,-1.876615,-3.4839644,-0.35838002,-0.20377642,-0.32674733,27.875,29.0625,28.1875,31.875,33.9375,34.8125
0.21605211,-1.9022344,-1.0940051,-0.93233913,-0.020753,0.07022017,-0.17661315,-0.38373944,-0.3264458,0.060030438,-3.0774457,0.6198466,-0.00023807815,-0.1003381,0.016250847,-0.0013562253,0.01931513,-0.00772604,0.04270806,0.43625858,-1.4537135,1.9894937,-2.103584,-1.5723351,2.4081903,-0.108234994,0.16468799,-0.18915278,0.039410997,-0.014782986,-0.15077642,-0.5363012,0.3256114,-9.691729,0.8806493,47.685097,-1.1551347,-1.8356923,-3.5875442,-0.36513162,-0.21078092,-0.22588623,27.875,29.0625,28.1875,31.875,33.9375,34.8125
0.21805233,-2.5282626,-1.2397301,-0.69735813,-0.038859207,0.089567594,-0.17699493,-0.38393977,-0.32640854,0.060024347,-3.0774174,0.619744,-0.0002798948,-0.10147734,0.016815532,-0.0021165938,0.019157458,-0.008378873,0.042698175,0.4360298,-1.4533769,1.9891113,-2.1034887,-1.572359,2.4079013,-0.110480145,0.16709124,-0.18987364,0.03824149,-0.014383004,-0.1530112,-0.6703765,0.22984336,-9.500193,0.85155696,47.690468,-1.0893766,-1.9708397,-3.5654352,-0.34414604,-0.21533194,-0.15045232,27.875,29.0625,28.1875,31.875,33.9375,34.8125
0.22005256,-2.4911945,-1.4568064,-0.6202599,-0.03340942,0.105191655,-0.17382957,-0.38415158,-0.3264023,0.060048893,-3.0774574,0.6195613,-0.00021274577,-0.103939064,0.017176585,-0.0018373702,0.01863747,-0.00642945,0.041420665,0.43584895,-1.453065,1.9886917,-2.1034176,-1.5723828,2.4076016,-0.112993166,0.16941445,-0.19284381,0.03689474,-0.014743164,-0.15424387,-0.80445176,0.05746084,-9.557653,0.87393653,47.672558,-1.0418897,-1.8613834,-3.4995618,-0.33281657,-0.24987236,-0.11766945,27.875,29.0625,28.1875,31.875,33.9375,34.8125
0.22205251,-1.9523972,-0.53323036,-0.4727595,-0.019455716,0.115449,-0.1913209,-0.38438368,-0.32636064,0.060037013,-3.0774426,0.61950326,-0.0002080775,-0.10594335,0.017131671,-0.00072843174,0.01741671,-0.003491236,0.036041122,0.43558452,-1.4526935,1.9882969,-2.1033819,-1.5724066,2.407303,-0.11448035,0.16972189,-0.19562769,0.036192697,-0.014883283,-0.15034923,-0.7661445,0.095768064,-9.557653,0.84484416,47.690468,-1.0349597,-1.7902324,-3.5889826,-0.31306893,-0.26106414,-0.14542906,27.875,29.0625,28.1875,31.875,33.9375,34.8125
0.22405264,-1.7839295,0.106696345,-0.3303371,-0.0015898616,0.10787721,-0.18697965,-0.38460907,-0.32633469,0.060048588,-3.0774586,0.6194337,-0.00014118668,-0.10826124,0.017449886,-1.018612e-05,0.016767623,-0.0006153867,0.028663479,0.435356,-1.4523693,1.9879011,-2.103346,-1.5724314,2.4070294,-0.11659821,0.17082414,-0.1982434,0.034830127,-0.015505406,-0.14508623,-0.842759,-0.019153614,-9.5385,0.842603,47.693153,-0.88193953,-1.8912525,-3.5275178,-0.28217375,-0.26662976,-0.2001395,27.875,29.0625,28.1875,31.875,33.9375,34.8125
0.22605225,-1.5952096,0.37716192,-0.30815706,0.02097313,0.09257311,-0.18583259,-0.38479802,-0.32630262,0.060056526,-3.0774736,0.6192474,-0.00015966316,-0.110575765,0.017183129,0.0006633863,0.015457439,0.002178755,0.022276333,0.43513948,-1.4520816,1.9875406,-2.1032512,-1.5724434,2.406695,-0.11804849,0.17260326,-0.2014375,0.033163555,-0.015503142,-0.14014661,-0.8236054,-0.076614454,-9.423578,0.80456203,47.666286,-0.9088237,-1.6557832,-3.4829001,-0.265493,-0.27984467,-0.2591531,27.875,29.0625,28.1875,31.875,33.9375,34.8125
0.22805214,-1.461214,0.8137624,-0.43829328,0.035171095,0.08005882,-0.1780146,-0.38503894,-0.32625824,0.060044345,-3.0774407,0.61928225,-0.00015376938,-0.11300663,0.017062645,0.0024106158,0.013624022,0.0070119933,0.016741771,0.43486285,-1.4516985,1.9871334,-2.1032155,-1.5724672,2.4064445,-0.119593084,0.17182423,-0.20428808,0.031639066,-0.015882889,-0.1361536,-0.80445176,-0.095768064,-9.346964,0.9254084,47.657326,-0.8320383,-1.5679927,-3.3646147,-0.21794656,-0.288132,-0.34383717,27.875,29.0625,28.1875,31.875,33.9375,34.8125
0.23005217,-0.82093155,0.8343149,-0.48131227,0.0412586,0.08541263,-0.19217524,-0.38528246,-0.32622394,0.060055643,-3.0773983,0.61921644,-8.2554805e-05,-0.11423832,0.016797822,0.0025907743,0.013751483,0.008259944,0.013504678,0.43463498,-1.4513268,1.9866742,-2.1031325,-1.5725392,2.4061813,-0.119657435,0.17366245,-0.20669246,0.031122448,-0.016524697,-0.13297737,-0.7278373,-0.11492168,-9.404425,0.87617236,47.686886,-0.8412177,-1.6108456,-3.3138103,-0.19748287,-0.28952667,-0.4207011,27.875,29.0625,28.1875,31.875,33.9375,34.8125
0.23205225,-1.4701751,0.13534239,-0.542513,0.041071184,0.072457954,-0.18015082,-0.3854982,-0.32617635,0.06005932,-3.0773568,0.6191519,-8.353656e-06,-0.114800304,0.016817862,0.00249272,0.014291214,0.007719708,0.01136027,0.43440673,-1.4510146,1.9863065,-2.1030838,-1.5726112,2.4059184,-0.119930305,0.17525214,-0.20850308,0.032052293,-0.016784526,-0.13110426,-0.61291564,-0.13407528,-9.385271,0.92093146,47.698532,-0.9239707,-1.5270602,-3.2576919,-0.16094026,-0.3151224,-0.48758218,27.875,29.0625,28.1875,31.875,33.9375,34.8125
0.23405229,-0.8804161,0.3523314,-0.34540257,0.013269114,0.09425258,-0.19469532,-0.385733,-0.32614592,0.060078938,-3.077376,0.61915356,-3.1191445e-05,-0.11608445,0.016759241,0.0030902429,0.015197723,0.009101653,0.013397761,0.43413082,-1.4506792,1.9858626,-2.1029756,-1.5725883,2.4056413,-0.119902864,0.17660701,-0.21164475,0.03296627,-0.018195657,-0.13310847,-0.63206923,-0.1340753,-9.385271,0.8627467,47.693153,-0.9107648,-1.5651112,-3.3215737,-0.14962782,-0.30261588,-0.5194379,27.875,29.0625,28.1875,31.875,33.9375,34.8125
0.2360524,-1.9385599,-0.21902408,-0.6622845,0.018228317,0.071289234,-0.17938466,-0.38600534,-0.32613698,0.060079902,-3.077418,0.61915916,5.4478754e-05,-0.11790547,0.017715784,0.002071374,0.015978834,0.0069505507,0.018492037,0.43387747,-1.4502581,1.9853958,-2.1029994,-1.5725878,2.4053864,-0.12328484,0.1810394,-0.21448144,0.033628486,-0.018007262,-0.14158459,-0.4405331,-0.1340753,-9.423578,0.9612189,47.668976,-0.8999985,-1.6500838,-3.2879376,-0.13057552,-0.3201284,-0.51424557,27.875,29.0625,28.1875,31.875,33.9375,34.8125
0.23805255,-1.0882368,-0.35574934,-0.8835473,0.014139871,0.068773955,-0.17880414,-0.38619506,-0.32608423,0.060073674,-3.0773277,0.61896074,6.5881744e-05,-0.11728662,0.016709812,0.0016858301,0.017455967,0.005048349,0.029484196,0.4336867,-1.4499339,1.985021,-2.1028793,-1.5726961,2.4050837,-0.12043702,0.18345094,-0.21686387,0.035912156,-0.018570485,-0.14972505,-0.2681506,0.05746084,-9.442732,0.88960326,47.696735,-1.064311,-1.6484035,-3.1102214,-0.10893604,-0.32990873,-0.4502286,27.875,29.0625,28.1875,31.875,33.9375,34.8125
0.24005224,-0.68898344,-0.6656541,-0.759927,0.0030949416,0.052637026,-0.18976289,-0.38642728,-0.3260217,0.06006623,-3.0772803,0.618831,6.9270296e-05,-0.11826199,0.01882709,0.0014879316,0.019481974,0.004077823,0.03808047,0.43340948,-1.4495746,1.9846176,-2.102795,-1.5727566,2.4047318,-0.12415581,0.18361475,-0.21704143,0.037621677,-0.020024125,-0.16203547,-0.19153613,0.095768064,-9.461885,0.8537928,47.653748,-0.8499062,-1.8136669,-3.2125516,-0.11568146,-0.3180076,-0.31991875,27.875,29.0625,28.1875,31.875,33.9375,34.8125
0.24205221,-0.52096206,-0.75719124,-0.5879105,-0.023626659,0.030210378,-0.18573672,-0.3866693,-0.32599452,0.060064282,-3.0772827,0.6187307,6.16308e-05,-0.11767248,0.01894284,-0.00019670038,0.021586265,0.00052115496,0.04644524,0.4331576,-1.4491781,1.9841627,-2.102723,-1.572769,2.4044173,-0.12348147,0.18714014,-0.21740031,0.038544334,-0.020455362,-0.16972396,-0.17238252,0.2681506,-9.442732,0.92093146,47.65643,-0.94672906,-1.8050827,-3.3528428,-0.09786311,-0.31142536,-0.2201978,27.875,29.0625,28.1875,31.875,33.9375,34.8125
0.24405219,-0.8939951,-1.6847796,-0.61822957,-0.025204709,0.013765553,-0.17564741,-0.38692963,-0.32593518,0.06008066,-3.077262,0.6186098,0.00015343464,-0.11751147,0.019385174,-0.0005679828,0.022337712,-0.0018277423,0.048349436,0.4328696,-1.4488301,1.9837197,-2.1026495,-1.5728406,2.4040568,-0.12426437,0.18810889,-0.21820773,0.040805496,-0.020151729,-0.17241254,-0.24899697,0.30645782,-9.461885,0.83813137,47.666286,-1.0039243,-1.7538466,-3.4489827,-0.104514286,-0.3184773,-0.17782345,27.875,29.0625,28.1875,31.875,33.9375,34.8125
0.24605246,-0.015380357,-1.0391463,-0.7315493,-0.041731056,0.0155097535,-0.18236959,-0.3871611,-0.32589787,0.06007983,-3.0772328,0.6185137,0.00011295103,-0.11900006,0.020772235,-0.002112568,0.023774737,-0.004020025,0.039926995,0.43261635,-1.4484456,1.9832648,-2.1025307,-1.5728649,2.4037476,-0.12777455,0.19233097,-0.2193484,0.04032066,-0.020544086,-0.16749683,-0.11492168,0.28730422,-9.461885,0.88960326,47.694054,-0.95699036,-1.7432601,-3.5210738,-0.10216969,-0.3094653,-0.1762356,27.875,29.0625,28.1875,31.875,33.9375,34.8125
0.24805216,0.062268857,-1.1037776,-0.5406699,-0.0501902,0.016770173,-0.18095286,-0.38740435,-0.32586113,0.060079955,-3.0772154,0.618357,0.0001653116,-0.11835627,0.019082088,-0.002139452,0.023604743,-0.0035577763,0.037277944,0.4323776,-1.4480618,1.9828218,-2.1024706,-1.5729245,2.4034135,-0.12396558,0.19348669,-0.22054787,0.03987434,-0.02058006,-0.16103786,-0.05746084,0.40222588,-9.500193,0.8627467,47.70032,-0.99988544,-1.7347698,-3.625219,-0.05871641,-0.3089846,-0.23656064,27.875,29.0625,28.1875,31.875,33.9375,34.8125
0.25005212,-0.38566014,-1.7205437,-0.52707744,-0.049697615,0.0025866814,-0.17404392,-0.38767025,-0.32583523,0.06011127,-3.0772462,0.618233,0.00027079412,-0.12047116,0.020189274,-0.00094245374,0.022845535,-0.0024162333,0.029314859,0.4321241,-1.4477025,1.9823316,-2.1023982,-1.5729607,2.403079,-0.12788753,0.19319972,-0.22345062,0.041707676,-0.020358436,-0.15699762,-0.019153614,0.40222588,-9.289503,0.8806493,47.70032,-0.85733724,-1.7296252,-3.645288,-0.056446284,-0.3256208,-0.31767306,27.875,29.0625,28.1875,31.875,33.9375,34.8125
0.2520522,-0.48382822,-1.2503612,-0.58148897,-0.043481268,-0.005201928,-0.1797464,-0.38791198,-0.32578206,0.060078964,-3.0771859,0.618162,0.00023714562,-0.12133833,0.019293362,-0.00047174192,0.022186283,-0.0020940953,0.029586745,0.43184862,-1.4472706,1.9819115,-2.10235,-1.5730084,2.4027672,-0.12717104,0.19503227,-0.22689416,0.042736854,-0.019911492,-0.15655144,0.038307227,0.38307226,-9.346964,0.90527004,47.682407,-1.0052536,-1.7411656,-3.4530528,-0.052415058,-0.32991296,-0.35229442,27.875,29.0625,28.1875,31.875,33.9375,34.8125
0.25405222,0.29903162,-0.86255616,-0.5387584,-0.029522492,0.00030321596,-0.18102054,-0.38813305,-0.32574445,0.06008092,-3.0771534,0.618021,0.00023404266,-0.12223818,0.019616216,-0.00083118794,0.022747789,-0.0031715103,0.028079735,0.4316203,-1.4469106,1.9814795,-2.1022418,-1.5730566,2.4024553,-0.1284117,0.19736005,-0.2289556,0.04367311,-0.019980846,-0.15628304,0.11492168,0.4405331,-9.404425,0.90527004,47.695843,-1.0310543,-1.8050272,-3.503046,-0.04849384,-0.34067437,-0.375085,27.875,29.0625,28.1875,31.875,33.9375,34.8125
0.25605178,0.24209203,-0.8098627,-0.4270018,-0.023536066,0.0013660146,-0.1831469,-0.38839242,-0.32568976,0.06008115,-3.0771105,0.6180113,0.00023240625,-0.12361437,0.01978051,-0.0008782203,0.022618493,-0.0037030054,0.028625783,0.43131968,-1.4465145,1.9810137,-2.102146,-1.5730928,2.4021544,-0.13000688,0.19981924,-0.23187445,0.04454358,-0.019656843,-0.15842317,0.21068975,0.36391866,-9.346964,0.8247004,47.679718,-0.9600661,-1.7030079,-3.4590614,-0.029042913,-0.33966047,-0.39901054,27.875,29.0625,28.1875,31.875,33.9375,34.8125
0.25805217,-0.05255652,-0.71682066,-0.17008367,-0.030458145,-0.006760667,-0.18083945,-0.3886471,-0.32566583,0.060079653,-3.0771177,0.6178354,0.0002635887,-0.12500226,0.019468857,-0.0001809598,0.022035269,-0.0029473419,0.034207113,0.43107963,-1.446095,1.9805335,-2.1020858,-1.5731281,2.401804,-0.13065015,0.20123416,-0.2353983,0.045695536,-0.019461023,-0.16464673,0.15322891,0.30645782,-9.232041,0.900793,47.701214,-1.0063554,-1.80354,-3.487084,-0.02386237,-0.36868203,-0.36462122,27.875,29.0625,28.1875,31.875,33.9375,34.8125
0.26005206,0.039622556,-0.8566222,-0.3778645,-0.02147084,0.009506861,-0.18295869,-0.38888708,-0.32564056,0.060072172,-3.0771234,0.6177372,0.00023147633,-0.12691762,0.019815112,0.0007404151,0.022172933,-0.0015178999,0.041520756,0.4308269,-1.4456875,1.9800776,-2.1020133,-1.5731286,2.4014895,-0.13233869,0.20231616,-0.23910664,0.047055397,-0.020210115,-0.17364441,0.019153614,0.21068975,-9.078813,0.842603,47.701214,-0.9692732,-1.659296,-3.1574972,-0.016975593,-0.3637613,-0.2746042,27.875,29.0625,28.1875,31.875,33.9375,34.8125
0.26205227,0.28380692,-0.26513985,-0.41160274,0.00054231967,0.022426123,-0.1844815,-0.38912487,-0.32560822,0.06007903,-3.0771058,0.61753595,0.00020226622,-0.12793238,0.019606194,0.0016606936,0.021312328,-0.0007021429,0.049546495,0.43058684,-1.4452921,1.979586,-2.1018693,-1.5731648,2.4011264,-0.13299634,0.20249294,-0.24180208,0.048438545,-0.019797137,-0.18232723,0.019153614,0.24899697,-9.289503,0.8560339,47.70032,-0.970806,-1.6667981,-3.116559,-0.0128929075,-0.38439688,-0.14055033,27.875,29.0625,28.1875,31.875,33.9375,34.8125
0.26405233,-0.42164722,-0.07307226,-0.64651257,0.014140788,0.022692896,-0.18094194,-0.38939273,-0.325568,0.06009509,-3.0770833,0.61743397,0.00026822757,-0.12762861,0.020589616,0.0012947036,0.022872364,-0.0031607056,0.052206542,0.43032238,-1.4448967,1.9790839,-2.1017725,-1.5732249,2.4008014,-0.13418779,0.20280035,-0.24200904,0.051198624,-0.020190842,-0.18617837,-0.05746084,0.30645782,-9.3661175,0.84708,47.701214,-0.9327824,-1.6247213,-3.2577996,-0.048216652,-0.402372,-0.07548097,27.875,29.0625,28.1875,31.875,33.9375,34.8125
0.26605168,-0.7897234,-0.3150161,-0.3782244,0.0026157626,0.05361525,-0.18714297,-0.3895992,-0.32551205,0.060040504,-3.0770211,0.6172517,2.3985926e-05,-0.12852234,0.021248786,0.0017407846,0.024206003,-0.0039588553,0.04746883,0.43003386,-1.4444411,1.9786648,-2.101627,-1.573213,2.4004073,-0.1354751,0.20378558,-0.24496211,0.054457128,-0.021100096,-0.18272045,-0.3256114,0.30645782,-9.346964,0.91198283,47.689575,-0.8574765,-1.5349712,-3.2657166,-0.055137627,-0.3999769,-0.08169924,27.875,29.0625,28.1875,31.875,33.9375,34.8125
0.26805162,-1.4735323,-0.25400856,-0.10994233,-0.011849565,0.062129423,-0.17270525,-0.3898844,-0.32547504,0.060076393,-3.0770345,0.61710507,0.00017930273,-0.1281338,0.023145547,0.0006793693,0.027137766,-0.008264665,0.03889057,0.42976913,-1.44407,1.9781498,-2.1015546,-1.5732855,2.4000497,-0.13798419,0.20494463,-0.2447563,0.058229234,-0.021941539,-0.17665096,-0.47884035,0.0,-9.32781,0.84708,47.717335,-0.7851305,-1.4888227,-3.3481536,-0.08906707,-0.37809616,-0.11991503,27.875,29.0625,28.1875,31.875,33.9375,34.8125
0.27005163,-1.5457313,-0.24777527,-0.12054795,0.0046427837,0.080351144,-0.17645258,-0.39011577,-0.32545075,0.060079046,-3.0770311,0.61695254,7.205388e-05,-0.12688343,0.022439362,0.00039542755,0.028419938,-0.010160563,0.03411073,0.4295184,-1.4436622,1.9776477,-2.1013863,-1.5732735,2.3997045,-0.13526028,0.20560104,-0.24544391,0.060536724,-0.022317428,-0.16914453,-0.5554548,-0.076614454,-9.270349,0.85826975,47.694946,-1.0620533,-1.4605358,-3.355238,-0.13016212,-0.39684442,-0.20875779,27.875,29.0625,28.1875,31.875,33.9375,34.8125
0.27205253,-1.3988883,0.43787932,-0.14518763,0.0248166,0.083849356,-0.17771138,-0.39038715,-0.3253963,0.060075253,-3.0769813,0.61688864,6.446359e-05,-0.12659128,0.023600025,-0.0024835076,0.03183173,-0.016667863,0.026391406,0.42921758,-1.4432286,1.9771451,-2.101278,-1.5733217,2.3993704,-0.13678902,0.2115771,-0.24610549,0.06256316,-0.02270935,-0.16295107,-0.45968673,-0.21068975,-9.308656,0.8627467,47.716442,-0.9079242,-1.685495,-3.4869647,-0.15758404,-0.40454066,-0.3241012,27.875,29.0625,28.1875,31.875,33.9375,34.8125
0.2740526,-1.1126946,1.1072295,0.13597526,0.03297889,0.084206425,-0.1769424,-0.39062974,-0.32534403,0.060058452,-3.076914,0.616841,-3.836446e-05,-0.12811412,0.023272851,-0.002327384,0.031974297,-0.016501516,0.01916138,0.42892945,-1.4427965,1.9766654,-2.101134,-1.5733455,2.3990614,-0.13723464,0.21456069,-0.25011405,0.06350573,-0.022924663,-0.15616146,-0.47884035,-0.2681506,-9.308657,0.85826975,47.694946,-1.066962,-1.8335888,-3.4415793,-0.17991462,-0.4190566,-0.4347741,27.875,29.0625,28.1875,31.875,33.9375,34.8125
0.27605197,-1.1141762,1.2261546,0.06235478,0.058992356,0.061162665,-0.180896,-0.39090356,-0.32530144,0.060083423,-3.076896,0.616779,8.653029e-05,-0.12845267,0.02410912,-0.0030443792,0.033633467,-0.017791754,0.017313315,0.42866507,-1.4424247,1.9761742,-2.101062,-1.573418,2.398761,-0.13831773,0.21619359,-0.25052238,0.064132966,-0.023895415,-0.15539402,-0.5363012,-0.21068975,-9.2703495,0.8873621,47.688675,-1.0181913,-1.8819168,-3.3840284,-0.20155534,-0.42899835,-0.49379507,27.875,29.0625,28.1875,31.875,33.9375,34.8125
0.27805206,-0.8234319,1.5511101,-0.056091618,0.066790916,0.051778816,-0.18870522,-0.3911579,-0.32523423,0.060051598,-3.0767832,0.61669534,-3.0680007e-05,-0.13091533,0.025793096,-0.0029908633,0.03524052,-0.017070375,0.020036552,0.428364,-1.4419446,1.9756721,-2.1009057,-1.5734786,2.3984225,-0.14222161,0.21837434,-0.253326,0.06473816,-0.025705663,-0.16200997,-0.45968673,-0.22984336,-9.174581,0.842603,47.672558,-0.9369929,-1.8580933,-3.4946756,-0.23310396,-0.41115904,-0.49915072,27.875,29.0625,28.1875,31.875,33.9375,34.8125
0.280052,-1.0498941,1.0582293,-0.022669949,0.06470707,0.041112177,-0.18181312,-0.3913923,-0.3251994,0.060031217,-3.0767336,0.6165431,-0.00010503053,-0.1317036,0.025245117,-0.0025448045,0.036749743,-0.0155056,0.033771858,0.4281246,-1.4415014,1.9751934,-2.1007864,-1.5735158,2.3980947,-0.14040902,0.21992096,-0.25630885,0.06533789,-0.027780589,-0.17392145,-0.40222588,-0.076614454,-9.078813,0.8806493,47.67614,-1.0694557,-1.7661047,-3.4182148,-0.2521039,-0.40896297,-0.41544282,27.875,29.0625,28.1875,31.875,33.9375,34.8125
0.28205204,-0.7427272,0.43351933,-0.09088327,0.042730667,0.06275008,-0.18211009,-0.39164865,-0.32513577,0.060012583,-3.076611,0.61631876,-0.00017538908,-0.13337012,0.025612362,-0.0014829269,0.037352886,-0.013911608,0.045693323,0.4278603,-1.4410219,1.9746531,-2.1005938,-1.573624,2.3977063,-0.14155422,0.22048289,-0.25985706,0.06706295,-0.029055793,-0.18697837,-0.45968673,-0.019153614,-9.155427,0.82022345,47.684196,-0.9096541,-1.7984011,-3.4547844,-0.30683577,-0.3729894,-0.2895648,27.875,29.0625,28.1875,31.875,33.9375,34.8125
0.2840525,-0.9156035,0.07741389,-0.06927008,-0.0031821616,0.08573047,-0.1904541,-0.3918981,-0.325062,0.059984453,-3.076526,0.6162403,-0.000295646,-0.13568804,0.02538812,-0.00056536985,0.037363734,-0.009537972,0.053455,0.4275362,-1.4405781,1.9741858,-2.1004512,-1.5736607,2.3973444,-0.14174512,0.2217519,-0.26298732,0.06491509,-0.030941788,-0.19491798,-0.5554548,0.19153613,-9.289502,0.7911258,47.66808,-1.0015347,-1.7697386,-3.3923087,-0.29717195,-0.33909738,-0.1793541,27.875,29.0625,28.1875,31.875,33.9375,34.8125
0.28605175,-2.400855,-1.3726462,-0.18985486,-0.030923022,0.08928208,-0.17069621,-0.39218926,-0.32503107,0.06002959,-3.0765421,0.61609083,-0.00016738327,-0.13682124,0.025543284,-0.00085143436,0.038024254,-0.009419127,0.05224495,0.4272719,-1.4401938,1.9736227,-2.1003315,-1.5737213,2.396985,-0.14244252,0.22415905,-0.26508352,0.06475412,-0.03159067,-0.19440326,-0.7278373,0.22984336,-9.289502,0.9030289,47.658226,-1.072046,-1.7394814,-3.3900955,-0.31038642,-0.32945585,-0.14943033,27.875,29.0625,28.1875,31.875,33.9375,34.8125
0.28805256,-2.3050714,-1.8628017,0.036023892,-0.06567646,0.122209325,-0.18589905,-0.39246044,-0.32495034,0.060012393,-3.0764217,0.6159928,-0.00024501837,-0.13731709,0.025656475,-0.00046682692,0.038579583,-0.009688805,0.04512771,0.4269481,-1.4397266,1.9730953,-2.1001518,-1.5738052,2.3966157,-0.14267921,0.22478321,-0.26720992,0.06672946,-0.031998243,-0.18751676,-0.8236054,0.2681506,-9.3661175,0.8985519,47.703903,-1.1038955,-1.7262353,-3.3545651,-0.3580965,-0.31080765,-0.2005477,27.875,29.0625,28.1875,31.875,33.9375,34.8125
0.29005218,-2.298317,-1.8858345,-0.14876446,-0.07695883,0.12845248,-0.17837946,-0.39270464,-0.3248851,0.05996389,-3.0762737,0.61577356,-0.00040325764,-0.13951036,0.024987582,-0.00016345183,0.035646506,-0.0056951614,0.038043592,0.4266835,-1.4391991,1.9725693,-2.099962,-1.5739006,2.3962336,-0.14383389,0.22621708,-0.2685003,0.06172678,-0.031021468,-0.18158357,-0.7661445,0.28730422,-9.442732,0.83589023,47.657326,-1.1195328,-1.7632723,-3.42564,-0.34082794,-0.29023907,-0.29085237,27.875,29.0625,28.1875,31.875,33.9375,34.8125
0.2920522,-1.8580229,-1.869742,-0.20097037,-0.07564244,0.13453521,-0.1783723,-0.3929993,-0.32484052,0.05996168,-3.0762937,0.61570084,-0.00036482056,-0.1404439,0.024842894,-0.00035274943,0.034868956,-0.0035910637,0.035412733,0.42635968,-1.4387555,1.9720663,-2.0999267,-1.5739125,2.395862,-0.14410944,0.22708915,-0.26842353,0.05853739,-0.031186625,-0.17922767,-0.7086837,0.38307226,-9.576807,0.8717007,47.690468,-1.1263167,-1.6999345,-3.4262211,-0.3175754,-0.28764784,-0.35175082,27.875,29.0625,28.1875,31.875,33.9375,34.8125
0.2940524,-1.6061884,-1.475864,-0.2971121,-0.07051658,0.1226005,-0.187891,-0.39328432,-0.3247931,0.059959665,-3.0762403,0.6156135,-0.00035806437,-0.14261709,0.025022473,0.00015941905,0.034409493,0.0010148163,0.034282427,0.4260711,-1.4382882,1.9715174,-2.099809,-1.5739731,2.3955262,-0.14515385,0.22774677,-0.26954287,0.054601494,-0.03269465,-0.17913295,-0.51714754,0.4213795,-9.461885,0.94331104,47.701214,-1.0733275,-1.7057055,-3.5435524,-0.27012664,-0.26393583,-0.35607952,27.875,29.0625,28.1875,31.875,33.9375,34.8125
0.29605258,-1.2422508,-1.3379626,-0.48426968,-0.038405497,0.08267694,-0.18134376,-0.39359167,-0.3247413,0.05995645,-3.0761797,0.61542594,-0.0002501688,-0.14456272,0.024814943,2.4115037e-05,0.033314176,0.0039075473,0.03706327,0.42579505,-1.4377966,1.9709543,-2.099738,-1.5740932,2.3951411,-0.14613245,0.22990757,-0.27088013,0.05064856,-0.032917745,-0.18288986,-0.36391866,0.38307226,-9.481039,0.90750587,47.72092,-1.2008272,-1.713131,-3.6116552,-0.22174254,-0.23381099,-0.3945272,27.875,29.0625,28.1875,31.875,33.9375,34.8125
0.2980519,-0.48821756,-0.8000452,-0.44405183,-0.02676753,0.061430022,-0.19131266,-0.39391035,-0.32469016,0.059956487,-3.0761352,0.61525816,-0.00016393128,-0.14635968,0.024186445,0.0006284995,0.032446068,0.0073757,0.044387106,0.4254953,-1.4372929,1.9703673,-2.0996554,-1.5741895,2.3947427,-0.14590131,0.23129073,-0.2733768,0.04819461,-0.033591848,-0.18997802,-0.1340753,0.36391866,-9.423578,0.91421866,47.701214,-1.1460153,-1.7767217,-3.709569,-0.16397014,-0.2160776,-0.3295753,27.875,29.0625,28.1875,31.875,33.9375,34.8125
0.300052,0.2619229,-0.04910178,-0.5124389,-0.024710592,0.043738265,-0.18998437,-0.39420718,-0.32464024,0.059947304,-3.076141,0.61506426,-0.00017584075,-0.14970133,0.02546697,0.0011156568,0.0312768,0.00946479,0.050588857,0.4251688,-1.4368134,1.969828,-2.099572,-1.5742134,2.3942947,-0.15103376,0.23327613,-0.27655897,0.04694916,-0.033435985,-0.20131019,0.019153614,0.3256114,-9.423578,0.9321212,47.687782,-0.89310974,-1.7492125,-3.5356364,-0.121285856,-0.19077864,-0.2207967,27.875,29.0625,28.1875,31.875,33.9375,34.8125
0.30205208,-0.100643784,-0.43235108,-0.5904404,-0.004426959,0.0013843947,-0.18064047,-0.39449418,-0.3245831,0.0599427,-3.0760853,0.6149723,-0.00014605536,-0.15092565,0.025177054,0.0006944523,0.031560197,0.008708895,0.05705501,0.42486924,-1.4363567,1.9693011,-2.0994756,-1.5742854,2.3939452,-0.15140748,0.2368942,-0.27988744,0.04741558,-0.03341422,-0.20814742,0.0,0.2681506,-9.404425,0.83589023,47.685097,-1.0063819,-1.9433227,-3.4717054,-0.10126519,-0.16872142,-0.09573889,27.875,29.0625,28.1875,31.875,33.9375,34.8125
0.30405217,0.44677255,-0.09702753,-0.65307283,-0.0107424855,0.0039077504,-0.18013823,-0.39484766,-0.32453814,0.05995046,-3.0760822,0.61482036,1.8209957e-06,-0.1517472,0.025997221,-0.00041939746,0.032496538,0.0060466975,0.05345974,0.4245444,-1.4358288,1.9686788,-2.0994399,-1.5743693,2.3935263,-0.15361588,0.24025027,-0.28147954,0.048439782,-0.033157624,-0.20676272,0.019153614,0.22984336,-9.423578,0.8537928,47.67166,-0.8412577,-1.9903159,-3.494202,-0.06128846,-0.15949808,-0.084687755,27.875,29.0625,28.1875,31.875,33.9375,34.8125
0.3060518,0.8099454,-0.26389453,-0.675211,-0.016189078,0.014541825,-0.19127454,-0.39511305,-0.32448632,0.059937883,-3.0760162,0.6145217,-4.8011258e-05,-0.15239863,0.025544772,-0.00035611948,0.032485146,0.0051202374,0.046804935,0.4242808,-1.4353484,1.9681267,-2.0992715,-1.5744528,2.393085,-0.15345776,0.24243547,-0.28460738,0.050221547,-0.032771334,-0.19994694,0.095768064,0.22984336,-9.5385,0.8179876,47.686886,-0.9980074,-2.0424123,-3.4891815,-0.03934191,-0.13931997,-0.1286284,27.875,29.0625,28.1875,31.875,33.9375,34.8125
0.3080518,0.5447293,-0.63040066,-0.94306916,-0.03446818,0.0051865005,-0.18324618,-0.3954211,-0.32440555,0.05992158,-3.0759125,0.61452365,-7.956358e-05,-0.15196565,0.025133057,-0.0005182751,0.032770563,0.0030498712,0.038885877,0.42392117,-1.4348451,1.967565,-2.099139,-1.5745252,2.3927402,-0.15257706,0.2436145,-0.28624475,0.052691277,-0.032170266,-0.19114712,0.15322891,0.21068975,-9.672575,0.86498255,47.695843,-0.99665666,-2.1520143,-3.41371,-0.051227205,-0.10979466,-0.24505782,27.875,29.0625,28.1875,31.875,33.9375,34.8125
0.3100519,0.17169623,-1.728151,-0.48508322,-0.050976746,0.015382319,-0.18507719,-0.39571586,-0.32438526,0.05991278,-3.0759099,0.6144902,-7.3767726e-05,-0.15271732,0.025551122,-0.0005122618,0.03275867,0.0018907891,0.029258955,0.4236443,-1.4343418,1.9670018,-2.099078,-1.5745367,2.3924432,-0.15416847,0.24490128,-0.28823468,0.054465536,-0.03166317,-0.1831131,0.095768064,0.2681506,-9.691729,0.90527004,47.711964,-0.87776566,-2.080691,-3.446134,-0.04033556,-0.10523003,-0.34004796,27.875,29.0625,28.1875,31.875,33.9375,34.8125
0.31205183,-0.19820361,-1.3484931,-0.62433213,-0.05556781,0.008218748,-0.18077448,-0.3960341,-0.3243284,0.059923653,-3.0758574,0.6142698,5.0311046e-06,-0.15292998,0.02594762,-0.00088150136,0.033918448,-0.0006737411,0.023847075,0.42334425,-1.4338499,1.9663905,-2.0989454,-1.5746449,2.3920126,-0.154933,0.24689053,-0.29043457,0.057480834,-0.031657238,-0.17846483,0.05746084,0.15322891,-9.461885,0.9030289,47.7254,-1.021317,-2.0763347,-3.391378,-0.037199624,-0.10466628,-0.4535793,27.875,29.0625,28.1875,31.875,33.9375,34.8125
0.3140518,0.19983436,-0.52877295,-0.8722508,-0.029743727,0.0083375415,-0.189975,-0.3963194,-0.3242756,0.05991144,-3.075777,0.61431146,-5.9750262e-05,-0.15422887,0.025660707,-0.00029272784,0.03175221,0.00056514045,0.022913093,0.42303172,-1.4333586,1.9658297,-2.0988023,-1.5746802,2.3917367,-0.15629096,0.24741444,-0.29234782,0.056828495,-0.030215159,-0.178892,0.038307227,0.21068975,-9.595961,0.9164598,47.72808,-0.96687424,-2.0781155,-3.4855099,-0.029274339,-0.09066589,-0.5061429,27.875,29.0625,28.1875,31.875,33.9375,34.8125
0.31605205,0.07860035,-0.23592135,-0.8947267,-0.027563129,0.005240922,-0.19864987,-0.39664137,-0.32422656,0.059897125,-3.0757558,0.61412627,1.7064957e-06,-0.15470184,0.0257611,-0.00026761912,0.03014322,-0.00027520175,0.032034762,0.42271942,-1.4328307,1.9652537,-2.0987542,-1.5747517,2.391312,-0.15787786,0.24781191,-0.29306483,0.057181463,-0.028439607,-0.18960859,0.095768064,0.21068975,-9.672575,0.9365982,47.713753,-0.9738512,-2.135561,-3.5284662,-0.008633579,-0.07810194,-0.46242458,27.875,29.0625,28.1875,31.875,33.9375,34.8125
0.3180521,-0.1678347,0.013311595,-0.55866325,-0.037010223,0.019369937,-0.20426221,-0.39695588,-0.32419518,0.05992063,-3.0757916,0.613973,3.8234793e-05,-0.1550703,0.02580599,4.291056e-05,0.028967869,-0.00070537935,0.045257457,0.4224069,-1.4323643,1.9646443,-2.0986345,-1.5747632,2.3908994,-0.15890077,0.24773315,-0.29398873,0.05802013,-0.027232893,-0.20386034,0.0,0.076614454,-9.5385,0.9254084,47.70838,-0.9067361,-2.0373726,-3.5920062,0.022278875,-0.10045643,-0.32751894,27.875,29.0625,28.1875,31.875,33.9375,34.8125
0.3200521,-0.36129004,0.09463305,-0.63179106,-0.017550217,0.02656046,-0.19927491,-0.39727396,-0.324131,0.05990336,-3.0757234,0.6138394,2.1042179e-05,-0.15588488,0.025636485,0.0009928377,0.027613465,-0.0017883638,0.05348939,0.42207068,-1.4318249,1.9640449,-2.098513,-1.5748347,2.3904889,-0.16017747,0.24815081,-0.29756534,0.061542623,-0.025598744,-0.21337399,-0.095768064,0.076614454,-9.5385,0.8717007,47.672558,-0.8528303,-1.8749561,-3.6078427,0.008237487,-0.123780146,-0.2156787,27.875,29.0625,28.1875,31.875,33.9375,34.75
0.3220525,-0.63910717,-0.2855516,-0.86277694,0.014455281,0.0335475,-0.192874,-0.39756382,-0.32408035,0.059885938,-3.0756743,0.6135784,-9.737021e-06,-0.1562008,0.024745278,0.0012120102,0.026534025,-0.0013542391,0.056033134,0.42178312,-1.4313092,1.9634703,-2.0983818,-1.5749062,2.390045,-0.15916917,0.24910079,-0.29923394,0.06139169,-0.024819465,-0.21491049,-0.15322891,0.038307227,-9.710882,0.85826975,47.67793,-0.89344597,-1.9881222,-3.5253265,0.031581998,-0.109627366,-0.1790332,27.875,29.0625,28.1875,31.875,33.9375,34.75
0.32405257,-0.78253967,0.1465884,-0.49973553,0.0008793329,0.057886757,-0.19183297,-0.39787927,-0.32405058,0.059901223,-3.0757122,0.6134371,-2.671477e-05,-0.15643871,0.024944631,0.00045769097,0.027143829,-0.0047038137,0.04850677,0.42145836,-1.430818,1.9628476,-2.0982487,-1.5748943,2.3896275,-0.16011733,0.25205815,-0.30159974,0.0641265,-0.023988457,-0.20833509,-0.28730422,0.019153614,-9.672575,0.9254084,47.679718,-0.8527772,-1.9012427,-3.5795178,0.029288663,-0.1355259,-0.22769135,27.875,29.0625,28.1875,31.875,33.9375,34.75
0.32605237,-1.3520954,-0.018649556,-0.33542052,0.0038974872,0.06077514,-0.1887377,-0.39819726,-0.32401162,0.05989958,-3.0756917,0.61332196,-3.0831867e-05,-0.1565086,0.02622322,3.121476e-05,0.028244892,-0.008194752,0.038127556,0.42114583,-1.4302903,1.9622253,-2.0981286,-1.5749296,2.389246,-0.16265614,0.25301293,-0.30269057,0.06791677,-0.023545573,-0.2004964,-0.34476504,-0.05746084,-9.615114,0.8851263,47.68599,-0.8731768,-1.9588306,-3.5758123,-0.0028778662,-0.13353686,-0.28341654,27.875,29.0625,28.1875,31.875,33.9375,34.75
0.3280517,-0.86553705,1.1719947,-0.31845948,0.0068254652,0.058379207,-0.20326254,-0.39853063,-0.3239712,0.059922043,-3.0756965,0.61315125,6.3314226e-05,-0.15637955,0.02542728,0.00014452526,0.029181378,-0.0103780655,0.03647484,0.42083475,-1.4297985,1.9615906,-2.0980194,-1.5749902,2.388828,-0.16095835,0.25522584,-0.3064705,0.0718549,-0.023496369,-0.19714567,-0.40222588,0.0,-9.615114,0.9164598,47.70032,-1.103589,-1.9402647,-3.583429,-0.041951388,-0.15784697,-0.3689738,27.875,29.0625,28.1875,31.875,33.9375,34.75
0.33005196,-0.75387096,0.25434738,-0.45215446,0.038465668,0.0595329,-0.19304433,-0.39882633,-0.3239133,0.05990524,-3.075609,0.6130557,-1.0900248e-05,-0.15601504,0.025793782,-0.00068549387,0.03081513,-0.014322297,0.037079524,0.42052236,-1.4292707,1.9609913,-2.09785,-1.5750498,2.3884676,-0.1612441,0.2576539,-0.30827343,0.07547445,-0.023401959,-0.19803408,-0.5554548,-0.038307227,-9.653421,0.90750587,47.70838,-1.1190404,-1.9531295,-3.5402107,-0.06360079,-0.15130667,-0.42266273,27.875,29.0625,28.1875,31.875,33.9375,34.75
0.3320519,-0.59003305,0.19778998,-0.32432434,0.017491605,0.069556765,-0.20338216,-0.39914662,-0.32386225,0.059887458,-3.0755725,0.61287075,-7.938271e-05,-0.15493947,0.0255651,-0.002070918,0.033100016,-0.019448563,0.043944698,0.42018697,-1.4287058,1.9603571,-2.0977051,-1.5750855,2.3880217,-0.15975623,0.26119757,-0.31014973,0.079381086,-0.023433113,-0.2034092,-0.4213795,0.0,-9.442732,0.90527004,47.686886,-1.1723609,-2.0850236,-3.6109838,-0.113397256,-0.17081311,-0.39249057,27.875,29.0625,28.1875,31.875,33.9375,34.75
0.33405206,-0.9874697,0.020374194,-0.26582423,0.0072936215,0.05309668,-0.19702733,-0.3994562,-0.3238011,0.05990923,-3.0755236,0.6126635,-5.1895375e-05,-0.15658672,0.026571829,-0.0005999994,0.033763453,-0.018523617,0.0528734,0.41987395,-1.4282392,1.9597334,-2.0975125,-1.5751699,2.3875859,-0.16213387,0.2606568,-0.31381455,0.08294055,-0.024469834,-0.21470922,-0.22984336,-0.076614454,-9.461885,0.9410752,47.707485,-1.0253673,-2.1521358,-3.5438833,-0.17237872,-0.16779843,-0.2871749,27.875,29.0625,28.1875,31.875,33.9375,34.75
0.33605203,-0.8493637,-0.10653462,0.0060968357,-0.007427037,0.050259095,-0.20344998,-0.39981076,-0.3237376,0.05993798,-3.0755339,0.6125266,3.9683055e-06,-0.15757376,0.028217193,-0.0008428022,0.035560064,-0.02088317,0.06052951,0.41948882,-1.427748,1.9590758,-2.0973675,-1.5752066,2.3871143,-0.16531463,0.26223496,-0.31593016,0.08630071,-0.025189145,-0.22554299,-0.4213795,0.019153614,-9.289502,0.8806493,47.687782,-0.9742744,-2.0648344,-3.459578,-0.23572302,-0.14092359,-0.17018193,27.875,29.0625,28.1875,31.875,33.9375,34.75
0.33805233,-1.1400646,-0.3765294,0.107445315,-0.010043987,0.044201415,-0.18945608,-0.40010858,-0.3236959,0.059929166,-3.0754664,0.61231786,-4.3009135e-05,-0.1574492,0.027633725,-0.00069413387,0.03580384,-0.021575132,0.06356615,0.4192137,-1.4272081,1.9584411,-2.0971878,-1.5752786,2.3867178,-0.16401333,0.2631149,-0.31778055,0.087971605,-0.025164505,-0.227276,-0.45968673,0.019153614,-9.251195,0.9186956,47.692257,-1.1172869,-1.892744,-3.4973183,-0.2784237,-0.15442584,-0.12966962,27.875,29.0625,28.1875,31.875,33.9375,34.75
0.34005246,-0.6967811,0.049991027,-0.08665621,-0.004561574,0.04643908,-0.19961338,-0.40043065,-0.32364035,0.059921067,-3.0754204,0.6121391,-9.611936e-05,-0.15864362,0.026911978,0.001134547,0.034082778,-0.018055638,0.057058938,0.41887802,-1.426658,1.9577955,-2.09702,-1.5753268,2.3862767,-0.16359222,0.26165622,-0.32050437,0.088252455,-0.025033206,-0.22034568,-0.30645782,0.17238252,-9.251195,0.8873621,47.684196,-1.2890015,-1.8545867,-3.565248,-0.3056989,-0.16883129,-0.14520174,27.875,29.0625,28.1875,31.875,33.9375,34.75
0.34205258,-0.7345302,-0.38840207,0.046274837,-0.012564993,0.041688114,-0.1864026,-0.40072206,-0.32358834,0.05990685,-3.075375,0.61190426,-0.00020476858,-0.15930986,0.027062105,0.0010086555,0.03365364,-0.016719013,0.047013205,0.4185663,-1.4261311,1.9571847,-2.0968292,-1.5753626,2.3858244,-0.16416262,0.26206973,-0.3203866,0.08635619,-0.025188122,-0.21086672,-0.22984336,0.095768064,-9.251195,0.8873621,47.634937,-1.301298,-1.6474174,-3.5531096,-0.3269986,-0.15833473,-0.23289734,27.875,29.0625,28.1875,31.875,33.9375,34.75
0.34405163,-0.5203294,-0.09201151,0.18635087,-0.03404141,0.048701867,-0.20103279,-0.40105176,-0.32352263,0.059900206,-3.0753179,0.6118209,-0.00024118727,-0.16211,0.027111605,0.0013705035,0.032040086,-0.012580686,0.036596622,0.4182063,-1.4255913,1.95655,-2.0966752,-1.5754107,2.38542,-0.16623893,0.26400527,-0.32262564,0.08224513,-0.025401574,-0.20252183,-0.30645782,0.076614454,-9.193734,0.98807013,47.647476,-1.248627,-1.6274673,-3.5569136,-0.3264246,-0.16204298,-0.36647934,27.875,29.0625,28.1875,31.875,33.9375,34.75
0.34605193,-0.17422241,-0.18737403,0.089709714,-0.025437972,0.046014935,-0.20421484,-0.401387,-0.3234854,0.059934113,-3.075306,0.61168504,-0.00020158941,-0.16455293,0.027203407,0.0023255735,0.0307158,-0.009182337,0.029476214,0.41789442,-1.4250879,1.9558553,-2.096484,-1.5754589,2.3850253,-0.16812965,0.26493624,-0.3256477,0.08070187,-0.025569374,-0.19728953,-0.3256114,-0.019153614,-9.136273,0.8873621,47.66091,-1.1621897,-1.6288507,-3.3525925,-0.29946682,-0.16913773,-0.4835655,27.875,29.0625,28.1875,31.875,33.9375,34.75
0.34805194,-0.2973696,-0.4880287,-0.22367352,-0.013407779,0.037678335,-0.19745168,-0.40171835,-0.32341787,0.05991619,-3.075246,0.6115575,-0.0001992282,-0.16930741,0.02696639,0.004808846,0.026083708,9.511621e-05,0.027825387,0.41754574,-1.4245367,1.955244,-2.0963786,-1.5755304,2.384605,-0.17168583,0.2643885,-0.3294945,0.07470425,-0.02514266,-0.1991933,-0.05746084,0.095768064,-9.289502,0.88960326,47.71286,-1.1128672,-1.6754237,-3.4814427,-0.27013218,-0.17213944,-0.5426624,27.875,29.0625,28.1875,31.875,33.9375,34.75
0.3500518,-0.5913437,-0.7070012,-0.35678694,-0.009695951,0.032463513,-0.20374635,-0.4020455,-0.3233492,0.05990268,-3.075184,0.6113618,-0.00023182479,-0.17089388,0.0260744,0.0029279098,0.025837282,0.00022550847,0.041090664,0.41719875,-1.4239843,1.9546098,-2.0962245,-1.5756019,2.384144,-0.17123507,0.2707479,-0.331545,0.070089474,-0.025050817,-0.2120042,0.0,-0.019153614,-9.3661175,0.90750587,47.716442,-1.1807969,-1.7301493,-3.369647,-0.19637853,-0.18211038,-0.4566962,27.875,29.0625,28.1875,31.875,33.9375,34.75
0.35205185,-0.35176393,-0.17605588,-0.6130096,-0.012760176,0.034461886,-0.20255892,-0.4024127,-0.3232972,0.05993328,-3.0751693,0.61123496,-0.00012775938,-0.17236648,0.02643867,0.002237868,0.026599437,-0.00094599405,0.054228723,0.41685084,-1.4234554,1.9539036,-2.0960805,-1.5756749,2.3837192,-0.17273116,0.27460507,-0.33461332,0.07058366,-0.025329111,-0.22663634,-0.019153614,0.019153614,-9.5385,0.90527004,47.684196,-1.0133219,-1.8153896,-3.388361,-0.16726263,-0.18535283,-0.3015487,27.875,29.0625,28.1875,31.875,33.9375,34.75
0.3540521,-0.7819499,-0.52947575,-0.416563,-0.016837737,0.050197545,-0.20100527,-0.4027209,-0.3232663,0.05992532,-3.0751965,0.61102474,-0.00023238875,-0.17460884,0.026401542,0.0026636787,0.025499973,0.0028544911,0.0615951,0.41652682,-1.4229145,1.9532689,-2.095926,-1.5756506,2.3832607,-0.17393173,0.27592307,-0.33645767,0.06714651,-0.025922785,-0.23519735,-0.3256114,0.21068975,-9.481039,0.9164598,47.691364,-0.965402,-2.0337336,-3.36524,-0.15425368,-0.18630995,-0.17030013,27.875,29.0625,28.1875,31.875,33.9375,34.75
0.35605246,-1.1907313,-0.8613806,-0.725957,-0.017080104,0.062062997,-0.19119552,-0.4030783,-0.32320133,0.05994726,-3.0751686,0.6108293,-0.00012278893,-0.17442307,0.027642863,0.0015196353,0.027124785,0.0011409121,0.056275357,0.41617915,-1.4223984,1.9525994,-2.095794,-1.5757469,2.3827949,-0.17535636,0.27683768,-0.3349705,0.06696091,-0.02669659,-0.23129964,-0.30645782,0.34476504,-9.634268,0.8247004,47.678825,-0.99368036,-1.8726215,-3.590605,-0.09800632,-0.1774241,-0.14768746,27.875,29.0625,28.1875,31.875,33.9375,34.75
0.35805234,-1.2037988,-1.4503652,-1.0589422,-0.034134332,0.07582646,-0.1949526,-0.40344572,-0.32312497,0.05993457,-3.075091,0.6106646,-0.00014358126,-0.17444032,0.029305918,-0.00058044324,0.02886822,-0.0041088117,0.045249652,0.41579476,-1.4217846,1.9518889,-2.095626,-1.5758308,2.382318,-0.17855933,0.28041682,-0.33482102,0.06874901,-0.026157327,-0.22347805,-0.15322891,0.38307226,-9.691729,0.97240865,47.691364,-0.95264447,-1.9334811,-3.686404,-0.1082536,-0.19810802,-0.23981476,27.875,29.0625,28.1875,31.875,33.9375,34.75
0.3600524,-1.6770647,-2.1318517,-0.8231963,-0.07381611,0.075541794,-0.18844907,-0.4037464,-0.32307124,0.059916265,-3.0750492,0.6105228,-0.0002704286,-0.1744754,0.02897559,-0.00045291783,0.028912563,-0.0046073124,0.040596627,0.41545972,-1.4212437,1.9512714,-2.0954459,-1.5758427,2.3819,-0.1779102,0.2811067,-0.33634415,0.07007275,-0.02600473,-0.21817368,-0.5554548,0.34476504,-9.634268,0.98807013,47.672558,-0.9771708,-1.8049772,-3.7809987,-0.093000785,-0.2171534,-0.32134688,27.875,29.0625,28.1875,31.875,33.9375,34.75
0.3620524,-1.5518692,-1.9519987,-0.8948462,-0.08935497,0.0699599,-0.19565733,-0.40413174,-0.32303125,0.05994862,-3.0750785,0.6103358,-0.00013126397,-0.17520487,0.028043302,0.00017405378,0.028056828,-0.0037800244,0.039289527,0.4151126,-1.4206913,1.9505409,-2.095338,-1.5759028,2.3814328,-0.17689389,0.28225848,-0.33942953,0.070893474,-0.025541423,-0.21585329,-0.49799395,0.34476507,-9.710882,0.98807013,47.684196,-1.0092623,-1.7923352,-3.7804034,-0.104531065,-0.21921694,-0.39520603,27.875,29.0625,28.1875,31.875,33.9375,34.75
0.36405244,-1.6825359,-1.9912554,-1.098007,-0.06967163,0.06283842,-0.19198003,-0.40449598,-0.322994,0.059988774,-3.0751088,0.61022377,-5.5635483e-05,-0.17743316,0.028325217,0.0018853327,0.027146485,-0.0004933924,0.041464217,0.4147646,-1.4201746,1.9498223,-2.0951822,-1.5759267,2.3810112,-0.17868365,0.28179884,-0.34312034,0.07163659,-0.026049146,-0.21981502,-0.40222588,0.30645782,-9.844957,1.0305934,47.67166,-0.9315071,-1.7094746,-3.6966324,-0.079988286,-0.22383443,-0.37886232,27.875,29.0625,28.1875,31.875,33.9375,34.75
0.36605173,-1.1021751,-1.4513724,-1.2034411,-0.042661697,0.06544989,-0.20124698,-0.4048379,-0.32292956,0.059961643,-3.0750556,0.6099945,-8.187758e-05,-0.17950556,0.028190175,0.0033546668,0.026059808,0.0028623773,0.0518104,0.41441688,-1.4195741,1.94917,-2.095063,-1.5759991,2.3805275,-0.17964588,0.28182703,-0.34665367,0.07154879,-0.026475666,-0.23111838,-0.30645782,0.24899697,-9.9790325,0.94331104,47.69763,-0.95752466,-1.580582,-3.6076527,-0.07458456,-0.2178571,-0.27914292,27.875,29.0625,28.1875,31.875,33.9375,34.75
0.3680517,-1.0088632,-0.52321374,-1.0843192,-0.025661742,0.05830651,-0.199484,-0.40520126,-0.32289013,0.05998542,-3.0750935,0.609726,6.970301e-06,-0.18088745,0.027085392,0.0038087612,0.02534242,0.0031168663,0.062457807,0.41408178,-1.4190328,1.9484681,-2.0949423,-1.5760468,2.3800201,-0.17888202,0.28488246,-0.3516401,0.072883405,-0.02595994,-0.24100359,-0.15322891,0.19153613,-9.902418,0.97464454,47.721813,-0.97672355,-1.498273,-3.4412231,-0.04389677,-0.2569195,-0.15067883,27.875,29.0625,28.1875,31.875,33.9375,34.75
0.370052,-1.2911166,-0.6685869,-1.1095277,0.008900719,0.041039392,-0.18133305,-0.40555954,-0.32284826,0.059985414,-3.0751188,0.60947925,-2.0396144e-05,-0.17869754,0.026584612,0.0008151369,0.02827835,-0.0043783477,0.06574434,0.4137236,-1.418442,1.9477581,-2.0947978,-1.5760587,2.379505,-0.17620918,0.29024488,-0.35171688,0.07562506,-0.025639929,-0.24161835,-0.19153613,0.1340753,-9.80665,0.82022345,47.67345,-1.1579379,-1.8112669,-3.409984,-0.06105817,-0.25730526,-0.10140648,27.875,29.0625,28.1875,31.875,33.9375,34.75
0.372052,-0.72398496,0.06258708,-0.95102906,0.0062576896,0.059964035,-0.18852963,-0.4059585,-0.32279134,0.060045715,-3.0751333,0.60935175,0.00017846424,-0.1783958,0.02650901,0.000299366,0.029741755,-0.0065838574,0.05878979,0.41335222,-1.417937,1.9470085,-2.0946534,-1.5761427,2.3790524,-0.17535217,0.29218996,-0.35344216,0.07802864,-0.026044812,-0.23380668,-0.51714754,0.11492168,-9.595961,0.87393653,47.717335,-1.2156122,-1.8988247,-3.6035118,-0.048345707,-0.26574728,-0.13542771,27.875,29.0625,28.1875,31.875,33.9375,34.75
