Tylouw/Master_Thesis_Code/training_data/batch_1/big_rod_t0.3/sample_91_session_3.csv
timestamp[s],tcp_force_x[N],tcp_force_y[N],tcp_force_z[N],tcp_force_rx[Nm?],tcp_force_ry[Nm?],tcp_force_rz[Nm?],tcp_pose_x[m],tcp_pose_y[m],tcp_pose_z[m],tcp_pose_rx[rot_vec_x],tcp_pose_ry[rot_vec_y],tcp_pose_rz[rot_vec_z],tcp_velo_x[m/s],tcp_velo_y[m/s],tcp_velo_z[m/s],tcp_velo_rx[rot_vec_x/s],tcp_velo_ry[rot_vec_y/s],tcp_velo_rz[rot_vec_z/s],q1[rad],q2[rad],q3[rad],q4[rad],q5[rad],q6[rad],qd1[rad/s],qd2[rad/s],qd3[rad/s],qd4[rad/s],qd5[rad/s],qd6[rad/s],tool_acc_x,tool_acc_y,tool_acc_z,current_of_whole_robot[A],voltage_of_whole_robot[V],current_J1[A],current_J2[A],current_J3[A],current_J4[A],current_J5[A],current_J6[A],temp_J1[C],temp_J2[C],temp_J3[C],temp_J4[C],temp_J5[C],temp_J6[C]
1.3670069e-06,-0.9451527,-0.6292832,0.27569333,-0.018067477,-0.0013027438,-0.0156145,-0.37288904,-0.32823303,0.059951447,-3.0785248,0.6248168,-0.00024774662,0.0019773834,0.00094680564,-0.0035430186,0.0031666178,-0.006914553,-1.9610547e-06,0.4481623,-1.4708729,2.0095732,-2.1077154,-1.5706495,2.4230433,-8.4814725e-05,0.004301344,0.0034356094,-0.00013366209,0.00014919978,-8.4462365e-05,0.0,0.24899697,-8.925584,0.7911258,47.74331,-0.12001561,-2.930852,-2.4492092,-0.50526124,0.16088384,-0.1259476,27.9375,29.125,28.25,31.9375,34.0,34.9375
0.00205356,-0.52455175,-0.4180962,0.3790018,-0.016318114,0.0066410447,-0.025273932,-0.3728822,-0.3282167,0.05992301,-3.0784533,0.624822,-0.0002968339,-0.0011657864,-0.0005727743,-0.002441675,-0.0014130329,0.0025643907,8.4728396e-07,0.4481623,-1.4708251,2.0095842,-2.1077073,-1.5706857,2.4230556,-8.368812e-05,0.0044006724,0.0031661545,-0.0104908105,0.00014518792,-8.2906154e-05,0.05746084,0.19153613,-8.963891,0.7038487,47.67793,-0.19431224,-2.857428,-2.3437989,-0.46409786,0.15548679,-0.12478388,27.9375,29.125,28.25,31.9375,34.0,34.9375
0.004052086,-0.10908119,0.039511546,0.23034015,-0.017038422,0.018412078,-0.02897518,-0.37287524,-0.32820928,0.059919775,-3.0784497,0.6249364,-0.00031971707,-0.0017815498,-0.0008695302,-0.0020998998,-0.0025932086,0.0050165704,8.907321e-07,0.4481382,-1.470849,2.009621,-2.1077201,-1.5706614,2.4231033,-8.259094e-05,0.0038619083,0.0035621447,-0.013069419,0.0001413862,-8.140639e-05,0.1340753,0.1340753,-9.059659,0.7777002,47.709274,-0.16705851,-3.0207264,-2.5299711,-0.35431245,0.15903553,-0.11975702,27.9375,29.125,28.25,31.9375,34.0,34.9375
0.006052485,-0.52596503,0.28113115,0.34959868,-0.009560435,-0.0030869741,-0.020207623,-0.37287793,-0.32821032,0.059916615,-3.0784428,0.6248581,-0.00027217573,-0.00060967036,-0.00030171155,-0.0017580456,-0.00098526,0.0017059476,-8.7109566e-07,0.4481623,-1.4708376,2.0096204,-2.1077416,-1.5706977,2.4230795,-8.1522325e-05,0.0026764888,0.0027919742,-0.0074333875,0.0001377786,-7.9959886e-05,0.019153614,0.076614454,-9.193734,0.7620334,47.704796,-0.14395326,-2.9912612,-2.5761988,-0.38631314,0.16075847,-0.12191093,27.9375,29.125,28.25,31.9375,34.0,34.9375
0.00805185,-0.15767431,0.4689774,-0.1837075,0.025164776,-0.018905701,-0.017941922,-0.37288755,-0.3282086,0.059913497,-3.078457,0.6248222,-0.00025812784,2.4510322e-05,5.8758956e-06,-0.0012951666,-1.5114438e-05,-0.00028738583,-1.9546906e-06,0.44815025,-1.4708259,2.00962,-2.107764,-1.5706977,2.4230433,-8.0480895e-05,0.00179732,0.0017505067,-0.003295873,0.00013435057,-7.856386e-05,0.019153614,0.11492168,-9.212888,0.69937176,47.68062,-0.13249627,-2.9516482,-2.4877589,-0.44116998,0.15661278,-0.11709823,27.9375,29.125,28.25,31.9375,34.0,34.9375
0.010052137,0.70104337,1.3359001,-0.53762573,0.035615094,-0.015012171,-0.023039516,-0.37287146,-0.32821608,0.059888165,-3.0784535,0.62486076,-0.00040572323,0.00021534401,0.00010272579,-0.0011313165,0.00041873317,-0.0011763065,-2.3091056e-06,0.4481382,-1.4707781,2.00962,-2.1077397,-1.5706376,2.4230556,-8.6942026e-05,0.0016843157,0.0010984282,-0.0015416443,0.00013108912,-8.4818545e-05,-0.038307227,0.114921674,-9.385271,0.82694155,47.687782,-0.6129802,-2.340135,-3.0286832,-0.46341974,0.1310082,-0.20621322,27.9375,29.125,28.25,31.9375,34.0,34.9375
0.012052077,-0.10944832,0.53093207,-0.7487462,0.028234582,-0.016823733,-0.022896636,-0.37286755,-0.328229,0.05990214,-3.0784554,0.62484163,-0.00037857337,-8.914052e-05,-2.9535655e-05,-0.0027004727,0.0020366288,-0.0045401105,1.2669733e-05,0.4481742,-1.4707887,2.0095942,-2.1077158,-1.5706495,2.4230795,-0.00011701577,0.0067141107,-0.0010039281,-0.0007364253,0.00012798196,-0.00012803714,0.038307227,0.0,-9.461885,0.7463667,47.72271,-0.72681516,-2.2210522,-3.1418867,-0.46617454,0.1528186,-0.25912553,27.9375,29.125,28.25,31.9375,34.0,34.9375
0.014052255,-0.031564824,0.3944355,-0.74899906,-0.012605711,0.016410176,-0.03996067,-0.37285048,-0.32820848,0.05985726,-3.078427,0.62477785,-0.0005241982,-0.004989254,0.0025871366,-0.0049873646,0.0040177214,-0.008691823,-0.0011785061,0.4481349,-1.4707367,2.00964,-2.1077154,-1.5706257,2.423004,-0.009504231,0.0169952,-0.0071391044,-0.00028318816,0.00012501894,-0.008318894,-0.019153614,0.0,-9.576807,0.7486078,47.696735,-0.44058868,-2.9700541,-2.903295,-0.4687819,0.144057,-0.24508664,27.9375,29.125,28.25,31.9375,34.0,34.9375
0.016052436,-0.6754546,-0.117992625,-0.67845243,-0.04984599,0.041750558,-0.045786757,-0.37286595,-0.3281876,0.059852086,-3.0783517,0.6247986,-0.0005125257,-0.0052874177,0.0034723387,-0.004817945,0.0039571333,-0.008563585,0.0034721147,0.4481223,-1.4707013,2.0096047,-2.1076791,-1.5706857,2.423014,-0.011437623,0.015849771,-0.0063113705,-0.000108998625,0.00012219003,-0.0149036385,-0.34476507,0.21068975,-9.615114,0.7396539,47.696735,-0.42762935,-2.8247366,-3.1739192,-0.46611774,0.13539559,-0.16912279,27.9375,29.125,28.25,31.9375,34.0,34.9375
0.01805258,-1.9172667,-1.1440388,-0.6404337,-0.06269835,0.07078572,-0.04863457,-0.3728481,-0.3281902,0.059824377,-3.0783615,0.62476,-0.00063357427,-0.0047130953,0.002939686,-0.004527038,0.0037393628,-0.008108357,0.0075032017,0.44811076,-1.4706656,2.009629,-2.1076791,-1.5706376,2.422977,-0.009910893,0.0149814235,-0.006049143,-7.116831e-06,0.00011948604,-0.017408324,-0.45968673,0.17238252,-9.730036,0.79560274,47.71554,-0.55738795,-2.572996,-3.4477308,-0.4660498,0.1352298,-0.17493513,27.9375,29.125,28.25,31.9375,34.0,34.9375
0.020051822,-2.0056803,-0.76423687,-0.6755079,-0.06463156,0.09780391,-0.074497715,-0.3728696,-0.3281941,0.059832867,-3.0783615,0.6247987,-0.0006178209,-0.006392216,0.0025289636,-0.003934344,0.0030706192,-0.0067282533,0.0072791954,0.44809848,-1.470641,2.00958,-2.1076672,-1.5706376,2.422989,-0.010665823,0.016830942,-0.009438964,-4.646782e-07,0.000116899224,-0.017936911,-0.47884032,0.2681506,-9.749189,0.7933669,47.72719,-0.65119296,-2.453152,-3.5391703,-0.48207897,0.13637197,-0.17766052,27.9375,29.125,28.25,31.9375,34.0,34.9375
0.022051923,-2.4334342,-0.39178243,-0.76512915,-0.033642787,0.08844758,-0.08615505,-0.37287176,-0.3281863,0.059802547,-3.078332,0.6247747,-0.000718998,-0.0083541395,0.0029564847,-0.0033717994,0.0024577577,-0.005464555,0.0053319572,0.44807371,-1.4705688,2.0095675,-2.1076553,-1.5706257,2.422953,-0.01325458,0.018006954,-0.012019728,-3.0340164e-08,0.00011442223,-0.018576698,-0.49799395,0.30645782,-9.768343,0.7642693,47.733456,-0.7459215,-2.446344,-3.4478335,-0.47586215,0.12119398,-0.21465233,27.9375,29.125,28.25,31.9375,34.0,34.9375
0.024052655,-1.8326331,0.018579083,-0.80848265,-0.0073234267,0.076962225,-0.101946786,-0.3728825,-0.32817638,0.059810035,-3.0783591,0.62476087,-0.0007001867,-0.009735019,0.0030949835,-0.0034290017,0.002418829,-0.0053908057,0.005169317,0.4480372,-1.470592,2.0095785,-2.1076672,-1.5706137,2.4229043,-0.014771277,0.020222815,-0.0143188685,-1.980996e-09,0.00011204796,-0.019929012,-0.63206923,0.2873042,-9.80665,0.7732232,47.675243,-0.7550052,-2.480094,-3.383254,-0.46523502,0.13003416,-0.20664677,27.9375,29.125,28.25,31.9375,34.0,34.9375
0.026051817,-2.0340378,-0.27945954,-0.88873523,0.0028429606,0.05990219,-0.113064714,-0.37293112,-0.32815474,0.059821874,-3.0783384,0.62475747,-0.0006514246,-0.010624686,0.0037894177,-0.0032422976,0.0022349302,-0.005005733,0.0034476633,0.4479765,-1.4705561,2.0095065,-2.107643,-1.5706495,2.4228442,-0.016883578,0.020207085,-0.014730621,-1.2934488e-10,0.00010977006,-0.02031941,-0.9002198,0.19153613,-9.634268,0.70608455,47.672558,-0.7521112,-2.4337456,-3.4494576,-0.45889103,0.12296158,-0.19396928,27.9375,29.125,28.25,31.9375,34.0,34.9375
0.028051913,-2.2428887,-0.7096925,-0.9950208,-0.006539576,0.057682235,-0.13341434,-0.37292275,-0.32816336,0.059800517,-3.0783362,0.6246617,-0.0006950051,-0.0119337095,0.0034907172,-0.0019494725,0.0009773155,-0.0023957584,0.002705696,0.44800025,-1.4705085,2.009506,-2.1076553,-1.5706495,2.4228084,-0.017511366,0.01950212,-0.016922804,-8.4452965e-12,0.00010758308,-0.020204026,-0.842759,0.17238252,-9.672575,0.7911258,47.682407,-0.7557211,-2.3313017,-3.5062041,-0.4559099,0.11687549,-0.18746419,27.9375,29.125,28.25,31.9375,34.0,34.9375
0.030052096,-2.3741257,-0.87067896,-0.76053685,-0.018430255,0.0732074,-0.14375357,-0.37299147,-0.3281689,0.059817266,-3.0783658,0.62478316,-0.0006166377,-0.012802209,0.0033989171,-0.0020737187,0.0010209207,-0.0024870606,0.0018806703,0.44794005,-1.4704479,2.0094092,-2.107691,-1.5706376,2.4228203,-0.01812554,0.021378957,-0.018698173,-5.514175e-13,0.00010548163,-0.019991798,-0.78529817,0.13407528,-9.691729,0.7665104,47.70211,-0.7584514,-2.3626368,-3.4382148,-0.45076358,0.10043152,-0.19355339,27.9375,29.125,28.25,31.9375,34.0,34.9375
0.032052215,-2.301227,-0.58830136,-0.57968843,-0.014444762,0.0840534,-0.15798421,-0.37298435,-0.3281675,0.05978571,-3.0783386,0.6247589,-0.000744183,-0.014012598,0.0033290323,-0.0018908224,0.00076601503,-0.001967305,0.00134761,0.44792768,-1.4703755,2.0093968,-2.1076672,-1.5706137,2.4227962,-0.019095106,0.023003278,-0.02090094,-3.6003623e-14,0.000103460654,-0.020426732,-0.63206923,0.076614454,-9.634268,0.683705,47.71465,-0.8213259,-2.3455515,-3.468769,-0.45140642,0.12198345,-0.20380944,27.9375,29.125,28.25,31.9375,34.0,34.9375
0.034052126,-2.0228848,-0.095366806,-0.61098903,0.0049344376,0.080920406,-0.17716637,-0.3730356,-0.32813665,0.059795324,-3.0783198,0.62473553,-0.0006683807,-0.015279979,0.003289039,-0.0013772893,0.00021828708,-0.0008342988,0.0016989562,0.44785535,-1.4703513,2.0093482,-2.1076672,-1.5706614,2.4227118,-0.020169314,0.023840735,-0.02299803,-2.3507792e-15,0.00010151558,-0.021850888,-0.49799395,-0.019153614,-9.519346,0.78217715,47.70032,-0.802883,-2.2830653,-3.456437,-0.45425594,0.110836186,-0.20207083,27.9375,29.125,28.25,31.9375,34.0,34.9375
0.036052186,-2.0243928,-0.005354772,-0.62716323,0.040177904,0.056731496,-0.18829754,-0.37306386,-0.3281546,0.059794534,-3.0783648,0.6247452,-0.00069738465,-0.016377993,0.003272074,-0.0009261307,-0.00026153284,0.00015905077,0.0018766142,0.447831,-1.4702911,2.0092866,-2.1076791,-1.5706137,2.4226878,-0.021133324,0.024522003,-0.02478153,-1.5348909e-16,9.964246e-05,-0.022991374,-0.4213795,-0.05746084,-9.5385,0.7530795,47.686886,-0.73281604,-2.3231623,-3.4289522,-0.430845,0.1104942,-0.19496009,27.9375,29.125,28.25,31.9375,34.0,34.9375
0.03805229,-1.0436671,0.5790502,-0.596471,0.035586476,0.04592092,-0.21473624,-0.3730958,-0.32812503,0.059773434,-3.078319,0.62475467,-0.00069369236,-0.017663483,0.0034417317,-0.00011642866,-0.0010604193,0.0018153669,0.0015749814,0.44777054,-1.4702312,2.0092747,-2.107703,-1.5706495,2.4226391,-0.022617904,0.024331955,-0.026431372,-1.00217415e-17,9.7837095e-05,-0.024173364,-0.40222588,-0.076614454,-9.500193,0.7418897,47.699425,-0.74223286,-2.3058722,-3.3808732,-0.42390075,0.10812792,-0.18915403,27.9375,29.125,28.25,31.9375,34.0,34.9375
0.04005242,-0.7884693,0.6325829,-0.38634253,0.035092294,0.022244677,-0.2109806,-0.37314382,-0.32812884,0.059777606,-3.0783114,0.62479126,-0.0006946977,-0.0189328,0.003605656,0.00022960272,-0.0014484649,0.0026159543,0.0017158459,0.44773403,-1.4701471,2.0091674,-2.1076791,-1.5706495,2.4226265,-0.02407671,0.025301376,-0.02829068,-6.543481e-19,9.609596e-05,-0.025771765,-0.2681506,-0.076614454,-9.481039,0.7418897,47.694946,-0.7750715,-2.2624555,-3.4193318,-0.41359395,0.09667845,-0.17883673,27.9375,29.125,28.25,31.9375,34.0,34.9375
0.04205172,-0.5736794,0.4064778,-0.6460708,0.022276467,0.009847044,-0.21269774,-0.3731772,-0.32811284,0.05976965,-3.0783267,0.624756,-0.00067825546,-0.019896165,0.0037823895,0.0003774975,-0.0015350943,0.002792595,0.0022730362,0.4476736,-1.4701108,2.009154,-2.1077154,-1.5706495,2.422542,-0.025281768,0.02639421,-0.029903727,0.00032324225,9.4415765e-05,-0.027532965,-0.17238253,-0.05746084,-9.481039,0.7777002,47.70032,-0.7082722,-2.230136,-3.4118829,-0.42120275,0.10413638,-0.18547273,27.9375,29.125,28.25,31.9375,34.0,34.9375
0.044052254,-0.40315378,0.09612753,-0.68078226,0.00984258,-0.0005260808,-0.19225039,-0.37323323,-0.32811633,0.059794247,-3.078361,0.62472326,-0.0005920127,-0.021227146,0.0038608871,0.0003712186,-0.001583375,0.0029135693,0.0030486821,0.44763723,-1.4700739,2.0090573,-2.1077154,-1.5706614,2.422481,-0.026628008,0.028523613,-0.0322455,0.00040505445,8.1313774e-05,-0.0296531,-0.05746084,0.038307227,-9.5385,0.7597976,47.72002,-0.73251045,-2.251874,-3.3790843,-0.39124155,0.09395368,-0.14984554,27.9375,29.125,28.25,31.9375,34.0,34.9375
0.046052348,-0.39026764,-0.58339626,-0.7512192,0.006030628,0.006574889,-0.18414792,-0.37326518,-0.3280976,0.059792608,-3.0783377,0.62477624,-0.00064879627,-0.022191238,0.0038909435,0.00069063035,-0.0019068707,0.0035873053,0.003811397,0.44756493,-1.4700258,2.0089972,-2.1076672,-1.5706495,2.4224448,-0.02755452,0.02928917,-0.033837635,0.00048439772,7.628159e-05,-0.03134127,0.0,0.15322891,-9.519346,0.7418897,47.721813,-0.6630722,-2.265266,-3.383006,-0.38559237,0.109748974,-0.15137586,27.9375,29.125,28.25,31.9375,34.0,34.9375
0.048052307,-0.26963574,-0.6284859,-0.7492682,-0.005460795,0.009691241,-0.1910998,-0.37330937,-0.32806978,0.059751064,-3.0782971,0.6247861,-0.0006962631,-0.022949656,0.0042388346,0.0010490183,-0.001984541,0.0037453899,0.0044308454,0.4474804,-1.4699061,2.008972,-2.107715,-1.5706614,2.4223716,-0.028892811,0.029495673,-0.035087667,0.0013511446,7.4775475e-05,-0.033298492,0.0,0.19153613,-9.519346,0.8179876,47.705692,-0.6822972,-2.1840205,-3.3753138,-0.3740102,0.10585652,-0.142672,27.9375,29.125,28.25,31.9375,34.0,34.9375
0.050052147,-0.26632103,-0.44820908,-0.7691688,-0.010981948,0.011976381,-0.18543227,-0.37336415,-0.3280745,0.059796482,-3.078309,0.62480766,-0.0006003167,-0.023373734,0.0047928807,0.0009989355,-0.0013478631,0.0024278662,0.0045863646,0.44745597,-1.4698937,2.0088403,-2.1076539,-1.5706857,2.4223592,-0.030315941,0.030320413,-0.036299855,0.0032008016,7.35379e-05,-0.03487682,0.095768064,0.19153613,-9.519346,0.7597976,47.709274,-0.62400484,-2.1811266,-3.425098,-0.38952416,0.10045553,-0.12375038,27.9375,29.125,28.25,31.9375,34.0,34.9375
0.052052245,-0.53812695,-0.88121414,-0.9365161,-0.0040741414,0.0031514291,-0.17419806,-0.37338066,-0.32808048,0.0597834,-3.0783474,0.62473863,-0.0006765285,-0.024215637,0.0048621376,0.0015470161,-0.0016772767,0.003108983,0.005041506,0.44741955,-1.4698339,2.0088046,-2.1076539,-1.5706376,2.4222748,-0.031208053,0.030501254,-0.037911173,0.0038762034,7.235452e-05,-0.03622328,0.05746084,0.2681506,-9.5385,0.779936,47.693153,-0.6444756,-2.0931687,-3.4881225,-0.40571332,0.10713283,-0.12470556,27.9375,29.125,28.25,31.9375,34.0,34.9375
0.054052565,-0.079998724,-0.9375409,-1.0133874,-0.018549286,0.01273487,-0.18813981,-0.37345934,-0.3280541,0.059796188,-3.078317,0.624712,-0.0005627071,-0.025291456,0.0050085257,0.0014917221,-0.0017986264,0.00335519,0.006586432,0.44734722,-1.4697615,2.0086958,-2.1076539,-1.5707096,2.42219,-0.032454252,0.032063004,-0.039426774,0.0035524268,7.120943e-05,-0.039013155,-0.019153614,0.2681506,-9.595961,0.7978386,47.701214,-0.67819005,-2.0869236,-3.4892616,-0.39439607,0.07959168,-0.08618525,27.9375,29.125,28.25,31.9375,34.0,34.9375
0.056052607,-0.658154,-1.3483528,-0.8495829,-0.025326448,0.003898315,-0.17916086,-0.3735286,-0.32804734,0.059784878,-3.0783584,0.62474036,-0.0005930861,-0.026391549,0.0049783597,0.0017955366,-0.0023001353,0.004410409,0.0062392517,0.44723892,-1.4696534,2.0086114,-2.10769,-1.5706614,2.422094,-0.033383586,0.032932233,-0.040968377,0.0030583185,6.319458e-05,-0.03959409,0.019153614,0.28730422,-9.615114,0.7866488,47.70659,-0.6489708,-2.0356522,-3.4645236,-0.37144613,0.1008648,-0.06361276,27.9375,29.125,28.25,31.9375,34.0,34.9375
0.058052685,-0.8236901,-1.1480585,-0.85962623,-0.037958477,0.010860817,-0.17576778,-0.37355292,-0.328031,0.059784852,-3.07834,0.6246607,-0.0006001943,-0.027390335,0.00481448,0.0019305877,-0.0025920267,0.005025761,0.004582314,0.4472026,-1.4696169,2.0085633,-2.1076543,-1.5706857,2.4220104,-0.03397563,0.03433955,-0.042755373,0.0027561875,5.5684402e-05,-0.038527805,-0.076614454,0.3256114,-9.653421,0.7284641,47.679718,-0.6441022,-2.0087614,-3.576378,-0.3575869,0.086606205,-0.086428925,27.9375,29.125,28.25,31.9375,34.0,34.9375
0.06005253,-0.45816395,-1.2666297,-0.91457564,-0.03175242,0.02547312,-0.18200576,-0.3736269,-0.32801127,0.059803367,-3.0783436,0.62473863,-0.0005304283,-0.027790094,0.0049149008,0.001659445,-0.0021351697,0.004078596,0.0045307167,0.4471064,-1.4695684,2.0084674,-2.1076539,-1.5706977,2.4219625,-0.034519784,0.035869587,-0.04398621,0.003508048,5.441596e-05,-0.0390196,-0.05746084,0.3256114,-9.576807,0.779936,47.658226,-0.65178645,-1.9579502,-3.4490428,-0.36694613,0.08849399,-0.106502965,27.9375,29.125,28.25,31.9375,34.0,34.9375
0.062051766,-0.7680494,-0.78816885,-0.7396487,-0.032986537,0.03446427,-0.17879897,-0.3736623,-0.3280134,0.05980506,-3.0783715,0.624648,-0.0005421306,-0.028641883,0.005123542,0.0021585966,-0.0021079911,0.0040205475,0.004826364,0.44707015,-1.4695082,2.0083945,-2.107641,-1.5706857,2.4218662,-0.035681162,0.0364062,-0.04609546,0.0051449975,5.3578216e-05,-0.04047576,-0.11492168,0.36391866,-9.519346,0.8157518,47.690468,-0.6665276,-2.009014,-3.4962482,-0.37248242,0.08154537,-0.101114854,27.9375,29.125,28.25,31.9375,34.0,34.9375
0.06405226,-1.3866988,-0.5845065,-0.8076518,-0.02041568,0.02831911,-0.18409795,-0.3737177,-0.32802975,0.059817426,-3.0784361,0.62467897,-0.000555198,-0.029204896,0.0051082247,0.0023890475,-0.0020785811,0.0039600064,0.005938878,0.4470099,-1.4694363,2.0082872,-2.107641,-1.5706257,2.421817,-0.03615661,0.03714452,-0.04763563,0.0060164174,5.2790783e-05,-0.04206294,-0.17238252,0.30645782,-9.481039,0.8314132,47.67345,-0.7402614,-1.9205518,-3.5226245,-0.38011932,0.067894064,-0.08275288,27.9375,29.125,28.25,31.9375,34.0,34.9375
0.06605197,-1.8905696,-0.7144335,-0.8701848,-0.0008582025,0.023682393,-0.17159835,-0.37376922,-0.3280033,0.05980984,-3.0783737,0.62462765,-0.0006108922,-0.030118195,0.0052787857,0.0018155773,-0.0016230778,0.0029951856,0.0061286082,0.44693753,-1.4693276,2.008166,-2.107557,-1.5706614,2.4217207,-0.037301376,0.039869092,-0.049323045,0.0060444856,5.2027717e-05,-0.043396015,-0.19153613,0.24899697,-9.461885,0.77545905,47.666286,-0.7197601,-1.8732011,-3.5038028,-0.36479723,0.08459719,-0.07538153,27.9375,29.125,28.25,31.9375,34.0,34.9375
0.068052195,-1.1174073,0.035770655,-0.48081082,-0.013409933,0.050032906,-0.18004274,-0.3738677,-0.32801244,0.059837356,-3.078438,0.62464154,-0.00047489433,-0.031142762,0.0049929265,0.0021419637,-0.0021456068,0.004089055,0.0043554944,0.4468654,-1.4692434,2.0080216,-2.1076057,-1.5706614,2.4216492,-0.037683025,0.040941432,-0.051146574,0.0055836523,5.1286515e-05,-0.04200315,-0.2681506,0.17238252,-9.500193,0.7709874,47.721813,-0.73662734,-1.9872841,-3.5071874,-0.37222928,0.08918362,-0.09234027,27.9375,29.125,28.25,31.9375,34.0,34.9375
0.07005248,-1.565418,-0.46230367,-0.54784274,-0.004171677,0.040003713,-0.17593248,-0.37390575,-0.32800728,0.05983756,-3.0784717,0.62453455,-0.00051321235,-0.03232965,0.004978283,0.0023171909,-0.0023624913,0.0045334282,0.002741663,0.44680506,-1.4691828,2.007949,-2.1075814,-1.5706376,2.4215178,-0.038726874,0.04250518,-0.05328714,0.0056670974,5.056617e-05,-0.04143167,-0.36391866,0.17238253,-9.385271,0.7933669,47.723602,-0.7822789,-1.9191478,-3.4650128,-0.36949086,0.06753935,-0.1190736,27.9375,29.125,28.25,31.9375,34.0,34.9375
0.07205256,-1.387318,-0.09051865,-0.46118838,-0.002091193,0.043447785,-0.1834332,-0.37398854,-0.32797885,0.059850108,-3.078441,0.6246035,-0.00042271666,-0.03316077,0.004675958,0.002597687,-0.0025836811,0.004990691,0.004623575,0.4467091,-1.4691105,2.0078409,-2.1075814,-1.5706857,2.421469,-0.038902976,0.04374391,-0.05536948,0.0060004243,4.986577e-05,-0.043488342,-0.30645782,0.17238252,-9.404425,0.8179876,47.756744,-0.8221351,-1.9386113,-3.504715,-0.3603518,0.070958786,-0.11942038,27.9375,29.125,28.25,31.9375,34.0,34.9375
0.074052244,-1.608069,-0.040908664,-0.44702294,0.0017390061,0.03632806,-0.17493393,-0.37407196,-0.32799345,0.059862982,-3.0785115,0.6245803,-0.00038415796,-0.033735,0.005460536,0.0018458868,-0.0017843376,0.0033293488,0.0032146065,0.44663638,-1.4690021,2.0076978,-2.1076052,-1.5706495,2.421373,-0.04088829,0.045640502,-0.05582572,0.006405233,4.918444e-05,-0.04406424,-0.38307226,0.05746084,-9.3661175,0.86498255,47.71554,-0.7922642,-1.9630901,-3.497776,-0.3575145,0.07820016,-0.13088162,27.9375,29.125,28.25,31.9375,34.0,34.9375
0.07605242,-1.2915289,-0.059658207,-0.26542902,0.00517473,0.03862093,-0.17635985,-0.37412885,-0.32795236,0.0598551,-3.0784464,0.62456644,-0.00039734942,-0.035777006,0.0048946883,0.0033987698,-0.0031761546,0.006236264,0.0029933017,0.4465401,-1.468918,2.0076125,-2.107557,-1.5706977,2.4212763,-0.041660987,0.0460899,-0.059996728,0.006901727,3.9511786e-05,-0.044613205,-0.36391866,0.095768064,-9.385271,0.800085,47.701214,-0.75161076,-1.8725858,-3.4255977,-0.3598497,0.058466874,-0.15568112,27.9375,29.125,28.25,31.9375,34.0,34.9375
0.078052595,-1.2599738,0.03182378,-0.28127587,0.009699999,0.040890645,-0.17623214,-0.37418637,-0.3279614,0.059844572,-3.0784876,0.6246131,-0.00048184735,-0.03593503,0.0047401823,0.0023364748,-0.0021566034,0.0041093323,0.003479923,0.4464562,-1.4687972,2.0075037,-2.1075566,-1.5706257,2.4212162,-0.041504774,0.04941167,-0.061292842,0.0072379485,3.611094e-05,-0.044942416,-0.4213795,0.11492168,-9.346964,0.7978386,47.69763,-0.8071396,-1.8934047,-3.362234,-0.35640103,0.05488099,-0.16277981,27.9375,29.125,28.25,31.9375,34.0,34.9375
0.08005163,-1.5769961,0.30284083,-0.28727376,0.00928752,0.03959759,-0.17486991,-0.37425852,-0.32795125,0.05986576,-3.078517,0.624581,-0.0004363506,-0.036432654,0.005241191,0.0017864926,-0.0016909766,0.0032182818,0.0028215516,0.44637182,-1.4687369,2.0073836,-2.1075332,-1.5706257,2.4211082,-0.042864516,0.050852157,-0.061584067,0.0070935045,1.5465383e-06,-0.04564328,-0.36391866,0.11492168,-9.3661175,0.842603,47.688675,-0.91176665,-1.9630535,-3.494546,-0.33853832,0.050864063,-0.19279963,27.9375,29.125,28.25,31.9375,34.0,34.9375
0.08205256,-1.6034232,-0.37230408,-0.29278028,0.019102516,0.03672589,-0.16817874,-0.37434533,-0.3279349,0.059871078,-3.0784898,0.6244993,-0.00033866253,-0.03824283,0.005340865,0.0035684286,-0.0031629587,0.006361184,0.0017659449,0.44631112,-1.4686174,2.00724,-2.1075327,-1.5706977,2.4210002,-0.044657793,0.04943723,-0.06426125,0.0077119158,-3.053781e-05,-0.04637971,-0.21068975,-0.019153614,-9.270349,0.800085,47.737038,-0.8155327,-1.8500403,-3.5049446,-0.33072108,0.045770217,-0.19572714,27.9375,29.125,28.25,31.9375,34.0,34.9375
0.084052,-1.1785872,-0.26286992,-0.39743116,0.010955289,0.039631054,-0.17872319,-0.3744233,-0.32793194,0.059893165,-3.0785384,0.6244909,-0.0003688475,-0.04071044,0.0055744844,0.004373026,-0.0036176543,0.0073339036,0.000299979,0.44620237,-1.4685328,2.0070827,-2.1074727,-1.5706495,2.42088,-0.047307927,0.051679615,-0.06886836,0.009005074,-4.6091634e-05,-0.04756113,-0.2873042,0.095768064,-9.270349,0.8112748,47.72092,-0.780854,-1.8219162,-3.2502112,-0.3404851,0.040491715,-0.20521414,27.9375,29.125,28.25,31.9375,34.0,34.9375
0.086051986,-1.0891899,-0.44187856,-0.30608302,0.0064689936,0.040791884,-0.1772527,-0.374486,-0.32792363,0.05986461,-3.0785184,0.62458277,-0.0004657069,-0.0395142,0.0067840535,0.0016255591,-0.0008106836,0.0015047801,0.00010142956,0.44610578,-1.468376,2.006976,-2.1074727,-1.5706137,2.4208434,-0.0484811,0.055238705,-0.0666476,0.009696628,-5.910422e-05,-0.048536707,-0.40222588,0.11492168,-9.308657,0.8090337,47.729877,-0.7225422,-1.8791502,-3.4805532,-0.3529215,0.037215486,-0.2550819,27.9375,29.125,28.25,31.9375,34.0,34.9375
0.08805215,-1.3818959,-0.15465194,-0.41451913,-0.011979299,0.035862874,-0.17709735,-0.3745958,-0.32789993,0.059903152,-3.0785375,0.6246039,-0.00032576738,-0.04106912,0.005560737,0.0026125622,-0.0018482272,0.0036680233,0.0040822546,0.4459861,-1.4683154,2.006818,-2.1074603,-1.5706495,2.4207346,-0.04757308,0.057087928,-0.07095902,0.009757496,-6.196243e-05,-0.05160667,-0.30645782,0.21068975,-9.404425,0.83589023,47.728977,-0.8573784,-1.9750874,-3.3753767,-0.34360763,0.03085294,-0.23138152,27.9375,29.125,28.25,31.9375,34.0,34.9375
0.09005225,-1.0613267,-0.14559902,-0.24376404,-0.014895539,0.0533802,-0.18427086,-0.37466443,-0.32789016,0.059904136,-3.0785186,0.6245808,-0.0003431918,-0.042570878,0.005772889,0.004270101,-0.0032834138,0.0066925343,0.0023004636,0.44591364,-1.4681963,2.006674,-2.1074126,-1.5706614,2.4206502,-0.049308427,0.05520219,-0.07277235,0.010108282,-7.544221e-05,-0.051559538,-0.30645782,0.19153613,-9.385271,0.7777002,47.723602,-0.84343475,-1.7582282,-3.3043652,-0.33824384,0.04117921,-0.25469297,27.9375,29.125,28.25,31.9375,34.0,34.9375
0.09205231,-0.95239836,-0.17655392,-0.40765035,-0.019065708,0.058118347,-0.18455432,-0.37475073,-0.32788435,0.059918385,-3.0785413,0.6245098,-0.00035691308,-0.043785643,0.0064174896,0.0033593215,-0.0019165444,0.004930465,0.0007525354,0.44581693,-1.468075,2.0064943,-2.107352,-1.57065,2.4205065,-0.051283803,0.058935735,-0.07493389,0.010717771,-0.0005516796,-0.05198441,-0.36391866,0.19153613,-9.385271,0.784413,47.716442,-0.83240134,-1.8770921,-3.3207817,-0.35498244,0.020641245,-0.2966414,27.9375,29.125,28.25,31.9375,34.0,34.9375
0.094051756,-1.5861037,-0.64069414,-0.36128935,-0.017811151,0.041448444,-0.17866126,-0.37485555,-0.3278601,0.05991039,-3.078524,0.62462145,-0.00031590436,-0.04447845,0.00651858,0.0028360903,-0.0014183456,0.004258619,0.0013431048,0.44568467,-1.4679307,2.0063622,-2.1073883,-1.5706619,2.4204462,-0.05197456,0.06120894,-0.07619927,0.010530661,-0.00071323535,-0.053264305,-0.3256114,0.22984336,-9.3661175,0.8023209,47.71017,-0.7540865,-1.9240208,-3.2604198,-0.35642314,0.0554433,-0.31324476,27.9375,29.125,28.25,31.9375,34.0,34.9375
0.0960519,-0.91093683,-0.30522206,-0.19856419,-0.036021937,0.05234675,-0.17652671,-0.37496328,-0.3278521,0.05994158,-3.078552,0.6246065,-0.00020397086,-0.04567086,0.0063206526,0.0031670346,-0.0017682185,0.0048717465,0.0036492893,0.4455884,-1.4678344,2.006182,-2.1073759,-1.5706857,2.4203372,-0.052698225,0.062727965,-0.07869457,0.010800862,-0.0006631104,-0.056292657,-0.38307226,0.3256114,-9.442732,0.7642693,47.723602,-0.797096,-1.9036127,-3.1597333,-0.36902678,0.028477652,-0.3169241,27.9375,29.125,28.25,31.9375,34.0,34.9375
0.098051794,-0.921487,-0.26052994,-0.260347,-0.040972307,0.050870292,-0.18253613,-0.3750275,-0.3278406,0.05993083,-3.0785537,0.6245502,-0.0002878288,-0.045677196,0.0066629956,0.0023263888,-0.0010502737,0.0033685123,0.0013682578,0.44549233,-1.4677022,2.0060503,-2.1073282,-1.5706614,2.4202058,-0.053334586,0.06432487,-0.07850482,0.010681677,-0.00066477386,-0.054647796,-0.36391866,0.2681506,-9.404425,0.800085,47.716442,-0.7975981,-1.9466331,-3.416947,-0.35291094,0.02275435,-0.34883106,27.9375,29.125,28.25,31.9375,34.0,34.9375
0.10005195,-1.0173405,-0.8486403,-0.32939193,-0.031698596,0.04189526,-0.17686504,-0.37513196,-0.32782438,0.05994563,-3.0785716,0.6244774,-0.00021902935,-0.04759904,0.0060815294,0.0032092303,-0.0020522648,0.0053530177,0.00040651744,0.44538394,-1.4675815,2.005881,-2.1073163,-1.5706857,2.42005,-0.053990714,0.0660679,-0.082446486,0.010656266,-0.0006214073,-0.054339673,-0.24899697,0.2681506,-9.461885,0.8179876,47.704796,-0.8488256,-1.9449782,-3.2942686,-0.34603897,0.014260732,-0.42411405,27.9375,29.125,28.25,31.9375,34.0,34.9375
0.10205213,-1.39444,-0.91953355,-0.35862026,-0.030552484,0.030647492,-0.18004267,-0.37520975,-0.3278195,0.059931833,-3.0785613,0.62455016,-0.00027403928,-0.04742916,0.006144096,0.0022117952,-0.0011808248,0.0035703834,0.0031541844,0.44528806,-1.4674252,2.005738,-2.1073043,-1.5706614,2.4200008,-0.053928223,0.06818281,-0.0824733,0.01055328,-0.00064207305,-0.057024438,-0.2681506,0.28730422,-9.461885,0.78888994,47.691364,-0.924557,-1.9393305,-3.128153,-0.35185367,0.016061055,-0.4331263,27.9375,29.125,28.25,31.9375,34.0,34.9375
0.10405235,-1.1309068,-0.79133713,-0.5176072,-0.023850465,0.022260996,-0.17498095,-0.37533957,-0.3278045,0.059962004,-3.0786037,0.6245585,-0.00018368773,-0.04893607,0.006842808,0.001973305,-0.001099653,0.003470744,0.0030664585,0.44514313,-1.4673046,2.0055335,-2.1072924,-1.5706619,2.4198558,-0.056556642,0.07015279,-0.08403655,0.010271086,-0.0006724069,-0.05956382,-0.15322891,0.3256114,-9.442732,0.69937176,47.699425,-0.8922881,-1.9801226,-3.2831426,-0.3373167,0.015540924,-0.45087856,27.9375,29.125,28.25,31.9375,34.0,34.9375
0.106051825,-1.0457412,-0.6360562,-0.55132395,-0.02007324,0.016820295,-0.1776353,-0.37543938,-0.32780585,0.059973784,-3.0786273,0.6245621,-0.0001673859,-0.049519792,0.006480843,0.002062874,-0.0011565592,0.0035797383,0.0056181257,0.4450472,-1.4671603,2.0053422,-2.107268,-1.5706495,2.4197593,-0.056388643,0.071533605,-0.08583857,0.010569788,-0.00066998956,-0.061946325,-0.11492168,0.2681506,-9.423578,0.8314132,47.701214,-0.85694456,-2.0153003,-3.168654,-0.35465002,0.019688878,-0.46019167,27.9375,29.125,28.25,31.9375,34.0,34.9375
0.108052574,-0.8396852,-0.72914284,-0.34109998,-0.0069209966,0.00924227,-0.17265369,-0.37554303,-0.32776406,0.05995945,-3.0785723,0.6244907,-0.00015344155,-0.050205693,0.0054753916,0.0021623718,-0.0016317099,0.004613822,0.010906149,0.4449158,-1.4669923,2.005185,-2.1072447,-1.5707096,2.4195905,-0.055085417,0.073464036,-0.08799283,0.009651241,-0.00069549883,-0.065929234,-0.076614454,0.22984336,-9.385271,0.82694155,47.709274,-1.0699192,-1.9886469,-3.23563,-0.3395549,0.016305272,-0.46784058,27.9375,29.125,28.25,31.9375,34.0,34.9375
0.110051736,-0.80863345,-0.29926828,-0.18495764,-0.011724134,0.0064332564,-0.17310868,-0.3756426,-0.32774338,0.059955414,-3.0785606,0.6244665,-0.00015699684,-0.051594872,0.0055165035,0.002155183,-0.00209357,0.0055088773,0.013417696,0.44479528,-1.4668357,2.0050166,-2.1072214,-1.5707215,2.4194565,-0.056412853,0.07523755,-0.08969207,0.008568552,-0.0006710268,-0.06976668,-0.05746084,0.19153613,-9.308656,0.76874626,47.686886,-1.0280209,-1.9629364,-3.1825485,-0.31354123,0.018300846,-0.45106056,27.9375,29.125,28.25,31.9375,34.0,34.9375
0.112051845,-1.0191447,-0.4537082,-0.5836909,-0.009327451,-0.0050471295,-0.17240243,-0.3757413,-0.32777783,0.059978917,-3.0786748,0.62437266,-0.00015198026,-0.05334215,0.006009548,0.0029409232,-0.0028048335,0.0070439037,0.016199823,0.44472232,-1.466692,2.0048015,-2.107209,-1.5706495,2.4193106,-0.05888026,0.075497895,-0.09183315,0.008761952,-0.0006901014,-0.075014986,0.019153614,0.2681506,-9.404425,0.8157518,47.694946,-1.053709,-2.0719156,-3.1919723,-0.31421742,0.011278313,-0.4188133,27.9375,29.125,28.25,31.9375,34.0,34.9375
0.1140517,-0.48012102,-0.3729327,-0.35301656,-0.009904286,0.008345512,-0.18022174,-0.37586528,-0.32774356,0.05996467,-3.0786505,0.6244034,-0.00015723561,-0.0530642,0.0058248225,0.001258848,-0.0011971697,0.003758189,0.022289673,0.44455472,-1.466499,2.0046217,-2.107209,-1.5706619,2.4191654,-0.058234356,0.07970562,-0.092695475,0.009072643,-0.0007306073,-0.0804578,0.038307227,0.22984336,-9.404425,0.7463667,47.66539,-1.0657561,-1.994344,-3.1899242,-0.31139714,0.004488728,-0.37609792,27.9375,29.125,28.25,31.9375,34.0,34.9375
0.11605188,-1.1800015,-0.556648,-0.41393462,-0.010831786,-0.0075233895,-0.16797249,-0.37596884,-0.32772455,0.05998842,-3.0786736,0.6242123,-6.466908e-05,-0.054073296,0.005900733,0.0024204424,-0.0023943658,0.006219846,0.026644137,0.44445828,-1.4663916,2.004441,-2.1071732,-1.5707101,2.418947,-0.059280224,0.07819285,-0.09363294,0.00878058,-0.00070847577,-0.085857816,-0.038307227,0.17238252,-9.32781,0.8291774,47.67166,-1.1448565,-2.0296974,-3.1928334,-0.306669,-0.013121654,-0.3265518,27.9375,29.125,28.25,31.9375,34.0,34.9375
0.11805312,-1.2114354,-0.5068235,-0.36307767,-0.010180547,0.0055267,-0.17737053,-0.37605026,-0.32769513,0.059959862,-3.0786505,0.624168,-0.0001930852,-0.055260986,0.0062020933,0.0030221737,-0.0026657905,0.006800639,0.030363133,0.4443137,-1.4662117,2.0042975,-2.1071255,-1.5706862,2.4187777,-0.060884964,0.078636065,-0.09575027,0.009814759,-0.00072297757,-0.09118047,-0.076614454,0.17238252,-9.3661175,0.80679786,47.672558,-1.1045191,-1.9280242,-3.1455479,-0.30922443,0.0026348643,-0.25781363,27.9375,29.125,28.25,31.9375,34.0,34.9375
0.12005205,-0.5971918,-0.37113917,-0.41925442,-0.012309111,0.023520645,-0.18651995,-0.37620068,-0.32767776,0.05998345,-3.0786765,0.6241143,-7.125549e-05,-0.055517476,0.0065594446,0.0010233077,-0.0008364437,0.0027999303,0.03272117,0.44416958,-1.4660422,2.0040567,-2.107125,-1.5707215,2.418597,-0.0618104,0.08378736,-0.09695742,0.010265025,-0.0006504075,-0.094462745,-0.05746084,0.19153613,-9.404425,0.8537928,47.70838,-1.188154,-2.1768904,-3.2607813,-0.305519,-0.00403065,-0.2210266,27.9375,29.125,28.25,31.9375,34.0,34.9375
0.12205219,-0.9952788,-0.5568254,-0.42603216,-0.0059656524,0.020854803,-0.18121564,-0.3762847,-0.32769462,0.059974458,-3.0787506,0.6239555,-0.00014370005,-0.05600897,0.0069432077,0.001715082,-0.001473326,0.003974995,0.03344957,0.4440851,-1.4658632,2.0038774,-2.1071126,-1.5706614,2.418404,-0.06299965,0.082345866,-0.09700624,0.010425763,-0.00058123766,-0.096380785,-0.11492168,0.17238252,-9.289502,0.80679786,47.723602,-1.1594453,-1.8804107,-3.3056226,-0.30480242,-0.02266531,-0.15141326,27.9375,29.125,28.25,31.9375,34.0,34.9375
0.12405187,-1.074452,-0.39402595,-0.4190589,0.00048889976,0.019314492,-0.17422742,-0.37640405,-0.327681,0.059991077,-3.0787895,0.62386847,-0.00010091852,-0.057154555,0.007534824,0.000952546,-0.00075260026,0.0023304273,0.031409476,0.44395226,-1.4657184,2.0036743,-2.1070888,-1.5706614,2.4182122,-0.06515384,0.08551499,-0.0988734,0.010918265,-0.0005247354,-0.09649355,-0.19153613,0.15322891,-9.289502,0.8090337,47.695843,-1.1318183,-2.0263395,-3.3064628,-0.2963298,-0.002423271,-0.16055053,27.9375,29.125,28.25,31.9375,34.0,34.9375
0.12605207,-1.6684132,-0.17072643,-0.42441288,0.011787268,0.013179009,-0.168714,-0.37654436,-0.32768846,0.060014304,-3.0788598,0.62378764,-2.2900529e-05,-0.057649724,0.007615184,0.0006223024,-0.00065836497,0.002207494,0.029434858,0.44383213,-1.4655381,2.0034225,-2.1070888,-1.5706495,2.418033,-0.06570368,0.086799584,-0.099410646,0.010323857,-0.0005521982,-0.09506811,-0.19153613,0.15322891,-9.308657,0.86945957,47.709274,-1.154155,-2.044951,-3.3626857,-0.28970045,-0.029570978,-0.15349002,27.9375,29.125,28.25,31.9375,34.0,34.9375
0.12805218,-1.1033595,0.36928856,-0.41165465,0.005845622,0.029914895,-0.17902105,-0.37664196,-0.3276409,0.059998717,-3.0788167,0.62366545,-3.715123e-05,-0.0602413,0.007237154,0.0019357833,-0.0021031841,0.005246799,0.025243787,0.44368768,-1.465382,2.003278,-2.107053,-1.5706977,2.4178178,-0.067290284,0.088171355,-0.10388382,0.0100559145,-0.0005658168,-0.09246069,-0.30645782,0.11492168,-9.308656,0.7665104,47.66271,-1.144985,-2.0721407,-3.216372,-0.28623465,-0.034991536,-0.15460259,27.9375,29.125,28.25,31.9375,34.0,34.9375
0.13005239,-1.4173169,0.05341877,-0.52277434,0.007137835,0.029639153,-0.17226434,-0.37677252,-0.3276221,0.060006093,-3.0788176,0.6236118,-2.7182772e-05,-0.0590217,0.008369928,0.0003527182,-0.0003235635,0.0014628711,0.018781573,0.44354326,-1.46519,2.0030386,-2.107005,-1.5707096,2.41764,-0.06830996,0.08890434,-0.101271264,0.010891715,-0.00054029824,-0.0870199,-0.40222588,0.15322891,-9.3661175,0.75084364,47.651955,-1.1716406,-1.9795408,-3.4931703,-0.28481755,-0.032426596,-0.22564113,27.9375,29.125,28.25,31.9375,34.0,34.9375
0.13205187,-1.1143696,-0.011052787,-0.42705882,0.011940632,0.045966152,-0.18228398,-0.3769013,-0.32762817,0.06002497,-3.0788834,0.6235669,2.5244573e-05,-0.061047293,0.007795338,0.0014150614,-0.001307087,0.0034130355,0.017972106,0.44342303,-1.4650217,2.0028098,-2.1070044,-1.5706857,2.4174836,-0.06905568,0.09060728,-0.10572656,0.011462455,-0.0004913517,-0.08695355,-0.4213795,0.1340753,-9.32781,0.84484416,47.70211,-1.1415701,-2.0000005,-3.3370457,-0.28136218,-0.03816227,-0.25278214,27.9375,29.125,28.25,31.9375,34.0,34.9375
0.13405244,-1.5062886,0.02170051,-0.42418274,-0.0013928091,0.047461063,-0.17941964,-0.3770039,-0.32760233,0.05999666,-3.07886,0.62345064,-4.07551e-05,-0.060638614,0.008795805,0.00059993187,-0.00031635916,0.0013145044,0.012972572,0.44329056,-1.4648061,2.0026314,-2.1069806,-1.5706977,2.4172816,-0.07054501,0.09083653,-0.10427754,0.012104388,-0.0004859571,-0.08344437,-0.40222588,0.11492168,-9.423578,0.7933669,47.694946,-1.1721061,-1.9197352,-3.472736,-0.27988514,-0.054489464,-0.29092675,27.9375,29.125,28.25,31.9375,34.0,34.9375
0.13605167,-0.9487317,0.11702003,-0.441274,-0.005157147,0.06499773,-0.19049494,-0.377123,-0.32762095,0.06002781,-3.0789587,0.6234312,-3.5558736e-05,-0.061270818,0.009248985,-0.0011636101,0.0011725104,-0.001828455,0.012353346,0.44317016,-1.4646606,2.0023916,-2.1069448,-1.5706257,2.4171367,-0.07193958,0.09565261,-0.10554442,0.012038867,-0.00048117782,-0.08421825,-0.34476504,0.0,-9.461885,0.7978386,47.70032,-1.1567369,-2.0764458,-3.4928114,-0.26929277,-0.042244226,-0.34582353,27.9375,29.125,28.25,31.9375,34.0,34.9375
0.1380519,-1.2682357,-0.33430877,-0.4529473,0.004999349,0.05741169,-0.17664729,-0.37724674,-0.32756212,0.060013022,-3.0788918,0.6234176,-2.2248643e-05,-0.06279922,0.009580493,0.0007444521,-0.0006319218,0.0020334856,0.012336254,0.4429895,-1.4644823,2.0022233,-2.1069205,-1.5706857,2.4169562,-0.07387659,0.0927917,-0.106726244,0.01181369,-0.000512885,-0.08613783,-0.49799395,0.038307227,-9.442732,0.83365434,47.68062,-1.2177702,-1.7937696,-3.5226107,-0.2618255,-0.053793907,-0.33007056,27.9375,29.125,28.25,31.9375,34.0,34.9375
0.14005198,-1.5951074,0.3208375,-0.45161918,-0.0013855265,0.04801142,-0.18370034,-0.37740037,-0.3275455,0.06003047,-3.0789099,0.6234034,7.751538e-06,-0.06438858,0.009785766,0.00029780532,-9.511049e-05,0.0009671609,0.010739159,0.44282073,-1.4642771,2.0019462,-2.1068728,-1.5706857,2.4167764,-0.07562948,0.096568786,-0.11005741,0.012561336,-0.0005439732,-0.08629128,-0.45968673,0.019153614,-9.442732,0.8157518,47.684196,-1.1389353,-1.8926802,-3.4252744,-0.2717951,-0.062515594,-0.3478135,27.9375,29.125,28.25,31.9375,34.0,34.9375
0.14205211,-1.2348543,0.5560122,-0.50205696,0.0051546395,0.052219708,-0.18214704,-0.3774941,-0.32753462,0.060009737,-3.078926,0.6233091,-6.164127e-05,-0.06460251,0.010822175,2.9195664e-05,0.00048886734,0.0005641451,0.011260704,0.44270033,-1.4640857,2.0017798,-2.1068609,-1.5706619,2.4165952,-0.07749857,0.096171826,-0.1090159,0.012534102,-0.00090033613,-0.088682026,-0.45968673,-0.05746084,-9.519346,0.7396539,47.693153,-1.1906435,-1.8570282,-3.6402092,-0.27685043,-0.06416498,-0.37051624,27.9375,29.125,28.25,31.9375,34.0,34.9375
0.14405182,-1.3491087,0.6297974,-0.34046668,-0.00091966486,0.04883877,-0.18096483,-0.3776182,-0.32751253,0.060004275,-3.0789268,0.62336916,-9.8982826e-05,-0.06694159,0.010310606,0.0011645673,-0.0005809484,0.002886339,0.009143484,0.44253188,-1.4638935,2.0015748,-2.1068366,-1.5706381,2.4164643,-0.078574896,0.09803217,-0.11376342,0.012866943,-0.000938147,-0.08763811,-0.4405331,0.038307227,-9.442732,0.79560274,47.70659,-1.1791596,-1.819684,-3.4022007,-0.2550938,-0.06409472,-0.38265592,27.9375,29.125,28.25,31.9375,34.0,34.9375
0.14605246,-2.0162349,-0.116421156,-0.5479461,0.006767378,0.040282194,-0.17619386,-0.37781778,-0.32748526,0.060047865,-3.0789564,0.62329763,0.00011902105,-0.06902899,0.011181346,0.0013508896,-0.00057855604,0.0035331282,0.008630732,0.44235083,-1.463701,2.0012624,-2.1068366,-1.5707101,2.4162352,-0.081842534,0.09984106,-0.116215624,0.012920824,-0.0012113763,-0.090391025,-0.47884035,0.17238252,-9.461885,0.7866488,47.691364,-1.0977147,-1.8808804,-3.5332155,-0.24191579,-0.059062526,-0.40879226,27.9375,29.125,28.25,31.9375,34.0,34.9375
0.14805265,-1.8618621,-0.11416259,-0.640862,-0.0019332517,0.055947766,-0.18098548,-0.37790382,-0.32746026,0.060014024,-3.0789285,0.6232303,1.8334008e-06,-0.06963331,0.0105572445,0.001455197,-0.0005570339,0.0040562144,0.015633537,0.44221902,-1.4634968,2.0011065,-2.1068008,-1.5706981,2.416065,-0.08101828,0.10148463,-0.11827899,0.012877854,-0.0014671332,-0.09656762,-0.49799395,0.13407528,-9.5385,0.83589023,47.707485,-1.0074925,-1.628376,-3.4251235,-0.23358625,-0.091059625,-0.34782195,27.9375,29.125,28.25,31.9375,34.0,34.9375
0.15005195,-2.2150168,-0.58790505,-0.67472744,-0.010677904,0.058136057,-0.17642848,-0.37803373,-0.3274431,0.060023878,-3.0789423,0.623173,-2.6187903e-05,-0.07053901,0.010805776,0.0008762172,7.783718e-05,0.0026240458,0.018517522,0.44206274,-1.463304,2.0008547,-2.1067288,-1.5706862,2.4158714,-0.08228347,0.10438629,-0.12033976,0.013603236,-0.0014322777,-0.10071541,-0.36391866,0.19153613,-9.5385,0.9321212,47.686886,-1.1543057,-1.8001935,-3.4011397,-0.23547627,-0.05251342,-0.34834558,27.9375,29.125,28.25,31.9375,34.0,34.9375
0.15205227,-1.6830325,-0.57873386,-0.7544601,-0.032071684,0.07758888,-0.1919268,-0.3782098,-0.32743654,0.060051423,-3.0790355,0.6231152,4.5001976e-05,-0.07294798,0.012446782,0.0014812974,-0.0004274025,0.0035607868,0.019785326,0.44186893,-1.4631004,2.0005667,-2.1067288,-1.57065,2.4156299,-0.08749937,0.10469112,-0.1221938,0.014092045,-0.0013704468,-0.10719839,-0.47884035,0.21068975,-9.557653,0.8560339,47.690468,-0.95601153,-1.65523,-3.388993,-0.25606453,-0.07983922,-0.27646786,27.9375,29.125,28.25,31.9375,34.0,34.9375
0.15405214,-1.9690721,-1.0639138,-0.7820989,-0.029404527,0.06703646,-0.18104033,-0.37832108,-0.3273958,0.060033023,-3.0789719,0.62298083,-1.6486516e-05,-0.07293309,0.011561514,0.001205082,-9.148066e-05,0.0030318103,0.02812959,0.44172567,-1.4628841,2.0003507,-2.1066444,-1.5706981,2.415411,-0.08574023,0.106762074,-0.12393534,0.014378306,-0.0014605894,-0.11378203,-0.45968673,0.24899697,-9.615114,0.7978386,47.670765,-1.0833807,-1.7127912,-3.3967204,-0.24886563,-0.089172676,-0.21649873,27.9375,29.125,28.25,31.9375,34.0,34.9375
0.15605216,-1.9391419,-0.6990419,-0.7963894,-0.03748791,0.058108423,-0.17961887,-0.37853825,-0.32737258,0.060072377,-3.079048,0.6229576,0.00015994889,-0.07516894,0.012246574,0.0014505808,-0.0003664848,0.0043639923,0.030307837,0.44149658,-1.4626678,2.0000274,-2.1066692,-1.5707101,2.415158,-0.08874841,0.10861535,-0.126404,0.013670334,-0.0017724878,-0.118966304,-0.51714754,0.24899697,-9.461885,0.800085,47.664497,-0.98557425,-1.7618728,-3.3608565,-0.23636049,-0.09336125,-0.121752664,27.9375,29.125,28.25,31.9375,34.0,34.9375
0.15805228,-1.5633769,-1.0268569,-0.80750996,-0.027164124,0.06324793,-0.17889345,-0.3786571,-0.32734773,0.060051978,-3.0790467,0.62287945,6.1402185e-05,-0.07612114,0.012714763,0.0016747266,-0.00043129615,0.0050545693,0.030767316,0.4413281,-1.4624403,1.999812,-2.106621,-1.5706862,2.414941,-0.09027209,0.10895312,-0.12729223,0.013571884,-0.0020176074,-0.120948434,-0.53630114,0.2681506,-9.500193,0.8605109,47.687782,-0.931327,-1.6194547,-3.3937716,-0.2134626,-0.08202504,-0.08172003,27.9375,29.125,28.25,31.9375,34.0,34.9375
0.1600525,-1.6027982,-0.5219308,-0.9314261,-0.024638891,0.05106228,-0.1770878,-0.37881574,-0.3273116,0.060050625,-3.0790286,0.62276214,0.0001327294,-0.07709461,0.012811238,0.00090856646,0.00085586193,0.004238834,0.029227432,0.44115984,-1.4622111,1.9995593,-2.106609,-1.5707468,2.4147022,-0.09072963,0.11245918,-0.12941086,0.013467319,-0.00283568,-0.11986309,-0.5554548,0.22984336,-9.519346,0.7463667,47.68062,-0.93441683,-1.8973604,-3.4271035,-0.20612958,-0.09674865,-0.057378557,27.9375,29.125,28.25,31.9375,34.0,34.9375
0.16205195,-1.0766857,-0.4724685,-0.5437462,-0.022528462,0.06257151,-0.18022718,-0.37895876,-0.32728884,0.060046796,-3.0790505,0.622618,0.000116514646,-0.07911458,0.014904268,0.0007231029,0.0012025504,0.004000933,0.02046469,0.44098988,-1.4619837,1.9993085,-2.1065733,-1.5707468,2.4144397,-0.09625776,0.11334936,-0.13001138,0.013541883,-0.0030494528,-0.1166277,-0.47884035,0.24899697,-9.5385,0.7866488,47.679718,-0.69719565,-1.637943,-3.4192154,-0.20455353,-0.08926859,-0.0874734,27.9375,29.125,28.25,31.9375,34.0,34.9375
0.16405222,-1.3730278,-0.7586991,-0.5908014,-0.0094009675,0.05036737,-0.17755379,-0.3791394,-0.3272727,0.060078464,-3.0791357,0.62259704,0.00018702353,-0.08011351,0.013585593,0.0013792231,0.00029292004,0.005790072,0.017975777,0.4407747,-1.4617912,1.9990205,-2.1065614,-1.5707105,2.4142008,-0.0946666,0.1150464,-0.13332126,0.013152726,-0.0029876581,-0.112545714,-0.40222588,0.22984336,-9.3661175,0.85826975,47.70032,-0.828967,-1.8601311,-3.2212243,-0.19102731,-0.083603896,-0.120199844,27.9375,29.125,28.25,31.9375,34.0,34.9375
0.16605262,-1.2749033,-0.18490247,-0.40645236,-0.0071812416,0.047509417,-0.18341017,-0.37930703,-0.3272553,0.060076524,-3.0791354,0.62256324,0.00017071933,-0.08218332,0.014803626,0.0011266829,0.00037247367,0.0050809174,0.009992798,0.4405931,-1.461515,1.9987086,-2.1065133,-1.5707105,2.4139984,-0.09888767,0.11752986,-0.1356342,0.013657005,-0.0027614383,-0.10878257,-0.3256114,0.21068975,-9.289502,0.7709874,47.690468,-0.7012595,-1.7571421,-3.3652744,-0.1777991,-0.0770679,-0.16594037,27.9375,29.125,28.25,31.9375,34.0,34.9375
0.16805193,-0.9106935,0.3745282,-0.23079532,-0.013803998,0.056769367,-0.18221788,-0.37949643,-0.32722604,0.060094547,-3.0791788,0.6225526,0.0002857235,-0.081792794,0.014107658,0.0005980189,0.00092605274,0.0042754174,0.007912657,0.44037807,-1.4612988,1.998434,-2.1065376,-1.5707225,2.4137714,-0.09708382,0.11922248,-0.13630596,0.013600314,-0.0029107467,-0.10489798,-0.38307226,0.22984336,-9.270349,0.7978386,47.691364,-0.79573524,-1.804491,-3.3610768,-0.15958714,-0.07416229,-0.23367926,27.9375,29.125,28.25,31.9375,34.0,34.9375
0.17005198,-0.95659614,0.14469282,-0.19092067,0.0013278207,0.04974286,-0.18115874,-0.37962565,-0.32719502,0.06007464,-3.0791423,0.622527,0.00016872994,-0.08281719,0.014246295,0.00042893627,0.0017574973,0.004106763,0.006814689,0.4401976,-1.4610466,1.9981812,-2.1064532,-1.570711,2.4135797,-0.09774728,0.12147885,-0.13855919,0.014107382,-0.0036029143,-0.104460746,-0.3256114,0.17238252,-9.232041,0.7866488,47.716442,-0.8239322,-1.7956192,-3.3396091,-0.15197833,-0.09965436,-0.2548725,27.9375,29.125,28.25,31.9375,34.0,34.9375
0.17205215,-1.1742984,0.22615473,-0.21614517,0.015936503,0.0475691,-0.17945303,-0.37983695,-0.32715595,0.060094,-3.0791352,0.6225855,0.00030341482,-0.084272064,0.01453238,0.001011439,0.002536438,0.0061516813,0.0030402422,0.4399694,-1.4607947,1.9978584,-2.1064537,-1.5707592,2.4133892,-0.098455064,0.122268684,-0.1407739,0.014014521,-0.005175636,-0.101390764,-0.34476504,0.19153613,-9.136273,0.8537928,47.71554,-0.8765702,-1.8210459,-3.325064,-0.1285696,-0.0601701,-0.33430997,27.9375,29.125,28.25,31.9375,34.0,34.9375
0.17405257,-0.48862267,0.82298577,-0.19335067,0.013226268,0.057905484,-0.19024141,-0.38000774,-0.32712558,0.06009441,-3.0791757,0.62253356,0.00033517746,-0.08409719,0.014967194,-0.0012653025,0.006413204,0.0021769742,0.004512733,0.43975377,-1.4605649,1.9976057,-2.1064646,-1.5707482,2.4131362,-0.097847685,0.12779582,-0.1418959,0.014862797,-0.006987462,-0.102252334,-0.2681506,0.05746084,-9.308657,0.84484416,47.684196,-0.9445985,-1.9767011,-3.2294652,-0.12654932,-0.039570272,-0.332511,27.9375,29.125,28.25,31.9375,34.0,34.9375
0.1760518,-1.3221669,0.36307546,-0.16920285,0.016700696,0.02738851,-0.17470777,-0.38019025,-0.32712448,0.060115404,-3.079195,0.6225401,0.00040644966,-0.08586149,0.01416942,0.0008101681,0.004526683,0.005963978,0.0014272291,0.43959764,-1.460302,1.9972585,-2.1064289,-1.5707597,2.412982,-0.09792811,0.12684149,-0.14575747,0.015447086,-0.0068944753,-0.09924586,-0.24899697,0.17238252,-9.251195,0.8112748,47.667187,-1.0038728,-1.9180716,-3.2347064,-0.100170106,-0.024238344,-0.43728197,27.9375,29.125,28.25,31.9375,34.0,34.9375
0.17805202,-0.74791616,0.017036872,-0.23677021,0.008005262,0.030464258,-0.17925796,-0.38034162,-0.32707185,0.060098868,-3.0791478,0.62252957,0.00036719002,-0.0851286,0.014747431,-0.001077336,0.006520156,0.0018521317,0.0025032416,0.43938157,-1.4600613,1.9970192,-2.1063812,-1.570784,2.4127655,-0.09827581,0.12991174,-0.14504138,0.016226046,-0.006950184,-0.10066937,-0.11492168,0.19153613,-9.174581,0.83589023,47.701214,-1.1133507,-2.0383244,-3.4035184,-0.11015974,-0.022192948,-0.46881092,27.9375,29.125,28.25,31.9375,34.0,34.9375
0.18005237,-0.67628217,-0.23798786,-0.31487244,-0.0051742867,0.014238419,-0.18255495,-0.38055032,-0.32706577,0.060140293,-3.0792391,0.6224868,0.0005052169,-0.08546807,0.014757765,-0.0013283427,0.0072103506,0.0011910716,0.0064813164,0.43917754,-1.4598331,1.9966716,-2.1063807,-1.570772,2.4125235,-0.09831149,0.13143899,-0.14633608,0.016885428,-0.007282449,-0.10468279,-0.095768064,0.22984336,-9.212888,0.8537928,47.705692,-1.1233723,-1.9895169,-3.3898196,-0.09575403,-0.008396336,-0.49275962,27.9375,29.125,28.25,31.9375,34.0,34.9375
0.18205239,-0.35609522,0.002092617,-0.1942872,-0.027226713,0.0059045735,-0.18665095,-0.38070163,-0.32701507,0.06011181,-3.0791838,0.6223967,0.000446136,-0.08655859,0.015121295,-0.001280519,0.0068804515,0.0004847605,0.011325863,0.43897292,-1.4595573,1.9964203,-2.106332,-1.5708078,2.4122698,-0.1003022,0.13292925,-0.1483663,0.017915348,-0.0066926824,-0.111517236,-0.019153614,0.22984336,-9.136273,0.83813137,47.71465,-1.0924059,-1.9604231,-3.3384972,-0.11882168,-0.0019090847,-0.43947726,27.9375,29.125,28.25,31.9375,34.0,34.9375
0.18405245,-0.082328945,-0.6180592,-0.24750058,-0.02511674,-0.0057856874,-0.18396455,-0.38090208,-0.32699642,0.06012763,-3.0792077,0.62237704,0.00051564665,-0.08739784,0.014835849,-0.0007419427,0.005572786,0.00086134585,0.0190229,0.43876857,-1.4592816,1.9960731,-2.1063077,-1.5708193,2.4120505,-0.101137646,0.13340273,-0.15028186,0.018452283,-0.0056653307,-0.12005039,0.076614454,0.24899697,-9.097966,0.80456203,47.70838,-1.0966808,-1.9471736,-3.3558133,-0.099397436,-0.02103841,-0.41734564,27.9375,29.125,28.25,31.9375,34.0,34.9375
0.1860526,0.35032955,-0.26255375,-0.24106155,-0.031902906,-0.005446056,-0.18773432,-0.38107446,-0.32694286,0.060108405,-3.0791574,0.6223056,0.00047433277,-0.08799293,0.014746834,-0.0008589229,0.004462198,-0.00032026912,0.02570012,0.43854025,-1.4589937,1.9957846,-2.1062481,-1.570855,2.4117842,-0.1024456,0.13480577,-0.15175582,0.019107956,-0.0041661067,-0.12803642,0.076614454,0.3256114,-9.11712,0.8291774,47.72002,-1.057006,-1.8703287,-3.307964,-0.08347582,-0.017261505,-0.3230024,27.9375,29.125,28.25,31.9375,34.0,34.9375
0.18805167,0.009228719,-0.4185824,-0.2952809,-0.023045236,-0.013214854,-0.18042786,-0.38123032,-0.32693106,0.06010509,-3.079204,0.62219614,0.00039608273,-0.088426806,0.014638409,-0.001009658,0.0041172723,-0.0015826414,0.03104844,0.43834803,-1.4587294,1.9954857,-2.106188,-1.5708064,2.4115179,-0.10313948,0.13636322,-0.15342444,0.020216564,-0.0033220574,-0.13407883,0.0,0.28730422,-9.11712,0.80456203,47.693153,-1.0889534,-1.8771985,-3.340981,-0.09031041,-0.029070564,-0.24568057,27.9375,29.125,28.25,31.9375,34.0,34.9375
0.19005178,0.33282778,-0.1688688,-0.43782622,-0.014838979,-0.0009255793,-0.19097061,-0.3814061,-0.32690474,0.06009962,-3.0792303,0.6220661,0.0003932352,-0.088662,0.015103326,-0.0014349079,0.0037768255,-0.0033760832,0.03299919,0.43814355,-1.4584538,1.9951872,-2.1061637,-1.5708059,2.4112291,-0.10487485,0.13731863,-0.15373603,0.021046981,-0.002252116,-0.13776638,0.05746084,0.28730422,-9.078813,0.8627467,47.692257,-1.186711,-1.7386308,-3.4003263,-0.07309662,-0.033802312,-0.19243822,27.9375,29.125,28.25,31.9375,34.0,34.9375
0.19205181,-0.16974863,0.020069653,-0.55124116,-0.016204553,-0.011382248,-0.17950684,-0.3815713,-0.3268669,0.060087137,-3.0792186,0.62187135,0.00038162453,-0.08926404,0.014626609,-0.0018431601,0.003848827,-0.0046852212,0.0336681,0.43795148,-1.4581773,1.9948982,-2.1061156,-1.5708421,2.4109173,-0.10478609,0.14026198,-0.15628806,0.021864556,-0.001771486,-0.13834548,0.076614454,0.4213795,-9.251195,0.77545905,47.685097,-1.0332415,-1.8818213,-3.2960494,-0.08975683,-0.05408503,-0.17778409,27.9375,29.125,28.25,31.9375,34.0,34.9375
0.19405212,-0.19337454,-0.2010822,-0.5091672,-0.02735481,-0.00036027774,-0.1821566,-0.38176656,-0.32683894,0.06009683,-3.079231,0.62183785,0.00042306553,-0.09170992,0.0141433375,0.001236346,0.00082201493,0.0012400126,0.028430087,0.4377353,-1.4579028,1.9945635,-2.1060798,-1.5708541,2.4106789,-0.10612009,0.13726833,-0.16008829,0.022007378,-0.0015477511,-0.13444023,-0.05746084,0.24899697,-9.212888,0.82694155,47.6636,-1.2825463,-1.7393185,-3.4398232,-0.07746185,-0.03231469,-0.19080514,27.9375,29.125,28.25,31.9375,34.0,34.9375
0.19605234,-0.7920051,-0.5236654,-0.69249505,-0.025078146,0.0060052588,-0.17124924,-0.38192874,-0.32680374,0.060074784,-3.079208,0.62177944,0.00031800166,-0.09140753,0.014714309,-0.00034201494,0.002342141,-0.002326434,0.022521105,0.4375188,-1.4576019,1.9942635,-2.1060069,-1.5708421,2.410429,-0.10694967,0.14024489,-0.1600023,0.022821927,-0.0014214962,-0.12936078,-0.095768064,0.24899697,-9.232041,0.84484416,47.672558,-1.069617,-1.8847663,-3.4353476,-0.08556947,-0.039790675,-0.23029181,27.9375,29.125,28.25,31.9375,34.0,34.9375
0.19805239,-0.3230201,-0.2731382,-0.9201497,-0.015114141,0.030271726,-0.18109456,-0.38212076,-0.32676974,0.060100645,-3.079213,0.6218013,0.0003990594,-0.09213067,0.0151580805,-0.00037032028,0.002432825,-0.0031641924,0.017832385,0.4373024,-1.4573742,1.9939407,-2.1059587,-1.570866,2.4102259,-0.108536325,0.1413278,-0.161429,0.023959812,-0.0011441266,-0.12625855,0.019153614,0.19153613,-9.346964,0.842603,47.71017,-1.1098707,-1.6347461,-3.3874946,-0.09308237,-0.05052489,-0.31194934,27.9375,29.125,28.25,31.9375,34.0,34.9375
0.20005241,-1.1861413,-0.47340348,-0.79088575,-0.001186579,0.0146351,-0.17635909,-0.38231546,-0.32675195,0.06010004,-3.0792751,0.6216804,0.0003813548,-0.09373103,0.014917028,0.00038330563,0.0018138788,-0.0018863067,0.016627952,0.43707415,-1.4570745,1.9936041,-2.1059349,-1.5708302,2.4099145,-0.10943479,0.14268175,-0.16484544,0.024606979,-0.0011293899,-0.12595071,-0.019153614,0.13407528,-9.5385,0.91421866,47.698532,-1.1550555,-1.6596901,-3.4162347,-0.088390335,-0.054187343,-0.36217588,27.9375,29.125,28.25,31.9375,34.0,34.9375
0.20205258,-0.8843799,-0.34133628,-1.0535482,0.005611651,0.026992317,-0.17250288,-0.38248158,-0.32673103,0.060086012,-3.0792596,0.621621,0.00029012232,-0.09401856,0.016649924,-0.0008662819,0.0029271538,-0.004283245,0.0128135765,0.4368809,-1.4567626,1.9932708,-2.105851,-1.5708178,2.4096863,-0.11286295,0.14381774,-0.1632739,0.02454388,-0.0011291218,-0.12556522,-0.11492168,0.15322891,-9.519346,0.8537928,47.716442,-1.1217902,-1.6752628,-3.504431,-0.09554021,-0.060315266,-0.38524348,27.9375,29.125,28.25,31.9375,34.0,34.9375
0.2040525,-1.1758512,0.0006058546,-0.9961578,-0.0023295395,0.03817384,-0.17708443,-0.3826752,-0.3267005,0.06007962,-3.0792682,0.6215814,0.00028966164,-0.0942277,0.015224329,-0.0016753341,0.0036306162,-0.005311688,0.01686558,0.436654,-1.4564613,1.9929456,-2.105827,-1.5708178,2.4094338,-0.11018273,0.14816941,-0.16626562,0.024413629,-0.0013394549,-0.12693435,-0.21068975,0.095768064,-9.615114,0.8403672,47.698532,-1.2366731,-1.8650188,-3.440207,-0.09773274,-0.04783594,-0.3947152,27.9375,29.125,28.25,31.9375,34.0,34.9375
0.20605265,-1.0574832,-0.2147742,-1.3140186,-0.0022339013,0.064580195,-0.18556048,-0.38285145,-0.3266707,0.060072485,-3.0792606,0.62152565,0.00021719224,-0.09704553,0.016683226,-0.00061420986,0.0025610875,-0.0032229954,0.011503958,0.43643582,-1.4561625,1.9926108,-2.1057432,-1.5708059,2.409182,-0.11535803,0.1481535,-0.16875707,0.024577107,-0.0012655444,-0.12674679,-0.34476507,0.095768064,-9.768343,0.8179876,47.711964,-1.0618329,-1.6729944,-3.4337368,-0.09028142,-0.06221211,-0.43527174,27.9375,29.125,28.25,31.9375,34.0,34.9375
0.20805256,-1.6084708,-0.023428272,-1.3939587,-0.016587349,0.071660005,-0.18523903,-0.38304362,-0.3266414,0.06008695,-3.079282,0.6213703,0.00022639723,-0.096694395,0.015892116,-0.0009357818,0.0028293212,-0.004044157,0.020308407,0.43622074,-1.4558862,1.9922518,-2.1056592,-1.5708178,2.4088676,-0.113577165,0.14965536,-0.16982363,0.024995426,-0.0011642369,-0.13376987,-0.4213795,0.17238252,-9.825804,0.8851263,47.705692,-1.234617,-1.7775667,-3.5063639,-0.09788016,-0.060181968,-0.4040715,27.9375,29.125,28.25,31.9375,34.0,34.9375
0.21005169,-2.0396464,-0.5903427,-1.2134655,-0.022067742,0.08707012,-0.18683943,-0.38322544,-0.32657182,0.06006269,-3.0792267,0.6213173,0.00018354796,-0.09791257,0.016773192,-0.0016942465,0.0036294956,-0.005939751,0.025034567,0.43595597,-1.4555976,1.9919757,-2.1056116,-1.5708541,2.408577,-0.116261944,0.15269867,-0.1717153,0.02589239,-0.0011011054,-0.1411796,-0.49799395,0.15322891,-9.864111,0.8717007,47.693153,-1.1556108,-1.8978109,-3.469151,-0.11611599,-0.071995445,-0.33614898,27.9375,29.125,28.25,31.9375,34.0,34.9375
0.2120517,-2.1822667,-0.4815289,-1.0631602,-0.03316964,0.111325525,-0.18339217,-0.3834325,-0.32655057,0.060066372,-3.079247,0.62126136,0.00016891565,-0.098970495,0.017230658,-0.0024812366,0.004333806,-0.0075397417,0.030933324,0.43572715,-1.4552732,1.9915928,-2.105551,-1.5708421,2.408311,-0.117988154,0.15595229,-0.1736826,0.026352989,-0.001070058,-0.1488032,-0.59376204,0.095768064,-9.825804,0.7911258,47.677036,-1.109888,-1.8885032,-3.5166082,-0.12017462,-0.09968105,-0.24534395,27.9375,29.125,28.25,31.9375,34.0,34.9375
0.21405192,-2.1126173,-0.2875701,-1.1525588,-0.009593343,0.10663223,-0.18065026,-0.3836435,-0.32652462,0.060079094,-3.0793262,0.6211009,0.00023324053,-0.10085146,0.017766278,-0.0020867316,0.0037729298,-0.0061775343,0.03533402,0.43548635,-1.4549973,1.9912571,-2.1055515,-1.5708302,2.4079602,-0.12050886,0.15710741,-0.17579387,0.025837377,-0.0011352139,-0.15572314,-0.51714754,0.019153614,-9.825804,0.7933669,47.678825,-1.0480435,-2.0122917,-3.4218886,-0.12221672,-0.08298666,-0.16418934,27.9375,29.125,28.25,31.9375,34.0,34.9375
0.21605203,-2.4027529,-0.09348559,-1.1003137,-0.0036871037,0.08383886,-0.17081435,-0.38384312,-0.32650203,0.06005554,-3.0793324,0.6210051,0.00020361018,-0.10370881,0.017505614,-0.00091967726,0.0023836915,-0.002981501,0.036354672,0.4352698,-1.4546373,1.990908,-2.1055396,-1.5708302,2.4076834,-0.12237439,0.1589551,-0.18041249,0.025123967,-0.0012399128,-0.15860616,-0.61291564,0.0,-9.749189,0.84708,47.67166,-0.95008624,-1.9112101,-3.3949938,-0.10720292,-0.082213715,-0.12779334,27.9375,29.125,28.25,31.9375,34.0,34.9375
0.21805277,-1.6201962,0.19441563,-0.776363,-0.0061769546,0.091618195,-0.17818516,-0.38408467,-0.32646915,0.06009996,-3.0793855,0.6210197,0.00025483491,-0.10462469,0.017801564,-0.00082631654,0.0022332582,-0.0020654674,0.030745834,0.43498155,-1.4543617,1.9904779,-2.1054442,-1.5708059,2.4073977,-0.12346777,0.15956779,-0.18118171,0.02439217,-0.0014845841,-0.15408978,-0.7086837,-0.019153614,-9.653421,0.7642693,47.67345,-0.91979456,-1.9577007,-3.4826717,-0.08828038,-0.087055296,-0.12461975,27.9375,29.125,28.25,31.9375,34.0,34.9375
0.22005184,-1.6484315,0.43192703,-0.93131566,-0.00035718703,0.0818706,-0.17350249,-0.38426778,-0.32643452,0.06008496,-3.079396,0.6208138,0.0002197721,-0.10528764,0.01827557,-0.0015385324,0.0029609334,-0.003204298,0.024608137,0.43476522,-1.4540496,1.9901541,-2.1053965,-1.5708178,2.4070518,-0.1247341,0.1618121,-0.18209943,0.024404991,-0.001672858,-0.14921731,-0.7852981,0.11492168,-9.500193,0.7597976,47.686886,-0.9034509,-1.7917418,-3.4117365,-0.07367567,-0.09209736,-0.18379566,27.9375,29.125,28.25,31.9375,34.0,34.9375
0.22205172,-1.6025907,0.028075816,-0.6820902,0.009149051,0.08151489,-0.17767593,-0.38448772,-0.32638463,0.06011218,-3.0793824,0.62079436,0.0003106061,-0.10599834,0.018157376,-0.00021343725,0.002259286,-0.0006577785,0.01935983,0.43451306,-1.4537865,1.9897827,-2.1053245,-1.5708665,2.4067895,-0.12476004,0.16008723,-0.18333231,0.024753245,-0.0021059064,-0.14399412,-0.80445176,0.038307227,-9.615114,0.85826975,47.7451,-0.9858245,-1.8151629,-3.4131124,-0.06894157,-0.081069924,-0.25622636,27.9375,29.125,28.25,31.9375,34.0,34.9375
0.22405194,-1.5218256,-0.14949012,-0.5132504,-0.0123643065,0.0936946,-0.17766584,-0.384715,-0.32633415,0.060081936,-3.0793524,0.62081,0.00022076916,-0.10666893,0.018013906,-0.0004561351,0.0032592525,-0.0011200852,0.01499208,0.4342132,-1.4533902,1.9893998,-2.1052763,-1.5708545,2.4065034,-0.124503024,0.16246901,-0.1856732,0.025557797,-0.0028308707,-0.13936676,-0.7661445,0.038307227,-9.423578,0.9321212,47.685097,-1.048504,-1.880448,-3.4943771,-0.06668739,-0.08357333,-0.33200765,27.9375,29.125,28.25,31.9375,34.0,34.9375
0.22605217,-1.8399869,0.21540886,-0.3115627,-0.02873671,0.08396091,-0.19162917,-0.38492173,-0.32630393,0.060083028,-3.0793712,0.62070036,0.00024330015,-0.10672357,0.019036174,-0.0017543485,0.005184343,-0.004033859,0.010267783,0.43398497,-1.4530779,1.9890412,-2.1052396,-1.5708665,2.4062047,-0.12603152,0.16491692,-0.18571505,0.026605656,-0.0033490816,-0.13617016,-0.6512228,0.05746084,-9.251195,0.8537928,47.67166,-1.1384281,-1.7937443,-3.5148482,-0.08086687,-0.08376986,-0.38850054,27.9375,29.125,28.25,31.9375,34.0,34.9375
0.22805226,-1.5737795,0.083639376,-0.35724553,-0.011170138,0.07808549,-0.1756366,-0.38514718,-0.32626727,0.060094092,-3.0793812,0.6207229,0.0002733693,-0.10780657,0.01803906,-0.000531676,0.0041967086,-0.0017222193,0.008482323,0.4337211,-1.4527662,1.9886578,-2.105192,-1.570867,2.405954,-0.12497503,0.16526638,-0.18906295,0.027091883,-0.0034286391,-0.13332647,-0.36391866,0.15322891,-9.212888,0.900793,47.67166,-1.0671172,-1.7613752,-3.4686756,-0.07754605,-0.06474144,-0.46435735,27.9375,29.125,28.25,31.9375,34.0,34.9375
0.23005226,-0.5371719,0.34379476,-0.24198042,-0.00046284392,0.06609863,-0.18253699,-0.38535556,-0.3262368,0.060083978,-3.0793927,0.62072587,0.00023373225,-0.11007772,0.019816514,-0.000517659,0.0047918926,-0.0016397958,0.0043025734,0.4334675,-1.4524302,1.9882983,-2.1051552,-1.5708431,2.405701,-0.1297835,0.16684139,-0.19103472,0.027668228,-0.0040089595,-0.13395317,-0.32561144,0.1340753,-9.212888,0.8717007,47.7254,-1.0696713,-1.8304917,-3.4555783,-0.09230654,-0.06406136,-0.5310123,27.9375,29.125,28.25,31.9375,34.0,34.9375
0.23205228,-0.10328736,0.2565211,-0.2956884,0.013413166,0.0325567,-0.17939311,-0.38559154,-0.32620955,0.060107034,-3.0794291,0.62063384,0.00033260917,-0.11055206,0.0193534,-0.00046015478,0.0048803985,-0.0012589997,0.010691215,0.43322787,-1.452119,1.9878906,-2.10512,-1.570867,2.4053996,-0.12908615,0.16818677,-0.1927213,0.027696028,-0.0042452053,-0.13964333,-0.11492168,0.15322891,-9.232041,0.8291774,47.717335,-1.0714315,-1.6314912,-3.376716,-0.078410566,-0.07833067,-0.5573065,27.9375,29.125,28.25,31.9375,34.0,34.9375
0.2340523,-0.21242474,0.6408222,-0.2698389,0.017071502,-0.005226855,-0.18438087,-0.385827,-0.32616198,0.06010622,-3.0794156,0.6206059,0.00035595035,-0.112047665,0.01903647,0.0013280793,0.004142616,0.002119054,0.020487702,0.43295172,-1.4517717,1.9874943,-2.1050718,-1.5708917,2.405108,-0.129196,0.16713448,-0.1958873,0.028533261,-0.0049981386,-0.14954731,-0.019153614,0.17238252,-9.136273,0.9365982,47.73077,-1.045437,-1.5483828,-3.364349,-0.08647126,-0.04108174,-0.44842988,27.9375,29.125,28.25,31.9375,34.0,34.9375
0.23605236,0.09311122,0.9156078,-0.29778978,0.022190524,-0.00497383,-0.18611164,-0.38605878,-0.32611722,0.060107395,-3.0794044,0.6205767,0.00034866142,-0.11361004,0.019847948,0.0013879229,0.005181602,0.0017398511,0.031174026,0.43267524,-1.4514234,1.9870867,-2.1049988,-1.5709032,2.404815,-0.13143943,0.1692444,-0.19879018,0.030101482,-0.0057868273,-0.16247441,0.019153614,0.15322891,-9.097966,0.8023209,47.687782,-1.1484559,-1.5935318,-3.2835,-0.09750588,-0.04084824,-0.35999054,27.9375,29.125,28.25,31.9375,34.0,34.9375
0.23805249,0.37537205,0.6327618,-0.5462238,0.03252852,-0.0034280994,-0.18328938,-0.38628137,-0.3260682,0.06011001,-3.0794034,0.62049484,0.00034438205,-0.11365386,0.018952088,0.0017267268,0.0060703293,0.0016737082,0.04145865,0.43240002,-1.4510998,1.9867033,-2.1049268,-1.570916,2.404489,-0.12919961,0.1706514,-0.20160611,0.031939264,-0.0065700277,-0.17051677,0.21068975,0.22984336,-9.136273,0.8224646,47.687782,-1.1558594,-1.5814899,-3.2073746,-0.113160245,-0.046731237,-0.24439089,27.9375,29.125,28.25,31.9375,34.0,34.9375
0.24005254,0.7616196,0.39834285,-0.3829457,0.010821542,0.016186396,-0.18773735,-0.3864948,-0.32602873,0.06009612,-3.0793934,0.6203408,0.000319472,-0.115736976,0.02062474,0.0017295971,0.006156163,0.001423793,0.03970317,0.4321579,-1.45074,1.9863199,-2.1048667,-1.5709399,2.4041524,-0.13403499,0.17200772,-0.20332655,0.03255955,-0.006552167,-0.17359558,0.22984336,0.22984336,-9.212888,0.89631605,47.67166,-1.0559866,-1.5231706,-3.2373133,-0.11701991,-0.023409575,-0.18493915,27.9375,29.125,28.25,31.9375,34.0,34.9375
0.24205257,0.30110475,-0.5250726,-0.5578739,-0.015297821,0.015122159,-0.18163715,-0.3867111,-0.32599637,0.06009121,-3.079427,0.620194,0.00026260794,-0.11530635,0.019821739,0.0010166591,0.0071063186,-0.0009087044,0.038759653,0.43189496,-1.4503914,1.9859256,-2.1047943,-1.570916,2.4037938,-0.13215259,0.17486987,-0.2053247,0.034214873,-0.006444048,-0.17076862,0.1340753,0.22984336,-9.193734,0.84708,47.67793,-1.2007133,-1.6405783,-3.2292454,-0.12365025,-0.017600693,-0.16416702,27.9375,29.125,28.25,31.9375,34.0,34.875
0.2440526,0.0211397,-1.1824962,-0.7698249,-0.01992423,0.0022923022,-0.16776596,-0.38692787,-0.32592255,0.06008869,-3.0793567,0.62006724,0.0002508352,-0.115636274,0.020655995,0.000299473,0.008541849,-0.0041216905,0.03120281,0.43161848,-1.4500672,1.9855417,-2.1046731,-1.570988,2.4034474,-0.13392146,0.1772586,-0.2070532,0.03706206,-0.006411828,-0.1649798,0.076614454,0.22984336,-9.270349,0.89631605,47.677036,-1.1206619,-1.6397091,-3.1917543,-0.17877093,-0.014524419,-0.23163179,27.9375,29.125,28.25,31.9375,34.0,34.875
0.24605168,0.4509744,-0.8855271,-1.0284094,-0.03740472,0.004087832,-0.18306215,-0.38719162,-0.32589844,0.06011026,-3.0793893,0.620002,0.00032040928,-0.117022984,0.02073793,-0.00021011724,0.008759434,-0.005341044,0.02436093,0.4313538,-1.4496943,1.9850625,-2.104614,-1.5709995,2.4031382,-0.13537292,0.18092203,-0.21019553,0.037737533,-0.0060986066,-0.15958814,0.17238252,0.30645782,-9.3661175,0.80456203,47.687782,-1.0444016,-1.9509262,-3.0939798,-0.21968171,-0.0046304096,-0.3212465,27.9375,29.125,28.25,31.9375,34.0,34.875
0.24805173,0.109619804,-1.5449383,-1.1813822,-0.0429179,-0.0042402707,-0.16972212,-0.3874189,-0.32584888,0.06010447,-3.0793858,0.62005895,0.00023723919,-0.116643496,0.021111606,-0.0014243369,0.009324233,-0.009659357,0.02246496,0.43104148,-1.4493463,1.9846677,-2.1045291,-1.5709628,2.402862,-0.13649437,0.18353283,-0.21091053,0.04000088,-0.0048125223,-0.15881531,0.22984336,0.34476504,-9.442732,0.8157518,47.687782,-1.078701,-1.853267,-3.2051215,-0.23803762,0.0058876416,-0.35936803,27.9375,29.125,28.25,31.9375,34.0,34.875
0.25005192,-0.11707741,-1.7008821,-0.78945154,-0.062057137,0.003037917,-0.17498942,-0.38764775,-0.32581267,0.06007897,-3.0793602,0.6198232,0.00017744656,-0.11597303,0.021671837,-0.002036217,0.009505682,-0.012034941,0.021500628,0.43080118,-1.4489152,1.9842252,-2.1044447,-1.570999,2.4024782,-0.13740873,0.18351226,-0.20982818,0.04116378,-0.003995022,-0.1587674,-0.076614454,0.45968673,-9.423578,0.88960326,47.679718,-1.043162,-1.7928853,-3.369193,-0.28871244,-0.011012487,-0.3926355,27.9375,29.125,28.25,31.9375,34.0,34.875
0.2520517,-0.8633251,-1.5917213,-1.0347534,-0.05586079,0.010926032,-0.17168383,-0.3878492,-0.32576573,0.06007189,-3.0793526,0.6197829,7.777824e-05,-0.11764505,0.021687817,-0.0018855006,0.007635845,-0.009691083,0.021581434,0.43052456,-1.4485915,1.9838551,-2.1043384,-1.5709747,2.4021776,-0.13924755,0.18442205,-0.21053766,0.038052715,-0.003296837,-0.16068679,-0.095768064,0.47884035,-9.481039,0.8179876,47.66539,-1.0506425,-1.7406824,-3.4470694,-0.2859041,-0.0052886596,-0.3987908,27.9375,29.125,28.25,31.9375,34.0,34.875
0.25405177,-1.3509682,-1.5366168,-0.95850074,-0.04298688,0.028409103,-0.17162886,-0.38809764,-0.32573175,0.060086723,-3.0793793,0.61968887,9.1574984e-05,-0.118437715,0.022141771,-0.0021398799,0.007064475,-0.009799317,0.025640905,0.430248,-1.448232,1.9834002,-2.1042545,-1.5709747,2.4018393,-0.14103678,0.18532963,-0.21086936,0.03733171,-0.0027376178,-0.16653611,0.019153614,0.49799395,-9.5385,0.8851263,47.664497,-0.9754367,-1.8086087,-3.494103,-0.27806836,-0.032539118,-0.37760255,27.9375,29.125,28.25,31.9375,34.0,34.875
0.2560518,-1.3085804,-1.5353445,-0.6960345,-0.042604454,0.058316078,-0.1693119,-0.38832608,-0.325687,0.060078137,-3.0793772,0.6196063,1.544359e-05,-0.11866267,0.021833086,-0.0026730374,0.0071203974,-0.011521038,0.03507247,0.4299602,-1.4478594,1.9829811,-2.1041582,-1.5709618,2.4015005,-0.14098866,0.18772201,-0.21260218,0.03825587,-0.0020867996,-0.17591959,-0.1340753,0.30645782,-9.423578,0.8403672,47.67345,-0.9832733,-1.7509909,-3.5813565,-0.3316692,-0.02614816,-0.27271876,27.9375,29.125,28.25,31.9375,34.0,34.875
0.2580519,-1.1618953,-0.5659987,-0.68102086,-0.04894653,0.07991804,-0.19020876,-0.38855568,-0.3256419,0.06006149,-3.0793867,0.6194686,-5.671291e-05,-0.11959245,0.022064313,-0.0028781972,0.006525103,-0.011310299,0.043316226,0.4296716,-1.4474759,1.9825739,-2.104087,-1.5709499,2.401125,-0.1424007,0.1889798,-0.21340436,0.037357025,-0.001652645,-0.18557535,-0.28730422,0.30645782,-9.442732,0.84484416,47.664497,-0.95209026,-1.7097921,-3.5808754,-0.33804965,-0.043356076,-0.15881759,27.9375,29.125,28.25,31.9375,34.0,34.875
0.26005203,-1.5414006,-0.6553909,-0.8023755,-0.008818351,0.074421,-0.1722906,-0.38883656,-0.3255818,0.060069278,-3.0793762,0.61938846,4.4587887e-05,-0.12194199,0.022033062,-0.0027591644,0.0055880016,-0.009669498,0.04535804,0.4293592,-1.4470916,1.982118,-2.1040523,-1.57101,2.4007642,-0.144342,0.19190845,-0.2166695,0.03579778,-0.0014926174,-0.18955632,-0.4213795,0.28730422,-9.481039,0.8784135,47.66091,-1.105335,-1.764827,-3.4396033,-0.35945085,-0.045869187,-0.06803548,27.9375,29.125,28.25,31.9375,34.0,34.875
0.26205215,-1.4084594,0.24625055,-0.6683817,-0.0051572043,0.09752486,-0.17402476,-0.3890639,-0.32557482,0.060080722,-3.079452,0.61917436,-1.6953685e-05,-0.12261775,0.020737905,-0.0022874312,0.0045416434,-0.007687039,0.04363912,0.4291197,-1.44672,1.9816512,-2.1039445,-1.5709618,2.4003818,-0.14249344,0.1930838,-0.21885549,0.03458039,-0.0013774502,-0.18598747,-0.59376204,0.17238252,-9.442732,0.8179876,47.64121,-1.1840546,-1.7859905,-3.506376,-0.34897813,-0.048947655,-0.07330701,27.9375,29.125,28.25,31.9375,34.0,34.875
0.26405218,-1.6385686,-0.19953735,-0.67720693,0.018772077,0.092020676,-0.16838762,-0.38930112,-0.3255265,0.06005624,-3.0794516,0.6191212,-7.487681e-05,-0.12451986,0.020522466,-0.0020134046,0.0036770822,-0.0064061596,0.035658266,0.42881927,-1.4463239,1.9812554,-2.1039088,-1.5709499,2.4000485,-0.14376885,0.1954857,-0.22209011,0.033892572,-0.0011393767,-0.17928024,-0.61291564,0.076614454,-9.423578,0.8918391,47.695843,-1.2186867,-1.8414032,-3.4625878,-0.33297747,-0.052204832,-0.1310368,27.9375,29.125,28.25,31.9375,34.0,34.875
0.2660523,-1.8890127,0.47643834,-0.30265877,0.0023638157,0.0881378,-0.17576775,-0.3895856,-0.3254959,0.06008354,-3.0794938,0.61898005,4.8838334e-05,-0.12596565,0.020411018,-0.0015733974,0.0028346803,-0.004832856,0.027053956,0.42854348,-1.4459403,1.9807523,-2.103861,-1.5709862,2.3996797,-0.14475456,0.19659472,-0.22424188,0.033150554,-0.0010203379,-0.17166054,-0.7661445,0.0,-9.442732,0.8403672,47.686886,-1.1944054,-1.7309022,-3.3467433,-0.33960748,-0.058656856,-0.21476808,27.9375,29.125,28.25,31.9375,34.0,34.875
0.26805246,-0.94983983,0.80041385,-0.3615559,0.0046465574,0.10802891,-0.18960275,-0.38982195,-0.3254553,0.06007372,-3.0794806,0.6189045,-1.3465385e-05,-0.12854588,0.020307776,-0.0006822957,0.0017595638,-0.0022515613,0.01954368,0.4282664,-1.4455439,1.9803089,-2.1037657,-1.5709862,2.3993573,-0.1465814,0.19853882,-0.22840364,0.03257634,-0.0011325874,-0.16597429,-0.7852981,-0.15322891,-9.481039,0.8806493,47.694054,-1.0563034,-1.8817618,-3.296215,-0.3298422,-0.06408237,-0.3447951,27.9375,29.125,28.25,31.9375,34.0,34.875
0.2700525,-1.3678883,1.165866,-0.51846164,0.016528435,0.09482664,-0.17779773,-0.39006516,-0.3254089,0.060063373,-3.0794873,0.61885417,-5.5023207e-05,-0.13140136,0.021075903,-8.810048e-05,0.0011712619,5.7488946e-06,0.009548616,0.42796507,-1.4451603,1.9798888,-2.1037061,-1.5709742,2.399024,-0.15004894,0.20043594,-0.23177762,0.03176143,-0.0015457638,-0.15944381,-0.7469909,-0.19153613,-9.423578,0.8090337,47.682407,-1.0204997,-1.7937932,-3.224668,-0.3355198,-0.07867722,-0.437407,27.9375,29.125,28.25,31.9375,34.0,34.875
0.2720526,-1.1467955,0.6880866,-0.50502056,0.03935205,0.09288616,-0.18316543,-0.3903627,-0.3253628,0.060076315,-3.0794973,0.6188924,4.3449385e-05,-0.1316067,0.020112617,0.00093859463,0.00022089436,0.0024994982,0.011355399,0.42764193,-1.4447534,1.9793977,-2.1036828,-1.5709981,2.3987238,-0.14819306,0.19939774,-0.23293154,0.031286843,-0.0017092209,-0.15939412,-0.7278373,-0.15322891,-9.404425,0.784413,47.68062,-1.1606458,-1.6252215,-3.2593398,-0.32398933,-0.08228829,-0.5134864,27.9375,29.125,28.25,31.9375,34.0,34.875
0.27405167,-1.5680364,0.42448735,-0.71088713,0.017478578,0.09552615,-0.17341961,-0.39058107,-0.32534194,0.060054123,-3.0795085,0.618716,-7.31297e-05,-0.1318669,0.020308893,-0.00029904055,0.0018247712,0.0009327309,0.019243347,0.42740196,-1.4443328,1.9789547,-2.1035864,-1.5709747,2.3983727,-0.1481314,0.2025998,-0.23369414,0.030941335,-0.0025359334,-0.16721794,-0.7469909,-0.076614454,-9.500193,0.8918391,47.679718,-1.2021466,-1.6505625,-3.32624,-0.31244627,-0.06746307,-0.482212,27.9375,29.125,28.25,31.9375,34.0,34.875
0.27605256,-1.8024498,0.032232802,-0.6733237,-0.0049112225,0.10564485,-0.18370098,-0.39086166,-0.325272,0.06002829,-3.0794687,0.6187206,-0.00012662167,-0.13243076,0.021013409,-0.0009692749,0.0029660612,3.4738074e-05,0.030177271,0.42704165,-1.4438772,1.9784888,-2.1035264,-1.5709866,2.3980205,-0.14933044,0.20437871,-0.2342629,0.031015953,-0.0032171344,-0.17934912,-0.59376204,-0.019153614,-9.519346,0.89631605,47.67166,-1.2194659,-1.6187445,-3.2987213,-0.30909738,-0.061396644,-0.4015724,27.9375,29.125,28.25,31.9375,34.0,34.875
0.27805266,-1.7640226,-0.2516888,-0.7812761,-0.01751888,0.110020325,-0.17882209,-0.39113343,-0.3252345,0.060060773,-3.0795095,0.61862636,-8.240548e-05,-0.13294412,0.021556282,-0.00083377335,0.0028186855,0.00037953135,0.04073826,0.42674145,-1.443518,1.9779867,-2.103419,-1.5709866,2.3976567,-0.15063928,0.2041481,-0.23437409,0.030977206,-0.0032244502,-0.19121918,-0.51714754,0.019153614,-9.461885,0.8627467,47.692257,-1.2370014,-1.6213512,-3.3618321,-0.3145744,-0.07465782,-0.27771544,27.9375,29.125,28.25,31.9375,34.0,34.875
0.28005168,-1.3562629,-0.27697784,-0.6566762,-0.034508694,0.10194248,-0.17694114,-0.39139098,-0.32517713,0.06004686,-3.079515,0.6184905,-0.00013035444,-0.13374893,0.021879133,-0.0021714682,0.004431426,-0.0015649969,0.046949252,0.42641705,-1.4431094,1.9775432,-2.103347,-1.5709871,2.397247,-0.15134849,0.20844771,-0.23621807,0.030957717,-0.0039027468,-0.19813648,-0.40222588,-0.076614454,-9.634268,0.85826975,47.701214,-1.2664958,-1.7330234,-3.49444,-0.3027005,-0.07919241,-0.19739226,27.9375,29.125,28.25,31.9375,34.0,34.875
0.2820518,-1.1614113,-0.5551385,-0.5365397,-0.024169737,0.067390844,-0.1690845,-0.39165646,-0.3251557,0.060029253,-3.079566,0.61831087,-9.997464e-05,-0.13539033,0.022150792,-0.002249021,0.004713697,8.587145e-06,0.043538466,0.42615262,-1.4426656,1.9770879,-2.10336,-1.5709876,2.3968644,-0.15251914,0.2104834,-0.23807764,0.029468888,-0.0048128627,-0.19589326,-0.34476504,-0.038307227,-9.519346,0.8717007,47.703007,-1.2265129,-1.8599949,-3.537232,-0.2829357,-0.040683843,-0.15964225,27.9375,29.125,28.25,31.9375,34.0,34.875
0.28405192,-0.65860575,-0.31659186,-0.66463315,-0.0018868165,0.03495417,-0.16348845,-0.3919565,-0.3250835,0.060037926,-3.0795398,0.61826986,-1.3858359e-05,-0.1366794,0.022010652,-0.0023541444,0.005391723,0.0018142905,0.036424562,0.42580497,-1.4422578,1.9765962,-2.1033008,-1.5710481,2.3964949,-0.1523087,0.21262355,-0.23995098,0.027832985,-0.0061771977,-0.18856499,-0.24899697,0.11492168,-9.385271,0.8314132,47.683304,-1.2789199,-1.8304217,-3.4997146,-0.2540292,-0.022508157,-0.23346534,27.9375,29.125,28.25,31.9375,34.0,34.875
0.28605184,0.07919256,-0.042866584,-0.6915756,0.004475414,0.023717992,-0.17800337,-0.3922286,-0.32503688,0.0600179,-3.0795321,0.6181367,-2.615694e-05,-0.13855733,0.022415146,-0.0019803897,0.0053535514,0.0041090595,0.03038279,0.42550433,-1.4418017,1.9761184,-2.1032531,-1.571072,2.3961124,-0.15390539,0.21384302,-0.24197309,0.026529288,-0.0071003996,-0.18411665,-0.21068975,0.2681506,-9.346964,0.8537928,47.684196,-1.2212002,-1.8849411,-3.4931273,-0.22154737,-0.00806203,-0.30743614,27.9375,29.125,28.25,31.9375,34.0,34.875
0.2880519,0.5315871,-0.101367824,-0.6127404,-0.009287955,0.008943953,-0.18185619,-0.3925063,-0.32499394,0.060015474,-3.0795598,0.61810863,1.8196833e-05,-0.14118418,0.023694074,-0.002266673,0.005296446,0.003914499,0.023070559,0.4251903,-1.441394,1.9756626,-2.1032407,-1.571072,2.3957777,-0.15844122,0.2170925,-0.24505311,0.026512537,-0.006966789,-0.18133874,-0.05746084,0.28730422,-9.385271,0.784413,47.684196,-1.0109415,-1.8262858,-3.513279,-0.19686219,-0.027982984,-0.35469046,27.9375,29.125,28.25,31.9375,34.0,34.875
0.29005206,-0.05806004,-0.76792765,-0.39819437,-0.022654133,-0.007991264,-0.17835018,-0.39279306,-0.3249588,0.060014866,-3.0795667,0.6180319,2.75759e-05,-0.14277898,0.022824263,-0.0010049941,0.0035124358,0.0055296663,0.023141555,0.42489085,-1.4409381,1.9751347,-2.1031687,-1.5710834,2.3954298,-0.15866639,0.21809281,-0.24942337,0.027668076,-0.006013659,-0.18163462,-0.076614454,0.40222588,-9.270349,0.9791215,47.67793,-1.1162859,-1.9534569,-3.5485773,-0.20164934,-0.0030208444,-0.35680166,27.9375,29.125,28.25,31.9375,34.0,34.875
0.29205203,-0.036135446,-0.99463415,-0.38655475,-0.04538237,0.008650192,-0.18096693,-0.39307564,-0.324886,0.06000994,-3.0795364,0.6179655,2.9239125e-05,-0.14512599,0.02293999,0.001565052,0.0011211156,0.009509907,0.026318904,0.4245419,-1.4405198,1.974656,-2.1030843,-1.5711197,2.3950436,-0.16105866,0.21596791,-0.25331506,0.029059438,-0.0054844515,-0.18720385,-0.095768064,0.57460845,-9.136273,0.87617236,47.688675,-1.0055394,-1.7603524,-3.5151372,-0.18233798,-0.006795292,-0.37537363,27.9375,29.125,28.25,31.9375,34.0,34.875
0.2940524,-0.50891435,-1.343885,-0.5331144,-0.058815937,0.014349929,-0.18086454,-0.39336732,-0.32481992,0.0600048,-3.0795293,0.6179203,2.2644339e-05,-0.14612317,0.023110084,0.000944698,0.0012020966,0.008006791,0.034407217,0.42418173,-1.4400867,1.9741639,-2.1030128,-1.5711311,2.3946564,-0.16241568,0.21906452,-0.2556063,0.02964628,-0.004946245,-0.19664875,0.0,0.59376204,-9.232041,0.90527004,47.70659,-1.0943787,-1.8096713,-3.3667126,-0.19355404,0.0017362739,-0.29287982,27.9375,29.125,28.25,31.9375,34.0,34.875
0.29605186,-0.50827044,-1.9744681,-0.6929077,-0.076115906,0.041758742,-0.174247,-0.39363798,-0.32481578,0.059986744,-3.0795815,0.6176928,-3.1809628e-05,-0.14580728,0.022035448,0.0010957919,0.00055232365,0.008312347,0.04752089,0.42393035,-1.4395839,1.9736251,-2.1029527,-1.5711068,2.3942568,-0.16033313,0.21949792,-0.25653368,0.02959078,-0.0044894395,-0.20768027,0.0,0.53630114,-9.32781,0.8403672,47.694054,-1.0769334,-1.856251,-3.3375063,-0.15366265,0.00010273117,-0.18802446,27.9375,29.125,28.25,31.9375,34.0,34.875
0.29805228,-1.2606578,-2.0502353,-0.4202941,-0.09274073,0.046071835,-0.17509106,-0.39392522,-0.3247468,0.05999657,-3.0796015,0.6175411,-2.3834635e-05,-0.1466726,0.022445915,0.0010288409,0.00056724105,0.0073324516,0.05097961,0.42356974,-1.4391882,1.9731349,-2.1028564,-1.5711192,2.3937993,-0.16192287,0.221034,-0.2584935,0.030905964,-0.004101303,-0.21272866,-0.24899697,0.57460845,-9.404425,0.83365434,47.658226,-1.0339732,-1.8458072,-3.344249,-0.15931365,-0.006503149,-0.078302324,27.9375,29.125,28.25,31.9375,34.0,34.875
0.3000521,-1.2887257,-1.8773615,-0.37239316,-0.07736466,0.061889466,-0.17463878,-0.3942053,-0.3246853,0.059962016,-3.079582,0.6174256,-0.00011817508,-0.1472238,0.023072282,0.0011586349,0.00069172354,0.0059699244,0.045605242,0.4232211,-1.4386972,1.9726437,-2.1027834,-1.5711192,2.3933814,-0.16368087,0.2216579,-0.26012227,0.033203617,-0.0036650181,-0.20911264,-0.34476504,0.6512228,-9.32781,0.87617236,47.716442,-1.071327,-1.8104036,-3.4506028,-0.14710626,-0.001944643,-0.06860329,27.9375,29.125,28.25,31.9375,34.0,34.875
0.30205214,-1.0313548,-1.0407794,-0.53779256,-0.048230544,0.056270577,-0.17799401,-0.39452586,-0.32467276,0.059994265,-3.0796978,0.6172617,2.1814014e-05,-0.14838435,0.023056298,0.0021694023,-0.0007067412,0.007821887,0.03537429,0.42292082,-1.4382659,1.9720811,-2.102772,-1.5711063,2.3929646,-0.16482002,0.22104898,-0.26185662,0.033289015,-0.003123499,-0.20002167,-0.22984336,0.47884035,-9.481039,0.91198283,47.71823,-1.0201571,-1.70561,-3.3878946,-0.13212688,-0.0024604322,-0.13566846,27.9375,29.125,28.25,31.9375,34.0,34.875
0.30405214,-0.68985826,-0.6842659,-0.660674,-0.02474112,0.038837135,-0.17891209,-0.3948291,-0.32462794,0.059971202,-3.0796726,0.61724323,-4.3281034e-05,-0.14869037,0.023878993,0.0007872474,3.179773e-05,0.004637826,0.025308264,0.42258412,-1.4377382,1.9715194,-2.102688,-1.5711063,2.3926198,-0.1668524,0.22400582,-0.26230282,0.033986565,-0.0024948278,-0.19198877,-0.095768064,0.4213795,-9.423578,0.9365982,47.68062,-0.9833504,-1.6751745,-3.4562287,-0.12184958,-0.021114767,-0.26104653,27.9375,29.125,28.25,31.9375,34.0,34.875
0.30605248,-0.6817025,-0.38051978,-0.25648758,-0.014228734,0.020186927,-0.17654395,-0.39512315,-0.32459608,0.0599819,-3.0797274,0.6172013,2.1290836e-05,-0.1501707,0.024189385,0.00084000506,-0.00039792206,0.004910596,0.016269209,0.4222716,-1.4373181,1.9710153,-2.1026642,-1.5710944,2.3922746,-0.1687013,0.22585577,-0.26460907,0.0340225,-0.0022041798,-0.18479799,-0.22984336,0.21068975,-9.212888,0.87393653,47.65912,-0.97717357,-1.7828391,-3.4609532,-0.120784655,-0.03585029,-0.37535125,27.9375,29.125,28.25,31.9375,34.0,34.875
0.3080525,-0.64350146,0.34696394,-0.5039852,0.01063718,0.012739724,-0.17251739,-0.39543083,-0.3245445,0.059972532,-3.0797272,0.61706746,2.5329873e-05,-0.15153883,0.024076637,0.00085971,-0.00096577057,0.0061733234,0.013010922,0.42193538,-1.4368266,1.9704655,-2.1025927,-1.5711187,2.3918552,-0.16947137,0.22765833,-0.2664996,0.032722447,-0.0022103281,-0.18230839,-0.22984336,0.076614454,-9.155427,0.9186956,47.681515,-0.92217636,-1.7882571,-3.5704193,-0.077022046,-0.029918639,-0.46056804,27.9375,29.125,28.25,31.9375,34.0,34.875
0.31005263,-0.38886893,1.2292109,-0.41595608,0.035916157,0.0148385,-0.18747635,-0.39570743,-0.32450658,0.05996325,-3.0797539,0.6169361,2.344754e-05,-0.15373233,0.024252784,0.00083009223,-0.0013307349,0.0070306803,0.015815413,0.42163464,-1.4363822,1.9699739,-2.102545,-1.5711187,2.3914695,-0.17146209,0.23082027,-0.26995438,0.03208082,-0.0022371998,-0.1871013,-0.019153614,-0.1340753,-9.289502,0.9701675,47.63136,-0.96564966,-1.8027647,-3.4735632,-0.02713563,-0.030127171,-0.4933171,27.9375,29.125,28.25,31.9375,34.0,34.875
0.31205165,-0.38158563,1.0891081,-0.33893052,0.042678375,0.020640753,-0.18212497,-0.3960508,-0.32445842,0.05996999,-3.0797706,0.61700803,5.388754e-05,-0.15337528,0.023817113,2.4385241e-05,0.00033448834,0.004389358,0.028742975,0.4212515,-1.435878,1.969375,-2.102484,-1.5711063,2.3911295,-0.16989475,0.23383097,-0.27213976,0.034344297,-0.0026711912,-0.19845995,-0.095768064,-0.15322891,-9.270349,0.90750587,47.667187,-1.0916035,-1.9637923,-3.3920794,-0.0147634,-0.0349375,-0.39600343,27.9375,29.125,28.25,31.9375,34.0,34.875
0.31405184,-0.39690512,1.3694355,-0.39743423,0.039248537,0.025683654,-0.19418754,-0.3963676,-0.32441062,0.059983492,-3.0798068,0.6168343,0.00011828587,-0.15389614,0.023452051,-5.25007e-05,0.0008822241,0.0031482931,0.043264702,0.4209154,-1.4354222,1.9688123,-2.1024115,-1.5711302,2.3906808,-0.16949698,0.23622943,-0.27524266,0.036392234,-0.0026621518,-0.21258269,-0.19153613,-0.1340753,-9.251195,0.8873621,47.68062,-1.1250279,-1.986877,-3.3297,-0.03380031,-0.043077588,-0.2762869,27.9375,29.125,28.25,31.9375,34.0,34.875
0.31605187,-0.93979245,1.0356781,-0.626028,0.042511825,0.019860318,-0.18708602,-0.39661235,-0.32434732,0.059924077,-3.0797381,0.61670244,-5.621088e-05,-0.15349911,0.023869606,-0.0004052942,0.0016336095,0.001333343,0.04907268,0.42060328,-1.4349186,1.968357,-2.1023152,-1.5711426,2.3902953,-0.16981868,0.23657069,-0.27532375,0.038088974,-0.00263597,-0.21871258,-0.21068975,-0.11492168,-9.404425,0.8784135,47.679718,-1.0908443,-2.0411932,-3.3035898,-0.025485167,-0.04597274,-0.16986544,27.9375,29.125,28.25,31.9375,34.0,34.875
0.3180519,-1.1802577,0.4283367,-0.49700633,0.0088202255,0.045454673,-0.17946349,-0.39692461,-0.3243079,0.059924364,-3.079776,0.61653876,-0.00011312187,-0.15325706,0.023737688,-0.0009050151,0.0026933437,-0.0007603818,0.046276346,0.42025566,-1.434415,1.967759,-2.1021945,-1.5711187,2.389841,-0.16913281,0.23844056,-0.2768717,0.04011799,-0.0027519618,-0.21522968,-0.3256114,-0.076614454,-9.3661175,0.9164598,47.658226,-1.2199506,-1.9618831,-3.383347,-0.03436688,-0.037724257,-0.16015603,27.9375,29.125,28.25,31.9375,34.0,34.875
0.32005197,-1.137746,-0.29922348,-0.78591895,-0.009998133,0.054101706,-0.18959668,-0.39720896,-0.3242533,0.059916716,-3.0797675,0.61629325,-0.00014406616,-0.15469912,0.024652788,-0.0003734135,0.0030283104,-0.0007191727,0.036544878,0.4199426,-1.4339477,1.9672202,-2.1020744,-1.5711545,2.3893762,-0.17164713,0.23915678,-0.27944964,0.04207579,-0.0030830128,-0.20801094,-0.36391866,-0.095768064,-9.519346,0.9321212,47.674347,-1.1281663,-2.0543478,-3.4553432,-0.040994603,-0.049985472,-0.2448587,27.9375,29.125,28.25,31.9375,34.0,34.875
0.32205194,-1.5403768,-0.73864704,-0.68074113,-0.023503637,0.055440806,-0.18862556,-0.39752477,-0.32421458,0.059926998,-3.0798168,0.61628616,-0.00010802388,-0.1557678,0.025735334,-0.00071432185,0.004230622,-0.0022335106,0.030156713,0.41959405,-1.4334917,1.9666694,-2.1020257,-1.5711306,2.3890173,-0.17404728,0.2411834,-0.2815022,0.04398272,-0.003553377,-0.2040214,-0.4213795,0.076614454,-9.576807,0.91198283,47.684196,-1.2364123,-2.0061812,-3.394362,-0.053784184,-0.031047639,-0.33208236,27.9375,29.125,28.25,31.9375,34.0,34.875
0.32405195,-2.0202749,-0.6552916,-0.52405536,-0.030548057,0.057538517,-0.1776768,-0.39784956,-0.32417592,0.05992313,-3.079838,0.6161933,-0.00013687929,-0.15516898,0.025302364,-0.0011738505,0.0051677795,-0.0034943114,0.030078502,0.4192466,-1.4329644,1.9660591,-2.1019294,-1.5711192,2.3886096,-0.17235637,0.24237348,-0.28214577,0.044973053,-0.00389849,-0.20225151,-0.6703765,0.038307227,-9.500193,0.9701675,47.651955,-1.2897631,-2.0359278,-3.3290033,-0.0745997,-0.040575735,-0.39989573,27.9375,29.125,28.25,31.9375,34.0,34.875
0.3260521,-1.1994735,-0.10943683,-0.98557645,-0.0071208407,0.08173154,-0.20030689,-0.39812422,-0.3241128,0.059901737,-3.079783,0.6161429,-0.00025010496,-0.15567435,0.025128298,-0.00020627452,0.0043579754,-0.0016992033,0.03158574,0.41891083,-1.4324855,1.9655327,-2.1017864,-1.5711306,2.3882496,-0.17229144,0.24117567,-0.28316748,0.045219295,-0.003912552,-0.20369339,-0.4596867,0.038307227,-9.576807,0.8940802,47.677036,-1.3264565,-1.9041505,-3.5223482,-0.07572833,-0.0341683,-0.4013913,27.9375,29.125,28.25,31.9375,34.0,34.875
0.32805207,-0.9829668,0.4311768,-0.912706,0.0025100198,0.08326153,-0.19982149,-0.39847314,-0.32405916,0.059925936,-3.0798116,0.6158921,-0.00013768171,-0.15582213,0.025363924,-0.0004338146,0.004943001,-0.0030225378,0.04011508,0.4185634,-1.4319942,1.9648985,-2.1016896,-1.5711907,2.3877425,-0.17267327,0.24230659,-0.28438565,0.04673486,-0.0039048903,-0.21260452,-0.21068975,0.095768064,-9.615114,0.9030289,47.682407,-1.3764501,-1.9031136,-3.5876756,-0.07821098,-0.039901573,-0.36154318,27.9375,29.125,28.25,31.9375,34.0,34.875
0.3300521,-1.323711,0.30840752,-0.41806388,-0.022088796,0.08280759,-0.19910908,-0.39877313,-0.324002,0.059896722,-3.0798132,0.61582744,-0.0001962083,-0.15747178,0.025797004,4.0187537e-05,0.004784662,-0.0028517453,0.050047453,0.41820338,-1.4314905,1.964383,-2.1016414,-1.5711793,2.3873422,-0.17469853,0.2439039,-0.2877491,0.048274804,-0.0038496312,-0.22456072,-0.34476504,0.076614454,-9.653421,0.97240865,47.67166,-1.335695,-1.8264098,-3.5543964,-0.094322056,-0.035510346,-0.2360535,27.9375,29.125,28.25,31.9375,34.0,34.875
0.33205208,-0.901155,0.040426098,-0.723843,-0.008069078,0.06967362,-0.19757755,-0.39911085,-0.3239424,0.05990922,-3.0798316,0.61567503,-0.00016167945,-0.15830201,0.026900897,-0.0006001508,0.006008813,-0.00469211,0.05365782,0.4178312,-1.4309986,1.9637717,-2.1015332,-1.5712031,2.386873,-0.17698511,0.24603567,-0.2891428,0.04970692,-0.0042239423,-0.23045646,-0.28730422,0.19153613,-9.461885,0.9835985,47.691364,-1.2329105,-1.8730893,-3.5054822,-0.10475153,-0.033987626,-0.11453597,27.9375,29.125,28.25,31.9375,34.0,34.875
0.3340521,-0.47502625,0.3806621,-0.95956546,-0.007090238,0.058057036,-0.18966202,-0.3994063,-0.32390428,0.05989832,-3.0798764,0.6154564,-0.0002595374,-0.15974052,0.028149739,9.830985e-05,0.006488862,-0.003977022,0.047036294,0.41749474,-1.4304957,1.9631985,-2.101413,-1.5711673,2.3863947,-0.1798128,0.2458246,-0.29098216,0.051310472,-0.0049645132,-0.22666055,-0.2681506,0.15322891,-9.5385,1.0574499,47.66091,-1.1175083,-1.9021568,-3.59473,-0.13308874,-0.03887298,-0.11842145,27.9375,29.125,28.25,31.9375,34.0,34.875
0.33605224,-0.15105525,0.13996641,-0.6848746,-0.027326088,0.04291477,-0.19657128,-0.39974242,-0.32385024,0.059921313,-3.079905,0.61538976,-0.00016483362,-0.16084507,0.029084312,-0.00073628046,0.007877596,-0.0066046687,0.035802465,0.41713497,-1.4300393,1.9626111,-2.10134,-1.5711912,2.3859901,-0.18213102,0.24936697,-0.2936862,0.053436473,-0.0051547396,-0.21774356,-0.24899697,0.17238252,-9.557653,0.88960326,47.677036,-1.2092801,-1.8641366,-3.516541,-0.16618016,-0.01681998,-0.2193169,27.9375,29.125,28.25,31.9375,34.0,34.875
0.3380523,-0.12585676,-0.14058444,-0.6137823,-0.02244276,0.024406144,-0.19716308,-0.40007913,-0.32377917,0.059904482,-3.07985,0.6153052,-0.00022670509,-0.16146448,0.028688736,-0.00030533603,0.0076804115,-0.006606112,0.027067281,0.41675174,-1.4294759,1.9619769,-2.1011965,-1.5712274,2.3855615,-0.1818324,0.25047028,-0.29640773,0.054971926,-0.004989957,-0.20870878,-0.19153613,0.076614454,-9.481039,0.9030289,47.684196,-1.1507083,-1.9214772,-3.544393,-0.19478227,-0.020150496,-0.31938314,27.9375,29.125,28.25,31.9375,34.0,34.875
0.34005237,-0.007306543,-0.11942317,-0.59865886,-0.021709662,0.039939225,-0.18887444,-0.4004071,-0.32375094,0.05992509,-3.0799365,0.6151154,-0.00018910246,-0.16257358,0.02930078,-0.0005230581,0.008207684,-0.0071678464,0.017202254,0.4164156,-1.4289964,1.9613656,-2.1011121,-1.5712036,2.3850963,-0.18352348,0.2523843,-0.29837945,0.055766266,-0.005235928,-0.20053364,-0.34476504,0.21068975,-9.442732,0.9791215,47.657326,-1.0439721,-1.8563058,-3.4554052,-0.20625034,-0.017741038,-0.45027214,27.9375,29.125,28.25,31.9375,34.0,34.875
0.34205246,-0.39362448,-0.05817846,-0.6732933,-0.016348941,0.03556052,-0.19766684,-0.40072307,-0.32369834,0.05992573,-3.0799234,0.6150923,-0.00019853789,-0.16321656,0.029574476,-0.0018060482,0.009553269,-0.010081422,0.016053976,0.41606823,-1.4285039,1.9607795,-2.101004,-1.5712155,2.3847365,-0.184337,0.2567409,-0.3008089,0.057044618,-0.005297674,-0.20019728,-0.22984336,0.22984336,-9.423578,0.83813137,47.696735,-1.0663698,-2.0675085,-3.4591467,-0.2359496,-0.011328151,-0.5061934,27.9375,29.125,28.25,31.9375,34.0,34.875
0.3440526,-0.1019893,-0.47819448,-0.68531317,-0.02331312,0.05315042,-0.21141052,-0.401067,-0.32362282,0.059929095,-3.0798948,0.6150232,-0.00019734837,-0.16484655,0.029839931,-0.0005075794,0.008449672,-0.008086104,0.024832016,0.4156718,-1.4279886,1.9601558,-2.1008723,-1.5712513,2.384301,-0.1860784,0.25629014,-0.30360827,0.058007315,-0.005113931,-0.2107161,0.019153614,0.24899697,-9.595961,0.8873621,47.66987,-0.9807008,-2.0467794,-3.4597893,-0.27019486,0.0031051873,-0.48283708,27.9375,29.125,28.25,31.9375,34.0,34.875
0.34605208,-0.7348765,-1.0305898,-0.3051159,-0.049486432,0.046237428,-0.19676985,-0.40138754,-0.32355157,0.05991004,-3.0798903,0.61493546,-0.0003141434,-0.16585322,0.030564435,-0.00016164077,0.008201208,-0.00756898,0.038188856,0.41526386,-1.4274617,1.9595698,-2.1007402,-1.5712274,2.3838391,-0.18802737,0.2563395,-0.3046853,0.058455355,-0.005126905,-0.22602133,-0.11492168,0.2681506,-9.461885,0.92093146,47.691364,-0.88910997,-1.984911,-3.4101257,-0.27512175,-0.0055013215,-0.34509277,27.9375,29.125,28.25,31.9375,34.0,34.875
0.34805197,-0.90963435,-1.0285491,-0.14375159,-0.047591023,0.037020303,-0.19224238,-0.40172067,-0.32351306,0.05991141,-3.0799341,0.6147053,-0.00029132812,-0.16661991,0.030357001,-0.00014459467,0.008012226,-0.008419583,0.04889386,0.41492912,-1.4269344,1.9589471,-2.1006558,-1.5712389,2.3833556,-0.18841477,0.25834665,-0.3074722,0.059924565,-0.0046222094,-0.23711373,-0.15322891,0.22984336,-9.212888,0.89631605,47.683304,-1.0199021,-1.9075141,-3.3822024,-0.32256192,-0.021410715,-0.19780985,27.9375,29.125,28.25,31.9375,34.0,34.875
0.35005197,-0.6541921,-0.70631343,-0.40756127,-0.016908627,0.033312608,-0.18217622,-0.40209913,-0.32345235,0.059944734,-3.0799696,0.6145972,-0.00016575845,-0.16917889,0.029852506,0.0017592845,0.00490622,-0.0016097935,0.04814386,0.41453332,-1.4264313,1.9582766,-2.1005619,-1.5712751,2.3828883,-0.18941902,0.25685006,-0.3092904,0.055744935,-0.0045226435,-0.23736726,-0.21068975,0.24899697,-9.308656,0.98135734,47.658226,-0.9835076,-1.7743106,-3.4443095,-0.3078105,-0.008801251,-0.1451449,27.9375,29.125,28.25,31.9375,34.0,34.875
0.3520521,-0.47014514,-0.19150387,-0.57267225,-0.006619433,0.03818942,-0.18510754,-0.4023928,-0.32338873,0.059907462,-3.0799615,0.61446464,-0.0003113266,-0.17029522,0.029221473,0.0024256166,0.003822173,0.0007868847,0.039819647,0.414162,-1.4259044,1.9577368,-2.100454,-1.5712508,2.3824356,-0.18899064,0.2574052,-0.31131417,0.054593522,-0.0045195483,-0.2286132,-0.22984336,0.21068975,-9.404425,0.93436235,47.694946,-1.0905882,-1.6591871,-3.4412408,-0.31430095,-0.020474942,-0.22740039,27.9375,29.125,28.25,31.9375,34.0,34.875
0.35405222,-0.90452,-0.12188833,-0.43937665,0.004203116,0.023219682,-0.18193422,-0.40273255,-0.3233153,0.059909366,-3.0799396,0.61432874,-0.00035618639,-0.16929784,0.02915866,0.0009940292,0.0045542726,-0.001682526,0.033580672,0.41376737,-1.4253768,1.9570931,-2.1002872,-1.5712751,2.3819592,-0.18807434,0.25909674,-0.30999392,0.054133944,-0.004201866,-0.221459,-0.076614454,0.17238252,-9.289502,0.9321212,47.66808,-1.1362084,-1.6578206,-3.6034763,-0.2872107,-0.0149078,-0.3368824,27.9375,29.125,28.25,31.9375,34.0,34.875
0.35605222,-0.7623434,0.23889618,-0.18448904,-0.0026843252,0.03924367,-0.19177778,-0.40308264,-0.32328054,0.05991514,-3.0799963,0.6142244,-0.00028167115,-0.17072196,0.028184785,0.0018863335,0.0031887514,0.00083181006,0.03165875,0.41341984,-1.4248495,1.9564704,-2.100251,-1.5712751,2.3815398,-0.1874052,0.26021722,-0.3132866,0.053454958,-0.003956503,-0.21886703,-0.17238252,-0.019153614,-9.212888,1.0238806,47.661808,-1.1983455,-1.564544,-3.5753362,-0.31986666,-0.026209943,-0.38372764,27.9375,29.125,28.25,31.9375,34.0,34.875
0.35805228,-0.6392516,0.5830844,-0.41283897,0.0054665967,0.055669196,-0.20438744,-0.40344107,-0.32324952,0.0599491,-3.0800488,0.6141151,-0.00021919361,-0.1742871,0.027140526,0.002557478,0.0003878852,0.0058615236,0.034138612,0.41307247,-1.4243331,1.9557742,-2.1001213,-1.5712746,2.381118,-0.18852086,0.2637785,-0.31795797,0.048828878,-0.003422566,-0.22246034,-0.28730422,0.05746084,-9.193734,0.98135734,47.70211,-1.4091337,-1.6221669,-3.456461,-0.28003654,-0.026145248,-0.39298666,27.9375,29.125,28.25,31.9375,34.0,34.875
0.3600526,-0.58755773,1.0453793,-0.7711218,0.012110759,0.06051345,-0.20635916,-0.40377885,-0.32319173,0.059945587,-3.080095,0.6138664,-0.0001975916,-0.17504391,0.02665684,0.00199096,9.169862e-05,0.0057784705,0.044446077,0.41270125,-1.4238169,1.9551767,-2.1000497,-1.5712866,2.3805861,-0.18824053,0.2665275,-0.3196865,0.04775436,-0.0031264394,-0.23248692,0.13407528,0.0,-9.3661175,0.9835985,47.69763,-1.372007,-1.800504,-3.4214337,-0.23067088,-0.029983131,-0.30857542,27.9375,29.125,28.25,31.9375,34.0,34.875
0.3620517,-0.6951478,0.26850092,-0.8212978,0.0031163194,0.043706514,-0.19686294,-0.40412638,-0.3231437,0.059949134,-3.0801244,0.6137515,-0.0002527265,-0.17674954,0.027358318,0.001970499,0.00019661897,0.005858354,0.053433206,0.41231713,-1.4232651,1.9545058,-2.0999057,-1.5712627,2.380127,-0.19059893,0.26866865,-0.3223306,0.04822409,-0.003270498,-0.24383083,0.0,0.038307227,-9.576807,0.9791215,47.678825,-1.2446003,-1.9463742,-3.3959198,-0.22563942,-0.024202816,-0.1780743,27.9375,29.125,28.25,31.9375,34.0,34.875
0.36405176,-1.0583878,-0.3299341,-0.49666625,-0.024387063,0.041177787,-0.18500625,-0.40447107,-0.3230643,0.059943434,-3.0801318,0.61357945,-0.00024933743,-0.17763571,0.027548226,0.0013733488,0.0007719268,0.0055423267,0.05493183,0.4119096,-1.4227484,1.9539069,-2.0998104,-1.571287,2.3796115,-0.19118683,0.27120787,-0.3238934,0.047760963,-0.0036781118,-0.24591547,-0.21068974,0.19153613,-9.346964,0.91421866,47.661808,-1.2627575,-1.8538778,-3.40587,-0.21315235,-0.025471585,-0.100348964,27.9375,29.125,28.25,31.9375,34.0,34.875
0.3660518,-0.8241497,-0.5737939,-1.1815112,-0.01636184,0.03339127,-0.1883431,-0.40482032,-0.32299727,0.05994146,-3.0801501,0.6134334,-0.00024400999,-0.17931747,0.028108435,0.0017057594,0.00043925134,0.007420018,0.04571335,0.41151345,-1.4222192,1.9532846,-2.0997145,-1.571299,2.3791223,-0.19306281,0.27206528,-0.3255234,0.046682443,-0.0041242647,-0.23857117,-0.4213795,0.34476504,-9.557653,0.99031126,47.64927,-1.1190777,-1.8988115,-3.3877854,-0.191334,-0.014275118,-0.14870168,27.9375,29.125,28.25,31.9375,34.0,34.875
0.36805195,-0.7180884,-0.71365863,-1.297304,-0.044685908,0.056189965,-0.18189745,-0.40517694,-0.3229422,0.059955142,-3.0801556,0.61330384,-0.00022592004,-0.17992693,0.029284004,0.00052864826,0.001894742,0.005613128,0.034139566,0.41114163,-1.4216781,1.9526023,-2.0995715,-1.5713233,2.3786693,-0.19509985,0.2745057,-0.32577386,0.04673273,-0.0047283573,-0.22903293,-0.36391866,0.3256114,-9.691729,0.91198283,47.625084,-1.2031707,-1.9498754,-3.5261655,-0.18695106,-0.026884228,-0.26065528,27.9375,29.125,28.25,31.9375,34.0,34.875
0.3700522,-1.5758449,-1.8321098,-1.2082094,-0.066935934,0.060020022,-0.18000585,-0.40551922,-0.3228897,0.059933282,-3.0801306,0.6131681,-0.000245508,-0.18031467,0.02985421,0.0003826685,0.0024107017,0.005854785,0.02372395,0.41079414,-1.421089,1.9519566,-2.0994756,-1.5713595,2.3782406,-0.19588144,0.27475047,-0.32582688,0.04652537,-0.00529917,-0.21939774,-0.28730422,0.30645782,-9.787497,0.97240865,47.63673,-1.1842859,-1.8882382,-3.7560105,-0.16365702,-0.017382693,-0.39882553,27.9375,29.125,28.25,31.9375,34.0,34.875
0.37205222,-1.23742,-2.131821,-1.2784699,-0.073771074,0.06581751,-0.18650879,-0.4058599,-0.32283512,0.05993468,-3.080186,0.6131059,-0.0002528223,-0.18085359,0.031169968,-0.00022725824,0.0030921295,0.004202311,0.016294174,0.41039804,-1.4205837,1.9513587,-2.0994036,-1.5713238,2.377799,-0.19853331,0.27576298,-0.32592395,0.0474066,-0.005253447,-0.21462029,-0.3256114,0.36391866,-9.902418,1.0126908,47.694054,-1.0941659,-1.7853236,-3.7988813,-0.14175104,-0.009182803,-0.5196526,27.9375,29.125,28.25,31.9375,34.0,34.875
0.3740522,-0.9166904,-1.2780482,-1.0238384,-0.09761058,0.084771946,-0.19625294,-0.40624264,-0.32278225,0.05996796,-3.0802383,0.6129752,-0.00016689632,-0.18339355,0.03085887,0.0023195883,0.0004490417,0.009293816,0.023608124,0.41000226,-1.4200562,1.9506515,-2.099284,-1.5713352,2.3773155,-0.20001851,0.27412963,-0.33000192,0.047383044,-0.0048595145,-0.22341914,-0.40222588,0.38307226,-9.80665,1.0104496,47.64658,-1.0408769,-1.7770736,-3.7315462,-0.13591318,-0.008596636,-0.509908,27.9375,29.125,28.25,31.9375,34.0,34.875
