Tylouw/Master_Thesis_Code/training_data/batch_1/big_rod_t0.3/sample_36_session_1.csv
timestamp[s],tcp_force_x[N],tcp_force_y[N],tcp_force_z[N],tcp_force_rx[Nm?],tcp_force_ry[Nm?],tcp_force_rz[Nm?],tcp_pose_x[m],tcp_pose_y[m],tcp_pose_z[m],tcp_pose_rx[rot_vec_x],tcp_pose_ry[rot_vec_y],tcp_pose_rz[rot_vec_z],tcp_velo_x[m/s],tcp_velo_y[m/s],tcp_velo_z[m/s],tcp_velo_rx[rot_vec_x/s],tcp_velo_ry[rot_vec_y/s],tcp_velo_rz[rot_vec_z/s],q1[rad],q2[rad],q3[rad],q4[rad],q5[rad],q6[rad],qd1[rad/s],qd2[rad/s],qd3[rad/s],qd4[rad/s],qd5[rad/s],qd6[rad/s],tool_acc_x,tool_acc_y,tool_acc_z,current_of_whole_robot[A],voltage_of_whole_robot[V],current_J1[A],current_J2[A],current_J3[A],current_J4[A],current_J5[A],current_J6[A],temp_J1[C],temp_J2[C],temp_J3[C],temp_J4[C],temp_J5[C],temp_J6[C]
7.9901656e-07,-0.9134365,-1.7592777,-0.34746742,-0.023921993,0.02459094,0.0013553152,-0.37291363,-0.3282041,0.05995827,-3.078477,0.6248846,-0.00016138575,0.0026786223,0.0012851914,-0.0039130026,0.0035813362,-0.0077635115,-8.345214e-05,0.44812617,-1.4708852,2.0095737,-2.1077268,-1.5707096,2.4230556,-8.077464e-05,0.0036168727,0.005025085,-9.381476e-05,0.00014647515,-0.0,0.11492168,0.19153613,-8.887277,0.7642693,47.74868,-0.19702813,-2.8666492,-2.4823372,-0.49378425,0.16777498,-0.040245358,27.625,28.8125,27.875,31.5,33.5,34.3125
0.002052573,-0.6795715,-1.3396854,-0.4312961,-0.01904332,0.017284585,0.0012509272,-0.3729189,-0.328224,0.059963945,-3.0785172,0.62493116,-0.00018544079,-0.00046807807,-0.00023602806,-0.0027311135,-0.000883228,0.0014778115,-7.911428e-05,0.44812617,-1.470873,2.0095484,-2.107731,-1.5706614,2.4230795,-7.9752106e-05,0.0037733482,0.004374315,-0.009862768,0.00014260827,-0.0,0.019153614,0.21068975,-8.944737,0.7911258,47.746887,-0.18657595,-2.7473764,-2.3320408,-0.45991153,0.19045165,-0.018278664,27.625,28.8125,27.875,31.5,33.5,34.3125
0.004051792,-0.35967717,-0.8575815,-0.42187425,-0.0152710965,0.019980237,0.00031168264,-0.37289613,-0.32819784,0.059919205,-3.0784314,0.624933,-0.0002953618,-0.0015340955,-0.0007586218,-0.0021991036,-0.0023940974,0.0045619644,-7.7049765e-05,0.44811413,-1.4708253,2.009596,-2.1077201,-1.5706857,2.4230795,-7.8755125e-05,0.0036836774,0.0039105895,-0.012743695,0.00016054367,-0.0,0.095768064,0.24899697,-8.963891,0.7553206,47.72719,-0.12004948,-3.0616744,-2.543159,-0.3752423,0.16334529,-0.027644156,27.625,28.8125,27.875,31.5,33.5,34.3125
0.006051878,0.13591024,-0.68482304,-0.41524583,0.0009009953,0.016017059,-0.005153191,-0.37290952,-0.32821712,0.0599246,-3.0784807,0.6248661,-0.00022335714,-0.00072199135,-0.0003651682,-0.0017159799,-0.0012925024,0.0022959686,-7.707486e-05,0.4481382,-1.4708138,2.0095842,-2.1077774,-1.5706857,2.4230556,-7.778285e-05,0.002515725,0.003044571,-0.00819016,0.00015792782,-0.0,0.076614454,0.22984336,-9.059659,0.72622824,47.71554,-0.14219773,-3.008402,-2.476345,-0.38154837,0.16742994,-0.036194336,27.625,28.8125,27.875,31.5,33.5,34.3125
0.008051907,0.31563067,0.024444506,-0.79207844,0.021825237,-0.00700158,-0.0147464145,-0.37289622,-0.3282064,0.059905726,-3.0784318,0.6248753,-0.0002876198,8.865935e-05,2.0962107e-05,-0.0015032867,-4.8741786e-05,-0.00030809,-7.702705e-05,0.4481382,-1.47079,2.0095956,-2.107752,-1.5706977,2.4230676,-7.683415e-05,0.0019348303,0.0022127857,-0.003891697,0.00017328099,-0.0,0.095768064,0.19153613,-9.136273,0.6926589,47.70838,-0.12572944,-2.928579,-2.400251,-0.41356617,0.15974487,-0.037557214,27.625,28.8125,27.875,31.5,33.5,34.3125
0.010052052,0.08885811,0.46779904,-1.234981,0.026080087,-0.011562689,-0.012760824,-0.3728842,-0.3282134,0.059889182,-3.078443,0.62481993,-0.00028761895,0.00021493803,8.59155e-05,-0.0012066058,0.00021541784,-0.000848801,-8.338082e-05,0.4481623,-1.4707781,2.0096314,-2.1077998,-1.5706977,2.4230556,-8.305048e-05,0.0015764497,0.0015568078,-0.0022755587,0.00017178706,-0.0,-0.038307227,0.05746084,-9.232041,0.7083204,47.688675,-0.54641366,-2.3457363,-3.0324283,-0.43699208,0.13162273,-0.076334685,27.625,28.8125,27.875,31.5,33.5,34.3125
0.012052074,-0.5065796,-0.26840025,-1.5749533,0.009863192,-0.00049111154,-0.0012298739,-0.3728899,-0.32819694,0.059885725,-3.0783992,0.6248491,-0.00036439323,0.00030132182,0.00015822581,-0.0034825713,0.0025497824,-0.0056562326,-0.00012863884,0.44812614,-1.4707525,2.0095947,-2.1077273,-1.5706977,2.4230433,-0.00012991787,0.007512846,5.738048e-05,-0.001368267,0.00014971656,-0.0,0.11492168,0.019153614,-9.308656,0.7329411,47.69763,-0.70759034,-2.2004993,-3.236865,-0.43002912,0.14227565,-0.11999577,27.625,28.8125,27.875,31.5,33.5,34.3125
0.014052099,-0.7178592,-1.4089793,-1.5979623,-0.007013075,0.023067709,-0.0017945471,-0.37286437,-0.32820243,0.05987221,-3.078401,0.6248352,-0.0004601938,-0.006101259,0.0017618563,-0.0037113042,0.0025831782,-0.00569829,-0.008951258,0.4481351,-1.4707488,2.0096161,-2.1077034,-1.5706614,2.4230433,-0.008959573,0.016528422,-0.009423745,-0.0008502548,0.000118976124,-0.0,0.0,0.15322891,-9.615114,0.7016076,47.7245,-0.3690235,-2.8607872,-2.9402924,-0.42458966,0.11838174,-0.15773612,27.625,28.8125,27.875,31.5,33.5,34.3125
0.016052242,-1.593817,-1.7976966,-1.6441272,-0.047346264,0.04799492,-0.0033541047,-0.37287122,-0.32820362,0.059864458,-3.078397,0.6248305,-0.0005014777,-0.0055328854,0.0021547265,-0.004112524,0.003360533,-0.007249425,-0.0023162991,0.448123,-1.470713,2.0095918,-2.107691,-1.5706495,2.4230287,-0.009161946,0.016505111,-0.00871872,0.00020193489,9.075898e-05,-0.00683802,-0.4213795,0.2681506,-9.634268,0.7665104,47.716442,-0.32002455,-2.7685142,-3.105432,-0.43324435,0.11367838,-0.124810845,27.625,28.8125,27.875,31.5,33.5,34.3125
0.018051993,-1.9078134,-2.2267282,-1.5632968,-0.08027197,0.096548684,-0.025462914,-0.37290862,-0.3281833,0.05986388,-3.0783606,0.62489855,-0.0004538063,-0.004468697,0.0023521245,-0.0042401003,0.0042604394,-0.009096756,0.000269064,0.4480753,-1.4706773,2.0095565,-2.107702,-1.5706857,2.4230282,-0.008559871,0.015739582,-0.008086339,0.0023893437,8.501486e-05,-0.008822445,-0.5554548,0.24899697,-9.768343,0.7463667,47.729877,-0.5834347,-2.529889,-3.4497542,-0.43065482,0.10332447,-0.11187458,27.625,28.8125,27.875,31.5,33.5,34.3125
0.02005219,-2.4061759,-2.0683718,-1.4534403,-0.08278693,0.11140154,-0.020006288,-0.37286958,-0.32817528,0.05983096,-3.0783267,0.6248924,-0.0006494742,-0.005248771,0.0023548347,-0.004447916,0.00498208,-0.0105151525,-0.00023807667,0.44806308,-1.4706525,2.0095909,-2.1076415,-1.5706376,2.4230163,-0.0092513,0.018317143,-0.010839294,0.004156291,4.596706e-05,-0.009005119,-0.53630114,0.2681506,-9.710882,0.7486078,47.716442,-0.6506077,-2.4792962,-3.4361384,-0.4590742,0.090549245,-0.14476778,27.625,28.8125,27.875,31.5,33.5,34.3125
0.022052333,-2.5525763,-2.085196,-1.7028475,-0.047151186,0.107778125,-0.022055333,-0.372888,-0.32819226,0.05984174,-3.0783617,0.6247849,-0.0005923705,-0.0074510607,0.0023064578,-0.0035570613,0.0039127176,-0.008248185,-0.002063342,0.44808635,-1.470628,2.0095422,-2.1076539,-1.5706495,2.4229681,-0.0111476835,0.01955331,-0.0141374,0.003711737,2.0176376e-05,-0.009073872,-0.61291564,0.36391866,-9.921572,0.7329411,47.721813,-0.7054497,-2.4705553,-3.3837132,-0.46296483,0.08008665,-0.1842863,27.625,28.8125,27.875,31.5,33.5,34.3125
0.024052074,-2.5492623,-1.7108188,-1.7165328,-0.035972137,0.09397199,-0.033544064,-0.37289914,-0.32819313,0.059817187,-3.0783167,0.624814,-0.0006409112,-0.009010944,0.002457266,-0.003055462,0.0030590552,-0.0064447047,-0.002584145,0.4480858,-1.470544,2.0095065,-2.1076543,-1.5706614,2.4229915,-0.01283823,0.02018878,-0.01575464,0.0026979977,1.3173732e-06,-0.010242207,-0.6703765,0.47884035,-9.902418,0.7642693,47.691364,-0.7203709,-2.4706237,-3.4641585,-0.44890034,0.077976204,-0.18857498,27.625,28.8125,27.875,31.5,33.5,34.3125
0.026052171,-2.3459785,-1.5612959,-1.6955726,-0.03494981,0.082049236,-0.04820816,-0.3729024,-0.32816693,0.059798114,-3.0782793,0.6248641,-0.0007270931,-0.010115197,0.0023719592,-0.0024826522,0.0022744497,-0.004824221,-0.001969936,0.44802552,-1.4705199,2.0095184,-2.1076305,-1.5706495,2.4229672,-0.013681462,0.020411411,-0.017175134,0.0020953438,8.6015056e-08,-0.01169858,-0.7469909,0.30645782,-9.768343,0.7530795,47.72002,-0.8178109,-2.3645804,-3.3997087,-0.4267462,0.054637887,-0.20987308,27.625,28.8125,27.875,31.5,33.5,34.3125
0.028052144,-2.0678859,-1.4105316,-1.6155028,-0.030056981,0.08159622,-0.05934603,-0.3729742,-0.32817784,0.059826497,-3.0783246,0.6248919,-0.00059371965,-0.01193677,0.0025959897,-0.001856661,0.0014646912,-0.0031533584,-0.0019387816,0.44798878,-1.4704717,2.0094087,-2.1076667,-1.5706614,2.4229422,-0.015758153,0.021302527,-0.01949093,0.0016628207,5.616168e-09,-0.013804766,-0.8236054,0.21068975,-9.787497,0.7329411,47.67345,-0.77534217,-2.2463493,-3.3898993,-0.4057778,0.04700066,-0.20640056,27.625,28.8125,27.875,31.5,33.5,34.3125
0.030052135,-2.2303162,-1.4732025,-1.4937565,-0.030138165,0.08185783,-0.07184652,-0.37296322,-0.3281809,0.059802424,-3.0783114,0.62486976,-0.0006911652,-0.013249046,0.0027949687,-0.001560811,0.0013627129,-0.001954756,-0.0013842669,0.44798833,-1.4704235,2.0094082,-2.1076548,-1.5706376,2.4229295,-0.01703333,0.022306895,-0.021169618,0.0012142893,-0.00043385816,-0.015632238,-0.6703765,0.22984336,-9.710882,0.78888994,47.704796,-0.76571083,-2.283372,-3.470796,-0.36893603,0.036764376,-0.19894354,27.625,28.8125,27.875,31.5,33.5,34.3125
0.03205204,-2.0673769,-0.9917159,-1.3690916,-0.022129737,0.09047286,-0.087961964,-0.37301758,-0.32817084,0.05981311,-3.0783014,0.62490577,-0.00066502695,-0.0139099,0.0031652043,-0.0015825835,0.0029302256,-0.0020744845,-0.0004922204,0.44792825,-1.470363,2.009312,-2.1076305,-1.57065,2.4228933,-0.017406069,0.02366026,-0.022863671,0.0023462984,-0.0017966783,-0.016893255,-0.7278373,0.05746084,-9.595961,0.7933669,47.694946,-0.7165908,-2.3831632,-3.421775,-0.35772112,0.031069864,-0.18651684,27.625,28.8125,27.875,31.5,33.5,34.3125
0.034052085,-1.5475633,-0.533502,-1.087833,-0.0063703996,0.0962077,-0.11610937,-0.37305692,-0.32818323,0.059825398,-3.0783436,0.62487656,-0.00059190125,-0.014748057,0.0033823836,-0.0013082201,0.0032706573,-0.0030648187,-0.0019490148,0.44791576,-1.4703268,2.0092518,-2.1076653,-1.57065,2.4228573,-0.018659672,0.025008766,-0.025505623,0.004679388,-0.0016738613,-0.016689308,-0.5554548,0.038307227,-9.557653,0.7105615,47.698532,-0.7517208,-2.2910671,-3.3359354,-0.3813532,0.012094332,-0.19200984,27.625,28.8125,27.875,31.5,33.5,34.3125
0.03605223,-1.6016741,-0.1724289,-1.113532,0.016212443,0.073193625,-0.1155809,-0.373076,-0.32815385,0.05979937,-3.078258,0.62493616,-0.00064681866,-0.015599303,0.0032449542,-0.0008368681,0.002974526,-0.0029972736,-0.002612238,0.44786766,-1.4702544,2.0092266,-2.107641,-1.5706862,2.4228573,-0.019333806,0.02591118,-0.027867775,0.0059484737,-0.0014397112,-0.016699413,-0.51714754,-0.05746084,-9.519346,0.8403672,47.716442,-0.74716663,-2.3101943,-3.3675854,-0.39272693,0.017057832,-0.17615432,27.625,28.8125,27.875,31.5,33.5,34.3125
0.038052585,-1.6120332,-0.03601028,-1.1434325,0.024628343,0.045210406,-0.12990195,-0.3731037,-0.32814798,0.059794296,-3.078244,0.6249341,-0.0006767483,-0.016877174,0.0029360566,-0.00032974288,0.0018283625,-0.0012241775,-0.0032993436,0.44783136,-1.4701943,2.009167,-2.1076176,-1.5706862,2.4228215,-0.020088864,0.026638452,-0.029576104,0.00483398,-0.001181082,-0.016766421,-0.30645782,-0.05746084,-9.519346,0.82694155,47.73077,-0.76831293,-2.2398992,-3.3794236,-0.35715336,-0.0020077904,-0.21601802,27.625,28.8125,27.875,31.5,33.5,34.3125
0.040052623,-0.78963923,-0.16258831,-1.3283976,0.023553398,0.040081173,-0.1369059,-0.37314996,-0.32816187,0.059797946,-3.078285,0.6250005,-0.00069157255,-0.018368298,0.0029701283,-3.916933e-05,0.0011482344,-0.00018591821,-0.003996321,0.44778275,-1.470122,2.009082,-2.10763,-1.5706381,2.4228091,-0.021613237,0.02803219,-0.031647883,0.004281724,-0.001023402,-0.017592557,-0.19153613,-0.114921674,-9.481039,0.7105615,47.72629,-0.75186586,-2.223776,-3.3436527,-0.33140695,-0.007964902,-0.19879209,27.625,28.8125,27.875,31.5,33.5,34.3125
0.04205166,-1.0326613,-0.51894045,-1.20676,0.01587845,0.017495843,-0.14893831,-0.37321743,-0.32812586,0.059810456,-3.0782263,0.6250261,-0.00058245537,-0.019494131,0.002947351,0.0002336349,0.0010767457,0.00019293504,-0.003356635,0.44771048,-1.4700735,2.0089972,-2.1076171,-1.570722,2.4227605,-0.022520643,0.029463518,-0.033961296,0.0047898395,-0.0011273213,-0.019137992,-0.15322891,-0.19153613,-9.481039,0.6859408,47.73525,-0.72805536,-2.2524118,-3.3422875,-0.31428498,-0.030471988,-0.19682035,27.625,28.8125,27.875,31.5,33.5,34.3125
0.04405221,-0.80280906,-0.8798033,-1.2102435,0.014545288,0.008952006,-0.16744879,-0.3732466,-0.3281269,0.059804182,-3.0782266,0.625026,-0.00058126985,-0.020048881,0.0034671626,0.0001831484,0.0025106098,-0.00077669916,-0.00280595,0.44768625,-1.4700131,2.008948,-2.107629,-1.5707225,2.4227362,-0.02341034,0.030760577,-0.0357166,0.0067456607,-0.0020003319,-0.020575862,-0.095768064,-0.038307227,-9.519346,0.779936,47.709274,-0.7148762,-2.2502,-3.3795748,-0.3338882,-0.04883576,-0.20164129,27.625,28.8125,27.875,31.5,33.5,34.3125
0.046052244,-1.3077894,-1.1068615,-1.448256,0.008778378,-0.0029612551,-0.17028071,-0.37327966,-0.32812974,0.059811223,-3.0782466,0.6249917,-0.0006455233,-0.021099886,0.0045182453,0.0006348896,0.005063632,0.00014848322,-0.0030183124,0.44763792,-1.4699531,2.0088522,-2.1075685,-1.5706877,2.422664,-0.024508951,0.031087399,-0.037511,0.008494465,-0.0047032963,-0.021455709,0.019153614,0.05746084,-9.481039,0.7530795,47.728977,-0.6638311,-2.1032593,-3.3573728,-0.3441661,-0.014170715,-0.18292041,27.625,28.8125,27.875,31.5,33.5,34.3125
0.04805232,-1.4957563,-1.6864127,-1.4218434,-0.00022134549,-0.00871695,-0.17665446,-0.3732979,-0.3281322,0.059790783,-3.0782425,0.6250105,-0.00074053474,-0.021733537,0.004826226,0.00078002876,0.005271509,6.0115584e-05,-0.002938594,0.4476014,-1.4698691,2.008804,-2.107556,-1.5706514,2.4226396,-0.025559574,0.0316554,-0.038635857,0.009221946,-0.004855091,-0.022584949,-0.019153614,0.095768064,-9.519346,0.7732232,47.699425,-0.710077,-2.1396332,-3.3788683,-0.32820585,-0.032217745,-0.1869331,27.625,28.8125,27.875,31.5,33.5,34.3125
0.050051644,-0.23563805,-1.3202597,-1.2793267,-0.021019638,0.024610981,-0.19460666,-0.37337348,-0.3280893,0.05980624,-3.0781739,0.62511134,-0.00058963866,-0.022638245,0.0046814475,0.0012399429,0.0042549507,-0.00014750598,-0.0022429386,0.44751692,-1.4698329,2.0087316,-2.1075675,-1.5707473,2.422627,-0.026784617,0.0324875,-0.040864304,0.010358926,-0.003851288,-0.02450688,0.0,0.2873042,-9.461885,0.71279734,47.73614,-0.56449366,-2.034036,-3.393173,-0.33569807,-0.06214264,-0.16984557,27.625,28.8125,27.875,31.5,33.5,34.3125
0.052051734,-0.6995557,-1.8676814,-1.3891116,-0.0221614,0.0017483887,-0.16795549,-0.3734188,-0.32809657,0.059813756,-3.0781884,0.62505627,-0.00061674614,-0.023226285,0.0048421975,0.0013148896,0.00390734,-0.0009553059,-0.0017440995,0.4474806,-1.4697487,2.008611,-2.1075194,-1.5707344,2.4225545,-0.028065613,0.033372708,-0.042257775,0.011442437,-0.003190407,-0.026287429,0.05746084,0.4213795,-9.461885,0.7777002,47.72002,-0.61348444,-1.9718249,-3.414395,-0.33593038,-0.0731985,-0.15181008,27.625,28.8125,27.875,31.5,33.5,34.3125
0.054051977,-0.7089039,-2.1090744,-1.6064868,-0.027965838,0.010193445,-0.15908115,-0.37344238,-0.3280714,0.059795313,-3.0781286,0.62508273,-0.00069563533,-0.023652267,0.0051476634,0.00094774953,0.004686358,-0.0025205875,-0.0013724045,0.44742018,-1.4696764,2.0085628,-2.1074712,-1.5707468,2.4225183,-0.029006781,0.035175756,-0.043717723,0.01284685,-0.003218472,-0.027599256,0.05746084,0.40222588,-9.595961,0.7284641,47.74868,-0.5873974,-2.0107949,-3.4535232,-0.35181022,-0.09449897,-0.15833165,27.625,28.8125,27.875,31.5,33.5,34.3125
0.056052063,-0.5756819,-1.8991958,-1.5748793,-0.041817322,0.024211459,-0.15843084,-0.3735185,-0.32808048,0.05982984,-3.0781803,0.62513065,-0.0006022522,-0.024734564,0.0055549024,0.0013696724,0.005704834,-0.0012441389,-0.0006834966,0.44736007,-1.4696282,2.0084307,-2.1074712,-1.5707349,2.4224815,-0.029752722,0.035754416,-0.045416173,0.013261508,-0.00469045,-0.029030262,-0.019153614,0.4405331,-9.5385,0.75755644,47.739727,-0.6420138,-2.0215344,-3.4289415,-0.34926254,-0.10275905,-0.13293976,27.625,28.8125,27.875,31.5,33.5,34.3125
0.058052134,-1.5172863,-2.2474554,-1.4214028,-0.035664186,0.020530567,-0.14552277,-0.37354666,-0.328055,0.059810013,-3.0781305,0.6250817,-0.00062701065,-0.026314812,0.0059017963,0.0019869565,0.006881451,0.001053039,1.7712022e-05,0.44731173,-1.4695559,2.008394,-2.1074588,-1.570772,2.422409,-0.030441595,0.036644313,-0.047794975,0.013193947,-0.006752683,-0.030414058,-0.038307227,0.36391866,-9.500193,0.784413,47.728977,-0.58921003,-1.983386,-3.495066,-0.3643496,-0.07809241,-0.12030104,27.625,28.8125,27.875,31.5,33.5,34.3125
0.060052082,-1.1468228,-1.8034182,-1.3254234,-0.040806796,0.05112099,-0.16361703,-0.37358987,-0.32805228,0.059816428,-3.078142,0.62504524,-0.0006802083,-0.02736412,0.006413307,0.0018422086,0.00824238,0.0015135718,0.00032261928,0.44725153,-1.4694836,2.0082862,-2.1073987,-1.5707487,2.4223247,-0.031383455,0.03827453,-0.049257364,0.013204641,-0.008183791,-0.03165639,-0.076614454,0.34476504,-9.404425,0.8179876,47.737038,-0.6324158,-1.9424175,-3.4512296,-0.37748384,-0.06709887,-0.12199412,27.625,28.8125,27.875,31.5,33.5,34.3125
0.06205197,-1.5618707,-2.0688524,-1.3657548,-0.02985293,0.05004927,-0.14634119,-0.37365833,-0.3280364,0.0598239,-3.0781288,0.6251377,-0.00063826836,-0.02840068,0.0062685334,0.0016516956,0.008771719,0.0025678654,0.0008196888,0.44716752,-1.469411,2.0081894,-2.1073992,-1.5707606,2.4223,-0.03141099,0.040318765,-0.050785556,0.011969059,-0.0091228,-0.032177556,-0.05746084,0.2681506,-9.5385,0.7911258,47.7254,-0.58359754,-1.851885,-3.511468,-0.35002685,-0.053625535,-0.077103145,27.625,28.8125,27.875,31.5,33.5,34.3125
0.06405237,-1.7719512,-2.2108393,-1.4226459,-0.028504048,0.047500186,-0.1501418,-0.373725,-0.32802135,0.05983774,-3.078128,0.62507945,-0.00060128974,-0.029763633,0.006516216,0.0016428896,0.009418976,0.0034410635,0.001526813,0.44709516,-1.4693383,2.0080698,-2.1073635,-1.5707849,2.4221916,-0.032453354,0.042221345,-0.052757014,0.011531975,-0.010090091,-0.033923455,-0.17238252,0.28730422,-9.461885,0.7351769,47.734352,-0.6833961,-1.9488387,-3.5016317,-0.35939008,-0.05339206,-0.09171555,27.625,28.8125,27.875,31.5,33.5,34.3125
0.06605184,-1.2403443,-1.6384631,-1.1963619,-0.02753736,0.06395975,-0.15597594,-0.3737756,-0.32801124,0.059822626,-3.078067,0.62510514,-0.00065068656,-0.031172117,0.0068692327,0.0018739392,0.010483638,0.004831585,0.0022776548,0.44704694,-1.4692062,2.0079486,-2.1073163,-1.5708097,2.4221673,-0.033328768,0.043672513,-0.05485188,0.011385905,-0.011659278,-0.035544127,-0.1340753,0.24899697,-9.461885,0.7463667,47.693153,-0.65645087,-1.8939124,-3.5090923,-0.35344332,-0.03766551,-0.06068451,27.625,28.8125,27.875,31.5,33.5,34.3125
0.06805185,-1.3533692,-1.0889561,-1.07561,-0.03305081,0.05843397,-0.15940087,-0.37384087,-0.32800215,0.059830945,-3.0780733,0.62508804,-0.00058397336,-0.032358143,0.006472704,0.0023588487,0.0100351125,0.006233621,0.0014415401,0.44698676,-1.4691339,2.0078528,-2.1073282,-1.5708336,2.4220958,-0.033514477,0.04487707,-0.057222772,0.011093489,-0.011864829,-0.034891997,-0.24899697,0.2681506,-9.423578,0.7911258,47.72719,-0.77155316,-1.9106724,-3.4847288,-0.34874317,-0.037604913,-0.07691501,27.625,28.8125,27.875,31.5,33.5,34.3125
0.070051804,-1.4001446,-1.3285973,-1.0617633,-0.016116494,0.05629437,-0.15954551,-0.37391007,-0.32799515,0.059846316,-3.0780816,0.62516797,-0.00056643155,-0.03251031,0.0064391955,0.0015356162,0.0097791925,0.0041634524,-0.00022541021,0.4469024,-1.4690611,2.0077322,-2.1073039,-1.5708212,2.4220603,-0.0343449,0.047103647,-0.057809774,0.011205819,-0.010738845,-0.034057517,-0.3256114,0.22984336,-9.423578,0.8023209,47.72002,-0.73395216,-1.8887253,-3.4921374,-0.3428676,-0.07082741,-0.08529778,27.625,28.8125,27.875,31.5,33.5,34.3125
0.07205198,-1.3975677,-0.8950767,-0.9120901,-0.02248982,0.059747573,-0.15021653,-0.37396616,-0.32798365,0.059861194,-3.0780761,0.6250892,-0.0005166129,-0.034758758,0.005531133,0.003216849,0.008032742,0.007834151,0.00045929616,0.44685438,-1.469001,2.007624,-2.107268,-1.5708574,2.421964,-0.034657113,0.047765434,-0.062351122,0.011018391,-0.0107604265,-0.035051655,-0.3256114,0.19153613,-9.3661175,0.8112748,47.71554,-0.7323389,-1.8963661,-3.4644756,-0.33388123,-0.038039546,-0.06715508,27.625,28.8125,27.875,31.5,33.5,34.3125
0.07405234,-2.3107135,-1.0406752,-0.8573696,-0.008655861,0.039208215,-0.14742,-0.3740494,-0.32798555,0.059870668,-3.0780947,0.62507415,-0.0004868798,-0.034953225,0.0055060894,0.0025107458,0.008021929,0.0058840783,0.0001837415,0.44678214,-1.4688805,2.007467,-2.1072562,-1.5708569,2.42188,-0.035355303,0.049948994,-0.06324048,0.011474215,-0.009908126,-0.03547563,-0.3256114,0.2681506,-9.423578,0.82022345,47.719128,-0.80825937,-1.8863137,-3.3447404,-0.31951,-0.059056215,-0.076769404,27.625,28.8125,27.875,31.5,33.5,34.3125
0.076052554,-1.9568393,-1.1685406,-0.76825315,-0.0088839475,0.050619967,-0.15171686,-0.3741101,-0.32797652,0.059863996,-3.0780833,0.62508965,-0.0005048379,-0.035368282,0.0056885,0.0013827579,0.009165013,0.0036405872,0.00018282865,0.4467101,-1.4687715,2.0073597,-2.1072438,-1.5708569,2.4218192,-0.036025565,0.053396467,-0.06452839,0.0118311085,-0.009972593,-0.0361435,-0.38307226,0.21068975,-9.3661175,0.7486078,47.705692,-0.8445588,-1.9491804,-3.4813936,-0.33264223,-0.068545684,-0.069769844,27.625,28.8125,27.875,31.5,33.5,34.3125
0.078052625,-1.7308354,-1.0330385,-1.0157405,-0.0132817775,0.06038783,-0.15207851,-0.37419873,-0.32796964,0.05987818,-3.0780723,0.6250298,-0.00042699292,-0.037825532,0.0056894687,0.0036742066,0.007497568,0.008410096,-0.00030764288,0.4466493,-1.4686524,2.007191,-2.10722,-1.5709051,2.4217227,-0.0378619,0.05176855,-0.06802113,0.011929071,-0.0105360495,-0.037486646,-0.4213795,0.15322891,-9.289502,0.6658024,47.67614,-0.8208211,-1.802372,-3.4928532,-0.3301604,-0.071673244,-0.05262491,27.625,28.8125,27.875,31.5,33.5,34.3125
0.080052674,-1.6238397,-0.73837996,-0.82379526,-0.013280633,0.05722881,-0.15369871,-0.37426066,-0.3279546,0.05987237,-3.078044,0.6250255,-0.0004870859,-0.039482135,0.005674877,0.0040023457,0.007366806,0.008838152,-0.002725597,0.44656485,-1.4685317,2.007058,-2.1071599,-1.5709051,2.4216392,-0.039278187,0.053991828,-0.07138092,0.012622812,-0.010609265,-0.036482178,-0.4405331,0.019153614,-9.404425,0.80679786,47.734352,-0.71797955,-1.8286469,-3.2133913,-0.32064342,-0.0766171,-0.07381703,27.625,28.8125,27.875,31.5,33.5,34.3125
0.082052045,-1.4449065,-0.88533413,-1.0874963,-0.008124132,0.057091307,-0.14983745,-0.37436354,-0.32795057,0.059903655,-3.0780733,0.6251101,-0.0003304416,-0.039434437,0.0064434055,0.002317756,0.009561609,0.006190772,-0.005432646,0.4464806,-1.4684588,2.0069144,-2.107196,-1.5709294,2.4216042,-0.04010666,0.05712516,-0.07090176,0.012347918,-0.011440013,-0.034602746,-0.3256114,0.095768064,-9.385271,0.800085,47.71554,-0.80968,-1.839937,-3.471599,-0.3118538,-0.093793154,-0.08335315,27.625,28.8125,27.875,31.5,33.5,34.3125
0.08405224,-2.109093,-1.1628761,-1.0496172,-0.0053112856,0.042941812,-0.13723734,-0.3744309,-0.32793832,0.059895523,-3.0780377,0.6251018,-0.0004052911,-0.04085554,0.005844213,0.002624655,0.010630746,0.0071884138,-0.0035537658,0.4463968,-1.468314,2.0067575,-2.107124,-1.5709299,2.4215198,-0.039310418,0.060128458,-0.075083114,0.013091309,-0.012844926,-0.035678994,-0.28730422,0.1340753,-9.442732,0.72622824,47.672558,-0.86408055,-2.0030382,-3.2878938,-0.3008154,-0.068263136,-0.10722515,27.625,28.8125,27.875,31.5,33.5,34.3125
0.08605222,-1.263901,-0.8690835,-1.068727,-0.0107508125,0.06297013,-0.15537186,-0.3745121,-0.32795537,0.05991012,-3.0780516,0.62504745,-0.00033589551,-0.043027762,0.0066848095,0.004675023,0.010275212,0.011871971,-0.004914281,0.446372,-1.468183,2.0065773,-2.1071117,-1.5709547,2.4214594,-0.041692305,0.05765769,-0.07709997,0.013205299,-0.014549388,-0.036696542,-0.30645782,0.21068975,-9.3661175,0.7150385,47.716442,-0.7905055,-1.7471344,-3.2216291,-0.289578,-0.049418263,-0.11375229,27.625,28.8125,27.875,31.5,33.5,34.3125
0.0880523,-1.7765602,-1.2803929,-1.219697,-0.004265941,0.051014993,-0.14949206,-0.37461442,-0.3279105,0.059938516,-3.0780118,0.6251549,-0.00024781306,-0.043558452,0.0074106487,0.003192082,0.012734191,0.008794184,-0.0061172717,0.44622773,-1.4681216,2.0064337,-2.1070635,-1.5710028,2.4213874,-0.04292252,0.061905686,-0.07862595,0.01432026,-0.015437889,-0.036721192,-0.30645782,0.19153613,-9.442732,0.779936,47.69763,-0.7414926,-1.8854601,-3.3115091,-0.2962664,-0.037215322,-0.105280265,27.625,28.8125,27.875,31.5,33.5,34.3125
0.090052344,-1.6864533,-1.5464206,-1.1615283,-0.01466339,0.051285233,-0.13875367,-0.3747017,-0.32789645,0.059931118,-3.0779753,0.62511,-0.00021622212,-0.045864493,0.007421125,0.003918876,0.011885144,0.009982739,-0.008111422,0.44615483,-1.4679652,2.006276,-2.1070511,-1.571051,2.4212914,-0.045183383,0.06403859,-0.08277741,0.014896341,-0.015192693,-0.036985617,-0.36391866,0.21068975,-9.404425,0.7038487,47.698532,-0.7020049,-1.8713074,-3.235493,-0.3149529,-0.023642294,-0.13738087,27.625,28.8125,27.875,31.5,33.5,34.3125
0.09205234,-1.6786599,-1.6532326,-1.305867,-0.03021894,0.054710392,-0.14090768,-0.37477204,-0.32786652,0.059929196,-3.0779357,0.6251587,-0.00027859653,-0.04474188,0.007828703,0.0022765761,0.012741948,0.0058080917,-0.007672492,0.44603467,-1.4678569,2.0061448,-2.1069791,-1.5710505,2.4212067,-0.04561928,0.06589016,-0.08121995,0.015617172,-0.014161727,-0.03786272,-0.53630114,0.11492168,-9.385271,0.7038487,47.68062,-0.6611191,-1.9690075,-3.253409,-0.3001635,-0.04657641,-0.1528159,27.625,28.8125,27.875,31.5,33.5,34.3125
0.094051994,-1.8826555,-2.1305373,-1.1885128,-0.02746298,0.047842488,-0.13351326,-0.37487897,-0.32787114,0.059939235,-3.0779343,0.6252153,-0.00019608687,-0.04498343,0.0075325817,0.0020943217,0.013355413,0.005634245,-0.006427483,0.445963,-1.4677006,2.0059526,-2.106991,-1.5710748,2.4211707,-0.044944994,0.06735254,-0.0824662,0.015821993,-0.014640937,-0.038432244,-0.4022259,0.28730422,-9.385271,0.76874626,47.683304,-0.8247068,-1.9146367,-3.3571725,-0.28875297,-0.05631157,-0.15287234,27.625,28.8125,27.875,31.5,33.5,34.3125
0.09605206,-1.2665945,-1.6899726,-1.2264303,-0.040655162,0.0684514,-0.14947776,-0.3749577,-0.32786173,0.0599331,-3.077902,0.62517166,-0.00021800898,-0.048142035,0.007452391,0.0034894648,0.012588957,0.008830664,-0.008425507,0.4458902,-1.4675442,2.0057838,-2.1069434,-1.5710987,2.4210749,-0.047165524,0.069360554,-0.08793969,0.016073452,-0.015340505,-0.038649295,-0.22984336,0.2681506,-9.3661175,0.7978386,47.70032,-0.79404753,-1.9436281,-3.068398,-0.26947722,-0.014737433,-0.18188289,27.625,28.8125,27.875,31.5,33.5,34.3125
0.0980523,-2.012248,-2.0430257,-1.1651124,-0.025042126,0.04528913,-0.1381106,-0.37507597,-0.327848,0.05994306,-3.0779145,0.6252511,-0.000159851,-0.048156463,0.00825084,0.002260242,0.014042102,0.0068836943,-0.008558633,0.44575787,-1.4673998,2.005605,-2.1069553,-1.5710992,2.4209907,-0.048342302,0.07131544,-0.08721298,0.015774166,-0.015809847,-0.039692756,-0.15322891,0.24899697,-9.385271,0.779936,47.70838,-0.732832,-1.9364618,-3.3480253,-0.25771046,-0.026896428,-0.19377443,27.625,28.8125,27.875,31.5,33.5,34.3125
0.10005232,-1.691058,-1.588283,-1.1526966,-0.01599373,0.037476994,-0.14083104,-0.3751944,-0.32784316,0.05998729,-3.0778956,0.62530434,-5.4422715e-05,-0.049401272,0.0074603646,0.0026519068,0.01241996,0.007031944,-0.008749723,0.44567364,-1.4672792,2.0053518,-2.1068714,-1.5711464,2.4209423,-0.048909795,0.07339808,-0.09048996,0.016127028,-0.014414452,-0.040070552,-0.21068975,0.24899697,-9.3661175,0.7642693,47.687782,-0.6792744,-1.9925022,-3.18357,-0.24695621,-0.025277048,-0.18767922,27.625,28.8125,27.875,31.5,33.5,34.3125
0.10205226,-1.1844634,-1.2765685,-1.1752617,-0.017115977,0.041589182,-0.1429458,-0.37525785,-0.32781574,0.059962742,-3.0778394,0.62525475,-9.585825e-05,-0.05040364,0.007335851,0.002832738,0.011967765,0.0073413355,-0.009039787,0.4455893,-1.4671351,2.005244,-2.1068475,-1.5711826,2.4208343,-0.049751934,0.074759945,-0.092437804,0.01623495,-0.014146298,-0.040620994,-0.1340753,0.24899697,-9.289502,0.83589023,47.699425,-0.73566914,-1.9688611,-3.2052405,-0.24355401,-0.0301326,-0.23775548,27.625,28.8125,27.875,31.5,33.5,34.3125
0.10405249,-1.024888,-1.5788792,-1.2168027,0.0013805266,0.035708237,-0.14796826,-0.3753701,-0.32780582,0.059970256,-3.0778387,0.62532973,-6.708025e-05,-0.05047436,0.0072112144,0.002293751,0.012093658,0.0054259747,-0.006956237,0.44546932,-1.4669787,2.0050519,-2.1068351,-1.5711826,2.4207613,-0.050044656,0.076704055,-0.09357409,0.017203992,-0.013435028,-0.042998362,-0.17238252,0.21068975,-9.32781,0.7284641,47.716442,-0.7790315,-1.988332,-3.2360969,-0.24028137,-0.033670403,-0.2178796,27.625,28.8125,27.875,31.5,33.5,34.3125
0.10605168,-1.3676072,-1.6549938,-1.3793223,-0.0072034607,0.01811595,-0.13355726,-0.37548172,-0.3277911,0.05998562,-3.0777946,0.6253204,-3.7703794e-05,-0.051703703,0.0071739014,0.0024004953,0.012303849,0.0060657365,-0.0069169416,0.44537303,-1.4668103,2.0048125,-2.1067517,-1.5712303,2.420665,-0.050749272,0.07857203,-0.095872246,0.017145222,-0.0139063215,-0.043739498,-0.095768064,0.19153613,-9.308657,0.7642693,47.701214,-0.8135432,-1.9733613,-3.1675034,-0.22210783,-0.025254145,-0.2332125,27.625,28.8125,27.875,31.5,33.5,34.3125
0.10805178,-0.93985766,-1.5662723,-1.1750084,-0.023612315,0.022656245,-0.14421897,-0.37557304,-0.32778606,0.059967134,-3.0777757,0.6252974,-5.5782417e-05,-0.05272826,0.006651571,0.0033104427,0.0115031935,0.008174073,-0.0077218553,0.4452892,-1.4666185,2.0046437,-2.1067517,-1.5712422,2.4205694,-0.050549183,0.07865389,-0.098021485,0.016964763,-0.014097222,-0.042732473,-0.095768064,0.24899697,-9.251195,0.6971306,47.692257,-0.8472259,-1.9575143,-3.2173672,-0.20347303,-0.0119001055,-0.26862702,27.625,28.8125,27.875,31.5,33.5,34.3125
0.1100518,-1.0877811,-1.8252962,-1.2338396,-0.030646462,0.025357231,-0.14133497,-0.37570027,-0.32776996,0.05998737,-3.0777602,0.62533265,2.0556652e-05,-0.052762225,0.007276174,0.0012727918,0.013834755,0.0038834275,-0.0072629307,0.4451687,-1.4664612,2.0044158,-2.106715,-1.5712785,2.420473,-0.051561695,0.08340879,-0.098801054,0.01786249,-0.014352654,-0.044202935,-0.15322891,0.2681506,-9.308657,0.8247004,47.705692,-0.91699964,-2.0769804,-3.1906567,-0.18021426,-0.014281763,-0.27902603,27.625,28.8125,27.875,31.5,33.5,34.3125
0.11205178,-1.1842549,-2.1564295,-1.2869639,-0.028540205,0.022270868,-0.1457557,-0.3758156,-0.32777825,0.060011573,-3.0778055,0.6253421,8.4839594e-05,-0.054510612,0.0072106295,0.003290855,0.011860975,0.0071474016,-0.007897719,0.44507217,-1.4663182,2.0042002,-2.106703,-1.5712665,2.4203768,-0.053245496,0.0815625,-0.10159746,0.018706467,-0.013978477,-0.04525246,-0.11492168,0.2681506,-9.404425,0.73741806,47.728977,-0.8653518,-1.9480352,-3.1577363,-0.18396628,-0.023135172,-0.2878679,27.625,28.8125,27.875,31.5,33.5,34.3125
0.11405217,-0.94422555,-1.5258634,-1.1558166,-0.033610534,0.03166866,-0.14548789,-0.37589592,-0.32773396,0.059996035,-3.0776892,0.6253724,4.6872763e-05,-0.0530737,0.0064383843,0.00080965494,0.014162555,0.0021507922,-0.0027334767,0.44496527,-1.4661608,2.0040433,-2.1066191,-1.5713385,2.4203038,-0.050539225,0.08676465,-0.10175261,0.019153198,-0.013909698,-0.047708634,-0.11492168,0.30645782,-9.32781,0.75755644,47.695843,-1.0694177,-1.8935843,-3.2065618,-0.17645791,-0.0080258185,-0.3067384,27.625,28.8125,27.875,31.5,33.5,34.3125
0.1160525,-1.034132,-1.3513255,-1.1279541,-0.03282611,0.020820174,-0.14511432,-0.37603363,-0.32772306,0.060020544,-3.0776772,0.625507,0.00016949067,-0.054310136,0.0065287617,0.002027153,0.012414788,0.0040669735,-0.0055053155,0.44484454,-1.4660053,2.003816,-2.1066186,-1.5713738,2.4202688,-0.05230674,0.08555666,-0.1032829,0.019404508,-0.013155843,-0.04670619,-0.1340753,0.24899697,-9.251195,0.81351066,47.72271,-1.042978,-2.0582209,-3.2489338,-0.16644047,0.0003064914,-0.33827585,27.625,28.8125,27.875,31.5,33.5,34.3125
0.11805259,-1.0954443,-1.2847607,-1.1845634,-0.01915936,0.021720538,-0.14048848,-0.37612972,-0.3277415,0.060026396,-3.0777018,0.6253963,0.00014130921,-0.054492433,0.006631552,0.00090163597,0.013185595,0.0013557486,-0.00801815,0.4447845,-1.4658124,2.0035765,-2.106559,-1.5713619,2.4201367,-0.052967705,0.088758975,-0.10440645,0.020104503,-0.012685656,-0.044854145,-0.095768064,0.28730422,-9.270349,0.78888994,47.699425,-1.0770311,-1.8868229,-3.3325434,-0.15037738,-0.030508224,-0.3765123,27.625,28.8125,27.875,31.5,33.5,34.3125
0.120051876,-0.73304635,-0.905502,-1.2288808,-0.009787506,0.020359442,-0.13915253,-0.3762378,-0.32772252,0.06000512,-3.077645,0.625424,0.00012905421,-0.05543031,0.007307369,0.00047005975,0.01375459,0.00056573655,-0.007988784,0.44467562,-1.4655963,2.0033844,-2.1065466,-1.5713977,2.4200525,-0.054940026,0.0905431,-0.1054496,0.020317407,-0.012864462,-0.04685421,-0.076614454,0.24899697,-9.32781,0.7978386,47.687782,-1.0072805,-2.0324316,-3.3434553,-0.14801702,-0.032023743,-0.41535854,27.625,28.8125,27.875,31.5,33.5,34.3125
0.1220519,-0.66385716,-0.96050745,-1.0716436,-0.002574295,0.018786341,-0.14931235,-0.37635145,-0.32770032,0.06002024,-3.0776212,0.62543565,0.00017856782,-0.056159284,0.006202811,0.0011855218,0.01282864,0.0017891933,-0.004579502,0.44455618,-1.4654523,2.0031803,-2.106499,-1.5714339,2.4199436,-0.05370965,0.09159739,-0.10833701,0.020641474,-0.01256132,-0.049032137,-0.05746084,0.15322891,-9.3661175,0.7709874,47.68062,-1.2362223,-2.0026846,-3.2171512,-0.12501632,-0.036693297,-0.40681863,27.625,28.8125,27.875,31.5,33.5,34.3125
0.12405255,-0.5702155,-1.338791,-1.1248184,-0.0051888786,0.025866086,-0.14436546,-0.37647045,-0.32768226,0.06000198,-3.077567,0.62554026,0.0001429347,-0.05606779,0.0074446737,-0.00025677172,0.014800916,-0.0011201196,-0.0044013415,0.44442356,-1.4652238,2.0029647,-2.1064746,-1.5714463,2.4198833,-0.055576682,0.09362981,-0.10740739,0.02115189,-0.0130916145,-0.051076185,-0.038307227,0.11492168,-9.251195,0.779936,47.68062,-1.1535838,-2.0220246,-3.4146008,-0.11590074,-0.044972673,-0.42897978,27.625,28.8125,27.875,31.5,33.5,34.3125
0.12605257,-0.9875225,-1.4345201,-1.3005372,0.0023000343,0.024176644,-0.14295635,-0.37659365,-0.32767084,0.060038783,-3.077575,0.6255414,0.0002504246,-0.057375472,0.0072762757,0.00012024509,0.014301247,-0.0010333074,-0.0033304924,0.44431517,-1.4651035,2.0027368,-2.1064265,-1.5714816,2.4197748,-0.056692455,0.095414616,-0.11047271,0.022132462,-0.012680967,-0.053262617,-0.05746084,0.17238252,-9.308656,0.7642693,47.66808,-1.1713076,-2.01671,-3.3103056,-0.08565764,-0.04894448,-0.43564427,27.625,28.8125,27.875,31.5,33.5,34.3125
0.12805165,-0.998057,-1.0647894,-1.1974851,-0.012873647,0.030038785,-0.14547816,-0.37671137,-0.32766294,0.060029007,-3.0775576,0.62551683,0.0002047055,-0.05791799,0.007941974,0.00043805005,0.015480696,-0.0009499114,-0.0011902723,0.44419482,-1.4648759,2.0024974,-2.1063783,-1.5714821,2.4196415,-0.057660718,0.095408544,-0.11156218,0.023659032,-0.013785198,-0.056368228,-0.095768064,0.1340753,-9.346964,0.80679786,47.64837,-1.1176026,-2.0470655,-3.474739,-0.09557709,-0.03898648,-0.433909,27.625,28.8125,27.875,31.5,33.5,34.3125
0.13005267,-0.912812,-1.3946255,-1.1787387,-0.014121512,0.04262179,-0.14800532,-0.37681597,-0.32763803,0.060018945,-3.0774744,0.62547857,0.00014352496,-0.058060877,0.008259638,-0.0011482727,0.01702375,-0.0051566395,0.0011336218,0.44408655,-1.4646586,2.0022562,-2.1062696,-1.5715302,2.4195201,-0.058642123,0.09983249,-0.113204785,0.025330348,-0.013378653,-0.059672073,-0.15322891,0.17238252,-9.32781,0.8112748,47.691364,-1.1477008,-2.0630586,-3.4824204,-0.098457515,-0.042714767,-0.4188961,27.625,28.8125,27.875,31.5,33.5,34.3125
0.13205263,-1.0410694,-1.1523993,-1.2243255,-0.006299413,0.038944133,-0.14782768,-0.3769328,-0.3276297,0.0600188,-3.0774827,0.6254406,0.00014349318,-0.060239,0.008490914,0.001192433,0.015669517,-0.0009142773,0.0028601105,0.44396594,-1.4644679,2.0020406,-2.1062453,-1.5715302,2.419375,-0.060595796,0.097695135,-0.11645032,0.026297376,-0.013986411,-0.063349694,-0.19153613,0.15322891,-9.346964,0.7463667,47.691364,-1.1740822,-1.8781956,-3.484058,-0.104334645,-0.031215236,-0.4077217,27.625,28.8125,27.875,31.5,33.5,34.3125
0.13405238,-1.4602865,-1.1657023,-1.272668,0.003799644,0.031428218,-0.14078104,-0.37705225,-0.327625,0.06002251,-3.077484,0.6254196,0.00016568317,-0.059427086,0.008893572,-0.00086192146,0.016757417,-0.0056986394,0.006666171,0.44385764,-1.4642752,2.0018141,-2.106221,-1.5715417,2.4192536,-0.061323516,0.10100713,-0.11554091,0.026853207,-0.012914274,-0.06788608,-0.11492168,0.095768064,-9.3661175,0.7866488,47.657326,-1.1755464,-1.8422592,-3.4903893,-0.09746879,-0.057082273,-0.37068003,27.625,28.8125,27.875,31.5,33.5,34.3125
0.13605238,-1.630378,-1.4872061,-1.4085968,0.010900507,0.035859063,-0.14340755,-0.37718397,-0.32759568,0.06002701,-3.0774379,0.62544715,0.00014650742,-0.06242952,0.008325839,0.0016367431,0.014843,-0.0007945482,0.008923972,0.44370115,-1.4640715,2.00156,-2.106137,-1.5715665,2.4191203,-0.06265899,0.10077365,-0.12116521,0.027453944,-0.013307692,-0.07147502,-0.15322891,0.038307227,-9.385271,0.7553206,47.70211,-1.1742343,-1.8714526,-3.3404195,-0.09729552,-0.087219514,-0.32322517,27.625,28.8125,27.875,31.5,33.5,34.3125
0.13805246,-1.3412303,-0.8853821,-1.3292049,-0.006546854,0.051172353,-0.15273638,-0.3772883,-0.32758972,0.06001768,-3.0774171,0.6252487,0.00014593964,-0.06276711,0.0088262735,0.0011091203,0.015744826,-0.0022875976,0.011393613,0.44362876,-1.4638554,2.001332,-2.1060889,-1.5716146,2.418927,-0.06376082,0.10236242,-0.12193674,0.028364683,-0.013486579,-0.07504522,-0.26815057,0.17238252,-9.442732,0.784413,47.67345,-1.2504189,-1.8550053,-3.4630418,-0.088945165,-0.05983946,-0.30241424,27.625,28.8125,27.875,31.5,33.5,34.3125
0.14005259,-1.5142815,-0.98415095,-1.5289625,-0.0061244336,0.065075174,-0.15131734,-0.37743002,-0.32756358,0.06003454,-3.0774038,0.62530226,0.00016982945,-0.063689984,0.009454113,0.0005694983,0.017265286,-0.0037740597,0.01365858,0.44346043,-1.4636747,2.0010803,-2.1060288,-1.5716261,2.418794,-0.06523578,0.10507206,-0.12401704,0.029725878,-0.014226779,-0.07878246,-0.4405331,0.15322891,-9.461885,0.8314132,47.690468,-1.2224514,-1.874682,-3.4268684,-0.10308059,-0.07460341,-0.23378907,27.625,28.8125,27.875,31.5,33.5,34.3125
0.14205256,-2.1889436,-1.2997574,-1.6698908,-0.008729592,0.058106683,-0.14479578,-0.37752807,-0.3275374,0.060004666,-3.07734,0.6251937,5.6099252e-05,-0.065071955,0.009468193,0.001496313,0.016184082,-0.0027975931,0.0136587145,0.4433398,-1.463435,2.0008652,-2.1059449,-1.5716504,2.418614,-0.06684348,0.10533039,-0.12669289,0.030790178,-0.013683381,-0.08038874,-0.40222588,0.19153613,-9.442732,0.67475104,47.70211,-1.1908665,-1.926492,-3.394479,-0.09355084,-0.1037603,-0.18715027,27.625,28.8125,27.875,31.5,33.5,34.3125
0.14405195,-2.467658,-1.6669991,-1.7072694,-0.01589353,0.06445781,-0.14099476,-0.37768513,-0.3275289,0.060041033,-3.0773437,0.625175,0.00014811251,-0.06631377,0.009813747,0.0019174675,0.016527219,-0.0020303803,0.013693877,0.44320726,-1.4632431,2.0005534,-2.105872,-1.5716861,2.4184694,-0.06813937,0.106231794,-0.12882634,0.031472433,-0.014323851,-0.08171784,-0.51714754,0.24899697,-9.557653,0.800085,47.67614,-1.1648055,-1.8081579,-3.3307743,-0.10950187,-0.09462556,-0.18125021,27.625,28.8125,27.875,31.5,33.5,34.3125
0.14605287,-2.6018066,-1.7612042,-1.6601999,-0.032850996,0.07179509,-0.1444782,-0.37781444,-0.32751566,0.06005262,-3.0773497,0.62509936,0.0001597659,-0.06718413,0.010036277,0.0018920609,0.01679052,-0.002003047,0.012302697,0.44307503,-1.463051,2.0003011,-2.1058123,-1.5716985,2.4182894,-0.06913642,0.10755907,-0.13030711,0.03171266,-0.014576898,-0.081322186,-0.57460845,0.22984336,-9.576807,0.8247004,47.684196,-1.1860491,-1.7065802,-3.4207406,-0.10126813,-0.09032436,-0.14247969,27.625,28.8125,27.875,31.5,33.5,34.3125
0.14805186,-2.743997,-2.4082577,-1.7943437,-0.020428618,0.07832044,-0.13817845,-0.37794465,-0.32749632,0.06004696,-3.0773268,0.6250572,0.00012655182,-0.0685373,0.010336388,0.0018469412,0.01759021,-0.0018137643,0.009839334,0.4429306,-1.4628227,2.0000484,-2.1057527,-1.571711,2.4181218,-0.070333816,0.109797314,-0.13279393,0.032134358,-0.015388047,-0.08005223,-0.61291564,0.19153613,-9.576807,0.75084364,47.698532,-1.2098377,-1.7449318,-3.386674,-0.10864916,-0.123148546,-0.13188794,27.625,28.8125,27.875,31.5,33.5,34.3125
0.15005207,-2.327987,-1.8054509,-1.7454786,-0.031328704,0.091627724,-0.1454624,-0.37806347,-0.3274738,0.060039934,-3.0772905,0.6249936,8.669584e-05,-0.06988201,0.0105602145,0.0019850803,0.017849356,-0.001163519,0.0073611448,0.4427981,-1.4626067,1.9998096,-2.1056807,-1.5717348,2.4179544,-0.07157708,0.11145257,-0.13497055,0.032178715,-0.015909461,-0.078813866,-0.61291564,0.22984336,-9.653421,0.8291774,47.68599,-1.1601062,-1.7682636,-3.401493,-0.10154513,-0.10054538,-0.13728355,27.625,28.8125,27.875,31.5,33.5,34.3125
0.15205215,-2.0701437,-1.7789562,-1.7481759,-0.027889006,0.09390725,-0.14790024,-0.37821373,-0.32746166,0.060041927,-3.0772438,0.62492985,5.870363e-05,-0.07048443,0.011280945,0.00024809816,0.019972196,-0.0042766253,0.0015636245,0.44266573,-1.4623294,1.9994744,-2.1055734,-1.5717715,2.4177885,-0.07303882,0.116037026,-0.13615744,0.032506138,-0.01649716,-0.07447464,-0.5363012,0.21068975,-9.653421,0.78217715,47.694946,-1.2010217,-1.6288836,-3.4229803,-0.08879304,-0.11912402,-0.16357574,27.625,28.8125,27.875,31.5,33.5,34.3125
0.154052,-1.992519,-1.4741883,-1.4683971,-0.034514666,0.08395587,-0.15159957,-0.3783571,-0.32741904,0.060045604,-3.077183,0.6249958,0.00011456129,-0.07134903,0.0108394455,0.00063771737,0.019139938,-0.0037130653,-0.0027885505,0.44249758,-1.4621373,1.9992455,-2.1055372,-1.5718306,2.4176695,-0.07329296,0.11710012,-0.13829236,0.032708738,-0.015988851,-0.07037651,-0.5554548,0.17238252,-9.691729,0.7642693,47.713753,-1.1837642,-1.7447042,-3.4344082,-0.087281704,-0.1186706,-0.21310262,27.625,28.8125,27.875,31.5,33.5,34.3125
0.15605216,-1.958035,-1.5334585,-1.4827288,-0.026849145,0.069942825,-0.14336391,-0.37851885,-0.3273904,0.060061287,-3.0771484,0.62499094,0.00019844205,-0.07288503,0.012639872,-0.0009533582,0.02127079,-0.0060745673,-0.0070819585,0.44234028,-1.4619203,1.998959,-2.1054895,-1.5718912,2.4175138,-0.077380426,0.121161506,-0.1391122,0.032510437,-0.016906058,-0.07016764,-0.59376204,0.17238252,-9.481039,0.7553206,47.704796,-1.0137069,-1.797779,-3.3707118,-0.0670821,-0.102411166,-0.26083076,27.625,28.8125,27.875,31.5,33.5,34.3125
0.15805213,-1.7865193,-1.3560014,-1.3187379,-0.019867377,0.07206882,-0.14303534,-0.37869135,-0.32738104,0.060067076,-3.077131,0.6250257,0.0002379469,-0.07452061,0.011281071,0.0009537313,0.019509878,-0.0018473469,-0.007331383,0.44218478,-1.4616451,1.9986333,-2.1054533,-1.571915,2.4173825,-0.07610438,0.1208993,-0.14316447,0.032249473,-0.017132599,-0.068639554,-0.45968673,0.21068975,-9.481039,0.85826975,47.705692,-1.1025496,-1.7258029,-3.2829993,-0.05965298,-0.12870622,-0.27079505,27.625,28.8125,27.875,31.5,33.5,34.3125
0.16005212,-1.7769543,-1.4413576,-1.3993653,-0.010986749,0.05939027,-0.14967996,-0.378822,-0.32733998,0.060062077,-3.0770507,0.6250871,0.00019324926,-0.07535075,0.0121448105,0.00010033189,0.020566408,-0.0035097008,-0.010291685,0.44201607,-1.4614284,1.9983834,-2.1053574,-1.5719517,2.4172626,-0.07825871,0.12339065,-0.14407074,0.032615643,-0.01738285,-0.067831144,-0.4213795,0.21068975,-9.385271,0.8090337,47.683304,-1.1184685,-1.8122305,-3.3355913,-0.04332474,-0.13037771,-0.29590195,27.625,28.8125,27.875,31.5,33.5,34.3125
0.1620521,-2.018335,-1.3360689,-1.2793504,-0.014476538,0.044418294,-0.1435593,-0.37901884,-0.3273474,0.060109254,-3.077085,0.62511426,0.00033576696,-0.07747893,0.013417665,0.00046414396,0.020642,-0.0032401297,-0.012423018,0.44187045,-1.4611886,1.9979991,-2.1053092,-1.5719756,2.4171298,-0.08236577,0.12462895,-0.14652996,0.03361894,-0.017566247,-0.06980684,-0.38307226,0.15322891,-9.346964,0.78217715,47.68062,-0.91496515,-1.8465326,-3.3357668,-0.05247163,-0.1270845,-0.30866328,27.625,28.8125,27.875,31.5,33.5,34.3125
0.1640524,-1.5609541,-1.6048218,-1.2780092,0.00065176666,0.04008335,-0.14256993,-0.3791762,-0.32732028,0.060100622,-3.0770714,0.62514794,0.000319038,-0.07843316,0.012025333,0.0013942616,0.019430345,-0.0022599483,-0.009613007,0.44167918,-1.4609364,1.9977344,-2.1052845,-1.5719751,2.4169614,-0.08101727,0.1262133,-0.15071565,0.03480847,-0.016900377,-0.071267374,-0.36391866,0.22984336,-9.308657,0.75084364,47.713753,-1.0780952,-1.7462085,-3.2748163,-0.045464374,-0.16272785,-0.2925003,27.625,28.8125,27.875,31.5,33.5,34.3125
0.1660524,-1.4297643,-1.5071795,-1.3195549,0.005912877,0.03781901,-0.13225067,-0.37932536,-0.32726184,0.060085293,-3.0769372,0.62521863,0.0002621689,-0.0782612,0.014091685,-0.0014225607,0.023310507,-0.0082563,-0.01249299,0.44148603,-1.4606711,1.9974488,-2.1051648,-1.5720481,2.4168298,-0.084052086,0.13090496,-0.14982004,0.036295373,-0.01785031,-0.0714185,-0.3256114,0.05746084,-9.308657,0.76874626,47.687782,-0.98525536,-1.825162,-3.338598,-0.060167804,-0.14531544,-0.3239984,27.625,28.8125,27.875,31.5,33.5,34.3125
0.16805245,-1.2335509,-0.9391478,-1.0913801,-0.004735961,0.03297026,-0.15093179,-0.3794767,-0.32726103,0.060082972,-3.0769303,0.62519747,0.00029978392,-0.07913427,0.01418841,-0.00046274075,0.022246316,-0.0073040007,-0.013502845,0.44136578,-1.4604082,1.9971603,-2.105152,-1.5720719,2.4166975,-0.08534247,0.13013531,-0.15144575,0.037368882,-0.017297368,-0.07170012,-0.21068975,0.076614454,-9.251195,0.77545905,47.67345,-0.9031036,-1.8820457,-3.3118143,-0.04958176,-0.13805832,-0.3618514,27.625,28.8125,27.875,31.5,33.5,34.3125
0.17005253,-1.3640238,-0.75240207,-1.0329936,-0.008661867,0.03060536,-0.14447361,-0.3796696,-0.32722443,0.060125187,-3.076914,0.62527066,0.0003878338,-0.079005376,0.014613752,-0.0029200085,0.02515095,-0.0136180455,-0.012629742,0.4411495,-1.4602017,1.9968132,-2.1050556,-1.5721072,2.4165292,-0.08602188,0.13662249,-0.15361947,0.039996326,-0.017228253,-0.073252045,-0.17238252,0.19153613,-9.174581,0.81351066,47.687782,-0.84551233,-2.0021234,-3.3898654,-0.06607085,-0.16403729,-0.3445119,27.625,28.8125,27.875,31.5,33.5,34.3125
0.17205174,-1.2996833,-1.3125058,-0.7367191,0.0019437405,0.041478038,-0.14987181,-0.379826,-0.32720348,0.060111858,-3.0768337,0.62525666,0.00034220613,-0.080569595,0.016425377,-0.0021052312,0.025916118,-0.013729291,-0.0178032,0.4410039,-1.4598907,1.9964775,-2.1049588,-1.5721558,2.4163854,-0.09031932,0.13594392,-0.15543872,0.042919155,-0.01787777,-0.07237315,-0.24899697,0.1340753,-9.040505,0.8224646,47.687782,-0.7817331,-1.8994882,-3.2991676,-0.10875332,-0.16236924,-0.38590086,27.625,28.8125,27.875,31.5,33.5,34.3125
0.1740518,-1.6607624,-1.0868855,-0.79536444,0.002510528,0.037426654,-0.14714387,-0.37997213,-0.327175,0.060108397,-3.0767663,0.6252773,0.00027318913,-0.08124565,0.015250307,-0.0014202266,0.025339756,-0.011823708,-0.011947486,0.44083676,-1.459627,1.9961661,-2.104839,-1.5721797,2.41624,-0.08847513,0.13689664,-0.15801454,0.04256278,-0.018189147,-0.07638095,-0.24899697,0.076614454,-9.059659,0.8627467,47.716442,-0.8088166,-1.8592985,-3.307932,-0.12029718,-0.1631185,-0.3715774,27.625,28.8125,27.875,31.5,33.5,34.3125
0.17605178,-1.570591,-0.89519835,-0.7824516,0.004908022,0.04246748,-0.1534578,-0.38014925,-0.3271343,0.060101256,-3.0767303,0.62528706,0.0002649292,-0.0828708,0.016251558,-0.0012801796,0.026133804,-0.012080876,-0.009445413,0.4406198,-1.4593508,1.9958657,-2.104791,-1.572204,2.416034,-0.09131904,0.13851939,-0.16048878,0.04397314,-0.018811798,-0.08172371,-0.19153613,0.05746084,-9.078813,0.8090337,47.68599,-0.79754925,-1.9526496,-3.2749758,-0.13846123,-0.18582386,-0.31947213,27.625,28.8125,27.875,31.5,33.5,34.3125
0.17805187,-0.9848745,-0.6018147,-0.5486174,0.002645362,0.052544083,-0.14957611,-0.38031211,-0.3271087,0.06010055,-3.0766659,0.6253508,0.0002510259,-0.083088666,0.016302107,-0.0011725958,0.025881922,-0.013088979,-0.008386505,0.44045138,-1.4590753,1.9955429,-2.1047065,-1.5722398,2.4159138,-0.09199745,0.13903967,-0.1616817,0.045438964,-0.018161986,-0.0834617,-0.22984336,0.05746084,-9.021352,0.7597976,47.67614,-0.59117514,-1.8886323,-3.3314023,-0.1581765,-0.19329146,-0.3277747,27.625,28.8125,27.875,31.5,33.5,34.3125
0.1800519,-1.5468332,-1.0692769,-0.75837046,0.026793113,0.02747275,-0.14740495,-0.38048556,-0.3270735,0.06010508,-3.0766253,0.62537766,0.00023843716,-0.08259933,0.01627048,-0.0019059611,0.026487486,-0.01649434,-0.0034639763,0.4402475,-1.4588112,1.9952205,-2.1046216,-1.5722631,2.4157321,-0.09205561,0.14100525,-0.16277175,0.047884732,-0.017267713,-0.08844402,-0.2681506,0.1340753,-8.925584,0.8717007,47.685097,-0.8031281,-1.846069,-3.3406277,-0.18442985,-0.20371631,-0.2652384,27.625,28.8125,27.875,31.5,33.5,34.3125
0.18205191,-1.2459624,-0.7169665,-0.7384628,0.02641315,0.022529602,-0.14399232,-0.38063213,-0.32702687,0.060073555,-3.0765278,0.6253164,0.000107241234,-0.08363135,0.01647598,-0.0014409352,0.02770034,-0.016146496,0.0010318151,0.4400553,-1.4584992,1.9949197,-2.1045015,-1.5723003,2.4155145,-0.09245933,0.14226626,-0.16569471,0.04973806,-0.01853792,-0.09333654,-0.17238252,0.15322891,-8.944737,0.8224646,47.679718,-0.80015707,-1.7264779,-3.2722185,-0.23125455,-0.22831316,-0.2278491,27.625,28.8125,27.875,31.5,33.5,34.3125
0.18405207,-0.5345928,-0.43192095,-0.799207,0.010461684,0.04320778,-0.14997432,-0.38082984,-0.32699433,0.06008248,-3.076489,0.6252862,0.00013740222,-0.08564454,0.015579043,-0.0011511182,0.026796196,-0.013529291,0.00549998,0.43985143,-1.458199,1.9945477,-2.104419,-1.572348,2.415297,-0.092297316,0.14519909,-0.16913612,0.047478784,-0.018858489,-0.09763866,-0.05746084,0.095768064,-9.059659,0.7978386,47.677036,-0.86181855,-1.6852183,-3.3850393,-0.22816592,-0.21630055,-0.15399337,27.625,28.8125,27.875,31.5,33.5,34.3125
0.18605237,-0.97355306,-1.0810091,-0.83605343,0.001597335,0.04267593,-0.14717034,-0.38099062,-0.32697195,0.060090486,-3.076445,0.6252945,0.00011272071,-0.08544462,0.01558997,-0.00023127053,0.02655149,-0.01281902,0.008741625,0.43968356,-1.4579359,1.994213,-2.1043103,-1.5723723,2.4151402,-0.092033744,0.14321198,-0.16941923,0.048991542,-0.018947965,-0.10061643,-0.19153613,0.15322891,-9.136273,0.8717007,47.640312,-0.96569455,-1.7293565,-3.3291152,-0.23091805,-0.21579933,-0.105397165,27.625,28.8125,27.875,31.5,33.5,34.3125
0.18805243,-1.3772911,-1.3008497,-1.058482,-0.0016660248,0.033862263,-0.14802265,-0.38115242,-0.32693067,0.060089715,-3.0763705,0.6252018,7.545241e-05,-0.08557133,0.01587008,-0.0009070529,0.02852818,-0.014994356,0.009405258,0.4395036,-1.4576591,1.9938778,-2.1041782,-1.5724324,2.4149122,-0.092038654,0.14574988,-0.17118107,0.051017694,-0.019822791,-0.101280324,-0.05746084,0.19153613,-9.155427,0.8537928,47.684196,-0.95537376,-1.795779,-3.350946,-0.28355956,-0.25022054,-0.06122773,27.625,28.8125,27.875,31.5,33.5,34.3125
0.19005263,-1.1827414,-1.3186866,-1.232611,-0.010056151,0.033059094,-0.14729255,-0.3813431,-0.32689196,0.06008806,-3.0762787,0.6252606,9.895197e-05,-0.08723259,0.01571991,-2.436077e-05,0.028074963,-0.013136553,0.006838624,0.4393113,-1.4573475,1.9935168,-2.1040943,-1.5725049,2.4147687,-0.09291041,0.14670476,-0.17438926,0.051390596,-0.020214839,-0.09958184,-0.05746084,0.17238252,-9.251195,0.8247004,47.70211,-0.996625,-1.6943877,-3.3234792,-0.31236255,-0.24242763,-0.04874945,27.625,28.8125,27.875,31.5,33.5,34.3125
0.1920526,-0.9227302,-1.0984254,-1.5469905,-0.021214535,0.028219054,-0.15036106,-0.3814888,-0.32684976,0.060059432,-3.07619,0.625206,-4.7740294e-05,-0.087174855,0.015987117,-0.0010460067,0.028423393,-0.014401489,0.0031372663,0.4391194,-1.4570355,1.9932064,-2.1039627,-1.5725282,2.4145544,-0.093452945,0.14828895,-0.17360328,0.05031296,-0.02000625,-0.09642096,-0.05746084,0.19153613,-9.3661175,0.7665104,47.691364,-1.0244895,-1.691098,-3.4809225,-0.32216305,-0.24070516,-0.06857632,27.625,28.8125,27.875,31.5,33.5,34.3125
0.19405185,-0.80544686,-1.6900791,-1.9126595,-0.028495966,0.022236874,-0.14735876,-0.38165873,-0.3268247,0.060051672,-3.0761256,0.6251758,-0.00013125093,-0.08910642,0.015922535,-7.2121446e-05,0.027434068,-0.011388837,-0.0014356138,0.4389388,-1.4567122,1.9928354,-2.1038315,-1.5725526,2.4143634,-0.0947182,0.14871907,-0.1761143,0.049248654,-0.020406097,-0.093108736,-0.038307227,0.24899697,-9.557653,0.8291774,47.688675,-1.0114509,-1.6954818,-3.403368,-0.31257364,-0.25529206,-0.08558936,27.625,28.8125,27.875,31.5,33.5,34.3125
0.19605193,-0.80820704,-2.1298928,-2.0664704,-0.048636794,0.021687232,-0.14933245,-0.3818052,-0.32677773,0.060027644,-3.076019,0.6251181,-0.00018723041,-0.09010167,0.016285231,-0.00085920835,0.028770173,-0.012031757,-0.0053906315,0.43877035,-1.4564233,1.9925479,-2.1037352,-1.572625,2.414173,-0.09559624,0.15183422,-0.17772698,0.04889562,-0.021354312,-0.09002533,-0.095768064,0.34476504,-9.634268,0.8403672,47.696735,-1.0164881,-1.8079634,-3.3608837,-0.35787463,-0.26038468,-0.13106993,27.625,28.8125,27.875,31.5,33.5,34.3125
0.19805199,-1.4114015,-2.9814403,-2.4052613,-0.054910176,0.01789498,-0.13498874,-0.38200405,-0.32673663,0.060037572,-3.0759554,0.6251836,-0.00019958083,-0.09153411,0.015812248,-0.0018455111,0.028427979,-0.012487949,-0.009070545,0.43854222,-1.4561228,1.9921645,-2.103617,-1.5726608,2.413994,-0.09624551,0.1564292,-0.18018925,0.047027353,-0.020863496,-0.086992964,-0.1340753,0.38307226,-9.691729,0.8224646,47.689575,-1.011135,-1.6529262,-3.4277449,-0.3540153,-0.26314,-0.17087865,27.625,28.8125,27.875,31.5,33.5,34.3125
0.20005205,-1.4503707,-3.3063133,-2.4948266,-0.06738344,0.039553024,-0.1363591,-0.3821809,-0.3267063,0.060031015,-3.0758877,0.62511265,-0.00024547693,-0.09268892,0.015709026,-0.0012504014,0.027225485,-0.010086776,-0.012876253,0.43836194,-1.4557991,1.991793,-2.1034977,-1.572709,2.4137785,-0.09705551,0.15624318,-0.18101233,0.045350395,-0.020804482,-0.08399518,-0.076614454,0.3256114,-9.787497,0.8023209,47.699425,-1.0410807,-1.7944899,-3.459704,-0.35829353,-0.27474746,-0.21550703,27.625,28.8125,27.875,31.5,33.5,34.3125
0.20205219,-1.9771097,-2.9645064,-2.513935,-0.07689444,0.037367545,-0.13502999,-0.38237968,-0.3266821,0.060031056,-3.0758262,0.62521476,-0.0002695011,-0.09442604,0.015634442,-0.0020195541,0.027460905,-0.009737136,-0.01274533,0.43815768,-1.4554625,1.9913973,-2.1034029,-1.5727328,2.4136462,-0.09813116,0.1603652,-0.18344519,0.043437116,-0.021185039,-0.08519731,0.038307227,0.30645782,-9.921572,0.85155696,47.693153,-1.0480843,-1.9191213,-3.484248,-0.35703927,-0.2861588,-0.22768061,27.625,28.8125,27.875,31.5,33.5,34.3125
0.20405254,-1.809015,-3.056078,-2.3607383,-0.06307701,0.044095617,-0.13711564,-0.38254455,-0.32664177,0.060016975,-3.0757368,0.62519884,-0.00030521228,-0.09552009,0.015258349,-0.0025853459,0.027171468,-0.009146297,-0.016136277,0.43797752,-1.4551619,1.991074,-2.103308,-1.5727929,2.413468,-0.09834215,0.16321409,-0.18489203,0.041375615,-0.021185033,-0.082014106,0.0,0.30645782,-9.883265,0.83589023,47.694946,-0.9448546,-2.0127094,-3.4562182,-0.31307536,-0.30880368,-0.27906346,27.625,28.8125,27.875,31.5,33.5,34.3125
0.20605189,-1.3420167,-2.7053711,-2.2783175,-0.056162324,0.053452976,-0.13812284,-0.3827457,-0.3266359,0.0600312,-3.075752,0.6252592,-0.00031362308,-0.09643274,0.014522162,-0.0025160194,0.025787164,-0.0076167583,-0.016221816,0.43777373,-1.45485,1.9906782,-2.1032364,-1.572769,2.4133,-0.09810568,0.16455473,-0.18611711,0.039284263,-0.02058951,-0.081693,-0.21068975,0.34476504,-9.825804,0.83589023,47.68599,-1.1732824,-2.0281866,-3.4717531,-0.28643027,-0.32432905,-0.34715196,27.625,28.8125,27.875,31.5,33.5,34.3125
0.20805208,-1.7614708,-2.4070387,-2.4336908,-0.037821397,0.041678626,-0.1311878,-0.38295949,-0.32660758,0.060046095,-3.0756874,0.62536216,-0.0002184196,-0.09896456,0.0148234125,-0.002078549,0.024517542,-0.005228636,-0.01933508,0.4375809,-1.454538,1.9902838,-2.1031773,-1.5728406,2.41318,-0.10091058,0.16635874,-0.18874696,0.037399568,-0.020462343,-0.081383385,-0.15322891,0.34476504,-9.80665,0.8314132,47.686886,-1.0190284,-1.9333382,-3.4645681,-0.27106902,-0.32124308,-0.34438288,27.625,28.8125,27.875,31.5,33.5,34.3125
0.21005231,-1.4435507,-1.9426545,-2.3500388,-0.037900355,0.055734377,-0.1480363,-0.3831509,-0.3265777,0.060034193,-3.075626,0.62536883,-0.00021912124,-0.100174084,0.014279989,-0.0014793783,0.024113216,-0.0024896408,-0.020565275,0.43738922,-1.4542023,1.9899243,-2.1031182,-1.5728887,2.4130008,-0.10036175,0.1671103,-0.19067171,0.035919756,-0.021266116,-0.079599425,-0.1340753,0.38307226,-9.864111,0.88289046,47.689575,-1.1714158,-1.9985068,-3.5187147,-0.23798364,-0.3398487,-0.43980008,27.625,28.8125,27.875,31.5,33.5,34.3125
0.2120523,-1.4971347,-1.8732653,-1.95403,-0.058602314,0.0686904,-0.14841144,-0.38334292,-0.32654333,0.060012702,-3.0755458,0.62544715,-0.0002903683,-0.100759834,0.014901185,-0.002099172,0.02508848,-0.0034596035,-0.019565433,0.4371729,-1.4538418,1.9895533,-2.1030343,-1.572913,2.412844,-0.10164339,0.16889489,-0.19132863,0.036073696,-0.021753173,-0.08187719,-0.26815057,0.4213795,-9.825804,0.83589023,47.68599,-1.1832153,-2.0249457,-3.5668635,-0.2014292,-0.36052236,-0.4503228,27.625,28.8125,27.875,31.5,33.5,34.3125
0.2140524,-1.5462978,-2.1062858,-1.929829,-0.06493212,0.083864205,-0.15258256,-0.38355872,-0.32651386,0.060036562,-3.0755212,0.62540066,-0.0002058553,-0.10163194,0.01482141,-0.0025162303,0.025402153,-0.0037880833,-0.016885782,0.4369688,-1.4535421,1.9891461,-2.1029503,-1.5729731,2.4126143,-0.10208735,0.17138962,-0.19313487,0.03579932,-0.02190987,-0.084999405,-0.34476507,0.3256114,-9.691729,0.8537928,47.693153,-1.2039337,-1.9203017,-3.5470243,-0.19517162,-0.35742277,-0.46581274,27.625,28.8125,27.875,31.5,33.5,34.3125
0.21605177,-2.2373333,-2.2122579,-1.9619752,-0.05412713,0.074548855,-0.13971794,-0.38375476,-0.32647258,0.060010396,-3.0754256,0.62539685,-0.0001874246,-0.10393409,0.014578038,-0.0008972495,0.02403337,0.00030942855,-0.011274301,0.43677616,-1.4531827,1.988798,-2.102915,-1.573057,2.412432,-0.1032377,0.17123047,-0.19655827,0.035063673,-0.022432229,-0.09175648,-0.4405331,0.22984336,-9.710882,0.8605109,47.709274,-1.0799042,-1.9084727,-3.535911,-0.15899692,-0.3676961,-0.4520225,27.625,28.8125,27.875,31.5,33.5,34.3125
0.21805602,-2.2037272,-1.7578989,-1.666856,-0.036101032,0.081247225,-0.13962539,-0.38397714,-0.32648894,0.060056094,-3.0754893,0.62542814,-0.00010646659,-0.10495692,0.014587854,-0.00032582443,0.02448719,0.0012625635,-0.0073452457,0.43659627,-1.4528831,1.9883431,-2.1028426,-1.5730337,2.4122636,-0.103532694,0.17203501,-0.19903657,0.036056317,-0.023251912,-0.095978424,-0.40222588,0.19153613,-9.672575,0.8560339,47.683304,-1.288906,-1.8433416,-3.5377307,-0.12609506,-0.38634622,-0.38719526,27.625,28.8125,27.875,31.5,33.5,34.3125
0.2200525,-2.1573079,-1.0836697,-1.5755869,-0.008170543,0.07287968,-0.13731048,-0.38419425,-0.3264463,0.060038228,-3.0754266,0.6253921,-9.665857e-05,-0.106649704,0.015356723,-0.00026400617,0.024316303,0.0011485649,-0.0026125775,0.43636695,-1.4525111,1.9879588,-2.102795,-1.5730938,2.4120202,-0.10648907,0.17376342,-0.20128271,0.036573943,-0.02307312,-0.103666045,-0.47884035,0.038307227,-9.5385,0.9298854,47.686886,-1.0116243,-1.766829,-3.5277677,-0.12618206,-0.380634,-0.34755635,27.625,28.8125,27.875,31.5,33.5,34.3125
0.22205263,-2.2773366,-0.48448446,-1.5235292,0.02648568,0.053604815,-0.13556479,-0.38441107,-0.3264302,0.060051374,-3.0754242,0.6253507,-6.0426133e-05,-0.1082831,0.015000596,0.0017840941,0.022427911,0.00456476,0.0016301537,0.43616304,-1.4521762,1.9875392,-2.102723,-1.5731171,2.411791,-0.107346706,0.17213319,-0.20440455,0.037410866,-0.02282004,-0.108766444,-0.51714754,0.038307227,-9.404425,0.8717007,47.694054,-1.2298436,-1.6551533,-3.416763,-0.08911055,-0.41718376,-0.28274912,27.625,28.8125,27.875,31.5,33.5,34.3125
0.22405173,-1.5102975,0.32202196,-1.383269,0.04422894,0.064805634,-0.14269191,-0.3846283,-0.32638523,0.060043417,-3.0753608,0.62539405,-4.885995e-05,-0.110173665,0.015656095,0.0024296273,0.02292747,0.004933712,0.0038966835,0.43592197,-1.4518284,1.9871558,-2.1026618,-1.5731658,2.4115856,-0.109722115,0.1736893,-0.20813498,0.039441183,-0.023445267,-0.11340398,-0.57460845,-0.019153614,-9.32781,0.8537928,47.66271,-1.0658417,-1.6653303,-3.356876,-0.08478363,-0.43562996,-0.22834054,27.625,28.8125,27.875,31.5,33.5,34.3125
0.2260519,-1.7667239,0.21121185,-1.351157,0.058363907,0.06092982,-0.14702839,-0.38490954,-0.32637715,0.060101293,-3.075394,0.6253223,0.00020872962,-0.111785136,0.016134623,0.002672818,0.023817921,0.005911329,0.00496935,0.4357177,-1.4514922,1.9866403,-2.1026256,-1.5732502,2.4113326,-0.111119345,0.17544654,-0.21078525,0.03980736,-0.024659323,-0.11587167,-0.5554548,-0.1340753,-9.212888,0.8717007,47.679718,-1.0128933,-1.5622063,-3.2946262,-0.067093365,-0.4168978,-0.17467874,27.625,28.8125,27.875,31.5,33.5,34.3125
0.22805196,-1.3983481,0.707751,-1.0866382,0.04074765,0.07609941,-0.16296834,-0.38507885,-0.32633322,0.060064137,-3.0752773,0.62531906,5.9853824e-05,-0.113495365,0.017280802,0.0029790152,0.025168272,0.0070826085,0.0026632547,0.43551272,-1.4511207,1.9862813,-2.102494,-1.5732869,2.411141,-0.11351793,0.17640631,-0.21272625,0.040293258,-0.026398668,-0.115953654,-0.45968673,-0.17238252,-9.251195,0.8493211,47.672558,-0.97159517,-1.5262027,-3.2707894,-0.02551742,-0.43059295,-0.16151392,27.625,28.8125,27.875,31.5,33.5,34.3125
0.23005202,-1.6903235,-0.15793385,-1.2511204,0.034914788,0.08513536,-0.1460631,-0.38534182,-0.32629055,0.06009516,-3.0752773,0.6253396,0.00019176897,-0.11460945,0.018222662,0.0035571435,0.026834883,0.0065809614,-0.0013077224,0.43523633,-1.450797,1.9858378,-2.102445,-1.573335,2.4108777,-0.11528517,0.17718332,-0.215737,0.043682776,-0.027685873,-0.113746576,-0.51714754,-0.28730422,-9.289502,0.85155696,47.682407,-0.8932842,-1.5063965,-3.2468407,-0.027547132,-0.4165552,-0.14614028,27.625,28.8125,27.875,31.5,33.5,34.3125
0.23205176,-1.6424613,-0.19665645,-1.2676388,0.01522992,0.092781864,-0.14840655,-0.38555637,-0.3262571,0.060093023,-3.0752165,0.62533134,0.00018756797,-0.115206644,0.018935248,0.0028550902,0.028592143,0.004054117,-0.0073934146,0.43501973,-1.4504366,1.9854187,-2.102348,-1.5733837,2.410664,-0.11670332,0.18001296,-0.21787842,0.046030454,-0.028210206,-0.109075256,-0.7278373,-0.15322891,-9.251195,0.80456203,47.701214,-0.82425606,-1.4884611,-3.2434223,-0.034693547,-0.4134304,-0.17191425,27.625,28.8125,27.875,31.5,33.5,34.3125
0.23405226,-2.196968,-0.8243825,-1.570592,0.031261116,0.07901786,-0.13403855,-0.38578618,-0.326214,0.060105138,-3.0751553,0.6253198,0.00021070494,-0.115950786,0.019504713,0.0019980976,0.030949872,0.0018094727,-0.0126557,0.4347796,-1.4500881,1.9849747,-2.102228,-1.5734438,2.410425,-0.1175338,0.18365131,-0.22048716,0.04803382,-0.02940009,-0.10463725,-0.63206923,-0.11492168,-9.32781,0.8179876,47.686886,-0.8086252,-1.6092992,-3.1267824,-0.027473507,-0.40604544,-0.23402204,27.625,28.8125,27.875,31.5,33.5,34.3125
0.23605233,-1.8850853,-0.80061865,-1.6576074,0.020067692,0.08767706,-0.14699832,-0.3859859,-0.32616305,0.060069326,-3.0750215,0.62540907,0.00012699241,-0.11585508,0.02045863,0.00034784037,0.034592047,-0.0011146273,-0.014939409,0.43455154,-1.4496907,1.9845914,-2.102132,-1.5735043,2.4102702,-0.11776533,0.18713117,-0.22091371,0.04916701,-0.031480886,-0.102574095,-0.63206923,-0.076614454,-9.404425,0.86945957,47.691364,-0.91111404,-1.8260002,-3.1929622,-0.017588386,-0.40019915,-0.27714902,27.625,28.8125,27.875,31.5,33.5,34.3125
0.23805243,-2.1034207,-0.99914974,-1.2285525,-0.0009681907,0.098082066,-0.14454578,-0.3862409,-0.32610345,0.060091194,-3.0749426,0.62544966,0.00020089153,-0.115241796,0.021269884,-0.0011169417,0.038125888,-0.004195556,-0.014742261,0.4342758,-1.4493433,1.984126,-2.1020114,-1.5735892,2.4100304,-0.11737746,0.18971294,-0.22087036,0.05081408,-0.033390716,-0.10237666,-0.63206923,0.15322891,-9.3661175,0.8985519,47.684196,-0.92169476,-1.8515348,-3.4230914,-0.021843089,-0.36507148,-0.30817303,27.625,28.8125,27.875,31.5,33.5,34.3125
0.2400518,-2.3559892,-1.4064848,-1.0385848,-0.0034182128,0.09230272,-0.13924105,-0.3865019,-0.326079,0.060138613,-3.0749009,0.62545884,0.00033735883,-0.11552307,0.021429496,-0.000509636,0.039299857,-0.003279615,-0.013785827,0.43405998,-1.4489962,1.9835995,-2.1018794,-1.5736736,2.409826,-0.116864085,0.1892948,-0.22215836,0.05217119,-0.034841046,-0.10281603,-0.61291564,0.21068975,-9.308657,0.8403672,47.686886,-0.9564043,-1.6354984,-3.4764264,-0.028085046,-0.3625177,-0.34150434,27.625,28.8125,27.875,31.5,33.5,34.3125
0.24205197,-1.6881007,-1.2266626,-1.4941658,-0.012476823,0.08227382,-0.14389072,-0.38670224,-0.3260214,0.060102213,-3.0747724,0.6254921,0.00023931332,-0.11642826,0.022853505,-0.0008048837,0.041453388,-0.0041253865,-0.01751065,0.43381917,-1.4486004,1.9832162,-2.101771,-1.5737337,2.409623,-0.11914456,0.1904911,-0.22323635,0.053721637,-0.036452353,-0.101361394,-0.34476507,0.24899697,-9.251195,0.8090337,47.655537,-0.8375139,-1.5898621,-3.5573416,-0.04675954,-0.3458943,-0.3413462,27.625,28.8125,27.875,31.5,33.5,34.3125
0.24405201,-1.5586631,-1.7609804,-1.4502114,-0.02292842,0.056331705,-0.1411485,-0.38692048,-0.32599828,0.060089454,-3.0746796,0.6254894,0.00020175871,-0.116936706,0.023273505,-0.0005116613,0.042880367,-0.0046770787,-0.015597902,0.43362728,-1.4481812,1.9827493,-2.1016505,-1.5737942,2.4094417,-0.11957105,0.1912503,-0.22539032,0.056199998,-0.03753111,-0.10369348,-0.2681506,0.3256114,-9.385271,0.95226496,47.664497,-1.0688962,-1.7310084,-3.6429648,-0.052725688,-0.2981642,-0.35984743,27.625,28.8125,27.875,31.5,33.5,34.3125
0.2460521,-0.9433437,-2.0908182,-1.3140954,-0.04217899,0.03620681,-0.14013429,-0.3871827,-0.32593054,0.060112055,-3.0745776,0.62560445,0.00028902313,-0.118156135,0.02303012,-4.1793755e-05,0.042549755,-0.005573268,-0.017376922,0.43333855,-1.4478327,1.9822806,-2.1015298,-1.5738906,2.4092383,-0.12052049,0.19344203,-0.22958274,0.05885499,-0.036862243,-0.102864504,-0.21068975,0.30645782,-9.308657,0.9097417,47.701214,-0.8705423,-1.6657296,-3.5577645,-0.07973604,-0.28204638,-0.38924947,27.625,28.8125,27.875,31.5,33.5,34.3125
0.24805239,-0.67739373,-2.0142992,-1.3876837,-0.03418698,0.007759324,-0.14209762,-0.3874467,-0.32588977,0.060121406,-3.0745156,0.62558645,0.0004033074,-0.11825205,0.024186524,-0.001146509,0.046262927,-0.008196866,-0.010739015,0.43309847,-1.4474366,1.9818023,-2.1014688,-1.5739869,2.4089954,-0.12113913,0.19613267,-0.2306431,0.061129276,-0.039147925,-0.11011318,-0.17238252,0.3256114,-9.232041,0.85826975,47.707485,-0.8662179,-1.5935795,-3.5380392,-0.09018168,-0.2777137,-0.37779647,27.625,28.8125,27.875,31.5,33.5,34.3125
0.25005242,0.02310091,-1.7850574,-1.5309608,-0.029586917,0.01547682,-0.14453267,-0.3876794,-0.32580855,0.060094286,-3.074352,0.6256085,0.00032255446,-0.11867983,0.024441447,-0.0015594768,0.04823254,-0.009860873,-0.006945703,0.43281063,-1.4470164,1.9813589,-2.1013124,-1.5740832,2.408743,-0.12114765,0.1986676,-0.23311394,0.06337091,-0.040269457,-0.11390455,-0.095768064,0.28730422,-9.212888,0.82694155,47.701214,-0.95600224,-1.6613173,-3.477749,-0.12482875,-0.22860977,-0.3419825,27.625,28.8125,27.875,31.5,33.5,34.3125
0.25205243,-0.691394,-1.674206,-1.3418554,-0.026835373,0.006434494,-0.14344786,-0.38791513,-0.3257688,0.060115427,-3.0742927,0.62557405,0.0003724938,-0.12068202,0.025026804,-0.0011831567,0.04815039,-0.01059758,-0.0033901436,0.43258142,-1.4466684,1.9808911,-2.1011803,-1.5741557,2.4085002,-0.12411004,0.20114374,-0.23734486,0.065718055,-0.03991312,-0.120421454,0.13407528,0.2681506,-9.270349,0.842603,47.687782,-0.84376997,-1.6570909,-3.3560426,-0.1473673,-0.18522331,-0.26355138,27.625,28.8125,27.875,31.5,33.5,34.3125
0.25405243,-0.03491188,-1.6305392,-1.1246759,-0.014477124,0.018325608,-0.15262216,-0.38815525,-0.32571986,0.060110055,-3.0741553,0.6255988,0.0003765531,-0.12026497,0.023475043,-0.0011747263,0.047788575,-0.011843339,0.004475302,0.43235466,-1.4462484,1.9804004,-2.1010354,-1.574263,2.408307,-0.12133165,0.20311454,-0.24002261,0.06736095,-0.039092623,-0.12550764,0.17238252,0.34476504,-9.270349,0.8717007,47.693153,-1.0760956,-1.7553082,-3.3198233,-0.18956587,-0.17496383,-0.19917329,27.625,28.8125,27.875,31.5,33.5,34.3125
0.2560524,-1.2157862,-2.009176,-1.371013,-0.009205627,-0.012108893,-0.12801276,-0.38840252,-0.32568985,0.060114995,-3.0741181,0.6254746,0.00040125655,-0.12238467,0.023295723,0.00058374123,0.045609638,-0.009391866,0.0062830425,0.43212566,-1.445841,1.9799083,-2.100928,-1.574323,2.4080057,-0.1233458,0.20278893,-0.24402823,0.06851949,-0.038165838,-0.12933065,0.15322891,0.34476504,-9.136273,0.8537928,47.70032,-0.8922893,-1.7139065,-3.1362329,-0.20958917,-0.16736065,-0.11962044,27.625,28.8125,27.875,31.5,33.5,34.3125
0.2580521,-0.15188704,-1.2530226,-1.5390441,-0.013001888,0.0070923567,-0.14160873,-0.38865134,-0.32562685,0.06010186,-3.074004,0.62548757,0.00038467994,-0.122899055,0.023141513,0.00080177165,0.045000277,-0.009722928,0.007889038,0.43184987,-1.4454217,1.9794415,-2.100808,-1.5744065,2.4077532,-0.12384741,0.20355842,-0.24567103,0.06940687,-0.037497666,-0.1314376,0.15322891,0.2873042,-9.136273,0.8717007,47.72002,-1.1084908,-1.7045653,-3.1471884,-0.23694873,-0.15312777,-0.1200816,27.625,28.8125,27.875,31.5,33.5,34.3125
0.26005208,-0.19477718,-1.5213372,-1.5390743,-0.012809811,0.0074572545,-0.13909067,-0.3888704,-0.32557517,0.06009138,-3.0738938,0.62544876,0.0002604665,-0.12369933,0.024126222,0.0003699516,0.046280734,-0.011388811,0.0015453526,0.43159717,-1.4450138,1.9789623,-2.1006052,-1.5744542,2.407491,-0.12595469,0.20541751,-0.24723873,0.07116703,-0.03797621,-0.12719373,0.076614454,0.28730422,-9.251195,0.8717007,47.723602,-1.024032,-1.675865,-3.1510873,-0.29098514,-0.13499537,-0.13016257,27.625,28.8125,27.875,31.5,33.5,34.3125
0.26205215,-0.26776353,-1.6963737,-1.5056825,-0.037794996,0.01966102,-0.14782998,-0.3891137,-0.32551965,0.060077813,-3.0737832,0.625485,0.00023243656,-0.12444777,0.023863526,0.00012837556,0.045156628,-0.010205124,-0.0026117573,0.4313331,-1.444594,1.9784955,-2.1004846,-1.5745267,2.4072642,-0.12635373,0.20646347,-0.24738413,0.06871534,-0.037462834,-0.12343437,0.05746084,0.24899697,-9.32781,0.8873621,47.68062,-1.0148033,-1.6517408,-3.198052,-0.28893954,-0.118738,-0.14059955,27.625,28.8125,27.875,31.5,33.5,34.3125
0.26405233,-1.1184616,-2.9319642,-1.5270144,-0.048059374,0.01957504,-0.13872439,-0.38938296,-0.32548052,0.060077213,-3.0736744,0.62552327,0.00027132843,-0.124751,0.024187574,-0.0006653805,0.044909008,-0.011201201,-0.008286723,0.43109274,-1.444138,1.9779586,-2.1003659,-1.5746225,2.4070623,-0.12753724,0.20794097,-0.2470915,0.06774209,-0.03682228,-0.11894409,-0.019153614,0.24899697,-9.346964,0.8851263,47.68599,-0.9828626,-1.6690631,-3.330422,-0.2750531,-0.104208425,-0.17013401,27.625,28.8125,27.875,31.5,33.5,34.3125
0.26605257,-1.3287727,-2.2512333,-1.2401447,-0.072934486,0.043194402,-0.13628586,-0.38959688,-0.32543722,0.06007546,-3.0735931,0.6254701,0.00016812346,-0.12613754,0.024045644,0.00032267167,0.043449912,-0.009739111,-0.013846582,0.43085232,-1.4437555,1.9774898,-2.1001742,-1.5746578,2.4067996,-0.12883966,0.20805806,-0.24968359,0.06828134,-0.036118805,-0.11468468,-0.076614454,0.17238252,-9.346964,0.90527004,47.692257,-1.0411079,-1.533042,-3.4674082,-0.30556834,-0.09620191,-0.22473773,27.625,28.8125,27.875,31.5,33.5,34.3125
0.26805162,-1.5452232,-1.8438114,-1.5142062,-0.04689851,0.034808803,-0.13720548,-0.3898425,-0.32538027,0.0600528,-3.0734863,0.6254696,9.800776e-05,-0.1276832,0.023490276,-0.001334716,0.04180529,-0.009190998,-0.01789193,0.43057564,-1.4433104,1.977013,-2.1000454,-1.5747174,2.4065368,-0.1298571,0.21284261,-0.25008842,0.062708616,-0.034876347,-0.11165668,-0.095768064,0.11492168,-9.423578,0.84708,47.681515,-0.9579475,-1.5580097,-3.4744034,-0.27806586,-0.089836076,-0.27875316,27.625,28.8125,27.875,31.5,33.5,34.3125
0.27005184,-0.8580639,-1.4200864,-1.6972666,-0.020460585,0.050526585,-0.14525013,-0.3901067,-0.32534704,0.060055144,-3.0734184,0.62559044,9.742998e-05,-0.1292988,0.023109537,-0.0024121234,0.040394824,-0.010271469,-0.021856064,0.43031144,-1.4428775,1.976497,-2.0999377,-1.5747532,2.4063573,-0.13156632,0.21757008,-0.25261164,0.060888235,-0.03315617,-0.109406225,-0.095768064,0.22984336,-9.423578,0.9321212,47.72002,-0.91918546,-1.8143626,-3.480612,-0.23135829,-0.09687169,-0.35872835,27.625,28.8125,27.875,31.5,33.5,34.3125
0.27205193,-1.2979945,-1.2610375,-1.5163101,-0.007582027,0.044723205,-0.14286393,-0.3903608,-0.32529837,0.06004114,-3.0733068,0.62562674,9.634119e-05,-0.13107947,0.022241477,-0.002019629,0.037712097,-0.007910689,-0.02447348,0.43005908,-1.4424337,1.9760064,-2.0998309,-1.5748366,2.4061425,-0.13232815,0.2192886,-0.2549316,0.058210865,-0.031720635,-0.10755322,-0.19153613,0.21068975,-9.500193,0.9254084,47.70659,-0.92145187,-1.810599,-3.5818799,-0.19996999,-0.10545935,-0.40486896,27.625,28.8125,27.875,31.5,33.5,34.3125
0.27405238,-1.6926781,-1.2215984,-1.4974276,0.003343094,0.045168735,-0.13760066,-0.39062384,-0.32526198,0.06002895,-3.0732322,0.6256513,0.000103804865,-0.13342895,0.022200286,-0.002024331,0.035615,-0.006211469,-0.028926935,0.4298062,-1.4419775,1.9755028,-2.099748,-1.5748962,2.405915,-0.13493231,0.22185875,-0.25731823,0.05559839,-0.030537378,-0.105706096,-0.36391866,0.1340753,-9.385271,0.85826975,47.681515,-0.8906995,-1.8440949,-3.5350218,-0.16832805,-0.12603873,-0.4665556,27.625,28.8125,27.875,31.5,33.5,34.3125
0.27605242,-1.6127687,-0.9974006,-1.7345353,-0.0034646692,0.059582524,-0.14026958,-0.39088288,-0.3252398,0.06004285,-3.0731702,0.62571126,9.0389985e-05,-0.13425091,0.019867713,-0.0005153123,0.03334827,-0.002561712,-0.02351084,0.4295675,-1.4415464,1.9749511,-2.0995924,-1.574932,2.4057221,-0.1315535,0.22216488,-0.2610081,0.05469836,-0.030021554,-0.10774269,-0.49799395,0.26815057,-9.423578,0.8918391,47.678825,-1.0602419,-1.8052099,-3.5948477,-0.12821782,-0.12538546,-0.5031011,27.625,28.8125,27.875,31.5,33.5,34.3125
0.27805164,-2.4892333,-1.8768144,-1.8631868,-0.018228237,0.07675764,-0.13684,-0.3911372,-0.32516262,0.060018755,-3.0730023,0.6257513,3.7834896e-05,-0.13579056,0.019841697,0.00022974957,0.032508858,-0.0012100254,-0.020410609,0.42927915,-1.4410912,1.9744595,-2.0994375,-1.5750402,2.405481,-0.13281605,0.2230019,-0.26383555,0.055070225,-0.029857697,-0.11210147,-0.63206923,0.3256114,-9.519346,0.8179876,47.687782,-1.0032346,-1.7663646,-3.4262953,-0.10955718,-0.1426378,-0.51107556,27.625,28.8125,27.875,31.5,33.5,34.3125
0.2800521,-2.7090218,-2.475181,-1.7590427,-0.043230645,0.10316887,-0.139178,-0.39142647,-0.32511055,0.06000241,-3.072904,0.6258961,1.374422e-05,-0.13588354,0.019426046,0.00013666961,0.032331135,-0.0023843583,-0.009976736,0.4289674,-1.4405994,1.9739217,-2.0993402,-1.5750874,2.405273,-0.13240094,0.22437063,-0.26556,0.056358173,-0.029251661,-0.122121185,-0.7086837,0.36391866,-9.461885,0.8224646,47.67793,-1.1583737,-1.7730827,-3.458815,-0.110269755,-0.14560536,-0.4313715,27.625,28.8125,27.875,31.5,33.5,34.3125
0.28205192,-2.8759885,-3.0659704,-1.9734674,-0.062517,0.12691574,-0.13553914,-0.39168465,-0.3250843,0.060018167,-3.0728557,0.6257094,8.345586e-05,-0.13749841,0.019872809,1.3275257e-05,0.032608885,-0.0031839472,-0.0025267662,0.42876253,-1.4401792,1.9733828,-2.0992086,-1.5751837,2.4049582,-0.13452628,0.2272016,-0.26882762,0.057575647,-0.02921247,-0.13169478,-0.80445176,0.34476504,-9.691729,0.8112748,47.668976,-1.030268,-1.7151203,-3.464034,-0.10535258,-0.15082882,-0.37511712,27.625,28.8125,27.875,31.5,33.5,34.3125
0.284052,-3.1709607,-3.0569043,-1.982962,-0.07270555,0.13631763,-0.14719896,-0.39194676,-0.32504442,0.060001433,-3.0727875,0.62578815,8.114195e-07,-0.1383997,0.021151917,-0.00072978676,0.033410575,-0.0051958063,0.0022605197,0.4284736,-1.4397115,1.9728674,-2.0990894,-1.5751957,2.4047277,-0.13758086,0.22915767,-0.2696522,0.058561023,-0.029145982,-0.13953473,-0.8810662,0.3256114,-9.749189,0.9164598,47.70659,-1.0639076,-1.7127018,-3.4723034,-0.097466245,-0.15649037,-0.25401932,27.625,28.8125,27.875,31.5,33.5,34.3125
0.28605387,-3.3485565,-2.3990948,-1.9419645,-0.076718435,0.12397719,-0.13681497,-0.3922355,-0.32500663,0.060004517,-3.072766,0.6257224,-1.4596178e-05,-0.1387873,0.02016718,-0.00036208774,0.032819968,-0.0045347414,0.008661783,0.42817408,-1.4392437,1.9723061,-2.0989692,-1.5752195,2.4043903,-0.1361163,0.23027873,-0.2719201,0.058825806,-0.028913548,-0.14447078,-0.842759,0.2681506,-9.557653,0.8873621,47.709274,-1.0133326,-1.7658837,-3.5415144,-0.098610505,-0.16275744,-0.1843647,27.625,28.8125,27.875,31.5,33.4375,34.3125
0.28805196,-3.1047688,-2.0648477,-1.907486,-0.05142742,0.11427192,-0.1348234,-0.3924977,-0.3249775,0.059981957,-3.0726871,0.6256105,-4.2355354e-05,-0.13997768,0.021372939,-0.0001713091,0.03333718,-0.0051565464,0.0057966444,0.427945,-1.4387406,1.9717664,-2.0988605,-1.5752915,2.404102,-0.13909334,0.2308906,-0.27356005,0.060617883,-0.029140368,-0.14457923,-0.8619126,0.19153614,-9.576807,0.8314132,47.674347,-0.8708975,-1.7821355,-3.6293511,-0.09722441,-0.17275053,-0.13944657,27.625,28.8125,27.875,31.5,33.4375,34.3125
0.2900522,-2.186721,-1.3777119,-1.6766121,-0.02294954,0.10976146,-0.13668919,-0.39281192,-0.32491443,0.059993543,-3.0726013,0.6257097,0.000102397215,-0.14168812,0.020610442,0.00079713453,0.03132776,-0.0008352952,0.0025753938,0.4276333,-1.4382973,1.971227,-2.0988023,-1.5753998,2.403864,-0.13902165,0.23100004,-0.2752847,0.05745914,-0.029103948,-0.14128612,-0.9002198,0.076614454,-9.576807,0.8090337,47.692257,-0.99274445,-1.7240586,-3.5902605,-0.04417344,-0.17607516,-0.13010769,27.625,28.8125,27.875,31.5,33.4375,34.3125
0.29205233,-1.4935527,-0.57913595,-1.6370432,0.011362394,0.09725318,-0.13201636,-0.39311206,-0.32490495,0.059990354,-3.0725877,0.6256911,9.19437e-05,-0.14161938,0.020712394,-0.00023443889,0.03207386,-0.0027766826,-0.0035017934,0.42736924,-1.4377695,1.9706172,-2.098706,-1.5754117,2.4035904,-0.13911484,0.23330821,-0.27568418,0.057645977,-0.028963784,-0.13530202,-0.78529817,-0.11492168,-9.500193,0.87393653,47.68599,-1.0882574,-1.7540176,-3.5513885,-0.0016419084,-0.17594242,-0.22522041,27.625,28.8125,27.875,31.5,33.4375,34.3125
0.29405233,-1.413905,-0.11231012,-1.5414386,0.035487406,0.07037085,-0.14227495,-0.3934052,-0.32483605,0.05998024,-3.0724754,0.62574774,0.00012964345,-0.14345093,0.020558598,0.0004094292,0.03227643,-0.0024340206,-0.010768572,0.42705706,-1.4373015,1.9700907,-2.0986102,-1.5755075,2.4033287,-0.14003883,0.23590368,-0.2806849,0.059834156,-0.029283712,-0.12895417,-0.5363012,-0.095768064,-9.3661175,0.9298854,47.672558,-1.0707793,-1.8123109,-3.6290245,0.021828135,-0.1960775,-0.28840044,27.625,28.8125,27.875,31.5,33.4375,34.3125
0.29605255,-1.1595404,-0.05466805,-1.4434925,0.053014845,0.063897714,-0.1403279,-0.39368173,-0.3247852,0.059947275,-3.0723724,0.62576514,7.4650474e-05,-0.14452349,0.020489773,0.0008661344,0.032663353,-0.0025812008,-0.01264995,0.42676887,-1.436786,1.9695624,-2.098513,-1.5755676,2.4030652,-0.14049278,0.23756307,-0.28420436,0.061980844,-0.029587958,-0.12752138,-0.30645782,-0.17238252,-9.289502,0.84484416,47.70211,-1.0524808,-1.8178542,-3.4541655,0.0283097,-0.19037768,-0.325585,27.625,28.8125,27.875,31.5,33.4375,34.3125
0.29805186,-0.6454341,0.32786477,-1.5839691,0.05754103,0.042102493,-0.14367256,-0.39397833,-0.32475632,0.059955824,-3.072314,0.6258094,0.00012514339,-0.14608267,0.020209858,0.0010099115,0.032352388,-0.0015253398,-0.012990401,0.42650455,-1.4363059,1.9689764,-2.0984056,-1.5756277,2.4028366,-0.14105439,0.23994963,-0.28723168,0.061516084,-0.029754411,-0.12773985,-0.19153613,-0.1340753,-9.289502,0.8918391,47.71286,-1.0350981,-1.9584452,-3.3948312,0.07898836,-0.21868062,-0.34988478,27.625,28.8125,27.875,31.5,33.4375,34.3125
0.30005187,-0.45287296,-0.11518399,-1.7993112,0.05488802,0.022438642,-0.13652286,-0.3942855,-0.32471892,0.059969164,-3.0722473,0.62589186,0.00017699378,-0.14649408,0.021339893,0.00024699667,0.036127195,-0.005098047,-0.0140939215,0.42621648,-1.4358257,1.968376,-2.0982845,-1.5756887,2.402609,-0.14206094,0.24327157,-0.29038516,0.06615302,-0.031714633,-0.12763204,-0.038307227,-0.11492168,-9.289502,0.8560339,47.731667,-1.0482228,-1.8852895,-3.3349133,0.07592829,-0.21879731,-0.37035048,27.625,28.8125,27.875,31.5,33.4375,34.3125
0.3020519,-0.73847884,-1.0267146,-1.740591,0.02534281,0.003905131,-0.13112922,-0.3946044,-0.32466525,0.059969693,-3.0721555,0.625852,0.00018506784,-0.14510393,0.02259196,-0.0012703352,0.040308047,-0.0112417545,-0.012811118,0.42590418,-1.4352975,1.9677423,-2.0981271,-1.5757731,2.4022844,-0.14221829,0.24556556,-0.29085168,0.07162466,-0.032990187,-0.12906499,-0.038307227,-0.095768064,-9.346964,0.84484416,47.672558,-1.0031469,-2.0466304,-3.32748,0.035909593,-0.1811791,-0.39570478,27.625,28.8125,27.875,31.5,33.4375,34.3125
0.30405197,-0.09289839,-1.4146613,-1.7325007,-0.004106532,0.0050073313,-0.14247386,-0.39488465,-0.32458922,0.059949894,-3.0719976,0.62602854,8.2417544e-05,-0.14553504,0.023511715,-0.0005041706,0.0413395,-0.013106413,-0.010543195,0.4255676,-1.4348066,1.9671916,-2.0979455,-1.5758332,2.402079,-0.14400586,0.24532397,-0.29358673,0.076686464,-0.033194087,-0.13311553,0.038307227,0.095768064,-9.251195,0.9254084,47.70659,-0.96403503,-1.9820443,-3.3722153,-0.019622726,-0.19363809,-0.38109764,27.625,28.8125,27.875,31.5,33.4375,34.3125
0.30605227,0.71434194,-1.1626103,-1.3859837,-0.03788157,0.011013895,-0.15077186,-0.3951661,-0.32454005,0.059939545,-3.0718985,0.62594676,8.757548e-05,-0.14545605,0.024460211,-0.0013655712,0.04303177,-0.018331742,-0.0060349912,0.4253032,-1.4343147,1.9666289,-2.097812,-1.575929,2.401777,-0.14594488,0.2480339,-0.29592925,0.081719324,-0.032613687,-0.13956365,0.11492168,0.17238252,-9.3661175,0.9612189,47.683304,-1.0885569,-2.065698,-3.3695288,-0.07340894,-0.21591987,-0.31070176,27.625,28.8125,27.875,31.5,33.4375,34.3125
0.3080522,0.16093633,-1.6836638,-1.6390423,-0.029853297,-0.016408488,-0.14415635,-0.3954828,-0.32450032,0.059956625,-3.0718417,0.62591076,0.00010635618,-0.14396453,0.025339145,-0.002456203,0.0456988,-0.023625622,0.001299257,0.42500335,-1.4338112,1.9659818,-2.0976427,-1.5759891,2.4014626,-0.1459877,0.24910522,-0.29581255,0.08639727,-0.032891877,-0.14693977,0.095768064,0.19153613,-9.385271,0.91198283,47.71554,-0.9605811,-2.0070736,-3.295416,-0.124540195,-0.2054314,-0.24133578,27.625,28.8125,27.875,31.5,33.4375,34.3125
0.3100522,-0.2136188,-1.8805561,-1.5964553,-0.01684693,-0.019151367,-0.13196355,-0.39574262,-0.3244405,0.059937913,-3.071716,0.62586266,-2.6961416e-05,-0.14468186,0.026382633,-0.001820685,0.045794997,-0.025279528,0.005818658,0.42471415,-1.4333203,1.9654201,-2.0974267,-1.5760487,2.4011602,-0.1487388,0.24886052,-0.29798523,0.09030165,-0.032355685,-0.15420869,0.1340753,0.24899697,-9.308657,0.81351066,47.7254,-0.87354225,-1.9636915,-3.5096292,-0.19034404,-0.20645365,-0.11714186,27.625,28.8125,27.875,31.5,33.4375,34.3125
0.3120524,0.08130031,-1.4491328,-1.6373672,-0.014979397,-0.00084456196,-0.13517486,-0.39604205,-0.32439244,0.059946343,-3.071655,0.62580985,-2.4680077e-05,-0.14454329,0.0265307,-0.0017403839,0.045682736,-0.0269652,0.007951714,0.424414,-1.4328401,1.9648217,-2.0972698,-1.5761088,2.4008355,-0.14926293,0.2490643,-0.2990312,0.092597716,-0.03158543,-0.15686914,0.076614454,0.2681506,-9.32781,0.9321212,47.701214,-0.8632008,-2.0413778,-3.5236392,-0.24801362,-0.21582803,-0.07582608,27.625,28.8125,27.875,31.5,33.4375,34.3125
0.31405246,0.069617055,-1.3961718,-1.6215435,-0.01915246,0.012043236,-0.14533345,-0.39635098,-0.3243247,0.05994294,-3.0715072,0.6258211,-5.1369636e-05,-0.14551692,0.02726983,-0.0018863467,0.04621315,-0.027968502,0.0013907113,0.42410123,-1.4323136,1.964187,-2.0970657,-1.5762166,2.4005497,-0.15124398,0.2506443,-0.30093458,0.094053626,-0.031666547,-0.15228505,0.21068975,0.24899697,-9.3661175,0.88289046,47.709274,-0.8165291,-1.8614931,-3.4929233,-0.29979327,-0.22939546,-0.083152786,27.625,28.8125,27.875,31.5,33.4375,34.3125
0.31605163,-0.28730226,-1.4834764,-1.6655321,-0.030055681,0.016715672,-0.13352957,-0.39662623,-0.324305,0.059928548,-3.071457,0.62573546,-0.00013851872,-0.14699414,0.025918873,-0.000103617866,0.04387548,-0.023651538,-0.0022924514,0.42384994,-1.4317867,1.9635876,-2.0969107,-1.57624,2.4002519,-0.15009229,0.24999242,-0.30418396,0.09307353,-0.03132394,-0.14744793,0.1340753,0.21068975,-9.308656,0.8940802,47.711063,-1.0248573,-1.8688123,-3.4661329,-0.32705832,-0.24692479,-0.10423339,27.625,28.8125,27.875,31.5,33.4375,34.3125
0.3180517,-0.7353986,-2.3448925,-1.445784,-0.03453432,0.026675692,-0.12981696,-0.39690173,-0.32421142,0.059891492,-3.0712485,0.62579083,-0.0003396615,-0.14843962,0.02462028,0.000313501,0.040983304,-0.020730954,-0.008928438,0.42350215,-1.431247,1.9630016,-2.096649,-1.5763234,2.3999665,-0.14969777,0.25140828,-0.30612886,0.08976397,-0.029913878,-0.14041732,-0.05746084,0.17238252,-9.289502,0.8537928,47.692257,-0.97049236,-1.75983,-3.527185,-0.31679416,-0.28081158,-0.17186084,27.625,28.8125,27.875,31.5,33.4375,34.3125
0.3200518,-1.5253927,-2.1191237,-1.6358411,-0.043509662,0.029826352,-0.1280154,-0.39721134,-0.32418215,0.05991009,-3.0712063,0.62582344,-0.00032451638,-0.15065056,0.024352444,0.0003650318,0.03986907,-0.018750012,-0.015301452,0.42321357,-1.4307553,1.962366,-2.096494,-1.5763596,2.3997042,-0.1510385,0.25431305,-0.3091893,0.08767094,-0.029712578,-0.13538355,-0.019153614,0.21068975,-9.404425,0.9388393,47.686886,-0.96407044,-1.8099601,-3.5432768,-0.31012955,-0.31085354,-0.23483917,27.625,28.8125,27.875,31.5,33.4375,34.3125
0.32205194,-1.431707,-1.9522305,-1.8569417,-0.040796153,0.04285553,-0.13431965,-0.39751518,-0.32413524,0.059922643,-3.071096,0.6258029,-0.00031519932,-0.15337943,0.024358818,0.00025397388,0.03890762,-0.013692055,-0.022212276,0.42293724,-1.4302512,1.9617199,-2.0962923,-1.5764564,2.39943,-0.15239407,0.2566099,-0.31025386,0.08144796,-0.030920893,-0.12981729,0.0,0.21068975,-9.5385,0.90527004,47.682407,-0.95910114,-1.7503285,-3.4370818,-0.2817254,-0.30935082,-0.33659405,27.625,28.8125,27.875,31.5,33.4375,34.3125
0.324052,-1.5992914,-2.163019,-1.7606874,-0.049019918,0.062082216,-0.12433557,-0.39781612,-0.3240907,0.05989918,-3.0710156,0.62594277,-0.0003994014,-0.15655276,0.024228118,0.000610901,0.037529293,-0.008522785,-0.027596744,0.42261246,-1.4297113,1.9611338,-2.0961745,-1.5764683,2.3992035,-0.15406653,0.2590528,-0.31281665,0.07630202,-0.031803038,-0.12609518,-0.21068975,0.22984336,-9.481039,0.89631605,47.682407,-0.8044733,-1.9434234,-3.480515,-0.21444228,-0.30446017,-0.3918262,27.625,28.8125,27.875,31.5,33.4375,34.3125
0.3260522,-1.9904401,-2.3678718,-1.7086087,-0.054053035,0.08842415,-0.13261415,-0.39812335,-0.32406476,0.059902076,-3.070937,0.6259444,-0.00041158468,-0.1563953,0.024789626,-0.0010530628,0.03900725,-0.011448261,-0.029332263,0.4223484,-1.4291712,1.9604758,-2.0960066,-1.5765284,2.3989513,-0.15472315,0.2621063,-0.3126034,0.07630098,-0.03195901,-0.12501368,-0.47884035,0.34476504,-9.519346,0.9321212,47.694946,-0.848677,-1.8264892,-3.4825063,-0.20526502,-0.32164133,-0.4809732,27.625,28.8125,27.875,31.5,33.4375,34.3125
0.32805222,-2.1399372,-2.4116755,-1.8640233,-0.05289099,0.108159095,-0.13771321,-0.3984336,-0.324018,0.05990493,-3.0708578,0.6260419,-0.00041464416,-0.15978026,0.02385987,0.00071906165,0.035802893,-0.0042484524,-0.027015252,0.42203614,-1.4286672,1.9598645,-2.0958655,-1.5765766,2.3987107,-0.15562528,0.26254752,-0.31622416,0.0715653,-0.032031123,-0.1282288,-0.40222588,0.3256114,-9.595961,0.9612189,47.686886,-0.9022762,-2.1262434,-3.5914845,-0.15547246,-0.35026884,-0.48646465,27.625,28.8125,27.875,31.5,33.4375,34.3125
0.3300523,-2.449493,-2.3066797,-1.9500053,-0.050345104,0.109020986,-0.12955223,-0.39877883,-0.32396773,0.059927993,-3.0707958,0.62604195,-0.00032741058,-0.16061346,0.023693364,0.00022391684,0.036534794,-0.004681872,-0.019370012,0.42171234,-1.4281521,1.9591936,-2.095721,-1.576661,2.3983955,-0.15549594,0.26543254,-0.3184992,0.07158598,-0.032565646,-0.13574073,-0.28730422,0.3256114,-9.653421,0.9567419,47.66987,-0.9907356,-2.0208654,-3.57599,-0.11151773,-0.35380048,-0.46612528,27.625,28.8125,27.875,31.5,33.4375,34.3125
0.33205223,-2.529015,-1.8696069,-1.6153235,-0.053249244,0.10163937,-0.13301566,-0.3991165,-0.32393596,0.059927784,-3.0707066,0.6260551,-0.00026170185,-0.16119021,0.023451505,0.00032931252,0.037111666,-0.003756072,-0.008687562,0.42143655,-1.4275767,1.9585127,-2.0956013,-1.5767568,2.3981402,-0.15474595,0.2664894,-0.32003444,0.0713763,-0.033527847,-0.14566652,-0.4405331,0.22984336,-9.461885,0.86945957,47.686886,-1.0047799,-1.9814777,-3.598415,-0.09249938,-0.36284015,-0.3968385,27.625,28.8125,27.875,31.5,33.4375,34.3125
0.3340524,-2.1904645,-1.5210488,-1.5944681,-0.039224178,0.10377041,-0.13672645,-0.39939773,-0.3238946,0.059894517,-3.0706406,0.6259784,-0.00040815136,-0.16242446,0.024197035,0.00044084422,0.038217545,-0.0030158309,0.00017795358,0.42113602,-1.427025,1.9579257,-2.0954454,-1.5767697,2.397801,-0.15608443,0.26758876,-0.3217466,0.07169617,-0.034914427,-0.15585753,-0.61291564,0.22984336,-9.500193,0.8940802,47.666286,-0.8738302,-1.994868,-3.674173,-0.079220444,-0.38075095,-0.27773264,27.625,28.8125,27.875,31.5,33.4375,34.3125
0.3360528,-1.6010264,-0.8928202,-1.7848166,-0.026373068,0.09632053,-0.13904648,-0.39976466,-0.32382923,0.059906937,-3.0705886,0.6260977,-0.00031101104,-0.16332424,0.024330001,0.0012471706,0.039269358,-0.001240484,0.00710314,0.42075247,-1.4264983,1.9572786,-2.0953615,-1.5768307,2.397499,-0.15576248,0.26762536,-0.32397106,0.07263603,-0.03663482,-0.16245092,-0.57460845,0.17238252,-9.634268,0.9321212,47.672558,-1.1581727,-1.8198571,-3.6585145,-0.051697593,-0.37160298,-0.19238013,27.625,28.8125,27.875,31.5,33.4375,34.3125
0.33805212,-1.3464111,-0.7509917,-1.5111489,-0.024421904,0.09459819,-0.14434145,-0.40006787,-0.32378098,0.059910104,-3.07049,0.6260179,-0.00030438995,-0.16432992,0.024647705,0.002218412,0.039786026,0.0009775813,0.008488159,0.42047626,-1.4259837,1.9566449,-2.0951817,-1.5769271,2.3971865,-0.15611373,0.26693907,-0.32565126,0.07315748,-0.03803722,-0.16417602,-0.45968673,0.0,-9.576807,0.92093146,47.675243,-1.1110852,-1.726593,-3.7757783,-0.03707156,-0.3641823,-0.12686828,27.625,28.8125,27.875,31.5,33.4375,34.3125
0.34005228,-1.6681916,-0.7047039,-1.3702596,-0.0049495692,0.07736636,-0.13124852,-0.40040955,-0.3237546,0.059926223,-3.0704563,0.6258797,-0.00021683087,-0.16482496,0.024195166,0.0018922389,0.041465204,0.0010636252,0.004308137,0.42020082,-1.4254316,1.9559492,-2.09505,-1.5770115,2.3968296,-0.1545268,0.26959082,-0.3281665,0.073646404,-0.039584506,-0.15839843,-0.61291564,-0.05746084,-9.442732,0.94331104,47.70032,-1.2429715,-1.7542824,-3.5398636,0.007897534,-0.37067848,-0.17487265,27.625,28.8125,27.875,31.5,33.4375,34.3125
0.34205246,-1.109615,-0.3974274,-1.7888167,0.020544289,0.07693596,-0.13593934,-0.4007526,-0.3236794,0.05991367,-3.070329,0.6260316,-0.00023550246,-0.16673443,0.025578063,0.0031659766,0.043304894,0.0007768494,-0.0059156236,0.4198274,-1.424868,1.9553026,-2.0949042,-1.577084,2.3965683,-0.15744942,0.27032706,-0.3332758,0.07905869,-0.041126765,-0.15108363,-0.49799395,-0.15322891,-9.576807,0.83365434,47.658226,-1.0872765,-1.6288481,-3.4995604,-0.018319195,-0.34925577,-0.23111126,27.625,28.8125,27.875,31.5,33.4375,34.3125
0.34405255,-1.4819661,0.03924623,-1.5232055,0.024373172,0.057453003,-0.13514473,-0.401103,-0.32364285,0.059927575,-3.0702586,0.62603843,-0.0001646222,-0.16849822,0.026459409,0.0025597808,0.044443507,-0.00056634273,-0.012157325,0.41952658,-1.4243044,1.9545954,-2.0947597,-1.5771679,2.3962815,-0.16002992,0.27410674,-0.33662233,0.08031744,-0.041611407,-0.14741756,-0.4405331,-0.2681506,-9.461885,0.9097417,47.658226,-0.9915098,-1.658766,-3.4168034,-0.009331992,-0.34403664,-0.2902283,27.625,28.8125,27.875,31.5,33.4375,34.3125
0.3460518,-0.7662054,0.4269916,-1.5196431,0.036299534,0.073782384,-0.13852213,-0.40141106,-0.32359862,0.059927557,-3.0701756,0.62603843,-0.0001536094,-0.16758424,0.026794145,0.0015394313,0.047759198,-0.0059829587,-0.01224125,0.41923937,-1.4237877,1.9539732,-2.0946143,-1.5772403,2.3960056,-0.15920517,0.27722368,-0.33928,0.0861424,-0.042434175,-0.14650166,-0.36391866,-0.3256114,-9.385271,0.9768804,47.679718,-1.2181987,-1.8810308,-3.4050615,-0.038840808,-0.33651078,-0.3256834,27.625,28.8125,27.875,31.5,33.4375,34.3125
0.3480522,-1.0343649,0.46454945,-1.667069,0.07953133,0.041745666,-0.12877604,-0.4017737,-0.3235393,0.059952345,-3.070078,0.6260366,-7.886072e-05,-0.16604188,0.02797728,-0.00016363659,0.053096656,-0.013292006,-0.012321132,0.41890365,-1.4232355,1.9532427,-2.0944207,-1.5773491,2.395682,-0.15869465,0.28061667,-0.34099,0.09328896,-0.04433205,-0.14589891,-0.40222588,-0.21068975,-9.461885,0.9679317,47.71554,-1.2631509,-2.030916,-3.3314567,-0.13607314,-0.3198631,-0.35364503,27.625,28.8125,27.875,31.5,33.4375,34.3125
0.35005245,-0.8744663,0.80018157,-1.5850669,0.0679852,0.048660688,-0.14284356,-0.4020891,-0.32345647,0.05992452,-3.0699127,0.6260967,-0.00015352502,-0.16572906,0.029494388,-0.0011340068,0.057239175,-0.01651074,-0.013286713,0.41855624,-1.4226708,1.9526209,-2.0942395,-1.5774459,2.3953946,-0.15942672,0.28239566,-0.34173462,0.09686106,-0.0468308,-0.14564416,-0.36391866,-0.24899697,-9.442732,0.8717007,47.72808,-1.2937098,-1.945714,-3.5544677,-0.15560202,-0.2967802,-0.3643312,27.625,28.8125,27.875,31.5,33.4375,34.3125
0.35205224,-0.6556558,0.50093997,-1.7026484,0.051221024,0.050697733,-0.15661113,-0.40243834,-0.32340366,0.059935134,-3.0697913,0.62610483,-0.00012503496,-0.16505627,0.03123482,-0.0024525637,0.060194228,-0.021302154,-0.008903401,0.41824403,-1.4220933,1.9518908,-2.0940354,-1.5775546,2.395104,-0.16137245,0.2838771,-0.34137514,0.10052779,-0.047627393,-0.1519669,-0.076614454,-0.21068975,-9.442732,0.900793,47.70032,-1.3069541,-1.9530978,-3.6191778,-0.22772416,-0.27427906,-0.3417278,27.625,28.8125,27.875,31.5,33.4375,34.3125
0.35405222,-0.51731104,-0.48364797,-1.4816952,0.011947085,0.05789889,-0.14767478,-0.40279135,-0.32334822,0.059972208,-3.0696952,0.62604195,-4.2375344e-05,-0.1655107,0.03248758,-0.0027145306,0.062298913,-0.0234152,-0.0038501164,0.41793182,-1.4215645,1.9511503,-2.0938065,-1.5776747,2.3947656,-0.16314127,0.28511643,-0.34302092,0.103642926,-0.048740603,-0.15878113,-0.038307227,-0.095768064,-9.461885,0.90750587,47.70659,-1.2133002,-2.0321198,-3.7087584,-0.2761287,-0.2710442,-0.28922233,27.625,28.8125,27.875,31.5,33.4375,34.3125
0.3560523,-0.6091689,-1.6861144,-1.3490373,-0.01896142,0.069950454,-0.14497326,-0.4031076,-0.3232975,0.05997272,-3.0696025,0.6259779,-0.000114095244,-0.16813205,0.033726893,-0.0010338788,0.063245505,-0.019333813,0.0025158373,0.41761982,-1.4210123,1.9504665,-2.0935795,-1.5777353,2.3944263,-0.16569495,0.2843879,-0.34629577,0.10422137,-0.051342793,-0.16767815,-0.17238252,0.076614454,-9.442732,0.89631605,47.689575,-1.2049305,-1.9238728,-3.6647077,-0.32875204,-0.19800264,-0.17803633,27.625,28.8125,27.875,31.5,33.4375,34.3125
0.3580525,-0.83261126,-2.0379112,-1.7879959,-0.050669163,0.07229663,-0.14857158,-0.4034342,-0.3231826,0.05994705,-3.0693703,0.62596333,-0.00013894409,-0.1701771,0.03354958,0.00029566782,0.06460578,-0.014284143,0.00895015,0.4172608,-1.4204475,1.9498314,-2.0933645,-1.5779165,2.3940895,-0.16468576,0.28484872,-0.3497305,0.103054725,-0.054711472,-0.17307176,-0.17238252,0.15322891,-9.461885,0.95226496,47.684196,-1.1612732,-1.8437147,-3.641883,-0.3439621,-0.14027275,-0.07242512,27.625,28.8125,27.875,31.5,33.4375,34.3125
0.36005178,-1.4235232,-2.6430364,-1.8818218,-0.07304143,0.06275344,-0.14254728,-0.40378305,-0.32311368,0.05997115,-3.0692604,0.62593997,-0.00013497769,-0.17332602,0.03342052,0.0019318679,0.061146714,-0.009018046,0.0058768117,0.41691253,-1.419907,1.9491013,-2.0931141,-1.5780123,2.3937416,-0.16747741,0.28474274,-0.35281318,0.09999115,-0.053717565,-0.17279196,-0.05746084,0.15322891,-9.615114,1.0663986,47.701214,-1.0061641,-1.620817,-3.4428937,-0.3240943,-0.116062,-0.05736543,27.625,28.8125,27.875,31.5,33.4375,34.3125
0.3620519,-1.635478,-3.1630378,-1.5577543,-0.08709965,0.06543678,-0.13915671,-0.40413016,-0.32304868,0.05995833,-3.0691216,0.62593275,-0.00012204089,-0.1774285,0.032214567,0.0040424103,0.056648638,-0.0014546664,-0.0016201668,0.41658866,-1.4193062,1.9484056,-2.0929482,-1.578132,2.3934321,-0.1691092,0.2857588,-0.35793728,0.09536552,-0.052677408,-0.16692692,-0.19153613,0.24899697,-9.5385,0.9545008,47.721813,-1.0704092,-1.559937,-3.3809323,-0.30667943,-0.1085335,-0.06547252,27.625,28.8125,27.875,31.5,33.4375,34.3125
0.364052,-1.335964,-2.8447604,-1.9026735,-0.0686738,0.05874253,-0.1453722,-0.40448096,-0.32297832,0.05997221,-3.069024,0.62589526,-0.00013189833,-0.17889264,0.031813126,0.003491582,0.054511774,0.0013987819,-0.009564558,0.41622892,-1.4187522,1.9476885,-2.0927227,-1.5782155,2.3930624,-0.16989997,0.2875342,-0.35761362,0.08981199,-0.051868577,-0.15977469,-0.2873042,0.36391866,-9.653421,0.9321212,47.679718,-0.995758,-1.6644015,-3.4543524,-0.2542864,-0.07918382,-0.16295233,27.625,28.8125,27.875,31.5,33.4375,34.3125
0.36605197,-1.3292748,-2.4837835,-2.2096524,-0.056532558,0.058727276,-0.1397737,-0.4048622,-0.32293484,0.060012437,-3.0689535,0.6259612,6.087315e-05,-0.18004595,0.031374708,0.00119999,0.053426743,-0.00023952544,-0.018923705,0.4159174,-1.4182106,1.9469465,-2.092592,-1.5783352,2.3928018,-0.17094289,0.2935188,-0.35847503,0.08577245,-0.050175413,-0.15147173,-0.38307226,0.47884035,-9.921572,0.92764956,47.70211,-1.0299696,-1.7019964,-3.6277413,-0.20038305,-0.07824007,-0.23694712,27.625,28.8125,27.875,31.5,33.4375,34.3125
0.36805195,-1.4906933,-2.8345873,-1.8379745,-0.0886803,0.07640675,-0.14391753,-0.40521306,-0.32287553,0.06001822,-3.0688221,0.62603015,9.0157846e-05,-0.18058802,0.030416002,0.0007462401,0.050929956,0.00057499914,-0.023342753,0.41559392,-1.4176334,1.9462289,-2.0924022,-1.5784425,2.3925393,-0.17071716,0.2950918,-0.35871464,0.08268317,-0.04821676,-0.14683753,-0.19153613,0.45968673,-9.768343,0.947788,47.686886,-1.0117038,-1.767928,-3.690439,-0.12709384,-0.086296886,-0.31289312,27.625,28.8125,27.875,31.5,33.4375,34.3125
0.37005204,-2.2987282,-3.5169122,-1.4012585,-0.09889533,0.06268871,-0.13405122,-0.40559202,-0.32281294,0.06002728,-3.0687222,0.62612545,0.0001648031,-0.18062003,0.030464547,4.202847e-05,0.05001981,-0.00262325,-0.028232196,0.41523412,-1.4170439,1.9454993,-2.0922577,-1.5785373,2.3922527,-0.17201087,0.29715967,-0.36005896,0.08450898,-0.046080638,-0.14325616,-0.2873042,0.40222588,-9.595961,0.9545008,47.70211,-0.9106748,-1.7756412,-3.7958016,-0.13664266,-0.08721594,-0.40068668,27.625,28.8125,27.875,31.5,33.4375,34.3125
0.37205228,-1.367095,-2.8089852,-1.5866847,-0.09539062,0.06623987,-0.14885,-0.40594828,-0.32276177,0.060047336,-3.0686321,0.6261248,0.0002533335,-0.18269347,0.029972704,0.0006466803,0.047004238,3.9596056e-05,-0.030247992,0.4149222,-1.4164906,1.9447807,-2.0920894,-1.5786451,2.3919528,-0.17368354,0.29835683,-0.36241254,0.08198024,-0.044410933,-0.14292322,-0.53630114,0.4213795,-9.557653,1.0261165,47.687782,-0.9577446,-1.9007514,-3.881046,-0.09347749,-0.1048525,-0.45031178,27.625,28.8125,27.875,31.5,33.4375,34.3125
0.37405255,-1.3315437,-2.57263,-1.3000807,-0.07895424,0.06995581,-0.14403538,-0.40631938,-0.32271895,0.06006331,-3.0685837,0.6262076,0.00030534272,-0.18453795,0.028996421,0.0016044554,0.044483956,0.0012847348,-0.027498586,0.4145747,-1.4159139,1.9440497,-2.0919468,-1.5786923,2.3916638,-0.17433725,0.30022407,-0.36704832,0.08253838,-0.042638022,-0.14633736,-0.24899697,0.36391866,-9.442732,0.9768804,47.686886,-0.9913456,-1.6872218,-3.744501,-0.022315674,-0.12154815,-0.4615628,27.625,28.8125,27.875,31.5,33.4375,34.3125
0.37605184,-0.4800321,-1.53234,-1.2767943,-0.053459916,0.056542765,-0.16251406,-0.40668598,-0.32264596,0.0600442,-3.0684507,0.6262471,0.00031773726,-0.18630552,0.027667953,0.0031788463,0.041971754,0.0034407168,-0.016493686,0.41421548,-1.4152883,1.9433426,-2.0918033,-1.5788001,2.3913474,-0.1740129,0.30121997,-0.37222195,0.083608516,-0.041289043,-0.15702339,-0.1340753,0.32561144,-9.442732,0.95226496,47.66271,-1.0776583,-1.5572052,-3.606896,-0.032663126,-0.14238887,-0.40032828,27.625,28.8125,27.875,31.5,33.4375,34.3125
