Tylouw/Master_Thesis_Code/training_data/batch_1/big_rod_t0.3/sample_89_session_3.csv
timestamp[s],tcp_force_x[N],tcp_force_y[N],tcp_force_z[N],tcp_force_rx[Nm?],tcp_force_ry[Nm?],tcp_force_rz[Nm?],tcp_pose_x[m],tcp_pose_y[m],tcp_pose_z[m],tcp_pose_rx[rot_vec_x],tcp_pose_ry[rot_vec_y],tcp_pose_rz[rot_vec_z],tcp_velo_x[m/s],tcp_velo_y[m/s],tcp_velo_z[m/s],tcp_velo_rx[rot_vec_x/s],tcp_velo_ry[rot_vec_y/s],tcp_velo_rz[rot_vec_z/s],q1[rad],q2[rad],q3[rad],q4[rad],q5[rad],q6[rad],qd1[rad/s],qd2[rad/s],qd3[rad/s],qd4[rad/s],qd5[rad/s],qd6[rad/s],tool_acc_x,tool_acc_y,tool_acc_z,current_of_whole_robot[A],voltage_of_whole_robot[V],current_J1[A],current_J2[A],current_J3[A],current_J4[A],current_J5[A],current_J6[A],temp_J1[C],temp_J2[C],temp_J3[C],temp_J4[C],temp_J5[C],temp_J6[C]
7.780036e-07,-1.045835,-2.2427146,-0.68869716,0.0043612802,0.009214058,0.014578861,-0.37288952,-0.32820305,0.059933797,-3.078416,0.6248717,-0.00022794561,0.00242361,0.0011708961,-0.0034480102,0.0037259469,-0.008007305,-8.413147e-05,0.4481623,-1.470849,2.0095847,-2.1077025,-1.5707334,2.4230914,-8.198803e-05,0.0037874307,0.0033690257,0.0016741477,0.00012259443,4.1698582e-11,0.076614454,0.15322891,-9.002198,0.7083204,47.683304,-0.14789283,-2.8743386,-2.3928251,-0.49886143,0.07168442,0.0011717636,27.9375,29.125,28.25,31.9375,34.0,34.875
0.002053059,-0.3661011,-1.6747226,-0.68151,0.001218084,0.021907875,0.001998274,-0.3728576,-0.32821992,0.059899665,-3.0784476,0.6247629,-0.00039553258,-0.0006529869,-0.00031705553,-0.003144741,-0.00082726823,0.0014086331,-7.983074e-05,0.4481742,-1.4708009,2.0096085,-2.1076953,-1.5706614,2.4230313,-8.0934726e-05,0.004826682,0.0043921955,-0.010847316,0.00011987285,2.7226197e-12,0.1340753,0.21068975,-8.963891,0.69937176,47.668976,-0.1646893,-2.8857064,-2.4355137,-0.44897968,0.07278943,-0.0055561457,27.9375,29.125,28.25,31.9375,34.0,34.875
0.004052111,-0.96290606,-1.0053517,-0.56082183,-0.008213614,0.012349135,0.00021550499,-0.3728788,-0.32822812,0.059911624,-3.0784855,0.62484777,-0.00031521835,-0.0022574975,-0.0010925952,-0.0022057877,-0.0032879994,0.0065065357,-7.727246e-05,0.4481623,-1.4708132,2.0096085,-2.1077564,-1.5706495,2.4230676,-7.9908204e-05,0.0042051165,0.0039767013,-0.015470977,0.0001172693,1.777676e-13,0.05746084,0.21068975,-8.925584,0.7642693,47.684196,-0.15778413,-3.0921903,-2.5709186,-0.3385546,0.06168717,0.008537497,27.9375,29.125,28.25,31.9375,34.0,34.875
0.006052596,-0.46629882,-1.0461451,-0.7739267,0.006887117,0.007388295,0.001349916,-0.37288812,-0.32821554,0.0598958,-3.0784726,0.6247866,-0.00033580777,-0.0011101395,-0.0005369315,-0.0015746433,-0.0016141535,0.0030590289,-7.761807e-05,0.4481382,-1.4707778,2.009608,-2.107766,-1.5706614,2.423007,-7.890744e-05,0.0027847257,0.0025664854,-0.008808002,0.00011477682,1.1606954e-14,0.05746084,0.15322891,-8.887277,0.7150385,47.705692,-0.12449914,-3.008905,-2.5113153,-0.37137687,0.06762032,0.0025582823,27.9375,29.125,28.25,31.9375,34.0,34.875
0.008052068,0.055823162,-0.03028985,-1.1358447,0.035904456,-0.016037233,-0.0026387966,-0.37289226,-0.3282216,0.059910957,-3.0784633,0.62480414,-0.00028399902,-0.0004934886,-0.00023821802,-0.00094793533,-0.00059434277,0.000961112,-7.73311e-05,0.4481623,-1.4707901,2.0095837,-2.107752,-1.5706857,2.4230433,-7.793135e-05,0.0017991624,0.001123868,-0.0040471754,0.000112388145,7.5785123e-16,0.0,0.24899697,-9.078813,0.75755644,47.701214,-0.15422237,-2.969871,-2.4675055,-0.4120736,0.067802444,0.019413365,27.9375,29.125,28.25,31.9375,34.0,34.875
0.010052535,0.27254912,-0.08355654,-1.677258,0.05803631,-0.022978632,0.0067662084,-0.3728768,-0.3282098,0.05989542,-3.078425,0.6248353,-0.00031811607,-8.4094485e-05,-3.5788657e-05,-0.0005009104,-8.8621404e-05,-7.430574e-05,-8.4199e-05,0.4481623,-1.4707904,2.0096195,-2.1077511,-1.5706977,2.4230676,-8.4221734e-05,0.0008634022,0.00050811627,-0.0013433505,0.000110096546,4.9482265e-17,-0.038307227,0.11492168,-9.3661175,0.7083204,47.688675,-0.57801664,-2.3314855,-3.0166788,-0.42524344,0.0487755,-0.012707695,27.9375,29.125,28.25,31.9375,34.0,34.875
0.01205268,-0.117612205,-0.6887661,-1.7002832,0.02951862,-0.0054837177,-0.0033836423,-0.37288582,-0.32819527,0.05987291,-3.0784152,0.62491065,-0.00040102008,0.0006775021,0.00038570387,-0.004202806,0.003591035,-0.0077209547,-0.00018688498,0.44810218,-1.4707513,2.009631,-2.107763,-1.5706614,2.4230556,-0.00018818029,0.008846517,1.2695255e-05,-0.00034509238,0.00010789665,3.2308382e-18,0.095768064,0.019153614,-9.481039,0.7777002,47.652847,-0.7115965,-2.593362,-3.2013254,-0.44441882,0.048252802,-0.07214098,27.9375,29.125,28.25,31.9375,34.0,34.875
0.014052055,-0.82135314,-1.6616945,-1.9201719,-0.010492932,0.015847895,-0.0005789617,-0.37286305,-0.32820576,0.059857246,-3.0783782,0.62481195,-0.00045316727,-0.0045717196,0.002614806,-0.0045707533,0.0037213778,-0.008015709,-0.009165353,0.44815907,-1.4707135,2.009617,-2.1077268,-1.5706857,2.4230556,-0.009161812,0.015240254,-0.006184606,-0.00021941558,0.00010578296,9.5396435e-06,-0.019153614,0.21068975,-9.595961,0.7486078,47.72719,-0.41347563,-2.8795204,-3.1334095,-0.43864983,0.03906457,-0.095505774,27.9375,29.125,28.25,31.9375,34.0,34.875
0.016052263,-1.6233335,-2.4914396,-1.8112301,-0.030808141,0.04306044,-0.00058188447,-0.3728795,-0.3281839,0.05985226,-3.0783513,0.624903,-0.00053378334,-0.0064379885,0.0025466746,-0.0033919024,0.002600039,-0.0056935586,-0.010723557,0.44808644,-1.4706895,2.0095913,-2.1076791,-1.5706614,2.4230433,-0.010730734,0.015492791,-0.00920877,-2.649461e-05,0.000103750484,6.228705e-07,-0.19153614,0.28730422,-9.710882,0.7463667,47.717335,-0.29542089,-2.7555604,-3.1010292,-0.44946343,0.0452086,-0.11520299,27.9375,29.125,28.25,31.9375,34.0,34.875
0.018052125,-1.8704705,-2.7710652,-1.8638437,-0.04586974,0.08939671,-0.004846022,-0.37285313,-0.32819682,0.059823804,-3.078331,0.62481767,-0.0006096363,-0.005798572,0.0023133927,-0.0033543142,0.0026050496,-0.005703299,-0.0036290302,0.44813475,-1.4706417,2.0096042,-2.1076791,-1.5706614,2.4230409,-0.009708784,0.014694231,-0.008424974,-1.7299087e-06,0.00010179469,-0.0060725636,-0.4405331,0.2681506,-9.749189,0.78217715,47.694946,-0.484133,-2.54464,-3.3881505,-0.4318068,0.028865475,-0.08634643,27.9375,29.125,28.25,31.9375,34.0,34.875
0.020052077,-2.5027192,-2.4393046,-1.9170963,-0.044288468,0.09421664,-0.0022492458,-0.372873,-0.32821295,0.05984576,-3.0783968,0.6248117,-0.00057200954,-0.005609746,0.002539622,-0.0041053095,0.004276521,-0.009169869,-0.0024197623,0.44812274,-1.4706529,2.0095685,-2.1076896,-1.5706257,2.4230168,-0.0099629415,0.017295668,-0.010259655,0.003080061,9.991128e-05,-0.007535373,-0.4405331,0.30645782,-9.80665,0.7105615,47.711063,-0.6757752,-2.4792092,-3.5704381,-0.4528715,0.02682689,-0.07741388,27.9375,29.125,28.25,31.9375,34.0,34.875
0.022052396,-2.6917486,-2.237939,-1.9776467,-0.013840911,0.088240035,-0.0052007874,-0.37290847,-0.3281829,0.05982428,-3.07832,0.62491363,-0.0006238384,-0.0071042334,0.002983381,-0.003803998,0.0041986424,-0.0090115955,-0.006234297,0.44805008,-1.4705687,2.0095198,-2.1076658,-1.5706495,2.4230175,-0.01215673,0.018709447,-0.012695122,0.0039254264,9.8096265e-05,-0.0059131905,-0.53630114,0.24899697,-9.749189,0.77545905,47.716442,-0.7050045,-2.426718,-3.4902525,-0.47354394,0.007091042,-0.13837779,27.9375,29.125,28.25,31.9375,34.0,34.875
0.024052527,-2.0788932,-1.4571049,-1.9340099,-0.013508448,0.078825265,-0.0134940725,-0.3728893,-0.32818398,0.059804656,-3.0783167,0.6248746,-0.00067801203,-0.008967413,0.0029138678,-0.0031522522,0.0032259072,-0.0069731893,-0.007976039,0.4480614,-1.4705563,2.0095541,-2.1076782,-1.5706376,2.4230049,-0.013713586,0.019852206,-0.015250068,0.0030791485,8.4428226e-05,-0.0057263128,-0.6512228,0.2681506,-9.749189,0.7486078,47.7254,-0.71591675,-2.5071807,-3.3785644,-0.46050775,0.0064358194,-0.15773727,27.9375,29.125,28.25,31.9375,34.0,34.875
0.026052298,-2.4048393,-1.9053701,-2.1230283,-0.008749584,0.06755324,-0.01008491,-0.3729137,-0.32817203,0.05979355,-3.0782893,0.6249272,-0.0006808236,-0.0103046745,0.0031820447,-0.0026414415,0.0023464947,-0.005144477,-0.008412793,0.4480248,-1.4705083,2.0095298,-2.1076906,-1.5706495,2.4230046,-0.015430273,0.019887036,-0.016208218,0.001973058,7.915117e-05,-0.0070053292,-0.6895301,0.21068975,-9.691729,0.73741806,47.71554,-0.72203255,-2.4643197,-3.468606,-0.45185053,0.013420261,-0.18507576,27.9375,29.125,28.25,31.9375,34.0,34.875
0.028052535,-2.4587097,-1.8013788,-1.904736,-0.02481866,0.07115566,-0.02930083,-0.3729429,-0.3281648,0.05979183,-3.0782707,0.62496066,-0.0007359616,-0.011803748,0.0030418648,-0.0021158236,0.0013423476,-0.0030417216,-0.0064263386,0.44797653,-1.4704481,2.0094569,-2.107643,-1.5706376,2.4229796,-0.01651935,0.020631796,-0.017920934,0.0006105354,6.4064094e-05,-0.010079286,-0.7086837,0.22984336,-9.672575,0.7083204,47.701214,-0.7401325,-2.3293805,-3.440145,-0.42452288,-0.008331746,-0.1747293,27.9375,29.125,28.25,31.9375,34.0,34.875
0.030051703,-2.256846,-1.4296238,-1.6039882,-0.02989267,0.0808606,-0.04568815,-0.37296796,-0.32816172,0.05977562,-3.0782568,0.62489986,-0.00072768936,-0.0133208595,0.0029739824,-0.0013586633,0.0005813202,-0.0014653854,-0.006523096,0.447964,-1.4703761,2.0094206,-2.1076672,-1.5706614,2.422931,-0.017769573,0.02132819,-0.02043896,0.0006813285,6.110097e-05,-0.011231146,-0.7469909,0.22984336,-9.672575,0.78217715,47.677036,-0.6855912,-2.2906485,-3.4361248,-0.4041031,0.0012878929,-0.1850271,27.9375,29.125,28.25,31.9375,34.0,34.875
0.032052085,-1.915366,-1.3093466,-1.5009028,-0.007046521,0.09399999,-0.062437378,-0.37301174,-0.32817015,0.0598086,-3.078319,0.6249897,-0.0006575678,-0.014112609,0.0027614606,-0.0012342081,0.0005013696,-0.0013026074,-0.0065162694,0.44791585,-1.4703876,2.00936,-2.1076787,-1.5706257,2.422931,-0.018088005,0.022757443,-0.022364123,0.0009962632,5.9960697e-05,-0.011555105,-0.6895301,0.17238252,-9.461885,0.7418897,47.70032,-0.72601205,-2.3351128,-3.4386773,-0.39508438,-0.019942721,-0.20087442,27.9375,29.125,28.25,31.9375,34.0,34.875
0.03405257,-1.9969649,-0.630811,-1.522419,0.015302793,0.08247556,-0.06622708,-0.37301823,-0.32817537,0.059782986,-3.0782907,0.6250419,-0.00075603666,-0.014575176,0.0030135289,-0.0012822673,0.0011647965,-0.0026830574,-0.006322425,0.4479035,-1.4703032,2.0093234,-2.1076658,-1.5706018,2.4229548,-0.01898294,0.024144456,-0.024237942,0.003014839,5.8970534e-05,-0.012643139,-0.59376204,0.05746084,-9.5385,0.73069996,47.699425,-0.71302426,-2.3758283,-3.3922656,-0.40850067,-0.025059642,-0.20282584,27.9375,29.125,28.25,31.9375,34.0,34.875
0.036052153,-1.5735736,-0.591509,-1.5261116,0.04671753,0.06559419,-0.07307424,-0.37306136,-0.32815126,0.05977334,-3.0782375,0.6250876,-0.0007524926,-0.015581002,0.0033324854,-0.0012110695,0.0012155338,-0.0027646145,-0.006049387,0.44784313,-1.4702308,2.0092633,-2.1076539,-1.5706376,2.4229298,-0.020486392,0.025370387,-0.025860026,0.0035058467,4.4500004e-05,-0.014418579,-0.45968673,-0.095768064,-9.500193,0.7530795,47.694946,-0.71715343,-2.3372185,-3.4487615,-0.40188763,-0.029578734,-0.19019356,27.9375,29.125,28.25,31.9375,34.0,34.875
0.03805236,-1.3089906,-0.18891251,-1.4744489,0.041039016,0.04593414,-0.09026412,-0.37311262,-0.32815883,0.059806198,-3.0783074,0.6250639,-0.00059003406,-0.017084492,0.0030834556,-0.000114143266,3.2094544e-05,-8.751836e-05,-0.005869045,0.44781882,-1.470243,2.009215,-2.1077144,-1.5706495,2.4228818,-0.021316582,0.025193663,-0.028055126,0.0029521554,-5.27646e-05,-0.0154274525,-0.34476504,-0.11492168,-9.423578,0.7463667,47.694946,-0.7225388,-2.208269,-3.3878837,-0.38290668,-0.054864947,-0.17218535,27.9375,29.125,28.25,31.9375,34.0,34.875
0.04005239,-1.2074386,-0.6592774,-1.4795061,0.040154394,0.032996573,-0.09629885,-0.37315702,-0.3281482,0.059802458,-3.0782862,0.62513673,-0.00060363364,-0.018560048,0.0029553585,0.00031706257,-0.0007285966,0.0015882837,-0.006322963,0.44775844,-1.4701707,2.0091417,-2.1077025,-1.5706495,2.4228697,-0.022383228,0.026302649,-0.030043455,0.0019916354,-9.9523815e-05,-0.016038435,-0.26815057,-0.1340753,-9.481039,0.779936,47.698532,-0.71016216,-2.1559749,-3.4096549,-0.34734052,-0.05082187,-0.17466748,27.9375,29.125,28.25,31.9375,34.0,34.875
0.0420528,-0.98312783,-1.0063994,-1.657411,0.026927246,0.027150048,-0.10519353,-0.37321243,-0.32812724,0.05980914,-3.0782418,0.6251475,-0.0005306511,-0.020170126,0.0035453832,0.0003669795,0.0008617394,0.0029231112,-0.0075629037,0.44770995,-1.4701102,2.0090573,-2.1076906,-1.5707105,2.4228337,-0.02358883,0.028238684,-0.032222748,0.0017263794,-0.0021159046,-0.015998274,-0.17238252,-0.095768064,-9.5385,0.7351769,47.692257,-0.7132798,-2.236433,-3.392917,-0.34087458,-0.04673466,-0.18844748,27.9375,29.125,28.25,31.9375,34.0,34.875
0.044051953,-0.97178054,-1.7269319,-1.6155931,0.02488446,0.009261173,-0.105723545,-0.37322658,-0.3281257,0.059778042,-3.0782259,0.6252025,-0.0006661102,-0.021361738,0.00394756,0.0005121079,0.0011719804,0.003254893,-0.008658824,0.4476615,-1.470014,2.00902,-2.1076782,-1.5706624,2.4228215,-0.025137555,0.029490536,-0.03401942,0.002108543,-0.0025434678,-0.016448863,-0.1340753,-0.038307227,-9.423578,0.7620334,47.684196,-0.6657555,-2.2419105,-3.4018693,-0.3153507,-0.03867591,-0.1887232,27.9375,29.125,28.25,31.9375,34.0,34.875
0.04605268,-0.42937294,-1.6351783,-1.6755873,0.016196242,0.0055044475,-0.13210465,-0.3732791,-0.3281169,0.05979208,-3.078256,0.62520874,-0.0006338784,-0.021772206,0.0041954443,0.00092629367,0.0012254167,0.0022899741,-0.009313693,0.44758913,-1.4699779,2.008948,-2.1076772,-1.5706505,2.4227493,-0.026224475,0.029728122,-0.035782393,0.0045255427,-0.0021717951,-0.016881395,-0.076614454,0.05746084,-9.423578,0.784413,47.70032,-0.6731303,-2.1879668,-3.4288046,-0.3425668,-0.036928177,-0.19143116,27.9375,29.125,28.25,31.9375,34.0,34.875
0.048051715,-0.25291696,-1.433702,-1.6853641,0.011154725,-0.0021820178,-0.1478463,-0.3733223,-0.32810795,0.05979156,-3.078232,0.62524235,-0.0006393159,-0.021833153,0.004740378,0.0007164208,0.0019322416,7.4345866e-05,-0.009584823,0.44754073,-1.4699057,2.0088646,-2.107653,-1.5706619,2.422725,-0.027521638,0.030577863,-0.036799032,0.006994122,-0.0018475353,-0.017908067,-0.095768064,0.15322891,-9.481039,0.7418897,47.684196,-0.632599,-2.129751,-3.4115546,-0.36054653,-0.06581808,-0.18794559,27.9375,29.125,28.25,31.9375,34.0,34.875
0.05005258,-0.759863,-1.6074747,-1.9340857,0.007926727,-0.012488079,-0.1494417,-0.37336716,-0.3280887,0.05979036,-3.078212,0.6252774,-0.0006023184,-0.022498913,0.004848843,0.00057208445,0.0017275955,-0.0006602271,-0.009545578,0.44748026,-1.4698573,2.008817,-2.1076648,-1.5706862,2.422689,-0.028666431,0.03200181,-0.03814507,0.0074873525,-0.0013474992,-0.019092284,0.038307227,0.19153613,-9.481039,0.7284641,47.66539,-0.66545236,-2.0796916,-3.4661052,-0.3624744,-0.07405012,-0.17210048,27.9375,29.125,28.25,31.9375,34.0,34.875
0.05205191,-0.9380657,-1.8872211,-1.7508188,-0.0052416683,-0.002926936,-0.16670042,-0.3734119,-0.3280912,0.05979167,-3.078222,0.6253761,-0.00063595036,-0.023792135,0.004868555,0.0011339767,0.0011114771,0.0006094262,-0.010001003,0.44741973,-1.4697852,2.008732,-2.107653,-1.57065,2.4226887,-0.029875057,0.032638334,-0.04011744,0.0074124625,-0.0013462161,-0.019844187,0.076614454,0.28730422,-9.576807,0.80679786,47.657326,-0.6175645,-2.0844152,-3.4387982,-0.34547463,-0.09142114,-0.15500432,27.9375,29.125,28.25,31.9375,34.0,34.875
0.05405223,-1.013138,-2.5366967,-1.831227,-0.010009451,0.010230299,-0.16099523,-0.37344724,-0.32806334,0.05978929,-3.0781436,0.6253977,-0.00069256424,-0.024456453,0.0049576093,0.0011674451,0.001551988,0.0005645105,-0.010203552,0.4473597,-1.469713,2.0086362,-2.1075566,-1.5706862,2.4226522,-0.03038537,0.0338284,-0.041628733,0.007965268,-0.0017275503,-0.020150103,0.095768064,0.3256114,-9.481039,0.71951014,47.674347,-0.6208272,-2.0522118,-3.4427345,-0.34743994,-0.095572844,-0.17604768,27.9375,29.125,28.25,31.9375,34.0,34.875
0.056052554,-0.87456834,-2.2398267,-1.7707007,-0.028553002,0.020343529,-0.1708429,-0.3735108,-0.32805517,0.059798203,-3.0781257,0.6254518,-0.0006128423,-0.025425011,0.005205761,0.0018664931,0.0014944342,0.0013616385,-0.009872642,0.44731113,-1.469641,2.0085394,-2.107568,-1.5707225,2.4226398,-0.03152702,0.033824097,-0.043483645,0.0090808235,-0.0020220901,-0.021621322,0.038307227,0.3256114,-9.500193,0.7709874,47.690468,-0.6052475,-1.9984293,-3.4621673,-0.34365892,-0.108964354,-0.16306822,27.9375,29.125,28.25,31.9375,34.0,34.875
0.05805163,-1.0485802,-2.6549802,-2.0158923,-0.019786939,0.020706786,-0.1362592,-0.37356803,-0.32805085,0.059824646,-3.0781586,0.62540036,-0.0005677056,-0.025801416,0.0055227396,0.0016310374,0.0023212282,0.00012875459,-0.009112747,0.44725102,-1.4696047,2.0084307,-2.1075318,-1.5707225,2.4225435,-0.032316916,0.035222627,-0.044795286,0.010463448,-0.0022341341,-0.023170143,0.0,0.34476504,-9.672575,0.800085,47.701214,-0.59878504,-1.9938606,-3.5266244,-0.3757252,-0.08321921,-0.16036177,27.9375,29.125,28.25,31.9375,34.0,34.875
0.06005258,-0.6660361,-2.716843,-1.9944516,-0.016935527,0.027762605,-0.13928479,-0.37361538,-0.328029,0.05981367,-3.0781229,0.62546945,-0.0006120632,-0.026735226,0.0052228724,0.0018924937,0.002007188,0.00056841166,-0.00760635,0.44716686,-1.4695203,2.0083578,-2.107508,-1.5707225,2.422507,-0.032655418,0.036626123,-0.04699984,0.010731388,-0.0021472475,-0.02501369,-0.019153614,0.34476504,-9.557653,0.71279734,47.677036,-0.63449407,-1.9865521,-3.485,-0.3734529,-0.10878556,-0.13817403,27.9375,29.125,28.25,31.9375,34.0,34.875
0.06205191,-1.1322122,-2.6894736,-1.9063077,-0.014724468,0.022403572,-0.1327062,-0.37365782,-0.32802832,0.059817363,-3.0781183,0.62550634,-0.0006386572,-0.027704138,0.0051377947,0.0020679904,0.0013891738,0.0011969261,-0.007446603,0.44711867,-1.4694481,2.008262,-2.1074727,-1.5707101,2.4224825,-0.033560824,0.037659045,-0.048441853,0.010305523,-0.0018667777,-0.02607827,-0.095768064,0.38307226,-9.5385,0.76874626,47.66539,-0.66732955,-1.9077294,-3.5372095,-0.3553511,-0.12624088,-0.11662846,27.9375,29.125,28.25,31.9375,34.0,34.875
0.06405177,-0.8757758,-2.1835985,-1.7065611,-0.01598969,0.045985408,-0.13762012,-0.37371746,-0.3280143,0.059807632,-3.0781264,0.6254879,-0.0005995479,-0.028648974,0.0053182524,0.0018859045,0.0014207927,0.0007576739,-0.007587873,0.44704625,-1.4693637,2.0082023,-2.1075199,-1.570722,2.4223976,-0.034859516,0.039481647,-0.050080035,0.010529602,-0.0017084869,-0.027234871,-0.076614454,0.34476504,-9.576807,0.7396539,47.68062,-0.6227459,-1.9446431,-3.50844,-0.3536006,-0.11642724,-0.117198095,27.9375,29.125,28.25,31.9375,34.0,34.875
0.06605254,-1.0288639,-1.7030901,-1.7952069,-0.0074199094,0.05745666,-0.1431392,-0.3737692,-0.32801798,0.059842702,-3.078165,0.62545747,-0.0005649247,-0.02956088,0.0050789015,0.001715138,0.0015527206,0.000826357,-0.0066133444,0.4469981,-1.469339,2.0080812,-2.1074603,-1.5707101,2.4223256,-0.035129275,0.041691694,-0.05206297,0.010298127,-0.0018616195,-0.0284773,-0.095768064,0.2681506,-9.442732,0.7642693,47.70032,-0.7326307,-1.9150121,-3.5597653,-0.35282877,-0.13428491,-0.09337118,27.9375,29.125,28.25,31.9375,34.0,34.875
0.06805178,-1.1471044,-1.5741467,-1.6984663,0.0018535557,0.06528616,-0.13798988,-0.3738481,-0.3280112,0.059842642,-3.0781493,0.62557024,-0.0005510713,-0.03064591,0.005065425,0.001980497,0.0014215924,0.0013145502,-0.0074013937,0.44691372,-1.4692187,2.007949,-2.1074598,-1.5707101,2.4223137,-0.036015186,0.04297479,-0.054156974,0.010612303,-0.0019578207,-0.02857363,-0.24899697,0.24899697,-9.442732,0.842603,47.72629,-0.6753411,-1.9408259,-3.568861,-0.34106827,-0.15003684,-0.09014,27.9375,29.125,28.25,31.9375,34.0,34.875
0.070051886,-1.3370594,-1.5594617,-1.6472784,0.012705285,0.059545662,-0.13205925,-0.3739093,-0.3280086,0.059845436,-3.07816,0.6255911,-0.0005204745,-0.031765696,0.005017476,0.002070574,0.0019697752,0.0019758507,-0.007129833,0.44685358,-1.4691342,2.0078528,-2.1074722,-1.5707105,2.4222653,-0.036404148,0.04482396,-0.056407854,0.010657103,-0.0027422733,-0.02923098,-0.28730422,0.19153613,-9.346964,0.77545905,47.701214,-0.7195108,-1.9268427,-3.4376652,-0.35249674,-0.14457537,-0.07922376,27.9375,29.125,28.25,31.9375,34.0,34.875
0.07205209,-0.7220539,-1.4063298,-1.6630219,0.014282812,0.07140785,-0.13968998,-0.3739677,-0.3280089,0.059850004,-3.0781581,0.6255706,-0.0005627435,-0.03240658,0.0054400032,0.0016948013,0.0027682215,0.0019453232,-0.006425387,0.44679338,-1.469026,2.0077097,-2.1074126,-1.5706991,2.4221926,-0.037292387,0.046160243,-0.056914702,0.010202625,-0.0034528852,-0.030821493,-0.40222588,0.22984336,-9.32781,0.7732232,47.664497,-0.7864192,-1.9553134,-3.599794,-0.34347135,-0.1657481,-0.067903936,27.9375,29.125,28.25,31.9375,34.0,34.875
0.07405232,-1.5168102,-1.6618637,-1.5595226,0.016939227,0.048454534,-0.12990226,-0.37402335,-0.32797813,0.059849083,-3.078109,0.62559927,-0.0005581511,-0.03446049,0.004827204,0.0032178555,0.0019231422,0.005034715,-0.005791522,0.44670928,-1.4689538,2.0076244,-2.1073759,-1.5707349,2.4221327,-0.037602294,0.046898577,-0.061344005,0.010742775,-0.0040347725,-0.03176137,-0.36391866,0.21068975,-9.385271,0.78888994,47.70211,-0.8190923,-1.8755362,-3.4457207,-0.33673126,-0.1691148,-0.04936471,27.9375,29.125,28.25,31.9375,34.0,34.875
0.07605178,-1.7335024,-1.6783029,-1.4189285,0.017202375,0.045003347,-0.12571098,-0.37411606,-0.32797557,0.059867937,-3.0781202,0.62569934,-0.0005248313,-0.0355455,0.005953991,0.002229331,0.0044269934,0.004106241,-0.008897234,0.44661266,-1.468845,2.007456,-2.107352,-1.5707234,2.4220972,-0.0394368,0.049898233,-0.062364627,0.0106895575,-0.0058920914,-0.030485403,-0.34476504,0.038307227,-9.3661175,0.7665104,47.723602,-0.7137602,-1.8719919,-3.4030004,-0.33271948,-0.14468536,-0.061152186,27.9375,29.125,28.25,31.9375,34.0,34.875
0.07805197,-1.5368283,-1.5471472,-1.5015709,0.01760312,0.053798553,-0.13255893,-0.3741823,-0.32797495,0.059872422,-3.0781026,0.62567747,-0.00047496497,-0.036419522,0.006740506,0.0016605979,0.0064546694,0.0037785533,-0.01070757,0.4465762,-1.4687365,2.007324,-2.1073406,-1.5707601,2.4220495,-0.040558863,0.052011214,-0.06341164,0.010799793,-0.0075805495,-0.02979284,-0.38307226,0.076614454,-9.32781,0.80456203,47.695843,-0.7116115,-1.983514,-3.5655189,-0.32704645,-0.120610595,-0.05900559,27.9375,29.125,28.25,31.9375,34.0,34.875
0.08005193,-1.5117896,-1.3139894,-1.3218336,0.017663982,0.066856675,-0.1379022,-0.37426898,-0.32797188,0.059879985,-3.0781407,0.62574273,-0.00046282227,-0.03810381,0.0065650605,0.003732449,0.0062055313,0.008412888,-0.010155719,0.44646806,-1.4686292,2.0071914,-2.107352,-1.5707248,2.4219773,-0.0405367,0.050283007,-0.066357106,0.011192385,-0.009361352,-0.030317882,-0.30645782,0.076614454,-9.3661175,0.7866488,47.694054,-0.782091,-1.7934107,-3.4734702,-0.34130287,-0.11501293,-0.07781943,27.9375,29.125,28.25,31.9375,34.0,34.875
0.08205251,-1.7072154,-1.2297717,-1.3296512,0.022464037,0.06877161,-0.12798347,-0.37433356,-0.32795152,0.059878945,-3.078102,0.6257529,-0.00044222103,-0.040606532,0.006668139,0.004565396,0.007796768,0.012162676,-0.009191858,0.4463961,-1.4685327,2.0070822,-2.1073282,-1.5707616,2.4219167,-0.040916316,0.052401368,-0.07043111,0.01046159,-0.012426552,-0.031652108,-0.34476504,0.038307227,-9.404425,0.7709874,47.701214,-0.87311244,-1.7868204,-3.2112317,-0.3523606,-0.06593031,-0.05660832,27.9375,29.125,28.25,31.9375,34.0,34.875
0.084052555,-2.0341606,-1.2684114,-1.3772556,0.021716533,0.06434261,-0.13511989,-0.37440774,-0.32793766,0.059882563,-3.0780735,0.62576675,-0.00046340123,-0.04039618,0.0080463905,0.0022552276,0.010232331,0.007461056,-0.011485424,0.44631124,-1.4684117,2.0069273,-2.107268,-1.570774,2.4218442,-0.043196205,0.05617343,-0.069396675,0.010946628,-0.012591013,-0.031637944,-0.28730422,0.19153613,-9.308656,0.7597976,47.65912,-0.7963484,-1.8748786,-3.4798074,-0.33533204,-0.07327777,-0.06127584,27.9375,29.125,28.25,31.9375,34.0,34.875
0.08605204,-1.5252588,-1.2624552,-1.2912793,0.003777721,0.06331709,-0.13463578,-0.37451252,-0.32791108,0.05990048,-3.078042,0.62581867,-0.000320326,-0.042298734,0.0074115964,0.00280377,0.008213184,0.008068722,-0.012163125,0.4462148,-1.468315,2.0067828,-2.1072805,-1.5708455,2.4217844,-0.04476339,0.058575895,-0.07332071,0.011039297,-0.011038228,-0.03252858,-0.34476504,0.19153613,-9.32781,0.7351769,47.655537,-0.7663642,-1.9769868,-3.270769,-0.33379695,-0.064062536,-0.041163623,27.9375,29.125,28.25,31.9375,34.0,34.875
0.088052295,-1.9011647,-2.1615908,-1.4178766,-0.0003695623,0.04093281,-0.122484334,-0.37458012,-0.32790524,0.059918355,-3.0780444,0.62582034,-0.00031791392,-0.044163413,0.006852747,0.005115362,0.004023012,0.011516895,-0.014056904,0.446142,-1.4682319,2.0066369,-2.1072204,-1.5708445,2.4217124,-0.046934426,0.056234337,-0.07609405,0.011226423,-0.008751263,-0.032809176,-0.45968673,0.19153613,-9.404425,0.7709874,47.66091,-0.63491213,-1.7223084,-3.2583961,-0.3253009,-0.07573575,-0.048436053,27.9375,29.125,28.25,31.9375,34.0,34.875
0.09005266,-1.2069935,-1.9860144,-1.6440591,-0.01376149,0.042223163,-0.12957713,-0.3746559,-0.32788262,0.059895113,-3.0779848,0.625942,-0.000421828,-0.04383676,0.0059433095,0.003715282,0.003731931,0.007948117,-0.014092028,0.44602242,-1.4680628,2.0064933,-2.1071727,-1.5708321,2.4216764,-0.046136826,0.0603819,-0.077543266,0.011615312,-0.0069522336,-0.031978115,-0.49799395,0.17238252,-9.3661175,0.78217715,47.685097,-0.7277993,-1.8535323,-3.2011313,-0.3314082,-0.1183967,-0.06091999,27.9375,29.125,28.25,31.9375,34.0,34.875
0.09205276,-1.5853627,-2.187207,-1.5573311,-0.024818812,0.03977712,-0.13159998,-0.3747528,-0.3278628,0.059908997,-3.0779734,0.62594134,-0.0002901409,-0.04494108,0.0054847193,0.0037897446,0.0033681323,0.008060248,-0.015884124,0.44593817,-1.4679662,2.0063608,-2.1071966,-1.5708922,2.4215934,-0.04644998,0.06270133,-0.08031184,0.011803462,-0.006674665,-0.030498194,-0.47884035,0.28730422,-9.404425,0.75084364,47.682407,-0.7888787,-1.9305605,-3.2576714,-0.34321153,-0.112144634,-0.08939515,27.9375,29.125,28.25,31.9375,34.0,34.875
0.09405193,-1.4602587,-1.9975433,-1.5352836,-0.024237169,0.056536857,-0.12946947,-0.37483934,-0.32786587,0.05991741,-3.077983,0.6260016,-0.00034086642,-0.045922622,0.006738257,0.0031008075,0.004544037,0.0070696073,-0.017507,0.4458412,-1.4678218,2.006169,-2.1071365,-1.570856,2.4215329,-0.0492485,0.06437765,-0.08058382,0.011802357,-0.0073094876,-0.03167207,-0.38307226,0.30645782,-9.442732,0.7284641,47.701214,-0.74298483,-1.915834,-3.1354349,-0.33103216,-0.101540394,-0.100923106,27.9375,29.125,28.25,31.9375,34.0,34.875
0.09605236,-1.5278133,-2.0084932,-1.7534877,-0.01669189,0.06574856,-0.12717117,-0.3749237,-0.32783794,0.059900366,-3.0779436,0.62607056,-0.00036084108,-0.046474654,0.007218678,0.0026629241,0.005441842,0.0060271528,-0.017489906,0.44572082,-1.4676776,2.0060494,-2.107136,-1.5708684,2.4214606,-0.05039106,0.06605243,-0.081578374,0.01244944,-0.0076717245,-0.032830156,-0.28730422,0.24899697,-9.519346,0.7978386,47.681515,-0.7307923,-1.913364,-3.2978818,-0.31888127,-0.117012024,-0.0855973,27.9375,29.125,28.25,31.9375,34.0,34.875
0.09805185,-2.0156193,-2.5187972,-1.6661018,-0.0077216146,0.053675175,-0.120349385,-0.37501496,-0.32784772,0.05993426,-3.0779753,0.6261161,-0.0003091988,-0.049561195,0.0062138317,0.004573382,0.0036100622,0.010689302,-0.01814451,0.44564864,-1.4675813,2.0058548,-2.1070883,-1.5708565,2.421413,-0.051029272,0.06754263,-0.087465286,0.011850956,-0.008040408,-0.032809526,-0.24899697,0.2873042,-9.481039,0.7329411,47.675243,-0.72659796,-1.9734008,-3.110343,-0.32079858,-0.12449321,-0.103271455,27.9375,29.125,28.25,31.9375,34.0,34.875
0.10005195,-1.5302461,-2.0077183,-1.5165219,-0.016170232,0.055326458,-0.12440688,-0.3751556,-0.32784057,0.059954423,-3.077979,0.6261552,-0.00016239492,-0.048472706,0.0073828204,0.002412067,0.006468455,0.0064744023,-0.0185647,0.44554034,-1.4674128,2.0056288,-2.1071122,-1.5709041,2.4213288,-0.05171278,0.06987772,-0.08518508,0.012271126,-0.008794147,-0.0330732,-0.24899697,0.24899697,-9.385271,0.7284641,47.691364,-0.7504519,-1.9294595,-3.2619145,-0.30560577,-0.0966908,-0.1083832,27.9375,29.125,28.25,31.9375,34.0,34.875
0.102052175,-1.101497,-1.8891408,-1.5192051,-0.00696151,0.046859406,-0.13644259,-0.37523344,-0.32779846,0.059930027,-3.0779018,0.6262542,-0.00021374479,-0.050457146,0.0076017235,0.0030323109,0.007225446,0.008517393,-0.019604664,0.44540805,-1.4672685,2.0055206,-2.1070883,-1.5709294,2.4212682,-0.05283878,0.07160192,-0.088539295,0.012387265,-0.010365945,-0.033153422,-0.17238252,0.2681506,-9.423578,0.6971306,47.664497,-0.7617215,-2.054112,-3.2124193,-0.28870055,-0.086359724,-0.12414649,27.9375,29.125,28.25,31.9375,34.0,34.875
0.10405226,-1.095696,-1.6868752,-1.4072216,-0.012934017,0.028942611,-0.12848882,-0.37534127,-0.3278014,0.059952892,-3.077897,0.6262724,-0.00018715358,-0.051171478,0.00726688,0.0027737357,0.006823883,0.008375816,-0.019470071,0.44532394,-1.4671121,2.0052798,-2.1070168,-1.5709409,2.4211962,-0.053122167,0.07359286,-0.09001999,0.011828902,-0.009946363,-0.03357102,-0.1340753,0.24899697,-9.423578,0.8403672,47.683304,-0.7617514,-1.9876072,-3.1799698,-0.2962172,-0.096928805,-0.14304793,27.9375,29.125,28.25,31.9375,34.0,34.875
0.10605179,-0.48455912,-1.7125657,-1.4687762,-0.014614317,0.029371405,-0.13241734,-0.37545457,-0.3278092,0.05998456,-3.077965,0.6263823,-0.00012826023,-0.051864076,0.006872007,0.0031296883,0.0066319495,0.009117014,-0.019055467,0.4452041,-1.4670038,2.005088,-2.1070168,-1.5708932,2.4211364,-0.05288686,0.07452114,-0.09191315,0.012043073,-0.010092586,-0.03374968,-0.19153613,0.21068975,-9.346964,0.84708,47.685097,-0.85782856,-2.0069003,-3.0805025,-0.27234426,-0.09062077,-0.16071129,27.9375,29.125,28.25,31.9375,34.0,34.875
0.108051896,-0.4826372,-1.5990415,-1.426323,0.0021318262,0.02460974,-0.13062596,-0.37557888,-0.32777414,0.059975747,-3.0778875,0.626425,-4.9753256e-05,-0.053557776,0.007589104,0.0030563776,0.0071102125,0.009431702,-0.020869028,0.44508317,-1.4668117,2.0048969,-2.1070168,-1.5709776,2.4210522,-0.05535428,0.076554224,-0.093986325,0.012002764,-0.010663873,-0.034400936,-0.11492168,0.17238252,-9.289503,0.87393653,47.701214,-0.8331408,-1.9757597,-3.1454468,-0.27021855,-0.089052424,-0.1710779,27.9375,29.125,28.25,31.9375,34.0,34.875
0.110052004,-0.256939,-1.027776,-1.3729932,-0.0010016084,0.024433946,-0.1366293,-0.3756818,-0.32777518,0.059997924,-3.0778968,0.62644416,6.0304096e-06,-0.053277228,0.0061454116,0.00332873,0.0064139157,0.009333909,-0.017689249,0.44500002,-1.4666795,2.0046923,-2.1069806,-1.570989,2.42098,-0.05282858,0.07764399,-0.09597528,0.012686514,-0.009994495,-0.035055492,-0.076614454,0.21068975,-9.270349,0.7777002,47.66539,-0.9222812,-1.9674723,-3.0580037,-0.24509993,-0.06793004,-0.1774922,27.9375,29.125,28.25,31.9375,34.0,34.875
0.112052344,-0.6756274,-1.696673,-1.4294572,0.011108073,0.015875403,-0.12936345,-0.37581632,-0.32775852,0.060005043,-3.0778744,0.6266128,6.0214108e-05,-0.053702578,0.0065547456,0.001575986,0.0077287075,0.005794488,-0.018733168,0.44485554,-1.4664981,2.0044763,-2.1069806,-1.5710009,2.4209437,-0.054185566,0.082252085,-0.09710918,0.012969868,-0.009658051,-0.035368215,-0.038307227,0.2681506,-9.193734,0.7866488,47.64479,-1.0672951,-2.1094708,-3.0605485,-0.24418153,-0.082531646,-0.1900188,27.9375,29.125,28.25,31.9375,34.0,34.875
0.11405173,-1.0526166,-1.769485,-1.3680067,0.008731536,0.011938983,-0.12082824,-0.3759075,-0.32774886,0.06000559,-3.0778418,0.62664497,6.853931e-05,-0.054424215,0.006326879,0.0035154254,0.005817711,0.00858773,-0.018710952,0.44477132,-1.4663434,2.0042965,-2.1069443,-1.5710248,2.420884,-0.054742478,0.079205014,-0.09844831,0.014008557,-0.009135682,-0.035948195,-0.019153614,0.1340753,-9.193734,0.7866488,47.691364,-1.0429193,-1.9598143,-3.156674,-0.23859714,-0.09962081,-0.20329276,27.9375,29.125,28.25,31.9375,34.0,34.875
0.11605207,-0.42989627,-1.2947177,-1.5846596,-0.0061487574,0.02244495,-0.13021405,-0.37603053,-0.32774144,0.060017195,-3.0778196,0.6266596,9.026798e-05,-0.055202227,0.007203385,0.00242954,0.006872832,0.0059676217,-0.018908305,0.44466263,-1.4661509,2.0040443,-2.1068842,-1.5710486,2.4207873,-0.05718459,0.08230617,-0.09958254,0.014857176,-0.00896182,-0.038192376,0.05746084,0.21068975,-9.270349,0.74413085,47.733456,-0.98256433,-1.9129848,-3.1617517,-0.24222621,-0.085131556,-0.2139214,27.9375,29.125,28.25,31.9375,34.0,34.875
0.11805228,-0.62190366,-1.7363137,-1.3042743,-0.006041937,0.01925309,-0.13130869,-0.3761388,-0.32772714,0.06003833,-3.0778358,0.62666005,0.00018744894,-0.05477762,0.0072827977,0.0014250462,0.00959674,0.0040531293,-0.01671836,0.44455507,-1.4660422,2.003876,-2.1068838,-1.5710734,2.4206781,-0.05583313,0.08482874,-0.10032121,0.015976667,-0.01059438,-0.03902805,0.0,0.19153613,-9.251195,0.784413,47.701214,-1.1155695,-2.0586634,-3.2298455,-0.24547763,-0.07072264,-0.21854828,27.9375,29.125,28.25,31.9375,34.0,34.875
0.12005249,0.14031845,-1.247081,-1.2070923,-0.018239008,0.040299363,-0.13625266,-0.37622893,-0.32769126,0.05999565,-3.0777438,0.6267972,2.4402589e-05,-0.056002047,0.007958044,0.0013197925,0.010318941,0.004797965,-0.019466257,0.44439852,-1.4658141,2.003709,-2.1068242,-1.5710615,2.420619,-0.057519447,0.086065784,-0.101326406,0.015385778,-0.01157452,-0.037962444,-0.019153614,0.19153613,-9.270349,0.8314132,47.686886,-1.1410195,-1.994663,-3.2933555,-0.23624516,-0.06855364,-0.23048194,27.9375,29.125,28.25,31.9375,34.0,34.875
0.12205193,-0.6698046,-1.2083755,-1.2833519,-0.0076905107,0.018738406,-0.13377896,-0.3763219,-0.32769725,0.060017888,-3.0777721,0.62676525,6.821571e-05,-0.05659378,0.007989757,0.000698882,0.010047617,0.0032507915,-0.020468373,0.4443261,-1.4656935,2.003517,-2.106788,-1.5710615,2.4205232,-0.05870887,0.08845026,-0.102571554,0.0155225685,-0.010665558,-0.038150765,-0.095768064,0.21068975,-9.270349,0.76874626,47.701214,-1.1470275,-2.0004005,-3.2392898,-0.20298028,-0.053250216,-0.26218808,27.9375,29.125,28.25,31.9375,34.0,34.875
0.12405192,-0.37634432,-1.2491064,-1.5416015,0.0020050209,0.023795035,-0.14213265,-0.3764485,-0.32768965,0.06002688,-3.077745,0.6268932,9.472515e-05,-0.05857924,0.007321664,0.0020091955,0.007813273,0.0057354122,-0.019909898,0.4442057,-1.4655018,2.003277,-2.1067526,-1.5710729,2.4204862,-0.059851166,0.08910989,-0.10628096,0.015362629,-0.0097242985,-0.03985108,-0.13407528,0.21068975,-9.251195,0.73741806,47.692257,-1.1045127,-2.1106846,-3.2462745,-0.18194678,-0.06482727,-0.28308922,27.9375,29.125,28.25,31.9375,34.0,34.875
0.12605244,-0.48158777,-1.0994266,-1.2515941,-0.004682257,0.024346454,-0.13463847,-0.3765897,-0.32768247,0.06003125,-3.077727,0.6269667,0.00021173387,-0.057692606,0.008063245,0.00018854668,0.009194177,0.0013810495,-0.020343063,0.44409746,-1.4652972,2.0030496,-2.1067874,-1.5711206,2.4204264,-0.06084725,0.09140722,-0.10483553,0.016139634,-0.009093262,-0.040416416,-0.05746084,0.15322891,-9.232041,0.7620334,47.70211,-1.1704961,-2.0356543,-3.391125,-0.18970078,-0.088083036,-0.28215808,27.9375,29.125,28.25,31.9375,34.0,34.875
0.12805265,-0.93243974,-1.5214134,-1.4939873,0.00956375,0.022392947,-0.12250153,-0.37668383,-0.32765034,0.060019244,-3.0776634,0.62703097,0.000107578235,-0.059667993,0.0079439115,0.0010669195,0.0076858755,0.0029310845,-0.02021676,0.4439526,-1.4651172,2.002857,-2.106692,-1.5711206,2.4203298,-0.06283758,0.092525475,-0.10812364,0.016256833,-0.008408173,-0.042531513,-0.21068975,0.21068975,-9.251195,0.73069996,47.72719,-1.0847152,-2.0427294,-3.337565,-0.17981511,-0.08773956,-0.2945848,27.9375,29.125,28.25,31.9375,34.0,34.875
0.13005221,-1.2064165,-1.2725754,-1.4040517,0.0030482903,0.03468059,-0.12812012,-0.37681833,-0.32765052,0.060047116,-3.0777047,0.6270398,0.00019563992,-0.059011187,0.008773043,-0.00037596558,0.00972791,-5.289155e-05,-0.021586595,0.4438325,-1.4649609,2.002618,-2.1066797,-1.5711211,2.4202101,-0.06340271,0.094268456,-0.1068875,0.016850948,-0.008963917,-0.041727066,-0.34476504,0.1340753,-9.3661175,0.83589023,47.70659,-1.1982874,-2.0046854,-3.4467976,-0.17920625,-0.07711722,-0.32867768,27.9375,29.125,28.25,31.9375,34.0,34.875
0.13205257,-1.1118824,-1.5037457,-1.3542863,-0.0011377654,0.054861292,-0.13218163,-0.3769418,-0.3276261,0.060034975,-3.0776284,0.6271993,0.00019830509,-0.060173366,0.009495473,6.5789004e-06,0.010724879,0.00040264608,-0.025399413,0.44369993,-1.4647452,2.0024025,-2.1066554,-1.5711569,2.420187,-0.06503477,0.09493072,-0.10880323,0.01812369,-0.0100619765,-0.039543282,-0.3256114,0.15322891,-9.32781,0.78888994,47.70032,-1.1133939,-1.9268129,-3.446125,-0.16049755,-0.09377737,-0.37544578,27.9375,29.125,28.25,31.9375,34.0,34.875
0.13405177,-1.9447459,-1.647226,-1.3082104,0.0045107305,0.050095562,-0.13010237,-0.37704185,-0.32760352,0.060018852,-3.0775754,0.62724483,0.00010801473,-0.0604504,0.009530812,0.000347522,0.01029048,0.00040839694,-0.024794506,0.4435678,-1.4645414,2.0021985,-2.1065834,-1.5711569,2.4200902,-0.06558702,0.09472391,-0.1095477,0.018879926,-0.009675806,-0.04070029,-0.34476504,0.19153613,-9.270349,0.7978386,47.681515,-1.1394475,-2.0513434,-3.5225644,-0.16490191,-0.09460695,-0.4059672,27.9375,29.125,28.25,31.9375,34.0,34.875
0.13605206,-1.9236615,-1.7222627,-1.4385933,0.017800571,0.054743696,-0.1222911,-0.37717527,-0.3276031,0.06003615,-3.0775898,0.6273237,0.00016886771,-0.06223892,0.009275336,0.0013687414,0.009286056,0.0021839214,-0.023502668,0.44344735,-1.4643615,2.0019577,-2.1065714,-1.5711569,2.4200172,-0.06677872,0.09565279,-0.11305067,0.019416057,-0.009535917,-0.043182533,-0.4213795,0.11492168,-9.270349,0.7396539,47.677036,-1.1821878,-1.7831681,-3.4218059,-0.16969967,-0.08340569,-0.40267617,27.9375,29.125,28.25,31.9375,34.0,34.875
0.13805225,-1.3859881,-0.9149996,-1.3845555,0.010492212,0.06735671,-0.13802515,-0.37728846,-0.32756954,0.060026847,-3.0775218,0.6273864,8.6599975e-05,-0.062291026,0.009807872,-0.00012358854,0.010358265,-0.00053959875,-0.022686988,0.44329095,-1.4641566,2.0017312,-2.1064756,-1.5711688,2.4199088,-0.06793007,0.098609135,-0.11285778,0.019183043,-0.009340811,-0.04514885,-0.40222588,0.095768064,-9.423578,0.7709874,47.68599,-1.1772815,-2.0504622,-3.5898118,-0.15288165,-0.08920121,-0.40443376,27.9375,29.125,28.25,31.9375,34.0,34.875
0.14005238,-1.3265407,-0.865089,-1.311023,0.010908347,0.06779191,-0.1354868,-0.377425,-0.32757032,0.06004085,-3.0775225,0.6274246,0.00019697039,-0.06454349,0.009572414,0.0011853902,0.008829336,0.002389696,-0.022712456,0.44319448,-1.4639649,2.0014904,-2.1064875,-1.571205,2.4198363,-0.06955909,0.09919109,-0.11644946,0.018886806,-0.009222363,-0.04675094,-0.3256114,0.05746084,-9.346964,0.73741806,47.65106,-1.2282097,-1.817589,-3.3576214,-0.1371744,-0.079505,-0.42586455,27.9375,29.125,28.25,31.9375,34.0,34.875
0.14205265,-1.9432218,-1.4141781,-1.4741899,0.017227845,0.053075213,-0.12950543,-0.3775408,-0.32753778,0.060038775,-3.077471,0.62745297,0.0001339177,-0.06630351,0.009688332,0.0015031326,0.008574772,0.0027488216,-0.022849679,0.44303775,-1.4637727,2.001261,-2.1063917,-1.571217,2.419704,-0.07136957,0.101403885,-0.119796224,0.019583829,-0.0091555705,-0.048421707,-0.47884035,0.095768064,-9.3661175,0.8157518,47.691364,-1.1841847,-1.9054408,-3.389913,-0.13677983,-0.11437856,-0.43344933,27.9375,29.125,28.25,31.9375,34.0,34.875
0.14405173,-2.0079994,-1.0157968,-1.7074118,0.009113695,0.05231816,-0.13151583,-0.3776853,-0.32750186,0.060036134,-3.0774324,0.6276172,0.00018439328,-0.06765755,0.010374556,0.0013010802,0.009772813,0.0025705635,-0.022034219,0.4428572,-1.4635803,2.0010574,-2.106403,-1.5712408,2.419631,-0.07315324,0.103609025,-0.121919855,0.020175796,-0.010164975,-0.051017772,-0.59376204,0.11492168,-9.423578,0.83589023,47.682407,-1.1919096,-1.9486209,-3.374136,-0.12671089,-0.10427614,-0.4151994,27.9375,29.125,28.25,31.9375,34.0,34.875
0.14605255,-1.7761683,-1.4401174,-1.6286668,0.006502005,0.06436743,-0.13453834,-0.37781224,-0.32748955,0.060040336,-3.0773964,0.62762773,0.00017727217,-0.06863805,0.010355366,0.0020087715,0.009180623,0.0033268493,-0.020184293,0.44273686,-1.4633645,2.0007932,-2.106331,-1.5712651,2.419522,-0.074104235,0.10382342,-0.124012694,0.02111192,-0.009958813,-0.05381789,-0.59376204,0.15322891,-9.5385,0.82022345,47.658226,-1.1634227,-1.7935299,-3.3521163,-0.12789366,-0.08998738,-0.4101839,27.9375,29.125,28.25,31.9375,34.0,34.875
0.14805171,-1.5815226,-1.3589656,-1.6640621,-0.010990628,0.07752407,-0.13885221,-0.37796864,-0.32746342,0.060055573,-3.0773697,0.6276012,0.0002359659,-0.06937059,0.0110979695,0.0016078283,0.01045752,0.0021224474,-0.018464094,0.44258046,-1.4631485,2.0005062,-2.106271,-1.5713133,2.4193528,-0.07568477,0.10561561,-0.12536442,0.02230229,-0.010597943,-0.05711684,-0.4213795,0.17238252,-9.481039,0.7866488,47.677036,-1.1656026,-1.8161354,-3.329997,-0.13672608,-0.09262213,-0.3879003,27.9375,29.125,28.25,31.9375,34.0,34.875
0.15005182,-2.0736313,-1.8883661,-1.6921504,-0.013730905,0.07230248,-0.13376126,-0.37809816,-0.32745656,0.06006413,-3.077373,0.6277163,0.0002275116,-0.07021839,0.011470875,0.0013334284,0.01095166,0.0011649672,-0.016540242,0.44243577,-1.4629561,2.0002658,-2.1062348,-1.5712894,2.4192796,-0.07708239,0.10754716,-0.1270849,0.02316554,-0.010637293,-0.06043733,-0.51714754,0.17238252,-9.5385,0.84484416,47.617023,-1.1912913,-1.6096153,-3.3677523,-0.13507548,-0.10701537,-0.35929322,27.9375,29.125,28.25,31.9375,34.0,34.875
0.1520522,-2.3024242,-1.2868434,-1.6054639,-0.027547939,0.06969921,-0.1346863,-0.37822664,-0.3274364,0.060051978,-3.0773168,0.6278007,0.0001761242,-0.07189292,0.011913447,0.00081735814,0.011009583,-0.00014458389,-0.015711583,0.44229087,-1.4627153,2.000014,-2.1061747,-1.5713009,2.4191947,-0.0797107,0.111102246,-0.12997685,0.023704069,-0.010139105,-0.063892685,-0.5554548,0.22984336,-9.576807,0.8179876,47.67345,-0.9781635,-1.7616496,-3.2674866,-0.13974312,-0.09572044,-0.31658876,27.9375,29.125,28.25,31.9375,34.0,34.875
0.15405257,-2.16801,-1.8103018,-1.7144305,-0.018231735,0.07495661,-0.13442443,-0.37837747,-0.32741645,0.060072042,-3.0773017,0.6278148,0.00021365636,-0.07233647,0.011498203,0.0011243013,0.010852356,0.0004662694,-0.012144862,0.4421352,-1.4625113,1.9997267,-2.1061032,-1.5713252,2.41905,-0.079209924,0.11176989,-0.13148867,0.023923766,-0.010262396,-0.06695764,-0.59376204,0.2681506,-9.481039,0.7732232,47.651955,-1.1478306,-1.8116152,-3.3352737,-0.12280229,-0.10562366,-0.2895752,27.9375,29.125,28.25,31.9375,34.0,34.875
0.15605246,-1.84509,-1.9230206,-1.7060642,-0.019257803,0.075722314,-0.13575254,-0.37855613,-0.32738537,0.060079988,-3.07729,0.6278314,0.00028970584,-0.07407332,0.013099619,-0.00053314946,0.012852501,-0.0023313093,-0.013515624,0.44194195,-1.46227,1.9994391,-2.1060908,-1.5713614,2.4188688,-0.08330027,0.11671151,-0.13321365,0.024086999,-0.010876801,-0.06967473,-0.49799395,0.21068975,-9.481039,0.8224646,47.683304,-1.0420852,-1.932878,-3.31882,-0.12556449,-0.11388661,-0.2414025,27.9375,29.125,28.25,31.9375,34.0,34.875
0.15805252,-1.9188278,-1.7187605,-1.642502,-0.015515662,0.06184568,-0.13964416,-0.37869307,-0.32735652,0.06006045,-3.077243,0.62787807,0.00024246999,-0.07563269,0.012317426,0.0017993146,0.010680677,0.0024771285,-0.011186709,0.44177383,-1.4620194,1.9991988,-2.106055,-1.5713733,2.418736,-0.08311751,0.11444731,-0.13604009,0.023898248,-0.010981198,-0.0718189,-0.45968673,0.24899697,-9.500193,0.8179876,47.691364,-0.9301717,-1.7343421,-3.448722,-0.1155882,-0.095197126,-0.20473298,27.9375,29.125,28.25,31.9375,34.0,34.875
0.16005248,-1.7867782,-1.8847624,-1.7079138,-0.0075909523,0.054083098,-0.13329737,-0.37883052,-0.32732332,0.060063753,-3.0772128,0.62785345,0.00023166527,-0.07555454,0.013724798,-0.00075489806,0.013548997,-0.0021883708,-0.012585992,0.44160515,-1.461814,1.998948,-2.1059835,-1.5713972,2.418556,-0.08524368,0.1189139,-0.13517115,0.024004577,-0.01158089,-0.07254422,-0.4405331,0.22984336,-9.442732,0.78888994,47.6636,-1.0445421,-1.9543211,-3.327538,-0.09534511,-0.09970112,-0.17227077,27.9375,29.125,28.25,31.9375,34.0,34.875
0.1620521,-1.4016557,-1.4696869,-1.3345991,-0.011001013,0.055866797,-0.13393407,-0.3790277,-0.32731193,0.060099408,-3.077232,0.6279545,0.00037457363,-0.07795441,0.013692198,0.0006113382,0.01247861,0.0005504234,-0.014107816,0.44142458,-1.4615864,1.9986118,-2.105971,-1.5714215,2.4184363,-0.087131195,0.119674586,-0.13925558,0.02439141,-0.011785579,-0.072908305,-0.45968673,0.21068975,-9.442732,0.73741806,47.698532,-0.9386195,-1.7612667,-3.2468967,-0.087384485,-0.08535461,-0.15014112,27.9375,29.125,28.25,31.9375,34.0,34.875
0.16405234,-1.558967,-1.7476922,-1.5205103,0.0052455603,0.03913361,-0.1296013,-0.37916502,-0.32727227,0.060071662,-3.0771592,0.6279978,0.00030489094,-0.07846402,0.0139878215,0.00019576671,0.012189261,-0.0007732114,-0.016808813,0.44124407,-1.4613223,1.9983724,-2.105923,-1.5714453,2.4182923,-0.08864996,0.12115133,-0.14005704,0.024783753,-0.010965145,-0.07172626,-0.4213795,0.24899697,-9.346964,0.7642693,47.686886,-0.91073954,-1.8170342,-3.3553734,-0.07567829,-0.100462526,-0.13236743,27.9375,29.125,28.25,31.9375,34.0,34.875
0.1660525,-1.6180228,-1.7426953,-1.4796238,0.015839819,0.03194726,-0.1269722,-0.37933895,-0.32723925,0.060065556,-3.077113,0.62804735,0.00032232786,-0.07997993,0.014261858,0.00024554034,0.012392853,-0.00042212004,-0.019895315,0.44105154,-1.4610462,1.998073,-2.1058872,-1.5714811,2.4181368,-0.09023497,0.123268865,-0.14258535,0.024962025,-0.011305455,-0.070222296,-0.38307226,0.1340753,-9.385271,0.8493211,47.70032,-0.8958707,-1.7554781,-3.3311062,-0.06977594,-0.12230462,-0.12524216,27.9375,29.125,28.25,31.9375,34.0,34.875
0.16805187,-1.7423122,-1.3378655,-1.2902988,0.009184,0.033921342,-0.12672746,-0.3795151,-0.32723317,0.060103964,-3.0771482,0.6280948,0.0004122638,-0.08159608,0.013476697,0.0008199053,0.011070072,2.873279e-05,-0.021862954,0.44088322,-1.4608417,1.9977478,-2.105839,-1.5714806,2.4179938,-0.09082819,0.12575911,-0.14686598,0.025776092,-0.010304149,-0.06884795,-0.34476504,0.038307227,-9.2703495,0.8784135,47.701214,-0.73880136,-1.8600118,-3.1951032,-0.04121919,-0.10662468,-0.13774869,27.9375,29.125,28.25,31.9375,34.0,34.875
0.17005228,-1.2770933,-1.1160629,-1.2586565,0.020128684,0.040222988,-0.13954844,-0.37969184,-0.3272034,0.06011374,-3.077143,0.6281339,0.00044838432,-0.08073424,0.014430813,-0.0018409959,0.013326984,-0.0055508404,-0.025794534,0.44067886,-1.4606005,1.9974502,-2.1058028,-1.571493,2.4178147,-0.092029326,0.12983203,-0.14541769,0.02626263,-0.009959861,-0.06611873,-0.36391866,0.11492168,-9.174581,0.7978386,47.666286,-0.82768583,-1.9986806,-3.3633094,-0.06142452,-0.11047958,-0.13777785,27.9375,29.125,28.25,31.9375,34.0,34.875
0.17205179,-1.4427023,-0.7763744,-1.0638679,0.013927718,0.044628486,-0.13518326,-0.37980592,-0.32716236,0.060090024,-3.0770466,0.6282729,0.00034025626,-0.082941145,0.01614018,-0.00089049875,0.013316288,-0.0037137547,-0.035230353,0.44050908,-1.4603734,1.9972342,-2.1057189,-1.5715054,2.4177442,-0.09662138,0.12904985,-0.14689222,0.026858188,-0.010741182,-0.061272,-0.28730422,0.1340753,-9.232041,0.779936,47.65912,-0.59914804,-1.9091806,-3.255445,-0.023518344,-0.12726009,-0.20727104,27.9375,29.125,28.25,31.9375,34.0,34.875
0.17405179,-1.7563494,-1.623737,-1.1724824,0.019716568,0.043449674,-0.12883,-0.380026,-0.32714126,0.06012625,-3.0770285,0.6284226,0.00048905646,-0.08240902,0.014757438,-0.001632193,0.013514534,-0.005788339,-0.03493539,0.44030628,-1.4601086,1.9968499,-2.1056826,-1.5715531,2.4176373,-0.09398127,0.13222039,-0.14892182,0.027673313,-0.01003461,-0.058927674,-0.30645782,0.076614454,-9.212888,0.8157518,47.672558,-0.84255433,-2.1609204,-3.3601284,-0.033596396,-0.12324692,-0.22404844,27.9375,29.125,28.25,31.9375,34.0,34.875
0.17605203,-1.1961871,-0.98494977,-1.1210738,0.003563431,0.05379962,-0.13667873,-0.38018113,-0.32711178,0.060107328,-3.076975,0.6283919,0.00045950757,-0.08331742,0.015058662,-0.0018770236,0.014301082,-0.0064489404,-0.034578815,0.44013783,-1.4598205,1.9965633,-2.105634,-1.5715894,2.4174569,-0.09501249,0.13432682,-0.15091513,0.028489321,-0.010472537,-0.06031294,-0.34476504,0.15322891,-9.174581,0.71951014,47.661808,-0.77915,-2.0264475,-3.3955843,-0.055149205,-0.10938965,-0.23157851,27.9375,29.125,28.25,31.9375,34.0,34.875
0.1780525,-1.6893855,-1.5591059,-0.87304705,0.014554353,0.037760824,-0.12199178,-0.38036078,-0.3270856,0.060117085,-3.0769541,0.62858164,0.0004632584,-0.0844844,0.014800092,-0.00093143,0.013645254,-0.00493311,-0.037005305,0.4399217,-1.459569,1.9962515,-2.1055863,-1.5715774,2.417362,-0.095469646,0.13456726,-0.1535492,0.029232964,-0.010529636,-0.058342334,-0.22984336,0.11492168,-9.174581,0.84708,47.723602,-0.77970874,-1.8906436,-3.322425,-0.043659948,-0.12159711,-0.26317036,27.9375,29.125,28.25,31.9375,34.0,34.875
0.18005162,-1.1161213,-1.4157956,-1.0723176,0.008965103,0.0453562,-0.13383406,-0.3805208,-0.32705024,0.060098268,-3.0768478,0.6286157,0.00041364715,-0.08503653,0.014397737,-0.0010325161,0.013275413,-0.0055809803,-0.037200876,0.43975377,-1.459257,1.9959272,-2.1054904,-1.571637,2.4172292,-0.09556527,0.13641542,-0.15553175,0.029788908,-0.009928689,-0.058241494,-0.19153613,0.095768064,-9.097966,0.7463667,47.703007,-0.9364018,-1.9718112,-3.2589483,-0.04278112,-0.14030787,-0.29463676,27.9375,29.125,28.25,31.9375,34.0,34.875
0.1820519,-1.353367,-1.6169276,-1.0442301,0.016593594,0.022197058,-0.12938465,-0.38071126,-0.32702047,0.060115542,-3.0768209,0.62884,0.00048322172,-0.0851609,0.014258364,-0.0010871904,0.0141889285,-0.0057218983,-0.034469422,0.43953788,-1.459017,1.9956163,-2.1054661,-1.5716494,2.417157,-0.09484377,0.13739522,-0.15667775,0.03046912,-0.010696825,-0.060249865,-0.15322891,0.17238252,-9.174581,0.83365434,47.7245,-0.96814924,-1.8910689,-3.3223293,-0.030335762,-0.120843604,-0.3011306,27.9375,29.125,28.25,31.9375,34.0,34.875
0.18405195,-0.66607785,-1.4625021,-1.0968226,0.01725529,0.016896315,-0.13733533,-0.38088754,-0.32697105,0.060091816,-3.0767117,0.62893224,0.000421946,-0.085710056,0.014562614,-0.0013822687,0.015111412,-0.0063667465,-0.033956256,0.43932185,-1.458693,1.9952925,-2.1053822,-1.5716976,2.4170127,-0.0954633,0.13899462,-0.15796657,0.031130126,-0.011266801,-0.06137979,-0.15322891,0.21068975,-9.212888,0.7866488,47.65912,-1.0457215,-1.901972,-3.3488998,-0.034633845,-0.10591239,-0.30371204,27.9375,29.125,28.25,31.9375,34.0,34.875
0.18605246,-0.23616542,-0.96382624,-1.3024957,0.0054620206,0.013758886,-0.13922612,-0.38104835,-0.32695293,0.060103636,-3.0767052,0.62902796,0.00038356805,-0.08763891,0.014238349,-0.0003237266,0.014464055,-0.0046026898,-0.034974445,0.43912953,-1.4584529,1.9949802,-2.1052983,-1.5716733,2.416881,-0.096395046,0.14040452,-0.16220336,0.032085236,-0.011440737,-0.061290525,-0.019153614,0.22984336,-9.097966,0.7530795,47.63225,-1.0679636,-1.8591508,-3.384689,-0.018740982,-0.12994283,-0.3191759,27.9375,29.125,28.25,31.9375,34.0,34.875
0.18805261,-0.38692492,-1.2023724,-1.2935941,0.0034973572,-0.002378571,-0.133946,-0.38123515,-0.3269187,0.060105212,-3.0766284,0.6291087,0.00044814585,-0.0868687,0.015755983,-0.0026606438,0.018088114,-0.009482204,-0.036800813,0.43894908,-1.4581646,1.994646,-2.1052501,-1.5717458,2.4167612,-0.09769243,0.14363527,-0.16076252,0.033369347,-0.012643232,-0.060759827,0.076614454,0.2681506,-9.174581,0.83813137,47.68062,-1.0415994,-1.8821292,-3.337068,-0.04181227,-0.10205843,-0.3311403,27.9375,29.125,28.25,31.9375,34.0,34.875
0.19005176,0.34291855,-1.2058866,-1.2369713,-0.012423188,0.012791095,-0.14457455,-0.38139746,-0.3269052,0.060102124,-3.0766206,0.6292209,0.00038350627,-0.08847869,0.015453699,0.0001962208,0.015245474,-0.005136472,-0.035431523,0.43875656,-1.4578903,1.994335,-2.1051896,-1.57171,2.4166398,-0.09897425,0.13997862,-0.16359484,0.03471073,-0.011925081,-0.0634115,0.076614454,0.30645782,-9.174581,0.90750587,47.684196,-1.0061526,-1.7113307,-3.3895788,-0.041328732,-0.10690196,-0.3507684,27.9375,29.125,28.25,31.9375,34.0,34.875
0.19205213,-0.4331575,-1.4476209,-1.3958635,-0.010274192,-0.015773833,-0.1397869,-0.38156247,-0.32682452,0.060067624,-3.0764542,0.6293405,0.0003099268,-0.08904732,0.015557544,-0.00021088737,0.015962549,-0.006375399,-0.036135085,0.43851653,-1.4575899,1.994059,-2.1050932,-1.5717939,2.416496,-0.099527106,0.14224537,-0.16544421,0.035712115,-0.012060149,-0.063258,0.05746084,0.2681506,-9.270349,0.779936,47.682407,-1.0388036,-1.900952,-3.3237205,-0.06608719,-0.10276078,-0.3375931,27.9375,29.125,28.25,31.9375,34.0,34.875
0.19405232,-0.25523448,-1.6646327,-1.5198922,-0.00964904,-0.0056986883,-0.13821562,-0.3817623,-0.32680318,0.060075708,-3.0764253,0.6294121,0.00037108507,-0.08908438,0.015702337,-0.0006515402,0.016155753,-0.009549153,-0.036541793,0.4383241,-1.45729,1.9936994,-2.1050565,-1.5718292,2.4163523,-0.10055722,0.14420143,-0.16729444,0.03855251,-0.010886931,-0.06388368,0.095768064,0.22984336,-9.289502,0.7777002,47.69763,-1.0260831,-1.688669,-3.3685074,-0.097367495,-0.116590604,-0.3812694,27.9375,29.125,28.25,31.9375,34.0,34.875
0.19605254,-0.6737411,-1.4101508,-1.7168506,-0.0076704156,-0.00764339,-0.13511956,-0.3818992,-0.32679477,0.060062077,-3.0763762,0.62951565,0.00018675205,-0.08882438,0.016449213,-0.0015642956,0.017300447,-0.012829154,-0.034184236,0.43815577,-1.4569901,1.9933647,-2.1049116,-1.5717815,2.416255,-0.101909086,0.14580819,-0.1674934,0.040595938,-0.010540234,-0.06759294,0.15322891,0.19153613,-9.404425,0.8179876,47.64658,-1.1165658,-1.7224693,-3.3955894,-0.12820308,-0.12330529,-0.3674586,27.9375,29.125,28.25,31.9375,34.0,34.875
0.19805256,-0.27725643,-1.5318896,-2.0573585,0.0016827022,0.0061313054,-0.14273578,-0.38208646,-0.32675034,0.0600674,-3.0763085,0.62959397,0.00020356978,-0.09048164,0.015646072,-0.0001127381,0.016100667,-0.009262206,-0.029134596,0.43793985,-1.4567144,1.9930276,-2.1048286,-1.5718292,2.416097,-0.1015134,0.14590125,-0.17084792,0.040108453,-0.010983892,-0.07224368,0.095768064,0.22984336,-9.481039,0.8291774,47.664497,-1.0106992,-1.6456885,-3.357574,-0.15298048,-0.13488716,-0.30788377,27.9375,29.125,28.25,31.9375,34.0,34.875
0.20005178,-0.7179406,-1.9963526,-2.0122242,-0.011473956,0.019762503,-0.13477018,-0.38227654,-0.32671762,0.06006162,-3.0762546,0.62964016,0.00020498021,-0.09100323,0.01582662,-0.00093734777,0.016872825,-0.011766317,-0.029268157,0.43773574,-1.4564017,1.99268,-2.1047685,-1.5718654,2.4159288,-0.102489434,0.14910644,-0.17288555,0.041529052,-0.010628518,-0.073085494,0.076614454,0.38307226,-9.595961,0.75084364,47.667187,-1.1955428,-1.8807243,-3.416623,-0.14843032,-0.1323775,-0.30572486,27.9375,29.125,28.25,31.9375,34.0,34.875
0.20205215,-1.1717077,-1.9935905,-1.9034369,-0.027750578,0.02907434,-0.13847774,-0.38244003,-0.32667857,0.060046565,-3.0761561,0.62979144,6.377829e-05,-0.09119316,0.016488561,-0.0026754036,0.018526511,-0.015825262,-0.026016004,0.43751904,-1.456089,1.9923342,-2.104624,-1.5718654,2.4158194,-0.103975855,0.15329161,-0.17385994,0.04268629,-0.010422609,-0.077822566,-0.019153614,0.30645782,-9.576807,0.80456203,47.693153,-0.96599007,-1.7289402,-3.428246,-0.20558703,-0.14072385,-0.2795102,27.9375,29.125,28.25,31.9375,34.0,34.875
0.20405233,-1.4830894,-2.0691638,-2.2202134,-0.024082975,0.033988714,-0.13217264,-0.3826259,-0.3266395,0.060035374,-3.0761237,0.62976354,1.455874e-05,-0.09205778,0.016662968,-0.0016882636,0.018765591,-0.014942875,-0.02255054,0.43729076,-1.4557778,1.9919976,-2.1045516,-1.5718774,2.4155781,-0.104594976,0.15297216,-0.17627224,0.044713456,-0.011026175,-0.081904486,-0.038307227,0.2681506,-9.80665,0.8717007,47.658226,-1.0784491,-1.745271,-3.3872225,-0.24095583,-0.16004087,-0.23627627,27.9375,29.125,28.25,31.9375,34.0,34.875
0.20605259,-1.3829678,-2.5217836,-2.2790697,-0.01922466,0.0444938,-0.13064016,-0.38282466,-0.32661912,0.060072362,-3.0760808,0.6298485,8.627415e-05,-0.09240729,0.017269494,-0.003183337,0.020292591,-0.018688338,-0.020418707,0.43711036,-1.4555129,1.9915913,-2.1044319,-1.5719255,2.4154565,-0.10610641,0.15700531,-0.1776891,0.0461253,-0.010829479,-0.08554748,0.076614454,0.19153613,-9.921572,0.82022345,47.687782,-1.1290644,-1.908319,-3.4844856,-0.27440962,-0.14747128,-0.14396228,27.9375,29.125,28.25,31.9375,34.0,34.875
0.20805165,-1.7425064,-2.015062,-2.09974,-0.03143182,0.045307145,-0.13495962,-0.3829913,-0.32660073,0.06005319,-3.0760562,0.62990075,-3.9727343e-05,-0.09477223,0.017830975,-0.003276276,0.020253947,-0.016710004,-0.020147001,0.4369056,-1.4551884,1.9912556,-2.1043484,-1.5718893,2.4152877,-0.10861754,0.15953945,-0.17984222,0.043935645,-0.011655489,-0.08832535,-0.05746084,0.17238252,-9.749189,0.8560339,47.657326,-1.1023246,-1.9809568,-3.3895051,-0.28642502,-0.15473163,-0.118641734,27.9375,29.125,28.25,31.9375,34.0,34.875
0.21005175,-1.920651,-1.6657583,-2.128491,-0.016734641,0.037687946,-0.1276227,-0.38320988,-0.3265536,0.06005593,-3.0760067,0.62994695,3.2976634e-05,-0.096212216,0.01593656,-0.0022146085,0.01831216,-0.013579165,-0.016589697,0.43666622,-1.4548767,1.9908947,-2.1043131,-1.5719494,2.415084,-0.106557034,0.16127501,-0.18395886,0.04264685,-0.011237706,-0.089820504,-0.21068975,0.17238252,-9.634268,0.84708,47.672558,-1.1435789,-2.0158918,-3.4153965,-0.28607997,-0.17897084,-0.069304794,27.9375,29.125,28.25,31.9375,34.0,34.875
0.21205208,-1.8627797,-1.5864877,-2.0498805,0.0009991986,0.040456444,-0.12976636,-0.38335437,-0.32653722,0.060048815,-3.075964,0.6299017,-7.587251e-05,-0.09779059,0.017240215,-0.0021538243,0.017854327,-0.013635654,-0.021808667,0.43650898,-1.4545888,1.9905609,-2.1041815,-1.5719494,2.414904,-0.110604465,0.16185938,-0.1848226,0.042782303,-0.010810028,-0.088648655,-0.40222588,0.19153613,-9.653421,0.8224646,47.687782,-1.1773411,-2.0030334,-3.461339,-0.30414945,-0.15550195,-0.04778862,27.9375,29.125,28.25,31.9375,34.0,34.875
0.21405235,-1.8705987,-1.5400189,-2.015594,0.0021435774,0.0493641,-0.13150908,-0.38357085,-0.32649308,0.06005027,-3.0759015,0.6299849,-0.00013964601,-0.09812986,0.016808629,-0.0023938075,0.01835124,-0.012845528,-0.022894869,0.43624538,-1.4542409,1.9901408,-2.1040504,-1.5719618,2.4147007,-0.10949001,0.16330403,-0.18568482,0.041695926,-0.011606512,-0.08644436,-0.5554548,0.24899697,-9.576807,0.84484416,47.65912,-1.1442733,-1.836137,-3.4329424,-0.3332082,-0.17303506,-0.04915483,27.9375,29.125,28.25,31.9375,34.0,34.875
0.21605256,-2.1121142,-1.8169944,-2.0747025,-0.0024961878,0.06891752,-0.12925702,-0.38377205,-0.32646495,0.060041267,-3.075822,0.6300865,-7.5005766e-05,-0.099365614,0.017166518,-0.0029770753,0.01793403,-0.013493626,-0.027780306,0.43606463,-1.4539045,1.9897817,-2.1040266,-1.5720333,2.414594,-0.11160614,0.16583373,-0.18704274,0.040929038,-0.010959628,-0.0836755,-0.63206923,0.22984336,-9.595961,0.87617236,47.709274,-1.1610848,-2.0209033,-3.502293,-0.31297076,-0.2046633,-0.06315087,27.9375,29.125,28.25,31.9375,34.0,34.875
0.2180526,-2.321219,-2.061226,-1.7302761,-0.012836625,0.09214787,-0.1336471,-0.3839924,-0.3264239,0.060067594,-3.0758011,0.6302384,-8.655985e-05,-0.101693586,0.017658692,-0.0020081853,0.01740368,-0.010547302,-0.03314643,0.43578786,-1.4536173,1.9893745,-2.1039069,-1.5720218,2.414415,-0.1139596,0.16639087,-0.18976071,0.04020039,-0.0117319925,-0.08065906,-0.7278373,0.15322891,-9.557653,0.8493211,47.709274,-1.060217,-1.7462645,-3.536891,-0.33478674,-0.19233146,-0.07372727,27.9375,29.125,28.25,31.9375,34.0,34.875
0.22005256,-2.608347,-1.7671356,-1.6634606,-0.02308838,0.10494325,-0.13171509,-0.38417384,-0.32638663,0.060045604,-3.0757127,0.6302804,-0.0001613078,-0.10235728,0.018174674,-0.0020587207,0.01712167,-0.010242203,-0.037900966,0.43558335,-1.45327,1.9890164,-2.1038115,-1.5720571,2.4142482,-0.11551478,0.166619,-0.18982656,0.03964181,-0.011612774,-0.07745893,-0.68953013,0.11492168,-9.519346,0.8291774,47.677036,-1.0321081,-1.8427498,-3.6297634,-0.32403016,-0.19591033,-0.11584666,27.9375,29.125,28.25,31.9375,34.0,34.875
0.22205195,-2.4271162,-1.627353,-1.5218035,-0.019056596,0.11388333,-0.13167171,-0.38438877,-0.32634065,0.060040265,-3.0756729,0.63039035,-0.00016683202,-0.104341805,0.018488871,-0.0016791294,0.016452737,-0.009045915,-0.042371944,0.43531838,-1.4529455,1.9886564,-2.1037633,-1.5720695,2.4140573,-0.117812894,0.16833869,-0.19258973,0.039317593,-0.011519963,-0.07528437,-0.7278373,0.076614454,-9.500193,0.7866488,47.69763,-0.933323,-1.8419106,-3.5499558,-0.3559723,-0.2265215,-0.15989733,27.9375,29.125,28.25,31.9375,34.0,34.875
0.2240522,-3.1111877,-1.7151918,-1.3846705,0.005940953,0.09236831,-0.121012114,-0.38457763,-0.3263387,0.060052115,-3.0756533,0.6305993,-0.00021481322,-0.10608568,0.01866232,-0.0008922665,0.01579922,-0.0057531577,-0.045473423,0.43512616,-1.4526345,1.9882611,-2.1036685,-1.5720338,2.4139981,-0.11904932,0.16836359,-0.19405656,0.037504416,-0.01232397,-0.07341578,-0.8619126,0.0,-9.481039,0.87393653,47.655537,-0.9132346,-1.7834946,-3.575553,-0.33981586,-0.20932335,-0.1746574,27.9375,29.125,28.25,31.9375,34.0,34.875
0.22605285,-2.4761782,-1.3933744,-1.4946955,0.024949573,0.09509851,-0.12480489,-0.38480708,-0.32629743,0.06005111,-3.0756147,0.6306504,-0.00018055843,-0.10842577,0.018415926,0.00026753734,0.013888049,-0.0016190952,-0.049157,0.43487346,-1.4522867,1.9878653,-2.1036217,-1.57207,2.4137826,-0.1205302,0.1686629,-0.19657002,0.035161935,-0.012343182,-0.0712111,-0.7469909,-0.114921674,-9.423578,0.86498255,47.667187,-0.8674685,-1.7024646,-3.5308623,-0.31133747,-0.22588025,-0.2335372,27.9375,29.125,28.25,31.9375,34.0,34.875
0.22805203,-2.115015,-0.56502706,-1.4281366,0.035944674,0.08015323,-0.13088864,-0.38503993,-0.32625592,0.060049307,-3.075538,0.630787,-0.00012478916,-0.11057272,0.017800223,0.0014400497,0.013197767,0.0021985713,-0.04755833,0.43463373,-1.451927,1.9874576,-2.103574,-1.5721306,2.4136384,-0.12050455,0.16981547,-0.20033658,0.03401654,-0.01333904,-0.072778925,-0.7086837,-0.17238252,-9.32781,0.88960326,47.72002,-0.9431424,-1.6792934,-3.4295256,-0.28729242,-0.23723301,-0.23130736,27.9375,29.125,28.25,31.9375,34.0,34.875
0.23005237,-1.8033543,-0.9351434,-1.3814589,0.05107878,0.079558544,-0.13273552,-0.38527387,-0.32621905,0.060063753,-3.0754898,0.63104844,-8.422925e-05,-0.11175299,0.017364249,0.0017709103,0.012487549,0.0036392645,-0.050330848,0.43436953,-1.451603,1.9870499,-2.1035144,-1.5721425,2.4135437,-0.1206533,0.17118411,-0.20248479,0.03319016,-0.013303475,-0.070154056,-0.61291564,-0.038307227,-9.232041,0.78217715,47.70211,-0.9707521,-1.5498402,-3.3494873,-0.27980277,-0.21604149,-0.27744147,27.9375,29.125,28.25,31.9375,34.0,34.875
0.23205265,-1.6802628,-0.68919265,-1.393638,0.040896177,0.07499181,-0.13198912,-0.38550222,-0.32617104,0.060056183,-3.0754075,0.63112724,-3.4188484e-05,-0.11242349,0.017130863,0.0015859223,0.0126144495,0.0037144874,-0.05088296,0.43412963,-1.4512432,1.9866551,-2.1034667,-1.5722145,2.413364,-0.1206172,0.17300123,-0.20409413,0.03296096,-0.013454849,-0.06956415,-0.61291564,-0.05746084,-9.251195,0.7866488,47.73883,-0.90340453,-1.6101041,-3.2924662,-0.2511172,-0.22801703,-0.30538666,27.9375,29.125,28.25,31.9375,34.0,34.875
0.23405182,-1.1368293,-0.8721421,-1.5441291,0.032147706,0.08243852,-0.13603844,-0.38574046,-0.32616332,0.060075007,-3.07543,0.6312851,4.418308e-05,-0.11466627,0.018094506,0.0021352288,0.011986417,0.004703783,-0.05181993,0.43390003,-1.4509073,1.9862345,-2.1034544,-1.5722021,2.4132302,-0.12436495,0.17409787,-0.20671122,0.033312492,-0.0133045,-0.07237487,-0.36391866,-0.019153614,-9.3661175,0.89631605,47.701214,-0.97257054,-1.56919,-3.230932,-0.24824396,-0.25513548,-0.34059358,27.9375,29.125,28.25,31.9375,34.0,34.875
0.23605184,-0.9457261,-1.1278726,-1.745998,0.016538681,0.07123309,-0.1387815,-0.38596964,-0.32609883,0.06006458,-3.0752964,0.6315269,-4.41983e-06,-0.11527434,0.016859343,0.0024600774,0.01290557,0.0058465633,-0.052859794,0.43361357,-1.4505353,1.9858159,-2.1033342,-1.5722507,2.4131122,-0.12162593,0.17648627,-0.21030852,0.03387464,-0.014625941,-0.068589285,-0.21068975,0.05746084,-9.404425,0.7709874,47.65464,-1.1245279,-1.554302,-3.2030761,-0.24170992,-0.26193184,-0.38241383,27.9375,29.125,28.25,31.9375,34.0,34.875
0.23805192,-1.3781999,-1.572784,-1.7848277,0.0041280217,0.04496535,-0.13013226,-0.38621488,-0.32606608,0.06008539,-3.0752463,0.6316521,6.9707705e-05,-0.11703975,0.018051757,0.0014503845,0.014213265,0.004475473,-0.05517697,0.43337202,-1.4501865,1.98536,-2.1032512,-1.5722989,2.4129555,-0.12487175,0.1803495,-0.21236046,0.03385076,-0.015240975,-0.06951499,-0.1340753,0.05746084,-9.481039,0.7463667,47.67166,-0.8177463,-1.6659268,-3.2300599,-0.22579831,-0.22107068,-0.42402756,27.9375,29.125,28.25,31.9375,34.0,34.875
0.24005201,-0.87396103,-1.8901895,-1.9040773,-0.004709966,0.0428727,-0.13309333,-0.38641933,-0.32601526,0.060069297,-3.075159,0.63170964,3.597863e-05,-0.11727776,0.01815275,-0.0007106045,0.016204929,0.0010602159,-0.052861888,0.4331321,-1.4498374,1.9849881,-2.1031673,-1.5723466,2.412763,-0.12493056,0.18586618,-0.21353784,0.033437587,-0.01562656,-0.07188539,-0.19153613,0.15322891,-9.519346,0.8224646,47.657326,-1.0037236,-1.8062794,-3.1460567,-0.21597138,-0.24717659,-0.44789377,27.9375,29.125,28.25,31.9375,34.0,34.875
0.24205224,-0.76065505,-1.9364574,-1.8200226,-0.029264871,0.03775369,-0.13825683,-0.38666397,-0.32596982,0.060071237,-3.0750697,0.63188106,4.778296e-05,-0.11811786,0.018201726,0.00020049086,0.015016154,0.0023604208,-0.05149405,0.43286785,-1.4494545,1.9845341,-2.103071,-1.5723947,2.4126177,-0.12599973,0.18501712,-0.21485062,0.033906657,-0.015101185,-0.07432316,-0.21068975,0.2873042,-9.5385,0.8717007,47.678825,-1.0328659,-1.7551209,-3.2643704,-0.18989362,-0.23449683,-0.44634324,27.9375,29.125,28.25,31.9375,34.0,34.875
0.24405237,-1.1509683,-2.8996153,-1.9213423,-0.030791346,0.039103687,-0.12632822,-0.38689378,-0.3259277,0.06005846,-3.0749927,0.6320747,6.352659e-05,-0.11869618,0.019479742,-0.0005475765,0.015992718,0.0009818951,-0.0484448,0.43261495,-1.4490826,1.9841398,-2.1030352,-1.572431,2.4124959,-0.12857077,0.18618988,-0.21455297,0.03408144,-0.015418403,-0.07994254,-0.1340753,0.34476504,-9.481039,0.8247004,47.716442,-0.96376884,-1.7875388,-3.3928308,-0.17728354,-0.23473227,-0.4395623,27.9375,29.125,28.25,31.9375,34.0,34.875
0.24605255,-1.1522883,-2.7970543,-1.9423202,-0.042991642,0.025687462,-0.13020845,-0.3871422,-0.3258889,0.060055766,-3.074946,0.6322341,3.155218e-05,-0.11863964,0.017661821,-7.555733e-05,0.0147840055,0.0022697598,-0.041603256,0.4323282,-1.4486872,1.9836849,-2.1029518,-1.572431,2.412315,-0.12540442,0.18709828,-0.21659443,0.033525582,-0.01487477,-0.08361766,-0.019153614,0.38307226,-9.500193,0.8179876,47.674347,-1.1630087,-1.7744904,-3.419608,-0.15098907,-0.24933651,-0.38652164,27.9375,29.125,28.25,31.9375,34.0,34.875
0.2480526,-0.9745696,-2.7491248,-2.1415172,-0.045381255,0.01431831,-0.13004449,-0.38736543,-0.32582402,0.06005712,-3.0748422,0.63230765,3.466258e-05,-0.11924081,0.019479264,-0.0019326252,0.017171506,-0.000952756,-0.040156767,0.43206277,-1.4483504,1.9832782,-2.102832,-1.572503,2.4121091,-0.12865824,0.19040759,-0.21613088,0.033662908,-0.01570407,-0.08831476,0.019153614,0.4405331,-9.519346,0.779936,47.660015,-0.89293873,-1.8870593,-3.58783,-0.13919826,-0.246825,-0.3667798,27.9375,29.125,28.25,31.9375,34.0,34.875
0.2500518,-0.8546105,-3.008863,-1.9912628,-0.048713446,0.014747524,-0.12501872,-0.38761193,-0.3258074,0.06005773,-3.0748332,0.6323963,0.00011364192,-0.11966584,0.018832425,-0.0019302275,0.016869286,-0.0022312673,-0.031629786,0.43183506,-1.4479663,1.9828471,-2.1028311,-1.5725268,2.4119382,-0.12825957,0.19257265,-0.21902508,0.035402246,-0.014905585,-0.096444726,0.15322891,0.53630114,-9.519346,0.9186956,47.64389,-1.0914079,-1.8311832,-3.642488,-0.13113938,-0.24565992,-0.28432232,27.9375,29.125,28.25,31.9375,34.0,34.875
0.25205213,-0.46635157,-2.6508386,-2.149464,-0.034651965,0.0018688097,-0.122547425,-0.38788596,-0.32576397,0.060088485,-3.074803,0.63244843,0.00022939114,-0.121646866,0.019371483,-0.0008633386,0.015989235,4.2892323e-05,-0.03265529,0.4315582,-1.4476073,1.982356,-2.1027477,-1.5725869,2.411698,-0.13075228,0.19250152,-0.22146896,0.035471383,-0.015062325,-0.097911045,0.17238252,0.4405331,-9.404425,0.84484416,47.68062,-0.9884095,-1.7417724,-3.6742265,-0.113063954,-0.25340432,-0.23757252,27.9375,29.125,28.25,31.9375,34.0,34.875
0.25405237,0.06423185,-2.0107505,-2.1118588,-0.029794484,-0.0062056906,-0.12896806,-0.38814056,-0.3257548,0.060101192,-3.0748274,0.6325665,0.00026427768,-0.12230201,0.019228997,-0.0011132862,0.016211068,-0.0011851493,-0.029872183,0.43130618,-1.4472232,1.9818887,-2.102711,-1.572563,2.411517,-0.13115282,0.19486623,-0.22390345,0.036740724,-0.014753964,-0.10109499,0.13407528,0.36391866,-9.442732,0.8672237,47.66091,-1.0015191,-1.7775092,-3.5044565,-0.092081815,-0.26019934,-0.18826443,27.9375,29.125,28.25,31.9375,34.0,34.875
0.25605223,-0.0037640987,-2.071703,-2.066442,-0.023253385,-0.006443007,-0.13324395,-0.38837135,-0.32569155,0.06007625,-3.0747454,0.6325884,0.00025740018,-0.123596124,0.019608065,-0.00090567593,0.016569095,-0.0012663554,-0.030295135,0.4310298,-1.4468393,1.9815053,-2.1026633,-1.5726227,2.4112651,-0.13267049,0.19653286,-0.2265977,0.037980653,-0.015056751,-0.10218688,0.019153614,0.3256114,-9.461885,0.8537928,47.689575,-1.0128632,-1.822572,-3.4787915,-0.070088744,-0.2596911,-0.16987884,27.9375,29.125,28.25,31.9375,34.0,34.875
0.2580528,-0.43588296,-2.074249,-1.7606143,-0.014164272,-0.0063709486,-0.13180706,-0.38862085,-0.32566243,0.060064014,-3.074668,0.6327276,0.0002158489,-0.12540835,0.019219551,-0.00038499638,0.014521146,-7.2750714e-05,-0.0326276,0.4307771,-1.4463953,1.9810141,-2.102567,-1.5726465,2.4111097,-0.13429664,0.19822931,-0.22963828,0.03737561,-0.013708348,-0.10148176,0.038307227,0.30645782,-9.385271,0.8090337,47.675243,-1.0194879,-1.8519427,-3.5734618,-0.040251046,-0.27872443,-0.15483661,27.9375,29.125,28.25,31.9375,34.0,34.875
0.26005206,-0.7979963,-1.7863882,-1.7076246,-0.011604311,0.012079087,-0.123232,-0.38885164,-0.3256291,0.06007698,-3.0746372,0.63279927,0.00021099474,-0.12695237,0.019021051,0.00033517252,0.013944406,0.0013297778,-0.036154456,0.430525,-1.4460477,1.9805707,-2.1024597,-1.5726584,2.4109066,-0.13511041,0.19945323,-0.23282588,0.037825532,-0.013774367,-0.09876663,0.0,0.21068975,-9.346964,0.8403672,47.63673,-1.0106428,-1.745512,-3.4408522,-0.027046073,-0.30109823,-0.14828356,27.9375,29.125,28.25,31.9375,34.0,34.875
0.26205248,-0.4268443,-1.5109227,-1.6765218,0.00085374375,0.02919486,-0.1347612,-0.3891356,-0.32559213,0.06008831,-3.0746176,0.6328944,0.00030118655,-0.1280311,0.019283881,0.00020640853,0.014156414,-0.0007079792,-0.041660275,0.43023628,-1.4456396,1.980079,-2.102423,-1.5726937,2.41068,-0.13684373,0.20218629,-0.23627649,0.040482026,-0.013110156,-0.09499512,-0.095768064,0.17238252,-9.346964,0.92093146,47.685097,-0.8468275,-1.7738392,-3.2602353,-0.043917645,-0.3035844,-0.17860466,27.9375,29.125,28.25,31.9375,34.0,34.875
0.26405168,-1.0409836,-1.4122028,-1.6117694,0.02104585,0.029040731,-0.12431908,-0.38936707,-0.32555223,0.06006723,-3.0745318,0.63305175,0.00022067616,-0.12923446,0.01890616,0.0010676403,0.013901615,0.0004657091,-0.046107106,0.4299724,-1.44522,1.9796351,-2.1023266,-1.5727066,2.4105258,-0.13689665,0.20312901,-0.23968014,0.041775826,-0.01337456,-0.09059799,-0.19153613,0.21068975,-9.308656,0.8985519,47.68599,-0.9802945,-1.6458355,-3.107214,-0.036220007,-0.31545395,-0.23812428,27.9375,29.125,28.25,31.9375,34.0,34.875
0.26605192,-1.6376948,-0.82428664,-1.504199,0.013833802,0.044880074,-0.12937315,-0.38965046,-0.32551906,0.06009973,-3.074499,0.63325816,0.00029956058,-0.12941952,0.019547505,0.0015105731,0.013188608,0.00024702022,-0.050268773,0.42968383,-1.4448369,1.9791092,-2.1022303,-1.57273,2.4103706,-0.1386151,0.20178646,-0.23950456,0.04284144,-0.012626512,-0.08815823,-0.49799395,0.19153613,-9.346964,0.9254084,47.716442,-0.82536554,-1.6382489,-3.2749224,-0.023955377,-0.33885586,-0.27105865,27.9375,29.125,28.25,31.9375,34.0,34.875
0.26805207,-1.9527072,-1.1546806,-1.4466276,0.015994955,0.07157469,-0.1356097,-0.38987857,-0.32548615,0.060061876,-3.0744264,0.63337725,0.00016486873,-0.1298919,0.019471845,0.0014935909,0.013712642,-0.0007488076,-0.050513826,0.42941982,-1.4443815,1.9786657,-2.102146,-1.572718,2.4101906,-0.13872808,0.2034506,-0.24182573,0.044620533,-0.012699014,-0.08802383,-0.51714754,0.15322891,-9.404425,0.92093146,47.698532,-1.1466526,-1.5587171,-3.366221,-0.021087501,-0.35581997,-0.28026354,27.9375,29.125,28.25,31.9375,34.0,34.875
0.2700525,-2.484364,-1.3412874,-1.5331011,0.0024793395,0.087778375,-0.13029493,-0.39015296,-0.32545307,0.060087655,-3.07438,0.63348144,0.00023785463,-0.12989682,0.019195408,0.0017973845,0.014409638,-0.0010969717,-0.049141083,0.4291562,-1.4439864,1.9781388,-2.1020372,-1.5727667,2.4099984,-0.1377822,0.20396456,-0.2435933,0.046474196,-0.013187759,-0.088449135,-0.49799395,0.038307227,-9.404425,0.83813137,47.703007,-1.0321192,-1.4543107,-3.3384287,-0.026297007,-0.36652595,-0.31537467,27.9375,29.125,28.25,31.9375,34.0,34.875
0.27205187,-2.4292328,-1.0358201,-1.4308869,-0.004543708,0.105555676,-0.13379593,-0.39038807,-0.3253992,0.06007671,-3.0742953,0.63371426,0.00015829327,-0.12902424,0.02056867,0.00010081431,0.016821817,-0.0052446355,-0.050668813,0.42885572,-1.4436026,1.9777082,-2.101929,-1.5727667,2.4098544,-0.13916197,0.20557489,-0.24193165,0.047975633,-0.013657167,-0.088300146,-0.6895301,-0.05746084,-9.385271,0.87617236,47.691364,-1.131159,-1.3999243,-3.509026,-0.03714662,-0.3809721,-0.34113395,27.9375,29.125,28.25,31.9375,34.0,34.875
0.2740522,-1.8624339,-0.9068357,-1.4559994,0.016898358,0.10583581,-0.13354413,-0.39066455,-0.32535586,0.060098786,-3.0742486,0.63380134,0.0002541619,-0.13000472,0.021070158,-0.0012558469,0.018947672,-0.0075654173,-0.05266332,0.42857942,-1.4432173,1.9772061,-2.101845,-1.5728267,2.409639,-0.14016944,0.21032594,-0.24439417,0.04867836,-0.014628879,-0.08730894,-0.5554548,-0.15322891,-9.404425,0.8717007,47.678825,-1.0813947,-1.692641,-3.5242283,-0.050751023,-0.3774857,-0.3557185,27.9375,29.125,28.25,31.9375,34.0,34.875
0.27605247,-1.9414475,-0.9597995,-1.3147849,0.049896184,0.085675135,-0.11778496,-0.3909094,-0.3253125,0.06007284,-3.074148,0.63401145,0.00013145103,-0.13170812,0.02183843,-0.0014166558,0.020048881,-0.007767453,-0.053141568,0.4282905,-1.4427612,1.9767259,-2.1017253,-1.5728267,2.4094944,-0.14231102,0.21299623,-0.24731815,0.04956883,-0.015566195,-0.088966444,-0.61291564,-0.19153613,-9.32781,0.8940802,47.65912,-0.9214227,-1.7378016,-3.4841766,-0.044914182,-0.39030957,-0.376424,27.9375,29.125,28.25,31.9375,34.0,34.875
0.2780517,-1.5819592,-0.6105589,-1.3565588,0.07352279,0.06350971,-0.1249173,-0.39116803,-0.32528183,0.06006129,-3.0741036,0.6340803,0.0001620461,-0.13281865,0.023236107,-0.0020205232,0.021567786,-0.009753861,-0.056695543,0.4280378,-1.4423292,1.9762586,-2.1016886,-1.5728635,2.4092908,-0.14536072,0.21526612,-0.248991,0.051405683,-0.016126186,-0.088459805,-0.6512228,-0.1340753,-9.270349,0.9097417,47.694946,-1.0390743,-1.8771834,-3.446331,-0.041087538,-0.40245575,-0.3988547,27.9375,29.125,28.25,31.9375,34.0,34.875
0.28005174,-1.5534763,-0.117813095,-1.417318,0.07416145,0.034710634,-0.12584844,-0.39143905,-0.32522732,0.06004922,-3.0740108,0.6342298,0.00015659234,-0.13296178,0.022998774,-0.0017658877,0.023148414,-0.0105171,-0.05161547,0.42773825,-1.4418857,1.9757684,-2.1016037,-1.5729116,2.409097,-0.14417279,0.21658593,-0.25178424,0.054215398,-0.01726232,-0.092346996,-0.5746084,-0.17238252,-9.193734,0.88289046,47.68599,-1.0173993,-1.7340853,-3.6002464,-0.06543109,-0.38841286,-0.40057164,27.9375,29.125,28.25,31.9375,34.0,34.875
0.28205195,-1.0351969,-0.2821396,-1.2597252,0.062472478,0.04203938,-0.13120116,-0.39169624,-0.3251748,0.060046755,-3.0738919,0.63435674,0.0001185962,-0.13391224,0.022620482,-0.0016909867,0.023863561,-0.011678108,-0.046316445,0.42746225,-1.4414535,1.9752525,-2.1014473,-1.5729717,2.408916,-0.14404038,0.21957497,-0.25598145,0.056754764,-0.017455628,-0.09750983,-0.57460845,-0.038307227,-9.174581,0.8717007,47.686886,-1.0371664,-1.8294103,-3.445202,-0.09615852,-0.3947767,-0.31584364,27.9375,29.125,28.25,31.9375,34.0,34.875
0.28405198,-1.2884295,-1.0557818,-1.4170325,0.06307919,0.036541536,-0.12708591,-0.39197934,-0.3251441,0.06005187,-3.073848,0.63459533,6.431481e-05,-0.13477099,0.02314529,-0.0010084515,0.024996907,-0.011777909,-0.04298897,0.42714977,-1.4409982,1.9747013,-2.1013272,-1.5729483,2.4087584,-0.14494474,0.21999541,-0.25877342,0.05967732,-0.018461071,-0.10173739,-0.6703765,0.05746084,-9.155427,0.94331104,47.701214,-1.0546303,-1.6542392,-3.4079518,-0.12896585,-0.389323,-0.31238335,27.9375,29.125,28.25,31.9375,34.0,34.875
0.2860521,-1.2468929,-1.3482673,-1.6564949,0.032619804,0.060335755,-0.12545635,-0.39221928,-0.32505983,0.060025852,-3.0737011,0.6345991,-5.479817e-05,-0.13530415,0.02328067,-0.00026702325,0.025700629,-0.011805553,-0.037542854,0.42683795,-1.4405668,1.9742345,-2.1011465,-1.5730203,2.4084685,-0.14509818,0.22012475,-0.26131722,0.062384114,-0.019121116,-0.10733157,-0.61291564,0.21068975,-9.251195,0.8806493,47.687782,-1.1469882,-1.7506919,-3.413374,-0.1575745,-0.3919527,-0.2569592,27.9375,29.125,28.25,31.9375,34.0,34.875
0.28805208,-1.651325,-2.3543189,-1.7779181,-0.0054344013,0.076956354,-0.12411039,-0.39250407,-0.32501283,0.060033094,-3.0735989,0.634749,-4.8806865e-05,-0.13556477,0.023874504,-0.0008043464,0.026910359,-0.014642579,-0.034593936,0.42654946,-1.4401108,1.9736718,-2.101002,-1.5730804,2.4082873,-0.14632915,0.22225435,-0.26322234,0.06522056,-0.019064352,-0.111510456,-0.51714754,0.24899697,-9.32781,0.8851263,47.686886,-1.1205994,-1.7158618,-3.332262,-0.21364847,-0.39761794,-0.18794712,27.9375,29.125,28.25,31.9375,34.0,34.875
0.29005253,-2.2217135,-3.167181,-1.6325499,-0.039601695,0.08497987,-0.12475452,-0.39277893,-0.32496786,0.060037594,-3.073528,0.6347515,-4.0515657e-05,-0.13676149,0.023809794,-0.00017930353,0.027226157,-0.01384444,-0.03242539,0.42627338,-1.4396669,1.9731315,-2.10087,-1.5731405,2.4080224,-0.14668041,0.22345333,-0.26640633,0.06659357,-0.019701168,-0.11402608,-0.34476504,0.38307226,-9.270349,0.90750587,47.67166,-1.144906,-1.7614448,-3.2627745,-0.26296172,-0.3931902,-0.11688299,27.9375,29.125,28.25,31.9375,34.0,34.875
0.29205284,-2.3578355,-3.0585797,-1.70513,-0.054981608,0.075366564,-0.11722453,-0.39303055,-0.32492042,0.060019568,-3.073432,0.6348665,-0.00019634026,-0.1371771,0.02425199,-0.0008720262,0.028229045,-0.015482018,-0.033496935,0.425973,-1.4391993,1.9726051,-2.1006896,-1.5731405,2.4078066,-0.14755927,0.22565141,-0.26759747,0.06748807,-0.019958954,-0.11382954,-0.4213795,0.3256114,-9.289502,0.83589023,47.70211,-1.1354727,-1.7468385,-3.3993106,-0.30178314,-0.4114129,-0.102267094,27.9375,29.125,28.25,31.9375,34.0,34.875
0.2940518,-1.9003438,-3.1912255,-1.6859119,-0.052922282,0.076798275,-0.122101106,-0.3933016,-0.3248559,0.06000712,-3.0733027,0.6349967,-0.00022347772,-0.13844119,0.025151346,-0.00046533285,0.028643753,-0.01464703,-0.0389206,0.42567232,-1.4387444,1.9720911,-2.100558,-1.5732125,2.4076045,-0.14967893,0.22588937,-0.26902696,0.06808788,-0.020692226,-0.11052101,-0.36391866,0.45968673,-9.308656,0.84708,47.687782,-1.0747261,-1.733351,-3.3497066,-0.34854555,-0.38865912,-0.10742542,27.9375,29.125,28.25,31.9375,34.0,34.875
0.29605195,-1.2107629,-2.9002862,-1.6322325,-0.034858655,0.065705806,-0.12956299,-0.3935958,-0.32480633,0.05996993,-3.0732172,0.6351133,-0.00029275325,-0.14005475,0.024854451,-0.00017225451,0.027273467,-0.0100475345,-0.04252231,0.4253486,-1.4382052,1.9715523,-2.100488,-1.5732368,2.407365,-0.14991009,0.22616887,-0.2689757,0.0630044,-0.021362206,-0.10714562,-0.095768064,0.38307226,-9.251195,0.8537928,47.64479,-1.1923046,-1.6545615,-3.4830153,-0.3280566,-0.38971025,-0.10874455,27.9375,29.125,28.25,31.9375,34.0,34.875
0.2980523,-0.8198965,-1.9017152,-1.6539217,-0.022833453,0.03971464,-0.120341785,-0.3939038,-0.32476452,0.060005866,-3.073167,0.63531774,-0.000216834,-0.14233652,0.025259249,-0.00071117043,0.02714934,-0.007966364,-0.048424784,0.4250358,-1.4377849,1.9709662,-2.1003573,-1.5732731,2.4071867,-0.15194209,0.22936438,-0.27064893,0.059537865,-0.022113236,-0.103271164,-0.13407528,0.30645782,-9.308656,0.8314132,47.65912,-1.0214465,-1.6050861,-3.4780903,-0.29857293,-0.3713895,-0.1466837,27.9375,29.125,28.25,31.9375,34.0,34.875
0.30005243,-0.99363357,-2.0005789,-1.6428521,-0.0061529228,0.018195799,-0.115236126,-0.39420795,-0.32469937,0.060000543,-3.0730467,0.63544905,-0.00016080274,-0.14382523,0.026036797,-0.0012041723,0.0272657,-0.0082408525,-0.054689534,0.42472288,-1.4373051,1.9704155,-2.100262,-1.5733694,2.406972,-0.15449034,0.23173034,-0.27216843,0.058983292,-0.022110973,-0.09955305,-0.05746084,0.3256114,-9.251195,0.88289046,47.661808,-0.97391033,-1.7985904,-3.5996342,-0.31077293,-0.3614994,-0.19755347,27.9375,29.125,28.25,31.9375,34.0,34.875
0.30205265,-0.10045263,-1.7345994,-1.6776302,0.012190089,0.021227159,-0.12291659,-0.39450726,-0.32465997,0.059989277,-3.0729933,0.63561356,-0.00020609018,-0.14712018,0.025049156,0.0001828559,0.024101948,-0.0021421353,-0.058939785,0.42439857,-1.4368017,1.9698514,-2.1001675,-1.5733694,2.4067576,-0.15551879,0.2331238,-0.2760361,0.054597974,-0.021759968,-0.09632876,-0.019153614,0.2681506,-9.136273,0.8157518,47.691364,-0.89809203,-1.7309728,-3.458189,-0.27216715,-0.37408057,-0.25786227,27.9375,29.125,28.25,31.9375,34.0,34.875
0.30405167,-0.12208628,-1.2393814,-2.168859,0.027139269,-0.0032710768,-0.13008524,-0.39476398,-0.32458603,0.059936065,-3.0728145,0.6357899,-0.00035109292,-0.14938904,0.02489934,0.00040724524,0.022282124,0.0008554674,-0.062663905,0.4240857,-1.4362855,1.9693607,-2.1000369,-1.573429,2.4065785,-0.15727791,0.23497061,-0.2779847,0.051210754,-0.021360973,-0.0943601,0.076614454,0.24899697,-9.308657,0.9097417,47.689575,-0.76861095,-1.870883,-3.4338632,-0.21711239,-0.37154263,-0.29402605,27.9375,29.125,28.25,31.9375,34.0,34.875
0.30605242,0.14082259,-1.6879556,-2.0713596,0.013953573,0.0066208397,-0.12722385,-0.3950638,-0.3245429,0.05994116,-3.0727348,0.6359838,-0.00031036968,-0.15028532,0.024817277,-0.00044318827,0.023514453,3.6243669e-06,-0.0645206,0.42378628,-1.4358175,1.9687985,-2.0999415,-1.5734771,2.406411,-0.15722491,0.23872681,-0.28036302,0.051113855,-0.022137519,-0.09244575,0.11492168,0.2681506,-9.3661175,0.784413,47.66271,-1.025191,-1.9063866,-3.3740134,-0.20492138,-0.35833982,-0.3365479,27.9375,29.125,28.25,31.9375,34.0,34.875
0.3080522,-0.44306308,-2.2417278,-1.952214,-0.014740183,0.018504126,-0.124929875,-0.395359,-0.32449263,0.059940763,-3.072642,0.6361954,-0.00035311107,-0.15027946,0.025005413,-0.0017451242,0.025638161,-0.0020266848,-0.0653655,0.4234622,-1.4353368,1.9682235,-2.0997975,-1.5735015,2.4062314,-0.15669383,0.24199948,-0.28126878,0.05146955,-0.023244958,-0.09106371,-0.05746084,0.30645782,-9.423578,0.8985519,47.687782,-1.0306348,-2.058735,-3.389499,-0.19091529,-0.35506368,-0.40412694,27.9375,29.125,28.25,31.9375,34.0,34.875
0.31005225,-0.48687553,-2.490162,-2.3929431,-0.020728348,0.040502828,-0.12801872,-0.39566785,-0.32443973,0.05993101,-3.0725381,0.63632864,-0.0002922116,-0.15219599,0.025405094,-0.00041308592,0.025228696,0.0015753714,-0.06801471,0.4231619,-1.4348341,1.9676613,-2.099726,-1.5735863,2.4060283,-0.1581535,0.2413165,-0.28354505,0.05096956,-0.024358802,-0.08986862,0.05746084,0.19153613,-9.519346,0.8090337,47.66539,-0.95820105,-2.0741985,-3.5085607,-0.17818989,-0.34554476,-0.44586253,27.9375,29.125,28.25,31.9375,34.0,34.875
0.31205264,-1.1626879,-2.4253197,-2.2657073,-0.045164812,0.052136377,-0.12883556,-0.3959758,-0.3243735,0.059928086,-3.0724316,0.6365547,-0.00029704513,-0.15352148,0.0256634,-0.0007270867,0.025226574,0.0011120667,-0.06838467,0.42281336,-1.434354,1.9670976,-2.0996063,-1.5736336,2.4058352,-0.15969722,0.24395747,-0.28596663,0.051155176,-0.024180826,-0.09104082,0.076614454,0.19153613,-9.672575,0.95226496,47.65643,-0.9304184,-2.0890918,-3.456095,-0.17102462,-0.3234855,-0.4800616,27.9375,29.125,28.25,31.9375,34.0,34.875
0.31405196,-1.2068626,-2.8535361,-2.1898625,-0.0534738,0.053810686,-0.12655662,-0.3962582,-0.32430628,0.05989915,-3.0722628,0.63676786,-0.00037125556,-0.15464038,0.025933573,-0.00065323646,0.025344567,0.002022065,-0.0661216,0.42250115,-1.4338387,1.9665483,-2.0994627,-1.573706,2.4056785,-0.16065386,0.24512666,-0.28747085,0.050686542,-0.024687061,-0.09425509,-0.1340753,0.22984336,-9.710882,0.90527004,47.657326,-0.8611212,-2.109572,-3.4121833,-0.1434707,-0.3052856,-0.50075746,27.9375,29.125,28.25,31.9375,34.0,34.875
0.31605202,-1.0973991,-2.4007964,-2.1670911,-0.041394576,0.06301249,-0.12772673,-0.39656296,-0.32430258,0.059913427,-3.0722733,0.63684505,-0.00028686773,-0.15559888,0.026638804,-0.0011023807,0.0256663,0.0016814964,-0.06329727,0.42224824,-1.4333588,1.9659613,-2.099415,-1.5737184,2.4054728,-0.16249779,0.24670462,-0.28825715,0.050316226,-0.024851806,-0.09892369,-0.30645782,0.24899697,-9.595961,0.86498255,47.688675,-0.9095923,-1.9900786,-3.5321345,-0.11637029,-0.31511495,-0.49912733,27.9375,29.125,28.25,31.9375,34.0,34.875
0.3180523,-1.2134277,-1.5426257,-2.318771,-0.022528762,0.059238378,-0.12731072,-0.39688814,-0.32424808,0.05991316,-3.0721908,0.6370334,-0.0002880034,-0.15667473,0.026353676,-0.00010878603,0.02423786,0.0038042825,-0.054960817,0.42190036,-1.4328434,1.965351,-2.0992954,-1.5737542,2.4052536,-0.1629636,0.2462182,-0.2900342,0.050016895,-0.024450246,-0.10772639,-0.2681506,0.21068975,-9.691729,0.8717007,47.67345,-0.8953998,-2.1085997,-3.5837984,-0.0907174,-0.2992879,-0.3856109,27.9375,29.125,28.25,31.9375,34.0,34.875
0.3200524,-1.024093,-1.4449152,-2.2942903,0.0066156033,0.06886746,-0.12844235,-0.3971817,-0.32418728,0.05989945,-3.0720856,0.6371818,-0.00032107337,-0.15750262,0.026727976,-3.4957404e-05,0.024281763,0.003679301,-0.049823277,0.42157567,-1.4323529,1.9647993,-2.0991752,-1.5738024,2.4050357,-0.16417827,0.24716856,-0.29154366,0.050674833,-0.024465807,-0.11407664,-0.1340753,0.15322891,-9.883265,0.8851263,47.691364,-0.8785492,-2.070825,-3.678698,-0.0711596,-0.30089062,-0.3547086,27.9375,29.125,28.25,31.9375,34.0,34.875
0.32209432,-0.9659421,-0.97332585,-1.8731534,-0.0061107418,0.08283426,-0.14356786,-0.39750925,-0.32413387,0.05988542,-3.0720074,0.6373524,-0.00032257853,-0.15754923,0.026004525,0.00029477867,0.023127781,0.0037820532,-0.0418084,0.42122823,-1.4318138,1.9642013,-2.0990918,-1.5738376,2.4048054,-0.16336189,0.24739033,-0.2927697,0.05107434,-0.023480345,-0.121278346,-0.34476507,0.0,-9.653421,1.0037369,47.657326,-1.0495083,-1.8929741,-3.5901623,-0.050571077,-0.31275928,-0.2645826,27.9375,29.125,28.25,31.9375,34.0,34.875
0.32405645,-0.94483554,-1.233216,-1.9494894,0.01952664,0.09318999,-0.13529475,-0.3978206,-0.32410508,0.059888426,-3.0719705,0.6374178,-0.00028002943,-0.1586037,0.025352074,0.0011851764,0.022423562,0.004762686,-0.037382647,0.42094043,-1.4313096,1.9636034,-2.0990074,-1.5738739,2.4045637,-0.16303077,0.24833989,-0.29631916,0.052466374,-0.023254022,-0.12537274,-0.49799395,-0.038307227,-9.691729,0.9254084,47.672558,-1.1242539,-1.9851096,-3.617218,-0.04086235,-0.30362874,-0.18621674,27.9375,29.125,28.25,31.9375,34.0,34.875
0.32605803,-1.63695,-0.3084888,-2.0236142,0.027753754,0.084294304,-0.13252221,-0.39814016,-0.32405996,0.059889983,-3.0719297,0.63758194,-0.00029898548,-0.15852417,0.025773104,7.139956e-05,0.02486013,0.0012788493,-0.035727594,0.42059243,-1.4308063,1.963004,-2.0988986,-1.5738739,2.4043238,-0.16304496,0.2516919,-0.29832938,0.055289447,-0.024061307,-0.12703769,-0.40222588,-0.05746084,-9.749189,0.96569055,47.674347,-1.0853913,-1.972729,-3.6308227,-0.0542053,-0.27641958,-0.12745176,27.9375,29.125,28.25,31.9375,34.0,34.875
0.32805723,-1.5412174,-0.3984723,-1.9071136,0.024452172,0.097722314,-0.1307075,-0.3984573,-0.3240203,0.059902705,-3.0718613,0.6376639,-0.00021891521,-0.16051328,0.02545451,0.0009643415,0.024342371,0.004712119,-0.03762746,0.42030418,-1.4303148,1.9623927,-2.0987914,-1.5739464,2.4040961,-0.163339,0.25277996,-0.3014159,0.05393523,-0.02499614,-0.12542658,-0.45968673,-0.15322891,-9.672575,0.95226496,47.691364,-1.1176149,-1.8889769,-3.5639567,-0.008623537,-0.2807233,-0.14007899,27.9375,29.125,28.25,31.9375,34.0,34.875
0.33005747,-1.9533491,-0.93926996,-1.98692,0.03673448,0.079757385,-0.12298604,-0.39878488,-0.32396725,0.059892874,-3.071779,0.6377294,-0.00024093341,-0.16157602,0.026901329,0.000103214,0.025762107,0.0027651263,-0.047354307,0.41996711,-1.4297628,1.9617585,-2.0986593,-1.5739945,2.4038112,-0.166385,0.25523698,-0.302618,0.055047527,-0.025489213,-0.11874193,-0.40222588,-0.095768064,-9.557653,0.8918391,47.687782,-1.1081069,-2.0098782,-3.5151901,0.014397063,-0.26605582,-0.14878109,27.9375,29.125,28.25,31.9375,34.0,34.875
0.33205804,-1.3572727,-0.62073,-1.8430945,0.017131088,0.077226505,-0.13107933,-0.39910704,-0.3239188,0.05990049,-3.0717201,0.6378521,-0.00018777861,-0.16282354,0.027151033,0.00042384412,0.026861234,0.0023873365,-0.05244589,0.4196433,-1.4292707,1.9611601,-2.098562,-1.5740427,2.403572,-0.16715796,0.25736108,-0.30644828,0.057550978,-0.026331684,-0.11441854,-0.6703765,0.019153614,-9.634268,0.9030289,47.66987,-1.1617199,-2.078108,-3.5541043,0.017225025,-0.2388549,-0.23737954,27.9375,29.125,28.25,31.9375,34.0,34.875
0.33405292,-1.1673974,-1.0551827,-1.839236,0.0016661658,0.09084261,-0.12576425,-0.39944547,-0.32385802,0.059911728,-3.0716178,0.63804513,-9.866275e-05,-0.16175357,0.02745808,-0.0013249099,0.02979305,-0.0020620432,-0.057014115,0.41930747,-1.4287665,1.9605368,-2.0984542,-1.5741271,2.4033706,-0.16611537,0.2606082,-0.30678916,0.059907176,-0.027180346,-0.10880457,-0.6703764,0.11492168,-9.500193,1.0305934,47.683304,-1.2075274,-2.1370788,-3.4997144,-0.0087228,-0.23276092,-0.28055492,27.9375,29.125,28.25,31.9375,34.0,34.875
0.3360525,-1.4779831,-1.628078,-1.9237773,0.00578021,0.08063585,-0.122887634,-0.39977005,-0.32382125,0.05991648,-3.0715308,0.63818014,-3.4533605e-05,-0.16431695,0.026844649,0.0007031868,0.028494364,0.003110342,-0.057899754,0.41901964,-1.4282396,1.9599026,-2.098347,-1.5741996,2.403179,-0.16633126,0.26055005,-0.31134424,0.059257563,-0.028112086,-0.10812884,-0.34476504,0.05746084,-9.576807,1.0261165,47.694946,-1.1950687,-2.1829066,-3.5894847,0.017540645,-0.206888,-0.31832972,27.9375,29.125,28.25,31.9375,34.0,34.875
0.3380524,-1.3155366,-1.9357195,-1.8840618,0.005911985,0.07030225,-0.12616962,-0.400123,-0.32374087,0.05991975,-3.071404,0.63842094,2.160636e-05,-0.16425574,0.027322503,0.00048904546,0.030407436,0.00070566055,-0.05790826,0.41863623,-1.4277124,1.959268,-2.0982254,-1.5742835,2.402963,-0.16646889,0.26200107,-0.31344798,0.06286795,-0.02888391,-0.10825414,-0.34476507,0.076614454,-9.595961,0.9254084,47.670765,-1.3161428,-2.0510645,-3.5419888,0.025696686,-0.18771857,-0.3357529,27.9375,29.125,28.25,31.9375,34.0,34.875
0.34005266,-1.2368947,-1.703423,-1.3021481,-0.009222373,0.068963654,-0.12704493,-0.40046108,-0.32371578,0.05991754,-3.0713732,0.6385683,1.655555e-05,-0.16436893,0.02814991,0.00025443567,0.03164079,-0.0020146482,-0.059893187,0.41831216,-1.4271486,1.9586095,-2.098129,-1.5742835,2.4027352,-0.1678912,0.2631282,-0.3151351,0.0664079,-0.028903928,-0.107691385,-0.51714754,0.13407528,-9.385271,0.9455522,47.66271,-1.3082643,-2.03519,-3.4981587,-0.010377962,-0.16704841,-0.3492291,27.9375,29.125,28.25,31.9375,34.0,34.875
0.34205213,-0.4780473,-1.3666649,-1.5407035,0.007727526,0.049430497,-0.12979417,-0.4007728,-0.323636,0.059907693,-3.0711985,0.6387237,3.0616382e-05,-0.1643621,0.029140322,0.0009936308,0.031752482,-0.0032375844,-0.06182671,0.41798803,-1.4266344,1.958011,-2.0979712,-1.5744036,2.4025316,-0.16979247,0.26142463,-0.31580752,0.069923654,-0.028515577,-0.10765962,-0.36391866,0.1340753,-9.308657,0.90527004,47.650166,-1.2482578,-1.8561727,-3.5123808,-0.028069232,-0.14660092,-0.37288824,27.9375,29.125,28.25,31.9375,34.0,34.875
0.34405243,-1.107753,-1.6340084,-1.9910914,0.030238722,0.0047193076,-0.11185478,-0.4011343,-0.3235781,0.059933983,-3.0711467,0.6389219,0.00012978521,-0.16529106,0.029801965,0.0017716084,0.031625118,-0.0040051406,-0.062329575,0.41761613,-1.4261315,1.9573535,-2.097863,-1.5744509,2.4022906,-0.17185114,0.26149836,-0.31853834,0.07320787,-0.028091265,-0.10921807,-0.05746084,0.19153613,-9.442732,0.9254084,47.683304,-1.2054727,-1.7340163,-3.6079307,-0.08381227,-0.125601,-0.37810555,27.9375,29.125,28.25,31.9375,34.0,34.875
0.3460518,-0.5133805,-1.6604844,-1.6123145,0.013567558,0.0029349327,-0.11482244,-0.4014511,-0.32351974,0.05993771,-3.071022,0.6390461,0.0001405826,-0.1643636,0.03022172,0.0008512521,0.03328023,-0.008758974,-0.05837897,0.4173045,-1.4256154,1.9567188,-2.0976942,-1.5745353,2.4020734,-0.17195894,0.2633581,-0.31963113,0.07742259,-0.027691964,-0.11327711,-0.076614454,0.1340753,-9.32781,0.8717007,47.6636,-1.1622722,-1.6923184,-3.605816,-0.109155014,-0.12970173,-0.36269146,27.9375,29.125,28.25,31.9375,34.0,34.875
0.34805197,0.13745299,-1.2745544,-1.3868104,0.0047546406,-0.0028877025,-0.1303239,-0.4017887,-0.32346782,0.059930507,-3.070955,0.63916314,0.00014034775,-0.16665864,0.030792134,0.0021776897,0.032592483,-0.008054015,-0.05624882,0.41695634,-1.4250642,1.9560822,-2.0975854,-1.574571,2.4018075,-0.17490478,0.2643468,-0.3246197,0.080464765,-0.027376467,-0.118352085,-0.15322891,0.05746084,-9.232041,0.9231726,47.71286,-0.996584,-1.5950289,-3.4372385,-0.14132002,-0.117701955,-0.30019706,27.9375,29.125,28.25,31.9375,34.0,34.875
0.35005257,0.12018079,-0.80939806,-1.3038377,0.016510336,-0.010570689,-0.12497327,-0.40213448,-0.32339764,0.05993049,-3.0708528,0.63938713,7.900897e-05,-0.16726162,0.031632338,0.0030132874,0.032434337,-0.008584651,-0.051431328,0.4165604,-1.4245132,1.9554127,-2.0974047,-1.5745944,2.4015653,-0.17695418,0.2633954,-0.3262528,0.08342874,-0.027048666,-0.125219,-0.076614454,0.076614454,-9.212888,0.93436235,47.70838,-0.9506165,-1.7406359,-3.3965929,-0.20570694,-0.08742073,-0.24548951,27.9375,29.125,28.25,31.9375,34.0,34.875
0.35205176,0.28796908,-0.52222604,-1.5026532,0.033431847,0.0033190518,-0.122327134,-0.40247804,-0.32333505,0.05995167,-3.0707579,0.6395561,0.00014005438,-0.16824642,0.031349447,0.0015799388,0.032415334,-0.0129013695,-0.046568256,0.4162122,-1.4240086,1.9547533,-2.0972483,-1.5746664,2.4013355,-0.17818561,0.26941139,-0.33043337,0.08548471,-0.025314908,-0.13131863,0.05746084,-0.038307227,-9.174581,1.0037369,47.664497,-0.9269251,-1.6963298,-3.3105226,-0.24893856,-0.10585372,-0.15606801,27.9375,29.125,28.25,31.9375,34.0,34.875
0.35405228,0.67188317,-0.103144705,-1.6380677,0.03549613,0.0142160915,-0.1325106,-0.40280804,-0.3232707,0.05994613,-3.0706658,0.6395553,9.729039e-05,-0.16948177,0.032195717,0.00025914924,0.03242875,-0.016111985,-0.049001943,0.4158641,-1.4234563,1.9540948,-2.0970685,-1.574726,2.4009995,-0.18138085,0.27363515,-0.33256373,0.08630975,-0.024053417,-0.13208261,0.076614454,-0.05746084,-9.346964,0.90750587,47.68062,-0.97666407,-1.8974712,-3.3110297,-0.28432265,-0.11406747,-0.10409454,27.9375,29.125,28.25,31.9375,34.0,34.875
0.3560525,-0.31803212,-0.6293547,-1.3480728,0.019311005,0.025001813,-0.121994525,-0.403145,-0.32322022,0.059963837,-3.0705976,0.6397693,7.4010095e-05,-0.1707431,0.030863883,0.0010596279,0.030402616,-0.013804239,-0.046827447,0.41550517,-1.4229394,1.9534234,-2.0968897,-1.5747379,2.4007835,-0.18036304,0.27491635,-0.33576056,0.08527834,-0.023157096,-0.13324095,-0.11492168,0.076614454,-9.174581,0.7911258,47.666286,-0.9187155,-2.013206,-3.2636414,-0.31759155,-0.11270482,-0.049033053,27.9375,29.125,28.25,31.9375,34.0,34.875
0.35805175,-1.0953555,-1.5131125,-1.6748047,0.02145345,0.032950055,-0.11780766,-0.40347284,-0.3231636,0.059978068,-3.0705147,0.6398872,3.8489998e-05,-0.17138273,0.03058514,0.000647842,0.029086387,-0.012821725,-0.052097883,0.4151579,-1.4224229,1.9527549,-2.096687,-1.5747732,2.4005213,-0.18070948,0.27607018,-0.33566746,0.0826068,-0.02235583,-0.12831894,-0.19153613,0.11492168,-9.136273,0.8940802,47.689575,-0.8984945,-1.8837821,-3.3579772,-0.29851773,-0.10424353,-0.06634666,27.9375,29.125,28.25,31.9375,34.0,34.875
0.36005202,-1.278804,-2.0332246,-1.9103378,-0.00037989367,0.059987556,-0.12510261,-0.40379173,-0.3231064,0.059958003,-3.0703826,0.6401123,-8.504839e-05,-0.17105874,0.031470917,-0.001266468,0.03030729,-0.016374065,-0.05856304,0.41480973,-1.4218456,1.9520973,-2.0964954,-1.574797,2.4003315,-0.18208747,0.27890378,-0.33465746,0.08251614,-0.02204656,-0.123231016,-0.095768064,0.2681506,-9.500193,0.8873621,47.6636,-0.82323074,-1.9308665,-3.6144624,-0.30190927,-0.11421947,-0.09523065,27.9375,29.125,28.25,31.9375,34.0,34.875
0.3620523,-1.7123915,-2.976665,-1.7367669,-0.052125376,0.08915806,-0.11636314,-0.40413687,-0.32302395,0.05994135,-3.0702436,0.64025754,-0.00012875392,-0.17277138,0.031048737,-0.0007791283,0.027968748,-0.011740216,-0.06476119,0.414426,-1.421269,1.9514388,-2.09633,-1.5748695,2.4000573,-0.18267532,0.27892002,-0.33480212,0.077467404,-0.021786945,-0.11761934,-0.30645782,0.2681506,-9.500193,0.9254084,47.652847,-0.91599745,-1.8534545,-3.7218468,-0.29307434,-0.13510801,-0.17563805,27.9375,29.125,28.25,31.9375,34.0,34.875
0.36405262,-1.7700868,-3.5996997,-1.8682592,-0.07440561,0.110906914,-0.12750918,-0.40448695,-0.32296816,0.05996842,-3.070158,0.6404313,-7.919434e-05,-0.17529736,0.029708479,0.00041510173,0.025161954,-0.0055030053,-0.06792283,0.4140791,-1.4207523,1.9507455,-2.096152,-1.5749291,2.3998306,-0.18210635,0.27983493,-0.3375961,0.072508916,-0.021740435,-0.113886714,-0.45968673,0.38307226,-9.576807,0.93436235,47.699425,-0.97736204,-1.7328167,-3.6958756,-0.23550986,-0.11273116,-0.23941326,27.9375,29.125,28.25,31.9375,34.0,34.875
0.36605188,-2.1038537,-3.3102596,-2.000439,-0.07951536,0.10161769,-0.11688384,-0.40487227,-0.32290396,0.059992786,-3.070071,0.64066297,2.6139485e-05,-0.175602,0.028106598,0.0014358538,0.024258977,-0.003204665,-0.07049475,0.4136968,-1.4201996,1.9500273,-2.0960205,-1.5750011,2.3996048,-0.17915678,0.2800064,-0.3402843,0.07256676,-0.021828031,-0.108364485,-0.4405331,0.38307226,-9.634268,0.9992599,47.72092,-1.1199535,-1.702132,-3.69493,-0.22668889,-0.10296562,-0.29814085,27.9375,29.125,28.25,31.9375,34.0,34.875
0.36805332,-1.8139712,-2.8934157,-2.1044497,-0.07688293,0.102237254,-0.12456865,-0.40519372,-0.3228474,0.05997873,-3.069967,0.64086974,-4.5693363e-05,-0.17841506,0.026265115,0.0036516879,0.020032246,0.005157538,-0.070407994,0.4133492,-1.4196477,1.9493927,-2.095867,-1.575025,2.3994005,-0.17819037,0.27925614,-0.34340072,0.067070104,-0.02134495,-0.10748343,-0.4405331,0.36391866,-9.691729,0.8560339,47.694946,-1.2203608,-1.5185057,-3.6721394,-0.19375363,-0.109643295,-0.3695861,27.9375,29.125,28.25,31.9375,34.0,34.875
0.37005213,-1.7455812,-2.8276606,-2.3553345,-0.04720991,0.084645875,-0.11892648,-0.40554652,-0.3228002,0.059981126,-3.069888,0.6411441,-9.42078e-07,-0.18109144,0.026176373,0.004219064,0.018252596,0.0076027573,-0.0770742,0.4130015,-1.4190942,1.9487313,-2.095771,-1.5750607,2.3992348,-0.18040843,0.28162396,-0.3472236,0.06557788,-0.02069386,-0.10303633,-0.3256114,0.4405331,-9.691729,0.9097417,47.691364,-1.3165166,-1.4262855,-3.5052083,-0.13379261,-0.12832357,-0.42279005,27.9375,29.125,28.25,31.9375,34.0,34.875
0.37205246,-1.8367368,-2.5174303,-2.547974,-0.012739751,0.054680053,-0.11902838,-0.4059252,-0.322762,0.06000476,-3.0698543,0.6412689,4.061485e-05,-0.18180345,0.025918124,0.0020965713,0.019291852,0.0045610326,-0.076940864,0.41264212,-1.4185152,1.9479784,-2.0956156,-1.5750846,2.3989582,-0.18047014,0.28785658,-0.34949502,0.06480861,-0.020431656,-0.10323108,-0.34476504,0.36391866,-9.883265,1.0104496,47.691364,-1.2936525,-1.6546592,-3.5604913,-0.10577692,-0.110205375,-0.4864056,27.9375,29.125,28.25,31.9375,34.0,34.875
0.37405184,-0.60739356,-2.066887,-2.5645468,-0.0068039102,0.061469313,-0.12667498,-0.40629458,-0.3226958,0.05998582,-3.0697176,0.64156353,6.782844e-05,-0.18182713,0.027218074,0.000255345,0.021296311,0.0012858921,-0.07580837,0.41227067,-1.4179016,1.9472965,-2.0955198,-1.5751566,2.3987892,-0.18230529,0.29081073,-0.34888637,0.06502363,-0.020967728,-0.106196,-0.4213795,0.38307226,-9.883265,0.9545008,47.658226,-1.281814,-1.8607273,-3.593886,-0.06401847,-0.1277996,-0.49197537,27.9375,29.125,28.25,31.9375,34.0,34.875
0.3760518,-1.2569563,-2.4579608,-2.4012558,-0.027509829,0.05307763,-0.12381198,-0.4066456,-0.32265344,0.06001086,-3.0696812,0.6416873,0.00013733041,-0.18218483,0.02755132,-0.0005187597,0.02219092,-0.0006846394,-0.070373446,0.4119348,-1.4173841,1.9466156,-2.0953877,-1.5751928,2.3985357,-0.1829707,0.29329583,-0.35035974,0.06613757,-0.02101757,-0.11229627,-0.26815057,0.38307226,-9.883265,0.9231726,47.64479,-1.2533993,-1.8180385,-3.7758424,-0.046708766,-0.13198094,-0.48411983,27.9375,29.125,28.25,31.9375,34.0,34.875
