Tylouw/Master_Thesis_Code/training_data/batch_1/big_rod_t0.3/sample_84_session_3.csv
timestamp[s],tcp_force_x[N],tcp_force_y[N],tcp_force_z[N],tcp_force_rx[Nm?],tcp_force_ry[Nm?],tcp_force_rz[Nm?],tcp_pose_x[m],tcp_pose_y[m],tcp_pose_z[m],tcp_pose_rx[rot_vec_x],tcp_pose_ry[rot_vec_y],tcp_pose_rz[rot_vec_z],tcp_velo_x[m/s],tcp_velo_y[m/s],tcp_velo_z[m/s],tcp_velo_rx[rot_vec_x/s],tcp_velo_ry[rot_vec_y/s],tcp_velo_rz[rot_vec_z/s],q1[rad],q2[rad],q3[rad],q4[rad],q5[rad],q6[rad],qd1[rad/s],qd2[rad/s],qd3[rad/s],qd4[rad/s],qd5[rad/s],qd6[rad/s],tool_acc_x,tool_acc_y,tool_acc_z,current_of_whole_robot[A],voltage_of_whole_robot[V],current_J1[A],current_J2[A],current_J3[A],current_J4[A],current_J5[A],current_J6[A],temp_J1[C],temp_J2[C],temp_J3[C],temp_J4[C],temp_J5[C],temp_J6[C]
1.303968e-06,-1.0890908,-1.5779071,-0.31716415,-0.027626114,0.018266363,0.0078669675,-0.3728665,-0.32820722,0.05991876,-3.0784621,0.62492007,-0.0003633105,0.0027590606,0.0013352305,-0.0038949926,0.0039927973,-0.008667317,-0.00018040645,0.44812617,-1.470861,2.0096323,-2.107703,-1.5706376,2.4230795,-0.00011732445,0.003959949,0.004293162,0.0012878029,0.00016884824,6.0433762e-05,0.019153614,0.22984336,-8.944737,0.74413085,47.709274,-0.27059907,-2.9136977,-2.4633145,-0.4766795,0.08171117,0.015229511,27.875,29.125,28.1875,31.875,33.9375,34.8125
0.002054984,-0.6762743,-0.8455797,-0.4518344,-0.026946938,0.019635629,0.0053341226,-0.37290844,-0.3282102,0.059934374,-3.0784552,0.62491846,-0.00025326028,0.00040191796,0.00019543698,-0.0032533167,0.0004443677,-0.0013210021,-0.00017505653,0.44812617,-1.4708251,2.0095608,-2.1077187,-1.5706857,2.4230795,-0.00011517977,0.0041237986,0.0046149273,-0.007356216,0.00016497943,5.9632945e-05,0.095768064,0.24899697,-8.925584,0.7038487,47.705692,-0.25934303,-2.7715335,-2.3589556,-0.4616711,0.08340283,0.012843229,27.875,29.125,28.1875,31.875,33.9375,34.8125
0.00405486,-0.8221097,-0.47095427,-0.5017622,-0.012611244,0.0063724774,0.0016066075,-0.3728785,-0.32819352,0.059902653,-3.0784056,0.62485087,-0.00031959248,-0.0005257935,-0.0002528168,-0.002572041,-0.0010908258,0.001866036,-0.00017142773,0.4481382,-1.4708135,2.009621,-2.1077192,-1.5707096,2.4230556,-0.00011311195,0.0034243688,0.004424647,-0.0100040175,0.00016128377,5.885302e-05,0.076614454,0.19153613,-8.90643,0.75084364,47.71465,-0.26350328,-3.018258,-2.6149118,-0.36806756,0.08523089,0.018775161,27.875,29.125,28.1875,31.875,33.9375,34.8125
0.006054372,-0.5920337,-0.35768542,-0.5564162,0.0065687476,-0.0087056635,0.0053751124,-0.37288046,-0.3282375,0.05990839,-3.0785058,0.624871,-0.00032653086,-2.3950826e-05,-9.65858e-06,-0.0018137421,-0.00031973864,0.00028633012,-0.00016929995,0.4481623,-1.4708018,2.009608,-2.1077764,-1.5706257,2.4230795,-0.00011111687,0.0022085765,0.0030202228,-0.005625968,0.00015774992,5.8093214e-05,0.019153614,0.076614454,-8.963891,0.6725152,47.737038,-0.21142781,-3.0014462,-2.5493631,-0.40474153,0.082366385,0.009357106,27.875,29.125,28.1875,31.875,33.9375,34.8125
0.008054027,-0.55516994,0.22785337,-1.0245163,0.02684903,-0.032996863,0.007803764,-0.37287456,-0.32821935,0.05990506,-3.0784564,0.62476456,-0.00031428246,0.00042973502,0.00021006771,-0.0014119946,0.00043372385,-0.0012602417,-0.0001671346,0.4481742,-1.4708021,2.0096076,-2.1077397,-1.5706857,2.4230313,-0.000109190936,0.0015655458,0.0020415343,-0.0022839056,0.00015436759,5.7352827e-05,0.095768064,0.05746084,-9.097966,0.7396539,47.74241,-0.23746675,-2.924244,-2.505718,-0.43694317,0.09089553,0.0097041065,27.875,29.125,28.1875,31.875,33.9375,34.8125
0.010054334,-0.53230613,0.037960403,-1.3548932,0.03920647,-0.024553562,0.0060402416,-0.37286413,-0.32820824,0.059881967,-3.0784187,0.62491107,-0.00042408003,0.00049027475,0.00024481918,-0.0012876319,0.00063943956,-0.0016779151,-0.00017466857,0.4481382,-1.4707781,2.0096314,-2.1077273,-1.5706495,2.4230914,-0.000117422496,0.0015172954,0.0015888485,-0.0013173884,0.00015112734,5.663108e-05,0.0,0.038307227,-9.232041,0.679228,47.698532,-0.71266246,-2.4452262,-2.9602802,-0.46185142,0.081656955,-0.018729312,27.875,29.125,28.1875,31.875,33.9375,34.8125
0.01205387,-0.95163405,-0.46265602,-1.4590598,0.0015302676,-0.0085216025,0.0017566453,-0.37282375,-0.32820085,0.059841122,-3.0783765,0.62478864,-0.00056014943,-0.0009805232,0.0019319818,-0.0031974376,0.0026241061,-0.0058014556,-0.004678196,0.44816107,-1.4707408,2.0096786,-2.107703,-1.5706495,2.4230433,-0.004631454,0.0067445873,2.7669352e-05,-0.00040720013,0.00014802025,4.761779e-05,-0.019153614,0.0,-9.404425,0.7933669,47.728977,-0.8554001,-2.2486868,-3.0727026,-0.46707952,0.06774867,-0.058082312,27.875,29.125,28.1875,31.875,33.9375,34.8125
0.014054197,-1.1411879,-1.4771073,-1.630706,-0.024693586,0.02475636,0.0020924448,-0.37286115,-0.32820496,0.05986629,-3.0783951,0.6248735,-0.00048761422,-0.0049506454,0.0029120382,-0.0044699614,0.0035772312,-0.007825295,-0.010018648,0.44813475,-1.4707373,2.009617,-2.107703,-1.5706495,2.4230676,-0.010097357,0.015161823,-0.0063262056,-0.00023363103,0.00015260509,-7.272588e-05,-0.11492169,0.05746084,-9.634268,0.75084364,47.7451,-0.44979525,-2.9209023,-2.9351377,-0.48357502,0.06937254,-0.106037974,27.875,29.125,28.1875,31.875,33.9375,34.8125
0.016054492,-2.2120023,-2.0748928,-1.9185377,-0.052806877,0.041069385,0.0004105193,-0.3728554,-0.32819763,0.05984995,-3.078388,0.6247541,-0.00052028405,-0.005829151,0.0032020258,-0.0038695342,0.0030584394,-0.0067488467,-0.007731752,0.4481342,-1.4707136,2.0096285,-2.107703,-1.5706614,2.4229934,-0.011440702,0.014738509,-0.00728016,-5.18683e-05,0.00015020445,-0.0037025143,-0.38307226,0.22984336,-9.768343,0.7463667,47.737038,-0.45341164,-2.856719,-3.0974247,-0.48276144,0.08824178,-0.11693341,27.875,29.125,28.1875,31.875,33.9375,34.8125
0.018053984,-2.7374268,-2.482637,-1.7718093,-0.067628086,0.0774678,0.0008772152,-0.37283933,-0.32818776,0.059822436,-3.0783224,0.62483567,-0.0006508018,-0.005599628,0.0034512386,-0.0036621538,0.0029118157,-0.006467586,-0.004464484,0.4481222,-1.470666,2.0096285,-2.1076553,-1.5706495,2.4230406,-0.011706507,0.013492784,-0.0064004343,-3.3866293e-06,0.00015979489,-0.007236365,-0.4405331,0.19153613,-9.844957,0.78888994,47.71465,-0.6751641,-2.5771399,-3.2708893,-0.48708862,0.08936505,-0.09512858,27.875,29.125,28.1875,31.875,33.9375,34.8125
0.020054283,-2.8077009,-1.8324435,-1.9206618,-0.072498836,0.10159101,-0.008598849,-0.37284648,-0.32816985,0.059803717,-3.0782912,0.6248881,-0.0007234415,-0.006114611,0.0037164744,-0.0042545544,0.0033905543,-0.0075360965,-0.005795697,0.44807386,-1.4706295,2.0096285,-2.107643,-1.5706376,2.423029,-0.012695229,0.015458764,-0.007199111,-2.2112268e-07,0.00018907679,-0.0068931533,-0.5554548,0.2681506,-9.921572,0.73741806,47.755844,-0.7753084,-2.495215,-3.4781046,-0.49793208,0.088985965,-0.115640655,27.875,29.125,28.1875,31.875,33.9375,34.8125
0.022054408,-3.3712914,-1.9716787,-1.8859812,-0.042085428,0.08503405,-0.00031195846,-0.37286165,-0.32818127,0.05981416,-3.078312,0.62491256,-0.00070383534,-0.0080565205,0.0036171805,-0.0035165397,0.002139827,-0.006114543,-0.0077128103,0.44807315,-1.4706169,2.0095909,-2.107643,-1.5706252,2.4230409,-0.01461846,0.016820733,-0.010386104,-1.443773e-08,0.000693891,-0.006898207,-0.61291564,0.3256114,-9.902418,0.7777002,47.749577,-0.73883903,-2.4927123,-3.5234504,-0.5082657,0.096853554,-0.15186678,27.875,29.125,28.1875,31.875,33.9375,34.8125
0.024054581,-2.7712421,-0.7918609,-1.8555256,-0.036839392,0.08183726,-0.016502634,-0.3728907,-0.32818434,0.0598103,-3.0783203,0.6248958,-0.00066280464,-0.009716554,0.0035863756,-0.0034001982,0.0014018662,-0.00591996,-0.008909005,0.44806054,-1.4705683,2.0095546,-2.1076791,-1.5706371,2.4230168,-0.01646127,0.019188428,-0.013251122,-9.426805e-10,0.0012683185,-0.0075439154,-0.7278373,0.19153613,-9.883265,0.784413,47.7245,-0.8255242,-2.4758167,-3.4422522,-0.5122012,0.086749464,-0.18717006,27.875,29.125,28.1875,31.875,33.9375,34.8125
0.026053946,-2.4692397,-0.8625383,-1.9418639,-0.014696578,0.07436801,-0.021699728,-0.3729067,-0.32817516,0.05979683,-3.0783148,0.62491304,-0.0007304121,-0.010396465,0.0030507618,-0.0027428297,-0.0008871805,-0.0053668516,-0.0078019192,0.44801217,-1.4705205,2.0095303,-2.1076672,-1.5706128,2.4229798,-0.017303944,0.01906395,-0.014623248,-6.15503e-11,0.003087119,-0.009496802,-0.7469909,0.13407528,-9.787497,0.7978386,47.752266,-0.74701965,-2.4170756,-3.33132,-0.5151111,0.08267011,-0.18644409,27.875,29.125,28.1875,31.875,33.9375,34.8125
0.0280541,-2.8383455,-1.5591513,-1.9250505,-0.0060627107,0.071766995,-0.032562785,-0.37292293,-0.32814232,0.059770986,-3.07825,0.62491786,-0.0007981271,-0.011663362,0.003195501,-0.0018414764,-0.0020209362,-0.003669412,-0.007377721,0.44795176,-1.4704607,2.0095184,-2.107643,-1.5706366,2.4229307,-0.018918213,0.018591847,-0.016173486,-4.018795e-12,0.0033680773,-0.01153526,-0.8236054,0.095768064,-9.787497,0.65684843,47.688675,-0.7818138,-2.349899,-3.4109735,-0.51348895,0.0652415,-0.18746418,27.875,29.125,28.1875,31.875,33.9375,34.8125
0.030054111,-2.9507728,-1.3660593,-1.6740177,-0.025223183,0.079774015,-0.036709834,-0.37296784,-0.3281363,0.05980217,-3.0782807,0.62500113,-0.0007325492,-0.012320733,0.0033017925,-0.0020094223,-0.0012997532,-0.003587567,-0.0065461653,0.44789153,-1.4704721,2.0094569,-2.1076314,-1.5706247,2.4229186,-0.019248536,0.020077644,-0.017418051,-2.623986e-13,0.0026797208,-0.012694469,-0.7469909,0.05746084,-9.80665,0.7732232,47.754948,-0.8174845,-2.3471932,-3.343562,-0.5283896,0.05583673,-0.20146583,27.875,29.125,28.1875,31.875,33.9375,34.8125
0.03205407,-2.5558624,-1.1819612,-1.5240633,-0.027055833,0.10072353,-0.057907436,-0.37298086,-0.32815313,0.05978285,-3.07829,0.62500226,-0.0007446757,-0.013785125,0.0030924727,-0.0012047226,-0.0018320815,-0.0017150863,-0.0056451214,0.44790322,-1.4704001,2.009433,-2.1076791,-1.5706128,2.4229298,-0.019958124,0.020803286,-0.020060847,-1.7132754e-14,0.0023419415,-0.014302677,-0.6512229,0.076614454,-9.615114,0.7418897,47.73077,-0.84621334,-2.3073316,-3.3546464,-0.53385437,0.07801049,-0.19935519,27.875,29.125,28.1875,31.875,33.9375,34.8125
0.034054242,-2.831842,-1.0852693,-1.5188849,-0.0060905116,0.081879884,-0.069262795,-0.37301964,-0.32815683,0.059794236,-3.0783067,0.62500626,-0.00074067985,-0.015210632,0.003273901,-0.00070651947,-0.0023015335,-0.0005823891,-0.006193996,0.4478668,-1.4703519,2.0093486,-2.1076553,-1.5706009,2.4228938,-0.021545425,0.021630755,-0.022112176,-1.1186464e-15,0.002269696,-0.015339559,-0.59376204,0.11492168,-9.653421,0.7396539,47.691364,-0.82107556,-2.3873777,-3.3576937,-0.54083914,0.07150462,-0.17029124,27.875,29.125,28.1875,31.875,33.9375,34.8125
0.036054038,-2.4156814,-0.58971053,-1.5544885,0.011554833,0.059651077,-0.080587365,-0.3730763,-0.32812873,0.05979935,-3.078293,0.62510014,-0.0006988447,-0.015867272,0.003271967,-0.000944031,-0.0029118804,-0.0013177834,-0.007738483,0.44777045,-1.4703153,2.0092995,-2.1076672,-1.5706128,2.4228578,-0.022723552,0.023154663,-0.023240488,-7.303962e-17,0.0031365359,-0.014974054,-0.45968673,-0.114921674,-9.615114,0.7642693,47.716442,-0.8059083,-2.3816981,-3.3595033,-0.53034973,0.07653863,-0.19314262,27.875,29.125,28.1875,31.875,33.9375,34.8125
0.038054332,-1.3221273,-0.346469,-1.6124184,0.028604787,0.049898304,-0.10331111,-0.37310445,-0.32812956,0.05979223,-3.078289,0.6251188,-0.0007010097,-0.016625721,0.003246806,-0.00095213664,-0.0036363576,-0.0014559006,-0.008341342,0.44774607,-1.470255,2.0092523,-2.1076791,-1.5706123,2.4228456,-0.023845658,0.024267009,-0.024414212,-0.00013030197,0.0038462644,-0.015493887,-0.30645782,-0.17238252,-9.5385,0.83813137,47.70032,-0.85263705,-2.3590279,-3.3719234,-0.5246304,0.07331916,-0.19149238,27.875,29.125,28.1875,31.875,33.9375,34.8125
0.04005444,-1.5253339,-0.17633602,-1.453704,0.021512305,0.011601963,-0.10548507,-0.37311208,-0.32811615,0.059771594,-3.0782838,0.6251381,-0.00076713396,-0.018259078,0.0030439382,0.00015707777,-0.005532327,0.0012341252,-0.009258011,0.4476974,-1.4702193,2.0092633,-2.1076915,-1.570588,2.4228096,-0.025311682,0.023910934,-0.026350474,-0.0010850502,0.0043837335,-0.016043143,-0.22984336,-0.038307227,-9.5385,0.74413085,47.701214,-0.7531178,-2.2511463,-3.3580523,-0.5298347,0.05419173,-0.18970507,27.875,29.125,28.1875,31.875,33.9375,34.8125
0.042054664,-1.2431359,-0.7957246,-1.5599539,0.021847196,-0.0030278713,-0.119419366,-0.37318277,-0.3281222,0.05979671,-3.078301,0.6251803,-0.00065237866,-0.020109385,0.0030380506,0.00060503685,-0.006711364,0.004051975,-0.009993524,0.44766095,-1.4701592,2.0091426,-2.1077044,-1.5706123,2.4227974,-0.026866738,0.02477166,-0.027750548,-0.00359597,0.004219006,-0.01686031,-0.095768064,-0.019153614,-9.481039,0.7463667,47.675243,-0.7342932,-2.241518,-3.279326,-0.48324424,0.042316496,-0.20972015,27.875,29.125,28.1875,31.875,33.9375,34.8125
0.04405456,-0.8850649,-0.721667,-1.5255821,0.002391964,0.0059260214,-0.13319246,-0.37324885,-0.32808584,0.059798006,-3.0782652,0.6253071,-0.0006421013,-0.02124572,0.0033404848,0.0007748442,-0.006621816,0.004440768,-0.010317996,0.44754055,-1.4700989,2.0090706,-2.107692,-1.5706242,2.4227607,-0.028292524,0.025929578,-0.029469037,-0.0033460557,0.003967063,-0.017959967,-0.05746084,0.019153614,-9.423578,0.8157518,47.67166,-0.7076934,-2.2066464,-3.3168974,-0.47242677,0.06615642,-0.20019656,27.875,29.125,28.1875,31.875,33.9375,34.8125
0.046053912,-1.0466671,-1.0501345,-1.4365788,-0.005630704,0.0068031317,-0.13256843,-0.37327948,-0.32809404,0.059796736,-3.0782838,0.6252535,-0.0006270453,-0.021923771,0.0037038503,0.0006601831,-0.0061342465,0.0036305357,-0.010160466,0.4475281,-1.4700385,2.00901,-2.107704,-1.5706242,2.4227126,-0.029529756,0.027280513,-0.030930035,-0.0022943509,0.003876896,-0.019353718,-0.05746084,0.11492168,-9.481039,0.8023209,47.71554,-0.70906687,-2.2402065,-3.2954938,-0.49080563,0.054555148,-0.18631242,27.875,29.125,28.1875,31.875,33.9375,34.8125
0.048054207,-0.7628943,-1.403857,-1.5970029,-0.010052724,0.015244044,-0.1121856,-0.3733256,-0.3280799,0.059804626,-3.078287,0.6253699,-0.0006347979,-0.022803102,0.0041034766,0.0010138657,-0.006292911,0.0039569987,-0.010104793,0.4474435,-1.4700024,2.0089495,-2.1076915,-1.5706004,2.4227002,-0.031075858,0.027515894,-0.032139827,-0.0016822685,0.0038773234,-0.020954866,0.019153614,0.11492168,-9.442732,0.7284641,47.71465,-0.68647105,-2.2187595,-3.3483152,-0.48679474,0.07165564,-0.18039823,27.875,29.125,28.1875,31.875,33.9375,34.8125
0.050054103,-0.97489965,-1.4135512,-1.7366728,-0.019879803,0.010789575,-0.10517273,-0.3733577,-0.32808918,0.059781402,-3.0783236,0.6252619,-0.0006995306,-0.023904033,0.004363053,0.0014933366,-0.006515433,0.004812174,-0.00980969,0.44740707,-1.4698945,2.00889,-2.1077158,-1.5705642,2.4225917,-0.032443676,0.027916588,-0.033763587,-0.001325041,0.0037040566,-0.022616597,0.05746084,0.21068975,-9.481039,0.74413085,47.701214,-0.690336,-2.1570191,-3.3567247,-0.48005956,0.0641371,-0.16758114,27.875,29.125,28.1875,31.875,33.9375,34.8125
0.052054718,-0.89199805,-1.6810037,-1.700355,-0.030891754,0.012233044,-0.109213844,-0.3734283,-0.32806733,0.05981078,-3.078292,0.62540895,-0.0005785224,-0.024863988,0.00458226,0.0017290247,-0.006798062,0.005157501,-0.009556523,0.44733453,-1.4698703,2.008793,-2.1077034,-1.5706123,2.422615,-0.033792533,0.028664168,-0.0351777,-0.0010934691,0.0038080423,-0.02421771,-0.019153614,0.28730422,-9.5385,0.77545905,47.70032,-0.65175354,-2.0908577,-3.3644319,-0.49737108,0.06502493,-0.16621292,27.875,29.125,28.1875,31.875,33.9375,34.8125
0.054054186,-0.9178922,-1.7497517,-1.7887061,-0.040468603,0.014963871,-0.09628869,-0.37346885,-0.32804212,0.059803776,-3.0782743,0.6254624,-0.000592869,-0.02563074,0.0048426087,0.0019340524,-0.006813346,0.0055858316,-0.009349259,0.44725025,-1.4698222,2.0087564,-2.1077034,-1.5706123,2.4225664,-0.03485638,0.029132871,-0.036200736,-0.00093112665,0.0036344333,-0.025487876,-0.076614454,0.3256114,-9.500193,0.78217715,47.698532,-0.67539424,-2.0645435,-3.4225082,-0.49770302,0.0750663,-0.1589917,27.875,29.125,28.1875,31.875,33.9375,34.8125
0.056054484,-1.201112,-2.048197,-1.7913014,-0.036893368,0.0076426645,-0.10142208,-0.37350717,-0.32803097,0.05980273,-3.0782714,0.62550086,-0.00064632006,-0.026193809,0.0049185734,0.0017187662,-0.0065925857,0.00519836,-0.008876398,0.44717795,-1.4697618,2.0086844,-2.1076677,-1.570588,2.4225185,-0.035483558,0.03055536,-0.037297696,-0.0008108995,0.0036002025,-0.02658709,-0.038307227,0.36391866,-9.5385,0.7217513,47.716442,-0.63907975,-2.0203865,-3.4136677,-0.49484238,0.07944425,-0.14933847,27.875,29.125,28.1875,31.875,33.9375,34.8125
0.05805454,-1.2959257,-1.9200796,-1.8366398,-0.042985342,0.010010522,-0.09709406,-0.37355635,-0.32803765,0.059804678,-3.0783222,0.625491,-0.00060975284,-0.027041884,0.004784975,0.0018419973,-0.0071979184,0.0052747205,-0.008438388,0.44712973,-1.4697016,2.0086248,-2.1077158,-1.5705642,2.4224577,-0.03634335,0.031773433,-0.03894012,-0.0007182357,0.0041106762,-0.027884597,-0.019153614,0.3256114,-9.672575,0.72622824,47.66091,-0.70567554,-2.0078146,-3.4162695,-0.4938014,0.06246829,-0.119888425,27.875,29.125,28.1875,31.875,33.9375,34.8125
0.060053788,-1.1587979,-1.702969,-1.6929839,-0.04573377,0.02790316,-0.10584369,-0.37361357,-0.32801825,0.059801456,-3.0783162,0.62556684,-0.00062215584,-0.028136225,0.0050424216,0.0020651664,-0.0074848016,0.0057405843,-0.008601465,0.44703323,-1.4696294,2.0085528,-2.1077154,-1.5705522,2.4224093,-0.037850887,0.032657813,-0.040441744,-0.0006446123,0.004164986,-0.029228155,-0.019153614,0.2681506,-9.557653,0.8224646,47.711063,-0.73016405,-1.9926977,-3.4312706,-0.49170262,0.07262453,-0.11458643,27.875,29.125,28.1875,31.875,33.9375,34.8125
0.062053747,-2.001255,-1.8871386,-1.6649694,-0.03309042,0.025632143,-0.0973342,-0.37367228,-0.32801464,0.059817698,-3.0783234,0.62560576,-0.00059179467,-0.02868827,0.004874166,0.0019654152,-0.0076125334,0.005526872,-0.007933286,0.4469731,-1.469569,2.0084436,-2.107691,-1.5705522,2.4223726,-0.038169224,0.034050897,-0.041757762,-0.00058469846,0.0043706084,-0.03021399,-0.076614454,0.2681506,-9.576807,0.779936,47.703903,-0.711498,-1.94052,-3.460464,-0.4949767,0.06307092,-0.12753478,27.875,29.125,28.1875,31.875,33.9375,34.8125
0.06405458,-1.9352264,-1.5667646,-1.7957051,-0.028223243,0.04233521,-0.10026769,-0.37373185,-0.32798368,0.059809394,-3.078307,0.6256989,-0.0006183198,-0.029888736,0.0047264416,0.0025275014,-0.008316469,0.0066615636,-0.0077012456,0.44685274,-1.4694968,2.0083835,-2.107691,-1.5705403,2.4223125,-0.039067667,0.034808077,-0.043891765,-0.0005349905,0.0045107254,-0.031343427,-0.15322891,0.22984336,-9.557653,0.75755644,47.723602,-0.79961556,-2.0142214,-3.4618416,-0.49578688,0.07178536,-0.10244542,27.875,29.125,28.1875,31.875,33.9375,34.8125
0.066054836,-2.2499225,-1.7501701,-1.7206246,-0.012920493,0.040959578,-0.09702109,-0.3738056,-0.32799822,0.05984135,-3.0783935,0.6256195,-0.00050968764,-0.03073886,0.0046495176,0.0028446538,-0.008867376,0.007242124,-0.006989245,0.4468045,-1.4694487,2.0082629,-2.1077154,-1.5705274,2.4222038,-0.03985274,0.03548641,-0.0453739,-0.0004930794,0.004756514,-0.032839548,-0.21068975,0.2873042,-9.481039,0.69041777,47.71286,-0.77426887,-1.9448438,-3.397821,-0.5110513,0.07614337,-0.08553563,27.875,29.125,28.1875,31.875,33.9375,34.8125
0.06805459,-2.0283887,-1.259148,-1.5702244,-0.019123048,0.045374136,-0.093856454,-0.37385806,-0.32799372,0.05983761,-3.0783932,0.6257153,-0.0005329032,-0.03126826,0.0046493625,0.00216765,-0.008590672,0.005902785,-0.0061516934,0.44673225,-1.4693639,2.0081785,-2.1077154,-1.5705036,2.4221914,-0.040548306,0.03803068,-0.04662658,-0.00045726227,0.005083102,-0.03437215,-0.28730422,0.24899697,-9.500193,0.7597976,47.721813,-0.8056592,-1.9425739,-3.489295,-0.4966669,0.04328361,-0.06211215,27.875,29.125,28.1875,31.875,33.9375,34.8125
0.07005545,-1.9082506,-1.1066663,-1.3762279,-0.013117089,0.039882105,-0.097513534,-0.37392372,-0.32798904,0.059857264,-3.0784261,0.6256844,-0.00044830737,-0.032362368,0.0046571963,0.0021621073,-0.008687156,0.006014189,-0.007474059,0.44667196,-1.4693154,2.0080826,-2.1077268,-1.5705155,2.4221077,-0.041573722,0.039842118,-0.048611358,-0.00042629932,0.0051205275,-0.03407351,-0.28730422,0.19153613,-9.461885,0.80456203,47.72629,-0.8109628,-1.9805328,-3.4633484,-0.4863078,0.065543406,-0.05499395,27.875,29.125,28.1875,31.875,33.9375,34.8125
0.07205376,-1.907872,-0.8520999,-1.537569,-0.011780822,0.038519785,-0.10063935,-0.37398592,-0.3279782,0.05986144,-3.0784197,0.6257624,-0.00046055578,-0.033729818,0.005076486,0.002620227,-0.009458397,0.006836139,-0.011058662,0.44658715,-1.4692314,2.0079753,-2.107703,-1.5705036,2.4220724,-0.04382178,0.040272374,-0.05014345,-0.00039926666,0.005459193,-0.032736618,-0.34476504,0.1340753,-9.423578,0.784413,47.737038,-0.78731203,-1.9355023,-3.3934278,-0.47808677,0.051541045,-0.06759533,27.875,29.125,28.1875,31.875,33.9375,34.8125
0.07405365,-1.4245288,-0.6541326,-1.4565574,-0.012390907,0.0481578,-0.102805555,-0.3740544,-0.32796428,0.059840143,-3.0784013,0.62579757,-0.0005155618,-0.03486295,0.004969854,0.0026460413,-0.009673725,0.0069968156,-0.012211548,0.4464908,-1.469087,2.0078657,-2.107703,-1.5704917,2.4220004,-0.04472081,0.04221045,-0.052342746,-0.0003754581,0.0055793715,-0.032481577,-0.36391866,0.095768064,-9.3661175,0.779936,47.694946,-0.81454736,-1.8894339,-3.40422,-0.4856069,0.060726035,-0.08316229,27.875,29.125,28.1875,31.875,33.9375,34.8125
0.076054044,-1.8457862,-0.77529484,-1.459914,-0.00014659429,0.042811815,-0.089798935,-0.37413362,-0.32797098,0.059868738,-3.078472,0.6258099,-0.00046025557,-0.034746762,0.00435684,0.0022957295,-0.009566797,0.006312239,-0.009326041,0.44640738,-1.4690264,2.0077336,-2.107703,-1.5704559,2.4219158,-0.04358899,0.043767966,-0.05325672,-0.00035433198,0.0057792002,-0.03423444,-0.34476504,0.05746084,-9.3661175,0.8112748,47.73614,-0.9413538,-1.9732602,-3.3941784,-0.48942775,0.046448432,-0.059003845,27.875,29.125,28.1875,31.875,33.9375,34.8125
0.07805439,-1.5666653,-0.38567892,-1.2430888,-0.0078115407,0.059317283,-0.100207515,-0.37418133,-0.32794234,0.059856433,-3.0784364,0.6258416,-0.00051994674,-0.036611076,0.0047478043,0.00304509,-0.010631878,0.007754347,-0.011443724,0.4463103,-1.4689426,2.0076616,-2.1076672,-1.5704559,2.421843,-0.046229046,0.044314574,-0.055583384,-0.0003354574,0.0061117182,-0.034756243,-0.36391866,0.1340753,-9.308657,0.6926589,47.713753,-0.89441717,-1.8617411,-3.4348264,-0.47364414,0.059376776,-0.06463989,27.875,29.125,28.1875,31.875,33.9375,34.8125
0.080054484,-2.1772187,-0.7217563,-1.2259253,-0.00035753936,0.043479107,-0.09159464,-0.37424833,-0.32793605,0.059849437,-3.0784366,0.625881,-0.00050385174,-0.038588535,0.0047564064,0.0036151614,-0.010981608,0.009231639,-0.012150264,0.44623777,-1.4688342,2.0075638,-2.107691,-1.5704559,2.4217951,-0.047804903,0.046176378,-0.058944035,-0.0003184929,0.0057835234,-0.035622593,-0.3256114,0.095768064,-9.346964,0.81351066,47.72719,-0.79819715,-1.8796024,-3.2738729,-0.48190027,0.05252185,-0.05833271,27.875,29.125,28.1875,31.875,33.9375,34.8125
0.08205421,-1.76951,-0.49644518,-1.1213665,-0.01169109,0.050029896,-0.1046788,-0.3743533,-0.3279351,0.05989153,-3.078509,0.62591624,-0.00034265642,-0.038245946,0.006087659,0.0015452324,-0.009044863,0.005062964,-0.01413363,0.44614097,-1.4687852,2.0074217,-2.1077268,-1.5704559,2.4217112,-0.050024778,0.049019374,-0.057362385,-0.0001464346,0.005844624,-0.035859007,-0.38307226,0.076614454,-9.385271,0.82022345,47.74331,-0.7285543,-2.011324,-3.4201212,-0.47272983,0.05756346,-0.044063427,27.875,29.125,28.1875,31.875,33.9375,34.8125
0.08405428,-1.8129003,-0.85801667,-1.2210094,-0.018607466,0.04971909,-0.098389626,-0.37441105,-0.3279357,0.059871897,-3.0785222,0.62597704,-0.00041686653,-0.03910622,0.0053399615,0.0031031116,-0.010723717,0.008016247,-0.015211934,0.44605723,-1.4686539,2.0073254,-2.1077392,-1.5704077,2.4216638,-0.049547326,0.047535915,-0.059322726,-9.0013506e-05,0.0060813897,-0.03430289,-0.40222588,0.11492168,-9.289503,0.779936,47.71465,-0.78157437,-1.8389828,-3.439775,-0.45181084,0.041025765,-0.06843974,27.875,29.125,28.1875,31.875,33.9375,34.8125
0.086054444,-1.9230416,-0.8433044,-1.288643,-0.018451754,0.044152025,-0.10859828,-0.37449798,-0.32791138,0.059895776,-3.0785031,0.62605095,-0.00036339267,-0.041321415,0.0047821263,0.0040821237,-0.011502101,0.010351646,-0.016644917,0.445949,-1.4685814,2.00718,-2.107691,-1.5704316,2.4216042,-0.050279655,0.049566694,-0.06380267,-8.265774e-05,0.0057691643,-0.03359857,-0.38307226,0.11492168,-9.404425,0.7553206,47.716442,-0.8866786,-1.8294513,-3.3266897,-0.45632777,0.0579338,-0.09579833,27.875,29.125,28.1875,31.875,33.9375,34.8125
0.08805444,-1.9693707,-0.7984539,-1.4385364,-0.019271754,0.043320797,-0.104408264,-0.37460336,-0.32790217,0.059904397,-3.0785403,0.62609714,-0.0003007974,-0.04203207,0.0057941317,0.003391627,-0.010572372,0.009215209,-0.016999735,0.44582823,-1.4684609,2.007036,-2.1077268,-1.5704197,2.4215076,-0.05257361,0.051102057,-0.063913055,-7.882623e-05,0.0054234993,-0.035536505,-0.36391866,0.15322891,-9.404425,0.7709874,47.678825,-0.83850217,-1.8679217,-3.259975,-0.45663935,0.044421256,-0.0876521,27.875,29.125,28.1875,31.875,33.9375,34.8125
0.09005375,-2.0512443,-1.0394673,-1.4107939,-0.022167787,0.044835433,-0.09257876,-0.37468135,-0.32788417,0.05991355,-3.078543,0.6262134,-0.00030988682,-0.04246655,0.0060921116,0.0020487788,-0.009700777,0.006621243,-0.01773946,0.44570783,-1.468376,2.0069163,-2.107703,-1.5703958,2.4214594,-0.053738695,0.05473692,-0.06483457,-7.5505224e-05,0.005755224,-0.03596123,-0.38307226,0.22984336,-9.3661175,0.8179876,47.707485,-0.81784236,-1.9333217,-3.4216442,-0.45664245,0.05945384,-0.10110335,27.875,29.125,28.1875,31.875,33.9375,34.8125
0.09205401,-2.731935,-1.6405056,-1.3986195,-0.020591924,0.03035401,-0.093376204,-0.37478894,-0.32788897,0.05993051,3.0785372,-0.62609684,0.00016595559,-0.044233453,0.0056340126,0.0040350803,-0.011495236,0.0106281955,-0.018453462,0.44563565,-1.4682566,2.00676,-2.107763,-1.5704197,2.4213154,-0.05438343,0.053304624,-0.06782585,-4.1057683e-05,0.005645264,-0.035889708,-0.36391866,0.24899697,-9.32781,0.78217715,47.72808,-0.8641443,-1.8804555,-3.2976413,-0.44487023,0.051764704,-0.10852876,27.875,29.125,28.1875,31.875,33.9375,34.8125
0.0940538,-1.661871,-1.1257269,-1.3490753,-0.03578892,0.059682317,-0.09484809,-0.37484398,-0.3278774,0.05991959,3.0785134,-0.6262463,0.00027550486,-0.045308262,0.005375104,0.003998364,-0.012006503,0.010528649,-0.019158358,0.44553936,-1.4681362,2.0066388,-2.107703,-1.570383,2.4213154,-0.05519505,0.05544502,-0.070102565,-3.5144538e-05,0.00614395,-0.035995882,-0.4213795,0.34476504,-9.346964,0.7911258,47.655537,-0.89890885,-1.7236079,-3.2518163,-0.43404162,0.035035804,-0.13494387,27.875,29.125,28.1875,31.875,33.9375,34.8125
0.09605403,-1.4714386,-1.1003664,-1.2721192,-0.03833619,0.059435874,-0.11995346,-0.37494633,-0.32785192,0.05992877,3.0784547,-0.62636924,0.0002699907,-0.045787707,0.005423549,0.0031145797,-0.011769232,0.0086929,-0.019734759,0.44538292,-1.4680272,2.0064952,-2.107691,-1.5703591,2.4212432,-0.056091428,0.05831552,-0.07124504,-4.476354e-06,0.0067213937,-0.036315516,-0.28730422,0.34476504,-9.423578,0.8112748,47.701214,-0.8904645,-1.9328549,-3.2804651,-0.43341884,0.043981872,-0.14400324,27.875,29.125,28.1875,31.875,33.9375,34.8125
0.09805427,-1.462709,-1.5060099,-1.5633667,-0.039115496,0.05381936,-0.10766362,-0.37504336,-0.3278519,0.059954904,3.0784023,-0.62639654,0.00020605746,-0.046737105,0.0048676836,0.0035582762,-0.012273921,0.009717744,-0.019568415,0.44528714,-1.467931,2.006327,-2.1076791,-1.5703472,2.4211712,-0.055896986,0.059556093,-0.07363103,-2.9227397e-07,0.0067338166,-0.03628543,-0.30645782,0.30645782,-9.404425,0.75084364,47.684196,-0.94700855,-1.9207982,-3.2684028,-0.4301725,0.05609405,-0.16244155,27.875,29.125,28.1875,31.875,33.9375,34.8125
0.10005406,-1.9799188,-1.6857057,-1.5487701,-0.03771923,0.035753995,-0.09369763,-0.37515295,-0.32781655,0.059945833,3.0783856,-0.6264905,0.00017954886,-0.048339322,0.00576624,0.0034226172,-0.011548021,0.009934671,-0.021590088,0.4451302,-1.4677867,2.0061944,-2.107703,-1.5703596,2.421075,-0.058503576,0.061390277,-0.07534529,-1.90834e-08,0.005984224,-0.036867853,-0.2681506,0.36391866,-9.461885,0.75755644,47.694946,-0.94434476,-1.9113095,-3.143789,-0.4274945,0.054196954,-0.17260486,27.875,29.125,28.1875,31.875,33.9375,34.8125
0.10205426,-1.6211866,-1.3857943,-1.4400343,-0.04749197,0.038230333,-0.1039773,-0.37524447,-0.32780752,0.05994898,3.0783544,-0.62655985,0.00017755924,-0.048030417,0.0057736207,0.0024626562,-0.010965482,0.007988978,-0.020291522,0.44502228,-1.4676543,2.006039,-2.107691,-1.5703472,2.4210145,-0.058435287,0.06324721,-0.07519509,-1.2460097e-09,0.0062982086,-0.038098346,-0.24899697,0.3256114,-9.461885,0.8224646,47.684196,-0.9212238,-1.9019978,-3.2393725,-0.4180574,0.06277062,-0.17896727,27.875,29.125,28.1875,31.875,33.9375,34.8125
0.104054205,-1.766222,-2.1196191,-1.6414714,-0.030518267,0.021121658,-0.08699216,-0.37535062,-0.32781625,0.059962668,3.078285,-0.6265837,0.00011052263,-0.049446844,0.0045130895,0.0033725153,-0.012297569,0.009866756,-0.018893275,0.4449265,-1.4675219,2.00587,-2.1077268,-1.5703229,2.4209425,-0.057590995,0.06501095,-0.07922686,-8.1355526e-11,0.006687785,-0.03864974,-0.17238252,0.36391866,-9.461885,0.75755644,47.716442,-1.2404757,-1.9399292,-3.1642365,-0.40870202,0.044627085,-0.19059059,27.875,29.125,28.1875,31.875,33.9375,34.8125
0.10605372,-1.2297837,-1.5681579,-1.4371245,-0.03761335,0.017992783,-0.098181985,-0.37542865,-0.32779396,0.059958328,3.0782793,-0.62664026,0.00015400379,-0.049401596,0.0051392643,0.0023390688,-0.011284204,0.0079206675,-0.019478336,0.44480625,-1.4674015,2.0057395,-2.107691,-1.570311,2.4208584,-0.0586598,0.066671595,-0.078693084,-5.3119345e-12,0.0066122543,-0.03913362,-0.05746084,0.2681506,-9.423578,0.7351769,47.693153,-1.1207819,-2.0184271,-3.1591873,-0.3989764,0.048832133,-0.2220302,27.875,29.125,28.1875,31.875,33.9375,34.8125
0.108053856,-1.162132,-1.6113225,-1.5544899,-0.02813215,0.0060980897,-0.097811684,-0.37553906,-0.3277888,0.059963334,3.07825,-0.6266735,0.000108821674,-0.051274378,0.006133317,0.0022425759,-0.011080499,0.008000811,-0.020368977,0.444697,-1.4672451,2.0055587,-2.107703,-1.570311,2.4207737,-0.062045276,0.06861174,-0.0806159,-3.4683134e-13,0.006392689,-0.041626483,-0.05746084,0.2681506,-9.385271,0.7351769,47.68062,-1.0784414,-2.093254,-3.218804,-0.38761866,0.054546427,-0.21265908,27.875,29.125,28.1875,31.875,33.9375,34.8125
0.110054046,-0.906085,-1.4867371,-1.5361816,-0.019022617,0.00639831,-0.09823692,-0.37566757,-0.32778472,0.059983205,3.0781653,-0.6267511,6.5802857e-07,-0.051715486,0.0050797253,0.0024704884,-0.011720086,0.008460061,-0.018685864,0.44456547,-1.4671128,2.0053785,-2.1077507,-1.570299,2.4207015,-0.06069871,0.07020681,-0.08290058,-2.2645605e-14,0.006773351,-0.04196133,0.05746084,0.24899697,-9.32781,0.800085,47.672558,-1.091697,-2.0073957,-3.0644217,-0.38678953,0.04319094,-0.23400319,27.875,29.125,28.1875,31.875,33.9375,34.8125
0.11205436,-0.5313674,-0.8291152,-1.2757387,-0.027576568,0.015424728,-0.10460401,-0.37575176,-0.32775888,0.059971474,3.0782077,-0.6267803,3.9350012e-05,-0.052727852,0.005400302,0.0026350333,-0.01231193,0.008027129,-0.021441298,0.44445693,-1.4669566,2.0052226,-2.1077025,-1.5703224,2.420606,-0.062680125,0.07120631,-0.08457277,0.00080613577,0.007491382,-0.041187722,0.0,0.17238252,-9.2703495,0.800085,47.689575,-1.210242,-1.9734595,-3.0949883,-0.38121933,0.04269963,-0.2691939,27.875,29.125,28.1875,31.875,33.9375,34.8125
0.11405508,-1.3028915,-1.1540952,-1.3737679,-0.011873944,0.005464406,-0.088579774,-0.37587613,-0.32773098,0.059987165,3.0781343,-0.6268996,1.9961544e-06,-0.053589687,0.005695348,0.0022042047,-0.012054753,0.007236897,-0.021658044,0.4442765,-1.4668363,2.0050542,-2.1077025,-1.5702986,2.4205093,-0.06405699,0.07331245,-0.08592806,0.00088157394,0.007600527,-0.04234653,0.05746084,0.22984336,-9.346964,0.8247004,47.698532,-1.2074761,-2.0469744,-3.0798588,-0.3817122,0.05134754,-0.28100717,27.875,29.125,28.1875,31.875,33.9375,34.8125
0.11605456,-1.1668814,-1.3038408,-1.3648065,-0.0082151145,0.014898123,-0.10169523,-0.37599456,-0.3277449,0.06001807,3.0780697,-0.6268675,-8.049194e-05,-0.054765422,0.005861473,0.0027945603,-0.01259079,0.008549967,-0.02177615,0.44417998,-1.4667044,2.0048382,-2.1077025,-1.5702747,2.420401,-0.06534998,0.07351449,-0.087501094,0.0008389042,0.0075218286,-0.043519724,0.0,0.21068975,-9.346964,0.8023209,47.73525,-1.1454461,-2.006593,-3.0652921,-0.35421127,0.056083076,-0.31723115,27.875,29.125,28.1875,31.875,33.9375,34.8125
0.118053764,-1.5166879,-1.326227,-1.4162806,-0.011177881,0.0140973795,-0.09428296,-0.3761099,-0.32771888,0.06001309,3.0780501,-0.62694013,-0.00012008862,-0.055391617,0.0063421023,0.0014099695,-0.011660072,0.005911519,-0.021871759,0.44403547,-1.4665474,2.0046823,-2.1077263,-1.5702866,2.4203045,-0.06699123,0.07730907,-0.08851814,0.00084368075,0.007815956,-0.045064375,-0.095768064,0.21068975,-9.32781,0.7709874,47.661808,-1.1850595,-2.07264,-3.101131,-0.3461877,0.054546803,-0.31765115,27.875,29.125,28.1875,31.875,33.9375,34.8125
0.12005395,-1.3224488,-1.03524,-1.2853061,-0.020885753,0.028771559,-0.096101604,-0.37619886,-0.32771912,0.060009338,3.0779903,-0.62702507,-4.813354e-05,-0.056443654,0.006113838,0.0029164322,-0.014048899,0.008248245,-0.02255959,0.443915,-1.4663925,2.004515,-2.1077025,-1.5702261,2.4202447,-0.06826266,0.075413704,-0.089933716,0.0010181412,0.008967942,-0.045649,-0.1340753,0.19153613,-9.270349,0.78217715,47.701214,-1.1296242,-1.9990692,-3.0730057,-0.33994797,0.023631986,-0.33424455,27.875,29.125,28.1875,31.875,33.9375,34.8125
0.12205413,-1.7798682,-1.4039297,-1.5201505,-0.0098991925,0.02552191,-0.098048635,-0.37631717,-0.32771388,0.060008224,3.0779376,-0.62711227,-5.6339588e-05,-0.056630902,0.006478219,0.0026430232,-0.01347677,0.0068945903,-0.0258832,0.44378275,-1.4662123,2.0043218,-2.1077144,-1.5702022,2.4201736,-0.06913527,0.07641244,-0.09070316,0.0022583345,0.009035835,-0.043197636,-0.17238252,0.1340753,-9.346964,0.75755644,47.678825,-1.2087135,-1.9223579,-3.1613173,-0.33490205,0.036819786,-0.3809961,27.875,29.125,28.1875,31.875,33.9375,34.8125
0.12405426,-1.8229215,-1.5523084,-1.5074893,-0.0026997838,0.033623204,-0.087618686,-0.37643766,-0.32770297,0.060029976,3.0778778,-0.6271767,-8.895713e-05,-0.057101432,0.0073298654,0.0007170318,-0.011435484,0.0023970327,-0.026887244,0.443638,-1.4660786,2.0041192,-2.1076896,-1.5701784,2.4200768,-0.071192965,0.08140602,-0.09210814,0.0036104927,0.009126699,-0.044249777,-0.19153613,0.17238252,-9.3661175,0.7486078,47.716442,-1.1605839,-2.1379304,-3.152719,-0.3573802,0.035092086,-0.4251623,27.875,29.125,28.1875,31.875,33.9375,34.8125
0.1260542,-1.7527175,-1.0061268,-1.2286223,-0.009683839,0.04758352,-0.10054519,-0.3765526,-0.32766208,0.060014915,3.0778794,-0.6272712,-4.5097495e-05,-0.05746983,0.0072287954,0.0017210318,-0.012449927,0.0040311604,-0.024708148,0.44345805,-1.4658998,2.0039513,-2.1076658,-1.5701784,2.4199557,-0.07145041,0.07971283,-0.09262655,0.003912499,0.009341886,-0.046686973,-0.2873042,0.19153613,-9.404425,0.8493211,47.72271,-1.1825227,-1.9404563,-3.2028885,-0.36290443,0.033903755,-0.42411774,27.875,29.125,28.1875,31.875,33.9375,34.8125
0.12805429,-1.9178193,-0.5790618,-1.2392493,-0.015380658,0.05739171,-0.10686729,-0.37667048,-0.3276692,0.06003694,3.0777926,-0.62735003,-0.00012552478,-0.058022343,0.007919733,0.000121641955,-0.0114248535,0.0012309676,-0.024522306,0.44334927,-1.4657665,2.0037596,-2.10769,-1.5701541,2.4199073,-0.073406845,0.08345773,-0.09300741,0.003519609,0.009621032,-0.048827875,-0.36391866,0.019153614,-9.3661175,0.7642693,47.729877,-1.2538078,-1.9853058,-3.254645,-0.35364115,0.0105224475,-0.41455388,27.875,29.125,28.1875,31.875,33.9375,34.8125
0.13005455,-2.1314893,-0.6252916,-1.4928977,-0.0027437368,0.057033233,-0.10416919,-0.37676153,-0.3276507,0.06003026,3.077784,-0.6274062,-5.684033e-05,-0.0594139,0.00820693,0.00021274222,-0.011190104,0.002171286,-0.02431708,0.44321677,-1.4656103,2.0035918,-2.107642,-1.5701302,2.419811,-0.07475287,0.08502034,-0.09484242,0.0030485268,0.009000256,-0.050377335,-0.36391866,0.05746084,-9.423578,0.82694155,47.713753,-1.1599262,-2.0554738,-3.261525,-0.33459157,0.006225154,-0.43133008,27.875,29.125,28.1875,31.875,33.9375,34.8125
0.13205406,-1.6740856,-0.6385152,-1.1690673,0.0014752989,0.06958393,-0.1072973,-0.3769288,-0.3276347,0.06004919,3.077694,-0.62748295,-0.00011311539,-0.060627326,0.008376955,0.00023764167,-0.011825682,0.0023219706,-0.02372219,0.44301233,-1.4654181,2.0033395,-2.1076543,-1.570094,2.419666,-0.0764644,0.086521715,-0.096514866,0.0028138678,0.009511756,-0.052682396,-0.36391866,0.11492168,-9.346964,0.8247004,47.709274,-1.1763167,-2.0288284,-3.335195,-0.33023125,0.0081076585,-0.43603092,27.875,29.125,28.1875,31.875,33.9375,34.8125
0.1340544,-2.4362404,-1.0867165,-1.472539,0.012289647,0.045390144,-0.09176269,-0.37702912,-0.32761195,0.060030464,3.0776935,-0.62755865,-8.158611e-05,-0.060932618,0.0088982,-0.00016662142,-0.011340349,0.0012087551,-0.021392183,0.4428798,-1.4652382,2.003184,-2.1076539,-1.570094,2.419581,-0.077718474,0.08751933,-0.09682437,0.0033422308,0.00955185,-0.056266602,-0.49799395,0.1340753,-9.289502,0.7418897,47.67793,-1.2218853,-2.0313447,-3.215168,-0.32110152,0.028264124,-0.4282684,27.875,29.125,28.1875,31.875,33.9375,34.8125
0.1360548,-2.7978659,-1.084818,-1.5027952,0.01144775,0.03313252,-0.08807075,-0.3771376,-0.3275954,0.06002202,3.077689,-0.6275947,-1.292099e-05,-0.060937118,0.00950195,-0.00081775524,-0.010118176,-0.00033464367,-0.019559627,0.4427355,-1.4650463,2.002981,-2.1076062,-1.5700701,2.4194598,-0.078530714,0.088708565,-0.096828885,0.004081242,0.009110097,-0.05891131,-0.4405331,0.019153614,-9.385271,0.8179876,47.709274,-1.2115743,-2.0008914,-3.4266186,-0.33287922,0.008789289,-0.41029766,27.875,29.125,28.1875,31.875,33.9375,34.8125
0.13805397,-2.1852314,-0.7621498,-1.4381356,-0.0036896328,0.045041163,-0.09507048,-0.37728953,-0.32759085,0.060041793,3.0776176,-0.62761706,-0.00014823808,-0.06310378,0.009463896,0.00055221765,-0.011157571,0.002206806,-0.016965685,0.44259095,-1.4648782,2.002764,-2.1076653,-1.5700701,2.4193385,-0.080264114,0.089155935,-0.10060967,0.0046767704,0.008963111,-0.063235424,-0.47884035,-0.019153614,-9.385271,0.842603,47.701214,-1.2832817,-2.009224,-3.2793515,-0.33839354,0.002605327,-0.3804989,27.875,29.125,28.1875,31.875,33.9375,34.8125
0.14005414,-1.6130692,-0.7246212,-1.4606838,-0.014996568,0.060457297,-0.11195993,-0.37741053,-0.3275543,0.060048297,3.0775948,-0.62770766,-9.466126e-05,-0.063376166,0.010887779,-0.0012509034,-0.009638446,-0.0018385141,-0.016308561,0.4423981,-1.4647216,2.00256,-2.1075933,-1.5700463,2.4192052,-0.08339003,0.09235344,-0.10017289,0.0053524747,0.009325896,-0.06701903,-0.40222588,-0.038307227,-9.404425,0.8112748,47.728977,-1.258142,-1.9868226,-3.411271,-0.33365208,0.006757836,-0.35221964,27.875,29.125,28.1875,31.875,33.9375,34.8125
0.14205389,-2.1366808,-0.86433005,-1.364146,-0.016993731,0.05242834,-0.094362594,-0.3775159,-0.32753816,0.060022492,3.0775678,-0.62768227,-3.4758592e-05,-0.06489126,0.011395591,0.0004796562,-0.010651885,0.0018557856,-0.014855232,0.44224146,-1.4645307,2.0024168,-2.1076295,-1.5699986,2.4190361,-0.08521561,0.089856155,-0.101388074,0.005301157,0.0086590545,-0.07029706,-0.4405331,0.0,-9.385271,0.7911258,47.679718,-1.0643976,-1.9298562,-3.453752,-0.33680078,0.008924154,-0.3103835,27.875,29.125,28.1875,31.875,33.9375,34.8125
0.14405371,-2.4754808,-1.1996654,-1.3996967,-0.0059967306,0.052138243,-0.09178045,-0.3776575,-0.32751578,0.06003687,3.0775537,-0.6276787,-6.404224e-05,-0.06565734,0.011569797,0.00010374393,-0.01021816,0.0017256866,-0.012424028,0.44207293,-1.4643506,2.002177,-2.1075933,-1.5699986,2.4188673,-0.08596562,0.09169299,-0.10246467,0.0048484434,0.008323458,-0.07347671,-0.45968673,0.038307227,-9.346964,0.800085,47.664497,-1.2083294,-1.8370326,-3.5254693,-0.31847882,0.010691171,-0.26341859,27.875,29.125,28.1875,31.875,33.9375,34.8125
0.146054,-1.8842877,-0.35310012,-1.2540566,-0.0076204236,0.06298214,-0.10442272,-0.3778096,-0.32749575,0.060045265,3.0774925,-0.62778187,-0.00011306536,-0.06812153,0.012928066,7.627507e-05,-0.011008391,0.0014740807,-0.014653237,0.44189116,-1.4641578,2.001948,-2.1076057,-1.5699862,2.418758,-0.09122535,0.093764104,-0.10471968,0.0049229744,0.009146884,-0.07650604,-0.5363012,0.019153614,-9.404425,0.842603,47.693153,-1.0183172,-2.0282428,-3.3748956,-0.33160666,0.028191006,-0.21059264,27.875,29.125,28.1875,31.875,33.9375,34.8125
0.14805451,-1.1798834,-0.4578697,-1.4420373,0.0037101095,0.074867345,-0.11001789,-0.3779667,-0.32747695,0.060061336,3.0774353,-0.6278264,-0.00014976665,-0.06810022,0.012274301,0.00012444795,-0.010463614,0.0016174236,-0.011633861,0.4417,-1.463966,2.0016968,-2.1075933,-1.5699629,2.418602,-0.0895697,0.094845705,-0.10614335,0.0053746835,0.008596576,-0.07786799,-0.3256114,0.038307227,-9.461885,0.800085,47.67793,-1.050837,-1.8553336,-3.5498838,-0.3305669,0.0062139877,-0.18971787,27.875,29.125,28.1875,31.875,33.9375,34.8125
0.15005474,-1.9118398,-0.56929517,-1.3003887,0.006089266,0.05177108,-0.106443636,-0.3780867,-0.32745472,0.06004849,3.0774143,-0.62784296,-5.894062e-05,-0.06987214,0.012975779,0.000361709,-0.0104910685,0.0018025404,-0.013790672,0.44151884,-1.4637618,2.0014927,-2.1075575,-1.5699147,2.418434,-0.092389084,0.096486084,-0.10868075,0.006098584,0.00853713,-0.07852931,-0.4213795,0.05746084,-9.481039,0.8090337,47.70032,-0.9850142,-1.8917493,-3.3067393,-0.33646733,0.02261579,-0.15258223,27.875,29.125,28.1875,31.875,33.9375,34.8125
0.15205379,-1.8821816,-0.5267742,-1.5210415,-0.006543292,0.046799913,-0.10395276,-0.3782208,-0.3273987,0.06002473,3.0774543,-0.62790906,-7.321957e-05,-0.07140077,0.013123128,0.00016438964,-0.010899241,0.0015390117,-0.01642126,0.44132632,-1.4635571,2.001324,-2.107569,-1.5699624,2.4182777,-0.09431135,0.09915432,-0.111164615,0.005973988,0.00901212,-0.077819794,-0.4405331,0.0,-9.385271,0.83365434,47.652847,-0.93534106,-1.8492472,-3.4203851,-0.3250036,0.01956977,-0.14985782,27.875,29.125,28.1875,31.875,33.9375,34.8125
0.15405446,-2.032501,-0.99583304,-1.7374352,-0.009720657,0.04751707,-0.09652793,-0.3783781,-0.32736853,0.060039975,3.0774438,-0.62794685,-0.00014175079,-0.07248818,0.013288814,0.00027869025,-0.010541228,0.001970067,-0.018992646,0.441146,-1.4633651,2.0010717,-2.1075451,-1.5699867,2.4181225,-0.09520638,0.100634545,-0.11313686,0.00622982,0.008503773,-0.07614135,-0.49799395,0.13407528,-9.557653,0.7866488,47.677036,-0.9905182,-1.772222,-3.3895473,-0.3242066,0.01564838,-0.12768483,27.875,29.125,28.1875,31.875,33.9375,34.8125
0.1560542,-2.0052538,-1.543471,-1.5707294,-0.025381487,0.05986411,-0.10572706,-0.3785371,-0.3273431,0.060050514,3.0773563,-0.62802833,-0.00012864004,-0.074393176,0.014597603,0.0001677363,-0.010082895,0.0013205293,-0.023635916,0.44091633,-1.4631726,2.0008323,-2.1075332,-1.5699266,2.417955,-0.09921326,0.10264658,-0.11534804,0.007218699,0.008367746,-0.075503245,-0.4405331,0.095768064,-9.634268,0.7911258,47.689575,-0.7428001,-1.8285303,-3.3230767,-0.3501969,0.03742388,-0.14696357,27.875,29.125,28.1875,31.875,33.9375,34.8125
0.15805458,-2.7360315,-1.830598,-1.7392607,-0.032836813,0.052888628,-0.08423486,-0.37866697,-0.32729608,0.060037524,3.0773718,-0.6281683,-3.7481022e-05,-0.075020134,0.014069009,0.00095826323,-0.010813653,0.002511228,-0.02795437,0.4407126,-1.4629571,2.0006049,-2.1074488,-1.5699266,2.4178367,-0.09883737,0.10266516,-0.11733187,0.007793734,0.008511239,-0.070808694,-0.45968673,0.11492168,-9.442732,0.7463667,47.668976,-0.8462745,-1.753437,-3.271023,-0.34704208,0.026964396,-0.15874934,27.875,29.125,28.1875,31.875,33.9375,34.8125
0.16005385,-2.8221831,-1.9591442,-1.7517017,-0.031126834,0.05473923,-0.087876365,-0.37882775,-0.32728627,0.060057472,3.0772731,-0.62821025,-9.686058e-05,-0.076899864,0.015669387,0.00011817881,-0.010249209,0.00097346277,-0.03647313,0.4405192,-1.4627762,2.000365,-2.1074731,-1.5698789,2.4176822,-0.10355642,0.10560099,-0.118677035,0.007836824,0.008658715,-0.067007214,-0.5746084,0.22984336,-9.5385,0.80456203,47.66091,-0.63672924,-1.7967141,-3.3559594,-0.35649586,0.023241984,-0.2123605,27.875,29.125,28.1875,31.875,33.9375,34.8125
0.16205412,-2.2145925,-1.7162094,-1.7754663,-0.037251383,0.073071234,-0.10381726,-0.37897402,-0.32726014,0.060053848,3.077261,-0.62830275,-8.094438e-05,-0.07726648,0.014383936,0.0009002932,-0.011315678,0.0028267198,-0.03493577,0.44033983,-1.4625486,2.0001137,-2.1074374,-1.5698785,2.4175622,-0.101545595,0.10587545,-0.120708846,0.0074638543,0.008828191,-0.06653273,-0.45968673,0.2873042,-9.576807,0.79560274,47.658226,-0.8520247,-1.7993233,-3.3464875,-0.37026018,0.028880144,-0.24937361,27.875,29.125,28.1875,31.875,33.9375,34.8125
0.16405386,-2.7429898,-1.4672865,-1.8162221,-0.035723068,0.05549463,-0.096181065,-0.37914515,-0.3272238,0.06004569,3.0772405,-0.62835705,-6.7719804e-05,-0.07747038,0.014592724,-0.0009577035,-0.009583956,-0.00027349556,-0.03569913,0.44011173,-1.4622954,1.9998502,-2.1074255,-1.5698665,2.4173708,-0.10190176,0.110539414,-0.12157568,0.007212795,0.008581239,-0.06612407,-0.51714754,0.22984336,-9.519346,0.7978386,47.664497,-0.85848486,-1.8066745,-3.3247874,-0.34863976,0.03490004,-0.23476528,27.875,29.125,28.1875,31.875,33.9375,34.8125
0.1660541,-2.4577656,-1.7302269,-1.7445296,-0.027063439,0.055345755,-0.093681626,-0.3792953,-0.3272032,0.060056217,3.0771604,-0.6285146,-0.00013273064,-0.07875393,0.014221788,0.0007636282,-0.011930772,0.0035004776,-0.03804095,0.43993154,-1.4621168,1.9996341,-2.1074493,-1.5698541,2.4172993,-0.1026445,0.10838201,-0.122949466,0.006329404,0.009096166,-0.06452425,-0.4405331,0.24899697,-9.461885,0.7105615,47.707485,-0.85036224,-1.774472,-3.341257,-0.33271098,0.039088733,-0.29180175,27.875,29.125,28.1875,31.875,33.9375,34.8125
0.16805434,-2.351678,-1.900617,-1.9510777,-0.025475936,0.050601013,-0.09364631,-0.37947774,-0.3271853,0.060065668,3.0770683,-0.6286286,-0.00014657625,-0.07899456,0.013567223,-0.0007492805,-0.011591282,0.0006689977,-0.035787936,0.4397038,-1.4618752,1.9993457,-2.1074498,-1.569806,2.4171546,-0.10218264,0.11323279,-0.124805704,0.0060448116,0.009995733,-0.06631383,-0.36391866,0.21068975,-9.461885,0.77545905,47.696735,-0.93210757,-1.8653544,-3.290015,-0.332056,0.03301739,-0.2895,27.875,29.125,28.1875,31.875,33.9375,34.8125
0.17005458,-1.7978736,-1.7551333,-1.8509406,-0.026664516,0.044781312,-0.10199654,-0.37963122,-0.32713616,0.06007242,3.0770369,-0.6288132,-0.00013338914,-0.08126957,0.012898486,0.001536107,-0.0130357705,0.005765004,-0.034610875,0.43947572,-1.4616841,1.9991053,-2.1073902,-1.569806,2.4170458,-0.102312945,0.11231499,-0.12902562,0.0059626116,0.009127017,-0.0676183,-0.19153613,0.19153613,-9.442732,0.78888994,47.698532,-1.0596372,-1.7516832,-3.1892395,-0.3419711,0.040860176,-0.30243552,27.875,29.125,28.1875,31.875,33.9375,34.8125
0.17205387,-1.8461256,-1.9305171,-1.6896422,-0.01843194,0.017745359,-0.09063935,-0.3798082,-0.32711694,0.060064137,3.0770135,-0.6287902,-0.0001910271,-0.08068692,0.013696698,-0.00030726288,-0.01142852,0.0027069696,-0.035208993,0.43928325,-1.4614198,1.9988431,-2.1074378,-1.5698065,2.4168422,-0.10313995,0.11462019,-0.12723596,0.005321508,0.008980557,-0.06784723,-0.13407528,0.19153613,-9.385271,0.8247004,47.686886,-1.1192824,-1.8203769,-3.3498979,-0.3345365,0.05697167,-0.32629216,27.875,29.125,28.1875,31.875,33.9375,34.8125
0.17405456,-0.9419635,-1.7194014,-1.6069587,-0.012979988,0.01562448,-0.098362625,-0.37998372,-0.3270866,0.060069297,3.0769317,-0.6289857,-0.00021348738,-0.082481205,0.013463735,0.0003318259,-0.0119060995,0.004716489,-0.03646852,0.43905506,-1.4611917,1.9985789,-2.1074378,-1.5697826,2.4167466,-0.10395004,0.11618318,-0.13034444,0.0048499983,0.008554689,-0.067395024,-0.038307227,0.24899697,-9.346964,0.70608455,47.63136,-1.0817504,-1.8651552,-3.196217,-0.32605526,0.05924187,-0.32260478,27.875,29.125,28.1875,31.875,33.9375,34.8125
0.17605376,-1.4286166,-1.5968783,-1.6706195,-0.010793967,-0.013296477,-0.090376176,-0.380167,-0.3270577,0.0600956,3.076827,-0.6291361,-0.00026942915,-0.08390321,0.013964162,0.00018352171,-0.011725047,0.0048701004,-0.03575761,0.43881446,-1.4609993,1.9983033,-2.1074264,-1.5697464,2.4166133,-0.10593311,0.118155204,-0.13215764,0.0046365387,0.008330379,-0.070086874,-0.05746084,0.2681506,-9.232041,0.8291774,47.723602,-1.0754378,-1.892316,-3.3117318,-0.3112909,0.07608788,-0.34735745,27.875,29.125,28.1875,31.875,33.9375,34.8125
0.17805395,-0.7225057,-1.3953372,-1.6868153,-0.009227129,-0.00743875,-0.09704314,-0.38031653,-0.32703394,0.060074028,3.0768397,-0.6291598,-0.00026509576,-0.084748186,0.01397741,0.00021287237,-0.012167246,0.004616366,-0.03805866,0.43864608,-1.4607353,1.9980634,-2.1074378,-1.5697588,2.4164584,-0.10699704,0.119514085,-0.1338419,0.0050016507,0.0088354405,-0.06884918,-0.038307227,0.22984336,-9.136273,0.76874626,47.71286,-1.0745264,-1.8910849,-3.2210255,-0.2922875,0.07518999,-0.36169153,27.875,29.125,28.1875,31.875,33.9375,34.8125
0.18005437,-0.25872985,-1.1417056,-1.3949248,-0.016331846,-0.0019390248,-0.104644366,-0.38048497,-0.32701945,0.060087144,3.0767882,-0.6292053,-0.00028727064,-0.08650174,0.013482652,0.00022873662,-0.012604515,0.0043792995,-0.036946036,0.43845382,-1.4605062,1.9977745,-2.107414,-1.5697345,2.4163013,-0.10789938,0.123243965,-0.13817643,0.0056385533,0.009330122,-0.07086129,0.05746084,0.24899697,-9.32781,0.8224646,47.711063,-1.1085863,-2.1154811,-3.0792108,-0.30296004,0.0775847,-0.3947597,27.875,29.125,28.1875,31.875,33.9375,34.8125
0.18205428,-0.91931105,-1.3123033,-1.3816732,-0.02055497,-0.0057386477,-0.09470586,-0.3806737,-0.3269674,0.060075633,3.0767484,-0.6294439,-0.00026734156,-0.08522483,0.014191805,-0.0018436564,-0.010874504,-8.874688e-05,-0.03124617,0.4381898,-1.4602302,1.9974898,-2.1073897,-1.5697345,2.4161913,-0.1082643,0.12546842,-0.13602026,0.0060440456,0.00967107,-0.07692753,0.038307227,0.19153613,-9.308656,0.82022345,47.707485,-1.0835505,-1.9653789,-3.2657661,-0.29064006,0.06532157,-0.34950006,27.875,29.125,28.1875,31.875,33.9375,34.8125
0.1840546,-1.588683,-1.5774138,-1.5808064,-0.007707076,-0.016948372,-0.09254437,-0.38085783,-0.32695523,0.06010254,3.0766926,-0.6294146,-0.0003624709,-0.086964026,0.015216846,-0.0013675226,-0.01040118,0.0010441663,-0.033168733,0.4379966,-1.4600145,1.9971894,-2.1073897,-1.5697225,2.4159873,-0.11104898,0.12606393,-0.13790202,0.0065119104,0.00876711,-0.07778732,0.05746084,0.21068975,-9.346964,0.7553206,47.686886,-0.98955727,-2.0232177,-3.197174,-0.29275393,0.08960817,-0.32917064,27.875,29.125,28.1875,31.875,33.9375,34.8125
0.18605441,-1.1060072,-1.8915423,-1.4652613,-0.014464504,0.004416893,-0.10464423,-0.3810226,-0.32690513,0.060083702,3.0766737,-0.6295797,-0.0003296274,-0.08638464,0.014616556,-0.002307324,-0.010365812,-0.0016248935,-0.028162958,0.43775725,-1.4597619,1.99695,-2.1073773,-1.569722,2.4158535,-0.11009953,0.12843604,-0.1385763,0.0072479625,0.009869532,-0.08184404,0.05746084,0.3256114,-9.251195,0.7777002,47.65912,-1.1536044,-2.1093152,-3.2832716,-0.28591666,0.091276966,-0.31317094,27.875,29.125,28.1875,31.875,33.9375,34.8125
0.18805377,-1.6748148,-2.2184286,-1.3194407,-0.02355126,0.011834999,-0.09297076,-0.38119745,-0.32689512,0.060095064,3.076614,-0.62960464,-0.00031648835,-0.087388694,0.015007324,-0.0016904763,-0.0110550765,-0.0009835403,-0.025140699,0.43755248,-1.4595106,1.9966377,-2.1073415,-1.5696744,2.415672,-0.111894004,0.12823406,-0.13995975,0.007969255,0.01022772,-0.086660236,-0.038307227,0.3256114,-9.155427,0.8224646,47.689575,-1.0506915,-1.9767692,-3.332728,-0.30876932,0.102038935,-0.2633648,27.875,29.125,28.1875,31.875,33.9375,34.8125
0.19005385,-1.4594433,-1.4868722,-1.4550725,-0.029762467,0.025771812,-0.09819962,-0.3813556,-0.32687774,0.06007932,3.0765865,-0.6296161,-0.00023897502,-0.088233024,0.015078039,-0.0020231963,-0.010953911,-0.0018702002,-0.021651117,0.43734813,-1.4592342,1.9963621,-2.1073172,-1.5696257,2.4154785,-0.11290441,0.13050984,-0.14186357,0.008452784,0.010511106,-0.0911594,-0.05746084,0.2681506,-9.212889,0.8537928,47.66539,-1.1303831,-2.0353222,-3.2466831,-0.31479573,0.078587264,-0.19008711,27.875,29.125,28.1875,31.875,33.9375,34.8125
0.19205391,-1.794248,-1.5847178,-1.4164876,-0.02066973,0.018715018,-0.093016505,-0.38155693,-0.32683107,0.060091447,3.0765893,-0.62963474,-0.0003185177,-0.08969945,0.014885932,-0.0007673623,-0.0128308395,0.00047740378,-0.019367984,0.43710768,-1.4589827,1.9960502,-2.1072934,-1.5696615,2.4152496,-0.11424163,0.12988107,-0.14404744,0.008343952,0.011220163,-0.094778664,-0.076614454,0.24899697,-9.270349,0.83589023,47.70211,-1.15728,-1.9227684,-3.2493987,-0.30846098,0.100008674,-0.1376422,27.875,29.125,28.1875,31.875,33.9375,34.8125
0.19405447,-1.747299,-1.1156898,-1.2793903,-0.030302733,0.024071988,-0.10060887,-0.38176227,-0.32680723,0.0601084,3.0764666,-0.62974477,-0.0003665337,-0.09098238,0.01644861,-0.0016415212,-0.011700967,-0.00091024773,-0.020430692,0.43684244,-1.4587425,1.9957508,-2.1073172,-1.5696014,2.4150689,-0.11792943,0.13208531,-0.1445233,0.008363702,0.010794477,-0.09740208,-0.13407528,0.21068975,-9.212888,0.84708,47.66539,-1.1331877,-1.9728073,-3.2775373,-0.32087195,0.093201175,-0.074635334,27.875,29.125,28.1875,31.875,33.9375,34.8125
0.19605508,-1.5204444,-1.0987,-1.4449576,-0.008648758,0.028248815,-0.09565039,-0.38191175,-0.32679456,0.060094144,3.0764313,-0.62977463,-0.00023774536,-0.090718195,0.014991126,-0.0014567542,-0.012300044,-0.0002934599,-0.018409094,0.43663946,-1.4584668,1.9954642,-2.1072576,-1.5695299,2.414889,-0.11510271,0.13305183,-0.14598,0.008049063,0.011067976,-0.096596636,-0.4213795,0.17238252,-9.212888,0.7665104,47.678825,-1.230235,-1.8627629,-3.3056746,-0.31206504,0.09829059,-0.048097298,27.875,29.125,28.1875,31.875,33.9375,34.8125
0.19805396,-1.4835222,-1.0958762,-1.5014176,0.0054056337,0.039584573,-0.09500893,-0.382105,-0.3267324,0.06007439,3.0764644,-0.62984276,-0.00026505633,-0.09237192,0.016735256,-0.002588321,-0.012027638,-0.002315746,-0.025444863,0.4363856,-1.4581783,1.9951895,-2.1072576,-1.5695776,2.4146738,-0.120148666,0.13588692,-0.14648142,0.007657517,0.011671966,-0.09460654,-0.36391866,0.114921674,-9.289502,0.85826975,47.701214,-1.0476141,-1.9023318,-3.4005792,-0.28638393,0.10246788,-0.05412302,27.875,29.125,28.1875,31.875,33.9375,34.8125
0.2000537,-2.6704946,-1.1932764,-1.6617042,0.0044383463,0.03201132,-0.08255419,-0.38225898,-0.3267109,0.06007265,3.0764005,-0.6299077,-0.0002108941,-0.09360575,0.015977787,-0.00031057713,-0.013696123,0.0022911958,-0.027812049,0.43617013,-1.4579518,1.9949368,-2.1072333,-1.5695175,2.4145072,-0.119459495,0.13341892,-0.14901598,0.007786332,0.011230795,-0.091548964,-0.4213795,0.038307227,-9.32781,0.8112748,47.696735,-1.1093662,-1.828181,-3.2782307,-0.2943846,0.09912214,-0.0650596,27.875,29.125,28.1875,31.875,33.9375,34.8125
0.20205352,-2.9199383,-0.84821475,-1.6167679,0.0011960266,0.0417006,-0.08886987,-0.38246882,-0.32668704,0.060078993,3.0763252,-0.6299907,-0.00023466001,-0.095530376,0.015940737,7.3219024e-05,-0.014988305,0.0023060597,-0.03320474,0.43591732,-1.457663,1.9946021,-2.1072333,-1.5694813,2.414316,-0.12177747,0.1358097,-0.15276413,0.008583428,0.012392882,-0.08847208,-0.5363012,0.019153614,-9.308657,0.80456203,47.66987,-1.0888042,-1.8354847,-3.4503057,-0.29522842,0.1036977,-0.089898646,27.875,29.125,28.1875,31.875,33.9375,34.8125
0.20405349,-2.4485815,-0.5271608,-1.5363195,-0.0015659564,0.075900055,-0.099846706,-0.382641,-0.32663673,0.060069926,3.0763123,-0.63014567,-0.00016359799,-0.0961206,0.016839847,-1.768676e-05,-0.014818908,0.0019942522,-0.03867003,0.43566456,-1.4573995,1.9943141,-2.1071613,-1.5694693,2.4141617,-0.12388759,0.1358668,-0.15270975,0.008826922,0.012366375,-0.08511765,-0.6703765,-0.095768064,-9.423578,0.83813137,47.629562,-1.0350593,-1.7689562,-3.398239,-0.31121475,0.096935146,-0.11615199,27.875,29.125,28.1875,31.875,33.9375,34.8125
0.20605421,-2.8485866,-0.62582844,-1.7100245,0.012799102,0.07581572,-0.090345375,-0.3828666,-0.32661998,0.06008001,3.076211,-0.6302433,-0.00023509773,-0.09748124,0.017585056,-0.00025792318,-0.014761875,0.0018878567,-0.043971386,0.43541163,-1.4570996,1.9939665,-2.1071975,-1.5694331,2.4139829,-0.12638274,0.13756123,-0.1540187,0.008565215,0.012362472,-0.08230942,-0.57460845,-0.19153614,-9.461885,0.8403672,47.699425,-0.99490106,-1.8231726,-3.3769546,-0.3087488,0.09163698,-0.17461306,27.875,29.125,28.1875,31.875,33.9375,34.8125
0.20805402,-2.6512306,-0.6804638,-1.8856226,0.02009073,0.07878857,-0.09965178,-0.3830471,-0.32659733,0.060068384,3.07618,-0.63033426,-0.00019691429,-0.098596275,0.017754423,-0.00013308943,-0.014793849,0.0020300113,-0.04805143,0.4351955,-1.4567996,1.9936546,-2.1071732,-1.5694093,2.4138277,-0.1275808,0.13904636,-0.15609577,0.009016387,0.012325936,-0.07942636,-0.45968673,-0.24899697,-9.5385,0.8023209,47.64837,-0.9283942,-1.7096364,-3.3541083,-0.30292922,0.10675685,-0.20136389,27.875,29.125,28.1875,31.875,33.9375,34.8125
0.21005353,-2.4469013,-0.7120436,-1.8102444,0.019467158,0.08298431,-0.0976124,-0.3832397,-0.32654336,0.060061354,3.0760937,-0.63060564,-0.00013383533,-0.098961495,0.018932477,-0.0022854984,-0.012619856,-0.0013712615,-0.049361322,0.4348946,-1.4565347,1.9933685,-2.1071374,-1.5693616,2.4137073,-0.1296616,0.14326958,-0.15577245,0.008480888,0.011788767,-0.08019664,-0.6512228,-0.19153613,-9.500193,0.8157518,47.645687,-0.8802775,-1.754164,-3.3960893,-0.30354363,0.11489606,-0.22911566,27.875,29.125,28.1875,31.875,33.9375,34.8125
0.21205336,-2.7250698,-0.6804374,-2.1580696,0.015503228,0.084318824,-0.09548111,-0.38344,-0.3265086,0.060060233,3.0760877,-0.63062495,-0.00013735356,-0.10086139,0.018050134,0.0005410406,-0.015136268,0.00422086,-0.0513767,0.4346548,-1.4562362,1.9930314,-2.1071017,-1.5693616,2.4134805,-0.12954022,0.1406347,-0.15938064,0.008592871,0.011708009,-0.07805829,-0.7278373,-0.076614454,-9.653421,0.83589023,47.684196,-0.88756454,-1.6164656,-3.363779,-0.29323652,0.104249194,-0.28177398,27.875,29.125,28.1875,31.875,33.9375,34.8125
0.21405336,-2.7925525,-0.81805456,-2.3779185,0.0062013986,0.08308341,-0.10152183,-0.38363528,-0.32647538,0.060060587,3.0760422,-0.6307319,-0.00015367396,-0.1012029,0.01852077,-0.00074870896,-0.013284685,0.0018500276,-0.05326592,0.43441445,-1.4559596,1.9927205,-2.1070893,-1.5693496,2.413313,-0.13018785,0.14412363,-0.16046369,0.009121734,0.011028016,-0.07681519,-0.7086837,-0.076614454,-9.653421,0.8560339,47.70211,-0.9275806,-1.8368964,-3.4270325,-0.30322242,0.12582952,-0.32168746,27.875,29.125,28.1875,31.875,33.9375,34.8125
0.21605466,-2.321637,-0.79128414,-2.1088665,-0.02061316,0.09941616,-0.1007351,-0.3838511,-0.32641986,0.060059115,3.0759737,-0.63098454,-0.00015540264,-0.10121644,0.018184016,-0.0016935196,-0.0125106955,-0.00024114727,-0.050340597,0.43411478,-1.4556708,1.9923977,-2.1070654,-1.5693377,2.4131799,-0.1296075,0.14721264,-0.16190743,0.009705717,0.011208942,-0.079159066,-0.7469909,-0.05746084,-9.80665,0.8717007,47.70838,-1.0339916,-1.8429747,-3.4494405,-0.310862,0.1362164,-0.33595562,27.875,29.125,28.1875,31.875,33.9375,34.8125
0.21805361,-2.803445,-1.4265864,-2.1661518,-0.030095441,0.09030913,-0.09511041,-0.38404614,-0.32637745,0.060049657,3.0759263,-0.6311906,-0.0001009933,-0.10287384,0.019101247,-0.002523662,-0.012179987,-0.0018391757,-0.057240047,0.43384954,-1.4553703,1.9920744,-2.1070178,-1.5693134,2.4130495,-0.13292558,0.1507405,-0.16400792,0.009866623,0.011572309,-0.07557654,-0.6703765,0.038307227,-9.768343,0.80679786,47.696735,-0.93100584,-1.9349266,-3.4489393,-0.3183,0.14004003,-0.39703837,27.875,29.125,28.1875,31.875,33.9375,34.8125
0.22005342,-2.6757462,-1.4917125,-2.151794,-0.033982787,0.073233664,-0.0967234,-0.38426065,-0.32633397,0.060061947,3.0758553,-0.63134694,-0.00015085292,-0.10296622,0.018737914,-0.0029169004,-0.011317554,-0.0020162878,-0.054954138,0.4335741,-1.4551059,1.9917496,-2.1070054,-1.569302,2.412881,-0.13177298,0.15245506,-0.16501147,0.00968678,0.010867248,-0.07670818,-0.38307226,0.11492168,-9.921572,0.83813137,47.685097,-1.1849318,-2.0755036,-3.4594111,-0.30430594,0.15048108,-0.45342344,27.875,29.125,28.1875,31.875,33.9375,34.8125
0.22205426,-2.032937,-1.7140898,-2.233989,-0.038302444,0.06362343,-0.09007176,-0.3844751,-0.3263009,0.060055308,3.0757987,-0.6314871,-0.00014281237,-0.10491022,0.018493889,-0.0020042404,-0.012936579,0.0003305832,-0.05367462,0.4333097,-1.4547825,1.9914025,-2.1069934,-1.5692776,2.4127114,-0.13324116,0.15331829,-0.1679367,0.008945601,0.011347829,-0.07945408,-0.2681506,0.1340753,-9.768343,0.8717007,47.70211,-1.0333929,-1.9363945,-3.406363,-0.29973727,0.15111455,-0.43245924,27.875,29.125,28.1875,31.875,33.9375,34.8125
0.22405417,-1.680509,-1.5023719,-2.0762854,-0.041568022,0.030163776,-0.09817513,-0.3847021,-0.32626668,0.060064245,3.0756965,-0.6316769,-0.00021152529,-0.106061555,0.01921241,-0.002345402,-0.012056784,0.0008776849,-0.05178152,0.43303317,-1.4544944,1.9910673,-2.1070182,-1.5692543,2.4125667,-0.13480757,0.15489344,-0.16875039,0.008069986,0.010327042,-0.08291159,-0.19153613,0.21068975,-9.653421,0.8314132,47.675243,-1.0300946,-2.0130801,-3.408143,-0.28318587,0.1869382,-0.46419483,27.875,29.125,28.1875,31.875,33.9375,34.8125
0.22605373,-1.3056698,-1.6697508,-1.9276929,-0.038923196,0.02309436,-0.10006585,-0.3849494,-0.32622525,0.060080808,3.0756464,-0.63179684,-0.00032629794,-0.10774209,0.018208763,-0.00073015556,-0.0140108,0.0051334184,-0.04380849,0.43275726,-1.4541829,1.990683,-2.1070187,-1.5692781,2.4123724,-0.13429399,0.15451032,-0.17177574,0.006806029,0.010323383,-0.09036842,-0.19153614,0.30645782,-9.500193,0.8224646,47.69763,-1.1236839,-1.9062696,-3.2466927,-0.2726965,0.1900182,-0.40478778,27.875,29.125,28.1875,31.875,33.9375,34.8125
0.22805342,-1.2637312,-2.0838928,-2.0940678,-0.022577683,0.020135516,-0.08623315,-0.3851446,-0.3261852,0.060071312,3.0756,-0.63190097,-0.00024919966,-0.1091984,0.01764468,-0.00046081466,-0.015293079,0.00575323,-0.041131873,0.43248087,-1.4538826,1.9903597,-2.1069705,-1.5692295,2.412167,-0.13502133,0.15676571,-0.17489277,0.006576046,0.011225219,-0.09377084,-0.095768064,0.38307226,-9.423578,0.8918391,47.696735,-1.047086,-2.0568163,-3.2254436,-0.2593405,0.20462795,-0.38973835,27.875,29.125,28.1875,31.875,33.9375,34.8125
0.23005408,-0.9865783,-2.1756394,-2.0793035,-0.025148112,0.017913653,-0.09647364,-0.38537496,-0.32614145,0.060078114,3.0755663,-0.63198537,-0.00034516162,-0.11027887,0.019328032,-0.0016535844,-0.014657251,0.0027006278,-0.036034163,0.4322157,-1.4535824,1.9900125,-2.106982,-1.5692533,2.4119592,-0.13948195,0.15942453,-0.17536572,0.0074390066,0.011947737,-0.10332835,0.076614454,0.4213795,-9.519346,0.86945957,47.692257,-1.1385026,-1.8418019,-3.3303065,-0.26735535,0.21161574,-0.31482536,27.875,29.125,28.1875,31.875,33.9375,34.8125
0.23205383,-0.925817,-2.2694113,-2.0115666,-0.0468382,0.013825079,-0.09161725,-0.38558334,-0.32611194,0.060073186,3.0755064,-0.6320681,-0.000274458,-0.10995773,0.018441694,-0.0010134939,-0.015209362,0.0033540844,-0.031262536,0.43194023,-1.4532595,1.9896535,-2.1069343,-1.5691932,2.4117432,-0.13761584,0.15885,-0.1764277,0.00826367,0.012179838,-0.1062339,0.095768064,0.4405331,-9.519346,0.83589023,47.695843,-1.1740062,-1.868653,-3.3761344,-0.2636794,0.23821408,-0.25170252,27.875,29.125,28.1875,31.875,33.9375,34.8125
0.23405382,-1.1174573,-2.5559628,-1.7066673,-0.04636718,0.009334216,-0.0867562,-0.38580203,-0.32606065,0.060057014,3.0754535,-0.6322286,-0.00025194755,-0.11223649,0.018424168,0.00013793545,-0.01639128,0.0055710743,-0.030109314,0.4316397,-1.4529355,1.9893297,-2.1069343,-1.5691694,2.4115498,-0.13955306,0.15990764,-0.18037935,0.008659602,0.012324827,-0.109322205,0.076614454,0.30645782,-9.308656,0.82022345,47.682407,-1.1419489,-1.8716223,-3.3093152,-0.24709588,0.2190262,-0.21241908,27.875,29.125,28.1875,31.875,33.9375,34.8125
0.23605388,-0.8518424,-2.0855012,-1.7329708,-0.04805368,0.01051652,-0.094309166,-0.38605198,-0.32603055,0.060071375,3.0754168,-0.6322401,-0.00035240882,-0.11311717,0.018671568,0.00036372882,-0.017317785,0.0059625423,-0.029926222,0.43137527,-1.4526002,1.9889234,-2.1069343,-1.5691808,2.4112976,-0.14112966,0.16026638,-0.18130577,0.008486347,0.0130135445,-0.11108066,0.11492168,0.2681506,-9.289502,0.88960326,47.723602,-1.1324682,-1.8457248,-3.4284358,-0.24155933,0.23464136,-0.16759174,27.875,29.125,28.1875,31.875,33.9375,34.8125
0.23805387,-0.55033743,-1.6141561,-1.5033138,-0.038407464,0.0034338168,-0.09347289,-0.38627282,-0.32600158,0.06009359,3.0753179,-0.6323176,-0.0003976705,-0.11395168,0.01887642,0.0007572595,-0.018257767,0.0068082763,-0.031564765,0.43109867,-1.4523363,1.9885758,-2.106922,-1.5691327,2.4110823,-0.14247128,0.1601805,-0.18208146,0.008193607,0.0135227665,-0.11078249,0.24899697,0.30645782,-9.212888,0.8247004,47.691364,-1.0578607,-1.7809157,-3.3704493,-0.22797799,0.2506101,-0.13958432,27.875,29.125,28.1875,31.875,33.9375,34.8125
0.24005362,-0.9532302,-1.5766203,-1.3165176,-0.023785742,-0.017910983,-0.08330637,-0.38652155,-0.32594898,0.060098242,3.0752554,-0.63247824,-0.00045810497,-0.11530517,0.019144548,0.00062887504,-0.018520217,0.0067586326,-0.035481725,0.43078625,-1.4520122,1.9882039,-2.106922,-1.5691327,2.4108784,-0.14420234,0.16229293,-0.18417145,0.008107009,0.01378381,-0.108594544,0.038307227,0.3256114,-9.136273,0.842603,47.692257,-1.0804288,-1.7570981,-3.3165202,-0.22994211,0.23801026,-0.14343493,27.875,29.125,28.1875,31.875,33.9375,34.8125
0.24205427,-0.8089868,-1.292759,-1.4968929,-0.006308557,-0.00754595,-0.08816779,-0.38675094,-0.32592812,0.06010094,3.075167,-0.63256,-0.0004472618,-0.11625465,0.019153275,0.0010254029,-0.020042552,0.0074667605,-0.041418694,0.4305098,-1.451677,1.9878215,-2.1069105,-1.5690726,2.4106646,-0.14565448,0.1625052,-0.18527648,0.007720853,0.01486968,-0.10410864,0.05746084,0.2681506,-9.021352,0.8537928,47.685097,-1.0563998,-1.5558631,-3.3733416,-0.21267937,0.2386904,-0.18219753,27.875,29.125,28.1875,31.875,33.9375,34.8125
0.24405368,-0.98267126,-1.2154268,-1.6391642,0.019747281,-0.010072487,-0.08849487,-0.38693663,-0.32588467,0.06005822,3.0751634,-0.632679,-0.00030701378,-0.117934935,0.019389702,0.0013077114,-0.02098319,0.007684,-0.04846421,0.43024492,-1.4513171,1.9875096,-2.1068742,-1.5690364,2.4104745,-0.14794995,0.16427255,-0.18804324,0.008128411,0.015617767,-0.09935832,0.019153614,0.21068975,-9.078813,0.8717007,47.688675,-0.9177073,-1.6467929,-3.31909,-0.19635826,0.24251544,-0.2390325,27.875,29.125,28.1875,31.875,33.9375,34.8125
0.24605422,-1.152615,-0.49229348,-1.7178289,0.0069509265,-0.00012805227,-0.08954817,-0.38722014,-0.32585034,0.060085643,3.07504,-0.63282627,-0.00043546967,-0.11843263,0.019000757,0.0013976985,-0.021368165,0.0072718095,-0.050536018,0.4299211,-1.4509811,1.9870776,-2.1068976,-1.569012,2.4102588,-0.14788291,0.16568635,-0.1900651,0.00895311,0.01615084,-0.0972166,-0.076614454,0.17238252,-9.193734,0.8537928,47.698532,-0.9771619,-1.58866,-3.2627177,-0.20061815,0.23268223,-0.2866111,27.875,29.125,28.1875,31.875,33.9375,34.8125
0.24805386,-1.3441705,-0.8543565,-1.5384895,0.011169009,0.021166112,-0.09164598,-0.38743418,-0.32581544,0.060085878,3.0749617,-0.6329654,-0.00037938147,-0.11963642,0.019031966,0.0018076397,-0.02171422,0.0075295554,-0.051408764,0.42963234,-1.4506692,1.986718,-2.10685,-1.568952,2.410067,-0.14901158,0.16700266,-0.19274846,0.009951974,0.016359417,-0.0974712,-0.19153614,0.15322891,-9.251195,0.90750587,47.672558,-0.9564677,-1.5418751,-3.1817198,-0.19537711,0.24142474,-0.3217607,27.875,29.125,28.1875,31.875,33.9375,34.8125
0.25005355,-2.1721787,-0.6140106,-1.7532862,0.0021010763,0.040379114,-0.09192924,-0.3876517,-0.3257736,0.06008352,3.0749068,-0.6331282,-0.00032744685,-0.12045788,0.019803114,0.0007023796,-0.020600064,0.0046808235,-0.053782906,0.4293437,-1.4503447,1.9863476,-2.1067894,-1.5689157,2.4098873,-0.15116552,0.17056273,-0.19454291,0.011247728,0.016534165,-0.09725012,-0.40222588,0.038307227,-9.3661175,0.8873621,47.678825,-0.92625237,-1.6211158,-3.2053723,-0.19340748,0.24156082,-0.32170904,27.875,29.125,28.1875,31.875,33.9375,34.8125
0.25205424,-2.4577453,-0.82048863,-1.7531073,0.0045842696,0.07020434,-0.089734934,-0.38791564,-0.32572183,0.06009411,3.0747948,-0.6333145,-0.00038341698,-0.11979555,0.018556481,0.0002061714,-0.021153044,0.003230682,-0.051865228,0.42899677,-1.4500204,1.9859642,-2.1068013,-1.568879,2.4096713,-0.14889756,0.17237484,-0.1955475,0.011533763,0.01764952,-0.09689796,-0.40222588,0.076614454,-9.404425,0.83589023,47.674347,-1.09519,-1.6700443,-3.3147311,-0.20325284,0.23407346,-0.34824574,27.875,29.125,28.1875,31.875,33.9375,34.8125
0.25405404,-2.5322454,-1.0395958,-1.8332667,-0.001523575,0.092946574,-0.092630416,-0.38813215,-0.32568967,0.060069334,3.0747466,-0.6334979,-0.00027749973,-0.12129726,0.0189409,8.442856e-05,-0.02142178,0.0030477622,-0.053284332,0.4287198,-1.4496361,1.9855808,-2.1067536,-1.5688313,2.4095151,-0.15100555,0.17461716,-0.19786993,0.0116782,0.01796484,-0.097586244,-0.5363012,0.095768064,-9.385271,0.85155696,47.67345,-1.0963058,-1.920699,-3.2587633,-0.20911057,0.23974344,-0.384804,27.875,29.125,28.1875,31.875,33.9375,34.8125
0.25605372,-3.0714712,-1.5204703,-1.8545535,0.0015390781,0.083261676,-0.08278079,-0.38839012,-0.32564425,0.060076993,3.074689,-0.6336614,-0.00029511002,-0.123884276,0.019910702,0.00033146847,-0.021462398,0.0035941857,-0.05739166,0.4284067,-1.4492759,1.9851497,-2.1067054,-1.5688194,2.4093118,-0.15477419,0.17720255,-0.20150793,0.012223923,0.017773557,-0.09724501,-0.78529817,0.1340753,-9.461885,0.87393653,47.709274,-1.0616436,-1.9676977,-3.2657752,-0.21227956,0.21075618,-0.4054411,27.875,29.125,28.1875,31.875,33.9375,34.8125
0.25805405,-2.89178,-1.4528296,-1.8187516,-0.01628695,0.09923573,-0.0994617,-0.3886145,-0.32559714,0.06007637,3.0746577,-0.63376474,-0.00028351028,-0.1232592,0.019330584,-1.2694177e-05,-0.020836793,0.0033486271,-0.050116822,0.4281193,-1.4489523,1.9847788,-2.1066573,-1.5688075,2.4090931,-0.15275316,0.17784205,-0.20144442,0.012021275,0.017317314,-0.102498874,-0.7852981,0.095768064,-9.442732,0.9298854,47.691364,-1.0868363,-1.7608292,-3.302158,-0.22653937,0.24075647,-0.38450795,27.875,29.125,28.1875,31.875,33.9375,34.8125
0.26005426,-2.59974,-1.3463805,-2.168366,-0.021867696,0.09931877,-0.089919575,-0.3888794,-0.32557207,0.0601052,3.0745363,-0.6338347,-0.00034824,-0.123484194,0.020367566,-0.00079156377,-0.019905483,0.0023891795,-0.047259036,0.427807,-1.4486289,1.9843487,-2.1066453,-1.5687479,2.4088404,-0.15446293,0.17862268,-0.20048442,0.011561504,0.016889567,-0.10706531,-0.6895301,0.1340753,-9.461885,0.9231726,47.686886,-1.0904486,-1.7324777,-3.3867416,-0.21611725,0.24496688,-0.35036066,27.875,29.125,28.1875,31.875,33.9375,34.8125
0.26205385,-3.129937,-1.8789854,-1.9710348,-0.022652118,0.08738956,-0.090775415,-0.38912225,-0.32552212,0.060087007,3.0744872,-0.63399327,-0.00028450476,-0.12398138,0.020288529,-0.00084180274,-0.020469083,0.0022841438,-0.042005777,0.42748263,-1.4482453,1.9839534,-2.10661,-1.5687112,2.4086215,-0.15499587,0.17954944,-0.20145299,0.011483422,0.01745364,-0.11285132,-0.68953013,0.1340753,-9.672575,0.88960326,47.70659,-1.1530555,-1.8178629,-3.4712284,-0.21775785,0.24739163,-0.3105647,27.875,29.125,28.1875,31.875,33.9375,34.8125
0.26405388,-2.844795,-1.5661553,-1.8214045,-0.027006406,0.09651393,-0.09109488,-0.38935634,-0.3254699,0.060056977,3.0744977,-0.634031,-0.00027912227,-0.12442373,0.020635929,-0.0017210969,-0.019611422,0.0014174797,-0.037016872,0.4271946,-1.4478608,1.9835948,-2.106622,-1.568724,2.408356,-0.15563521,0.18177465,-0.20184523,0.010810123,0.017039945,-0.118479274,-0.8810662,0.095768064,-9.519346,0.8627467,47.698532,-1.1884376,-1.7908444,-3.561125,-0.19938786,0.24529798,-0.22602999,27.875,29.125,28.1875,31.875,33.9375,34.8125
0.2660533,-2.8841522,-1.4273691,-1.8406979,-0.012918495,0.09041255,-0.08731639,-0.38961127,-0.32542747,0.060048044,3.0743906,-0.6342364,-0.0002529984,-0.1250968,0.020493608,-0.002014974,-0.01984394,0.0010492661,-0.031578436,0.42685857,-1.4474891,1.9831995,-2.106622,-1.5686635,2.408162,-0.1560678,0.18368523,-0.20333925,0.010655297,0.017415673,-0.12434888,-0.7852981,0.15322891,-9.519346,0.82694155,47.68062,-1.2217541,-1.8039968,-3.6169953,-0.19029811,0.24898171,-0.1301629,27.875,29.125,28.1875,31.875,33.9375,34.8125
0.26805392,-2.6002517,-1.1596279,-1.7904756,0.0009934509,0.089218,-0.0970679,-0.38989317,-0.3253861,0.06008027,3.0742984,-0.6343149,-0.0002841976,-0.12654251,0.020402905,-0.0019284101,-0.020356614,0.0015760753,-0.03386045,0.4265101,-1.447141,1.9827198,-2.10655,-1.5686153,2.4078748,-0.15715873,0.18586172,-0.20598285,0.010439693,0.017666912,-0.12315502,-0.61291564,0.0,-9.461885,0.8940802,47.71823,-1.2178273,-1.7606364,-3.666666,-0.17963567,0.25589645,-0.12758408,27.875,29.125,28.1875,31.875,33.9375,34.8125
0.27005348,-2.1612766,-0.9518283,-1.8697008,0.005236164,0.07790015,-0.08750592,-0.3901742,-0.32535914,0.060086086,3.0741918,-0.6344078,-0.00037313165,-0.12818784,0.020394225,-0.0014415219,-0.020469517,0.0029321562,-0.03404669,0.4261979,-1.4467572,1.9822878,-2.1065977,-1.56858,2.4076347,-0.15811023,0.18752863,-0.20906284,0.010584514,0.017218975,-0.123916976,-0.3256114,0.076614454,-9.308656,0.88289046,47.672558,-1.2468805,-1.8471737,-3.5783079,-0.15659454,0.25794575,-0.07537381,27.875,29.125,28.1875,31.875,33.9375,34.8125
0.2720542,-2.1458044,-1.1191908,-2.0160244,0.009028491,0.04786472,-0.07823364,-0.39039338,-0.3253041,0.060035318,3.0742273,-0.6344765,-0.00026732474,-0.1287051,0.020378204,-0.001803431,-0.020004448,0.0023633132,-0.039114624,0.4259096,-1.4463372,1.9819282,-2.1065743,-1.56858,2.4073849,-0.15827568,0.18942901,-0.21049635,0.010823942,0.017012618,-0.11901508,-0.40222588,0.19153613,-9.346964,0.87393653,47.683304,-1.2393643,-1.814771,-3.4758215,-0.1508129,0.26082087,-0.10413699,27.875,29.125,28.1875,31.875,33.9375,34.8125
0.27405402,-1.4023029,-0.9117102,-1.8298982,-0.010077425,0.043992314,-0.089931,-0.3906759,-0.3252582,0.06006806,3.0741007,-0.63466465,-0.00035494342,-0.13070501,0.020937784,-0.001502721,-0.019937348,0.004076554,-0.045427963,0.42556095,-1.4460135,1.9814852,-2.1065505,-1.5685438,2.4071703,-0.16036104,0.19105677,-0.21289048,0.01006224,0.016244873,-0.11478409,-0.36391866,0.19153613,-9.423578,0.84484416,47.690468,-1.2196007,-1.8924707,-3.520118,-0.13776116,0.29328686,-0.15418844,27.875,29.125,28.1875,31.875,33.9375,34.8125
0.27605394,-1.6187716,-1.520051,-2.102573,-0.0025838274,0.014384093,-0.08227195,-0.39094535,-0.32520813,0.060068216,3.074068,-0.6348346,-0.0003806464,-0.13282666,0.022272093,-0.0017384992,-0.02008723,0.0038369158,-0.05353341,0.42524773,-1.4456176,1.9810303,-2.1065028,-1.5685557,2.4069676,-0.1646526,0.193247,-0.2148632,0.009996584,0.016474174,-0.11096867,-0.019153614,0.22984336,-9.3661175,0.8605109,47.70659,-1.237494,-1.796772,-3.4916608,-0.114790484,0.28298143,-0.21313411,27.875,29.125,28.1875,31.875,33.9375,34.8125
0.27805358,-0.8101891,-1.612377,-1.9672415,-0.022270972,0.017639065,-0.08739647,-0.3912131,-0.32516193,0.06005323,3.0739555,-0.6350241,-0.0003425901,-0.1335409,0.021708056,-0.0012758683,-0.020105861,0.0042850184,-0.056835573,0.42488798,-1.4452217,1.9806236,-2.1065142,-1.5684837,2.406741,-0.16395669,0.1945764,-0.21774556,0.011140011,0.016302388,-0.10696895,-0.038307227,0.21068975,-9.385271,0.8873621,47.694054,-1.2044514,-1.7204081,-3.45482,-0.13594377,0.2935983,-0.246055,27.875,29.125,28.1875,31.875,33.9375,34.8125
0.28005382,-1.3852817,-1.961511,-1.7411401,-0.0304512,0.0086007975,-0.07834388,-0.39147913,-0.32509702,0.060046047,3.0739353,-0.6351589,-0.00035732245,-0.13700281,0.02223063,0.0012548125,-0.022231981,0.00949437,-0.06294995,0.4245506,-1.4448384,1.9802021,-2.1064785,-1.5684956,2.4064906,-0.16756737,0.1934152,-0.22232588,0.011258864,0.016084302,-0.10446316,-0.076614454,0.24899697,-9.251195,0.90750587,47.71554,-1.0575057,-1.7068145,-3.252717,-0.13158178,0.3108294,-0.30069348,27.875,29.125,28.1875,31.875,33.9375,34.8125
0.28205353,-1.0425974,-1.517104,-1.8433315,-0.019595023,0.01541997,-0.08725779,-0.39176425,-0.32508868,0.06005526,3.0737696,-0.635413,-0.00036991513,-0.13809063,0.021751404,0.0021703236,-0.023867384,0.010277415,-0.06586333,0.4242387,-1.4444193,1.9797109,-2.106478,-1.5684112,2.406359,-0.1682245,0.19385168,-0.22522992,0.012344511,0.017257432,-0.10220411,-0.05746084,0.3256114,-9.289503,0.8605109,47.686886,-1.1228065,-1.6404169,-3.191453,-0.10964088,0.32031155,-0.37803012,27.875,29.125,28.1875,31.875,33.9375,34.8125
0.28405425,-0.5051872,-1.341946,-2.180455,-0.014863542,0.014244722,-0.09152661,-0.3920115,-0.32501367,0.0600423,3.0737517,-0.6356404,-0.00030779614,-0.13719212,0.021124208,0.001919462,-0.02390671,0.0090367375,-0.06600596,0.42389116,-1.444048,1.9793047,-2.1063936,-1.5684112,2.4061558,-0.16653362,0.19412662,-0.22522539,0.013179963,0.017803762,-0.10037158,0.076614454,0.34476504,-9.442732,0.97240865,47.686886,-1.1518254,-1.620787,-3.2131915,-0.10681991,0.31645197,-0.43100566,27.875,29.125,28.1875,31.875,33.9375,34.8125
0.2860537,-1.3018935,-2.2533462,-2.281528,-0.029927524,0.008128059,-0.08083537,-0.39230114,-0.3249723,0.060040645,3.073674,-0.6357793,-0.00034547536,-0.13751017,0.021813894,0.0016127136,-0.024113271,0.0074291066,-0.068567015,0.42355445,-1.4436288,1.9788378,-2.106393,-1.5683869,2.4059162,-0.16849895,0.19478819,-0.22559255,0.014270438,0.018664164,-0.09977483,-0.05746084,0.38307226,-9.423578,0.91198283,47.694946,-1.0884091,-1.5028632,-3.2744584,-0.11225593,0.31411356,-0.4719059,27.875,29.125,28.1875,31.875,33.9375,34.8125
0.2880542,-1.1506051,-2.2306814,-2.0032609,-0.057548266,0.022165079,-0.08467634,-0.3925705,-0.32492554,0.060063537,3.0735583,-0.6359854,-0.0003068074,-0.13759042,0.022852227,-0.0009060298,-0.022205628,0.0021430212,-0.06825091,0.42319372,-1.4432794,1.9783715,-2.1062977,-1.5683149,2.4056993,-0.17064057,0.19997266,-0.22588922,0.015003818,0.019109415,-0.10223135,-0.019153614,0.36391866,-9.385271,0.8023209,47.672558,-1.069568,-1.6663873,-3.3563986,-0.09529336,0.33044812,-0.50276834,27.875,29.125,28.1875,31.875,33.9375,34.8125
0.290054,-1.5273979,-2.5038018,-2.2019331,-0.048935436,0.024607081,-0.08498375,-0.39284074,-0.32487312,0.06004695,3.0735004,-0.63620216,-0.00033362792,-0.1380198,0.023445778,-0.0023680567,-0.020932022,-0.00074980484,-0.06573236,0.42286944,-1.4428706,1.9779528,-2.1063087,-1.5683149,2.405518,-0.1719881,0.20368138,-0.22690335,0.015484842,0.019147068,-0.10609619,0.0,0.2681506,-9.442732,0.88289046,47.694946,-1.1032678,-1.8047993,-3.4878125,-0.109646544,0.32725453,-0.5009701,27.875,29.125,28.1875,31.875,33.9375,34.8125
0.29205382,-1.0987682,-2.0946934,-1.9860967,-0.05697025,0.0307642,-0.0942749,-0.3931139,-0.32484296,0.060036894,3.0734081,-0.63637036,-0.00029347916,-0.13910338,0.023904193,-0.0025366195,-0.021463081,-0.0012389594,-0.05766726,0.42254463,-1.4424391,1.9774855,-2.1062849,-1.5682548,2.4053104,-0.17406668,0.20521362,-0.22836651,0.0156778,0.019852411,-0.1162386,0.1340753,0.28730422,-9.442732,0.87617236,47.686886,-0.97296584,-1.9085844,-3.4997392,-0.12110676,0.33516103,-0.41963178,27.875,29.125,28.1875,31.875,33.9375,34.8125
0.29405344,-1.3417437,-2.0141892,-1.4949012,-0.044854872,0.02447874,-0.086270206,-0.39340296,-0.32479405,0.06003527,3.073324,-0.6365416,-0.0003318319,-0.1405614,0.02469075,-0.002669509,-0.021514019,-0.0008198956,-0.053602178,0.422196,-1.4420313,1.9770311,-2.1062853,-1.568231,2.4050798,-0.17652015,0.20667954,-0.22966559,0.0151333455,0.019743947,-0.122755446,0.038307227,0.22984336,-9.308657,0.94331104,47.679718,-0.92082113,-1.8322463,-3.5611305,-0.098590404,0.33006784,-0.38250965,27.875,29.125,28.1875,31.875,33.9375,34.8125
0.29605374,-1.4940958,-1.3728716,-1.6672873,-0.0126449745,0.010153535,-0.0865311,-0.39367935,-0.3247805,0.060054205,3.0732079,-0.6365515,-0.00034689944,-0.14224778,0.023596749,-0.001172148,-0.024095206,0.002673505,-0.044300314,0.42188382,-1.4416478,1.9765514,-2.106262,-1.5681466,2.4047892,-0.1763802,0.20670538,-0.23297545,0.014208803,0.020689057,-0.13191365,-0.038307227,0.2873042,-9.251195,0.83365434,47.672558,-0.9220599,-1.9188946,-3.4477742,-0.08499707,0.3303923,-0.28075114,27.875,29.125,28.1875,31.875,33.9375,34.8125
0.29805374,-1.1421274,-0.88605493,-1.796036,0.009184966,0.025119092,-0.094606325,-0.39395928,-0.3247017,0.060026366,3.0731678,-0.636752,-0.0002768918,-0.14353131,0.023219978,-0.0008420535,-0.025538277,0.0032098677,-0.040147685,0.42148745,-1.4412156,1.9761208,-2.1062257,-1.5681218,2.4045234,-0.17732409,0.20832685,-0.23563203,0.014184244,0.021790616,-0.13700889,-0.019153614,0.2681506,-9.270349,0.9231726,47.678825,-0.8913241,-1.9590629,-3.5092459,-0.07280267,0.32117367,-0.20112772,27.875,29.125,28.1875,31.875,33.9375,34.8125
0.3000537,-1.4656744,-0.6702007,-1.3737808,0.006353574,0.030473845,-0.08233589,-0.3942388,-0.32466996,0.06002354,3.0730886,-0.63683105,-0.00027922197,-0.14547871,0.022929257,9.0787355e-05,-0.027381737,0.0049206195,-0.03963939,0.42116314,-1.4407965,1.975653,-2.1062138,-1.5680732,2.404259,-0.1789114,0.20949149,-0.23917149,0.014259711,0.022779705,-0.13910131,-0.19153613,0.28730422,-9.193734,0.8985519,47.67166,-1.0244048,-1.9609175,-3.4456153,-0.0634156,0.2984185,-0.14370143,27.875,29.125,28.1875,31.875,33.9375,34.8125
0.30205342,-2.1736555,-1.0828706,-1.4917213,0.010877931,0.02678317,-0.07860838,-0.39455444,-0.32462198,0.060037244,3.073,-0.63692695,-0.00029825146,-0.14608628,0.02180049,0.0013399009,-0.028031413,0.0069221104,-0.03836624,0.42077985,-1.4403654,1.9751257,-2.1061661,-1.568026,2.4039474,-0.1770132,0.2094785,-0.2423501,0.015373734,0.022562275,-0.13847408,-0.36391866,0.24899697,-9.212888,0.8717007,47.68599,-1.1412176,-1.7434679,-3.3648577,-0.06341754,0.29686627,-0.120907575,27.875,29.125,28.1875,31.875,33.9375,34.8125
0.3040539,-2.0509202,-1.2722425,-1.5128443,-0.0016460794,0.052643485,-0.083030395,-0.39482194,-0.32458022,0.060001463,3.0729752,-0.6370435,-0.0002017301,-0.1466547,0.021963077,0.0015074802,-0.027573619,0.006389207,-0.048107658,0.42045572,-1.4398857,1.9746588,-2.106129,-1.5679897,2.4036994,-0.17749502,0.21050677,-0.24436663,0.017024718,0.022341331,-0.12921505,-0.63206923,0.24899697,-9.212888,0.93436235,47.66271,-1.1818292,-1.8182831,-3.4505858,-0.053072352,0.3005328,-0.18104585,27.875,29.125,28.1875,31.875,33.9375,34.8125
0.306054,-3.0360785,-1.7590436,-1.8444889,-0.007887817,0.05908773,-0.07606629,-0.39509988,-0.32454732,0.06000853,3.0728865,-0.6371412,-0.00021864034,-0.14707083,0.021926893,0.0006512466,-0.02608685,0.003650373,-0.05256972,0.4201321,-1.4394896,1.9741911,-2.1061046,-1.567942,2.4034486,-0.17746723,0.21432982,-0.24730603,0.019250754,0.022102045,-0.12472281,-0.6512229,0.24899697,-9.174581,0.8627467,47.672558,-1.3812727,-1.7775674,-3.3536508,-0.07261786,0.29644084,-0.22127892,27.875,29.125,28.1875,31.875,33.9375,34.8125
0.30805382,-2.7373796,-1.7554975,-1.964281,-0.020518228,0.07888258,-0.078057915,-0.39539546,-0.32450452,0.059988048,3.0727904,-0.6373549,-0.00013465714,-0.14710785,0.022405993,0.00017427198,-0.025615683,0.0018062665,-0.05746233,0.41975978,-1.4390094,1.9736885,-2.106068,-1.56787,2.4032223,-0.17842612,0.2154219,-0.24785008,0.020584362,0.02242044,-0.12078929,-0.57460845,0.24899697,-9.32781,0.9835985,47.66808,-1.3314922,-1.8895209,-3.3309033,-0.09207066,0.29764122,-0.29717803,27.875,29.125,28.1875,31.875,33.9375,34.8125
0.31005335,-3.2624335,-2.3061624,-1.7556081,-0.034064945,0.08148156,-0.07490516,-0.3956864,-0.324451,0.05999516,3.0727637,-0.6374653,-0.00010872015,-0.14847699,0.022534423,0.0009914945,-0.027118418,0.0030541962,-0.059434053,0.41941103,-1.4385786,1.973162,-2.1059601,-1.5678576,2.4029462,-0.18020597,0.21547373,-0.24992478,0.020861357,0.023283232,-0.12059635,-0.6703765,0.19153613,-9.385271,0.84708,47.67166,-1.1844784,-1.6366007,-3.3258467,-0.107088074,0.28373986,-0.3157003,27.875,29.125,28.1875,31.875,33.9375,34.8125
0.31205332,-2.6988406,-1.7598671,-1.6449035,-0.034984197,0.09871982,-0.08212872,-0.395986,-0.32441005,0.059993166,3.0726378,-0.637708,-7.314075e-05,-0.14900719,0.022213105,0.0011129703,-0.028663225,0.0034955163,-0.059964307,0.41903886,-1.4381351,1.9726585,-2.1059244,-1.5677847,2.4027421,-0.18069269,0.2159541,-0.2506549,0.020092472,0.024519382,-0.1205511,-0.80445176,0.21068975,-9.289502,0.95897776,47.68062,-1.3302236,-1.7202485,-3.377677,-0.09427725,0.27979934,-0.3288681,27.875,29.125,28.1875,31.875,33.9375,34.8125
0.3140537,-2.3820558,-1.4130794,-2.2189689,-0.0001970021,0.098798625,-0.088722624,-0.39627746,-0.32435873,0.059979748,3.0725393,-0.6378982,-6.299138e-06,-0.14966361,0.021931421,0.00039797486,-0.028152213,0.0025691576,-0.060187977,0.4186556,-1.4376907,1.9721798,-2.1058886,-1.5677131,2.4024906,-0.18048932,0.21916012,-0.25271195,0.0200149,0.024429038,-0.120122775,-0.5554548,0.17238253,-9.5385,0.947788,47.711063,-1.4402328,-1.7679613,-3.4557288,-0.0948903,0.25101465,-0.36839038,27.875,29.125,28.1875,31.875,33.9375,34.8125
0.3160534,-2.458937,-1.0211803,-1.911934,-0.0016874542,0.08493631,-0.08632807,-0.396569,-0.3243117,0.059964295,3.0724573,-0.6380331,9.101957e-06,-0.14998788,0.022886058,-0.0012640355,-0.027100122,-0.00015361229,-0.0605249,0.41829583,-1.4372464,1.9717139,-2.105889,-1.567665,2.402226,-0.18245776,0.22226363,-0.2524008,0.019534577,0.024584142,-0.12175348,-0.3256114,0.038307227,-9.576807,0.8717007,47.698532,-1.4246662,-1.7763181,-3.4688606,-0.0980319,0.23963577,-0.36635947,27.875,29.125,28.1875,31.875,33.9375,34.8125
0.31805345,-2.0658593,-1.2005359,-1.7093782,0.001786651,0.078721635,-0.087998934,-0.39688563,-0.32427332,0.059950273,3.0723827,-0.6382266,8.6699436e-07,-0.15170726,0.02307377,-0.0006367136,-0.028465407,0.001517264,-0.058087405,0.41794756,-1.4367433,1.9711751,-2.1058767,-1.5676411,2.4020085,-0.1844298,0.22296536,-0.25460324,0.018976629,0.025163554,-0.12616095,-0.38307226,-0.095768064,-9.32781,0.85826975,47.68062,-1.2507049,-1.7769817,-3.5204544,-0.07242983,0.23573263,-0.3619265,27.875,29.125,28.1875,31.875,33.9375,34.8125
0.32005405,-1.9466473,-0.8985202,-1.9887909,0.018876487,0.044684708,-0.08539658,-0.3971884,-0.32422167,0.059961308,3.0722868,-0.638376,2.419618e-05,-0.15308385,0.024993354,-0.0015330854,-0.027319795,0.00047179262,-0.055288058,0.41756287,-1.4363235,1.9706596,-2.1058052,-1.567581,2.4017298,-0.18853658,0.22483873,-0.25468487,0.018645491,0.02456209,-0.13306676,-0.26815057,-0.038307227,-9.442732,0.8985519,47.666286,-1.2993908,-1.9609594,-3.4652839,-0.06027343,0.21644866,-0.27994773,27.875,29.125,28.1875,31.875,33.9375,34.8125
0.32205397,-0.9873213,-0.9339791,-2.057993,0.029396141,0.041965842,-0.092298634,-0.39749807,-0.32416514,0.059948683,3.0722394,-0.63853496,-6.479156e-06,-0.15485488,0.02472838,-0.0015261179,-0.02687478,0.0015257995,-0.049256425,0.4172035,-1.4358555,1.970157,-2.1057937,-1.5675815,2.4014761,-0.18879494,0.22813027,-0.25846097,0.018377615,0.023740143,-0.13935447,-0.095768064,-0.038307227,-9.442732,0.9298854,47.672558,-1.3184184,-1.9437647,-3.5191798,-0.037809115,0.22232403,-0.21306221,27.875,29.125,28.1875,31.875,33.9375,34.8125
0.32405365,-1.09343,-0.6587908,-2.0260582,0.013429415,0.01842245,-0.087916836,-0.39781898,-0.32412133,0.059945617,3.0720975,-0.638731,3.5887908e-05,-0.15696202,0.025016075,-0.001091051,-0.02706102,0.0028531684,-0.044765,0.41679558,-1.435387,1.9696292,-2.1057694,-1.5674857,2.4012094,-0.19063725,0.23029059,-0.26203611,0.018547466,0.023389447,-0.14568578,-0.019153614,-0.095768064,-9.442732,0.8940802,47.701214,-1.1864482,-2.0536351,-3.435244,-0.037243053,0.23614454,-0.111425295,27.875,29.125,28.1875,31.875,33.9375,34.8125
0.32605422,-0.5490507,-0.87107736,-1.9017776,0.0140996585,0.013945343,-0.09110689,-0.39812148,-0.3240783,0.059946246,3.072062,-0.63878125,1.6030672e-05,-0.15812925,0.025499409,-0.0004696557,-0.027741402,0.0036601708,-0.043673143,0.41645932,-1.434932,1.9691023,-2.1057212,-1.5674733,2.4009094,-0.19251575,0.23028277,-0.26369977,0.019223688,0.023697726,-0.1486549,-0.1340753,0.11492168,-9.442732,0.85826975,47.71554,-1.1329606,-2.0465977,-3.370379,-0.027918212,0.23237468,-0.075512126,27.875,29.125,28.1875,31.875,33.9375,34.8125
0.32805425,-0.7691083,-1.1136725,-1.9653573,-0.0051396536,0.024926791,-0.08638183,-0.39842108,-0.3240168,0.059902452,3.0720649,-0.6388598,0.0001566696,-0.15922062,0.02513196,-0.00028388313,-0.028608697,0.0035588434,-0.048161037,0.41607574,-1.4343923,1.9685754,-2.1056492,-1.5674366,2.4005747,-0.19308706,0.23225854,-0.26663917,0.019928915,0.024511814,-0.14473832,-0.22984336,0.17238252,-9.346964,0.85155696,47.70032,-1.0866065,-2.0899813,-3.4158378,-0.02558703,0.21356693,-0.05831436,27.875,29.125,28.1875,31.875,33.9375,34.8125
0.330054,-1.3042498,-1.4175389,-2.1680698,-0.01890355,0.026012959,-0.08013906,-0.3987665,-0.32395107,0.05993423,3.0719373,-0.63906664,4.049474e-05,-0.15966123,0.025731593,-0.00037866642,-0.0288793,0.0020748507,-0.05494798,0.41565564,-1.4339851,1.9680365,-2.105625,-1.5674127,2.4003007,-0.19490962,0.23296285,-0.26766378,0.021492679,0.025370553,-0.13977055,-0.1340753,0.22984336,-9.500193,0.8806493,47.69763,-0.9871024,-2.0037944,-3.4618218,-0.04432463,0.19431606,-0.108291775,27.875,29.125,28.1875,31.875,33.9375,34.8125
0.33205375,-2.011489,-2.2348807,-2.1828601,-0.034076292,0.029874016,-0.07478016,-0.3990576,-0.3238892,0.05990061,3.071899,-0.63927364,0.00017980939,-0.15986943,0.026792143,-0.0009834543,-0.027882643,-0.00044353615,-0.06309668,0.4152719,-1.4334811,1.9675235,-2.10554,-1.567365,2.4000514,-0.19691333,0.23422155,-0.26829642,0.023569528,0.025459247,-0.13362756,-0.21068975,0.30645782,-9.595961,0.8291774,47.692257,-0.9530047,-2.0570366,-3.445315,-0.05427678,0.18192716,-0.15547873,27.875,29.125,28.1875,31.875,33.9375,34.8125
0.33405426,-2.1693351,-2.6478825,-1.9937469,-0.055492066,0.055645388,-0.07166942,-0.39937514,-0.32385206,0.05989147,3.0717928,-0.6394449,0.00025697463,-0.16074705,0.027071979,-0.0012028356,-0.027925393,-0.0014385184,-0.068481766,0.41488844,-1.4329774,1.9669603,-2.10548,-1.5672807,2.3997889,-0.19823666,0.2361696,-0.27034014,0.024564771,0.025892498,-0.12956463,-0.4213795,0.24899697,-9.519346,0.97464454,47.70032,-0.99405277,-1.9629915,-3.4489512,-0.07932274,0.18755262,-0.21447349,27.875,29.125,28.1875,31.875,33.9375,34.8125
0.3360537,-1.9721293,-2.1098285,-1.9377143,-0.0498067,0.08055144,-0.08193828,-0.39970776,-0.32379302,0.05990697,3.07167,-0.6396535,0.0002491889,-0.16233546,0.02697946,-0.00032934663,-0.02966226,0.00045657682,-0.07733536,0.41446868,-1.4325341,1.9664091,-2.1054204,-1.5672206,2.3995156,-0.1996896,0.23649526,-0.27270675,0.0241626,0.026707102,-0.122160956,-0.4405331,0.22984336,-9.595961,0.9612189,47.719128,-1.0384165,-1.9958515,-3.4474676,-0.07541688,0.15742227,-0.3104517,27.875,29.125,28.1875,31.875,33.9375,34.8125
0.33805382,-1.8625294,-1.3777602,-2.329163,-0.024057163,0.07931689,-0.0794481,-0.40004152,-0.3237608,0.059912436,3.0715299,-0.6399106,0.00022809353,-0.16289897,0.026376035,0.0005085067,-0.03148086,0.0019333713,-0.078194834,0.41409743,-1.4320437,1.9658355,-2.1053965,-1.56716,2.3993235,-0.19954017,0.23593734,-0.27405426,0.023994464,0.027783949,-0.12114924,-0.34476507,0.2681506,-9.672575,0.85826975,47.686886,-1.0161202,-1.9052091,-3.4963207,-0.07108169,0.12368408,-0.349719,27.875,29.125,28.1875,31.875,33.9375,34.8125
0.34005347,-1.9666382,-1.5379248,-2.2190123,-0.008030065,0.07308579,-0.0826805,-0.40036052,-0.32370037,0.05990022,3.07143,-0.64010096,0.00029339557,-0.1623167,0.025137622,-2.8172963e-05,-0.031141976,0.0014956224,-0.07902784,0.4136792,-1.4315639,1.9653085,-2.1053488,-1.567088,2.3990374,-0.19649628,0.23780343,-0.27495593,0.023574576,0.027643766,-0.11727188,-0.40222588,0.2681506,-9.710882,0.900793,47.670765,-1.1177862,-1.8126768,-3.5573735,-0.082175575,0.11145581,-0.44153982,27.875,29.125,28.1875,31.875,33.9375,34.8125
0.3420541,-1.5585048,-1.0961492,-1.6907059,-0.012288273,0.081945926,-0.09195362,-0.4006874,-0.32365385,0.059896506,3.071311,-0.6403428,0.00027691142,-0.16234249,0.0242786,-0.00043148646,-0.031220375,0.0012953134,-0.076696165,0.41329616,-1.431084,1.9647702,-2.105337,-1.5670398,2.398821,-0.194846,0.23974764,-0.27623415,0.023078829,0.02780439,-0.11795107,-0.38307226,0.21068975,-9.576807,0.88289046,47.666286,-1.2963395,-1.8111291,-3.6354623,-0.06664272,0.09380473,-0.4865433,27.875,29.125,28.1875,31.875,33.9375,34.8125
0.344054,-1.4604925,-1.1973166,-2.0004058,0.0010125489,0.0777129,-0.090101704,-0.4010484,-0.3236196,0.059916105,3.071165,-0.6405575,0.00022245783,-0.16326198,0.024975847,-0.000325726,-0.031227022,0.0015309313,-0.07321499,0.4129006,-1.430581,1.9641465,-2.1053011,-1.5669798,2.3985791,-0.19662054,0.24023443,-0.2772108,0.023387756,0.027742472,-0.123204336,-0.19153613,0.24899697,-9.500193,0.900793,47.653748,-1.292881,-1.8857147,-3.4804857,-0.06621521,0.07850236,-0.47940576,27.875,29.125,28.1875,31.875,33.9375,34.8125
0.34605423,-1.4509184,-0.6971516,-1.8232957,-0.0024766184,0.061753932,-0.08816362,-0.40134108,-0.323531,0.059888214,3.071156,-0.64076185,0.00032627687,-0.16564283,0.025677253,0.00025816317,-0.030842483,0.0031289095,-0.06709541,0.4124926,-1.4301128,1.9636568,-2.1052053,-1.5669683,2.3983,-0.19901535,0.2422269,-0.28105056,0.023972658,0.0267589,-0.1317198,0.0,0.21068975,-9.595961,0.9612189,47.658226,-1.3500187,-1.8955336,-3.5613601,-0.06211015,0.07376653,-0.43259048,27.875,29.125,28.1875,31.875,33.9375,34.8125
0.34805417,-0.7103831,-0.9482478,-1.955443,-0.0006151273,0.045587514,-0.09676266,-0.40169474,-0.32350788,0.0598993,3.0710137,-0.64093727,0.0003261851,-0.1667964,0.026565248,-0.00013008752,-0.029805621,0.0024025629,-0.05957842,0.41210875,-1.429585,1.9630212,-2.1051567,-1.5668844,2.3980446,-0.2009612,0.24436451,-0.28291044,0.02483474,0.026133832,-0.14118096,0.095768064,0.15322891,-9.5385,0.9634547,47.64389,-1.3048851,-2.0143104,-3.5421455,-0.06867938,0.07713359,-0.31732225,27.875,29.125,28.1875,31.875,33.9375,34.8125
0.35005376,-0.72269505,-1.214286,-1.7893971,-0.019732945,0.02891765,-0.08392714,-0.4020544,-0.32346123,0.059913628,3.0708728,-0.64111346,0.00023151968,-0.1684403,0.027603313,3.127153e-05,-0.029005911,0.0033019674,-0.05345602,0.4117009,-1.4291052,1.9624461,-2.1051686,-1.5668367,2.3977656,-0.20329155,0.24562009,-0.28487667,0.02509445,0.025079226,-0.14963126,-0.095768064,0.19153613,-9.481039,0.87617236,47.64479,-1.3273153,-1.9737992,-3.445763,-0.052884303,0.08614205,-0.23426352,27.875,29.125,28.1875,31.875,33.9375,34.8125
0.3520533,-0.94343776,-1.5621276,-1.7987844,-0.027266929,0.021246111,-0.08398579,-0.40237814,-0.3233772,0.05989673,3.0708551,-0.6412034,0.0002971166,-0.16983345,0.027685028,0.0002480244,-0.028320089,0.004155267,-0.049903702,0.41126958,-1.4286135,1.9619068,-2.1050847,-1.5668133,2.397393,-0.20373218,0.24769235,-0.28796992,0.025640614,0.02411467,-0.1536246,-0.05746084,0.17238252,-9.289503,0.93436235,47.677036,-1.309639,-2.1325583,-3.4982116,-0.061802164,0.06976344,-0.14538938,27.875,29.125,28.1875,31.875,33.9375,34.8125
0.3540541,-0.80962723,-1.3599594,-2.0261152,-0.02242084,0.022789264,-0.08319878,-0.4027413,-0.32333386,0.05993149,3.0707192,-0.6414045,0.00019313226,-0.17016658,0.028757457,-0.0004999119,-0.026908526,0.0017444048,-0.050946653,0.4108733,-1.4281461,1.961285,-2.1050365,-1.5667771,2.3971405,-0.20555136,0.2495047,-0.28886127,0.02751307,0.023810089,-0.15439858,0.0,0.2681506,-9.385271,0.88960326,47.658226,-1.2345104,-2.0347962,-3.3825479,-0.076712415,0.07279779,-0.10885876,27.875,29.125,28.1875,31.875,33.9375,34.8125
0.35605398,-1.1607898,-1.8249618,-1.9144831,-0.017340438,0.019211298,-0.08067028,-0.40305752,-0.3232934,0.059925634,3.070667,-0.64153296,0.0002685098,-0.17191888,0.029632118,8.143855e-05,-0.027098686,0.002198477,-0.06005179,0.41051304,-1.4276304,1.960687,-2.1049283,-1.5667294,2.3968675,-0.20835418,0.25040337,-0.29165044,0.028903158,0.023784779,-0.14809586,0.019153614,0.3256114,-9.442732,0.8672237,47.67345,-1.119221,-2.0619082,-3.415339,-0.12026933,0.064494565,-0.17782418,27.875,29.125,28.1875,31.875,33.9375,34.8125
0.35805368,-1.0210352,-1.7701495,-1.5113729,-0.051558703,0.048731305,-0.08741719,-0.40337807,-0.32321563,0.05989082,3.0705888,-0.6417704,0.00043554296,-0.17336087,0.029893093,0.0010612161,-0.028261822,0.0036501712,-0.06900771,0.4100574,-1.4271027,1.9601468,-2.1048439,-1.566645,2.3965704,-0.21007462,0.25028092,-0.2940322,0.029605547,0.024246495,-0.14086083,-0.19153613,0.22984336,-9.32781,0.92764956,47.698532,-1.0664848,-2.0669844,-3.4106946,-0.13244958,0.06734077,-0.21413724,27.875,29.125,28.1875,31.875,33.9375,34.8125
0.36005345,-1.6195439,-2.0224197,-1.6144891,-0.048367716,0.052069258,-0.086256705,-0.4037334,-0.32317248,0.059906065,3.070452,-0.641992,0.0003695386,-0.17475216,0.030155586,0.0018762151,-0.029051915,0.0059924284,-0.07343605,0.4096616,-1.4266126,1.9595488,-2.1048205,-1.5665973,2.3963313,-0.21131614,0.25003022,-0.2955659,0.028931338,0.024042899,-0.1376716,-0.2681506,0.24899697,-9.232041,0.90527004,47.653748,-1.0146755,-1.8664414,-3.3842297,-0.12832364,0.056438096,-0.28726554,27.875,29.125,28.1875,31.875,33.9375,34.8125
0.3620541,-1.6371729,-1.5036132,-1.6068659,-0.01922022,0.05987461,-0.08973735,-0.40410185,-0.32311088,0.059913006,3.0703506,-0.64216244,0.00032483946,-0.17590842,0.03039118,0.0028464848,-0.029360177,0.0076024244,-0.07480689,0.40922964,-1.4260975,1.958938,-2.1047838,-1.5665616,2.3960195,-0.21221372,0.24974667,-0.29778895,0.029853126,0.023696575,-0.13719676,-0.24899697,0.17238252,-9.385271,0.8627467,47.650166,-0.87358963,-1.7332819,-3.4079518,-0.13683698,0.047525637,-0.2988813,27.875,29.125,28.1875,31.875,33.9375,34.8125
0.3640539,-1.5806001,-0.30587816,-1.3806593,-0.012311228,0.081713445,-0.09354423,-0.40443432,-0.32304457,0.05990492,3.0702686,-0.6423957,0.0003841036,-0.1765421,0.030832974,0.002313194,-0.028450413,0.0060385778,-0.07762013,0.40881032,-1.4255935,1.9583629,-2.1046994,-1.5665134,2.3957567,-0.21317495,0.25211915,-0.2997051,0.031203365,0.023483498,-0.13534454,-0.47884035,0.038307227,-9.385271,0.9388393,47.66987,-0.9006494,-1.7363992,-3.451184,-0.17202806,0.043450188,-0.35375905,27.875,29.125,28.1875,31.875,33.9375,34.8125
0.36605343,-1.9282621,0.064562045,-1.4408945,0.014930905,0.08206064,-0.09430367,-0.40481868,-0.32300973,0.0599364,3.070093,-0.64264214,0.00031122158,-0.17653288,0.029977648,0.0021980964,-0.028534643,0.0062175,-0.0753103,0.40839213,-1.4250783,1.957693,-2.1046517,-1.5664414,2.395516,-0.21137196,0.25346118,-0.30105218,0.031032605,0.02350921,-0.13584828,-0.51714754,-0.019153614,-9.3661175,0.9186956,47.68062,-1.1521308,-1.6039712,-3.4409418,-0.178278,0.050730754,-0.34892675,27.875,29.125,28.1875,31.875,33.9375,34.8125
0.36805403,-1.9834335,0.31620654,-1.294405,0.03412124,0.0971994,-0.09194084,-0.405165,-0.32293144,0.059931476,3.0699856,-0.6429035,0.00039282348,-0.17555127,0.030075788,0.0015451995,-0.027817175,0.0045590545,-0.069800645,0.40792522,-1.4245744,1.9571079,-2.1045563,-1.5663694,2.3952265,-0.21054867,0.25360253,-0.29999208,0.031678934,0.023530783,-0.14053598,-0.49799395,-0.05746084,-9.346964,0.88960326,47.687782,-1.3139136,-1.775514,-3.577808,-0.18627031,0.03715262,-0.37655413,27.875,29.125,28.1875,31.875,33.9375,34.8125
0.37005398,-2.3189268,1.0642194,-1.2288463,0.021832952,0.100673944,-0.09928348,-0.40550432,-0.3228912,0.05994106,3.0698826,-0.6429542,0.00035563088,-0.17617656,0.030136587,0.0005432957,-0.02628986,0.0020762621,-0.06487925,0.4075418,-1.4240943,1.9565328,-2.1045315,-1.5663093,2.3948886,-0.21069117,0.25777727,-0.302985,0.033422817,0.023139723,-0.14559731,-0.36391866,-0.21068975,-9.3661175,0.9410752,47.65464,-1.4689469,-1.8078811,-3.5350103,-0.20038518,0.039428994,-0.31487718,27.875,29.125,28.1875,31.875,33.9375,34.8125
0.37205374,-1.6940454,0.6422293,-1.6067249,0.03951152,0.08604992,-0.1080088,-0.4058523,-0.32282618,0.059922278,3.0698292,-0.6431674,0.00043341465,-0.17732398,0.030973637,-0.0006205626,-0.024690362,0.00033840287,-0.058045242,0.40712252,-1.4235303,1.9559101,-2.1044357,-1.566274,2.3946097,-0.21242158,0.26169068,-0.3050351,0.03384367,0.022378571,-0.15416244,-0.1340753,-0.15322891,-9.461885,0.86945957,47.693153,-1.447083,-1.8756509,-3.4172733,-0.22825003,0.03457281,-0.24639225,27.875,29.125,28.1875,31.875,33.9375,34.8125
