Tylouw/Master_Thesis_Code/training_data/batch_1/big_rod_t0.3/sample_16_session_1.csv
timestamp[s],tcp_force_x[N],tcp_force_y[N],tcp_force_z[N],tcp_force_rx[Nm?],tcp_force_ry[Nm?],tcp_force_rz[Nm?],tcp_pose_x[m],tcp_pose_y[m],tcp_pose_z[m],tcp_pose_rx[rot_vec_x],tcp_pose_ry[rot_vec_y],tcp_pose_rz[rot_vec_z],tcp_velo_x[m/s],tcp_velo_y[m/s],tcp_velo_z[m/s],tcp_velo_rx[rot_vec_x/s],tcp_velo_ry[rot_vec_y/s],tcp_velo_rz[rot_vec_z/s],q1[rad],q2[rad],q3[rad],q4[rad],q5[rad],q6[rad],qd1[rad/s],qd2[rad/s],qd3[rad/s],qd4[rad/s],qd5[rad/s],qd6[rad/s],tool_acc_x,tool_acc_y,tool_acc_z,current_of_whole_robot[A],voltage_of_whole_robot[V],current_J1[A],current_J2[A],current_J3[A],current_J4[A],current_J5[A],current_J6[A],temp_J1[C],temp_J2[C],temp_J3[C],temp_J4[C],temp_J5[C],temp_J6[C]
8.670031e-07,-0.18663739,-0.38928643,0.6397142,-0.025290396,0.018888637,-0.016646823,-0.37286162,-0.32819393,0.05992593,-3.0783958,0.6249063,-0.00037826717,0.0031509642,0.0015252715,-0.004244495,0.0045269034,-0.009677612,-2.0782973e-05,0.4481382,-1.470861,2.0095966,-2.1076186,-1.5706857,2.4230914,-9.006197e-05,0.004137393,0.004794302,0.0017513031,0.00012740368,-7.226663e-05,0.038307227,0.17238252,-8.983045,0.7777002,47.729877,-0.20578066,-2.9175415,-2.4866495,-0.52233034,0.1448808,-0.1226391,27.5,28.75,27.75,31.375,33.25,34.0
0.002054742,-0.06363906,-0.051583108,0.61296326,-0.015822183,0.01376332,-0.024406768,-0.37289166,-0.32822153,0.0599412,-3.0785098,0.6248332,-0.0002715718,-0.000778756,-0.00037491095,-0.0028034353,-0.0010837959,0.0019326465,-1.6491218e-05,0.4481382,-1.470861,2.0095847,-2.1077197,-1.5706495,2.4230313,-8.894938e-05,0.0043326532,0.0041068587,-0.010651391,0.0001238961,-7.1312345e-05,0.11492168,0.19153613,-8.829816,0.7732232,47.709274,-0.21292278,-2.8114114,-2.2963052,-0.48260713,0.1236268,-0.11896019,27.5,28.75,27.75,31.375,33.25,34.0
0.004053843,0.15412168,0.29926315,0.25974366,-0.012384042,0.022786703,-0.026332786,-0.372874,-0.3282151,0.059908066,-3.078455,0.6248417,-0.00034855344,-0.0019885055,-0.00095929595,-0.0023454472,-0.0030498763,0.006007334,-1.5223069e-05,0.44815025,-1.4708132,2.0096085,-2.1077206,-1.5706614,2.4230556,-8.786387e-05,0.0040459675,0.004406848,-0.01518891,0.0001205761,-7.038288e-05,0.038307227,0.095768064,-8.983045,0.7351769,47.691364,-0.16525145,-3.0782123,-2.6225865,-0.33385602,0.15442114,-0.11436829,27.5,28.75,27.75,31.375,33.25,34.0
0.006054106,0.49522182,0.545174,0.36213535,-0.009280467,0.015361389,-0.034934495,-0.37288594,-0.3282121,0.05991316,-3.0784516,0.6248983,-0.00026858278,-0.0005236826,-0.0002497614,-0.001946996,-0.001139658,0.0020728102,-1.6853348e-05,0.44815025,-1.4708257,2.009621,-2.107766,-1.5706857,2.4230914,-8.680455e-05,0.0024688558,0.0037045071,-0.008535746,0.00011742935,-6.947726e-05,0.038307227,0.11492168,-8.944737,0.7463667,47.693153,-0.18470368,-2.937201,-2.5933208,-0.36955184,0.13388053,-0.094246484,27.5,28.75,27.75,31.375,33.25,34.0
0.00805365,0.6445118,0.31393826,0.032696262,0.041735705,-0.011998286,-0.026072316,-0.37287393,-0.32821515,0.059895672,-3.078466,0.62492085,-0.00038645638,5.113659e-05,2.8943887e-05,-0.001461184,-0.00025480287,0.00025478922,-1.7376751e-05,0.44812617,-1.4708021,2.0096319,-2.107752,-1.5706257,2.4230795,-8.577056e-05,0.0015912172,0.0026508656,-0.004582541,0.00011444278,-6.85947e-05,-0.05746084,0.0,-9.059659,0.7642693,47.70032,-0.20688951,-2.924191,-2.481224,-0.4212727,0.12973668,-0.09335121,27.5,28.75,27.75,31.375,33.25,34.0
0.01005351,0.6634542,1.4537314,-0.45215106,0.0461421,-0.027083388,-0.028346132,-0.37287456,-0.32820022,0.059880633,-3.0784168,0.6248532,-0.00035797153,0.00025294532,0.00012702685,-0.001278961,0.00024742185,-0.0007766898,-1.7510758e-05,0.4481382,-1.4707781,2.0096428,-2.107764,-1.5706857,2.4230556,-8.492503e-05,0.0015260474,0.0018436197,-0.002562883,0.000111604444,-6.773432e-05,0.019153614,0.05746084,-9.232042,0.6546126,47.7245,-0.5705781,-2.3252165,-3.096836,-0.43797687,0.1277527,-0.16348517,27.5,28.75,27.75,31.375,33.25,34.0
0.012054176,0.36320892,0.9702307,-0.7279038,0.02950885,-0.014238264,-0.033999294,-0.37287888,-0.32819542,0.059895102,-3.078404,0.6248713,-0.00037660633,-0.000570345,0.0014695895,-0.0036505498,0.002939655,-0.0063700257,-0.003268141,0.44812527,-1.4707885,2.009607,-2.107703,-1.5706857,2.4230556,-0.0033622119,0.007733964,6.761219e-05,-0.00078724796,0.00010890339,-9.285658e-05,0.1340753,0.076614454,-9.442732,0.7866488,47.68062,-0.709493,-2.1971927,-3.2128675,-0.4419481,0.111508325,-0.19058564,27.5,28.75,27.75,31.375,33.25,34.0
0.014053885,-0.3527986,-0.0021224904,-0.87022257,0.0032240397,-0.0018152065,-0.0297936,-0.37285954,-0.32820457,0.05984656,-3.078386,0.624848,-0.00051680265,-0.005409603,0.0015557888,-0.0041125137,0.003186746,-0.0068797264,-0.0033408706,0.44813544,-1.4707007,2.0096276,-2.1077268,-1.5706495,2.4230535,-0.007920905,0.016966816,-0.009117621,-0.00026902166,8.6485896e-05,-0.0045719473,-0.05746084,0.095768064,-9.576807,0.7217513,47.684196,-0.35791224,-2.9187417,-2.8877125,-0.43824446,0.106767744,-0.20714131,27.5,28.75,27.75,31.375,33.25,34.0
0.01605376,-1.150476,-0.96422446,-0.92113525,-0.03401075,0.029174322,-0.030382277,-0.3728567,-0.32819244,0.05984688,-3.078352,0.6248579,-0.00055054156,-0.005472603,0.0017008607,-0.003988557,0.0031575982,-0.0068184123,0.002242661,0.4481233,-1.4707009,2.0096161,-2.1076791,-1.5706614,2.4230518,-0.0082487315,0.016649297,-0.009107977,-3.000382e-05,8.319322e-05,-0.01048343,-0.2873042,0.21068975,-9.749189,0.72622824,47.687782,-0.45225298,-2.7747,-3.098382,-0.43114156,0.09283303,-0.1474114,27.5,28.75,27.75,31.375,33.25,34.0
0.018053887,-1.9741615,-1.5027548,-0.74830544,-0.07353805,0.078888975,-0.04021461,-0.37284857,-0.32818636,0.05982004,-3.0783193,0.62481225,-0.0006667111,-0.005279196,0.0017712754,-0.003660703,0.002903611,-0.006263085,0.0032587335,0.44811118,-1.4706415,2.0096042,-2.107643,-1.5706495,2.4230154,-0.008196236,0.015410199,-0.008507435,-1.959035e-06,7.1247545e-05,-0.011447556,-0.38307226,0.2681506,-9.80665,0.7329411,47.728977,-0.57485527,-2.4672694,-3.451198,-0.43484482,0.082269385,-0.14055918,27.5,28.75,27.75,31.375,33.25,34.0
0.0200537,-1.991162,-1.8012826,-0.7779016,-0.07232774,0.10998508,-0.046860546,-0.3728613,-0.32817954,0.05981958,-3.0783224,0.624794,-0.000667906,-0.0057872296,0.0025246528,-0.0040975045,0.004490272,-0.009532348,0.001631575,0.44808668,-1.4706286,2.0095909,-2.1076415,-1.5706495,2.422979,-0.01007035,0.017873112,-0.011055873,0.0037174972,6.030697e-05,-0.011693664,-0.36391866,0.22984336,-9.825804,0.78217715,47.728977,-0.6836786,-2.447812,-3.5217547,-0.45167238,0.061721936,-0.15944947,27.5,28.75,27.75,31.375,33.25,34.0
0.022053411,-1.9968597,-1.4785994,-0.9077476,-0.049826194,0.09611373,-0.06467099,-0.37286714,-0.32818633,0.05981469,-3.078347,0.62472206,-0.00067889044,-0.007556425,0.002605065,-0.0034167997,0.00433176,-0.00884125,0.0011842648,0.44808608,-1.4706042,2.009578,-2.1076534,-1.5706376,2.4229305,-0.011723272,0.019540459,-0.014751099,0.00505439,-0.00010181882,-0.012896841,-0.6703765,0.32561144,-9.825804,0.78217715,47.71554,-0.71607924,-2.45908,-3.3589814,-0.45575413,0.06922077,-0.16561046,27.5,28.75,27.75,31.375,33.25,34.0
0.02405407,-1.8473002,-0.9113494,-1.0478908,-0.020630741,0.072430745,-0.06786629,-0.37289104,-0.32818702,0.059821043,-3.0783305,0.6247572,-0.00066707813,-0.008836297,0.0026126285,-0.003184749,0.0035819958,-0.007191498,0.0008802676,0.4480737,-1.4705678,2.0095184,-2.1076305,-1.5706495,2.4229422,-0.012871195,0.020381855,-0.015853051,0.0035031128,-0.0001473057,-0.013739418,-0.7469909,0.38307226,-9.730036,0.6635613,47.711964,-0.785541,-2.4493093,-3.3460326,-0.44104314,0.043004267,-0.18051723,27.5,28.75,27.75,31.375,33.25,34.0
0.02605339,-1.2337147,-0.5856095,-0.98929137,-0.012387513,0.06754114,-0.09577678,-0.37292656,-0.32818487,0.05981923,-3.078324,0.62479466,-0.0006651693,-0.010393958,0.0025337464,-0.0023614396,0.0023923854,-0.004629043,0.00040485876,0.44803727,-1.470508,2.0094569,-2.1076305,-1.5706495,2.42293,-0.014108478,0.020451283,-0.01754391,0.0022997116,-0.00019223265,-0.014499818,-0.7086837,0.28730422,-9.749189,0.78888994,47.70838,-0.7674049,-2.3446393,-3.432921,-0.42871326,0.051300753,-0.1783261,27.5,28.75,27.75,31.375,33.25,34.0
0.028053746,-1.5395952,-0.54810244,-0.9404344,-0.021903912,0.064736746,-0.09982425,-0.37293923,-0.32818627,0.059804797,-3.0783167,0.62481344,-0.0007331132,-0.011984053,0.003063874,-0.002070627,0.0025720054,-0.003160924,-0.00070781837,0.4480125,-1.4704477,2.009421,-2.1076186,-1.5706261,2.4229178,-0.016007656,0.0214428,-0.019158028,0.0016800219,-0.0009961035,-0.015283277,-0.7469909,0.1340753,-9.80665,0.7530795,47.703903,-0.7533882,-2.3124352,-3.496292,-0.3976949,0.029353615,-0.20649551,27.5,28.75,27.75,31.375,33.25,34.0
0.030054236,-1.8497223,-0.5015549,-0.693693,-0.029753638,0.076808125,-0.109523624,-0.37297234,-0.32815504,0.05980594,-3.0782704,0.6248421,-0.0006592005,-0.013051794,0.0030735913,-0.0018296592,0.0024522163,-0.002325043,-0.00015134482,0.4479643,-1.4704354,2.0094078,-2.107631,-1.5706862,2.4228935,-0.016821373,0.02253974,-0.020870969,0.0014904513,-0.0012551359,-0.01665167,-0.7469909,0.1340753,-9.768343,0.7329411,47.707485,-0.79549754,-2.2864947,-3.4187646,-0.38114583,0.011231618,-0.19647554,27.5,28.75,27.75,31.375,33.25,34.0
0.032053746,-1.4260861,-0.3070932,-0.51204604,-0.015736407,0.09938884,-0.13335077,-0.37300482,-0.32817093,0.05979822,-3.0782983,0.6248481,-0.00069479074,-0.014420972,0.0028680016,-0.0012635824,0.001962241,-0.00082967465,-8.583661e-05,0.44794002,-1.4703512,2.0093358,-2.1076424,-1.57065,2.4228694,-0.017535588,0.023599455,-0.023287527,0.0012884681,-0.001467351,-0.017429262,-0.7278373,0.095768064,-9.710882,0.8179876,47.703007,-0.70805687,-2.347263,-3.3649116,-0.37637815,0.017005736,-0.17205848,27.5,28.75,27.75,31.375,33.25,34.0
0.03405397,-1.4769669,0.013000135,-0.56075543,0.013792149,0.08665899,-0.1374516,-0.37305242,-0.32814485,0.059804894,-3.078274,0.62492,-0.000683905,-0.015007655,0.002974594,-0.0011534399,0.00253244,-0.0019718008,-0.0009521613,0.44785577,-1.4703146,2.0092747,-2.1076176,-1.5706619,2.4228332,-0.018255048,0.025069369,-0.025647888,0.0034550857,-0.0014868643,-0.017281344,-0.59376204,0.038307227,-9.576807,0.6926589,47.694946,-0.755285,-2.3479476,-3.439715,-0.38054198,0.011963685,-0.18606749,27.5,28.75,27.75,31.375,33.25,34.0
0.036053125,-1.1770544,0.89046437,-0.45855322,0.03673002,0.061048586,-0.15171614,-0.3730605,-0.32817423,0.0597897,-3.078328,0.6247976,-0.0007184154,-0.015848774,0.0029563392,-0.0006499977,0.0023599782,-0.0022310968,-0.001875217,0.4478794,-1.4702425,2.0092385,-2.1076534,-1.5706261,2.4227736,-0.019166967,0.025926113,-0.02815763,0.0052668117,-0.0012202614,-0.017269671,-0.4405331,0.0,-9.461885,0.7486078,47.695843,-0.81583625,-2.3557863,-3.3688383,-0.38966596,-0.012143923,-0.18696797,27.5,28.75,27.75,31.375,33.25,34.0
0.038054,-0.50131303,0.7178226,-0.5117182,0.051620398,0.0379907,-0.16651931,-0.37311113,-0.3281559,0.0598001,-3.078289,0.624944,-0.0007064789,-0.017194485,0.002990825,-1.28296715e-05,0.0016426388,-0.00072813686,-0.0030312762,0.4478069,-1.4701943,2.0091536,-2.1076171,-1.5706381,2.4227974,-0.020446628,0.0263822,-0.030073483,0.0050609335,-0.0012292392,-0.017391974,-0.36391866,-0.019153614,-9.423578,0.79560274,47.686886,-0.7414216,-2.2362096,-3.363022,-0.3659643,-0.03774626,-0.17107245,27.5,28.75,27.75,31.375,33.25,34.0
0.040053435,-0.01962858,0.9993332,-0.47767955,0.043977816,0.02661901,-0.181553,-0.37316623,-0.32817814,0.05981263,-3.0783308,0.62491417,-0.000603662,-0.01860779,0.0028321692,0.00043732626,0.0008742769,0.00081350753,-0.0034124006,0.44780663,-1.4701222,2.0090568,-2.1076658,-1.57065,2.4227734,-0.021444932,0.02745889,-0.03211658,0.0043046437,-0.0012092921,-0.018007668,-0.21068975,-0.15322891,-9.500193,0.70608455,47.686886,-0.74924266,-2.2326527,-3.3216035,-0.34835887,-0.047829077,-0.17531219,27.5,28.75,27.75,31.375,33.25,34.0
0.042053927,-0.22281288,0.7660742,-0.42257962,0.033040836,0.017371152,-0.19480963,-0.37319168,-0.32813886,0.05978038,-3.0782523,0.6248979,-0.000674537,-0.019870061,0.0031849553,0.0004233341,0.0021032426,0.0017490046,-0.0035900436,0.44773448,-1.4700377,2.0090325,-2.1076415,-1.5706867,2.4227011,-0.022225965,0.029256787,-0.034011714,0.004095264,-0.0027285253,-0.018606216,-0.095768064,-0.13407528,-9.519346,0.7933669,47.70032,-0.73073006,-2.201157,-3.2921252,-0.3364174,-0.075381465,-0.18287146,27.5,28.75,27.75,31.375,33.25,34.0
0.04405375,-0.5089887,-0.16948013,-0.411932,0.03590258,0.011488632,-0.19331597,-0.37321085,-0.32812408,0.05977915,-3.078213,0.624929,-0.0007079303,-0.020624667,0.0042319284,0.00032319082,0.004835756,0.0013245805,-0.0038983226,0.4476979,-1.4700012,2.0089843,-2.1075933,-1.5706996,2.422689,-0.023336263,0.030489165,-0.03556736,0.0059917397,-0.0050082444,-0.01940259,-0.05746084,-0.019153614,-9.385271,0.76874626,47.684196,-0.7067598,-2.2606921,-3.3351326,-0.31408933,-0.049782097,-0.18741022,27.5,28.75,27.75,31.375,33.25,34.0
0.04605338,-0.70272213,-0.3270221,-0.5136464,0.018710623,0.00936972,-0.18393284,-0.37326247,-0.32811043,0.0597934,-3.0782027,0.6249454,-0.00062965206,-0.021378571,0.004780739,0.0007426493,0.005777361,0.0010002415,-0.0038965947,0.44764954,-1.4699652,2.0089118,-2.1075923,-1.5707353,2.4226522,-0.024571357,0.030960482,-0.03755243,0.008206786,-0.005716057,-0.020637456,-0.11492168,0.076614454,-9.423578,0.7486078,47.685097,-0.6672042,-2.113824,-3.3679605,-0.32485074,-0.04399742,-0.1707527,27.5,28.75,27.75,31.375,33.25,34.0
0.048054967,-0.06471562,-0.40318018,-0.56566525,0.010267361,0.02079539,-0.18244024,-0.37331074,-0.3281209,0.059803672,-3.0782375,0.624953,-0.000649121,-0.021938706,0.0051007294,0.0008551283,0.005898928,0.0003197455,-0.0037055248,0.44760105,-1.4698931,2.0088036,-2.107568,-1.5706996,2.422604,-0.025803568,0.031652614,-0.038865853,0.009493677,-0.0055317725,-0.022060683,0.0,0.11492168,-9.423578,0.7732232,47.72002,-0.7209512,-2.1574304,-3.3704343,-0.35280398,-0.050746147,-0.17860173,27.5,28.75,27.75,31.375,33.25,34.0
0.050053366,0.29118568,-0.4849657,-0.67224395,0.00097227393,0.016968234,-0.17875797,-0.3733474,-0.32812983,0.05980599,-3.0782378,0.62489426,-0.000611624,-0.022789024,0.0052409978,0.0013999922,0.005718365,0.0007462003,-0.0031281328,0.44760066,-1.4698211,2.0087192,-2.1075675,-1.5707234,2.4225671,-0.026822012,0.031921048,-0.04065271,0.010548724,-0.0055557406,-0.023655735,0.0,0.17238252,-9.461885,0.7150385,47.71465,-0.6547977,-2.051807,-3.4277873,-0.34634334,-0.053456597,-0.15515512,27.5,28.75,27.75,31.375,33.25,34.0
0.052053645,0.19596173,-0.9185787,-0.6539017,-0.0035884213,0.005736512,-0.16489817,-0.373396,-0.32808506,0.059795197,-3.078182,0.62498015,-0.0006585546,-0.02389448,0.005413538,0.001548303,0.0058549223,0.001010192,-0.0034912534,0.44748035,-1.4697609,2.0086696,-2.1075318,-1.5707353,2.4225075,-0.027982373,0.033328723,-0.04262846,0.010937634,-0.005798262,-0.024450902,0.038307227,0.34476504,-9.500193,0.80456203,47.70838,-0.74449277,-2.0315857,-3.410359,-0.3332581,-0.04627379,-0.15461352,27.5,28.75,27.75,31.375,33.25,34.0
0.054053493,-0.39154842,-1.0330495,-0.85675484,-0.016037052,-0.0039592716,-0.15950337,-0.37345138,-0.3280686,0.05980566,-3.0781436,0.6250095,-0.0005985017,-0.024637634,0.0061620194,0.0012004048,0.007615209,0.00046223262,-0.0032437572,0.447432,-1.4697005,2.0085738,-2.1075075,-1.570784,2.4224825,-0.029146723,0.03495863,-0.043804556,0.011742452,-0.007149644,-0.025859172,0.019153614,0.3256114,-9.442732,0.6971306,47.705692,-0.6554346,-1.9625511,-3.395648,-0.34025648,-0.056929596,-0.12316723,27.5,28.75,27.75,31.375,33.25,34.0
0.056053746,0.28312558,-0.8952056,-0.6956628,-0.027364455,0.025402816,-0.1743792,-0.37350783,-0.32807636,0.059822343,-3.078184,0.6250565,-0.0005885643,-0.0254913,0.006735334,0.0015063275,0.009498505,0.00090051605,-0.0025375464,0.44737172,-1.4696401,2.0084665,-2.107495,-1.5707492,2.4224465,-0.029716864,0.03579164,-0.045779824,0.013311249,-0.0090379575,-0.027130906,-0.05746084,0.3256114,-9.500193,0.7016076,47.72719,-0.6297908,-2.0080354,-3.4650073,-0.37735897,-0.041242916,-0.11307466,27.5,28.75,27.75,31.375,33.25,34.0
0.0580533,-0.7587857,-1.5301759,-0.8090836,-0.016983785,0.02081724,-0.162944,-0.37354758,-0.32805043,0.059813105,-3.0781207,0.6250425,-0.0006284755,-0.02691991,0.0070786113,0.0020669498,0.010448949,0.002850306,-0.0021498187,0.44731134,-1.469556,2.0083816,-2.107435,-1.5707854,2.4223855,-0.030500326,0.036555503,-0.047911797,0.013336814,-0.010745376,-0.028296446,-0.038307227,0.38307226,-9.557653,0.76874626,47.70838,-0.65072453,-1.9043677,-3.4341116,-0.36809278,-0.021828141,-0.113430396,27.5,28.75,27.75,31.375,33.25,34.0
0.060053784,-0.1971095,-0.6652216,-0.7227142,-0.037429415,0.046693936,-0.17877291,-0.37359545,-0.3280418,0.059816726,-3.0781217,0.625004,-0.00064442225,-0.027794441,0.006865756,0.002131688,0.009816465,0.0029793435,-0.002129315,0.44725123,-1.4694837,2.0082858,-2.1073992,-1.5707849,2.4223013,-0.031235298,0.037983395,-0.049600657,0.013205219,-0.010235799,-0.02905164,-0.05746084,0.4405331,-9.519346,0.6389459,47.7451,-0.6830725,-1.884448,-3.4484777,-0.35942143,-0.028764851,-0.0856445,27.5,28.75,27.75,31.375,33.25,34.0
0.062053453,-1.0767716,-1.2589632,-0.53601146,-0.032269605,0.035464827,-0.16242865,-0.37364426,-0.32802704,0.059810743,-3.0781,0.6250382,-0.00067448226,-0.028564923,0.006389755,0.0018954864,0.008914811,0.003072134,-0.0017613135,0.44717917,-1.4693993,2.0082014,-2.1073754,-1.5707849,2.4222534,-0.0315545,0.039931804,-0.050958283,0.012137187,-0.009469548,-0.029738873,-0.15322891,0.36391866,-9.481039,0.779936,47.71286,-0.6705829,-1.8520699,-3.4313016,-0.36052364,-0.02626526,-0.093239315,27.5,28.75,27.75,31.375,33.25,34.0
0.06405404,-0.74755484,-1.0488431,-0.47296005,-0.035948776,0.03972269,-0.1692178,-0.37373528,-0.3280261,0.059847128,-3.0781002,0.6251143,-0.00055038667,-0.02961374,0.0062544676,0.0018069592,0.008706291,0.0030670585,-0.0008483227,0.4471189,-1.4693265,2.0080326,-2.1073515,-1.5708207,2.4222407,-0.032371752,0.041995432,-0.052997995,0.0120248515,-0.009282998,-0.031468622,-0.22984336,0.38307226,-9.519346,0.7620334,47.731667,-0.7006814,-1.9140185,-3.4667957,-0.36907178,-0.036778186,-0.07014203,27.5,28.75,27.75,31.375,33.25,34.0
0.06605406,-0.60991716,-1.0409263,-0.4428879,-0.029408908,0.04165648,-0.16664603,-0.37379867,-0.32800996,0.05983342,-3.078111,0.6250778,-0.0005765875,-0.030908655,0.005896542,0.0022129067,0.0075120195,0.0041205306,-0.0005007356,0.44702265,-1.4692185,2.0079482,-2.107364,-1.5708083,2.4221203,-0.033282753,0.043264784,-0.05520693,0.011495127,-0.008668677,-0.032726765,-0.22984336,0.30645782,-9.519346,0.7709874,47.698532,-0.74590015,-1.8976843,-3.4907188,-0.3561235,-0.06409704,-0.051084593,27.5,28.75,27.75,31.375,33.25,34.0
0.06805384,-1.0106957,-0.94876295,-0.69107926,-0.010153845,0.028510077,-0.16184512,-0.3738664,-0.32802343,0.059872493,-3.0781496,0.62514377,-0.00047163665,-0.032028757,0.00543293,0.0025542933,0.0069106016,0.00518628,-0.0015619368,0.4469865,-1.4691818,2.0078156,-2.107352,-1.5708083,2.4221206,-0.03347563,0.044731498,-0.05751477,0.01111492,-0.008589482,-0.03185761,-0.30645782,0.2681506,-9.404425,0.78217715,47.698532,-0.7472528,-1.8856528,-3.4233217,-0.3338966,-0.054048195,-0.057540625,27.5,28.75,27.75,31.375,33.25,34.0
0.07005367,-0.92806846,-0.06511573,-0.32656908,-0.007162463,0.038832404,-0.16887726,-0.37391847,-0.32800558,0.059862297,-3.0781105,0.6251375,-0.0005220396,-0.03275201,0.006262636,0.001697259,0.008713279,0.0042611198,-0.0034424188,0.44691405,-1.4690732,2.0077088,-2.1073043,-1.5708207,2.4220493,-0.034854885,0.04706849,-0.058087032,0.010967153,-0.009817958,-0.031352602,-0.3256114,0.21068975,-9.442732,0.82022345,47.698532,-0.76945615,-1.8562165,-3.4702148,-0.3384002,-0.07374473,-0.081711076,27.5,28.75,27.75,31.375,33.25,34.0
0.07205423,-1.1893058,-0.27771887,-0.33754972,0.0050793425,0.042703394,-0.16493674,-0.37398756,-0.32798526,0.059861515,-3.0780694,0.62507105,-0.00047718265,-0.035028808,0.005085329,0.0035646448,0.0061842306,0.007915302,-0.0026468118,0.44685385,-1.4689653,2.0075867,-2.1072805,-1.5708808,2.421953,-0.035167083,0.047607247,-0.06294932,0.010897053,-0.00912781,-0.032458786,-0.30645782,0.24899697,-9.346964,0.800085,47.701214,-0.77922356,-1.9238178,-3.358767,-0.32444495,-0.06461314,-0.075620815,27.5,28.75,27.75,31.375,33.25,34.0
0.074053966,-1.1292515,-0.17730625,-0.22987124,0.011686439,0.054468654,-0.16272134,-0.37404597,-0.3279879,0.059875656,-3.0780969,0.62511474,-0.0004968698,-0.035386775,0.0054307836,0.0028140089,0.0073984563,0.0064153257,-0.0026304726,0.44678164,-1.4688926,2.007466,-2.1072443,-1.570845,2.4219046,-0.03583189,0.049905412,-0.06387041,0.011399242,-0.009575329,-0.033138327,-0.45968673,0.095768064,-9.32781,0.7016076,47.737038,-0.8007157,-1.7920573,-3.3675137,-0.31110102,-0.07084384,-0.05824933,27.5,28.75,27.75,31.375,33.25,34.0
0.07605389,-1.2996249,-0.6303782,-0.27492392,0.016763512,0.0496406,-0.15643968,-0.37411726,-0.32798147,0.059875026,-3.0780714,0.62503153,-0.00042738637,-0.035743095,0.005973103,0.0014357032,0.009839827,0.0041353875,-0.0028197211,0.44674549,-1.4687715,2.0073345,-2.1072438,-1.5709051,2.42182,-0.036346212,0.053617842,-0.064889275,0.011818551,-0.010793086,-0.03345986,-0.4405331,0.15322891,-9.308657,0.86945957,47.71017,-0.86292934,-1.9907279,-3.487131,-0.31057537,-0.08236483,-0.06196776,27.5,28.75,27.75,31.375,33.25,34.0
0.07805369,-1.1453503,-0.31404203,-0.2296346,0.005317833,0.057577167,-0.15908757,-0.3742023,-0.3279752,0.05988546,-3.0780766,0.6251293,-0.00040689931,-0.03822484,0.0059552705,0.0037053013,0.008064872,0.00877198,-0.003326471,0.44664887,-1.4686643,2.00719,-2.1072319,-1.5708936,2.4217837,-0.038272053,0.052104186,-0.06846788,0.011962671,-0.011202357,-0.03487653,-0.4213795,0.21068975,-9.32781,0.75755644,47.707485,-0.80227566,-1.8160896,-3.3905597,-0.3126502,-0.07481572,-0.05084944,27.5,28.75,27.75,31.375,33.25,34.0
0.08005334,-1.0029194,-0.3516865,-0.31978345,0.0024043254,0.05074384,-0.16579635,-0.37426284,-0.32795534,0.059877556,-3.0780547,0.62508696,-0.00044013807,-0.039755154,0.0060059708,0.0039970838,0.008253847,0.0092324745,-0.0046923026,0.44656435,-1.4685558,2.0070808,-2.107196,-1.5709051,2.4216757,-0.039492585,0.05418205,-0.071586795,0.01267008,-0.011577441,-0.03472807,-0.38307226,0.05746084,-9.32781,0.81351066,47.705692,-0.74429774,-1.8003079,-3.2530708,-0.3094526,-0.066077396,-0.06256948,27.5,28.75,27.75,31.375,33.25,34.0
0.08205357,-0.30419478,0.40485382,-0.1926501,-0.0041268826,0.060263924,-0.17206834,-0.37434402,-0.32795992,0.059903245,-3.0780582,0.6251463,-0.0003445542,-0.039502997,0.006689793,0.0024611726,0.010274055,0.006334592,-0.006754154,0.4465162,-1.4684709,2.0069258,-2.1071837,-1.5709299,2.4216642,-0.04015898,0.05692335,-0.07115232,0.012981681,-0.012143515,-0.033332035,-0.38307226,0.17238252,-9.346964,0.78888994,47.698532,-0.7778642,-1.8076818,-3.4417214,-0.30022842,-0.066609025,-0.08763015,27.5,28.75,27.75,31.375,33.25,34.0
0.08405406,-0.64598924,-0.41966078,-0.1714418,0.012708098,0.057734728,-0.16947779,-0.3744277,-0.32795578,0.059904046,-3.078048,0.6251635,-0.00035921534,-0.04090008,0.0058875782,0.002787369,0.010725143,0.0071815527,-0.005941698,0.44643253,-1.468326,2.0067565,-2.107148,-1.5709299,2.4215927,-0.039380506,0.059966058,-0.075396374,0.01361563,-0.012923937,-0.033361446,-0.4405331,0.19153613,-9.346964,0.7530795,47.716442,-0.9278293,-1.9325428,-3.2367299,-0.29477027,-0.053432472,-0.1148478,27.5,28.75,27.75,31.375,33.25,34.0
0.08605402,-0.5787522,-0.22196636,-0.21580707,0.007273479,0.057247292,-0.16546692,-0.37450412,-0.32793632,0.059901997,-3.0779905,0.6251129,-0.00037105975,-0.042787064,0.0063613406,0.004658789,0.00956028,0.011099962,-0.0062728724,0.4463596,-1.468183,2.0065877,-2.107076,-1.5709785,2.4214957,-0.041528996,0.0577856,-0.07731025,0.01367154,-0.013571244,-0.035176035,-0.34476504,0.21068975,-9.346964,0.779936,47.658226,-0.8406684,-1.7760761,-3.2234168,-0.30498558,-0.07149787,-0.10321692,27.5,28.75,27.75,31.375,33.25,34.0
0.0880536,-0.53675437,0.05760222,-0.38710138,0.0031693124,0.057651997,-0.1637194,-0.3745642,-0.32791638,0.05990509,-3.07799,0.6251717,-0.00041146486,-0.043097667,0.006841073,0.0030843976,0.010871126,0.0074883075,-0.0074073137,0.4462513,-1.4681098,2.006492,-2.1070397,-1.5709542,2.4214242,-0.042957123,0.061878186,-0.078388,0.014478339,-0.013195472,-0.03546929,-0.30645782,0.21068975,-9.3661175,0.7642693,47.668976,-0.8016146,-1.9007051,-3.260638,-0.30180275,-0.058098786,-0.108414605,27.5,28.75,27.75,31.375,33.25,34.0
0.09005336,-0.827635,-0.35127664,-0.55921763,-0.005654454,0.04916105,-0.16266356,-0.3746646,-0.3279021,0.05991343,-3.0779352,0.6251803,-0.0003021691,-0.04572405,0.007102498,0.0040138867,0.010933573,0.009769669,-0.009208626,0.4461903,-1.4679654,2.0063112,-2.1070273,-1.5710381,2.4213758,-0.045104433,0.06382854,-0.08275891,0.014867666,-0.014243926,-0.03581061,-0.30645782,0.15322891,-9.442732,0.7978386,47.67345,-0.76042557,-1.9384638,-3.2293105,-0.2827386,-0.042045508,-0.1184151,27.5,28.75,27.75,31.375,33.25,34.0
0.0920544,-1.1492068,-0.85188764,-0.34357423,-0.01054854,0.048168376,-0.157691,-0.3747715,-0.32789165,0.05991528,-3.077949,0.62524045,-0.00031109262,-0.04520171,0.008013027,0.0025001112,0.012977882,0.0065995012,-0.009945372,0.44605812,-1.467809,2.0061324,-2.1070158,-1.5710148,2.4212794,-0.04600691,0.0658592,-0.081673734,0.01549437,-0.014716016,-0.03597603,-0.45968673,0.24899697,-9.404425,0.75755644,47.672558,-0.70651925,-1.8743968,-3.2429886,-0.28682545,-0.05750153,-0.13994655,27.5,28.75,27.75,31.375,33.25,34.0
0.09405339,-0.842916,-0.5690491,-0.35534588,-0.024849148,0.05771978,-0.1633644,-0.37486252,-0.32787573,0.05994189,-3.0779207,0.6252143,-0.00022399228,-0.04530064,0.0076750447,0.002251177,0.013863362,0.0062092645,-0.008399441,0.44598648,-1.4677125,2.0059516,-2.1069558,-1.5710748,2.4211953,-0.045024358,0.067443885,-0.082946084,0.015914816,-0.015347745,-0.03653758,-0.3256114,0.17238252,-9.461885,0.81351066,47.65912,-0.82282126,-1.944943,-3.325903,-0.27913946,-0.026250781,-0.14161536,27.5,28.75,27.75,31.375,33.25,34.0
0.0960536,-1.551694,-0.9139558,-0.36720175,-0.027139327,0.04197747,-0.1565653,-0.37494248,-0.32787552,0.05993535,-3.0778997,0.625211,-0.00026869195,-0.048054047,0.0073873624,0.0034992283,0.012372979,0.008543984,-0.010410153,0.44591376,-1.4675442,2.0057704,-2.1069076,-1.5710748,2.4211233,-0.0471821,0.06932523,-0.08797855,0.016314372,-0.01502121,-0.036681607,-0.24899697,0.24899697,-9.442732,0.73069996,47.71823,-0.7951388,-1.8838941,-3.070743,-0.30133817,-0.043296978,-0.15158623,27.5,28.75,27.75,31.375,33.25,34.0
0.09805336,-1.0023414,-0.81763756,-0.6104018,-0.026419938,0.04464435,-0.15417129,-0.37505686,-0.32784918,0.059943356,-3.0778534,0.62531734,-0.00019434288,-0.048094533,0.008134487,0.0022720376,0.013630942,0.0064510144,-0.01105731,0.44579342,-1.4674,2.0055907,-2.1068952,-1.571123,2.4210753,-0.048448827,0.071380734,-0.0873844,0.016092462,-0.01525229,-0.037301026,-0.22984336,0.30645782,-9.385271,0.8560339,47.72719,-0.81299156,-1.9977319,-3.2834506,-0.27211374,-0.03366755,-0.18526334,27.5,28.75,27.75,31.375,33.25,34.0
0.10005397,-0.19385107,-0.13914749,-0.27701402,-0.020072648,0.047352124,-0.17311847,-0.37516403,-0.32783675,0.059954002,-3.0778503,0.62533593,-0.00010210687,-0.049482826,0.007377818,0.0028462326,0.012038167,0.0071182875,-0.010868509,0.44569707,-1.4672674,2.0054233,-2.1069076,-1.5711583,2.4209912,-0.049040105,0.07319867,-0.0907722,0.016366215,-0.0141080115,-0.03808196,-0.2681506,0.28730422,-9.442732,0.8179876,47.729877,-0.7531046,-1.9281805,-3.1869085,-0.26212794,-0.014085421,-0.18632875,27.5,28.75,27.75,31.375,33.25,34.0
0.10205386,-0.43596572,0.09442626,-0.16947694,-0.020991579,0.036656372,-0.16009332,-0.3752924,-0.32782793,0.059982013,-3.0778396,0.6254295,6.8743548e-06,-0.050393865,0.007549882,0.0027889833,0.012376999,0.006964777,-0.011129394,0.44558874,-1.467123,2.005195,-2.1068838,-1.571194,2.4209428,-0.050004657,0.074823536,-0.092533,0.016784238,-0.014348318,-0.03878484,-0.21068975,0.2681506,-9.385271,0.7732232,47.652847,-0.77520746,-1.9957986,-3.2304883,-0.23568696,-0.036362655,-0.2019376,27.5,28.75,27.75,31.375,33.25,34.0
0.104053535,-0.4387353,-0.55873567,-0.39826176,-0.0007957235,0.024568703,-0.16133626,-0.37538537,-0.32781494,0.05998212,-3.077812,0.6253846,2.5299481e-05,-0.050539207,0.007451439,0.0021714855,0.0126750525,0.0051401,-0.010121598,0.44550478,-1.4669666,2.0050142,-2.106847,-1.5712303,2.4208345,-0.050286382,0.07699439,-0.093689896,0.017539924,-0.013832815,-0.040074423,-0.24899697,0.30645782,-9.251195,0.7530795,47.65643,-0.835721,-1.941119,-3.1505067,-0.24495423,-0.010923249,-0.22697686,27.5,28.75,27.75,31.375,33.25,34.0
0.10605376,-0.15566657,-0.702561,-0.5468478,0.0022821694,0.02619123,-0.16852145,-0.37548435,-0.32780054,0.05999437,-3.0777917,0.62539876,1.9873645e-05,-0.05185811,0.007401916,0.0026769713,0.012680686,0.006367727,-0.008468032,0.44539645,-1.4668225,2.004811,-2.106775,-1.5712422,2.4207377,-0.051001884,0.07815585,-0.09618904,0.017770443,-0.014373447,-0.04244065,-0.15322891,0.28730422,-9.308657,0.7083204,47.70659,-0.82560486,-2.0435505,-3.120315,-0.23401201,-0.012572886,-0.2189753,27.5,28.75,27.75,31.375,33.25,34.0
0.10805373,0.29310933,0.060323227,-0.388883,-0.026299095,0.036568582,-0.1687722,-0.37558365,-0.3277865,0.059984606,-3.0777662,0.6254118,3.1882344e-06,-0.05254961,0.00665129,0.0032014837,0.011359193,0.007485073,-0.0077971453,0.44528857,-1.4666426,2.0046303,-2.1067522,-1.5712541,2.4206414,-0.050676484,0.07873425,-0.097950906,0.017371507,-0.013667822,-0.042786032,-0.11492168,0.2681506,-9.481039,0.8224646,47.74062,-0.9015616,-1.8864636,-3.1579409,-0.21309789,-0.02519263,-0.22302184,27.5,28.75,27.75,31.375,33.25,34.0
0.110054284,-0.7591972,-0.8933726,-0.30239508,-0.018005084,0.022265187,-0.16234772,-0.37567297,-0.32778215,0.059979163,-3.0777385,0.62540734,7.6063434e-06,-0.052876297,0.0072209323,0.0010613264,0.013493204,0.003339132,-0.010113227,0.44521618,-1.4664731,2.0044506,-2.1067274,-1.5712785,2.42057,-0.051933553,0.08406267,-0.09901378,0.017766085,-0.013809593,-0.041725196,-0.22984336,0.36391866,-9.442732,0.75755644,47.692257,-0.9429952,-2.1695063,-3.153906,-0.19246168,-0.0026994697,-0.26184648,27.5,28.75,27.75,31.375,33.25,34.0
0.11205382,-0.2479772,-0.3443455,-0.37586147,-0.02889072,0.035692193,-0.167676,-0.3758001,-0.32772535,0.059982974,-3.0776453,0.62556106,3.6969435e-05,-0.054748204,0.0071058907,0.0033580384,0.01104418,0.007295039,-0.010509236,0.4450355,-1.4663184,2.004258,-2.1066678,-1.5713385,2.4204972,-0.05371586,0.0816278,-0.10172677,0.018281171,-0.01330891,-0.043111186,-0.21068975,0.28730422,-9.3661175,0.7665104,47.692257,-0.85413945,-1.9376464,-3.1709046,-0.18170103,-0.020589322,-0.2973386,27.5,28.75,27.75,31.375,33.25,34.0
0.11405367,-0.6007132,-0.72500306,-0.24280934,-0.016295638,0.026327224,-0.16367802,-0.37590003,-0.3277398,0.059996918,-3.0776474,0.6255213,8.5603715e-05,-0.05350169,0.0064731836,0.0011206933,0.013632319,0.0031805828,-0.0067953384,0.44498858,-1.4661487,2.004031,-2.1066315,-1.5713624,2.4204254,-0.051015183,0.086353295,-0.10187053,0.018526822,-0.013873287,-0.0441228,-0.038307227,0.30645782,-9.346964,0.77545905,47.699425,-1.0911319,-1.942136,-3.2173126,-0.17587164,-0.018657025,-0.29321545,27.5,28.75,27.75,31.375,33.25,34.0
0.11605363,-0.30301467,-0.75476366,-0.19645238,-0.013547837,0.029034257,-0.15948175,-0.37603375,-0.32772908,0.060014416,-3.0776594,0.6255614,0.00015541569,-0.05439753,0.0068005174,0.0017497682,0.012592274,0.0034659833,-0.006408159,0.44485572,-1.4659812,2.0038035,-2.1066191,-1.5713738,2.4203162,-0.052962244,0.08600824,-0.10315585,0.01944476,-0.013057449,-0.046458915,0.019153614,0.24899697,-9.308657,0.7732232,47.719128,-1.0882974,-2.0515141,-3.2176054,-0.16274674,-0.020675944,-0.30710164,27.5,28.75,27.75,31.375,33.25,34.0
0.118053325,-0.18615316,-0.7515353,-0.13242806,-0.00089298515,0.018672222,-0.15641761,-0.37613636,-0.3277291,0.06002208,-3.077664,0.62556374,0.00019664588,-0.054796234,0.006875692,0.0008660825,0.013885119,0.0014902457,-0.0076933443,0.4447717,-1.4658244,2.0036104,-2.1066067,-1.5713862,2.4202332,-0.053233307,0.0892105,-0.104863,0.020289809,-0.0133747365,-0.04544323,-0.019153614,0.17238252,-9.251195,0.75755644,47.683304,-1.1407735,-2.0188022,-3.2589188,-0.15723735,-0.034307696,-0.336262,27.5,28.75,27.75,31.375,33.25,34.0
0.12005388,0.27223507,0.3205553,-0.05762716,-0.002716743,0.011587563,-0.16950902,-0.37623256,-0.32771325,0.060009874,-3.0776088,0.62557256,0.00011719024,-0.0558169,0.007287274,0.00057630514,0.013507653,0.00095902267,-0.011404519,0.444663,-1.4656202,2.0033944,-2.1065233,-1.5713977,2.4201372,-0.05528611,0.090826325,-0.105947174,0.020072842,-0.012811085,-0.04378413,0.076614454,0.17238252,-9.308657,0.83589023,47.701214,-1.0294346,-2.0502388,-3.369814,-0.14847632,-0.027359338,-0.3809139,27.5,28.75,27.75,31.375,33.25,34.0
0.12205343,0.33157697,0.055317786,-0.10843785,0.0051575336,0.011066384,-0.16610628,-0.37636852,-0.327706,0.06002695,-3.0776227,0.6255542,0.00019959739,-0.056777354,0.0061635105,0.0015696515,0.012498258,0.0030176728,-0.008102652,0.44454342,-1.4654405,2.0031545,-2.1065109,-1.571422,2.4200046,-0.054033473,0.09153431,-0.1090388,0.020159349,-0.012791052,-0.045832135,-0.019153614,0.19153613,-9.251195,0.81351066,47.71554,-1.1696587,-2.01381,-3.125413,-0.1312424,-0.028999222,-0.39766246,27.5,28.75,27.75,31.375,33.25,34.0
0.12405383,0.10940519,0.25932622,-0.03212121,-0.0037806493,0.010267648,-0.16503692,-0.37648475,-0.32769522,0.06004435,-3.0775678,0.62561977,0.00026943607,-0.056967877,0.0071244887,0.00060403696,0.013796589,0.0011128179,-0.0077855727,0.44445884,-1.4652722,2.0029156,-2.1064513,-1.5714816,2.4199681,-0.055750743,0.093109794,-0.10864506,0.020463685,-0.013143452,-0.047866028,0.0,0.22984336,-9.193734,0.83589023,47.71286,-1.1926363,-2.0789616,-3.3876934,-0.11177927,-0.041966558,-0.41316283,27.5,28.75,27.75,31.375,33.25,34.0
0.126054,-0.20237865,-0.50594187,-0.29492292,0.013318941,0.01292113,-0.15783624,-0.37660456,-0.32767102,0.060034204,-3.07753,0.6256117,0.00022092166,-0.057966616,0.0074419267,0.0006121793,0.014254736,0.0007008871,-0.0072448677,0.44431436,-1.465056,2.0026867,-2.1063907,-1.5714945,2.4198236,-0.057056703,0.094747484,-0.11071524,0.021461643,-0.013386233,-0.049710415,-0.019153614,0.1340753,-9.289502,0.80456203,47.73077,-1.142325,-2.0122194,-3.232129,-0.094148844,-0.03609483,-0.416623,27.5,28.75,27.75,31.375,33.25,34.0
0.12805374,-0.56562465,-0.569904,-0.24051164,0.000892985,0.013288761,-0.15357177,-0.37672412,-0.32764062,0.060039293,-3.0774913,0.6257185,0.00030976787,-0.058279514,0.00798236,0.0005348025,0.015392631,-0.0007211939,-0.0065383394,0.44418207,-1.4649118,2.002519,-2.1064022,-1.5715421,2.419763,-0.058049567,0.09571422,-0.11211891,0.0236673,-0.0138004515,-0.051409125,-0.076614454,0.17238252,-9.270349,0.842603,47.70838,-1.1803825,-1.9821148,-3.382185,-0.09682718,-0.030474786,-0.42603266,27.5,28.75,27.75,31.375,33.25,34.0
0.1300537,-0.5765095,-0.62356985,-0.17247449,-0.0034896373,0.025410296,-0.15831842,-0.3768343,-0.32762903,0.060051978,-3.0774548,0.6256715,0.00030952194,-0.05840173,0.008492869,-0.00066566345,0.016816946,-0.0042562885,-0.0047185128,0.4440857,-1.4647311,2.0022686,-2.1063054,-1.5715784,2.4196422,-0.05925375,0.09894736,-0.11336002,0.02547221,-0.013570122,-0.05443253,-0.11492168,0.21068975,-9.270349,0.8493211,47.721813,-1.2090983,-2.011716,-3.393632,-0.09340122,-0.045489166,-0.43213725,27.5,28.75,27.75,31.375,33.25,34.0
0.13205428,-0.3034646,-0.24368538,-0.1928648,0.0036954016,0.0288488,-0.16244933,-0.37695232,-0.32761908,0.060026105,-3.0774052,0.62575644,0.0002109364,-0.06065107,0.008404029,0.0016789244,0.015011718,-6.769736e-05,-0.0030996662,0.44395298,-1.4644679,2.0020268,-2.1062577,-1.5715665,2.419569,-0.060957294,0.09724042,-0.1170706,0.026327884,-0.013752191,-0.057751987,-0.17238252,0.15322891,-9.174581,0.7866488,47.65106,-1.1532067,-1.8768982,-3.4081707,-0.097295955,-0.037691996,-0.41522932,27.5,28.75,27.75,31.375,33.25,34.0
0.13405403,-0.69030964,0.2225728,-0.37088388,0.006812415,0.019103307,-0.16596319,-0.37707758,-0.32762587,0.06004387,-3.0774646,0.6256898,0.0002708824,-0.05962763,0.008763373,-0.00028242613,0.015802719,-0.0049420376,-0.00059347815,0.44384488,-1.4642996,2.0018003,-2.1062572,-1.5715541,2.419412,-0.06162232,0.100038484,-0.11583961,0.027031548,-0.01236838,-0.060927324,-0.21068975,0.21068975,-9.308656,0.83365434,47.685097,-1.2077143,-1.7212381,-3.478266,-0.09323261,-0.07898882,-0.41230384,27.5,28.75,27.75,31.375,33.25,34.0
0.13605413,-0.30871287,-0.098075666,-0.35666642,0.011510372,0.03516295,-0.16614223,-0.37721312,-0.3275812,0.06004842,-3.07735,0.62572145,0.00033086434,-0.062478602,0.008316057,0.0018797973,0.014648075,-0.00041743988,0.0025205251,0.44371247,-1.4640958,2.0015461,-2.1061733,-1.5716623,2.4193141,-0.06269859,0.10030327,-0.12122409,0.027559433,-0.013284197,-0.06511228,-0.17238252,0.19153613,-9.3661175,0.8023209,47.698532,-1.1295948,-1.91676,-3.275384,-0.08045968,-0.065711394,-0.37405938,27.5,28.75,27.75,31.375,33.25,34.0
0.13805376,-0.89699256,-0.036414254,-0.20934226,0.007352288,0.03355606,-0.16511028,-0.3773195,-0.32759386,0.06004928,-3.0774007,0.62557685,0.0002777447,-0.06289465,0.008699089,0.0013399242,0.015178888,-0.0020635908,0.0055140546,0.44361594,-1.4638915,2.0013077,-2.106125,-1.5716256,2.419121,-0.063917845,0.1021318,-0.12222587,0.02844302,-0.013061359,-0.069324754,-0.21068975,0.11492168,-9.346964,0.78888994,47.685097,-1.1297472,-1.8007268,-3.4191523,-0.08598757,-0.05770229,-0.34016484,27.5,28.75,27.75,31.375,33.25,34.0
0.14005324,-0.82429624,-0.23031749,-0.585523,0.011608247,0.050411914,-0.1619731,-0.37742963,-0.3275544,0.060035642,-3.077325,0.6255975,0.00019511343,-0.06365164,0.008992638,0.0008540667,0.016702943,-0.0032381671,0.008461271,0.44345996,-1.4636868,2.0010912,-2.1060293,-1.5716504,2.4189878,-0.064526975,0.10484631,-0.12439111,0.029604096,-0.013945605,-0.07287676,-0.2873042,0.1340753,-9.385271,0.7396539,47.70211,-1.2985866,-1.8510038,-3.3648999,-0.086717606,-0.08731647,-0.27720076,27.5,28.75,27.75,31.375,33.25,34.0
0.14205396,-1.1460258,-0.4803634,-0.4579802,0.0005095127,0.065700196,-0.16373612,-0.37757173,-0.3275601,0.060056996,-3.0773425,0.62554264,0.00023643646,-0.06512194,0.009198983,0.0017448803,0.015543817,-0.002428579,0.009711885,0.443351,-1.4634713,2.0007908,-2.1059692,-1.5716618,2.4188426,-0.066669665,0.1050568,-0.12693697,0.030702248,-0.013250306,-0.07627073,-0.28730422,0.22984336,-9.461885,0.88289046,47.666286,-1.2349122,-1.8828068,-3.2915475,-0.087468565,-0.091341786,-0.25966364,27.5,28.75,27.75,31.375,33.25,34.0
0.14405338,-1.2448193,-0.21974106,-0.61773515,-0.029313512,0.07414382,-0.1712146,-0.37769482,-0.32752433,0.060057957,-3.0772693,0.6255278,0.0002062923,-0.06584953,0.010000027,0.0013317205,0.017163564,-0.003448687,0.010411819,0.44320646,-1.4632671,2.0005386,-2.105861,-1.5717105,2.4186983,-0.068099216,0.10683045,-0.12822258,0.031826004,-0.014283705,-0.07839647,-0.34476504,0.21068975,-9.500193,0.83589023,47.657326,-1.2360454,-1.7525036,-3.315598,-0.09023469,-0.09746076,-0.2006787,27.5,28.75,27.75,31.375,33.25,34.0
0.14605379,-1.3848119,-1.3245878,-0.70965356,-0.01468679,0.07822284,-0.16168678,-0.37782606,-0.3274972,0.06004572,-3.0772126,0.6255155,0.00017731212,-0.06727055,0.010155966,0.0018510033,0.016997786,-0.0025185293,0.010402184,0.4430622,-1.4630269,2.0002878,-2.1058009,-1.5717462,2.4185538,-0.069459036,0.10790514,-0.1307436,0.03235539,-0.014543304,-0.07974392,-0.4405331,0.21068975,-9.500193,0.84708,47.666286,-1.2219981,-1.7621517,-3.344924,-0.09391405,-0.102334455,-0.1744037,27.5,28.75,27.75,31.375,33.25,34.0
0.1480533,-1.8796991,-0.9481044,-0.6110488,-0.029422628,0.07307013,-0.16864313,-0.3779537,-0.32750225,0.060078036,-3.0772657,0.62531585,0.0002339406,-0.068445094,0.010742736,0.0018237034,0.018031377,-0.0020404847,0.009380029,0.44296572,-1.4628587,2.0000117,-2.1057293,-1.5717586,2.4183261,-0.07081491,0.10934572,-0.13232131,0.03250502,-0.015683336,-0.08007456,-0.51714754,0.19153613,-9.5385,0.8493211,47.687782,-1.1938894,-1.7226372,-3.3452883,-0.1073737,-0.09802717,-0.1482748,27.5,28.75,27.75,31.375,33.25,34.0
0.15005396,-1.719021,-0.60019904,-0.7660567,-0.028801957,0.077169836,-0.16737922,-0.37811595,-0.32744256,0.060076136,-3.0771751,0.62541336,0.0002445648,-0.069650166,0.010806634,0.0015368558,0.017931018,-0.0024059394,0.0072043594,0.4427493,-1.4626304,1.9997476,-2.1056573,-1.5718187,2.4181824,-0.07213359,0.11186982,-0.13444827,0.032387238,-0.015445171,-0.07921593,-0.6512229,0.22984336,-9.672575,0.77545905,47.664497,-1.1869838,-1.5106398,-3.2827296,-0.09660632,-0.09471683,-0.1307482,27.5,28.75,27.75,31.375,33.25,34.0
0.15205356,-1.2446494,-0.16430463,-0.76642615,-0.0334923,0.08462161,-0.17958018,-0.3782557,-0.3274512,0.060079824,-3.0771847,0.6253596,0.0002413959,-0.0701891,0.011242871,-0.00029537332,0.019993002,-0.005600433,0.0035815681,0.44264078,-1.4623773,1.9994487,-2.1056092,-1.5718192,2.4180393,-0.07307016,0.116904855,-0.1358768,0.032554198,-0.01594197,-0.076527014,-0.59376204,0.24899697,-9.653421,0.83365434,47.67345,-1.1486952,-1.6669781,-3.3832984,-0.080389954,-0.09747495,-0.15649605,27.5,28.75,27.75,31.375,33.25,34.0
0.15405333,-1.3383317,-0.3077412,-0.6452055,-0.032512356,0.077808134,-0.16462153,-0.37839815,-0.32743818,0.060094748,-3.0772002,0.6253831,0.00021765083,-0.0712253,0.010850162,0.00038279002,0.018815225,-0.0043097246,0.0019945519,0.44247276,-1.4621732,1.9991726,-2.1055372,-1.5717949,2.417884,-0.0735647,0.117334686,-0.13791443,0.032490116,-0.015436196,-0.07543445,-0.63206923,0.21068975,-9.653421,0.85155696,47.698532,-1.186603,-1.8104568,-3.4526405,-0.07713341,-0.10569142,-0.14101161,27.5,28.75,27.75,31.375,33.25,34.0
0.15605402,-1.3585906,-0.4968882,-0.33923608,-0.012911722,0.065561794,-0.16440535,-0.37851444,-0.32740903,0.060059756,-3.077093,0.6253276,0.00016295539,-0.072483145,0.012893198,-0.0013715129,0.021103103,-0.0071697044,-0.008144077,0.442363,-1.4618964,1.9989332,-2.105477,-1.5718673,2.4177537,-0.07791576,0.121045195,-0.13801485,0.03244785,-0.016283471,-0.06964278,-0.57460845,0.21068975,-9.519346,0.80456203,47.70838,-0.9800154,-1.7611632,-3.3971696,-0.06967506,-0.11133258,-0.19504741,27.5,28.75,27.75,31.375,33.25,34.0
0.15805386,-1.5145065,-0.38144064,-0.53914344,0.0004532303,0.052513506,-0.16401133,-0.37871513,-0.3273746,0.060089353,-3.0770597,0.62547433,0.0003113323,-0.07419091,0.011359399,0.000875693,0.019153198,-0.0023339808,-0.008924189,0.44215986,-1.4616691,1.998609,-2.1054537,-1.5719274,2.4176466,-0.07631142,0.120379046,-0.14242278,0.032313988,-0.016596042,-0.06725637,-0.45968673,0.1340753,-9.500193,0.76874626,47.737038,-1.0999894,-1.707737,-3.2721913,-0.06383246,-0.13265719,-0.23995811,27.5,28.75,27.75,31.375,33.25,34.0
0.1600536,-1.1952717,0.15622799,-0.38155064,-0.00034392672,0.051239517,-0.16612187,-0.37885588,-0.32732987,0.060081773,-3.0769691,0.6255331,0.00030594814,-0.07511159,0.012488981,-0.00010951831,0.020647483,-0.0042396067,-0.010112086,0.44199097,-1.4614404,1.9983572,-2.1053817,-1.5719875,2.4175262,-0.07884618,0.123098694,-0.14331773,0.032844175,-0.017138498,-0.068600416,-0.36391866,0.21068975,-9.481039,0.8112748,47.71554,-1.1015999,-1.7523692,-3.3005247,-0.05878671,-0.11036366,-0.23047476,27.5,28.75,27.75,31.375,33.25,34.0
0.16205376,-0.58452004,-0.122293375,-0.20639227,0.014428957,0.04984093,-0.16886002,-0.3790011,-0.32734054,0.060076788,-3.0769985,0.6253892,0.0003042282,-0.077535726,0.013628269,7.087457e-05,0.02062396,-0.003914563,-0.016739039,0.4418814,-1.4611642,1.9980577,-2.105358,-1.5719875,2.4173234,-0.08302007,0.12522264,-0.14622156,0.03332241,-0.017260682,-0.06614523,-0.2873042,0.095768064,-9.3661175,0.8247004,47.723602,-0.87043834,-1.7885104,-3.2792282,-0.03784219,-0.14313237,-0.27385455,27.5,28.75,27.75,31.375,33.25,34.0
0.16405322,-0.9170905,-0.12009623,-0.29786828,0.01954539,0.026281476,-0.16016212,-0.3791785,-0.32730561,0.06010008,-3.076958,0.6254362,0.00036382582,-0.078322366,0.012176097,0.0009513907,0.019495778,-0.0030257714,-0.013834824,0.44169003,-1.4609362,1.997733,-2.1052735,-1.5720352,2.4171667,-0.081384845,0.12675217,-0.15022665,0.034501642,-0.01662915,-0.06741371,-0.38307226,0.1340753,-9.270349,0.83589023,47.687782,-1.0652148,-1.8275223,-3.1908176,-0.04460893,-0.14968038,-0.29219085,27.5,28.75,27.75,31.375,33.25,34.0
0.1660541,-0.7264621,0.025807252,-0.10433167,0.013036618,0.023243092,-0.16579583,-0.37931746,-0.32727686,0.06009681,-3.0769026,0.6255408,0.0003260517,-0.07818267,0.014008591,-0.0013541295,0.023091186,-0.008427777,-0.015010841,0.44152114,-1.4607073,1.9974707,-2.105201,-1.5720481,2.4170704,-0.08401782,0.13078286,-0.14989848,0.036560725,-0.017571837,-0.068867974,-0.45968673,0.21068975,-9.289502,0.85826975,47.71286,-0.9726848,-1.7775817,-3.361005,-0.043047626,-0.1434194,-0.29090965,27.5,28.75,27.75,31.375,33.25,34.0
0.16805382,-0.4726899,0.19051269,-0.15271772,0.011156283,0.03136183,-0.1705589,-0.3795078,-0.3272647,0.060124416,-3.0769072,0.6254843,0.0004022095,-0.078919835,0.014300363,-0.00085605495,0.022675043,-0.008422586,-0.016011387,0.44135264,-1.4604437,1.9970993,-2.105128,-1.5720834,2.4168663,-0.08542096,0.1308059,-0.1513891,0.037838586,-0.017198937,-0.069271594,-0.36391866,0.1340753,-9.308657,0.8493211,47.72002,-0.9024763,-1.9278603,-3.3117294,-0.060041245,-0.1518395,-0.29592708,27.5,28.75,27.75,31.375,33.25,34.0
0.17005335,-0.64032024,0.07199484,-0.20032212,0.010401808,0.027524095,-0.16047587,-0.37966293,-0.3272227,0.060122147,-3.076809,0.62563753,0.00035804728,-0.07838525,0.014893479,-0.0034423303,0.02612235,-0.015116622,-0.01705149,0.44116053,-1.4601898,1.9967989,-2.1050198,-1.5721196,2.4167826,-0.08584,0.13690236,-0.15291318,0.040787503,-0.017461484,-0.06864787,-0.2873042,0.15322891,-9.308656,0.79560274,47.70659,-0.8908681,-2.0368695,-3.3376868,-0.08349515,-0.1648269,-0.31914407,27.5,28.75,27.75,31.375,33.25,34.0
0.17205383,-0.80638117,0.038741827,0.1261886,0.0032082458,0.034809563,-0.16501248,-0.3798337,-0.32717234,0.060105383,-3.07669,0.62576735,0.0003232097,-0.080225855,0.016653428,-0.0021101814,0.026034063,-0.014203154,-0.019693924,0.44095483,-1.4598913,1.9964875,-2.104935,-1.5721797,2.4166734,-0.090500124,0.13528012,-0.15480828,0.043431282,-0.017781565,-0.07066348,-0.2873042,0.095768064,-9.155427,0.83365434,47.693153,-0.77603316,-1.9076419,-3.3758893,-0.115286924,-0.17670393,-0.34742567,27.5,28.75,27.75,31.375,33.25,34.0
0.17405337,-0.91772294,0.13319327,0.1738701,0.0007609621,0.03736986,-0.16401856,-0.3799469,-0.32713875,0.06008882,-3.0766468,0.6256431,0.00021241319,-0.08086339,0.015550619,-0.0015642528,0.025318261,-0.012510825,-0.017969979,0.44079944,-1.4596633,1.9962486,-2.1048276,-1.5721916,2.4164462,-0.08891132,0.13627738,-0.15705776,0.0428441,-0.017873058,-0.07079512,-0.30645782,0.1340753,-9.136273,0.80456203,47.694054,-0.84551823,-1.9066556,-3.3766356,-0.13307472,-0.16109884,-0.34989935,27.5,28.75,27.75,31.375,33.25,34.0
0.17605393,-1.1424649,-0.28735608,0.004779476,0.015863236,0.033028413,-0.16227478,-0.38014355,-0.32711998,0.06008692,-3.07658,0.6258027,0.00020435938,-0.082518354,0.016750867,-0.0018078224,0.026611859,-0.013483196,-0.019912146,0.44060636,-1.4593267,1.9958638,-2.1047552,-1.5722164,2.4163616,-0.09205664,0.13869415,-0.15956403,0.044360444,-0.018637612,-0.07199454,-0.24899697,0.076614454,-9.136273,0.78217715,47.744205,-0.7689538,-1.9322817,-3.2716517,-0.14248732,-0.18164043,-0.3749271,27.5,28.75,27.75,31.375,33.25,34.0
0.17805347,-0.7143278,0.107998416,0.3817317,0.009286449,0.03962237,-0.17154996,-0.38029432,-0.32709336,0.06009038,-3.0765417,0.6257532,0.00016433182,-0.08254211,0.01647819,-0.0017209342,0.026709303,-0.01443763,-0.014398863,0.44043848,-1.4590751,1.9955524,-2.104647,-1.5722398,2.416168,-0.091731325,0.13951346,-0.16105998,0.045927256,-0.018331874,-0.07718192,-0.21068975,0.1340753,-9.136273,0.79560274,47.716442,-0.6711347,-1.8568211,-3.3841019,-0.16787452,-0.20768574,-0.34405923,27.5,28.75,27.75,31.375,33.25,34.0
0.18005401,-0.31288028,0.41967988,0.29107285,0.010103424,0.034510996,-0.17114234,-0.38051048,-0.3270586,0.060136754,-3.076514,0.62578416,0.0003707655,-0.082046285,0.016783549,-0.0024737515,0.027897162,-0.017918533,-0.01234329,0.44024652,-1.458847,1.9951824,-2.1045978,-1.5723361,2.4159992,-0.092084765,0.14127733,-0.16194937,0.048691306,-0.017918684,-0.0795937,-0.2681506,0.11492168,-9.040505,0.7642693,47.701214,-0.8463503,-1.7939911,-3.3856812,-0.19241711,-0.20290461,-0.31083357,27.5,28.75,27.75,31.375,33.25,34.0
0.18205357,-0.33453906,0.44306123,0.1377414,0.018580582,0.024953166,-0.17360972,-0.3806135,-0.32701734,0.06007627,-3.0763812,0.6257931,0.000100761725,-0.083289474,0.016644152,-0.0018915321,0.028541338,-0.016735066,-0.008814717,0.4400783,-1.458523,1.9949292,-2.1044543,-1.5723366,2.4158537,-0.092143595,0.14264567,-0.16505124,0.04962314,-0.019036505,-0.08317255,-0.22984336,0.22984336,-9.040505,0.83589023,47.71017,-0.8379051,-1.7668093,-3.1628647,-0.23302141,-0.21587458,-0.29885957,27.5,28.75,27.75,31.375,33.25,34.0
0.1840542,-0.41573474,0.21690395,0.14833984,0.011287226,0.02801126,-0.16879296,-0.38082802,-0.32698202,0.06009564,-3.0763354,0.62581944,0.00017173265,-0.08544416,0.015818711,-0.0012723934,0.027170584,-0.013571774,-0.0045145703,0.4398623,-1.458223,1.9945334,-2.1043713,-1.5723962,2.4156604,-0.092363775,0.14484054,-0.16842346,0.04733771,-0.019166106,-0.08768996,-0.15322891,0.17238252,-9.136273,0.8224646,47.698532,-0.8779979,-1.6743965,-3.4220054,-0.21786436,-0.20924416,-0.23281544,27.5,28.75,27.75,31.375,33.25,34.0
0.18605413,-0.68852633,-0.30200234,0.10076066,-0.00111326,0.036161534,-0.16279757,-0.38096473,-0.32695702,0.060086712,-3.076298,0.62575144,6.327358e-05,-0.08522851,0.015902484,-0.00053131,0.026641643,-0.013435161,-7.864013e-06,0.43969426,-1.4579601,1.9942349,-2.1042507,-1.5723957,2.4154549,-0.09255855,0.14308469,-0.16855744,0.048865445,-0.01876022,-0.092391655,-0.11492168,0.1340753,-9.174581,0.86945957,47.686886,-0.88407224,-1.7350296,-3.3118212,-0.24951968,-0.2162699,-0.19650179,27.5,28.75,27.75,31.375,33.25,34.0
0.1880534,-0.61176467,-0.5364424,-0.033690803,-0.0082352385,0.031535696,-0.16290131,-0.3811673,-0.32691354,0.060090717,-3.076223,0.625887,9.065309e-05,-0.08544187,0.01612496,-0.0012774782,0.02863943,-0.015751986,0.0033997546,0.43946645,-1.4576594,1.9938759,-2.1041787,-1.5724443,2.4153216,-0.09254804,0.14602852,-0.17061871,0.050917435,-0.019593406,-0.09578515,-0.05746084,0.11492168,-9.212888,0.85155696,47.69763,-0.93207955,-1.7929035,-3.342948,-0.2890631,-0.23807564,-0.12899464,27.5,28.75,27.75,31.375,33.25,34.0
0.19005422,-0.31868356,-0.27357656,-0.3101063,-0.009131553,0.025798988,-0.1690146,-0.3812997,-0.32689032,0.06007656,-3.0761676,0.6257785,-7.1722234e-06,-0.08723176,0.015771765,-0.00026072472,0.02803369,-0.013423852,0.0057487413,0.43932226,-1.4573835,1.993575,-2.1040585,-1.5724686,2.415117,-0.09311942,0.14704844,-0.17414688,0.05105195,-0.020059783,-0.09870023,-0.038307227,0.1340753,-9.212888,0.8179876,47.684196,-1.0347278,-1.6783648,-3.337028,-0.30292314,-0.23356056,-0.08778939,27.5,28.75,27.75,31.375,33.25,34.0
0.19205377,-0.24484946,-0.50311667,-0.4974429,0.0008315917,0.007354132,-0.16174325,-0.38150004,-0.32683495,0.060074683,-3.076061,0.6257376,5.3609324e-06,-0.0871416,0.016067795,-0.0012644603,0.02837202,-0.014606271,0.004973298,0.43910608,-1.4570596,1.993193,-2.1039398,-1.5725645,2.4148893,-0.09365975,0.14847085,-0.17320369,0.049886595,-0.019874811,-0.09846457,-0.095768064,0.2681506,-9.32781,0.83365434,47.694946,-1.0620785,-1.661282,-3.4697247,-0.31735644,-0.24464682,-0.060556307,27.5,28.75,27.75,31.375,33.25,34.0
0.19405334,0.3838746,-0.1349947,-0.6858768,-0.015163686,0.013877386,-0.17158566,-0.38164842,-0.32680184,0.060047142,-3.0759625,0.6257189,-0.00011272575,-0.08936648,0.01617233,-0.00029113516,0.027203284,-0.011482384,0.0015533706,0.43893746,-1.4567361,1.9928697,-2.10382,-1.5726007,2.414722,-0.09557735,0.14902972,-0.1758067,0.048603654,-0.020166572,-0.09695714,-0.076614454,0.3256114,-9.5385,0.8157518,47.70211,-0.988427,-1.7218008,-3.4489927,-0.32107574,-0.2788765,-0.036276907,27.5,28.75,27.75,31.375,33.25,34.0
0.19605397,0.19992588,-0.566249,-0.83352757,-0.033908766,0.0069653313,-0.16744097,-0.38182956,-0.3267588,0.060034942,-3.075874,0.6257602,-0.00018650676,-0.09038402,0.016393429,-0.0011314966,0.028275244,-0.012080017,-0.0020264424,0.4387212,-1.4564114,1.9925102,-2.1037009,-1.5726365,2.4145432,-0.096344315,0.15233806,-0.17744522,0.047931094,-0.020896297,-0.09413872,-0.038307227,0.38307226,-9.634268,0.85155696,47.684196,-1.039582,-1.8161902,-3.3532553,-0.33391812,-0.26809958,-0.06756613,27.5,28.75,27.75,31.375,33.25,34.0
0.19805373,0.015944649,-1.3196732,-0.885433,-0.043893177,0.01728722,-0.16898268,-0.3820154,-0.3267371,0.060048137,-3.075839,0.62575424,-0.00016827656,-0.09151753,0.015898138,-0.001927933,0.028356155,-0.012262521,-0.005108637,0.4385411,-1.4561228,1.9921378,-2.1036055,-1.5726727,2.414364,-0.096364126,0.15624602,-0.17966318,0.04644021,-0.020900132,-0.09107388,-0.15322891,0.4213795,-9.710882,0.90527004,47.67166,-1.0035366,-1.6838242,-3.4370072,-0.33744383,-0.25998873,-0.078054674,27.5,28.75,27.75,31.375,33.25,34.0
0.2000534,-0.47761524,-1.4480642,-1.0292877,-0.059533473,0.029924938,-0.17005718,-0.38219112,-0.3267018,0.060062088,-3.0757828,0.6256491,-0.00017321433,-0.092732504,0.01603346,-0.0016238879,0.027248105,-0.010653878,-0.010171767,0.43836054,-1.4558471,1.9917673,-2.103463,-1.5727328,2.4141254,-0.0978427,0.15659289,-0.18044572,0.04494664,-0.020586899,-0.08748853,-0.019153614,0.36391866,-9.749189,0.82022345,47.70032,-1.0073197,-1.7510505,-3.5109668,-0.3411941,-0.29482013,-0.1234764,27.5,28.75,27.75,31.375,33.25,34.0
0.2020533,-0.39518893,-1.4835609,-1.0964862,-0.06839887,0.047160674,-0.1709621,-0.38237056,-0.32666856,0.060033493,-3.075703,0.62573075,-0.00024383659,-0.094322756,0.016074048,-0.0024492145,0.027837383,-0.010623584,-0.014214912,0.43815646,-1.4554982,1.9914316,-2.1034033,-1.5727566,2.4139829,-0.098888114,0.16065705,-0.18278,0.043441895,-0.021146966,-0.08448517,-0.05746084,0.38307226,-9.864111,0.83589023,47.670765,-1.1176078,-1.9159541,-3.438352,-0.31644967,-0.27817464,-0.16702506,27.5,28.75,27.75,31.375,33.25,34.0
0.2040534,-0.53926176,-1.5814338,-1.2484018,-0.061625637,0.049538147,-0.16540514,-0.38255885,-0.3266481,0.060029972,-3.075667,0.62580097,-0.00029102273,-0.0947471,0.015295823,-0.0030326631,0.027483603,-0.010547659,-0.01616092,0.43795255,-1.4551739,1.9910601,-2.10332,-1.5727566,2.4138277,-0.09793882,0.16316381,-0.18391977,0.04185737,-0.020866843,-0.08158867,0.0,0.3256114,-9.844957,0.83365434,47.679718,-1.0190723,-1.9904732,-3.5337827,-0.31739876,-0.2865433,-0.20549622,27.5,28.75,27.75,31.375,33.25,34.0
0.20605345,-0.9332316,-1.47668,-1.0087094,-0.047770705,0.037639607,-0.1620394,-0.3827663,-0.3266214,0.06005455,-3.0756345,0.62579316,-0.0002058536,-0.096415564,0.014921212,-0.0028556527,0.026252542,-0.008819212,-0.015923357,0.43776053,-1.454886,1.9906648,-2.1032364,-1.5728167,2.4136353,-0.098891534,0.16512163,-0.18612704,0.040006667,-0.020497836,-0.08277873,-0.076614454,0.34476504,-9.787497,0.8627467,47.723602,-1.2233562,-1.954052,-3.420703,-0.30279064,-0.31703883,-0.24234203,27.5,28.75,27.75,31.375,33.25,34.0
0.2080541,-1.2886586,-1.1485723,-1.2046287,-0.0286927,0.026557136,-0.15533471,-0.38297185,-0.32658482,0.060040466,-3.0755472,0.62589264,-0.00022069212,-0.09876017,0.014604796,-0.0020208254,0.024780659,-0.0052224137,-0.019797409,0.43754387,-1.4545262,1.990281,-2.1031659,-1.5728649,2.4134922,-0.10015773,0.16636881,-0.18896228,0.03771165,-0.020702966,-0.080166936,-0.17238252,0.30645782,-9.672575,0.842603,47.72002,-1.0570791,-1.9810231,-3.3861134,-0.26581946,-0.3130085,-0.26301956,27.5,28.75,27.75,31.375,33.25,34.0
0.21005379,-0.8581937,-0.73033494,-1.1479282,-0.03260771,0.046711966,-0.16881871,-0.38313922,-0.32655856,0.06003015,-3.0754762,0.62589735,-0.00021140912,-0.10013221,0.014457206,-0.0015342358,0.024115065,-0.0028693888,-0.021212019,0.4373877,-1.4542264,1.9899577,-2.1031063,-1.5729245,2.4133484,-0.10076484,0.16701926,-0.1904997,0.03618067,-0.021107204,-0.079356045,-0.3256114,0.34476504,-9.844957,0.8672237,47.723602,-1.1907512,-1.9307542,-3.4838572,-0.22298945,-0.33853957,-0.33283114,27.5,28.75,27.75,31.375,33.25,34.0
0.2120535,-1.1913009,-0.79341185,-1.0587424,-0.043837547,0.05436126,-0.1610602,-0.383363,-0.32652628,0.060042933,-3.0754452,0.6259863,-0.00017687776,-0.100716814,0.014782771,-0.0022579615,0.024916403,-0.0042163064,-0.021183295,0.43714744,-1.4539018,1.989551,-2.1030347,-1.5729488,2.413168,-0.101702765,0.16948277,-0.19169897,0.03646738,-0.021268992,-0.08032148,-0.24899697,0.3256114,-9.825804,0.8537928,47.713753,-1.15824,-2.1411276,-3.5599842,-0.21341848,-0.3501532,-0.33879218,27.5,28.75,27.75,31.375,33.25,34.0
0.21405406,-1.4331459,-0.9955303,-0.9505604,-0.052994926,0.061368424,-0.15145986,-0.38355336,-0.32651493,0.060032655,-3.0753968,0.62603617,-0.00022727612,-0.10164651,0.015230962,-0.0029157056,0.025486296,-0.0050061163,-0.025560198,0.43696722,-1.4535421,1.9891552,-2.1029508,-1.5729607,2.4130254,-0.10316724,0.17192146,-0.19290142,0.036190998,-0.021454995,-0.07740638,-0.40222588,0.3256114,-9.653421,0.82694155,47.698532,-1.2118824,-1.878721,-3.5107765,-0.19962388,-0.37092814,-0.41539848,27.5,28.75,27.75,31.375,33.25,34.0
0.21605387,-1.2102783,-1.3235167,-0.7524754,-0.037256703,0.07239498,-0.16160679,-0.38377556,-0.32649884,0.060049336,-3.0753837,0.6260522,-0.00012366794,-0.10341802,0.014939116,-0.0017146684,0.024680622,-0.0013733677,-0.024344478,0.43677473,-1.4532183,1.9887484,-2.1029155,-1.5730089,2.412845,-0.10355908,0.17191578,-0.19545273,0.035106752,-0.02227198,-0.07901057,-0.40222588,0.15322891,-9.595961,0.87393653,47.728977,-1.0386715,-1.970294,-3.4845848,-0.15549372,-0.36832714,-0.45445096,27.5,28.75,27.75,31.375,33.25,34.0
0.21805397,-1.4042153,-0.7856538,-0.70289433,-0.025013039,0.071533725,-0.16405666,-0.38396987,-0.32645264,0.060034335,-3.0752585,0.6261386,-0.00018986227,-0.104572624,0.01519272,-0.0010617818,0.025286185,-0.00074916147,-0.021906422,0.4365589,-1.4528592,1.9883527,-2.1027825,-1.5730695,2.4126995,-0.1044208,0.17269702,-0.1982619,0.036810298,-0.023103632,-0.08230419,-0.36391866,0.1340753,-9.634268,0.8717007,47.723602,-1.2861968,-1.8275843,-3.5355034,-0.13761361,-0.3771249,-0.45190904,27.5,28.75,27.75,31.375,33.25,34.0
0.22005364,-0.9598882,0.19783391,-0.5607298,-0.0063032736,0.076438956,-0.1668743,-0.38420057,-0.3264559,0.06004994,-3.0753255,0.6261107,-9.73924e-05,-0.106124714,0.015784211,-0.0009781006,0.02531219,-0.0006445868,-0.018755903,0.43635514,-1.4525232,1.9879454,-2.102795,-1.5730575,2.4124699,-0.10675031,0.1744002,-0.20050797,0.03725234,-0.02318128,-0.08778459,-0.36391866,0.019153614,-9.423578,0.87393653,47.71554,-1.0228196,-1.7664905,-3.5246634,-0.11776961,-0.3922168,-0.4571449,27.5,28.75,27.75,31.375,33.25,34.0
0.22205332,-1.4914227,0.64580244,-0.3806777,0.03174834,0.051498894,-0.1669813,-0.38445154,-0.32639873,0.060073055,-3.0752575,0.62623125,-7.2209014e-07,-0.10780991,0.015714418,0.0011269955,0.023771131,0.002559703,-0.014970108,0.43607742,-1.4522002,1.9875134,-2.1027105,-1.5731295,2.4122765,-0.10802203,0.17262086,-0.20372128,0.038663898,-0.0231522,-0.09284176,-0.36391866,-0.038307227,-9.385271,0.90527004,47.71286,-1.145084,-1.6907668,-3.4964924,-0.10060839,-0.40615988,-0.40131426,27.5,28.75,27.75,31.375,33.25,34.0
0.22405405,-0.9163764,1.236931,-0.26008183,0.05774478,0.06203542,-0.16455673,-0.38461593,-0.326383,0.060028356,-3.075195,0.62615806,-0.000100057,-0.10941849,0.016122576,0.0016987969,0.02401508,0.0030764122,-0.011175307,0.4359207,-1.4518166,1.9871773,-2.1026623,-1.5731539,2.4120824,-0.1098199,0.1739506,-0.20691256,0.040141392,-0.02361633,-0.09842916,-0.47884035,-0.05746084,-9.32781,0.8560339,47.711063,-1.0411564,-1.6670344,-3.3554611,-0.0816905,-0.43743908,-0.3630605,27.5,28.75,27.75,31.375,33.25,34.0
0.22605564,-1.0353342,1.7411401,-0.3394196,0.061354313,0.06002629,-0.16941042,-0.38486528,-0.32633194,0.06006035,-3.0751448,0.6262199,9.6583535e-06,-0.11158187,0.016469618,0.0022590067,0.024424985,0.0050549502,-0.004763667,0.43565637,-1.4515045,1.9867343,-2.102566,-1.5732263,2.4118636,-0.11144537,0.17580047,-0.21027488,0.040002804,-0.024844825,-0.106460795,-0.59376204,-0.17238252,-9.232041,0.8537928,47.723602,-1.0382259,-1.600065,-3.3087225,-0.048906576,-0.42279315,-0.27268213,27.5,28.75,27.75,31.375,33.25,34.0
0.22805409,-1.1425713,1.4461325,-0.4412075,0.060329303,0.06122723,-0.16886586,-0.38508153,-0.32630593,0.06004977,-3.0750868,0.6262077,7.9925785e-06,-0.11303985,0.017710527,0.0023542573,0.025938708,0.005536132,-0.0038356283,0.4354514,-1.4511207,1.9863142,-2.102494,-1.5732745,2.4116588,-0.11388919,0.17683347,-0.21187806,0.040761776,-0.026433742,-0.10982553,-0.51714754,-0.24899697,-9.346964,0.91198283,47.721813,-0.9328567,-1.561583,-3.3642547,-0.011555843,-0.41585693,-0.24001986,27.5,28.75,27.75,31.375,33.25,34.0
0.23005368,-0.9253586,1.0605799,-0.30962786,0.041863546,0.07423162,-0.17845227,-0.38529047,-0.32627407,0.060070284,-3.0750644,0.626163,3.803659e-05,-0.11381451,0.018858071,0.0026716373,0.028608408,0.0046425792,-0.0018321209,0.43523484,-1.4508208,1.9859079,-2.1023853,-1.5733117,2.4114175,-0.115256704,0.17764069,-0.21436927,0.044370115,-0.028483244,-0.11318886,-0.61291564,-0.17238252,-9.461885,0.8918391,47.69763,-0.87935925,-1.5432657,-3.350524,-0.0041549015,-0.43259105,-0.18863754,27.5,28.75,27.75,31.375,33.25,34.0
0.23205337,-1.0874594,0.17494152,-0.2731862,0.032761592,0.08261006,-0.16539235,-0.38552547,-0.3262354,0.06006886,-3.0749977,0.62613136,7.26486e-05,-0.115215234,0.019426243,0.002645042,0.030007789,0.003651672,-0.0029683104,0.43500623,-1.4504368,1.9854635,-2.1023004,-1.5733837,2.411178,-0.116876855,0.18035598,-0.21792682,0.04668803,-0.029342575,-0.11366744,-0.7086837,-0.05746084,-9.270349,0.8605109,47.70211,-0.80998796,-1.5430707,-3.2203236,-0.029582992,-0.41541332,-0.1368854,27.5,28.75,27.75,31.375,33.25,34.0
0.23405397,-1.3631649,0.46649653,-0.4814423,0.018170645,0.075509794,-0.16317075,-0.38575503,-0.32620353,0.06009038,-3.0749733,0.6261624,6.468865e-05,-0.11577941,0.019855553,0.0018551387,0.031854823,0.0012081721,-0.004966731,0.4347555,-1.4501001,1.9850081,-2.1021678,-1.5733961,2.4109502,-0.11764812,0.1836689,-0.22034737,0.048787136,-0.029990423,-0.11243636,-0.59376204,-0.095768064,-9.346964,0.8537928,47.711063,-0.7890494,-1.6604245,-3.0892954,-0.01997304,-0.41722417,-0.13567519,27.5,28.75,27.75,31.375,33.25,34.0
0.23605366,-0.89298636,0.348575,-0.58085454,0.011364109,0.09246634,-0.16905293,-0.38597783,-0.32614854,0.060066454,-3.0748143,0.6261695,5.197937e-05,-0.115432836,0.020824127,3.128096e-05,0.035545472,-0.0022133975,-0.008961536,0.43453982,-1.4496791,1.9845661,-2.1020486,-1.5735167,2.41076,-0.11780029,0.18716264,-0.22041634,0.050018225,-0.031900395,-0.108583756,-0.53630114,-0.095768064,-9.519346,0.84484416,47.709274,-0.9064745,-1.938631,-3.2546756,-0.018417496,-0.41776517,-0.18851697,27.5,28.75,27.75,31.375,33.25,34.0
0.2380544,-1.0896026,-0.108623244,-0.30962634,-0.003718922,0.09664612,-0.1684188,-0.3861958,-0.32609963,0.06005702,-3.0747585,0.6262379,2.6102258e-05,-0.11521581,0.021370113,-0.0010847057,0.038383808,-0.004541149,-0.013469167,0.4342758,-1.4493313,1.9841827,-2.1019762,-1.573541,2.410546,-0.11748406,0.18973613,-0.2211201,0.051463827,-0.03349203,-0.10375255,-0.5554548,0.05746084,-9.481039,0.9298854,47.70032,-0.9504575,-1.7922219,-3.4256687,-0.033287585,-0.3757105,-0.21641955,27.5,28.75,27.75,31.375,33.25,34.0
0.24005412,-1.4984739,-0.42629677,-0.23530185,-0.0041857534,0.087941386,-0.16335234,-0.38644075,-0.32606328,0.06009096,-3.0746934,0.6262439,0.00014459416,-0.11565926,0.021896096,-0.00068541546,0.03970499,-0.0035879088,-0.016873112,0.43405968,-1.4489963,1.9837035,-2.101856,-1.5736374,2.4103425,-0.1177003,0.18938366,-0.22187528,0.05226089,-0.03508638,-0.1005598,-0.53630114,0.21068975,-9.251195,0.88960326,47.70032,-1.0155969,-1.7647479,-3.453849,-0.018652966,-0.36147493,-0.25502163,27.5,28.75,27.75,31.375,33.25,34.0
0.24205393,-0.7487031,-0.2147235,-0.52737033,-0.00052168756,0.07785728,-0.16379687,-0.38669702,-0.32600373,0.060101837,-3.0745955,0.62633944,0.00020314826,-0.11560511,0.022891762,-0.0014356109,0.04288501,-0.0051323595,-0.017744822,0.43378365,-1.4486245,1.9832386,-2.1017478,-1.5737227,2.410139,-0.117920525,0.19089176,-0.2222672,0.05387488,-0.03732551,-0.099899694,-0.40222588,0.22984336,-9.232041,0.9186956,47.672558,-0.87417746,-1.5893897,-3.5791469,-0.018348476,-0.34100115,-0.29225734,27.5,28.75,27.75,31.375,33.25,34.0
0.2440534,-0.32758713,-0.47631434,-0.524223,-0.01127967,0.05070848,-0.16726454,-0.38693252,-0.32596248,0.060089514,-3.0744877,0.62637526,0.00024489698,-0.11713314,0.02387817,-0.0009149887,0.043611635,-0.005288755,-0.02012187,0.43356693,-1.4482168,1.9827946,-2.1016748,-1.573819,2.409959,-0.12059031,0.19183588,-0.22511548,0.05620997,-0.037929185,-0.10018787,-0.21068975,0.2681506,-9.3661175,0.8672237,47.66987,-1.0888181,-1.7250863,-3.6452553,-0.051322788,-0.2998569,-0.32667518,27.5,28.75,27.75,31.375,33.25,34.0
0.24605383,-0.15035115,-1.0946949,-0.3491879,-0.018523134,0.020522319,-0.15684411,-0.38718253,-0.3259062,0.0601001,-3.0743926,0.6264346,0.00028893465,-0.11751055,0.023288628,-0.00062842,0.043439854,-0.0067017167,-0.019999523,0.43330145,-1.447845,1.9823273,-2.1015542,-1.5739025,2.4097433,-0.120221905,0.19359589,-0.22843036,0.05895505,-0.037188936,-0.09994235,-0.1340753,0.2681506,-9.289502,0.83589023,47.682407,-0.93835914,-1.7400997,-3.58772,-0.07652866,-0.2928844,-0.34198275,27.5,28.75,27.75,31.375,33.25,34.0
0.2480535,0.28173885,-0.7428228,-0.5218397,-0.025089532,-0.005465716,-0.15870742,-0.38740322,-0.32584488,0.060081724,-3.074245,0.6264815,0.0002538992,-0.11787046,0.024501298,-0.0013756276,0.046871267,-0.008787318,-0.021249728,0.433061,-1.4474488,1.9818963,-2.1014216,-1.5739993,2.4095516,-0.121207416,0.19584775,-0.2298712,0.061467804,-0.039440706,-0.09966508,-0.19153613,0.34476504,-9.251195,0.9612189,47.70032,-0.9532918,-1.6888474,-3.5459518,-0.09280845,-0.27428636,-0.36268562,27.5,28.75,27.75,31.375,33.25,34.0
0.2500533,0.6868092,-0.6604381,-0.32391772,-0.017659176,0.0027221977,-0.16900554,-0.3876658,-0.32579905,0.06006964,-3.0741587,0.62661606,0.00022315107,-0.118063904,0.02462714,-0.0019458194,0.049026303,-0.0109016765,-0.020152252,0.43277308,-1.4470048,1.9814051,-2.1013253,-1.5740355,2.4093592,-0.12078946,0.19865116,-0.23234372,0.063947015,-0.040524464,-0.10033746,-0.038307227,0.30645782,-9.232041,0.87617236,47.72719,-1.0033346,-1.6579024,-3.4707565,-0.12850821,-0.22312011,-0.36652607,27.5,28.75,27.75,31.375,33.25,34.0
0.25205386,0.4349365,-0.5380545,-0.39348936,-0.0113218,0.00755755,-0.16965044,-0.38787884,-0.325763,0.060081802,-3.0740557,0.6265146,0.00024660406,-0.11984236,0.02502657,-0.0014892035,0.049165413,-0.01113148,-0.020282159,0.43259373,-1.4466449,1.9809364,-2.101157,-1.5741433,2.4091303,-0.1229581,0.20076793,-0.2362938,0.06602224,-0.04057453,-0.10237179,0.13407528,0.3256114,-9.174581,0.8985519,47.66539,-0.90785694,-1.7156322,-3.444118,-0.16602126,-0.20619905,-0.40583438,27.5,28.75,27.75,31.375,33.25,34.0
0.2540534,0.2587998,-0.3336333,-0.12858748,-0.010623057,0.0023822503,-0.16557208,-0.3881406,-0.32569262,0.06008451,-3.0739248,0.6266771,0.00026117582,-0.12075977,0.023679178,-0.00066614297,0.048037518,-0.010672756,-0.012856497,0.4322931,-1.4462487,1.9804567,-2.1010249,-1.5742272,2.4089484,-0.12167738,0.20263264,-0.24070925,0.06763793,-0.03977785,-0.108515844,0.1340753,0.38307226,-9.174581,0.8873621,47.66271,-1.1042768,-1.7308683,-3.3690014,-0.1950536,-0.17970464,-0.35343975,27.5,28.75,27.75,31.375,33.25,34.0
0.256054,0.15292317,-0.83270574,-0.1235622,-0.0033420639,0.010176563,-0.16980608,-0.38839504,-0.32565543,0.060085773,-3.073838,0.626676,0.00026634688,-0.122285895,0.023616353,0.00047691632,0.046226837,-0.009126724,-0.009538385,0.4320525,-1.4458177,1.9799412,-2.1008933,-1.5742992,2.4087188,-0.12342041,0.20246457,-0.24336326,0.06825824,-0.038810346,-0.113577984,0.17238252,0.28730422,-9.059659,0.87617236,47.70032,-0.9279139,-1.6946641,-3.1614952,-0.22148062,-0.17952451,-0.30355862,27.5,28.75,27.75,31.375,33.25,34.0
0.25805387,0.2596894,-0.6090978,-0.44071615,0.010136316,0.00056916155,-0.16245319,-0.3886249,-0.32561865,0.06008999,-3.0737617,0.6265572,0.0003059241,-0.12300283,0.023590237,0.0009777076,0.045960408,-0.009196537,-0.003576573,0.43184984,-1.445434,1.9794744,-2.1007726,-1.5743951,2.4084523,-0.12406624,0.20304088,-0.24557766,0.069803424,-0.03856725,-0.120184496,0.11492168,0.2681506,-9.11712,0.947788,47.721813,-1.0752698,-1.7277389,-3.1351447,-0.24168594,-0.14728864,-0.23452419,27.5,28.75,27.75,31.375,33.25,34.0
0.26005337,0.38252157,0.12719792,-0.6324613,-0.010491954,0.0039235717,-0.16349174,-0.38887322,-0.32555616,0.060063586,-3.0736265,0.626587,0.00019014566,-0.12353051,0.024118835,0.00043284637,0.046265546,-0.010472449,0.0010320011,0.43155983,-1.4449663,1.9789728,-2.1006052,-1.5744547,2.4081988,-0.12554139,0.20463479,-0.24628527,0.07016114,-0.038351957,-0.12626374,0.076614454,0.3256114,-9.308657,0.8537928,47.72092,-1.0657718,-1.7488866,-3.2290144,-0.27480504,-0.13884538,-0.1821681,27.5,28.75,27.75,31.375,33.25,34.0
0.26205412,0.009369492,-0.9420034,-0.6647239,-0.020253807,0.0086523,-0.15417103,-0.38911825,-0.32549384,0.060066566,-3.0734873,0.6264974,0.00020663312,-0.1251038,0.023695992,0.0008208424,0.04461597,-0.008414027,0.0010192709,0.43132114,-1.4445584,1.9784683,-2.1004264,-1.5745867,2.4079227,-0.12642065,0.20591438,-0.24825536,0.06826082,-0.037742265,-0.12712824,0.019153614,0.38307226,-9.32781,0.900793,47.687782,-0.9730592,-1.602459,-3.2593946,-0.29008123,-0.13123764,-0.13109435,27.5,28.75,27.75,31.375,33.25,34.0
0.26405376,-0.2522088,-1.1161155,-0.5929843,-0.04681895,0.017495265,-0.16026151,-0.38932908,-0.32543382,0.0600465,-3.073384,0.62643766,0.00012048687,-0.124625735,0.0246116,-0.00060777855,0.04594063,-0.01047729,0.0009886868,0.43106857,-1.4441744,1.9780511,-2.100283,-1.5746468,2.4076467,-0.12737946,0.20712487,-0.24622183,0.06742544,-0.03810458,-0.12805167,-0.038307227,0.3256114,-9.289502,0.8605109,47.658226,-1.0721886,-1.610009,-3.2804027,-0.29718456,-0.093046606,-0.08134441,27.5,28.75,27.75,31.375,33.25,34.0
0.26605353,-0.9956524,-1.9369432,-0.4375715,-0.047094278,0.02475804,-0.14819393,-0.38958526,-0.32537994,0.06002627,-3.073276,0.6265328,5.5777717e-05,-0.12598509,0.024346085,-4.890848e-05,0.043989442,-0.00953797,-0.0053371666,0.43078017,-1.4437197,1.9775599,-2.1001627,-1.574694,2.407432,-0.12885445,0.20796712,-0.24848351,0.06717498,-0.036733855,-0.12320249,-0.1340753,0.21068975,-9.308656,0.9365982,47.703007,-1.0407896,-1.4980206,-3.4592361,-0.31506908,-0.09793341,-0.09875393,27.5,28.75,27.75,31.375,33.25,34.0
0.26805392,-0.72731787,-1.1521012,-0.7152106,-0.03705379,0.034199692,-0.1535126,-0.3898461,-0.3253519,0.060038157,-3.073213,0.6265227,0.00010509079,-0.1277822,0.023619695,-0.001502953,0.041986514,-0.008847139,-0.0105394265,0.4305519,-1.4432986,1.9770335,-2.100046,-1.5747656,2.407206,-0.12995736,0.21295828,-0.24964444,0.061875798,-0.035212,-0.119107,-0.095768064,0.1340753,-9.404425,0.88960326,47.68599,-0.9520873,-1.5918486,-3.5834208,-0.2554412,-0.09024757,-0.12743616,27.5,28.75,27.75,31.375,33.25,34.0
0.27005368,-0.7351862,-0.73510885,-0.77057314,-0.004534472,0.033200562,-0.15463714,-0.39008516,-0.32528967,0.06003159,-3.0731068,0.6265984,3.6798716e-05,-0.12847464,0.023553062,-0.0032375683,0.041193943,-0.011722231,-0.016261755,0.43026343,-1.4429017,1.9765676,-2.09989,-1.5748132,2.406979,-0.13158827,0.21754761,-0.250604,0.06052341,-0.033302717,-0.11501983,-0.076614454,0.11492168,-9.481039,0.842603,47.723602,-1.0002126,-1.9286754,-3.4472778,-0.23625383,-0.108215526,-0.1917761,27.5,28.75,27.75,31.375,33.25,34.0
0.27205333,-0.1925306,0.2548819,-0.7439895,-0.014807813,0.050774757,-0.15574843,-0.39033017,-0.32524547,0.059998397,-3.073005,0.6266183,-1.45000295e-05,-0.13040493,0.022272727,-0.0022773852,0.038096156,-0.008430473,-0.020176737,0.43001133,-1.4424338,1.9760994,-2.0998075,-1.5748729,2.406753,-0.13171127,0.21879414,-0.25377086,0.058156457,-0.031875916,-0.11122948,-0.2873042,0.05746084,-9.5385,0.8918391,47.711063,-0.91560334,-1.8674984,-3.5844889,-0.20637663,-0.1187297,-0.26797897,27.5,28.75,27.75,31.375,33.25,34.0
0.27405325,-0.49377087,0.007412153,-0.62375206,0.005679521,0.05020861,-0.16439176,-0.39057264,-0.32522103,0.059988607,-3.0729501,0.6265714,-5.994797e-05,-0.13362761,0.022171848,-0.0017000829,0.035554945,-0.005367861,-0.025848385,0.42978206,-1.4419899,1.9755958,-2.0996883,-1.5749081,2.406502,-0.13484868,0.22141737,-0.2575245,0.05544028,-0.03086007,-0.10869523,-0.4213795,-0.019153614,-9.461885,0.9298854,47.71017,-0.7582022,-1.9277539,-3.5817084,-0.15662618,-0.13001259,-0.3187074,27.5,28.75,27.75,31.375,33.25,34.0
0.27605388,-0.9892549,-0.35341188,-1.0086828,0.011038588,0.0490562,-0.15176204,-0.3908647,-0.32517076,0.059988867,-3.072864,0.62670493,-6.0297032e-05,-0.13504058,0.019784648,8.0916165e-05,0.03269501,-0.0009628707,-0.024810681,0.42947134,-1.4415228,1.9750432,-2.0995696,-1.5749563,2.4062862,-0.13200769,0.22191302,-0.26198286,0.054197907,-0.030110331,-0.10689191,-0.61291564,0.1340753,-9.423578,0.85826975,47.70211,-1.0711985,-1.8125522,-3.5001636,-0.13520098,-0.14719105,-0.35161915,27.5,28.75,27.75,31.375,33.25,34.0
0.2780535,-1.6986474,-0.9853089,-0.98395085,-0.0032343953,0.063611954,-0.14387298,-0.39113554,-0.32514453,0.06001151,-3.0727801,0.6267663,3.981615e-05,-0.13660827,0.019838184,0.00072556955,0.032188464,0.00022076583,-0.028615797,0.429255,-1.4411033,1.9744924,-2.099449,-1.5750521,2.4061196,-0.13331659,0.22303489,-0.26492837,0.054729324,-0.030141352,-0.10439442,-0.7278373,0.24899697,-9.442732,0.8537928,47.682407,-0.96915203,-1.8659034,-3.4541788,-0.11026596,-0.14684738,-0.40674078,27.5,28.75,27.75,31.375,33.25,34.0
0.2800541,-2.092033,-1.2059628,-0.85113615,-0.036975123,0.08801679,-0.16011775,-0.3913877,-0.3250795,0.059978977,-3.0726538,0.62677693,-3.4590154e-05,-0.13614799,0.020052323,-2.7087865e-05,0.033246282,-0.0020388102,-0.028836595,0.4289673,-1.4406357,1.9740137,-2.0993288,-1.5751241,2.4058554,-0.13318723,0.22440141,-0.26513898,0.0560541,-0.030174965,-0.10404107,-0.80445176,0.36391866,-9.557653,0.88289046,47.672558,-1.1045512,-1.7733786,-3.3966765,-0.08678643,-0.13909101,-0.47142,27.5,28.75,27.75,31.375,33.25,34.0
0.2820539,-2.2070267,-1.6968259,-1.0113205,-0.060872678,0.11651509,-0.15404525,-0.3916387,-0.32503706,0.05995344,-3.0725574,0.6268331,-0.00015416011,-0.13720593,0.020294487,-0.00026911477,0.03384525,-0.0034434572,-0.027971404,0.42869067,-1.4401553,1.9734987,-2.0991848,-1.575148,2.4056268,-0.13443331,0.22713767,-0.26817623,0.057861377,-0.030161316,-0.10614776,-0.8619126,0.38307226,-9.576807,0.94331104,47.682407,-1.0479721,-1.8309814,-3.4524806,-0.10088408,-0.13900162,-0.4996462,27.5,28.75,27.75,31.375,33.25,34.0
0.28405514,-2.7263591,-2.2009323,-1.035008,-0.06828276,0.12439227,-0.15444249,-0.39192742,-0.32501388,0.059968114,-3.0724757,0.62694913,-9.063923e-05,-0.13907368,0.021589093,-0.00028306624,0.033803575,-0.0041002296,-0.02699802,0.4284493,-1.4396878,1.9729117,-2.099065,-1.5752195,2.405469,-0.13848405,0.22885296,-0.27041793,0.05892888,-0.029874504,-0.11117239,-0.9002198,0.3256114,-9.749189,0.88960326,47.677036,-1.013015,-1.7246246,-3.4987469,-0.09272826,-0.16152738,-0.48488998,27.5,28.75,27.75,31.375,33.25,34.0
0.28605396,-1.8566904,-1.9000318,-1.0513529,-0.057017513,0.13654071,-0.16349241,-0.3922053,-0.32496685,0.059962668,-3.072408,0.6270245,-0.000109134446,-0.13797785,0.020832997,-0.0008984991,0.034078427,-0.006003739,-0.015716994,0.42815012,-1.439232,1.9723862,-2.0989568,-1.5752558,2.405226,-0.1363626,0.22983263,-0.2703874,0.059707083,-0.029374123,-0.12033375,-0.8619126,0.3256114,-9.691729,0.9097417,47.672558,-1.0664786,-1.9203467,-3.458353,-0.07423058,-0.17938514,-0.4062944,27.5,28.75,27.75,31.375,33.25,34.0
0.2880538,-1.9694942,-1.413031,-0.93641984,-0.032092858,0.116372734,-0.15173994,-0.39249206,-0.32493395,0.059960317,-3.0723307,0.6270613,-0.00010273198,-0.13969268,0.021433318,-4.5836226e-05,0.03369206,-0.0049215974,-0.008574509,0.42788506,-1.4387411,1.9718112,-2.0988367,-1.5753154,2.4049945,-0.13870844,0.23022576,-0.27315432,0.060876817,-0.029518021,-0.12981947,-0.9002198,0.24899697,-9.768343,0.84708,47.684196,-0.9100214,-1.7611413,-3.6356664,-0.08177887,-0.17143449,-0.3597266,27.5,28.75,27.75,31.375,33.25,34.0
0.29005367,-1.6443473,-0.6532893,-0.7905059,-0.014241004,0.10251862,-0.15291736,-0.3928022,-0.32489696,0.05997416,-3.0722907,0.62702924,1.8664738e-05,-0.1413203,0.020831738,0.0009734528,0.03177837,-0.0005794116,-0.0013726657,0.4276093,-1.4382739,1.9712371,-2.0987666,-1.5753998,2.4047043,-0.13878216,0.22988886,-0.27450868,0.05776974,-0.029613161,-0.13709465,-0.68953013,0.095768064,-9.519346,0.85826975,47.66808,-1.080497,-1.7540634,-3.657833,-0.020268852,-0.18850628,-0.2301737,27.5,28.75,27.75,31.375,33.25,34.0
0.29205415,-1.7395319,-0.067594685,-0.69836384,0.024752917,0.07335809,-0.15240619,-0.3931087,-0.32484502,0.05997729,-3.0722244,0.6270512,0.00010739854,-0.14206941,0.02093023,0.00026696525,0.032545708,-0.001208883,0.0026983137,0.42730924,-1.4378059,1.9706858,-2.0986946,-1.5754842,2.404427,-0.1391625,0.23262195,-0.27598003,0.057358623,-0.030072873,-0.14154305,-0.57460845,0.019153614,-9.442732,0.94331104,47.698532,-1.0972182,-1.7094808,-3.6234112,0.0153145045,-0.19790012,-0.16826493,27.5,28.75,27.75,31.375,33.25,34.0
0.29405412,-0.262609,1.0157094,-0.6031968,0.041340772,0.080282584,-0.16810991,-0.39336953,-0.32482558,0.059949026,-3.0721908,0.62694824,-4.4971148e-05,-0.14360386,0.020826891,0.0008755152,0.032343514,-0.0013004313,0.0019629418,0.4270447,-1.4372782,1.9701222,-2.09855,-1.5754722,2.404103,-0.14028046,0.23466201,-0.28031114,0.0596408,-0.029875657,-0.14192156,-0.3256114,-0.13407528,-9.3661175,0.9030289,47.692257,-0.994765,-1.7441485,-3.646865,0.038681284,-0.18876103,-0.1126011,27.5,28.75,27.75,31.375,33.25,34.0
0.29605395,-0.17131186,1.432902,-0.40269434,0.054250225,0.060136933,-0.16364816,-0.3936766,-0.32476744,0.059942376,-3.072091,0.62710273,2.8366418e-05,-0.14542453,0.020416243,0.0016105451,0.031525914,-0.00033960716,-0.0024044577,0.42673263,-1.4367986,1.9695824,-2.0984895,-1.5755557,2.4039009,-0.14115216,0.23677777,-0.28473976,0.06073606,-0.029528085,-0.13842541,-0.28730422,-0.21068975,-9.212888,0.92093146,47.70032,-1.0723827,-1.847991,-3.455878,0.040488522,-0.21630344,-0.12678517,27.5,28.75,27.75,31.375,33.25,34.0
0.29805434,-0.053444657,1.2415819,-0.68862474,0.07240887,0.024795813,-0.15481165,-0.3939873,-0.32472974,0.05996212,-3.0720372,0.6270956,0.00013111487,-0.14673322,0.02075519,0.0012015754,0.033006746,-0.00056732696,-0.00970674,0.42645618,-1.4363301,1.968984,-2.0983818,-1.5756401,2.4036274,-0.14193474,0.23989876,-0.2875449,0.061258234,-0.030764226,-0.13189839,-0.17238252,-0.17238252,-9.232041,0.95226496,47.667187,-1.0444027,-1.952348,-3.3852732,0.08467298,-0.22063434,-0.21487331,27.5,28.75,27.75,31.375,33.25,34.0
0.30005407,0.38477734,0.9841813,-0.8828335,0.07629821,-0.0022147354,-0.15404825,-0.39427784,-0.32466307,0.059947312,-3.0719278,0.6270761,0.000112454145,-0.14753594,0.021944908,0.0009873925,0.036793724,-0.0028072037,-0.016398996,0.42614388,-1.4358379,1.9684318,-2.0982482,-1.575725,2.4033177,-0.14301914,0.24252705,-0.29116738,0.0658751,-0.0332775,-0.12627427,-0.076614454,-0.05746084,-9.251195,0.8605109,47.67345,-1.020236,-1.8896894,-3.3836079,0.072602026,-0.18469217,-0.26841137,27.5,28.75,27.75,31.375,33.25,34.0
0.3020536,0.7360628,0.430833,-0.8050626,0.0483891,-0.009273294,-0.15808734,-0.39456937,-0.32462144,0.059948668,-3.0718372,0.62715214,0.00013950162,-0.14484885,0.022433307,-0.0015007888,0.04006307,-0.011875775,-0.017216567,0.42586836,-1.4353577,1.9678587,-2.0981271,-1.5757965,2.403102,-0.14204301,0.24585213,-0.2906322,0.07161272,-0.032496072,-0.12448495,0.019153614,-0.13407528,-9.32781,0.9321212,47.657326,-1.1064743,-2.0723321,-3.3631063,0.035949413,-0.18074736,-0.3087741,27.5,28.75,27.75,31.375,33.25,34.0
0.30405426,0.99517673,-0.06286164,-0.8823046,0.0133014405,-0.0154182855,-0.14959094,-0.39486998,-0.3245528,0.059931315,-3.0716684,0.6271741,0.000106974505,-0.14500825,0.02326894,-0.00054125726,0.040440284,-0.013701166,-0.018486792,0.42556766,-1.4348187,1.9672483,-2.0979455,-1.5759166,2.4028375,-0.14384016,0.24471246,-0.29281908,0.07672903,-0.03210297,-0.12501092,0.076614454,-0.019153614,-9.3661175,0.86945957,47.666286,-0.99177706,-2.0162404,-3.4369998,-0.0069764457,-0.19123994,-0.32409197,27.5,28.75,27.75,31.375,33.25,34.0
0.3060538,0.8788545,-0.6287342,-0.8234599,-0.008062662,-0.018798906,-0.15546285,-0.39515808,-0.32450613,0.05993232,-3.071564,0.62723166,6.4789834e-05,-0.14561808,0.025208332,-0.0014510097,0.04294611,-0.018894605,-0.022747831,0.42527843,-1.4343268,1.9666485,-2.0977638,-1.5759763,2.4025984,-0.14769648,0.24761468,-0.295341,0.08209981,-0.03225213,-0.12460272,0.076614454,0.11492168,-9.346964,0.9835985,47.709274,-1.0384537,-2.035935,-3.3554158,-0.061643444,-0.21445581,-0.34058017,27.5,28.75,27.75,31.375,33.25,34.0
0.30805346,1.066401,-1.0391021,-0.7763148,-0.021641996,-0.011291926,-0.15753864,-0.3954352,-0.3244588,0.059922423,-3.0714688,0.62736297,-5.098392e-05,-0.1446056,0.025368689,-0.0014615348,0.045288056,-0.021888241,-0.02101778,0.42496684,-1.4338356,1.9660743,-2.097583,-1.5759891,2.4023817,-0.146408,0.24800381,-0.29697844,0.08703077,-0.033168584,-0.1250366,0.076614454,0.2681506,-9.32781,0.89631605,47.70659,-0.98614204,-1.9629803,-3.3837566,-0.12111534,-0.20624074,-0.3607955,27.5,28.75,27.75,31.375,33.25,34.0
0.31005424,0.35602823,-1.3240129,-0.66166955,-0.018373486,-0.005545958,-0.15599307,-0.39573658,-0.3244053,0.059929416,-3.071365,0.6273404,-3.1206117e-05,-0.14459006,0.026818076,-0.0019998346,0.04668617,-0.026301436,-0.02036955,0.42467794,-1.4333442,1.965464,-2.0974133,-1.5760845,2.4020927,-0.14927068,0.24921341,-0.2982751,0.091672726,-0.03264786,-0.12854922,0.05746084,0.3256114,-9.251195,0.9254084,47.717335,-0.88917744,-1.9958189,-3.488894,-0.19468269,-0.20773876,-0.35737294,27.5,28.75,27.75,31.375,33.25,34.0
0.31205398,-0.5335439,-1.3144298,-0.9474565,-0.009689579,-0.016130963,-0.15121856,-0.396036,-0.3243445,0.059931878,-3.0712376,0.62732875,-5.5199456e-05,-0.14419685,0.02647023,-0.0013750704,0.046181466,-0.02739121,-0.0140179675,0.42437804,-1.4328403,1.9648417,-2.0972092,-1.5761808,2.4018028,-0.14873214,0.24853934,-0.2996967,0.09449619,-0.031783577,-0.13436474,0.15322891,0.28730422,-9.289502,0.85826975,47.682407,-0.87450194,-1.9883635,-3.47401,-0.25436312,-0.2383277,-0.30637497,27.5,28.75,27.75,31.375,33.25,34.0
0.3140538,0.014018521,-0.7314578,-0.8192031,-0.007645688,-0.0028824732,-0.16388044,-0.3963309,-0.32430056,0.059917998,-3.071158,0.62738407,-0.00014193833,-0.14589551,0.026487393,-0.00026521535,0.04526373,-0.025318177,-0.0072875945,0.42406583,-1.4323144,1.9642423,-2.0970533,-1.5762047,2.401536,-0.14999254,0.24877162,-0.30273265,0.094975464,-0.03186378,-0.14235142,0.22984336,0.2681506,-9.461885,0.9410752,47.698532,-0.83013046,-1.896678,-3.5001907,-0.30752584,-0.23855628,-0.23564851,27.5,28.75,27.75,31.375,33.25,34.0
0.31605354,0.1598075,-0.9884733,-0.8614926,-0.011701408,0.002540955,-0.1496681,-0.39661258,-0.32423344,0.059907503,-3.0710196,0.62738895,-0.00024814173,-0.1474315,0.026310068,0.00030020054,0.043010283,-0.023210328,-0.0010889044,0.4237535,-1.4318111,1.9636449,-2.0968268,-1.5762762,2.4012454,-0.15154533,0.24913709,-0.30413842,0.09309984,-0.030748986,-0.15010452,0.11492169,0.30645782,-9.346964,0.9231726,47.691364,-1.0297034,-1.7669895,-3.465901,-0.32255796,-0.25512666,-0.13699198,27.5,28.75,27.75,31.375,33.25,34.0
0.31805333,0.22582023,-1.0279301,-0.61915,-0.023490233,0.014470748,-0.16081913,-0.39692885,-0.32419953,0.059927486,-3.0709743,0.62737894,-0.00019527627,-0.14896291,0.024500558,0.0009157361,0.039990865,-0.01908656,0.0016415932,0.42346585,-1.4313192,1.9630092,-2.0966847,-1.5763358,2.4009578,-0.15002574,0.25055122,-0.3063099,0.08882887,-0.029721472,-0.15131949,-0.019153614,0.24899697,-9.32781,0.9567419,47.657326,-1.0994709,-1.7668207,-3.5023994,-0.31092808,-0.28225154,-0.08150171,27.5,28.75,27.75,31.375,33.25,34.0
0.32005408,0.3753022,-0.97659624,-0.79250556,-0.0094816545,0.033590496,-0.16519146,-0.39720136,-0.32413444,0.059904777,-3.070799,0.6273429,-0.00029907838,-0.15068889,0.024628466,0.0005505338,0.039989326,-0.018034369,-0.00075000274,0.42318946,-1.4307916,1.9624118,-2.0964577,-1.576444,2.4006824,-0.151269,0.2534431,-0.3084948,0.08714621,-0.030188749,-0.15016218,0.0,0.21068975,-9.481039,0.90527004,47.694054,-0.97646475,-1.7439429,-3.4499407,-0.30805427,-0.29212213,-0.031367287,27.5,28.75,27.75,31.375,33.25,34.0
0.32205376,0.20065702,-0.66047615,-1.023695,-0.020136014,0.046813622,-0.16184741,-0.39751405,-0.3240999,0.05991523,-3.0707982,0.62732595,-0.00031534952,-0.15316796,0.024370791,0.00033760592,0.038338024,-0.012954321,-0.006432898,0.42286524,-1.4302995,1.9618,-2.096329,-1.576444,2.4003482,-0.15232286,0.2555184,-0.30891487,0.080200754,-0.030775877,-0.14552747,-0.05746084,0.24899697,-9.557653,0.90750587,47.66987,-0.98231256,-1.7290968,-3.4610682,-0.2559167,-0.32098293,-0.07338394,27.5,28.75,27.75,31.375,33.25,34.0
0.3240533,-1.2428417,-1.5238926,-0.9646371,-0.031399377,0.05012827,-0.1416634,-0.39782596,-0.3240542,0.059924033,-3.0707076,0.62729144,-0.00030322556,-0.15651034,0.024186501,0.001112339,0.03674875,-0.007980067,-0.014448065,0.42257664,-1.4297836,1.9611539,-2.0961506,-1.5765284,2.4000504,-0.1542306,0.25780562,-0.3125468,0.076374814,-0.03137038,-0.13941213,-0.24899697,0.24899697,-9.615114,0.88289046,47.686886,-0.8996396,-1.836624,-3.5250816,-0.2016018,-0.3157454,-0.12468834,27.5,28.75,27.75,31.375,33.25,34.0
0.32605416,-1.458526,-1.670255,-0.8923286,-0.04284096,0.079145886,-0.15483789,-0.3981302,-0.3240176,0.05990181,-3.0706303,0.62737453,-0.00040485067,-0.15676662,0.024787528,-0.00020500831,0.037924502,-0.010005254,-0.020733755,0.42226428,-1.4292197,1.9605316,-2.0960066,-1.5765408,2.3998005,-0.15524077,0.26056424,-0.31275463,0.07617449,-0.03160848,-0.1341321,-0.47884035,0.30645782,-9.500193,0.8605109,47.690468,-0.924627,-1.8283546,-3.548792,-0.19106972,-0.30973306,-0.20082264,27.5,28.75,27.75,31.375,33.25,34.0
0.32805383,-1.6236079,-1.7103668,-1.0856394,-0.043455094,0.1062505,-0.14894384,-0.39845294,-0.32397267,0.059917964,-3.070516,0.6274114,-0.00038093314,-0.16005164,0.023799477,0.0010913346,0.035419945,-0.0038731871,-0.028275592,0.42197612,-1.4286914,1.9598488,-2.095805,-1.5766367,2.399551,-0.155854,0.26232782,-0.31691018,0.07196779,-0.031834938,-0.1271975,-0.36391866,0.30645782,-9.634268,0.8940802,47.707485,-0.9181308,-2.0270617,-3.5937614,-0.13870534,-0.3537389,-0.27496797,27.5,28.75,27.75,31.375,33.25,34.0
0.33005348,-1.6821703,-1.2323651,-0.895329,-0.051874176,0.11373613,-0.16006967,-0.39876464,-0.3239286,0.059918575,-3.070443,0.62749183,-0.00034608162,-0.16085371,0.024440035,0.00012701856,0.037175205,-0.0052218297,-0.030967187,0.42167598,-1.4281876,1.9592503,-2.0956972,-1.5766972,2.399311,-0.15685634,0.26546383,-0.31847045,0.07233838,-0.0328862,-0.12550041,-0.40222588,0.2681506,-9.691729,0.8873621,47.6636,-1.0284792,-2.1181765,-3.5736008,-0.1257829,-0.36503518,-0.3338071,27.5,28.75,27.75,31.375,33.25,34.0
0.33205324,-1.5417935,-1.0057919,-0.52544445,-0.047764335,0.114961505,-0.16324912,-0.39907718,-0.3238767,0.059896473,-3.0703342,0.6275856,-0.00041400766,-0.1612149,0.023415465,0.0005730112,0.037784174,-0.0029931162,-0.032464843,0.421353,-1.4276246,1.958628,-2.0955532,-1.5767454,2.3990614,-0.15415873,0.26628774,-0.32041886,0.07169326,-0.034356333,-0.121292174,-0.7469909,0.24899697,-9.595961,0.9612189,47.678825,-1.045017,-1.9688883,-3.5665512,-0.07049438,-0.37210846,-0.41938323,27.5,28.75,27.75,31.375,33.25,34.0
0.33405426,-1.3852007,-0.32149652,-0.6251933,-0.031914786,0.10322715,-0.15688732,-0.39939982,-0.3238349,0.059908576,-3.070235,0.6276977,-0.00035535413,-0.16245867,0.023968626,0.0015042787,0.03787274,-0.00061937515,-0.03260061,0.42106444,-1.427109,1.9579815,-2.09541,-1.5768303,2.3988564,-0.15535161,0.26549187,-0.32176644,0.07168406,-0.03542209,-0.12234203,-0.842759,0.095768064,-9.5385,0.98807013,47.677036,-1.034147,-2.0412974,-3.589219,-0.07627165,-0.36503544,-0.47836876,27.5,28.75,27.75,31.375,33.25,34.0
0.336054,-0.7973293,0.10720425,-0.75032216,-0.0055725314,0.098307505,-0.16290614,-0.3997284,-0.32379586,0.059888408,-3.0701478,0.627792,-0.00037765558,-0.16330226,0.02427365,0.0015656125,0.038990755,-0.00011792047,-0.027864808,0.42075232,-1.4265229,1.9573358,-2.0953019,-1.5768784,2.3986151,-0.15562215,0.26672912,-0.3235762,0.07221224,-0.036685217,-0.12733822,-0.51714754,0.1340753,-9.500193,0.9947882,47.66987,-1.1442142,-1.7569456,-3.7488127,-0.03668387,-0.3805778,-0.46506935,27.5,28.75,27.75,31.375,33.25,34.0
0.33805376,-0.22137038,0.51238006,-0.65113825,-0.0012322251,0.09562397,-0.17533566,-0.40006822,-0.32373753,0.059914242,-3.0701003,0.62785286,-0.00029714566,-0.16445574,0.024855496,0.0020392274,0.040047325,0.0011967646,-0.020025793,0.42040414,-1.4260433,1.9567007,-2.0951698,-1.576939,2.3983116,-0.15645884,0.26720542,-0.3254379,0.0727593,-0.03823325,-0.13600472,-0.36391866,0.0,-9.5385,1.0194036,47.6636,-1.1593885,-1.7232577,-3.7831373,-0.014964347,-0.3723324,-0.40674466,27.5,28.75,27.75,31.375,33.25,34.0
0.34005353,-1.2837741,0.23858808,-0.54716825,0.02247585,0.061468154,-0.15256691,-0.40041766,-0.32370535,0.059919987,-3.0700412,0.62785363,-0.00023413554,-0.16634656,0.024849134,0.0028294462,0.041483715,0.003707466,-0.009838433,0.4201043,-1.425468,1.956005,-2.09505,-1.577012,2.3980205,-0.15627818,0.26899824,-0.32954368,0.07328942,-0.040628772,-0.14599484,-0.47884035,-0.11492168,-9.5385,1.005978,47.658226,-1.2911028,-1.7216121,-3.5902443,0.01855469,-0.3373382,-0.32816052,27.5,28.75,27.75,31.375,33.25,34.0
0.34205422,-0.07308187,1.2463093,-0.6009156,0.025778245,0.068099424,-0.16269246,-0.40074053,-0.32365745,0.059929058,-3.0699399,0.6277886,-0.00016452033,-0.16671385,0.025473516,0.0035933086,0.043845017,0.00193921,-0.001458482,0.41982827,-1.4249403,1.9553474,-2.0948923,-1.5771316,2.3977177,-0.15660779,0.2695815,-0.33337262,0.07903259,-0.042109024,-0.15469377,-0.2681506,-0.13407528,-9.461885,0.9186956,47.679718,-1.1870513,-1.6437126,-3.50314,-0.0056705205,-0.34732246,-0.21711542,27.5,28.75,27.75,31.375,33.25,34.0
0.34405413,-0.6462735,1.093915,-0.5961189,0.045579758,0.04647306,-0.1516922,-0.4010623,-0.32360506,0.059930395,-3.0698404,0.6278059,-0.00017897072,-0.16820233,0.026870051,0.0026707363,0.04635229,-0.00041312972,-0.00067516963,0.41951513,-1.4244007,1.9546884,-2.0947125,-1.5772051,2.397429,-0.15934053,0.273557,-0.3364173,0.08122919,-0.04347379,-0.15819739,-0.34476507,-0.28730422,-9.423578,0.8784135,47.637623,-1.0584922,-1.7260468,-3.400951,-0.010187745,-0.3382217,-0.15117961,27.5,28.75,27.75,31.375,33.25,34.0
0.3460542,-0.027893867,1.8065257,-0.5588674,0.05112954,0.060090788,-0.16018614,-0.4014024,-0.3235427,0.059925873,-3.0697403,0.6277832,-0.00012098665,-0.16712229,0.027803697,0.0011648907,0.05028889,-0.0076240078,-0.0009838978,0.41919136,-1.4238477,1.9540404,-2.0945895,-1.5773128,2.3971047,-0.15956607,0.27723366,-0.338858,0.08815459,-0.04413413,-0.15810876,-0.28730422,-0.30645782,-9.404425,0.90750587,47.679718,-1.221393,-1.8509166,-3.4292862,-0.047350504,-0.31758347,-0.12446017,27.5,28.75,27.75,31.375,33.25,34.0
0.34805375,-0.0045687915,2.1949885,-0.6469747,0.06326227,0.03958829,-0.1619309,-0.4017517,-0.32349652,0.05994325,-3.0696604,0.62776935,-0.00010899187,-0.16652466,0.029391404,4.2841715e-05,0.0555153,-0.012290821,-0.006064321,0.41886735,-1.4232838,1.9533108,-2.094385,-1.5773858,2.396783,-0.15994999,0.2797262,-0.34051475,0.0937251,-0.046993203,-0.15339224,-0.2681506,-0.34476504,-9.481039,0.9097417,47.692257,-1.2611778,-2.042293,-3.297552,-0.12008949,-0.286417,-0.14159535,27.5,28.75,27.75,31.375,33.25,34.0
0.35005322,-0.82290673,1.3908536,-0.46013328,0.069287285,0.022957573,-0.14156128,-0.40211937,-0.323433,0.05995686,-3.0695477,0.6278059,-4.9900173e-05,-0.16645761,0.030372407,-0.0006775064,0.058615755,-0.01543108,-0.014845365,0.41852015,-1.422707,1.9525803,-2.0942037,-1.5774945,2.3964741,-0.16051653,0.28194413,-0.3423976,0.097549275,-0.04852024,-0.14516617,-0.36391866,-0.2681506,-9.385271,0.8717007,47.703903,-1.2965372,-1.9458442,-3.4341812,-0.17567217,-0.27322027,-0.25115487,27.5,28.75,27.75,31.375,33.25,34.0
0.35205388,-0.00034743795,1.0592936,-0.69261783,0.054893684,0.042080868,-0.15969469,-0.40242672,-0.32334676,0.059947267,-3.0693579,0.6278436,-9.271714e-05,-0.16560613,0.031287614,-0.0015266098,0.059934054,-0.019851618,-0.018766979,0.41819605,-1.4221779,1.9519466,-2.0939748,-1.5776261,2.3961992,-0.16171627,0.28287068,-0.3424822,0.101265036,-0.04793781,-0.14244303,-0.17238253,-0.1340753,-9.32781,0.9835985,47.686886,-1.3116708,-1.9216032,-3.558502,-0.23258531,-0.25284958,-0.28974915,27.5,28.75,27.75,31.375,33.25,34.0
0.35405356,-0.5010668,0.3642201,-0.7700594,0.027460078,0.029190024,-0.15450759,-0.40275115,-0.32329097,0.05994312,-3.0692341,0.627856,-0.00013005128,-0.16599317,0.033168904,-0.0021430298,0.063330896,-0.021627044,-0.021861961,0.4178839,-1.421613,1.9512647,-2.0937712,-1.5777115,2.3959117,-0.16375159,0.28394872,-0.34297565,0.10367146,-0.05033749,-0.14136365,-0.05746084,-0.076614454,-9.461885,0.92093146,47.670765,-1.2336386,-1.977684,-3.743331,-0.2627876,-0.21338956,-0.3212614,27.5,28.75,27.75,31.375,33.25,34.0
0.35605407,-0.53408384,-0.64486915,-0.5159193,-0.016902864,0.046813447,-0.16534896,-0.40307435,-0.32323697,0.059938386,-3.0690854,0.62784386,-0.00020247661,-0.16888075,0.034848154,-0.0009036203,0.06467264,-0.018592868,-0.025412213,0.41758344,-1.4210242,1.9505457,-2.093519,-1.5778078,2.395624,-0.167398,0.28429905,-0.34657785,0.10467438,-0.052831337,-0.14143558,-0.15322891,0.076614454,-9.481039,0.98807013,47.67793,-1.0905113,-1.8475069,-3.6724005,-0.29851297,-0.17762187,-0.36592275,27.5,28.75,27.75,31.375,33.25,34.0
0.35805365,-0.82431537,-1.1798791,-0.7205511,-0.037572775,0.039582964,-0.15862964,-0.40342718,-0.32313794,0.05994565,-3.0689058,0.6279765,-0.00017856821,-0.17081958,0.033960555,0.0012502646,0.063837975,-0.012090562,-0.024763113,0.4172007,-1.4204843,1.9498633,-2.0933044,-1.5779408,2.3953483,-0.16593595,0.28298947,-0.34972307,0.10282101,-0.054736458,-0.14060447,-0.11492168,0.11492168,-9.404425,0.9768804,47.709274,-1.182324,-1.8814614,-3.5650077,-0.3371358,-0.14523552,-0.38116336,27.5,28.75,27.75,31.375,33.25,34.0
0.36005333,-0.39528063,-1.4670618,-0.8216807,-0.057631038,0.05441365,-0.1672233,-0.40379465,-0.3230564,0.059981357,-3.068754,0.62809384,-4.3243526e-05,-0.17360185,0.03309196,0.0023397205,0.059475314,-0.008109911,-0.020519318,0.41685265,-1.4199677,1.9491452,-2.0931022,-1.5780958,2.3950942,-0.1679319,0.2841836,-0.3529509,0.09935301,-0.052420504,-0.14685835,-0.13407528,0.17238252,-9.595961,0.94331104,47.737038,-1.0924112,-1.6050088,-3.549009,-0.3230117,-0.10802382,-0.34058702,27.5,28.75,27.75,31.375,33.25,34.0
0.36205417,-0.86384773,-2.1873345,-0.7959052,-0.073935926,0.054437306,-0.15748264,-0.4041143,-0.32299826,0.059955243,-3.0686212,0.6280599,-0.00012493553,-0.17797698,0.032153405,0.0047484287,0.05535718,0.0005994393,-0.014961676,0.41654047,-1.4193667,1.9484743,-2.0929124,-1.5781797,2.394779,-0.16970703,0.28450376,-0.35783967,0.09420657,-0.052268434,-0.15418333,-0.11492168,0.15322891,-9.595961,0.9097417,47.685097,-0.9778997,-1.5227308,-3.3214366,-0.29302815,-0.084279746,-0.28093854,27.5,28.75,27.75,31.375,33.25,34.0
0.36405367,-0.61618114,-1.7508578,-0.81594795,-0.067397304,0.050715607,-0.16518617,-0.40449533,-0.32292646,0.059989024,-3.068528,0.62811154,-2.1631404e-05,-0.17884502,0.032107696,0.0028137276,0.054489296,0.00021289068,-0.006945772,0.41616902,-1.4188241,1.9477328,-2.0927227,-1.578287,2.3944526,-0.17070034,0.28845087,-0.35697442,0.089289166,-0.05138397,-0.1631989,-0.019153614,0.2681506,-9.634268,1.044019,47.70032,-0.9470804,-1.5802402,-3.416813,-0.21936712,-0.06105168,-0.18233465,27.5,28.75,27.75,31.375,33.25,34.0
0.3660534,-0.7549821,-1.6336824,-1.2471616,-0.046953924,0.046804123,-0.15799204,-0.40486568,-0.32288858,0.06002535,-3.0684867,0.62798506,0.00011504778,-0.18083696,0.031909402,0.0016930092,0.051846616,0.00033273728,-0.0040569557,0.41586852,-1.418271,1.9469784,-2.0925567,-1.5783943,2.394079,-0.17327437,0.29258767,-0.3584264,0.08534364,-0.04905778,-0.16867828,-0.30645782,0.40222588,-9.825804,0.9030289,47.707485,-1.022935,-1.7303138,-3.591504,-0.17906326,-0.065487444,-0.07099985,27.5,28.75,27.75,31.375,33.25,34.0
0.36805406,-0.7465498,-1.9442617,-1.0861479,-0.0580769,0.061045367,-0.16054662,-0.40521607,-0.32282704,0.060026836,-3.0683758,0.62799716,0.00013100287,-0.18054926,0.030559024,0.0007093321,0.04986702,-0.00028204106,-0.0025462,0.41553366,-1.4176935,1.9462727,-2.0923774,-1.5784897,2.3937669,-0.1717107,0.29477537,-0.35826215,0.08271612,-0.047019467,-0.16863689,-0.24899697,0.40222588,-9.768343,0.9231726,47.687782,-1.055124,-1.8056927,-3.706774,-0.13053307,-0.08282639,-0.043173514,27.5,28.75,27.75,31.375,33.25,34.0
0.3700536,-0.7421373,-2.3902972,-0.63139844,-0.07050942,0.064679466,-0.17096035,-0.40556931,-0.32277912,0.06001388,-3.0683007,0.62798333,0.000114227434,-0.18023506,0.030180873,-4.3437274e-05,0.048332214,-0.0036366764,-0.008545511,0.41519827,-1.4170803,1.9455665,-2.092234,-1.5785488,2.3934333,-0.17237054,0.29670227,-0.35928443,0.08426917,-0.044246353,-0.1633143,-0.28730422,0.51714754,-9.672575,0.9545008,47.7451,-0.9211247,-1.7367759,-3.8453002,-0.10237473,-0.09863114,-0.05897495,27.5,28.75,27.75,31.375,33.25,34.0
0.37205386,-0.9464583,-1.6286665,-0.62914187,-0.07930416,0.060918216,-0.15654473,-0.4059224,-0.32272404,0.060028404,-3.0682163,0.62796915,0.00017712855,-0.18215777,0.030180488,0.0005570113,0.046250373,-0.00091787573,-0.017488228,0.41487408,-1.4165266,1.9448603,-2.092067,-1.5786446,2.393112,-0.1742719,0.29732934,-0.36105078,0.082105376,-0.043416448,-0.15627694,-0.63206923,0.47884035,-9.595961,1.0015011,47.686886,-0.9640001,-1.8840967,-3.8479352,-0.055152398,-0.10563676,-0.11904141,27.5,28.75,27.75,31.375,33.25,34.0
0.37405363,-1.1619251,-1.6429589,-0.31053078,-0.074388675,0.05619108,-0.16012174,-0.40631762,-0.32265514,0.06004666,-3.0681257,0.6281265,0.00030022959,-0.18350565,0.029465437,0.0011060847,0.044805005,-0.0015980484,-0.027109958,0.41449082,-1.4159504,1.9441298,-2.091946,-1.57874,2.3928394,-0.17490156,0.2998537,-0.3659214,0.0845284,-0.041777074,-0.14729552,-0.47884035,0.38307226,-9.481039,0.9925471,47.73525,-0.9826982,-1.6896652,-3.7160382,-0.0401198,-0.12377572,-0.23768458,27.5,28.75,27.75,31.375,33.25,34.0
0.37605336,-0.64611214,-1.429609,-0.59639966,-0.04104098,0.042561114,-0.16270566,-0.40667433,-0.32261258,0.060060844,-3.068024,0.62818223,0.0003229707,-0.18580861,0.028085344,0.0027137657,0.04231825,0.0019715775,-0.030889938,0.41417924,-1.4153609,1.9433745,-2.0917428,-1.5788234,2.3925767,-0.17459722,0.3012374,-0.37130255,0.08426306,-0.040938266,-0.14321299,-0.21068975,0.34476504,-9.481039,0.9410752,47.670765,-1.0121793,-1.601943,-3.680266,-0.031148363,-0.13395764,-0.28360742,27.5,28.75,27.75,31.375,33.25,34.0
0.37805384,-0.14099184,-0.46761298,-0.45556656,-0.019644449,0.029578961,-0.16142473,-0.40706444,-0.322573,0.06006196,-3.067977,0.6283067,0.0003341261,-0.18622759,0.026737465,0.0018122698,0.041399077,0.00026844293,-0.033256695,0.41380844,-1.4147222,1.9426078,-2.0916111,-1.5788478,2.3922904,-0.17325598,0.3055047,-0.37432846,0.08421839,-0.0394041,-0.13951379,-0.34476507,0.34476504,-9.289502,0.9567419,47.70659,-1.1050099,-1.6987875,-3.5422606,0.037741408,-0.16342801,-0.38261384,27.5,28.75,27.75,31.375,33.25,34.0
0.38005343,0.20231053,-0.15501219,-0.18276258,-0.012068301,0.033509366,-0.1713385,-0.40744498,-0.32252565,0.06007273,-3.0678973,0.6283261,0.00045237172,-0.18614224,0.026396992,0.0023097796,0.040802192,-0.00092904747,-0.034531735,0.41348508,-1.4141223,1.9418663,-2.0914905,-1.578955,2.3919902,-0.17303482,0.30557507,-0.37634936,0.08700725,-0.038368415,-0.13802563,-0.45968673,0.24899697,-9.289503,0.97240865,47.713753,-1.2486309,-1.6712643,-3.5688274,0.048358038,-0.1736966,-0.4427216,27.5,28.75,27.75,31.375,33.25,34.0
