Tylouw/Master_Thesis_Code/training_data/batch_1/big_rod_t0.3/sample_34_session_1.csv
timestamp[s],tcp_force_x[N],tcp_force_y[N],tcp_force_z[N],tcp_force_rx[Nm?],tcp_force_ry[Nm?],tcp_force_rz[Nm?],tcp_pose_x[m],tcp_pose_y[m],tcp_pose_z[m],tcp_pose_rx[rot_vec_x],tcp_pose_ry[rot_vec_y],tcp_pose_rz[rot_vec_z],tcp_velo_x[m/s],tcp_velo_y[m/s],tcp_velo_z[m/s],tcp_velo_rx[rot_vec_x/s],tcp_velo_ry[rot_vec_y/s],tcp_velo_rz[rot_vec_z/s],q1[rad],q2[rad],q3[rad],q4[rad],q5[rad],q6[rad],qd1[rad/s],qd2[rad/s],qd3[rad/s],qd4[rad/s],qd5[rad/s],qd6[rad/s],tool_acc_x,tool_acc_y,tool_acc_z,current_of_whole_robot[A],voltage_of_whole_robot[V],current_J1[A],current_J2[A],current_J3[A],current_J4[A],current_J5[A],current_J6[A],temp_J1[C],temp_J2[C],temp_J3[C],temp_J4[C],temp_J5[C],temp_J6[C]
5.720067e-07,0.32508445,-0.4054559,0.1362929,-0.046875026,0.040519964,-0.023596205,-0.37289158,-0.32819983,0.059938096,-3.0784345,0.62487584,-0.00025078855,0.0031859379,0.0015423424,-0.0046487655,0.004726575,-0.010072237,-8.709258e-05,0.4481382,-1.4708608,2.0095851,-2.107691,-1.5707096,2.4230676,-8.424631e-05,0.0048520183,0.0050593982,0.0012138018,0.000117808544,-0.0,0.15322891,0.22984336,-9.002198,0.7418897,47.711964,-0.23536098,-2.9409199,-2.4909613,-0.4952073,0.15185775,-0.005392805,27.625,28.8125,27.875,31.5,33.4375,34.25
0.002052288,0.37550107,-0.39110342,0.1719783,-0.030364582,0.034604043,-0.02711543,-0.37289283,-0.3282157,0.059938043,-3.0784762,0.6249229,-0.00030263836,-0.00041033854,-0.00019808025,-0.0029784897,-0.0006491122,0.001055082,-7.9333804e-05,0.44812617,-1.4708489,2.0095732,-2.1076953,-1.5706495,2.4230795,-8.0055484e-05,0.0042357193,0.004446175,-0.009914473,0.00011480288,-0.0,0.114921674,0.21068975,-8.887277,0.6769922,47.694054,-0.19187102,-2.8520913,-2.3763664,-0.46625274,0.14547488,-0.020157285,27.625,28.8125,27.875,31.5,33.4375,34.25
0.004052354,-0.057792984,-0.543213,-0.140756,-0.019123139,0.026932104,-0.021939715,-0.37288484,-0.32822463,0.059931785,-3.0785072,0.6248134,-0.00028518046,-0.0018361853,-0.00088735606,-0.0022653223,-0.0028615964,0.005639129,-7.65397e-05,0.44815025,-1.4708492,2.009596,-2.107732,-1.5706495,2.4230313,-7.862095e-05,0.003810342,0.0043119895,-0.014444956,0.00011194687,-0.0,0.019153614,0.17238252,-8.944737,0.7597976,47.705692,-0.21171927,-3.0456886,-2.594479,-0.3273976,0.1491558,-0.02878832,27.625,28.8125,27.875,31.5,33.4375,34.25
0.006052631,0.21716961,-0.015282685,-0.081544764,-0.017269496,0.017319245,-0.013255675,-0.37287772,-0.32821268,0.059899226,-3.0784566,0.62491894,-0.00037499113,-0.00051947305,-0.00024995612,-0.002016787,-0.0009905891,0.0017821561,-7.6693155e-05,0.44812617,-1.4708017,2.009621,-2.1077416,-1.5706376,2.4230795,-7.727035e-05,0.002749571,0.0034992849,-0.00828465,0.00010922931,-0.0,0.095768064,0.15322891,-9.021352,0.7239871,47.691364,-0.17818432,-3.0207386,-2.5575557,-0.36654627,0.14553311,-0.019321462,27.625,28.8125,27.875,31.5,33.4375,34.25
0.008051956,0.9529733,0.796785,-0.6007262,0.009759225,0.0046189507,-0.019528639,-0.37289593,-0.32820413,0.059917446,-3.078455,0.62488025,-0.00026965892,5.9758044e-05,2.3292027e-05,-0.0016137423,2.573202e-06,-0.0003080096,-7.6001495e-05,0.44812617,-1.4708258,2.009608,-2.107752,-1.5706857,2.4230556,-7.596598e-05,0.0021512604,0.002290814,-0.004163824,0.00012654238,-0.0,0.11492168,0.11492168,-9.078813,0.68146914,47.67345,-0.20513406,-2.9759064,-2.4847105,-0.42041737,0.1502846,-0.017062193,27.625,28.8125,27.875,31.5,33.4375,34.25
0.010052417,0.9101809,0.9324014,-1.0449461,0.03579255,-0.010445262,-0.025421629,-0.37288627,-0.32821465,0.059906173,-3.0784671,0.6248436,-0.00032322225,0.0005628284,0.00027182282,-0.0014528886,0.0007809237,-0.0019115438,-8.512663e-05,0.4481382,-1.4708021,2.0096076,-2.1077511,-1.5706614,2.4230433,-8.453968e-05,0.0017359835,0.0017531011,-0.0014283803,0.00012491317,-0.0,0.095768064,0.11492168,-9.270349,0.7105615,47.651955,-0.71365225,-2.4382594,-3.0019765,-0.46231145,0.14957729,-0.08985992,27.625,28.8125,27.875,31.5,33.4375,34.25
0.012051666,0.45603374,0.7012001,-1.1241459,0.009583261,0.0010188565,-0.021461759,-0.37289017,-0.32819268,0.05990306,-3.0784106,0.62485164,-0.00030902273,0.00017776604,0.00046789253,-0.0031028802,0.0024412144,-0.005363524,-0.00080453017,0.448126,-1.4708,2.009607,-2.1077273,-1.5707096,2.4230433,-0.00080552115,0.0065693036,8.3164094e-05,-0.0007612537,0.00012217177,-0.0,0.11492168,0.0,-9.385271,0.77545905,47.695843,-0.87279594,-2.5292375,-3.0235076,-0.48494223,0.1547633,-0.16009061,27.625,28.8125,27.875,31.5,33.4375,34.25
0.014052042,0.41577792,-0.39006695,-1.2786673,-0.026775397,0.04197019,-0.025914662,-0.3728563,-0.3282067,0.059865303,-3.0784092,0.62481785,-0.0005128879,-0.0057128887,0.0030976012,-0.003936523,0.0028832715,-0.0063465447,-0.009360378,0.44813436,-1.4707377,2.009617,-2.1076915,-1.5706376,2.4230306,-0.011127259,0.014529506,-0.006716311,-0.0008447852,0.00013424149,-0.0017605479,0.0,-0.05746084,-9.500193,0.75084364,47.694946,-0.38595405,-2.890934,-2.8341084,-0.48528993,0.17440501,-0.20575431,27.625,28.8125,27.875,31.5,33.4375,34.25
0.016052395,-1.619234,-1.9647148,-1.474746,-0.04914327,0.042041715,-0.019055603,-0.37286505,-0.32820442,0.05985617,-3.0784063,0.6248323,-0.0005132147,-0.005964765,0.0033480474,-0.0038911426,0.0029168495,-0.0064626574,-0.0024649987,0.4481221,-1.4707136,2.009617,-2.1077154,-1.5706376,2.4230278,-0.011838426,0.014590378,-0.0069548883,-0.00054895214,0.00015048248,-0.009367062,-0.38307226,0.17238252,-9.691729,0.7329411,47.72002,-0.4851585,-2.7922292,-2.9484267,-0.49924576,0.17483768,-0.17281358,27.625,28.8125,27.875,31.5,33.4375,34.25
0.01805201,-1.6360908,-1.8222693,-1.2627248,-0.09314839,0.10099967,-0.032770496,-0.37286183,-0.32817516,0.0598361,-3.0783417,0.6248364,-0.0005801769,-0.0050923005,0.003625897,-0.004323882,0.003292004,-0.007580026,0.0007122173,0.44808608,-1.4706901,2.009629,-2.1076791,-1.5706614,2.4230025,-0.011666436,0.013888397,-0.0052244356,-0.00040904817,0.00029776327,-0.012373796,-0.5554548,0.21068975,-9.710882,0.74413085,47.695843,-0.6040231,-2.6925974,-3.3003898,-0.515377,0.19884154,-0.15384853,27.625,28.8125,27.875,31.5,33.4375,34.25
0.020052265,-1.1674012,-1.2114315,-1.2419164,-0.092072345,0.14312308,-0.048622184,-0.3728762,-0.32817358,0.059821896,-3.07833,0.62483454,-0.00063704856,-0.0057636467,0.003621826,-0.0043674624,0.0018787043,-0.0083394125,-0.00017803303,0.44806165,-1.4706298,2.0095928,-2.1076672,-1.570649,2.4229784,-0.013354069,0.014838282,-0.006184912,-0.000332022,0.001897546,-0.013173827,-0.53630114,0.24899697,-9.749189,0.79560274,47.699425,-0.78421426,-2.4891756,-3.4780078,-0.53477967,0.20873143,-0.18680525,27.625,28.8125,27.875,31.5,33.4375,34.25
0.02205244,-1.4994137,-0.59697217,-1.3868583,-0.05603046,0.11513619,-0.060317904,-0.37289378,-0.3281695,0.0598197,-3.0783339,0.62489396,-0.0006086791,-0.0070403144,0.003135656,-0.0041454844,-0.00075109093,-0.008902768,-0.0017073699,0.44803697,-1.4706169,2.0095918,-2.107703,-1.5706476,2.4229903,-0.015370046,0.016602961,-0.008642463,-0.00028003266,0.00450657,-0.013664069,-0.5746084,0.19153613,-9.730036,0.77545905,47.71465,-0.74947476,-2.5300322,-3.465829,-0.5419214,0.15184294,-0.21863052,27.625,28.8125,27.875,31.5,33.4375,34.25
0.024052491,-1.8285687,-0.24527217,-1.3815836,-0.016647983,0.079177976,-0.07152096,-0.37290865,-0.32817644,0.05981559,-3.0783596,0.6248411,-0.0006717903,-0.009238766,0.0030003996,-0.0033961576,-0.0019663307,-0.007252348,-0.0015531465,0.4480122,-1.4705685,2.0095427,-2.1076791,-1.5706118,2.4229293,-0.017367825,0.018365746,-0.012258111,-0.00044209458,0.004877092,-0.01581445,-0.7661445,0.11492168,-9.730036,0.7866488,47.74331,-0.7896842,-2.4293778,-3.3520374,-0.55552584,0.14448354,-0.20682049,27.625,28.8125,27.875,31.5,33.4375,34.25
0.026051914,-1.1332792,0.15117778,-1.2038634,-0.0028855116,0.085640036,-0.09441007,-0.3729342,-0.32816717,0.059813026,-3.0783627,0.6248036,-0.0006177419,-0.0104266545,0.0030367218,-0.0028177768,-0.002108979,-0.0054223766,-0.0011421855,0.447988,-1.4705447,2.0095308,-2.1077158,-1.5706362,2.4228814,-0.018063053,0.018727876,-0.0138794035,-0.0008921135,0.0042081433,-0.016917974,-0.8619126,0.17238252,-9.730036,0.7597976,47.723602,-0.7556553,-2.5555265,-3.3742874,-0.55954236,0.1436156,-0.21054322,27.625,28.8125,27.875,31.5,33.4375,34.25
0.028052192,-0.8811928,-0.11303677,-1.3271893,-0.0140745845,0.108210444,-0.11355524,-0.37295115,-0.32816702,0.05981346,-3.0783849,0.62492347,-0.0006489854,-0.011969938,0.0030561797,-0.0023712942,-0.0031107105,-0.0024648944,-0.0015074459,0.4479397,-1.4705325,2.0095193,-2.1077282,-1.570588,2.422905,-0.019240774,0.019032355,-0.01463312,-0.0035400998,0.0038220547,-0.01772831,-0.8236054,0.11492168,-9.653421,0.7978386,47.71554,-0.8183527,-2.4819598,-3.422955,-0.54205894,0.16768393,-0.20681989,27.625,28.8125,27.875,31.5,33.4375,34.25
0.030052477,-2.1641161,-0.84916335,-1.2185754,-0.03735389,0.10473695,-0.1169125,-0.37297636,-0.3281535,0.059802383,-3.078341,0.6248566,-0.00067258,-0.0129454965,0.0024913053,-0.0020164412,-0.0047482667,-0.0014609845,-0.0012818272,0.44791546,-1.4704603,2.0094573,-2.1076925,-1.5706238,2.4228446,-0.019766163,0.019955112,-0.016249966,-0.004464456,0.0048564654,-0.018480277,-0.7469909,0.095768064,-9.672575,0.80456203,47.721813,-0.8591285,-2.3894403,-3.3742049,-0.51790845,0.17265236,-0.21483806,27.625,28.8125,27.875,31.5,33.4375,34.25
0.032051805,-1.2513907,-0.51953346,-1.2427968,-0.06108211,0.12971963,-0.13493314,-0.37301463,-0.3281573,0.059802707,-3.0783854,0.62490416,-0.0006888135,-0.013797253,0.0021648132,-0.0015119391,-0.005976445,-0.0014312136,-0.001250032,0.44785517,-1.4704121,2.0094092,-2.1077163,-1.5705756,2.4228084,-0.020664442,0.020711955,-0.018436203,-0.0035965533,0.0059478898,-0.019411324,-0.7086837,0.038307227,-9.634268,0.7665104,47.716442,-0.8428029,-2.4472709,-3.2835398,-0.52665526,0.14507549,-0.21430326,27.625,28.8125,27.875,31.5,33.4375,34.25
0.034052797,-1.4143835,-0.6775146,-1.1030577,-0.028371284,0.10379169,-0.14561214,-0.37302738,-0.32815272,0.059781518,-3.078362,0.6248996,-0.0007084857,-0.014420505,0.0025021767,-0.0015993097,-0.0062474827,-0.0023996348,-0.0013826643,0.44784263,-1.470352,2.0093973,-2.1077402,-1.570587,2.422796,-0.02231436,0.021708097,-0.019522443,-0.002753558,0.006609753,-0.020929584,-0.6512228,0.019153614,-9.634268,0.7217513,47.674347,-0.7624141,-2.4437952,-3.3127613,-0.54600966,0.14234057,-0.21344987,27.625,28.8125,27.875,31.5,33.4375,34.25
0.036052037,-0.80026555,-0.047311597,-1.1777412,0.0047425283,0.07555857,-0.16317001,-0.37308693,-0.3281663,0.059816066,-3.0784426,0.6248772,-0.00058578566,-0.0156056695,0.0027496016,-0.0012512506,-0.00664902,-0.0021443716,-0.0015045147,0.44780597,-1.4703397,2.0093124,-2.107775,-1.5705751,2.4227352,-0.024024114,0.022637647,-0.021483844,-0.0021261785,0.006859877,-0.022516135,-0.40222588,-0.095768064,-9.576807,0.7911258,47.71465,-0.8187909,-2.4175556,-3.3418088,-0.5494906,0.12919715,-0.2131411,27.625,28.8125,27.875,31.5,33.4375,34.25
0.038052484,-0.76400506,0.43662202,-0.9841405,0.029900206,0.036525443,-0.18001877,-0.3731279,-0.3281434,0.059804525,-3.0783932,0.62504035,-0.0005878992,-0.016981745,0.0027398784,-0.0009032142,-0.007439174,-0.0007816534,-0.0012886769,0.44773364,-1.4702795,2.0092757,-2.1077878,-1.570587,2.422771,-0.025333107,0.023630684,-0.023173388,-0.003000458,0.006975647,-0.024039844,-0.36391866,-0.076614454,-9.557653,0.7709874,47.721813,-0.81656593,-2.389769,-3.2842617,-0.5422191,0.12702766,-0.19730328,27.625,28.8125,27.875,31.5,33.4375,34.25
0.040052615,-0.6779146,-0.038099367,-1.0996379,0.038928222,0.018560667,-0.18791264,-0.37315103,-0.32814592,0.05979585,-3.0784206,0.62502646,-0.0006621368,-0.018887982,0.002564081,0.00021956235,-0.009667244,0.0029504867,-0.0009822729,0.44768503,-1.4702197,2.0092275,-2.1077764,-1.5705394,2.4227102,-0.026991803,0.023081379,-0.024612583,-0.0053407545,0.007358694,-0.026004419,-0.2873042,-0.095768064,-9.442732,0.7709874,47.729877,-0.8573433,-2.2968538,-3.2834482,-0.51418686,0.13965206,-0.21771367,27.625,28.8125,27.875,31.5,33.4375,34.25
0.04205176,-0.042204633,0.21550852,-1.1487226,0.00907528,0.030308954,-0.20564632,-0.37319925,-0.32812634,0.059796307,-3.0784023,0.62500304,-0.0005857623,-0.020468166,0.0027191094,0.0007110998,-0.01022675,0.005257072,-0.00051148783,0.44763663,-1.4701717,2.0091794,-2.1078012,-1.570587,2.4226496,-0.028377647,0.023667209,-0.02604794,-0.0068119564,0.0068583135,-0.027858479,-0.17238252,-0.13407528,-9.461885,0.72622824,47.694054,-0.7684581,-2.2926161,-3.2854478,-0.50854397,0.1396149,-0.18920636,27.625,28.8125,27.875,31.5,33.4375,34.25
0.04405286,0.14541258,-0.23532282,-1.1646223,-0.0015348853,0.045803823,-0.19234613,-0.37323028,-0.32812414,0.059798565,-3.0784333,0.62508583,-0.0006437193,-0.021430178,0.0035751981,0.0007511437,-0.009390612,0.00523609,0.00036783612,0.44756395,-1.4701356,2.0091317,-2.1077888,-1.5705274,2.4226246,-0.030353326,0.02435643,-0.027057521,-0.0061060307,0.0061121895,-0.03071149,-0.038307227,0.019153614,-9.404425,0.7463667,47.704796,-0.74839973,-2.3019822,-3.352148,-0.49914727,0.14143854,-0.18371171,27.625,28.8125,27.875,31.5,33.4375,34.25
0.04605206,-0.20229323,-0.55905676,-1.2325749,-0.008836363,0.035640966,-0.16854009,-0.37328634,-0.32810643,0.059791613,-3.0784688,0.62505496,-0.0006780383,-0.022066701,0.0042382716,0.00046160622,-0.00821405,0.0037055193,0.0011461689,0.4474554,-1.470063,2.0090706,-2.1078002,-1.5704917,2.4224923,-0.031904567,0.02603649,-0.028650744,-0.004300668,0.0057141227,-0.03303958,0.0,0.019153614,-9.461885,0.7642693,47.711063,-0.6881317,-2.350894,-3.294016,-0.52047586,0.15177792,-0.1614948,27.625,28.8125,27.875,31.5,33.4375,34.25
0.04805243,-0.13175307,-0.5403219,-1.2063742,-0.018446034,0.026408605,-0.16693623,-0.3733233,-0.3281091,0.05979998,-3.0784757,0.6249978,-0.0006260701,-0.022765366,0.004503869,0.0007878586,-0.008231165,0.0036557987,0.002266606,0.44744295,-1.4700149,2.0089986,-2.1077998,-1.5705155,2.4224434,-0.033060864,0.026425738,-0.030070757,-0.0032333445,0.0057501867,-0.035315655,0.019153614,0.11492168,-9.404425,0.80456203,47.709274,-0.6890298,-2.2776432,-3.2928748,-0.52758473,0.15068269,-0.13990769,27.625,28.8125,27.875,31.5,33.4375,34.25
0.050052073,0.518514,-0.72480893,-1.2500429,-0.014479717,0.03048665,-0.1750221,-0.3733676,-0.32809642,0.05979956,-3.078482,0.625056,-0.00062183803,-0.023632571,0.0044793217,0.001186322,-0.009226242,0.0039791237,0.0028630455,0.44737047,-1.4699669,2.0089495,-2.1078117,-1.5705031,2.4224064,-0.03430934,0.026863499,-0.03153524,-0.0029304465,0.006505094,-0.037161123,0.095768064,0.17238252,-9.423578,0.7351769,47.694054,-0.7095579,-2.1833758,-3.3064003,-0.5409994,0.15557307,-0.1342006,27.625,28.8125,27.875,31.5,33.4375,34.25
0.052052487,0.2704099,-0.89009315,-1.3549223,-0.025950046,0.018245028,-0.16531412,-0.37342992,-0.32807946,0.0598116,-3.078506,0.62502235,-0.0005253405,-0.02430766,0.004742264,0.0010810717,-0.009124308,0.0039429856,0.003369823,0.4472981,-1.4699306,2.0088904,-2.107848,-1.570527,2.42231,-0.035360117,0.02784073,-0.032346755,-0.0030196528,0.0064289654,-0.038717482,0.076614454,0.22984336,-9.481039,0.86945957,47.686886,-0.7381857,-2.2623167,-3.316358,-0.5406781,0.16099732,-0.11377958,27.625,28.8125,27.875,31.5,33.4375,34.25
0.05405246,0.14254951,-1.0480093,-1.2977428,-0.036121648,0.024051726,-0.16264471,-0.37347317,-0.32809186,0.05982082,-3.0785477,0.6250108,-0.0005701968,-0.025440846,0.0048751836,0.0015419497,-0.009706211,0.0053152866,0.004032383,0.4472498,-1.4698586,2.0087821,-2.1078122,-1.5704793,2.4222493,-0.036584586,0.028131165,-0.033605635,-0.003537718,0.0063558402,-0.04060342,0.019153614,0.2681506,-9.461885,0.69937176,47.672558,-0.70919526,-2.12628,-3.3495042,-0.53563654,0.1714231,-0.1078248,27.625,28.8125,27.875,31.5,33.4375,34.25
0.05605173,-0.021444743,-1.5783572,-1.3274778,-0.03690973,0.027256424,-0.16573186,-0.37352264,-0.32804745,0.05980677,-3.0785139,0.6250225,-0.00060344115,-0.026108067,0.0047897585,0.0015510631,-0.010387855,0.005350537,0.005718587,0.44712946,-1.4697983,2.0087454,-2.1078002,-1.5704912,2.4221406,-0.03742712,0.029101484,-0.034631442,-0.0038105585,0.006950893,-0.043132696,-0.019153614,0.30645782,-9.5385,0.7463667,47.68599,-0.6820883,-2.055656,-3.3171828,-0.54124904,0.17950228,-0.068823405,27.625,28.8125,27.875,31.5,33.4375,34.25
0.05805195,-0.19373149,-0.920598,-1.1773735,-0.06007145,0.039171595,-0.1706592,-0.37356323,-0.3280607,0.059800696,-3.078557,0.62499434,-0.0006222531,-0.026786638,0.0046778084,0.0014045909,-0.011950771,0.0042219325,0.003309781,0.44709286,-1.4697143,2.0086725,-2.107824,-1.570455,2.422081,-0.039112575,0.030467415,-0.03583792,-0.0036331106,0.008847205,-0.04241203,-0.095768064,0.3256114,-9.5385,0.7329411,47.67614,-0.67845637,-2.080976,-3.3568187,-0.5370367,0.1647418,-0.06965196,27.625,28.8125,27.875,31.5,33.4375,34.25
0.06005228,-0.27520984,-1.1509926,-1.246844,-0.052380584,0.0394785,-0.1667883,-0.3736045,-0.32802108,0.05978774,-3.0785272,0.62497026,-0.00063188095,-0.02743482,0.0044102976,0.0018879076,-0.0128058605,0.004759697,0.0014768459,0.44699678,-1.469666,2.008649,-2.1078236,-1.5704783,2.4219737,-0.039556295,0.030749558,-0.03734089,-0.003268936,0.009383931,-0.041023254,-0.11492168,0.2681506,-9.634268,0.7911258,47.685097,-0.72764885,-2.0619345,-3.38209,-0.5477804,0.15696043,-0.08780773,27.625,28.8125,27.875,31.5,33.4375,34.25
0.062052384,-0.5378467,-1.4209859,-1.2957158,-0.033293616,0.044096857,-0.15028465,-0.37367257,-0.32802212,0.059813447,-3.078587,0.6250393,-0.0005768064,-0.028379679,0.0045818314,0.002168809,-0.013100952,0.005167382,0.001744489,0.4469124,-1.4696299,2.0085533,-2.1078355,-1.5704421,2.4219248,-0.04078944,0.031451758,-0.03882094,-0.0029842004,0.0094745,-0.042522628,-0.21068975,0.30645782,-9.595961,0.779936,47.690468,-0.7687857,-2.030395,-3.4423926,-0.5596645,0.16116455,-0.07695448,27.625,28.8125,27.875,31.5,33.4375,34.25
0.064052396,-0.36012897,-0.5091948,-1.2157592,-0.037534453,0.06194601,-0.17028472,-0.37369907,-0.32801387,0.059806656,-3.0786011,0.62502223,-0.00068090996,-0.028961996,0.004257398,0.0021715092,-0.014138156,0.0050822706,0.0020595,0.44684023,-1.4695696,2.0084918,-2.1077878,-1.5703939,2.4218402,-0.041358616,0.032544103,-0.039952327,-0.00331725,0.010441854,-0.043408178,-0.15322891,0.15322891,-9.5385,0.784413,47.70211,-0.7883759,-2.052673,-3.380629,-0.56501806,0.16246969,-0.09776902,27.625,28.8125,27.875,31.5,33.4375,34.25
0.06605211,-0.47808477,-0.70472896,-1.0892586,-0.027765522,0.06426347,-0.1613112,-0.37377685,-0.32800457,0.05980411,-3.0786324,0.62498975,-0.0006635318,-0.030358268,0.004093378,0.0025927431,-0.015009632,0.0063534225,0.0033788339,0.44674376,-1.4694616,2.0083845,-2.1078122,-1.5703815,2.4217196,-0.04246438,0.033720404,-0.042083424,-0.0038843295,0.010673815,-0.04583185,-0.21068975,0.15322891,-9.557653,0.7418897,47.687782,-0.7759122,-2.0539622,-3.359786,-0.5539978,0.15172927,-0.061680533,27.625,28.8125,27.875,31.5,33.4375,34.25
0.06805249,-0.82026017,-0.5938289,-0.987826,-0.025994772,0.05962459,-0.1639473,-0.37386322,-0.3280016,0.059833325,-3.0787163,0.6250467,-0.0005633639,-0.031140625,0.0039899675,0.002653286,-0.015513221,0.0069139292,0.0015973028,0.44663563,-1.4694253,2.0082886,-2.1078598,-1.5703458,2.4216363,-0.04311382,0.034696527,-0.043149646,-0.004515414,0.010888812,-0.044698026,-0.28730422,0.24899697,-9.5385,0.7777002,47.684196,-0.8350135,-1.9760239,-3.4600449,-0.54882383,0.14868271,-0.07715325,27.625,28.8125,27.875,31.5,33.4375,34.25
0.0700526,-1.0751123,-0.66139287,-0.94389683,-0.026871834,0.05983158,-0.16121396,-0.37393147,-0.3280085,0.05984862,-3.07876,0.6250187,-0.00048678194,-0.032594897,0.004547952,0.002350684,-0.015891664,0.006502377,-0.00242352,0.44658676,-1.4693527,2.0081794,-2.1078846,-1.5703458,2.4215646,-0.04582472,0.03679953,-0.04468423,-0.0048776274,0.011407531,-0.043386985,-0.34476504,0.17238252,-9.500193,0.800085,47.707485,-0.8302386,-1.9566616,-3.3641286,-0.548534,0.13331354,-0.10258508,27.625,28.8125,27.875,31.5,33.4375,34.25
0.07205265,-0.33693266,-0.2882483,-0.8062801,-0.025017524,0.07684174,-0.16913994,-0.37398934,-0.32801318,0.059855767,3.078763,-0.6250001,0.00051469385,-0.033353157,0.0044274516,0.0025786015,-0.016250553,0.007186837,-0.001396771,0.44650245,-1.4692804,2.0080836,-2.1078846,-1.5702857,2.4214683,-0.046294678,0.03754291,-0.045974102,-0.005099646,0.011434153,-0.04488252,-0.3256114,0.095768064,-9.442732,0.7933669,47.71554,-0.8145703,-1.9545717,-3.4071832,-0.53792894,0.12069352,-0.1073121,27.625,28.8125,27.875,31.5,33.4375,34.25
0.07405232,-0.33158392,-0.065282516,-0.7996088,-0.018341143,0.07687082,-0.16961922,-0.37405285,-0.32802325,0.05985646,3.0787327,-0.6249165,0.0005458954,-0.03377962,0.0035669098,0.0028984055,-0.017125392,0.007585399,7.463008e-05,0.44643086,-1.4691724,2.0079634,-2.1078846,-1.570237,2.4213483,-0.04547098,0.03861611,-0.047920417,-0.0049627665,0.012048714,-0.045529846,-0.34476504,0.05746084,-9.500193,0.85826975,47.728977,-0.91231155,-2.0038402,-3.3714757,-0.54249716,0.1236861,-0.12166931,27.625,28.8125,27.875,31.5,33.4375,34.25
0.07605257,-0.308844,0.14197609,-0.801243,-0.008309794,0.07321766,-0.16483435,-0.3741442,-0.32799184,0.059864707,3.0786893,-0.6249664,0.00044505837,-0.035469446,0.004419278,0.0025334123,-0.016564896,0.007431687,-0.0022936969,0.4462978,-1.4691116,2.0078914,-2.1079443,-1.5702499,2.421252,-0.04829462,0.041065052,-0.04971257,-0.0052362354,0.011610085,-0.045982055,-0.21068975,-0.038307227,-9.5385,0.7016076,47.719128,-0.8621125,-1.9295743,-3.3270164,-0.54440373,0.09997766,-0.12816375,27.625,28.8125,27.875,31.5,33.4375,34.25
0.07805178,-0.3724773,0.5941236,-0.7288731,-0.010240362,0.0701048,-0.16493873,-0.37417895,-0.32797465,0.0598514,3.0787144,-0.6249715,0.00053086365,-0.036668714,0.004752948,0.0026808656,-0.016592951,0.008303598,-0.0035103187,0.44622552,-1.4690273,2.0078185,-2.1078966,-1.5702375,2.4211798,-0.049760554,0.042049713,-0.051030353,-0.0056989864,0.011253489,-0.046230383,-0.4213795,0.019153614,-9.481039,0.72622824,47.70211,-0.8402419,-2.0114672,-3.3196785,-0.53700054,0.10927288,-0.15093566,27.625,28.8125,27.875,31.5,33.4375,34.25
0.080052026,-1.3956423,-0.5643472,-1.0853679,0.0067961053,0.04905107,-0.14809906,-0.3742737,-0.3279772,0.059861824,3.0786455,-0.62499726,0.00046445418,-0.037625134,0.005653641,0.0025219996,-0.016443562,0.0080507295,-0.0057331845,0.44612843,-1.4689194,2.0076869,-2.1079443,-1.5702137,2.4211075,-0.052290104,0.042737067,-0.05142511,-0.005696614,0.011231661,-0.046535898,-0.36391866,0.038307227,-9.404425,0.80456203,47.707485,-0.716594,-1.8708528,-3.400345,-0.54097927,0.11369046,-0.17690817,27.625,28.8125,27.875,31.5,33.4375,34.25
0.08205244,-0.95768756,-0.37683755,-0.77815837,-0.0035631852,0.06485917,-0.15287676,-0.37434077,-0.32795665,0.059871566,3.0786111,-0.62500834,0.0004304035,-0.03889295,0.0045721442,0.0032864227,-0.016964266,0.01005586,-0.003881089,0.44602102,-1.4688708,2.007614,-2.1079562,-1.5702018,2.4210114,-0.051124338,0.04446218,-0.055042192,-0.005834811,0.010831616,-0.047218718,-0.36391866,0.076614454,-9.32781,0.7642693,47.693153,-0.8832424,-1.9774592,-3.3120997,-0.52657044,0.1182532,-0.1806141,27.625,28.8125,27.875,31.5,33.4375,34.25
0.084052324,-1.1156898,-0.48795676,-0.7919891,-0.0069267955,0.064689696,-0.15683936,-0.37443674,-0.32795155,0.059899468,3.0785372,-0.625013,0.0003754395,-0.039276868,0.005037407,0.0019816954,-0.016282905,0.0074741216,-0.0042300317,0.44590044,-1.4687979,2.00747,-2.1079562,-1.570166,2.4209032,-0.052672226,0.047616344,-0.05550291,-0.00590348,0.01133445,-0.048416864,-0.3256114,0.038307227,-9.385271,0.80456203,47.72808,-0.9090569,-2.0130098,-3.2963548,-0.51856834,0.12438986,-0.20605776,27.625,28.8125,27.875,31.5,33.4375,34.25
0.086052544,-1.0582712,-0.8380656,-0.8754256,-0.0093391035,0.063571714,-0.15166488,-0.37450674,-0.32794246,0.059897672,3.0785596,-0.62497956,0.00037824945,-0.039981756,0.005467264,0.0031083128,-0.017745173,0.008679123,-0.0049421173,0.44582775,-1.4686788,2.0073378,-2.1079323,-1.5701774,2.420807,-0.054646675,0.045516886,-0.055979487,-0.005047378,0.0121355355,-0.04968088,-0.2681506,0.076614454,-9.32781,0.7396539,47.691364,-0.86287594,-1.9234517,-3.397409,-0.52493626,0.1127248,-0.24088158,27.625,28.8125,27.875,31.5,33.4375,34.25
0.08805184,-0.659022,-0.40660685,-0.787335,-0.020634267,0.061525486,-0.15708831,-0.37458435,-0.32791814,0.05990628,3.0785205,-0.62496966,0.00035809775,-0.040985286,0.005597032,0.0032116019,-0.017578116,0.00864239,-0.0030584985,0.4456954,-1.4686177,2.0072534,-2.1079438,-1.5701531,2.4206734,-0.05569374,0.047028475,-0.058026347,-0.0044025793,0.012001467,-0.05260968,-0.3256114,0.095768064,-9.270349,0.8090337,47.694054,-0.838663,-1.8673352,-3.3748078,-0.53220534,0.11495346,-0.2312498,27.625,28.8125,27.875,31.5,33.4375,34.25
0.09005207,-0.51061857,-0.7377833,-1.0204047,-0.013929588,0.05907137,-0.15842992,-0.37465337,-0.32791084,0.059896205,3.078478,-0.62502086,0.00041772542,-0.043332204,0.0050558764,0.004421782,-0.018626092,0.0112091955,-0.0046973657,0.445587,-1.4684981,2.0071452,-2.1079438,-1.5701054,2.4206023,-0.056671154,0.048733033,-0.06273258,-0.004164585,0.011832489,-0.051945116,-0.34476504,0.076614454,-9.308657,0.78888994,47.711063,-0.85662603,-1.8734322,-3.2222447,-0.5392002,0.08571461,-0.26153186,27.625,28.8125,27.875,31.5,33.4375,34.25
0.09205227,-0.64574546,-0.67765415,-1.0287596,-0.01767742,0.0587901,-0.1586838,-0.37474674,-0.32788748,0.05989054,3.0784123,-0.62514174,0.00039676166,-0.042759124,0.006273856,0.0018936651,-0.015750669,0.007253256,-0.0048584533,0.44544265,-1.468389,2.0070493,-2.107992,-1.5700816,2.4205418,-0.05782944,0.05227446,-0.060650665,-0.00497251,0.0109491,-0.05294107,-0.4405331,0.17238252,-9.308657,0.76874626,47.696735,-0.89651674,-1.9769313,-3.3180723,-0.5307392,0.09456842,-0.30193537,27.625,28.8125,27.875,31.5,33.4375,34.25
0.09405196,-0.58140886,-0.7595819,-0.99955934,-0.024446385,0.06911019,-0.15715389,-0.37482515,-0.32790592,0.059915464,3.0783744,-0.6250382,0.00037048393,-0.044817045,0.0059028375,0.0035361059,-0.017273473,0.011136733,-0.0042946544,0.44538224,-1.4682933,2.0068815,-2.107968,-1.5700458,2.4204216,-0.058771774,0.051847268,-0.0638213,-0.005530975,0.010645766,-0.054444276,-0.28730422,0.24899697,-9.3661175,0.83813137,47.707485,-0.94249606,-2.01982,-3.259781,-0.5321544,0.11437122,-0.31301096,27.625,28.8125,27.875,31.5,33.4375,34.25
0.09605236,-1.0439463,-1.2813375,-1.177796,-0.021861278,0.060681596,-0.15685222,-0.37492406,-0.327862,0.05990718,3.0783918,-0.62503934,0.00034493103,-0.045652233,0.0054450314,0.004442107,-0.018052455,0.012629092,-0.001460971,0.4452265,-1.4681736,2.0067718,-2.1079805,-1.5700697,2.4202645,-0.05868774,0.051799946,-0.06596924,-0.0050166715,0.010705731,-0.057192877,-0.28730422,0.24899697,-9.270349,0.8403672,47.701214,-1.0106206,-1.776031,-3.2031991,-0.5281417,0.10883856,-0.3136352,27.625,28.8125,27.875,31.5,33.4375,34.25
0.09805176,-0.921947,-1.359765,-1.1938393,-0.021084497,0.055639517,-0.1493732,-0.37505108,-0.32784557,0.059956238,3.0783029,-0.62512064,0.0001965712,-0.047077682,0.006764152,0.0034009758,-0.016172292,0.0106609035,-0.0065647922,0.44508135,-1.4681125,2.006592,-2.10798,-1.5700701,2.4201815,-0.061861627,0.05537172,-0.067676246,-0.004291784,0.009863319,-0.055259224,-0.36391866,0.24899697,-9.270349,0.75084364,47.691364,-0.92270947,-1.8720388,-3.2273421,-0.53465635,0.12570478,-0.36159772,27.625,28.8125,27.875,31.5,33.4375,34.25
0.10005198,-0.22031441,-1.2616531,-1.1450018,-0.024129117,0.062089913,-0.15400112,-0.3751436,-0.32785475,0.05995115,3.0782425,-0.62510663,0.00022638754,-0.046393692,0.0055694464,0.0027867376,-0.01616722,0.009040068,-0.0043156017,0.44497418,-1.467956,2.006437,-2.1080039,-1.5700096,2.4200733,-0.059454158,0.057548076,-0.068753,-0.0039243526,0.010557916,-0.055100754,-0.21068975,0.36391866,-9.442732,0.76874626,47.692257,-1.0962353,-1.9848294,-3.18117,-0.54627895,0.12259774,-0.41331676,27.625,28.8125,27.875,31.5,33.4375,34.25
0.10205206,-0.34285277,-1.0805328,-1.1641955,-0.039575454,0.054141514,-0.15057963,-0.375227,-0.32782602,0.059931073,3.0782697,-0.6250916,0.00024252039,-0.04808615,0.0056157,0.0031746489,-0.016579503,0.01056419,-0.0026224728,0.4448536,-1.4678118,2.0063274,-2.1080158,-1.5700225,2.41994,-0.0608562,0.059058778,-0.07116271,-0.0045753997,0.010268733,-0.058193948,-0.13407528,0.2681506,-9.404425,0.8806493,47.684196,-1.1662309,-1.9577879,-3.1690638,-0.5458154,0.12087484,-0.44609988,27.625,28.8125,27.875,31.5,33.4375,34.25
0.10405187,-0.7996417,-1.4246036,-1.1550722,-0.035731617,0.032829028,-0.14842029,-0.37531367,-0.3278056,0.05994934,3.07825,-0.6251642,0.00020291419,-0.048902247,0.0066002323,0.0026397137,-0.015840212,0.010138906,-0.0019001685,0.44474488,-1.4677275,2.0061848,-2.1079805,-1.5700339,2.4198792,-0.06309917,0.06021666,-0.071096,-0.005094378,0.009787025,-0.06115809,-0.076614454,0.30645782,-9.500193,0.73069996,47.705692,-1.191617,-1.9611639,-3.061423,-0.5375497,0.13966173,-0.4358968,27.625,28.8125,27.875,31.5,33.4375,34.25
0.106052175,0.26554012,-0.75676,-0.95347196,-0.05924956,0.052086964,-0.17186415,-0.37543237,-0.32780945,0.059978154,3.0781672,-0.62508875,0.00012940637,-0.049351517,0.0066098333,0.0020764559,-0.016310303,0.00936374,-0.00014097488,0.44461262,-1.4676192,2.006005,-2.1080043,-1.5699857,2.4197104,-0.06401525,0.06188802,-0.07146444,-0.00589675,0.010550919,-0.06383263,-0.095768064,0.2873042,-9.404425,0.82022345,47.694946,-1.0946063,-1.963123,-3.186716,-0.5235635,0.12804177,-0.45102847,27.625,28.8125,27.875,31.5,33.4375,34.25
0.108052455,-0.22059031,-0.930019,-0.89510995,-0.05288599,0.04563136,-0.16139777,-0.37551984,-0.3277833,0.05994788,3.0781653,-0.6251052,0.00019507643,-0.051331665,0.005654236,0.0031759748,-0.017910076,0.011550688,0.003518749,0.4444685,-1.467451,2.005895,-2.1080282,-1.5699619,2.419577,-0.064320594,0.06366659,-0.07596451,-0.0058341133,0.011046573,-0.06779575,-0.019153614,0.30645782,-9.385271,0.85155696,47.672558,-1.2339363,-2.0111835,-3.1605783,-0.5341164,0.13932404,-0.45889372,27.625,28.8125,27.875,31.5,33.4375,34.25
0.11005175,-0.091827326,-0.8036587,-0.9719959,-0.03714537,0.04051329,-0.16743645,-0.37563756,-0.32778856,0.0599662,3.0780916,-0.62506944,0.00012539375,-0.05171892,0.00671697,0.0023197532,-0.01662941,0.0100907,0.005727274,0.4443479,-1.4673187,2.0057156,-2.1080644,-1.5699257,2.4194434,-0.06629149,0.06508529,-0.075588994,-0.005751437,0.01052809,-0.07197372,0.0,0.30645782,-9.32781,0.7709874,47.684196,-1.1586087,-2.0047827,-3.0122113,-0.53843355,0.12765503,-0.44421256,27.625,28.8125,27.875,31.5,33.4375,34.25
0.11205212,0.24908482,-0.38554358,-0.9564606,-0.024678212,0.04154441,-0.15959087,-0.37573573,-0.32776964,0.059977654,3.0780406,-0.6250184,0.0001261189,-0.0525212,0.0066793626,0.0021211307,-0.017512515,0.009207954,0.009689197,0.44419152,-1.4672223,2.0055835,-2.1080644,-1.5698775,2.4192617,-0.06771836,0.066829324,-0.077100575,-0.005561979,0.011709209,-0.07736232,-0.038307227,0.2681506,-9.404425,0.84708,47.70032,-1.2656956,-2.0781217,-3.1864667,-0.5314143,0.1181888,-0.40430453,27.625,28.8125,27.875,31.5,33.4375,34.25
0.11405201,-0.21100216,-0.38499355,-0.7586452,-0.023312185,0.02811288,-0.16250552,-0.3758799,-0.32776368,0.060014617,3.077991,-0.6249866,-1.9788562e-05,-0.054292466,0.0066439384,0.0027188093,-0.01834552,0.011105189,0.013816175,0.44405898,-1.4670901,2.005356,-2.1080763,-1.5698899,2.4191158,-0.06917864,0.06798173,-0.07957385,-0.006307875,0.0116525,-0.082946435,-0.095768064,0.17238252,-9.346964,0.8403672,47.711063,-1.1846178,-1.987112,-3.0451834,-0.52863985,0.13707715,-0.34612918,27.625,28.8125,27.875,31.5,33.4375,34.25
0.11605213,0.39189982,-0.13435435,-0.8030955,-0.030803554,0.04569704,-0.16936603,-0.37595978,-0.3277466,0.059997957,3.0780046,-0.62489116,3.3522578e-05,-0.055409465,0.0069111707,0.0026805692,-0.018942507,0.011523171,0.01709122,0.4439383,-1.4669458,2.0052354,-2.1080763,-1.5698651,2.4189339,-0.07090755,0.06913775,-0.080592826,-0.0070733386,0.012010685,-0.08795004,-0.076614454,0.15322891,-9.308657,0.7777002,47.688675,-1.1435865,-2.0923998,-3.0967648,-0.5184221,0.13542071,-0.30108622,27.625,28.8125,27.875,31.5,33.4375,34.25
0.118052356,-0.13186476,-0.25529256,-1.0129147,-0.017648917,0.0403822,-0.16921015,-0.37607312,-0.32774734,0.060005415,3.0779514,-0.6247821,3.7495265e-06,-0.05634822,0.0073155086,0.002413414,-0.018379947,0.011173859,0.02058246,0.44380596,-1.4668016,2.005068,-2.1081126,-1.5698179,2.4187403,-0.07224877,0.0709292,-0.08200338,-0.006886783,0.011660214,-0.092780426,-0.076614454,0.05746084,-9.3661175,0.7978386,47.686886,-1.1951573,-1.940109,-3.0406446,-0.50806063,0.13703212,-0.25734514,27.625,28.8125,27.875,31.5,33.4375,34.25
0.12005255,-0.4626658,-0.28982407,-0.94875616,-0.021707824,0.040370617,-0.15634051,-0.37620616,-0.32769784,0.059997164,3.0779498,-0.624763,-3.7125086e-05,-0.057072014,0.00789838,0.002753909,-0.01869467,0.010908883,0.02143638,0.44360122,-1.4666458,2.0049236,-2.1081479,-1.5698293,2.418524,-0.074235,0.07085353,-0.08297398,-0.005734388,0.012066209,-0.09562047,-0.19153613,0.0,-9.308657,0.78217715,47.685097,-1.1622138,-2.061656,-3.042623,-0.5145813,0.15738243,-0.19442685,27.625,28.8125,27.875,31.5,33.4375,34.25
0.12205172,-0.6204352,-0.56260973,-0.94708395,-0.0182856,0.050090615,-0.15530278,-0.37631324,-0.3277089,0.060001858,3.0779247,-0.6246603,-4.202926e-06,-0.05696138,0.007726965,0.00080305326,-0.0176122,0.006432244,0.022640835,0.44349328,-1.4664644,2.0047076,-2.1081235,-1.5697812,2.4183552,-0.0744314,0.07599104,-0.08434203,-0.0049922243,0.013011819,-0.097020686,-0.30645782,0.11492168,-9.346964,0.80679786,47.71465,-1.2078917,-2.1227288,-3.0010393,-0.5218697,0.1477418,-0.17064741,27.625,28.8125,27.875,31.5,33.4375,34.25
0.12405246,-1.0181613,-0.078992516,-0.7090834,-0.026085764,0.055394415,-0.16404621,-0.37641555,-0.32767656,0.059996292,3.077909,-0.62463945,1.7746732e-05,-0.0585053,0.00807763,0.0029576686,-0.019378183,0.010700128,0.020430574,0.44332469,-1.4663329,2.0045755,-2.1081235,-1.5697573,2.4181757,-0.0762868,0.07263126,-0.08558711,-0.0049950555,0.012775835,-0.09666543,-0.38307226,0.17238252,-9.232041,0.8247004,47.71286,-1.2330647,-2.0682929,-3.0565739,-0.52466863,0.13225263,-0.15196057,27.625,28.8125,27.875,31.5,33.4375,34.25
0.12605166,-1.2600353,-0.26529807,-0.8501304,-0.016120264,0.06409616,-0.15849611,-0.37651384,-0.3276704,0.060009807,3.077882,-0.624501,3.2427095e-05,-0.05902418,0.008345521,0.0020258003,-0.019563638,0.008850358,0.01855448,0.4431921,-1.4662133,2.0044076,-2.1081002,-1.5697087,2.4179602,-0.07788124,0.07512632,-0.086123474,-0.0053594797,0.013739249,-0.09638352,-0.36391866,0.15322891,-9.3661175,0.7911258,47.723602,-1.1814216,-1.8995535,-3.1426327,-0.51977766,0.14666681,-0.13932018,27.625,28.8125,27.875,31.5,33.4375,34.25
0.12805185,-0.83210266,-0.20230693,-0.8450114,-0.02014618,0.081688054,-0.16036724,-0.3766482,-0.32764703,0.06002078,3.0778358,-0.6244565,-1.7557388e-05,-0.059661742,0.008709252,0.00081726286,-0.018270995,0.006615572,0.012135988,0.4430117,-1.466068,2.0042279,-2.1081235,-1.5696849,2.417758,-0.078964986,0.07886721,-0.08754218,-0.005107358,0.013532028,-0.091046475,-0.38307226,0.15322891,-9.308657,0.83365434,47.694946,-1.2721407,-2.2153301,-3.1144428,-0.518094,0.14648308,-0.17968282,27.625,28.8125,27.875,31.5,33.4375,34.25
0.13005202,-1.3928392,-0.6039841,-0.8431243,-0.014962451,0.06935295,-0.14913355,-0.37677592,-0.32762253,0.060012866,3.0778468,-0.6243845,-8.66242e-05,-0.06044305,0.0092253685,0.0016990828,-0.01930862,0.008191734,0.005976601,0.4428673,-1.4658892,2.00406,-2.1081717,-1.5697087,2.4175675,-0.08078034,0.0771334,-0.08766087,-0.005128242,0.013796253,-0.086702384,-0.5363012,0.076614454,-9.346964,0.842603,47.685097,-1.1879324,-1.951422,-3.1789765,-0.5277611,0.13707963,-0.2336848,27.625,28.8125,27.875,31.5,33.4375,34.25
0.1320521,-0.64759886,0.11892346,-0.8302241,-0.024332229,0.085865155,-0.1660473,-0.37688693,-0.32761568,0.060021155,3.0777748,-0.62441015,-4.7550634e-06,-0.06095731,0.010134055,0.0002545936,-0.017272137,0.0058464985,0.0040497473,0.44269866,-1.4657323,2.0038574,-2.1081235,-1.5696253,2.417424,-0.082354754,0.08051944,-0.08810848,-0.0050628246,0.012962102,-0.08634856,-0.61291564,0.076614454,-9.3661175,0.784413,47.698532,-1.2631807,-2.0997329,-3.2060483,-0.5174915,0.15364626,-0.26961473,27.625,28.8125,27.875,31.5,33.4375,34.25
0.13405257,-0.26322976,0.07922701,-0.9161958,-0.009903245,0.09205143,-0.16713582,-0.3770585,-0.3276271,0.060065273,3.0776396,-0.6243838,-0.00019682241,-0.0621309,0.010281933,0.0001669435,-0.018302431,0.005961256,0.00015508386,0.44254208,-1.4655881,2.0036166,-2.1082075,-1.569589,2.4172683,-0.08424423,0.08197824,-0.089348435,-0.0058264416,0.013855465,-0.084340446,-0.45968673,0.019153614,-9.346964,0.779936,47.72271,-1.2632377,-2.1347659,-3.2302742,-0.525712,0.17066428,-0.30507007,27.625,28.8125,27.875,31.5,33.4375,34.25
0.1360518,-0.80164903,0.09684358,-0.87140816,-0.007052155,0.07063593,-0.15948094,-0.3771603,-0.32756847,0.06002977,3.0776901,-0.62439543,-0.00011802599,-0.06428134,0.011544009,0.00012367828,-0.018594418,0.0066284924,-0.002315917,0.44234872,-1.4654078,2.003497,-2.1081965,-1.5696005,2.4170759,-0.08848681,0.08346915,-0.090712525,-0.006677786,0.013826803,-0.08611175,-0.47884035,-0.019153614,-9.385271,0.7620334,47.68062,-1.1925516,-2.0182447,-3.2049232,-0.51744485,0.1702173,-0.330547,27.625,28.8125,27.875,31.5,33.4375,34.25
0.13805188,-1.0680325,0.013806953,-0.8139585,0.00091909355,0.064238936,-0.16005415,-0.37727857,-0.32755044,0.06003445,3.0776827,-0.62433535,-9.531024e-05,-0.06545359,0.01031079,0.0012254324,-0.020143013,0.008794945,-1.155626e-05,0.44219303,-1.4652399,2.0032928,-2.1081603,-1.5695766,2.4168837,-0.08750693,0.084297344,-0.09416192,-0.0066735307,0.014295233,-0.08743442,-0.59376204,0.019153614,-9.346964,0.8291774,47.716442,-1.1760917,-2.1099854,-3.2604961,-0.5014777,0.16734171,-0.3298516,27.625,28.8125,27.875,31.5,33.4375,34.25
0.14005218,-0.94445556,0.4351683,-0.7258061,-0.0124986665,0.07526525,-0.16182636,-0.37738517,-0.32753277,0.060008686,3.077629,-0.6242876,-6.718328e-05,-0.065137446,0.01164023,-8.237992e-05,-0.019157875,0.0062455838,-0.002613076,0.44202405,-1.465072,2.003186,-2.1082442,-1.5695165,2.4166918,-0.08982666,0.085051395,-0.09196003,-0.006897028,0.014504027,-0.0871536,-0.5363012,-0.019153614,-9.289502,0.8179876,47.693153,-1.1882743,-2.0261354,-3.3343444,-0.4928478,0.1683993,-0.35146707,27.625,28.8125,27.875,31.5,33.4375,34.25
0.14205223,-1.2006384,-0.039865118,-0.80170304,-0.00045234693,0.0784959,-0.15966804,-0.37756214,-0.32750142,0.06005804,3.0775616,-0.6242926,-0.00020218376,-0.06697412,0.012417078,0.000302108,-0.02008548,0.0063900845,-0.0034657642,0.44180685,-1.46494,2.0029218,-2.1082199,-1.5695161,2.4164865,-0.09340749,0.08613258,-0.09418212,-0.0062802145,0.015292335,-0.08987935,-0.4213795,0.0,-9.385271,0.7620334,47.652847,-0.9488807,-2.069251,-3.3578806,-0.49088162,0.17652816,-0.35444564,27.625,28.8125,27.875,31.5,33.4375,34.25
0.14405255,-0.8447764,0.36833665,-0.86004096,-0.01776164,0.08017834,-0.16686592,-0.3776686,-0.32747757,0.060036562,3.0775385,-0.62434644,-0.00016411752,-0.067284085,0.012395002,-0.000433223,-0.01911016,0.004923307,-0.0043923417,0.44165105,-1.4647592,2.0027773,-2.1082437,-1.5694922,2.4163673,-0.09344162,0.08877606,-0.09553167,-0.005826641,0.015036019,-0.0889859,-0.47884035,0.05746084,-9.308657,0.779936,47.694946,-1.1209136,-1.9801073,-3.2124631,-0.5052649,0.18924913,-0.37880597,27.625,28.8125,27.875,31.5,33.4375,34.25
0.14605181,-1.4035358,-0.45556068,-0.94364756,-0.0076896884,0.06640506,-0.15494448,-0.37782702,-0.3274716,0.060050838,3.07747,-0.62433076,-0.00015295765,-0.0687602,0.013026205,0.0007779022,-0.020752773,0.0070673465,-0.0013584613,0.44145796,-1.4645443,2.0025022,-2.1082199,-1.5694321,2.4161732,-0.09628391,0.08714627,-0.0965229,-0.005833305,0.015614102,-0.09486157,-0.4213795,0.019153614,-9.289502,0.91421866,47.709274,-1.0238147,-1.9696088,-3.3993728,-0.5091139,0.17009145,-0.40322995,27.625,28.8125,27.875,31.5,33.4375,34.25
0.14805225,-0.89984506,-0.16231142,-0.9532563,-0.01765393,0.07598419,-0.16389678,-0.37796023,-0.32742596,0.06002914,3.0774527,-0.62430656,-0.00010476056,-0.06994826,0.013791857,0.000880406,-0.020168923,0.007904529,-4.260492e-05,0.44122946,-1.4643524,2.0023458,-2.1082437,-1.5693964,2.415932,-0.09814294,0.08783285,-0.09748029,-0.0060563884,0.014731389,-0.09803546,-0.34476507,-0.019153614,-9.32781,0.85155696,47.711063,-0.96529937,-1.8524799,-3.4060068,-0.51316315,0.18617374,-0.351063,27.625,28.8125,27.875,31.5,33.4375,34.25
0.15005217,-1.5066364,-0.49139985,-1.1960012,0.0034717824,0.050149653,-0.15286592,-0.3781154,-0.32739684,0.060045406,3.0773976,-0.6243321,-0.000206609,-0.07106959,0.014726406,-0.00060702354,-0.019154407,0.0052587297,0.0025106033,0.4410366,-1.464195,2.0021431,-2.1082795,-1.5693964,2.4157622,-0.10100348,0.09199996,-0.09864443,-0.0062254784,0.014956928,-0.10344678,-0.36391866,0.0,-9.404425,0.8157518,47.70211,-0.96288574,-2.0317507,-3.4630163,-0.49760795,0.2157345,-0.30944353,27.625,28.8125,27.875,31.5,33.4375,34.25
0.15205233,-0.8124246,-0.1411374,-1.1203072,-0.007999351,0.06550787,-0.1608176,-0.37826627,-0.32734466,0.060037736,3.07738,-0.62436295,-0.00019817102,-0.071879074,0.014674006,0.0005739002,-0.019982962,0.007587227,0.008884628,0.44079635,-1.464004,2.00195,-2.1082795,-1.5693845,2.4155436,-0.10141983,0.09056042,-0.09981445,-0.006061874,0.014720829,-0.11023665,-0.36391866,-0.038307227,-9.3661175,0.78888994,47.65464,-0.8977777,-1.8366566,-3.3541436,-0.5017148,0.23250325,-0.23909575,27.625,28.8125,27.875,31.5,33.4375,34.25
0.15405189,-0.7627874,-0.102912255,-1.0309736,-0.009547042,0.07201465,-0.16028538,-0.37839964,-0.3273374,0.06003018,3.0773327,-0.6242365,-0.00015772403,-0.073393874,0.015599695,0.000100391895,-0.020351809,0.006594006,0.011393048,0.44061527,-1.4637996,2.0017474,-2.1083033,-1.569312,2.4152896,-0.10497591,0.09274452,-0.10113104,-0.006173044,0.015486422,-0.116300076,-0.34476504,-0.076614454,-9.346964,0.73069996,47.68599,-0.833433,-1.7494621,-3.52513,-0.5161278,0.22184932,-0.18139559,27.625,28.8125,27.875,31.5,33.4375,34.25
0.15605211,-0.9871682,-0.43994734,-1.2534529,-0.00614253,0.062671065,-0.15643005,-0.37854564,-0.32728907,0.060032427,3.0773196,-0.62421304,-0.00016400925,-0.074489966,0.014964517,-7.706048e-05,-0.020364795,0.006433643,0.016078662,0.4403871,-1.4636308,2.0015533,-2.1082914,-1.5693005,2.4150486,-0.104772665,0.095951654,-0.104305185,-0.0060563996,0.015569596,-0.12077998,-0.2681506,0.076614454,-9.3661175,0.87393653,47.64658,-0.77203774,-1.8637407,-3.3060136,-0.49893087,0.2461456,-0.09121463,27.625,28.8125,27.875,31.5,33.4375,34.25
0.1580523,-0.4769582,-0.417315,-1.2458676,-0.017296867,0.077848025,-0.15576562,-0.37870497,-0.3272733,0.0600436,3.0772069,-0.6242092,-0.00017483986,-0.07574569,0.014643641,0.00020441043,-0.021889554,0.0066161985,0.015239948,0.4401588,-1.4634507,2.0013373,-2.1083276,-1.5692157,2.4148324,-0.10611601,0.09754657,-0.106728956,-0.0060325568,0.016878676,-0.121282354,-0.3256114,0.15322891,-9.461885,0.8179876,47.65464,-0.85408086,-1.860492,-3.3804505,-0.49274045,0.24064982,-0.079133034,27.625,28.8125,27.875,31.5,33.4375,34.25
0.16005263,-0.85868955,-0.9965185,-1.2096202,-0.023845563,0.074667,-0.152957,-0.3788616,-0.3272408,0.06004692,3.0772424,-0.6240457,-0.00020043878,-0.07640662,0.014487139,0.0006211593,-0.022233747,0.0073672794,0.013047384,0.4399667,-1.463235,2.001086,-2.1083033,-1.5692276,2.4145339,-0.10635668,0.097924165,-0.10817539,-0.005790496,0.016869769,-0.119329475,-0.34476507,0.17238252,-9.442732,0.842603,47.696735,-0.8540053,-1.8138827,-3.3004282,-0.51345307,0.23925117,-0.06026744,27.625,28.8125,27.875,31.5,33.4375,34.25
0.16205178,-1.1111574,-1.2369825,-1.4181763,-0.034028403,0.070755206,-0.14757515,-0.37902114,-0.3272119,0.060052194,3.0771792,-0.62409174,-0.00018595741,-0.0771377,0.0141492225,0.0007381913,-0.022196101,0.0076546315,0.009511587,0.43973884,-1.4630307,2.0008457,-2.1082914,-1.5691799,2.4143429,-0.10621538,0.099472165,-0.1102327,-0.005519937,0.016711907,-0.1156506,-0.30645782,0.24899697,-9.442732,0.779936,47.70211,-0.94912624,-1.8369777,-3.2701626,-0.51465166,0.26012707,-0.08688788,27.625,28.8125,27.875,31.5,33.4375,34.25
0.16405225,-1.0897895,-1.2761695,-1.490406,-0.039539978,0.06378829,-0.15112986,-0.3791804,-0.32717857,0.060054515,3.0771682,-0.6240346,-0.00023062032,-0.07785263,0.013710463,0.0012597439,-0.023285748,0.008223034,0.00489656,0.43953475,-1.462827,2.0006182,-2.1083033,-1.5691794,2.4141047,-0.1064779,0.09999142,-0.11210244,-0.0051524946,0.017455282,-0.11129668,-0.24899697,0.30645782,-9.557653,0.81351066,47.70211,-1.0028932,-1.6497797,-3.274064,-0.5109427,0.27429548,-0.14274809,27.625,28.8125,27.875,31.5,33.4375,34.25
0.16605261,-0.49365896,-1.2380745,-1.4487989,-0.053741436,0.0626907,-0.15587991,-0.37929955,-0.3271387,0.060044244,3.0771573,-0.6240164,-0.00016663047,-0.078612596,0.014008487,0.00032649635,-0.02234637,0.0072417264,0.0002862596,0.43933034,-1.4626582,2.00045,-2.1082795,-1.5691437,2.4138904,-0.107374355,0.10297581,-0.11312541,-0.0058221864,0.017015295,-0.107581906,-0.24899697,0.34476504,-9.519346,0.76874626,47.660015,-1.0488256,-1.8171345,-3.306468,-0.51347274,0.2769223,-0.17961013,27.625,28.8125,27.875,31.5,33.4375,34.25
0.16805185,-0.38538206,-1.8784182,-1.5344917,-0.048732057,0.0511475,-0.1474605,-0.37946963,-0.32711694,0.060052868,3.0770545,-0.6240521,-0.00017416992,-0.0798848,0.013528813,0.0013413894,-0.023919333,0.009853833,-0.0011489695,0.43909052,-1.4624547,2.000211,-2.1083038,-1.5690717,2.413686,-0.10775721,0.102762245,-0.1150211,-0.0067367116,0.017331425,-0.106527336,-0.22984336,0.3256114,-9.442732,0.82694155,47.68599,-1.1218628,-1.720341,-3.2952476,-0.5177608,0.28509843,-0.23273566,27.625,28.8125,27.875,31.5,33.4375,34.25
0.17005213,-0.29643714,-1.5862677,-1.5422374,-0.053601842,0.033020727,-0.15158664,-0.379657,-0.32709602,0.060057655,3.0770094,-0.62402725,-0.0002781134,-0.080870494,0.014286136,-1.5690404e-05,-0.022743259,0.0074844966,-0.0065461937,0.43888572,-1.4622135,1.9999474,-2.1083634,-1.5690721,2.4134717,-0.10995667,0.10673499,-0.11632027,-0.006766632,0.017279262,-0.103326805,-0.11492168,0.40222588,-9.461885,0.8717007,47.701214,-1.0915632,-1.9576721,-3.2803469,-0.5141239,0.31096646,-0.27297193,27.625,28.8125,27.875,31.5,33.4375,34.25
0.17205238,-0.17313056,-1.2093812,-1.3782182,-0.06296547,0.017890962,-0.1530121,-0.37979734,-0.32706624,0.06005851,3.0770197,-0.623933,-0.00029454805,-0.082013614,0.014068484,0.0009007199,-0.024459705,0.009067751,-0.007842649,0.43870538,-1.4620222,1.9997314,-2.108352,-1.5690717,2.4132314,-0.11110591,0.106422916,-0.118067786,-0.0068696267,0.018160822,-0.10317855,0.019153614,0.38307226,-9.500193,0.8493211,47.74331,-1.0447168,-1.7955885,-3.2484136,-0.5018722,0.31757414,-0.34570575,27.625,28.8125,27.875,31.5,33.4375,34.25
0.17405277,0.11605332,-1.462868,-1.2615349,-0.060344797,0.021483898,-0.14937241,-0.380001,-0.327041,0.06007314,3.0768726,-0.6240789,-0.0003447073,-0.082572214,0.013944331,0.0001319964,-0.024913594,0.007391206,-0.011889481,0.43842906,-1.4617935,1.9994563,-2.1083996,-1.5689987,2.413065,-0.112056896,0.10919672,-0.119359046,-0.0070230537,0.01929086,-0.1000799,0.038307227,0.4213795,-9.346964,0.8560339,47.73525,-1.1022062,-1.9786837,-3.2911825,-0.5005567,0.3187986,-0.38012668,27.625,28.8125,27.875,31.5,33.4375,34.25
0.17605203,-0.045774575,-1.876316,-1.424065,-0.043994404,0.013089697,-0.14576691,-0.38015774,-0.3270126,0.0600737,3.0768688,-0.62402076,-0.0003752014,-0.08338141,0.013377989,0.00029617848,-0.026172968,0.008033617,-0.012311125,0.438237,-1.4615777,1.9992164,-2.1084,-1.5689982,2.4128373,-0.112243265,0.1104423,-0.120958574,-0.007784898,0.020158889,-0.099842906,0.038307227,0.2681506,-9.385271,0.7777002,47.67345,-1.1191198,-1.867887,-3.3040695,-0.48899236,0.3294941,-0.46911007,27.625,28.8125,27.875,31.5,33.4375,34.25
0.17805226,0.34128848,-1.0002003,-1.5078148,-0.045094326,0.020332968,-0.153234,-0.38033846,-0.32699051,0.06007553,3.0767784,-0.62407887,-0.0003792002,-0.08458165,0.014200018,-9.177783e-05,-0.02657985,0.0071106027,-0.012594712,0.43799573,-1.4613374,1.9989523,-2.108424,-1.5689381,2.412644,-0.115295224,0.11209167,-0.12191337,-0.0078035817,0.020930031,-0.10260957,0.11492168,0.28730422,-9.442732,0.8157518,47.713753,-0.97148216,-1.9555166,-3.183824,-0.47880262,0.32044548,-0.45657933,27.625,28.8125,27.875,31.5,33.4375,34.25
0.18005252,-0.34968007,-1.0726665,-1.2716063,-0.033330776,0.0029408184,-0.14861639,-0.38050765,-0.32696402,0.060074743,3.0767066,-0.62403977,-0.00038432333,-0.085861266,0.012990216,0.0005429463,-0.028269373,0.008361959,-0.004657016,0.43775624,-1.4611213,1.9987234,-2.1084602,-1.5688776,2.4123893,-0.11477916,0.11405866,-0.12551744,-0.007996167,0.021942247,-0.110027745,0.1340753,0.30645782,-9.404425,0.87393653,47.71465,-1.1604835,-1.9116442,-3.2170048,-0.47964823,0.3219732,-0.46686226,27.625,28.8125,27.875,31.5,33.4375,34.25
0.18205269,0.0018339602,-0.68029326,-1.0428379,-0.035639443,0.024898961,-0.1555344,-0.3806763,-0.32695162,0.06008332,3.076628,-0.6239837,-0.0003484478,-0.086000115,0.013419768,-0.00041443115,-0.028412763,0.006542466,-0.000668888,0.4375277,-1.4608932,1.9984487,-2.1084478,-1.5687932,2.4121358,-0.11625915,0.11571288,-0.12506412,-0.008495801,0.022859598,-0.11549499,0.05746084,0.22984336,-9.212888,0.80679786,47.685097,-1.0664012,-1.9416106,-3.2552514,-0.45220602,0.31377953,-0.4281184,27.625,28.8125,27.875,31.5,33.4375,34.25
0.18405204,-0.40340573,-0.6115281,-1.2291422,-0.012359995,0.020575404,-0.15498708,-0.38085046,-0.32690737,0.060080323,3.0765898,-0.6239684,-0.00037092547,-0.08672506,0.013383102,-0.0012785485,-0.028702822,0.004910406,0.009656681,0.4372754,-1.4606766,1.9982218,-2.1084726,-1.5687693,2.411879,-0.11742289,0.1188302,-0.1264857,-0.008810564,0.02383669,-0.12698206,0.038307227,0.22984336,-9.232041,0.86498255,47.71554,-1.1571877,-1.8624492,-3.2648225,-0.44299477,0.3237058,-0.34610063,27.625,28.8125,27.875,31.5,33.4375,34.25
0.18605243,0.011403933,-0.42057258,-1.1912136,-0.009118802,0.041470077,-0.15351743,-0.38101363,-0.32687905,0.060061436,3.076546,-0.6239585,-0.00034004563,-0.087555304,0.013587783,-0.0009919263,-0.029103136,0.004915907,0.014085385,0.43704677,-1.4604247,1.9979943,-2.1085079,-1.5687217,2.41165,-0.11872663,0.11945667,-0.12803966,-0.008036897,0.024209838,-0.13271351,0.095768064,0.22984336,-9.308657,0.8157518,47.691364,-1.1224749,-2.0624428,-3.2390914,-0.4517458,0.32178468,-0.281088,27.625,28.8125,27.875,31.5,33.4375,34.25
0.18805173,-0.15807681,-0.13846943,-0.853668,-0.016747167,0.043630004,-0.159044,-0.38121846,-0.32688713,0.06011285,3.0764394,-0.6237433,-0.000492589,-0.08920185,0.014832416,-0.0023601765,-0.027684499,0.001956223,0.015484575,0.4368414,-1.4602313,1.997671,-2.1085432,-1.5686616,2.411324,-0.12243218,0.124251686,-0.13044472,-0.0071223066,0.024207952,-0.13781247,-0.15322891,0.17238252,-9.270349,0.842603,47.711063,-1.026158,-2.062962,-3.093827,-0.447648,0.31203246,-0.20787786,27.625,28.8125,27.875,31.5,33.4375,34.25
0.19005185,-0.870928,-0.6881511,-1.004201,-0.0069666924,0.03562012,-0.14824876,-0.38138357,-0.32683948,0.06009601,3.0764444,-0.6237618,-0.00041026625,-0.08868226,0.013295036,-0.0008872368,-0.029244153,0.004212498,0.020131763,0.43659076,-1.4599687,1.9974078,-2.108495,-1.5686373,2.4110844,-0.119344294,0.12205698,-0.13155639,-0.0065092794,0.024665743,-0.13937275,-0.24899697,0.11492168,-9.308657,0.84484416,47.711063,-1.3220086,-2.0351696,-3.319014,-0.43960026,0.3175576,-0.15955941,27.625,28.8125,27.875,31.5,33.4375,34.25
0.19205202,-1.2611357,-0.40189064,-0.99929386,-0.016282823,0.05187625,-0.14968231,-0.3815755,-0.32680073,0.060088836,3.0763874,-0.62375295,-0.00043643988,-0.08923253,0.014997662,-0.002065834,-0.028350275,0.0016879526,0.01453207,0.4363254,-1.4597166,1.997156,-2.1085427,-1.568601,2.410821,-0.12311852,0.12357846,-0.1306231,-0.0062910523,0.024932602,-0.13754648,-0.38307226,0.095768064,-9.385271,0.83589023,47.70032,-1.0727384,-2.0464356,-3.2934031,-0.45369288,0.3324501,-0.1517951,27.625,28.8125,27.875,31.5,33.4375,34.25
0.19405238,-1.1405766,-0.38964894,-0.92479724,-0.019067392,0.080967896,-0.1488956,-0.3817371,-0.32678676,0.06009277,3.0763416,-0.6236125,-0.0003996083,-0.09048389,0.015003621,-0.0020144633,-0.029097024,0.0015076972,0.008455655,0.43610883,-1.4594885,1.9968919,-2.1085308,-1.5685285,2.4105227,-0.12466667,0.12548098,-0.1329309,-0.0060341638,0.02567933,-0.13301587,-0.5363012,0.05746084,-9.346964,0.82694155,47.672558,-1.1745207,-2.0711925,-3.3422065,-0.43744585,0.3218392,-0.19795856,27.625,28.8125,27.875,31.5,33.4375,34.25
0.19605254,-1.6125318,-0.17108525,-0.6467884,-0.024634035,0.08892284,-0.14562659,-0.3818857,-0.32676852,0.06006582,3.0762868,-0.62356657,-0.00027974902,-0.0919053,0.015620965,-0.0013717322,-0.029996583,0.0023080192,0.0014671443,0.43588015,-1.4592248,1.9966644,-2.1085427,-1.5684327,2.4102724,-0.12731844,0.12547846,-0.13454796,-0.005511986,0.026146764,-0.1286789,-0.6703765,0.05746084,-9.32781,0.85826975,47.689575,-1.1086452,-1.9887741,-3.3464322,-0.4596129,0.3306173,-0.27217448,27.625,28.8125,27.875,31.5,33.4375,34.25
0.19805175,-1.8959786,-0.109440774,-0.70347047,-0.009689281,0.09265812,-0.151878,-0.3821063,-0.32671776,0.060074158,3.0762038,-0.62368524,-0.00030630626,-0.092850104,0.015865285,-0.0011748011,-0.030314434,0.0026965626,-0.001255392,0.43556762,-1.4589609,1.996353,-2.1085427,-1.5683964,2.4100447,-0.12860417,0.12624517,-0.13590401,-0.005399631,0.026276428,-0.12724003,-0.7469909,-0.038307227,-9.270349,0.842603,47.699425,-1.0753362,-1.917947,-3.303467,-0.4454244,0.32849672,-0.3232736,27.625,28.8125,27.875,31.5,33.4375,34.25
0.20005195,-1.5334883,0.19062197,-0.8030795,0.0027550827,0.10455885,-0.1460865,-0.3823086,-0.3267008,0.06008917,3.0761704,-0.6235832,-0.00038655297,-0.09493706,0.016404888,-0.00088513026,-0.031275284,0.0034162647,-0.0042254617,0.43535075,-1.4586968,1.9960288,-2.1085546,-1.5683845,2.4097686,-0.13174975,0.12800944,-0.13850147,-0.0056186323,0.02685087,-0.12741166,-0.6703765,-0.11492168,-9.232041,0.8157518,47.677036,-0.9924692,-1.9439793,-3.3250294,-0.45303285,0.31670672,-0.32747352,27.625,28.8125,27.875,31.5,33.4375,34.25
0.20205206,-1.5349674,0.20372996,-0.7509174,0.016256956,0.102150396,-0.15281998,-0.3824829,-0.32665604,0.060082547,3.0760791,-0.623643,-0.00029744106,-0.09577696,0.016641833,-0.0007956197,-0.03183455,0.0038398579,-0.0059271147,0.43505016,-1.458469,1.9957889,-2.1085427,-1.5682882,2.409517,-0.13307182,0.12862712,-0.13932595,-0.006013306,0.027180992,-0.12703136,-0.63206923,-0.095768064,-9.289502,0.83589023,47.64837,-0.9757804,-1.9177463,-3.2463684,-0.43772167,0.30659914,-0.36696553,27.625,28.8125,27.875,31.5,33.4375,34.25
0.20405252,-1.3591169,0.9358284,-0.8233657,0.0088042915,0.09923637,-0.15609431,-0.38265988,-0.3266316,0.060073685,3.0760148,-0.6236107,-0.00028598405,-0.096805125,0.01711807,-0.0018163696,-0.031049995,0.0023415103,-0.0076914816,0.43480954,-1.4582165,1.9955376,-2.108579,-1.5682281,2.4092646,-0.13473909,0.13210979,-0.14081578,-0.0063024275,0.02710503,-0.12693195,-0.6512228,-0.1340753,-9.193734,0.84484416,47.694946,-0.857055,-1.8457204,-3.3535922,-0.43182206,0.30460787,-0.39114946,27.625,28.8125,27.875,31.5,33.4375,34.25
0.20605262,-1.5052354,0.5075349,-0.92031837,0.014742539,0.09738162,-0.15544674,-0.38286945,-0.3265969,0.060083315,3.0759573,-0.62361544,-0.00034016743,-0.097825594,0.01709107,0.00036636394,-0.03235578,0.006967784,-0.0020695163,0.43454555,-1.4579542,1.9952277,-2.1085913,-1.5682043,2.4090111,-0.1349978,0.1284719,-0.14178015,-0.0064195287,0.026362758,-0.13281152,-0.6895301,-0.13407528,-9.346964,0.8023209,47.691364,-0.97500175,-1.8429412,-3.3124037,-0.43005422,0.3212097,-0.42729187,27.625,28.8125,27.875,31.5,33.4375,34.25
0.20805204,-1.2086028,0.27023882,-1.0822178,0.009817278,0.108183965,-0.15825297,-0.38307646,-0.3265416,0.06007117,3.0759003,-0.6236189,-0.0003000158,-0.09899552,0.016551385,-0.0003407161,-0.032061026,0.0060130935,0.0032872804,0.43422174,-1.4576768,1.9949507,-2.1086032,-1.5681447,2.408697,-0.13502257,0.13287412,-0.14505324,-0.006529682,0.026508454,-0.13819022,-0.63206923,-0.17238252,-9.385271,0.85155696,47.670765,-1.0458938,-1.9180751,-3.2362201,-0.43304187,0.32595336,-0.35957196,27.625,28.8125,27.875,31.5,33.4375,34.25
0.21005215,-0.65213335,0.39223352,-1.0250523,-0.0038919519,0.1197013,-0.15402174,-0.38327092,-0.326523,0.060085665,3.0758479,-0.62354714,-0.00034277988,-0.09978457,0.01730884,0.0002146256,-0.032978088,0.0067510805,0.009362796,0.43399286,-1.457426,1.9946393,-2.1086032,-1.568108,2.40843,-0.1374148,0.13171776,-0.1451137,-0.006338228,0.027060565,-0.1466564,-0.57460845,-0.17238252,-9.385271,0.8403672,47.696735,-1.11193,-1.7011664,-3.3889594,-0.4119408,0.32178047,-0.26910952,27.625,28.8125,27.875,31.5,33.4375,34.25
0.2120524,-1.2238481,0.46652454,-1.2407173,-0.0083104,0.090941325,-0.15402593,-0.38343862,-0.32648388,0.060045943,3.075826,-0.6234602,-0.00020308376,-0.09972366,0.016312063,0.00015969561,-0.033220638,0.006307314,0.019702371,0.43371746,-1.4571258,1.9943999,-2.1086147,-1.568024,2.4081032,-0.13570736,0.13331807,-0.14692803,-0.005783441,0.027480088,-0.15528865,-0.30645782,-0.076614454,-9.404425,0.8985519,47.691364,-1.1021104,-1.8178098,-3.3180923,-0.42030978,0.328114,-0.17478704,27.625,28.8125,27.875,31.5,33.4375,34.25
0.2140518,-0.81391704,-0.3612426,-1.3597401,-0.0023154977,0.07410382,-0.15200107,-0.38369074,-0.32643342,0.060075987,3.0757635,-0.62344897,-0.00033954342,-0.10146512,0.017940927,-0.00022294246,-0.0323393,0.0054576853,0.017884713,0.43340406,-1.4568617,1.9940408,-2.1086266,-1.5680245,2.4077911,-0.13988493,0.13526236,-0.14840104,-0.0050974246,0.027063195,-0.15764506,-0.3256114,0.019153614,-9.442732,0.8784135,47.70032,-0.96868205,-1.7728063,-3.3440056,-0.4194529,0.32434833,-0.14177759,27.625,28.8125,27.875,31.5,33.4375,34.25
0.21605206,-0.101863466,-0.15402167,-1.520639,-0.017552106,0.05880839,-0.15601596,-0.38386852,-0.32639423,0.06004588,3.0757382,-0.62338734,-0.00022781959,-0.10188156,0.017913625,-0.00054189033,-0.03155097,0.005459666,0.01696441,0.4331281,-1.456562,1.9937772,-2.1086266,-1.5679525,2.40748,-0.13963589,0.13683297,-0.14940462,-0.005316899,0.026341122,-0.15647636,-0.22984336,0.076614454,-9.442732,0.8918391,47.6636,-1.0180868,-1.6478965,-3.2535288,-0.43398923,0.34431344,-0.112473994,27.625,28.8125,27.875,31.5,33.4375,34.25
0.21805197,-0.458548,-0.53350466,-1.6258072,-0.02354559,0.030342516,-0.14500773,-0.38409114,-0.32637146,0.060077496,3.075635,-0.6233307,-0.0003089469,-0.102500565,0.017658852,0.00043387158,-0.032843534,0.007263783,0.012367002,0.432852,-1.4563227,1.9934419,-2.1086385,-1.5678924,2.407182,-0.13988896,0.13569617,-0.15038827,-0.005372635,0.02676782,-0.15212859,-0.21068975,0.1340753,-9.595961,0.89631605,47.65464,-1.085357,-1.7113025,-3.262566,-0.43259543,0.3527396,-0.13994035,27.625,28.8125,27.875,31.5,33.4375,34.25
0.22005203,0.3321251,-0.56659853,-1.6539103,-0.040760055,0.045127805,-0.15291388,-0.3843133,-0.32630548,0.06007956,3.0756001,-0.6233457,-0.0003411861,-0.10368161,0.017825093,-0.0012606251,-0.03260267,0.003847363,0.0050081164,0.43252736,-1.4560568,1.993142,-2.1086385,-1.5678796,2.4068713,-0.14193872,0.14144318,-0.15292513,-0.0053877947,0.027975716,-0.14681534,-0.19153613,0.3256114,-9.634268,0.90750587,47.695843,-0.9547441,-1.9473362,-3.4845836,-0.41621464,0.35258818,-0.19257922,27.625,28.8125,27.875,31.5,33.4375,34.25
0.22205213,-0.16311246,-1.3297397,-1.7822506,-0.047642227,0.033772003,-0.14313938,-0.3845093,-0.32626817,0.060072802,3.075564,-0.62330276,-0.0003393755,-0.10396142,0.017683951,-0.0013191325,-0.033718612,0.002940513,-0.00043918795,0.43226346,-1.4557815,1.9928545,-2.108651,-1.5678433,2.4065855,-0.1427617,0.14219321,-0.15375824,-0.0049535013,0.029365832,-0.14218886,-0.05746084,0.34476504,-9.80665,0.8918391,47.696735,-1.193419,-1.8121911,-3.4308147,-0.41724026,0.3414026,-0.2794814,27.625,28.8125,27.875,31.5,33.4375,34.25
0.22405246,-0.22758293,-1.864618,-1.9318205,-0.065278575,0.034487244,-0.14511749,-0.38472325,-0.32624114,0.06005284,3.0754704,-0.6233431,-0.00026263337,-0.104301795,0.017541332,-0.0022020366,-0.033293094,0.00072328903,-0.0044813175,0.43196324,-1.4554448,1.9925317,-2.1086743,-1.567747,2.4063225,-0.1430558,0.14538841,-0.15550666,-0.004198393,0.02990351,-0.13843894,0.019153614,0.38307226,-9.825804,0.8179876,47.71554,-1.1673983,-2.0192113,-3.326624,-0.43119985,0.32520682,-0.34457868,27.625,28.8125,27.875,31.5,33.4375,34.25
0.22605261,-0.03886667,-2.0994432,-1.9594086,-0.078941815,0.033922736,-0.14520839,-0.38493446,-0.32618263,0.060066476,3.0753884,-0.623407,-0.00027748148,-0.10515668,0.01739736,-0.0024274145,-0.035070773,-0.0007417385,-0.009948178,0.4316385,-1.4552166,1.9922441,-2.108662,-1.5676979,2.4060483,-0.14491852,0.14735705,-0.15729927,-0.0037892095,0.032131065,-0.13483039,-0.019153614,0.38307226,-9.730036,0.8537928,47.686886,-1.1554706,-1.9894507,-3.40455,-0.44643068,0.3310188,-0.42153758,27.625,28.8125,27.875,31.5,33.4375,34.25
0.22805175,0.10135408,-1.9374143,-1.8648946,-0.08484544,0.0391121,-0.14503106,-0.38515276,-0.32615694,0.060066767,3.0753202,-0.62339395,-0.0002676672,-0.106282204,0.017608508,-0.002427571,-0.0362852,-0.0007114754,-0.012877292,0.4313619,-1.4549048,1.991897,-2.108662,-1.5676383,2.4057724,-0.14691927,0.14853512,-0.15854354,-0.0042478964,0.033224296,-0.13389905,-0.019153614,0.53630114,-9.691729,0.86945957,47.694946,-1.012671,-2.0025427,-3.3896928,-0.45928738,0.30096775,-0.47933367,27.625,28.8125,27.875,31.5,33.4375,34.25
0.23005189,0.3693004,-1.8171127,-1.8383057,-0.08180002,0.029464217,-0.15322949,-0.3853444,-0.3261126,0.06005344,3.07528,-0.62334645,-0.00021334227,-0.10773449,0.017758884,-0.002139907,-0.03686544,0.00024610903,-0.012168629,0.4310735,-1.4546291,1.9916209,-2.108662,-1.5675782,2.4054596,-0.14845383,0.14985722,-0.1606361,-0.004566001,0.03335555,-0.13614081,0.2681506,0.49799395,-9.710882,0.842603,47.688675,-1.0762765,-1.9455051,-3.430781,-0.44456095,0.29117626,-0.50748307,27.625,28.8125,27.875,31.5,33.4375,34.25
0.23205179,0.19682615,-1.9204829,-1.3701984,-0.07600069,0.020850154,-0.15183517,-0.38559088,-0.32610005,0.06006447,3.0751514,-0.6234099,-0.00029454796,-0.10923857,0.017851934,-0.0019499275,-0.038525604,0.0012374873,-0.0032278267,0.43079683,-1.454305,1.9912494,-2.1087224,-1.5675176,2.4052393,-0.15057418,0.15102239,-0.16212754,-0.005786834,0.034490068,-0.14719614,0.19153613,0.49799395,-9.5385,0.82022345,47.691364,-1.0610685,-2.008241,-3.3425684,-0.4312272,0.28956604,-0.45844746,27.625,28.8125,27.875,31.5,33.4375,34.25
0.23405208,0.3215753,-1.2428051,-1.241166,-0.07058328,0.021300793,-0.15536742,-0.3857963,-0.3260749,0.06006405,3.075044,-0.6234013,-0.00026726493,-0.111481115,0.016978534,-0.0011326555,-0.041668158,0.0032566714,0.007941546,0.4305082,-1.454029,1.990949,-2.1087468,-1.5674208,2.4049592,-0.15214561,0.15300632,-0.16594757,-0.0070404722,0.036535993,-0.15993062,0.076614454,0.4405331,-9.3661175,0.91198283,47.717335,-0.94655716,-1.8707035,-3.3838696,-0.42009562,0.271748,-0.3865751,27.625,28.8125,27.875,31.5,33.4375,34.25
0.23605224,0.21866418,-1.1905129,-1.4629697,-0.039806094,0.015641116,-0.15428439,-0.38601112,-0.32603472,0.060058553,3.0749648,-0.62336135,-0.00019362986,-0.111830674,0.017316889,-0.00040084953,-0.04392651,0.0038505404,0.014954164,0.43018365,-1.4537302,1.9906267,-2.1087348,-1.567324,2.40462,-0.15419382,0.15100372,-0.16544428,-0.0069727614,0.038373224,-0.16898996,0.038307227,0.4405331,-9.481039,0.8291774,47.70032,-0.9928435,-1.9188504,-3.3533733,-0.41506457,0.21913546,-0.25432813,27.625,28.8125,27.875,31.5,33.4375,34.25
0.23805247,-0.040294588,-1.0065932,-1.2708824,-0.038552392,0.0264281,-0.15273738,-0.3862705,-0.32599345,0.060080156,3.0748785,-0.6232839,-0.00031222997,-0.11280603,0.017242162,-0.0008497209,-0.044580195,0.0023073065,0.019851966,0.42985922,-1.4534416,1.9902672,-2.108783,-1.5672878,2.4042585,-0.15562752,0.15390854,-0.16783792,-0.0063188407,0.03965069,-0.175314,-0.019153614,0.3256114,-9.423578,0.8851263,47.701214,-1.0374498,-2.0251026,-3.2958229,-0.41203928,0.2091488,-0.16650179,27.625,28.8125,27.875,31.5,33.4375,34.25
0.24005273,-0.45972973,-0.67911905,-0.993222,-0.04224661,0.040761355,-0.13663357,-0.38648796,-0.32597375,0.06007609,3.0747654,-0.62320226,-0.00023446453,-0.11271779,0.016568841,-0.00125746,-0.044896036,0.0013174985,0.020942187,0.42954752,-1.4531295,1.989932,-2.108794,-1.5671557,2.4039104,-0.15466303,0.15565972,-0.16892843,-0.006177706,0.040360697,-0.17543687,-0.26815057,0.24899697,-9.32781,0.80679786,47.686886,-0.9580908,-1.902852,-3.3577178,-0.41153342,0.18177904,-0.12626775,27.625,28.8125,27.875,31.5,33.4375,34.25
0.24205215,-0.8471122,-0.26837713,-0.78306246,-0.032299627,0.06616745,-0.1437755,-0.3866955,-0.32594922,0.060055714,3.0747054,-0.62309974,-0.00014719914,-0.11367935,0.0166938,-0.0008820414,-0.04585558,0.0017666832,0.013338691,0.429259,-1.4527943,1.9896082,-2.1088064,-1.5670589,2.4035656,-0.15606776,0.1561041,-0.1703723,-0.005981366,0.04103292,-0.16923656,-0.34476504,0.15322891,-9.308657,0.82694155,47.682407,-0.90735424,-1.8354988,-3.3285909,-0.39232492,0.13935637,-0.20450479,27.625,28.8125,27.875,31.5,33.4375,34.25
0.24405235,-0.99335384,0.04365656,-0.6697552,-0.029232914,0.10179723,-0.15222448,-0.38693982,-0.3259287,0.060090672,3.0745564,-0.62309164,-0.00021005192,-0.11437539,0.016178474,-0.001249094,-0.046179406,0.0009155888,0.006027342,0.4289472,-1.4525299,1.9892367,-2.1088178,-1.5669631,2.403268,-0.15602262,0.15887149,-0.1726937,-0.005787705,0.041682877,-0.16187279,-0.3256114,0.076614454,-9.32781,0.8090337,47.694946,-1.1666703,-1.7940233,-3.2931018,-0.39466405,0.10728674,-0.2681729,27.625,28.8125,27.875,31.5,33.4375,34.25
0.24605256,-1.18028,0.3101481,-0.73257136,-0.014789132,0.10405117,-0.15882272,-0.38714668,-0.3258863,0.06006599,3.0745103,-0.62300587,-0.00012102841,-0.116167895,0.015961232,0.0013840614,-0.048253354,0.0059857043,0.0033216937,0.428635,-1.4522073,1.9889368,-2.1088302,-1.5668792,2.4029083,-0.15689787,0.15577237,-0.1753819,-0.0054530576,0.041456383,-0.16004233,-0.30645782,0.05746084,-9.232041,0.8985519,47.694946,-1.098897,-1.67704,-3.3810377,-0.4018728,0.08166484,-0.33393317,27.625,28.8125,27.875,31.5,33.4375,34.25
0.24805197,-0.89594597,0.72682905,-0.6204347,0.0073168655,0.10111145,-0.15219128,-0.3873977,-0.32584414,0.060065378,3.0744123,-0.6230086,-0.000103393344,-0.11697793,0.017355315,0.0004965884,-0.047322407,0.0045099184,-1.3365181e-05,0.42828557,-1.4518714,1.9885668,-2.1088421,-1.5667952,2.4025733,-0.15991883,0.15742876,-0.17523742,-0.005497175,0.041237935,-0.15972662,-0.40222588,-0.038307227,-9.212888,0.88960326,47.701214,-0.9106113,-1.677923,-3.3968325,-0.40510714,0.07082509,-0.35476205,27.625,28.8125,27.875,31.5,33.4375,34.25
0.25005218,-0.7831521,1.6345723,-0.6193482,0.018551774,0.09401136,-0.15554391,-0.38764125,-0.32582867,0.06008835,3.0742776,-0.62299967,-0.00013811441,-0.11864265,0.018558351,0.00042827032,-0.045911286,0.005073253,-0.0021381679,0.42798492,-1.4515715,1.9881829,-2.108854,-1.5666999,2.4022846,-0.16246957,0.15907203,-0.17701285,-0.005257085,0.039740622,-0.1601498,-0.5554548,-0.076614454,-9.11712,0.89631605,47.683304,-1.0505983,-1.6196563,-3.3974204,-0.39739996,0.04009997,-0.37194616,27.625,28.8125,27.875,31.5,33.4375,34.25
0.25205266,-0.66385525,1.3585949,-0.85236126,0.03869601,0.092195205,-0.15824749,-0.38788152,-0.325793,0.06008403,3.074211,-0.62294495,-0.00014427508,-0.11898883,0.018113796,0.000280651,-0.044993322,0.006073687,0.0038993899,0.4276734,-1.4512355,1.9878238,-2.108878,-1.5666403,2.4019477,-0.16100715,0.16053751,-0.17818238,-0.0060382765,0.03851444,-0.16472407,-0.45968673,-0.2681506,-9.251195,0.8247004,47.68062,-1.0329448,-1.6640761,-3.3920207,-0.3903451,0.03798105,-0.37236276,27.625,28.8125,27.875,31.5,33.4375,34.25
0.25405,-0.88172007,1.5150585,-0.76104677,0.033927534,0.087917484,-0.14968456,-0.3881192,-0.32573003,0.060067043,3.0741534,-0.6229842,-9.0775284e-05,-0.120243356,0.01801963,0.0011115558,-0.044924404,0.00802774,0.012697366,0.42731357,-1.4509001,1.9874886,-2.108878,-1.5665807,2.40162,-0.16122302,0.16102423,-0.18077166,-0.0056228796,0.03767251,-0.17373805,-0.4213795,-0.30645782,-9.289502,0.84484416,47.67345,-1.2208006,-1.5167084,-3.4154828,-0.3817427,0.039090414,-0.30922002,27.625,28.8125,27.875,31.5,33.4375,34.25
0.2560522,-0.83270395,1.253807,-0.77936983,0.024658049,0.10996608,-0.15672112,-0.38835305,-0.32570988,0.060090147,3.0740275,-0.62281865,-7.789081e-05,-0.12138763,0.01869908,0.0010056193,-0.042878874,0.008456883,0.02285385,0.42698914,-1.450624,1.9871281,-2.1088774,-1.566449,2.4012084,-0.16202505,0.16293094,-0.18286839,-0.004888995,0.03568624,-0.18469563,-0.59376204,-0.3256114,-9.308656,0.8537928,47.704796,-1.1824973,-1.5919122,-3.371432,-0.3928076,0.04004311,-0.17946939,27.625,28.8125,27.875,31.5,33.4375,34.25
0.25805202,-1.0455323,1.0918673,-0.9439375,0.011372904,0.132709,-0.16194482,-0.38855925,-0.32565984,0.060058948,3.0740445,-0.62268543,2.6168334e-05,-0.12257463,0.019298095,1.7137958e-05,-0.04014538,0.0070455186,0.027472012,0.42668888,-1.4502748,1.9868044,-2.1088536,-1.5664018,2.4008229,-0.16279204,0.16728671,-0.18576276,-0.003885562,0.03379258,-0.19008361,-0.63206923,-0.17238252,-9.385271,0.82694155,47.691364,-1.2514038,-1.7093954,-3.2457352,-0.39636165,0.031827796,-0.08608673,27.625,28.8125,27.875,31.5,33.4375,34.25
0.26005226,-1.2704114,0.401229,-1.1706339,0.0014896898,0.1355256,-0.15564267,-0.38881925,-0.325626,0.060074218,3.0739808,-0.6226158,1.9660409e-05,-0.12354041,0.019801231,-0.00015728857,-0.038215104,0.0069241645,0.024679508,0.42636487,-1.449927,1.9863728,-2.1088169,-1.5663422,2.4004638,-0.16329516,0.1694027,-0.18803382,-0.0028028334,0.03209226,-0.18779418,-0.47884035,-0.038307227,-9.461885,0.8717007,47.657326,-1.2502604,-1.7290614,-3.3478935,-0.40093702,0.050093256,-0.04502123,27.625,28.8125,27.875,31.5,33.4375,34.25
0.26205263,-1.5008543,-0.34345597,-1.1472458,-0.011077049,0.1208743,-0.14853881,-0.3890685,-0.32555905,0.06006589,3.0739682,-0.62253964,-4.2202242e-05,-0.123802304,0.02092963,-0.00046866134,-0.036340766,0.0065723225,0.01838465,0.4260286,-1.4496036,1.986039,-2.108853,-1.5663427,2.4000819,-0.16445953,0.16961676,-0.1877556,-0.002205309,0.030533157,-0.18266508,-0.57460845,0.17238252,-9.404425,0.86945957,47.670765,-1.3291554,-1.8567755,-3.3085928,-0.4312668,0.06329386,-0.10167713,27.625,28.8125,27.875,31.5,33.4375,34.25
0.264052,-1.0403794,-0.54960114,-1.1139299,-0.034803033,0.113523796,-0.14194924,-0.38932022,-0.32551402,0.060053717,3.0738702,-0.6225634,1.4219704e-05,-0.12572797,0.021832056,-0.00037249524,-0.035198357,0.0071763936,0.009293956,0.4256677,-1.4492433,1.9856676,-2.108865,-1.5662473,2.3997486,-0.16677786,0.1718179,-0.19063272,-0.0016037155,0.02922917,-0.1758925,-0.7469909,0.21068975,-9.461885,0.8851263,47.67166,-1.2248154,-1.8738322,-3.2240953,-0.42957008,0.08643235,-0.18578063,27.625,28.8125,27.875,31.5,33.4375,34.25
0.26605222,-0.96733034,-1.0607102,-1.4369255,-0.037946157,0.087809786,-0.14106971,-0.38957337,-0.3254703,0.060066648,3.0737934,-0.62255305,5.335216e-06,-0.12676276,0.022112897,-0.00041008627,-0.033971734,0.007941857,-2.4910643e-05,0.42533195,-1.4489195,1.9852709,-2.1088407,-1.5661877,2.3994164,-0.1670885,0.17349921,-0.19246961,-0.0016530042,0.0277791,-0.16688408,-0.5554548,0.24899697,-9.500193,0.9186956,47.679718,-1.377882,-1.8194528,-3.2878387,-0.44512838,0.09582865,-0.2779201,27.625,28.8125,27.875,31.5,33.4375,34.25
0.26805246,-0.4979472,-1.3574501,-1.6111156,-0.0448165,0.07085142,-0.14079854,-0.38984868,-0.32541254,0.06007819,3.0737307,-0.6226395,-6.0287286e-05,-0.12758613,0.02316267,-0.0009847987,-0.03255895,0.007884498,-0.0073076948,0.42498353,-1.4485717,1.9848531,-2.1088293,-1.5661763,2.3991303,-0.16876206,0.17484303,-0.19257967,-0.0022603194,0.026513105,-0.16127513,-0.3256114,0.3256114,-9.691729,0.83813137,47.699425,-1.2577928,-1.7263515,-3.3294191,-0.44455343,0.13542184,-0.39559883,27.625,28.8125,27.875,31.5,33.4375,34.25
0.27005267,-0.65340024,-1.7468538,-1.2187866,-0.081058815,0.06554063,-0.13858347,-0.39009172,-0.32535645,0.06006248,3.073705,-0.62259966,-7.0639864e-05,-0.12965716,0.024568932,-0.00061135925,-0.032520313,0.009761564,-0.013517959,0.42465794,-1.4482241,1.984506,-2.108853,-1.5661529,2.3987834,-0.17246623,0.1751648,-0.19363175,-0.0032200618,0.0257024,-0.15876913,-0.4405331,0.4213795,-9.634268,0.82022345,47.701214,-1.1437716,-1.797447,-3.3283162,-0.44173414,0.1640902,-0.48079622,27.625,28.8125,27.875,31.5,33.4375,34.25
0.27205196,-0.42757073,-1.7291836,-1.0722226,-0.089218244,0.0761813,-0.15542491,-0.3903668,-0.3253074,0.060077507,3.0736172,-0.62263495,-0.00014598611,-0.13053505,0.02452599,-0.001067745,-0.03226963,0.009785805,-0.008567607,0.42431003,-1.4478879,1.9840988,-2.108866,-1.5661167,2.3984692,-0.17285323,0.17755383,-0.19514152,-0.00397896,0.025497701,-0.1641036,-0.30645782,0.40222588,-9.5385,0.9231726,47.71286,-1.1338332,-1.8583914,-3.4404826,-0.42724568,0.19384436,-0.5029625,27.625,28.8125,27.875,31.5,33.4375,34.25
0.27405205,-0.5529787,-1.7080928,-1.4791349,-0.06480616,0.06395595,-0.15185289,-0.39061922,-0.32526052,0.06006815,3.0735219,-0.6226277,-6.3371685e-05,-0.13066246,0.024343492,-0.0016051334,-0.032349057,0.008448188,0.0030565506,0.4239379,-1.4475279,1.9837149,-2.1088536,-1.5660084,2.398105,-0.17292751,0.17942242,-0.19615638,-0.0035679936,0.026168045,-0.17580016,0.0,0.45968673,-9.461885,0.8605109,47.71465,-1.1284295,-1.7964804,-3.452721,-0.4357991,0.20637907,-0.43406254,27.625,28.8125,27.875,31.5,33.4375,34.25
0.27605227,-0.10906549,-1.5244246,-1.3094653,-0.0547267,0.0491011,-0.14509815,-0.39089522,-0.325222,0.06006969,3.0734541,-0.622588,-9.4862065e-05,-0.13087107,0.024849454,-0.0026661686,-0.03281185,0.0056845103,0.013822229,0.4236011,-1.447144,1.9832848,-2.1088655,-1.5659598,2.3977523,-0.17497317,0.18159074,-0.19630702,-0.0031859316,0.027787067,-0.18860696,0.019153614,0.40222588,-9.519346,0.842603,47.694946,-1.0428635,-1.8274028,-3.5749493,-0.42649782,0.2069526,-0.28727475,27.625,28.8125,27.875,31.5,33.4375,34.25
0.27805245,0.21155345,-0.89223087,-0.9015426,-0.056620024,0.044079658,-0.14493437,-0.39117742,-0.32517108,0.060088467,3.0733783,-0.6225122,-0.00022531976,-0.13232869,0.025004402,-0.002349802,-0.034081236,0.0062428787,0.019617153,0.42325252,-1.4468201,1.9828905,-2.1089132,-1.5659355,2.3973665,-0.17699161,0.1828276,-0.19844608,-0.0032672563,0.028766429,-0.19641401,-0.095768064,0.38307226,-9.251195,0.8784135,47.693153,-1.153985,-1.8359647,-3.5842824,-0.437946,0.22181001,-0.19670704,27.625,28.8125,27.875,31.5,33.4375,34.25
0.2800517,0.62669355,-0.39904147,-1.1052808,-0.03047143,0.03983149,-0.1535218,-0.39143458,-0.32509792,0.060045626,3.0733664,-0.62250996,-0.00012393513,-0.13427661,0.024821397,-0.0023455005,-0.0355452,0.007688929,0.01906965,0.42286816,-1.4464002,1.9825186,-2.1089141,-1.5658873,2.3969824,-0.17863545,0.18533826,-0.20088607,-0.0052343584,0.029500322,-0.19750822,-0.095768064,0.3256114,-9.308657,0.8717007,47.685097,-1.0814915,-1.8724586,-3.4980154,-0.42113808,0.20661512,-0.14127779,27.625,28.8125,27.875,31.5,33.4375,34.25
0.28205186,0.69762677,-0.17946133,-0.97595423,-0.028075472,0.04267956,-0.15358387,-0.39170343,-0.32506603,0.060060006,3.0732849,-0.62242144,-0.00017745438,-0.13659938,0.025495911,-0.0014244631,-0.03560966,0.010454352,0.010463933,0.42254335,-1.4460523,1.9820989,-2.1089256,-1.5658277,2.3966131,-0.18098235,0.18602188,-0.2037258,-0.005631186,0.028419273,-0.1912476,-0.095768064,0.2681506,-9.461885,0.8627467,47.71286,-0.9900516,-1.8467467,-3.3857255,-0.3985911,0.24589038,-0.18734026,27.625,28.8125,27.875,31.5,33.4375,34.25
0.28405216,0.72452784,-0.077321514,-0.65857023,-0.043463953,0.051263865,-0.1619444,-0.3919884,-0.32500696,0.060052555,3.0731914,-0.6224457,-0.0001742924,-0.1381509,0.025879826,-0.0015565157,-0.03607724,0.010001997,0.002074662,0.42214665,-1.4456686,1.9816917,-2.1089494,-1.5657557,2.3962438,-0.1832378,0.1884532,-0.20629355,-0.0052802847,0.029022962,-0.1851096,-0.05746084,0.2681506,-9.308657,0.9231726,47.713753,-0.93838775,-1.7221642,-3.4906723,-0.38439256,0.27433914,-0.28198606,27.625,28.8125,27.875,31.5,33.4375,34.25
0.28605253,0.05163064,-0.7710871,-0.8330394,-0.032110985,0.043695163,-0.15047838,-0.39226776,-0.3249439,0.060056243,3.073141,-0.62241596,-0.0001645757,-0.13911013,0.024522465,0.0003736492,-0.039348952,0.012515484,0.0008445603,0.4217627,-1.4452977,1.9812597,-2.1089137,-1.5657066,2.395848,-0.18265967,0.1871819,-0.20953777,-0.004392959,0.030981388,-0.18329524,-0.1340753,0.21068975,-9.251195,0.83813137,47.691364,-0.9552783,-1.7037718,-3.3577175,-0.3921088,0.26856923,-0.33782476,27.625,28.8125,27.875,31.5,33.4375,34.25
0.2880517,-0.40582338,-0.9966227,-1.0185428,-0.027903026,0.043043535,-0.13478093,-0.3925304,-0.32491985,0.06004849,3.0730708,-0.6223238,-0.00016242376,-0.1400678,0.024582833,0.0006655803,-0.040009994,0.012676553,-0.00020425362,0.42145026,-1.4449021,1.9808396,-2.1089375,-1.5656346,2.3954873,-0.18379459,0.18811941,-0.2114566,-0.003807657,0.031533588,-0.18337785,-0.095768064,0.19153613,-9.270349,0.87617236,47.70838,-0.95776594,-1.7238556,-3.2664099,-0.38984346,0.2644226,-0.36459878,27.625,28.8125,27.875,31.5,33.4375,34.25
0.29005185,-0.31827578,-0.5233365,-0.8095341,-0.032456085,0.059219286,-0.14850692,-0.39280325,-0.32487446,0.060033098,3.073,-0.62230814,-0.00012734061,-0.14151652,0.024259802,0.0019790519,-0.042006403,0.014430282,0.0025064633,0.42108974,-1.4444945,1.9804205,-2.1089485,-1.5655621,2.3951263,-0.18499772,0.18788868,-0.21446145,-0.0029484287,0.032662787,-0.18728742,-0.17238252,0.17238252,-9.174581,0.8940802,47.71465,-0.9290104,-1.7107711,-3.2308652,-0.39153367,0.28370297,-0.37871116,27.625,28.8125,27.875,31.5,33.4375,34.25
0.29205218,-0.1758462,-0.3171098,-0.80960935,-0.016025398,0.061373275,-0.16062689,-0.3930788,-0.3248133,0.060038634,3.072915,-0.62226677,-0.00016715318,-0.14254361,0.02328976,0.0027546969,-0.043807864,0.015617887,0.010142455,0.4207062,-1.4441588,1.9800371,-2.1089728,-1.565502,2.3947282,-0.18469465,0.18891944,-0.21749665,-0.0027071529,0.03386874,-0.19461386,-0.095768064,0.1340753,-9.251195,0.8717007,47.682407,-1.1177126,-1.7024432,-3.1631517,-0.3852625,0.28613642,-0.34158188,27.625,28.8125,27.875,31.5,33.4375,34.25
0.29405215,-0.9528578,-0.03739843,-0.99921227,0.00013366189,0.05365635,-0.15368734,-0.39338937,-0.32477412,0.060058344,3.0728147,-0.6221613,-0.00026661486,-0.14326277,0.023156453,0.003238366,-0.044835165,0.016322471,0.02153921,0.42033416,-1.4437754,1.9795703,-2.1090086,-1.5654415,2.3943036,-0.18535592,0.18912038,-0.21895096,-0.0024325743,0.03459834,-0.2066659,-0.22984336,0.076614454,-9.3661175,0.8627467,47.70032,-1.1495788,-1.7024355,-3.1293054,-0.38858563,0.30315,-0.1842266,27.625,28.8125,27.875,31.5,33.4375,34.25
0.29605243,-0.72264194,0.26603094,-1.1287181,0.0010373726,0.07254914,-0.15341227,-0.39363733,-0.3247336,0.06003023,3.0727587,-0.6220911,-9.667983e-05,-0.14379163,0.02466904,0.00078794634,-0.042605393,0.011866912,0.025378332,0.4199731,-1.4433546,1.9791516,-2.1089609,-1.5653218,2.3939059,-0.18832722,0.19409467,-0.21906148,-0.0022450895,0.034406792,-0.21347813,-0.3256114,0.15322891,-9.519346,0.89631605,47.685097,-1.1911504,-1.5965561,-3.2500887,-0.39926332,0.29568976,-0.09223095,27.625,28.8125,27.875,31.5,33.4375,34.25
0.29805192,-0.5210004,-0.42523146,-1.1304069,-0.0156524,0.1022136,-0.1565038,-0.3939427,-0.32469392,0.06006263,3.0726712,-0.62197816,-0.00020587193,-0.14466944,0.02472006,-0.00018881772,-0.041777156,0.010033363,0.022741938,0.41961333,-1.442994,1.9786729,-2.1089604,-1.5652736,2.3934872,-0.18899393,0.19810514,-0.22150369,-0.0017892126,0.03442063,-0.21150279,-0.22984336,0.17238252,-9.576807,0.8672237,47.677036,-1.2232273,-1.907454,-3.3125944,-0.40575203,0.31653476,-0.051242277,27.625,28.8125,27.875,31.5,33.4375,34.25
0.30005223,-0.85930866,-0.78326494,-0.84553355,-0.05401975,0.11063788,-0.15056834,-0.39421844,-0.3246362,0.060046893,3.0726187,-0.6218751,-0.00017137856,-0.14385572,0.024302362,-0.0016918652,-0.04100204,0.0066868216,0.016271424,0.41922942,-1.4425977,1.9782666,-2.1089723,-1.5652016,2.393046,-0.18780427,0.20114799,-0.22167474,-0.0013037495,0.035059817,-0.20383991,-0.45968673,0.17238252,-9.500193,0.8784135,47.68599,-1.2558724,-1.8793457,-3.4442773,-0.42065847,0.32672483,-0.11970628,27.625,28.8125,27.875,31.5,33.4375,34.25
0.30205232,-1.1993103,-0.84527177,-0.82217443,-0.06999705,0.10551484,-0.15220957,-0.3945053,-0.32459664,0.06005559,3.0725658,-0.6218106,-0.00021693448,-0.1430811,0.024379754,-0.0025433928,-0.04059323,0.004651112,0.008543702,0.41889375,-1.4422022,1.9777998,-2.1089604,-1.5651654,2.392677,-0.1874384,0.2019312,-0.2207518,-0.0010100789,0.03550416,-0.19574364,-0.5554548,0.11492168,-9.461885,0.8537928,47.70211,-1.331414,-2.009029,-3.5156512,-0.42737246,0.3192202,-0.24321525,27.625,28.8125,27.875,31.5,33.4375,34.25
0.30405253,-0.76617604,-0.7315266,-1.0503681,-0.045907773,0.093107544,-0.15505327,-0.39480084,-0.32453042,0.060019847,3.072475,-0.6219309,-0.00010159382,-0.14407317,0.024493769,-0.0022620992,-0.041102625,0.005166641,-0.0010211417,0.41846222,-1.4417348,1.9773563,-2.1089604,-1.5650691,2.3923326,-0.18844327,0.20277911,-0.22247775,-0.0008238383,0.03572676,-0.18718304,-0.38307226,0.11492168,-9.442732,0.9365982,47.692257,-1.4786985,-1.8255646,-3.4630396,-0.42462692,0.33523345,-0.3405164,27.625,28.8125,27.875,31.5,33.4375,34.25
0.30605182,-0.6075422,-0.19934252,-0.70672387,-0.034828786,0.070659816,-0.15647882,-0.39506397,-0.32450947,0.06002095,3.0724218,-0.62174964,-7.0503476e-05,-0.14469363,0.025284724,-0.003828184,-0.040442646,0.0022143787,-0.0074142264,0.41814995,-1.4413378,1.9769024,-2.1089365,-1.5649852,2.3919141,-0.19066232,0.20644309,-0.22307341,-0.0009248118,0.036316924,-0.18300557,-0.28730422,0.19153613,-9.346964,0.88960326,47.70211,-1.4160521,-2.0121844,-3.515523,-0.4147989,0.3752039,-0.4527024,27.625,28.8125,27.875,31.5,33.4375,34.25
0.30805203,-0.16216938,0.27728397,-0.53141624,-0.023947885,0.045316726,-0.15942721,-0.39536414,-0.32442588,0.06000248,3.0723588,-0.6218497,-9.725429e-05,-0.14683133,0.02511488,-0.0022174949,-0.042591196,0.0054450994,-0.0074900775,0.4177302,-1.440931,1.9764951,-2.1089723,-1.5649604,2.3915653,-0.19237961,0.20610976,-0.22642423,-0.0010386135,0.03698355,-0.18464246,-0.28730422,0.2681506,-9.251195,0.8560339,47.68062,-1.33249,-1.828854,-3.5739691,-0.4173121,0.36957663,-0.48750442,27.625,28.8125,27.875,31.5,33.4375,34.25
0.31005234,0.15151607,-0.02079286,-0.5836248,-0.014666024,0.046761017,-0.16778845,-0.39567238,-0.3244051,0.060021963,3.072195,-0.6218096,-0.00014668608,-0.14901477,0.024771947,-0.0004908709,-0.045869138,0.010484642,0.0020650907,0.41735807,-1.4405361,1.9760154,-2.109009,-1.5648407,2.3911896,-0.19403827,0.20468986,-0.22823136,-0.0036507114,0.03800503,-0.19584835,-0.21068975,0.2681506,-9.193734,0.87393653,47.66987,-1.2175184,-1.823416,-3.5310855,-0.40467495,0.35904467,-0.42841405,27.625,28.8125,27.875,31.5,33.4375,34.25
0.3120525,0.038037717,0.20132707,-0.42161378,-0.037631582,0.053202156,-0.17108332,-0.39598113,-0.32433325,0.060023762,3.07214,-0.6217702,-0.0001537444,-0.15155782,0.02525959,-0.0001353413,-0.04678199,0.01258758,0.0135543505,0.416938,-1.4401284,1.9755472,-2.1089857,-1.564792,2.3907523,-0.19689009,0.2068225,-0.23121253,-0.0049863216,0.03805818,-0.21018627,-0.22984336,0.22984336,-9.174581,0.8717007,47.655537,-1.1452056,-1.8391304,-3.4101062,-0.3605828,0.383874,-0.2970381,27.625,28.8125,27.875,31.5,33.4375,34.25
0.31405252,-0.45063618,-0.82945055,-0.4035984,-0.03777651,0.0611087,-0.16038837,-0.39625305,-0.32428768,0.059993125,3.0720835,-0.6216954,-5.12485e-05,-0.1530534,0.025264382,0.00028858648,-0.04769119,0.012724497,0.020846521,0.4165663,-1.439684,1.9751171,-2.1089852,-1.5646962,2.3903413,-0.19850098,0.20857537,-0.23449443,-0.0038666371,0.038875304,-0.21908642,-0.2681506,0.24899697,-9.193734,0.91198283,47.70838,-1.2055274,-1.8634639,-3.383648,-0.36599845,0.38257617,-0.20011453,27.625,28.8125,27.875,31.5,33.4375,34.25
0.31605184,-1.2497729,-1.0128924,-0.5146202,-0.036809452,0.05582336,-0.14413926,-0.39656803,-0.32424194,0.059997026,3.0720043,-0.62162375,-9.180015e-05,-0.15442166,0.025235018,0.00080188696,-0.049440473,0.012337617,0.017310742,0.4161823,-1.4392525,1.974625,-2.1089966,-1.5646356,2.389923,-0.20054993,0.20991091,-0.23756686,-0.0024701625,0.040649444,-0.21759057,-0.34476504,0.19153613,-9.155427,0.8918391,47.683304,-1.1810542,-1.8273013,-3.319757,-0.38082543,0.3595649,-0.14147049,27.625,28.8125,27.875,31.5,33.4375,34.25
0.31805217,-0.8552831,-0.67199,-0.70426774,-0.04090803,0.0708976,-0.16033135,-0.39688417,-0.32419837,0.06000649,3.0718925,-0.6215848,-0.00012457087,-0.15547335,0.026101012,0.0014928745,-0.050513662,0.012315917,0.007598837,0.41578612,-1.4388337,1.9741343,-2.1090076,-1.5645512,2.3895173,-0.20347194,0.20926902,-0.2388379,-0.0009809122,0.041641284,-0.2107944,-0.6512229,0.36391866,-9.270349,0.9388393,47.65464,-1.0025496,-1.8140383,-3.3698087,-0.38416195,0.36930934,-0.21426123,27.625,28.8125,27.875,31.5,33.4375,34.25
0.3200525,-0.93556356,-0.89577115,-0.61251724,-0.050351735,0.087991424,-0.15674496,-0.39716974,-0.3241154,0.05996692,3.0718577,-0.62158,2.5288751e-05,-0.15612344,0.026337888,0.0019423324,-0.051926892,0.012282159,0.0009463602,0.41534227,-1.4383786,1.9737037,-2.1089718,-1.5644664,2.389075,-0.20509931,0.20901778,-0.23982662,-0.00027936892,0.042927064,-0.20576796,-0.45968673,0.30645782,-9.289502,0.93436235,47.689575,-1.0927943,-1.7120601,-3.328732,-0.40417808,0.36877474,-0.31997564,27.625,28.8125,27.875,31.5,33.4375,34.25
0.32205173,-0.91878134,-0.6265661,-0.7000055,-0.054263577,0.085496545,-0.16610385,-0.3974967,-0.32409185,0.059983503,3.071699,-0.62156606,-3.3308075e-05,-0.15650438,0.025301248,0.0018622599,-0.05354665,0.011868063,-0.0013582514,0.41495937,-1.4379468,1.9731878,-2.1090076,-1.5643581,2.3887043,-0.20439014,0.21090423,-0.24180457,-0.00044801537,0.044595182,-0.20274305,-0.38307226,0.2681506,-9.385271,0.842603,47.71823,-1.166059,-1.756659,-3.2628083,-0.40444082,0.35235137,-0.40284473,27.625,28.8125,27.875,31.5,33.4375,34.25
0.32405195,-0.87708265,-0.571224,-0.65445256,-0.054315858,0.09042236,-0.16841035,-0.39777845,-0.32403696,0.05994856,3.0716615,-0.62146187,9.963424e-05,-0.15624912,0.025951117,0.00015175513,-0.053946048,0.007985366,-0.0024148456,0.41456342,-1.4374787,1.9727343,-2.1089838,-1.5642613,2.3882482,-0.2064734,0.21344085,-0.24083057,-0.00052897714,0.046535946,-0.2037662,-0.5554548,0.2681506,-9.442732,0.90750587,47.717335,-1.0399779,-1.7095351,-3.4306927,-0.39134824,0.34266594,-0.4177962,27.625,28.8125,27.875,31.5,33.4375,34.25
0.32605222,-1.0396888,-0.30799487,-0.8706205,-0.0505285,0.08390776,-0.1580571,-0.39811125,-0.3239851,0.05996807,3.071525,-0.6214272,4.7413243e-05,-0.1572615,0.025011048,0.00015978236,-0.056229923,0.0075173243,0.0054283137,0.41413206,-1.4370704,1.9722322,-2.1089957,-1.564165,2.387813,-0.20689231,0.21598786,-0.24379164,-0.000521258,0.048879735,-0.21201494,-0.30645782,0.24899697,-9.461885,0.83589023,47.691364,-1.1149215,-2.0124674,-3.4067874,-0.38920826,0.30831492,-0.35073787,27.625,28.8125,27.875,31.5,33.4375,34.25
0.3280518,-0.7807771,-0.19579911,-0.9231462,-0.029405093,0.06909343,-0.1632318,-0.39840448,-0.3239293,0.05995324,3.071449,-0.6213643,0.00011566636,-0.1562955,0.023742096,-0.0005958424,-0.057444178,0.0054029278,0.019140027,0.41372547,-1.4366386,1.9717764,-2.1089838,-1.5640677,2.3873773,-0.20490062,0.2176871,-0.24410187,-0.0003529031,0.050908457,-0.22372852,-0.11492168,0.095768064,-9.595961,0.93436235,47.684196,-1.2191631,-1.8739502,-3.4897225,-0.40113312,0.27616027,-0.24728127,27.625,28.8125,27.875,31.5,33.4375,34.25
0.33005214,-0.72938186,-0.20041531,-0.84382623,-0.021885399,0.05529008,-0.15860541,-0.3987154,-0.32387647,0.05992226,3.0713868,-0.62128854,0.00017389208,-0.15607563,0.022357207,-0.0009982137,-0.05838136,0.0044651376,0.028299985,0.41331872,-1.4361469,1.9712976,-2.1090076,-1.5639833,2.3869314,-0.20280653,0.21997273,-0.24587026,-0.0003061159,0.05218524,-0.23078926,-0.22984336,0.15322891,-9.461885,0.9567419,47.679718,-1.3835177,-1.9861386,-3.5211172,-0.3854573,0.25697327,-0.14161944,27.625,28.8125,27.875,31.5,33.4375,34.25
0.33205235,-0.2547673,-0.049242016,-0.5792084,-0.021240385,0.055426307,-0.16152903,-0.39904103,-0.32383355,0.0599306,3.0712616,-0.62118715,0.0002156284,-0.15658434,0.022378197,-0.0018910978,-0.060057387,0.0020323815,0.024691727,0.41288692,-1.4357024,1.9707717,-2.1089838,-1.5638503,2.3864527,-0.20470604,0.22253025,-0.24678628,-0.0003593316,0.054711692,-0.22906916,-0.22984336,0.15322891,-9.193734,0.8851263,47.68062,-1.3573649,-2.0751822,-3.5676842,-0.3784994,0.19407988,-0.11659266,27.625,28.8125,27.875,31.5,33.4375,34.25
0.33405256,0.27460006,0.19729333,-1.0589873,-0.010389498,0.044655904,-0.17097203,-0.39934874,-0.32380146,0.05992295,3.071176,-0.6210398,0.00022110128,-0.15803508,0.023573376,-0.002180909,-0.05933189,0.001928598,0.013535269,0.41251466,-1.4352472,1.9702805,-2.1090076,-1.5637549,2.3859997,-0.20748138,0.22417052,-0.24808097,-0.0003317062,0.054070342,-0.22068605,0.05746084,0.095768064,-9.423578,0.9365982,47.709274,-1.3713527,-2.151379,-3.4553976,-0.38709807,0.18919927,-0.17648694,27.625,28.8125,27.875,31.5,33.4375,34.25
0.3360525,0.80955565,0.06192212,-0.9592391,-0.010876255,0.03645496,-0.17874514,-0.39965954,-0.3237364,0.059894763,3.0710866,-0.6210652,0.00032893676,-0.16084039,0.02395946,-0.00082640763,-0.060418665,0.005017329,0.0013737808,0.41207105,-1.434768,1.9698008,-2.1089957,-1.5636467,2.3855836,-0.21008125,0.22505258,-0.25227368,-0.0003040273,0.053784665,-0.21112369,0.038307227,0.095768064,-9.32781,0.85826975,47.68599,-1.2785034,-2.1191607,-3.4684172,-0.39597842,0.19360423,-0.2979315,27.625,28.8125,27.875,31.5,33.4375,34.25
0.3380516,0.8530534,-0.38773048,-0.88500285,-0.026303498,0.022309802,-0.16365856,-0.40001804,-0.32368326,0.059913114,3.0709717,-0.6210833,0.000213864,-0.1627804,0.024714697,-0.0006938368,-0.06113043,0.0053482414,-0.009828445,0.41165075,-1.4343125,1.9692496,-2.10902,-1.563599,2.38519,-0.21316096,0.22687918,-0.25473803,-0.0002803521,0.054298174,-0.2029916,-0.038307227,0.21068975,-9.212888,0.90750587,47.689575,-1.3020415,-2.1051784,-3.3711371,-0.37708318,0.17044775,-0.41580498,27.625,28.8125,27.875,31.5,33.4375,34.25
0.34005207,0.4727115,-0.880083,-1.2687533,-0.034427106,0.015664022,-0.16648525,-0.40033722,-0.3236343,0.059923373,3.0708072,-0.62112594,0.00026384846,-0.16337183,0.024718275,-0.00070934213,-0.06195134,0.0051946295,-0.012215704,0.4112073,-1.4338928,1.9687465,-2.1089957,-1.5634545,2.3847947,-0.2139726,0.22779177,-0.2558191,-0.0002600821,0.05512705,-0.20140973,-0.11492168,0.30645782,-9.423578,0.9030289,47.687782,-1.2758179,-2.0899947,-3.3099895,-0.37380517,0.1398124,-0.5008668,27.625,28.8125,27.875,31.5,33.4375,34.25
0.34205228,0.12479748,-1.1547908,-1.3730131,-0.054364197,0.034702666,-0.17676972,-0.40067655,-0.32360235,0.059941895,3.0706754,-0.6210349,0.00019272765,-0.16441984,0.026051799,-0.0010535257,-0.059278287,0.005881738,-0.0042244983,0.41081133,-1.433449,1.9682082,-2.10902,-1.5633591,2.3843594,-0.21533552,0.22910437,-0.25663787,-0.0001979453,0.05248183,-0.2107667,0.019153614,0.3256114,-9.481039,0.9612189,47.672558,-1.2083926,-2.0657756,-3.4132562,-0.38022333,0.13139105,-0.4634562,27.625,28.8125,27.875,31.5,33.4375,34.25
0.34405258,-0.34312886,-1.3205959,-1.5133047,-0.07650099,0.06486589,-0.17211387,-0.4009671,-0.323542,0.05988793,3.0706236,-0.6209585,0.0004012357,-0.16600507,0.027156364,-0.0013121888,-0.058384895,0.0060248743,0.007923589,0.41037914,-1.432933,1.9677418,-2.1089957,-1.5632275,2.383886,-0.21792103,0.2311231,-0.25850323,3.5814905e-05,0.051670063,-0.2255067,0.038307227,0.30645782,-9.5385,0.91421866,47.695843,-1.0966121,-2.0958152,-3.453546,-0.3620767,0.13156497,-0.3562737,27.625,28.8125,27.875,31.5,33.4375,34.25
0.34605208,-0.9094041,-1.241558,-1.1365156,-0.09016714,0.081893586,-0.16701294,-0.4013138,-0.3234762,0.05990077,3.0705404,-0.62091583,0.0004259503,-0.16773672,0.027790582,-4.4829507e-05,-0.059517905,0.008679627,0.017323833,0.40992317,-1.4324663,1.9671677,-2.1089237,-1.5631436,2.3834145,-0.2202907,0.2301375,-0.26040307,0.0001648833,0.051725708,-0.23727469,-0.114921674,0.34476504,-9.749189,0.85826975,47.670765,-1.0435821,-2.0803902,-3.4906335,-0.36157078,0.11507148,-0.21273918,27.625,28.8125,27.875,31.5,33.4375,34.25
0.34805253,-1.3560841,-1.1628976,-1.3405273,-0.06859712,0.094867855,-0.15691678,-0.40163937,-0.32341617,0.059877906,3.070474,-0.62080526,0.00042299222,-0.16937776,0.028537506,0.0008405924,-0.059505295,0.0109777665,0.017155696,0.4095034,-1.4319872,1.9666885,-2.1089718,-1.5630721,2.3829346,-0.22218564,0.22990769,-0.26228133,0.00022479128,0.050828345,-0.2390017,-0.4405331,0.2681506,-9.653421,0.8717007,47.682407,-0.89088917,-1.8970249,-3.4722462,-0.3634829,0.092870094,-0.14894569,27.625,28.8125,27.875,31.5,33.4375,34.25
0.35005188,-1.7661785,-0.2976522,-1.4764345,-0.032208536,0.099359035,-0.16096665,-0.4019888,-0.32340932,0.059901383,3.0702734,-0.6206897,0.00045232545,-0.17103057,0.02917384,0.0005959687,-0.057914395,0.011599106,0.008093928,0.40908444,-1.4315072,1.9660891,-2.10896,-1.5628804,2.3824697,-0.2233343,0.23270534,-0.2649985,0.00021931375,0.0491155,-0.23108783,-0.5554548,0.2681506,-9.710882,0.88960326,47.686886,-1.0145504,-1.8281864,-3.4402342,-0.360484,0.12258744,-0.21469738,27.625,28.8125,27.875,31.5,33.4375,34.25
0.3520522,-1.1809759,0.26120052,-1.300414,-0.01051866,0.12957895,-0.16676174,-0.40232474,-0.32333836,0.059892464,3.0701683,-0.6206898,0.00044647415,-0.16997124,0.0292691,-0.0007355262,-0.055802446,0.009547302,0.0018301702,0.4086294,-1.4310514,1.9655985,-2.1089838,-1.562797,2.3820286,-0.22169317,0.23431218,-0.26388714,0.00020722274,0.047983617,-0.22318465,-0.59376204,0.19153614,-9.787497,0.9097417,47.68062,-1.0619085,-1.8924791,-3.5414312,-0.3488419,0.13763651,-0.3141841,27.625,28.8125,27.875,31.5,33.4375,34.25
0.35405254,-2.0814204,0.35730922,-1.0392212,0.0057989326,0.1259252,-0.15949124,-0.40267044,-0.32328913,0.059887774,3.0700788,-0.62059414,0.00046624732,-0.1708397,0.028464211,0.00035698654,-0.05573763,0.012453173,5.9886203e-05,0.40819877,-1.4305483,1.9650363,-2.1089718,-1.5627011,2.38155,-0.21988757,0.23438899,-0.26657587,0.00019597216,0.046770163,-0.21960992,-0.6703765,0.21068975,-9.653421,0.8784135,47.672558,-1.2499785,-1.91801,-3.6308715,-0.34667903,0.107488714,-0.381092,27.625,28.8125,27.875,31.5,33.4375,34.25
0.35605255,-1.404212,0.8825496,-0.780709,-0.009265497,0.15786648,-0.17596693,-0.4030051,-0.3232342,0.059888013,3.0699594,-0.6205841,0.0004552813,-0.17119333,0.028694572,-0.000408454,-0.053527825,0.012078795,0.003899548,0.4077677,-1.4300926,1.9645218,-2.1089838,-1.5626062,2.3811285,-0.21917568,0.23687905,-0.26776332,0.00018607522,0.044933535,-0.22274093,-0.59376204,0.15322891,-9.5385,0.9455522,47.64837,-1.3453741,-1.9503652,-3.5906343,-0.34246966,0.1365414,-0.4043116,27.625,28.8125,27.875,31.5,33.4375,34.25
0.35805172,-1.0059917,0.88258517,-1.0769367,-0.0020984716,0.14785495,-0.18016556,-0.40333322,-0.32316312,0.0598602,3.0698836,-0.6205234,0.0005200173,-0.17345177,0.028849406,0.0005707388,-0.052793514,0.01501161,0.013073059,0.40731186,-1.429601,1.9640301,-2.1089957,-1.5625104,2.3806448,-0.21988595,0.23851387,-0.27205896,0.0005731981,0.04315788,-0.23262942,-0.34476504,0.019153614,-9.519346,0.91421866,47.658226,-1.3268747,-1.9312932,-3.5715737,-0.32204908,0.16469659,-0.32517183,27.625,28.8125,27.875,31.5,33.4375,34.25
0.360052,-0.83269536,0.5574063,-1.0182663,-0.0020144985,0.108806886,-0.17361937,-0.403689,-0.32310608,0.059866097,3.0698216,-0.62042785,0.00046506056,-0.17486654,0.030227879,-0.000107357264,-0.050261963,0.015066771,0.022253899,0.4068922,-1.4291087,1.9634551,-2.1089838,-1.5624636,2.380174,-0.22184914,0.24110302,-0.2735793,0.0005835904,0.040897764,-0.24377888,-0.1340753,0.0,-9.5385,0.89631605,47.65912,-1.2854038,-2.0918941,-3.5294123,-0.32537663,0.18086313,-0.18739401,27.625,28.8125,27.875,31.5,33.4375,34.25
0.36205208,-0.39485478,0.093856975,-1.0024095,-0.00738155,0.06467578,-0.15815803,-0.4040879,-0.32303974,0.059887532,3.0697117,-0.62030625,0.0003274276,-0.17629984,0.030890757,0.00048386975,-0.04898216,0.01736276,0.024241291,0.40641314,-1.4286174,1.9628567,-2.10902,-1.562404,2.3796337,-0.2226319,0.24156117,-0.2755622,0.00056949403,0.038876258,-0.24655087,-0.24899697,0.019153614,-9.289502,0.9298854,47.66539,-1.396615,-2.1530695,-3.4644513,-0.30518168,0.23128924,-0.11590625,27.625,28.8125,27.875,31.5,33.4375,34.25
0.36405239,0.5056386,-0.012176917,-1.2920557,-0.00778867,0.036605317,-0.16045415,-0.40443793,-0.322971,0.059899475,3.069634,-0.62023616,0.0002839128,-0.17767416,0.031945515,-0.00053777645,-0.04711549,0.016318908,0.016529327,0.40596914,-1.4281615,1.9623059,-2.1089957,-1.5623444,2.3791564,-0.2245807,0.24516591,-0.27743018,0.00051792816,0.03757064,-0.24078894,-0.3256114,0.095768064,-9.346964,0.95897776,47.71017,-1.4011081,-2.266651,-3.4588964,-0.300987,0.26630682,-0.13529417,27.625,28.8125,27.875,31.5,33.4375,34.25
0.36605263,0.8673024,-0.4059232,-1.1138291,-0.019828994,0.032802954,-0.16690783,-0.40477258,-0.32291526,0.059883866,3.069557,-0.6201464,0.00033304316,-0.178543,0.03199239,0.00014407343,-0.047628514,0.017871747,0.006423376,0.4055382,-1.4276583,1.9617671,-2.1089838,-1.5622486,2.3786795,-0.22500977,0.2449264,-0.2788158,0.00047273978,0.037392937,-0.23111124,-0.24899697,0.17238252,-9.385271,0.89631605,47.64389,-1.3181595,-2.1249204,-3.3938928,-0.278469,0.2880445,-0.23765117,27.625,28.8125,27.875,31.5,33.4375,34.25
0.36805183,0.104539886,-0.6101121,-1.1962094,-0.034339923,0.018481972,-0.16249089,-0.40512958,-0.3228343,0.05988761,3.0694814,-0.62023175,0.00029978246,-0.18047945,0.032134105,0.00076833484,-0.049512427,0.018783022,-0.006238887,0.4050824,-1.427178,1.9612039,-2.1089475,-1.5622123,2.3782873,-0.22742973,0.2462739,-0.28189126,0.00055511214,0.03872847,-0.22085983,-0.21068975,0.21068975,-9.3661175,0.88289046,47.66808,-1.2830837,-2.1146398,-3.4491422,-0.2622325,0.31544694,-0.38345504,27.625,28.8125,27.875,31.5,33.4375,34.25
0.37005207,-0.13657439,-0.8726149,-1.3207567,-0.054331448,0.031045783,-0.16874352,-0.40551665,-0.32278717,0.05990071,3.0693214,-0.6202016,0.00019429388,-0.18225141,0.03280278,0.0027048183,-0.05249471,0.021762324,-0.015382591,0.40462598,-1.4266763,1.9606174,-2.1090071,-1.5621156,2.3778334,-0.23081909,0.24352227,-0.2833299,0.0008169333,0.04031017,-0.21509326,-0.21068975,0.24899697,-9.500193,0.9231726,47.67614,-1.1399684,-1.9490807,-3.3596497,-0.2544049,0.32630298,-0.50631714,27.625,28.8125,27.875,31.5,33.4375,34.25
0.3720523,-0.61607605,-1.4112988,-1.0175239,-0.069256775,0.06021976,-0.16028678,-0.40586936,-0.32273316,0.059907887,3.0691948,-0.62019026,0.00023615938,-0.18288131,0.034252632,0.0022057064,-0.052632168,0.018615596,-0.011320481,0.4041693,-1.4261853,1.9600314,-2.1089585,-1.5619949,2.3773863,-0.23466131,0.24478424,-0.28435645,0.003527774,0.041751895,-0.22299032,-0.28730422,0.22984336,-9.3661175,0.9254084,47.70032,-0.98360085,-1.7423725,-3.3388667,-0.26522845,0.328151,-0.51536,27.625,28.8125,27.875,31.5,33.4375,34.25
0.37405252,-0.30404702,-0.7888366,-0.95370567,-0.07408527,0.09229281,-0.17570983,-0.4062241,-0.32264796,0.05989379,3.0690966,-0.6202178,0.0002591603,-0.18456092,0.034199435,0.0033921574,-0.055133972,0.019844221,0.0024784976,0.4036774,-1.425694,1.9595045,-2.1089585,-1.56191,2.3769248,-0.23688413,0.24495149,-0.28761286,0.0046760496,0.043684836,-0.23900215,-0.17238252,0.21068975,-9.308656,0.85826975,47.679718,-0.9319104,-1.6602335,-3.4380016,-0.28004885,0.33592087,-0.3785162,27.625,28.8125,27.875,31.5,33.4375,34.25
0.37605187,-0.9161978,-0.045705814,-0.9912589,-0.045915954,0.08036045,-0.16328958,-0.4066056,-0.32258707,0.059910946,3.0689955,-0.6200554,0.00018900153,-0.18516561,0.033335242,0.0031417406,-0.057354625,0.019557875,0.012252653,0.40320984,-1.4252023,1.9589056,-2.1089585,-1.5618256,2.3763692,-0.23696417,0.24699338,-0.28925863,0.0037908065,0.045936387,-0.24884146,-0.21068975,0.2681506,-9.423578,0.9186956,47.672558,-0.8898283,-1.7248206,-3.451467,-0.26400185,0.32435703,-0.23367418,27.625,28.8125,27.875,31.5,33.4375,34.25
