Tylouw/Master_Thesis_Code/training_data/batch_1/big_rod_t0.3/sample_15_session_1.csv
timestamp[s],tcp_force_x[N],tcp_force_y[N],tcp_force_z[N],tcp_force_rx[Nm?],tcp_force_ry[Nm?],tcp_force_rz[Nm?],tcp_pose_x[m],tcp_pose_y[m],tcp_pose_z[m],tcp_pose_rx[rot_vec_x],tcp_pose_ry[rot_vec_y],tcp_pose_rz[rot_vec_z],tcp_velo_x[m/s],tcp_velo_y[m/s],tcp_velo_z[m/s],tcp_velo_rx[rot_vec_x/s],tcp_velo_ry[rot_vec_y/s],tcp_velo_rz[rot_vec_z/s],q1[rad],q2[rad],q3[rad],q4[rad],q5[rad],q6[rad],qd1[rad/s],qd2[rad/s],qd3[rad/s],qd4[rad/s],qd5[rad/s],qd6[rad/s],tool_acc_x,tool_acc_y,tool_acc_z,current_of_whole_robot[A],voltage_of_whole_robot[V],current_J1[A],current_J2[A],current_J3[A],current_J4[A],current_J5[A],current_J6[A],temp_J1[C],temp_J2[C],temp_J3[C],temp_J4[C],temp_J5[C],temp_J6[C]
9.1502443e-07,-0.012764194,-0.50820744,0.5167811,-0.010092117,0.015974693,-0.030518794,-0.372882,-0.32821476,0.05992096,-3.0784655,0.6249016,-0.0003642411,0.0034463098,0.0016288173,-0.0047073807,0.004692046,-0.009966297,5.047918e-05,0.4481262,-1.4708251,2.0095851,-2.107691,-1.5706376,2.4230676,0.0,0.00428351,0.0059062615,0.00082505227,0.000103785234,-5.3787968e-05,-0.038307227,0.15322891,-8.944737,0.80456203,47.73525,-0.16927588,-2.9545996,-2.5000684,-0.47220984,0.05417192,-0.09413881,27.5,28.75,27.75,31.375,33.25,34.0
0.002055107,-0.16640621,-0.13347635,0.44539756,-0.0091680745,0.011455103,-0.02688319,-0.37289453,-0.3282208,0.059946585,-3.0785103,0.62491065,-0.0002698204,0.0007722028,0.00033601673,-0.0038374516,0.0007725247,-0.0018572953,5.26078e-05,0.4481262,-1.4708729,2.0095851,-2.1077187,-1.5706376,2.4230676,0.0,0.004426204,0.0058248797,-0.008242842,0.000102103244,-5.315269e-05,0.019153614,0.17238252,-8.791509,0.7351769,47.72719,-0.13331059,-2.8447177,-2.438307,-0.47053468,0.07085267,-0.111292996,27.5,28.75,27.75,31.375,33.25,34.0
0.004054016,-0.18680328,-0.23993734,0.40528867,0.013493662,-0.0015254685,-0.025318801,-0.37290967,-0.3282108,0.059931442,-3.0784738,0.6248641,-0.00023822542,-0.0007605497,-0.0004047226,-0.0026912885,-0.0013147807,0.0024665596,5.356189e-05,0.4481262,-1.4708252,2.0095732,-2.107743,-1.5706857,2.4230433,0.0,0.0038585302,0.004479058,-0.011130656,0.000100474805,-5.2532185e-05,0.038307227,0.19153613,-8.887277,0.7620334,47.703007,-0.1301125,-3.0446775,-2.5265646,-0.37320858,0.06644147,-0.09844504,27.5,28.75,27.75,31.375,33.25,34.0
0.006053906,0.07793173,0.40417993,0.06205352,0.021116698,-0.015565484,-0.02999288,-0.3728989,-0.3282059,0.059926197,-3.0784726,0.6249414,-0.0003025822,-0.000405389,-0.00023216405,-0.0018246239,-0.0007276026,0.0012629647,5.247432e-05,0.44810224,-1.4708376,2.0095956,-2.1077292,-1.5706495,2.4230676,0.0,0.002613515,0.0029094222,-0.006976824,9.8897624e-05,-5.1926047e-05,0.019153614,0.19153613,-9.021352,0.7105615,47.723602,-0.10611408,-3.0310245,-2.5017166,-0.39136082,0.062022865,-0.10389891,27.5,28.75,27.75,31.375,33.25,34.0
0.008053629,0.36789736,1.1254078,-0.13641886,0.043758444,-0.033424065,-0.03380763,-0.37288663,-0.32820606,0.059903946,-3.0784554,0.62484115,-0.00028440796,3.5366847e-05,-1.8292903e-05,-0.0013351996,-6.6815766e-05,-9.538859e-05,5.1336858e-05,0.44813824,-1.4708141,2.0096314,-2.1077754,-1.5706857,2.4230433,0.0,0.0017608994,0.0019682208,-0.0036724664,9.736908e-05,-5.1333696e-05,0.019153614,0.095768064,-9.078813,0.7530795,47.72719,-0.16375189,-2.9072993,-2.4633777,-0.41871792,0.065610915,-0.08684733,27.5,28.75,27.75,31.375,33.25,34.0
0.0100536775,0.804237,0.9883606,-0.5705218,0.04715978,-0.018182583,-0.03206798,-0.37289247,-0.32820916,0.059906177,-3.0784576,0.6249383,-0.00033456206,0.0004714869,0.00019311521,-0.001301672,0.00070245663,-0.0016823332,5.536619e-05,0.44811416,-1.4708021,2.0096076,-2.1077511,-1.5706495,2.4230795,0.0,0.001677194,0.0014411754,-0.0012981426,9.5887175e-05,-5.575973e-05,0.0,0.076614454,-9.193734,0.7463667,47.71554,-0.56547487,-2.3682265,-3.024126,-0.44447702,0.039410017,-0.18044034,27.5,28.75,27.75,31.375,33.25,34.0
0.012053226,-0.14598927,0.096624374,-0.730237,0.026133543,-0.009098205,-0.030882455,-0.37286454,-0.32820413,0.059875082,-3.078412,0.62485236,-0.00043116717,0.000440476,0.00027282283,-0.0038346262,0.0032360835,-0.0069532,-7.0330505e-05,0.44813818,-1.4707634,2.009631,-2.1077268,-1.5706614,2.4230556,-0.00018216946,0.008443143,-0.00037682537,-0.00039791147,9.444954e-05,-0.00011033454,0.11492168,0.17238252,-9.3661175,0.683705,47.721813,-0.64689696,-2.476998,-3.2446833,-0.4475766,0.04809778,-0.21624804,27.5,28.75,27.75,31.375,33.25,34.0
0.014053628,-0.7718891,-0.91294163,-0.79453635,-0.0062272022,0.013330834,-0.032490436,-0.37286952,-0.3281858,0.059861485,-3.0783768,0.62488294,-0.0004899899,-0.005534837,0.0017617347,-0.003981644,0.003106353,-0.006670351,-0.00016178447,0.44809914,-1.4707369,2.0096276,-2.107703,-1.5706614,2.4230402,-0.008408172,0.016566891,-0.008989589,-0.00022121689,6.6519606e-05,-0.008238414,-0.038307227,0.24899697,-9.595961,0.7418897,47.694946,-0.3037963,-2.8993134,-2.9407465,-0.4505173,0.025884734,-0.1937756,27.5,28.75,27.75,31.375,33.25,34.0
0.01605424,-1.710963,-1.3149446,-1.0383465,-0.046141542,0.03327005,-0.037379675,-0.372862,-0.32819253,0.05986843,-3.0783741,0.62476355,-0.00048144505,-0.0058048116,0.0020578688,-0.0038256114,0.0030435226,-0.006484618,0.0047405413,0.4481351,-1.4707371,2.0096037,-2.1076672,-1.5706857,2.423002,-0.009193099,0.016264234,-0.009054674,-4.9230708e-05,4.0123396e-05,-0.013925676,-0.34476507,0.2681506,-9.749189,0.70608455,47.66091,-0.39704955,-2.7463489,-3.0209966,-0.44753826,0.026985858,-0.14632103,27.5,28.75,27.75,31.375,33.25,34.0
0.018054258,-1.5104419,-1.8259121,-1.0232387,-0.065428756,0.089655474,-0.06031357,-0.37286246,-0.32819307,0.059840754,-3.0783699,0.62478167,-0.0005766616,-0.005294612,0.001990472,-0.003999876,0.0032602556,-0.006891678,0.00626063,0.44811115,-1.4706773,2.0096042,-2.1076791,-1.5706495,2.4229898,-0.008588872,0.015989725,-0.008364965,-3.2144133e-06,2.1348502e-05,-0.014841975,-0.53630114,0.28730422,-9.883265,0.79560274,47.66539,-0.5649662,-2.5682034,-3.4548593,-0.43849537,0.015847208,-0.15837225,27.5,28.75,27.75,31.375,33.25,34.0
0.020053672,-2.4440436,-1.9813275,-1.0155119,-0.060710013,0.09473982,-0.067015834,-0.37289253,-0.32820112,0.059847787,-3.078384,0.6247468,-0.0005631524,-0.0058871773,0.0024680637,-0.004384596,0.004230828,-0.0089034485,0.005242979,0.44809887,-1.4706285,2.0095317,-2.1076663,-1.5706495,2.422954,-0.010025763,0.018122097,-0.010283396,0.0020164524,1.855411e-05,-0.015260314,-0.5746084,0.36391866,-9.883265,0.7620334,47.713753,-0.6894076,-2.4025912,-3.4624739,-0.4395562,-0.008168175,-0.16799495,27.5,28.75,27.75,31.375,33.25,34.0
0.022054184,-2.2144153,-1.211239,-1.1960548,-0.043982543,0.089245684,-0.08059459,-0.37290832,-0.32819134,0.05984587,-3.0783603,0.6247808,-0.0005659265,-0.007710621,0.0025714405,-0.003446864,0.0036076095,-0.007583183,0.0045021623,0.44807416,-1.4706044,2.009507,-2.1076543,-1.5706614,2.4229536,-0.011869161,0.019022798,-0.013651816,0.0030239413,2.3736873e-06,-0.016360993,-0.61291564,0.36391866,-9.844957,0.78217715,47.721813,-0.6594038,-2.4572477,-3.3826923,-0.4591025,0.012687651,-0.20295244,27.5,28.75,27.75,31.375,33.25,34.0
0.024053607,-1.5185204,-0.4793275,-1.1034273,-0.030016277,0.08326133,-0.10426909,-0.37291858,-0.3281919,0.05984344,-3.078379,0.6247458,-0.0006046454,-0.008865293,0.002746635,-0.0036234884,0.0035070446,-0.007382268,0.0047287587,0.44804975,-1.4705797,2.0094826,-2.107642,-1.5706376,2.422905,-0.01324869,0.02086479,-0.015134479,0.0024401443,1.5498483e-07,-0.017965758,-0.63206923,0.30645782,-9.825804,0.7911258,47.723602,-0.77616227,-2.4597228,-3.4085112,-0.43592536,-0.0073237186,-0.20808798,27.5,28.75,27.75,31.375,33.25,34.0
0.026053404,-1.6003942,-0.38564596,-0.94753206,-0.02058295,0.06899173,-0.116577424,-0.37293082,-0.32818267,0.05981738,-3.0783753,0.6247063,-0.0006596523,-0.010286464,0.0028972775,-0.0030509562,0.0026098639,-0.0055313446,0.004818684,0.4480131,-1.4705197,2.0094821,-2.1076667,-1.5706257,2.4228442,-0.014824544,0.021125598,-0.016522195,0.0015101708,1.0119401e-08,-0.01963039,-0.8236054,0.28730422,-9.80665,0.77545905,47.71554,-0.8159363,-2.4320574,-3.4326549,-0.43221468,-0.008409193,-0.17053187,27.5,28.75,27.75,31.375,33.25,34.0
0.028053671,-2.3724265,-0.66759175,-0.9976476,-0.013063849,0.05593433,-0.12019531,-0.372964,-0.32819006,0.05982538,-3.0783927,0.62471074,-0.00065390574,-0.011868768,0.0028116663,-0.0019722322,0.0014061582,-0.0030391552,0.0036025932,0.4479887,-1.4704719,2.0094087,-2.1076548,-1.5706137,2.4228203,-0.016101643,0.020932356,-0.018692926,0.0011067182,6.6072464e-10,-0.019690007,-0.78529817,0.15322891,-9.787497,0.7620334,47.70838,-0.71755314,-2.2835636,-3.387808,-0.4099838,-0.03666049,-0.16386259,27.5,28.75,27.75,31.375,33.25,34.0
0.030054154,-2.1730797,-0.8442301,-0.9839609,-0.003283346,0.07045102,-0.13534287,-0.37298614,-0.32817456,0.05981245,-3.0783186,0.6247162,-0.000615155,-0.013114917,0.0030142884,-0.0018067443,0.0011635189,-0.0025436156,0.0015003748,0.44798812,-1.4704114,2.009372,-2.1076548,-1.5706857,2.4228327,-0.017616933,0.02224102,-0.020495864,0.0010479374,4.31406e-11,-0.019101772,-0.7852981,-0.05746084,-9.672575,0.69041777,47.73525,-0.71893704,-2.364797,-3.425178,-0.39684352,-0.054465644,-0.1714486,27.5,28.75,27.75,31.375,33.25,34.0
0.03205343,-1.845559,0.04595839,-0.58180356,0.0030697773,0.08191886,-0.15381095,-0.37301433,-0.32817993,0.0598085,-3.0783482,0.6247226,-0.0006766827,-0.014237046,0.0030478397,-0.0016894349,0.0023317102,-0.0015492724,0.0012537779,0.44794023,-1.470351,2.009312,-2.1076424,-1.5706381,2.422785,-0.017691962,0.024054807,-0.02277405,0.0011283503,-0.0014885273,-0.01892543,-0.68953013,0.095768064,-9.595961,0.6948948,47.723602,-0.7251235,-2.403969,-3.3411283,-0.3810255,-0.04623085,-0.17692447,27.5,28.75,27.75,31.375,33.25,34.0
0.034054127,-1.4485228,0.82336515,-0.27923602,0.018726552,0.08365216,-0.17874764,-0.37304482,-0.32816625,0.05980855,-3.0783165,0.6246775,-0.0006025744,-0.015737053,0.0032334202,-0.0012545272,0.0027158447,6.4376986e-06,0.00063892297,0.44792777,-1.4703146,2.0092747,-2.1076548,-1.5706986,2.4227486,-0.018710703,0.025275381,-0.025076455,0.0009767654,-0.0025138028,-0.019325564,-0.5554548,-0.095768064,-9.557653,0.74413085,47.69763,-0.6870121,-2.4117312,-3.3383908,-0.36532414,-0.0417045,-0.17509598,27.5,28.75,27.75,31.375,33.25,34.0
0.036053885,-1.4464296,1.0232183,-0.2965549,0.044201545,0.054655768,-0.1895537,-0.37309068,-0.32816732,0.059793934,-3.0783308,0.62483466,-0.00063427835,-0.016949551,0.003418864,-0.0008600519,0.0027550792,0.0003429791,0.00052364223,0.44785538,-1.4702302,2.0092266,-2.1077025,-1.5706505,2.4227724,-0.020034844,0.02644226,-0.027480805,0.0019291216,-0.0026984503,-0.020532724,-0.4405331,-0.19153613,-9.481039,0.7620334,47.70211,-0.7278492,-2.3536398,-3.376572,-0.35765567,-0.041845813,-0.19989385,27.5,28.75,27.75,31.375,33.25,34.0
0.03805359,-0.79953104,0.6734542,-0.47303793,0.06387487,0.035344746,-0.20240659,-0.37314186,-0.3281558,0.059811413,-3.0783403,0.6248167,-0.0005920552,-0.01751406,0.0033019655,-0.00021635894,0.0021394778,0.0005284854,0.0014823396,0.4477952,-1.4701945,2.0091417,-2.1076782,-1.5706624,2.4227,-0.020646095,0.026393263,-0.02921042,0.0032716203,-0.0022249538,-0.022103082,-0.28730422,-0.17238252,-9.423578,0.7866488,47.734352,-0.7294264,-2.2328281,-3.3649127,-0.3464563,-0.060601488,-0.1727362,27.5,28.75,27.75,31.375,33.25,34.0
0.040054042,-0.41892606,0.55897564,-0.54358417,0.048107233,0.019767648,-0.19667886,-0.37315908,-0.32815132,0.059803087,-3.078334,0.6247766,-0.0006225944,-0.018401794,0.003321076,-0.000137094,0.0017112988,0.00023305004,0.0014544096,0.4477708,-1.4701462,2.009105,-2.1076658,-1.5706619,2.4226513,-0.021834442,0.027745865,-0.030994188,0.003781648,-0.0017149522,-0.023263378,-0.21068975,-0.22984336,-9.3661175,0.69041777,47.713753,-0.71779835,-2.2009315,-3.3028069,-0.32764328,-0.074859075,-0.16831237,27.5,28.75,27.75,31.375,33.25,34.0
0.04205381,-0.1884662,0.2439486,-0.50587654,0.03239389,0.01337802,-0.20004669,-0.37319747,-0.32813773,0.059801012,-3.0783303,0.62479556,-0.0006227533,-0.019625576,0.0033515668,-5.2597887e-05,0.0015700458,0.0005277123,0.0017291217,0.4477103,-1.4700975,2.0090563,-2.1076658,-1.5706619,2.4226031,-0.02299888,0.029523054,-0.03315164,0.0038348367,-0.0017205527,-0.024700958,-0.076614454,-0.19153613,-9.442732,0.73741806,47.69763,-0.7161702,-2.2651906,-3.3164988,-0.31923336,-0.10506967,-0.17601481,27.5,28.75,27.75,31.375,33.25,34.0
0.044053797,-0.63229346,-0.54334605,-0.67853564,0.036650177,0.004912258,-0.16621557,-0.37322628,-0.32814282,0.059799407,-3.078321,0.6248125,-0.00066457357,-0.02048534,0.004069641,-9.772071e-05,0.0027671512,0.0003645612,0.0021225212,0.4476859,-1.4700252,2.0089724,-2.1076295,-1.5706505,2.4225905,-0.024444705,0.030577905,-0.03440558,0.0047028256,-0.0027315486,-0.026537346,-0.095768064,-0.038307227,-9.404425,0.62104326,47.71465,-0.7704904,-2.2431316,-3.3418765,-0.32476333,-0.07688322,-0.14952838,27.5,28.75,27.75,31.375,33.25,34.0
0.04605425,-0.18901177,0.15953544,-0.6734523,0.004544206,0.023524676,-0.17802607,-0.37330627,-0.32811475,0.059827715,-3.078305,0.6248283,-0.0005339446,-0.021448782,0.0049103717,0.00036968483,0.004316412,0.00095155544,0.0021490199,0.44760138,-1.4699893,2.008865,-2.1076167,-1.570711,2.422518,-0.025778621,0.030765982,-0.036049295,0.0063036657,-0.004381413,-0.02789399,-0.019153614,0.05746084,-9.519346,0.800085,47.729877,-0.6507158,-2.1762786,-3.3378549,-0.32806823,-0.06266,-0.14210778,27.5,28.75,27.75,31.375,33.25,34.0
0.048054013,-0.20015796,-0.25126132,-0.63055533,0.00039702485,0.02207754,-0.17939708,-0.37332296,-0.3280993,0.05979284,-3.0782652,0.6247619,-0.0006115446,-0.02198742,0.0052735014,0.00048676017,0.0051235207,9.914342e-06,0.0026054673,0.4475652,-1.4698931,2.0088394,-2.1076162,-1.5707229,2.4224455,-0.026732098,0.031764027,-0.037879203,0.008334086,-0.0047037196,-0.029302267,0.0,0.17238252,-9.519346,0.7642693,47.7254,-0.67740095,-2.1227603,-3.3701084,-0.34388125,-0.06344701,-0.13980784,27.5,28.75,27.75,31.375,33.25,34.0
0.050053347,-0.30621752,-0.93825066,-0.9367132,0.0041821417,0.0069033247,-0.17402527,-0.3733666,-0.32808825,0.059797287,-3.0782585,0.6247592,-0.00062660023,-0.02252733,0.0055307145,0.00065384567,0.00499957,-0.0004521907,0.0033004163,0.4475047,-1.469833,2.008755,-2.10758,-1.5707229,2.4223843,-0.02791281,0.03224047,-0.039021444,0.00936105,-0.004393832,-0.03117808,0.0,0.21068975,-9.5385,0.7239871,47.709274,-0.61804587,-2.102254,-3.406384,-0.3387129,-0.08001283,-0.12666854,27.5,28.75,27.75,31.375,33.25,34.0
0.052053884,-0.23967066,-0.9726901,-0.97028506,-0.010868719,-0.0062317294,-0.17068788,-0.37340942,-0.3280982,0.059797738,-3.0782812,0.6247449,-0.0006489967,-0.023760715,0.0052917353,0.0013764957,0.0035859449,0.0010013151,0.0041090488,0.4474683,-1.469749,2.0086591,-2.1075685,-1.5706991,2.422336,-0.02901336,0.032521825,-0.040920448,0.009054556,-0.0037543634,-0.03308736,0.0,0.3256114,-9.519346,0.7642693,47.71554,-0.60214555,-2.0036385,-3.4388642,-0.33623135,-0.066246256,-0.118799314,27.5,28.75,27.75,31.375,33.25,34.0
0.054053914,-0.35762864,-1.3830947,-1.0942065,-0.0145168025,-0.013913241,-0.16555724,-0.37348795,-0.3280828,0.05983479,-3.0783114,0.62478906,-0.00050761265,-0.024330316,0.0054032262,0.0013885427,0.003962916,0.00034516677,0.0042954152,0.44738418,-1.4697367,2.0085633,-2.10758,-1.5707229,2.4222758,-0.029697947,0.033787463,-0.042604875,0.010226915,-0.0038086926,-0.033957694,0.019153614,0.3256114,-9.461885,0.683705,47.703903,-0.59556484,-2.0094893,-3.4241214,-0.33359838,-0.111381605,-0.09194574,27.5,28.75,27.75,31.375,33.25,34.0
0.056054343,0.0011685373,-1.4330298,-0.85695976,-0.024954505,0.0017561462,-0.1729784,-0.37352204,-0.32805628,0.059821226,-3.0782413,0.62479347,-0.00061616243,-0.025290662,0.005832856,0.0017013418,0.0047421944,0.00072750106,0.0048078443,0.4473117,-1.4696406,2.008467,-2.1074836,-1.5707353,2.422215,-0.03078306,0.034558106,-0.044404276,0.01125012,-0.0046826024,-0.03555211,-0.076614454,0.36391866,-9.500193,0.7329411,47.711063,-0.6320298,-1.9314698,-3.4448633,-0.34184438,-0.09880228,-0.07433454,27.5,28.75,27.75,31.375,33.25,34.0
0.058054063,-0.48158675,-1.1820412,-0.80512255,-0.0362935,0.011529842,-0.16975278,-0.3735676,-0.328059,0.05983104,-3.0782783,0.6247245,-0.0005702725,-0.026235892,0.0063343565,0.0014147179,0.0058124852,0.0006015719,0.0053030644,0.4472754,-1.4695921,2.008394,-2.107496,-1.5707353,2.422131,-0.031963218,0.036344387,-0.04573832,0.011377084,-0.0055954834,-0.037224703,-0.05746084,0.34476504,-9.576807,0.8112748,47.721813,-0.59952104,-1.9314809,-3.4243112,-0.3268764,-0.087474726,-0.051801533,27.5,28.75,27.75,31.375,33.25,34.0
0.060053848,-1.1919415,-1.6241375,-0.95501727,-0.019804636,0.01947044,-0.15756689,-0.37358904,-0.32804802,0.059817515,-3.0782588,0.6246825,-0.00065867085,-0.02728545,0.00622047,0.0018831076,0.005670521,0.000980907,0.004662531,0.44722715,-1.4695196,2.0083344,-2.1074474,-1.5707234,2.422059,-0.032671966,0.037489865,-0.048304774,0.012394948,-0.0056370962,-0.03729107,-0.095768064,0.3256114,-9.557653,0.800085,47.723602,-0.6274247,-1.9098763,-3.5023112,-0.34323716,-0.095189065,-0.078266926,27.5,28.75,27.75,31.375,33.25,34.0
0.06205355,-0.64991313,-1.0654753,-0.8474978,-0.025701165,0.043885827,-0.16791739,-0.37365952,-0.32801995,0.059816986,-3.0782003,0.6247476,-0.00062585913,-0.027797535,0.0062296693,0.0017979024,0.0059480416,0.00070551963,0.0034119103,0.44714296,-1.4694237,2.0082247,-2.1074235,-1.5707716,2.422023,-0.03305839,0.038727812,-0.049559273,0.012778261,-0.0057699527,-0.0364257,-0.076614454,0.38307226,-9.557653,0.800085,47.707485,-0.65778893,-1.9369572,-3.410613,-0.37005326,-0.10244951,-0.07143548,27.5,28.75,27.75,31.375,33.25,34.0
0.06405427,-0.8017447,-0.8257121,-0.90592235,-0.018252645,0.04677347,-0.17338069,-0.37369883,-0.3280197,0.05981913,-3.0782096,0.62476903,-0.0006915013,-0.028751867,0.0065044,0.0012234504,0.006963073,5.2410855e-05,0.003890101,0.4470826,-1.4693508,2.008129,-2.1073754,-1.5707358,2.421975,-0.034005657,0.04147152,-0.051252913,0.012758884,-0.0064085675,-0.03784816,-0.17238252,0.36391866,-9.576807,0.73741806,47.672558,-0.6131035,-1.8982522,-3.415371,-0.36671788,-0.09844138,-0.08067742,27.5,28.75,27.75,31.375,33.25,34.0
0.06605376,-0.9710207,-1.1554179,-0.84589005,0.003128135,0.03989247,-0.17288843,-0.37379408,-0.32801008,0.059848182,-3.0782368,0.6246966,-0.0005417279,-0.02979982,0.0061322637,0.0015506038,0.0069425963,0.0015513755,0.00517414,0.44701064,-1.4692782,2.0079854,-2.1073878,-1.570784,2.4218545,-0.03382066,0.042754326,-0.053271558,0.012133898,-0.0070415265,-0.038944807,-0.19153613,0.30645782,-9.481039,0.7866488,47.692257,-0.6746769,-1.9565647,-3.5230958,-0.35323632,-0.1126279,-0.092192136,27.5,28.75,27.75,31.375,33.25,34.0
0.068053246,-1.3302971,-0.45386884,-0.76258993,-0.0071203136,0.03406122,-0.16439931,-0.37385675,-0.3280102,0.05984511,-3.0782464,0.6246402,-0.0005137926,-0.03189967,0.0059642373,0.0022002154,0.0061155465,0.004523969,0.005347616,0.44696233,-1.4691702,2.0078766,-2.1074002,-1.5707964,2.4217699,-0.0350322,0.04411424,-0.055842206,0.010307343,-0.0075906003,-0.040326487,-0.22984336,0.22984336,-9.423578,0.7463667,47.68062,-0.6826221,-1.9018965,-3.4760256,-0.33264178,-0.10234299,-0.076173216,27.5,28.75,27.75,31.375,33.25,34.0
0.0700537,-0.92992145,-0.5250887,-0.6447864,-0.0009404524,0.045217223,-0.17152306,-0.37392613,-0.3279776,0.05983449,-3.0782268,0.6247137,-0.00055504026,-0.032973126,0.006053176,0.0021680212,0.0060833176,0.0049488405,0.0048553254,0.44683,-1.4690735,2.0077922,-2.1073887,-1.5707844,2.421686,-0.036055833,0.045691438,-0.057412878,0.009903655,-0.007750491,-0.04085601,-0.32561144,0.24899697,-9.346964,0.8224646,47.687782,-0.75966597,-1.8948305,-3.397449,-0.32287982,-0.10764995,-0.06324279,27.5,28.75,27.75,31.375,33.25,34.0
0.07205416,-1.1810381,-0.6378636,-0.5646647,0.010023881,0.040309466,-0.1643108,-0.37399864,-0.3280105,0.05988636,-3.0783002,0.62469083,-0.00044677596,-0.03396117,0.0056212777,0.0024221481,0.005809189,0.005465904,0.002989835,0.446818,-1.4690253,2.007612,-2.1073525,-1.5707725,2.4216504,-0.036150686,0.04738292,-0.059904005,0.010119334,-0.007726574,-0.03908447,-0.4405331,0.19153613,-9.3661175,0.779936,47.694946,-0.7044774,-1.8779435,-3.4740906,-0.32010683,-0.11855611,-0.09508076,27.5,28.75,27.75,31.375,33.25,34.0
0.07405337,-1.3963625,-0.21061713,-0.40622848,0.005692267,0.037218656,-0.1636753,-0.37405807,-0.3279879,0.059864543,-3.0782454,0.6246798,-0.00047044305,-0.035728075,0.0050355652,0.0035874585,0.0049806056,0.007933087,0.00266192,0.44674578,-1.468893,2.0075142,-2.107341,-1.5708083,2.4215784,-0.03642349,0.048339173,-0.063687965,0.01036327,-0.008054271,-0.039026,-0.34476504,0.1340753,-9.308656,0.7530795,47.71286,-0.7387326,-1.849843,-3.2980752,-0.32144237,-0.11044904,-0.111644775,27.5,28.75,27.75,31.375,33.25,34.0
0.07605398,-1.463876,-0.3853709,-0.4041907,0.016298799,0.039139494,-0.166046,-0.37413302,-0.32797506,0.059879992,-3.0782673,0.6246263,-0.00041890616,-0.035063196,0.0059956866,0.0012219279,0.006984808,0.0028134417,0.002994756,0.44666147,-1.46882,2.0073955,-2.1073282,-1.5708197,2.421458,-0.037894882,0.052029334,-0.06244674,0.010911855,-0.007645834,-0.040831648,-0.4213795,0.11492168,-9.308656,0.81351066,47.66987,-0.7426739,-1.9329703,-3.4992018,-0.30945534,-0.12737092,-0.10147019,27.5,28.75,27.75,31.375,33.25,34.0
0.07805363,-0.99516076,0.21053919,-0.267471,-0.0006363921,0.0547226,-0.16968666,-0.37419406,-0.32797217,0.059885573,-3.0782611,0.6245875,-0.00044788473,-0.03698749,0.006080849,0.0024883251,0.005607253,0.005713186,0.0016166823,0.44660065,-1.4687121,2.0072505,-2.107268,-1.5708197,2.4213738,-0.03977828,0.051670145,-0.06486105,0.010474497,-0.007663177,-0.041335262,-0.36391866,0.15322891,-9.289502,0.7620334,47.68062,-0.7117443,-1.9905107,-3.4597,-0.3030311,-0.11944587,-0.11170885,27.5,28.75,27.75,31.375,33.25,34.0
0.080054134,-1.4744198,-0.1785552,-0.41436797,0.006043886,0.039485257,-0.1623964,-0.37426668,-0.32796875,0.05989295,-3.0782728,0.6246087,-0.00041512298,-0.039584883,0.0052008964,0.0046409727,0.004378263,0.009408706,0.0015657961,0.4465287,-1.4686161,2.007128,-2.1072676,-1.5708202,2.4213138,-0.0401334,0.052485287,-0.07103836,0.011973893,-0.008159153,-0.041635316,-0.45968673,0.038307227,-9.270349,0.8247004,47.72719,-0.75270975,-1.7157781,-3.2027283,-0.30933568,-0.12149822,-0.12727585,27.5,28.75,27.75,31.375,33.25,34.0
0.08205349,-1.4523329,-0.36446747,-0.45511296,0.019295018,0.04180482,-0.16409253,-0.37434846,-0.32796994,0.059901092,-3.0782936,0.6245728,-0.00038824524,-0.038486976,0.0057180095,0.0028406673,0.0064538238,0.006238935,0.0027796752,0.44645685,-1.4684957,2.0069745,-2.1072562,-1.5708202,2.421217,-0.03976455,0.05450605,-0.06908825,0.01175925,-0.008658095,-0.04248031,-0.40222588,0.0,-9.251195,0.8090337,47.74241,-0.85038996,-1.8356392,-3.3479023,-0.30926353,-0.13310207,-0.14390649,27.5,28.75,27.75,31.375,33.25,34.0
0.08405349,-1.1146655,-0.111857586,-0.3855556,0.008581461,0.051514696,-0.17014119,-0.3744302,-0.32794458,0.05989863,-3.0782466,0.6246227,-0.00036874381,-0.040577482,0.0059073116,0.0024176328,0.0070033674,0.0060276124,0.0011811722,0.44635996,-1.4683745,2.0068414,-2.1072323,-1.5708569,2.4211574,-0.041724924,0.058757376,-0.072762355,0.011608858,-0.009071148,-0.042838342,-0.4213795,0.05746084,-9.385271,0.78217715,47.72271,-0.8011433,-2.0007956,-3.3323927,-0.30442196,-0.14156857,-0.17775455,27.5,28.75,27.75,31.375,33.25,34.0
0.08605402,-0.85776407,-0.19340989,-0.44829383,0.0007132921,0.054962188,-0.17222461,-0.3745171,-0.32791784,0.059911862,-3.0782273,0.62456095,-0.00030849918,-0.04217528,0.0064172177,0.0038467431,0.007116076,0.008803401,0.0002817563,0.44626358,-1.468279,2.006698,-2.107196,-1.5709051,2.421025,-0.043235637,0.057677694,-0.07506873,0.012541153,-0.01037322,-0.0434462,-0.3256114,0.13407528,-9.423578,0.74413085,47.67166,-0.77228403,-1.8538052,-3.304079,-0.3027783,-0.10464836,-0.19839011,27.5,28.75,27.75,31.375,33.25,34.0
0.08805363,-0.89587975,-0.6389156,-0.546008,-0.0008337168,0.0559894,-0.17231879,-0.3745873,-0.32790664,0.059915666,-3.078207,0.62455744,-0.00035205713,-0.043876365,0.007093156,0.0038017742,0.008003496,0.009378719,-0.0010218391,0.44617894,-1.4681586,2.0065405,-2.1071246,-1.5709051,2.4209409,-0.045321275,0.059804197,-0.07730347,0.012515972,-0.0114283785,-0.04422406,-0.3256114,0.19153613,-9.461885,0.7620334,47.70838,-0.6755054,-1.7597235,-3.2277257,-0.30579636,-0.11793309,-0.19421972,27.5,28.75,27.75,31.375,33.25,34.0
0.09005423,-0.8757342,-0.20961592,-0.5564914,-0.018553937,0.053645704,-0.1706393,-0.3746729,-0.327894,0.059908748,-3.078183,0.62457263,-0.00033117767,-0.044226665,0.00771272,0.002662422,0.009722885,0.006876085,-0.0017139314,0.44609448,-1.4680136,2.006397,-2.107124,-1.5709299,2.420869,-0.046473097,0.062856115,-0.07826099,0.013420594,-0.011899665,-0.04468203,-0.28730422,0.11492168,-9.461885,0.78217715,47.728977,-0.65146613,-1.8461187,-3.2440133,-0.29971734,-0.11857243,-0.22211587,27.5,28.75,27.75,31.375,33.25,34.0
0.09205377,-1.058254,-0.89072496,-0.45354423,-0.0102488585,0.058187246,-0.17543562,-0.3747515,-0.32787678,0.059920993,-3.0781746,0.62456816,-0.00031956195,-0.04515523,0.0066477438,0.003285216,0.009158614,0.00822581,0.0026394469,0.4459991,-1.4679173,2.006252,-2.107076,-1.5709418,2.420772,-0.04524681,0.0644236,-0.081454486,0.013582805,-0.0119808195,-0.04780687,-0.2681506,0.22984336,-9.461885,0.83589023,47.7451,-0.7740704,-1.9258857,-3.111734,-0.315941,-0.09185383,-0.23751883,27.5,28.75,27.75,31.375,33.25,34.0
0.09405365,-1.2595608,-0.43409055,-0.5310696,-0.020030636,0.056577872,-0.17578302,-0.3748595,-0.3278689,0.059925303,-3.0781841,0.6245699,-0.00033300894,-0.045277905,0.0075843506,0.002275899,0.009960121,0.0059012603,0.0020499262,0.4458782,-1.467749,2.006049,-2.1070402,-1.5709294,2.4206512,-0.047290128,0.06594588,-0.080910474,0.01395701,-0.011699977,-0.049261447,-0.30645782,0.2681506,-9.500193,0.70608455,47.719128,-0.75793314,-1.8285507,-3.340444,-0.30010685,-0.09379272,-0.22614653,27.5,28.75,27.75,31.375,33.25,34.0
0.096053444,-1.0290538,-0.6699985,-0.54555094,-0.023116212,0.054633763,-0.16734076,-0.37496448,-0.32786155,0.05994254,-3.078195,0.6245541,-0.00022387005,-0.047505267,0.007365748,0.0032745502,0.009355051,0.007888013,-0.00050666323,0.44579393,-1.4676287,2.0058796,-2.1070511,-1.5709656,2.4205558,-0.048665404,0.067683615,-0.08524011,0.014494365,-0.012014989,-0.048077527,-0.21068975,0.30645782,-9.500193,0.76874626,47.72271,-0.74281204,-1.9803889,-3.278768,-0.28657416,-0.09944917,-0.26023665,27.5,28.75,27.75,31.375,33.25,34.0
0.09805337,-1.2114117,-0.8343646,-0.62990713,-0.02474265,0.039175812,-0.16324674,-0.3750308,-0.3278441,0.059929676,-3.0781422,0.6245808,-0.00028891765,-0.04742166,0.007715402,0.002088128,0.010486622,0.005534931,0.0005656083,0.44570962,-1.4674842,2.0057366,-2.1069915,-1.570978,2.420495,-0.049230263,0.07013002,-0.08526285,0.014679401,-0.012024866,-0.049713578,-0.22984336,0.2681506,-9.481039,0.800085,47.744205,-0.706319,-1.9203262,-3.1746473,-0.2808326,-0.099537864,-0.2958511,27.5,28.75,27.75,31.375,33.25,34.0
0.1000535,-0.8607406,-0.6461031,-0.29853198,-0.014044041,0.038764104,-0.16490577,-0.37514558,-0.32782453,0.059939522,-3.0781348,0.62454087,-0.00019731052,-0.048995763,0.007460303,0.0026933106,0.009830989,0.007151312,0.0010856488,0.44560134,-1.4673399,2.0055554,-2.106992,-1.5710257,2.420363,-0.050081305,0.07145386,-0.08805147,0.014399109,-0.012135308,-0.05108296,-0.19153613,0.21068975,-9.385271,0.7709874,47.72719,-0.76444536,-1.9945809,-3.241942,-0.28001195,-0.080672845,-0.3081866,27.5,28.75,27.75,31.375,33.25,34.0
0.10205424,-0.8339449,-0.22750632,-0.44473824,-0.0055971434,0.03348655,-0.17238599,-0.3752567,-0.3278074,0.05994079,-3.078105,0.62461084,-0.00022869538,-0.050137606,0.007571834,0.0024976188,0.010929907,0.0078050694,0.0028783928,0.4454691,-1.4671594,2.0053403,-2.1069324,-1.5710262,2.4202783,-0.050438367,0.07372771,-0.090020455,0.013979718,-0.013416034,-0.053228226,-0.19153613,0.28730422,-9.461885,0.7329411,47.72808,-0.7661593,-1.9588118,-3.1548443,-0.273145,-0.10115263,-0.32380322,27.5,28.75,27.75,31.375,33.25,34.0
0.10405496,-0.99900156,-0.49367943,-0.3101269,-0.0039984877,0.023438843,-0.15956265,-0.37537792,-0.32779926,0.05996989,-3.0781353,0.6246573,-8.5788786e-05,-0.051406354,0.0075428295,0.0029433237,0.010399538,0.009091361,-0.00037786088,0.44536084,-1.4670513,2.00516,-2.1069562,-1.5710505,2.4201953,-0.05145968,0.07459274,-0.09191913,0.013622834,-0.013489935,-0.050993077,-0.21068975,0.28730422,-9.385271,0.8403672,47.709274,-0.8079575,-1.9742047,-3.1439552,-0.24799941,-0.057733115,-0.37975925,27.5,28.75,27.75,31.375,33.25,34.0
0.10605426,-0.97587305,-0.69282615,-0.53004193,0.00255054,0.013567627,-0.16220053,-0.3754761,-0.3277953,0.059985105,-3.0781338,0.6245595,-3.655163e-05,-0.05169694,0.0073712254,0.0023479217,0.011087364,0.0077561587,0.00034700066,0.44528893,-1.4669069,2.0049555,-2.1069086,-1.5710863,2.4200628,-0.05135506,0.07705058,-0.09338396,0.014128133,-0.013536933,-0.051612306,-0.17238252,0.28730422,-9.346964,0.75084364,47.729877,-0.78467166,-1.9953085,-3.1713352,-0.22068965,-0.07516095,-0.4150929,27.5,28.75,27.75,31.375,33.25,34.0
0.10805423,-0.19850369,-0.18722528,-0.34925547,-0.010034504,0.017650148,-0.17204197,-0.37558243,-0.32776305,0.05997348,-3.0780735,0.6246039,-4.9293125e-05,-0.052556206,0.007070919,0.0025687073,0.010222767,0.007128035,0.0021313631,0.44515654,-1.4667264,2.0047753,-2.1068718,-1.571122,2.419966,-0.05225378,0.07861934,-0.09588553,0.015246555,-0.012491837,-0.05429557,-0.05746084,0.21068975,-9.3661175,0.82022345,47.73614,-0.9140192,-2.0084195,-3.1043577,-0.21815678,-0.09593368,-0.41551712,27.5,28.75,27.75,31.375,33.25,34.0
0.11005391,-0.19084014,-0.27038187,-0.3922948,-0.016875373,0.015963903,-0.17455952,-0.37566933,-0.32775337,0.059969343,-3.07805,0.62454,-3.1447453e-05,-0.053315576,0.0076724114,0.0020065045,0.011336977,0.005489677,0.0032172175,0.44508412,-1.4665699,2.004607,-2.1068475,-1.5711578,2.4198568,-0.053850032,0.080993295,-0.09749234,0.016434401,-0.012794742,-0.05697596,-0.1340753,0.22984336,-9.404425,0.7978386,47.709274,-0.8337853,-1.978756,-3.1426358,-0.21819532,-0.060996063,-0.44172978,27.5,28.75,27.75,31.375,33.25,34.0
0.11205424,-0.44450316,-0.6734895,-0.51082516,-0.010039747,0.00817336,-0.17056544,-0.37580922,-0.32774836,0.059994336,-3.0780709,0.6244846,5.0475068e-05,-0.052606825,0.006490468,0.0023815266,0.010784531,0.0055395644,0.007952453,0.44496498,-1.4663904,2.0043437,-2.1068113,-1.5711821,2.4197006,-0.051294733,0.0808005,-0.09832004,0.017166033,-0.012315958,-0.05915721,-0.095768064,0.28730422,-9.404425,0.7597976,47.677036,-1.0672109,-2.0924911,-3.1541648,-0.23089702,-0.06347413,-0.4377417,27.5,28.75,27.75,31.375,33.25,34.0
0.11405391,-0.70805556,-0.6250518,-0.3775969,-0.020166492,0.008226538,-0.1677007,-0.37589574,-0.32772127,0.059986006,-3.0780241,0.6244547,6.64501e-05,-0.054401815,0.00667985,0.0034178062,0.009802986,0.007792987,0.009979716,0.44486836,-1.4662467,2.0041993,-2.1067874,-1.5712298,2.4195914,-0.05318878,0.080833815,-0.10072072,0.017070461,-0.0124082295,-0.06307663,-0.019153614,0.28730422,-9.404425,0.7642693,47.667187,-1.0896013,-1.8887069,-3.1289861,-0.21212468,-0.079025306,-0.42324328,27.5,28.75,27.75,31.375,33.25,34.0
0.11605328,-0.74811256,-1.205976,-0.33987603,-0.0042825365,0.019025791,-0.16558065,-0.37600306,-0.3277282,0.059993174,-3.0780597,0.6244207,2.908102e-05,-0.054159515,0.007047427,0.0006991582,0.012060977,0.0029280116,0.01301608,0.4447602,-1.4660649,2.0039718,-2.1067398,-1.5711936,2.4194577,-0.053679567,0.086622626,-0.10079949,0.016721994,-0.012355953,-0.066602826,0.019153614,0.28730422,-9.3661175,0.800085,47.68062,-1.0898503,-2.0782256,-3.1989653,-0.19230902,-0.0704726,-0.4222983,27.5,28.75,27.75,31.375,33.25,34.0
0.11805384,-0.4335425,-0.2967023,-0.31601813,-0.016407859,0.019000025,-0.17798701,-0.37611744,-0.32771182,0.059994843,-3.0780149,0.6243909,0.000113259186,-0.05552181,0.007476239,0.0019705663,0.01061704,0.0049831453,0.015246555,0.44467533,-1.465886,2.0037682,-2.1067278,-1.571266,2.4193602,-0.055970877,0.0851129,-0.10215019,0.017095279,-0.011940012,-0.071125165,0.076614454,0.28730422,-9.308656,0.8090337,47.71465,-0.99254227,-1.959733,-3.2193108,-0.19358976,-0.08662857,-0.4057464,27.5,28.75,27.75,31.375,33.25,34.0
0.12005434,-0.8509033,-0.77071995,-0.24627891,-0.0038816154,0.0049290652,-0.1656389,-0.3762561,-0.32769123,0.060016207,-3.0780487,0.62431765,0.00018179759,-0.05554658,0.0069206078,0.0010570504,0.011762623,0.003325116,0.021547548,0.4445199,-1.465729,2.0035408,-2.1067035,-1.571278,2.419155,-0.05470986,0.088459864,-0.103827335,0.01740967,-0.012263015,-0.07616367,0.019153614,0.22984336,-9.346964,0.8090337,47.694054,-1.1539513,-2.025475,-3.2677155,-0.17946282,-0.06895684,-0.36406273,27.5,28.75,27.75,31.375,33.25,34.0
0.12205402,-0.59180945,-0.33287528,-0.24544148,0.003411101,0.0053970367,-0.17499562,-0.3763615,-0.32769665,0.060032066,-3.0780826,0.6242261,0.00021216756,-0.057154402,0.0071437,0.0015234393,0.01099359,0.0043481477,0.024760706,0.44443527,-1.4655728,2.0033243,-2.1066678,-1.571278,2.419009,-0.056723565,0.08951488,-0.1060506,0.01731775,-0.012013891,-0.08138983,-0.038307227,0.19153613,-9.289502,0.7933669,47.71554,-1.1538929,-2.0888853,-3.3358583,-0.16002685,-0.05528658,-0.317342,27.5,28.75,27.75,31.375,33.25,34.0
0.12405323,-0.2799263,-0.021263337,-0.40759727,0.010504266,0.0057989764,-0.17301466,-0.37645823,-0.3276599,0.059996665,-3.0780306,0.6241938,9.0396876e-05,-0.05711029,0.0075369338,0.000557532,0.011645189,0.0016212679,0.028045502,0.444279,-1.4653565,2.003156,-2.1066196,-1.5712775,2.4188392,-0.057788584,0.09163036,-0.10641109,0.018297806,-0.011438887,-0.0857394,-0.076614454,0.17238252,-9.270349,0.80456203,47.71554,-1.102703,-2.0066884,-3.258769,-0.13890335,-0.09383899,-0.26417246,27.5,28.75,27.75,31.375,33.25,34.0
0.12605362,-0.19097571,0.34810424,-0.42738983,0.003508262,0.0068982393,-0.17346077,-0.37658796,-0.32764697,0.060016852,-3.0780518,0.6240051,0.00017984428,-0.05808121,0.007569413,0.0007541008,0.011407859,0.0013844266,0.030313244,0.44417056,-1.4651883,2.002916,-2.1065834,-1.5713257,2.4186106,-0.058911856,0.09301945,-0.1086164,0.019216713,-0.011124323,-0.0891302,-0.095768064,0.24899697,-9.308657,0.7620334,47.709274,-1.164659,-2.0613158,-3.4093957,-0.13843504,-0.09301961,-0.20588042,27.5,28.75,27.75,31.375,33.25,34.0
0.12805332,-0.8963286,-0.39713225,-0.2851372,0.007254753,0.0005055484,-0.16038026,-0.37670404,-0.3276513,0.060033645,-3.0780659,0.6239686,0.00019252348,-0.058191236,0.007951453,7.786771e-05,0.011996263,-0.0003037358,0.031496797,0.4440743,-1.465008,2.0026653,-2.1065233,-1.5713257,2.41849,-0.0598372,0.09454343,-0.10887948,0.019729612,-0.01093016,-0.09123937,-0.17238252,0.15322891,-9.270349,0.8023209,47.705692,-1.1639358,-1.9799511,-3.336431,-0.12938417,-0.08105421,-0.1688151,27.5,28.75,27.75,31.375,33.25,34.0
0.13005361,-0.7815736,-0.55265796,-0.5710506,0.0047055846,0.024571974,-0.17350277,-0.37680852,-0.3276369,0.06003475,-3.0780754,0.62381786,0.0001483959,-0.059574965,0.008422871,0.0010472939,0.011546828,0.0013918481,0.029785367,0.44395345,-1.4648288,2.0024488,-2.1064513,-1.5713257,2.418274,-0.061718956,0.094009764,-0.11066378,0.020323107,-0.01125893,-0.09140791,-0.1340753,0.095768064,-9.270349,0.7620334,47.703903,-1.1890497,-1.901977,-3.4426956,-0.11755931,-0.08827773,-0.14504479,27.5,28.75,27.75,31.375,33.25,34.0
0.1320533,-1.1174952,-0.3445494,-0.36830172,-0.005399932,0.034924842,-0.16847974,-0.3769649,-0.32763928,0.06004745,-3.0780864,0.6237437,0.00029271844,-0.05966986,0.008380423,-0.000100873374,0.011951391,-0.0015003872,0.027911391,0.44385728,-1.4645998,2.0021727,-2.106475,-1.5713848,2.4181304,-0.062294684,0.09723271,-0.1117547,0.020968333,-0.010376456,-0.0901112,-0.17238252,0.05746084,-9.404425,0.7418897,47.747787,-1.136551,-2.0975685,-3.4199367,-0.117198035,-0.11046836,-0.1369996,27.5,28.75,27.75,31.375,33.25,34.0
0.13405415,-1.2850224,-0.4712885,-0.45335612,0.002592871,0.036156043,-0.16806202,-0.3770742,-0.3275973,0.06003091,-3.078056,0.62369967,0.0002438526,-0.061972708,0.008161111,0.0020235004,0.010165794,0.002369194,0.026363697,0.44368887,-1.4644203,2.0020044,-2.1064384,-1.5713972,2.4179385,-0.06388146,0.096269086,-0.115730636,0.021643851,-0.0104372,-0.09014771,-0.2681506,0.1340753,-9.270349,0.69937176,47.73077,-1.1583159,-1.8308067,-3.322485,-0.0983217,-0.09281026,-0.13427259,27.5,28.75,27.75,31.375,33.25,34.0
0.1360535,-1.6701508,-0.05739077,-0.27243888,0.008123736,0.027047962,-0.16650446,-0.37718642,-0.3275845,0.060045637,-3.0780587,0.62355024,0.000249643,-0.06102727,0.009301193,-0.00087605725,0.013292845,-0.003454305,0.019300552,0.44358057,-1.4642512,2.001765,-2.106355,-1.5714215,2.4177368,-0.06493566,0.10070933,-0.11412657,0.022204826,-0.0107561955,-0.08413844,-0.38307226,0.15322891,-9.270349,0.73741806,47.7451,-1.0995328,-1.9456518,-3.5006213,-0.0934203,-0.10594304,-0.19052693,27.5,28.75,27.75,31.375,33.25,34.0
0.13805392,-1.4734637,-0.04800077,-0.4850726,0.016883321,0.02765301,-0.1661681,-0.37731194,-0.32756555,0.060020242,-3.0780015,0.62356097,0.00019694817,-0.06331823,0.008582721,0.001484655,0.011061773,0.00040945807,0.014898599,0.44344816,-1.4639881,2.0015247,-2.1063187,-1.5714449,2.4176185,-0.06584828,0.099972665,-0.119018055,0.023384321,-0.01041067,-0.0806468,-0.4405331,0.076614454,-9.308657,0.8224646,47.71017,-1.1595396,-1.8563058,-3.3095503,-0.090760514,-0.120473444,-0.2381171,27.5,28.75,27.75,31.375,33.25,34.0
0.1400536,-1.035738,0.35603738,-0.5664504,0.018416308,0.04182071,-0.17602819,-0.37743393,-0.3275531,0.06001786,-3.078009,0.6234859,0.00018082543,-0.064373724,0.008905088,0.0014431088,0.011763999,0.00013112351,0.013823999,0.44331577,-1.4637836,2.0012963,-2.106282,-1.5714453,2.4174385,-0.06702218,0.101817444,-0.121174745,0.024249304,-0.010929916,-0.08074364,-0.36391866,0.076614454,-9.385271,0.83589023,47.686886,-1.2206426,-1.8523657,-3.4047828,-0.082366504,-0.12096538,-0.24086037,27.5,28.75,27.75,31.375,33.25,34.0
0.1420532,-1.5696837,0.17043014,-0.78258073,0.019320942,0.030121842,-0.16734557,-0.37755516,-0.3275252,0.0600383,-3.0780191,0.6234129,0.00023261271,-0.06551161,0.009836738,0.00088690093,0.012988857,-0.0014147724,0.008969313,0.443171,-1.463651,2.0010922,-2.1062343,-1.5714692,2.417247,-0.06946194,0.10436571,-0.12299711,0.02544564,-0.01137224,-0.07832698,-0.38307226,0.15322891,-9.461885,0.80456203,47.741516,-1.1444514,-1.9216621,-3.3873672,-0.086387366,-0.10525413,-0.3083579,27.5,28.75,27.75,31.375,33.25,34.0
0.1440541,-1.7523735,0.037845064,-0.76314366,-0.0014025182,0.038759153,-0.17167713,-0.37769416,-0.3275359,0.060062,-3.078056,0.6233623,0.000223844,-0.06624669,0.009944137,0.0014309909,0.012110257,-0.0014781199,0.009165578,0.4430505,-1.4634355,2.0007808,-2.10615,-1.5714453,2.4170904,-0.07084185,0.10441924,-0.12460566,0.026677381,-0.01055268,-0.07990435,-0.4596867,0.1340753,-9.385271,0.7665104,47.74331,-1.1345776,-1.8068665,-3.3645444,-0.10201844,-0.15263212,-0.31798035,27.5,28.75,27.75,31.375,33.25,34.0
0.1460539,-2.1956933,-0.84742427,-0.7981101,-0.015052326,0.04849143,-0.16235791,-0.37782863,-0.3274759,0.06004274,-3.0779636,0.6234006,0.00020596395,-0.06764729,0.010076263,0.002090287,0.012199932,-7.874633e-05,0.00972897,0.4428582,-1.4632196,2.0005758,-2.1061018,-1.5715054,2.416934,-0.07184395,0.10521662,-0.12713017,0.02717275,-0.011244474,-0.08146639,-0.61291564,0.19153614,-9.481039,0.8224646,47.71286,-1.1775812,-1.7439197,-3.3276727,-0.08376217,-0.12606181,-0.313306,27.5,28.75,27.75,31.375,33.25,34.0
0.14805444,-2.2199056,-1.0352461,-0.89409673,-0.019926138,0.063538715,-0.17199957,-0.37794352,-0.3274685,0.06004206,-3.0779333,0.6233182,0.00014045993,-0.068603344,0.010559039,0.0018655208,0.013253594,-0.0005599466,0.008257684,0.4427499,-1.4629914,2.0003006,-2.105994,-1.5715178,2.4167783,-0.073070996,0.10713119,-0.12892608,0.027941111,-0.011997855,-0.08121879,-0.59376204,0.21068975,-9.595961,0.8247004,47.723602,-1.1841253,-1.7513103,-3.336561,-0.088109106,-0.124141365,-0.3263318,27.5,28.75,27.75,31.375,33.25,34.0
0.15005362,-2.0965924,-0.80507624,-1.0934705,-0.028981086,0.071933985,-0.16840081,-0.37810647,-0.3274456,0.06005099,-3.0779238,0.6233151,0.00014939535,-0.069898784,0.010859778,0.0013877659,0.013864054,-0.0015365229,0.009096439,0.44256923,-1.4627507,2.0000007,-2.1059334,-1.5715297,2.4165971,-0.07465981,0.11028381,-0.13145466,0.028456008,-0.012138247,-0.08364426,-0.59376204,0.17238252,-9.615114,0.77545905,47.728977,-1.1230783,-1.5620289,-3.3458939,-0.09783505,-0.14988482,-0.35196203,27.5,28.75,27.75,31.375,33.25,34.0
0.1520542,-2.179178,-0.57448536,-0.69657546,-0.029221255,0.06965258,-0.170692,-0.3782342,-0.32742304,0.060046427,-3.0778885,0.62327117,0.00015196126,-0.070534006,0.010808736,0.0010152209,0.014461757,-0.0019842244,0.0075965626,0.4424372,-1.4625343,1.9997615,-2.1058857,-1.571566,2.4164424,-0.07486528,0.112431526,-0.1330108,0.028522993,-0.012492056,-0.082347624,-0.57460845,0.24899697,-9.576807,0.82694155,47.73256,-1.185508,-1.7627884,-3.297605,-0.09628998,-0.13583675,-0.3590584,27.5,28.75,27.75,31.375,33.25,34.0
0.15405373,-1.8199073,-0.76460993,-0.7224691,-0.013365592,0.073162414,-0.17404588,-0.3783975,-0.32740593,0.06008209,-3.0778859,0.6232325,0.0002554336,-0.07243701,0.012179927,-0.00069376203,0.015500591,-0.005058045,0.005462312,0.44229174,-1.4623407,1.9994496,-2.1058142,-1.5716141,2.4162734,-0.079346396,0.11778061,-0.13498907,0.028365225,-0.012118611,-0.08469385,-0.4405331,0.2681506,-9.615114,0.78217715,47.71554,-0.9817697,-1.7895691,-3.3410945,-0.083168924,-0.14115444,-0.38013747,27.5,28.75,27.75,31.375,33.25,34.0
0.15605332,-2.0526454,-1.0441139,-0.7447691,0.0008039403,0.048639875,-0.17151915,-0.37856042,-0.3273898,0.060092133,-3.0779111,0.623175,0.00031305818,-0.07337326,0.0114891855,0.0012312884,0.014638889,-0.00067661545,0.013455532,0.44212413,-1.4621141,1.9991735,-2.1058023,-1.5716261,2.416067,-0.078105904,0.1155873,-0.13696194,0.028196165,-0.01322159,-0.09144398,-0.4213795,0.30645782,-9.595961,0.8179876,47.711063,-1.1225214,-1.7072608,-3.4292676,-0.08261291,-0.13180266,-0.35179165,27.5,28.75,27.75,31.375,33.25,34.0
0.15805395,-1.9869691,-0.6673091,-0.6522384,-0.0042780135,0.041846454,-0.17078848,-0.37869632,-0.32735154,0.06006188,-3.0778327,0.6231592,0.00023723149,-0.07386181,0.012743773,-0.001147141,0.01620502,-0.0050246087,0.012762761,0.4419552,-1.4618368,1.9989227,-2.1057422,-1.5716618,2.4158983,-0.08114699,0.12032771,-0.13668567,0.027769905,-0.0127886,-0.09379144,-0.4405331,0.19153613,-9.557653,0.8224646,47.701214,-1.0492687,-1.8779206,-3.359508,-0.060913026,-0.14583197,-0.32944813,27.5,28.75,27.75,31.375,33.25,34.0
0.1600533,-1.8704661,-0.3989512,-0.58016974,-0.009643887,0.03505394,-0.16678634,-0.3788565,-0.32734373,0.060087852,-3.077879,0.6229738,0.00034960773,-0.076727614,0.012567434,0.0010658159,0.0147624295,-9.292167e-05,0.01730143,0.44182244,-1.4616333,1.9986328,-2.1057184,-1.5716985,2.4156442,-0.08278472,0.119843945,-0.1412307,0.02771438,-0.013602425,-0.09996442,-0.40222588,0.24899697,-9.500193,0.7978386,47.721813,-0.8147734,-1.6878455,-3.2107763,-0.043962996,-0.13470724,-0.27827477,27.5,28.75,27.75,31.375,33.25,34.0
0.1620538,-1.3931638,-0.28785303,-0.6531881,-0.010051644,0.038662784,-0.17058466,-0.37900645,-0.3273082,0.06007426,-3.07781,0.622975,0.00033183943,-0.07693952,0.012774589,0.00028715935,0.015429762,-0.0018945393,0.022489661,0.44165435,-1.4613689,1.9983581,-2.1056588,-1.5717462,2.4154859,-0.08342834,0.1220364,-0.14201236,0.02820292,-0.013445991,-0.10579534,-0.34476504,0.22984336,-9.385271,0.8090337,47.675243,-0.946053,-1.7836239,-3.3051093,-0.046638113,-0.1363653,-0.20928237,27.5,28.75,27.75,31.375,33.25,34.0
0.16405347,-0.7395738,-0.30508542,-0.4103434,-0.0014886976,0.045456707,-0.17472526,-0.37916902,-0.3272847,0.060080726,-3.0778506,0.6229051,0.00032226325,-0.07865217,0.013389484,0.00028573265,0.015909027,-0.0017737773,0.02523418,0.44144958,-1.4611406,1.9980825,-2.1056225,-1.5717224,2.4152324,-0.08572575,0.124270834,-0.14461024,0.028657574,-0.013939178,-0.11083469,-0.3256114,0.1340753,-9.289503,0.82022345,47.66271,-0.8834361,-1.800437,-3.3293695,-0.041587353,-0.15167148,-0.14392808,27.5,28.75,27.75,31.375,33.25,34.0
0.16605414,-0.78909194,0.09273365,-0.50465685,0.0009960996,0.038062703,-0.17252487,-0.37933007,-0.327269,0.06010092,-3.0778444,0.6227687,0.0004083076,-0.08052088,0.012990912,0.0010404486,0.014876327,-0.0007732313,0.027203977,0.44131714,-1.4609123,1.9977702,-2.1055624,-1.5717825,2.415016,-0.086939044,0.12624972,-0.1487339,0.029442353,-0.01344016,-0.114016734,-0.28730422,0.11492168,-9.270349,0.7866488,47.660015,-0.8321236,-1.8308923,-3.214614,-0.03299885,-0.14294472,-0.08664964,27.5,28.75,27.75,31.375,33.25,34.0
0.16805367,-1.0803261,-0.106943585,-0.4780378,0.016081396,0.023155645,-0.16762696,-0.37953237,-0.3272325,0.06012571,-3.077862,0.6227719,0.00047535697,-0.07976561,0.013753398,-0.0013046564,0.01749812,-0.005745895,0.026605608,0.44107702,-1.4606714,1.9974359,-2.1055143,-1.5717944,2.4147758,-0.087476775,0.13026856,-0.14804213,0.030344274,-0.013681129,-0.11395628,-0.19153613,0.019153614,-9.289502,0.82022345,47.699425,-0.8632778,-1.7847717,-3.3236399,-0.018827407,-0.15356848,-0.057852924,27.5,28.75,27.75,31.375,33.25,34.0
0.17005348,-0.9422755,0.012142608,-0.3857274,0.013263536,0.029554801,-0.16551843,-0.37969038,-0.32721278,0.06011266,-3.077853,0.6226588,0.00043926368,-0.081356615,0.0150474375,-0.0006828708,0.017239096,-0.0051121935,0.020669626,0.44090763,-1.4603842,1.997137,-2.1054657,-1.5718063,2.4145372,-0.09123577,0.12989686,-0.14930809,0.031297665,-0.0137228845,-0.11177836,-0.26815057,0.0,-9.289502,0.7732232,47.70032,-0.6329101,-1.8407806,-3.2622805,-0.0153752975,-0.17591533,-0.06437138,27.5,28.75,27.75,31.375,33.25,34.0
0.17205375,-0.69158244,0.11760583,-0.28619653,0.011940289,0.036621124,-0.16900738,-0.37985852,-0.32718593,0.060114093,-3.0777946,0.6226095,0.00042157515,-0.08152736,0.014933344,-0.0019979512,0.019234166,-0.007929816,0.017257262,0.44073996,-1.4600949,1.9967889,-2.105358,-1.571854,2.4143465,-0.090723224,0.13424465,-0.15140401,0.03244517,-0.014332056,-0.10784997,-0.38307226,0.05746084,-9.251195,0.8537928,47.701214,-0.78523475,-2.0920484,-3.3326564,-0.009653111,-0.1459811,-0.0757526,27.5,28.75,27.75,31.375,33.25,34.0
0.17405356,-1.1299157,0.058157355,-0.30139074,0.014368274,0.025948465,-0.16429073,-0.38001332,-0.3271407,0.060125694,-3.0777788,0.6225912,0.00044398144,-0.08343181,0.01665418,-0.0015609825,0.019298779,-0.007927135,0.008471752,0.44053435,-1.4599035,1.9965366,-2.1052973,-1.5718783,2.4141316,-0.095540516,0.1344592,-0.15298337,0.033835232,-0.014392381,-0.103881106,-0.28730422,0.076614454,-9.212888,0.78888994,47.705692,-0.633466,-1.8895385,-3.3282943,-0.019310066,-0.16049543,-0.121123925,27.5,28.75,27.75,31.375,33.25,34.0
0.17605408,-0.73001814,0.17481662,-0.21106197,0.009405033,0.03999747,-0.17254546,-0.38017312,-0.3271058,0.060102303,-3.0777063,0.62259597,0.0003586155,-0.08284805,0.015357503,-0.0015919853,0.019980296,-0.008599336,0.008268013,0.4403436,-1.4595912,1.9962252,-2.105213,-1.5719026,2.4139533,-0.09232665,0.136044,-0.1550126,0.035179008,-0.014732908,-0.100460544,-0.24899697,0.038307227,-9.232041,0.8090337,47.66987,-0.76471865,-1.9500208,-3.3004935,-0.011705991,-0.17950156,-0.1778971,27.5,28.75,27.75,31.375,33.25,34.0
0.17805383,-0.98892087,0.1723253,-0.17103231,0.0065755993,0.026112467,-0.16734982,-0.3803611,-0.32708776,0.060121592,-3.0777085,0.62250185,0.00044699074,-0.08397518,0.015275034,-0.0013833109,0.019640079,-0.009127052,0.0046078158,0.44017512,-1.4593271,1.9958776,-2.1051648,-1.5719503,2.413726,-0.09347845,0.13796824,-0.15796562,0.03653472,-0.014200886,-0.097952254,-0.24899697,0.05746084,-9.021352,0.82022345,47.684196,-0.7489722,-1.8923199,-3.2922487,-0.027760155,-0.17983189,-0.22705173,27.5,28.75,27.75,31.375,33.25,34.0
0.18005326,-1.0215251,-0.0018701343,-0.20944697,0.019086339,0.018521857,-0.1689593,-0.38054824,-0.32704765,0.06012946,-3.0776722,0.622534,0.0004805039,-0.0840795,0.015536927,-0.0012234929,0.02028915,-0.009445726,0.0029574388,0.439959,-1.4590639,1.9955543,-2.1051047,-1.571987,2.4135349,-0.09370178,0.13799414,-0.15867862,0.037783775,-0.014653697,-0.096524216,-0.28730422,0.17238252,-8.963891,0.83365434,47.695843,-0.81758845,-1.8448442,-3.3011036,-0.04132092,-0.18039905,-0.2500649,27.5,28.75,27.75,31.375,33.25,34.0
0.18205374,-0.27983624,0.3853891,-0.082985595,0.020134514,0.031272944,-0.17794196,-0.38069177,-0.32703248,0.060116366,-3.0776372,0.62248975,0.0003865036,-0.08385529,0.015549679,-0.0013599662,0.021054897,-0.011746722,0.000633073,0.43980312,-1.4587758,1.995243,-2.105008,-1.5719866,2.413356,-0.09367526,0.1391391,-0.16033839,0.0407069,-0.014371749,-0.09417262,-0.3256114,0.095768064,-9.11712,0.842603,47.71554,-0.8569368,-1.8038944,-3.38241,-0.07074321,-0.17041089,-0.3244396,27.5,28.75,27.75,31.375,33.25,34.0
0.18405321,-0.47154403,0.15105656,-0.3370293,0.028897626,0.013638599,-0.17016615,-0.38084626,-0.3269964,0.06010689,-3.0775883,0.6224391,0.0003578131,-0.084756374,0.015191153,-0.0010693908,0.021356475,-0.012045843,0.0017159281,0.43962324,-1.4585116,1.9949554,-2.1049354,-1.5720228,2.413151,-0.09365333,0.14114794,-0.1636512,0.04240299,-0.014529568,-0.09523078,-0.22984336,0.1340753,-9.097966,0.90750587,47.7245,-0.91676104,-1.8348527,-3.2743816,-0.10772592,-0.20940426,-0.33783823,27.5,28.75,27.75,31.375,33.25,34.0
0.18605411,-1.0472981,-0.3998684,-0.49824566,0.027517632,-0.005382764,-0.14985573,-0.38103688,-0.32693863,0.060103554,-3.0774713,0.62243587,0.0003971522,-0.08503094,0.015131068,-0.0022609103,0.022504088,-0.013662079,-0.0008515152,0.43941924,-1.458211,1.9946083,-2.10484,-1.572131,2.4129603,-0.09349177,0.1445323,-0.1646003,0.041911162,-0.014890057,-0.0924991,-0.076614454,0.21068975,-9.11712,0.84484416,47.699425,-1.0182818,-1.7676191,-3.393188,-0.096449874,-0.19260666,-0.4330626,27.5,28.75,27.75,31.375,33.25,34.0
0.18805364,-0.24365021,-0.10975796,-0.26603138,-0.0036583834,0.018253384,-0.1711707,-0.38119364,-0.32693356,0.060094576,-3.0774682,0.62243444,0.00026179463,-0.08614844,0.015508765,-6.749024e-05,0.021846598,-0.010582898,-8.031538e-05,0.43923888,-1.4579009,1.9942602,-2.1047313,-1.5720829,2.4127796,-0.09464652,0.1413763,-0.1666551,0.044056978,-0.015616252,-0.09442222,-0.05746084,0.2681506,-9.097966,0.87393653,47.691364,-1.0278409,-1.7984493,-3.3193989,-0.13904782,-0.1928447,-0.45942777,27.5,28.75,27.75,31.375,33.25,34.0
0.190054,-0.5714021,-0.34483925,-0.5672891,-0.0069349264,0.004120368,-0.17210215,-0.3813735,-0.3268899,0.06008274,-3.0774002,0.6224758,0.00023188899,-0.08676661,0.015965087,-0.00051452423,0.02307052,-0.012020167,0.0022295667,0.4390227,-1.4576002,1.9939374,-2.1046593,-1.5721191,2.4125981,-0.09564966,0.14355333,-0.16839883,0.0454348,-0.016125867,-0.09773232,0.038307227,0.17238252,-9.193734,0.8403672,47.691364,-1.0386167,-1.8267337,-3.2690132,-0.15467115,-0.19817054,-0.47139406,27.5,28.75,27.75,31.375,33.25,34.0
0.19205403,-0.08864244,-0.9014495,-0.8323907,0.007743943,-0.0050399182,-0.16279411,-0.3815501,-0.32685938,0.060100205,-3.0773635,0.6223878,0.00024494756,-0.08760659,0.016406734,-0.00020874114,0.024636222,-0.0130355535,0.009597611,0.43884236,-1.4573362,1.9935769,-2.1045377,-1.5721678,2.4123678,-0.09649575,0.14510027,-0.17157716,0.048633255,-0.017125826,-0.105942436,0.076614454,0.22984336,-9.270349,0.8493211,47.71823,-0.99200284,-1.6743673,-3.3821912,-0.20769641,-0.19546744,-0.4287749,27.5,28.75,27.75,31.375,33.25,34.0
0.19405389,-0.09628287,-0.4927481,-0.9116997,-0.00591491,-0.013772695,-0.16595702,-0.38173348,-0.32679373,0.060086176,-3.0772715,0.62228954,0.00023053838,-0.087323,0.017142447,-0.0015246288,0.02492452,-0.015746888,0.012877782,0.43861386,-1.4570366,1.993255,-2.1044428,-1.5722512,2.41209,-0.09814888,0.14660102,-0.17019345,0.04830165,-0.016251346,-0.11087732,0.076614454,0.24899697,-9.346964,0.7463667,47.73077,-0.96525013,-1.7296314,-3.4056783,-0.24626355,-0.20657882,-0.40667975,27.4375,28.75,27.75,31.375,33.25,34.0
0.19605339,-0.22115238,-0.9167596,-1.038467,-0.0015064179,-0.013669588,-0.16576225,-0.38191175,-0.32677913,0.060088146,-3.077256,0.62216544,0.00020871221,-0.0893804,0.016157193,-0.00040184238,0.022790369,-0.01156667,0.02290972,0.4384457,-1.4567246,1.9928826,-2.104348,-1.5722755,2.4118466,-0.09815548,0.14740571,-0.17311005,0.04569946,-0.016125167,-0.12091325,0.076614454,0.30645782,-9.404425,0.86945957,47.729877,-1.0317919,-1.7263215,-3.337832,-0.23990627,-0.19017443,-0.30937523,27.4375,28.75,27.75,31.375,33.25,34.0
0.19805375,-0.21237625,-0.85856503,-1.1880014,-0.022605762,0.00351529,-0.16338573,-0.38207585,-0.32675633,0.060076673,-3.0772383,0.62210107,7.759e-05,-0.08956553,0.015804367,-0.0011148602,0.023442801,-0.014055855,0.028430624,0.4382419,-1.4564121,1.9925345,-2.1042278,-1.5722507,2.4116051,-0.09790581,0.15060997,-0.17545694,0.0473621,-0.015681626,-0.126183,0.1340753,0.3256114,-9.500193,0.86945957,47.72629,-1.0783662,-1.8941972,-3.3572416,-0.25154835,-0.21049425,-0.24323255,27.4375,28.75,27.75,31.375,33.25,34.0
0.20005423,-0.67157537,-1.3861194,-1.3381838,-0.028070627,0.009199364,-0.16600232,-0.3822286,-0.32669657,0.060052153,-3.0771275,0.62200165,-3.6376885e-05,-0.09063337,0.017565861,-0.0029248889,0.025772857,-0.018451564,0.028657006,0.43803635,-1.4561111,1.9922236,-2.1040833,-1.5723113,2.411352,-0.101902395,0.15522136,-0.17687145,0.049116984,-0.015953539,-0.13040215,0.076614454,0.28730422,-9.634268,0.8784135,47.70211,-0.94635004,-1.6518468,-3.4150972,-0.29565808,-0.21551852,-0.1878236,27.4375,28.75,27.75,31.375,33.25,34.0
0.20205368,-0.46114522,-1.1207212,-1.4492198,-0.045021027,0.025716638,-0.17401274,-0.38242248,-0.32665798,0.060061477,-3.0770898,0.62191457,3.500393e-06,-0.09026871,0.016203212,-0.0021109395,0.024906123,-0.017186925,0.032329924,0.43783358,-1.4558238,1.9918641,-2.1039994,-1.5723709,2.4111,-0.09914166,0.15462928,-0.17821321,0.04952462,-0.015715031,-0.13131435,0.0,0.30645782,-9.787497,0.8717007,47.73525,-1.1490538,-1.7987655,-3.4281383,-0.32271177,-0.20839381,-0.15267573,27.4375,28.75,27.75,31.375,33.25,34.0
0.2040533,-1.010505,-1.3933171,-1.3142929,-0.04221819,0.021602603,-0.16508062,-0.3825985,-0.326637,0.060053416,-3.0770597,0.62170064,-5.6586327e-05,-0.09283189,0.01758086,-0.0030459785,0.024720259,-0.01836826,0.0248958,0.43766356,-1.455487,1.9914812,-2.1038802,-1.5724066,2.4108005,-0.1043461,0.1587522,-0.18051147,0.048685767,-0.015063684,-0.12908334,-0.13407528,0.2681506,-9.768343,0.7665104,47.709274,-0.9868563,-1.8443052,-3.417766,-0.3650126,-0.22970971,-0.1674543,27.4375,28.75,27.75,31.375,33.25,34.0
0.20605496,-1.081188,-1.0382986,-1.3759841,-0.042157914,0.032334,-0.1613862,-0.38278767,-0.32661745,0.06005565,-3.0770497,0.62168086,-8.833504e-05,-0.09291571,0.016150251,-0.003782083,0.024617396,-0.017704813,0.022669911,0.43746075,-1.4551744,1.9911097,-2.1037972,-1.5724066,2.4105868,-0.10156217,0.16168568,-0.18155912,0.046162594,-0.015260914,-0.124070935,-0.1340753,0.3256114,-9.653421,0.9186956,47.723602,-1.0981623,-1.9512154,-3.497427,-0.3592345,-0.26154283,-0.20859864,27.4375,28.75,27.75,31.375,33.25,34.0
0.20805348,-1.0959954,-1.086166,-1.6068385,-0.030400189,0.037995964,-0.15800852,-0.38298187,-0.32657552,0.060068358,-3.0770304,0.6216599,-0.000106606654,-0.09534333,0.015695069,-0.0029337273,0.02249995,-0.014231272,0.01658443,0.43722034,-1.4548986,1.9907497,-2.1036904,-1.572419,2.410336,-0.10306786,0.16305749,-0.18451169,0.043702006,-0.014827751,-0.11948961,-0.19153614,0.3256114,-9.730036,0.84484416,47.72808,-1.1886795,-1.9872148,-3.3591948,-0.3491695,-0.2502065,-0.27000466,27.4375,28.75,27.75,31.375,33.25,34.0
0.21005392,-1.4031982,-1.052861,-1.4456161,-0.03037691,0.042499505,-0.1628439,-0.3831693,-0.32654986,0.060048696,-3.0769622,0.62162787,-0.0001385372,-0.09758538,0.015181655,-0.0019478078,0.020806765,-0.010437817,0.014560439,0.43703985,-1.4545391,1.9903787,-2.1036193,-1.5724667,2.4101446,-0.10395646,0.16403157,-0.18739896,0.041455947,-0.014920054,-0.118350804,-0.2681506,0.3256114,-9.691729,0.88960326,47.72271,-1.1091102,-1.901972,-3.4101005,-0.34802243,-0.26903817,-0.28749585,27.4375,28.75,27.75,31.375,33.25,34.0
0.21205342,-1.2897735,-1.1447754,-1.4130751,-0.03203823,0.059390306,-0.16625388,-0.38333422,-0.3265025,0.060008418,-3.0768821,0.6214982,-0.00029931538,-0.098933935,0.016232956,-0.0023656127,0.020652793,-0.010056596,0.011776682,0.43682277,-1.454179,1.9900435,-2.1035001,-1.5724906,2.409857,-0.107007004,0.1651569,-0.18739828,0.039913125,-0.0149668185,-0.11861486,-0.30645782,0.30645782,-9.653421,0.84484416,47.703903,-0.9789676,-1.9108305,-3.5049555,-0.335957,-0.29463568,-0.32270008,27.4375,28.75,27.75,31.375,33.25,34.0
0.21405382,-1.7638049,-1.157668,-1.3577391,-0.02667466,0.059381098,-0.16376807,-0.38353378,-0.3264873,0.060030185,-3.076911,0.6214636,-0.0002551845,-0.09929038,0.014927023,-0.002534418,0.020951707,-0.008492829,0.01354522,0.4366199,-1.4539025,1.9896725,-2.1034415,-1.572491,2.409629,-0.10419532,0.16739683,-0.18914104,0.03812781,-0.015904458,-0.11756759,-0.38307226,0.3256114,-9.730036,0.8717007,47.694946,-1.2377667,-2.0560925,-3.5483956,-0.31251055,-0.2872854,-0.37326372,27.4375,28.75,27.75,31.375,33.25,34.0
0.21605359,-2.0007367,-1.2667521,-1.2114843,-0.032227255,0.078008085,-0.16403931,-0.3837415,-0.32647428,0.060050707,-3.0769012,0.62136775,-0.00022276594,-0.10235186,0.016506258,-0.0023985514,0.020604797,-0.0074659656,0.01027002,0.43643785,-1.4535787,1.9892405,-2.1033332,-1.5725273,2.4093888,-0.109659985,0.16962956,-0.19184974,0.037515674,-0.016037945,-0.11975472,-0.53630114,0.2681506,-9.710882,0.8784135,47.711063,-0.966346,-1.8251657,-3.4480953,-0.2937279,-0.29955322,-0.3857592,27.4375,28.75,27.75,31.375,33.25,34.0
0.21805789,-2.5818005,-1.064335,-1.0303724,-0.038160976,0.0813218,-0.16125143,-0.38395354,-0.3264258,0.06004201,-3.076852,0.62143296,-0.00020328315,-0.10358778,0.015688954,-0.001140964,0.020075865,-0.0036811675,0.011168692,0.43618652,-1.4532553,1.9888924,-2.103298,-1.572564,2.4091847,-0.10838777,0.16945654,-0.1943702,0.036551896,-0.0171697,-0.11937593,-0.5554548,0.17238252,-9.653421,0.91198283,47.696735,-1.1866884,-1.7867868,-3.5538507,-0.28561985,-0.29254767,-0.4083937,27.4375,28.75,27.75,31.375,33.25,34.0
0.22005774,-1.9262248,-0.6158838,-0.8160529,-0.025061285,0.09953663,-0.17161788,-0.3841718,-0.3264013,0.06005487,-3.0768733,0.6213191,-0.00017994524,-0.10501869,0.01609689,-0.0011540472,0.018718794,-0.0029421698,0.015254955,0.4359577,-1.4529315,1.9884862,-2.103227,-1.5725754,2.4088824,-0.11092118,0.17047958,-0.19520286,0.035096746,-0.016268969,-0.12599774,-0.63206923,0.15322891,-9.653421,0.90527004,47.679718,-1.0947134,-1.9036584,-3.5402527,-0.24792147,-0.33657673,-0.3623305,27.4375,28.75,27.75,31.375,33.25,34.0
0.22205795,-2.1076326,-0.3489892,-0.79634184,0.005047767,0.09138065,-0.1675612,-0.38435587,-0.3263693,0.060034662,-3.0768254,0.62124825,-0.00024906176,-0.10737951,0.015917478,-1.9290914e-05,0.016900953,0.0009290206,0.02084768,0.4357531,-1.4525841,1.9881266,-2.1031435,-1.5725993,2.40864,-0.11256761,0.17088231,-0.19783933,0.033032767,-0.016288914,-0.13323376,-0.59376204,0.095768064,-9.481039,0.8224646,47.72092,-0.96116126,-1.706282,-3.4798086,-0.22697207,-0.34026068,-0.3122731,27.4375,28.75,27.75,31.375,33.25,34.0
0.22405761,-1.8058355,0.12688392,-0.88676393,0.031228755,0.08090932,-0.16753374,-0.3845808,-0.32634333,0.06003245,-3.0768452,0.621134,-0.00019605867,-0.10984881,0.016035518,0.001490826,0.015021036,0.0052330587,0.025289277,0.43552434,-1.452237,1.9877423,-2.103132,-1.5726231,2.4083376,-0.11477238,0.17032537,-0.2003643,0.031399284,-0.016418675,-0.13987853,-0.53630114,0.076614454,-9.385271,0.90527004,47.672558,-1.0029509,-1.6526669,-3.4568815,-0.19837046,-0.34362334,-0.2498893,27.4375,28.75,27.75,31.375,33.25,34.0
0.22605805,-1.6609682,0.36536828,-0.640864,0.049938858,0.06691566,-0.16246761,-0.38484168,-0.32633197,0.06007183,-3.076876,0.621041,-4.7201047e-05,-0.11216489,0.01632492,0.0024542927,0.014642855,0.007447184,0.030333752,0.4353077,-1.4518892,1.9872507,-2.103072,-1.5726713,2.4080594,-0.11684121,0.17154893,-0.20405188,0.031673163,-0.017016754,-0.14698932,-0.68953013,0.076614454,-9.346964,0.85155696,47.68062,-0.83802843,-1.6806769,-3.4034328,-0.17548893,-0.3620487,-0.17267582,27.4375,28.75,27.75,31.375,33.25,34.0
0.22805746,-1.5710726,0.73269284,-0.5316196,0.047815084,0.065411724,-0.16867489,-0.38504237,-0.3262708,0.06003393,-3.0768127,0.62098885,-0.000107013984,-0.11357224,0.016744513,0.0023578447,0.015805412,0.007878071,0.03184842,0.43504342,-1.451529,1.9869279,-2.1030362,-1.572708,2.4077709,-0.117931485,0.17384669,-0.20650706,0.03191906,-0.018272288,-0.14958754,-0.80445176,-0.05746084,-9.32781,0.85826975,47.694946,-0.8615618,-1.5316622,-3.4192243,-0.1272136,-0.37507716,-0.11637744,27.4375,28.75,27.75,31.375,33.25,34.0
0.23005338,-1.3222642,0.91724205,-0.8700819,0.04580576,0.074606106,-0.1676405,-0.38529494,-0.32623824,0.06005819,-3.0768049,0.6208552,-2.3808763e-05,-0.11426781,0.017112112,0.0020874292,0.016116928,0.0074750166,0.02697412,0.43480292,-1.4511691,1.9864491,-2.1029403,-1.5727681,2.4074483,-0.119059175,0.1752257,-0.20751016,0.032035526,-0.018377174,-0.1458404,-0.7852981,-0.019153614,-9.346964,0.9321212,47.72271,-0.862783,-1.5914447,-3.4846284,-0.09408608,-0.38536152,-0.09825425,27.4375,28.75,27.75,31.375,33.25,34.0
0.23205297,-1.3660294,0.5148651,-0.71227264,0.051843412,0.07156846,-0.17228313,-0.3855163,-0.3261978,0.06006897,-3.076797,0.6207218,5.9162194e-05,-0.11463017,0.017226666,0.0024259668,0.016901938,0.0069447346,0.022555036,0.43457514,-1.4508575,1.9860657,-2.1028912,-1.5728282,2.4071386,-0.11918731,0.17585562,-0.209541,0.03424678,-0.018854937,-0.14154783,-0.61291564,-0.095768064,-9.346964,0.8560339,47.71465,-0.87548035,-1.4803865,-3.4013243,-0.078277685,-0.37623,-0.15643853,27.4375,28.75,27.75,31.375,33.25,34.0
0.23405243,-1.7892419,-0.05187919,-0.8745077,0.03419156,0.067967534,-0.158662,-0.38575462,-0.32615185,0.06006972,-3.076759,0.6207737,6.464152e-05,-0.11545052,0.017321488,0.0024896062,0.018752422,0.005913602,0.017572941,0.434299,-1.4504974,1.9856457,-2.1028187,-1.572853,2.4069,-0.11915919,0.17836356,-0.21319538,0.0371149,-0.0200948,-0.13653192,-0.6512228,-0.05746084,-9.308656,0.800085,47.723602,-0.8972211,-1.5118032,-3.2547388,-0.07279971,-0.4004047,-0.21279141,27.4375,28.75,27.75,31.375,33.25,34.0
0.23605247,-1.3704791,0.11201467,-0.9713354,0.020568507,0.07629407,-0.16694233,-0.38596648,-0.32613707,0.06007934,-3.0767539,0.62064,2.591398e-05,-0.116067864,0.016943468,0.0018075509,0.020146215,0.004122326,0.013833238,0.43409538,-1.4501365,1.9851907,-2.1026866,-1.5728649,2.4066138,-0.11857457,0.18232788,-0.21646483,0.038637776,-0.020607904,-0.13220327,-0.6703764,-0.05746084,-9.404425,0.8605109,47.70032,-1.0320337,-1.6489291,-3.3323126,-0.080505446,-0.39584887,-0.27673185,27.4375,28.75,27.75,31.375,33.25,34.0
0.23805277,-1.7700689,-0.56649774,-1.4016144,0.03147127,0.056857295,-0.14862989,-0.38619933,-0.32610118,0.06008316,-3.0767114,0.6206729,0.00010592256,-0.11645301,0.018272858,-0.000106505475,0.022717953,-0.0013157267,0.007847041,0.43386623,-1.4497876,1.984784,-2.1026495,-1.5729245,2.406411,-0.12127057,0.1871211,-0.21815366,0.04154431,-0.02064517,-0.12891254,-0.4213795,0.1340753,-9.519346,0.9254084,47.72002,-0.858636,-1.8537266,-3.306551,-0.08890362,-0.37934232,-0.3309241,27.4375,28.75,27.75,31.375,33.25,34.0
0.24005215,-1.022093,-0.62018305,-1.1203444,4.9076836e-05,0.05514683,-0.16027005,-0.38644287,-0.32604483,0.06007381,-3.076658,0.62054724,9.7976146e-05,-0.11586895,0.019170623,-0.0016056909,0.025274375,-0.004097802,0.004584417,0.43359056,-1.4493917,1.9843415,-2.1025536,-1.572985,2.406064,-0.12157328,0.18911666,-0.21715266,0.042144578,-0.021796959,-0.12594849,-0.2681506,0.19153613,-9.461885,0.8784135,47.737934,-1.0433277,-1.783853,-3.3538518,-0.08956912,-0.40215942,-0.39484286,27.4375,28.75,27.75,31.375,33.25,34.0
0.24205229,-0.9988071,-1.4141638,-0.9325187,-0.023090383,0.040993214,-0.16113345,-0.38668534,-0.32599607,0.06008214,-3.0765831,0.6206681,0.00018163526,-0.1179872,0.019102227,-6.572115e-05,0.024478879,0.00083671644,0.0021349338,0.43333808,-1.4490442,1.9839209,-2.1024945,-1.5730575,2.405897,-0.1222842,0.18838732,-0.21953708,0.040440794,-0.02315491,-0.12420443,-0.30645782,0.28730422,-9.346964,0.90750587,47.756744,-0.9041709,-1.744764,-3.3647785,-0.04486873,-0.40610546,-0.47945017,27.4375,28.75,27.75,31.375,33.25,34.0
0.24405222,-0.65699023,-1.8404449,-1.2597647,-0.01983328,0.023029538,-0.16418037,-0.3869226,-0.3259861,0.060080376,-3.076599,0.6205349,0.00018659192,-0.11728357,0.019983938,-0.0009217765,0.02634554,-0.0018793859,0.0037737812,0.43312207,-1.4486371,1.983456,-2.1024334,-1.5730695,2.405596,-0.12285576,0.18901323,-0.2187662,0.042282954,-0.023709647,-0.12641396,-0.11492168,0.24899697,-9.385271,0.9410752,47.694946,-0.90937483,-1.7421947,-3.5385113,-0.034985658,-0.3758034,-0.5114136,27.4375,28.75,27.75,31.375,33.25,34.0
0.24605231,-0.5457618,-1.6793697,-1.0311078,-0.03107898,0.008945422,-0.16498908,-0.38716128,-0.3258969,0.060077783,-3.0764368,0.62065005,0.00017917342,-0.1180037,0.01985365,-0.0006153814,0.026243903,-0.0019776013,0.0119461175,0.43282187,-1.448277,1.983024,-2.1022775,-1.5731777,2.4053888,-0.12320894,0.19010352,-0.22101316,0.04344283,-0.023607993,-0.13493691,-0.05746084,0.34476504,-9.423578,0.900793,47.728977,-1.0042586,-1.8264524,-3.5834193,-0.032519065,-0.38375235,-0.49723178,27.4375,28.75,27.75,31.375,33.25,34.0
0.2480526,-0.23463176,-1.7099593,-0.93790793,-0.026452634,0.014776482,-0.1601945,-0.38742363,-0.32586107,0.060083948,-3.0764341,0.62049335,0.0002632992,-0.119387195,0.020924645,-0.0012175865,0.027281063,-0.003442111,0.01690351,0.43256855,-1.447881,1.9825562,-2.1022298,-1.5732378,2.4050384,-0.12606496,0.19286126,-0.22300924,0.04441201,-0.023951493,-0.14274868,0.0,0.4213795,-9.32781,0.8985519,47.729877,-0.8084152,-1.7967113,-3.5170693,-0.036678676,-0.38128647,-0.4161129,27.4375,28.75,27.75,31.375,33.25,34.0
0.25005165,0.14165032,-1.1181134,-0.8712021,-0.019977553,0.0052244123,-0.17437403,-0.38766524,-0.3258298,0.0600958,-3.07641,0.62044084,0.00034681195,-0.119315036,0.019647134,-0.0009951544,0.027307222,-0.0029832572,0.031884797,0.43234184,-1.4475213,1.9821132,-2.1021698,-1.5732979,2.4047823,-0.12338236,0.19414508,-0.22510067,0.044767275,-0.02419248,-0.1550461,0.21068975,0.45968673,-9.251195,0.9254084,47.7245,-1.0837659,-1.6927257,-3.4292612,-0.010854508,-0.3669935,-0.28981835,27.4375,28.75,27.75,31.375,33.25,34.0
0.25205174,0.013546413,-1.3361613,-0.84993905,-0.01178726,-0.008235169,-0.16526584,-0.38791448,-0.32579854,0.060095746,-3.0764015,0.6203594,0.0003237503,-0.120938934,0.020248232,-0.000847562,0.02761967,-0.002962053,0.036965687,0.43207705,-1.4471134,1.981635,-2.102074,-1.5733103,2.404468,-0.12558778,0.19606107,-0.22787127,0.045706496,-0.024509445,-0.16232938,0.17238252,0.49799395,-9.270349,0.9321212,47.74868,-0.8854493,-1.6835058,-3.5062833,0.0020932904,-0.37087926,-0.20262395,27.4375,28.75,27.75,31.375,33.25,34.0
0.25405177,0.82045406,-0.7662513,-0.7510668,-0.022056816,0.00481843,-0.17422718,-0.38812461,-0.325726,0.06005734,-3.0762687,0.6202352,0.00024330718,-0.12197305,0.020493042,-0.00053873484,0.028169539,-0.0031803614,0.038699243,0.4318249,-1.4467056,1.9812392,-2.1019537,-1.5734061,2.4041557,-0.12655628,0.19746841,-0.23062459,0.047453303,-0.024949536,-0.16502565,0.1340753,0.49799395,-9.174581,0.8403672,47.71554,-1.0801266,-1.7520006,-3.461581,0.005595484,-0.37224895,-0.14724629,27.4375,28.75,27.75,31.375,33.25,34.0
0.25605193,0.15763235,-0.8878417,-0.984811,-0.009347883,-0.024022523,-0.1597865,-0.38837492,-0.32572109,0.060079727,-3.0763416,0.6200408,0.00024740203,-0.12261765,0.021168798,-0.0013292056,0.029383827,-0.0054245344,0.03405993,0.4315844,-1.4463214,1.9807357,-2.101857,-1.5733823,2.4037848,-0.12816004,0.20020187,-0.23228374,0.04893276,-0.025108058,-0.16198927,0.19153613,0.4213795,-9.193734,0.8717007,47.717335,-1.000624,-1.7721531,-3.401294,0.0008787378,-0.3709135,-0.13751803,27.4375,28.75,27.75,31.375,33.25,34.0
0.25805256,0.8211317,-0.649433,-0.7074546,-0.021790924,-0.008904161,-0.16777311,-0.38864124,-0.32565486,0.06007735,-3.0762417,0.6200046,0.00027281552,-0.124436006,0.020807747,0.0002477249,0.028373152,-0.004058265,0.027288467,0.431296,-1.445902,1.980244,-2.1017363,-1.5734781,2.403487,-0.12917256,0.20086421,-0.2373329,0.051649082,-0.024767432,-0.15622824,0.11492168,0.38307226,-9.193734,0.90750587,47.721813,-0.9662963,-1.7190945,-3.2956882,-0.013030248,-0.36647287,-0.19909373,27.4375,28.75,27.75,31.375,33.25,34.0
0.26005167,0.4107961,-0.7095347,-0.733429,-0.010585277,-0.018990958,-0.15811148,-0.388889,-0.32559502,0.0600705,-3.0761735,0.6199749,0.00030472665,-0.12551562,0.020893512,0.0010895097,0.029261932,-0.0043589403,0.02022125,0.43101984,-1.4455177,1.9798125,-2.1016634,-1.5735501,2.4032013,-0.12970823,0.20209214,-0.24152876,0.05526579,-0.025445636,-0.14969227,-0.019153614,0.2681506,-9.212888,0.8672237,47.72719,-0.96324384,-1.8099174,-3.216524,-0.037582804,-0.36737323,-0.28861147,27.4375,28.75,27.75,31.375,33.25,34.0
0.26205173,0.033687394,-0.46524552,-0.8836955,0.007031299,-0.007219635,-0.1598899,-0.38914788,-0.32557845,0.060074568,-3.076181,0.6199003,0.00028612273,-0.12590033,0.022306602,0.00036916404,0.031968094,-0.007316935,0.017368063,0.43076712,-1.4450859,1.979297,-2.1015666,-1.5735506,2.4029014,-0.13174169,0.20414852,-0.24299769,0.05849684,-0.026669677,-0.14886782,-0.038307227,0.30645782,-9.251195,0.8806493,47.701214,-0.9463502,-1.7661078,-3.149879,-0.063634366,-0.35768616,-0.32676348,27.4375,28.75,27.75,31.375,33.25,34.0
0.2640521,0.069759116,0.58519024,-0.74352455,0.003374164,0.021350838,-0.17391126,-0.3893558,-0.32553893,0.060074434,-3.0761046,0.6197316,0.00024209017,-0.12500647,0.0228434,-9.37169e-05,0.033181638,-0.010392318,0.016935363,0.43056312,-1.4447148,1.9788431,-2.1013978,-1.5736226,2.4026022,-0.13200152,0.20432976,-0.24288975,0.061492853,-0.02649828,-0.14869422,-0.038307227,0.2681506,-9.270349,0.92764956,47.694054,-1.0275142,-1.618906,-3.2532167,-0.10315409,-0.3351546,-0.36059615,27.4375,28.75,27.75,31.375,33.25,34.0
0.26605228,-0.5515134,0.20927498,-0.7184214,0.004925872,0.03568029,-0.17122835,-0.38961542,-0.32549036,0.060076155,-3.0760303,0.619735,0.0001795926,-0.12521985,0.023866566,-0.0009438683,0.03506948,-0.014062027,0.015580491,0.43027455,-1.4442828,1.9783162,-2.101229,-1.5736588,2.4023256,-0.13383986,0.20681268,-0.2445568,0.06478618,-0.026698139,-0.1491747,0.0,0.13407528,-9.346964,0.8873621,47.707485,-0.93375283,-1.7177277,-3.3049726,-0.15069315,-0.33367866,-0.36309147,27.4375,28.75,27.75,31.375,33.25,34.0
0.2680523,-1.2295506,-0.5103795,-0.48461643,-0.0013207063,0.046657152,-0.1632802,-0.3898736,-0.32544777,0.06007974,-3.0759954,0.61968666,0.0001781822,-0.12485889,0.024378294,-0.0013036769,0.036555246,-0.01581335,0.019588206,0.42999855,-1.4438752,1.977826,-2.1011207,-1.5736951,2.4020243,-0.13395062,0.20735438,-0.24486005,0.06673594,-0.027335009,-0.15329061,-0.15322891,0.05746084,-9.270349,0.86945957,47.694946,-0.9402783,-1.634284,-3.449408,-0.18810853,-0.33812982,-0.36448035,27.4375,28.75,27.75,31.375,33.25,34.0
0.27005246,-1.3934113,-0.2089609,-0.43562713,0.0057539036,0.059829567,-0.16165817,-0.39010867,-0.3253897,0.06005954,-3.0759213,0.619572,9.731692e-05,-0.1257239,0.025041513,-0.0018380661,0.037428558,-0.017425437,0.02589093,0.42972177,-1.4434553,1.9773711,-2.1009886,-1.5737432,2.4016857,-0.1357102,0.20972458,-0.24665251,0.06794784,-0.02749949,-0.16134886,-0.34476504,-0.038307227,-9.174581,0.9298854,47.707485,-0.8262561,-1.5753894,-3.4496593,-0.22456792,-0.32085904,-0.3097803,27.4375,28.75,27.75,31.375,33.25,34.0
0.2720524,-1.2612092,0.34887475,-0.5192866,0.028210877,0.06360443,-0.17099763,-0.39036548,-0.32535747,0.06004214,-3.075867,0.61938226,5.773368e-05,-0.12590213,0.025158728,-0.0031057606,0.038728368,-0.019440275,0.03508791,0.42948216,-1.4429752,1.9768447,-2.1008694,-1.5738033,2.401335,-0.13572404,0.21299398,-0.24749136,0.06784594,-0.027884927,-0.17055553,-0.4405331,-0.19153613,-9.289502,0.9030289,47.699425,-1.087806,-1.6339759,-3.601109,-0.26890022,-0.3152111,-0.2004261,27.4375,28.75,27.75,31.375,33.25,34.0
0.27405247,-1.5229347,0.4766981,-0.49214125,0.053965766,0.06196445,-0.15731321,-0.39059666,-0.32528713,0.060031828,-3.0758018,0.6191731,-1.26999485e-05,-0.12681866,0.024589412,-0.0036651618,0.03893926,-0.020884927,0.0399173,0.42919424,-1.4425905,1.9764007,-2.100713,-1.5738634,2.4009252,-0.1355966,0.216945,-0.25091642,0.06868655,-0.027518552,-0.17525418,-0.4405331,-0.28730422,-9.2703495,0.85155696,47.68599,-1.0442106,-1.8531744,-3.5493836,-0.28386098,-0.33387944,-0.11239266,27.4375,28.75,27.75,31.375,33.25,34.0
0.27605256,-1.5295683,0.74001163,-0.45165455,0.05812617,0.05843181,-0.16406831,-0.39087847,-0.32525268,0.06005382,-3.0757804,0.61918736,8.838415e-06,-0.12848021,0.024325566,-0.0025628617,0.038104076,-0.017327374,0.040795185,0.42890614,-1.4421712,1.9758495,-2.1005824,-1.5738877,2.400649,-0.13591655,0.21689303,-0.25317535,0.067401715,-0.028259126,-0.17644784,-0.5554548,-0.21068975,-9.212888,0.9186956,47.690468,-1.1918446,-1.7787726,-3.6400604,-0.29773012,-0.3192705,-0.067595795,27.4375,28.75,27.75,31.375,33.25,34.0
0.27805188,-1.3289278,0.62965477,-0.5566104,0.06741463,0.06730954,-0.15398717,-0.3911329,-0.32519913,0.0600287,-3.075694,0.61898017,-9.615048e-06,-0.13119413,0.024119908,-0.0019176642,0.03825476,-0.013201333,0.036116187,0.42865378,-1.4417033,1.9753569,-2.100475,-1.573984,2.4002788,-0.13650388,0.21935129,-0.25697407,0.06504914,-0.030137038,-0.17234363,-0.7086837,-0.15322891,-9.212888,0.94331104,47.679718,-1.0642588,-1.771003,-3.5478926,-0.2788557,-0.30261934,-0.08060524,27.4375,28.75,27.75,31.375,33.25,34.0
0.28005186,-1.7312529,0.17690875,-0.57999605,0.052962113,0.06795328,-0.15969796,-0.39137354,-0.3251426,0.060006168,-3.0755892,0.618908,-0.00013660175,-0.13409963,0.025272422,-0.0014977846,0.03843428,-0.0110072745,0.024937728,0.42837632,-1.4412467,1.9748544,-2.1002958,-1.5740327,2.39997,-0.14027798,0.22135828,-0.26010624,0.06426638,-0.03123158,-0.16492878,-0.842759,0.0,-9.212888,0.88289046,47.688675,-0.90570104,-1.9627883,-3.4122806,-0.2875116,-0.27099144,-0.1517838,27.4375,28.75,27.75,31.375,33.25,34.0
0.2820518,-1.5828761,-0.23937829,-0.6372064,0.009707277,0.09225057,-0.16682993,-0.39160436,-0.32509133,0.059990097,-3.0755055,0.6187967,-0.00020491962,-0.13481471,0.025182787,-0.0009971443,0.038479753,-0.009714544,0.01832425,0.42812476,-1.440828,1.9743875,-2.1001523,-1.5740927,2.39966,-0.14023247,0.22157463,-0.2616126,0.06440743,-0.031816766,-0.15826373,-0.8619126,0.11492168,-9.289502,0.8985519,47.701214,-1.0920192,-1.8528738,-3.3640273,-0.31842428,-0.2433725,-0.24179229,27.4375,28.75,27.75,31.375,33.25,34.0
0.28405166,-2.1986828,-1.3809357,-0.78288543,-0.035032466,0.09985261,-0.16294083,-0.3918887,-0.32501888,0.05999238,-3.0754035,0.6187392,-0.0001931476,-0.13737059,0.024396941,0.00030569892,0.036638062,-0.0036673036,0.014351977,0.42781267,-1.4403846,1.9738487,-2.0999982,-1.5741891,2.3993256,-0.1402606,0.22205867,-0.26431137,0.060348492,-0.032671075,-0.15431185,-0.9576807,0.19153613,-9.442732,0.87617236,47.70032,-1.0412009,-1.7423007,-3.4005039,-0.29373673,-0.23320115,-0.33106664,27.4375,28.75,27.75,31.375,33.25,34.0
0.2860527,-2.3981147,-2.1026917,-0.6395618,-0.07713281,0.12814598,-0.16346022,-0.3921515,-0.32497108,0.05997365,-3.0753016,0.6187026,-0.00023704066,-0.13860276,0.024742523,0.00050933403,0.037227243,-0.0023976865,0.0076006553,0.4275486,-1.439905,1.9733218,-2.0998662,-1.5742611,2.3990521,-0.14112608,0.22317365,-0.26607114,0.060088534,-0.033739194,-0.14841764,-1.0151415,0.28730422,-9.385271,0.9164598,47.693153,-1.1069103,-1.7054805,-3.4179597,-0.29146358,-0.19559455,-0.40474248,27.4375,28.75,27.75,31.375,33.25,34.0
0.2880522,-2.7036548,-2.0232828,-0.67536914,-0.08958572,0.13404584,-0.16718394,-0.39244637,-0.3249158,0.059992455,-3.0752473,0.6186908,-0.0002003572,-0.13949932,0.025052607,-0.00044890126,0.037829492,-0.0027536508,0.0063909157,0.42723623,-1.4394733,1.9727601,-2.0997236,-1.5743216,2.3987398,-0.14205605,0.22601275,-0.2668148,0.058550037,-0.034151543,-0.14813466,-1.0151415,0.2681506,-9.481039,0.90750587,47.71286,-1.0864048,-1.6621577,-3.4739523,-0.2926634,-0.1822421,-0.48261398,27.4375,28.75,27.75,31.375,33.25,34.0
0.29005232,-2.6281185,-1.7954348,-0.8838704,-0.0663503,0.13640387,-0.16006388,-0.39272708,-0.32486972,0.059979133,-3.075165,0.6186314,-0.00021365212,-0.14112385,0.024137063,-5.1834726e-05,0.035906855,0.00024387562,0.013033666,0.4269603,-1.4389812,1.9722093,-2.0996048,-1.5743932,2.3984377,-0.14192306,0.2275445,-0.26886645,0.055499088,-0.03368722,-0.15464275,-0.842759,0.3256114,-9.672575,0.88960326,47.707485,-1.1016883,-1.7867315,-3.5974917,-0.2533074,-0.15919867,-0.47587103,27.4375,28.75,27.75,31.375,33.25,34.0
0.29205236,-2.7002177,-1.7235992,-0.8175379,-0.052843027,0.124855764,-0.16792935,-0.39302483,-0.32482424,0.05996297,-3.0751293,0.6186362,-0.00019747825,-0.14259955,0.024039531,0.00028609033,0.033807997,0.003129828,0.02274153,0.42664784,-1.4384904,1.9716824,-2.099558,-1.5744289,2.3981333,-0.14329419,0.22767802,-0.2691228,0.05206529,-0.033018075,-0.16572379,-0.59376204,0.38307226,-9.481039,0.89631605,47.69763,-1.1461387,-1.6323314,-3.5801258,-0.20612234,-0.15765306,-0.41152245,27.4375,28.75,27.75,31.375,33.25,34.0
0.2940523,-1.5407714,-0.9632222,-0.88609475,-0.03506845,0.10867533,-0.16333924,-0.39331773,-0.32475537,0.05994845,-3.0750322,0.61847496,-0.00012581833,-0.14426868,0.023484332,0.00042979844,0.032119807,0.005169243,0.033895567,0.42635962,-1.4380106,1.971156,-2.0994751,-1.5745605,2.3977573,-0.14397167,0.22961989,-0.2711753,0.049540434,-0.0323791,-0.17755546,-0.4405331,0.38307226,-9.423578,0.9388393,47.68062,-1.0923989,-1.702683,-3.7215996,-0.1515462,-0.14646032,-0.30374664,27.4375,28.75,27.75,31.375,33.25,34.0
0.2960529,-0.8294306,-0.32971516,-0.8726509,-0.016823102,0.07433568,-0.17303951,-0.39359736,-0.32470793,0.059934784,-3.075014,0.6183151,-0.00014203523,-0.14521067,0.023575524,-7.956714e-05,0.032100473,0.0051397635,0.04010159,0.42605937,-1.4375427,1.9706405,-2.0993917,-1.5745963,2.3973598,-0.14480099,0.23184198,-0.27238333,0.04850132,-0.032384478,-0.18458875,-0.3256114,0.34476504,-9.461885,0.9298854,47.716442,-1.0801623,-1.7405918,-3.7469313,-0.12118617,-0.1332831,-0.1917399,27.4375,28.75,27.75,31.375,33.25,34.0
0.29805267,-0.30279452,-0.83451355,-0.7777669,-0.0013977919,0.042028606,-0.15981007,-0.39393112,-0.32468295,0.059952173,-3.0750196,0.61821926,-1.61162e-05,-0.14772032,0.023108348,0.0006438977,0.03086693,0.0069049667,0.039697804,0.42577118,-1.4370378,1.9700173,-2.0993316,-1.5746564,2.3970115,-0.14616421,0.23471446,-0.2773947,0.04849789,-0.03199546,-0.18554895,-0.22984336,0.22984336,-9.481039,0.9186956,47.70032,-1.1950257,-1.9183208,-3.6669347,-0.07903843,-0.11196261,-0.1436669,27.4375,28.75,27.75,31.375,33.25,34.0
0.30005166,0.16353379,-0.21359578,-0.9332078,-0.0036655746,0.0075210836,-0.16689463,-0.394203,-0.32460573,0.059914317,-3.0749161,0.61812395,-8.8273344e-05,-0.14911234,0.02250697,0.0014856308,0.030154048,0.008564578,0.03436991,0.42544723,-1.4365466,1.9695252,-2.0992243,-1.5747288,2.3966417,-0.14606304,0.23594618,-0.28093788,0.049002893,-0.032042768,-0.1801146,-0.05746084,0.19153613,-9.3661175,0.9612189,47.701214,-1.1917629,-1.8972528,-3.4757872,-0.054699384,-0.1039263,-0.17760117,27.4375,28.75,27.75,31.375,33.25,34.0
0.3020516,0.8199271,-0.16187498,-1.0925941,0.010795471,-0.024672499,-0.16446006,-0.39457238,-0.32455695,0.059943564,-3.074879,0.6182007,0.000116537965,-0.15181936,0.02382221,0.0018350143,0.029657206,0.008723998,0.0221648,0.42510936,-1.4360431,1.9688786,-2.0991757,-1.5748247,2.396357,-0.15087189,0.23814178,-0.2845792,0.050100885,-0.031623792,-0.17272137,-0.038307227,0.19153613,-9.481039,0.9768804,47.691364,-0.8812697,-1.9057982,-3.4442153,-0.022229992,-0.08681823,-0.2847985,27.4375,28.75,27.75,31.375,33.25,34.0
0.3040516,1.174825,-0.4871305,-1.0575454,0.0055781803,-0.026327942,-0.16376874,-0.3948363,-0.3245193,0.059923925,-3.0748587,0.6180623,7.139135e-05,-0.15153,0.023727255,0.0011533789,0.029933749,0.00519978,0.019576656,0.42483333,-1.4355748,1.9683751,-2.0990908,-1.574848,2.3959975,-0.151115,0.24041401,-0.2863293,0.052897017,-0.030423254,-0.17037976,0.076614454,0.1340753,-9.385271,0.86945957,47.709274,-0.9010855,-2.0675397,-3.3252494,0.0011286974,-0.07938703,-0.32930514,27.4375,28.75,27.75,31.375,33.25,34.0
0.30605268,0.58394724,-0.7721959,-0.94307417,0.0093161035,-0.032779787,-0.15980898,-0.3951525,-0.32447043,0.059930507,-3.0747817,0.6179901,9.475034e-05,-0.15135624,0.024594631,5.7566274e-05,0.03082348,0.0003172292,0.017397396,0.4245324,-1.4350593,1.9677418,-2.098934,-1.5749315,2.3956618,-0.15320726,0.24291405,-0.28756234,0.056418758,-0.02922618,-0.17029707,0.15322891,0.1340753,-9.423578,0.90527004,47.711964,-0.81391764,-2.07597,-3.4259787,-0.019691424,-0.08943393,-0.36062902,27.4375,28.75,27.75,31.375,33.25,34.0
0.3080528,0.7139628,-0.2643146,-0.97371286,-0.014904128,-0.015192351,-0.17560323,-0.39545417,-0.32441524,0.059934948,-3.074724,0.6179009,0.00015295556,-0.15262674,0.02394266,0.00013867703,0.029076032,0.00046319695,0.016010283,0.42423266,-1.4345914,1.9671782,-2.0988262,-1.5750154,2.3953142,-0.15392728,0.24524231,-0.2904139,0.056064554,-0.027704382,-0.16963491,0.21068975,0.19153613,-9.423578,0.9030289,47.705692,-0.8625637,-2.022535,-3.4094353,0.0048187943,-0.104768634,-0.41899234,27.4375,28.75,27.75,31.375,33.25,34.0
0.31005186,-0.09854064,-0.73525995,-1.0017308,-0.0351788,-0.017242115,-0.1669421,-0.3957435,-0.32436332,0.05991509,-3.0746422,0.61778206,8.026411e-05,-0.15221828,0.022732893,0.00029031577,0.028276097,-0.00078917434,0.02462282,0.4239333,-1.434064,1.9665917,-2.0986702,-1.5750746,2.3949516,-0.15200664,0.24633963,-0.29253185,0.057845306,-0.02650165,-0.17632928,0.2873042,0.19153613,-9.423578,0.9992599,47.701214,-0.93584466,-2.084047,-3.3943598,0.024033286,-0.09471261,-0.35744923,27.4375,28.75,27.75,31.375,33.25,34.0
0.31205195,-0.10429897,-1.1955584,-0.8029616,-0.03609509,-0.010441857,-0.1719561,-0.39604884,-0.32431078,0.059901025,-3.0745933,0.61770976,3.0675606e-06,-0.15090987,0.023845306,-0.0012086163,0.030131973,-0.006726755,0.03377619,0.42359647,-1.4335364,1.9659938,-2.0985253,-1.5750984,2.3945763,-0.1532733,0.2478795,-0.29184583,0.061732765,-0.02579364,-0.18675213,0.30645782,0.24899697,-9.481039,0.9612189,47.694946,-0.8559077,-2.0191364,-3.3662863,0.01440284,-0.09477742,-0.28079176,27.4375,28.75,27.75,31.375,33.25,34.0
0.31405208,0.23234123,-0.9989951,-0.9045803,-0.03818898,0.0053477613,-0.17197707,-0.39636633,-0.32428387,0.059925288,-3.0746126,0.61747664,9.858762e-05,-0.15190998,0.023741832,-0.00026120042,0.029014716,-0.006284061,0.04281182,0.42332053,-1.4330575,1.9653715,-2.098417,-1.575158,2.3941526,-0.1542988,0.24792111,-0.29457405,0.06349005,-0.024989463,-0.19681731,0.05746084,0.2681506,-9.519346,0.9298854,47.670765,-0.9675853,-1.9161413,-3.527327,0.00548131,-0.10186604,-0.16125874,27.4375,28.75,27.75,31.375,33.25,34.0
0.3160521,-0.15002754,-0.77403194,-0.94320357,-0.024394535,0.005742418,-0.16737126,-0.39666906,-0.3242216,0.059908416,-3.0745497,0.6173852,4.6613044e-05,-0.15264921,0.023820948,-0.00060078397,0.028700696,-0.0070968755,0.045610756,0.4229843,-1.4325417,1.964796,-2.0982854,-1.5752057,2.3937678,-0.15529335,0.24983385,-0.2961381,0.06371674,-0.024404863,-0.20061111,0.095768064,0.19153613,-9.615114,0.9365982,47.684196,-0.94152963,-1.8999248,-3.5029097,0.037712343,-0.11687488,-0.064914845,27.4375,28.75,27.75,31.375,33.25,34.0
0.31805226,-0.31241977,-0.7588727,-0.88973135,-0.019831356,0.006263983,-0.1713852,-0.39699185,-0.32419604,0.059923228,-3.074562,0.6171813,0.00014262025,-0.15320364,0.024656363,0.00047764837,0.028716508,-0.0075319186,0.039188117,0.42270756,-1.4320388,1.9641727,-2.0982,-1.5752662,2.3933625,-0.157262,0.24847223,-0.29800326,0.0673486,-0.024220113,-0.1961591,0.05746084,0.17238252,-9.710882,0.900793,47.66271,-0.8822974,-1.8420477,-3.4983807,-0.002926528,-0.10851008,-0.08038046,27.4375,28.75,27.75,31.375,33.25,34.0
0.3200523,-0.81079066,-0.82980937,-0.6271143,-0.015103829,0.0058411653,-0.16237111,-0.3972901,-0.32415923,0.059920155,-3.07455,0.61714447,6.161295e-05,-0.15360406,0.024990233,0.00030099895,0.029658854,-0.009934653,0.029993663,0.42238316,-1.4315351,1.9635757,-2.0980551,-1.5752538,2.393017,-0.15814851,0.250484,-0.30075714,0.07070205,-0.024081783,-0.18784967,-0.38307226,0.1340753,-9.500193,0.9455522,47.6421,-0.8997488,-1.7623727,-3.4879112,-0.02330533,-0.11945262,-0.14477201,27.4375,28.75,27.75,31.375,33.25,34.0
0.3220522,-0.6481406,-0.0111826975,-0.6075501,0.007929945,0.011190124,-0.17114075,-0.39757568,-0.32409757,0.059893727,-3.0744514,0.61699367,3.748617e-05,-0.15373439,0.025358435,-0.0001990172,0.030471636,-0.013240783,0.0217288,0.4220947,-1.4310193,1.963024,-2.0979345,-1.5753497,2.3926475,-0.1592015,0.2527327,-0.3030568,0.074109636,-0.023463612,-0.18063821,-0.32561144,0.05746084,-9.404425,1.0126908,47.683304,-0.8169874,-1.8660052,-3.5111609,-0.049011104,-0.14217219,-0.25232124,27.4375,28.75,27.75,31.375,33.25,34.0
0.32405227,-0.08343491,0.60096717,-0.72526824,0.025362333,0.034131814,-0.1748919,-0.39789203,-0.32406476,0.05990891,-3.0744467,0.61701554,3.137031e-05,-0.15315196,0.024956765,0.00016273653,0.030812535,-0.015070183,0.014923972,0.4217713,-1.4305283,1.9624017,-2.0978014,-1.5753497,2.3923388,-0.15812245,0.25286657,-0.30497313,0.07772958,-0.023003222,-0.17275639,-0.1340753,0.0,-9.557653,0.947788,47.68599,-0.8811181,-1.8102944,-3.529282,-0.073287696,-0.16319445,-0.3626079,27.4375,28.75,27.75,31.375,33.25,34.0
0.32605228,-1.0753857,0.41564682,-0.4690662,0.032086533,0.02883428,-0.16646157,-0.39819753,-0.32401383,0.05991599,-3.0743868,0.6169089,4.3454973e-05,-0.15275016,0.025813157,-0.0006590671,0.03266293,-0.019428829,0.01015522,0.4214707,-1.4300365,1.9617919,-2.0976446,-1.5754212,2.3919797,-0.1592809,0.25480622,-0.30635157,0.081900924,-0.022904236,-0.1691458,-0.28730422,-0.11492168,-9.442732,0.9612189,47.658226,-0.87780726,-1.8049988,-3.475573,-0.14401273,-0.16854563,-0.43406957,27.4375,28.75,27.75,31.375,33.25,34.0
0.32805282,-1.1929648,0.6379304,-0.48974746,0.03776359,0.030860959,-0.17494,-0.3984987,-0.3239664,0.059922144,-3.0743313,0.6169363,-6.825916e-05,-0.15400983,0.02665058,-0.00040231287,0.033575255,-0.021115478,0.009256016,0.42113397,-1.4295325,1.9611562,-2.097428,-1.5754217,2.3916676,-0.16159594,0.25670126,-0.3100462,0.08559925,-0.02307663,-0.17055772,-0.4213795,-0.019153614,-9.385271,0.9455522,47.66271,-0.83375317,-1.8499355,-3.499186,-0.1952551,-0.18759999,-0.50643194,27.4375,28.75,27.75,31.375,33.25,34.0
0.33005175,-1.2667749,0.60520226,-0.6231238,0.038375594,0.04408205,-0.17325392,-0.39879826,-0.3239109,0.059904296,-3.0742452,0.6168318,-0.0001425318,-0.15247284,0.026725788,-0.0020711054,0.03651142,-0.025903054,0.021930948,0.42082298,-1.428993,1.9605459,-2.0972593,-1.5754818,2.3913028,-0.15980358,0.25946495,-0.31012794,0.08841932,-0.02386072,-0.18143472,-0.34476504,0.05746084,-9.3661175,0.9298854,47.69763,-1.0601959,-1.8597289,-3.530621,-0.24057959,-0.18458176,-0.4527103,27.4375,28.75,27.75,31.375,33.25,34.0
0.3320526,-1.3234303,0.0056151566,-0.61552715,0.02528874,0.0630511,-0.18020111,-0.39911807,-0.32387242,0.059934705,-3.0741906,0.6166974,-0.0001286589,-0.1539301,0.026617575,-0.0024273237,0.038167212,-0.026909413,0.03565548,0.42053488,-1.4284883,1.9598511,-2.0970314,-1.5755543,2.3909383,-0.15989488,0.26381415,-0.31478435,0.09023733,-0.025035458,-0.19524153,-0.3256114,-0.095768064,-9.385271,0.9164598,47.705692,-1.0579296,-1.9676555,-3.5816758,-0.28029054,-0.18697113,-0.32481292,27.4375,28.75,27.75,31.375,33.25,34.0
0.33405256,-1.2020355,0.13632785,-0.1730546,-0.014887408,0.0806184,-0.19186157,-0.39942583,-0.3238371,0.059930507,-3.074185,0.616537,-0.00018328261,-0.15495075,0.025783546,-0.0012989199,0.037319522,-0.02370863,0.04601176,0.42022362,-1.4279609,1.9592284,-2.0968878,-1.5755666,2.390528,-0.1586658,0.26357344,-0.3170359,0.08940856,-0.025629668,-0.20436364,-0.26815057,0.0,-9.308656,0.89631605,47.692257,-1.1763523,-1.9882336,-3.4354672,-0.32877818,-0.19731873,-0.20958732,27.4375,28.75,27.75,31.375,33.25,34.0
0.33605182,-1.498105,-0.36334726,-0.16746645,-0.018295523,0.07178693,-0.1816526,-0.39975175,-0.3237678,0.05991453,-3.0741136,0.6163897,-0.00021318036,-0.15729362,0.026265996,-0.00063916197,0.036721587,-0.019804431,0.045707073,0.41987425,-1.42741,1.9586061,-2.0967453,-1.5756387,2.3900962,-0.16060877,0.26419306,-0.31876925,0.08668614,-0.026718792,-0.20599328,-0.57460845,0.095768064,-9.193734,1.0395473,47.672558,-1.0586979,-1.8431301,-3.4428499,-0.34246096,-0.19684929,-0.14879055,27.4375,28.75,27.75,31.375,33.25,34.0
0.33805203,-1.3081003,-0.451319,-0.24851774,-0.018272636,0.07417088,-0.17800213,-0.40006799,-0.32370728,0.05991866,-3.0740309,0.61626077,-0.00025804597,-0.15981472,0.027197272,-0.0005052176,0.03616818,-0.016395576,0.03695901,0.41954958,-1.4268823,1.9579476,-2.0965312,-1.5757111,2.389702,-0.163648,0.26542646,-0.31981146,0.08316586,-0.027618343,-0.20027627,-0.63206923,0.038307227,-9.289502,0.8806493,47.693153,-1.0103217,-1.8570828,-3.4247766,-0.30997473,-0.20758048,-0.19081551,27.4375,28.75,27.75,31.375,33.25,34.0
0.34005204,-1.2743567,-0.29344785,-0.12708865,-0.025835777,0.070530556,-0.18734466,-0.40038866,-0.32365155,0.059914697,-3.0739853,0.61615884,-0.0002770724,-0.16194193,0.025749592,0.0018721652,0.033179723,-0.008124757,0.031382717,0.41921452,-1.426356,1.9573253,-2.0963895,-1.5757593,2.3893096,-0.16215791,0.26325175,-0.32189316,0.078671806,-0.02826176,-0.19320376,-0.4405331,-0.019153614,-9.32781,0.9410752,47.68599,-1.2147506,-1.7796929,-3.522592,-0.30559438,-0.18238616,-0.2799707,27.4375,28.75,27.75,31.375,33.25,34.0
0.342052,-1.5319912,-0.7792954,-0.39406425,-0.019920321,0.062264837,-0.1712354,-0.40071622,-0.32361153,0.05992163,-3.0739677,0.6160207,-0.00025288065,-0.16416074,0.024350906,0.0029227454,0.029698169,-0.001774223,0.02827915,0.4189026,-1.4258289,1.9566797,-2.0962594,-1.575807,2.388914,-0.16163388,0.2635353,-0.32340392,0.07268079,-0.027676076,-0.18957724,-0.47884035,-0.019153614,-9.3661175,0.9992599,47.721813,-1.1916833,-1.6238508,-3.6107836,-0.22126508,-0.19683033,-0.3255592,27.4375,28.75,27.75,31.375,33.25,34.0
0.34405234,-1.2968532,-0.57053465,-0.42949602,-0.015536898,0.052988183,-0.18018718,-0.4010642,-0.32356563,0.059945606,-3.0739374,0.6159562,-0.00015935696,-0.16624837,0.023628186,0.0035287272,0.027724648,0.00078459264,0.026910258,0.41857904,-1.4253135,1.9560078,-2.0961287,-1.5758785,2.3885546,-0.16234109,0.26554883,-0.32682037,0.07092249,-0.02692142,-0.18891823,-0.40222588,0.095768064,-9.442732,0.9410752,47.689575,-1.3731377,-1.5865805,-3.5489192,-0.17294404,-0.23423971,-0.3593672,27.4375,28.75,27.75,31.375,33.25,34.0
0.3460525,-0.7983171,-0.32613316,-0.26167032,-0.014190461,0.06261989,-0.19363636,-0.40135577,-0.32352138,0.059914593,-3.0738745,0.61586547,-0.00030666753,-0.16843411,0.02402641,0.0030996753,0.02738374,0.0022553068,0.027207403,0.41826692,-1.4247496,1.955398,-2.0959618,-1.5758914,2.3881943,-0.16449068,0.26861984,-0.32892606,0.068452775,-0.02725348,-0.19135833,-0.21068975,0.114921674,-9.5385,0.95897776,47.699425,-1.2606462,-1.579654,-3.430801,-0.15926844,-0.21916902,-0.38411984,27.4375,28.75,27.75,31.375,33.25,34.0
0.34805265,-1.2314507,-0.047760393,-0.6241849,-0.016047552,0.041764643,-0.18862748,-0.4017323,-0.32344636,0.05993616,-3.0738032,0.61574835,-0.00016139915,-0.17111239,0.024194952,0.0035850997,0.026688937,0.005409219,0.034298025,0.41790676,-1.4242091,1.9547027,-2.0958307,-1.5760235,2.3877707,-0.16635112,0.270806,-0.33217108,0.06626671,-0.027944734,-0.20030448,-0.15322891,0.05746084,-9.576807,0.89631605,47.691364,-1.192632,-1.7063174,-3.467639,-0.08788109,-0.21956117,-0.34848374,27.4375,28.75,27.75,31.375,33.25,34.0
0.35005164,-0.46496862,-0.0055328715,-0.77201104,-0.0040532686,0.04351319,-0.19161205,-0.4020817,-0.323404,0.059939917,-3.0738044,0.6156077,-0.00016264016,-0.17271768,0.025495637,0.0026167135,0.027799007,0.003307591,0.04202264,0.41755855,-1.4236455,1.9540209,-2.0956986,-1.5760473,2.3873348,-0.16971876,0.2744897,-0.33452,0.06722971,-0.028159037,-0.2113942,-0.11492168,0.11492168,-9.557653,0.8918391,47.677036,-1.1542457,-1.796911,-3.3973618,-0.081562735,-0.23384498,-0.21540952,27.4375,28.75,27.75,31.375,33.25,34.0
0.35205188,-0.8194894,-0.50518847,-0.93912673,-0.00712899,0.03088967,-0.18186252,-0.40241084,-0.32337084,0.059951037,-3.0738003,0.61543024,-0.00012586627,-0.17213988,0.02520071,0.0006856987,0.02943878,-0.00063481735,0.047993753,0.41725963,-1.4231167,1.9533619,-2.095567,-1.576095,2.386926,-0.16858767,0.278885,-0.33542037,0.067958735,-0.028082777,-0.21623407,-0.19153613,0.2681506,-9.691729,0.9947882,47.70211,-1.201239,-1.9166248,-3.3752432,-0.063700855,-0.25412822,-0.118434586,27.4375,28.75,27.75,31.375,33.25,34.0
0.354052,-1.2641003,-0.9500931,-0.91762495,-0.025542151,0.03294857,-0.178349,-0.4027457,-0.323315,0.059957698,-3.073779,0.6152752,-8.226946e-05,-0.17347859,0.026416449,0.0011731642,0.030259252,-0.0003975761,0.042843133,0.41692322,-1.4225996,1.9527286,-2.0954459,-1.5761555,2.3864958,-0.17117648,0.27919927,-0.33743468,0.06976962,-0.028924307,-0.21366712,-0.3256114,0.22984336,-9.557653,0.8560339,47.699425,-1.0174828,-1.9554863,-3.5049329,-0.053016894,-0.24058095,-0.094609514,27.4375,28.75,27.75,31.375,33.25,34.0
0.35605195,-0.7969501,-1.1631877,-0.9391318,-0.04069892,0.045458477,-0.17704383,-0.40310213,-0.3232408,0.059970077,-3.0736985,0.61518586,-7.591113e-05,-0.1731703,0.027516188,-0.0001218006,0.031813864,-0.004012336,0.0324509,0.4165512,-1.4220465,1.9520224,-2.0952423,-1.5762395,2.3860788,-0.17278497,0.28114894,-0.33725315,0.071594484,-0.02885888,-0.20488267,-0.24899697,0.30645782,-9.615114,0.9701675,47.694946,-1.003216,-1.8601949,-3.6844628,-0.05500512,-0.25136232,-0.18510953,27.4375,28.75,27.75,31.375,33.25,34.0
0.35805216,-0.5543853,-1.1877003,-0.9789853,-0.053352278,0.054821417,-0.18796095,-0.40344927,-0.32318652,0.05996587,-3.0736384,0.6150812,-6.533553e-05,-0.17271692,0.028172776,-0.000865989,0.0323781,-0.0067631183,0.022700738,0.41621548,-1.4214697,1.9513401,-2.0950983,-1.576311,2.385686,-0.17383482,0.28194818,-0.3370056,0.07331551,-0.028236337,-0.19618526,-0.3256114,0.34476504,-9.787497,0.9791215,47.657326,-1.001621,-1.8881977,-3.785983,-0.041302793,-0.27099803,-0.30231988,27.4375,28.75,27.75,31.375,33.25,34.0
0.3600523,-0.83723557,-1.4969779,-0.86757153,-0.049454056,0.053671185,-0.18636836,-0.40379456,-0.32313037,0.059954107,-3.0735774,0.6150543,-0.00011850523,-0.17525522,0.028464887,0.0008602975,0.030541271,-0.0040389155,0.012055226,0.41585535,-1.4208809,1.9506582,-2.0949419,-1.5763472,2.3853173,-0.17661935,0.28189567,-0.34131667,0.07447152,-0.027650075,-0.18832412,-0.30645782,0.2681506,-9.710882,0.95226496,47.64927,-1.0018818,-1.804494,-3.7313652,-0.025881978,-0.29156065,-0.41761053,27.4375,28.75,27.75,31.375,33.25,34.0
0.36205214,-0.6792731,-1.0020046,-0.94315743,-0.04613805,0.03826447,-0.18796507,-0.40415847,-0.32307914,0.05996979,-3.0735426,0.61494833,-1.9593745e-05,-0.17477863,0.028311327,0.00064893987,0.032707836,-0.007117473,0.011376087,0.4155204,-1.4203283,1.9499625,-2.0948207,-1.5764312,2.384921,-0.17528847,0.2839119,-0.34433857,0.07915835,-0.028378284,-0.18631004,-0.22984336,0.22984336,-9.615114,0.9634547,47.682407,-1.0040796,-1.7246628,-3.707383,-0.050088458,-0.29289186,-0.5094849,27.4375,28.75,27.75,31.375,33.25,34.0
0.36405224,-0.2096876,-0.6549545,-1.2787968,-0.02552679,0.033004403,-0.19013901,-0.40452257,-0.32302266,0.05998712,-3.0734994,0.6149149,2.8850518e-05,-0.17686862,0.028070185,0.002632379,0.031509694,-0.0035257405,0.016817594,0.41516098,-1.4197755,1.9492549,-2.0946648,-1.5764917,2.3845468,-0.17608869,0.2833318,-0.34858295,0.08015688,-0.028770447,-0.19254827,-0.22984336,0.17238252,-9.653421,1.0238806,47.694946,-0.9284768,-1.6318734,-3.6358166,-0.05795977,-0.30447644,-0.51176846,27.4375,28.75,27.75,31.375,33.25,34.0
0.3660523,-0.50351864,-0.26883924,-0.74006385,-0.012892751,0.031234272,-0.1859796,-0.40485153,-0.3229868,0.059976693,-3.0735028,0.6146973,-3.390269e-05,-0.1776494,0.02895719,0.0035050348,0.032713607,-0.006206084,0.027027532,0.41483656,-1.4191989,1.9485849,-2.0945184,-1.5765036,2.3840864,-0.1781037,0.28409266,-0.35309267,0.086761214,-0.028852887,-0.20477083,-0.05746084,0.13407528,-9.557653,0.95002913,47.713753,-0.9099869,-1.6223615,-3.4044285,-0.09139943,-0.31478226,-0.42433104,27.4375,28.75,27.75,31.375,33.25,34.0
0.3680525,-0.11568311,0.45762265,-0.9726555,0.008614093,0.019653229,-0.18546514,-0.40524778,-0.32292268,0.06002494,-3.0734775,0.6146462,0.00010947934,-0.17767909,0.029479465,0.0020618455,0.034803636,-0.011152217,0.039282672,0.41445306,-1.4186687,1.9478291,-2.0943496,-1.5765876,2.3836746,-0.17888726,0.28843123,-0.3556962,0.09028964,-0.028820876,-0.21781075,-0.11492168,-0.038307227,-9.557653,1.005978,47.686886,-0.9249941,-1.6542933,-3.3572927,-0.16537449,-0.3346408,-0.27357954,27.4375,28.75,27.75,31.375,33.25,34.0
0.37005177,-0.14028011,0.54273146,-1.1782284,0.0528082,0.007982464,-0.17872427,-0.40560496,-0.32288653,0.060036752,-3.0734887,0.61449087,9.101988e-05,-0.1760967,0.029963642,-0.0005165703,0.037986938,-0.017896166,0.04547119,0.41410604,-1.418091,1.9471015,-2.0941813,-1.5765995,2.3832295,-0.17814937,0.292694,-0.35550573,0.093247555,-0.02904932,-0.22326003,-0.24899697,0.0,-9.576807,0.9097417,47.672558,-0.9836981,-1.916507,-3.5443683,-0.18592799,-0.34771186,-0.16306935,27.4375,28.75,27.75,31.375,33.25,34.0
0.37205175,-0.4732068,0.7619764,-0.7602567,0.033826772,0.018961085,-0.18052652,-0.40594742,-0.32283565,0.060032308,-3.0734293,0.6143065,6.929137e-05,-0.17554738,0.029465625,-0.00082318945,0.039480347,-0.020030648,0.04193936,0.41378325,-1.4175016,1.9463948,-2.0940006,-1.5766715,2.3827996,-0.17628703,0.29447895,-0.35767356,0.09619511,-0.029558158,-0.21786065,-0.19153613,0.0,-9.576807,0.98135734,47.701214,-1.048289,-1.8426071,-3.5412402,-0.23819885,-0.368276,-0.15743022,27.4375,28.75,27.75,31.375,33.25,34.0
0.37405163,-0.8080546,-0.069941625,-0.34295937,0.023167718,0.04690078,-0.17847477,-0.40629464,-0.32274905,0.06002689,-3.073339,0.6141565,2.824678e-05,-0.17492516,0.029905615,-0.0016356796,0.041705385,-0.022131465,0.034857508,0.41339993,-1.4169365,1.9457129,-2.093797,-1.5767559,2.3823347,-0.17562579,0.29577103,-0.35782823,0.09789846,-0.030747125,-0.21010846,-0.2873042,-0.11492168,-9.3661175,0.9701675,47.685097,-1.1410359,-1.8663807,-3.608627,-0.28834897,-0.36525285,-0.256404,27.4375,28.75,27.75,31.375,33.25,34.0
0.3760519,-0.51819,0.00036870522,-0.42015857,0.020593088,0.056950912,-0.18588237,-0.40665132,-0.32272273,0.06005477,-3.0733318,0.6140413,5.5126922e-05,-0.1765149,0.030643228,-0.0019185576,0.042943593,-0.021835797,0.028255258,0.41308838,-1.4163715,1.9449571,-2.0936053,-1.5767926,2.3819525,-0.17725492,0.298353,-0.36033416,0.09806746,-0.031995375,-0.20512673,-0.2681506,-0.05746084,-9.232041,0.9858343,47.678825,-1.3888106,-1.7937708,-3.6601484,-0.30610764,-0.3670622,-0.33610472,27.4375,28.75,27.75,31.375,33.25,34.0
0.378052,-0.5781197,-0.48399842,-0.23115125,0.012512455,0.0649361,-0.18410446,-0.4070052,-0.32264045,0.060051292,-3.073249,0.61394644,-9.626066e-06,-0.17860192,0.030128917,-0.00040238342,0.042814374,-0.016929734,0.027008252,0.4126933,-1.415794,1.9442533,-2.0933902,-1.5768536,2.3815093,-0.17657633,0.29861876,-0.364,0.096916124,-0.033879828,-0.20318566,-0.114921674,0.038307227,-9.251195,0.9545008,47.65912,-1.3390586,-1.8448272,-3.5787783,-0.30066285,-0.345159,-0.398494,27.4375,28.75,27.75,31.375,33.25,34.0
0.38005173,-0.55676556,-0.18919007,-0.27694777,-0.001443731,0.035920426,-0.18930191,-0.40737352,-0.32257992,0.06007676,-3.0731838,0.61383355,8.59721e-05,-0.18280682,0.03004692,0.0016907289,0.040955875,-0.009446111,0.02918241,0.41235706,-1.4152416,1.9435204,-2.0932124,-1.5769619,2.3811114,-0.1787354,0.29937422,-0.369046,0.093550295,-0.03522435,-0.20750853,-0.019153614,0.05746084,-9.232041,1.0149267,47.693153,-1.2937386,-1.6520469,-3.4447756,-0.29114348,-0.33630562,-0.3985418,27.4375,28.75,27.75,31.375,33.25,34.0
