Tylouw/Master_Thesis_Code/training_data/batch_1/big_rod_t0.3/sample_26_session_1.csv
timestamp[s],tcp_force_x[N],tcp_force_y[N],tcp_force_z[N],tcp_force_rx[Nm?],tcp_force_ry[Nm?],tcp_force_rz[Nm?],tcp_pose_x[m],tcp_pose_y[m],tcp_pose_z[m],tcp_pose_rx[rot_vec_x],tcp_pose_ry[rot_vec_y],tcp_pose_rz[rot_vec_z],tcp_velo_x[m/s],tcp_velo_y[m/s],tcp_velo_z[m/s],tcp_velo_rx[rot_vec_x/s],tcp_velo_ry[rot_vec_y/s],tcp_velo_rz[rot_vec_z/s],q1[rad],q2[rad],q3[rad],q4[rad],q5[rad],q6[rad],qd1[rad/s],qd2[rad/s],qd3[rad/s],qd4[rad/s],qd5[rad/s],qd6[rad/s],tool_acc_x,tool_acc_y,tool_acc_z,current_of_whole_robot[A],voltage_of_whole_robot[V],current_J1[A],current_J2[A],current_J3[A],current_J4[A],current_J5[A],current_J6[A],temp_J1[C],temp_J2[C],temp_J3[C],temp_J4[C],temp_J5[C],temp_J6[C]
1.0469812e-06,-0.90157515,-0.84429467,0.07821273,-0.040717,0.021024588,-0.0028892397,-0.37287527,-0.32821968,0.059932366,-3.078457,0.6248228,-0.0002884895,0.0031550315,0.0015220428,-0.0044548097,0.0045363624,-0.00969005,-0.00014875253,0.4481742,-1.4708488,2.0095851,-2.107691,-1.5706857,2.4230676,-7.785316e-05,0.00442496,0.005090146,0.0011832332,0.00012404828,6.7963e-05,0.038307227,0.11492168,-9.021352,0.7150385,47.721813,-0.2192839,-2.8737462,-2.51659,-0.4916373,0.11205968,-0.010243068,27.5625,28.8125,27.8125,31.4375,33.375,34.125
0.002052554,-0.83170265,-1.0080556,-0.17860658,-0.02854729,0.020069353,-0.0005199906,-0.37287846,-0.32821733,0.05992796,-3.078496,0.6248498,-0.0003547067,-0.00034056848,-0.00016826477,-0.0030882517,-0.0004324716,0.0005921049,-0.00014329368,0.44812617,-1.4708489,2.009596,-2.1076949,-1.5706257,2.4230313,-7.6902856e-05,0.004516216,0.0043055457,-0.009543224,0.000120720375,6.7118286e-05,0.05746084,0.15322891,-8.90643,0.78217715,47.73256,-0.17728971,-2.845488,-2.3324747,-0.48335606,0.12745467,-0.0143118445,27.5625,28.8125,27.8125,31.4375,33.375,34.125
0.004052142,-1.2577932,-0.9168161,-0.3484378,-0.017619075,0.010251716,0.003928285,-0.37288284,-0.32821062,0.059929315,-3.0784607,0.624823,-0.00028116786,-0.0015345948,-0.00074503245,-0.002417347,-0.002288126,0.004439167,-0.00014041644,0.44815025,-1.470849,2.009596,-2.1077077,-1.5706857,2.4230433,-7.597544e-05,0.0040558283,0.0040938677,-0.013142375,0.000117566255,6.6294284e-05,0.076614454,0.17238252,-8.90643,0.7016076,47.71554,-0.14928584,-3.0700192,-2.5550175,-0.36447525,0.11737171,-0.022035915,27.5625,28.8125,27.8125,31.4375,33.375,34.125
0.006052382,-0.72393364,-0.7365794,-0.47426724,0.00772878,0.003826359,0.0009906675,-0.37289053,-0.3282295,0.05992419,-3.078497,0.62485003,-0.0002601513,-0.0006908746,-0.0003359273,-0.0017480236,-0.0012508051,0.0023094122,-0.00013984146,0.4481623,-1.4708258,2.0095956,-2.107766,-1.5706614,2.4230676,-7.507011e-05,0.0024719303,0.0031872594,-0.008282939,0.00011457264,6.549033e-05,0.019153614,0.13407528,-8.944737,0.7105615,47.71465,-0.15807,-2.9544737,-2.61057,-0.39697242,0.10441804,-0.011415165,27.5625,28.8125,27.8125,31.4375,33.375,34.125
0.008052509,-0.12876877,0.055124108,-0.7631521,0.031721916,-0.0158752,0.007553466,-0.37288323,-0.3282172,0.059912104,-3.0784595,0.6248233,-0.00028357442,-0.00017038445,-8.339499e-05,-0.0010605516,-0.00047252752,0.00071303523,-0.00013883632,0.4481623,-1.4708142,2.0096076,-2.107752,-1.5706857,2.4230556,-7.4186166e-05,0.0013144707,0.0019221191,-0.004084357,0.00011172804,6.470554e-05,0.038307227,0.076614454,-9.097966,0.72622824,47.713753,-0.12688233,-2.9042926,-2.463025,-0.43149105,0.10030282,-0.005577498,27.5625,28.8125,27.8125,31.4375,33.375,34.125
0.010052428,-0.18162028,0.3821793,-1.2411821,0.04494045,-0.02963123,0.006253801,-0.37288862,-0.32820052,0.059910998,-3.078417,0.62485296,-0.00026466482,0.00010991856,5.6490633e-05,-0.0006540258,-4.216525e-05,-0.00016697276,-0.0001392102,0.44815025,-1.4708145,2.0096076,-2.1077397,-1.5707215,2.4230676,-8.022187e-05,0.00065068563,0.0011716606,-0.001690514,0.00010902079,5.868548e-05,-0.095768064,0.076614454,-9.404425,0.6658024,47.716442,-0.59190166,-2.3838024,-2.9599352,-0.46249995,0.09021665,-0.08582647,27.5625,28.8125,27.8125,31.4375,33.375,34.125
0.012052536,-0.19696988,-0.37210315,-1.494108,0.025576182,-0.0031402407,-0.0018678699,-0.3728847,-0.32819223,0.059893217,-3.0783906,0.6248669,-0.0003124346,-9.31047e-05,-2.4049234e-05,-0.0036281773,0.002759734,-0.005997679,-0.00015163902,0.4481382,-1.4707878,2.009619,-2.1077397,-1.5707215,2.4230676,-0.000117863834,0.008915529,-0.0012062715,-0.0011084379,0.000106442036,3.604572e-05,0.076614454,-0.1340753,-9.404425,0.68818194,47.737934,-0.7855563,-2.4163585,-3.1040869,-0.46759114,0.102048144,-0.13192764,27.5625,28.8125,27.8125,31.4375,33.375,34.125
0.014052625,-0.94500697,-1.4123679,-1.483949,-0.010830108,0.01776545,0.0025664151,-0.37283272,-0.3281935,0.05983471,-3.0783796,0.6248296,-0.0005989291,-0.005196022,0.0024405243,-0.0044329707,0.0033459126,-0.007243407,-0.0060023894,0.44812286,-1.4707252,2.0096762,-2.1077034,-1.5706257,2.4230301,-0.0094019445,0.015901323,-0.007082846,-0.0008413765,0.000103982406,-0.0033927313,0.0,0.019153614,-9.595961,0.68818194,47.698532,-0.46460193,-3.0037923,-3.0093052,-0.45980918,0.09462858,-0.20144425,27.5625,28.8125,27.8125,31.4375,33.375,34.125
0.016052652,-1.8851358,-2.035064,-1.5038365,-0.051561262,0.04174338,-0.012325357,-0.37286595,-0.32818377,0.05984551,-3.0783453,0.62485677,-0.0005646404,-0.005936918,0.0026576074,-0.0037393244,0.0027866797,-0.0060877986,0.0005901498,0.44809857,-1.4706897,2.0096042,-2.1076672,-1.5706614,2.4230273,-0.010481908,0.015172834,-0.007944763,-0.00053609215,0.000101633705,-0.011064919,-0.36391866,0.21068975,-9.768343,0.7217513,47.739727,-0.43765217,-2.7891262,-2.9877334,-0.46697974,0.084290445,-0.123200744,27.5625,28.8125,27.8125,31.4375,33.375,34.125
0.01805239,-2.4155562,-2.4704213,-1.5091373,-0.07307618,0.08844903,-0.011485271,-0.37286535,-0.32816878,0.059833113,-3.078337,0.6248349,-0.0006216619,-0.0050442843,0.0026612938,-0.0038046588,0.0031917274,-0.0069195344,0.0028953522,0.4480628,-1.470678,2.009617,-2.1076553,-1.5706495,2.4229789,-0.009674327,0.01425083,-0.006986296,0.00035248406,9.9389064e-05,-0.012563526,-0.45968673,0.28730422,-9.864111,0.7642693,47.741516,-0.64182633,-2.5101182,-3.3263679,-0.48460692,0.113229625,-0.11274385,27.5625,28.8125,27.8125,31.4375,33.375,34.125
0.020052452,-2.8134778,-2.3704178,-1.5036145,-0.07504089,0.11356749,-0.02371647,-0.3728891,-0.32819706,0.059841152,-3.0783844,0.6248264,-0.0005600523,-0.005629083,0.0029797198,-0.0045423186,0.003924377,-0.008439278,0.000778435,0.4480863,-1.470641,2.009569,-2.1077025,-1.5706376,2.422991,-0.010805266,0.016760515,-0.008119332,0.0006632473,9.7241325e-05,-0.011576548,-0.5363012,0.28730422,-9.80665,0.74413085,47.713753,-0.64488286,-2.507244,-3.5172625,-0.48360625,0.11201377,-0.18171917,27.5625,28.8125,27.8125,31.4375,33.375,34.125
0.02205239,-2.4462097,-1.3619194,-1.4426274,-0.059742466,0.11781654,-0.038724545,-0.37289682,-0.328177,0.059832077,-3.0783556,0.62478256,-0.0006058777,-0.0080777155,0.0031547747,-0.0034240345,0.002742356,-0.006028439,-0.0011167865,0.4480496,-1.4706168,2.009555,-2.1076672,-1.5706495,2.4229307,-0.013371612,0.017668042,-0.011669451,0.00062062003,0.000109304696,-0.012245412,-0.49799395,0.21068975,-9.787497,0.7351769,47.713753,-0.6883717,-2.4594274,-3.484326,-0.47722262,0.10296464,-0.20729294,27.5625,28.8125,27.8125,31.4375,33.375,34.125
0.024052402,-2.6007884,-1.4465247,-1.730208,-0.024223395,0.0841938,-0.04652421,-0.37288067,-0.3281774,0.059803616,-3.0783067,0.62479156,-0.0006702753,-0.009507445,0.0032578707,-0.0034489152,0.002640628,-0.005838687,-0.00037394016,0.44807306,-1.4705682,2.009567,-2.1076672,-1.5706614,2.422966,-0.014870472,0.019899888,-0.014044389,0.0005481056,0.0001115341,-0.014485328,-0.6703765,0.22984336,-9.883265,0.7620334,47.717335,-0.7500945,-2.5379057,-3.3682919,-0.4743363,0.10535203,-0.21635476,27.5625,28.8125,27.8125,31.4375,33.375,34.125
0.026051704,-2.2040102,-1.1622472,-1.6735448,-0.016581982,0.07623701,-0.06688043,-0.37292778,-0.32816553,0.059799507,-3.0783095,0.62475395,-0.00061730156,-0.010534339,0.0037539913,-0.003262084,0.0023852154,-0.005310647,-0.0001907123,0.44802433,-1.4705082,2.0095189,-2.107703,-1.5706857,2.4228935,-0.016735263,0.02033082,-0.0149125885,0.00039809872,0.00010956433,-0.016532708,-0.7278373,0.17238252,-9.787497,0.76874626,47.71286,-0.754537,-2.405222,-3.405723,-0.4809592,0.10255164,-0.18642949,27.5625,28.8125,27.8125,31.4375,33.375,34.125
0.028051686,-2.0112605,-0.84047127,-1.5437278,-0.028567908,0.07564482,-0.07952439,-0.37294,-0.32816496,0.059801754,-3.078303,0.62475264,-0.0006310352,-0.011624466,0.0035510047,-0.0022071647,0.001345852,-0.0031535213,-3.8206454e-06,0.44801214,-1.4704844,2.0094821,-2.1076791,-1.5706857,2.4228814,-0.017343026,0.019714154,-0.016645497,0.0003530699,0.00010740418,-0.017326403,-0.7852981,0.21068975,-9.691729,0.7665104,47.73525,-0.777574,-2.3869162,-3.4723585,-0.48073533,0.09935282,-0.1902279,27.5625,28.8125,27.8125,31.4375,33.375,34.125
0.030052628,-1.9525758,-1.0521531,-1.3264025,-0.032269802,0.09332897,-0.09565983,-0.37298256,-0.32816452,0.059803687,-3.078315,0.62489,-0.0006756854,-0.0128837535,0.0034185788,-0.0018334204,0.00090595323,-0.0022446448,-0.0011716642,0.44793987,-1.4704239,2.0094087,-2.1076672,-1.5706376,2.4228933,-0.01823675,0.02101166,-0.018919919,0.00032114022,0.00010531064,-0.0170507,-0.842759,0.114921674,-9.691729,0.73741806,47.721813,-0.73381424,-2.3813462,-3.4150863,-0.46352386,0.10246971,-0.19626579,27.5625,28.8125,27.8125,31.4375,33.375,34.125
0.032051895,-2.1303582,-1.1944964,-1.157357,-0.029488713,0.1065939,-0.10597651,-0.37297133,-0.32815036,0.059777174,-3.0782542,0.6248395,-0.0007576974,-0.013847774,0.0034450768,-0.002007923,0.00096939114,-0.0024225672,-0.0012744882,0.4479396,-1.4703755,2.0094082,-2.1076314,-1.5706614,2.4228692,-0.019175194,0.022986794,-0.02068145,0.00029478848,0.00011936616,-0.017884983,-0.7661445,0.11492168,-9.595961,0.7597976,47.71286,-0.83420455,-2.3777337,-3.3755143,-0.45639715,0.10246554,-0.2098006,27.5625,28.8125,27.8125,31.4375,33.375,34.125
0.034052163,-2.1152189,-0.8453103,-1.182486,-0.007696115,0.10614101,-0.12960082,-0.37302935,-0.32814857,0.059778683,-3.0783052,0.6249069,-0.00068941346,-0.0150102675,0.0033592277,-0.0015584679,0.00047535374,-0.0014004003,-0.0011032727,0.44786727,-1.4703274,2.009371,-2.1077154,-1.5706376,2.4228325,-0.020067606,0.023869893,-0.022677207,0.00027245627,0.000118175565,-0.018947255,-0.53630114,0.019153614,-9.519346,0.7866488,47.71286,-0.79992616,-2.3589985,-3.3296013,-0.46023214,0.1009952,-0.20779923,27.5625,28.8125,27.8125,31.4375,33.375,34.125
0.036051746,-2.287885,-0.77706605,-1.2850708,0.022397822,0.072300814,-0.12889205,-0.3730969,-0.3281768,0.059826553,-3.078395,0.6248482,-0.00059409207,-0.016437113,0.0034584308,-0.0008870948,-0.0002200137,4.383711e-05,-0.0010810777,0.44784275,-1.4702913,2.009216,-2.107691,-1.5706137,2.42276,-0.021547072,0.024356851,-0.024747605,0.0002532749,0.00011606673,-0.020447575,-0.40222588,-0.11492168,-9.461885,0.7732232,47.729877,-0.78488237,-2.299268,-3.3424945,-0.44950512,0.088120714,-0.20804712,27.5625,28.8125,27.8125,31.4375,33.375,34.125
0.038051646,-1.6298317,0.05595473,-1.0588986,0.023273868,0.0485366,-0.1533956,-0.37311986,-0.32813442,0.05978876,-3.0783272,0.624873,-0.00065966963,-0.017800285,0.0034498228,-5.2946056e-05,-0.0010639757,0.0017895853,-0.00033229231,0.4477583,-1.4702194,2.0092266,-2.107703,-1.5706376,2.4226997,-0.022767076,0.024483077,-0.026796944,0.00023661698,0.00011397146,-0.022415118,-0.28730422,-0.095768064,-9.385271,0.779936,47.729877,-0.8441744,-2.3161309,-3.3283315,-0.4444139,0.09998887,-0.18700224,27.5625,28.8125,27.8125,31.4375,33.375,34.125
0.04005171,-1.147751,-0.29943597,-1.1658157,0.047597732,0.018058738,-0.16688597,-0.37318233,-0.3281236,0.059813242,-3.0783122,0.6248884,-0.0005279742,-0.01884133,0.0035778796,0.0004339705,-0.0015642786,0.002830106,0.00011047149,0.4477218,-1.4701831,2.0091307,-2.107703,-1.5706977,2.422675,-0.023949772,0.024767498,-0.028222958,0.00022201594,0.00011194662,-0.024039663,-0.22984336,-0.13407528,-9.481039,0.779936,47.71554,-0.7237997,-2.259946,-3.331139,-0.4414045,0.10182725,-0.18683249,27.5625,28.8125,27.8125,31.4375,33.375,34.125
0.042051632,-0.5598721,-0.63884,-1.2286016,0.04301583,0.011721546,-0.17647721,-0.37322336,-0.3281245,0.059819233,-3.0783505,0.62495375,-0.0005179893,-0.019929783,0.00361285,0.00051814324,-0.0017183808,0.0031469816,0.0005414394,0.4476616,-1.4701468,2.0090826,-2.1077268,-1.5706614,2.4226506,-0.025001211,0.026287876,-0.03008213,0.00020911312,0.000109992,-0.025520703,-0.095768064,-0.19153613,-9.500193,0.73741806,47.7451,-0.7765726,-2.2586086,-3.3234851,-0.4222818,0.090387136,-0.19045144,27.5625,28.8125,27.8125,31.4375,33.375,34.125
0.044052508,-0.5500143,-0.5038177,-1.2155907,0.008518592,0.010733022,-0.17833124,-0.37325835,-0.3280961,0.059796523,-3.0782807,0.62494004,-0.0005715855,-0.021220084,0.0039588367,0.0005198089,-0.0017966283,0.0032992766,0.0006375915,0.44760087,-1.4700503,2.0090206,-2.107691,-1.5706977,2.4225903,-0.026821597,0.027899807,-0.031855013,0.00019762893,0.00010810468,-0.027435929,-0.05746084,-0.019153614,-9.3661175,0.7597976,47.705692,-0.7146714,-2.2568655,-3.2848701,-0.39669716,0.10458138,-0.19477518,27.5625,28.8125,27.8125,31.4375,33.375,34.125
0.04605223,-0.5891306,-1.3616841,-1.2762995,-0.0061355405,0.021424267,-0.15728001,-0.37329018,-0.32809648,0.059795473,-3.0782933,0.6249606,-0.0005686998,-0.022002045,0.0042402027,0.0006525428,-0.0019420818,0.0036000283,0.0017063746,0.4475646,-1.4700022,2.008973,-2.107703,-1.5706857,2.4225652,-0.028057683,0.028456094,-0.03277877,0.00023094978,0.000106280946,-0.029740164,-0.019153614,0.095768064,-9.442732,0.73069996,47.694054,-0.71269697,-2.2830698,-3.3155923,-0.4075361,0.09447862,-0.17870119,27.5625,28.8125,27.8125,31.4375,33.375,34.125
0.048052352,-0.5835825,-1.5077543,-1.2331051,-0.02184248,0.03567001,-0.1528414,-0.37332538,-0.3280964,0.05979285,-3.0783086,0.62498283,-0.0005922384,-0.023105534,0.0043754173,0.0012560881,-0.0025270362,0.0048126327,0.0029829454,0.44751593,-1.4699423,2.0089133,-2.107703,-1.5706614,2.4225285,-0.02931006,0.028569268,-0.034303647,0.00029668008,0.000104517705,-0.0322682,-0.05746084,0.15322891,-9.500193,0.7150385,47.698532,-0.6778186,-2.1862729,-3.2966995,-0.39863458,0.099740624,-0.1498711,27.5625,28.8125,27.8125,31.4375,33.375,34.125
0.050051834,-0.751078,-1.7023112,-1.153639,-0.022993904,0.029674085,-0.14498736,-0.3733565,-0.32809642,0.0597877,-3.0783155,0.62492627,-0.0006327264,-0.024205886,0.0045660627,0.0015441844,-0.0028201744,0.0054164645,0.0031942904,0.4474796,-1.4698701,2.0088403,-2.1076791,-1.5706495,2.422456,-0.03066469,0.029411165,-0.035912298,0.0003923892,0.00010281199,-0.03383311,0.076614454,0.21068975,-9.595961,0.7665104,47.729877,-0.6753621,-2.1531386,-3.359876,-0.39546633,0.09957558,-0.14196381,27.5625,28.8125,27.8125,31.4375,33.375,34.125
0.052051935,-0.69779336,-1.1783621,-1.2576947,-0.0307072,0.026275046,-0.15128753,-0.37342805,-0.32807305,0.059809994,-3.0783298,0.62492794,-0.00050938514,-0.024680275,0.0049676914,0.0016668686,-0.0023040604,0.004351543,0.0041809743,0.44739515,-1.4698459,2.0087678,-2.107702,-1.5706857,2.422371,-0.03184411,0.030162938,-0.037473284,0.0023834084,0.00010116106,-0.03599873,0.05746084,0.3256114,-9.5385,0.7709874,47.687782,-0.6385132,-2.0754502,-3.3616743,-0.39132375,0.093489066,-0.13230787,27.5625,28.8125,27.8125,31.4375,33.375,34.125
0.054051936,-0.21339679,-1.189369,-1.2174166,-0.02903577,0.02490504,-0.15254027,-0.37347293,-0.32805228,0.059803087,-3.0783198,0.6249641,-0.0005782445,-0.025209635,0.005216507,0.0016336318,-0.0021548325,0.004038284,0.0046694353,0.44729885,-1.4697738,2.0086963,-2.1076663,-1.5706614,2.4222984,-0.032786828,0.030956345,-0.038374033,0.0028384163,9.956235e-05,-0.037429385,0.076614454,0.4405331,-9.557653,0.7105615,47.661808,-0.6903237,-2.04019,-3.3893619,-0.41309652,0.10562031,-0.12041069,27.5625,28.8125,27.8125,31.4375,33.375,34.125
0.05605216,-0.8785446,-2.120567,-1.4523199,-0.022883637,0.009470496,-0.1321955,-0.37351227,-0.3280431,0.059798695,-3.0782976,0.6249404,-0.000570537,-0.026298955,0.005435257,0.0015147357,-0.0021757311,0.004073672,0.0051096417,0.44726232,-1.4697014,2.0086243,-2.1076543,-1.5706857,2.42225,-0.034183763,0.032651715,-0.039921306,0.0026481475,9.801346e-05,-0.03926528,-0.076614454,0.38307226,-9.557653,0.78888994,47.70032,-0.7056698,-2.0002906,-3.4216692,-0.3926352,0.12131895,-0.09802045,27.5625,28.8125,27.8125,31.4375,33.375,34.125
0.058052123,-1.1210271,-2.3319404,-1.5953466,-0.03435395,0.020485839,-0.14238167,-0.3735546,-0.32803616,0.05979277,-3.0783403,0.62492883,-0.0006142392,-0.02730889,0.005178873,0.0019051895,-0.0028129744,0.0053925538,0.0070629953,0.44717818,-1.4696413,2.0085747,-2.1076667,-1.5706376,2.4221532,-0.034612406,0.03341701,-0.041513607,0.0020119997,9.6512085e-05,-0.041646015,-0.05746084,0.36391866,-9.5385,0.7620334,47.721813,-0.64353454,-2.0174575,-3.4488325,-0.38820285,0.1109785,-0.06804067,27.5625,28.8125,27.8125,31.4375,33.375,34.125
0.06005206,-1.3845214,-2.1058996,-1.4503732,-0.048716463,0.035333637,-0.14287065,-0.37363145,-0.32801744,0.059816364,-3.0783412,0.6249107,-0.00049497443,-0.028223807,0.005173402,0.0019671184,-0.002966373,0.005714699,0.0059364215,0.4471058,-1.4695928,2.0084674,-2.1076667,-1.5706857,2.4220695,-0.035425168,0.03472788,-0.04307002,0.0018988153,9.505572e-05,-0.041331023,-0.1340753,0.34476504,-9.615114,0.76874626,47.734352,-0.6667274,-1.9981244,-3.4556227,-0.38256556,0.10496086,-0.06034868,27.5625,28.8125,27.8125,31.4375,33.375,34.125
0.06205218,-2.016965,-2.135005,-1.3351054,-0.04773614,0.038407736,-0.13815245,-0.37368163,-0.32802266,0.059815485,-3.0783737,0.6248611,-0.0005443801,-0.029541783,0.005338,0.002442067,-0.0034316613,0.0066808625,0.0031432575,0.44704548,-1.4694967,2.0083582,-2.107642,-1.5706495,2.4219742,-0.03692404,0.035504717,-0.045044105,0.0020254038,9.364277e-05,-0.04003547,-0.21068975,0.30645782,-9.576807,0.80456203,47.761223,-0.6550353,-1.9916973,-3.462923,-0.36170357,0.116807885,-0.081849396,27.5625,28.8125,27.8125,31.4375,33.375,34.125
0.06405213,-1.8886069,-1.7759942,-1.3307058,-0.033653643,0.043997973,-0.13377443,-0.37375376,-0.32801482,0.05983085,-3.0783775,0.6249761,-0.00045873356,-0.029816473,0.005398456,0.0026404099,-0.0030809063,0.005958698,0.004507549,0.44697338,-1.4694365,2.0082624,-2.1076658,-1.5706614,2.4219735,-0.037278954,0.036104783,-0.046548788,0.0037321367,9.22715e-05,-0.041754175,-0.22984336,0.2681506,-9.557653,0.7172743,47.771072,-0.7579035,-1.9601618,-3.4303033,-0.36491838,0.12029025,-0.080764696,27.5625,28.8125,27.8125,31.4375,33.375,34.125
0.06605205,-1.900554,-1.2813165,-1.4154677,-0.016671546,0.04562248,-0.13373317,-0.37379804,-0.32802135,0.059827834,-3.0784261,0.6248507,-0.00053615513,-0.030135565,0.0055642724,0.0020318225,-0.0022179787,0.0041577676,0.0046129324,0.4469131,-1.4693401,2.008155,-2.1076295,-1.5706137,2.4218287,-0.03787511,0.03839946,-0.047922608,0.004810214,9.0939444e-05,-0.04245485,-0.28730422,0.28730422,-9.442732,0.7351769,47.73256,-0.74762034,-1.943181,-3.4401975,-0.3790269,0.11874451,-0.074028194,27.5625,28.8125,27.8125,31.4375,33.375,34.125
0.068052135,-1.5951067,-0.80018705,-1.2146645,-0.009735115,0.04860989,-0.14360602,-0.37387994,-0.3279774,0.05983312,-3.0783846,0.6248797,-0.00042174157,-0.0310413,0.005385159,0.001786448,-0.00211343,0.003920466,0.0060355463,0.4468049,-1.4692792,2.0080817,-2.1076539,-1.5706857,2.421744,-0.038355842,0.040732767,-0.049902067,0.00471216,9.595503e-05,-0.044356626,-0.24899697,0.17238252,-9.404425,0.7217513,47.72002,-0.78466177,-1.944704,-3.4664493,-0.37960744,0.12118598,-0.05780063,27.5625,28.8125,27.8125,31.4375,33.375,34.125
0.07005198,-1.3354709,-0.73809206,-1.1362733,-0.007677154,0.05491587,-0.1447908,-0.37393284,-0.32800302,0.059843585,-3.078446,0.62479705,-0.00042660977,-0.032575294,0.0052579883,0.0024959825,-0.0031388814,0.006038703,0.0045948997,0.44678053,-1.4691833,2.0079496,-2.1076415,-1.5706495,2.4216604,-0.039504845,0.041259654,-0.051912997,0.003844468,0.000100590434,-0.044063456,-0.30645782,0.11492168,-9.346964,0.6948948,47.741516,-0.75950927,-1.9556788,-3.4411955,-0.35826665,0.112883165,-0.06919655,27.5625,28.8125,27.8125,31.4375,33.375,34.125
0.07205198,-1.1540743,-0.7304807,-1.0625635,-0.011720696,0.05810776,-0.14560166,-0.37398708,-0.3279909,0.059840508,-3.0784774,0.62478644,-0.00046027772,-0.03379224,0.0049427394,0.0025814495,-0.0035551365,0.0068993643,0.0020369089,0.44668436,-1.4691108,2.007877,-2.107642,-1.5706137,2.4215536,-0.040007755,0.043183625,-0.054057542,0.0031108302,9.958922e-05,-0.04200658,-0.30645782,0.11492168,-9.404425,0.73741806,47.734352,-0.80377614,-1.9042616,-3.462574,-0.35700935,0.10845469,-0.09458354,27.5625,28.8125,27.8125,31.4375,33.375,34.125
0.07405195,-1.457604,-0.8240224,-1.0982163,-0.009419249,0.05147981,-0.13875942,-0.37406448,-0.32797247,0.0598498,-3.0784442,0.62479824,-0.00039968285,-0.034507923,0.0056589716,0.0020684,-0.003056953,0.0058614207,0.0015178196,0.44661182,-1.4690145,2.0077446,-2.107618,-1.5706614,2.4214928,-0.04199353,0.044703852,-0.054592256,0.0032744273,9.8255645e-05,-0.043472756,-0.38307226,0.1340753,-9.346964,0.8179876,47.701214,-0.7881503,-1.9331722,-3.442687,-0.32212162,0.10548223,-0.10286158,27.5625,28.8125,27.8125,31.4375,33.375,34.125
0.076052465,-2.0585818,-1.1105697,-1.0963924,-0.0011868095,0.040737014,-0.13404739,-0.37416393,-0.32797343,0.0598863,-3.078517,0.62481344,-0.0002769751,-0.035724316,0.005481146,0.00306774,-0.003227812,0.0062279124,0.0014955169,0.4465154,-1.4689544,2.0076,-2.107641,-1.5706495,2.4213967,-0.042748574,0.045529187,-0.058374032,0.0058269836,9.693448e-05,-0.044203844,-0.40222588,0.05746084,-9.385271,0.7665104,47.71554,-0.849586,-1.8567609,-3.4286635,-0.32777005,0.11143662,-0.114489324,27.5625,28.8125,27.8125,31.4375,33.375,34.125
0.07805265,-1.658108,-0.7890267,-1.0117717,0.006142029,0.047830485,-0.13445956,-0.37424582,-0.3279556,0.059887793,-3.0784986,0.62486756,-0.00029265002,-0.036122315,0.005145275,0.0027759755,-0.0026803347,0.00509298,0.0018788332,0.44640768,-1.4688338,2.007456,-2.1076052,-1.5706495,2.4213252,-0.04246449,0.04787294,-0.060529973,0.0068992865,9.11256e-05,-0.044301733,-0.3256114,0.05746084,-9.3661175,0.7396539,47.713753,-0.80888987,-1.8800504,-3.2694945,-0.35529506,0.12036537,-0.136769,27.5625,28.8125,27.8125,31.4375,33.375,34.125
0.080052756,-1.6681033,-0.9922733,-1.0570557,0.014454936,0.042172935,-0.13257594,-0.37429333,-0.32795474,0.05988566,-3.0785465,0.6247618,-0.00030159365,-0.036114875,0.0061272504,0.0013671768,-0.0012480355,0.0021202627,0.0005153949,0.44634688,-1.4687611,2.0073836,-2.1076167,-1.5706257,2.4211924,-0.044293407,0.05019161,-0.05994098,0.007292432,8.521522e-05,-0.044767305,-0.2681506,0.019153614,-9.251195,0.78217715,47.70659,-0.8466631,-1.9747677,-3.4370718,-0.35167444,0.12886642,-0.13875097,27.5625,28.8125,27.8125,31.4375,33.375,34.125
0.08205243,-1.2399135,-0.42194152,-0.83864105,-0.001398901,0.048735652,-0.15001267,-0.374376,-0.32794532,0.059905943,-3.078566,0.6247284,-0.00024501572,-0.037804298,0.0062720273,0.0028346877,-0.0027944965,0.0053496356,-0.00095338724,0.44626236,-1.4686776,2.00724,-2.1075928,-1.5706376,2.4210846,-0.046080973,0.048848614,-0.0617306,0.006843949,8.3363164e-05,-0.045085106,-0.34476504,-0.019153614,-9.270349,0.7239871,47.709274,-0.8748088,-1.8729585,-3.4654012,-0.33135563,0.10291906,-0.16540936,27.5625,28.8125,27.8125,31.4375,33.375,34.125
0.084052384,-1.7030748,-1.0315678,-0.9605117,0.00037284548,0.036349285,-0.13384031,-0.374435,-0.32793492,0.059892103,-3.0785239,0.62479806,-0.00030316535,-0.040901493,0.006025737,0.00412781,-0.004081523,0.008013623,-0.0026570037,0.44618934,-1.4685452,2.007118,-2.107557,-1.5706376,2.4210606,-0.048412256,0.051146522,-0.06729718,0.0071539897,8.182943e-05,-0.045709193,-0.36391866,0.1340753,-9.346964,0.7732232,47.71823,-0.7212224,-1.8031507,-3.2337368,-0.3355916,0.11059424,-0.186192,27.5625,28.8125,27.8125,31.4375,33.375,34.125
0.086051874,-1.8220488,-1.1580442,-0.9947653,-0.008553734,0.03767742,-0.12636201,-0.37452176,-0.3279127,0.059912585,-3.078533,0.6247806,-0.00029219533,-0.03980297,0.0071988185,0.002219297,-0.001774312,0.0032120987,-0.0030282896,0.44606903,-1.4684607,2.0069644,-2.107497,-1.5706376,2.4209282,-0.049609102,0.053143293,-0.06546151,0.008648567,8.0366815e-05,-0.046535973,-0.40222588,0.22984336,-9.270349,0.7866488,47.71554,-0.6489716,-1.8380316,-3.4333093,-0.34101278,0.12322861,-0.20047593,27.5625,28.8125,27.8125,31.4375,33.375,34.125
0.08805186,-1.731201,-1.5500399,-0.9443338,-0.006825917,0.047627695,-0.13866866,-0.37463158,-0.32790402,0.059936136,-3.078573,0.62486494,-0.00014583611,-0.04073694,0.0061578443,0.0019309238,-0.0016168375,0.002847357,-0.001609801,0.44596148,-1.4683756,2.0068305,-2.107556,-1.5706495,2.4208684,-0.04849438,0.056978106,-0.06905399,0.008802618,9.369837e-05,-0.046837054,-0.38307226,0.22984336,-9.308657,0.70608455,47.666286,-0.8223674,-1.9886239,-3.299652,-0.34800342,0.11001673,-0.23571913,27.5625,28.8125,27.8125,31.4375,33.375,34.125
0.090051904,-1.9013321,-1.2755926,-1.057325,-0.019878514,0.05416183,-0.13322349,-0.37466103,-0.32790303,0.0599022,-3.0785635,0.62474686,-0.00033876902,-0.04296708,0.006386412,0.004221294,-0.0038750498,0.007545377,-0.0010208644,0.44590068,-1.4682207,2.0067217,-2.1074846,-1.5706018,2.4207351,-0.050930727,0.05438474,-0.07140092,0.00853232,9.304562e-05,-0.049861304,-0.3256114,0.22984336,-9.270349,0.8247004,47.67166,-0.8312199,-1.803025,-3.2782457,-0.34500825,0.12092829,-0.22558415,27.5625,28.8125,27.8125,31.4375,33.375,34.125
0.092051625,-1.7514266,-1.2585016,-1.0735788,-0.019978685,0.060911052,-0.13270654,-0.37478065,-0.32787085,0.059927836,-3.0785484,0.6248585,-0.00023090348,-0.043739643,0.006704957,0.0031759953,-0.0028130587,0.0053292713,-0.001078589,0.44575623,-1.4681236,2.0065534,-2.1074727,-1.5706376,2.4206624,-0.052209835,0.05809841,-0.07321937,0.009092639,9.1531234e-05,-0.05108118,-0.19153613,0.30645782,-9.3661175,0.69937176,47.68062,-0.7851915,-1.8588811,-3.235664,-0.34083098,0.1159748,-0.23717625,27.5625,28.8125,27.8125,31.4375,33.375,34.125
0.0940525,-1.589329,-1.7071676,-1.1586968,-0.02119001,0.056355055,-0.13182376,-0.3748673,-0.327872,0.05994172,-3.0785606,0.624843,-0.00024425954,-0.043920718,0.0070176744,0.0024613773,-0.0018692412,0.003359748,-0.0029780553,0.44567198,-1.467991,2.0063622,-2.1074126,-1.5706257,2.420567,-0.05294745,0.060183637,-0.07410608,0.010078899,9.000969e-05,-0.04991877,-0.34476504,0.30645782,-9.32781,0.77545905,47.678825,-0.80307454,-1.9134394,-3.2354848,-0.34991288,0.11657706,-0.28026056,27.5625,28.8125,27.8125,31.4375,33.375,34.125
0.09605194,-1.0115887,-1.5238855,-1.1301681,-0.03607469,0.06837423,-0.14363174,-0.37493452,-0.32782748,0.0599106,-3.0784986,0.62483,-0.0002834931,-0.04607653,0.0063673286,0.0035748507,-0.003288493,0.006304779,-0.0017439597,0.44555172,-1.4678589,2.0062883,-2.1074126,-1.5706614,2.4204466,-0.05366045,0.06151993,-0.07796499,0.009330317,8.853412e-05,-0.05186316,-0.3256114,0.30645782,-9.404425,0.7866488,47.6636,-0.8466091,-1.8941588,-3.1011553,-0.364802,0.12710193,-0.30254254,27.5625,28.8125,27.8125,31.4375,33.375,34.125
0.09805217,-1.6811143,-1.6814696,-1.2425625,-0.034281343,0.0488563,-0.13684753,-0.37506026,-0.32780904,0.059940092,-3.078534,0.6249135,-0.00020887711,-0.045265224,0.0072699087,0.0019579467,-0.0016921669,0.0029844097,-0.0007516945,0.4453955,-1.4677503,2.0060985,-2.1074002,-1.5706495,2.4203382,-0.054601103,0.06307404,-0.07601463,0.009510424,8.710608e-05,-0.05379705,-0.38307226,0.36391866,-9.385271,0.7866488,47.672558,-0.85178155,-1.9737363,-3.215478,-0.35932785,0.1200289,-0.3189152,27.5625,28.8125,27.8125,31.4375,33.375,34.125
0.10005212,-1.69565,-1.8385235,-1.2553033,-0.040061533,0.050829,-0.13865101,-0.3751212,-0.32781264,0.05992944,-3.078535,0.62487483,-0.00022322248,-0.046495236,0.0071103885,0.0021070344,-0.001993889,0.003576765,-0.00013508917,0.4453472,-1.467618,2.0059774,-2.1074002,-1.5706495,2.4202657,-0.05541053,0.0648661,-0.078295045,0.0093340045,9.814291e-05,-0.05522143,-0.22984336,0.3256114,-9.442732,0.7553206,47.716442,-0.871969,-1.9423112,-3.3212605,-0.35417998,0.1282119,-0.31140468,27.5625,28.8125,27.8125,31.4375,33.375,34.125
0.10205218,-1.9396975,-2.3253472,-1.2401856,-0.03183803,0.04080494,-0.12622371,-0.37522873,-0.32779408,0.059938334,-3.078546,0.6248985,-0.0001920903,-0.04850054,0.006123429,0.0030982636,-0.003162505,0.00600779,-0.0027719068,0.44521523,-1.4674858,2.005809,-2.1073892,-1.5706495,2.4201472,-0.055348806,0.06695734,-0.08281331,0.009064132,9.832572e-05,-0.05251981,-0.24899697,0.24899697,-9.3661175,0.8157518,47.694946,-0.965317,-1.9417765,-3.0602803,-0.35918105,0.14174232,-0.38443357,27.5625,28.8125,27.8125,31.4375,33.375,34.125
0.10405207,-1.4065348,-1.5382991,-1.1890886,-0.031821262,0.039350033,-0.13717611,-0.3753577,-0.32780027,0.05996353,-3.078596,0.6248882,-0.00015717429,-0.048715945,0.0073875403,0.0018145674,-0.0020559353,0.0037023253,-0.0038606059,0.44509438,-1.4673175,2.0055578,-2.1073525,-1.5706257,2.4200137,-0.057893652,0.068636365,-0.08166766,0.00879788,9.6924974e-05,-0.053976312,-0.17238252,0.2681506,-9.32781,0.7351769,47.695843,-0.8810586,-1.962963,-3.2009528,-0.35072345,0.13040768,-0.41376895,27.5625,28.8125,27.8125,31.4375,33.375,34.125
0.10605255,-0.86504835,-1.5212827,-1.2569692,-0.018602254,0.036651034,-0.14061649,-0.37543976,-0.327761,0.05994184,-3.0785294,0.6248719,-0.00014419794,-0.049381617,0.0058457223,0.0022891588,-0.002696051,0.0049983975,0.0011852618,0.44498715,-1.4671729,2.0054486,-2.107353,-1.5706857,2.419905,-0.055593863,0.07065827,-0.084945634,0.008604837,0.000107319545,-0.05672011,-0.17238252,0.22984336,-9.442732,0.8157518,47.71554,-0.9812124,-2.0279067,-3.108612,-0.34269285,0.13084774,-0.44138986,27.5625,28.8125,27.8125,31.4375,33.375,34.125
0.10805278,-1.3047316,-1.7002236,-1.1352819,-0.010343575,0.010532027,-0.13505197,-0.37555987,-0.32776967,0.059972882,-3.0786183,0.6249282,-9.72891e-05,-0.05042404,0.0060907826,0.002369398,-0.0029411137,0.005516073,0.0025839133,0.44485456,-1.4670529,2.0052454,-2.107353,-1.5706257,2.4197962,-0.056970786,0.071667664,-0.0861654,0.008245608,0.000107356944,-0.059494708,-0.019153614,0.21068975,-9.346964,0.8090337,47.691364,-1.0798894,-1.9906377,-3.1098578,-0.3386024,0.13797197,-0.44660783,27.5625,28.8125,27.8125,31.4375,33.375,34.125
0.11005262,-0.70427626,-1.1137502,-1.0887048,-0.017087739,0.01626189,-0.14223719,-0.37565547,-0.3277664,0.0599782,-3.0786283,0.6248331,-8.595668e-05,-0.05152626,0.0060522864,0.0022912843,-0.002965744,0.0055610402,0.004260833,0.44477028,-1.4668963,2.0050528,-2.1073172,-1.5706376,2.4196515,-0.05787519,0.07372408,-0.08825578,0.008227392,0.000105884996,-0.062074482,-0.019153614,0.3256114,-9.385271,0.81351066,47.70032,-1.1183009,-1.9994919,-3.0520816,-0.3206528,0.13026893,-0.45951122,27.5625,28.8125,27.8125,31.4375,33.375,34.125
0.112051725,-1.0663615,-1.5906199,-1.2720766,-0.006785201,-0.0019166649,-0.132655,-0.3757675,-0.32772577,0.059965104,-3.078565,0.624915,-5.7091736e-05,-0.05272488,0.0066496595,0.0022366825,-0.0028952367,0.00523071,0.005950343,0.44462556,-1.4667282,2.0048978,-2.1073172,-1.5706857,2.4195662,-0.06010592,0.07516401,-0.08983307,0.00868942,0.0001814284,-0.065993845,0.05746084,0.2681506,-9.289502,0.8806493,47.72719,-0.9714521,-2.0196848,-3.1078444,-0.3176201,0.13080488,-0.44264483,27.5625,28.8125,27.8125,31.4375,33.375,34.125
0.11405235,-0.69071287,-0.8770034,-1.0586882,-0.032015417,0.015100974,-0.14504023,-0.37586477,-0.32773462,0.059994023,-3.0786417,0.6248313,-3.0057441e-05,-0.052798558,0.005838673,0.0023916704,-0.0029412895,0.005184882,0.011583277,0.44453013,-1.4666201,2.0047042,-2.107281,-1.5706495,2.4194088,-0.058674924,0.07632669,-0.09162371,0.009340599,0.00024366526,-0.07019483,-0.038307227,0.30645782,-9.289502,0.8023209,47.71465,-1.2240448,-1.9424558,-3.1321049,-0.31745285,0.1521876,-0.42578107,27.5625,28.8125,27.8125,31.4375,33.375,34.125
0.11605189,-0.84158593,-1.1333433,-0.9800295,-0.026943728,0.022521257,-0.1429285,-0.3759791,-0.3277123,0.059988115,-3.078642,0.6247908,-4.762851e-05,-0.05397148,0.0064746295,0.0015801778,-0.0021896614,0.003535126,0.014978499,0.4443853,-1.466439,2.004513,-2.1072571,-1.5706495,2.4192388,-0.06092045,0.07955474,-0.09341739,0.009718111,0.00027042616,-0.07583419,-0.095768064,0.2681506,-9.346964,0.83365434,47.7245,-1.1548334,-2.1804562,-3.0673416,-0.32933876,0.14011912,-0.40401772,27.5625,28.8125,27.8125,31.4375,33.375,34.125
0.11805195,-1.143119,-1.3699021,-1.1663836,-0.01850902,0.026248854,-0.14213449,-0.37609643,-0.32766584,0.059977714,-3.0786107,0.6248014,-1.33306185e-05,-0.05440384,0.006852422,0.0026063847,-0.0028615533,0.00490394,0.019291222,0.44421697,-1.4662843,2.004369,-2.107268,-1.5706857,2.4190812,-0.062005557,0.07747967,-0.093681335,0.010528771,0.0002901052,-0.08123249,-0.038307227,0.19153613,-9.461885,0.7709874,47.666286,-1.1692793,-1.9857872,-3.142127,-0.328752,0.14553776,-0.34967083,27.5625,28.8125,27.8125,31.4375,33.375,34.125
0.12005191,-1.468085,-1.4100531,-1.2352369,-0.02275616,0.023824075,-0.1354973,-0.37618783,-0.32768404,0.059985816,-3.0786653,0.6246753,-4.9440983e-05,-0.05510402,0.0073003066,0.0007189391,-0.0012416153,0.0014013181,0.02218226,0.4441444,-1.4661149,2.004153,-2.1072204,-1.5706495,2.4189231,-0.063487396,0.08279889,-0.09525179,0.010641136,0.00032896866,-0.085603714,-0.076614454,0.19153613,-9.385271,0.7329411,47.674347,-1.1459066,-2.0331383,-3.0909457,-0.3329773,0.14526875,-0.299077,27.5625,28.8125,27.8125,31.4375,33.375,34.125
0.12205177,-1.0453335,-1.0077186,-0.8969513,-0.032175448,0.038473103,-0.15487896,-0.3763149,-0.32766816,0.060004603,-3.0787024,0.62464267,1.0882723e-05,-0.05618065,0.007267619,0.0018255915,-0.002737904,0.0036745137,0.025741924,0.44400004,-1.4659714,2.0039494,-2.107209,-1.570649,2.4187539,-0.06461959,0.08160126,-0.09639923,0.010288845,0.000704474,-0.09029558,-0.076614454,0.24899697,-9.346964,0.75755644,47.696735,-1.1712226,-2.0959625,-3.1891356,-0.32950938,0.15080714,-0.2506995,27.5625,28.8125,27.8125,31.4375,33.375,34.125
0.12405264,-1.2102053,-1.0513738,-0.9762974,-0.022931673,0.03916719,-0.14048094,-0.3764141,-0.3276814,0.06000355,-3.078756,0.6244225,-2.870672e-06,-0.05626382,0.007739577,0.0003109467,-0.0015868032,0.00076018565,0.02716358,0.44392762,-1.4657786,2.0037339,-2.1071846,-1.5706371,2.4185374,-0.06570569,0.08484597,-0.096518055,0.010289303,0.0009162997,-0.09280311,-0.21068975,0.19153613,-9.346964,0.784413,47.682407,-1.1489235,-2.0172834,-3.2633276,-0.3084407,0.14676508,-0.1827957,27.5625,28.8125,27.8125,31.4375,33.375,34.125
0.12605226,-1.4220598,-0.90635204,-0.9173759,-0.009206117,0.035783857,-0.13794252,-0.3765338,-0.32765317,0.060016245,-3.0787802,0.62442666,1.5791358e-05,-0.05763478,0.007918979,0.00041001107,-0.0018255515,0.0011615263,0.027254805,0.4437591,-1.4656463,2.0035536,-2.1071608,-1.5706252,2.4183686,-0.06727449,0.08656322,-0.09863198,0.010221989,0.00095731375,-0.094461665,-0.24899697,0.15322891,-9.3661175,0.7553206,47.723602,-1.183323,-2.0736122,-3.250092,-0.32173973,0.14353998,-0.15401994,27.5625,28.8125,27.8125,31.4375,33.375,34.125
0.12805231,-1.1916542,-0.549264,-0.9069847,-0.005569554,0.04190278,-0.14222781,-0.37666127,-0.3276457,0.060011055,-3.0788348,0.62436247,3.743078e-05,-0.05915818,0.007956988,0.00084296067,-0.0028018905,0.002624504,0.02500119,0.44361454,-1.4654545,2.0033624,-2.107197,-1.5706013,2.4181771,-0.0688547,0.08751908,-0.10050566,0.009400995,0.0012090146,-0.09378715,-0.22984336,0.1340753,-9.346964,0.800085,47.72092,-1.1465026,-2.0620272,-3.2998128,-0.31756425,0.13931167,-0.15870418,27.5625,28.8125,27.8125,31.4375,33.375,34.125
0.13005209,-1.5297223,-0.51021534,-0.83868563,-0.008324776,0.049318384,-0.14448911,-0.37677556,-0.32762787,0.060021404,-3.0788307,0.62432355,7.4302676e-05,-0.058928717,0.008122043,0.00010348076,-0.0021204653,0.0011500989,0.023848897,0.4434946,-1.4652982,2.0031583,-2.1071608,-1.5706252,2.4180336,-0.068948574,0.08881448,-0.10027351,0.009495624,0.0012284275,-0.092728734,-0.40222588,0.05746084,-9.308656,0.75755644,47.694946,-1.2251961,-2.054441,-3.194391,-0.2933463,0.1423635,-0.15038309,27.5625,28.8125,27.8125,31.4375,33.375,34.125
0.13205208,-1.901024,-0.68203545,-0.9507168,0.0030098339,0.048970878,-0.14021926,-0.37690514,-0.32759985,0.06002941,-3.0788283,0.6241917,0.00010763954,-0.06018357,0.008595554,0.00047196404,-0.0024177465,0.0018746621,0.01811883,0.4433499,-1.4651184,2.0029309,-2.1071131,-1.570661,2.417807,-0.07090364,0.089354694,-0.10176683,0.00966432,0.0011837194,-0.08895278,-0.4405331,0.1340753,-9.232041,0.79560274,47.70032,-1.213725,-2.0050042,-3.4211836,-0.29783332,0.1350452,-0.16593751,27.5625,28.8125,27.8125,31.4375,33.375,34.125
0.13405216,-1.9676906,-1.0622905,-1.1804055,0.007613592,0.05622514,-0.14121042,-0.37701985,-0.32757556,0.060020253,-3.0788229,0.6242324,8.071848e-05,-0.06094656,0.009047076,0.00035377766,-0.002025486,0.0011490347,0.011611814,0.44319347,-1.4649384,2.0027506,-2.1071007,-1.570649,2.417677,-0.07237723,0.09066469,-0.10316415,0.010577504,0.0011391349,-0.083918564,-0.34476504,0.11492168,-9.308657,0.74413085,47.677036,-1.2928679,-1.9927456,-3.2392306,-0.31032315,0.14795893,-0.23752783,27.5625,28.8125,27.8125,31.4375,33.375,34.125
0.13605192,-2.2635677,-1.1048371,-1.0680581,-0.0050037373,0.04826761,-0.13430595,-0.3771614,-0.3275768,0.06003068,-3.078896,0.6241713,7.984429e-05,-0.061854303,0.009752717,-1.3027163e-05,-0.0015752267,0.00044445472,0.0097568445,0.4430367,-1.4647341,2.0024989,-2.1070888,-1.5706013,2.4174728,-0.074411124,0.09218853,-0.10407097,0.0107946675,0.001036215,-0.084096625,-0.36391866,0.019153614,-9.346964,0.779936,47.66987,-1.2280066,-1.9883306,-3.4639568,-0.3137581,0.13861804,-0.24881911,27.5625,28.8125,27.8125,31.4375,33.375,34.125
0.13805176,-2.2439346,-0.86439127,-0.95082635,-0.02112114,0.05679013,-0.1310781,-0.3772654,-0.32755587,0.060014598,-3.078894,0.62407786,3.5240657e-05,-0.06342788,0.009672126,0.001069255,-0.0029284507,0.0031494724,0.0055099917,0.44290432,-1.4645425,2.002319,-2.1070654,-1.5706013,2.4172826,-0.07568012,0.09183329,-0.10600917,0.01006438,0.0010910819,-0.08111764,-0.38307226,0.019153614,-9.32781,0.8179876,47.68062,-1.2052854,-2.0070062,-3.4380083,-0.3065324,0.13765252,-0.29645818,27.5625,28.8125,27.8125,31.4375,33.375,34.125
0.14005174,-2.3171046,-0.9102707,-0.9678375,-0.0016825314,0.052735224,-0.138051,-0.37740746,-0.3275273,0.060023777,-3.0788665,0.62410975,8.46955e-05,-0.06466888,0.010083443,0.0012992115,-0.003166861,0.0037069619,0.005192285,0.44274768,-1.4643507,2.0020783,-2.1070292,-1.5706371,2.4171495,-0.07751221,0.09273186,-0.10755176,0.01009977,0.0010661081,-0.08263097,-0.45968673,-0.019153614,-9.3661175,0.9030289,47.72092,-1.2067542,-1.8563889,-3.5015426,-0.28910542,0.13659604,-0.3247707,27.5625,28.8125,27.8125,31.4375,33.375,34.125
0.14205171,-1.5747392,-0.336248,-0.9900633,-0.005822225,0.06798006,-0.1491031,-0.37754115,-0.32750127,0.06002848,-3.0788767,0.62409276,9.766466e-05,-0.06475937,0.010837099,-0.0003640547,-0.0015084675,0.00019003301,0.005325843,0.4425792,-1.4641696,2.0018623,-2.107005,-1.5706371,2.4169693,-0.07898146,0.09626135,-0.107786044,0.010692904,0.0010761946,-0.084233284,-0.49799395,-0.038307227,-9.461885,0.81351066,47.683304,-1.1611986,-1.9772949,-3.474842,-0.27442116,0.1378838,-0.31027144,27.5625,28.8125,27.8125,31.4375,33.375,34.125
0.1440517,-1.3442519,-0.54429376,-1.0591644,0.003454017,0.07586762,-0.14254868,-0.37763935,-0.3274883,0.06002118,-3.0788805,0.62401706,4.2066556e-05,-0.06725778,0.01002037,0.0019409923,-0.0038524554,0.0048190323,0.00444787,0.442459,-1.4639902,2.0016701,-2.1069572,-1.5706252,2.4168015,-0.079742245,0.09572249,-0.11250525,0.010764868,0.0011997714,-0.084113695,-0.49799395,-0.038307227,-9.3661175,0.7732232,47.658226,-1.2666998,-1.8611459,-3.4915333,-0.2937727,0.14136231,-0.32482103,27.5625,28.8125,27.8125,31.4375,33.375,34.125
0.14605245,-1.6925248,-0.47125307,-1.1045358,0.00045567725,0.064709075,-0.14299229,-0.3777825,-0.32746202,0.060016636,-3.0789173,0.6239664,3.2572563e-05,-0.06810907,0.011350856,0.00039165688,-0.002628611,0.0021250343,0.0034460423,0.44226575,-1.4637854,2.0014546,-2.1069572,-1.5706013,2.416572,-0.082991235,0.09900229,-0.11252544,0.010465806,0.0012479193,-0.08636034,-0.51714754,-0.019153614,-9.442732,0.80456203,47.674347,-0.98512703,-1.9079485,-3.4258637,-0.27959916,0.13050158,-0.37334374,27.5625,28.8125,27.8125,31.4375,33.375,34.125
0.14805233,-2.053183,-0.8267763,-1.216801,0.0034020666,0.061546404,-0.14270575,-0.37790775,-0.32744083,0.060019158,-3.0788977,0.6239826,2.9426648e-05,-0.0694007,0.010323529,0.0014676322,-0.0042197653,0.0042397496,0.0029540265,0.44212207,-1.4635935,2.0012262,-2.1069095,-1.5706133,2.4164412,-0.0825428,0.09976073,-0.11583587,0.010423016,0.0017736573,-0.08541867,-0.47884035,0.095768064,-9.442732,0.82022345,47.67166,-1.2534963,-1.8375762,-3.306818,-0.28298616,0.12832177,-0.3690393,27.5625,28.8125,27.8125,31.4375,33.375,34.125
0.15005232,-2.4452395,-1.4470488,-1.3917745,-0.004778296,0.060815234,-0.13290653,-0.37809166,-0.32743594,0.060061343,-3.0789702,0.6239977,0.0001521169,-0.071582384,0.011615851,0.0017042846,-0.004360065,0.004712476,0.000919688,0.4419407,-1.4634014,2.0009148,-2.106897,-1.5706013,2.4162602,-0.08681732,0.101049215,-0.11787855,0.010691402,0.0017048413,-0.08765728,-0.4213795,0.076614454,-9.5385,0.7620334,47.639416,-1.1123772,-1.8873692,-3.3317463,-0.27601632,0.13416483,-0.40056762,27.5625,28.8125,27.8125,31.4375,33.375,34.125
0.15205224,-2.6193388,-1.3944165,-1.4266313,-0.029186971,0.057925757,-0.13347459,-0.3781902,-0.3274063,0.06002943,-3.0789733,0.6239165,2.8647057e-05,-0.07227919,0.01104753,0.0024806447,-0.0048313155,0.00582007,0.007917391,0.4417728,-1.4631977,2.0007575,-2.1068728,-1.5705651,2.4160414,-0.086306706,0.10140948,-0.12026371,0.0115169985,0.0016488545,-0.094143234,-0.38307226,0.22984336,-9.576807,0.9410752,47.672558,-1.0276253,-1.7445842,-3.2879362,-0.26884285,0.13664716,-0.34290886,27.5625,28.8125,27.8125,31.4375,33.375,34.125
0.15405196,-2.600499,-1.80298,-1.5483453,-0.033381905,0.057237867,-0.12783904,-0.37834555,-0.32735577,0.060031604,-3.0789182,0.62394387,8.328354e-05,-0.07316811,0.012006697,0.0014465771,-0.003680517,0.003777353,0.008415885,0.44157997,-1.4629933,2.0005186,-2.106837,-1.5706252,2.4158728,-0.08874324,0.10431453,-0.12120749,0.0118893655,0.0014815334,-0.09707715,-0.4213795,0.22984336,-9.595961,0.75755644,47.657326,-1.025173,-1.6679201,-3.3068876,-0.25524658,0.1382517,-0.32764238,27.5625,28.8125,27.8125,31.4375,33.375,34.125
0.15605202,-2.326442,-1.715858,-1.6148814,-0.03790688,0.06385341,-0.1416607,-0.37850145,-0.327342,0.06005132,-3.0789874,0.6238408,0.000118794196,-0.07428684,0.012731378,0.00065344985,-0.0026755421,0.0021343015,0.0125472015,0.4413992,-1.4628004,2.0002549,-2.1068127,-1.5706013,2.4156191,-0.0909182,0.107413284,-0.1229627,0.012463628,0.0012779897,-0.10338175,-0.4405331,0.2681506,-9.500193,0.8314132,47.684196,-0.9630667,-1.7197521,-3.303576,-0.27255914,0.15453371,-0.28147936,27.5625,28.8125,27.8125,31.4375,33.375,34.125
0.15805194,-2.0434089,-1.6405985,-1.6675673,-0.034277435,0.071012914,-0.13571087,-0.37869167,-0.32732958,0.06006905,3.0790129,-0.62388134,-0.00022440852,-0.07540283,0.013019596,0.0007907062,-0.0027892028,0.0025558365,0.017177317,0.44120646,-1.4625605,1.999955,-2.106837,-1.5706013,2.4154487,-0.09235291,0.10852747,-0.12453959,0.012496773,0.0012075074,-0.10944535,-0.24899697,0.21068975,-9.500193,0.75084364,47.703007,-0.90734684,-1.7703276,-3.2781355,-0.28631786,0.13753444,-0.2121321,27.5625,28.8125,27.8125,31.4375,33.375,34.125
0.16005196,-2.0574508,-1.4865144,-1.396999,-0.035280894,0.07109357,-0.14395393,-0.37882936,-0.3272854,0.060057804,-3.0790133,0.6238235,0.0001623849,-0.078057796,0.014223131,-0.0001952355,-0.0022047604,0.0018103092,0.017468411,0.44100115,-1.4623432,1.9997271,-2.1067774,-1.5706013,2.4152074,-0.09677816,0.11326045,-0.1272919,0.011440529,0.0009846212,-0.11415884,-0.34476504,0.24899697,-9.634268,0.82022345,47.723602,-0.80863094,-1.8295832,-3.29534,-0.27351046,0.1428018,-0.15655991,27.5625,28.8125,27.8125,31.4375,33.375,34.125
0.16205204,-2.0485635,-1.5875629,-1.3961211,-0.036518466,0.06497921,-0.13736312,-0.37895903,-0.32725364,0.06004742,-3.0790203,0.6237454,7.965074e-05,-0.07804635,0.013244521,0.0010383376,-0.0033968883,0.004234487,0.022182819,0.44080988,-1.4621282,1.9994997,-2.1067178,-1.570577,2.4149666,-0.09491912,0.11150458,-0.12819071,0.011396879,0.0010215925,-0.1170141,-0.36391866,0.24899697,-9.557653,0.90750587,47.751366,-0.89743876,-1.7506135,-3.2991114,-0.258541,0.12767997,-0.08345154,27.5625,28.8125,27.8125,31.4375,33.375,34.125
0.16405192,-1.8831465,-1.4200983,-1.3283106,-0.03206747,0.062238477,-0.13614587,-0.3791442,-0.32723182,0.060076565,-3.0790524,0.62365776,0.00020283843,-0.08040107,0.014102095,0.0005061935,-0.0032271538,0.003834758,0.018454367,0.4406287,-1.4619113,1.9991878,-2.106694,-1.5706133,2.414727,-0.098579794,0.115301624,-0.13108224,0.010921289,0.0010405973,-0.11694391,-0.4213795,0.22984336,-9.442732,0.83589023,47.70659,-0.81588423,-1.8367057,-3.3803692,-0.23553339,0.13293272,-0.06545217,27.5625,28.8125,27.8125,31.4375,33.375,34.125
0.1660521,-1.718067,-1.1728878,-1.3026769,-0.03142795,0.057863176,-0.13205303,-0.37930518,-0.3272036,0.060065065,-3.0790658,0.62364227,0.00019123199,-0.08003243,0.014033776,0.00053833635,-0.0035310134,0.0037573643,0.016222943,0.44042483,-1.4616601,1.9989365,-2.106694,-1.5706013,2.414512,-0.09828254,0.11464484,-0.13045014,0.010887239,0.001350457,-0.11441618,-0.36391866,0.22984336,-9.404425,0.7709874,47.692257,-0.6882029,-1.7155809,-3.2297304,-0.22694778,0.13067564,-0.06447495,27.5625,28.8125,27.8125,31.4375,33.375,34.125
0.16805218,-1.2093674,-0.8245357,-1.1170514,-0.032102697,0.06470847,-0.14671716,-0.37948558,-0.3272037,0.060083743,3.079055,-0.62350893,-0.00025433168,-0.082248196,0.013316038,0.0014778433,-0.004577192,0.005691111,0.011278605,0.4402564,-1.4614077,1.9986118,-2.1066816,-1.570589,2.4142618,-0.09893593,0.117053516,-0.13536301,0.011197822,0.0014700105,-0.110122226,-0.3256114,0.095768064,-9.404425,0.784413,47.70211,-0.8173051,-1.7526182,-3.184947,-0.21078739,0.12884073,-0.09355466,27.5625,28.8125,27.8125,31.4375,33.375,34.125
0.17005219,-1.9874296,-1.1258914,-1.1493976,-0.0114142625,0.041388515,-0.12943007,-0.37963805,-0.3271348,0.06007212,3.0790536,-0.6235876,-0.00022337268,-0.082389444,0.013626032,0.0006677712,-0.0044273958,0.004638673,0.006697147,0.43999216,-1.4612155,1.9984206,-2.1066582,-1.570589,2.414047,-0.09979761,0.1184747,-0.13490404,0.010333274,0.0017804542,-0.10640275,-0.3256114,0.095768064,-9.385271,0.7709874,47.71286,-0.8531802,-1.8168676,-3.3219526,-0.2016637,0.1321345,-0.1600343,27.5625,28.8125,27.8125,31.4375,33.375,34.125
0.17205216,-1.4052632,-0.78129035,-1.0243205,-0.010178133,0.054328192,-0.14161518,-0.37986326,-0.32711983,0.060107134,3.0789506,-0.62366414,-0.00040211278,-0.08289595,0.013117121,0.00031344447,-0.004140436,0.0038414344,0.0034655815,0.4397645,-1.460975,1.9980854,-2.106706,-1.570589,2.4138803,-0.09929119,0.12110384,-0.13712695,0.010771042,0.0018719712,-0.1026631,-0.2873042,0.15322891,-9.174581,0.83589023,47.729877,-0.9115615,-1.8760593,-3.258121,-0.19408625,0.1352003,-0.17914161,27.5625,28.8125,27.8125,31.4375,33.375,34.125
0.17405221,-1.2464411,-0.6282146,-1.0109302,0.0005903252,0.048064277,-0.13064755,-0.37997773,-0.32711408,0.06007695,3.0790133,-0.623485,-0.0003150789,-0.084809616,0.012562888,0.0013056289,-0.0052022142,0.005729498,0.0021678593,0.4396442,-1.4607111,1.997857,-2.1066816,-1.570577,2.4136405,-0.10001204,0.122672655,-0.14125797,0.011173841,0.0020156493,-0.102084056,-0.095768064,0.19153613,-9.193734,0.85826975,47.701214,-0.9938618,-1.8204908,-3.2471461,-0.17607504,0.11468473,-0.25449017,27.5625,28.8125,27.8125,31.4375,33.375,34.125
0.17605218,-1.152923,-0.5024774,-1.0228919,-0.0043485262,0.027370272,-0.1323228,-0.38018176,-0.32707188,0.060105365,3.0789664,-0.62355435,-0.00041320646,-0.08346544,0.012844506,-0.00040199733,-0.0033502285,0.0018240769,-0.00021839466,0.4393926,-1.4604944,1.9975466,-2.1066573,-1.570589,2.4134383,-0.09928523,0.12474001,-0.13985473,0.012025121,0.0020138805,-0.09897163,-0.095768064,0.11492168,-9.212888,0.8023209,47.71554,-1.0445235,-1.971385,-3.2776244,-0.16588324,0.12668377,-0.29623544,27.5625,28.8125,27.8125,31.4375,33.375,34.125
0.17805234,-1.2461706,-1.1189525,-1.0253291,-0.0061007105,0.009660899,-0.1336804,-0.38034564,-0.32705715,0.060115606,3.078942,-0.62358797,-0.00041708004,-0.084636234,0.013018995,-0.0016979801,-0.00201759,-0.00088748266,-0.0009434294,0.43921196,-1.4602535,1.9972457,-2.1066096,-1.570577,2.413282,-0.100562446,0.13004455,-0.14297944,0.012867977,0.001957937,-0.09952136,-0.11492168,0.17238252,-9.193734,0.8179876,47.71465,-1.0924873,-1.9157255,-3.1530952,-0.14177366,0.11895193,-0.34862208,27.5625,28.8125,27.8125,31.4375,33.375,34.125
0.18005249,-0.515513,-1.2987403,-1.0593073,-0.00981427,0.016720368,-0.13488238,-0.38052902,-0.3270175,0.060132507,3.0789623,-0.6235741,-0.00050608075,-0.0850544,0.013350176,-0.0008949229,-0.0022485384,4.829463e-05,-0.004890321,0.43900788,-1.4600263,1.9969472,-2.1065733,-1.5706252,2.4130669,-0.10137052,0.1287242,-0.14361466,0.013875026,0.0017726381,-0.09638245,-0.038307227,0.22984336,-9.193734,0.7642693,47.703007,-1.1288884,-2.0122619,-3.303159,-0.14612651,0.11463511,-0.4006637,27.5625,28.8125,27.8125,31.4375,33.375,34.125
0.18205263,-1.0125564,-1.6097795,-0.97272766,-0.016503965,-0.004311459,-0.13521478,-0.3807107,-0.32701126,0.06012197,3.078924,-0.6235672,-0.00046033924,-0.08606412,0.013917996,-0.0012954609,-0.0016440675,-0.0008560555,-0.0067169187,0.4388033,-1.459714,1.9966229,-2.1065614,-1.570577,2.412863,-0.1031556,0.13085099,-0.1452189,0.014433672,0.0016076668,-0.09633971,0.076614454,0.28730422,-9.212888,0.8179876,47.685097,-1.0577271,-1.9471543,-3.263156,-0.15068062,0.13566959,-0.4567193,27.5625,28.8125,27.8125,31.4375,33.375,34.125
0.18405256,-0.6606313,-1.427332,-0.9859598,-0.03528089,0.005053439,-0.1386934,-0.38089046,-0.3269675,0.060110636,3.0789382,-0.6236068,-0.00050808286,-0.08702228,0.013879616,-0.0008821069,-0.0017884336,0.00014536027,-0.0047571906,0.438587,-1.4594501,1.9963592,-2.1065729,-1.5706133,2.41267,-0.1036746,0.13155124,-0.14699928,0.014543697,0.0013114638,-0.09881705,0.076614454,0.28730422,-9.212888,0.82694155,47.701214,-1.0640217,-2.0038474,-3.2847013,-0.14299199,0.13164479,-0.48071474,27.5625,28.8125,27.8125,31.4375,33.375,34.125
0.18605188,-0.29376316,-1.3906658,-0.7789716,-0.031978227,0.021225847,-0.14446583,-0.38106203,-0.3269479,0.06010838,3.0789194,-0.62363726,-0.00046880456,-0.088132605,0.014192349,-0.0008871157,-0.0016431672,-0.00015705301,0.0010291658,0.4383826,-1.4591743,1.9960479,-2.1065247,-1.570589,2.412487,-0.10517944,0.13324955,-0.14906517,0.015249108,0.0013068041,-0.10610706,0.11492168,0.28730422,-9.040505,0.7978386,47.694946,-1.0933741,-1.924409,-3.2478437,-0.13338245,0.13245091,-0.46661383,27.5625,28.8125,27.8125,31.4375,33.375,34.125
0.18805167,-0.6970987,-1.3589681,-0.95433867,-0.020640105,0.019079631,-0.14131282,-0.38123783,-0.32690236,0.060117364,3.0789316,-0.62358034,-0.0004668895,-0.08885032,0.014530165,-0.00069195876,-0.001879558,0.00041366444,0.005153336,0.43814242,-1.4589466,1.9957613,-2.1064646,-1.570589,2.41221,-0.106364004,0.13341418,-0.14968672,0.015089154,0.0012787657,-0.11141541,0.15322891,0.38307226,-9.136273,0.7530795,47.65912,-1.1233699,-1.8691095,-3.249009,-0.115934506,0.14394155,-0.4409321,27.5625,28.8125,27.8125,31.4375,33.375,34.125
0.1900526,-0.52457833,-1.3374552,-1.0641426,-0.0055302535,0.0075207255,-0.13706423,-0.38141546,-0.3268897,0.060118474,3.0789337,-0.6234969,-0.00049563777,-0.089245886,0.014116393,-0.0008267326,-0.0017035786,-0.00025246682,0.016301198,0.4379621,-1.4586704,1.9954499,-2.1064527,-1.570589,2.4119775,-0.105969794,0.1352967,-0.1516799,0.015876971,0.0014059903,-0.12216802,0.15322891,0.3256114,-9.174581,0.8023209,47.65912,-1.0261428,-1.921212,-3.2674432,-0.11163056,0.13188252,-0.36801267,27.5625,28.8125,27.8125,31.4375,33.375,34.125
0.19205254,-0.40335804,-1.6550126,-1.1100332,-0.005392893,0.014356958,-0.13356331,-0.3815896,-0.32687104,0.060119074,3.0789232,-0.62341624,-0.00048738916,-0.08957841,0.014744546,-0.001430791,-0.0011226415,-0.0018291447,0.0205008,0.43775794,-1.4584063,1.9951504,-2.1064289,-1.5705651,2.4117246,-0.10747591,0.13671456,-0.15204589,0.016501972,0.0015523947,-0.12787369,0.13407528,0.36391866,-9.155427,0.7553206,47.667187,-1.2589033,-1.8951359,-3.350356,-0.11002104,0.14633554,-0.28209132,27.5625,28.8125,27.8125,31.4375,33.375,34.125
0.1940526,-1.2572265,-1.4254547,-0.95206445,-0.013002086,0.0023260743,-0.1314947,-0.38176143,-0.32684055,0.060103863,3.0789642,-0.6233071,-0.00041410822,-0.090386845,0.0148052005,-0.00227131,-0.000978282,-0.003792001,0.024194065,0.43754134,-1.4581056,1.9948381,-2.1063688,-1.5705527,2.411435,-0.10870723,0.14011268,-0.15402527,0.016921783,0.0022451212,-0.13279767,-0.038307227,0.34476504,-9.270349,0.8157518,47.686886,-1.0016044,-2.0389857,-3.2640328,-0.09868972,0.11396289,-0.2124359,27.5625,28.8125,27.8125,31.4375,33.375,34.125
0.1960519,-0.39563832,-1.0294776,-1.2187378,-0.01799163,0.036491297,-0.14292839,-0.38193446,-0.32679555,0.060093045,3.0790303,-0.62320423,-0.00035080325,-0.09244747,0.014375826,0.00081181194,-0.003583154,0.0013729081,0.025874913,0.43731302,-1.4578195,1.9945263,-2.1062844,-1.5705646,2.4111342,-0.10976103,0.13688403,-0.15782562,0.018167125,0.0024044178,-0.1355314,-0.095768064,0.24899697,-9.32781,0.83813137,47.692257,-1.1698055,-1.7136047,-3.216896,-0.09962945,0.13081974,-0.17775898,27.5625,28.8125,27.8125,31.4375,33.375,34.125
0.198052,-1.5034947,-1.2153075,-1.2741369,-0.012078576,0.024679651,-0.118333824,-0.38211784,-0.32675532,0.06008372,3.0790431,-0.6231885,-0.00036044925,-0.09274361,0.014977097,0.00060975144,-0.003063003,0.00056779466,0.023539739,0.43708465,-1.457544,1.9942392,-2.106272,-1.5705765,2.4108946,-0.11099389,0.13738213,-0.15812288,0.018915478,0.0022752592,-0.13442896,-0.11492168,0.19153613,-9.442732,0.7620334,47.66091,-1.1199276,-1.7740368,-3.333264,-0.097463876,0.13205533,-0.16441748,27.5625,28.8125,27.8125,31.4375,33.375,34.125
0.2000522,-1.5898758,-1.365946,-1.4419235,-0.013316957,0.03204583,-0.12253012,-0.3823119,-0.32673463,0.060086593,3.0790126,-0.6231103,-0.0003281278,-0.09452572,0.01619315,-3.4779318e-05,-0.0023504947,-0.0007327443,0.015419309,0.43684334,-1.4572551,1.993904,-2.1062362,-1.5705284,2.4106085,-0.11469356,0.14045204,-0.160206,0.019416044,0.0021772415,-0.1300066,-0.24899697,0.095768064,-9.308656,0.80456203,47.684196,-1.0952884,-1.7369027,-3.2450638,-0.10622227,0.1313142,-0.18510287,27.5625,28.8125,27.8125,31.4375,33.375,34.125
0.20205173,-1.572199,-1.0463725,-1.3687366,-0.008449684,0.047960136,-0.12507549,-0.38248903,-0.3266963,0.060079254,3.0790372,-0.623058,-0.00029779185,-0.09446877,0.014696412,0.00022751885,-0.002478396,-0.00043957145,0.013130753,0.43661633,-1.4569792,1.9936036,-2.106188,-1.5705284,2.410346,-0.111777656,0.1420865,-0.16280529,0.02006175,0.0021608209,-0.124800675,-0.36391866,0.038307227,-9.346964,0.8179876,47.68599,-1.2159207,-1.763614,-3.3251379,-0.110670626,0.117832154,-0.24338914,27.5625,28.8125,27.8125,31.4375,33.375,34.125
0.20405264,-1.8705409,-0.8372046,-1.7205049,0.0055649537,0.051902585,-0.13021821,-0.382683,-0.3266855,0.06009277,3.079033,-0.62302375,-0.0003525247,-0.09548822,0.016977347,-0.00020170675,-0.002338151,-0.0016892018,0.005547399,0.43643424,-1.4566919,1.9932455,-2.1061518,-1.5705408,2.4101434,-0.11713444,0.14167339,-0.1614622,0.02032108,0.0025692065,-0.12257551,-0.45968673,0.038307227,-9.500193,0.8090337,47.639416,-1.0627486,-1.6625443,-3.4610949,-0.10278763,0.10946134,-0.2969947,27.5625,28.8125,27.8125,31.4375,33.375,34.125
0.20605166,-2.2098465,-0.5933568,-1.5433047,-0.0024846776,0.060404826,-0.13604903,-0.38286084,-0.32664743,0.06007337,3.0790246,-0.62305945,-0.0002574352,-0.0959725,0.016116655,-0.0005368352,-0.0022045653,-0.0021198955,0.0064036404,0.4361831,-1.4563912,1.9929451,-2.1061041,-1.5705045,2.4099157,-0.115920305,0.14453045,-0.16392106,0.020374704,0.0026188227,-0.122216046,-0.4213795,0.05746084,-9.595961,0.84708,47.686886,-1.1860136,-1.8475497,-3.342039,-0.11566538,0.116893485,-0.3358847,27.5625,28.8125,27.8125,31.4375,33.375,34.125
0.20805266,-2.3345957,-0.55946404,-1.644779,-0.010699453,0.077519655,-0.12717798,-0.38305768,-0.32661292,0.060070135,3.079042,-0.62302583,-0.00026540368,-0.09746444,0.016873427,-0.0015237787,-0.001256074,-0.0040320666,0.002944445,0.43595424,-1.4560906,1.9926103,-2.106068,-1.5705165,2.409664,-0.118531734,0.14860661,-0.1663398,0.02085059,0.0025617382,-0.121366404,-0.5554548,0.05746084,-9.557653,0.800085,47.6636,-1.0970378,-1.6994805,-3.3980622,-0.11309298,0.07702791,-0.3651988,27.5625,28.8125,27.8125,31.4375,33.375,34.125
0.2100526,-2.1201625,-1.0160573,-1.9317726,-0.010089983,0.10279124,-0.13699506,-0.3832449,-0.32658255,0.06007848,3.0790253,-0.6229839,-0.00018963835,-0.09817662,0.01745005,-0.001484356,-0.0013078355,-0.0040705446,0.0034550752,0.43570158,-1.4558148,1.9922632,-2.1059725,-1.5704683,2.4093874,-0.12019684,0.14897262,-0.16693158,0.02109597,0.0026208987,-0.12354203,-0.61291564,-0.019153614,-9.710882,0.8537928,47.70032,-1.0501896,-1.8384995,-3.4563103,-0.11587988,0.10240048,-0.3657527,27.5625,28.8125,27.8125,31.4375,33.375,34.125
0.21205258,-2.631941,-0.92190826,-2.015612,-0.024028052,0.10839539,-0.13825831,-0.38346636,-0.3265422,0.060090538,3.079041,-0.6229685,-0.0003202253,-0.09969045,0.018297542,-0.002148326,-0.0005561375,-0.005393248,0.000110212364,0.43547276,-1.4555265,1.9919151,-2.105972,-1.5705284,2.4091473,-0.12294416,0.15218161,-0.16913423,0.021599732,0.002500224,-0.12294265,-0.63206923,0.0,-9.768343,0.8537928,47.709274,-0.9620229,-1.859422,-3.4771824,-0.1082526,0.09738984,-0.42035878,27.5625,28.8125,27.8125,31.4375,33.375,34.125
0.21405175,-2.2605236,-0.96260554,-1.7103382,-0.026325291,0.11708706,-0.14015639,-0.38364774,-0.32650018,0.060066838,3.0790653,-0.6229706,-0.00020434258,-0.10069442,0.018945938,-0.0030661302,0.0004008204,-0.0072179143,0.0050348584,0.43521997,-1.4552021,1.9915923,-2.1059,-1.5705045,2.4088929,-0.12488629,0.1554439,-0.17081746,0.022083027,0.0023902934,-0.12980822,-0.61291564,-0.019153614,-9.864111,0.88289046,47.709274,-0.8309643,-2.023441,-3.4871902,-0.11962713,0.07990986,-0.381341,27.5625,28.8125,27.8125,31.4375,33.375,34.125
0.21605186,-2.8738723,-1.0956081,-1.5161642,-0.020661054,0.10092127,-0.13167678,-0.38384637,-0.3264728,0.060068373,3.0790617,-0.6228891,-0.00018135799,-0.10207245,0.019143345,-0.0026339744,-2.7834227e-05,-0.006067988,0.010764198,0.43497953,-1.454902,1.9912442,-2.105852,-1.5704807,2.4086022,-0.12631288,0.15632804,-0.17280899,0.021971546,0.0022896244,-0.13696282,-0.7278373,-0.038307227,-9.710882,0.8806493,47.701214,-0.85814476,-1.9407179,-3.4220924,-0.115530685,0.09418602,-0.3304894,27.5625,28.8125,27.8125,31.4375,33.375,34.125
0.21805215,-2.430135,-0.92040503,-1.6516824,-0.004662985,0.09799642,-0.13639134,-0.38407388,-0.32644388,0.06009064,3.0789835,-0.62290865,-0.0002401216,-0.104434565,0.018359186,-0.0013950301,-0.0013155637,-0.0026114858,0.017155716,0.43470335,-1.4546263,1.9908842,-2.105841,-1.570445,2.4083483,-0.12662892,0.15794034,-0.17729793,0.021178221,0.002000761,-0.14366694,-0.6895301,0.0,-9.672575,0.84484416,47.713753,-0.8764578,-1.9931352,-3.4282022,-0.10927166,0.08791968,-0.2236251,27.5625,28.8125,27.8125,31.4375,33.375,34.125
0.22005208,-2.437607,-0.9827748,-1.6397767,0.007242963,0.08649309,-0.1291009,-0.38427716,-0.3264016,0.060076796,3.079037,-0.6227808,-0.00024410702,-0.10478171,0.018647231,-0.0016985228,-0.0009973224,-0.0023009044,0.023447145,0.4344632,-1.4543023,1.9905499,-2.1058166,-1.5704688,2.408022,-0.1271087,0.15854932,-0.17711546,0.02023822,0.0015787786,-0.15043752,-0.68953013,-0.038307227,-9.634268,0.9030289,47.691364,-0.9389122,-1.9396703,-3.4759345,-0.08035867,0.0927161,-0.16400592,27.5625,28.8125,27.8125,31.4375,33.375,34.125
0.22205226,-2.0832713,-0.72597224,-1.4220685,-0.0024334937,0.09212267,-0.13101856,-0.38448828,-0.3263542,0.06007911,3.079068,-0.6227473,-0.00022495363,-0.105369315,0.018477255,-0.00260696,-7.561448e-05,-0.0038297165,0.026857601,0.43419927,-1.45399,1.990178,-2.1057332,-1.5704812,2.4077334,-0.12708937,0.16214645,-0.1791301,0.020430088,0.0013785723,-0.15382688,-0.7469909,0.076614454,-9.595961,0.91198283,47.749577,-0.9676901,-1.9352133,-3.4224787,-0.08511145,0.09985363,-0.12255776,27.5625,28.8125,27.8125,31.4375,33.375,34.125
0.22405224,-2.1294358,-0.9929375,-1.5305687,-0.008830944,0.08403801,-0.12453329,-0.384711,-0.3263095,0.060087252,3.07906,-0.6227106,-0.00025525969,-0.10689741,0.019401895,-0.0009479786,-0.0013068038,-0.0008695939,0.02017527,0.4339222,-1.4536915,1.9898189,-2.105697,-1.5704812,2.4074347,-0.12996477,0.15945435,-0.18007645,0.020865908,0.0012519278,-0.15001987,-0.63206923,0.24899697,-9.481039,0.78888994,47.72629,-1.0384089,-1.7663152,-3.4401221,-0.06656203,0.08425903,-0.11529207,27.5625,28.8125,27.8125,31.4375,33.375,34.125
0.22605234,-1.7429852,-1.6921571,-1.685524,-0.016670074,0.082575776,-0.1309252,-0.3849284,-0.32628295,0.060077503,3.0790355,-0.62268764,-0.00021866652,-0.10615953,0.018218044,-0.0014507687,-0.0005630619,-0.0020687373,0.018429246,0.43365952,-1.4533436,1.9894484,-2.1056726,-1.570445,2.407161,-0.12691742,0.16147487,-0.18138799,0.021563698,0.0010781502,-0.14522552,-0.47884035,0.22984336,-9.404425,0.87393653,47.71554,-1.0854276,-1.9389882,-3.5029788,-0.06532163,0.09573531,-0.16993614,27.5625,28.8125,27.8125,31.4375,33.375,34.125
0.22805229,-1.502823,-2.0291219,-1.4481901,-0.034840155,0.069953285,-0.12365441,-0.38514063,-0.32623485,0.060079567,3.079077,-0.62264335,-0.00027687973,-0.10781422,0.019791137,-0.002078989,0.00014553526,-0.0032339955,0.009101023,0.43341768,-1.4530431,1.9891008,-2.1056364,-1.5704931,2.4068866,-0.1310988,0.16372705,-0.18256812,0.021840492,0.0009224229,-0.14007764,-0.3256114,0.21068975,-9.385271,0.8179876,47.701214,-0.9295536,-1.8769922,-3.4602935,-0.08133672,0.09642252,-0.20283082,27.5625,28.8125,27.8125,31.4375,33.375,34.125
0.23005222,-1.269498,-1.6770703,-1.30685,-0.045077898,0.049211197,-0.122080356,-0.38538894,-0.32620472,0.06010824,3.0790536,-0.6225831,-0.00038086326,-0.109126695,0.019065745,-0.0007547972,-0.001043529,-0.00037736594,0.005396861,0.43315402,-1.4527317,1.9886802,-2.105601,-1.570505,2.4065886,-0.13071127,0.16361436,-0.18551338,0.021805558,0.00080445694,-0.1359842,-0.30645782,0.076614454,-9.385271,0.75755644,47.696735,-1.0178798,-1.8938677,-3.4198978,-0.066993415,0.098291256,-0.3018157,27.5625,28.8125,27.8125,31.4375,33.375,34.125
0.23205172,-0.88626987,-1.472725,-1.208956,-0.032371715,0.03671522,-0.13156357,-0.3856143,-0.32615927,0.06009261,3.079083,-0.62257105,-0.00038597372,-0.11028889,0.019106392,-0.00060365105,-0.0011291447,8.815246e-06,0.0013553925,0.43288982,-1.4523715,1.9883093,-2.1055772,-1.5705289,2.4063134,-0.13164406,0.16522017,-0.18776384,0.022061164,0.00071319006,-0.13287409,-0.21068975,0.1340753,-9.404425,0.842603,47.66539,-1.0525124,-1.8008654,-3.4518368,-0.05097255,0.11328854,-0.3710981,27.5625,28.8125,27.8125,31.4375,33.375,34.125
0.23405173,-0.039121818,-0.7138021,-1.016057,-0.016167639,0.04256698,-0.13167292,-0.38583043,-0.3261129,0.06010079,3.0790858,-0.62253696,-0.00042745945,-0.11186592,0.019890605,-0.0006310734,-0.0011496971,0.00022283361,-0.0043004234,0.43262485,-1.4520838,1.9879616,-2.105541,-1.5705417,2.406027,-0.13433208,0.16679685,-0.18949164,0.022008268,0.000640549,-0.12990506,-0.095768064,0.30645782,-9.251195,0.8717007,47.679718,-0.9983088,-1.7419417,-3.4040482,-0.025931,0.10217826,-0.41817796,27.5625,28.8125,27.8125,31.4375,33.375,34.125
0.23605245,-0.17678334,-1.0484977,-1.323474,0.015470037,0.018215384,-0.13023119,-0.38604662,-0.32606363,0.060076147,3.0790923,-0.6226319,-0.00033912476,-0.11270563,0.018134242,0.0012171454,-0.0029776436,0.0041182446,-0.0023481182,0.43233776,-1.4517127,1.9875907,-2.105481,-1.5705293,2.4057987,-0.1317054,0.1659541,-0.1928092,0.021867583,0.0006528894,-0.12922911,0.1340753,0.24899697,-9.193734,0.92093146,47.707485,-1.1008645,-1.6014488,-3.3588753,-0.016739575,0.12041789,-0.4860295,27.5625,28.8125,27.8125,31.4375,33.375,34.125
0.23805256,0.2166448,-0.3124345,-1.2311344,-0.0034794374,0.010194032,-0.14193225,-0.38630417,-0.3260517,0.06010978,3.0790062,-0.622576,-0.0004150047,-0.11427396,0.018608829,0.001480654,-0.0028764792,0.0042603663,-0.0017346811,0.43206114,-1.4513886,1.9871467,-2.1054566,-1.5704817,2.4054983,-0.13374476,0.16768023,-0.19561589,0.022868667,0.00051246106,-0.13188022,0.019153614,0.34476504,-9.193734,0.8784135,47.686886,-0.9671705,-1.5972377,-3.2995524,-0.031851698,0.12348133,-0.5042516,27.5625,28.8125,27.8125,31.4375,33.375,34.125
0.24005279,-0.3057641,-1.033457,-1.4641117,0.0043451935,-0.013139313,-0.13173416,-0.3865166,-0.3259783,0.06008516,3.0790713,-0.62265927,-0.00036796613,-0.11556323,0.018537214,0.002263614,-0.003171418,0.004884981,0.007745453,0.43177274,-1.4510412,1.9867991,-2.1053846,-1.5705293,2.405254,-0.13463312,0.16865592,-0.19892664,0.024507241,0.0005107414,-0.14224729,0.21068975,0.2681506,-9.097966,0.81351066,47.679718,-1.1075356,-1.6114094,-3.234622,-0.02477068,0.11422393,-0.46795523,27.5625,28.8125,27.8125,31.4375,33.375,34.125
0.2420521,0.037191108,-1.1486558,-1.4529939,-0.010003984,-0.0046663894,-0.13330688,-0.38674062,-0.32595286,0.060092606,3.079081,-0.6225015,-0.00041274473,-0.11647573,0.019601667,0.0017038735,-0.00227651,0.0028924886,0.017607778,0.43153194,-1.450717,1.9864148,-2.1053603,-1.5705293,2.4049137,-0.13732927,0.17073165,-0.20036799,0.026057431,0.0005424277,-0.15480515,0.2681506,0.2873042,-9.232041,0.7866488,47.672558,-1.0575738,-1.5145657,-3.3133001,-0.036328405,0.12346503,-0.38019288,27.5625,28.8125,27.8125,31.4375,33.375,34.125
0.24405263,-0.38874993,-2.0842361,-1.5769106,-0.014880348,-0.0062016873,-0.124927334,-0.38696632,-0.32591355,0.060097855,3.079076,-0.6225156,-0.00038282562,-0.11624291,0.01989961,0.00043801934,-0.0010683436,-0.00063843525,0.02576757,0.43125594,-1.4503806,1.986008,-2.1052759,-1.570517,2.4046474,-0.13784082,0.17369212,-0.20119059,0.027633388,0.0009242792,-0.16347654,0.30645782,0.2681506,-9.308657,0.8403672,47.677036,-1.0536871,-1.5956638,-3.2250702,-0.04191926,0.1318713,-0.2550825,27.5625,28.8125,27.8125,31.4375,33.375,34.125
0.24605258,-0.64217365,-1.747298,-1.3467219,-0.033046026,-0.0032009238,-0.13235259,-0.38719517,-0.32587522,0.060081158,3.079108,-0.62234646,-0.00035383142,-0.11697399,0.019961493,0.00011561559,-0.0007848354,-0.0023342203,0.030710673,0.43097952,-1.4500084,1.9856251,-2.1052516,-1.570505,2.4042616,-0.1387862,0.17623143,-0.20372957,0.029293269,0.0013730197,-0.16936429,0.15322891,0.30645782,-9.3661175,0.75755644,47.66987,-1.0537747,-1.684849,-3.2028313,-0.067277454,0.10943644,-0.17593399,27.5625,28.8125,27.8125,31.4375,33.375,34.125
0.24805172,-0.60061723,-1.5271432,-1.3105056,-0.042534646,0.027180865,-0.12593019,-0.3874484,-0.32582447,0.060101088,3.0790942,-0.62238187,-0.0003662429,-0.11871652,0.02002226,0.00024074732,-0.00091679825,-0.0027109338,0.030280706,0.43066716,-1.4496715,1.9851812,-2.1051548,-1.570505,2.4039733,-0.14047052,0.17920338,-0.20768023,0.030558912,0.0016461959,-0.17061672,-0.05746084,0.40222588,-9.308656,0.84484416,47.675243,-0.98613966,-1.980236,-3.1880498,-0.08942406,0.12576208,-0.14858842,27.5625,28.8125,27.8125,31.4375,33.375,34.125
0.25005177,-0.7974127,-1.5910572,-1.5800169,-0.03875521,0.039907567,-0.12784186,-0.38767472,-0.32577187,0.06008297,3.079162,-0.62232447,-0.00031008048,-0.118949495,0.020666659,-0.000630302,-0.00020855077,-0.00485466,0.021115936,0.43039054,-1.4492878,1.984775,-2.1050708,-1.5705289,2.4036527,-0.14192906,0.18111347,-0.20804605,0.031253923,0.0018846877,-0.16291068,-0.038307227,0.38307226,-9.404425,0.89631605,47.693153,-0.9853081,-1.9123266,-3.243023,-0.10490461,0.114353836,-0.1869896,27.5625,28.8125,27.8125,31.4375,33.375,34.125
0.25205183,-0.9030528,-1.4365735,-1.4517953,-0.044891614,0.050748732,-0.13346441,-0.38788906,-0.32575846,0.060095698,3.0791497,-0.6221543,-0.00027939628,-0.118798494,0.021721113,-0.0014107112,0.0007929954,-0.0071065566,0.012425953,0.43014976,-1.4489642,1.9843677,-2.1049984,-1.5704812,2.4033074,-0.14368512,0.1817969,-0.20732312,0.032319788,0.0019162457,-0.15597746,-0.11492168,0.38307226,-9.500193,0.91198283,47.701214,-0.9245738,-1.7888043,-3.3280232,-0.13364242,0.12138671,-0.26647985,27.5625,28.8125,27.8125,31.4375,33.375,34.125
0.25405183,-1.411023,-1.6049759,-1.432284,-0.056424696,0.056984067,-0.12910286,-0.38813418,-0.3256799,0.060075592,3.0791717,-0.62223685,-0.00022819806,-0.11938497,0.022833057,-0.0018213064,0.0014937046,-0.008842315,0.007258699,0.4298013,-1.4485928,1.9839848,-2.1049383,-1.5704931,2.403008,-0.14619283,0.18286529,-0.20797412,0.033770848,0.0019938836,-0.15331808,-0.28730422,0.3256114,-9.442732,0.80679786,47.691364,-0.9632995,-1.7071795,-3.4323936,-0.1540676,0.09877578,-0.31366676,27.5625,28.8125,27.8125,31.4375,33.375,34.125
0.256052,-1.7834073,-2.0751715,-1.4036425,-0.03938673,0.06543116,-0.12432283,-0.38836014,-0.32564488,0.06007713,3.0791845,-0.6221805,-0.000158335,-0.11815717,0.02180766,-0.0023624697,0.0020101215,-0.00985058,0.01006357,0.42952624,-1.4482332,1.9835547,-2.104831,-1.5704688,2.4026964,-0.14309847,0.18364893,-0.20769043,0.03383991,0.0019368868,-0.15302877,-0.4405331,0.30645782,-9.346964,0.7978386,47.687782,-0.9898295,-1.7612405,-3.5257978,-0.17260173,0.11179116,-0.3569033,27.5625,28.8125,27.8125,31.4375,33.375,34.125
0.25805184,-1.8794746,-1.611049,-1.2777604,-0.032237396,0.087521,-0.12906757,-0.38858715,-0.32563072,0.060082078,3.0791695,-0.62210083,-0.00019047562,-0.11975907,0.021954458,-0.0024866147,0.0014439926,-0.009022541,0.008671688,0.42929748,-1.4478848,1.9831485,-2.1048076,-1.5704569,2.40242,-0.14475752,0.1858308,-0.20962739,0.032608338,0.0021030903,-0.15329449,-0.59376204,0.21068975,-9.423578,0.87617236,47.694946,-0.9443369,-1.7754331,-3.5143938,-0.16568363,0.10969132,-0.37914306,27.5625,28.8125,27.8125,31.4375,33.375,34.125
0.26005182,-2.198967,-1.3547599,-1.165988,-0.028572258,0.09806202,-0.13201432,-0.38885173,-0.32558727,0.06009093,3.0791385,-0.6221495,-0.00016814335,-0.12067762,0.021043817,-0.0019151925,0.0005588057,-0.008127854,0.013098657,0.42897418,-1.4475012,1.9826797,-2.1047232,-1.5704325,2.4021313,-0.14401653,0.18731292,-0.2127714,0.033091974,0.002528344,-0.1569793,-0.5746084,0.15322891,-9.423578,0.9455522,47.723602,-1.1534803,-1.7022706,-3.6117923,-0.18447125,0.095082864,-0.3804031,27.5625,28.8125,27.8125,31.4375,33.375,34.125
0.26205167,-2.2746263,-0.61960167,-1.0907999,-0.021404942,0.08858173,-0.12679625,-0.3891036,-0.32554367,0.060100134,3.0791502,-0.62203264,-0.00022202425,-0.12208676,0.021144621,-0.0018412351,-0.00019329159,-0.008402854,0.018367851,0.42868543,-1.4471533,1.9822611,-2.104687,-1.570444,2.4017684,-0.14582735,0.18939875,-0.21546037,0.033629652,0.0033271818,-0.16405864,-0.5554548,0.076614454,-9.346964,0.83365434,47.689575,-1.0763692,-1.6770585,-3.5315309,-0.20978037,0.07466118,-0.33413157,27.5625,28.8125,27.8125,31.4375,33.375,34.125
0.2640517,-2.104803,-0.31613764,-1.0509233,-0.0013117548,0.0862545,-0.13492341,-0.38929787,-0.3254812,0.06003033,3.0792637,-0.62195736,1.8112216e-05,-0.12398135,0.022546077,-0.0019723112,-0.00021179832,-0.008373764,0.023275787,0.42839578,-1.4467094,1.981902,-2.1045916,-1.5704325,2.4014177,-0.1499317,0.1908603,-0.21685642,0.033534247,0.0032975862,-0.17307062,-0.59376204,0.05746084,-9.289502,0.842603,47.686886,-1.0239174,-1.7412268,-3.4724808,-0.20619053,0.07288215,-0.23360938,27.5625,28.8125,27.8125,31.4375,33.375,34.125
0.26605162,-1.7361149,0.21867888,-0.99473214,0.006930402,0.093734875,-0.14499281,-0.3895896,-0.3254517,0.060064975,3.0792615,-0.6217789,-0.00012510846,-0.123893015,0.022285955,-0.0027516016,0.0009948228,-0.010582976,0.031410664,0.42810813,-1.4463372,1.9813975,-2.104555,-1.5704569,2.4010193,-0.1491403,0.19366464,-0.2186166,0.034999214,0.0031322022,-0.18041267,-0.63206923,-0.019153614,-9.308657,0.86945957,47.692257,-1.1459632,-1.7549736,-3.4893975,-0.213439,0.07116943,-0.121319756,27.5625,28.8125,27.8125,31.4375,33.375,34.125
0.2680518,-1.8305062,-0.013585666,-1.1315179,0.014688341,0.08403013,-0.1347583,-0.3898569,-0.32542142,0.060080957,3.0791972,-0.62174547,-0.00011316612,-0.12584099,0.0217969,-0.0015744219,2.956113e-05,-0.0082360115,0.03304433,0.42778426,-1.4459653,1.9809307,-2.1044948,-1.5703968,2.400683,-0.14970131,0.19485676,-0.22282663,0.03549403,0.0030323733,-0.18260488,-0.59376204,-0.11492168,-9.270349,0.82022345,47.701214,-1.0399067,-1.7448068,-3.4639883,-0.26786035,0.0745285,-0.046705354,27.5625,28.8125,27.8125,31.4375,33.375,34.125
0.2700518,-1.8488352,-0.2725288,-1.153128,0.011641943,0.08823557,-0.12692535,-0.39009538,-0.32535824,0.060044374,3.079268,-0.6217248,-2.0957928e-06,-0.1278836,0.021285174,-0.0010216136,-0.00093130354,-0.0055706017,0.028362948,0.42747176,-1.4455332,1.9805111,-2.1044118,-1.5704087,2.400349,-0.15020525,0.19691467,-0.22611532,0.03390021,0.0027707838,-0.17842503,-0.78529817,-0.19153613,-9.308656,0.85826975,47.698532,-1.0420709,-1.838908,-3.3954613,-0.2725156,0.08912553,-0.07771048,27.5625,28.8125,27.8125,31.4375,33.375,34.125
0.27205175,-2.048833,-0.51162845,-1.0290607,0.014827043,0.091433,-0.12567861,-0.39033714,-0.32532027,0.060055338,3.0793006,-0.6215237,-1.6704282e-05,-0.12953553,0.021198014,-0.0005320583,-0.0014897371,-0.0033537387,0.020349173,0.42719558,-1.4451855,1.98008,-2.1043403,-1.5704087,2.3999434,-0.15105988,0.19811836,-0.22837882,0.03271245,0.0023528945,-0.17126371,-0.8236054,-0.1340753,-9.308656,0.85155696,47.741516,-1.1317682,-1.8082156,-3.2550583,-0.25639573,0.07055428,-0.1282794,27.5625,28.8125,27.8125,31.4375,33.375,34.125
0.27405182,-1.9670663,0.017400093,-1.1886525,0.012427787,0.09771642,-0.12820527,-0.39061373,-0.32527447,0.060056712,3.079272,-0.62159824,2.0232397e-05,-0.13056554,0.02110471,0.00080600654,-0.0018899123,-0.0015187016,0.012894098,0.42685977,-1.4447668,1.9795879,-2.104256,-1.5703849,2.399658,-0.15136328,0.1973785,-0.2310492,0.03429197,0.0019517387,-0.16411074,-0.6703765,-0.038307227,-9.251195,0.81351066,47.698532,-1.1902133,-1.6677036,-3.1666622,-0.27794635,0.06725203,-0.21048012,27.5625,28.8125,27.8125,31.4375,33.375,34.125
0.2760517,-1.906532,-0.30837086,-1.2650186,0.015804918,0.09791122,-0.12555353,-0.39086592,-0.3252495,0.0600583,3.0793042,-0.6214921,1.2330193e-05,-0.13054343,0.021845223,-0.0006029318,-0.0003022886,-0.0047206525,0.0072420267,0.4266074,-1.4443587,1.9791101,-2.104184,-1.5703973,2.3993356,-0.15252578,0.20025288,-0.23135684,0.035295554,0.0018319042,-0.15962079,-0.6703765,0.11492168,-9.308657,0.8291774,47.713753,-1.1996238,-1.5847874,-3.2749681,-0.29775336,0.08108899,-0.33557147,27.5625,28.8125,27.8125,31.4375,33.375,34.125
0.2780517,-1.4662349,-0.5703318,-1.2727966,-0.013967784,0.09810109,-0.1403462,-0.39115223,-0.32519478,0.06005731,3.079298,-0.62153316,-1.3028242e-05,-0.13165866,0.021642582,-0.00028823555,-0.00043577535,-0.0038042085,0.00086201925,0.42627093,-1.443939,1.9786304,-2.1041358,-1.5704092,2.399026,-0.15278742,0.20168819,-0.23379312,0.035405897,0.0015692516,-0.15350069,-0.4405331,0.15322891,-9.442732,0.86498255,47.707485,-1.2270278,-1.6167092,-3.3492517,-0.3203559,0.06778942,-0.42003626,27.5625,28.8125,27.8125,31.4375,33.375,34.125
0.28005192,-1.1288508,-1.3635441,-1.337689,-0.03509592,0.09314946,-0.13919215,-0.3913736,-0.32511696,0.060026556,3.0793757,-0.62158686,0.00014533607,-0.13236527,0.022003047,-9.545184e-05,-0.0006624233,-0.0032445742,-0.00069121696,0.425947,-1.4435436,1.9782242,-2.1039922,-1.5704211,2.398726,-0.15390912,0.20186116,-0.23448546,0.035320986,0.0015212694,-0.15306903,-0.30645782,0.11492168,-9.461885,0.8627467,47.694054,-1.2094052,-1.4646006,-3.4291224,-0.336635,0.084218234,-0.4880692,27.5625,28.8125,27.8125,31.4375,33.375,34.125
0.28205204,-1.4173572,-1.8910042,-1.3210895,-0.04793113,0.06963068,-0.124176145,-0.39164913,-0.32506096,0.06000937,3.0793836,-0.6215848,0.00016352686,-0.13260014,0.023099476,-0.0022795028,0.0011134481,-0.006662466,0.004669238,0.42560998,-1.4431107,1.9777693,-2.1039565,-1.5704211,2.398387,-0.15586847,0.20587502,-0.23391338,0.03458382,0.001311285,-0.16038823,-0.15322891,0.17238252,-9.576807,0.88960326,47.685097,-1.163815,-1.7963388,-3.5135508,-0.3505849,0.0885004,-0.4808001,27.5625,28.8125,27.8125,31.4375,33.375,34.125
0.2840519,-1.051406,-1.7571638,-1.2712235,-0.050595123,0.059286326,-0.13566357,-0.39192086,-0.32501626,0.06001689,3.0793848,-0.62154186,0.00014996801,-0.13414335,0.023788566,-0.0028203956,0.001175237,-0.006599586,0.013910972,0.42529735,-1.4427148,1.977291,-2.1038854,-1.5704211,2.3980477,-0.15826048,0.20834628,-0.23526946,0.033439524,0.0012230711,-0.1720206,-0.019153614,0.1340753,-9.481039,0.8403672,47.687782,-1.2270333,-1.8130949,-3.6141405,-0.32752672,0.07584447,-0.39311767,27.5625,28.8125,27.8125,31.4375,33.375,34.125
0.28605193,-0.64351636,-1.4557406,-1.3675214,-0.040369168,0.037333924,-0.12996504,-0.39219853,-0.32493997,0.06000291,3.0794058,-0.6216347,0.00017305401,-0.1363364,0.023290288,-0.0022305872,0.0001494938,-0.003987182,0.024786077,0.42493725,-1.4422946,1.9768347,-2.1038144,-1.570445,2.3977432,-0.15894394,0.21061698,-0.23893295,0.03202798,0.0010605741,-0.18357646,-0.05746084,0.24899697,-9.557653,0.8918391,47.672558,-1.1197267,-1.9835048,-3.631467,-0.32524103,0.09988703,-0.25855553,27.5625,28.8125,27.8125,31.4375,33.375,34.125
0.28805187,-0.4730778,-1.5250452,-1.160338,-0.03173354,0.026768928,-0.11920325,-0.39247468,-0.32492036,0.06001591,3.0793774,-0.62139696,0.00014081343,-0.13944167,0.023666553,-0.0011202635,-0.0013513791,-0.00034214402,0.028600221,0.42463645,-1.4418992,1.976355,-2.1037905,-1.5703973,2.3972979,-0.1620319,0.21186236,-0.24261123,0.030532246,0.0009251064,-0.19047596,-0.05746084,0.28730422,-9.346964,0.82694155,47.67166,-1.0028214,-1.7917836,-3.557992,-0.33028984,0.09566291,-0.1824483,27.5625,28.8125,27.8125,31.4375,33.375,34.125
0.29005197,-0.21906313,-1.2776529,-1.0462058,-0.03375658,0.023536675,-0.12490201,-0.39275944,-0.32487497,0.060005423,3.0793874,-0.621381,0.00015798234,-0.13961111,0.023487713,-0.0021082903,-0.000711361,-0.0012889556,0.02843829,0.42431235,-1.4414434,1.9758528,-2.1037314,-1.5703973,2.396963,-0.16157183,0.2144641,-0.24315897,0.029605819,0.00072590925,-0.18985295,-0.076614454,0.30645782,-9.270349,0.9097417,47.657326,-0.9391772,-1.8824439,-3.5118082,-0.3069183,0.10636599,-0.15165174,27.5625,28.8125,27.8125,31.4375,33.375,34.125
0.2920524,-0.116654694,-1.6361581,-1.2110143,-0.033852406,0.0130312415,-0.12710913,-0.39304247,-0.32481992,0.059989106,3.07942,-0.62131363,0.00013713667,-0.14134195,0.023315579,-0.0013652712,-0.0015736793,0.0006498968,0.021187156,0.4239879,-1.4409997,1.9753855,-2.1037076,-1.5704211,2.3965926,-0.1625562,0.21561064,-0.24618334,0.029356888,0.0007068133,-0.1835845,0.019153614,0.4405331,-9.3661175,0.8717007,47.688675,-0.9263679,-1.8147197,-3.4464169,-0.3074144,0.09510407,-0.20251217,27.5625,28.8125,27.8125,31.4375,33.375,34.125
0.29405206,-0.4546026,-2.3766024,-1.3062531,-0.05584844,0.00525451,-0.124760665,-0.39330027,-0.32477045,0.05997211,3.0795023,-0.6212,0.00023413541,-0.14319001,0.023534773,0.00026586026,-0.0029805277,0.003638065,0.013658942,0.42368734,-1.4405446,1.974882,-2.103575,-1.570433,2.3962111,-0.16440526,0.2145309,-0.24890652,0.029854871,0.00074142497,-0.17790449,-0.05746084,0.47884035,-9.308656,0.9321212,47.67345,-0.98873687,-1.8332126,-3.3479815,-0.30975196,0.10992853,-0.3000257,27.5625,28.8125,27.8125,31.4375,33.375,34.125
0.29605192,-0.56690043,-2.8378313,-1.0454772,-0.082559206,0.025008095,-0.124445215,-0.39359775,-0.32471097,0.05998257,3.079464,-0.6212501,0.00017601231,-0.14307943,0.023682907,-0.0014306781,-0.0016023059,0.00055744406,0.012045601,0.42332742,-1.4401482,1.9744037,-2.1035392,-1.570433,2.3958876,-0.1644463,0.21837553,-0.24945359,0.029932484,0.0007592316,-0.17633148,-0.17238252,0.6512228,-9.308657,0.85826975,47.690468,-1.1399329,-1.8205621,-3.2826278,-0.3017344,0.12474031,-0.3299653,27.5625,28.8125,27.8125,31.4375,33.375,34.125
0.29805234,-0.76085943,-2.7520478,-1.3000727,-0.08372141,0.057475347,-0.1314883,-0.39386782,-0.32467332,0.059959896,3.0795217,-0.6211462,0.00022524782,-0.14538819,0.023321666,0.00021322821,-0.0034815362,0.0038839965,0.010467289,0.4230389,-1.4396688,1.9738992,-2.1034677,-1.570445,2.3955274,-0.16579661,0.21858045,-0.2535686,0.030034948,0.0010906467,-0.17610204,-0.13407528,0.63206923,-9.346964,0.8985519,47.655537,-1.0381101,-1.7389641,-3.3566542,-0.29849193,0.120921776,-0.36947304,27.5625,28.8125,27.8125,31.4375,33.375,34.125
0.30005226,-1.7555104,-2.473258,-1.4361612,-0.08180022,0.052283328,-0.12582816,-0.39414534,-0.32461667,0.05995196,3.0795178,-0.62112623,0.0003071305,-0.1470208,0.023945818,0.0003261743,-0.0036738864,0.0039072707,0.011100478,0.422678,-1.4392371,1.973409,-2.1033714,-1.5704092,2.3951547,-0.16826963,0.22038332,-0.25609168,0.030661998,0.0012472174,-0.17920727,-0.095768064,0.49799395,-9.557653,0.9030289,47.686886,-1.0206742,-1.8956223,-3.3376899,-0.30232415,0.117965125,-0.39394662,27.5625,28.8125,27.8125,31.4375,33.375,34.125
0.30205247,-1.927848,-2.1017945,-1.0479728,-0.08208364,0.0670317,-0.13388138,-0.39447352,-0.32459685,0.059980802,3.0794735,-0.62105507,0.00018574584,-0.14754097,0.02387499,0.00057970453,-0.004836899,0.004683332,0.01693717,0.42236623,-1.4387821,1.9728221,-2.1033356,-1.5704087,2.3948045,-0.16890875,0.22030017,-0.25651783,0.029985834,0.0020060155,-0.18568394,-0.21068975,0.47884035,-9.385271,0.8627467,47.686886,-0.96979344,-1.7901886,-3.3127518,-0.30801234,0.10491252,-0.33551222,27.5625,28.8125,27.8125,31.4375,33.375,34.125
0.30405262,-2.4499462,-1.964242,-0.9230883,-0.05845249,0.07373723,-0.12732936,-0.39473638,-0.32454878,0.059935234,3.0795312,-0.62094474,0.0003300126,-0.1489018,0.023804775,0.0014180278,-0.006969867,0.006932946,0.02716436,0.4220415,-1.438279,1.9723428,-2.1032646,-1.5703844,2.394404,-0.17043073,0.21985726,-0.25776193,0.028750973,0.0030077146,-0.19743428,-0.34476504,0.34476504,-9.3661175,0.8291774,47.67166,-0.9154309,-1.7225479,-3.3653843,-0.2867685,0.09958559,-0.2341637,27.5625,28.8125,27.8125,31.4375,33.375,34.125
0.30605173,-1.5394709,-0.9823042,-1.285117,-0.021815848,0.088981405,-0.13068016,-0.3950432,-0.32451442,0.059962105,3.0794842,-0.620797,0.00023345424,-0.15011872,0.023280397,0.0010910572,-0.0078903455,0.0074165408,0.03512517,0.42170575,-1.437883,1.9718293,-2.1032407,-1.5703601,2.3939822,-0.17074774,0.22265683,-0.2599232,0.02730025,0.0036629215,-0.20571107,-0.1340753,0.15322891,-9.404425,0.9365982,47.68062,-1.044188,-1.7743342,-3.5104218,-0.2611696,0.09415522,-0.096745074,27.5625,28.8125,27.8125,31.4375,33.375,34.125
0.3080518,-1.5099465,-0.7866121,-1.0487038,-0.0039633317,0.07919693,-0.13666268,-0.39533302,-0.32445502,0.059948366,3.0795383,-0.6207299,0.0002575976,-0.15047564,0.022610582,0.0010435561,-0.008085214,0.008388236,0.03596824,0.42137018,-1.4374152,1.9713138,-2.1031573,-1.5703844,2.3935983,-0.16950536,0.22385937,-0.26102874,0.026234183,0.0034344583,-0.20531075,-0.24899697,-0.038307227,-9.461885,0.842603,47.686886,-1.0622742,-1.8101101,-3.5277536,-0.21949899,0.080263495,-0.05107746,27.5625,28.8125,27.8125,31.4375,33.375,34.125
0.31005168,-1.5855714,-0.42399672,-0.8671937,0.0011651681,0.06565794,-0.12536426,-0.3956546,-0.32443494,0.05995803,3.0794811,-0.6205702,0.00019705553,-0.15169059,0.022793604,0.0011574846,-0.008116664,0.00923332,0.02819973,0.42103374,-1.4369478,1.970764,-2.1031573,-1.5703367,2.3931696,-0.17048773,0.22525689,-0.2628968,0.025931414,0.0031334362,-0.19852285,-0.53630114,-0.095768064,-9.346964,0.88960326,47.696735,-1.0098217,-1.9545269,-3.5580068,-0.19923931,0.08314358,-0.1006649,27.5625,28.8125,27.8125,31.4375,33.375,34.125
0.31205258,-0.8883843,0.4694934,-0.92854255,0.016590083,0.058852542,-0.13792412,-0.3959525,-0.32437852,0.059917964,3.0794888,-0.6206545,0.00028613047,-0.15171869,0.023432573,-0.00038304928,-0.006410119,0.006461235,0.017306052,0.42067343,-1.43642,1.9702486,-2.1031096,-1.5703243,2.3928614,-0.17124481,0.22841474,-0.26312482,0.026231855,0.002700556,-0.1883855,-0.30645782,-0.11492168,-9.289503,0.85826975,47.701214,-1.1376112,-1.9062771,-3.4492805,-0.18068874,0.10384622,-0.2149534,27.5625,28.8125,27.8125,31.4375,33.375,34.125
0.3140525,-0.7186764,0.5479163,-0.8705631,0.029745242,0.054353535,-0.13426542,-0.3962803,-0.32431823,0.05993193,3.079519,-0.6205874,0.00012906271,-0.15448798,0.022764837,0.00087641174,-0.0076870285,0.009904883,0.009813144,0.4203372,-1.4359756,1.9697093,-2.1030862,-1.5703968,2.39248,-0.17199156,0.23059903,-0.26844564,0.025690682,0.002464543,-0.18163575,-0.2681506,-0.17238252,-9.442732,0.8493211,47.677036,-1.1485893,-1.9960876,-3.4476166,-0.16416919,0.09219049,-0.30326444,27.5625,28.8125,27.8125,31.4375,33.375,34.125
0.3160525,-0.6123143,0.3941466,-1.045769,0.033558615,0.05751172,-0.13976297,-0.396572,-0.32428393,0.059928097,3.0794902,-0.62056553,0.00019014288,-0.15634872,0.023506947,0.0006226328,-0.0075768568,0.010140186,0.002361737,0.42000005,-1.435508,1.9691705,-2.1030023,-1.5703486,2.392133,-0.17461075,0.23314312,-0.27075368,0.025294233,0.0022637567,-0.17680182,-0.3256114,-0.21068975,-9.32781,0.88960326,47.701214,-1.2241362,-1.9759705,-3.463903,-0.12473049,0.0847244,-0.41523874,27.5625,28.8125,27.8125,31.4375,33.375,34.125
0.31805244,-1.0422498,0.3424807,-1.1925789,0.0266465,0.033176444,-0.1349891,-0.3968821,-0.32423258,0.059911966,3.079484,-0.62054497,0.00020313486,-0.15669656,0.02341857,0.0005856827,-0.007243404,0.009037621,0.0015730569,0.41964033,-1.4350164,1.9686431,-2.1029656,-1.5703367,2.3917615,-0.17466216,0.23464036,-0.27287576,0.027064404,0.0024121392,-0.17606406,-0.3256114,-0.11492168,-9.500193,0.8717007,47.68599,-1.2267096,-1.98453,-3.3391902,-0.09230329,0.08233653,-0.47547996,27.5625,28.8125,27.8125,31.4375,33.375,34.125
0.3200524,-1.529806,-0.562589,-0.99258566,0.0030377144,0.045210246,-0.14004856,-0.39719877,-0.32418007,0.059919115,3.0795012,-0.62054104,0.0001443573,-0.15589148,0.023510145,1.937799e-05,-0.0055338885,0.005282462,0.011334132,0.41930455,-1.4345486,1.9680809,-2.1028922,-1.5703725,2.3914216,-0.17398526,0.23630705,-0.27450085,0.031145496,0.0023931582,-0.18514818,-0.4213795,-0.019153614,-9.423578,0.9030289,47.670765,-1.2690594,-2.0319133,-3.4977918,-0.108814165,0.089983664,-0.45701092,27.5625,28.8125,27.8125,31.4375,33.375,34.125
0.32205248,-1.1114231,-0.78829676,-1.2747883,-0.025124213,0.08057824,-0.1482193,-0.39748436,-0.3241279,0.059898257,3.0795257,-0.62046295,0.00023050568,-0.15552104,0.023744551,-0.0004702378,-0.00468664,0.003117341,0.024134105,0.4189565,-1.4340688,1.9675664,-2.1028078,-1.5703486,2.391022,-0.17401834,0.23735458,-0.27510625,0.033034146,0.0024960067,-0.19798169,-0.38307226,-0.1340753,-9.557653,0.93436235,47.70032,-1.3296252,-2.1397233,-3.488247,-0.13022424,0.07617082,-0.36707506,27.5625,28.8125,27.8125,31.4375,33.375,34.125
0.32405254,-1.9050409,-1.6649896,-1.5389975,-0.024002045,0.073786624,-0.13915125,-0.3978096,-0.32409608,0.059927046,3.0795228,-0.62032056,0.00019723533,-0.15620753,0.023842394,-0.00039131235,-0.004172844,0.0024204876,0.03380103,0.41862118,-1.4336014,1.9669441,-2.102688,-1.5703367,2.3905985,-0.17447571,0.23892425,-0.27756488,0.034775376,0.0023172584,-0.20810473,-0.15322891,0.038307227,-9.691729,0.9030289,47.658226,-1.3756542,-2.0340016,-3.4753766,-0.10660433,0.084629536,-0.24578092,27.5625,28.8125,27.8125,31.4375,33.375,34.125
0.3260516,-1.7082803,-1.7329708,-1.2607445,-0.05354671,0.08604667,-0.14580591,-0.39810172,-0.32401437,0.05988675,3.0796154,-0.62022156,0.0003251091,-0.15707193,0.024689147,-0.00013425652,-0.003740862,0.0017548987,0.035817776,0.41823724,-1.4330864,1.9664282,-2.1025794,-1.5703486,2.3901415,-0.17648587,0.23945527,-0.27933356,0.03679697,0.0021723292,-0.21213135,-0.36391866,0.19153613,-9.595961,0.8403672,47.687782,-1.3309075,-1.9571326,-3.4108837,-0.1285421,0.088276364,-0.16332677,27.5625,28.8125,27.8125,31.4375,33.375,34.125
0.32805258,-1.8827322,-1.5604354,-1.2042532,-0.04999105,0.07820535,-0.12836397,-0.39844266,-0.3239777,0.059902832,3.0795748,-0.62017864,0.00021991605,-0.15858723,0.025333911,0.00021384934,-0.003839412,0.0028901966,0.028710525,0.417889,-1.4326067,1.9658426,-2.102556,-1.5703491,2.389772,-0.17850472,0.24026819,-0.28114024,0.036714308,0.0018161231,-0.20704141,-0.5554548,0.19153613,-9.442732,0.84484416,47.692257,-1.2795123,-1.8418596,-3.4869804,-0.13284528,0.08560868,-0.16896275,27.5625,28.8125,27.8125,31.4375,33.375,34.125
0.3300519,-1.2970794,-1.5610547,-1.6772646,-0.021412322,0.078982845,-0.14305133,-0.39876148,-0.32393757,0.05990767,3.0795846,-0.6200892,0.00020511565,-0.16065015,0.02651125,0.0006101235,-0.0048107128,0.005396692,0.018325113,0.41755256,-1.4321154,1.9652556,-2.1024725,-1.5703491,2.3893788,-0.18210691,0.24023676,-0.28162894,0.03454926,0.0016853046,-0.20025752,-0.38307226,0.22984336,-9.557653,0.9097417,47.687782,-1.2134058,-1.9026892,-3.5376806,-0.09915069,0.10450986,-0.25954932,27.5625,28.8125,27.8125,31.4375,33.375,34.125
0.33205196,-1.1729268,-1.4086758,-1.5450146,-0.03222801,0.06953989,-0.13984862,-0.39908066,-0.3238977,0.059899386,3.0795667,-0.61999005,0.00022415582,-0.1616519,0.026580311,0.0011473682,-0.005231493,0.0064703664,0.0134387985,0.41719294,-1.4316125,1.9646934,-2.1024249,-1.5703129,2.38896,-0.1828427,0.24062298,-0.28348398,0.0348733,0.0016363136,-0.19610623,-0.22984336,0.24899697,-9.634268,0.9768804,47.685097,-1.2271464,-1.7673495,-3.573007,-0.08780135,0.08043031,-0.3301253,27.5625,28.8125,27.8125,31.4375,33.375,34.125
0.33405197,-0.7648006,-1.1563587,-1.336614,-0.034798224,0.06408458,-0.14794652,-0.39940235,-0.32382622,0.059893914,3.0795696,-0.62000906,0.00024178498,-0.16192372,0.026956843,0.00036063246,-0.0045680576,0.0043645194,0.011575497,0.41679725,-1.4311326,1.9641422,-2.1023405,-1.5703129,2.388576,-0.18373342,0.24290125,-0.2846202,0.035925277,0.0018826851,-0.19513355,-0.3256114,0.13407528,-9.615114,0.9679317,47.672558,-1.1506747,-1.7961949,-3.4997063,-0.090996034,0.091240115,-0.39401615,27.5625,28.8125,27.8125,31.4375,33.375,34.125
0.3360519,-1.1510748,-1.0211422,-1.3879724,-0.024760004,0.0470073,-0.14215787,-0.3997138,-0.3237655,0.059880435,3.079599,-0.6200144,0.00027941994,-0.16378109,0.026896799,0.0009544146,-0.0056496966,0.0057404423,0.011175328,0.41643745,-1.4306288,1.9635795,-2.1022446,-1.5703243,2.3882163,-0.18524177,0.24450332,-0.2879106,0.03591535,0.0023030248,-0.19624075,-0.30645782,0.15322891,-9.557653,0.9701675,47.66808,-1.0916287,-1.8723091,-3.5834622,-0.05203341,0.09115003,-0.38519463,27.5625,28.8125,27.8125,31.4375,33.375,34.125
0.3380521,-1.171296,-1.1014845,-1.4344065,-0.016039032,0.061690543,-0.14126787,-0.40006274,-0.32373598,0.059912022,3.079551,-0.6198831,0.00015283463,-0.16509648,0.027224584,0.0012388407,-0.005871708,0.0061663887,0.018601965,0.41608956,-1.4301611,1.9629682,-2.1022089,-1.5703124,2.3877928,-0.18676029,0.24578725,-0.29026017,0.036507513,0.0023546484,-0.2051847,-0.30645782,0.19153613,-9.519346,0.95226496,47.694946,-1.0665737,-1.9373937,-3.5650876,-0.06940801,0.08757433,-0.32877144,27.5625,28.8125,27.8125,31.4375,33.375,34.125
0.34005222,-1.1215113,-0.56771654,-1.5665797,-0.018173454,0.057970297,-0.14989607,-0.40042087,-0.3236796,0.059918404,3.0795429,-0.6197798,9.284442e-05,-0.16637552,0.027809111,0.0007796536,-0.0054766345,0.0051713726,0.027862255,0.41569296,-1.4296454,1.9623569,-2.1021607,-1.5703124,2.3873332,-0.188708,0.24851215,-0.2925782,0.037174795,0.0024058172,-0.21639146,-0.095768064,0.05746084,-9.576807,0.9410752,47.660015,-0.92390877,-1.946449,-3.5468457,-0.031020105,0.07456058,-0.23049954,27.5625,28.8125,27.8125,31.4375,33.375,34.125
0.34205243,-1.2305897,-1.0767517,-1.2320937,-0.013647924,0.052422963,-0.14498273,-0.40076798,-0.32362744,0.05993044,3.0795348,-0.6196977,9.720686e-06,-0.16674973,0.02889363,-0.00016279287,-0.004121202,0.0027134884,0.03161937,0.4153213,-1.4291536,1.9617594,-2.102112,-1.5703243,2.3869116,-0.19065747,0.25060594,-0.29322767,0.03852745,0.0021749225,-0.22209749,-0.114921674,0.05746084,-9.519346,0.9410752,47.64389,-0.89698094,-1.9740773,-3.4552593,-0.046750657,0.086534455,-0.14076427,27.5625,28.8125,27.8125,31.4375,33.375,34.125
0.34405226,-1.1126466,-1.3807122,-1.3240212,-0.025716653,0.04962352,-0.13887261,-0.4010837,-0.3235658,0.059920587,3.0795732,-0.6196108,5.8136244e-05,-0.1681775,0.028429452,0.00068983546,-0.004644562,0.0038020064,0.028551038,0.4149504,-1.4286497,1.9611844,-2.1020038,-1.5703243,2.386482,-0.19080016,0.2520611,-0.29726398,0.03990178,0.002202297,-0.21917023,-0.36391866,0.17238252,-9.442732,0.9634547,47.660015,-1.0132244,-2.102703,-3.445505,-0.04377391,0.08464023,-0.10028775,27.5625,28.8125,27.8125,31.4375,33.375,34.125
0.3460523,-1.124304,-1.1893457,-1.3607568,-0.02406139,0.04479749,-0.14536197,-0.4013982,-0.32349864,0.05990729,3.0796425,-0.6194937,0.000126752,-0.16835122,0.028787937,-4.783974e-05,-0.0038668993,0.0015877181,0.019333187,0.4145788,-1.4281344,1.9605988,-2.1018717,-1.5703367,2.386029,-0.19152386,0.2542199,-0.29847345,0.0412881,0.0023707151,-0.21067606,-0.21068975,0.17238252,-9.500193,0.8806493,47.698532,-0.9691192,-2.1237612,-3.4438946,-0.03899829,0.099213704,-0.193332,27.5625,28.8125,27.8125,31.4375,33.375,34.125
0.34805223,-0.71106297,-1.1450497,-1.3309691,-0.036641847,0.0479382,-0.15231305,-0.4017614,-0.32345068,0.05993309,3.0795758,-0.6194637,6.967407e-05,-0.16897939,0.028685309,0.00032573982,-0.0037471743,0.0014345021,0.010492509,0.41417158,-1.4276426,1.9599637,-2.1017992,-1.5703005,2.3856118,-0.19160837,0.25521073,-0.3009561,0.042974953,0.0023359822,-0.20191887,-0.15322891,0.22984336,-9.481039,0.92764956,47.684196,-1.0290302,-1.9882228,-3.4864724,-0.06884831,0.060931418,-0.3121553,27.5625,28.8125,27.8125,31.4375,33.375,34.125
0.35005227,-1.2241398,-1.8415024,-1.0349,-0.042445455,0.03547522,-0.13957576,-0.4021334,-0.32338944,0.059946455,3.0795496,-0.6194994,-1.6998964e-06,-0.16958961,0.027905144,0.0015050512,-0.0042781564,0.0029001252,0.003882617,0.4137646,-1.4271153,1.9593166,-2.1017272,-1.5703124,2.3852308,-0.19039217,0.2550874,-0.30400458,0.044588435,0.0022391877,-0.19409163,-0.15322891,0.17238252,-9.3661175,0.8851263,47.70211,-1.0657623,-2.0591316,-3.3983757,-0.049937427,0.09840255,-0.4457873,27.5625,28.8125,27.8125,31.4375,33.375,34.125
0.3520523,-1.3293923,-1.6506411,-0.8542143,-0.029325085,0.03405824,-0.13953736,-0.40244552,-0.32335564,0.059949897,3.0795522,-0.61940163,-3.4731609e-06,-0.16966116,0.027469145,0.0019801345,-0.004165356,0.0029282847,0.0034531022,0.4134415,-1.4266245,1.9587306,-2.1016424,-1.5703005,2.3848467,-0.18939765,0.25532573,-0.3058513,0.04621976,0.0021273957,-0.19266707,-0.2681506,0.22984336,-9.136273,0.9679317,47.690468,-1.2031724,-1.8649174,-3.4417322,-0.06250886,0.0824064,-0.5182521,27.5625,28.8125,27.8125,31.4375,33.375,34.125
0.35405225,-0.9326752,-0.5775469,-0.91055405,-0.00949822,0.04350959,-0.14834356,-0.40276548,-0.3232902,0.059918102,3.0796113,-0.6193309,6.4981796e-05,-0.17008024,0.028102428,0.0021218131,-0.0037531285,0.0017688435,0.010443753,0.41306978,-1.4260733,1.958156,-2.101558,-1.5703124,2.3844237,-0.19076122,0.25576115,-0.30732185,0.048483282,0.0022083446,-0.20102148,-0.21068975,0.15322891,-9.174581,0.90527004,47.642998,-1.4469211,-1.6981668,-3.420754,-0.07952886,0.09600143,-0.49825665,27.5625,28.8125,27.8125,31.4375,33.375,34.125
0.35605237,-0.6097811,-0.16443972,-1.1156346,0.0039098356,0.04277171,-0.15365317,-0.40311226,-0.32323435,0.059927776,3.07961,-0.6193021,5.2735413e-05,-0.1691361,0.02814238,0.0010452262,-0.0026092008,-0.001595934,0.02408108,0.41268668,-1.425558,1.9575218,-2.1014493,-1.5703124,2.3840232,-0.19007099,0.2575165,-0.30741653,0.050367583,0.0025193524,-0.21396929,0.1340753,0.038307227,-9.251195,0.947788,47.66987,-1.3486805,-1.7237017,-3.4269,-0.11884935,0.09521866,-0.38619924,27.5625,28.8125,27.8125,31.4375,33.375,34.125
0.35805354,-0.53483003,-0.76724017,-1.134708,0.012076919,0.018671613,-0.14907046,-0.40344697,-0.32318735,0.059923127,3.079622,-0.6191441,7.702893e-05,-0.17033172,0.029042566,0.0015014393,-0.0031163457,-0.002201894,0.033713438,0.4123144,-1.4250305,1.9569119,-2.1013653,-1.5702885,2.3835511,-0.19294854,0.25792304,-0.30951935,0.052423637,0.0032284604,-0.22647971,0.15322891,0.076614454,-9.289502,0.9835985,47.687782,-1.3058378,-1.6879816,-3.6153073,-0.14257751,0.0959093,-0.25602874,27.5625,28.8125,27.8125,31.4375,33.375,34.125
0.36005342,-0.33520475,-0.82238823,-1.0066938,-0.0053717694,0.009405261,-0.14460689,-0.4038203,-0.3231122,0.059934117,3.0796318,-0.61906797,3.4983423e-05,-0.1720558,0.028755957,0.0030640268,-0.0040255147,0.00016505888,0.036501944,0.411883,-1.4245032,1.9562634,-2.101269,-1.5703005,2.3830714,-0.19351642,0.25802207,-0.31367743,0.053950313,0.0031144388,-0.22983436,-0.114921674,0.038307227,-9.251195,0.8940802,47.716442,-1.2658075,-1.734272,-3.5748482,-0.15618244,0.07281708,-0.16915114,27.5625,28.8125,27.8125,31.4375,33.375,34.125
0.36205208,0.0106525645,-0.36757433,-0.91398823,-0.0030394439,0.01715877,-0.14361438,-0.40414545,-0.32306698,0.059941698,3.0796406,-0.6189588,7.4561896e-05,-0.17339168,0.02938671,0.0015831,-0.002174117,-0.0030878636,0.028600862,0.41152257,-1.4239987,1.9556402,-2.101137,-1.5702766,2.382642,-0.19529408,0.26372403,-0.31730098,0.05560029,0.0027111843,-0.22370835,-0.1340753,0.019153614,-9.193734,0.8918391,47.70032,-1.1315799,-1.7994536,-3.390757,-0.17720136,0.0886371,-0.21141902,27.5625,28.8125,27.8125,31.4375,33.375,34.125
0.3640521,-0.47561795,-0.46917617,-1.361096,0.020399688,0.0031922648,-0.14863108,-0.4045204,-0.32302657,0.05997342,3.0795956,-0.6188956,-1.6859076e-05,-0.17397751,0.030253718,0.00045910227,-0.00042874645,-0.0060516484,0.01908247,0.41113895,-1.4234822,1.9549588,-2.101052,-1.5702647,2.382225,-0.19687445,0.26713946,-0.31919223,0.05749339,0.002311103,-0.2157688,0.076614454,-0.038307227,-9.442732,0.90527004,47.678825,-1.1198187,-1.9134907,-3.3887281,-0.21613282,0.09457615,-0.31208384,27.5625,28.8125,27.8125,31.4375,33.375,34.125
0.36605212,-0.62096894,-0.56319785,-1.15205,0.004325175,0.025855415,-0.14432895,-0.4048436,-0.32294154,0.059966817,3.0796568,-0.6188505,6.63996e-05,-0.17548509,0.030788964,0.0008212423,-0.00039821942,-0.0054825554,0.013383224,0.41073143,-1.4229773,1.9543589,-2.1008842,-1.5702771,2.381782,-0.19868322,0.26843882,-0.32181597,0.05830659,0.0020334164,-0.21187705,-0.019153614,0.019153614,-9.346964,0.8672237,47.705692,-1.1659368,-2.0818455,-3.3871553,-0.24125916,0.090799995,-0.37933025,27.5625,28.8125,27.8125,31.4375,33.375,34.125
0.36805242,-0.8597942,-0.9067743,-1.0577681,-0.013806375,0.036307443,-0.14909153,-0.40518498,-0.32287282,0.059965823,3.0796747,-0.61881566,0.00012698938,-0.17669745,0.03164182,0.001141906,-0.0007667268,-0.0053033778,0.010327743,0.41032353,-1.4224492,1.9537252,-2.1007407,-1.5702647,2.3813505,-0.20116787,0.26883897,-0.3233202,0.059102133,0.0022882808,-0.21130627,-0.13407528,-0.019153614,-9.212888,0.8873621,47.692257,-1.0623822,-1.8866792,-3.3403196,-0.25646472,0.100887515,-0.41440713,27.5625,28.8125,27.8125,31.4375,33.375,34.125
0.3700524,-1.3118654,-1.2601109,-1.5366931,-0.023706522,0.05339023,-0.14617883,-0.4055184,-0.32281324,0.059964105,3.0797062,-0.6187214,0.00019012191,-0.17729549,0.032428853,0.00018208695,0.00038194153,-0.008437676,0.01568307,0.4099394,-1.42192,1.953091,-2.1005957,-1.5702528,2.380904,-0.2030022,0.27201664,-0.32540715,0.06134951,0.00247506,-0.21849547,-0.30645782,0.13407528,-9.346964,0.8985519,47.721813,-1.0575167,-1.8948497,-3.353849,-0.3216188,0.10209724,-0.38494813,27.5625,28.8125,27.8125,31.4375,33.375,34.125
0.3720526,-2.113122,-1.5943999,-1.7270356,-0.034646913,0.06041111,-0.14530438,-0.40585482,-0.32274863,0.059956495,3.079758,-0.61855036,0.00026577117,-0.17764378,0.03279317,-0.00030190527,-0.0009356525,-0.007299685,0.02682039,0.40954378,-1.4213793,1.9524578,-2.1004536,-1.5702404,2.3803954,-0.20421289,0.27178803,-0.32342348,0.058031913,0.0032137795,-0.23084535,-0.28730422,0.15322891,-9.557653,1.0820653,47.716442,-1.040607,-1.8438218,-3.5509813,-0.3301366,0.077678785,-0.26918626,27.5625,28.8125,27.8125,31.4375,33.375,34.125
