Tylouw/Master_Thesis_Code/training_data/batch_1/big_rod_t0.3/sample_74_session_2.csv
timestamp[s],tcp_force_x[N],tcp_force_y[N],tcp_force_z[N],tcp_force_rx[Nm?],tcp_force_ry[Nm?],tcp_force_rz[Nm?],tcp_pose_x[m],tcp_pose_y[m],tcp_pose_z[m],tcp_pose_rx[rot_vec_x],tcp_pose_ry[rot_vec_y],tcp_pose_rz[rot_vec_z],tcp_velo_x[m/s],tcp_velo_y[m/s],tcp_velo_z[m/s],tcp_velo_rx[rot_vec_x/s],tcp_velo_ry[rot_vec_y/s],tcp_velo_rz[rot_vec_z/s],q1[rad],q2[rad],q3[rad],q4[rad],q5[rad],q6[rad],qd1[rad/s],qd2[rad/s],qd3[rad/s],qd4[rad/s],qd5[rad/s],qd6[rad/s],tool_acc_x,tool_acc_y,tool_acc_z,current_of_whole_robot[A],voltage_of_whole_robot[V],current_J1[A],current_J2[A],current_J3[A],current_J4[A],current_J5[A],current_J6[A],temp_J1[C],temp_J2[C],temp_J3[C],temp_J4[C],temp_J5[C],temp_J6[C]
8.830102e-07,-0.35738045,-0.44550723,0.62999815,-0.02566231,0.022042297,-0.02305137,-0.37285247,-0.32821327,0.05991459,-3.078452,0.62486035,-0.00040835617,0.0020544676,0.0010075158,-0.00317253,0.0029001771,-0.00626369,-4.5188863e-05,0.44815025,-1.4708493,2.009621,-2.1076672,-1.5706376,2.4230676,-0.00010025854,0.0031750996,0.0038109242,-8.461617e-05,0.00010812764,-5.7037487e-05,0.038307227,0.24899697,-8.983045,0.7284641,47.72629,-0.11277518,-2.7740521,-2.4568186,-0.50449735,0.06410812,-0.103878245,27.8125,29.0625,28.125,31.8125,33.875,34.6875
0.002052788,-0.4285127,-0.32366508,0.665284,-0.016969021,0.010067284,-0.024251524,-0.37288857,-0.32821336,0.059925903,-3.0784523,0.6248985,-0.00026697217,-0.00086498336,-0.0004052713,-0.002613772,-0.0011145175,0.0020372805,-4.0831306e-05,0.44815025,-1.470837,2.009596,-2.107731,-1.5706857,2.4230914,-9.843087e-05,0.004216255,0.0037062303,-0.0102419155,0.00010630291,-5.6323643e-05,0.076614454,0.24899697,-8.90643,0.75084364,47.72271,-0.09248418,-2.8448815,-2.3380458,-0.44935805,0.051445063,-0.10581664,27.8125,29.0625,28.125,31.8125,33.875,34.6875
0.004051851,-0.44108677,-0.2226481,0.59434813,-0.0118783945,0.005994115,-0.02037082,-0.37288302,-0.32821944,0.059921846,-3.0784943,0.6247916,-0.00028938914,-0.0019203927,-0.00091595174,-0.0021345906,-0.002780091,0.005487127,-3.876989e-05,0.44815025,-1.4708371,2.0096085,-2.107744,-1.5706614,2.4230194,-9.666896e-05,0.0039295447,0.0037385256,-0.013818368,0.00010453913,-5.562738e-05,0.0,0.21068975,-8.887277,0.78888994,47.72271,-0.13553527,-3.043855,-2.5801315,-0.35291243,0.059661336,-0.1130936,27.8125,29.0625,28.125,31.8125,33.875,34.6875
0.006052253,0.048383553,-0.055418674,0.3358614,0.004450567,0.004223698,-0.0207486,-0.37289187,-0.3282022,0.05991063,-3.0784416,0.6248776,-0.00029740305,-0.0008446108,-0.0003956055,-0.0018691551,-0.0013137276,0.0024644448,-3.9023133e-05,0.44812617,-1.4708136,2.009608,-2.107742,-1.5706857,2.4230556,-9.4968906e-05,0.0028956556,0.003119609,-0.008805976,0.00010283267,-5.4948112e-05,0.095768064,0.17238252,-8.963891,0.7620334,47.7254,-0.17244703,-2.9980931,-2.5363982,-0.381137,0.057215616,-0.10456404,27.8125,29.0625,28.125,31.8125,33.875,34.6875
0.008052291,0.23092058,0.89416677,-0.03600391,0.02214973,-0.020635858,-0.022337567,-0.372883,-0.32821304,0.059904907,-3.0784492,0.6248981,-0.00033695466,-7.867458e-05,-2.5169209e-05,-0.0014499315,-0.0002879569,0.00035268624,-3.8997874e-05,0.4481382,-1.470802,2.009608,-2.1077406,-1.5706614,2.4230795,-9.33276e-05,0.0018265342,0.0023829185,-0.004652461,0.000101181,-5.4285276e-05,0.076614454,0.13407528,-9.155427,0.7463667,47.723602,-0.1433629,-2.9520426,-2.5065198,-0.42197773,0.05823675,-0.104635835,27.8125,29.0625,28.125,31.8125,33.875,34.6875
0.010052356,0.21385781,0.664739,-0.31726864,0.052036673,-0.033316333,-0.022040982,-0.37286103,-0.32820672,0.059887037,-3.0784516,0.6248604,-0.0003784252,4.8027778e-05,4.300725e-05,-0.0011497611,3.3413522e-05,-0.0003064536,-5.16729e-05,0.4481382,-1.4708141,2.0096676,-2.107764,-1.5706495,2.4230556,-0.000105246036,0.0015355889,0.0016018489,-0.0028471374,9.9581826e-05,-5.363825e-05,0.095768064,0.11492168,-9.346964,0.72622824,47.68062,-0.6387651,-2.4296055,-2.9584272,-0.47599274,0.059768166,-0.15409997,27.8125,29.0625,28.125,31.8125,33.875,34.6875
0.012052292,0.26453766,0.97276074,-0.5069077,0.018737253,-0.015426437,-0.035082366,-0.3728898,-0.3282206,0.059889555,-3.0784585,0.62486184,-0.000364404,-7.274681e-05,4.584142e-05,-0.002697352,0.0016503789,-0.0036696054,-0.0001414157,0.44813815,-1.470753,2.0095947,-2.1077635,-1.5706495,2.4230556,-0.00022281073,0.006009877,6.055218e-05,-0.002048458,9.803219e-05,-8.005374e-05,0.15322891,0.095768064,-9.5385,0.6658024,47.675243,-0.87028545,-2.3706174,-3.0495086,-0.47308916,0.076407254,-0.20343167,27.8125,29.0625,28.125,31.8125,33.875,34.6875
0.014052579,-0.020296382,-0.18098977,-0.7596739,-0.0012789841,0.009884683,-0.03456048,-0.37287387,-0.32819182,0.059849497,-3.0783966,0.62486976,-0.00048648316,-0.005417792,0.0032589268,-0.004470868,0.0032855952,-0.007123118,-0.0056122383,0.44809842,-1.4707135,2.0096405,-2.1077511,-1.5706495,2.4230287,-0.011143354,0.015005187,-0.0059227827,-0.0012402443,0.00010676919,-0.005525012,-0.076614454,0.095768064,-9.634268,0.7150385,47.70032,-0.365021,-2.9366148,-2.8380523,-0.49260682,0.0817117,-0.1932933,27.8125,29.0625,28.125,31.8125,33.875,34.6875
0.01605188,-1.1168047,-0.6607616,-0.75098604,-0.046928644,0.032922316,-0.03395228,-0.37285957,-0.32818046,0.05983354,-3.0783567,0.62480175,-0.00056406215,-0.0056685233,0.003587028,-0.004022998,0.002909443,-0.0063432055,-0.00065588864,0.44809812,-1.4706901,2.0096405,-2.1077034,-1.5706614,2.422991,-0.011986953,0.01383027,-0.005674645,-0.0011803159,0.00010484996,-0.01132532,-0.26815057,0.11492168,-9.749189,0.7665104,47.701214,-0.43699503,-2.8408322,-3.0386386,-0.50203425,0.0981548,-0.14429732,27.8125,29.0625,28.125,31.8125,33.875,34.6875
0.018051852,-2.1533685,-1.6294589,-0.59130627,-0.063996166,0.064157754,-0.03913427,-0.37286916,-0.3281917,0.059836123,-3.0783653,0.6248993,-0.0005993815,-0.0049751224,0.0036086414,-0.0041789585,0.0031228804,-0.0068435855,0.00070345396,0.44808632,-1.4706663,2.0096056,-2.1076915,-1.5706257,2.423039,-0.011413619,0.013115952,-0.0045685484,-0.0010284241,0.00013141487,-0.012112207,-0.45968673,0.17238252,-9.749189,0.7553206,47.704796,-0.6805272,-2.6489432,-3.290003,-0.5117435,0.11210159,-0.15577254,27.8125,29.0625,28.125,31.8125,33.875,34.6875
0.020052135,-1.6189955,-0.5858197,-0.5102969,-0.07450611,0.108542375,-0.062661126,-0.3728701,-0.32818374,0.05981639,-3.0783515,0.62483966,-0.0006855118,-0.005589865,0.00350148,-0.0039906465,0.001116638,-0.007344417,-0.00063153624,0.44806173,-1.4706182,2.0095928,-2.1076677,-1.5706128,2.4229789,-0.013142141,0.01344094,-0.0053690732,-0.0009778133,0.002153873,-0.012509477,-0.5363012,0.17238252,-9.864111,0.75084364,47.70032,-0.74057806,-2.5160913,-3.437523,-0.52378094,0.095768675,-0.1726669,27.8125,29.0625,28.125,31.8125,33.875,34.6875
0.022052204,-2.0452926,-0.15282106,-0.76646143,-0.03547166,0.088335544,-0.06726367,-0.37290296,-0.32817617,0.059834406,-3.078363,0.6249191,-0.00060174963,-0.0070239576,0.0029797356,-0.004124694,-0.0012297564,-0.008572148,-0.001926796,0.448025,-1.4706292,2.009569,-2.1076915,-1.5706238,2.4229903,-0.015256256,0.01642837,-0.008358254,-0.0008956091,0.0047944016,-0.01333135,-0.49799395,0.19153613,-9.768343,0.7597976,47.70659,-0.78784823,-2.5105066,-3.437671,-0.5438581,0.07584813,-0.18457025,27.8125,29.0625,28.125,31.8125,33.875,34.6875
0.024052426,-1.6330516,0.026061952,-0.6810862,0.0011070268,0.073634885,-0.083960004,-0.37288612,-0.32817397,0.059798006,-3.0783253,0.6248156,-0.0007205062,-0.009006064,0.002954444,-0.003311051,-0.0032240665,-0.007199954,-0.002964765,0.44803616,-1.4705572,2.009568,-2.1076677,-1.5706238,2.4229417,-0.017823033,0.017342782,-0.011183634,-0.0010898762,0.005988821,-0.014861267,-0.6512229,0.1340753,-9.768343,0.68818194,47.693153,-0.689013,-2.4473543,-3.3643444,-0.55454665,0.052549683,-0.1826829,27.8125,29.0625,28.125,31.8125,33.875,34.6875
0.026052235,-1.6057447,0.5534028,-0.64049727,0.0075597116,0.06034027,-0.09919855,-0.3728959,-0.32815304,0.059787378,-3.078308,0.62483174,-0.0007486018,-0.010626702,0.0026418383,-0.0027907025,-0.004100759,-0.004376553,-0.0027462675,0.4479879,-1.4705448,2.009579,-2.1076686,-1.5706238,2.4229057,-0.018409897,0.018305495,-0.012949517,-0.0032094582,0.0055463496,-0.015663968,-0.7278373,0.15322891,-9.787497,0.71951014,47.691364,-0.72465223,-2.481058,-3.392517,-0.5483638,0.050784677,-0.18858123,27.8125,29.0625,28.125,31.8125,33.875,34.6875
0.028052172,-1.6752307,0.13529973,-0.6403387,0.007925324,0.07243755,-0.11331264,-0.3729417,-0.32817337,0.059798412,-3.078389,0.6248863,-0.0006882088,-0.012012359,0.0024677112,-0.0023786603,-0.005259131,-0.0012650483,-0.0020707785,0.44795176,-1.4705088,2.0095308,-2.1077416,-1.5705756,2.4228933,-0.019129602,0.018540366,-0.013462127,-0.00623597,0.0052352296,-0.017056808,-0.68953013,0.17238252,-9.80665,0.65684843,47.685097,-0.7563657,-2.487578,-3.4627097,-0.5242085,0.0701641,-0.19184381,27.8125,29.0625,28.125,31.8125,33.875,34.6875
0.030052237,-2.098707,-0.25776854,-0.42823258,-0.020566031,0.0838381,-0.112326466,-0.37298065,-0.3281664,0.059804976,-3.0783858,0.6249049,-0.0006871934,-0.013242279,0.0024438717,-0.0012325473,-0.006335819,0.0006032919,-0.0023904662,0.44790322,-1.470461,2.0094578,-2.1077173,-1.5705756,2.4228568,-0.020308144,0.017884053,-0.0154939685,-0.0056985216,0.005393043,-0.01791503,-0.7661445,0.095768064,-9.634268,0.7351769,47.64389,-0.7902546,-2.328794,-3.4117692,-0.5140162,0.07055096,-0.16820657,27.8125,29.0625,28.125,31.8125,33.875,34.6875
0.032052256,-1.7741925,-0.18369843,-0.33325252,-0.040359564,0.094776265,-0.14101252,-0.372985,-0.32815158,0.059787955,-3.078375,0.624942,-0.00075669517,-0.013577093,0.0024789558,-0.0014298892,-0.006659098,-0.0013787772,-0.0032641268,0.4478549,-1.4704365,2.0094697,-2.1077168,-1.5705513,2.422833,-0.021458149,0.019416537,-0.017119257,-0.0039625717,0.006542561,-0.018193292,-0.7278373,0.05746084,-9.557653,0.7351769,47.698532,-0.8031728,-2.4007146,-3.3692212,-0.52392024,0.067992434,-0.17798772,27.8125,29.0625,28.125,31.8125,33.875,34.6875
0.03405248,-2.0101748,-0.2519114,-0.3142185,-0.016796669,0.071631834,-0.14331014,-0.3730482,-0.32817376,0.059808083,-3.0784233,0.6249715,-0.0006796566,-0.014287816,0.002155732,-0.0014076851,-0.007563909,-0.0021746857,-0.004367337,0.44783065,-1.4703641,2.0093496,-2.1077402,-1.5705389,2.422821,-0.022279678,0.021074709,-0.019149119,-0.0032690326,0.0077015576,-0.017912231,-0.7852981,0.038307227,-9.749189,0.7597976,47.687782,-0.8245232,-2.436221,-3.346253,-0.55340195,0.051561676,-0.17752971,27.8125,29.0625,28.125,31.8125,33.875,34.6875
0.03605183,-1.522239,0.13794176,-0.3999913,0.011271389,0.054283977,-0.16093399,-0.373071,-0.32815298,0.05979229,-3.078426,0.6250313,-0.0007441557,-0.015563157,0.0022529333,-0.0007238275,-0.008193273,-0.0006574343,-0.0060769524,0.44774628,-1.4703283,2.009349,-2.1077516,-1.5705026,2.4227736,-0.023556808,0.021282569,-0.020931236,-0.0033333015,0.0076080235,-0.017478617,-0.4213795,0.0,-9.595961,0.7732232,47.705692,-0.8107165,-2.3197472,-3.284246,-0.55984914,0.04798469,-0.1718964,27.8125,29.0625,28.125,31.8125,33.875,34.6875
0.038051937,-1.2014902,0.3651159,-0.35558408,0.031068275,0.033646338,-0.17367275,-0.3731328,-0.32812876,0.05978824,-3.0783834,0.62508035,-0.00065360893,-0.017261686,0.002462422,-0.00030685886,-0.0091564385,0.0018977738,-0.007190931,0.44768554,-1.470256,2.0092876,-2.1077888,-1.5705632,2.422749,-0.025325628,0.021802846,-0.021954026,-0.005550874,0.0073632426,-0.018131413,-0.2873042,0.0,-9.576807,0.7933669,47.71286,-0.7875519,-2.3336244,-3.3565364,-0.5406081,0.04955416,-0.18755315,27.8125,29.0625,28.125,31.8125,33.875,34.6875
0.040052105,-0.98321295,0.26387912,-0.40837657,0.036797624,0.014773282,-0.18717812,-0.37313628,-0.32812402,0.059779536,-3.0783904,0.62508255,-0.0007327402,-0.018830832,0.0027210715,6.3967864e-06,-0.010118549,0.003850846,-0.007897525,0.44764888,-1.4702319,2.0092757,-2.1077654,-1.570527,2.4227128,-0.02724756,0.02242851,-0.02294658,-0.0073602195,0.0073777908,-0.019345816,-0.22984336,0.0,-9.423578,0.7620334,47.70659,-0.78770304,-2.3589196,-3.3672037,-0.5170206,0.05376546,-0.17130029,27.8125,29.0625,28.125,31.8125,33.875,34.6875
0.042052157,-0.3713986,0.24259791,-0.4566296,0.03046805,0.015469112,-0.1952742,-0.37319595,-0.32812896,0.059812933,-3.0784342,0.6251113,-0.00060029,-0.020256698,0.002846881,0.0005534732,-0.010861207,0.005194238,-0.00890341,0.44761235,-1.4702196,2.0091913,-2.1077898,-1.5705394,2.4226887,-0.028834138,0.023065181,-0.024835333,-0.00764091,0.007463066,-0.019924648,-0.095768064,0.0,-9.3661175,0.7486078,47.737038,-0.7155801,-2.2663498,-3.3380594,-0.4996124,0.041411385,-0.15841652,27.8125,29.0625,28.125,31.8125,33.875,34.6875
0.04405225,-0.669788,-0.1546353,-0.61560506,0.023008808,0.00344437,-0.18969509,-0.3732323,-0.32812747,0.05981199,-3.0784616,0.62515527,-0.00062072003,-0.021128908,0.003275157,0.00053802837,-0.010283609,0.0051364135,-0.009397507,0.44755194,-1.4701715,2.009143,-2.1078012,-1.5705031,2.4226522,-0.030092793,0.02422861,-0.02619066,-0.007143948,0.0069660433,-0.020687297,0.019153614,0.095768064,-9.404425,0.7016076,47.73256,-0.7297828,-2.2126422,-3.3213215,-0.51638675,0.049933307,-0.18027183,27.8125,29.0625,28.125,31.8125,33.875,34.6875
0.046052054,-0.3871682,-0.57668847,-0.6689803,0.010624887,0.007936326,-0.1933853,-0.37329414,-0.32811034,0.059806913,-3.0784657,0.62525266,-0.00060396496,-0.022022408,0.003907481,0.0005877099,-0.00962221,0.004716078,-0.00998948,0.44745538,-1.4700992,2.0090835,-2.1078365,-1.5704912,2.422616,-0.031808197,0.025230017,-0.027665246,-0.0060032057,0.0065518986,-0.021809064,-0.019153614,0.076614454,-9.385271,0.73069996,47.701214,-0.697518,-2.2576404,-3.3282657,-0.52028906,0.06959137,-0.16022111,27.8125,29.0625,28.125,31.8125,33.875,34.6875
0.04805264,0.12445496,0.013814365,-0.5701102,-0.015939103,0.016002996,-0.18815823,-0.3733364,-0.32810923,0.059813786,-3.0784547,0.62525034,-0.00056587567,-0.022890398,0.003971503,0.0008436485,-0.010258908,0.004763974,-0.00953092,0.447431,-1.4700391,2.008999,-2.1078246,-1.570515,2.4225917,-0.033087377,0.02600142,-0.029201532,-0.005559332,0.007102634,-0.023546875,0.038307227,0.13407528,-9.404425,0.7732232,47.72002,-0.68214464,-2.2343707,-3.3079844,-0.5282726,0.0650041,-0.1498599,27.8125,29.0625,28.125,31.8125,33.875,34.6875
0.05005225,-0.4488829,-0.93552274,-0.65564024,0.0025532832,-0.0017514295,-0.17110299,-0.37337726,-0.32808214,0.059810348,-3.078461,0.62530917,-0.000561233,-0.023385862,0.004164089,0.0011362323,-0.010755872,0.004673971,-0.009349132,0.44733456,-1.4700152,2.0089862,-2.107849,-1.5705026,2.4225311,-0.03422494,0.026005115,-0.030035868,-0.0048632785,0.0075900094,-0.02486677,0.05746084,0.095768064,-9.519346,0.7530795,47.71465,-0.7010607,-2.1889632,-3.2875953,-0.51990795,0.07480633,-0.15160923,27.8125,29.0625,28.125,31.8125,33.875,34.6875
0.052052192,-0.14138074,-0.5611484,-0.6242435,-0.016033622,0.004595388,-0.17587586,-0.37339932,-0.32805863,0.059788305,-3.0784204,0.6253386,-0.0006626272,-0.024334371,0.0043687476,0.0015976741,-0.011177885,0.0055905464,-0.008925226,0.44726217,-1.4699433,2.0089495,-2.1078122,-1.5704907,2.4224823,-0.035454474,0.026136268,-0.031259485,-0.0047788033,0.007569688,-0.026519993,0.076614454,0.095768064,-9.500193,0.78217715,47.71465,-0.6632024,-2.1558409,-3.325964,-0.5341153,0.10279393,-0.1320297,27.8125,29.0625,28.125,31.8125,33.875,34.6875
0.05405241,-0.31059662,-0.67711395,-0.5905688,-0.018512642,-0.0004987849,-0.17376225,-0.37344936,-0.32805297,0.059780337,-3.0784354,0.62536126,-0.00068657374,-0.025085485,0.004629705,0.0013435059,-0.011476168,0.0050936234,-0.009070691,0.4471896,-1.4698589,2.008878,-2.1078246,-1.5704664,2.422422,-0.0369486,0.027476499,-0.03211098,-0.0049489457,0.008051339,-0.027868846,0.0,0.21068975,-9.576807,0.6971306,47.739727,-0.6523118,-2.1584747,-3.3933938,-0.52192634,0.08781005,-0.11801909,27.8125,29.0625,28.125,31.8125,33.875,34.6875
0.056052122,0.1284138,-0.548658,-0.6462907,-0.024160096,0.0135982055,-0.17601863,-0.37349835,-0.32804883,0.059785727,-3.0784473,0.6254596,-0.00065323163,-0.025965778,0.0043491544,0.0016986378,-0.012977261,0.005647592,-0.008898221,0.44712925,-1.4698107,2.0088184,-2.107849,-1.5704545,2.4224215,-0.03796758,0.028062133,-0.033486687,-0.0053105447,0.009162607,-0.02906116,0.0,0.24899697,-9.519346,0.7732232,47.728977,-0.64819515,-2.1194074,-3.4030306,-0.53035694,0.09120999,-0.119816594,27.8125,29.0625,28.125,31.8125,33.875,34.6875
0.058052056,-0.97237676,-1.050678,-0.56072026,-0.02210454,-0.0028902006,-0.16908595,-0.37355176,-0.3280361,0.059786703,-3.0784662,0.6253674,-0.00065375085,-0.027169535,0.004462783,0.0019358024,-0.013759106,0.006190517,-0.009571643,0.44705677,-1.4697385,2.008734,-2.1078365,-1.5704545,2.4222891,-0.039584305,0.029085895,-0.035102293,-0.0055472343,0.009629253,-0.030004181,-0.05746084,0.24899697,-9.576807,0.784413,47.74868,-0.69081867,-2.1088023,-3.4190145,-0.5291796,0.0947711,-0.100696504,27.8125,29.0625,28.125,31.8125,33.875,34.6875
0.060052115,-0.833278,-0.89709395,-0.6828335,-0.024429783,0.013918807,-0.16974384,-0.37362966,-0.3280207,0.059816446,-3.0784998,0.62554693,-0.0005438288,-0.027964681,0.0041557234,0.0022830453,-0.014353937,0.006887332,-0.009076306,0.44694877,-1.4697262,2.0086606,-2.1078727,-1.5704421,2.422289,-0.03987918,0.029911842,-0.036801808,-0.005558501,0.009864711,-0.03079274,-0.1340753,0.21068975,-9.557653,0.7642693,47.71554,-0.7466596,-2.1053116,-3.403948,-0.52312577,0.0816616,-0.09025209,27.8125,29.0625,28.125,31.8125,33.875,34.6875
0.062052354,-0.76911557,-0.6176826,-0.59964335,-0.03255619,0.028254274,-0.16730583,-0.37365535,-0.3280247,0.05980082,-3.0785232,0.62551254,-0.0006363703,-0.028477615,0.004095107,0.0023525816,-0.015312018,0.0067355502,-0.007942681,0.44690025,-1.4696423,2.0086014,-2.1078603,-1.5703939,2.422216,-0.040854,0.03045382,-0.037540104,-0.0056404974,0.010791111,-0.03290276,-0.19153614,0.2681506,-9.481039,0.784413,47.705692,-0.7266414,-1.9529605,-3.3905435,-0.53550756,0.0855372,-0.07957932,27.8125,29.0625,28.125,31.8125,33.875,34.6875
0.06405259,-1.2273146,-1.0565187,-0.56314313,-0.019451173,0.02327045,-0.16142368,-0.37374538,-0.3280065,0.05981435,-3.078547,0.6254983,-0.0005646045,-0.029210614,0.0038052208,0.0024322749,-0.0164045,0.0065251007,-0.008101448,0.44679213,-1.469558,2.0084808,-2.1078727,-1.5704054,2.422096,-0.041692182,0.031687636,-0.03908553,-0.005614133,0.011866796,-0.033582523,-0.2681506,0.30645782,-9.500193,0.7351769,47.716442,-0.780356,-1.9277557,-3.4168031,-0.542102,0.06998229,-0.06391798,27.8125,29.0625,28.125,31.8125,33.875,34.6875
0.06605184,-1.3489133,-0.67048013,-0.45492646,-0.021376165,0.03291068,-0.16538699,-0.3737862,-0.3280242,0.059834078,-3.0786302,0.62553567,-0.0005058393,-0.030184506,0.0035229411,0.002398092,-0.01710369,0.006873988,-0.009342053,0.4467558,-1.4695454,2.0084326,-2.107921,-1.5703572,2.4220724,-0.042363904,0.033400323,-0.040730312,-0.0062985206,0.012345031,-0.033012033,-0.17238252,0.2681506,-9.576807,0.7530795,47.716442,-0.7646184,-1.9399012,-3.440687,-0.5298995,0.047671944,-0.059189163,27.8125,29.0625,28.125,31.8125,33.875,34.6875
0.06805171,-0.4403575,0.29989898,-0.25143155,-0.032714758,0.06136583,-0.18181792,-0.3738508,-0.3280088,0.059839074,-3.0786457,0.62565506,-0.00055209803,-0.031282358,0.0036008474,0.0022422783,-0.018160086,0.006637756,-0.011979156,0.44663537,-1.469473,2.0083363,-2.107897,-1.5703086,2.4220245,-0.044209074,0.035048686,-0.0420552,-0.006866076,0.013397609,-0.032220736,-0.1340753,0.21068975,-9.519346,0.7866488,47.70838,-0.81894684,-2.0378864,-3.435284,-0.54261297,0.04110595,-0.08279786,27.8125,29.0625,28.125,31.8125,33.875,34.6875
0.07005257,-1.0352577,0.13721855,-0.343294,-0.019330543,0.050940424,-0.170741,-0.37390926,-0.32801738,0.05984476,3.078636,-0.625577,0.0005261528,-0.03258462,0.0039221225,0.0027989962,-0.018535227,0.007940736,-0.012174241,0.44657457,-1.469401,2.0082524,-2.1079328,-1.5702733,2.4219162,-0.045832455,0.035341986,-0.043646894,-0.006901785,0.013171796,-0.033647005,-0.2681506,0.19153613,-9.423578,0.800085,47.728977,-0.7662725,-1.9759452,-3.4642959,-0.5430589,0.0429957,-0.082527496,27.8125,29.0625,28.125,31.8125,33.875,34.6875
0.07205169,-1.3693779,-0.29896927,-0.41031203,0.002339843,0.04331344,-0.1706462,-0.37396964,-0.32799777,0.05983224,3.0786197,-0.6256701,0.00059511623,-0.032885127,0.0037632412,0.0025181095,-0.018819502,0.006952092,-0.011901687,0.44646648,-1.4692925,2.0081565,-2.107909,-1.570249,2.4218683,-0.04625938,0.0368029,-0.044691727,-0.006548897,0.013853885,-0.034347415,-0.38307226,0.17238252,-9.423578,0.72622824,47.691364,-0.79024273,-1.9944825,-3.4107058,-0.54368997,0.022847869,-0.07457946,27.8125,29.0625,28.125,31.8125,33.875,34.6875
0.07405187,-1.0092779,0.40448108,-0.19637081,-0.011290077,0.047834374,-0.17642236,-0.37403464,-0.3279869,0.05983592,3.0785787,-0.6256987,0.0005874662,-0.033595685,0.0034378592,0.002645836,-0.01870245,0.007602267,-0.010951701,0.44637066,-1.4692205,2.0080717,-2.107921,-1.5702246,2.4217956,-0.046020027,0.03813336,-0.046416093,-0.006687155,0.013465692,-0.03505576,-0.34476504,0.19153613,-9.346964,0.7486078,47.699425,-0.8966555,-1.8712456,-3.4140568,-0.548201,0.033991117,-0.06551566,27.8125,29.0625,28.125,31.8125,33.875,34.6875
0.07605241,-1.3374168,-0.020966358,-0.20992804,0.0032707737,0.039168183,-0.16389175,-0.37411946,-0.32798687,0.059861973,3.0784965,-0.6257982,0.000493255,-0.035147067,0.0038010904,0.0027431112,-0.019557815,0.008243865,-0.01174006,0.4462857,-1.46916,2.007951,-2.1079452,-1.5702127,2.4217832,-0.048430443,0.0394969,-0.047962945,-0.0074515142,0.0139592895,-0.03667613,-0.36391866,0.11492168,-9.404425,0.73741806,47.66987,-0.8716557,-1.9373262,-3.4110038,-0.53711283,0.020097163,-0.064633474,27.8125,29.0625,28.125,31.8125,33.875,34.6875
0.07805267,-1.5272852,-0.366691,-0.22484265,0.018560154,0.035311364,-0.16437627,-0.37418017,-0.32797322,0.059842456,3.0784876,-0.62581736,0.0005458601,-0.037032947,0.004576109,0.0030510218,-0.019467134,0.009490029,-0.015337217,0.4461889,-1.4690399,2.0078666,-2.1079571,-1.5701889,2.4216995,-0.051162973,0.040675607,-0.049892988,-0.0077809994,0.013335709,-0.035809375,-0.30645782,0.095768064,-9.481039,0.7642693,47.67793,-0.78456503,-1.8968179,-3.3184075,-0.5342189,0.013300233,-0.07392722,27.8125,29.0625,28.125,31.8125,33.875,34.6875
0.08005172,-0.95085466,0.22364666,-0.08038102,0.0025780133,0.045347255,-0.16848393,-0.37423903,-0.32796517,0.059841555,3.0784657,-0.625757,0.00053882104,-0.037937235,0.005160342,0.0025400985,-0.019060932,0.008899908,-0.018661179,0.44610432,-1.4689674,2.0077946,-2.1079814,-1.570165,2.42158,-0.052995116,0.042484622,-0.050627977,-0.008145514,0.013224019,-0.03431623,-0.38307226,0.095768064,-9.346964,0.75084364,47.67614,-0.7663969,-1.9489424,-3.409941,-0.5182814,0.0154849775,-0.095849626,27.8125,29.0625,28.125,31.8125,33.875,34.6875
0.082052186,-1.3386604,-0.035531677,-0.1886233,0.006336452,0.037653707,-0.16794236,-0.37432754,-0.32795927,0.05987759,3.0783799,-0.62579596,0.0004426441,-0.038283177,0.004337965,0.0032728286,-0.01910642,0.010476017,-0.015923994,0.44599703,-1.4689313,2.007675,-2.107993,-1.5701412,2.421508,-0.051317867,0.042652886,-0.05256884,-0.007809528,0.012586748,-0.035372842,-0.49799395,0.076614454,-9.442732,0.83589023,47.701214,-0.82457083,-1.9197222,-3.4359102,-0.5218587,0.027904432,-0.10396261,27.8125,29.0625,28.125,31.8125,33.875,34.6875
0.084052436,-1.1038909,0.5217052,-0.033092674,-0.00036240002,0.05020335,-0.17707494,-0.37443423,-0.32796353,0.059907977,3.0782585,-0.6259064,0.00036743295,-0.040347185,0.0047621387,0.0031316497,-0.019049894,0.0106858695,-0.0170887,0.44587594,-1.4688463,2.0075176,-2.1080172,-1.570093,2.4214714,-0.053869456,0.045728557,-0.055572275,-0.008042384,0.012443932,-0.03675596,-0.40222588,0.095768064,-9.32781,0.7038487,47.66539,-0.92473,-1.9814628,-3.2580068,-0.53153867,0.0068211034,-0.090898335,27.8125,29.0625,28.125,31.8125,33.875,34.6875
0.08605214,-1.1993127,0.21617717,-0.2293577,0.006679486,0.046714425,-0.16324867,-0.37448502,-0.32796013,0.059900884,3.0782466,-0.62588537,0.00036628087,-0.040321466,0.0057586185,0.0019707945,-0.017726814,0.008233026,-0.018793926,0.44581553,-1.468762,2.0074465,-2.1080406,-1.5700811,2.4213994,-0.055621803,0.047384612,-0.05482117,-0.0076642344,0.012311718,-0.036803074,-0.4405331,0.095768064,-9.289503,0.7530795,47.66271,-0.8529841,-2.0148768,-3.4063725,-0.52702415,0.014222357,-0.10505506,27.8125,29.0625,28.125,31.8125,33.875,34.6875
0.08805223,-1.3230903,-0.15327254,-0.16230999,0.0032836138,0.04430176,-0.16270824,-0.37458348,-0.32792622,0.05989732,3.0782335,-0.62595993,0.0003386478,-0.04139609,0.005932662,0.003443792,-0.018111883,0.010996777,-0.019068174,0.44567114,-1.4686427,2.0073264,-2.1080525,-1.5700935,2.4213033,-0.05633214,0.045639705,-0.056449324,-0.006946385,0.011468654,-0.037237335,-0.28730422,0.095768064,-9.385271,0.77545905,47.694946,-0.82249343,-1.8224978,-3.3838544,-0.52381855,0.01479849,-0.119578995,27.8125,29.0625,28.125,31.8125,33.875,34.6875
0.090052426,-0.8829081,-0.022555918,-0.08465408,-0.008633027,0.047371656,-0.17333677,-0.3746585,-0.3279201,0.059904657,3.0781448,-0.62607664,0.00036482367,-0.042913396,0.0055743507,0.0035891754,-0.018800411,0.01160396,-0.01951337,0.44555086,-1.4685582,2.0072167,-2.1080525,-1.570033,2.421267,-0.057257153,0.04807147,-0.059378486,-0.007291023,0.011824391,-0.037715137,-0.36391866,0.095768064,-9.423578,0.779936,47.699425,-0.9018412,-1.8758492,-3.3623445,-0.53774655,0.018166922,-0.13947429,27.8125,29.0625,28.125,31.8125,33.875,34.6875
0.092052266,-1.4768419,-0.42309904,-0.33230335,0.0047748284,0.030540425,-0.16019943,-0.37475497,-0.32789358,0.059915833,3.0781355,-0.62611324,0.00029690072,-0.04474957,0.0055290717,0.0040859366,-0.018916102,0.013516008,-0.01999726,0.4454306,-1.4684616,2.007085,-2.108053,-1.5700577,2.421171,-0.058326066,0.049784325,-0.06226701,-0.007887305,0.011101141,-0.0382966,-0.4213795,0.17238252,-9.32781,0.74413085,47.71823,-0.9450231,-1.8188658,-3.2076256,-0.5300031,0.017066868,-0.16261491,27.8125,29.0625,28.125,31.8125,33.875,34.6875
0.0940526,-1.473352,-0.46264103,-0.29928777,-0.005365821,0.034359876,-0.16599214,-0.37485668,-0.32791075,0.059937835,3.0780048,-0.62614435,0.00023230656,-0.04364645,0.006351035,0.0017077224,-0.016740706,0.008849719,-0.020141438,0.44532233,-1.4683648,2.006942,-2.108113,-1.5699857,2.4210987,-0.05889656,0.052815277,-0.060152285,-0.007880724,0.011158753,-0.038722605,-0.3256114,0.17238252,-9.308657,0.7351769,47.681515,-0.93179214,-2.0618913,-3.3680348,-0.5099925,0.032643504,-0.16262996,27.8125,29.0625,28.125,31.8125,33.875,34.6875
0.09605226,-0.9150454,-0.59811306,-0.133835,-0.013346063,0.049727626,-0.1709158,-0.37496454,-0.32788575,0.0599534,3.0779643,-0.6262324,0.00018643704,-0.04587842,0.005598363,0.0042097447,-0.019392189,0.013183345,-0.020594895,0.44517797,-1.4682575,2.0067856,-2.1081007,-1.5699857,2.4210145,-0.059829663,0.051442362,-0.06454344,-0.007169679,0.011681698,-0.039200302,-0.22984336,0.13407528,-9.423578,0.7732232,47.698532,-1.0247705,-1.8443067,-3.2936366,-0.51003873,0.03342215,-0.17935121,27.8125,29.0625,28.125,31.8125,33.875,34.6875
0.09805204,-0.95289683,-0.62931263,-0.16512756,-0.017214326,0.03758651,-0.17298135,-0.37502027,-0.32785255,0.059938457,3.0779715,-0.62625384,0.00024171337,-0.046980172,0.006320878,0.0036859137,-0.018485324,0.012373739,-0.021584172,0.44505724,-1.4681729,2.006724,-2.1080887,-1.5699738,2.4209063,-0.06185136,0.053722825,-0.065900885,-0.0069673946,0.0112105785,-0.04023144,-0.30645782,0.17238252,-9.442732,0.7329411,47.686886,-0.92518735,-1.8114594,-3.1937618,-0.5198517,0.03494656,-0.20948523,27.8125,29.0625,28.125,31.8125,33.875,34.6875
0.100052096,-1.4003004,-0.609883,-0.47129035,-0.018044159,0.016623555,-0.15519884,-0.37513772,-0.32786515,0.059956037,3.0778832,-0.62629193,0.00017429398,-0.046791118,0.004891752,0.003287864,-0.019236578,0.011697787,-0.018944161,0.44495013,-1.4680283,2.006533,-2.108124,-1.5699371,2.4208343,-0.05963276,0.056082018,-0.06747352,-0.0074677137,0.012180608,-0.040651638,-0.2681506,0.28730422,-9.423578,0.779936,47.691364,-1.1728356,-1.9370618,-3.2144594,-0.53112805,0.03285798,-0.23180988,27.8125,29.0625,28.125,31.8125,33.875,34.6875
0.10205219,-0.81063396,-0.5859341,-0.43280083,-0.02667221,0.030365704,-0.17059572,-0.37522984,-0.32784086,0.059954766,3.0778346,-0.6264352,0.00019591943,-0.047800697,0.0055492665,0.0030382336,-0.018740207,0.011984014,-0.01776087,0.4448056,-1.4679083,2.0064013,-2.108113,-1.5699137,2.4207854,-0.061373986,0.05727256,-0.06807301,-0.008097019,0.01161027,-0.043574773,-0.15322891,0.30645782,-9.5385,0.84708,47.741516,-1.1243635,-1.9076798,-3.2784233,-0.5252297,0.044438288,-0.22825637,27.8125,29.0625,28.125,31.8125,33.875,34.6875
0.10405212,-0.48897037,-0.80948234,-0.53569746,-0.025979191,0.02961704,-0.16902204,-0.37531617,-0.32781157,0.05993583,3.077872,-0.62642413,0.00017635542,-0.050147787,0.005876244,0.0037427219,-0.019695135,0.013124714,-0.019934079,0.44469652,-1.4677637,2.0062912,-2.1081364,-1.569949,2.4206648,-0.06433526,0.059008863,-0.07170971,-0.0076383064,0.011976741,-0.04436111,-0.095768064,0.2681506,-9.423578,0.800085,47.693153,-1.100116,-1.994453,-3.0647337,-0.5164634,0.052477926,-0.23960446,27.8125,29.0625,28.125,31.8125,33.875,34.6875
0.10605247,-0.055369996,-0.46343556,-0.59272796,-0.03024461,0.027547685,-0.18202457,-0.37540367,-0.32780483,0.059946317,3.0777788,-0.6265402,0.0001904855,-0.048740435,0.006149096,0.0020277395,-0.01820066,0.009953659,-0.020074967,0.4445648,-1.4676675,2.0061615,-2.108137,-1.5698894,2.4206173,-0.06357709,0.060499668,-0.069344915,-0.007984743,0.011999404,-0.043462764,-0.15322891,0.28730422,-9.385271,0.7709874,47.70032,-1.1890982,-1.9014044,-3.1366947,-0.51452875,0.045626085,-0.2541104,27.8125,29.0625,28.125,31.8125,33.875,34.6875
0.108052544,-0.9123127,-0.8015917,-0.56662124,-0.0364542,0.012914457,-0.16207652,-0.37552348,-0.32780477,0.05996982,3.077697,-0.62654203,0.00011947838,-0.049772315,0.006678808,0.0018590796,-0.018065168,0.009771692,-0.020437473,0.44443226,-1.4675472,2.0059807,-2.1081607,-1.5698532,2.4204965,-0.06545082,0.06186882,-0.070464514,-0.008007413,0.011959365,-0.044972062,-0.095768064,0.24899697,-9.423578,0.7732232,47.65643,-1.2801887,-2.032912,-3.2545369,-0.5072505,0.07120174,-0.29125953,27.8125,29.0625,28.125,31.8125,33.875,34.6875
0.11005267,-0.63993263,-0.9955633,-0.47449997,-0.029186623,0.018685887,-0.17015666,-0.3756326,-0.32777804,0.059964344,3.0776424,-0.6266474,8.4012965e-05,-0.052554574,0.006003318,0.00314017,-0.020222941,0.012667052,-0.021122042,0.44427577,-1.4674149,2.0058587,-2.1082084,-1.5698413,2.4204128,-0.067134716,0.063822076,-0.075435,-0.0085313,0.012656203,-0.045968268,0.05746084,0.19153613,-9.3661175,0.7978386,47.696735,-1.1893952,-1.9793376,-3.0998774,-0.51092535,0.05264736,-0.29894558,27.8125,29.0625,28.125,31.8125,33.875,34.6875
0.11205238,-0.36729634,-0.51003975,-0.5105529,-0.022034163,0.011335678,-0.16989487,-0.37575424,-0.32777417,0.059992485,3.077557,-0.6266873,-1.0665454e-05,-0.0523751,0.0070719933,0.0016521317,-0.01926221,0.009985115,-0.021102743,0.4441429,-1.4673064,2.0056803,-2.1082323,-1.5698174,2.4203157,-0.06915459,0.06549242,-0.07375004,-0.009048883,0.012951523,-0.04800714,-0.019153614,0.24899697,-9.442732,0.800085,47.705692,-1.1902978,-2.0326948,-3.1837072,-0.5010701,0.07453009,-0.29015338,27.8125,29.0625,28.125,31.8125,33.875,34.6875
0.114052,-0.31149444,-0.5141336,-0.42025948,-0.012975771,0.015778016,-0.16312864,-0.3758515,-0.32775044,0.059987836,3.0775454,-0.62670577,-2.5344823e-05,-0.054065887,0.0066738282,0.0023677277,-0.020959003,0.010900318,-0.02356155,0.44401056,-1.467174,2.0055482,-2.1082447,-1.569817,2.4201965,-0.0706733,0.066956416,-0.077077314,-0.008743936,0.01408664,-0.04706584,-0.11492168,0.22984336,-9.32781,0.7866488,47.71465,-1.1718612,-2.0060387,-3.1572435,-0.50700766,0.057112865,-0.33627343,27.8125,29.0625,28.125,31.8125,33.875,34.6875
0.11605184,-0.6711751,0.1403205,-0.2780314,-0.015643682,0.0057427026,-0.1695737,-0.3759513,-0.3277538,0.05999218,3.0774586,-0.626766,1.2553286e-05,-0.05518735,0.006762155,0.0023013984,-0.02103784,0.011719866,-0.026640825,0.44387817,-1.4670299,2.00538,-2.1082451,-1.5697445,2.4201128,-0.07163288,0.06847541,-0.078379236,-0.009730299,0.013803309,-0.044944268,-0.11492168,0.22984336,-9.385271,0.80679786,47.70659,-1.1376961,-2.0513475,-3.0868268,-0.48060766,0.07312797,-0.39088854,27.8125,29.0625,28.125,31.8125,33.875,34.6875
0.11805182,-0.80477625,-0.2504858,-0.47251025,0.008584638,0.009232126,-0.17159973,-0.37606022,-0.32773128,0.059988793,3.0774252,-0.6268363,3.780558e-05,-0.056017354,0.0070050634,0.0022568272,-0.022023946,0.01084338,-0.02650281,0.44372153,-1.4668738,2.005213,-2.1082327,-1.5697201,2.4200044,-0.073666066,0.06958802,-0.07962604,-0.009227401,0.01507292,-0.047115896,-0.1340753,0.19153613,-9.308656,0.76874626,47.70211,-1.2019739,-1.9757268,-3.1251335,-0.48420078,0.07370484,-0.41335088,27.8125,29.0625,28.125,31.8125,33.875,34.6875
0.120051734,-0.8043592,0.20056732,-0.21229793,-0.008331261,0.02522898,-0.17524512,-0.37618747,-0.3277344,0.06000622,3.0773067,-0.6269457,-6.437362e-05,-0.05715706,0.0070086448,0.0025551186,-0.022900948,0.0114987865,-0.025423765,0.44358897,-1.4667417,2.0050442,-2.1083047,-1.5696844,2.4199553,-0.07501627,0.07051355,-0.08128038,-0.0094630765,0.015589008,-0.049542747,-0.11492168,0.19153613,-9.3661175,0.7351769,47.694946,-1.1539698,-2.0382884,-3.0509195,-0.4896305,0.08235845,-0.42619318,27.8125,29.0625,28.125,31.8125,33.875,34.6875
0.12205196,-1.3282912,-0.16766018,-0.18035966,-0.0038458249,0.032455374,-0.16336784,-0.37630084,-0.32769927,0.059993606,3.077302,-0.62700194,-4.8793812e-05,-0.057699677,0.00667993,0.0025421532,-0.02396233,0.01074519,-0.024168523,0.44342083,-1.4665737,2.0048883,-2.1083047,-1.5696839,2.419823,-0.0757261,0.0718656,-0.082851626,-0.009018852,0.01687284,-0.051508054,-0.22984336,0.1340753,-9.32781,0.8023209,47.684196,-1.2071205,-2.0051112,-3.1249251,-0.47566336,0.06404495,-0.4283627,27.8125,29.0625,28.125,31.8125,33.875,34.6875
0.12405203,-1.8271106,-0.13662006,-0.16494288,0.0016893664,0.03414477,-0.16604997,-0.3764029,-0.32768178,0.060000703,3.0772748,-0.62705374,-5.1096158e-05,-0.058396954,0.0074456926,0.0016054845,-0.02264127,0.00888649,-0.023965988,0.44328836,-1.4664407,2.00472,-2.1082804,-1.569672,2.4197264,-0.07750126,0.07458055,-0.08381936,-0.008514429,0.016480306,-0.05348442,-0.28730422,0.1340753,-9.251195,0.7866488,47.667187,-1.21299,-2.1371365,-3.0830293,-0.48645732,0.06707406,-0.4412942,27.8125,29.0625,28.125,31.8125,33.875,34.6875
0.1260533,-1.5826352,-0.18007927,-0.25127456,0.006872879,0.051739387,-0.17080714,-0.3765275,-0.32769024,0.06001672,3.0771115,-0.6271354,-6.900082e-05,-0.059754174,0.0078539,0.0030831634,-0.023308303,0.012201521,-0.022254247,0.44311976,-1.4663099,2.004553,-2.10834,-1.5695642,2.4196296,-0.07890281,0.07261321,-0.08502268,-0.008610144,0.015669264,-0.05659518,-0.36391866,0.17238252,-9.32781,0.7709874,47.694946,-1.2140275,-1.954801,-3.079297,-0.4869961,0.07320553,-0.44432133,27.8125,29.0625,28.125,31.8125,33.875,34.6875
0.12805264,-1.2948992,-0.18263231,-0.17883822,0.0046853474,0.06343548,-0.17214252,-0.37666124,-0.3276603,0.060025413,3.0770996,-0.6271305,-0.00012473184,-0.05979385,0.008457789,0.0011182213,-0.021647874,0.00823875,-0.020039683,0.44295138,-1.4661527,2.00436,-2.10834,-1.5695757,2.4194598,-0.080181815,0.076885484,-0.08530832,-0.008300199,0.015876027,-0.0600876,-0.3256114,0.076614454,-9.404425,0.8314132,47.688675,-1.2797891,-1.8890005,-3.1633816,-0.50578266,0.09320892,-0.4211802,27.8125,29.0625,28.125,31.8125,33.875,34.6875
0.13005206,-1.6996479,-0.20168157,-0.25818056,0.001610393,0.05529665,-0.16953814,-0.376753,-0.32764432,0.060008246,3.077029,-0.6272117,-1.5603398e-05,-0.061425876,0.008853027,0.0020350707,-0.023051703,0.010226004,-0.018108344,0.44278252,-1.4659969,2.0042279,-2.10834,-1.5694917,2.4193506,-0.08263892,0.07643397,-0.08682598,-0.008717359,0.016293667,-0.0644758,-0.40222588,0.076614454,-9.289502,0.800085,47.684196,-1.2613543,-2.1494114,-3.145083,-0.49687573,0.09102146,-0.4052543,27.8125,29.0625,28.125,31.8125,33.875,34.6875
0.13205187,-1.7940052,0.14369677,-0.25465348,-0.0024084577,0.052966308,-0.16603723,-0.3768765,-0.32761982,0.060025018,3.0769858,-0.62723964,-9.152264e-05,-0.06180164,0.009297336,0.0010844318,-0.023001378,0.008442985,-0.015558116,0.44262594,-1.4658767,2.00406,-2.108353,-1.5694917,2.419217,-0.08426964,0.0785161,-0.0868542,-0.009134271,0.017021287,-0.06865578,-0.4405331,0.038307227,-9.385271,0.7709874,47.679718,-1.2414447,-1.904833,-3.2406545,-0.49604213,0.092770904,-0.37903547,27.8125,29.0625,28.125,31.8125,33.875,34.6875
0.13405195,-1.7733804,-0.4152001,-0.3612613,0.013888533,0.05007663,-0.16821001,-0.37701738,-0.32759115,0.060013466,3.076958,-0.62730885,-0.000118864955,-0.06206197,0.009626078,0.00011367867,-0.021646798,0.006864956,-0.012132916,0.44244602,-1.4656721,2.0038693,-2.1083887,-1.5694917,2.419084,-0.084720604,0.081073135,-0.087483585,-0.009046823,0.016479619,-0.07253054,-0.51714754,0.0,-9.3661175,0.842603,47.696735,-1.2531326,-2.1279597,-3.2608862,-0.48421264,0.10959482,-0.3277409,27.8125,29.0625,28.125,31.8125,33.875,34.6875
0.13605241,-1.3878386,0.112382874,-0.11804632,0.008478672,0.05778789,-0.17252623,-0.37716216,-0.32756543,0.060037877,3.0768638,-0.62738603,-0.0002163386,-0.064233676,0.010963483,0.00056804373,-0.022336256,0.008172202,-0.0132233035,0.4422522,-1.4655522,2.0036895,-2.1084244,-1.5694679,2.4189506,-0.08918145,0.08137368,-0.0887471,-0.0095521435,0.016552597,-0.07589856,-0.5554548,-0.038307227,-9.404425,0.779936,47.687782,-1.1492385,-2.0485942,-3.3150687,-0.4888543,0.10582931,-0.2793241,27.8125,29.0625,28.125,31.8125,33.875,34.6875
0.13805239,-1.6026797,0.33752063,-0.065879665,0.013287023,0.057096634,-0.16900337,-0.3772875,-0.32757244,0.06003703,3.0767848,-0.627329,-0.0001820267,-0.064490385,0.010427234,0.00033597596,-0.02247075,0.0081719635,-0.008925429,0.44209668,-1.4653598,2.003485,-2.1084483,-1.569384,2.4187696,-0.088457175,0.08290138,-0.08979168,-0.010080002,0.01667973,-0.079470664,-0.49799395,-0.038307227,-9.346964,0.8314132,47.694054,-1.2380887,-2.0810428,-3.315957,-0.47312298,0.11920349,-0.23304042,27.8125,29.0625,28.125,31.8125,33.875,34.6875
0.14005236,-1.6115372,0.378376,-0.1367746,0.020893024,0.055679247,-0.17345776,-0.37741053,-0.3275367,0.060031284,3.076746,-0.62738067,-0.00017449223,-0.06759452,0.011174326,0.001612849,-0.024761882,0.010808859,-0.011543167,0.44190297,-1.465204,2.0033295,-2.1084611,-1.5693592,2.4186132,-0.09322939,0.08334224,-0.09309967,-0.010571946,0.017621389,-0.08162324,-0.40222588,-0.076614454,-9.251195,0.8403672,47.69763,-1.1381899,-2.0535002,-3.2632961,-0.45867878,0.12082788,-0.1806576,27.8125,29.0625,28.125,31.8125,33.875,34.6875
0.14205259,-2.0243602,-0.17966673,-0.4170969,0.033187337,0.045951787,-0.15803063,-0.37755316,-0.32751283,0.060038537,3.0767126,-0.6273922,-0.0002076025,-0.066388495,0.011800887,-6.868857e-05,-0.022742774,0.007930058,-0.009750319,0.44172308,-1.465024,2.0031145,-2.1084611,-1.5693477,2.4184449,-0.09289728,0.08470482,-0.090699516,-0.010861045,0.017039223,-0.08308428,-0.40222588,0.0,-9.404425,0.70608455,47.699425,-1.1019664,-2.0452852,-3.4072454,-0.4488364,0.14382896,-0.16845524,27.8125,29.0625,28.125,31.8125,33.875,34.6875
0.1440525,-1.3453089,0.21986507,-0.22946036,0.013843823,0.057567276,-0.18110971,-0.37768063,-0.32749647,0.06002711,3.0766377,-0.62743616,-0.00015387201,-0.068433166,0.012732437,0.00077347906,-0.023057975,0.0092073465,-0.013617038,0.44153005,-1.4648322,2.0029347,-2.1084845,-1.5692757,2.418289,-0.09625414,0.085058644,-0.09324021,-0.009954037,0.016778676,-0.08257287,-0.4405331,0.0,-9.270349,0.779936,47.72092,-1.1043135,-2.0467865,-3.4281487,-0.4530555,0.16134962,-0.13969536,27.8125,29.0625,28.125,31.8125,33.875,34.6875
0.14605246,-1.25009,0.43795362,-0.03457397,-0.005399291,0.05940667,-0.17589623,-0.37784266,-0.3274472,0.06003746,3.0766358,-0.6274571,-0.00027411673,-0.06897766,0.013176348,-0.00064953347,-0.02205324,0.0063981307,-0.016893782,0.44132558,-1.4646633,2.0027301,-2.1085083,-1.5693239,2.418098,-0.09773006,0.088941574,-0.09431208,-0.009799591,0.017074823,-0.080769986,-0.5746084,0.038307227,-9.308657,0.81351066,47.716442,-1.0136777,-2.0281148,-3.2620413,-0.45938498,0.15692945,-0.123615354,27.8125,29.0625,28.125,31.8125,33.875,34.6875
0.14805256,-1.4950999,-0.22879812,-0.49845734,0.0047827223,0.04003752,-0.17303224,-0.37799105,-0.32743683,0.06006048,3.0764945,-0.6275058,-0.0002912395,-0.0702982,0.013247026,0.0011216989,-0.023922363,0.010293997,-0.018480608,0.44110897,-1.4645203,2.0025256,-2.1085327,-1.5692276,2.41793,-0.09901319,0.08626789,-0.095274016,-0.0104739005,0.017107978,-0.08046454,-0.45968673,-0.21068975,-9.423578,0.8247004,47.721813,-0.99520445,-1.9246182,-3.4453654,-0.45823908,0.18783462,-0.13310404,27.8125,29.0625,28.125,31.8125,33.875,34.6875
0.15005252,-0.91185904,0.13833433,-0.08616029,-0.0089165615,0.05638161,-0.17407593,-0.37813684,-0.32742655,0.060075548,3.0763993,-0.6275693,-0.00033335178,-0.071623676,0.014681726,0.00043745548,-0.024090892,0.008208355,-0.028562129,0.44092736,-1.4643521,2.002311,-2.108556,-1.5691794,2.4178002,-0.10354246,0.0881999,-0.09598461,-0.009885263,0.01815241,-0.07491079,-0.4213795,-0.095768064,-9.423578,0.82022345,47.734352,-0.75421655,-1.8771294,-3.4739647,-0.45075184,0.18592878,-0.18090001,27.8125,29.0625,28.125,31.8125,33.875,34.6875
0.15205173,-1.2941326,-0.18039447,-0.22766626,0.0039061115,0.03634176,-0.16610165,-0.3782754,-0.32736227,0.06005015,3.076413,-0.6277081,-0.00030949636,-0.0719851,0.014373484,-0.0004272642,-0.023661323,0.0068121417,-0.032161735,0.44069952,-1.4641473,2.0021431,-2.108556,-1.5692033,2.4176574,-0.103381224,0.091279805,-0.09736072,-0.010146286,0.018352568,-0.07114933,-0.49799395,-0.038307227,-9.442732,0.8247004,47.7451,-0.8830728,-1.9055036,-3.4502344,-0.43149102,0.20765379,-0.22683787,27.8125,29.0625,28.125,31.8125,33.875,34.6875
0.15405196,-0.9400103,0.13948266,-0.27225998,0.0073387995,0.0428,-0.17104875,-0.37844247,-0.32737914,0.060070995,3.0762444,-0.62775224,-0.00038495462,-0.07414203,0.015741562,-0.0007948688,-0.023559019,0.006369811,-0.03589842,0.44051796,-1.4639547,2.0019023,-2.10864,-1.5691074,2.417525,-0.10788327,0.09373277,-0.09920354,-0.010301787,0.01845773,-0.07191082,-0.38307226,0.095768064,-9.308656,0.7351769,47.71017,-0.6674027,-1.8776772,-3.3806357,-0.42623603,0.2201086,-0.2489355,27.8125,29.0625,28.125,31.8125,33.875,34.6875
0.15605195,-1.4753609,0.2227399,-0.23234239,0.00553435,0.033677865,-0.17254047,-0.37856382,-0.3273308,0.06005639,3.0762317,-0.62778914,-0.00033052056,-0.07344427,0.014633101,-0.0013368819,-0.024501603,0.005020605,-0.03639154,0.44030276,-1.4637867,2.0017478,-2.1086285,-1.5690826,2.4173346,-0.106105484,0.09512884,-0.09943808,-0.010647159,0.019882735,-0.06964014,-0.3256114,0.095768064,-9.3661175,0.8605109,47.72719,-0.90244746,-1.825736,-3.484833,-0.42047396,0.22917931,-0.26136178,27.8125,29.0625,28.125,31.8125,33.875,34.6875
0.15805204,-1.2869774,-0.040269572,-0.3474765,0.006630842,0.036851536,-0.17324749,-0.37870264,-0.32726434,0.060019184,3.0762014,-0.62805086,-0.00021878343,-0.075632274,0.013857902,-1.0458895e-05,-0.026523527,0.007570921,-0.03753827,0.44003844,-1.4635586,2.0015786,-2.1086166,-1.5690583,2.4172375,-0.10704289,0.09637859,-0.1038807,-0.010618884,0.02061504,-0.06942961,-0.3256114,0.05746084,-9.423578,0.8179876,47.73077,-0.88546574,-1.9087999,-3.3330197,-0.42018837,0.21026625,-0.30355805,27.8125,29.0625,28.125,31.8125,33.875,34.6875
0.16005188,-1.4756078,-0.2270977,-0.27732125,-0.0010032749,0.034809545,-0.17421946,-0.37889203,-0.32725376,0.060053684,3.0760794,-0.6281217,-0.00037669102,-0.076261856,0.013936558,0.00019803236,-0.026353205,0.0075917463,-0.03607674,0.4398344,-1.4633788,2.0013149,-2.1086762,-1.5690345,2.4170935,-0.10759279,0.09717909,-0.10544526,-0.009791694,0.020467097,-0.07143734,-0.3256114,0.21068975,-9.308657,0.8090337,47.701214,-0.8831152,-1.8293998,-3.3476229,-0.40807587,0.22992073,-0.30336198,27.8125,29.0625,28.125,31.8125,33.875,34.6875
0.16205199,-1.3512611,-0.44850603,-0.5379003,-0.009278071,0.03654523,-0.17135482,-0.37904015,-0.3272324,0.060065564,3.0760126,-0.6281461,-0.00037702918,-0.076717496,0.013604083,0.0007387087,-0.026985023,0.008236947,-0.03537028,0.43963048,-1.463199,2.0010865,-2.1086638,-1.5689863,2.4169135,-0.10752924,0.097226225,-0.106872424,-0.009256847,0.020769598,-0.07207887,-0.2681506,0.22984336,-9.32781,0.8224646,47.694946,-0.96189725,-1.763802,-3.33958,-0.40768218,0.23904286,-0.31502125,27.8125,29.0625,28.125,31.8125,33.875,34.6875
0.16405201,-1.1552792,-0.5533674,-0.64302844,-0.022396121,0.03242873,-0.17178237,-0.37922135,-0.3271837,0.060073335,3.0759385,-0.6283617,-0.00043821518,-0.077684134,0.01306323,0.0010991845,-0.027761478,0.009076834,-0.03575606,0.4393785,-1.4629949,2.0008461,-2.1086762,-1.5689863,2.4168057,-0.107550174,0.09857732,-0.10917628,-0.009391009,0.021117538,-0.07171146,-0.17238252,0.30645782,-9.404425,0.8314132,47.692257,-1.0861841,-1.7917,-3.274896,-0.42583102,0.24445947,-0.3368103,27.8125,29.0625,28.125,31.8125,33.875,34.6875
0.16605218,-0.49605012,-0.646876,-0.5217155,-0.038632978,0.031958435,-0.1796799,-0.3793371,-0.32716393,0.06004763,3.0759013,-0.62841034,-0.00033504737,-0.078777425,0.013057016,0.0011303431,-0.028266849,0.008675958,-0.03522048,0.43919814,-1.4627788,2.0006664,-2.1086757,-1.5689257,2.4166605,-0.10888978,0.10043755,-0.11145288,-0.008817772,0.02174555,-0.07358602,-0.1340753,0.36391866,-9.519346,0.8112748,47.689575,-1.1135752,-1.70898,-3.2101407,-0.4158488,0.26016602,-0.3425533,27.8125,29.0625,28.125,31.8125,33.875,34.6875
0.1680529,-0.3539311,-1.1408702,-0.7891396,-0.047412317,0.019662648,-0.17504942,-0.37949666,-0.3271259,0.0600504,3.0758388,-0.6285141,-0.0003570688,-0.07930006,0.013361425,0.00075104024,-0.028200405,0.0075109014,-0.036319874,0.43896952,-1.4625866,2.0004504,-2.1086872,-1.5689019,2.4165049,-0.11016683,0.10197617,-0.1124198,-0.00830115,0.022187058,-0.07376229,-0.095768064,0.38307226,-9.461885,0.8605109,47.723602,-1.1376868,-1.8234994,-3.256005,-0.43675292,0.2766475,-0.35673633,27.8125,29.0625,28.125,31.8125,33.875,34.6875
0.17005196,-0.59467465,-1.8942368,-0.78758055,-0.039605558,-0.0019538812,-0.17016956,-0.37965074,-0.32710677,0.060048927,3.0757322,-0.6285891,-0.00032426527,-0.08070835,0.013387088,0.00072516775,-0.029114978,0.008245783,-0.036580034,0.43874094,-1.4623824,2.000234,-2.1087115,-1.568818,2.4163368,-0.11175541,0.10374122,-0.11406055,-0.009467522,0.022705676,-0.07508837,-0.05746084,0.4405331,-9.500193,0.8224646,47.7254,-1.0897353,-1.7474372,-3.26091,-0.43911535,0.28906235,-0.37683833,27.8125,29.0625,28.125,31.8125,33.875,34.6875
0.17205201,-0.22546025,-1.6398591,-0.91302156,-0.044603337,-0.0008603632,-0.1816772,-0.3798321,-0.32706445,0.060065065,3.0757036,-0.62869436,-0.00043112,-0.081467316,0.013194207,0.00050347944,-0.03006765,0.0077059017,-0.031556685,0.4385249,-1.4621781,1.9999713,-2.1087115,-1.5688533,2.4161904,-0.11275181,0.10552001,-0.11547506,-0.009739116,0.023812044,-0.081105545,0.019153614,0.4213795,-9.500193,0.78888994,47.694054,-1.1046119,-1.9644685,-3.2467585,-0.42606303,0.28337193,-0.36779934,27.8125,29.0625,28.125,31.8125,33.875,34.6875
0.17405209,-0.7615733,-1.5856268,-0.8656673,-0.043003373,-0.012931161,-0.16966906,-0.37999123,-0.3270371,0.060054407,3.0756106,-0.62875265,-0.00040757027,-0.08221547,0.013000916,0.00058742444,-0.031087415,0.007517846,-0.030605212,0.43828434,-1.4619621,1.9997681,-2.1087596,-1.5687808,2.4159982,-0.1136727,0.1066857,-0.116998956,-0.009632107,0.02482285,-0.08297594,0.076614454,0.40222588,-9.500193,0.7463667,47.691364,-1.1095858,-1.7597916,-3.2377982,-0.41479114,0.29916665,-0.30874312,27.8125,29.0625,28.125,31.8125,33.875,34.6875
0.17605217,-0.47294873,-1.0271616,-0.769412,-0.04571903,-0.0011430137,-0.1708519,-0.38016358,-0.32701966,0.06006844,3.0755115,-0.62882763,-0.0004533662,-0.083954364,0.0140580535,0.0004979308,-0.032014582,0.0075036245,-0.030570606,0.43806708,-1.4617578,1.9995159,-2.108784,-1.5687326,2.4158406,-0.11770386,0.1078965,-0.118023455,-0.010185175,0.02568227,-0.08703885,0.076614454,0.3256114,-9.481039,0.78888994,47.703007,-1.0841873,-1.9930534,-3.2535703,-0.42041463,0.3182488,-0.31366235,27.8125,29.0625,28.125,31.8125,33.875,34.6875
0.178052,-0.66051716,-1.2868834,-0.8357178,-0.027315805,-0.0048964093,-0.1713215,-0.38036525,-0.3270022,0.06008239,3.0753982,-0.6288583,-0.00051576755,-0.083060585,0.012915614,-0.0007003378,-0.031851694,0.0054078307,-0.023305386,0.437816,-1.4615173,1.9992293,-2.1088321,-1.5686725,2.4156234,-0.115219824,0.11068707,-0.11825713,-0.0107570095,0.026443325,-0.09181673,0.076614454,0.45968673,-9.442732,0.83589023,47.716442,-1.1817296,-1.8944042,-3.335359,-0.40983975,0.31834778,-0.24000007,27.8125,29.0625,28.125,31.8125,33.875,34.6875
0.1800519,-0.42491594,-0.7719864,-0.6524861,-0.03511283,0.0061634756,-0.17313729,-0.38052586,-0.3269682,0.060089517,3.0753222,-0.6289758,-0.00052747084,-0.08516484,0.013882642,-0.00024104911,-0.0328997,0.005793381,-0.022522163,0.4375864,-1.4613255,1.9990009,-2.1088316,-1.5686363,2.415477,-0.11936257,0.111719295,-0.120586514,-0.01023727,0.027241943,-0.096740164,0.05746084,0.38307226,-9.3661175,0.8291774,47.70032,-0.99710953,-1.9446667,-3.1506822,-0.4126919,0.30723342,-0.1907181,27.8125,29.0625,28.125,31.8125,33.875,34.6875
0.18205191,-0.9480216,-0.53376526,-0.65323496,-0.026931215,6.6365836e-05,-0.16127434,-0.3806928,-0.32692778,0.060081445,3.0752575,-0.6289791,-0.0005001306,-0.08541695,0.012960213,-0.0003493932,-0.033931997,0.0055664657,-0.018172171,0.437323,-1.4611093,1.9987859,-2.108856,-1.5685757,2.415224,-0.118494906,0.113388054,-0.122125246,-0.01058279,0.02828282,-0.10022029,-0.076614454,0.3256114,-9.346964,0.8291774,47.694054,-1.2370458,-1.9219273,-3.3923435,-0.41525364,0.31371087,-0.1272111,27.8125,29.0625,28.125,31.8125,33.875,34.6875
0.18405192,-1.0060916,-1.0536103,-0.75794595,0.00060832535,-0.0030985386,-0.15766752,-0.3808644,-0.32691672,0.060093254,3.0751526,-0.6289769,-0.0004959255,-0.08581272,0.0133709125,-0.0010606248,-0.033964332,0.0039517377,-0.017183244,0.4370945,-1.460893,1.9985226,-2.1088684,-1.5684913,2.4150078,-0.12003676,0.11514977,-0.1224806,-0.010522396,0.029010188,-0.1027487,-0.019153614,0.22984336,-9.3661175,0.84708,47.677036,-1.1617923,-1.9266987,-3.2529254,-0.40443423,0.31509936,-0.07570331,27.8125,29.0625,28.125,31.8125,33.875,34.6875
0.1860523,-0.89038974,-0.19229382,-0.6559963,-0.0043280935,0.0044268644,-0.17626825,-0.3810419,-0.3269013,0.060089413,3.0750613,-0.6290176,-0.0005413595,-0.08744488,0.014161044,-0.001887725,-0.03359111,0.0023451296,-0.02111735,0.4368774,-1.4606521,1.9982814,-2.1089394,-1.5684437,2.414828,-0.12312111,0.11882366,-0.124720454,-0.010334566,0.029356971,-0.10189495,-0.114921674,0.1340753,-9.385271,0.800085,47.664497,-1.2054523,-1.9861078,-3.3168988,-0.40502784,0.31709737,-0.0618556,27.8125,29.0625,28.125,31.8125,33.875,34.6875
0.18805216,-0.914633,0.07440625,-0.4961984,-0.0043582874,0.009697461,-0.16650963,-0.38119018,-0.32687318,0.06007605,3.0750368,-0.6290132,-0.00046693295,-0.08772804,0.012857015,-0.000805928,-0.034981165,0.004200601,-0.021334436,0.4366621,-1.460413,1.998042,-2.1089156,-1.5683955,2.4146132,-0.12118838,0.11844454,-0.12685981,-0.010080333,0.029824784,-0.09974455,-0.19153613,0.076614454,-9.308656,0.85826975,47.67166,-1.1977367,-1.9917619,-3.209872,-0.39934993,0.30391362,-0.05418226,27.8125,29.0625,28.125,31.8125,33.875,34.6875
0.19005214,-1.0186143,0.18506597,-0.5813324,0.007080089,0.021475345,-0.17063665,-0.38137174,-0.32685727,0.060080837,3.0749106,-0.6291081,-0.00043404603,-0.0901744,0.014228504,-0.0020049766,-0.034349356,0.0018323002,-0.029892238,0.43640822,-1.4601713,1.9977664,-2.108927,-1.5682992,2.414435,-0.12611875,0.12361989,-0.12994497,-0.009749533,0.030249355,-0.0961131,-0.30645782,0.11492168,-9.251195,0.87393653,47.73256,-1.0829588,-2.1714745,-3.1936023,-0.39909536,0.31122607,-0.07973711,27.8125,29.0625,28.125,31.8125,33.875,34.6875
0.19205217,-1.7271334,0.27375105,-0.44935018,0.012228668,0.029748322,-0.16884372,-0.3815504,-0.32683277,0.06007287,3.074802,-0.62923944,-0.000412179,-0.08918189,0.013918476,-0.0018472115,-0.035122085,0.0015779409,-0.03257505,0.4361569,-1.4599206,1.9975156,-2.1089633,-1.5682267,2.4142797,-0.12514067,0.12195532,-0.12852462,-0.009597934,0.031060625,-0.09245185,-0.47884035,0.05746084,-9.289502,0.83589023,47.74868,-1.1967208,-2.0152707,-3.3501177,-0.40116063,0.29897395,-0.10402535,27.8125,29.0625,28.125,31.8125,33.875,34.6875
0.19405232,-2.231912,0.13240267,-0.27960595,0.010302817,0.04597937,-0.17190161,-0.38174704,-0.32679185,0.06008418,3.0747325,-0.6293053,-0.00046530727,-0.09050416,0.014792333,-0.0018547598,-0.035095394,0.0016437083,-0.03837461,0.43589184,-1.4596926,1.99724,-2.1089752,-1.5682029,2.414065,-0.12782638,0.12299136,-0.12970214,-0.009501369,0.031009618,-0.089335434,-0.6703765,0.076614454,-9.32781,0.8023209,47.737934,-1.1629055,-2.0840287,-3.2089608,-0.40197432,0.2949274,-0.16037786,27.8125,29.0625,28.125,31.8125,33.875,34.6875
0.19605246,-1.9157218,-0.17810215,-0.18621302,0.011714103,0.07750612,-0.17167105,-0.3819259,-0.32678178,0.060092602,3.0745842,-0.62939274,-0.00038586685,-0.09137988,0.014976225,-0.0016467144,-0.03590357,0.0012026366,-0.042788528,0.4356274,-1.4594526,1.9969524,-2.1089628,-1.5680703,2.4138741,-0.12947911,0.123861335,-0.13136175,-0.008642895,0.031928368,-0.08657177,-0.78529817,0.0,-9.3661175,0.82022345,47.698532,-1.1069276,-1.9087039,-3.289044,-0.40069842,0.29898632,-0.16896617,27.8125,29.0625,28.125,31.8125,33.875,34.6875
0.19805242,-2.0735376,0.11807995,0.016417215,0.009890382,0.08059103,-0.17392752,-0.38213575,-0.3267322,0.060100604,3.0745113,-0.62953174,-0.0004763438,-0.09230378,0.015758028,-0.0019549453,-0.036338385,-0.0003414407,-0.046293303,0.4353505,-1.4592125,1.9966763,-2.1089985,-1.5680698,2.4136937,-0.13237634,0.12526697,-0.13244626,-0.007743701,0.032982886,-0.085960634,-0.7852981,-0.05746084,-9.308656,0.82022345,47.709274,-1.0506477,-2.074996,-3.4458802,-0.4172191,0.28024635,-0.25318366,27.8125,29.0625,28.125,31.8125,33.875,34.6875
0.20005237,-1.7473031,0.48882523,0.030482674,0.012078524,0.09302092,-0.18044364,-0.3823036,-0.32672718,0.06009088,3.0743887,-0.6296244,-0.00040680016,-0.09387233,0.015837848,-0.0011573817,-0.037345674,0.0021127325,-0.049001265,0.43512204,-1.4589492,1.9964126,-2.1090229,-1.567962,2.413539,-0.13374484,0.12534031,-0.13414942,-0.008750107,0.032858413,-0.084619276,-0.6703765,-0.095768064,-9.270349,0.7933669,47.728977,-0.9754873,-1.9061806,-3.3504255,-0.41123736,0.28317073,-0.24173737,27.8125,29.0625,28.125,31.8125,33.875,34.6875
0.20205237,-1.6924622,1.2349794,0.067280546,0.008306595,0.08410276,-0.17673238,-0.38250282,-0.3266724,0.060090654,3.0743062,-0.6297819,-0.00041711537,-0.09554788,0.01653016,-0.0006916192,-0.03717234,0.0035268052,-0.05338433,0.4348215,-1.4587091,1.9961499,-2.1090343,-1.5679263,2.4133475,-0.13591756,0.1261114,-0.13609126,-0.008778894,0.03210449,-0.08240724,-0.7278373,-0.095768064,-9.270349,0.8560339,47.765697,-0.9709008,-1.9340982,-3.3039527,-0.40030515,0.28060967,-0.32277393,27.8125,29.0625,28.125,31.8125,33.875,34.6875
0.20405236,-1.6986823,0.984105,0.053439856,0.023947056,0.07353979,-0.17628597,-0.38271022,-0.32666647,0.060118295,3.074153,-0.6299216,-0.00048637518,-0.09612708,0.016382348,-0.0011062598,-0.03714936,0.0025370196,-0.051461004,0.43458128,-1.4584689,1.9958261,-2.1090586,-1.5678548,2.4132144,-0.13634181,0.12839231,-0.13777064,-0.008454486,0.032516457,-0.08474987,-0.7852981,-0.11492168,-9.308657,0.842603,47.73525,-1.034737,-1.8660576,-3.29252,-0.40305674,0.30607533,-0.32762328,27.8125,29.0625,28.125,31.8125,33.875,34.6875
0.20605257,-1.827881,0.3118552,-0.14992383,0.045304146,0.060050692,-0.16996478,-0.38287657,-0.32661408,0.060075548,3.0741112,-0.63006973,-0.00038029326,-0.09602051,0.015746254,-0.0019403868,-0.038326863,0.00090249843,-0.055059664,0.43430525,-1.4581808,1.9956101,-2.1090825,-1.5678056,2.4130363,-0.13615754,0.13052453,-0.13806278,-0.009310707,0.034261897,-0.08096634,-0.7469909,-0.076614454,-9.155427,0.81351066,47.69763,-1.0901088,-1.8452635,-3.3913813,-0.41485253,0.2816989,-0.4032703,27.8125,29.0625,28.125,31.8125,33.875,34.6875
0.2080523,-1.8786277,0.7427025,-0.20618194,0.03390358,0.062114637,-0.17373912,-0.38309503,-0.32659647,0.06010559,3.0739233,-0.63024086,-0.00044335143,-0.09719577,0.015299887,4.8659713e-05,-0.04110026,0.0046295873,-0.054591037,0.43401736,-1.4579543,1.9952987,-2.1091187,-1.5677093,2.4128797,-0.1368991,0.12781833,-0.13955611,-0.009641291,0.035224486,-0.08217104,-0.7086837,-0.038307227,-9.174581,0.7978386,47.741516,-1.189788,-1.8161352,-3.327588,-0.38680995,0.2620407,-0.45342022,27.8125,29.0625,28.125,31.8125,33.875,34.6875
0.21005312,-1.7685392,0.4876632,-0.41937944,0.03247501,0.05920354,-0.16701807,-0.38327217,-0.3265572,0.06008687,3.0738869,-0.63030887,-0.00039327244,-0.09795631,0.014368466,2.0310885e-05,-0.042355195,0.003506185,-0.051847886,0.433765,-1.4576775,1.9950346,-2.1091182,-1.5676726,2.4126747,-0.13683112,0.1305888,-0.14282495,-0.008637212,0.03684149,-0.08484317,-0.51714754,-0.095768064,-9.232041,0.8717007,47.728977,-1.0930107,-1.8835676,-3.381287,-0.40655684,0.24143726,-0.4591198,27.8125,29.0625,28.125,31.8125,33.875,34.6875
0.21205245,-1.2749871,0.11676562,-0.5819261,0.015162195,0.055020556,-0.16836901,-0.3834801,-0.3265118,0.060086798,3.0737853,-0.6304806,-0.00034121165,-0.099156566,0.016795887,-0.00080302305,-0.041595824,0.001549367,-0.052572016,0.43345097,-1.4574019,1.9947237,-2.1090944,-1.5676006,2.412481,-0.14242199,0.13141704,-0.1420028,-0.008161291,0.036996428,-0.08970995,-0.36391866,-0.11492168,-9.385271,0.8672237,47.729877,-1.0393183,-1.7750181,-3.4433339,-0.42166924,0.24029686,-0.4569433,27.8125,29.0625,28.125,31.8125,33.875,34.6875
0.2140524,-1.038717,-0.16561976,-0.59933186,0.0020859109,0.039911956,-0.17024893,-0.3836769,-0.32647517,0.060083758,3.0736673,-0.6306258,-0.00033570296,-0.10020704,0.016345544,5.799359e-06,-0.041301686,0.003712017,-0.046209253,0.43316352,-1.45715,1.9944595,-2.1091301,-1.5675291,2.4122996,-0.14163719,0.13207322,-0.14465673,-0.007964906,0.035840034,-0.09528591,-0.22984336,-0.019153614,-9.461885,0.88289046,47.696735,-1.0958145,-1.7645545,-3.2267647,-0.42832696,0.24800465,-0.40865803,27.8125,29.0625,28.125,31.8125,33.875,34.6875
0.21605258,-0.78011125,-0.50049275,-0.78437483,-0.0021742263,0.026285317,-0.17212756,-0.3838951,-0.32644606,0.060067207,3.0735512,-0.6307519,-0.00030175238,-0.101062484,0.016233213,-0.00023078489,-0.041693687,0.0035077953,-0.041571695,0.43286335,-1.456826,1.9941491,-2.1091783,-1.5674452,2.4120934,-0.1423848,0.13403301,-0.14625914,-0.008267489,0.036300465,-0.100668214,-0.21068975,0.05746084,-9.500193,0.83589023,47.701214,-1.1398033,-1.8228643,-3.3488984,-0.44079614,0.24015775,-0.3881179,27.8125,29.0625,28.125,31.8125,33.875,34.6875
0.21805166,-0.6481749,-0.9425146,-1.0290817,-0.011633666,0.0161202,-0.16787858,-0.3840847,-0.32637772,0.060058128,3.073475,-0.6309638,-0.00024080314,-0.101908565,0.016630638,-0.001003858,-0.04258136,0.0013865313,-0.03514356,0.43253827,-1.4565858,1.9938978,-2.1091545,-1.567396,2.4119105,-0.14492507,0.13658747,-0.14739338,-0.008095118,0.038021434,-0.10963444,-0.076614454,0.1340753,-9.481039,0.85155696,47.699425,-1.0083033,-1.6014035,-3.3729458,-0.4420988,0.22167733,-0.2859375,27.8125,29.0625,28.125,31.8125,33.875,34.6875
0.2200518,-0.94239026,-1.4922403,-1.2922478,-0.009874995,-0.0069875657,-0.15234005,-0.3842792,-0.32635722,0.060068823,3.0734055,-0.63092715,-0.00027355002,-0.10314988,0.015345943,0.0011923198,-0.045713786,0.0051377136,-0.030671991,0.43229902,-1.4563347,1.9935974,-2.109166,-1.5673479,2.4116576,-0.14437935,0.1348093,-0.15051366,-0.007892797,0.03930919,-0.113555245,0.11492168,0.2681506,-9.481039,0.8537928,47.689575,-1.2722474,-1.6877314,-3.3408108,-0.44943705,0.20477287,-0.23833144,27.8125,29.0625,28.125,31.8125,33.875,34.6875
0.22205174,-0.5447709,-1.5521965,-1.4692379,-0.013937036,-0.013481071,-0.16936809,-0.3845023,-0.32631084,0.060063016,3.0733085,-0.6310014,-0.00022109714,-0.10210762,0.016042883,-0.002147948,-0.04361033,-0.0009779598,-0.02810116,0.43196267,-1.4560332,1.993276,-2.109166,-1.5672635,2.4113803,-0.14512728,0.140057,-0.14857586,-0.008612413,0.039980568,-0.11687272,0.19153613,0.24899697,-9.615114,0.80679786,47.678825,-1.1217632,-1.9258071,-3.4480171,-0.4549511,0.18663868,-0.18214342,27.8125,29.0625,28.125,31.8125,33.875,34.6875
0.22405173,-0.33755702,-1.6018921,-1.2421261,-0.03927239,-0.005436986,-0.16257882,-0.38470212,-0.32628533,0.06006528,3.0732305,-0.6310053,-0.00025607776,-0.10436147,0.015996367,-0.000999369,-0.045217928,0.0014871317,-0.02933388,0.4317101,-1.4557697,1.9929866,-2.1092021,-1.5672158,2.4111404,-0.14719573,0.14081892,-0.1520345,-0.008810336,0.040415205,-0.11770343,0.05746084,0.3256114,-9.730036,0.8112748,47.686886,-1.1623127,-1.8035223,-3.3379188,-0.44039297,0.16936934,-0.16344087,27.8125,29.0625,28.125,31.8125,33.875,34.6875
0.22605199,-0.2823951,-1.7770725,-1.5717134,-0.052715074,0.001584483,-0.16655567,-0.3849021,-0.32623643,0.06004338,3.073114,-0.63121355,-0.0001227913,-0.10550991,0.016272703,-0.001744637,-0.045523282,-9.585789e-05,-0.0325027,0.43137324,-1.455469,1.9927,-2.1091902,-1.5671071,2.4109488,-0.1492343,0.14404282,-0.15395519,-0.008784043,0.04135114,-0.11657167,0.21068975,0.4213795,-9.710882,0.8717007,47.694054,-1.0865726,-1.976267,-3.3573964,-0.4562998,0.15960367,-0.14326647,27.8125,29.0625,28.125,31.8125,33.875,34.6875
0.22805199,-0.7889144,-2.098049,-1.8090136,-0.047510125,-0.01203291,-0.15030877,-0.38511232,-0.32621986,0.060057823,3.0729845,-0.63124764,-0.00012463852,-0.106091514,0.016857004,-0.0025106797,-0.044829972,-0.0016362508,-0.038095336,0.43109658,-1.4552046,1.9923762,-2.1092021,-1.5670112,2.4107103,-0.15074256,0.14623623,-0.15474126,-0.008494014,0.041366406,-0.112483725,0.15322891,0.5554548,-9.844957,0.8179876,47.705692,-1.0012796,-2.0082247,-3.431707,-0.4628212,0.14905414,-0.15414457,27.8125,29.0625,28.125,31.8125,33.875,34.6875
0.23005182,-0.8778057,-2.589511,-1.3788967,-0.05804667,-0.0037184758,-0.15454122,-0.38534385,-0.32616824,0.060055275,3.0728767,-0.6314217,-0.00011614294,-0.10767175,0.01684467,-0.0018088393,-0.04614861,-0.00056503277,-0.044787887,0.43076017,-1.4549052,1.992052,-2.109214,-1.5669512,2.4104967,-0.15247206,0.14711463,-0.15742454,-0.008212894,0.042108506,-0.10751671,0.038307227,0.61291564,-9.653421,0.80679786,47.698532,-1.0507672,-2.02539,-3.3539293,-0.47921085,0.1259077,-0.21738079,27.8125,29.0625,28.125,31.8125,33.875,34.6875
0.23205194,-0.47772712,-1.911742,-0.9957916,-0.06764924,0.010372827,-0.16648267,-0.38554168,-0.32614785,0.060048673,3.0727777,-0.6314609,-8.4051266e-05,-0.108355045,0.017611425,-0.0024400007,-0.04574656,-0.0015825836,-0.049330965,0.43049547,-1.454617,1.9917525,-2.1092384,-1.5668672,2.4102695,-0.15443991,0.14867805,-0.15772024,-0.008377566,0.042168383,-0.104939565,0.038307227,0.5554548,-9.595961,0.84484416,47.678825,-0.92656136,-2.0057626,-3.3868937,-0.4890206,0.091818824,-0.2977289,27.8125,29.0625,28.125,31.8125,33.875,34.6875
0.23405217,-0.70757264,-1.7862471,-1.0404949,-0.045047835,0.006438344,-0.1647189,-0.38576987,-0.32612425,0.06007241,3.0726058,-0.6316178,-9.0822854e-05,-0.11066407,0.017644003,-0.001639519,-0.047057044,0.0012257249,-0.052077543,0.43018287,-1.4543533,1.9914054,-2.1092389,-1.5667595,2.4100773,-0.15639722,0.14986873,-0.1605839,-0.009782068,0.042190976,-0.1041447,0.076614454,0.45968673,-9.519346,0.9410752,47.68599,-0.95520294,-1.9594612,-3.3636217,-0.48956558,0.100875646,-0.30468392,27.8125,29.0625,28.125,31.8125,33.875,34.6875
0.23605227,-0.38793945,-0.6528342,-0.8889883,-0.041501876,0.025327997,-0.17382644,-0.38600117,-0.32606602,0.060043953,3.0724988,-0.6317882,-8.1167105e-05,-0.11144006,0.017951379,-0.0023689955,-0.047044367,0.0009033508,-0.0534471,0.42983472,-1.4540292,1.9911293,-2.1093228,-1.5666989,2.4098496,-0.15761395,0.15195088,-0.16095814,-0.011171627,0.04232027,-0.103989415,-0.05746084,0.36391866,-9.519346,0.83365434,47.690468,-0.9509822,-1.8614564,-3.3242123,-0.48236978,0.07013346,-0.3181253,27.8125,29.0625,28.125,31.8125,33.875,34.6875
0.2380526,-0.8956486,-0.5909166,-0.54182124,-0.016794087,0.028620925,-0.17452401,-0.3862238,-0.32606795,0.060074836,3.0723047,-0.6318823,-9.796161e-05,-0.11308306,0.0167361,0.00011182729,-0.049290147,0.006406631,-0.052893605,0.42955908,-1.4537661,1.9907693,-2.1093352,-1.5665673,2.4096582,-0.15649122,0.14999565,-0.16435455,-0.011734572,0.042076744,-0.10341435,-0.24899697,0.28730422,-9.385271,0.83589023,47.64837,-0.9636577,-1.9256709,-3.1838326,-0.45818925,0.056503713,-0.33519334,27.8125,29.0625,28.125,31.8125,33.875,34.6875
0.24005267,-1.533922,0.096679874,-0.65200865,0.0029761533,0.03878415,-0.17038657,-0.386468,-0.32602772,0.060077354,3.0721526,-0.63206184,-8.497933e-05,-0.115196444,0.016968844,0.0005396263,-0.049250815,0.008195287,-0.05311328,0.42921034,-1.4534538,1.9904217,-2.109359,-1.5664715,2.4094415,-0.15811032,0.1520799,-0.16759908,-0.012151178,0.041308243,-0.10481044,-0.34476504,0.19153613,-9.32781,0.8806493,47.675243,-0.940313,-2.071016,-3.2410488,-0.45729354,0.0425639,-0.39790416,27.8125,29.0625,28.125,31.8125,33.875,34.6875
0.24205256,-1.3544668,0.47101623,-0.7549722,0.023943618,0.07446341,-0.17250101,-0.38669178,-0.32601064,0.060087107,3.071995,-0.6322014,-0.00010083239,-0.114835314,0.017405357,-0.0006538302,-0.047059465,0.006217034,-0.052892353,0.4289225,-1.4531659,1.9900874,-2.1093948,-1.5663756,2.4092615,-0.15774001,0.15424319,-0.16740976,-0.011767801,0.040155515,-0.10465964,-0.4213795,0.038307227,-9.3661175,0.85826975,47.7254,-1.1556087,-1.8584011,-3.2995472,-0.45896417,0.056626596,-0.39568758,27.8125,29.0625,28.125,31.8125,33.875,34.6875
0.24405254,-1.6668364,0.63918525,-0.44269305,0.029096937,0.09192969,-0.17348023,-0.38689786,-0.32597014,0.060074385,3.0719266,-0.6322798,-1.9951454e-05,-0.11530469,0.017983032,-0.0006563599,-0.04626641,0.006191723,-0.047216956,0.42862228,-1.4528542,1.9897641,-2.109371,-1.5663036,2.4090192,-0.15866217,0.15462936,-0.16802603,-0.011134915,0.039471675,-0.11125882,-0.4405331,0.11492168,-9.289502,0.83365434,47.698532,-1.1856657,-1.8348136,-3.348771,-0.4744472,0.038050603,-0.3667112,27.8125,29.0625,28.125,31.8125,33.875,34.6875
0.24605165,-2.5061815,0.27271384,-0.20093326,0.03519305,0.08383219,-0.16459584,-0.3871336,-0.3259424,0.060066085,3.0717957,-0.6323492,1.9790028e-05,-0.11709254,0.019129809,-0.0007175522,-0.044431824,0.007008446,-0.045562048,0.4282971,-1.4525183,1.9894174,-2.1094062,-1.5661963,2.4087546,-0.16089286,0.15662971,-0.17022882,-0.010864499,0.03748494,-0.11514477,-0.49799395,0.038307227,-9.193734,0.83365434,47.703007,-0.9492181,-1.7351722,-3.3893456,-0.47747213,0.038334146,-0.33121943,27.8125,29.0625,28.125,31.8125,33.875,34.6875
0.24805157,-1.8731422,0.8929592,0.051737715,0.024597336,0.101931974,-0.17098603,-0.38738912,-0.32590216,0.06010025,3.0716379,-0.63250476,-0.00012007572,-0.11827413,0.021344882,-0.00037908944,-0.042845182,0.008459249,-0.042587575,0.42797238,-1.4522672,1.9890708,-2.1094544,-1.5661496,2.4085479,-0.16457754,0.155087,-0.16933136,-0.010826505,0.035487868,-0.12180328,-0.5746084,-0.21068975,-9.155427,0.8806493,47.71554,-1.0259168,-1.7118342,-3.3762724,-0.47091952,0.07467261,-0.29301938,27.8125,29.0625,28.125,31.8125,33.875,34.6875
0.25005174,-2.091723,0.91904885,-0.040355194,0.03922938,0.08380949,-0.16730003,-0.38763747,-0.32587048,0.060096055,3.0715113,-0.63259065,-9.3907576e-05,-0.119397014,0.020497799,0.00048680283,-0.04280204,0.011444431,-0.035460018,0.4276369,-1.4519196,1.9886988,-2.1094787,-1.5660533,2.4082828,-0.16300479,0.15592432,-0.17213942,-0.011500994,0.034236092,-0.12735716,-0.7086837,-0.21068975,-9.212888,0.86498255,47.71017,-1.143537,-1.7291181,-3.3238902,-0.46620542,0.08396107,-0.21815275,27.8125,29.0625,28.125,31.8125,33.875,34.6875
0.2520517,-1.5539193,1.5544207,0.050507266,0.04038651,0.08417959,-0.17533211,-0.3878542,-0.32578677,0.060052257,3.0715113,-0.6327227,-9.64201e-06,-0.12028192,0.020783205,0.00022848231,-0.041227967,0.011602948,-0.031847518,0.42728877,-1.4515715,1.9884108,-2.1094782,-1.5660428,2.4080172,-0.16319562,0.15806323,-0.1740695,-0.011165928,0.032749087,-0.13116415,-0.6512228,-0.28730422,-9.174581,0.9365982,47.734352,-1.213467,-1.5885347,-3.3371081,-0.47917545,0.09488601,-0.11456548,27.8125,29.0625,28.125,31.8125,33.875,34.6875
0.25405172,-1.8070903,1.2430822,-0.07258287,0.06311017,0.07302416,-0.16439322,-0.388097,-0.32577345,0.060068216,3.0713313,-0.63279927,-3.597969e-05,-0.12130994,0.02086112,0.0005960495,-0.041180898,0.013119201,-0.030468026,0.4269769,-1.4512719,1.9880518,-2.1095264,-1.5659226,2.4077768,-0.1636664,0.15867713,-0.1755248,-0.011648192,0.032103054,-0.13301139,-0.7852981,-0.30645782,-9.174581,0.78888994,47.721813,-1.2338424,-1.6209803,-3.3949027,-0.47660825,0.13342424,-0.094105326,27.8125,29.0625,28.125,31.8125,33.875,34.6875
0.25605193,-1.9203464,0.9946221,-0.4031379,0.07713499,0.071834534,-0.16928315,-0.38832566,-0.3257405,0.060067553,3.0712752,-0.6327714,-3.8411275e-05,-0.122667216,0.02096537,0.001018704,-0.041500043,0.014058257,-0.035963133,0.4266885,-1.450948,1.9876922,-2.1095264,-1.5658745,2.4074786,-0.16483584,0.15984511,-0.17788753,-0.01144453,0.031998515,-0.12868343,-0.6703765,-0.3256114,-9.155427,0.86945957,47.69763,-1.2762262,-1.6051105,-3.3586743,-0.4751215,0.13085678,-0.11411038,27.8125,29.0625,28.125,31.8125,33.875,34.6875
0.25805202,-1.2070771,1.3601575,-0.56365335,0.06997576,0.07944868,-0.17062883,-0.3885933,-0.32569095,0.060081422,3.0711267,-0.6329724,-0.0001044919,-0.123575665,0.020869628,0.001297166,-0.04145142,0.013951157,-0.040130462,0.42632845,-1.4506359,1.9873208,-2.1095617,-1.5658144,2.4072638,-0.165302,0.16135508,-0.18054366,-0.010178995,0.03200556,-0.12497795,-0.5554548,-0.2681506,-9.308657,0.8605109,47.670765,-1.3764699,-1.5310786,-3.2889605,-0.48956922,0.13277867,-0.13933721,27.8125,29.0625,28.125,31.8125,33.875,34.6875
0.26005206,-1.3692724,0.7503915,-0.67254466,0.05452259,0.07371569,-0.16659234,-0.3888185,-0.32562348,0.060066774,3.0710557,-0.6330959,-7.6102166e-05,-0.12391683,0.022156682,-0.0004254868,-0.03807124,0.011089757,-0.045989484,0.42597988,-1.4503355,1.9870218,-2.1095736,-1.5657672,2.4070017,-0.16661116,0.16509545,-0.18100223,-0.009456149,0.030105988,-0.12043115,-0.4213795,-0.1340753,-9.404425,0.83365434,47.68599,-1.3101323,-1.6152296,-3.311057,-0.49853832,0.17337394,-0.17430171,27.8125,29.0625,28.125,31.8125,33.875,34.6875
0.2620519,-1.2415103,-0.15640992,-0.69984573,0.029594958,0.07023363,-0.16072658,-0.38910112,-0.32556066,0.06007056,3.0709593,-0.6332903,-0.00013156352,-0.124962695,0.023062587,-0.00083429134,-0.03719854,0.0106722,-0.052074783,0.42560697,-1.4499754,1.9866141,-2.1095855,-1.5657433,2.406763,-0.16863182,0.16676421,-0.18200566,-0.009383993,0.029483642,-0.11636536,-0.47884035,-0.019153614,-9.3661175,0.8605109,47.684196,-1.2367637,-1.7111597,-3.2935123,-0.5117924,0.210282,-0.23067175,27.8125,29.0625,28.125,31.8125,33.875,34.6875
0.26405185,-1.0620884,-0.44401747,-0.888267,-0.005788702,0.058298063,-0.16114375,-0.38934496,-0.32551458,0.060079377,3.0708592,-0.6334446,-0.00014818595,-0.12660527,0.023919739,-0.0010723796,-0.03738334,0.009705425,-0.058200035,0.42528224,-1.4496627,1.9862422,-2.1095731,-1.5656952,2.406548,-0.17187212,0.16912645,-0.18431982,-0.0086285025,0.030050622,-0.113476425,-0.40222588,0.11492168,-9.385271,0.95226496,47.66987,-1.3339801,-1.9011519,-3.286934,-0.5259892,0.2158513,-0.29454064,27.8125,29.0625,28.125,31.8125,33.875,34.6875
0.266052,-0.9908432,-1.4137161,-0.9361361,-0.027106376,0.042854004,-0.1624744,-0.38957483,-0.32544285,0.06004742,3.070796,-0.6337012,-4.3409098e-05,-0.12779303,0.023590188,-0.0011166611,-0.037147067,0.009722844,-0.060091823,0.4249222,-1.4493024,1.9859074,-2.1095493,-1.5656475,2.4063566,-0.1719908,0.17191765,-0.1875082,-0.008141371,0.029819153,-0.11170332,-0.3256114,0.30645782,-9.461885,0.8918391,47.711063,-1.2776078,-2.0307148,-3.2899375,-0.5335528,0.23382962,-0.35700965,27.8125,29.0625,28.125,31.8125,33.875,34.6875
0.26805204,-0.6774455,-1.982441,-1.0354768,-0.04927282,0.04406409,-0.16640036,-0.38983753,-0.32539654,0.06004353,3.0707211,-0.6337848,-9.932932e-05,-0.12949993,0.024740338,-0.00072098745,-0.03794174,0.010317642,-0.06617628,0.42459697,-1.4489435,1.9855236,-2.109585,-1.5656227,2.4060936,-0.1757604,0.17217459,-0.18879056,-0.00798593,0.030301934,-0.10938503,-0.28730422,0.47884032,-9.461885,0.8940802,47.693153,-1.1194773,-1.8528094,-3.2147856,-0.55091774,0.2794925,-0.40477324,27.8125,29.0625,28.125,31.8125,33.875,34.6875
0.27005202,-0.8118396,-2.185246,-1.3769523,-0.049477596,0.034980923,-0.17080383,-0.39009544,-0.32535645,0.06004431,3.0705225,-0.634091,-6.540887e-05,-0.13170846,0.02406159,0.00082483067,-0.040852908,0.0135653205,-0.06870409,0.4242246,-1.4486077,1.9851526,-2.1096094,-1.5655025,2.4059386,-0.1770962,0.17242008,-0.19248001,-0.008686379,0.031620067,-0.10818617,-0.17238252,0.61291564,-9.519346,0.8314132,47.687782,-1.1646335,-1.8227116,-3.2249575,-0.5636897,0.29144412,-0.44938743,27.8125,29.0625,28.125,31.8125,33.875,34.6875
0.272052,-0.9130278,-2.235058,-1.6561345,-0.055181425,0.0220143,-0.16183974,-0.39038354,-0.32529208,0.060063586,3.070423,-0.634278,-0.0001621572,-0.13114245,0.023545863,-9.397566e-05,-0.04101214,0.011434746,-0.06544363,0.42385313,-1.4482716,1.984733,-2.1096094,-1.5654901,2.4056973,-0.17620596,0.1743734,-0.1926393,-0.008582475,0.032670204,-0.110551134,-0.038307227,0.5554548,-9.710882,0.900793,47.679718,-1.1571834,-1.8923236,-3.3247695,-0.55651057,0.31447494,-0.4980346,27.8125,29.0625,28.125,31.8125,33.875,34.6875
0.27405244,-0.7863103,-2.3722332,-1.2254487,-0.07441897,0.031410694,-0.16293035,-0.39065748,-0.32524168,0.060083155,3.0702646,-0.6344152,-0.0002459345,-0.13072257,0.02462349,-0.0020149634,-0.039723862,0.007620876,-0.06137378,0.42348054,-1.447971,1.9843634,-2.109657,-1.5654181,2.4054315,-0.17800051,0.17693357,-0.19116642,-0.008560386,0.03311217,-0.11641138,-0.076614454,0.63206923,-9.595961,0.947788,47.70032,-1.1012312,-1.9091989,-3.3759673,-0.572295,0.32574636,-0.4937622,27.8125,29.0625,28.125,31.8125,33.875,34.6875
0.27605256,-1.0854082,-2.179966,-1.1051766,-0.07494653,0.03325011,-0.15897706,-0.39089724,-0.32519308,0.060061447,3.070209,-0.63455236,-0.00017470898,-0.13242856,0.024630994,-0.0014832651,-0.042119075,0.009266492,-0.054976087,0.42315573,-1.4475882,1.9839796,-2.1096337,-1.5653695,2.4051998,-0.1803422,0.17757149,-0.19282925,-0.009963236,0.034652565,-0.12514673,-0.05746084,0.6895301,-9.500193,0.88960326,47.672558,-1.0520974,-1.8175557,-3.4522767,-0.574599,0.34768385,-0.41822553,27.8125,29.0625,28.125,31.8125,33.875,34.6875
0.27805254,-0.5120961,-2.0410223,-1.2621895,-0.046676993,0.03442243,-0.16182877,-0.39115468,-0.32514808,0.06005079,3.070091,-0.63469595,-0.00016760304,-0.13324928,0.0248308,-0.002196819,-0.04334478,0.007917039,-0.045890134,0.42280692,-1.4472277,1.9836091,-2.1096694,-1.5652965,2.4049563,-0.18240628,0.17985855,-0.19366139,-0.010616727,0.036379386,-0.13629036,0.13407528,0.5554548,-9.557653,0.8851263,47.67345,-1.0046256,-1.7982606,-3.473853,-0.5675249,0.3527493,-0.3331883,27.8125,29.0625,28.125,31.8125,33.875,34.6875
0.28005174,-0.44879612,-1.5798362,-1.0456388,-0.0488241,0.024480838,-0.16777928,-0.3914634,-0.32510206,0.060072422,3.0699115,-0.6348296,-0.00023341904,-0.13434158,0.025030417,-0.0025174918,-0.04525168,0.0071829017,-0.042831287,0.42239797,-1.4468682,1.9831661,-2.1097057,-1.5652002,2.4046547,-0.18490426,0.18155506,-0.194715,-0.011321466,0.0384648,-0.14183678,0.05746084,0.45968673,-9.481039,0.8873621,47.67166,-0.90491945,-1.8485739,-3.5067432,-0.56817544,0.33459944,-0.23228076,27.8125,29.0625,28.125,31.8125,33.875,34.6875
0.28205186,-0.02983704,-1.1041133,-0.6812192,-0.042653438,0.011861442,-0.17474744,-0.39176744,-0.32506058,0.060088847,3.0697684,-0.6349319,-0.00033093372,-0.13603999,0.02483167,-0.0022496197,-0.046940573,0.008325199,-0.03988723,0.4220254,-1.4464959,1.9827231,-2.1097538,-1.5651397,2.4043653,-0.1865312,0.18336564,-0.19716859,-0.012368578,0.0395752,-0.14639866,0.038307227,0.36391866,-9.308656,0.8851263,47.6636,-0.9037135,-1.8847889,-3.5390658,-0.56178916,0.35089886,-0.16023625,27.8125,29.0625,28.125,31.8125,33.875,34.6875
0.28405192,-0.20175074,-0.55923754,-0.58523506,-0.011344052,-0.0014790496,-0.16193046,-0.3920217,-0.32501182,0.06007347,3.0696614,-0.6350057,-0.00030101056,-0.13685517,0.024324717,-0.002078348,-0.04834589,0.008791605,-0.04016657,0.42166564,-1.4461361,1.982364,-2.10979,-1.5650553,2.4040658,-0.1868565,0.18460253,-0.19888611,-0.012865787,0.040676665,-0.14643915,-0.05746084,0.28730422,-9.193734,0.8940802,47.68062,-0.9931394,-1.8502123,-3.5752506,-0.56025946,0.3640787,-0.13252456,27.8125,29.0625,28.125,31.8125,33.875,34.6875
0.286052,-0.22126782,0.10998107,-0.64863086,0.007835237,-0.0050058747,-0.1633592,-0.39226398,-0.32498085,0.06004836,3.0695348,-0.63511693,-0.00016906402,-0.13784586,0.023211256,-0.0007296749,-0.05094934,0.011431566,-0.045111,0.42131767,-1.4457413,1.9819797,-2.1097906,-1.5649232,2.403804,-0.18631844,0.18398982,-0.20121576,-0.0133993,0.041951597,-0.1409524,-0.038307227,0.22984336,-9.212888,0.8627467,47.705692,-0.98394835,-1.7412791,-3.4817364,-0.5275777,0.3552422,-0.13858566,27.8125,29.0625,28.125,31.8125,33.875,34.6875
0.288052,-0.4822921,0.27116475,-0.53621495,0.020368634,0.0036428873,-0.1617657,-0.39256743,-0.32494307,0.0600697,3.069365,-0.6351983,-0.00030131254,-0.13876529,0.023219755,-0.00010551929,-0.052079696,0.011593007,-0.050954416,0.42094558,-1.4453937,1.9815611,-2.109874,-1.5648507,2.4035056,-0.1875804,0.18431567,-0.20332676,-0.0122272605,0.04292879,-0.13636088,-0.05746084,0.095768064,-9.289502,0.88289046,47.67793,-0.9853887,-1.7787602,-3.3926349,-0.5364794,0.3535996,-0.21085638,27.8125,29.0625,28.125,31.8125,33.875,34.6875
0.29005215,-0.6816112,0.26338252,-0.46624672,0.025790932,0.01836708,-0.15964516,-0.392825,-0.32489064,0.060041595,3.0692542,-0.6353712,-0.00017252799,-0.13919728,0.022960823,-0.0003761166,-0.052741252,0.01032151,-0.05730645,0.42056137,-1.4449856,1.9811653,-2.1098611,-1.5647424,2.403244,-0.18803763,0.18617566,-0.20502636,-0.011504126,0.044032957,-0.13046302,-0.076614454,0.019153614,-9.289502,0.8985519,47.707485,-1.1320453,-1.8256677,-3.3343434,-0.551339,0.35690978,-0.2899606,27.8125,29.0625,28.125,31.8125,33.875,34.6875
0.2920519,-1.0270509,0.31421053,-0.2722826,0.021487633,0.036594298,-0.1685178,-0.3931064,-0.3248407,0.060040437,3.0691183,-0.6355537,-0.00025196176,-0.13943519,0.022215314,-0.0002189647,-0.05353506,0.009852279,-0.057489302,0.42020145,-1.4446261,1.9807814,-2.1099327,-1.5646938,2.4030163,-0.18731236,0.18744001,-0.20706534,-0.010611402,0.04496633,-0.12954703,-0.095768064,0.019153614,-9.136273,0.87617236,47.701214,-1.0914698,-1.7607536,-3.2333732,-0.54728717,0.34369045,-0.30222446,27.8125,29.0625,28.125,31.8125,33.875,34.6875
0.29405195,-0.86121786,0.43384323,-0.6101186,0.026320333,0.046197027,-0.16029999,-0.39335528,-0.32480964,0.060037415,3.068995,-0.6356434,-9.027151e-05,-0.14162348,0.02138138,0.0010330979,-0.055547524,0.01204182,-0.058661424,0.41984114,-1.4442416,1.9803385,-2.1098487,-1.5645498,2.4027283,-0.18806215,0.18912551,-0.21197286,-0.0101801725,0.045907848,-0.12912047,-0.15322891,-0.076614454,-9.11712,0.8537928,47.68599,-1.0714811,-1.755193,-3.157625,-0.55980873,0.34012574,-0.3203643,27.8125,29.0625,28.125,31.8125,33.875,34.6875
0.29605228,-0.8050994,0.69101983,-0.5449659,0.026509844,0.043602437,-0.15724866,-0.39366946,-0.32474548,0.060048703,3.0688274,-0.63589716,-0.00017464235,-0.14286892,0.021961924,0.0012431657,-0.056266513,0.011618665,-0.06111056,0.41942036,-1.4438703,1.9799074,-2.109897,-1.5644892,2.4024885,-0.19055846,0.19019778,-0.21394992,-0.009157352,0.046763137,-0.12915936,-0.19153614,-0.038307227,-9.308657,0.84708,47.689575,-1.0810716,-1.8015709,-3.160363,-0.5706033,0.3349139,-0.359936,27.8125,29.0625,28.125,31.8125,33.875,34.6875
0.29805228,-1.2574748,-0.018022902,-0.88534904,0.03335201,0.037366413,-0.14970055,-0.3939257,-0.32472032,0.060046405,3.068704,-0.6359653,-0.00015053347,-0.14288293,0.021190042,0.0009907467,-0.05752864,0.010423879,-0.059047434,0.4190969,-1.4434988,1.9794987,-2.1099083,-1.5643929,2.402224,-0.1900856,0.19176959,-0.21527864,-0.008791265,0.048424494,-0.13074163,-0.4213795,0.019153614,-9.404425,0.8537928,47.70211,-1.2729039,-1.659734,-3.0571723,-0.57526344,0.33736825,-0.36638433,27.8125,29.0625,28.125,31.8125,33.875,34.6875
0.30005226,-1.668567,-0.12996341,-1.1025208,0.017067071,0.04401051,-0.15727532,-0.39423725,-0.3246769,0.060061507,3.068542,-0.6361385,-0.00019250924,-0.14199392,0.020908143,-0.0011752989,-0.057246182,0.0054995203,-0.053276736,0.4187014,-1.443102,1.9790219,-2.1099203,-1.564308,2.4019585,-0.18983041,0.19589843,-0.21512234,-0.008404272,0.050220367,-0.13624692,-0.40222588,0.15322891,-9.481039,0.89631605,47.711063,-1.3711616,-1.8626565,-3.2629538,-0.5975888,0.31441605,-0.34075266,27.8125,29.0625,28.125,31.8125,33.875,34.6875
0.3020524,-1.0580534,-0.5382552,-1.0252355,-0.015932862,0.08091105,-0.17036419,-0.39449105,-0.3246284,0.060033053,3.0684402,-0.6362657,-6.486185e-05,-0.14296678,0.020738693,-0.001414819,-0.058136307,0.0042169536,-0.046949707,0.41832948,-1.4426938,1.9786261,-2.1099079,-1.5641998,2.4016795,-0.19107516,0.19848673,-0.21776865,-0.00745916,0.051593345,-0.14381446,-0.2681506,0.21068975,-9.595961,0.9097417,47.749577,-1.4391661,-1.874446,-3.2625122,-0.60795224,0.28827867,-0.27924538,27.8125,29.0625,28.125,31.8125,33.875,34.6875
0.30405265,-1.6327813,-1.3865261,-0.83651745,-0.050530087,0.0717657,-0.16192126,-0.39478245,-0.32455584,0.060024038,3.0683184,-0.63640875,-3.6073612e-05,-0.14318454,0.021397414,-0.0021442573,-0.058819536,0.0017004184,-0.04147934,0.41789743,-1.4423103,1.9782189,-2.1099198,-1.5641149,2.4013531,-0.19341956,0.19984812,-0.21789593,-0.0065917643,0.053294122,-0.15162237,-0.40222588,0.24899697,-9.595961,0.88960326,47.72808,-1.4172928,-1.8940792,-3.3841882,-0.62425214,0.2604902,-0.17172061,27.8125,29.0625,28.125,31.8125,33.875,34.6875
0.30605185,-0.8253009,-1.5020518,-0.7967823,-0.05731529,0.077933386,-0.16708305,-0.39505664,-0.32452455,0.060005367,3.0681844,-0.6364943,6.9648915e-05,-0.14389692,0.022775395,-0.0028230425,-0.05942779,-0.00031761118,-0.041095614,0.41752502,-1.4418787,1.9777769,-2.1099193,-1.5639824,2.401052,-0.19732074,0.20075113,-0.21752219,-0.0062073683,0.054700963,-0.15590285,-0.3256114,0.3256114,-9.481039,0.9030289,47.709274,-1.2889937,-1.9079595,-3.4105697,-0.6538316,0.24850477,-0.08539114,27.8125,29.0625,28.125,31.8125,33.875,34.6875
0.30805188,-0.70555574,-1.1962038,-0.6459141,-0.046277888,0.06049859,-0.17105417,-0.39535257,-0.32447526,0.060008965,3.0680556,-0.636581,2.5981579e-05,-0.14507243,0.02267976,-0.0028731937,-0.061787326,-0.0003705471,-0.041894395,0.41714117,-1.4414951,1.9773463,-2.109956,-1.5639099,2.4007397,-0.19938867,0.20217812,-0.21884514,-0.0071862466,0.05690265,-0.15715931,-0.36391866,0.28730422,-9.442732,0.90750587,47.699425,-1.3285323,-1.8648833,-3.5705698,-0.66745645,0.20731217,-0.039075237,27.8125,29.0625,28.125,31.8125,33.875,34.6875
0.31005183,-0.63075566,-1.1361507,-0.5860466,-0.023456652,0.044513743,-0.15787853,-0.39564994,-0.32443663,0.060015395,3.067884,-0.6367195,3.8964783e-05,-0.1470043,0.022353787,-0.001727294,-0.063043505,0.0038933917,-0.046717253,0.41674554,-1.4410998,1.9768904,-2.1099684,-1.5637907,2.4004536,-0.19981238,0.20220056,-0.22104467,-0.009403119,0.056315366,-0.15275653,-0.45968673,0.30645782,-9.404425,0.86945957,47.68599,-1.2180694,-1.8794405,-3.5340385,-0.64982086,0.20184237,-0.063933976,27.8125,29.0625,28.125,31.8125,33.875,34.6875
0.31205177,-0.5736859,-0.4675669,-0.35804272,-0.025355201,0.044249963,-0.16369873,-0.3959355,-0.32440597,0.060009327,3.067682,-0.6368533,8.758913e-05,-0.1489505,0.022245867,-0.0011393345,-0.06507494,0.005781879,-0.054520324,0.41634968,-1.4407041,1.9764713,-2.110017,-1.5636333,2.4001682,-0.20174679,0.20341049,-0.22351222,-0.010692615,0.057394873,-0.14687845,-0.47884035,0.38307226,-9.32781,0.86945957,47.684196,-1.2332323,-1.8383639,-3.5408974,-0.63250387,0.17240241,-0.10959318,27.8125,29.0625,28.125,31.8125,33.875,34.6875
0.31405196,-0.40365973,-0.0062157754,-0.2565898,-0.023161866,0.046277493,-0.16003841,-0.39622805,-0.32435244,0.059983235,3.0675738,-0.63696724,0.00013154656,-0.14977007,0.021850856,-0.0012545923,-0.06728166,0.0049842163,-0.06265876,0.415954,-1.4402605,1.9760402,-2.1100528,-1.5635489,2.3998582,-0.20303388,0.20510341,-0.22517706,-0.010904218,0.059713714,-0.14001657,-0.40222588,0.4405331,-9.193734,0.94331104,47.68599,-1.1387888,-1.7557759,-3.5897322,-0.6323035,0.14065146,-0.18474513,27.8125,29.0625,28.125,31.8125,33.875,34.6875
0.31605214,-0.5556412,-0.5434047,-0.17288767,-0.015858747,0.05329689,-0.15844429,-0.39652395,-0.32432395,0.05998854,3.0673842,-0.6371418,0.00015801495,-0.15159498,0.021590056,0.00015990509,-0.06911316,0.0077377954,-0.07053553,0.41557065,-1.4398531,1.975573,-2.1100647,-1.5634164,2.3996093,-0.20422521,0.20492887,-0.22827709,-0.01089671,0.060259715,-0.1333234,-0.40222588,0.34476504,-9.232041,0.8940802,47.684196,-1.1487952,-1.714883,-3.4733772,-0.6322486,0.10639708,-0.26569396,27.8125,29.0625,28.125,31.8125,33.875,34.6875
0.3180522,-0.252534,0.07009958,-0.11913714,-0.020259744,0.06482923,-0.16288432,-0.39682043,-0.3242707,0.05995925,3.067208,-0.6373726,0.0002968809,-0.153679,0.022667585,0.00037097165,-0.06588277,0.009342831,-0.07349112,0.41512695,-1.439397,1.9751295,-2.1100762,-1.5632619,2.3993332,-0.20537186,0.2074797,-0.23196979,-0.009873422,0.05665699,-0.13152549,-0.40222588,0.28730422,-9.212888,0.9254084,47.709274,-1.083458,-1.7956525,-3.3453493,-0.6372013,0.098103836,-0.33780944,27.8125,29.0625,28.125,31.8125,33.875,34.6875
0.3200523,-0.7061754,-0.24100041,-0.08098207,-0.012435799,0.07121045,-0.16414583,-0.39715892,-0.3242299,0.059983835,3.0670047,-0.6376019,0.00018721375,-0.15564507,0.023228057,0.0013110632,-0.06646299,0.010436635,-0.08104809,0.41471854,-1.4389893,1.9746255,-2.1101234,-1.563178,2.3990955,-0.20787421,0.2082769,-0.23540795,-0.008470928,0.056750268,-0.12646094,-0.45968673,0.3256114,-9.270349,0.8985519,47.698532,-1.0340087,-1.8984045,-3.3413818,-0.6501173,0.104647376,-0.42757675,27.8125,29.0625,28.125,31.8125,33.875,34.6875
0.3220525,-1.2999942,-0.022109255,-0.08287987,-0.019134091,0.07862734,-0.16188264,-0.3974396,-0.32419372,0.05995359,3.066878,-0.6377841,0.00034972886,-0.15680574,0.023751937,0.0020427625,-0.06582373,0.012462261,-0.0813396,0.41433513,-1.4385103,1.9741472,-2.110088,-1.5630463,2.3988428,-0.20869742,0.20805131,-0.23697738,-0.008225205,0.055358764,-0.12699941,-0.5363012,0.3256114,-9.270349,0.9768804,47.677036,-1.006959,-1.7991095,-3.3334165,-0.646603,0.08393654,-0.47856683,27.8125,29.0625,28.125,31.8125,33.875,34.6875
0.32405248,-1.623945,0.14683983,-0.4199275,0.004931793,0.08746621,-0.15921746,-0.39773697,-0.3241388,0.059929732,3.0667033,-0.6379924,0.00041879222,-0.1574942,0.024397114,0.001930305,-0.06346898,0.013469652,-0.07615781,0.4139041,-1.438079,1.9737271,-2.1101358,-1.5629152,2.3985653,-0.2086073,0.2091184,-0.23804411,-0.008112015,0.052842677,-0.13209823,-0.4213795,0.2681506,-9.346964,0.8537928,47.684196,-1.1422615,-1.6555121,-3.2875326,-0.64709336,0.08574833,-0.49128675,27.8125,29.0625,28.125,31.8125,33.875,34.6875
0.3260517,-1.9100571,-0.09974619,-0.3482401,0.021744093,0.08833271,-0.15817821,-0.3980612,-0.32409152,0.05995393,3.066536,-0.6381602,0.00035696087,-0.15827197,0.024528092,0.0015728532,-0.061641254,0.013556329,-0.06602277,0.41349694,-1.4376825,1.973225,-2.1101353,-1.5628318,2.3982856,-0.20821309,0.21162683,-0.24024701,-0.0076484396,0.051210735,-0.14183904,-0.22984336,0.19153613,-9.385271,0.9030289,47.694054,-1.3547457,-1.8038845,-3.2385302,-0.6567988,0.12370317,-0.43635303,27.8125,29.0625,28.125,31.8125,33.875,34.6875
0.3280518,-1.2501211,0.29711396,-0.25882602,0.016990978,0.107475296,-0.16931306,-0.39838254,-0.32406405,0.059952233,3.0663497,-0.63824695,0.00037891394,-0.15778412,0.025035044,-0.0005218001,-0.058156263,0.010958323,-0.054441337,0.41309005,-1.4372263,1.9727234,-2.1101716,-1.5626887,2.397958,-0.20719509,0.21551166,-0.2398713,-0.007998321,0.049144626,-0.15240675,-0.34476504,0.1340753,-9.308657,0.9455522,47.672558,-1.4653273,-1.9416689,-3.2576327,-0.6605541,0.12807843,-0.3280465,27.8125,29.0625,28.125,31.8125,33.875,34.6875
0.33005208,-1.2225794,0.5555715,-0.58117956,0.032837566,0.09427197,-0.16040921,-0.39869353,-0.323991,0.059939697,3.0662463,-0.63844943,0.00037193988,-0.15886512,0.02556771,-0.0002620724,-0.056961797,0.012680776,-0.046275143,0.41267055,-1.4367948,1.972268,-2.1101835,-1.5626415,2.397679,-0.20773536,0.21616568,-0.24123073,-0.008288384,0.04742207,-0.16111803,-0.21068975,0.095768064,-9.270349,0.900793,47.68062,-1.4709761,-1.8340241,-3.3640454,-0.6614385,0.13301113,-0.20888793,27.8125,29.0625,28.125,31.8125,33.875,34.6875
0.33205208,-1.2985996,0.49307534,-0.72315913,0.032863915,0.061928555,-0.15978926,-0.3990145,-0.32394937,0.05992434,3.0660841,-0.6385499,0.00045240676,-0.16069219,0.027237521,-0.00051885616,-0.054926626,0.013441388,-0.046330217,0.41223833,-1.436315,1.9717649,-2.1101959,-1.562498,2.3973315,-0.21069767,0.21793875,-0.24273637,-0.008362313,0.0452854,-0.16403154,0.019153614,-0.019153614,-9.519346,0.94331104,47.705692,-1.3250387,-1.9854012,-3.440401,-0.67739546,0.1830315,-0.15308306,27.8125,29.0625,28.125,31.8125,33.875,34.6875
0.33405232,0.210065,0.8848923,-0.70108175,0.0016756351,0.05543858,-0.16218638,-0.39935192,-0.32387057,0.05991836,3.0659728,-0.6387363,0.0003898874,-0.16067317,0.028074766,-0.0017121496,-0.05236741,0.011864716,-0.04805028,0.41179505,-1.4358712,1.9712857,-2.1102312,-1.5624622,2.3970199,-0.21090686,0.220132,-0.24263982,-0.008163031,0.04359033,-0.16252431,-0.21068975,0.05746084,-9.461885,1.0082139,47.661808,-1.366959,-1.9644213,-3.5131135,-0.6710074,0.20394263,-0.12545128,27.8125,29.0625,28.125,31.8125,33.875,34.6875
0.33605242,-0.5365583,-0.056425463,-0.58128566,0.0031642802,0.011531756,-0.15125562,-0.39964288,-0.32379028,0.059881184,3.0659235,-0.63890094,0.00045021786,-0.16214636,0.028817521,-0.0023318552,-0.050654594,0.011853071,-0.05515083,0.41138744,-1.4354149,1.9708551,-2.1102312,-1.5624269,2.3967218,-0.21224514,0.22326645,-0.24480863,-0.008450813,0.041997127,-0.15676782,-0.3256114,0.019153614,-9.404425,0.8537928,47.645687,-1.3066876,-2.051149,-3.4860044,-0.66123974,0.23914808,-0.17803362,27.8125,29.0625,28.125,31.8125,33.875,34.6875
0.33805192,-0.5165434,-0.18116441,-0.7771394,0.0012968079,0.0029711665,-0.15116097,-0.39998436,-0.32374203,0.05989671,3.0657253,-0.6391317,0.0004476722,-0.16383585,0.030248605,-0.0019871385,-0.050217032,0.013329917,-0.06523664,0.41094324,-1.4349713,1.9703163,-2.1102197,-1.5623072,2.3964486,-0.21537387,0.22335835,-0.24570128,-0.008845705,0.040991593,-0.14981088,-0.095768064,0.15322891,-9.461885,0.8940802,47.658226,-1.2592163,-2.0916677,-3.4961061,-0.64904094,0.29083595,-0.24951634,27.8125,29.0625,28.125,31.8125,33.875,34.6875
0.34005204,0.0624368,-0.4391661,-0.90999764,0.006107428,0.018469835,-0.15771917,-0.40031043,-0.32370663,0.059896585,3.0655878,-0.6391794,0.0003979559,-0.16614577,0.030689215,-0.0010507737,-0.05174486,0.0144789135,-0.069745824,0.41055873,-1.434516,1.9698132,-2.1102674,-1.5622228,2.3961127,-0.21847095,0.22454955,-0.24948737,-0.007901033,0.041946534,-0.14838926,-0.076614454,0.076614454,-9.423578,0.95002913,47.68599,-1.1601577,-2.1407304,-3.4048944,-0.67532825,0.28499058,-0.30903292,27.8125,29.0625,28.125,31.8125,33.875,34.6875
0.34205204,0.2533926,0.038321175,-0.81353724,-0.007941931,0.020822877,-0.16222572,-0.40064132,-0.32362166,0.059880685,3.0654411,-0.6394756,0.00044110377,-0.1671645,0.030938122,-0.0010155122,-0.05288641,0.013874445,-0.07322215,0.410079,-1.4340603,1.9693345,-2.110267,-1.562138,2.3958378,-0.2203744,0.22588369,-0.25130138,-0.0073072864,0.04324252,-0.14680927,-0.17238253,0.05746084,-9.481039,0.89631605,47.70838,-1.0719085,-2.1407893,-3.3810344,-0.6983725,0.3010558,-0.32468724,27.8125,29.0625,28.125,31.8125,33.875,34.6875
0.34405223,-0.031802814,-0.39239416,-0.8555538,-0.011921049,0.031513073,-0.1715336,-0.40097433,-0.32358018,0.059887163,3.0652785,-0.6396315,0.00041717914,-0.1686169,0.031195018,-0.0007470585,-0.054453228,0.014094409,-0.075106986,0.409671,-1.4336048,1.9688076,-2.1102788,-1.5620421,2.3955493,-0.2226968,0.2271154,-0.25341046,-0.007225324,0.044616103,-0.14723653,-0.3256114,0.2681506,-9.461885,0.8873621,47.694054,-1.0168791,-2.047648,-3.4079294,-0.6891769,0.3300277,-0.35493284,27.8125,29.0625,28.125,31.8125,33.875,34.6875
0.34605244,-0.7518066,-0.47518748,-1.2449611,-0.02812704,0.049444336,-0.16736162,-0.40133387,-0.32352245,0.05990017,3.0650768,-0.63985515,0.0003744424,-0.16830564,0.030900393,-0.00040200757,-0.056121897,0.013456962,-0.07314546,0.40920347,-1.43315,1.9682692,-2.1103022,-1.5619329,2.395249,-0.2228541,0.22628692,-0.25355765,-0.006280189,0.046446603,-0.1493434,-0.45968673,0.17238252,-9.500193,0.8493211,47.686886,-0.96071565,-1.9925644,-3.327853,-0.7016715,0.30966383,-0.3847793,27.8125,29.0625,28.125,31.8125,33.875,34.6875
0.34805256,-1.6410431,-0.87110233,-1.0751582,-0.035442337,0.07047706,-0.16720039,-0.40166184,-0.3234442,0.05988453,3.0649312,-0.64004934,0.00043620224,-0.16914234,0.030573413,0.00024089815,-0.058031134,0.013699937,-0.068139315,0.4087246,-1.4326948,1.96779,-2.1103022,-1.5618247,2.394911,-0.22380936,0.2266676,-0.25574803,-0.0053678327,0.048154313,-0.15529591,-0.38307226,0.22984336,-9.672575,0.8806493,47.691364,-0.9280925,-1.9141152,-3.4404275,-0.7256452,0.3299141,-0.33787268,27.8125,29.0625,28.125,31.8125,33.875,34.6875
0.35005248,-2.007957,-1.1438195,-0.86376613,-0.045866057,0.10385883,-0.16407114,-0.40196112,-0.3234013,0.0598576,3.0648177,-0.6401718,0.000505841,-0.16911861,0.029168732,0.00056652847,-0.0607335,0.012850529,-0.058095545,0.4083418,-1.4322152,1.9673113,-2.1103137,-1.5617279,2.3946202,-0.22288026,0.22762921,-0.25789124,-0.0043760007,0.051038004,-0.16439718,-0.51714754,0.15322891,-9.634268,0.98807013,47.7451,-1.1944745,-1.911982,-3.537726,-0.75379145,0.29345566,-0.24484122,27.8125,29.0625,28.125,31.8125,33.875,34.6875
0.3520525,-2.4738712,-0.81855667,-0.7982583,-0.038543355,0.11708018,-0.16046815,-0.40233195,-0.32333663,0.0598765,3.0646536,-0.6403019,0.00046393884,-0.16991393,0.028656667,0.0017151117,-0.060892213,0.015796652,-0.048937917,0.40786284,-1.4317482,1.9667367,-2.1103017,-1.5616325,2.394245,-0.22170793,0.22704293,-0.25993928,-0.0043939063,0.05009102,-0.17238186,-0.61291564,0.19153613,-9.595961,0.9545008,47.72271,-1.3465852,-1.885803,-3.490285,-0.75018066,0.29896697,-0.11956035,27.8125,29.0625,28.125,31.8125,33.875,34.6875
0.35405275,-1.9027058,-0.003591065,-0.8618536,-0.0043015713,0.1229038,-0.16602731,-0.40265304,-0.32328266,0.059865173,3.0645397,-0.6403537,0.0004992059,-0.17200603,0.028542645,0.002324054,-0.063055135,0.017876774,-0.048468262,0.407443,-1.4312806,1.9662331,-2.1103022,-1.5615357,2.393873,-0.22372957,0.22842607,-0.26266748,-0.005759904,0.051280886,-0.17486459,-0.49799395,0.21068975,-9.672575,0.95226496,47.686886,-1.3657,-1.8434064,-3.4721527,-0.7643008,0.33053786,-0.06574122,27.8125,29.0625,28.125,31.8125,33.875,34.6875
0.35605228,-1.3352728,0.07362664,-1.0336254,0.016677495,0.10182297,-0.1650892,-0.4030051,-0.32325026,0.059875708,3.0643551,-0.6404505,0.00046655285,-0.17237857,0.029105874,0.00078581256,-0.06339496,0.015696393,-0.053902972,0.407023,-1.4308008,1.9656714,-2.110327,-1.5614151,2.3935387,-0.22560087,0.23124242,-0.2620969,-0.007273622,0.052467965,-0.17129007,-0.38307226,0.24899697,-9.825804,0.98807013,47.674347,-1.3690643,-1.9026263,-3.4797423,-0.7496978,0.29576913,-0.05028297,27.8125,29.0625,28.125,31.8125,33.875,34.6875
0.35805202,-0.6781061,-0.015267414,-0.70161676,-0.0041033467,0.07870943,-0.17245965,-0.40335217,-0.3231578,0.05986924,3.0642428,-0.640659,0.00044418644,-0.1724575,0.028284254,0.00038691933,-0.06490367,0.014754841,-0.060813777,0.40654406,-1.4303445,1.9651688,-2.1103275,-1.5613669,2.3932054,-0.22504304,0.23299298,-0.26315236,-0.0077426163,0.054203562,-0.16380982,-0.36391866,0.21068975,-9.691729,0.94331104,47.67166,-1.357691,-1.917881,-3.5490193,-0.739641,0.30217814,-0.12397973,27.8125,29.0625,28.125,31.8125,33.875,34.6875
0.3600521,-0.27776942,-0.6502285,-0.76774883,-0.016931916,0.04788979,-0.16807188,-0.4037305,-0.32309046,0.059881877,3.0640059,-0.640977,0.00039478877,-0.17364149,0.029364217,-0.000559941,-0.06308852,0.014055125,-0.07106567,0.4060405,-1.4298767,1.9646181,-2.1103632,-1.5612472,2.392933,-0.22679667,0.23595157,-0.26436377,-0.008157592,0.052794598,-0.15531078,-0.2681506,0.21068975,-9.442732,0.98807013,47.675243,-1.3326074,-1.9367081,-3.539298,-0.73607886,0.31484374,-0.18936425,27.8125,29.0625,28.125,31.8125,33.875,34.6875
0.36205214,-0.4346217,-0.65517944,-0.6768955,-0.034594428,0.019728575,-0.16712835,-0.4040658,-0.32302415,0.059879173,3.0639057,-0.64112806,0.00037081097,-0.1756664,0.030080346,-0.0001122281,-0.062264938,0.016019529,-0.07646527,0.4056207,-1.4294089,1.9640907,-2.1103513,-1.5612,2.3926213,-0.22849935,0.23749018,-0.26720092,-0.008338743,0.051256042,-0.15161726,-0.095768064,0.28730422,-9.615114,0.9567419,47.705692,-1.3270137,-2.0149734,-3.5907216,-0.7273935,0.34453157,-0.27191454,27.8125,29.0625,28.125,31.8125,33.875,34.6875
0.36405233,-0.13366699,-0.9748688,-0.78576934,-0.03786279,0.017593712,-0.16307417,-0.40442157,-0.32297286,0.05986428,3.0637274,-0.6413624,0.00041542656,-0.17684199,0.029608104,-0.00097325817,-0.064019576,0.013820437,-0.08328762,0.4051646,-1.4288807,1.963528,-2.1103632,-1.5610789,2.392336,-0.22991908,0.24175794,-0.27019542,-0.008301448,0.053719454,-0.14619811,0.0,0.15322891,-9.442732,0.88960326,47.711964,-1.1814507,-2.0338607,-3.546885,-0.7231132,0.37310278,-0.36287665,27.8125,29.0625,28.125,31.8125,33.875,34.6875
0.36605224,0.09373073,-0.8198867,-0.76631117,-0.030749088,0.0067902626,-0.17187467,-0.40477887,-0.32292217,0.059870478,3.0635064,-0.6415641,0.0003518834,-0.17833447,0.029729515,-0.00063386443,-0.06678205,0.0137420595,-0.088533126,0.40470892,-1.4284246,1.963013,-2.1104348,-1.5609578,2.3920364,-0.23275426,0.24283966,-0.272274,-0.0083109625,0.056305654,-0.14376688,0.0,0.22984336,-9.461885,0.90527004,47.691364,-1.0210124,-2.133769,-3.4949327,-0.73868424,0.31774116,-0.43218434,27.8125,29.0625,28.125,31.8125,33.875,34.6875
0.3680523,0.53713846,-0.39652687,-0.3798561,-0.0346415,0.018863054,-0.17932244,-0.40514767,-0.32287768,0.059875023,3.0632699,-0.6418388,0.00035301008,-0.1803808,0.03014641,0.00055299967,-0.07051311,0.015139229,-0.090760306,0.4042406,-1.427922,1.962438,-2.110459,-1.5608128,2.391772,-0.2367716,0.24234837,-0.27451044,-0.008281345,0.05922542,-0.14553621,0.019153614,0.34476504,-9.346964,0.9186956,47.70838,-1.0464165,-2.0150373,-3.4138517,-0.7234256,0.3216572,-0.46944183,27.8125,29.0625,28.125,31.8125,33.875,34.6875
0.37005246,0.0074469345,-0.8727456,-0.5471938,-0.014832581,0.0095685255,-0.17668666,-0.4055315,-0.32280558,0.05990546,3.0631,-0.642083,0.00022242713,-0.18208969,0.030191591,0.0016894283,-0.07346357,0.016683465,-0.08389402,0.40377268,-1.427467,1.9618515,-2.110459,-1.5607642,2.3914802,-0.2393667,0.24214841,-0.27700624,-0.008045095,0.061429076,-0.15497813,-0.05746084,0.30645782,-9.232041,0.9186956,47.694946,-0.80851513,-2.0242534,-3.4274127,-0.7161256,0.28791445,-0.45424864,27.8125,29.0625,28.125,31.8125,33.875,34.6875
0.3720527,-0.36736408,-0.73055965,-0.47577646,-0.009911152,0.0043478776,-0.17193049,-0.40587294,-0.32274893,0.059877213,3.0628958,-0.64226437,0.00034845615,-0.18211743,0.029507712,0.0016038814,-0.076354034,0.0153946765,-0.075261906,0.40328115,-1.4269519,1.9613365,-2.110483,-1.560583,2.3911297,-0.23997992,0.24287932,-0.2777856,-0.0078066094,0.06467976,-0.1642056,-0.05746084,0.28730422,-9.32781,0.89631605,47.682407,-0.8737687,-1.8977797,-3.348199,-0.69614303,0.24515022,-0.3516524,27.8125,29.0625,28.125,31.8125,33.875,34.6875
