Tylouw/Master_Thesis_Code/training_data/batch_1/big_rod_t0.3/sample_48_session_1.csv
timestamp[s],tcp_force_x[N],tcp_force_y[N],tcp_force_z[N],tcp_force_rx[Nm?],tcp_force_ry[Nm?],tcp_force_rz[Nm?],tcp_pose_x[m],tcp_pose_y[m],tcp_pose_z[m],tcp_pose_rx[rot_vec_x],tcp_pose_ry[rot_vec_y],tcp_pose_rz[rot_vec_z],tcp_velo_x[m/s],tcp_velo_y[m/s],tcp_velo_z[m/s],tcp_velo_rx[rot_vec_x/s],tcp_velo_ry[rot_vec_y/s],tcp_velo_rz[rot_vec_z/s],q1[rad],q2[rad],q3[rad],q4[rad],q5[rad],q6[rad],qd1[rad/s],qd2[rad/s],qd3[rad/s],qd4[rad/s],qd5[rad/s],qd6[rad/s],tool_acc_x,tool_acc_y,tool_acc_z,current_of_whole_robot[A],voltage_of_whole_robot[V],current_J1[A],current_J2[A],current_J3[A],current_J4[A],current_J5[A],current_J6[A],temp_J1[C],temp_J2[C],temp_J3[C],temp_J4[C],temp_J5[C],temp_J6[C]
1.1830125e-06,-0.038733013,-0.42004457,0.43366286,-0.01748246,0.018269112,-0.020076793,-0.37288547,-0.32823992,0.059944075,-3.078518,0.62487346,-0.00030072505,0.0029452392,0.0014647222,-0.0039808257,0.0042348253,-0.008778121,-1.329441e-05,0.4481623,-1.4708492,2.0095613,-2.107703,-1.5706257,2.4230795,-7.6556586e-05,0.0037070976,0.004771071,0.0012680679,2.3101549e-15,-6.591777e-05,0.05746084,0.21068975,-9.002198,0.7709874,47.713753,-0.15245464,-2.943346,-2.4611783,-0.48466587,-0.049709063,-0.11473806,27.6875,28.9375,27.9375,31.625,33.625,34.375
0.002054932,-0.06311206,-0.5385224,0.3218671,0.0043273205,0.015552896,-0.016278764,-0.3728717,-0.32822686,0.059925053,-3.078503,0.6248516,-0.00034005925,-0.00027187087,-9.198818e-05,-0.0027018304,-0.00037019455,0.0007446716,-9.980309e-06,0.44815025,-1.4708492,2.0096085,-2.1077187,-1.5706257,2.4230556,-7.563754e-05,0.003724187,0.0040815165,-0.008637264,1.5083661e-16,-6.496605e-05,0.11492168,0.21068975,-8.983045,0.69041777,47.71465,-0.16758943,-2.8350835,-2.3468976,-0.4616641,-0.04528986,-0.119401425,27.6875,28.9375,27.9375,31.625,33.625,34.375
0.004053907,-0.124692045,0.04039412,0.19452569,0.007471429,0.0055496665,-0.025540497,-0.37286785,-0.32821858,0.059915837,-3.078496,0.6248496,-0.0003549752,-0.0010065124,-0.00044782803,-0.0024370307,-0.0014096993,0.0028941478,-9.231071e-06,0.4481382,-1.4708492,2.0096323,-2.1077306,-1.5706257,2.4230433,-7.4740215e-05,0.0037814823,0.0039366814,-0.010937363,9.848553e-18,-6.4041575e-05,0.038307227,0.21068975,-8.925584,0.7105615,47.71554,-0.12662548,-2.9984288,-2.5568647,-0.37525895,-0.04450243,-0.12277949,27.6875,28.9375,27.9375,31.625,33.625,34.375
0.00605366,-0.01530769,0.001013464,0.17312725,0.022372708,-0.0043035382,-0.017883308,-0.37290645,-0.3282244,0.059938427,-3.0785134,0.6248339,-0.00023362995,-5.496583e-05,1.2082712e-05,-0.002274899,-1.2339835e-05,8.178032e-06,-1.0306727e-05,0.4481382,-1.4708375,2.0095727,-2.1077526,-1.5706614,2.4230313,-7.386395e-05,0.0031024795,0.0032705101,-0.0063857255,6.4304013e-19,-6.314292e-05,-0.038307227,0.15322891,-8.983045,0.7553206,47.707485,-0.14378166,-3.0590193,-2.5482152,-0.3887398,-0.0472626,-0.1032435,27.6875,28.9375,27.9375,31.625,33.625,34.375
0.008053694,0.3458805,0.6364997,-0.15081848,0.042239547,-0.018925421,-0.013105639,-0.37285903,-0.32821646,0.059895743,-3.0784497,0.62484074,-0.0004213102,0.00032626648,0.00019615372,-0.0018501079,0.00056140556,-0.0011742065,-1.0794359e-05,0.44815025,-1.4708018,2.0096204,-2.107704,-1.5706376,2.4230556,-7.300792e-05,0.0023690464,0.0024454482,-0.0035129958,4.1985924e-20,-6.226918e-05,0.0,0.17238252,-9.059659,0.78888994,47.701214,-0.06453293,-2.9849374,-2.48905,-0.426475,-0.034972627,-0.11973932,27.6875,28.9375,27.9375,31.625,33.625,34.375
0.010054271,0.6711993,1.069776,-0.4605356,0.045334656,-0.012242423,-0.022631798,-0.37286717,-0.328214,0.059888907,-3.078465,0.6248051,-0.00040502966,0.00038945512,0.00023119178,-0.0014672608,0.000683609,-0.0014240794,-2.0033161e-05,0.4481382,-1.47079,2.0096314,-2.1077397,-1.5706376,2.4230194,-8.128064e-05,0.001859554,0.0017991926,-0.0020790969,2.741381e-21,-6.141931e-05,0.019153614,0.095768064,-9.212888,0.6926589,47.709274,-0.5673134,-2.415305,-3.0448003,-0.43810752,-0.06497007,-0.19696166,27.6875,28.9375,27.9375,31.625,33.625,34.375
0.012053309,0.3584898,0.63168806,-0.7003449,0.020684399,0.0006795652,-0.026177322,-0.3728745,-0.32822186,0.05988672,-3.0784616,0.62486243,-0.00041947083,0.00045026283,0.00027486015,-0.004630147,0.0036631338,-0.0076274797,-4.2283114e-07,0.4481382,-1.4707633,2.009607,-2.1077397,-1.5706257,2.4230556,-0.000113994785,0.009970993,3.227652e-05,-0.0015417866,1.7899259e-22,-0.000111549816,0.076614454,0.038307227,-9.3661175,0.679228,47.696735,-0.6448482,-2.3841023,-3.1648197,-0.43865484,-0.07197349,-0.23437962,27.6875,28.9375,27.9375,31.625,33.625,34.375
0.014054297,-0.17124803,-0.4508972,-0.8179137,-4.1928637e-05,0.020793656,-0.030855132,-0.3728568,-0.32820955,0.059865367,-3.0784216,0.6248534,-0.0005353897,-0.0058331285,0.00186351,-0.0035459304,0.0024399047,-0.0051333294,-0.00015135217,0.4481231,-1.4707375,2.0096166,-2.1076915,-1.5706137,2.42304,-0.008825164,0.015372364,-0.008445026,-0.0012446842,1.1686937e-23,-0.008665922,0.019153614,0.19153613,-9.500193,0.74413085,47.699425,-0.37996575,-2.860861,-2.9603071,-0.44114125,-0.075376645,-0.20280457,27.6875,28.9375,27.9375,31.625,33.625,34.375
0.016053906,-0.616404,-0.68641406,-0.8940919,-0.03732676,0.05042566,-0.03571977,-0.3728569,-0.328203,0.05985226,-3.0783954,0.6247293,-0.0005465427,-0.005750491,0.0022896975,-0.00390179,0.0030977193,-0.0065054586,0.005643751,0.4481349,-1.4707012,2.0096042,-2.1076791,-1.5706495,2.4229777,-0.009552217,0.015950004,-0.008487749,-0.0002591928,7.6307354e-25,-0.0151882535,-0.34476507,0.21068975,-9.710882,0.7016076,47.687782,-0.31856132,-2.6984186,-3.0691142,-0.44363877,-0.067841694,-0.16358888,27.6875,28.9375,27.9375,31.625,33.625,34.375
0.018053928,-1.2777929,-1.1348988,-0.95867354,-0.065980814,0.08723812,-0.048613276,-0.37283793,-0.3281873,0.05983262,-3.0783374,0.624794,-0.00063591386,-0.0053808065,0.002887793,-0.0042081717,0.004587642,-0.006810986,0.0074619027,0.44812295,-1.4706895,2.009628,-2.107643,-1.57065,2.4230134,-0.009520962,0.015591102,-0.0074461144,-1.6923439e-05,-0.001209968,-0.016973378,-0.47884035,0.22984336,-9.902418,0.800085,47.74241,-0.56764376,-2.5456576,-3.3649707,-0.42719,-0.088198625,-0.14667608,27.6875,28.9375,27.9375,31.625,33.625,34.375
0.02005392,-1.9568244,-1.7595161,-0.888627,-0.056606967,0.104243666,-0.06323544,-0.3728706,-0.3281839,0.059825797,-3.0783525,0.6247198,-0.00063633575,-0.0063344385,0.0027564564,-0.004356936,0.0050776694,-0.006724714,0.0073271827,0.44808674,-1.4706287,2.00958,-2.1076553,-1.57065,2.422929,-0.009814941,0.01782522,-0.00955983,-1.1049796e-06,-0.0016938389,-0.017130006,-0.59376204,0.30645782,-9.883265,0.7016076,47.746887,-0.70539725,-2.4788644,-3.55308,-0.4231599,-0.06252987,-0.18299901,27.6875,28.9375,27.9375,31.625,33.625,34.375
0.022053845,-1.4270883,-0.66778165,-0.9046978,-0.055774998,0.11396516,-0.08493657,-0.37288582,-0.32819086,0.059838887,-3.078356,0.6247408,-0.00062080275,-0.008256632,0.0030526004,-0.0034558387,0.0045791133,-0.0058907066,0.005358544,0.448086,-1.4706163,2.0095308,-2.107631,-1.57065,2.422941,-0.012178886,0.01892154,-0.013185257,0.0015599711,-0.0016100005,-0.017523615,-0.6512228,0.36391866,-9.768343,0.7911258,47.759426,-0.70015585,-2.3772204,-3.4780278,-0.4239722,-0.09657126,-0.19454014,27.6875,28.9375,27.9375,31.625,33.625,34.375
0.024053723,-1.7662767,-0.5703938,-0.7590924,-0.031170467,0.088165484,-0.09395353,-0.37287655,-0.32816288,0.0598009,-3.07831,0.62480843,-0.000748082,-0.009175454,0.0031382889,-0.0034641954,0.0044038557,-0.006226292,0.00521588,0.4480256,-1.47058,2.009578,-2.107631,-1.5706261,2.4229286,-0.013379303,0.020473098,-0.014973604,0.002022419,-0.001312044,-0.018580694,-0.7278373,0.30645782,-9.825804,0.7530795,47.729877,-0.72442895,-2.5348704,-3.4139771,-0.45374227,-0.0950893,-0.18839699,27.6875,28.9375,27.9375,31.625,33.625,34.375
0.026053455,-1.1460487,-0.7302471,-0.9157364,-0.012933484,0.07763292,-0.11870473,-0.37292275,-0.32817852,0.059809394,-3.078346,0.6247396,-0.0007041481,-0.0105943205,0.0034047873,-0.0029404117,0.0034916871,-0.0046708137,0.004358753,0.44801295,-1.470508,2.0094821,-2.1076424,-1.5706261,2.4228685,-0.015267598,0.020741073,-0.016302358,0.0012854416,-0.0011682947,-0.019611157,-0.80445176,0.2681506,-9.80665,0.74413085,47.701214,-0.798578,-2.4500027,-3.4136448,-0.4443646,-0.09742248,-0.19238168,27.6875,28.9375,27.9375,31.625,33.625,34.375
0.028054375,-1.3907768,-0.41800383,-1.0163932,-0.018081175,0.070580564,-0.124144584,-0.3729419,-0.32819393,0.059830528,-3.0783749,0.62474597,-0.00064312766,-0.011802994,0.0034587248,-0.002224903,0.0025186378,-0.002776542,0.003194184,0.4480245,-1.4705082,2.009434,-2.107643,-1.5706261,2.4228804,-0.016504042,0.02053563,-0.017567959,0.0006274686,-0.0011150474,-0.019682277,-0.7278373,0.22984336,-9.749189,0.7329411,47.667187,-0.67100286,-2.2870526,-3.4728808,-0.40102476,-0.1116502,-0.18074802,27.6875,28.9375,27.9375,31.625,33.625,34.375
0.030054173,-1.5525634,-0.69039637,-0.7773678,-0.009169485,0.07897191,-0.13867547,-0.37298048,-0.32817623,0.059810262,-3.0783458,0.62470263,-0.0006894426,-0.013354412,0.0033756671,-0.0016918966,0.0019222958,-0.0015498961,0.0017619499,0.44796413,-1.4704117,2.009372,-2.1076314,-1.5706381,2.4227967,-0.017758122,0.021842824,-0.020222196,0.00061032537,-0.0011155147,-0.019502267,-0.6703765,0.17238252,-9.710882,0.8493211,47.728977,-0.70426226,-2.3422754,-3.4405565,-0.39480108,-0.10911107,-0.18336283,27.6875,28.9375,27.9375,31.625,33.625,34.375
0.032053873,-1.4076413,-0.3155817,-0.6114305,-0.0032079418,0.09128811,-0.15365349,-0.3730054,-0.32817557,0.059802264,-3.0783384,0.62470084,-0.0007056191,-0.014284144,0.0029794346,-0.0016814657,0.0018641329,-0.0013877212,0.0020600858,0.44794017,-1.4703512,2.0093238,-2.107631,-1.5706381,2.4227726,-0.017843354,0.023953948,-0.022580948,0.0006865909,-0.0011387152,-0.019883845,-0.6895301,0.095768064,-9.595961,0.8806493,47.73614,-0.77342844,-2.4138515,-3.4003747,-0.3855465,-0.113304414,-0.19359073,27.6875,28.9375,27.9375,31.625,33.625,34.375
0.03405444,-1.5597531,0.097449556,-0.46260232,0.018497653,0.08992508,-0.16433449,-0.37303013,-0.32817224,0.05979242,-3.0783365,0.6247587,-0.0007155304,-0.015613756,0.003308356,-0.0013109572,0.00240462,-2.4563156e-05,0.0017748122,0.4479036,-1.4703029,2.009299,-2.1076553,-1.5706266,2.4227724,-0.018937409,0.024899498,-0.02445465,0.00062411313,-0.002220956,-0.020689026,-0.53630114,-0.05746084,-9.634268,0.80679786,47.74241,-0.75790995,-2.4032543,-3.390903,-0.36616284,-0.12256947,-0.19701979,27.6875,28.9375,27.9375,31.625,33.625,34.375
0.03605403,-0.5492103,0.17399451,-0.5393441,0.04260111,0.08504015,-0.18460596,-0.3730482,-0.32815307,0.05976459,-3.0782897,0.6247485,-0.00075295434,-0.017018793,0.0036917743,-0.00090075395,0.0026834123,0.0010835953,0.0012953647,0.44786724,-1.4702307,2.0092862,-2.1076667,-1.5706505,2.4227357,-0.020436931,0.025838444,-0.026473636,0.00082795206,-0.0029577117,-0.02170609,-0.45968673,-0.076614454,-9.634268,0.7016076,47.73077,-0.7246629,-2.314684,-3.3546572,-0.3533823,-0.11611414,-0.19316825,27.6875,28.9375,27.9375,31.625,33.625,34.375
0.03805378,-0.18708362,0.9814439,-0.5142479,0.042144127,0.06154687,-0.18956812,-0.3731184,-0.3281505,0.059807513,-3.0783398,0.6247784,-0.0006071095,-0.01778965,0.0038702807,-0.00034079974,0.0030499503,0.0017464296,0.0018505305,0.44780698,-1.4702306,2.0091903,-2.1076782,-1.5706629,2.4226878,-0.021051971,0.026026763,-0.028219773,0.0019485999,-0.0035746598,-0.022874583,-0.3256114,-0.11492168,-9.461885,0.683705,47.689575,-0.72981715,-2.2820926,-3.399774,-0.36518282,-0.10809307,-0.19303894,27.6875,28.9375,27.9375,31.625,33.625,34.375
0.040053632,0.040827043,0.6110774,-0.53037316,0.04342739,0.040292688,-0.18528332,-0.3731744,-0.3281325,0.05980577,-3.0783155,0.62479186,-0.00055750145,-0.018898303,0.0040933043,-9.639319e-05,0.003398418,0.0022394443,0.0021042381,0.44774672,-1.4701585,2.0091178,-2.10769,-1.5706991,2.4226391,-0.022117147,0.027222365,-0.030207664,0.002447958,-0.004105789,-0.024191182,-0.21068975,-0.11492168,-9.442732,0.7866488,47.739727,-0.73684597,-2.2476501,-3.371166,-0.3337475,-0.11704733,-0.18324435,27.6875,28.9375,27.9375,31.625,33.625,34.375
0.04205429,0.010701314,0.6113372,-0.46776435,0.03442877,0.021805042,-0.16714258,-0.37318406,-0.3281349,0.059790052,-3.0783203,0.6248119,-0.0006637564,-0.020327307,0.0044831345,6.0824696e-05,0.0038551404,0.0029533196,0.002627095,0.44771007,-1.470098,2.009082,-2.1076663,-1.5706514,2.4226143,-0.02365627,0.028784478,-0.03230523,0.0025409348,-0.004833257,-0.02624995,-0.11492168,-0.076614454,-9.461885,0.7642693,47.741516,-0.69811785,-2.227072,-3.4010382,-0.33434474,-0.11188078,-0.16797997,27.6875,28.9375,27.9375,31.625,33.625,34.375
0.04405397,0.024115771,0.015918825,-0.5380519,0.027325407,0.020128502,-0.17123325,-0.3732377,-0.32813466,0.059803635,-3.0783286,0.6247363,-0.0005826789,-0.02169031,0.005016013,0.00032200897,0.0049072052,0.004036654,0.003037361,0.4476857,-1.4700377,2.0089848,-2.1076663,-1.5706881,2.4225419,-0.024932628,0.029971424,-0.034266353,0.0027976953,-0.0062542004,-0.027932521,-0.05746084,-0.038307227,-9.385271,0.7642693,47.70838,-0.707175,-2.25347,-3.3693871,-0.31908834,-0.081435494,-0.15828353,27.6875,28.9375,27.9375,31.625,33.625,34.375
0.0460534,-0.25101975,-0.49379447,-0.6233372,0.01516687,0.01809127,-0.15686984,-0.3732804,-0.3281125,0.059788555,-3.0782833,0.62480414,-0.000616483,-0.02270712,0.005380983,0.0007202115,0.005224899,0.004617898,0.0036148601,0.44761324,-1.4699537,2.0089242,-2.1076539,-1.5707,2.4225175,-0.026172798,0.030533092,-0.035971034,0.0035550527,-0.006796123,-0.029747939,-0.095768064,0.038307227,-9.32781,0.69041777,47.717335,-0.68659854,-2.1733396,-3.348463,-0.3049314,-0.09073059,-0.14789668,27.6875,28.9375,27.9375,31.625,33.625,34.375
0.04805424,0.132992,-0.15154102,-0.44934312,-0.006954064,0.032170177,-0.16633098,-0.37334448,-0.32810077,0.059810746,-3.0783126,0.62482834,-0.00051613036,-0.02277706,0.0058850762,0.000578322,0.005917374,0.002683288,0.0040520867,0.447541,-1.4699295,2.0088522,-2.1076772,-1.570712,2.4224567,-0.02732714,0.031240508,-0.036950506,0.005868914,-0.0065786648,-0.031340417,-0.038307227,0.19153613,-9.481039,0.73741806,47.689575,-0.7241923,-2.137651,-3.4224708,-0.31369388,-0.08489202,-0.12844092,27.6875,28.9375,27.9375,31.625,33.625,34.375
0.05005393,-0.11221323,-0.7607903,-0.7973588,0.0019434526,0.0147629585,-0.15611161,-0.37337577,-0.3280897,0.059802447,-3.0782638,0.62477946,-0.0005418206,-0.023493903,0.0061676498,0.0008328513,0.0058748894,0.002073808,0.004707532,0.4475163,-1.4698453,2.0087678,-2.107629,-1.5707482,2.4224079,-0.028710818,0.031968758,-0.038686357,0.007404727,-0.0062795784,-0.03337915,-0.038307227,0.24899697,-9.519346,0.7642693,47.701214,-0.66817147,-2.07083,-3.4145484,-0.3205199,-0.06578489,-0.11243419,27.6875,28.9375,27.9375,31.625,33.625,34.375
0.05205371,0.12911464,-0.61823833,-0.7665413,-0.010292814,0.012493824,-0.16142926,-0.37340894,-0.3280674,0.059787635,-3.0782294,0.6246958,-0.00055453187,-0.02420681,0.006056581,0.0011221928,0.005145755,0.0018908515,0.0049609053,0.447468,-1.469773,2.0087197,-2.1076162,-1.5707835,2.4223118,-0.029643597,0.032755688,-0.04038982,0.008166272,-0.0055469805,-0.03456571,0.038307227,0.2873042,-9.557653,0.71951014,47.72629,-0.6345463,-2.0817473,-3.4349306,-0.32021564,-0.09145892,-0.10926531,27.6875,28.9375,27.9375,31.625,33.625,34.375
0.054053485,0.7777119,-0.8779947,-0.7705076,-0.022959828,0.019742182,-0.16632989,-0.37347403,-0.3280266,0.059794746,-3.0781863,0.62474394,-0.00056231,-0.024760954,0.0058079767,0.0012182395,0.0041821925,0.0015997227,0.005735836,0.44734794,-1.469713,2.0086238,-2.1075566,-1.5708069,2.4222274,-0.030344388,0.033683933,-0.04167643,0.008364823,-0.0045564524,-0.03604257,-0.019153614,0.38307226,-9.576807,0.75084364,47.686886,-0.6678345,-2.046513,-3.4800515,-0.31540355,-0.093751326,-0.09883253,27.6875,28.9375,27.9375,31.625,33.625,34.375
0.056053575,0.38621014,-0.97831887,-0.66195333,-0.031253308,0.012193495,-0.15872335,-0.37351868,-0.32805666,0.0598153,-3.0782843,0.6246857,-0.0005428428,-0.02584512,0.005576973,0.0018500831,0.0030758579,0.002396521,0.0073337816,0.44732356,-1.4696649,2.0085266,-2.1075685,-1.5707473,2.4221542,-0.031330626,0.034241855,-0.043830466,0.008763068,-0.003906695,-0.03862713,-0.019153614,0.38307226,-9.615114,0.8112748,47.72629,-0.66133964,-2.0199845,-3.4608786,-0.31734976,-0.0912815,-0.06711051,27.6875,28.9375,27.9375,31.625,33.625,34.375
0.058053397,0.18668647,-0.9740594,-0.7618601,-0.03179247,0.013616473,-0.1586682,-0.37354884,-0.32806498,0.059811894,-3.0782979,0.62465084,-0.00062393694,-0.026039353,0.005807404,0.0015568903,0.0037638266,0.00050346984,0.0067047104,0.4472872,-1.4695807,2.0084307,-2.1075199,-1.570711,2.4220943,-0.032072507,0.03576318,-0.04526995,0.010686137,-0.0037083684,-0.03873968,0.019153614,0.38307226,-9.634268,0.842603,47.719128,-0.641229,-1.9691622,-3.4475687,-0.33545184,-0.10872547,-0.06304676,27.6875,28.9375,27.9375,31.625,33.625,34.375
0.060054038,-0.44963396,-1.336059,-0.9147494,-0.028930556,0.014895287,-0.15388289,-0.3735974,-0.3280393,0.059787612,-3.0782433,0.6246213,-0.0006236973,-0.026796497,0.005819409,0.0015228728,0.004013984,0.00019082501,0.0049620285,0.44722706,-1.4694723,2.0083702,-2.1075318,-1.5707587,2.4220228,-0.032715976,0.03735708,-0.04708484,0.011295759,-0.0038018792,-0.03763898,-0.076614454,0.36391866,-9.634268,0.78217715,47.72808,-0.63719654,-1.9933791,-3.4917233,-0.3400314,-0.12276162,-0.065213345,27.6875,28.9375,27.9375,31.625,33.625,34.375
0.062053908,-0.32116848,-1.0835552,-0.8020571,-0.030901724,0.03889125,-0.15454215,-0.37368664,-0.32800773,0.05982478,-3.0782585,0.62468183,-0.00053744775,-0.027770355,0.0055190907,0.002010826,0.0032524057,0.0009569514,0.0050453655,0.4470948,-1.4694479,2.00825,-2.107496,-1.5707706,2.4219265,-0.03326547,0.03819225,-0.04917424,0.011527529,-0.0034486367,-0.038271468,-0.05746084,0.36391866,-9.634268,0.76874626,47.70032,-0.6918713,-1.9809737,-3.4429874,-0.3407169,-0.12100919,-0.09790499,27.6875,28.9375,27.9375,31.625,33.625,34.375
0.0640538,-0.89995515,-1.5654352,-0.75703883,-0.010218186,0.043433305,-0.15289298,-0.3737234,-0.328006,0.0598111,-3.0782368,0.6246397,-0.0005981949,-0.028623823,0.0057393885,0.0016936045,0.003542938,0.00039203238,0.0047569284,0.44705844,-1.4693395,2.0081542,-2.1074598,-1.5707711,2.4218667,-0.034436014,0.04014254,-0.05062283,0.01166054,-0.003471648,-0.039152227,-0.1340753,0.3256114,-9.557653,0.7642693,47.698532,-0.6814019,-1.9054481,-3.5761642,-0.34534875,-0.12454183,-0.08790928,27.6875,28.9375,27.9375,31.625,33.625,34.375
0.06605413,-1.1920328,-1.1884027,-0.7292966,-0.0031761166,0.04247771,-0.15192446,-0.3737823,-0.3279961,0.05984062,-3.07828,0.62460876,-0.0005235793,-0.029650174,0.0054647136,0.0016782342,0.0035228021,0.00081671344,0.0060952613,0.44698638,-1.4693267,2.0080698,-2.1074479,-1.5707711,2.4217699,-0.034731127,0.042174358,-0.05275167,0.011365841,-0.0036409968,-0.040783845,-0.1340753,0.2873042,-9.557653,0.83589023,47.701214,-0.7355168,-1.9476875,-3.4579763,-0.34989837,-0.15476693,-0.08007004,27.6875,28.9375,27.9375,31.625,33.625,34.375
0.06805454,-1.5685761,-0.9655364,-0.5857639,0.0024079606,0.035815697,-0.14876293,-0.37388992,-0.32799456,0.05985846,-3.078272,0.62466437,-0.00045540676,-0.030859292,0.0057191597,0.0019722225,0.0037570249,0.0016337198,0.00628594,0.4469019,-1.4691827,2.0078652,-2.107424,-1.5707949,2.4217212,-0.035912074,0.043240286,-0.054645754,0.011558846,-0.0042082565,-0.042153206,-0.19153613,0.28730422,-9.423578,0.779936,47.71554,-0.7299258,-1.9123895,-3.5071135,-0.35066605,-0.12432507,-0.061477207,27.6875,28.9375,27.9375,31.625,33.625,34.375
0.07005331,-1.016417,-0.17841361,-0.577736,-0.0015885091,0.04514814,-0.157071,-0.3739351,-0.32799506,0.059865255,-3.0782926,0.62465,-0.00045148298,-0.032020234,0.0054970253,0.002121074,0.0036984917,0.0026767924,0.0046915757,0.4468538,-1.469122,2.0077803,-2.107412,-1.570783,2.4216616,-0.036270753,0.04491305,-0.056691825,0.010968302,-0.0046106847,-0.040915094,-0.24899697,0.1340753,-9.385271,0.7530795,47.719128,-0.7541534,-1.9198229,-3.493587,-0.3333283,-0.14516617,-0.081470825,27.6875,28.9375,27.9375,31.625,33.625,34.375
0.072054036,-0.415565,-0.064661264,-0.20802823,0.0014826828,0.056797054,-0.15633035,-0.37397888,-0.32797787,0.059843227,-3.0782633,0.6246453,-0.0005131394,-0.032743774,0.0053697387,0.001784251,0.0037319136,0.0027894597,0.0035619012,0.4467817,-1.4690139,2.0077093,-2.1074002,-1.570783,2.4215903,-0.03662563,0.04678148,-0.05777862,0.010099693,-0.004695257,-0.040138707,-0.24899697,0.17238252,-9.289502,0.8403672,47.750473,-0.7787971,-1.920248,-3.53819,-0.32066876,-0.14812732,-0.109786384,27.6875,28.9375,27.9375,31.625,33.625,34.375
0.07405408,-0.5084054,0.040643796,-0.27022353,0.0022238977,0.06275363,-0.1596849,-0.37404603,-0.3279888,0.059866983,-3.0783143,0.62451977,-0.0004917959,-0.035241432,0.0049267495,0.0034962907,0.002980373,0.006802206,0.0046072137,0.4467336,-1.4689296,2.0075514,-2.1073525,-1.5707716,2.4214575,-0.03732899,0.047409408,-0.062411647,0.010164785,-0.005760703,-0.04188246,-0.30645782,0.11492168,-9.423578,0.80679786,47.70659,-0.8095892,-1.888109,-3.3582954,-0.3142226,-0.13725583,-0.11350238,27.6875,28.9375,27.9375,31.625,33.625,34.375
0.07605326,-0.6863212,0.0005379007,-0.21679169,0.0055195764,0.06388026,-0.16411203,-0.37412968,-0.32797536,0.05987979,-3.0783231,0.62452215,-0.00041018546,-0.035622355,0.005974408,0.0018778504,0.005507214,0.00419814,0.0037366077,0.44664896,-1.4688445,2.0074313,-2.1073644,-1.5707959,2.4213734,-0.038855806,0.050899033,-0.062560976,0.010267038,-0.0069129183,-0.042536013,-0.38307226,0.11492168,-9.346964,0.7284641,47.72092,-0.8262949,-1.9304786,-3.335857,-0.31557664,-0.12129278,-0.13453598,27.6875,28.9375,27.9375,31.625,33.625,34.375
0.07805343,-0.63360834,-0.05714852,-0.2409044,0.0060886773,0.07032396,-0.16526875,-0.37418893,-0.3279505,0.059859898,-3.0782728,0.62449247,-0.00046362696,-0.03658282,0.0063520735,0.0020581866,0.0059531797,0.004397472,0.0026623176,0.4465646,-1.4687124,2.0073235,-2.1073282,-1.5708197,2.421277,-0.04009496,0.051863227,-0.06419623,0.010951056,-0.0074057137,-0.04269852,-0.38307226,0.15322891,-9.308656,0.7978386,47.686886,-0.74356294,-1.9783251,-3.419654,-0.3200914,-0.12039965,-0.12852134,27.6875,28.9375,27.9375,31.625,33.625,34.375
0.08005415,-0.5678183,-0.26220277,-0.32989147,0.010560636,0.07278024,-0.15936098,-0.37425423,-0.32796487,0.05987504,-3.0783217,0.62442577,-0.000454344,-0.038682114,0.005623788,0.0041363793,0.0034069743,0.008594335,0.0024123807,0.4465163,-1.4686171,2.0071785,-2.1073043,-1.5707959,2.421181,-0.040941294,0.05087914,-0.0678212,0.010673983,-0.00692896,-0.04329401,-0.34476504,0.038307227,-9.308656,0.83589023,47.72719,-0.78724843,-1.7826581,-3.4328752,-0.323283,-0.12540084,-0.15688509,27.6875,28.9375,27.9375,31.625,33.625,34.375
0.08205374,-1.3481438,-0.3531827,-0.3655499,0.012352605,0.05303071,-0.15811197,-0.37432623,-0.32793376,0.05986227,-3.0782597,0.6245282,-0.00047673305,-0.039332155,0.0049189655,0.003996124,0.0034322864,0.008607114,0.0035697792,0.44640866,-1.4684964,2.0070698,-2.1072805,-1.5708197,2.4211452,-0.040173568,0.053281765,-0.07012228,0.010570085,-0.0069635385,-0.04368159,-0.38307226,0.11492168,-9.3661175,0.7530795,47.71554,-0.87043273,-1.8605397,-3.167901,-0.30872253,-0.124407545,-0.18911892,27.6875,28.9375,27.9375,31.5625,33.625,34.375
0.08405368,-0.8107469,0.19468074,-0.2750823,-0.0034408483,0.05893135,-0.16797395,-0.37441736,-0.32793227,0.05989375,-3.0783195,0.62444484,-0.00038912884,-0.04008545,0.0064596883,0.0022068594,0.0062651145,0.0052993703,0.0018165801,0.44632366,-1.4684232,2.0069144,-2.107268,-1.5708202,2.4210007,-0.042980388,0.057343945,-0.07063819,0.0112334695,-0.008087656,-0.04473268,-0.4405331,0.1340753,-9.32781,0.8179876,47.705692,-0.85796404,-1.8608196,-3.4115632,-0.29655546,-0.13314907,-0.18013845,27.625,28.9375,27.9375,31.5625,33.625,34.375
0.086054265,-0.883812,-0.34081608,-0.31961915,-0.0041887597,0.05293494,-0.15342335,-0.37451968,-0.32792154,0.059905194,-3.078297,0.6244978,-0.00035072057,-0.041866712,0.0062590614,0.0035800524,0.005380491,0.00790013,0.0018293487,0.4462273,-1.4682794,2.0067217,-2.1072319,-1.5708445,2.4209404,-0.0439785,0.057381894,-0.07396252,0.011790988,-0.008417619,-0.045741193,-0.36391866,0.21068975,-9.3661175,0.7911258,47.745995,-0.81714,-2.022469,-3.2778933,-0.31444585,-0.11882304,-0.19819614,27.625,28.9375,27.9375,31.5625,33.625,34.375
0.08805415,-0.9385095,-0.90228873,-0.42745298,0.0026395447,0.04394176,-0.15154864,-0.37460986,-0.32790485,0.059908055,-3.0782716,0.62453276,-0.00032645074,-0.04380628,0.0065402966,0.0046701934,0.00362949,0.010014786,-0.0005074162,0.44613037,-1.4681479,2.0065653,-2.1072085,-1.5708684,2.4208686,-0.046695232,0.05717657,-0.076189525,0.011555711,-0.007755348,-0.046121154,-0.34476504,0.17238252,-9.3661175,0.7530795,47.70211,-0.71522206,-1.6767676,-3.1925411,-0.31169888,-0.11219561,-0.23352273,27.625,28.9375,27.9375,31.5625,33.625,34.375
0.090054095,-0.6921873,-0.41402528,-0.4868413,-0.0132446755,0.04795513,-0.15107106,-0.37468514,-0.32790077,0.05992619,-3.0782983,0.62451684,-0.00031041563,-0.043797497,0.0063938475,0.0032999257,0.005253514,0.0075478596,0.0031210738,0.44604656,-1.4680626,2.0064218,-2.1071723,-1.5708565,2.4207716,-0.04613117,0.061022013,-0.07733031,0.011777541,-0.008158079,-0.04918374,-0.30645782,0.21068975,-9.423578,0.7911258,47.667187,-0.6634922,-1.9244611,-3.2900152,-0.30676964,-0.1355441,-0.22349119,27.625,28.9375,27.9375,31.5625,33.625,34.375
0.09205401,-0.8183994,-0.7398348,-0.5372631,-0.013920052,0.058076017,-0.1574774,-0.37474766,-0.3278881,0.05990209,-3.078271,0.62439394,-0.00029276352,-0.045891743,0.0058199386,0.0044779894,0.005234353,0.010773389,0.0044046645,0.44599873,-1.4679184,2.006324,-2.1071966,-1.5709046,2.4206507,-0.04600361,0.06252812,-0.08167774,0.011702384,-0.009543043,-0.050333988,-0.36391866,0.24899697,-9.442732,0.7239871,47.70211,-0.8822042,-1.8562632,-3.1405737,-0.29178023,-0.120665185,-0.24069902,27.625,28.9375,27.9375,31.5625,33.625,34.375
0.094053715,-1.2877535,-0.72176355,-0.45400825,-0.013263142,0.05295653,-0.15464965,-0.374856,-0.32785854,0.059925914,-3.0782518,0.6244693,-0.00026901893,-0.045645762,0.0072750053,0.0029607879,0.006625773,0.0067861117,0.0007246336,0.44585356,-1.4678099,2.0061338,-2.1071246,-1.570917,2.420555,-0.04881526,0.06429828,-0.08041763,0.012866313,-0.009071669,-0.049467463,-0.24899697,0.28730422,-9.442732,0.7777002,47.687782,-0.73865956,-1.9735651,-3.22303,-0.28392446,-0.09427435,-0.26819727,27.625,28.9375,27.9375,31.5625,33.625,34.375
0.09605397,-1.0893532,-0.6789976,-0.5767336,-0.015712107,0.054269627,-0.15488034,-0.37495777,-0.327852,0.059934177,-3.0782568,0.6244695,-0.0002283225,-0.04621099,0.0075111715,0.002220207,0.007234557,0.005706689,0.0015018163,0.44575736,-1.4676654,2.005953,-2.1071122,-1.5709289,2.4204586,-0.04969747,0.06666021,-0.08126128,0.01258263,-0.009157356,-0.051125962,-0.24899697,0.30645782,-9.5385,0.8179876,47.7254,-0.78189397,-1.8759942,-3.290584,-0.30019072,-0.121545434,-0.2991823,27.625,28.9375,27.9375,31.5625,33.625,34.375
0.09805419,-1.0379883,-1.1060157,-0.4545825,-0.015746126,0.056334797,-0.15292661,-0.37506098,-0.3278355,0.059944678,-3.0782359,0.62448406,-0.00020400163,-0.048822705,0.006756177,0.0036788576,0.0060782842,0.009192386,0.0026148148,0.44564912,-1.4675212,2.0057595,-2.1070645,-1.5709528,2.4203622,-0.050304912,0.06836443,-0.08645152,0.0124237565,-0.00962843,-0.05284211,-0.30645782,0.28730422,-9.481039,0.7866488,47.73256,-0.7328161,-1.9274949,-3.0606892,-0.30434817,-0.10694006,-0.32158595,27.625,28.9375,27.9375,31.5625,33.625,34.375
0.100054376,-0.88705283,-0.8057493,-0.38772196,-0.01995999,0.047183804,-0.15239188,-0.37515473,-0.32781422,0.05993569,-3.0782123,0.6244599,-0.00019959628,-0.04848419,0.0073535643,0.0026018075,0.0071633984,0.007149628,0.00369027,0.44554088,-1.4673649,2.0056055,-2.107052,-1.5709771,2.420242,-0.05103993,0.06968806,-0.0854435,0.012400284,-0.009726293,-0.054652657,-0.22984336,0.2681506,-9.404425,0.8314132,47.72629,-0.79316473,-1.9877121,-3.2506647,-0.28136832,-0.097420946,-0.31830683,27.625,28.9375,27.9375,31.5625,33.625,34.375
0.102054134,0.17471002,-0.14664473,-0.24866268,-0.02134968,0.057439838,-0.17303263,-0.37526822,-0.32781753,0.059952006,-3.0782447,0.6244876,-0.00012304232,-0.050182626,0.0067471783,0.0028802108,0.005991521,0.007952229,0.00034327325,0.44544464,-1.4672204,2.0054119,-2.1070645,-1.5709771,2.420159,-0.051896278,0.07233485,-0.08890882,0.011987324,-0.009018071,-0.052161388,-0.2681506,0.21068975,-9.3661175,0.784413,47.705692,-0.7820778,-2.0139937,-3.0936406,-0.27072346,-0.098837,-0.3841567,27.625,28.9375,27.9375,31.5625,33.625,34.375
0.10405379,-0.21250993,-0.28736314,-0.287051,-0.013522781,0.033966392,-0.1594921,-0.3753714,-0.32780546,0.059964713,-3.0782506,0.6244872,-8.2520586e-05,-0.0508806,0.0065567493,0.0030550447,0.005948038,0.00797541,0.0015047357,0.44533652,-1.467088,2.0052316,-2.1070406,-1.5709885,2.4200501,-0.052170593,0.073585056,-0.090839535,0.012625859,-0.008990328,-0.053596295,-0.22984336,0.22984336,-9.423578,0.78217715,47.713753,-0.81229806,-2.0276413,-3.0950847,-0.25667262,-0.11762524,-0.41659966,27.625,28.9375,27.9375,31.5625,33.625,34.375
0.106053464,-0.011431898,-0.36929664,-0.22579023,-0.0029166539,0.0344864,-0.15932004,-0.37545535,-0.3277925,0.059953343,-3.0782216,0.62442076,-0.00010641299,-0.05121078,0.0062396894,0.0026814293,0.0064738775,0.0072727273,0.004875933,0.4452528,-1.4669197,2.0050642,-2.1070044,-1.5710129,2.4199288,-0.051741138,0.07568402,-0.09237102,0.0129161645,-0.009167822,-0.05653623,-0.15322891,0.21068975,-9.346964,0.7911258,47.71823,-0.91280174,-2.0109897,-3.113421,-0.24151695,-0.09132121,-0.4408591,27.625,28.9375,27.9375,31.5625,33.625,34.375
0.1080536,-0.5343856,0.07031879,-0.122340664,-0.00021679178,0.017137874,-0.15948832,-0.37555826,-0.32777542,0.059974965,-3.0782447,0.6244263,-8.8930174e-05,-0.05252817,0.00710299,0.0024554853,0.0068869907,0.006682714,0.004891004,0.44511986,-1.4668113,2.0048845,-2.1069562,-1.5710009,2.4197965,-0.0544488,0.07741906,-0.093880154,0.013399258,-0.009288131,-0.059257932,-0.05746084,0.2681506,-9.346964,0.80456203,47.70032,-0.89028263,-2.0398843,-3.1582344,-0.22962268,-0.116199106,-0.4418338,27.625,28.9375,27.9375,31.5625,33.625,34.375
0.11005431,-0.30369774,-0.10133979,-0.3410703,0.00049724325,0.025796352,-0.16435602,-0.37569985,-0.32778805,0.060011387,-3.0783112,0.6243795,5.8141464e-05,-0.052857373,0.006631257,0.0030305446,0.007086144,0.008028808,0.008676624,0.44502425,-1.4666555,2.0046322,-2.1069682,-1.5710133,2.4196634,-0.05332799,0.077438384,-0.095288776,0.013659123,-0.010043928,-0.06192165,0.0,0.21068975,-9.346964,0.83813137,47.711063,-0.92403144,-1.9013484,-3.1027482,-0.24022727,-0.118954286,-0.4438763,27.625,28.9375,27.9375,31.5625,33.625,34.375
0.11205407,-0.65612644,-0.8279347,-0.4092452,0.0033535291,0.017087976,-0.15247324,-0.37577632,-0.3277672,0.059993267,-3.0782583,0.62430733,1.4369787e-05,-0.05297897,0.006577367,0.0016000496,0.009619223,0.0053111343,0.013446218,0.4449406,-1.4664862,2.0044763,-2.1069195,-1.5710496,2.4195416,-0.05256837,0.08195014,-0.09720513,0.014605893,-0.011167668,-0.06592736,0.019153614,0.2681506,-9.346964,0.8291774,47.703007,-1.1330426,-2.1751666,-3.0945497,-0.22445571,-0.07127401,-0.43987352,27.625,28.9375,27.9375,31.5625,33.625,34.375
0.114054255,-0.090107284,-0.029114505,-0.2058074,-0.023761936,0.03041297,-0.167053,-0.3759149,-0.32775018,0.0600097,-3.0782528,0.62430567,9.449732e-05,-0.054084983,0.007159019,0.002866387,0.009111746,0.0075455816,0.015836898,0.44480795,-1.4663074,2.0042365,-2.1068957,-1.5710853,2.4194088,-0.054290794,0.08010087,-0.09822874,0.015239074,-0.011670673,-0.07003986,0.038307227,0.28730422,-9.308657,0.8112748,47.691364,-1.1312107,-1.8756046,-3.218493,-0.21692936,-0.07960472,-0.4265793,27.625,28.9375,27.9375,31.5625,33.625,34.375
0.11605458,0.035774514,-0.19739673,-0.20788679,-0.02588719,0.021757578,-0.1654727,-0.37601718,-0.32772827,0.06001502,-3.0782282,0.62427914,0.00012709499,-0.05479102,0.007940791,0.0009542878,0.010827,0.0034125235,0.018615298,0.44469914,-1.4661618,2.0040557,-2.1068594,-1.5711216,2.4192867,-0.0565307,0.08527901,-0.09974108,0.016034603,-0.011444062,-0.075057104,0.019153614,0.2681506,-9.346964,0.77545905,47.66271,-1.0344205,-2.0365672,-3.1634438,-0.21476117,-0.088297054,-0.39393374,27.625,28.9375,27.9375,31.5625,33.625,34.375
0.11805429,-0.20225061,-0.8880678,-0.3403877,-0.020485552,0.009378764,-0.16144271,-0.3761273,-0.32773268,0.060012735,-3.0782716,0.62413126,8.815257e-05,-0.054629587,0.0070104203,0.0015617509,0.00899453,0.004072739,0.02484038,0.4445915,-1.4659584,2.0038288,-2.1068242,-1.5710968,2.4190814,-0.05554112,0.08451474,-0.100291654,0.015957996,-0.0100780185,-0.080294795,0.0,0.24899697,-9.385271,0.8179876,47.72719,-1.0835607,-2.0198915,-3.2675805,-0.20366794,-0.07147238,-0.34415165,27.625,28.9375,27.9375,31.5625,33.625,34.375
0.120053984,-0.25803894,-0.6629606,-0.16802499,-0.028793508,0.012073036,-0.15456992,-0.37622446,-0.3276978,0.05998974,-3.0782135,0.6240397,5.615209e-05,-0.055215362,0.007014563,0.000842703,0.009015168,0.002465177,0.028516617,0.44447106,-1.4657657,2.003661,-2.1067874,-1.5711449,2.4189115,-0.056506373,0.087213874,-0.101660155,0.01607725,-0.009415013,-0.08493576,-0.05746084,0.24899697,-9.346964,0.7866488,47.699425,-1.2058604,-2.0630052,-3.273083,-0.21365736,-0.0926728,-0.30690268,27.625,28.9375,27.9375,31.5625,33.625,34.375
0.12205367,-0.015792463,-0.3432822,-0.30544502,-0.0064733364,0.01604304,-0.16498388,-0.3763606,-0.32769004,0.06002252,-3.0782485,0.6239873,0.00016866274,-0.056542456,0.0078029586,0.000433491,0.0100677535,0.0027055556,0.031023746,0.44435045,-1.4656214,2.0034215,-2.106764,-1.5711693,2.4187539,-0.05844422,0.089231394,-0.10281136,0.015444133,-0.010468299,-0.089378335,-0.038307227,0.22984336,-9.308657,0.80679786,47.71554,-1.1624207,-2.0132341,-3.2683477,-0.18121232,-0.10588853,-0.24860868,27.625,28.9375,27.9375,31.5625,33.625,34.375
0.1240536,0.06375582,0.24597079,-0.42392725,0.003744064,0.017967142,-0.16785212,-0.37646666,-0.3276837,0.060018074,-3.0782826,0.6239357,0.000120008546,-0.058488917,0.0067849015,0.00193868,0.007649046,0.005011261,0.032793675,0.44421834,-1.4654415,2.003228,-2.1067398,-1.5711325,2.4185853,-0.059059706,0.09009478,-0.107354954,0.015999177,-0.009285692,-0.09176318,-0.019153614,0.13407528,-9.385271,0.8157518,47.695843,-1.1673266,-2.06591,-3.1645637,-0.1773346,-0.08462511,-0.2038758,27.625,28.9375,27.9375,31.5625,33.625,34.375
0.1260539,-0.7273339,-0.1975571,-0.4140997,0.01614951,0.0057279184,-0.15470158,-0.37657496,-0.32766685,0.060005855,-3.0782678,0.62374,0.00013290138,-0.057337396,0.0077214087,0.00021206692,0.008709729,0.0009477314,0.033452857,0.44412184,-1.4652375,2.0030258,-2.106716,-1.5711807,2.4183688,-0.060295902,0.09123777,-0.104762755,0.016379682,-0.008494122,-0.0936613,-0.05746084,0.19153613,-9.289502,0.800085,47.699425,-1.1889362,-1.9913118,-3.3446689,-0.14504024,-0.1035123,-0.17076734,27.625,28.9375,27.9375,31.5625,33.625,34.375
0.12805384,-0.26445982,-0.33761394,-0.41257522,0.016105061,0.028166613,-0.16090839,-0.37670127,-0.32766312,0.06002961,-3.078305,0.6236332,0.00016399252,-0.059750877,0.007513439,0.0017313707,0.0076089962,0.0039700884,0.032023814,0.44400138,-1.4650697,2.0027726,-2.1066558,-1.5711807,2.4181771,-0.061839286,0.091923386,-0.10912142,0.016850673,-0.008804616,-0.09377277,-0.15322891,0.17238252,-9.270349,0.8112748,47.679718,-1.2172997,-2.0710516,-3.3708897,-0.14803903,-0.12046999,-0.14594272,27.625,28.9375,27.9375,31.5625,33.625,34.375
0.13005373,-0.5468495,-0.018719947,-0.39662385,0.008425373,0.032634918,-0.16074571,-0.3768244,-0.32763866,0.060033213,-3.078291,0.62355477,0.00019617377,-0.059389982,0.008239613,0.0005029851,0.009518965,0.0010264723,0.029572768,0.4438693,-1.464889,2.002557,-2.1066196,-1.571217,2.417998,-0.06254546,0.09397722,-0.10884836,0.018000744,-0.009261647,-0.09202725,-0.15322891,0.1340753,-9.308657,0.7866488,47.744205,-1.1506656,-2.0057936,-3.4178772,-0.12893876,-0.09939745,-0.16535243,27.625,28.9375,27.9375,31.5625,33.625,34.375
0.13205379,-0.85223186,-0.3203138,-0.4721265,-0.00023386728,0.040037256,-0.15577565,-0.3769413,-0.32763878,0.060042843,-3.0783315,0.6233738,0.00023378778,-0.05964639,0.0089619355,-0.00094778516,0.011226969,-0.002492461,0.024716474,0.4437726,-1.4647083,2.00233,-2.1065948,-1.5712289,2.4177835,-0.064090475,0.09757353,-0.109792754,0.019260764,-0.009289689,-0.088715374,-0.22984336,0.1340753,-9.3661175,0.83589023,47.703903,-1.2244534,-1.9449335,-3.429921,-0.14474872,-0.11508767,-0.16116036,27.625,28.9375,27.9375,31.5625,33.625,34.375
0.13405395,-1.0347562,0.0027725196,-0.16947626,-0.00804971,0.036569275,-0.15652418,-0.37703943,-0.3276088,0.060035914,-3.0783134,0.62346905,0.00014177925,-0.060783833,0.009539248,0.0008054581,0.010821935,0.00072629395,0.018148214,0.44360423,-1.4645536,2.0021617,-2.1065352,-1.5711931,2.417677,-0.06547861,0.09475864,-0.11091804,0.020128736,-0.010309017,-0.083532974,-0.36391866,0.13407528,-9.232041,0.78888994,47.729877,-1.2114513,-1.9046121,-3.473904,-0.14363477,-0.12541218,-0.23319265,27.625,28.9375,27.9375,31.5625,33.625,34.375
0.13605413,-0.80471873,-0.08163765,-0.24023716,0.0065175747,0.055805054,-0.1604865,-0.37719318,-0.32759863,0.060056675,-3.0783145,0.6233529,0.00028421602,-0.061656363,0.009261556,0.0006166157,0.010790463,0.00065959373,0.018471975,0.4434961,-1.4643493,2.0018861,-2.1065233,-1.5712656,2.4174964,-0.065752134,0.09697316,-0.11290184,0.019937005,-0.010252285,-0.084129445,-0.38307226,0.114921674,-9.32781,0.84484416,47.744205,-1.2519249,-1.7579405,-3.3945537,-0.13571765,-0.091922626,-0.25044963,27.625,28.9375,27.9375,31.5625,33.625,34.375
0.13805427,-0.5969232,0.68227184,-0.13689272,0.005810819,0.063635476,-0.17288826,-0.37730315,-0.32758716,0.060020395,-3.0782974,0.62333465,0.00014399622,-0.06374805,0.009271522,0.0011778224,0.009287975,0.0019024556,0.013125726,0.44335118,-1.464085,2.0016696,-2.1064875,-1.5712289,2.4173424,-0.06816458,0.09866019,-0.11599162,0.019573353,-0.009442007,-0.081194185,-0.28730422,0.0,-9.385271,0.75755644,47.71554,-1.2870674,-1.9616154,-3.5484834,-0.11523086,-0.124831446,-0.28273278,27.625,28.9375,27.9375,31.5625,33.625,34.375
0.14005332,-1.0010779,0.65200156,-0.43412057,0.010869003,0.057426378,-0.16376732,-0.37742823,-0.3275547,0.06004439,-3.0782735,0.62317455,0.00018508498,-0.06472604,0.010031495,0.0009726993,0.010176126,0.0015966111,0.012390923,0.44321874,-1.4639288,2.0014179,-2.1063797,-1.571289,2.4171133,-0.06998407,0.10002157,-0.11713625,0.020009303,-0.010116369,-0.08227675,-0.34476504,0.095768064,-9.423578,0.8291774,47.703903,-1.2256663,-1.8048553,-3.369882,-0.11032768,-0.13120559,-0.32802644,27.625,28.9375,27.9375,31.5625,33.625,34.375
0.14205427,-0.66916054,0.5075089,-0.47424743,0.013517718,0.06634721,-0.16952479,-0.37753358,-0.32752594,0.06001684,-3.078224,0.6231453,0.00013229068,-0.06633463,0.009610621,0.0013273652,0.009927644,0.0021752515,0.013430249,0.4430865,-1.4637125,2.0012367,-2.1063554,-1.5713128,2.4169693,-0.07058817,0.102632746,-0.120990165,0.020618334,-0.010152865,-0.083917044,-0.47884035,0.076614454,-9.3661175,0.7530795,47.7245,-1.187927,-1.8530347,-3.3696811,-0.1088325,-0.122873485,-0.3039618,27.625,28.9375,27.9375,31.5625,33.625,34.375
0.14405407,-1.0509536,0.23726092,-0.47333148,0.010262866,0.061025906,-0.162596,-0.3777035,-0.3275236,0.06004251,-3.0782592,0.6231913,0.00022200886,-0.06744713,0.0098324865,0.0016642036,0.009458412,0.002431372,0.011913533,0.44292998,-1.4634964,2.0009367,-2.1063435,-1.5713128,2.4168372,-0.07217499,0.103485465,-0.12285603,0.021196267,-0.009835693,-0.08398745,-0.47884035,0.038307227,-9.346964,0.779936,47.67345,-1.2221742,-1.952934,-3.374192,-0.093355134,-0.12506314,-0.34113705,27.625,28.9375,27.9375,31.5625,33.625,34.375
0.14605388,-1.4267321,-0.23191139,-0.6117402,0.0034326,0.06744049,-0.1581883,-0.37781888,-0.3274798,0.06005205,-3.0782092,0.6230842,0.00023261413,-0.06857158,0.010135063,0.0023608508,0.0099412,0.0031716407,0.012235918,0.4427855,-1.4633405,2.0007207,-2.1062467,-1.5713733,2.4166324,-0.07320944,0.1039577,-0.12533973,0.022740846,-0.010594826,-0.08534141,-0.49799395,0.15322891,-9.461885,0.81351066,47.711964,-1.2228115,-1.7749269,-3.3236268,-0.088691294,-0.14787912,-0.35324347,27.625,28.9375,27.9375,31.5625,33.625,34.375
0.14805377,-1.7946073,-0.37727883,-0.6198576,-0.011482746,0.06251251,-0.16776659,-0.3779669,-0.3274821,0.06004741,-3.0782344,0.6230524,0.00020598776,-0.068756394,0.010833079,0.001644028,0.010903881,0.00054195075,0.010109983,0.442641,-1.4630764,2.0004342,-2.106222,-1.571349,2.416465,-0.0748218,0.105776705,-0.12613495,0.024505772,-0.010336222,-0.0848281,-0.49799395,0.15322891,-9.423578,0.80679786,47.72719,-1.2256317,-1.771693,-3.3500028,-0.09554546,-0.13074705,-0.36273515,27.625,28.9375,27.9375,31.5625,33.625,34.375
0.15005353,-1.4178698,-0.7682572,-0.69865656,-0.021798754,0.07391414,-0.15789865,-0.37807366,-0.32743248,0.060030676,-3.078167,0.6229418,0.00014642917,-0.069628544,0.010671239,0.0022477615,0.010696156,0.0012160258,0.011472845,0.442485,-1.4628845,2.0002415,-2.106138,-1.5713972,2.4162488,-0.07519574,0.10636352,-0.12840934,0.025488494,-0.010448376,-0.086562715,-0.5363012,0.15322891,-9.519346,0.83589023,47.713753,-1.1993176,-1.7391775,-3.3979902,-0.107147425,-0.12821484,-0.39410362,27.625,28.9375,27.9375,31.5625,33.625,34.375
0.15205352,-1.516362,-0.8175205,-0.7684074,-0.026351502,0.07763589,-0.16306409,-0.37824738,-0.32743746,0.06006483,-3.078216,0.6229486,0.00024974192,-0.07183728,0.012365489,0.0017188338,0.012108449,0.0008329022,0.014403916,0.44233945,-1.462668,1.9999188,-2.1061141,-1.5713977,2.4161015,-0.07955151,0.1091518,-0.13031152,0.025549343,-0.011561364,-0.09384678,-0.47884035,0.2681506,-9.672575,0.800085,47.66539,-1.1322173,-1.5945381,-3.3158329,-0.11352204,-0.13430771,-0.3403117,27.625,28.9375,27.9375,31.5625,33.625,34.375
0.1540536,-1.5506825,-0.6174466,-0.9077073,-0.023623917,0.0698722,-0.15938358,-0.3783864,-0.32740363,0.060064245,-3.0781946,0.62278837,0.00026248264,-0.0719001,0.011649855,0.0012682521,0.012511084,3.0902112e-05,0.01802739,0.442184,-1.4624517,1.9996675,-2.106054,-1.5714453,2.415849,-0.078217335,0.11148396,-0.13191381,0.025708426,-0.01158928,-0.09613453,-0.49799395,0.21068975,-9.595961,0.8247004,47.688675,-1.115616,-1.6308839,-3.3214536,-0.106603056,-0.13212477,-0.34470183,27.625,28.9375,27.9375,31.5625,33.625,34.375
0.15605368,-1.2528256,-0.6766319,-0.71590704,-0.021968428,0.078435495,-0.16392559,-0.37852293,-0.32735693,0.060040243,-3.0781157,0.6228291,0.00017957693,-0.07301253,0.01272229,-0.00049730943,0.014203496,-0.0030883215,0.020970916,0.44199103,-1.4621983,1.9994262,-2.1059825,-1.5714697,2.4156916,-0.08104077,0.11628459,-0.13320537,0.025733553,-0.011799871,-0.10189865,-0.47884035,0.22984336,-9.615114,0.8112748,47.70659,-1.1024063,-1.9563131,-3.3284094,-0.10412632,-0.104680106,-0.2867021,27.625,28.9375,27.9375,31.5625,33.625,34.375
0.15805359,-1.2062051,-0.77847403,-0.6730722,-0.018125262,0.071342655,-0.16483858,-0.3786823,-0.32734016,0.060068585,-3.0781407,0.62275505,0.00026149975,-0.07661274,0.013077432,0.001410872,0.011722174,0.00070969254,0.022821812,0.4418335,-1.4620067,1.9991387,-2.1059344,-1.5714935,2.415485,-0.08528251,0.11674458,-0.13808782,0.025649406,-0.011191095,-0.10799017,-0.3256114,0.30645782,-9.519346,0.83589023,47.686886,-0.8886068,-1.7358341,-3.2956789,-0.08668693,-0.10855161,-0.21753421,27.625,28.9375,27.9375,31.5625,33.625,34.375
0.16005343,-1.0449075,-0.31623232,-0.672493,-0.019468265,0.056266747,-0.16465199,-0.37884188,-0.32731193,0.060060274,-3.0781453,0.622637,0.0002809753,-0.07484155,0.012736485,-0.00016543698,0.011993731,-0.0028518687,0.029627223,0.4416541,-1.4617546,1.9988765,-2.105923,-1.5715169,2.4152315,-0.08388413,0.11797824,-0.13583085,0.025480255,-0.009913581,-0.11340086,-0.36391866,0.24899697,-9.500193,0.93436235,47.685097,-1.064735,-1.9101837,-3.4215062,-0.085707635,-0.15299292,-0.1458241,27.625,28.9375,27.9375,31.5625,33.625,34.375
0.16205357,-0.9217478,-0.5354957,-0.7146164,-0.010995492,0.046686538,-0.16104986,-0.37901628,-0.32731506,0.060099788,-3.0782266,0.62253827,0.00037561584,-0.077401504,0.013471136,0.00011540644,0.01238981,-0.0014610782,0.029997705,0.4414969,-1.46155,1.9985517,-2.1058872,-1.5715054,2.4150026,-0.086853124,0.12053021,-0.13927232,0.025281576,-0.01086683,-0.11673694,-0.34476504,0.17238252,-9.385271,0.8806493,47.70032,-0.90720797,-1.8168995,-3.273667,-0.07036381,-0.123926654,-0.083329886,27.625,28.9375,27.9375,31.5625,33.625,34.375
0.16405335,-0.8079415,-0.3805429,-0.69619924,-0.0042692143,0.043366883,-0.15954764,-0.37915567,-0.32727635,0.06007613,-3.0781875,0.62241554,0.00030537185,-0.07835697,0.0138382055,0.0001284818,0.012602366,-0.0015179696,0.028722493,0.44131634,-1.4612862,1.9983004,-2.1058266,-1.5715293,2.4147506,-0.08822995,0.12176045,-0.14078988,0.025707033,-0.011046772,-0.11683651,-0.36391866,0.21068975,-9.308656,0.83813137,47.686886,-0.8608431,-1.8275445,-3.3164947,-0.06336931,-0.12170121,-0.059364766,27.625,28.9375,27.9375,31.5625,33.625,34.375
0.16605428,-0.21555398,-0.45532814,-0.70546776,0.004930662,0.05476548,-0.1648189,-0.37931946,-0.32724747,0.06006796,-3.0781612,0.62239283,0.00027113993,-0.07922528,0.01353267,6.1444086e-07,0.012291418,-0.0019513182,0.025798552,0.44112453,-1.46101,1.998,-2.105767,-1.5715412,2.4145482,-0.08869356,0.12398338,-0.1430567,0.026007477,-0.010588828,-0.1143752,-0.34476504,0.17238252,-9.308656,0.84484416,47.693153,-0.9321097,-1.7927499,-3.2604678,-0.0616844,-0.13837731,-0.0631931,27.625,28.9375,27.9375,31.5625,33.625,34.375
0.1680541,-0.58270764,-0.31770244,-0.38053378,0.0031407315,0.04868247,-0.15480691,-0.37949777,-0.32723704,0.060081128,-3.078194,0.6223266,0.00034199157,-0.082232326,0.014816465,0.0006438397,0.011878463,-0.00035658162,0.01755395,0.44095474,-1.4607577,1.9976882,-2.105755,-1.5715536,2.414333,-0.093510635,0.12557472,-0.14633675,0.026079282,-0.010896878,-0.11094549,-0.2681506,0.05746084,-9.308656,0.8179876,47.713753,-0.7030988,-1.8698289,-3.1546247,-0.02895629,-0.12754162,-0.08488684,27.625,28.9375,27.9375,31.5625,33.625,34.375
0.1700546,-0.85868835,-0.32049274,-0.48135743,0.014305908,0.046230067,-0.15473525,-0.37968558,-0.3271986,0.06011134,-3.078184,0.62222964,0.00046577048,-0.08204178,0.013810755,-0.00037305415,0.012387846,-0.0027383685,0.01517718,0.44076362,-1.4605409,1.9973654,-2.105695,-1.5716246,2.414083,-0.091787726,0.12941043,-0.14841573,0.026686663,-0.010338565,-0.106845796,-0.24899697,0.11492168,-9.270349,0.7777002,47.703007,-0.87786174,-2.0355887,-3.2964876,-0.026878139,-0.14483032,-0.12349889,27.625,28.9375,27.9375,31.5625,33.625,34.375
0.17205355,-0.71730715,0.047199935,-0.48476136,0.013619311,0.048028205,-0.15587163,-0.379837,-0.32716236,0.06009407,-3.0781412,0.6222447,0.0004158923,-0.083133265,0.015684986,-0.0010560299,0.013640913,-0.0044296077,0.007225711,0.44057,-1.4602772,1.9971021,-2.1056468,-1.5716375,2.4139044,-0.09593532,0.1307191,-0.14853092,0.027559763,-0.010753825,-0.103040636,-0.21068975,0.15322891,-9.251195,0.78217715,47.7254,-0.743682,-1.8043134,-3.3039813,-0.023395017,-0.15133959,-0.1897394,27.625,28.9375,27.9375,31.5625,33.625,34.375
0.17405334,-0.9047887,0.38759124,-0.18905835,-0.0010285499,0.05265624,-0.16408513,-0.38001984,-0.32713833,0.060123317,-3.078144,0.6222437,0.00048250763,-0.082911216,0.014872528,-0.00090106705,0.014168823,-0.0046587195,0.008113258,0.44037881,-1.4600493,1.9967664,-2.1055748,-1.5716614,2.4137125,-0.093914784,0.13170208,-0.15027286,0.028749272,-0.011132382,-0.101906516,-0.2681506,0.038307227,-9.232041,0.80679786,47.698532,-0.75204575,-2.0108373,-3.3153772,-0.01974238,-0.14444633,-0.21488982,27.625,28.9375,27.9375,31.5625,33.625,34.375
0.1760543,-0.5508224,-0.20761357,-0.10911451,0.010030248,0.05725185,-0.15539958,-0.3801918,-0.32710642,0.060121484,-3.078138,0.62218785,0.0004754899,-0.08356504,0.01502997,-0.0016006045,0.0144080045,-0.006806591,0.0036279107,0.4401743,-1.4597845,1.9964665,-2.1055262,-1.5716728,2.413474,-0.09520512,0.134619,-0.15216677,0.029769128,-0.010437229,-0.0987115,-0.38307226,0.095768064,-9.11712,0.78888994,47.72092,-0.81229585,-1.9830633,-3.3483772,-0.021655062,-0.14855748,-0.27051765,27.625,28.9375,27.9375,31.5625,33.625,34.375
0.17805418,-0.56790626,0.07792598,-0.111837834,0.0096442215,0.05020821,-0.15113463,-0.38034415,-0.32708234,0.060108036,-3.078103,0.6222183,0.00041519507,-0.08427036,0.014719267,-0.0011900553,0.014616108,-0.005872675,0.0040289317,0.43999448,-1.459509,1.9961785,-2.1054661,-1.5716733,2.413318,-0.09480405,0.1354636,-0.15416886,0.030170629,-0.0110335825,-0.09870865,-0.3256114,0.095768064,-9.078813,0.8090337,47.709274,-0.87905693,-1.9217355,-3.3041463,-0.02702467,-0.15922895,-0.34381205,27.625,28.9375,27.9375,31.5625,33.625,34.375
0.1800541,-0.39226118,-0.14686097,-0.13941574,0.01935372,0.04132236,-0.16118827,-0.3805439,-0.32705915,0.060120806,-3.078109,0.62216353,0.00046655204,-0.08534593,0.014379573,-0.00046538704,0.014469226,-0.004451368,0.0015620803,0.4397905,-1.459221,1.9958194,-2.1054184,-1.5716976,2.4130793,-0.094745636,0.13621819,-0.15682808,0.030726805,-0.011508994,-0.09618128,-0.19153613,0.11492168,-9.078813,0.80456203,47.73077,-0.9068933,-1.9336555,-3.224358,-0.01752678,-0.14774479,-0.3586937,27.625,28.9375,27.9375,31.5625,33.625,34.375
0.1820541,-0.5261626,-0.26915732,-0.1890391,0.024301758,0.027450552,-0.15745723,-0.38072315,-0.32701543,0.060119256,-3.0780587,0.62222975,0.00048383753,-0.085684694,0.014589576,-0.00072838174,0.015183492,-0.005376938,0.00013878121,0.43957445,-1.4589571,1.9955195,-2.1053698,-1.5717338,2.4129112,-0.09521286,0.13758866,-0.15798979,0.031655803,-0.011764774,-0.09522399,-0.24899697,0.15322891,-9.059659,0.7642693,47.696735,-0.98968244,-1.9104657,-3.2885265,-0.02877024,-0.15730721,-0.4623865,27.625,28.9375,27.9375,31.5625,33.625,34.375
0.18405414,-0.17748146,0.25200066,-0.0973804,0.013881461,0.022237519,-0.16018654,-0.38088354,-0.32698017,0.060124755,-3.0780437,0.62212807,0.0004718558,-0.08559469,0.0146306725,-0.0012451422,0.016553037,-0.0068780067,0.003377917,0.4393826,-1.4587169,1.9952215,-2.1052854,-1.5717577,2.412658,-0.094756454,0.13933416,-0.1590577,0.032913655,-0.012371334,-0.098004706,-0.11492168,0.19153613,-9.002198,0.83813137,47.70211,-1.0886767,-1.8366017,-3.297987,-0.03281253,-0.16295728,-0.46325052,27.625,28.9375,27.9375,31.5625,33.625,34.375
0.18605402,0.15100867,-0.17210071,-0.42576545,0.021640016,0.018543513,-0.16353256,-0.3810511,-0.32696715,0.060108602,-3.077985,0.6220746,0.0003898156,-0.08634343,0.0145507,-0.00095057214,0.016232675,-0.007471739,0.008060196,0.43922633,-1.4583693,1.9948486,-2.1051776,-1.571782,2.412476,-0.09557506,0.14050926,-0.16144638,0.034515362,-0.011843932,-0.10350465,-0.038307227,0.2681506,-9.097966,0.8179876,47.716442,-1.0521054,-1.7877817,-3.2175784,-0.043369073,-0.16458052,-0.47045124,27.625,28.9375,27.9375,31.5625,33.625,34.375
0.18805373,0.37094307,-0.5050263,-0.5145929,0.014040405,0.008879611,-0.15533645,-0.3812418,-0.32692218,0.06010992,-3.0779388,0.62208223,0.00048401716,-0.08782309,0.01486206,-0.0011614044,0.01746103,-0.008418815,0.012502324,0.43902183,-1.4581044,1.9945492,-2.1051652,-1.5718535,2.4122825,-0.096929014,0.14387666,-0.16511054,0.03617675,-0.01256122,-0.1092974,0.095768064,0.22984336,-9.097966,0.82694155,47.68062,-1.0001981,-1.9983523,-3.3174582,-0.037518047,-0.15358862,-0.4405853,27.625,28.9375,27.9375,31.5625,33.625,34.375
0.19005361,-0.022648409,-0.5928016,-0.41660208,0.0011871553,-0.010800946,-0.1623736,-0.38139018,-0.32689348,0.060093682,-3.0779204,0.6218993,0.00033738188,-0.087837145,0.015416408,-0.00019322513,0.017356748,-0.007939113,0.02115724,0.43882945,-1.4578061,1.9942254,-2.1050327,-1.5718421,2.4119785,-0.09784152,0.14154772,-0.1652312,0.038134642,-0.012687797,-0.118864134,0.17238252,0.24899697,-9.212888,0.94331104,47.70838,-1.0495863,-1.6718833,-3.3019729,-0.06648216,-0.15969805,-0.40950945,27.625,28.9375,27.9375,31.5625,33.625,34.375
0.1920537,0.1763575,-0.46401668,-0.45027307,-0.011775287,-0.008109989,-0.15921944,-0.38157284,-0.326866,0.06011829,-3.0779393,0.62186265,0.0003905791,-0.08842624,0.016258262,9.936606e-05,0.018453462,-0.008805165,0.02665016,0.43862492,-1.4575784,1.9939026,-2.1049716,-1.571854,2.411749,-0.09945664,0.14181176,-0.16680448,0.040682722,-0.013314136,-0.12597106,0.19153613,0.21068975,-9.174581,0.8537928,47.723602,-1.0091023,-1.6474953,-3.3904517,-0.09798545,-0.14493164,-0.2924747,27.625,28.9375,27.9375,31.5625,33.625,34.375
0.19405365,0.88814586,-0.089158915,-0.6872628,-0.018435655,0.011239239,-0.16627966,-0.38175246,-0.32681793,0.06009642,-3.077861,0.6217659,0.0003130988,-0.08985488,0.01585419,-9.804092e-05,0.018637508,-0.009063988,0.031695332,0.438409,-1.4572417,1.9935545,-2.104864,-1.5719022,2.4114828,-0.09985183,0.14538682,-0.17044687,0.04104658,-0.013397583,-0.13140751,0.19153613,0.22984336,-9.308657,0.8537928,47.728977,-1.0140947,-1.6949055,-3.2642102,-0.13091724,-0.12962663,-0.22340426,27.625,28.9375,27.9375,31.5625,33.625,34.375
0.19605376,0.2205797,-0.48754886,-0.69706476,-0.0016897264,0.0057975086,-0.16059448,-0.38192037,-0.3267772,0.06007954,-3.077811,0.6216391,0.0002798683,-0.088966586,0.015907543,-0.0013836955,0.019051837,-0.011957046,0.034832604,0.4382169,-1.4569417,1.993244,-2.1047924,-1.5719498,2.4112182,-0.09968151,0.14694256,-0.1692846,0.041108117,-0.012556117,-0.13437612,0.114921674,0.2681506,-9.346964,0.81351066,47.72719,-1.0670437,-1.7014455,-3.3955424,-0.11789505,-0.16483413,-0.19625646,27.625,28.9375,27.9375,31.5625,33.625,34.375
0.19805364,0.25458324,-0.38884878,-1.0117095,-0.005682839,0.010309697,-0.15854268,-0.38207227,-0.32676038,0.060060006,-3.0778098,0.62148684,0.00014854695,-0.09046493,0.016992386,-0.00076941075,0.019022498,-0.0123361545,0.031276595,0.4380357,-1.4566301,1.9929208,-2.104695,-1.571926,2.4109423,-0.103089504,0.14730513,-0.17167501,0.043467473,-0.012383281,-0.13422674,0.019153614,0.3256114,-9.442732,0.8493211,47.71554,-1.019023,-1.6432877,-3.360992,-0.16414514,-0.16107836,-0.1686157,27.625,28.9375,27.9375,31.5625,33.625,34.375
0.20005348,0.021184936,-0.79350394,-1.0408219,-0.014855934,0.016136162,-0.15564908,-0.38225326,-0.3266982,0.06004066,-3.0777082,0.6214476,0.00010914896,-0.0904226,0.015787726,-0.0005202577,0.01825459,-0.0129016,0.029106773,0.43780854,-1.4563178,1.9925965,-2.1045992,-1.571998,2.410704,-0.10136497,0.14865479,-0.17406568,0.044685084,-0.0114621315,-0.13033247,-0.038307227,0.30645782,-9.5385,0.81351066,47.70838,-1.1672124,-1.73309,-3.3273256,-0.20999056,-0.16728203,-0.18199395,27.625,28.9375,27.9375,31.5625,33.625,34.375
0.20205429,0.055928722,-0.9228234,-1.2079599,-0.025632398,0.02577681,-0.16219369,-0.38245162,-0.32670507,0.060071886,-3.0777628,0.62129134,0.000123122,-0.091400824,0.017788805,-0.0022625837,0.021306932,-0.017633634,0.020154538,0.43763885,-1.4560169,1.9921659,-2.1044905,-1.5719861,2.41043,-0.105396196,0.15312701,-0.17571303,0.0474495,-0.012214368,-0.125409,-0.17238252,0.2681506,-9.519346,0.8247004,47.694946,-1.0424643,-1.8488818,-3.4320238,-0.26711863,-0.17654967,-0.22751014,27.625,28.9375,27.9375,31.5625,33.625,34.375
0.20405403,-0.7728917,-1.2058578,-1.3625368,-0.018641928,0.024764754,-0.14868854,-0.3826274,-0.3266769,0.060083188,-3.0777538,0.6211355,9.986351e-05,-0.091709316,0.01682284,-0.0022982184,0.020687453,-0.01673386,0.018727537,0.4374477,-1.4557413,1.9918069,-2.1043718,-1.5720099,2.410143,-0.10392342,0.15451121,-0.17692375,0.046197023,-0.012046106,-0.12250806,-0.038307227,0.24899697,-9.730036,0.800085,47.70211,-1.211759,-1.7512269,-3.3835864,-0.28374723,-0.18634315,-0.30163643,27.625,28.9375,27.9375,31.5625,33.625,34.375
0.20605393,-0.27888244,-1.0943855,-1.2979627,-0.026658818,0.05930655,-0.1622861,-0.38279998,-0.32662508,0.06005658,-3.0776782,0.6211407,-2.553592e-05,-0.09332174,0.016679173,-0.0028679345,0.020613754,-0.016126644,0.017472496,0.43720737,-1.4554166,1.9914826,-2.104265,-1.5720218,2.4099157,-0.10486701,0.15801811,-0.179135,0.044317104,-0.012264018,-0.12219255,-0.019153614,0.2681506,-9.710882,0.8291774,47.713753,-1.1703904,-1.9737494,-3.4303145,-0.2775807,-0.1855956,-0.34594887,27.625,28.9375,27.9375,31.5625,33.625,34.375
0.20805383,-1.1895368,-1.4126605,-1.0538563,-0.019936966,0.050904438,-0.15741561,-0.3829859,-0.326573,0.060054656,-3.0775836,0.6211593,4.690966e-06,-0.093526505,0.017006623,-0.0037259695,0.021759234,-0.018309576,0.016782042,0.43700317,-1.4551282,1.9911474,-2.1041806,-1.5721058,2.4097354,-0.10551813,0.16051248,-0.18022177,0.04536,-0.01238721,-0.12215179,-0.038307227,0.22984336,-9.653421,0.8851263,47.690468,-1.1387751,-1.9647048,-3.4439569,-0.29531747,-0.19472525,-0.37093508,27.625,28.9375,27.9375,31.5625,33.625,34.375
0.21005385,-0.50743294,-0.56051356,-1.0343571,-0.024530364,0.07141852,-0.1660955,-0.38317487,-0.32656914,0.060054857,-3.0776231,0.62105304,-8.71161e-05,-0.09565296,0.017451426,-0.0030279763,0.020915132,-0.017091418,0.015130502,0.43679798,-1.4547924,1.9907516,-2.1040847,-1.5720576,2.409459,-0.10830209,0.16176102,-0.18335846,0.045788217,-0.012154478,-0.12328261,-0.24899697,0.2681506,-9.615114,0.8985519,47.707485,-1.040905,-1.9974818,-3.287119,-0.33316374,-0.21875739,-0.35921085,27.625,28.9375,27.9375,31.5625,33.625,34.375
0.21205364,-0.8943811,-0.25808135,-1.2048141,-0.00040882948,0.057555206,-0.15799074,-0.383357,-0.32651573,0.060043503,-3.0775523,0.62096083,-0.00014823847,-0.096579805,0.01630476,-0.0028453001,0.02040956,-0.015069276,0.015877323,0.4365709,-1.4544803,1.9904035,-2.1039655,-1.5721058,2.4091837,-0.10663546,0.16375327,-0.18563786,0.044023532,-0.012574857,-0.12235868,-0.36391866,0.19153613,-9.672575,0.9455522,47.699425,-1.2585993,-1.9157784,-3.284903,-0.35698217,-0.21388406,-0.39398664,27.625,28.9375,27.9375,31.5625,33.625,34.375
0.21405415,-1.1150024,-0.047870878,-1.0256407,-0.009248347,0.06637747,-0.16451068,-0.38353965,-0.32649782,0.060051203,-3.0775752,0.62088615,-0.00013412384,-0.09847109,0.017061688,-0.002273348,0.018584425,-0.012603277,0.018941065,0.43637753,-1.4542049,1.9900688,-2.1039183,-1.5721058,2.408941,-0.11003488,0.1633104,-0.1859942,0.04180186,-0.0119798705,-0.12882301,-0.49799395,0.21068975,-9.710882,0.85155696,47.668976,-1.034473,-1.9186498,-3.426465,-0.33814007,-0.22462927,-0.39120257,27.625,28.9375,27.9375,31.5625,33.625,34.375
0.21605398,-1.2871044,-0.63082767,-1.115814,-0.0112109,0.081717834,-0.16333698,-0.38375518,-0.32646587,0.06005521,-3.0775313,0.62083465,-0.00012276157,-0.09936533,0.017242335,-0.0026626033,0.019108666,-0.01226854,0.024182335,0.43616152,-1.4538566,1.9896501,-2.1038225,-1.5721539,2.4086988,-0.110658675,0.16521256,-0.18705973,0.04086753,-0.0126158865,-0.134685,-0.49799395,0.1340753,-9.710882,0.900793,47.687782,-1.1899827,-1.9285688,-3.484961,-0.34262753,-0.22221261,-0.35892522,27.625,28.9375,27.9375,31.5625,33.625,34.375
0.21805349,-1.4907019,-0.7715297,-0.88195133,-0.026858727,0.10332165,-0.16004373,-0.3839721,-0.32642788,0.060049854,-3.0775037,0.6206725,-0.00012521306,-0.101192296,0.017519597,-0.0031800151,0.01914354,-0.012452624,0.03012605,0.43593273,-1.4534962,1.9892424,-2.103739,-1.5722016,2.4083726,-0.112712264,0.16879405,-0.18975201,0.040137436,-0.012597021,-0.14267977,-0.59376204,0.11492168,-9.710882,0.87617236,47.701214,-1.1039343,-1.9685608,-3.4097295,-0.3562096,-0.24280491,-0.25120386,27.625,28.9375,27.9375,31.5625,33.625,34.375
0.22005366,-1.7672023,-0.6552848,-0.72498155,-0.037126217,0.11639715,-0.16301979,-0.38416857,-0.326395,0.06005885,-3.0775151,0.62063205,-0.00015107817,-0.1034504,0.017557282,-0.0016442043,0.017665183,-0.008349757,0.03619827,0.4356922,-1.4532093,1.9888834,-2.103656,-1.5721902,2.4081056,-0.11440243,0.1682204,-0.19242492,0.039028,-0.013013188,-0.15043925,-0.59376204,0.11492168,-9.634268,0.8717007,47.723602,-1.0415876,-1.8020709,-3.5148783,-0.34785688,-0.2507728,-0.15050319,27.625,28.9375,27.9375,31.5625,33.625,34.375
0.22205356,-1.3027111,-0.38872665,-0.62383723,-0.02841518,0.13119498,-0.16295679,-0.38437772,-0.3263531,0.060051896,-3.0774868,0.62051153,-0.00013766672,-0.10516255,0.01825678,-0.0016326992,0.01697708,-0.0069672423,0.03552571,0.43546334,-1.4528735,1.9885119,-2.103597,-1.5722378,2.4078054,-0.11714057,0.16927238,-0.19327728,0.037271097,-0.012988103,-0.15250362,-0.7469909,0.038307227,-9.519346,0.8023209,47.696735,-0.99446523,-1.8596907,-3.518736,-0.3285833,-0.2507869,-0.12144936,27.625,28.9375,27.9375,31.5625,33.625,34.375
0.22405334,-1.5274553,-0.31787634,-0.41134244,-0.0029136343,0.11648652,-0.15433617,-0.3845987,-0.3263468,0.060056057,-3.0775414,0.6203519,-0.00018847888,-0.106908664,0.018152498,-0.0016176783,0.016427442,-0.005557188,0.032396037,0.43523493,-1.4525015,1.9880689,-2.1035135,-1.5722021,2.4074707,-0.118316464,0.17162323,-0.19565587,0.035794847,-0.01309502,-0.1505474,-0.80445176,0.05746084,-9.404425,0.8672237,47.67793,-0.86535,-1.6553347,-3.4870815,-0.3269475,-0.2592008,-0.122672155,27.625,28.9375,27.9375,31.5625,33.625,34.375
0.22605354,-1.1072258,0.37850043,-0.0888367,0.014164994,0.110512644,-0.16399267,-0.38481668,-0.3262832,0.060049385,-3.0774837,0.62030536,-0.000108908185,-0.109466076,0.018135035,0.0005395263,0.014491798,0.00020058246,0.026450245,0.4349824,-1.4521908,1.9877328,-2.10349,-1.572286,2.4071968,-0.119977914,0.16991282,-0.1983737,0.034180056,-0.01377224,-0.1462596,-0.7278373,-0.038307227,-9.3661175,0.92093146,47.723602,-0.8829273,-1.6652756,-3.4106169,-0.29905114,-0.2662747,-0.13802426,27.625,28.9375,27.9375,31.5625,33.625,34.375
0.22805372,-1.0726563,0.80901045,-0.32222876,0.03502108,0.08714828,-0.1602961,-0.38502845,-0.32625735,0.06005968,-3.0774963,0.6202527,-0.00013785245,-0.11145548,0.017714351,0.0013945425,0.013072763,0.0030284587,0.020533707,0.43474218,-1.4518666,1.987326,-2.1033943,-1.5722746,2.4069223,-0.12090428,0.17105632,-0.20136163,0.032868896,-0.013682115,-0.14126742,-0.7661445,0.038307227,-9.289502,0.87617236,47.72271,-0.84203815,-1.6139231,-3.4405837,-0.27313688,-0.29149312,-0.19271423,27.625,28.9375,27.9375,31.5625,33.625,34.375
0.23005341,-0.7898875,0.96038646,-0.35586673,0.04930357,0.078513026,-0.16343474,-0.38526323,-0.32622293,0.06007054,-3.0774887,0.6201569,-3.6713842e-05,-0.11233826,0.017428322,0.0014517879,0.0133289965,0.00413718,0.016153129,0.43451414,-1.4515308,1.9869188,-2.1033595,-1.5723351,2.4066358,-0.12059321,0.17259604,-0.20310499,0.032174192,-0.014375752,-0.13657303,-0.7278373,0.0,-9.346964,0.91198283,47.75316,-0.9145247,-1.5990801,-3.429144,-0.24337745,-0.29599714,-0.27694184,27.625,28.9375,27.9375,31.5625,33.625,34.375
0.23205411,-0.92930853,0.40439895,-0.5965115,0.049603045,0.07840065,-0.15658489,-0.38551003,-0.3261753,0.060064137,-3.0774207,0.6201832,-1.4413332e-05,-0.11361872,0.017121293,0.0018704191,0.012623616,0.005496456,0.012054726,0.43425024,-1.451135,1.9864758,-2.1032875,-1.5723943,2.4063973,-0.12108391,0.1738685,-0.20544124,0.03170291,-0.014312732,-0.13296367,-0.7661445,0.038307227,-9.270349,0.9164598,47.744205,-1.0358361,-1.5357122,-3.4291396,-0.21407391,-0.28921816,-0.3556437,27.625,28.9375,27.9375,31.5625,33.625,34.375
0.23405415,-0.76319885,0.2927687,-0.5718267,0.028277365,0.086305745,-0.16064708,-0.3857257,-0.32616597,0.060086098,-3.0775025,0.62006676,1.1570413e-05,-0.11537659,0.017280374,0.0025859445,0.012561029,0.007599068,0.007968683,0.43402204,-1.4508353,1.98608,-2.1032393,-1.572359,2.4060862,-0.122272484,0.17483486,-0.20816982,0.031541046,-0.015136277,-0.13006295,-0.49799395,0.019153614,-9.385271,0.91421866,47.73614,-1.0227367,-1.5559467,-3.3375788,-0.20258856,-0.29118073,-0.40115887,27.625,28.9375,27.9375,31.5625,33.625,34.375
0.23605408,-0.7966526,0.05285952,-0.57071584,0.013203237,0.08263266,-0.16147895,-0.38595945,-0.32609877,0.060048368,-3.077403,0.62006605,-4.0555573e-05,-0.11593303,0.016581008,0.0023107822,0.01325987,0.007076486,0.007617786,0.43373412,-1.450415,1.9856838,-2.1031792,-1.572419,2.4058108,-0.12107891,0.17777435,-0.21105064,0.032242794,-0.015563666,-0.12851426,-0.40222588,0.076614454,-9.404425,0.83813137,47.709274,-0.9428688,-1.554555,-3.2338567,-0.18006846,-0.31773162,-0.466092,27.625,28.9375,27.9375,31.5625,33.625,34.375
0.2380538,-0.5310222,-0.017069291,-0.77235436,-0.005183203,0.0758023,-0.1559397,-0.38619152,-0.3260619,0.06008072,-3.0773613,0.62013566,5.784183e-05,-0.11799735,0.018459328,0.0017203927,0.0151165025,0.005053834,0.004815534,0.43350428,-1.4501144,1.9852523,-2.103083,-1.5724791,2.40563,-0.12571785,0.18112196,-0.21398094,0.034429327,-0.016398085,-0.13034762,-0.22984336,0.11492168,-9.461885,0.87393653,47.729877,-1.0152258,-1.6465292,-3.23469,-0.16865897,-0.2909006,-0.5139969,27.625,28.9375,27.9375,31.5625,33.625,34.375
0.24005368,-0.30582067,-0.75987434,-0.83069104,-0.007447161,0.059456933,-0.16378085,-0.38641575,-0.32602486,0.060063,-3.0773282,0.6200066,2.7189513e-05,-0.1176318,0.017939392,-3.189884e-05,0.01682171,0.0017926698,0.015815666,0.43326512,-1.4497173,1.9848331,-2.1030114,-1.5725154,2.405315,-0.1242165,0.18576217,-0.2152914,0.03474893,-0.016599046,-0.13984382,-0.15322891,0.13407528,-9.500193,0.9612189,47.737934,-1.0033295,-1.9701239,-3.2793398,-0.16896999,-0.28483897,-0.4890498,27.625,28.9375,27.9375,31.5625,33.625,34.375
0.24205382,-0.37642077,-1.2793101,-1.0479434,-0.01680943,0.04301399,-0.15619232,-0.38668117,-0.32596308,0.06006286,-3.0772874,0.6200123,6.825122e-05,-0.11816957,0.018380553,-0.0009208866,0.017254462,0.0010232949,0.023911526,0.43295255,-1.4493333,1.9843911,-2.1029518,-1.5725635,2.4050114,-0.12533614,0.1877853,-0.21532403,0.033608492,-0.016686782,-0.14905861,-0.11492168,0.34476504,-9.576807,0.8672237,47.71286,-0.961654,-1.871738,-3.3728588,-0.14769521,-0.29304558,-0.41750985,27.625,28.9375,27.9375,31.5625,33.625,34.375
0.24405377,-0.3151157,-1.7643193,-0.92976236,-0.032826636,0.04589276,-0.15211366,-0.38692257,-0.32593352,0.060078163,-3.077286,0.61991,0.00011538166,-0.11880565,0.01859596,-0.0003871418,0.018034289,0.0021963518,0.035459887,0.43271288,-1.4489744,1.9839357,-2.1028674,-1.5725998,2.4047084,-0.12538339,0.18770832,-0.21667147,0.03426647,-0.017904116,-0.16065052,-0.11492168,0.40222588,-9.519346,0.86945957,47.701214,-1.0338393,-1.7465549,-3.4392924,-0.11275214,-0.3048748,-0.2754519,27.625,28.9375,27.9375,31.5625,33.625,34.375
0.24605362,-0.075939395,-1.6559081,-1.0831964,-0.03966247,0.03576591,-0.15809445,-0.38715035,-0.32588667,0.06005694,-3.0772438,0.6197821,9.604381e-05,-0.11837463,0.018696334,-0.0006838592,0.018017832,0.0002454363,0.042392015,0.4324606,-1.4485788,1.9835285,-2.1028068,-1.5726475,2.404382,-0.12564899,0.18809013,-0.21683563,0.035783272,-0.017088186,-0.1678502,0.076614454,0.4405331,-9.461885,0.8493211,47.71286,-0.97991204,-1.8055067,-3.4858572,-0.11392489,-0.30500427,-0.18343878,27.625,28.9375,27.9375,31.5625,33.625,34.375
0.24805334,0.3436055,-0.91365457,-1.0030998,-0.05123183,0.023405697,-0.16608422,-0.38737836,-0.32585204,0.060061015,-3.0772324,0.61960757,0.00012297173,-0.12006527,0.020106807,-0.001053692,0.018570073,-0.00058285834,0.040289175,0.43223137,-1.448219,1.9830979,-2.1027234,-1.5726956,2.4040456,-0.12952967,0.1900942,-0.2184177,0.03632977,-0.017251236,-0.16962644,0.076614454,0.45968673,-9.519346,0.8717007,47.699425,-1.0603616,-1.8367193,-3.5946462,-0.097037435,-0.29991055,-0.13250434,27.625,28.9375,27.9375,31.5625,33.625,34.375
0.25005415,0.30323702,-1.6125896,-0.75552213,-0.04683582,0.019777153,-0.15461029,-0.3876317,-0.32580644,0.060055427,-3.0772283,0.6194941,0.00012746677,-0.11997999,0.018979918,-0.00093340565,0.019173266,-0.0013885874,0.036756255,0.43194425,-1.4478229,1.982654,-2.1026628,-1.5727199,2.4036884,-0.12712376,0.19211265,-0.22148614,0.03836888,-0.017459372,-0.16368541,0.095768064,0.4213795,-9.423578,0.91198283,47.71823,-1.1012923,-1.8910829,-3.586739,-0.10070859,-0.30050248,-0.16296092,27.625,28.9375,27.9375,31.5625,33.625,34.375
0.25205386,0.23092985,-1.0694305,-0.68256164,-0.0421004,-0.0016199495,-0.1517628,-0.38789317,-0.32577923,0.06007871,-3.077238,0.61948025,0.00023300656,-0.121304765,0.01931149,-0.0007030187,0.018685246,-0.0012576054,0.028192952,0.4316918,-1.4474632,1.9821872,-2.1026146,-1.5727552,2.4034264,-0.12904423,0.19342227,-0.22367182,0.038925096,-0.017057594,-0.15704362,0.076614454,0.4213795,-9.3661175,0.8717007,47.70838,-1.0474272,-1.7602742,-3.3905578,-0.07986191,-0.301232,-0.21997693,27.625,28.9375,27.9375,31.5625,33.625,34.375
0.2540538,0.7131099,-1.0778576,-0.8382676,-0.025296392,-0.00290638,-0.15388563,-0.38816386,-0.3257319,0.060103808,-3.0772278,0.6194434,0.00032213944,-0.12284541,0.019447934,-0.00097474334,0.018367933,-0.00020860325,0.022813745,0.4314032,-1.4471031,1.9817079,-2.1025317,-1.5728039,2.4031165,-0.13041446,0.19572033,-0.22528413,0.037151083,-0.017206842,-0.15303327,0.1340753,0.34476504,-9.385271,0.9186956,47.72002,-0.9991313,-1.7860894,-3.4972968,-0.05170688,-0.32206488,-0.32790574,27.625,28.9375,27.9375,31.5625,33.625,34.375
0.25605372,0.76661754,-1.2738657,-0.70497245,-0.016371334,0.005253016,-0.15265287,-0.3883798,-0.32570705,0.060076676,-3.077198,0.6192447,0.00023386511,-0.12419321,0.019345012,-0.0007252188,0.017626747,-0.0007356577,0.021129359,0.4311867,-1.4466711,1.9812645,-2.1024349,-1.5728272,2.40278,-0.13187544,0.19785585,-0.22864383,0.03853459,-0.016331691,-0.15280934,0.1340753,0.36391866,-9.32781,0.91421866,47.70032,-0.9824251,-1.8245986,-3.4445512,-0.01650882,-0.32318726,-0.33687472,27.625,28.9375,27.9375,31.5625,33.625,34.375
0.2580544,0.3705882,-1.1340075,-0.62359893,-0.0143759465,-0.0008438345,-0.15159827,-0.38863844,-0.32568222,0.060093734,-3.0772135,0.6192095,0.00031299543,-0.12483499,0.019251963,-0.000665442,0.017933186,-0.0018646294,0.02089544,0.43093446,-1.4462991,1.9807976,-2.1023862,-1.5728515,2.4025042,-0.13228023,0.1997155,-0.2313974,0.040573627,-0.016134996,-0.15298037,0.13407528,0.34476504,-9.289503,0.8605109,47.698532,-1.0676954,-1.7790889,-3.30345,-0.036596086,-0.31723017,-0.3608957,27.625,28.9375,27.9375,31.5625,33.625,34.375
0.2600533,-0.10264758,-1.1058505,-0.42144042,-0.008412881,0.008304667,-0.15106684,-0.38886818,-0.32562464,0.060071353,-3.0771596,0.6191017,0.00021255619,-0.12671381,0.019156689,0.00049266545,0.016417556,-0.00028640678,0.0211895,0.43064582,-1.4458916,1.9803652,-2.1022666,-1.5728749,2.4021554,-0.13407208,0.2003224,-0.23502046,0.04150763,-0.015442546,-0.15506518,0.038307227,0.26815057,-9.193734,0.900793,47.685097,-0.908154,-1.7543049,-3.2667308,-0.020842282,-0.35113123,-0.38670507,27.625,28.9375,27.9375,31.5625,33.625,34.375
0.26205415,-0.016391,-0.17281942,-0.523053,0.0022775496,0.019591486,-0.15673053,-0.38913906,-0.32560107,0.060084246,-3.0771813,0.619026,0.00031789445,-0.12837382,0.019236928,0.0013498242,0.015709145,0.00054567156,0.025665997,0.4303934,-1.4454957,1.9798864,-2.1022422,-1.5729107,2.4018533,-0.13572535,0.20135109,-0.23853154,0.042913646,-0.015151914,-0.16119514,0.05746084,0.22984336,-9.155427,0.85826975,47.692257,-0.9446618,-1.8104924,-3.1757815,-0.013094759,-0.35838506,-0.3438487,27.625,28.9375,27.9375,31.5625,33.625,34.375
0.26405385,-0.33082712,0.2017374,-0.67123055,0.01583139,0.026458066,-0.15699767,-0.38937742,-0.32557097,0.060074203,-3.0771537,0.6189,0.00023465311,-0.1286508,0.019517697,0.00084290234,0.016209053,-0.0013319454,0.033777177,0.43014112,-1.4450638,1.9793953,-2.1021101,-1.5729226,2.4015262,-0.13658066,0.20317104,-0.23979773,0.044247147,-0.014850047,-0.17016102,-0.019153614,0.24899697,-9.270349,0.83813137,47.686886,-0.9329108,-1.7923518,-3.1812954,-0.006318047,-0.38594127,-0.2664655,27.625,28.9375,27.9375,31.5625,33.625,34.375
0.26605368,-0.17791387,0.36093733,-0.4924305,0.008589793,0.05799907,-0.16817524,-0.3896395,-0.32550213,0.06005913,-3.0770943,0.61880547,0.00022556492,-0.1291534,0.020351639,0.0010745547,0.0169145,-0.0021126578,0.041259583,0.42982888,-1.444645,1.9789408,-2.1020253,-1.5729827,2.4011629,-0.1382151,0.20321587,-0.24092393,0.046296798,-0.015189049,-0.17927621,-0.24899697,0.22984336,-9.346964,0.947788,47.672558,-1.0088366,-1.6068645,-3.2258375,-0.022598973,-0.39403236,-0.13399741,27.625,28.9375,27.9375,31.5625,33.625,34.375
0.26805368,-1.456131,-0.1816136,-0.30742827,0.0086891055,0.061851915,-0.1460753,-0.38987434,-0.3254856,0.060054503,-3.0771313,0.61863726,0.00010141406,-0.12804276,0.019840946,0.00016041432,0.018505616,-0.0048229015,0.04789996,0.4295657,-1.4442247,1.9784497,-2.1018932,-1.572935,2.4007902,-0.13599353,0.20513864,-0.24146421,0.048036575,-0.015524739,-0.18369305,-0.36391866,0.17238252,-9.212888,0.88289046,47.711063,-1.0182152,-1.6274487,-3.231316,-0.018231358,-0.4205153,-0.059476353,27.625,28.9375,27.9375,31.5625,33.625,34.375
0.27005342,-1.0619254,0.25693014,-0.37341622,-0.0038155066,0.09928915,-0.15927309,-0.39010966,-0.325451,0.060056873,-3.077115,0.6184273,7.093846e-05,-0.12854157,0.021240143,0.0005570687,0.019131098,-0.005462873,0.041234072,0.42932436,-1.4438301,1.9779714,-2.1017606,-1.5729712,2.4004202,-0.13870935,0.20404105,-0.24171251,0.050225258,-0.015827805,-0.17974201,-0.5363012,0.019153614,-9.32781,0.8717007,47.72092,-0.9480425,-1.668701,-3.3708215,-0.028860288,-0.4129605,-0.05717323,27.625,28.9375,27.9375,31.5625,33.625,34.375
0.27205473,-1.0919867,0.6160225,-0.40018165,0.002415086,0.1082104,-0.16583674,-0.39039513,-0.3253888,0.060063902,-3.077079,0.6183448,0.00014808479,-0.12830561,0.020810753,-0.00045660534,0.021304855,-0.008079655,0.037178583,0.42901304,-1.4434216,1.9774803,-2.1016881,-1.5730432,2.4000623,-0.13701105,0.20773251,-0.24405216,0.052157316,-0.016709162,-0.17398436,-0.51714754,-0.095768064,-9.423578,0.90750587,47.699425,-1.1164649,-1.5483346,-3.4344265,-0.03775924,-0.42250776,-0.09874803,27.625,28.9375,27.9375,31.5625,33.625,34.375
0.2740538,-0.5979613,0.85529417,-0.1514342,0.022812637,0.110158764,-0.16525298,-0.39063796,-0.32535353,0.06004959,-3.0770402,0.6183031,7.6385055e-05,-0.12792964,0.022348575,-0.0029884526,0.024425585,-0.014499663,0.02827781,0.4287484,-1.442989,1.9770025,-2.1015794,-1.5730551,2.399777,-0.1393238,0.21238635,-0.24415743,0.054755937,-0.016876567,-0.16739473,-0.5363012,-0.22984336,-9.3661175,0.86945957,47.69763,-1.0549084,-1.7941779,-3.5307841,-0.065466695,-0.4427225,-0.19067317,27.625,28.9375,27.9375,31.5625,33.625,34.375
0.2760535,-0.80906075,0.7978945,-0.25219876,0.052221432,0.081108615,-0.14854383,-0.3909019,-0.32531002,0.060056124,-3.077034,0.61823004,9.585931e-05,-0.12940684,0.023578491,-0.003627877,0.026708838,-0.01602971,0.017765032,0.4284596,-1.4425925,1.9765228,-2.101495,-1.5730804,2.3994436,-0.14179556,0.21572348,-0.24692655,0.056545004,-0.018312505,-0.15934758,-0.5554548,-0.21068975,-9.289502,0.86945957,47.687782,-1.0382199,-1.8163943,-3.4631827,-0.09726347,-0.436903,-0.30384338,27.625,28.9375,27.9375,31.5625,33.625,34.375
0.27805367,-0.5638111,1.4988838,-0.28264087,0.06297581,0.070946835,-0.1566104,-0.39115775,-0.32527032,0.06005599,-3.0769696,0.61816156,8.7059365e-05,-0.13017824,0.022804117,-0.002551514,0.026369503,-0.0147313075,0.014098058,0.42820793,-1.442161,1.9760083,-2.101363,-1.5731405,2.3991578,-0.14075328,0.21611892,-0.2502972,0.058197275,-0.018552214,-0.15463534,-0.6703765,-0.24899697,-9.308656,0.8717007,47.701214,-1.0229552,-1.822492,-3.6539834,-0.10945508,-0.44001305,-0.3925965,27.625,28.9375,27.9375,31.5625,33.625,34.375
0.2800537,-0.118211046,1.3624588,-0.29985598,0.07369984,0.053699046,-0.16238758,-0.39142624,-0.3252334,0.060044464,-3.0769515,0.61810136,5.1224488e-05,-0.13195921,0.023639593,-0.001898745,0.027080635,-0.0142419245,0.009634742,0.4279191,-1.441706,1.9755038,-2.1012785,-1.5731524,2.398834,-0.14312488,0.21729852,-0.25367537,0.060247388,-0.019413512,-0.15253878,-0.5554548,-0.22984336,-9.270349,0.9768804,47.70211,-0.8556972,-1.8094777,-3.5178838,-0.1161333,-0.45860654,-0.4652446,27.625,28.9375,27.9375,31.5625,33.625,34.375
0.2820538,-0.5069599,0.50257957,-0.34147543,0.061169986,0.054322805,-0.14933719,-0.39167702,-0.325156,0.060016,-3.0768442,0.6180768,-5.9594713e-05,-0.1332789,0.023631398,-0.001453219,0.028695952,-0.013606618,0.014668933,0.4275952,-1.441261,1.975036,-2.1011345,-1.5732015,2.3985088,-0.14294417,0.21948555,-0.25766867,0.0621256,-0.021186918,-0.15738203,-0.6512228,-0.1340753,-9.193734,0.90527004,47.701214,-1.0507509,-1.8998132,-3.3877897,-0.15378606,-0.43625715,-0.5027002,27.625,28.9375,27.9375,31.5625,33.625,34.375
0.28405362,-0.6422584,0.27598456,-0.29055643,0.029508939,0.07223708,-0.15924108,-0.39193207,-0.32510668,0.060015004,-3.076764,0.6179956,-0.00013923505,-0.13433369,0.023875942,-0.00042111552,0.029823672,-0.012463572,0.024647765,0.42731917,-1.4408185,1.9744967,-2.100942,-1.5732497,2.3981926,-0.1431591,0.21962754,-0.26082382,0.06453098,-0.02273091,-0.16756745,-0.6512229,0.095768064,-9.251195,0.93436235,47.692257,-1.093586,-1.8660473,-3.3473754,-0.1912641,-0.41549385,-0.4292937,27.625,28.9375,27.9375,31.5625,33.625,34.375
0.28605384,-1.0817112,-0.29702628,-0.33641905,-0.01566719,0.09727908,-0.15581457,-0.39220527,-0.32506323,0.060021877,-3.0767388,0.6178294,-0.00017133029,-0.13437445,0.02447263,-0.0005890009,0.031150896,-0.013849927,0.03656663,0.427031,-1.4403752,1.9739465,-2.1007855,-1.5732859,2.3978043,-0.143732,0.22026671,-0.2617034,0.06653915,-0.023403427,-0.18005586,-0.5554548,0.19153613,-9.385271,0.91198283,47.70211,-1.1019924,-1.694168,-3.2791169,-0.25699213,-0.4270517,-0.31470427,27.625,28.9375,27.9375,31.5625,33.625,34.375
0.28805372,-1.3040663,-1.1011604,-0.113861784,-0.054162286,0.12490192,-0.165334,-0.39246142,-0.32499257,0.05999376,-3.076611,0.61770296,-0.00021140081,-0.135339,0.024842268,-2.9987412e-05,0.03207929,-0.014154742,0.044741,0.42675465,-1.4399076,1.9734544,-2.100653,-1.5733942,2.3974657,-0.14461553,0.22125335,-0.26480734,0.06926979,-0.024169276,-0.18910757,-0.51714754,0.3256114,-9.3661175,0.9254084,47.68599,-1.1540709,-1.7808001,-3.3196054,-0.29285157,-0.42208064,-0.21359646,27.625,28.9375,27.9375,31.5625,33.625,34.375
0.29005364,-1.4450483,-1.4248309,-0.1470833,-0.06616447,0.12494539,-0.15683652,-0.39275205,-0.32493976,0.05999864,-3.0766072,0.6176045,-0.00023529526,-0.13705577,0.024422629,-0.00025905334,0.03150264,-0.013076424,0.046910975,0.4264186,-1.4394635,1.972916,-2.1005337,-1.5734056,2.397069,-0.14519034,0.22450219,-0.26766753,0.06764306,-0.024119783,-0.19184974,-0.49799395,0.30645782,-9.308657,0.9321212,47.72719,-1.1166358,-1.7072902,-3.326674,-0.3397261,-0.41088274,-0.12916058,27.625,28.9375,27.9375,31.5625,33.625,34.375
0.2920535,-1.6253071,-1.8894376,-0.61997753,-0.048415933,0.09499178,-0.14594375,-0.3930017,-0.32490456,0.05997229,-3.0765615,0.61736757,-0.00034172507,-0.13775332,0.024968678,-0.0011721004,0.03184384,-0.012421467,0.04110991,0.42616624,-1.4389719,1.97239,-2.1003916,-1.5734419,2.3966749,-0.14628017,0.22600824,-0.26671717,0.06473439,-0.024721855,-0.18713345,-0.45968673,0.40222588,-9.404425,0.9298854,47.711063,-1.1406133,-1.8090677,-3.3341374,-0.3254763,-0.39009097,-0.17342013,27.625,28.9375,27.9375,31.5625,33.625,34.375
0.29405335,-0.7155658,-1.4510014,-0.5559086,-0.048898116,0.09350037,-0.15168738,-0.39331406,-0.32483977,0.059966248,-3.0765038,0.617283,-0.00030990527,-0.13890697,0.02448271,-0.000517908,0.031577628,-0.0089141615,0.033547442,0.42583075,-1.4384805,1.9718283,-2.1002958,-1.5735148,2.3962944,-0.14541939,0.22625501,-0.26810732,0.062581465,-0.025929205,-0.17870386,-0.47884035,0.40222588,-9.308656,0.87617236,47.71465,-1.1793058,-1.777859,-3.5142608,-0.3343426,-0.39446306,-0.25344038,27.625,28.9375,27.9375,31.5625,33.625,34.375
0.29605407,-0.41841865,-1.2140404,-0.49070418,-0.027994353,0.06509551,-0.1559429,-0.3935937,-0.32477227,0.059955347,-3.0764022,0.617322,-0.00031989175,-0.14082366,0.025110438,-0.00047506203,0.03163458,-0.006521831,0.028854525,0.4255179,-1.4380251,1.9713129,-2.1001775,-1.5735873,2.3960192,-0.14736861,0.22765204,-0.26935014,0.060263257,-0.026987005,-0.17595336,-0.22984336,0.26815057,-9.385271,0.900793,47.72808,-1.1114227,-1.7480927,-3.6146584,-0.3270137,-0.36093998,-0.32898515,27.625,28.9375,27.9375,31.5625,33.625,34.375
0.2980545,-0.09598493,-0.7871429,-0.6416231,-0.012149088,0.036466997,-0.14895298,-0.39389923,-0.324725,0.059962314,-3.0763693,0.6171835,-0.00022928318,-0.14497463,0.026195945,-0.00013108285,0.02962336,-0.00091049104,0.023419384,0.4252283,-1.4375572,1.9707507,-2.100096,-1.5736712,2.3956478,-0.1523986,0.2295916,-0.2710127,0.054025885,-0.027489893,-0.17554425,-0.15322891,0.36391866,-9.423578,0.9612189,47.717335,-1.0810835,-1.6741828,-3.5838752,-0.27216288,-0.34208363,-0.37168497,27.625,28.9375,27.9375,31.5625,33.625,34.375
0.3000534,0.24900897,-0.51902044,-0.50864923,-0.013471095,0.039698236,-0.15583262,-0.3941865,-0.32468268,0.05995776,-3.0763576,0.6170464,-0.0002844318,-0.14548947,0.025924334,-0.001320918,0.030557603,-0.0013524306,0.023710085,0.4249165,-1.4370763,1.9701885,-2.0999649,-1.5736836,2.3952522,-0.15174158,0.2330788,-0.27192092,0.052228026,-0.028176932,-0.17517266,-0.05746084,0.34476504,-9.423578,0.89631605,47.709274,-1.0285587,-1.893996,-3.6056547,-0.22906353,-0.33476904,-0.40499613,27.625,28.9375,27.9375,31.5625,33.625,34.375
0.30205396,0.5792816,-0.7357588,-0.47772777,-0.011462776,0.046670984,-0.1612335,-0.39447132,-0.32460228,0.05993553,-3.0762365,0.6170179,-0.00030280298,-0.1492494,0.025793405,0.00057219225,0.028461862,0.0037056175,0.028339641,0.42459157,-1.4365972,1.9696716,-2.0998456,-1.5737795,2.3949254,-0.15437241,0.23429723,-0.27746677,0.05103521,-0.028402759,-0.18242683,0.05746084,0.3256114,-9.308656,0.8873621,47.68062,-0.9431509,-1.8815091,-3.4614782,-0.20993137,-0.31846082,-0.34411672,27.625,28.9375,27.9375,31.5625,33.625,34.375
0.30405384,0.6688584,-0.1653603,-0.8286072,-0.009133402,0.03189409,-0.16624478,-0.39477116,-0.32458076,0.059927985,-3.0762517,0.61687917,-0.000269223,-0.15043704,0.02500909,0.00054498756,0.027765721,0.004570026,0.03947217,0.42431596,-1.4360934,1.9691089,-2.099798,-1.5738038,2.3945615,-0.15394253,0.23689851,-0.28024283,0.05008837,-0.028159726,-0.19312902,0.17238252,0.2681506,-9.481039,0.9030289,47.713753,-0.9922973,-1.9388844,-3.3645837,-0.18710321,-0.29954627,-0.26713666,27.625,28.9375,27.9375,31.5625,33.625,34.375
0.30605382,0.17218494,-0.42103803,-0.94363374,-0.0015155136,0.011817684,-0.1567754,-0.39507812,-0.3245148,0.05992019,-3.0761993,0.6166905,-0.00024341144,-0.15193304,0.02418151,0.0013544405,0.025554871,0.0062173773,0.048564956,0.42399153,-1.4356012,1.9685463,-2.0996902,-1.5738872,2.3941264,-0.15437308,0.23804723,-0.28340396,0.049628735,-0.026864193,-0.202655,0.19153614,0.22984336,-9.519346,0.82022345,47.70211,-0.91774523,-2.0482144,-3.4645014,-0.15322247,-0.29713026,-0.1441366,27.625,28.9375,27.9375,31.5625,33.625,34.375
0.30805352,0.029596275,-0.8381009,-0.9862358,-0.024697063,0.0043627284,-0.15683885,-0.39539734,-0.3244609,0.059941288,-3.0761273,0.61655927,-0.00013703754,-0.1530246,0.02471252,0.00091207825,0.025980538,0.0060025007,0.050138764,0.42370313,-1.4351221,1.967924,-2.0995467,-1.5740069,2.3937657,-0.1559139,0.24009562,-0.28472072,0.04922694,-0.02717707,-0.2057676,0.1340753,0.19153613,-9.557653,0.8403672,47.703903,-0.9142916,-2.00139,-3.427828,-0.11021818,-0.28853202,-0.059263814,27.625,28.9375,27.9375,31.5625,33.625,34.375
0.31005347,-0.071216136,-1.5007534,-0.66505617,-0.03788277,0.02010583,-0.1578275,-0.39566752,-0.32439917,0.059898023,-3.0760927,0.6163442,-0.00024254587,-0.15283348,0.02531091,-0.0005755887,0.028863216,0.003407333,0.044489205,0.4233794,-1.434618,1.9674338,-2.0994627,-1.5740317,2.3933125,-0.15569,0.24326195,-0.28520867,0.050111562,-0.028744286,-0.19988468,-0.038307227,0.28730422,-9.519346,0.8940802,47.709274,-1.109054,-2.0217998,-3.4653916,-0.10696335,-0.25858098,-0.07420122,27.625,28.9375,27.9375,31.5625,33.625,34.375
0.3120533,0.14056887,-1.3366877,-0.91215557,-0.04224777,0.03420356,-0.15245217,-0.39596424,-0.3243493,0.05989627,-3.076058,0.61624676,-0.00029990805,-0.15415959,0.025617715,-0.0002449353,0.02894762,0.0038992197,0.033821024,0.42305493,-1.4341265,1.9668463,-2.0993073,-1.5740556,2.392932,-0.15703522,0.24460712,-0.28779155,0.050955262,-0.029016215,-0.19055769,0.0,0.24899697,-9.481039,0.8940802,47.698532,-1.0109496,-2.115715,-3.4844182,-0.102547646,-0.23391995,-0.15763648,27.625,28.9375,27.9375,31.5625,33.625,34.375
0.31405348,-0.074074015,-0.924228,-0.9868001,-0.04208444,0.02469729,-0.16602239,-0.39628845,-0.324303,0.059894487,-3.0760152,0.6162612,-0.0002606054,-0.15565117,0.02583618,-6.3953965e-05,0.028519595,0.0036382219,0.025554152,0.42273036,-1.4336107,1.9662474,-2.099223,-1.5741037,2.3926222,-0.15885627,0.24668811,-0.29093942,0.052087396,-0.028508384,-0.18411247,-0.05746084,0.19153613,-9.710882,0.8873621,47.687782,-0.9593408,-2.07415,-3.451141,-0.08310202,-0.21667036,-0.25600117,27.625,28.9375,27.9375,31.5625,33.625,34.375
0.31605458,-0.6312172,-1.1300851,-0.90481234,-0.0389361,0.024642117,-0.16007271,-0.39658964,-0.3242855,0.059922937,-3.076055,0.6160432,-0.00014550038,-0.15544535,0.02635554,-1.4310962e-05,0.028203024,0.0028884604,0.017901486,0.42247808,-1.4331679,1.9656619,-2.0991385,-1.5741514,2.392229,-0.15990792,0.24577908,-0.2903187,0.052935526,-0.027882736,-0.17751653,-0.19153613,0.3256114,-9.710882,0.9254084,47.716442,-0.9665233,-2.0459192,-3.48481,-0.0835567,-0.2335673,-0.3777493,27.625,28.9375,27.9375,31.5625,33.625,34.375
0.31805357,-0.6403673,-0.4177033,-0.7746865,-0.04373935,0.044308823,-0.15977988,-0.39690515,-0.3242176,0.05989601,-3.0759804,0.61610556,-0.00022050581,-0.15629037,0.02683389,-0.00054345705,0.028562458,0.0018378696,0.014475698,0.42210564,-1.4326284,1.9650878,-2.0990307,-1.5741752,2.3919055,-0.16138466,0.24795781,-0.29179183,0.05332818,-0.027793534,-0.1755651,-0.28730422,0.26815057,-9.615114,0.8873621,47.71823,-0.8835201,-1.9582853,-3.5914588,-0.06546682,-0.20790473,-0.46056432,27.625,28.9375,27.9375,31.5625,33.625,34.375
0.32005358,-0.40997303,0.07473388,-0.92499596,-0.017065931,0.06246543,-0.16833046,-0.39719135,-0.324152,0.05986864,-3.0758767,0.6160425,-0.0002815002,-0.15602534,0.026309848,0.0003160439,0.028447274,0.0011253549,0.019179221,0.42179376,-1.4321133,1.9645365,-2.0988977,-1.5742472,2.391568,-0.16029663,0.24745516,-0.29406855,0.056675024,-0.027424373,-0.1791795,-0.30645782,0.15322891,-9.787497,0.8314132,47.719128,-0.9066946,-1.8877671,-3.6322,-0.06969455,-0.20237729,-0.4858472,27.625,28.9375,27.9375,31.5625,33.625,34.375
0.3220537,-0.5844403,0.21733065,-0.7459198,-0.007647751,0.08167529,-0.1779006,-0.397541,-0.32412314,0.059893254,-3.075909,0.6158703,-0.00016351331,-0.15828596,0.025747813,0.0013972198,0.026317166,0.004188472,0.029446734,0.4214811,-1.431598,1.9638771,-2.0988147,-1.5742949,2.391144,-0.16140054,0.24860685,-0.2976869,0.055414002,-0.026768448,-0.19055346,-0.34476504,0.0,-9.787497,0.88289046,47.729877,-0.91059995,-1.8714993,-3.5584521,-0.033278205,-0.2035934,-0.39525536,27.625,28.9375,27.9375,31.5625,33.625,34.375
0.32405385,-1.5206608,-0.42511973,-0.7657799,0.023612203,0.07089232,-0.16180839,-0.39786288,-0.32407328,0.059901264,-3.075886,0.61572397,-8.855119e-05,-0.15906006,0.026718102,-7.56832e-06,0.026886761,0.0012702498,0.040690836,0.42116883,-1.4311056,1.9632787,-2.098719,-1.5743665,2.3907437,-0.16408259,0.25199136,-0.29847905,0.05564125,-0.026135115,-0.20448212,-0.30645782,0.095768064,-9.557653,0.91198283,47.701214,-0.96146214,-1.8168144,-3.5766077,-0.015505271,-0.19204661,-0.26848862,27.625,28.9375,27.9375,31.5625,33.625,34.375
0.32605383,-1.6456401,-0.09405482,-0.8560412,0.037261993,0.071420506,-0.15521438,-0.39814562,-0.32402065,0.05987924,-3.0758555,0.6155771,-0.00018945294,-0.15926285,0.02534072,0.0014018344,0.025659172,0.0033396555,0.04988537,0.42084554,-1.4306028,1.9627284,-2.0985863,-1.5743788,2.390333,-0.16171898,0.2510974,-0.30104604,0.056674633,-0.025903301,-0.21131127,-0.40222588,0.0,-9.634268,0.9701675,47.707485,-1.116786,-1.8861614,-3.5845518,-0.0022593555,-0.18230322,-0.17262234,27.625,28.9375,27.9375,31.5625,33.625,34.375
0.32805386,-1.1050453,0.35254827,-0.7797897,0.027936323,0.08563181,-0.16164155,-0.39847296,-0.3239772,0.05988184,-3.0758548,0.6153679,-0.00012504106,-0.15958555,0.025456691,0.0010426115,0.026829733,0.0006476719,0.047302864,0.42053366,-1.4300869,1.9621176,-2.098502,-1.5744389,2.389891,-0.16206305,0.2537312,-0.30409113,0.06000956,-0.02586554,-0.20907226,-0.45968673,-0.076614454,-9.653421,0.8940802,47.731667,-1.130559,-1.8649371,-3.6065311,0.002514979,-0.17354655,-0.14828272,27.625,28.9375,27.9375,31.5625,33.625,34.375
0.33005393,-0.5989743,0.2400837,-0.894762,0.034144606,0.08564547,-0.16624519,-0.39880317,-0.3239179,0.05988255,-3.0757954,0.61533964,-7.782194e-05,-0.16037183,0.024713296,0.0009702321,0.026914358,0.0015840846,0.041540034,0.42019805,-1.4295709,1.9615058,-2.0983946,-1.5745105,2.3895457,-0.16088644,0.25595543,-0.30641177,0.059291396,-0.02631756,-0.20212913,-0.40222588,-0.038307227,-9.595961,0.90750587,47.766594,-1.1959105,-2.0046437,-3.488582,0.019241955,-0.16366471,-0.21035182,27.625,28.9375,27.9375,31.5625,33.625,34.375
0.33205408,-0.52455133,0.109383814,-0.8784168,0.028057242,0.07107546,-0.16618775,-0.3991566,-0.32389337,0.05991763,-3.075828,0.6151967,2.466271e-05,-0.16121781,0.02591824,0.0005511184,0.028596424,-0.0005029107,0.034584194,0.41988483,-1.4290552,1.960812,-2.0982735,-1.5745472,2.3891394,-0.16319235,0.25797656,-0.30846542,0.06192109,-0.026979651,-0.19747725,-0.49799395,0.019153614,-9.481039,0.85826975,47.728977,-1.0752766,-2.0525007,-3.5043292,0.028750755,-0.1418448,-0.3086908,27.625,28.9375,27.9375,31.5625,33.625,34.375
0.334054,-0.80484354,0.088694766,-0.6942819,0.005652379,0.060529508,-0.16804703,-0.3994651,-0.32381675,0.0599114,-3.0757434,0.6150286,5.5126693e-05,-0.16250423,0.027364824,5.580877e-05,0.03025268,-0.0035176517,0.02741556,0.4195597,-1.4285635,1.9602374,-2.0981405,-1.5746549,2.3887205,-0.16656595,0.2609403,-0.3116386,0.06554545,-0.027265718,-0.19367862,-0.5363012,0.019153614,-9.5385,0.91198283,47.71554,-1.1412041,-2.0752437,-3.5473266,0.0025523915,-0.12348458,-0.38894016,27.625,28.9375,27.9375,31.5625,33.625,34.375
0.33605385,-0.6316894,-0.455949,-0.60154986,0.003064505,0.05875174,-0.16765729,-0.39978477,-0.32377803,0.05990541,-3.0757241,0.61483115,2.0208445e-05,-0.16116685,0.02717263,-0.0004952938,0.031533368,-0.0074541382,0.029859444,0.4192486,-1.4280118,1.9595908,-2.0979955,-1.5746912,2.388289,-0.1652243,0.2619423,-0.31256175,0.06956252,-0.026843576,-0.19478188,-0.4405331,-0.05746084,-9.576807,0.8672237,47.70659,-1.2586956,-2.1084728,-3.4205818,-0.032548845,-0.14421493,-0.40668988,27.625,28.9375,27.9375,31.5625,33.625,34.375
0.33805388,-0.37082544,-0.18461268,-0.52653897,-0.0059848167,0.05264857,-0.17622489,-0.4001369,-0.32374024,0.05992575,-3.0757172,0.6148235,9.434278e-05,-0.16144654,0.027151218,0.00069074106,0.03175026,-0.007355261,0.03670344,0.41891283,-1.4274851,1.9589204,-2.0978868,-1.5747274,2.3879497,-0.16506995,0.26103368,-0.3151518,0.073016874,-0.027098482,-0.20147127,-0.34476504,0.076614454,-9.500193,0.95226496,47.71554,-1.2847221,-2.0286136,-3.4421203,-0.051472634,-0.11985944,-0.36809653,27.625,28.9375,27.9375,31.5625,33.625,34.375
0.34005374,-0.77529734,-0.2553095,-0.16993098,-0.001959466,0.03634028,-0.17301424,-0.40043727,-0.32367274,0.059907384,-3.075655,0.614669,-1.6457883e-05,-0.16118059,0.027289929,0.0004205833,0.032675862,-0.010745218,0.048029006,0.41856512,-1.426958,1.9583215,-2.097706,-1.5747632,2.3875139,-0.16525419,0.26268542,-0.31746393,0.07708499,-0.0266249,-0.21298014,-0.22984336,0.1340753,-9.308657,0.9410752,47.72719,-1.3258595,-1.853654,-3.4374757,-0.09937985,-0.11487384,-0.26305103,27.625,28.9375,27.9375,31.5625,33.625,34.375
0.34205353,0.109935224,0.09077962,-0.22238742,0.0039972737,0.045974303,-0.18240555,-0.40079293,-0.32361284,0.05992547,-3.0756266,0.61450356,7.00065e-05,-0.16202591,0.02789891,0.0014088594,0.032193575,-0.011234739,0.05485776,0.41821736,-1.4264307,1.9576496,-2.097573,-1.5748466,2.3870668,-0.16728133,0.26211265,-0.31993327,0.08031226,-0.02601499,-0.221839,-0.15322891,0.11492168,-9.346964,0.8784135,47.70838,-1.2974126,-1.7850871,-3.472773,-0.1495623,-0.13285987,-0.14389867,27.625,28.9375,27.9375,31.5625,33.625,34.375
0.34405354,0.11863342,-0.110292,-0.26081476,0.007382062,0.028278898,-0.17199764,-0.40109876,-0.323571,0.059941646,-3.0756443,0.6142404,5.322908e-05,-0.16099343,0.02927518,0.0005840814,0.033394877,-0.015448514,0.052548934,0.41790515,-1.4259517,1.9570287,-2.0974042,-1.5748705,2.3865883,-0.16919476,0.26187602,-0.31863034,0.083571285,-0.025404574,-0.22144726,-0.095768064,0.076614454,-9.308657,0.9410752,47.698532,-1.2370118,-1.6665524,-3.5735662,-0.19896214,-0.117485836,-0.10381915,27.625,28.9375,27.9375,31.5625,33.625,34.375
0.34605396,0.116759785,-0.589239,-0.18959112,0.009109028,0.006604428,-0.16445364,-0.40145272,-0.32350913,0.059934836,-3.0756,0.6141587,4.4489345e-05,-0.16283481,0.030187747,0.00072637945,0.032796353,-0.016384399,0.042304307,0.41753262,-1.425376,1.9563583,-2.0972722,-1.5749182,2.3861709,-0.1727908,0.26390952,-0.32182035,0.08534661,-0.024479294,-0.21480058,-0.15322891,0.0,-9.232041,0.9925471,47.70032,-1.2259183,-1.5948851,-3.5956001,-0.25752556,-0.113311,-0.13834046,27.625,28.9375,27.9375,31.5625,33.625,34.375
0.3480539,0.7479767,-0.3509651,-0.311074,0.008360666,-0.0001661642,-0.16795123,-0.40177235,-0.32344604,0.059940778,-3.075546,0.61397743,6.940174e-05,-0.1645872,0.029090965,0.0021195079,0.031204894,-0.013764765,0.03351648,0.41720963,-1.4248726,1.9557356,-2.0971162,-1.5750016,2.385742,-0.17230695,0.26500416,-0.32651052,0.0859165,-0.024083316,-0.20552762,-0.076614454,0.05746084,-9.136273,0.93436235,47.705692,-1.1920552,-1.5970252,-3.5105677,-0.262967,-0.13436913,-0.24886522,27.625,28.9375,27.9375,31.5625,33.625,34.375
0.35005397,1.2537769,-0.037142012,-0.4625762,0.013775449,-0.0007156453,-0.1733284,-0.40212768,-0.32338446,0.059940957,-3.0754917,0.61391383,4.7776946e-05,-0.16680051,0.029012443,0.002186178,0.03024165,-0.012348206,0.023731785,0.4168376,-1.4242967,1.9550403,-2.0969493,-1.5750498,2.3853376,-0.17397845,0.26798576,-0.32993189,0.08468783,-0.023780337,-0.19741248,0.038307227,0.05746084,-9.212888,0.87393653,47.678825,-1.0793424,-1.6329019,-3.3167925,-0.2809768,-0.1111086,-0.3709324,27.625,28.9375,27.9375,31.5625,33.625,34.375
0.35205382,0.80492896,-0.26694775,-0.43748254,0.025571542,-0.00666098,-0.17013752,-0.40245324,-0.3233271,0.059954066,-3.0754538,0.6138491,2.8666218e-05,-0.16844977,0.028943025,0.0014136271,0.029388694,-0.011804953,0.018462257,0.4164899,-1.4237922,1.9543942,-2.0967705,-1.5750855,2.3849547,-0.17537563,0.27147332,-0.33169326,0.08212041,-0.023233185,-0.1935401,0.0,0.038307227,-9.232041,0.7978386,47.6636,-1.0145499,-1.8221304,-3.3214452,-0.28519803,-0.11442564,-0.48299843,27.625,28.9375,27.9375,31.5625,33.625,34.375
0.35405383,0.087898225,-0.34855452,-0.52014303,0.020460447,0.0034908308,-0.16918765,-0.40277928,-0.32327822,0.059956234,-3.0754158,0.6137042,7.6090805e-06,-0.17066255,0.028748248,0.0013181829,0.027923167,-0.010164063,0.01992626,0.41616577,-1.4232525,1.9537352,-2.096604,-1.5751337,2.3845453,-0.17706251,0.2744869,-0.33453795,0.079825334,-0.022594089,-0.19669093,0.0,0.19153614,-9.251196,0.9545008,47.68062,-0.9788296,-1.9189172,-3.3060803,-0.2734479,-0.14362627,-0.5298696,27.625,28.9375,27.9375,31.5625,33.625,34.375
0.3560535,-0.39682147,-0.90391827,-0.68905944,0.008369218,0.04378421,-0.1763286,-0.403107,-0.3232255,0.05996234,-3.07539,0.6135951,-3.8425143e-05,-0.17292659,0.029133325,0.0014717412,0.02623078,-0.007969128,0.030162456,0.4158175,-1.4227237,1.9530767,-2.0964253,-1.575157,2.3841326,-0.17981018,0.27609342,-0.3362661,0.07718224,-0.022001233,-0.2096754,-0.076614454,0.30645782,-9.32781,0.93436235,47.67345,-0.9430649,-1.7886273,-3.3485453,-0.27588198,-0.14617963,-0.4092824,27.625,28.9375,27.9375,31.5625,33.625,34.375
0.3580534,-1.1114483,-1.6242028,-0.9466559,-0.011348642,0.06367288,-0.16481896,-0.40345937,-0.3231561,0.05995623,-3.07533,0.61340076,-3.2792315e-05,-0.17310396,0.028775793,0.000649763,0.024965,-0.0069761435,0.0437928,0.41545826,-1.4221464,1.9523963,-2.0962708,-1.575241,2.38366,-0.17955455,0.27704114,-0.33471528,0.073174894,-0.021310946,-0.22305278,-0.05746084,0.2681506,-9.5385,0.8873621,47.668976,-1.0281677,-1.7915978,-3.5179257,-0.23550066,-0.14184186,-0.28792995,27.625,28.9375,27.9375,31.5625,33.625,34.375
0.3600544,-1.6786376,-2.1540902,-0.8379398,-0.05074536,0.08568673,-0.17013824,-0.40378433,-0.3231088,0.05996547,-3.0753093,0.61325735,-8.042993e-05,-0.17243704,0.028786335,-0.0006498617,0.026199263,-0.009222579,0.05113517,0.4151235,-1.4216172,1.9517268,-2.0960796,-1.5752653,2.3832388,-0.17868288,0.27910528,-0.33422935,0.073137134,-0.021571953,-0.22952151,-0.24899697,0.30645782,-9.557653,1.0507371,47.713753,-1.0191822,-1.8595095,-3.7242928,-0.20127651,-0.1417514,-0.16928041,27.625,28.9375,27.9375,31.5625,33.625,34.375
0.36205333,-2.0050373,-2.5392647,-0.63187176,-0.08491727,0.10410844,-0.15681252,-0.4041261,-0.3230268,0.05994731,-3.0752316,0.6131668,-0.00016698406,-0.17431994,0.02892636,5.971159e-05,0.024929589,-0.0060337037,0.04541021,0.41472715,-1.4210405,1.9510683,-2.0959003,-1.575313,2.3827963,-0.18017183,0.27943736,-0.33591577,0.07106309,-0.021718659,-0.22528177,-0.47884035,0.4213795,-9.615114,0.9791215,47.682407,-1.0023756,-1.83097,-3.806015,-0.1832762,-0.17176658,-0.15643597,27.625,28.9375,27.9375,31.5625,33.625,34.375
0.3640533,-1.4573456,-2.4386425,-0.97451127,-0.072677396,0.10085786,-0.169828,-0.40450245,-0.32298648,0.060004216,-3.0752912,0.6129904,1.093573e-05,-0.17693429,0.02811566,0.0020279346,0.022077704,0.00023462505,0.037515644,0.41437972,-1.4205601,1.9503616,-2.0957825,-1.5753611,2.3823314,-0.18067643,0.27874514,-0.33906898,0.06803953,-0.021602126,-0.21789283,-0.5363012,0.3256114,-9.595961,0.96569055,47.67614,-0.9199086,-1.7834654,-3.725913,-0.15730411,-0.15262079,-0.23492558,27.625,28.9375,27.9375,31.5625,33.625,34.375
0.36605415,-0.6240249,-1.4362421,-1.3317157,-0.06466359,0.08652928,-0.16392145,-0.40483698,-0.32293245,0.059968047,-3.0752156,0.6128225,-3.8069837e-05,-0.17791373,0.027440773,0.0024505227,0.021470428,0.0019184286,0.032815818,0.4140568,-1.4199358,1.9497026,-2.0956624,-1.5754331,2.3819137,-0.17996725,0.27993464,-0.34142417,0.06742399,-0.021733118,-0.21248028,-0.49799395,0.3256114,-9.80665,1.005978,47.672558,-1.0700854,-1.6143403,-3.717852,-0.14163142,-0.14853793,-0.33415923,27.625,28.9375,27.9375,31.5625,33.625,34.375
0.36805382,-1.0635215,-1.4388585,-1.277999,-0.054460853,0.067633696,-0.16679731,-0.40518722,-0.32287848,0.059971374,-3.0752132,0.6126472,-2.789363e-05,-0.17924471,0.025432471,0.0038361955,0.020350039,0.0059408965,0.034058377,0.41369855,-1.4193828,1.9490317,-2.0955307,-1.5754694,2.3814466,-0.17678852,0.28112328,-0.3459108,0.0665853,-0.022334708,-0.21053864,-0.45968673,0.40222588,-9.80665,0.97464454,47.698532,-1.2414,-1.5692992,-3.703381,-0.09246195,-0.173931,-0.39166424,27.625,28.9375,27.9375,31.5625,33.625,34.375
0.37005377,-1.028,-1.2697744,-1.1464003,-0.027195161,0.056367163,-0.16903634,-0.40558133,-0.32282344,0.060008965,-3.075231,0.6126461,0.00010288844,-0.18016396,0.024609536,0.0032293713,0.02126533,0.0055530732,0.039633177,0.41330343,-1.4188521,1.9483131,-2.095423,-1.5755056,2.381049,-0.17536347,0.28531468,-0.34947783,0.066650264,-0.023022855,-0.21468481,-0.4213795,0.30645782,-9.653421,0.94331104,47.699425,-1.3270817,-1.6567779,-3.5197387,-0.054040402,-0.18652055,-0.3903786,27.625,28.9375,27.9375,31.5625,33.625,34.375
0.37205392,-0.95748997,-0.78968936,-1.6362708,0.0057704733,0.054242034,-0.15765405,-0.40592757,-0.32279235,0.06001392,-3.0752437,0.6123918,0.0001113873,-0.18096216,0.025647089,0.00191418,0.022322742,0.0025541615,0.047614235,0.41299096,-1.4182746,1.9476074,-2.0952795,-1.5755419,2.3805764,-0.1778377,0.28878796,-0.3508299,0.06763364,-0.022827908,-0.22514026,-0.4213795,0.24899697,-9.844957,0.9701675,47.711063,-1.3066847,-1.8515166,-3.5549693,-0.04931029,-0.1848631,-0.27953994,27.625,28.9375,27.9375,31.5625,33.625,34.375
0.37405494,-0.3892375,-0.4419831,-1.3323878,0.0005689779,0.07859233,-0.17943263,-0.40628228,-0.3227197,0.05999716,-3.0752041,0.61226207,5.7027974e-05,-0.1810338,0.026077017,0.0006326061,0.023117205,-0.00082087127,0.057154354,0.41259566,-1.4176852,1.946937,-2.0951355,-1.5755771,2.3801055,-0.1788431,0.29187334,-0.35190064,0.06895873,-0.022254575,-0.23568702,-0.21068975,0.17238252,-9.787497,0.9835985,47.687782,-1.4329338,-1.8618542,-3.6799932,-0.031224892,-0.18265757,-0.15907606,27.625,28.9375,27.9375,31.5625,33.625,34.375
