Tylouw/Master_Thesis_Code/training_data/batch_1/big_rod_t0.3/sample_66_session_2.csv
timestamp[s],tcp_force_x[N],tcp_force_y[N],tcp_force_z[N],tcp_force_rx[Nm?],tcp_force_ry[Nm?],tcp_force_rz[Nm?],tcp_pose_x[m],tcp_pose_y[m],tcp_pose_z[m],tcp_pose_rx[rot_vec_x],tcp_pose_ry[rot_vec_y],tcp_pose_rz[rot_vec_z],tcp_velo_x[m/s],tcp_velo_y[m/s],tcp_velo_z[m/s],tcp_velo_rx[rot_vec_x/s],tcp_velo_ry[rot_vec_y/s],tcp_velo_rz[rot_vec_z/s],q1[rad],q2[rad],q3[rad],q4[rad],q5[rad],q6[rad],qd1[rad/s],qd2[rad/s],qd3[rad/s],qd4[rad/s],qd5[rad/s],qd6[rad/s],tool_acc_x,tool_acc_y,tool_acc_z,current_of_whole_robot[A],voltage_of_whole_robot[V],current_J1[A],current_J2[A],current_J3[A],current_J4[A],current_J5[A],current_J6[A],temp_J1[C],temp_J2[C],temp_J3[C],temp_J4[C],temp_J5[C],temp_J6[C]
8.000061e-07,-0.5429143,-1.1614214,0.22672148,-0.009085395,0.008265823,-0.0145501215,-0.3728801,-0.32822445,0.059931844,-3.07848,0.6248076,-0.00031179437,0.003411445,0.001640577,-0.004212737,0.00434872,-0.009309951,9.088048e-06,0.4481623,-1.4708374,2.0095737,-2.107691,-1.5706614,2.4230433,-7.057686e-05,0.0032235973,0.0058481568,0.0012026721,0.00012992704,-8.326478e-05,0.095768064,0.24899697,-8.963891,0.6478998,47.744205,-0.16347207,-2.7930796,-2.4810264,-0.48406094,0.13864124,-0.107376255,27.8125,29.0,28.0625,31.8125,33.75,34.625
0.002052378,-0.4540404,-0.7981004,0.23007838,-0.0016224725,0.0023220382,-0.026969181,-0.37286586,-0.3282088,0.059896603,-3.078428,0.62479705,-0.0003581849,0.00019248396,8.440925e-05,-0.0033406175,-0.000103464285,-0.00010195125,1.0418813e-05,0.4481623,-1.4708012,2.0096214,-2.1077192,-1.5706857,2.4230433,-7.123606e-05,0.003992876,0.005417096,-0.009363407,0.00012762388,-8.1751976e-05,0.05746084,0.22984336,-9.021352,0.74413085,47.717335,-0.13091737,-2.7945309,-2.4306548,-0.47434002,0.14064491,-0.09943393,27.8125,29.0,28.0625,31.8125,33.75,34.625
0.004052304,0.0049250475,-0.30419177,0.23970135,-0.003305912,0.011105349,-0.025084674,-0.37287518,-0.32822636,0.059910435,-3.078482,0.6248279,-0.00033059303,-0.0014944575,-0.000731598,-0.0024707457,-0.0023821786,0.004615992,1.2130863e-05,0.4481623,-1.4708133,2.0096085,-2.107744,-1.5706495,2.4230556,-6.988078e-05,0.0039171674,0.004467723,-0.01357774,0.00012540123,-8.029322e-05,0.038307227,0.19153613,-8.963891,0.7083204,47.73883,-0.14970033,-3.0972488,-2.6096153,-0.35377243,0.13831928,-0.118489735,27.8125,29.0,28.0625,31.8125,33.75,34.625
0.006052484,-0.16255215,0.15933834,-0.06351091,0.012483,-0.013012983,-0.014871541,-0.3729039,-0.3282165,0.059930995,-3.0784862,0.62482804,-0.00019697398,-0.00074524694,-0.00036885616,-0.0015780235,-0.0012406519,0.0022689064,1.1139934e-05,0.44815025,-1.4708377,2.0095956,-2.1077769,-1.5706977,2.4230433,-6.855063e-05,0.0024125143,0.0027370784,-0.0077324915,0.00012325459,-7.888564e-05,0.019153614,0.095768064,-8.983045,0.68818194,47.734352,-0.12058691,-2.9895372,-2.5085053,-0.37912077,0.13525656,-0.10027796,27.8125,29.0,28.0625,31.8125,33.75,34.625
0.008051713,-0.26632363,0.6158694,-0.3652153,0.036817297,-0.043814164,-0.010641192,-0.37286723,-0.32821822,0.059895873,-3.0784533,0.6248412,-0.0003522699,4.438886e-06,-5.956155e-06,-0.0011669347,-0.00019170051,0.000109906316,1.0146038e-05,0.4481623,-1.4708022,2.0096314,-2.1077516,-1.5706614,2.4230676,-6.726959e-05,0.0014253136,0.0019167202,-0.0035246057,0.000121180135,-7.752667e-05,0.0,0.17238252,-9.002198,0.7665104,47.723602,-0.13304397,-2.9693587,-2.4018784,-0.42742246,0.13704702,-0.10859322,27.8125,29.0,28.0625,31.8125,33.75,34.625
0.010051997,0.24641149,0.73126066,-0.5329679,0.048449434,-0.031760532,-0.023147833,-0.3728799,-0.32822016,0.05988187,-3.0784433,0.62487775,-0.00041950765,0.00021639667,9.585057e-05,-0.0010547108,0.0002704455,-0.00084524683,9.909639e-06,0.4481382,-1.4707423,2.0095952,-2.1077397,-1.5706376,2.4230676,-6.603568e-05,0.0013786205,0.0013220408,-0.0018221455,0.0001211301,-7.621364e-05,0.038307227,0.11492168,-9.251196,0.7486078,47.699425,-0.6199909,-2.4082634,-3.0448008,-0.4426977,0.1255014,-0.1672595,27.8125,29.0,28.0625,31.8125,33.75,34.625
0.012052011,-0.24260601,0.043298755,-0.82430345,0.023052469,-0.021212375,-0.019586792,-0.3728587,-0.32818612,0.059853878,-3.078362,0.6248615,-0.00046560116,5.278718e-05,9.9612254e-05,-0.0032090733,0.002367241,-0.0051586395,-0.000101589336,0.4481261,-1.4707407,2.0096548,-2.1077273,-1.5706857,2.4230556,-0.00021064687,0.0073692086,-0.00043691555,-0.0012577187,9.7785975e-05,-0.00010744476,0.05746084,0.076614454,-9.423578,0.79560274,47.71554,-0.735919,-2.2443457,-3.191835,-0.44077617,0.123389855,-0.20006019,27.8125,29.0,28.0625,31.8125,33.75,34.625
0.01405203,-0.84279925,-1.0148196,-0.9617238,-0.008299125,0.0071188174,-0.015793331,-0.37288052,-0.32819062,0.059876163,-3.0783777,0.6248095,-0.0004244967,-0.005764439,0.002256143,-0.003852602,0.0027459306,-0.005973922,-0.0057246163,0.4481228,-1.4707373,2.0095918,-2.1076915,-1.5706977,2.423018,-0.009563666,0.015569157,-0.008018878,-0.0009775627,9.246963e-05,-0.0038316436,-0.095768064,0.095768064,-9.519346,0.75084364,47.677036,-0.35641098,-2.950431,-2.9631758,-0.43943286,0.117683776,-0.23205608,27.8125,29.0,28.0625,31.8125,33.75,34.625
0.016051695,-1.2267195,-1.6061239,-1.0089731,-0.040574282,0.04029277,-0.036214747,-0.37287724,-0.3281957,0.059861615,-3.0783756,0.6249595,-0.0005539767,-0.006221008,0.002633391,-0.0035231588,0.002566631,-0.005604318,9.957006e-05,0.4480865,-1.4707016,2.0095804,-2.1076672,-1.5706257,2.4230754,-0.0106865605,0.015103723,-0.008352461,-0.0005898945,8.997517e-05,-0.010778714,-0.3256114,0.21068975,-9.595961,0.7642693,47.756744,-0.37149715,-2.7787848,-3.0202127,-0.4593458,0.12861708,-0.14753985,27.8125,29.0,28.0625,31.8125,33.75,34.625
0.018052217,-1.8520491,-1.6921827,-0.89677596,-0.06993367,0.08429497,-0.046373516,-0.37285858,-0.32820395,0.059839316,-3.078387,0.6248059,-0.00062500045,-0.005025303,0.002532902,-0.0037985933,0.0031418775,-0.006788682,0.003252708,0.44811088,-1.4706658,2.0095923,-2.1076672,-1.5706137,2.4230025,-0.00940775,0.014325253,-0.007047416,0.00020012651,8.7769426e-05,-0.012654184,-0.38307226,0.28730422,-9.749189,0.75084364,47.707485,-0.55068356,-2.5986724,-3.4182878,-0.46193364,0.1264342,-0.12886114,27.8125,29.0,28.0625,31.8125,33.75,34.625
0.020052237,-2.1208973,-1.6063511,-0.9194467,-0.067294784,0.10560131,-0.05441968,-0.37288302,-0.3281922,0.059857823,-3.0783758,0.62488186,-0.0005853889,-0.005604894,0.0027949393,-0.0045545944,0.0038840887,-0.00841268,0.0022815203,0.44807467,-1.470677,2.0095565,-2.107643,-1.5706257,2.423015,-0.010451794,0.016988192,-0.008326222,0.00060094777,0.00012056751,-0.01272603,-0.40222588,0.34476504,-9.749189,0.784413,47.723602,-0.67224884,-2.4526086,-3.5130806,-0.45285887,0.11901346,-0.15475938,27.8125,29.0,28.0625,31.8125,33.75,34.625
0.022052117,-2.8158274,-1.6938239,-0.9226846,-0.030965475,0.080177926,-0.057055537,-0.37287617,-0.32818836,0.059825573,-3.0783594,0.6247832,-0.00065962475,-0.008413857,0.003015918,-0.002953745,0.002716961,-0.006038615,-2.8151377e-05,0.44807357,-1.4706167,2.009567,-2.1076543,-1.5706257,2.4229546,-0.013435158,0.017830398,-0.013248659,0.0020356954,0.00013560627,-0.013397094,-0.49799395,0.3256114,-9.883265,0.7665104,47.728977,-0.64923155,-2.431045,-3.3707337,-0.46915877,0.113281325,-0.15935028,27.8125,29.0,28.0625,31.8125,33.75,34.625
0.024052577,-2.1812413,-0.9677203,-0.994525,-0.012872579,0.07490045,-0.07918042,-0.3729162,-0.32817551,0.059830334,-3.0783384,0.6248168,-0.00059562473,-0.009209017,0.0031538634,-0.003450119,0.0029374405,-0.0064699757,-8.8364024e-05,0.44803724,-1.4705802,2.0095189,-2.1076667,-1.5706614,2.422942,-0.014407685,0.019952971,-0.014307022,0.0014552203,0.0001197328,-0.014308228,-0.6512228,0.28730422,-9.864111,0.7486078,47.70211,-0.7261188,-2.5421388,-3.3564444,-0.4759001,0.10936092,-0.17488834,27.8125,29.0,28.0625,31.8125,33.75,34.625
0.026051983,-1.9173454,-1.3077594,-1.0452056,0.0011672798,0.06630125,-0.08291737,-0.3729299,-0.32817325,0.059810735,-3.078316,0.6248326,-0.00066608546,-0.01075101,0.0035995445,-0.002910785,0.0022061742,-0.004929146,-0.0015807077,0.44801235,-1.4705082,2.0094821,-2.1076548,-1.5706495,2.4229298,-0.016639069,0.020226931,-0.015715098,0.0008839185,0.000105773775,-0.015046189,-0.7661445,0.2681506,-9.787497,0.7351769,47.686886,-0.7548484,-2.4630172,-3.373362,-0.47402608,0.12440143,-0.17141148,27.8125,29.0,28.0625,31.8125,33.75,34.625
0.028052079,-1.6821464,-0.93914866,-1.1561254,-0.017767744,0.06609021,-0.10178334,-0.37296012,-0.3281623,0.05980116,-3.078317,0.62483263,-0.0006644257,-0.011574237,0.0035085718,-0.0019396608,0.0012618805,-0.0028418016,-0.0008710276,0.44796425,-1.4704605,2.0094573,-2.1076791,-1.5706495,2.4228816,-0.017176427,0.019160315,-0.016723873,0.0006689482,4.9136936e-05,-0.01629261,-0.842759,0.114921674,-9.730036,0.7709874,47.684196,-0.7505977,-2.3212068,-3.4011955,-0.45869386,0.104873806,-0.19179511,27.8125,29.0,28.0625,31.8125,33.75,34.625
0.030051932,-1.6716851,-0.948896,-0.8111708,-0.013091088,0.07483832,-0.11704079,-0.37298733,-0.32816893,0.059822224,-3.0783381,0.62487537,-0.0006039642,-0.013284067,0.0032100466,-0.0015471195,0.0006761967,-0.001534051,-0.0006839415,0.44795194,-1.4704598,2.0094082,-2.1076791,-1.5706495,2.4228933,-0.018139701,0.021227771,-0.019794255,0.00023947419,3.2082908e-06,-0.017440572,-0.68953013,0.038307227,-9.844957,0.779936,47.71554,-0.698452,-2.3794518,-3.3415136,-0.42801166,0.1036842,-0.1787762,27.8125,29.0,28.0625,31.8125,33.75,34.625
0.032051858,-1.5679713,-0.572631,-0.6034249,-0.0077685416,0.08685892,-0.12797064,-0.3730161,-0.3281551,0.059803586,-3.0783076,0.6249654,-0.00066012563,-0.014329962,0.0031403133,-0.0015611291,0.0006240561,-0.0014311319,-0.00072729914,0.44789162,-1.4703873,2.0093715,-2.1076791,-1.5706376,2.422893,-0.018957483,0.023104047,-0.021832721,0.00028643236,2.0947846e-07,-0.018213484,-0.7469909,0.11492168,-9.730036,0.784413,47.686886,-0.78799057,-2.3981447,-3.3522878,-0.42733848,0.09449081,-0.17310974,27.8125,29.0,28.0625,31.8125,33.75,34.625
0.034052115,-2.313137,-0.13870652,-0.60528755,0.009938747,0.06812118,-0.14436275,-0.3730316,-0.32817087,0.05980388,-3.0783212,0.62481517,-0.00066377444,-0.01526251,0.0032260441,-0.0013835789,0.00039611317,-0.00096295524,-0.0023589404,0.44791526,-1.4703274,2.0092995,-2.1076553,-1.5706495,2.4228213,-0.01996713,0.024048181,-0.023270998,0.00025973463,1.3677446e-08,-0.01759047,-0.5554548,0.038307227,-9.557653,0.78217715,47.687782,-0.74033636,-2.3177686,-3.3658276,-0.41874894,0.10171987,-0.16555181,27.8125,29.0,28.0625,31.8125,33.75,34.625
0.036052316,-1.8032675,0.0813519,-0.48973164,0.032866817,0.05921527,-0.15358873,-0.37308195,-0.32816312,0.059816502,-3.078356,0.62482274,-0.00059026625,-0.016432581,0.0032156836,-0.0007786429,-0.00023426091,0.00034309828,-0.0038714549,0.44785485,-1.4703033,2.0092523,-2.107691,-1.5706495,2.4227612,-0.021009056,0.02443582,-0.025076812,0.00022775948,8.9303953e-10,-0.017118728,-0.4213795,0.095768064,-9.519346,0.784413,47.690468,-0.692999,-2.3355083,-3.359315,-0.40793934,0.0861637,-0.17783725,27.8125,29.0,28.0625,31.8125,33.75,34.625
0.038052306,-1.4916213,-0.06705018,-0.59527594,0.04983936,0.029333515,-0.16030066,-0.37313616,-0.3281529,0.059821006,-3.078339,0.624936,-0.0005473559,-0.017849503,0.0033494725,2.7087277e-05,-0.0010499005,0.0020325205,-0.0053123855,0.44779438,-1.4702432,2.0091789,-2.107703,-1.5706614,2.4227736,-0.022545744,0.024512859,-0.0270045,0.00020218578,5.83091e-11,-0.017213311,-0.30645782,-0.095768064,-9.423578,0.73069996,47.71465,-0.7668857,-2.3263702,-3.3011851,-0.4187793,0.08176672,-0.18394296,27.8125,29.0,28.0625,31.8125,33.75,34.625
0.040052447,-0.45808762,0.41051024,-0.6211121,0.045694023,0.020696338,-0.1805955,-0.3731791,-0.32812005,0.05980824,-3.0782952,0.6249846,-0.0005536493,-0.018934261,0.0034058595,0.00053019536,-0.0015778503,0.0031221379,-0.005439246,0.44770998,-1.4701831,2.0091422,-2.107703,-1.5706857,2.4227252,-0.023635006,0.024928099,-0.02861066,0.00018174002,3.8071673e-12,-0.01817468,-0.22984336,-0.05746084,-9.442732,0.8090337,47.729877,-0.68781984,-2.2090473,-3.2523866,-0.40111852,0.093338706,-0.18581009,27.8125,29.0,28.0625,31.8125,33.75,34.625
0.042052668,-1.1030058,-0.45166034,-0.62918586,0.05737241,-0.021772545,-0.18590604,-0.37318522,-0.32812104,0.059806254,-3.0783217,0.6250093,-0.00061522203,-0.020071,0.003374299,0.00066191814,-0.0017854116,0.0035426961,-0.0053476836,0.44767368,-1.4701706,2.0091302,-2.107691,-1.5706376,2.422701,-0.02460886,0.026500028,-0.030634131,0.00016505305,2.485808e-13,-0.019238628,-0.095768064,-0.1340753,-9.481039,0.76874626,47.72629,-0.72067094,-2.2205267,-3.3535047,-0.3679492,0.07075697,-0.16918924,27.8125,29.0,28.0625,31.8125,33.75,34.625
0.044051565,-0.5903159,-0.6087601,-0.6863656,0.033735655,-0.020578142,-0.19152577,-0.37322912,-0.3281272,0.05980135,-3.0783284,0.6249914,-0.0006406229,-0.021257643,0.003596665,0.0006452827,-0.0018311713,0.0036281785,-0.0061734044,0.44763723,-1.4700742,2.009033,-2.1076791,-1.5706257,2.4226525,-0.026103511,0.028188167,-0.032460533,0.00020660003,1.623055e-14,-0.019906214,-0.095768064,-0.076614454,-9.461885,0.7597976,47.716442,-0.70574975,-2.260249,-3.29111,-0.36652237,0.07343468,-0.15710399,27.8125,29.0,28.0625,31.8125,33.75,34.625
0.046051826,-0.52356386,-0.9734196,-0.5406851,0.008725304,-0.0074007786,-0.20792545,-0.373298,-0.32811975,0.05981101,-3.0783305,0.62503093,-0.00055862335,-0.022337819,0.0036933394,0.0010581794,-0.0021953543,0.0043812874,-0.0066589992,0.44757673,-1.470002,2.0089371,-2.107703,-1.5706495,2.4226165,-0.027262334,0.028875828,-0.034216557,0.0004378597,1.059739e-15,-0.02057835,0.0,0.05746084,-9.461885,0.76874626,47.701214,-0.63157237,-2.241064,-3.305882,-0.3561488,0.07568748,-0.17095886,27.8125,29.0,28.0625,31.8125,33.75,34.625
0.04805198,-0.59906745,-1.1226983,-0.6437105,-0.0002467799,0.00503272,-0.20469822,-0.3733072,-0.32810497,0.05977707,-3.0782657,0.62505597,-0.00067988073,-0.022776281,0.004051866,0.0013076894,-0.0018634516,0.0036865815,-0.006520713,0.44754046,-1.4699062,2.0089014,-2.1076663,-1.5706495,2.422604,-0.028334133,0.029211706,-0.035567794,0.0022229678,6.919338e-17,-0.021788105,-0.05746084,0.1340753,-9.461885,0.683705,47.69763,-0.6473013,-2.1038122,-3.358553,-0.35319957,0.06553191,-0.1571848,27.8125,29.0,28.0625,31.8125,33.75,34.625
0.05005241,-0.46930686,-1.5323352,-0.82542485,8.310887e-05,0.012443448,-0.20432621,-0.37339878,-0.3280848,0.059810787,-3.0782578,0.6251693,-0.0005554059,-0.022936415,0.004761276,0.0012349758,-0.0009543689,0.0018036584,-0.006720143,0.44744384,-1.469858,2.0087683,-2.1076534,-1.5706857,2.4225793,-0.02980674,0.02974392,-0.036570173,0.0047830194,4.517833e-18,-0.023061352,0.076614454,0.19153613,-9.481039,0.7709874,47.711063,-0.6318552,-2.051764,-3.3462753,-0.3769598,0.07244038,-0.14206555,27.8125,29.0,28.0625,31.8125,33.75,34.625
0.052052353,-0.018927658,-1.2234623,-0.9044196,-0.0089586275,0.021994267,-0.1879353,-0.37343544,-0.32809627,0.059834126,-3.0783403,0.62512845,-0.0004995555,-0.023890734,0.004775382,0.0016013714,-0.0013651255,0.0026537292,-0.0055753463,0.44740757,-1.4698579,2.0087202,-2.1076777,-1.5706495,2.422507,-0.030696886,0.030337386,-0.038047872,0.0047236946,2.9498225e-19,-0.025095295,0.0,0.2873042,-9.481039,0.71951014,47.70838,-0.6223665,-2.0725052,-3.3999054,-0.38467675,0.06517506,-0.13815892,27.8125,29.0,28.0625,31.8125,33.75,34.625
0.05405234,-0.49755672,-1.7051971,-0.912708,-0.009165637,0.007288476,-0.1774329,-0.37346882,-0.3280673,0.059812818,-3.0782697,0.6251522,-0.00053906394,-0.025184192,0.0047669588,0.0018306036,-0.0018987403,0.003749083,-0.005560624,0.44734725,-1.4697737,2.008671,-2.1076539,-1.5706857,2.4224706,-0.031853266,0.031574927,-0.039766118,0.0039848825,1.9260232e-20,-0.026264962,0.019153614,0.3256114,-9.5385,0.784413,47.739727,-0.6488755,-1.9867373,-3.3905983,-0.3661589,0.05007711,-0.11986886,27.8125,29.0,28.0625,31.8125,33.75,34.625
0.05605166,-0.53089535,-1.5434853,-0.8140532,-0.027377903,0.0105636045,-0.193699,-0.3735093,-0.32806358,0.0598053,-3.0782838,0.62521243,-0.0006422402,-0.026135134,0.00486082,0.0017275328,-0.002116422,0.00419051,-0.005431566,0.44726282,-1.4696894,2.0085876,-2.107618,-1.5706257,2.422422,-0.03288866,0.03293394,-0.040849525,0.00321857,1.2575554e-21,-0.027428329,0.0,0.34476504,-9.576807,0.78888994,47.74062,-0.617444,-1.9922042,-3.4388962,-0.34245318,0.04660106,-0.10413504,27.8125,29.0,28.0625,31.8125,33.75,34.625
0.058052555,-0.4588324,-1.7007796,-0.9366572,-0.038086027,0.01481482,-0.18145175,-0.3735768,-0.32805097,0.059830338,-3.0782955,0.6251953,-0.00053210184,-0.02749849,0.005101391,0.0021354754,-0.0018736174,0.005252219,-0.005294902,0.44720235,-1.4696531,2.0084903,-2.1076176,-1.5706619,2.4223495,-0.034112252,0.034031678,-0.043047346,0.0034676082,-0.00068094616,-0.0287858,-0.05746084,0.30645782,-9.576807,0.8224646,47.71554,-0.6312642,-1.9500043,-3.4412043,-0.34412986,0.07466115,-0.09784603,27.8125,29.0,28.0625,31.8125,33.75,34.625
0.060051672,-1.0722181,-1.589599,-1.0210049,-0.034213472,0.011262599,-0.1745189,-0.37363157,-0.32805428,0.059837416,-3.078332,0.62518317,-0.00052674854,-0.02763747,0.0052324194,0.0018594379,-0.0011971678,0.003793751,-0.004910274,0.4471423,-1.4695807,2.0083945,-2.1076171,-1.5706376,2.4222772,-0.034494918,0.03538898,-0.044234976,0.0049059996,-0.0006589262,-0.029552653,-0.11492168,0.2681506,-9.595961,0.7709874,47.70032,-0.65391576,-2.017959,-3.4719372,-0.34745753,0.065164186,-0.09143105,27.8125,29.0,28.0625,31.8125,33.75,34.625
0.062051702,-1.2840294,-1.2876419,-0.7681361,-0.022557484,0.014400436,-0.18156394,-0.37369367,-0.32802442,0.059817813,-3.0782874,0.62523144,-0.00053579046,-0.028521577,0.0054101534,0.0023447636,-0.0012032149,0.0036171935,-0.004826725,0.4470459,-1.4694725,2.0083234,-2.107629,-1.5706614,2.4222167,-0.035679173,0.036087845,-0.04651537,0.0066428855,-0.00057909323,-0.030819643,-0.15322891,0.30645782,-9.500193,0.779936,47.704796,-0.6952108,-1.8861377,-3.4380174,-0.37153724,0.05471486,-0.075249754,27.8125,29.0,28.0625,31.8125,33.75,34.625
0.064052545,-1.5882632,-1.6022769,-0.8117922,-0.0027000327,0.0200928,-0.16938342,-0.37374347,-0.32803792,0.059845697,-3.078328,0.6252774,-0.00049717445,-0.028872171,0.005091922,0.0023615134,-0.0012509344,0.0035614795,-0.003143235,0.44700992,-1.4694363,2.0082142,-2.1076052,-1.5706376,2.4222043,-0.035439264,0.037167814,-0.047792114,0.006869566,-0.00051324046,-0.032262515,-0.15322891,0.28730422,-9.461885,0.7597976,47.723602,-0.6689637,-1.9480953,-3.3901381,-0.37015712,0.055025853,-0.046407923,27.8125,29.0,28.0625,31.8125,33.75,34.625
0.0660524,-1.5643272,-1.4661211,-0.6569772,0.0071778246,0.032719973,-0.1745963,-0.37382707,-0.32803115,0.059866536,-3.0783405,0.6252617,-0.0004165406,-0.030076854,0.0053335335,0.0018733448,-0.0010964536,0.0031107387,-0.0047677755,0.4469375,-1.4693516,2.0080707,-2.1075928,-1.5706614,2.4221206,-0.0370149,0.039817687,-0.049471665,0.0063715004,-0.0004606319,-0.03221217,-0.15322891,0.28730422,-9.423578,0.7709874,47.704796,-0.69384307,-1.8593296,-3.4816718,-0.35213116,0.046489514,-0.04907932,27.8125,29.0,28.0625,31.8125,33.75,34.625
0.06805247,-1.608916,-1.2818103,-0.69754684,0.01139529,0.038691115,-0.1706009,-0.37387526,-0.3280181,0.059855822,-3.0783522,0.6253042,-0.0004377564,-0.03133985,0.0051000062,0.0023212987,-0.0017156826,0.00429324,-0.0064160065,0.4468531,-1.469279,2.008021,-2.1076171,-1.5706376,2.4220612,-0.037744403,0.0409805,-0.051722586,0.0061263307,-0.00041780155,-0.03129193,-0.28730422,0.21068975,-9.5385,0.78217715,47.70211,-0.69210196,-1.9561536,-3.4014232,-0.34326854,0.051543947,-0.06346628,27.8125,29.0,28.0625,31.8125,33.75,34.625
0.07005249,-1.3335466,-0.7142902,-0.3878761,0.002318517,0.03763474,-0.18613815,-0.3739466,-0.32801628,0.059858665,-3.078343,0.6253022,-0.00042725416,-0.03223328,0.0049242326,0.0024506643,-0.0016898663,0.0042798663,-0.007152632,0.44679296,-1.469159,2.007877,-2.1075928,-1.5706495,2.4220011,-0.038203664,0.0426505,-0.054002296,0.0067589832,-0.00043831833,-0.031013092,-0.24899697,0.15322891,-9.404425,0.7642693,47.684196,-0.7054471,-1.9249282,-3.3765645,-0.35289052,0.03792961,-0.074401885,27.8125,29.0,28.0625,31.8125,33.75,34.625
0.07205237,-1.5032156,-0.92526966,-0.40172526,0.014162085,0.029795945,-0.17924245,-0.37398952,-0.32797927,0.059840992,-3.0782757,0.6253065,-0.00046828276,-0.0327782,0.0049838047,0.0023617172,-0.0014241602,0.0036774767,-0.006078398,0.44670895,-1.4690745,2.0078166,-2.1075566,-1.5706857,2.4219284,-0.038816314,0.044014037,-0.055474404,0.0075241057,-0.00042144107,-0.03269912,-0.19153613,0.095768064,-9.461885,0.7620334,47.691364,-0.8041239,-1.9396863,-3.4290118,-0.345366,0.032095306,-0.079461664,27.8125,29.0,28.0625,31.8125,33.75,34.625
0.074052215,-1.2744141,-0.61522794,-0.5051686,0.01854037,0.027886165,-0.17437305,-0.37407818,-0.32799208,0.05988015,-3.0783436,0.62536037,-0.00037185763,-0.033734273,0.0054251156,0.0019952096,-0.0011185362,0.0030460362,-0.007272445,0.4466362,-1.4690142,2.0076606,-2.1075566,-1.5706614,2.4218807,-0.0405012,0.045912527,-0.056736235,0.007589669,-0.00042366303,-0.03318896,-0.30645782,0.11492168,-9.442732,0.7777002,47.687782,-0.7493759,-1.9054344,-3.4274235,-0.35421407,0.025466148,-0.051991854,27.8125,29.0,28.0625,31.8125,33.75,34.625
0.0760525,-1.4450487,-0.63540316,-0.47690347,0.016525835,0.020863883,-0.16929176,-0.37415582,-0.32797617,0.059879843,-3.0783389,0.62543553,-0.00038207448,-0.03615942,0.004850872,0.0037089845,-0.0028819372,0.0067086685,-0.007749781,0.44652784,-1.4689062,2.00754,-2.1075451,-1.5706495,2.42182,-0.04160797,0.046328973,-0.061100602,0.007472844,-0.00042421592,-0.033815697,-0.3256114,0.095768064,-9.3661175,0.7597976,47.70838,-0.76475275,-1.8745768,-3.2905922,-0.3253028,0.023668148,-0.06596866,27.8125,29.0,28.0625,31.8125,33.75,34.625
0.078052446,-1.4435793,-0.7184217,-0.5069306,0.02762494,0.030175341,-0.16721505,-0.37422553,-0.3279668,0.059902713,-3.0783336,0.6253379,-0.00030837787,-0.035327487,0.005377285,0.0017064943,-0.00079076283,0.0024143134,-0.006348812,0.44647968,-1.4688332,2.0073965,-2.107497,-1.5706977,2.4217117,-0.041819535,0.049575876,-0.060229585,0.008129433,-0.00045230216,-0.035428394,-0.36391866,0.11492168,-9.385271,0.800085,47.70838,-0.7482451,-1.9056079,-3.3870173,-0.32618576,0.016078094,-0.04842619,27.8125,29.0,28.0625,31.8125,33.75,34.625
0.08005246,-1.5149354,-0.013381902,-0.17803153,0.005959968,0.031141428,-0.17972709,-0.37428832,-0.3279634,0.05988104,-3.0783317,0.6254335,-0.0003988724,-0.03590136,0.005135672,0.0018412364,-0.0008556346,0.0024213705,-0.0072315675,0.44638377,-1.4686891,2.0072877,-2.107497,-1.5706495,2.4216757,-0.0419118,0.050734937,-0.06193675,0.00864477,-0.00039997447,-0.03463695,-0.4213795,0.1340753,-9.3661175,0.72622824,47.68599,-0.8534191,-1.9354095,-3.4164176,-0.32878062,-0.0018006172,-0.043945517,27.8125,29.0,28.0625,31.8125,33.75,34.625
0.08205261,-0.9261826,-0.23808572,-0.28356132,0.0094098225,0.049889747,-0.18046759,-0.37434834,-0.3279405,0.059880912,-3.0783002,0.6254112,-0.00037819016,-0.039032094,0.0049339975,0.004565801,-0.0032946873,0.0075504323,-0.011306344,0.44631085,-1.4686058,2.007191,-2.1074727,-1.5706857,2.421593,-0.04434245,0.049516093,-0.06698037,0.009226882,-0.00042259748,-0.03299014,-0.34476504,0.11492168,-9.270349,0.7709874,47.68062,-0.79589826,-1.8301952,-3.3603973,-0.3440795,0.001975009,-0.08574053,27.8125,29.0,28.0625,31.8125,33.75,34.625
0.084052965,-1.1763533,-0.5111686,-0.42668962,0.015247029,0.038606945,-0.17643054,-0.37443933,-0.32795244,0.05991997,-3.0783741,0.6254835,-0.00029324007,-0.039412394,0.0057369727,0.0034409366,-0.0022445456,0.0054428093,-0.012019894,0.44622642,-1.4685448,2.0070345,-2.1074727,-1.5706495,2.4215443,-0.04616043,0.051856447,-0.06697816,0.0092399195,-0.0004568364,-0.034094185,-0.28730422,0.19153613,-9.289503,0.800085,47.67345,-0.80883694,-1.8024538,-3.1930099,-0.3229667,0.0046438207,-0.10435417,27.8125,29.0,28.0625,31.8125,33.75,34.625
0.08605259,-1.0728405,-0.6452262,-0.2871679,0.00066321087,0.03704611,-0.18430685,-0.37451363,-0.3279261,0.059907027,-3.0783134,0.62554824,-0.0003594271,-0.039896958,0.0065675955,0.0018206786,-0.00050482096,0.0018709931,-0.012567949,0.44611767,-1.4683998,2.006891,-2.1074126,-1.5706614,2.4214838,-0.04812981,0.055947244,-0.067965604,0.0101089,-0.00048733436,-0.035514455,-0.36391866,0.095768064,-9.385271,0.7530795,47.685097,-0.70452917,-1.8765934,-3.4327726,-0.32230216,0.0044388506,-0.09167055,27.8125,29.0,28.0625,31.8125,33.75,34.625
0.08805305,-1.4514053,-1.1767788,-0.42174727,0.0018179287,0.03613105,-0.16969235,-0.3746,-0.32790786,0.059907153,-3.0782902,0.62560076,-0.00032133065,-0.041127607,0.0057225907,0.00282317,-0.001052061,0.0038635703,-0.011485561,0.44602197,-1.4682795,2.0067585,-2.107412,-1.5706862,2.421424,-0.0473926,0.05692125,-0.071449116,0.010585061,-0.0008590332,-0.03585687,-0.40222588,0.095768064,-9.32781,0.7530795,47.68062,-0.76428556,-1.9454002,-3.248002,-0.3308054,0.0022346843,-0.10751201,27.8125,29.0,28.0625,31.8125,33.75,34.625
0.0900526,-1.2337141,-0.82947695,-0.48735574,-0.008714336,0.04103167,-0.17717354,-0.37468043,-0.32790837,0.05991935,-3.0783446,0.62559265,-0.00030921775,-0.042195607,0.005622247,0.0042456277,-0.0021649685,0.006399867,-0.012142597,0.44592565,-1.4681844,2.006626,-2.107412,-1.57065,2.4213157,-0.048094213,0.055429865,-0.073178954,0.011039578,-0.00094978424,-0.035900664,-0.40222588,0.11492168,-9.404425,0.8493211,47.71823,-0.8873239,-1.7297871,-3.1970983,-0.32720846,-0.012974611,-0.11860685,27.8125,29.0,28.0625,31.8125,33.75,34.625
0.09205287,-1.3566916,-1.245835,-0.6817689,-0.0040653367,0.043910135,-0.17507383,-0.37475067,-0.32789272,0.05992401,-3.0783205,0.6255891,-0.00032924375,-0.043172173,0.006493896,0.002856778,-0.00088389195,0.0036274397,-0.014707518,0.44584078,-1.468075,2.0064814,-2.107352,-1.5706619,2.4212317,-0.050630786,0.05945045,-0.07450218,0.011395432,-0.00091243087,-0.03587105,-0.30645782,0.2681506,-9.442732,0.7709874,47.709274,-0.6865735,-1.8105781,-3.2288256,-0.34819183,-0.009321481,-0.12704432,27.8125,29.0,28.0625,31.8125,33.75,34.625
0.09405222,-1.1533251,-0.7967141,-0.58930373,-0.024054455,0.05253044,-0.1773653,-0.37485516,-0.32787892,0.059938356,-3.0783195,0.6257041,-0.00028445318,-0.044671427,0.00627777,0.0032352924,-0.0013935609,0.004675092,-0.015171471,0.44572037,-1.4679546,2.0063136,-2.1073406,-1.5706619,2.4211833,-0.05156604,0.06120508,-0.07727083,0.011244262,-0.00090885913,-0.036340434,-0.2681506,0.30645782,-9.442732,0.73741806,47.72002,-0.78083956,-1.9354318,-3.2050614,-0.34348348,-0.016880766,-0.15582663,27.8125,29.0,28.0625,31.8125,33.75,34.625
0.09605258,-1.3114994,-1.4911323,-0.5795602,-0.017759,0.048771463,-0.17415988,-0.3749441,-0.32786837,0.05994582,-3.078335,0.6257075,-0.00028315623,-0.044245694,0.007106482,0.0018039403,7.0556816e-05,0.0016454246,-0.015743818,0.44561213,-1.4678344,2.0061586,-2.1073163,-1.57065,2.4210753,-0.05271625,0.06310284,-0.07616647,0.011607334,-0.000920318,-0.036918767,-0.3256114,0.34476504,-9.385271,0.784413,47.723602,-0.77313364,-1.8270283,-3.2041788,-0.34178776,-0.044156462,-0.17053564,27.8125,29.0,28.0625,31.8125,33.75,34.625
0.09805325,-1.7717137,-1.2790499,-0.56202316,-0.028513666,0.033819858,-0.16801232,-0.37504864,-0.32784808,0.059963405,-3.0783029,0.6257968,-0.00021811982,-0.04486907,0.0070526213,0.0016356411,0.00029895792,0.001570722,-0.015700616,0.445504,-1.4677141,2.0059779,-2.1072805,-1.5706862,2.4210272,-0.05304393,0.06463549,-0.07745491,0.011528107,-0.0010961968,-0.03728834,-0.3256114,0.30645782,-9.385271,0.7597976,47.73077,-0.78454554,-1.9504049,-3.3092408,-0.33941907,-0.04502625,-0.17648599,27.8125,29.0,28.0625,31.8125,33.75,34.625
0.10005404,-1.1532574,-1.6958688,-0.6473266,-0.017937465,0.045668714,-0.17652828,-0.37513307,-0.3278244,0.05995394,-3.0782592,0.6259039,-0.00026213922,-0.047938157,0.006177136,0.0033523557,-0.0008154747,0.005866358,-0.015397858,0.44538364,-1.4675696,2.0058324,-2.1072443,-1.5706867,2.4209793,-0.0535751,0.06663435,-0.083534315,0.011254795,-0.001956037,-0.03811668,-0.21068975,0.24899697,-9.404425,0.7553206,47.74868,-0.83322656,-1.8768921,-3.1232395,-0.34802693,-0.015713515,-0.19834015,27.8125,29.0,28.0625,31.8125,33.75,34.625
0.1020523,-0.87802076,-1.2128171,-0.465013,-0.02400594,0.043024074,-0.17685898,-0.37524244,-0.32780877,0.059960596,-3.0782704,0.62594444,-0.00019244997,-0.0469424,0.006942515,0.001499951,0.0010791505,0.002462564,-0.015014651,0.44526356,-1.4674371,2.005677,-2.107268,-1.5706986,2.4208832,-0.053936128,0.06855181,-0.08135925,0.0110502625,-0.0021935427,-0.038861535,-0.24899697,0.2681506,-9.461885,0.7038487,47.71554,-0.83062303,-1.987689,-3.2579544,-0.34744412,-0.017735569,-0.21507609,27.8125,29.0,28.0625,31.8125,33.75,34.625
0.10405247,-0.90728956,-1.2203152,-0.5306712,-0.013992781,0.028757978,-0.17050095,-0.3753313,-0.32781085,0.059948657,-3.078263,0.62592286,-0.00024849153,-0.049333267,0.006375355,0.0023676467,-0.0004025793,0.0054939995,-0.013952364,0.44517916,-1.467245,2.0054848,-2.1072328,-1.5706867,2.4207864,-0.055025984,0.07042953,-0.085076146,0.009515246,-0.002174949,-0.041010715,-0.22984336,0.24899697,-9.3661175,0.7642693,47.723602,-0.96417934,-1.9312389,-3.1841137,-0.34448653,-0.022470277,-0.22197852,27.8125,29.0,28.0625,31.8125,33.75,34.625
0.10605255,-1.0160831,-1.5672301,-0.48968664,-0.0030456858,0.014516471,-0.17339142,-0.37543228,-0.327774,0.059960227,-3.0782192,0.6260479,-0.00022583081,-0.050775122,0.006532252,0.0021779127,-0.0008935564,0.0058045248,-0.01374273,0.44503462,-1.4671363,2.005328,-2.1071851,-1.5707101,2.4207256,-0.056807343,0.07261327,-0.08684302,0.008604013,-0.0018711819,-0.043000616,-0.11492168,0.2681506,-9.442732,0.7665104,47.71465,-0.8320652,-1.9854293,-3.1375878,-0.31690082,-0.032388173,-0.2254279,27.8125,29.0,28.0625,31.8125,33.75,34.625
0.108051814,-0.2747571,-0.639896,-0.41107687,-0.016800007,0.019934945,-0.18310674,-0.37555367,-0.3277945,0.05999175,-3.0782802,0.6260393,-0.00010608413,-0.05067856,0.0050658467,0.002704986,-0.0013823487,0.0063534505,-0.011624856,0.44496366,-1.4669924,2.0051,-2.107197,-1.5707101,2.4206417,-0.05408949,0.07352148,-0.08923739,0.0093835825,-0.0016649115,-0.04239985,-0.076614454,0.2681506,-9.32781,0.8224646,47.734352,-1.0675218,-1.9648896,-3.0564485,-0.30403835,-0.036470443,-0.23433608,27.8125,29.0,28.0625,31.8125,33.75,34.625
0.11005202,-0.39040852,-1.0078918,-0.47032335,-0.0037846626,0.007023216,-0.17134105,-0.37565044,-0.3277981,0.059983615,-3.0782988,0.62604386,-0.00012980006,-0.051641874,0.005387062,0.0021888886,-0.0013309492,0.0056142514,-0.012991045,0.444867,-1.466812,2.0049202,-2.107197,-1.5706862,2.4205456,-0.05572535,0.075753026,-0.090447664,0.009051543,-0.0013960125,-0.04266884,-0.095768064,0.22984336,-9.346964,0.7284641,47.733456,-1.03918,-2.067955,-3.0573797,-0.30036256,-0.052683182,-0.28693998,27.8125,29.0,28.0625,31.8125,33.75,34.625
0.11205219,0.00041843485,-0.90954006,-0.5588871,-0.005002937,0.01963706,-0.1783853,-0.37576362,-0.32775825,0.059992734,-3.0782416,0.62620556,-5.550481e-05,-0.053004537,0.00574003,0.002955765,-0.0018308964,0.0068117273,-0.013367833,0.44472244,-1.4666919,2.0047643,-2.1071846,-1.5707339,2.4205093,-0.057549387,0.075830735,-0.0924395,0.009667309,-0.0014611771,-0.044115018,-0.038307227,0.24899697,-9.212888,0.8537928,47.734352,-1.0987992,-2.0132635,-3.1393557,-0.3062802,-0.052100793,-0.26753506,27.8125,29.0,28.0625,31.8125,33.75,34.625
0.11405257,-0.40374008,-0.9904,-0.60233426,-0.0001357779,0.010418281,-0.17390838,-0.37587878,-0.32775784,0.06000279,-3.0782807,0.62617457,-5.0927556e-05,-0.053500168,0.006171559,0.0012924765,-3.0180156e-05,0.004123737,-0.013005805,0.44460213,-1.4665228,2.0045497,-2.1071608,-1.5707105,2.4203649,-0.058468595,0.0802395,-0.09344809,0.009470626,-0.0019317865,-0.04539418,-0.019153614,0.24899697,-9.423578,0.75755644,47.72719,-0.97959894,-2.0642772,-3.1214266,-0.294432,-0.050997157,-0.29623175,27.8125,29.0,28.0625,31.8125,33.75,34.625
0.116052076,-0.40339997,-0.7433846,-0.30625516,-0.010416893,0.016622465,-0.18075725,-0.37596798,-0.32773015,0.059987687,-3.0782337,0.6261259,-7.3301e-05,-0.05398264,0.005994668,0.0025447372,-0.000473724,0.0063779987,-0.011311035,0.4444943,-1.4663558,2.0043924,-2.1071255,-1.5707468,2.4202328,-0.058167063,0.078492306,-0.09454911,0.010092823,-0.0025035753,-0.04678619,-0.095768064,0.22984336,-9.346964,0.73741806,47.690468,-1.1755986,-1.9826868,-3.115984,-0.29694304,-0.05048368,-0.2984243,27.8125,29.0,28.0625,31.8125,33.75,34.625
0.11805217,-1.0720572,-1.0094252,-0.517262,-0.010931029,0.009150627,-0.16886926,-0.37608984,-0.32772875,0.060012963,-3.0782588,0.6262677,3.4767836e-06,-0.055463,0.0065082246,0.0026881078,-0.0002671918,0.006704706,-0.015408538,0.44437364,-1.4662236,2.0041888,-2.107125,-1.5707344,2.4201975,-0.0602194,0.08005541,-0.09669399,0.010470355,-0.0028298364,-0.04473928,-0.1340753,0.21068975,-9.212888,0.80456203,47.713753,-1.1713223,-1.9184754,-3.1032205,-0.28753713,-0.03258806,-0.3345424,27.8125,29.0,28.0625,31.8125,33.75,34.625
0.12005246,-0.77548796,-0.5615277,-0.39457354,-0.012665227,0.017241476,-0.1715429,-0.3761803,-0.32770798,0.059989575,-3.0782187,0.6262788,-7.461663e-05,-0.055280708,0.0071880193,0.0004411194,0.0020709354,0.0021444107,-0.016577173,0.44425324,-1.46603,2.004021,-2.1070888,-1.5707344,2.4200892,-0.061212357,0.08474827,-0.09686584,0.011072151,-0.0029820676,-0.04456253,0.019153614,0.2681506,-9.385271,0.76874626,47.7245,-1.1138189,-2.1615753,-3.1883533,-0.28802654,-0.05479043,-0.4010185,27.8125,29.0,28.0625,31.8125,33.75,34.625
0.12205239,-1.115869,-0.8606377,-0.39090192,0.0012124706,0.0096926335,-0.1789571,-0.37631822,-0.3276865,0.06000537,-3.0782225,0.62643254,-6.610499e-05,-0.05598968,0.007577398,0.0011518179,0.001303795,0.0033239403,-0.01573832,0.4440728,-1.465863,2.0037925,-2.1070526,-1.5707105,2.4200044,-0.06267499,0.083602846,-0.09728482,0.011241307,-0.00279575,-0.046864416,-0.019153614,0.17238252,-9.385271,0.800085,47.711063,-1.1408861,-1.9647003,-3.2309592,-0.28940156,-0.05677131,-0.40526766,27.8125,29.0,28.0625,31.8125,33.75,34.625
0.124052815,-0.77349097,-0.72554225,-0.11561391,0.0058876537,0.02238556,-0.1741602,-0.37640908,-0.3276848,0.060010154,-3.0782056,0.626371,-3.254215e-05,-0.05727045,0.0075454726,0.0008143154,0.0013310785,0.0027210333,-0.0150503,0.4440123,-1.4657062,2.0036008,-2.1070173,-1.5707468,2.4199078,-0.06390617,0.08661527,-0.09987135,0.01136846,-0.0025668575,-0.048782054,-0.1340753,0.17238252,-9.212888,0.7978386,47.692257,-1.1284412,-2.0163507,-3.2636812,-0.27991,-0.07235561,-0.4254387,27.8125,29.0,28.0625,31.8125,33.75,34.625
0.1260525,-0.68587935,-0.04226658,-0.24261023,0.009676808,0.022111777,-0.17804664,-0.37654573,-0.32769275,0.06002292,-3.0782607,0.6264205,4.4147896e-06,-0.057670124,0.007970146,0.0005339637,0.0018614976,0.00209524,-0.014368427,0.44388005,-1.4655141,2.0033624,-2.1070282,-1.5707105,2.4197996,-0.064893894,0.0875586,-0.10036222,0.011710843,-0.0027746097,-0.050451156,-0.19153613,0.11492168,-9.251195,0.80679786,47.684196,-1.1234691,-2.0885453,-3.3312492,-0.26858774,-0.063279994,-0.42701304,27.8125,29.0,28.0625,31.75,33.75,34.625
0.1280519,-0.29250768,0.17511474,-0.16876394,0.019495117,0.044237427,-0.19056365,-0.37667206,-0.32768032,0.060034513,-3.07827,0.62649876,2.5377887e-05,-0.05935598,0.008192228,0.0006532668,0.002137637,0.0031088218,-0.0132685285,0.4437355,-1.4653456,2.003145,-2.107005,-1.5706991,2.4197028,-0.06633253,0.08968028,-0.10290101,0.0113333315,-0.003464264,-0.052986752,-0.17238252,0.038307227,-9.289502,0.83365434,47.684196,-1.1589316,-2.0337164,-3.16347,-0.2702133,-0.055497847,-0.43850893,27.8125,29.0,28.0625,31.75,33.75,34.625
0.13005243,-0.9525173,-0.13103414,-0.2618068,0.020818235,0.034761954,-0.17876771,-0.37678936,-0.32765055,0.06001576,-3.078216,0.6264862,6.557704e-05,-0.059233703,0.009535676,-0.00036571466,0.0043508834,0.0012429933,-0.01157283,0.4436149,-1.4651419,2.0029662,-2.1070168,-1.5707592,2.4195814,-0.0679131,0.09058561,-0.10170277,0.011864897,-0.004659599,-0.05626182,-0.24899697,-0.05746084,-9.289502,0.7665104,47.672558,-1.1489688,-2.0256033,-3.395875,-0.2613745,-0.049605764,-0.42109686,27.8125,29.0,28.0625,31.75,33.75,34.625
0.13205278,-1.3305274,-0.31166735,-0.2678751,0.014952296,0.040627476,-0.18178613,-0.37692472,-0.32763213,0.060051184,-3.0782266,0.6265818,0.00012584684,-0.060991105,0.009220563,0.00048457124,0.004440898,0.0034759294,-0.0085509345,0.44345894,-1.4650096,2.0027254,-2.1069567,-1.5707592,2.419484,-0.06816596,0.09205506,-0.1053204,0.012037046,-0.005703957,-0.059532885,-0.3256114,0.019153614,-9.289502,0.800085,47.689575,-1.1868143,-1.9373815,-3.282898,-0.24061084,-0.026116673,-0.4085757,27.8125,29.0,28.0625,31.75,33.75,34.625
0.13405204,-1.6043229,-0.5618808,-0.24319026,0.0075693806,0.048443016,-0.18435188,-0.3770297,-0.32760698,0.060027193,-3.0781808,0.6265717,6.0737173e-05,-0.061632387,0.010188861,0.0008209063,0.005080939,0.0035743006,-0.006209522,0.44332623,-1.4647943,2.0025346,-2.10692,-1.570772,2.4193509,-0.07011186,0.09150158,-0.10577157,0.013227062,-0.0063266857,-0.06381905,-0.34476504,0.076614454,-9.270349,0.8090337,47.691364,-1.156536,-1.9030231,-3.3642755,-0.23338112,-0.04200591,-0.40545884,27.8125,29.0,28.0625,31.75,33.75,34.625
0.13605274,-1.7562045,-0.64631546,-0.4130784,-0.00035075107,0.050296593,-0.17571123,-0.37712446,-0.32757986,0.060016327,-3.0781665,0.62658626,2.9987177e-06,-0.062021557,0.010662301,-0.00037466516,0.0061276993,0.0009331264,-0.0034566186,0.44318172,-1.464637,2.0023782,-2.1068847,-1.5707592,2.4192173,-0.07145003,0.09469371,-0.10669481,0.013791354,-0.0061433115,-0.06790934,-0.36391866,0.038307227,-9.346964,0.800085,47.661808,-1.1946868,-2.0849197,-3.4296975,-0.2460361,-0.008217414,-0.34165815,27.8125,29.0,28.0625,31.75,33.75,34.625
0.13805194,-1.3422012,-0.27151978,-0.3063066,-0.0062517966,0.05183022,-0.17931671,-0.37727728,-0.3275951,0.060052853,-3.0782206,0.6265769,0.00010858555,-0.06309408,0.010986314,0.000574535,0.005242576,0.0024910055,-0.0012994821,0.44307336,-1.4644461,2.0020783,-2.1068604,-1.5707592,2.4190965,-0.073076524,0.09374304,-0.107928276,0.014186573,-0.006008089,-0.07169327,-0.36391866,0.038307227,-9.423578,0.7665104,47.688675,-1.1943156,-1.8857777,-3.545384,-0.25128666,-0.029898165,-0.32450452,27.8125,29.0,28.0625,31.75,33.75,34.625
0.14005208,-1.5975736,-0.72854483,-0.32910857,0.0070930966,0.039408885,-0.17584486,-0.37740433,-0.327557,0.060045242,-3.078191,0.6265504,9.962625e-05,-0.06394013,0.011450525,-0.0010334013,0.006404774,-0.00051598094,0.0002392155,0.44290453,-1.4642526,2.0018742,-2.1068246,-1.5707835,2.418915,-0.074833505,0.098509006,-0.109529026,0.014231866,-0.0057749553,-0.07498752,-0.36391866,-0.05746084,-9.404425,0.83813137,47.71823,-1.1693548,-1.8665845,-3.3993936,-0.25628954,-0.03105375,-0.26672262,27.8125,29.0,28.0625,31.75,33.75,34.625
0.14205231,-1.3157792,0.15606607,-0.29471308,-0.004145865,0.03820459,-0.18284544,-0.3775161,-0.32752284,0.06002273,-3.0781686,0.6265831,2.5442073e-06,-0.06640156,0.010937712,0.0015947222,0.003042874,0.004798431,0.0020071545,0.44272405,-1.4640499,2.001694,-2.1067884,-1.5707592,2.418758,-0.076545246,0.09627368,-0.11297541,0.013668591,-0.005028105,-0.07846631,-0.51714754,0.05746084,-9.308656,0.7530795,47.686886,-1.2078724,-1.8151941,-3.5142622,-0.25408444,-0.013517766,-0.21971199,27.8125,29.0,28.0625,31.75,33.75,34.625
0.14405262,-1.3986648,0.084432565,-0.3838829,-0.008543376,0.03801185,-0.1808152,-0.37763184,-0.32750517,0.060015455,-3.078144,0.62642455,4.0983963e-05,-0.066597536,0.011383393,0.00011114558,0.003617215,0.0019589146,0.0021659585,0.44262746,-1.4638451,2.0014794,-2.1067646,-1.5708188,2.4185658,-0.07800082,0.09943264,-0.11300715,0.01334514,-0.004332797,-0.08008121,-0.4213795,0.17238252,-9.500193,0.7329411,47.707485,-1.1539623,-1.864714,-3.427239,-0.24134691,-0.041430846,-0.18302268,27.8125,29.0,28.0625,31.75,33.75,34.625
0.14605215,-1.4709119,-0.6395739,-0.47158346,0.0015797197,0.04882866,-0.1811248,-0.37779617,-0.32748762,0.060044527,-3.0781589,0.6265038,0.000102846585,-0.06824447,0.010427932,0.001311738,0.0018233767,0.004171307,0.0030373838,0.4424476,-1.4636531,2.00119,-2.1067169,-1.5708188,2.4184337,-0.07809445,0.10040971,-0.11688317,0.013473291,-0.0036630076,-0.08104521,-0.47884035,0.19153613,-9.442732,0.85826975,47.701214,-1.1765778,-1.8865362,-3.3750136,-0.21535352,-0.035835583,-0.13869666,27.8125,29.0,28.0625,31.75,33.75,34.625
0.14805256,-1.6584246,-0.7894764,-0.66076,-0.0022056266,0.050786372,-0.1740385,-0.37791476,-0.3274581,0.060027394,-3.0781505,0.6264857,4.4795823e-05,-0.07016298,0.011527485,0.0015024106,0.001327229,0.0038864014,-0.002168701,0.44227797,-1.4634492,2.0009987,-2.106693,-1.5708064,2.418254,-0.08221588,0.101767644,-0.11902883,0.014304869,-0.0030976017,-0.07996016,-0.45968673,0.17238252,-9.500193,0.7709874,47.716442,-0.96335375,-1.7964096,-3.3998332,-0.21971068,-0.049652923,-0.117069736,27.8125,29.0,28.0625,31.75,33.75,34.625
0.150052,-1.4869103,-0.33539468,-0.5600685,-0.029042272,0.06792354,-0.18212914,-0.3780675,-0.32744578,0.060051173,-3.078178,0.62651116,7.933252e-05,-0.070653155,0.010878664,0.0019788349,0.00076288026,0.00447414,-0.0035525875,0.44211042,-1.4632572,2.0007212,-2.1066444,-1.5707945,2.418099,-0.08157433,0.102482475,-0.12104928,0.01483793,-0.0028383452,-0.077934146,-0.45968673,0.17238252,-9.576807,0.7642693,47.7451,-1.1396544,-1.6520689,-3.3225446,-0.21522965,-0.07393287,-0.13540602,27.8125,29.0,28.0625,31.75,33.75,34.625
0.15205246,-1.6605033,-0.56281245,-0.76454234,-0.032824047,0.07216266,-0.17997566,-0.37821114,-0.32742402,0.060050685,-3.0781937,0.62661326,5.834198e-05,-0.072396606,0.012345258,0.0012660567,0.0018451804,0.0031184414,-0.007884677,0.44191703,-1.4630526,2.0004938,-2.1066325,-1.5707582,2.4179673,-0.08556839,0.10534643,-0.12271022,0.01532713,-0.0032377047,-0.077594265,-0.45968673,0.15322891,-9.615114,0.83589023,47.71286,-1.1163878,-1.6418421,-3.3412032,-0.20301801,-0.049148966,-0.14408669,27.8125,29.0,28.0625,31.75,33.75,34.625
0.15405308,-2.2234151,-1.1639415,-0.87150085,-0.020643055,0.05543452,-0.17000902,-0.37836847,-0.32739827,0.060048968,-3.0781665,0.62659085,0.00011872103,-0.07293326,0.012258214,0.00064901967,0.002861117,0.0022050105,-0.01310888,0.4417611,-1.4628123,2.0002296,-2.1066206,-1.5708069,2.4178011,-0.085491,0.10809534,-0.12440279,0.015530093,-0.0037668666,-0.072290555,-0.47884035,0.24899697,-9.5385,0.73741806,47.696735,-0.9869043,-1.7473412,-3.3418684,-0.20869732,-0.04028242,-0.16042219,27.8125,29.0,28.0625,31.75,33.75,34.625
0.15605235,-1.2740886,-1.0069677,-0.76540184,-0.02881741,0.07348583,-0.18543985,-0.37851435,-0.32737982,0.0600588,-3.0781527,0.6266096,0.00012838404,-0.07416313,0.012772685,0.0004602926,0.0031987631,0.0021514005,-0.018356659,0.4416044,-1.4625959,1.9999546,-2.106561,-1.5708188,2.417658,-0.08732089,0.10990129,-0.12597899,0.0154937785,-0.004052193,-0.068871036,-0.4405331,0.24899697,-9.615114,0.75084364,47.72719,-1.0514746,-1.771574,-3.32198,-0.19673705,-0.06847896,-0.21557304,27.8125,29.0,28.0625,31.75,33.75,34.625
0.15805277,-1.728896,-1.0237342,-0.75476944,-0.032810833,0.05738578,-0.18265484,-0.3786695,-0.3273592,0.060067497,-3.0781462,0.62666637,0.00016992331,-0.07584005,0.013022051,0.00041762186,0.0034095931,0.0023716039,-0.019658754,0.44143587,-1.4623797,1.9996904,-2.106537,-1.5708312,2.417526,-0.08904697,0.11251785,-0.12882075,0.0156093985,-0.004340966,-0.06929268,-0.45968673,0.28730422,-9.5385,0.8403672,47.686886,-0.9609589,-1.6766131,-3.3125036,-0.18361697,-0.051526744,-0.2353575,27.8125,29.0,28.0625,31.75,33.75,34.625
0.16005164,-1.4964553,-1.0267287,-0.82630396,-0.02219351,0.052118987,-0.17443086,-0.3788282,-0.32732353,0.060067613,-3.0781257,0.62677926,0.00014135173,-0.07681836,0.013567594,0.0004634064,0.0034692835,0.0029726317,-0.0229107,0.4412194,-1.4621516,1.9994272,-2.106489,-1.5708188,2.4173827,-0.09068111,0.11312243,-0.12952247,0.015190174,-0.004654651,-0.06767376,-0.4213795,0.21068975,-9.615114,0.74413085,47.690468,-0.8974045,-1.8940287,-3.3729053,-0.18603668,-0.0608093,-0.2643566,27.8125,29.0,28.0625,31.75,33.75,34.625
0.16205205,-1.398921,-0.95049345,-0.65234643,-0.017833658,0.04651892,-0.18531851,-0.3789819,-0.32729757,0.060066234,-3.0780985,0.6268526,0.00017845193,-0.07913735,0.013999556,0.00053738523,0.003104382,0.0033240283,-0.026849095,0.4410503,-1.461923,1.999175,-2.106477,-1.5708431,2.417263,-0.09362782,0.11612335,-0.13304329,0.015233859,-0.004480986,-0.06667993,-0.4405331,0.24899697,-9.500193,0.84484416,47.68062,-0.8922865,-1.779184,-3.3893058,-0.17535774,-0.05507765,-0.29993585,27.8125,29.0,28.0625,31.75,33.75,34.625
0.16405228,-0.7725387,-0.28973386,-0.40885392,-0.027865587,0.06120412,-0.19274513,-0.3791549,-0.3272622,0.060077425,-3.0781062,0.6270063,0.00022625658,-0.078853786,0.014169929,0.00026756903,0.0029877496,0.0031134835,-0.024614325,0.44082218,-1.4617196,1.9989246,-2.1064775,-1.5708312,2.41713,-0.09377585,0.11579993,-0.13194531,0.014598365,-0.004281371,-0.06906382,-0.4213795,0.21068975,-9.442732,0.77545905,47.731667,-0.76698995,-1.7814696,-3.346062,-0.15929651,-0.042745635,-0.30941448,27.8125,29.0,28.0625,31.75,33.75,34.625
0.16605262,-1.0419523,-0.14760049,-0.35088727,-0.012378377,0.054733127,-0.18668486,-0.37932453,-0.3272314,0.060078494,-3.0780883,0.6270027,0.00024911755,-0.08114191,0.0141284615,0.00080804,0.002445822,0.004233468,-0.02533655,0.44062975,-1.4614671,1.9986347,-2.1064408,-1.570855,2.4169378,-0.09568675,0.118427165,-0.13620347,0.014982344,-0.0042767967,-0.07024977,-0.2681506,0.21068975,-9.423578,0.75084364,47.737934,-0.85068786,-1.789489,-3.1840348,-0.12572454,-0.055959865,-0.3069476,27.8125,29.0,28.0625,31.75,33.75,34.625
0.16805221,-1.5572449,-0.32148874,-0.39293626,0.0055307327,0.03923256,-0.17689979,-0.37949374,-0.32722563,0.060092818,-3.0780957,0.6270827,0.00026621635,-0.08204013,0.014776273,0.00060968834,0.003231111,0.0039031343,-0.026929254,0.44046092,-1.4612151,1.9983124,-2.106393,-1.5708436,2.4168181,-0.09726547,0.11978797,-0.13738672,0.01544064,-0.004845734,-0.07023432,-0.36391866,0.076614454,-9.404425,0.8112748,47.686886,-0.66126883,-1.822552,-3.3746552,-0.12934248,-0.055020697,-0.32303387,27.8125,29.0,28.0625,31.75,33.75,34.625
0.17005251,-1.1169797,-0.2710518,-0.28952596,0.01290141,0.045615524,-0.18012516,-0.3796426,-0.3271809,0.060085535,-3.0780425,0.6271662,0.0002841718,-0.08299978,0.014608827,0.0006164812,0.0037662755,0.004110418,-0.026540792,0.44026902,-1.4609989,1.9980844,-2.1063693,-1.5708793,2.4166853,-0.09737261,0.121867284,-0.13981543,0.015829142,-0.0054229614,-0.070727415,-0.34476504,0.019153614,-9.385271,0.77545905,47.682407,-0.85302556,-1.8472326,-3.3240023,-0.10497622,-0.052421913,-0.33993563,27.8125,29.0,28.0625,31.75,33.75,34.625
0.17205192,-1.0337809,-0.12166357,-0.2497402,0.017374216,0.037998274,-0.18190499,-0.3798211,-0.32716063,0.06009864,-3.0780582,0.62724614,0.00031896392,-0.08503065,0.013926789,0.0020833535,0.0029174178,0.0074431105,-0.024698695,0.4400651,-1.460759,1.9977835,-2.106345,-1.5708679,2.4165294,-0.09740246,0.122665614,-0.14411388,0.01595401,-0.0060805627,-0.07259607,-0.3256114,0.076614454,-9.212888,0.8112748,47.71286,-0.8223537,-1.8094256,-3.2062051,-0.116280355,-0.047461256,-0.35521805,27.8125,29.0,28.0625,31.75,33.75,34.625
0.17405213,-1.0461099,0.08064563,-0.19189902,0.012826024,0.036120873,-0.18331674,-0.380002,-0.32712016,0.06010156,-3.0780141,0.6273716,0.00040406155,-0.08327326,0.014916786,-0.0013761618,0.0062142527,0.0002371258,-0.025799021,0.43986097,-1.4605176,1.9975098,-2.106345,-1.5709156,2.4164095,-0.09771035,0.12735458,-0.14156318,0.016633596,-0.0059847604,-0.071804956,-0.24899697,0.095768064,-9.232041,0.83365434,47.70032,-0.8608262,-2.036169,-3.3223238,-0.10449774,-0.04370412,-0.37181103,27.8125,29.0,28.0625,31.75,33.75,34.625
0.17605287,-1.0131769,-0.3774378,-0.26013273,0.012452775,0.027539812,-0.18235253,-0.38019043,-0.32708335,0.060114942,-3.0780041,0.6274062,0.0004282567,-0.084100015,0.014574735,-0.0013650992,0.006222377,-1.2282951e-05,-0.022469463,0.43963313,-1.4602656,1.9971865,-2.1062844,-1.5709275,2.4162047,-0.097810626,0.12943962,-0.1440758,0.017286481,-0.005889476,-0.07523345,-0.13407528,0.1340753,-9.212888,0.7911258,47.67166,-0.9954014,-1.9207876,-3.2123442,-0.0886026,-0.044216372,-0.37682113,27.8125,29.0,28.0625,31.75,33.75,34.625
0.17805257,-1.4371675,-0.78711426,-0.24652967,0.007344941,0.009766393,-0.16577637,-0.3803328,-0.32706526,0.06010065,-3.077993,0.6274381,0.0003860406,-0.08412044,0.014296719,-0.0014324005,0.0067323414,-0.00063406467,-0.016593132,0.43946522,-1.4600136,1.9969348,-2.1062605,-1.5709156,2.4160583,-0.09713207,0.1304946,-0.14534838,0.018282462,-0.006089083,-0.08043023,-0.11492168,0.15322891,-9.251195,0.9097417,47.71286,-1.0481428,-2.0000768,-3.3499703,-0.072972216,-0.03393605,-0.31579283,27.8125,29.0,28.0625,31.75,33.75,34.625
0.1800521,-0.6037167,-0.5679253,-0.025761249,-0.007593519,0.018678585,-0.18637174,-0.38050508,-0.32705015,0.060097255,-3.0779886,0.62749535,0.00040073326,-0.08477587,0.014706995,-0.0013274236,0.0072728563,-0.0014414341,-0.016228013,0.43928474,-1.4597379,1.9966344,-2.1062477,-1.570916,2.4159143,-0.0983303,0.13149637,-0.14712957,0.02002134,-0.0062343897,-0.0819928,-0.11492168,0.17238252,-9.097966,0.78217715,47.68599,-1.0546887,-1.979227,-3.3212059,-0.08130427,-0.048321158,-0.34309328,27.8125,29.0,28.0625,31.75,33.75,34.625
0.1820521,-0.81887376,-0.8382716,-0.12112093,-0.01016925,0.0010123808,-0.17965607,-0.3806864,-0.32703102,0.060130153,-3.0780027,0.6274384,0.00046723927,-0.08539648,0.014717358,-0.0016012935,0.007859176,-0.0025036586,-0.011778985,0.43910462,-1.4595096,1.9962872,-2.1061642,-1.5709399,2.415697,-0.09879392,0.13367638,-0.14919385,0.021111615,-0.0063129943,-0.08690438,-0.038307227,0.24899697,-9.078813,0.83589023,47.67166,-1.131993,-1.9674928,-3.3677042,-0.08279234,-0.02063373,-0.2690605,27.8125,29.0,28.0625,31.75,33.75,34.625
0.18405265,-0.39268607,-0.4755248,-0.03122299,-0.019211516,-0.0047442205,-0.19304624,-0.3808594,-0.32699293,0.06010264,-3.0779517,0.6275018,0.00041668877,-0.086773746,0.01488535,-0.0010632331,0.007062531,-0.0015833026,-0.008730133,0.43888813,-1.4591978,1.9959992,-2.10614,-1.5709513,2.4155269,-0.10048435,0.13438493,-0.15130207,0.021334216,-0.0059922663,-0.09164264,0.095768064,0.24899697,-9.11712,0.7642693,47.67166,-1.0530924,-1.9320581,-3.234773,-0.061766826,-0.020996338,-0.23738751,27.8125,29.0,28.0625,31.75,33.75,34.625
0.18605214,-0.31016538,-0.85524386,-0.2128941,-0.0134145,-0.019934038,-0.17934643,-0.38105148,-0.32695487,0.06012244,-3.0779321,0.6275543,0.0004925692,-0.08720589,0.01513809,-0.0010461916,0.0065034297,-0.0020263393,-0.005977656,0.43867168,-1.4589581,1.9956774,-2.1060913,-1.5709876,2.415346,-0.10174519,0.13472326,-0.15182404,0.021672618,-0.005295947,-0.095656954,0.076614454,0.28730422,-9.097966,0.7642693,47.70211,-1.0603727,-1.8797958,-3.3109436,-0.068580694,-0.021810839,-0.16361208,27.8125,29.0,28.0625,31.75,33.75,34.625
0.18805254,-0.24253127,-1.1704851,-0.29018664,-0.0031478314,-0.024003701,-0.17200796,-0.38122067,-0.32692775,0.06010801,-3.077945,0.6275552,0.00045390558,-0.08826721,0.015168141,-0.0010205198,0.006362883,-0.0022250141,-0.003682061,0.43845537,-1.458682,1.9954017,-2.1060798,-1.5709633,2.4151287,-0.102820106,0.13654983,-0.15406519,0.0222065,-0.005089948,-0.09902634,0.019153614,0.34476504,-9.040505,0.8403672,47.716442,-1.0982552,-1.9411275,-3.3913393,-0.056725882,-0.033476077,-0.1016127,27.8125,29.0,28.0625,31.75,33.75,34.625
0.19005248,-0.28344825,-1.1012889,-0.40994313,0.0003690853,-0.014957186,-0.17489035,-0.38139108,-0.32686678,0.06008552,-3.0778322,0.62757,0.00041508247,-0.08844685,0.01496731,-0.0010707589,0.0064233355,-0.0028050905,-0.0030704937,0.4382393,-1.4583822,1.9951018,-2.1059954,-1.5710353,2.4149365,-0.10267167,0.13754123,-0.15525797,0.022949772,-0.0049087577,-0.09948876,-0.019153614,0.2681506,-9.155427,0.8806493,47.749577,-1.1561855,-1.839391,-3.4093623,-0.05824896,-0.02633433,-0.0728945,27.8125,29.0,28.0625,31.75,33.75,34.625
0.19205284,-0.4131995,-0.9379618,-0.50489247,-0.0022363197,-0.015498509,-0.18074384,-0.38158995,-0.326872,0.060126275,-3.077912,0.62766623,0.00046251944,-0.08956781,0.016526947,-0.002595719,0.0077839247,-0.0061056493,-0.008453724,0.43803385,-1.4581412,1.9947304,-2.1059477,-1.5709757,2.414781,-0.10662518,0.14126779,-0.15608288,0.02361923,-0.0047341017,-0.09805887,0.1340753,0.30645782,-9.232041,0.73069996,47.70032,-1.0058618,-2.0095963,-3.3765697,-0.056510136,-0.033624828,-0.04428636,27.8125,29.0,28.0625,31.75,33.75,34.625
0.19405234,-0.48420852,-1.1074991,-0.49434412,-0.011786028,0.0014258117,-0.17314053,-0.38174516,-0.32683465,0.06009804,-3.077857,0.6276357,0.00039606047,-0.090199195,0.014690007,5.3430307e-05,0.0051129744,-0.0015033473,-0.008337342,0.437843,-1.4578431,1.9944533,-2.105899,-1.570999,2.4145784,-0.10400307,0.13843587,-0.15919426,0.02425835,-0.004280048,-0.09555242,0.05746084,0.2873042,-9.232041,0.7866488,47.685097,-1.1358844,-1.674572,-3.2891269,-0.06957664,-0.01940445,-0.07469665,27.8125,29.0,28.0625,31.75,33.75,34.625
0.19605315,-0.8406079,-0.87411594,-0.3078228,-0.022925314,0.0033140793,-0.17358375,-0.38194028,-0.3267821,0.060093373,-3.0778043,0.6277258,0.0003860085,-0.09228985,0.016168175,0.0004169214,0.004616912,-0.0011400513,-0.016385581,0.4375891,-1.4575552,1.994131,-2.1058395,-1.5710229,2.4143877,-0.10872833,0.13905692,-0.16087103,0.02477213,-0.0039902097,-0.092228934,0.0,0.30645782,-9.232041,0.800085,47.694946,-1.0589088,-1.7886432,-3.3527951,-0.065211825,-0.023930818,-0.07717466,27.8125,29.0,28.0625,31.75,33.75,34.625
0.19805293,-0.70052874,-0.9264932,-0.5243676,-0.006790772,0.014432081,-0.18303727,-0.3821125,-0.32678223,0.06009083,-3.0778341,0.6276748,0.00036173756,-0.092317216,0.01545925,-0.00031848543,0.0052534025,-0.0028402505,-0.01844509,0.43742183,-1.4572548,1.9937953,-2.1058033,-1.570999,2.414185,-0.10746952,0.14218833,-0.16285357,0.025435679,-0.0038496933,-0.08890946,-0.019153614,0.2681506,-9.32781,0.8291774,47.734352,-1.1846488,-1.7550917,-3.397867,-0.0672103,-0.037561167,-0.12095787,27.8125,29.0,28.0625,31.75,33.75,34.625
0.2000521,-0.90541786,-0.52655923,-0.6884841,0.0020289004,0.014012775,-0.1737841,-0.38229376,-0.32672152,0.06007227,-3.077746,0.62777424,0.00034625974,-0.0937755,0.015684368,-3.203591e-05,0.0051187305,-0.002001197,-0.022838028,0.4371814,-1.4569668,1.9935073,-2.1057556,-1.5710472,2.4140182,-0.108946346,0.14362074,-0.16514821,0.025478026,-0.0040928237,-0.08599134,-0.076614454,0.17238252,-9.404425,0.8493211,47.745995,-1.1961868,-1.7775388,-3.220493,-0.06642532,-0.026105806,-0.15295729,27.8125,29.0,28.0625,31.75,33.75,34.625
0.20205271,-0.8323916,-0.34846655,-0.91818255,0.004990916,0.02289782,-0.1718,-0.38247108,-0.32670647,0.06007608,-3.0777504,0.62787324,0.0002691081,-0.09437786,0.01587331,0.0006006397,0.005074111,-0.0006347215,-0.026287043,0.43696532,-1.4566792,1.9931601,-2.1056712,-1.570999,2.4138634,-0.109401606,0.1429524,-0.16594243,0.025690343,-0.00463453,-0.082996406,-0.17238252,0.11492168,-9.423578,0.85155696,47.670765,-1.206456,-1.66693,-3.454487,-0.050956078,-0.030476242,-0.20551835,27.8125,29.0,28.0625,31.75,33.75,34.625
0.2040523,-1.3030581,-0.74571776,-0.92119557,0.0054602143,0.026468197,-0.17642742,-0.38266242,-0.3266824,0.060077142,-3.077733,0.62790763,0.00027846496,-0.095200494,0.016343197,5.8166715e-06,0.006102371,-0.0016726482,-0.027204474,0.4367607,-1.456379,1.9928135,-2.1056235,-1.5710114,2.4136827,-0.11060579,0.14540485,-0.1674407,0.026111409,-0.005130174,-0.083281316,-0.22984336,0.19153613,-9.519346,0.8179876,47.699425,-1.0313859,-1.8760042,-3.4294086,-0.051100753,-0.025602052,-0.25300843,27.8125,29.0,28.0625,31.75,33.75,34.625
0.20605226,-1.3784721,-0.622174,-1.1263237,-0.0039297463,0.04327267,-0.1805379,-0.38283548,-0.32664385,0.06008036,-3.0776906,0.6279587,0.00024112102,-0.095285565,0.016580693,-0.0017941614,0.007496809,-0.00580392,-0.030289324,0.43654463,-1.4561139,1.9924897,-2.1055272,-1.5710229,2.4135041,-0.11138585,0.15005139,-0.16874215,0.027097173,-0.004651268,-0.08097598,-0.2873042,0.22984336,-9.653421,0.85826975,47.691364,-1.3231772,-1.7020677,-3.4016948,-0.07438977,-0.023144212,-0.26821157,27.8125,29.0,28.0625,31.75,33.75,34.625
0.20805247,-1.4596078,-0.53648496,-1.2940526,-0.0146347815,0.05770181,-0.17659923,-0.38304448,-0.32660228,0.060071863,-3.077641,0.62812364,0.00023743535,-0.09664594,0.017109184,-0.0013981765,0.00728893,-0.0055551506,-0.033595193,0.43629187,-1.4557904,1.9921416,-2.1054914,-1.5710348,2.4133608,-0.113541745,0.15095206,-0.17091441,0.028053733,-0.0045732907,-0.07982505,-0.49799395,0.095768064,-9.80665,0.88960326,47.70838,-1.0770283,-1.748364,-3.5110683,-0.085043415,-0.017531658,-0.33501747,27.8125,29.0,28.0625,31.75,33.75,34.625
0.21005233,-1.7633533,-1.0312507,-1.2483634,-0.018089063,0.072802335,-0.17531058,-0.38320193,-0.32657728,0.060050245,-3.0775995,0.6281901,0.00014686231,-0.09715216,0.017722813,-0.0028456436,0.008519764,-0.008311016,-0.03281437,0.43609926,-1.4554896,1.9918431,-2.1054313,-1.5710229,2.4132152,-0.11510103,0.15461373,-0.17175853,0.028252913,-0.004533324,-0.08216403,-0.59376204,-0.019153614,-9.787497,0.7284641,47.745995,-1.1376846,-1.8876375,-3.4761243,-0.09225213,-0.020546297,-0.331393,27.8125,29.0,28.0625,31.75,33.75,34.625
0.2120526,-2.1570897,-0.70248514,-0.9517711,-0.026404692,0.08245286,-0.17711212,-0.38339478,-0.32654515,0.060053192,-3.0775847,0.6281914,0.00011465559,-0.09873217,0.018016031,-0.0028788676,0.008227731,-0.008455193,-0.038770616,0.43587053,-1.4551896,1.9914836,-2.105347,-1.5710229,2.4129894,-0.117173016,0.15695529,-0.17439984,0.028559882,-0.0042162337,-0.078278504,-0.57460845,-0.038307227,-9.653421,0.8157518,47.73077,-1.073341,-1.9386837,-3.473443,-0.09599178,-0.028875437,-0.42368016,27.8125,29.0,28.0625,31.75,33.75,34.625
0.21405183,-2.1190767,-0.72984356,-0.96099895,-0.0043952116,0.09530113,-0.1714615,-0.38360867,-0.32650784,0.060059924,-3.0775528,0.6284343,0.000118049,-0.09963447,0.018496655,-0.0033381984,0.008278146,-0.00920146,-0.039020088,0.43560597,-1.4548894,1.9911236,-2.1052992,-1.571011,2.4128807,-0.1189553,0.15881582,-0.17543215,0.028427783,-0.003951967,-0.079811,-0.63206923,0.05746084,-9.634268,0.8090337,47.71286,-1.0767897,-2.0384881,-3.4893584,-0.11165412,-0.043138478,-0.46019328,27.8125,29.0,28.0625,31.75,33.75,34.625
0.21605249,-2.2789664,-0.42263323,-1.1805607,0.012459533,0.083903536,-0.17811897,-0.38380712,-0.32648027,0.06004931,-3.0775077,0.6285404,9.931416e-05,-0.1019427,0.018866096,-0.0024426454,0.007520609,-0.006769277,-0.03855578,0.4353891,-1.4545535,1.9907635,-2.105252,-1.5710229,2.412736,-0.12135295,0.15973614,-0.1784623,0.02801103,-0.0043035615,-0.08267038,-0.6512228,0.038307227,-9.634268,0.82694155,47.73077,-0.9801981,-1.9352051,-3.351407,-0.087333634,-0.03610939,-0.47622713,27.8125,29.0,28.0625,31.75,33.75,34.625
0.2180527,-2.5301318,-0.57873803,-0.93336874,0.019713778,0.069217086,-0.1783292,-0.38401234,-0.32642382,0.060055934,-3.077456,0.62860304,0.00014345552,-0.10344245,0.01882541,-0.0020841109,0.0072198734,-0.005799398,-0.035154175,0.43513685,-1.4542776,1.9904279,-2.105192,-1.571071,2.4125297,-0.122413084,0.16142341,-0.18121393,0.028062338,-0.0044490667,-0.087130144,-0.6512229,0.1340753,-9.691729,0.8537928,47.70838,-0.9614623,-2.0033734,-3.2846475,-0.084264986,-0.048680764,-0.46328652,27.8125,29.0,28.0625,31.75,33.75,34.625
0.22005175,-1.6676162,0.0011666255,-0.80979395,0.0029909941,0.087452374,-0.18196139,-0.38423932,-0.3264031,0.0600652,-3.0774622,0.6287371,0.00014837469,-0.10412262,0.019395603,-0.0028441916,0.007798659,-0.0071211257,-0.03063093,0.43488428,-1.4539413,1.9900216,-2.1051443,-1.5710472,2.4123602,-0.124002516,0.16364029,-0.18199356,0.028065542,-0.00442055,-0.09324229,-0.842759,0.05746084,-9.576807,0.85826975,47.731667,-0.9165915,-2.0143547,-3.4641504,-0.10463423,-0.043599144,-0.41412672,27.8125,29.0,28.0625,31.75,33.75,34.625
0.22205181,-2.2801652,-0.4332918,-0.9042543,0.012321904,0.067742854,-0.18269272,-0.3844423,-0.32636696,0.06005416,-3.0774333,0.6287089,0.0001388642,-0.10484345,0.019530378,-0.002259187,0.008018028,-0.0062388815,-0.026729116,0.43465617,-1.453606,1.9896625,-2.1050956,-1.5710715,2.4121184,-0.12442035,0.163659,-0.18360768,0.02894978,-0.004998254,-0.09756024,-0.7852981,0.0,-9.634268,0.8560339,47.723602,-0.88560826,-1.8566731,-3.4819882,-0.09255723,-0.045569718,-0.38235503,27.8125,29.0,28.0625,31.75,33.75,34.625
0.22405198,-1.8591586,-0.5609206,-0.7501743,-0.009463581,0.089263044,-0.18089293,-0.3846653,-0.32631028,0.060064044,-3.0774,0.6287343,0.0001727521,-0.1057099,0.019364035,-0.0015039064,0.008073065,-0.005510518,-0.017007275,0.4343802,-1.4533066,1.9892901,-2.1050236,-1.5711073,2.4118629,-0.12453693,0.16416651,-0.18629882,0.030486895,-0.005362126,-0.10739693,-0.6512229,0.0,-9.500193,0.82022345,47.723602,-1.0085158,-1.7855318,-3.4477355,-0.123794176,-0.044531845,-0.30416018,27.8125,29.0,28.0625,31.75,33.75,34.625
0.22605214,-2.1011322,-0.9721915,-0.4178703,-0.0096126925,0.08829622,-0.17321187,-0.38489524,-0.32628024,0.06007812,-3.0774043,0.6288303,0.0001888357,-0.10607371,0.019079998,-0.0013871653,0.008300847,-0.0062056216,-0.013536532,0.43411624,-1.4529827,1.9888834,-2.104963,-1.5710953,2.4116585,-0.12429277,0.16551942,-0.18847705,0.03203661,-0.0052782167,-0.11062284,-0.61291564,0.076614454,-9.3661175,0.89631605,47.685097,-1.0873728,-1.8645205,-3.5716586,-0.12891814,-0.037628956,-0.2526355,27.8125,29.0,28.0625,31.75,33.75,34.625
0.22805215,-1.8645748,-0.5368326,-0.3535406,-0.0008223713,0.07982061,-0.1790759,-0.38511252,-0.32626054,0.060084846,-3.07743,0.6288746,0.00019628319,-0.10757632,0.020633867,-0.0009471872,0.008589164,-0.0054809395,-0.014051517,0.43387473,-1.4526594,1.9884995,-2.1049268,-1.5710715,2.4114416,-0.12802798,0.16509727,-0.18920547,0.032652725,-0.0058449367,-0.113842145,-0.38307226,0.095768064,-9.289502,0.8112748,47.686886,-0.9055644,-1.7621167,-3.4411285,-0.1490028,-0.036284365,-0.18821388,27.8125,29.0,28.0625,31.75,33.75,34.625
0.23005217,-1.0422276,-0.056613866,-0.5362075,0.01053481,0.06732354,-0.18064143,-0.38531575,-0.3261948,0.060059823,-3.0773206,0.62890774,0.00017092738,-0.10832968,0.01915866,-8.042117e-05,0.0072332667,-0.0029729009,-0.011570444,0.43362373,-1.4523114,1.9881529,-2.1048553,-1.5711435,2.4112256,-0.12596394,0.1657963,-0.19180615,0.031698428,-0.0056866165,-0.11425734,-0.3256114,0.114921674,-9.251195,0.9254084,47.737038,-1.1221021,-1.772371,-3.476239,-0.14135078,-0.027828842,-0.16004726,27.8125,29.0,28.0625,31.75,33.75,34.625
0.2320521,-0.77804136,-0.3274403,-0.4535475,0.026380153,0.031256475,-0.16789514,-0.38555604,-0.32615796,0.060057893,-3.0773258,0.62898797,0.00021518025,-0.11029014,0.01973527,4.951577e-05,0.007227962,-0.0018725764,-0.0148864845,0.4333469,-1.4519634,1.9877695,-2.1048553,-1.571144,2.4109983,-0.12833631,0.16774851,-0.19421001,0.03115002,-0.006147544,-0.11331139,-0.114921674,0.019153614,-9.212888,0.86498255,47.71017,-0.9356036,-1.75232,-3.4313076,-0.1318233,-0.047684006,-0.14970289,27.8125,29.0,28.0625,31.75,33.75,34.625
0.23405227,-0.5098003,-0.4326577,-0.54249924,0.03884035,-0.00895237,-0.16535479,-0.38576397,-0.3261043,0.06005328,-3.0772681,0.62903553,0.00017628173,-0.11145734,0.019910574,0.0008350854,0.007360818,-0.00097378873,-0.01938061,0.43308258,-1.4516401,1.9873976,-2.104759,-1.5711678,2.4107714,-0.12925304,0.16819578,-0.1968953,0.032627884,-0.006653238,-0.10973171,-0.17238252,0.095768064,-9.174581,0.88960326,47.696735,-0.9356514,-1.5076076,-3.3422213,-0.15045464,-0.021100862,-0.19171068,27.8125,29.0,28.0625,31.75,33.75,34.625
0.23605238,0.40296954,0.20692332,-0.4286335,0.023700347,-0.01358449,-0.17910819,-0.38603115,-0.32605675,0.06006791,-3.0772314,0.6291654,0.00028012137,-0.111704804,0.020025676,0.00038741974,0.008071993,-0.0020203057,-0.024306668,0.4327946,-1.4512802,1.9869546,-2.1047232,-1.571216,2.4105694,-0.12944442,0.16986854,-0.19793251,0.033237543,-0.0068554305,-0.10499643,-0.22984336,0.11492168,-9.078813,0.83365434,47.674347,-1.0456879,-1.5609803,-3.3448827,-0.16635531,-0.030977322,-0.22939959,27.8125,29.0,28.0625,31.75,33.75,34.625
0.2380526,0.032611504,-0.31626928,-0.6806049,0.03306164,-0.026121732,-0.17329428,-0.3862247,-0.32603452,0.060080368,-3.077247,0.62924796,0.00021841294,-0.112760425,0.020738956,0.000548692,0.008159144,-0.0023546156,-0.029645775,0.43255368,-1.4509925,1.9865831,-2.104627,-1.5711678,2.4103782,-0.13164133,0.1706773,-0.19950266,0.034344282,-0.0067969724,-0.10185362,-0.019153614,0.19153613,-9.308657,0.800085,47.69763,-0.9544642,-1.4883082,-3.2998428,-0.16801478,-0.015189512,-0.2642144,27.8125,29.0,28.0625,31.75,33.75,34.625
0.24005161,-0.056808006,-0.72535956,-0.81603396,0.014966851,-0.014818691,-0.17307885,-0.3864637,-0.32599095,0.060074434,-3.0771854,0.6293308,0.00021914953,-0.11288522,0.020903194,0.0003228387,0.009607503,-0.005040785,-0.03082937,0.43228996,-1.4506085,1.9861516,-2.104554,-1.5712041,2.4101744,-0.13183482,0.17281379,-0.20226946,0.038016498,-0.006988019,-0.10086218,0.15322891,0.24899697,-9.308656,0.84708,47.741516,-1.155078,-1.5170062,-3.3351393,-0.20873591,-0.010785572,-0.29998338,27.8125,29.0,28.0625,31.75,33.75,34.625
0.24205163,0.01443026,-0.9918805,-0.7292864,-0.014144463,-0.0018981383,-0.17935817,-0.38668293,-0.32592306,0.06005566,-3.0770876,0.6294255,0.0002125991,-0.11404747,0.020174915,5.9840087e-05,0.009780938,-0.0058251554,-0.029821996,0.4320142,-1.4502597,1.9857916,-2.1044939,-1.5712641,2.4099705,-0.13150202,0.17674156,-0.20631328,0.038908597,-0.0068312567,-0.10153417,0.11492168,0.28730422,-9.308657,0.85155696,47.68062,-1.0652786,-1.673921,-3.2428067,-0.2423259,-0.0056879213,-0.33804262,27.8125,29.0,28.0625,31.75,33.75,34.625
0.24405253,-0.43062755,-1.2902321,-0.6596494,-0.02884946,0.0077483966,-0.17529802,-0.38691813,-0.3259092,0.060095187,-3.0771217,0.6295108,0.00022191009,-0.11555141,0.020635279,-0.00062675343,0.009652358,-0.006395406,-0.032675147,0.43176126,-1.4499474,1.9853252,-2.1043746,-1.5712279,2.4097667,-0.13379315,0.17984395,-0.20805363,0.038011897,-0.0064803055,-0.10097144,0.076614454,0.34476504,-9.32781,0.84484416,47.711063,-1.0734156,-1.6152978,-3.1749754,-0.25096858,0.0007194162,-0.35595584,27.8125,29.0,28.0625,31.75,33.75,34.625
0.24605258,-0.3024422,-1.8854629,-1.0418001,-0.025748834,0.012287309,-0.17353112,-0.38714465,-0.32584184,0.060081877,-3.0770254,0.62972325,0.0001410326,-0.1165889,0.02127546,-0.00033276112,0.009762971,-0.0066565406,-0.03507723,0.43144855,-1.4495878,1.9849294,-2.1042664,-1.5712398,2.409599,-0.1357767,0.18054721,-0.20989744,0.03943316,-0.0064824927,-0.10055179,0.15322891,0.40222588,-9.500193,0.86945957,47.698532,-1.0387561,-1.8201712,-3.1521058,-0.25625765,-0.0054939277,-0.38075095,27.8125,29.0,28.0625,31.75,33.75,34.625
0.24805257,-0.44955847,-2.0521827,-1.1093091,-0.043712076,0.010536278,-0.17607698,-0.3873583,-0.32577947,0.060049973,-3.0769258,0.6297409,3.4007386e-05,-0.11575336,0.021882972,-0.0018775613,0.011519746,-0.010881674,-0.034971032,0.43117246,-1.4491917,1.9845351,-2.1041577,-1.5712761,2.409347,-0.1362037,0.18290013,-0.20946413,0.041213352,-0.006321869,-0.10108506,0.17238252,0.4213795,-9.5385,0.85155696,47.728977,-1.069523,-1.8318923,-3.2558541,-0.3043239,0.022154527,-0.3918586,27.8125,29.0,28.0625,31.75,33.75,34.625
0.25005162,-0.78842825,-2.7242799,-1.118343,-0.047655985,-0.0077224807,-0.16163099,-0.38757598,-0.32576177,0.06005928,-3.0769293,0.62974024,7.408654e-06,-0.11675826,0.022009343,-0.0017382783,0.011321737,-0.009900064,-0.03359876,0.43094417,-1.448844,1.9841036,-2.1040623,-1.5712641,2.4091182,-0.13705435,0.18380149,-0.21070601,0.040578503,-0.006561825,-0.10330657,-0.019153614,0.5363012,-9.423578,0.91421866,47.74241,-1.0336642,-1.8235704,-3.4253688,-0.34657973,0.016198426,-0.42670482,27.8125,29.0,28.0625,31.75,33.75,34.625
0.25205162,-1.1602044,-2.9135268,-1.1611701,-0.03991994,-0.0032061983,-0.16264819,-0.38780487,-0.3257146,0.060049903,-3.0768917,0.62980676,-1.3618498e-05,-0.11810823,0.02243497,-0.0031972225,0.011682402,-0.011213731,-0.029231163,0.4306675,-1.4484832,1.9837083,-2.1040032,-1.5712761,2.408888,-0.13904545,0.18824013,-0.21197501,0.03874493,-0.006357855,-0.10966378,-0.095768064,0.47884035,-9.442732,0.8672237,47.717335,-0.98377085,-1.7545915,-3.4181702,-0.34277132,0.016002866,-0.35317367,27.8125,29.0,28.0625,31.75,33.8125,34.625
0.25405186,-0.9529498,-1.9023398,-1.1436417,-0.04421076,0.016391208,-0.17315014,-0.38803807,-0.3256738,0.060043912,-3.0768445,0.6299679,-4.6768146e-05,-0.11895584,0.022937167,-0.0028877908,0.0104887765,-0.009656802,-0.026187485,0.4303909,-1.448112,1.9832906,-2.1039317,-1.5712756,2.4087183,-0.14088476,0.1874172,-0.21146372,0.037137043,-0.005934985,-0.114547625,-0.038307227,0.4213795,-9.500193,0.84708,47.73525,-0.94818586,-1.6527603,-3.6215162,-0.3538868,0.021166919,-0.31278688,27.8125,29.0,28.0625,31.75,33.8125,34.625
0.25605243,-1.4623897,-2.132367,-1.1073558,-0.027446706,0.025317118,-0.16764805,-0.38831422,-0.3256376,0.06006571,-3.0768719,0.63002765,2.1204062e-06,-0.12075949,0.02263701,-0.0024868695,0.009064315,-0.007807024,-0.020974455,0.43007866,-1.4477403,1.9828113,-2.1038725,-1.5712637,2.40844,-0.14209615,0.18911324,-0.21402276,0.035718102,-0.0054221544,-0.120971456,-0.038307227,0.38307226,-9.557653,0.86498255,47.71554,-0.91642225,-1.7384508,-3.6147337,-0.3391799,0.00439886,-0.26739502,27.8125,29.0,28.0625,31.75,33.8125,34.625
0.2580523,-1.0888034,-1.269311,-0.6017293,-0.03711199,0.05783575,-0.17542537,-0.3885304,-0.32558227,0.06003914,-3.0767815,0.63004565,-8.82912e-05,-0.12242126,0.02302685,-0.0024108342,0.007810544,-0.0072435285,-0.016952299,0.42981377,-1.4473443,1.9824046,-2.1037652,-1.571299,2.4081984,-0.1447335,0.19061075,-0.21576083,0.034910303,-0.004541482,-0.12763105,-0.19153613,0.26815057,-9.481039,0.88289046,47.72719,-0.9982438,-1.735776,-3.6859736,-0.33024374,0.00060731755,-0.19921756,27.8125,29.0,28.0625,31.75,33.8125,34.625
0.26005232,-1.9066541,-1.440386,-0.81689066,0.0035138228,0.057142362,-0.16754556,-0.3887789,-0.3255705,0.060056817,-3.0768514,0.6300192,-1.9005161e-05,-0.12283442,0.020712271,-0.0017507508,0.006166326,-0.0049640625,-0.013129858,0.42956313,-1.4469963,1.9819721,-2.1037538,-1.5712751,2.4079225,-0.14104551,0.19219184,-0.21881288,0.033624187,-0.0039986963,-0.1277648,-0.4405331,0.24899697,-9.404425,0.75755644,47.728977,-1.0680759,-1.716456,-3.5565095,-0.34062245,-0.007466128,-0.12882172,27.8125,29.0,28.0625,31.75,33.8125,34.625
0.26205218,-1.6801326,-0.45545697,-0.7185773,0.008314537,0.08259187,-0.17869325,-0.38903713,-0.32550597,0.06003708,-3.0767853,0.6301408,-0.00014005853,-0.12435098,0.020967156,-0.002220259,0.0057615386,-0.0048841485,-0.013894503,0.42921433,-1.4465643,1.9815062,-2.103634,-1.5712632,2.4076583,-0.1429048,0.1949421,-0.22063027,0.032448657,-0.0036846434,-0.12885822,-0.59376204,0.21068975,-9.442732,0.9254084,47.73256,-0.9850104,-1.7757021,-3.60269,-0.31301558,-0.009201909,-0.09075658,27.8125,29.0,28.0625,31.75,33.8125,34.625
0.26405212,-2.0910795,-0.87087977,-0.90636504,0.015875498,0.08671236,-0.17335963,-0.38929346,-0.32547355,0.060043745,-3.0767734,0.63017833,-8.796497e-05,-0.12557954,0.020128774,-0.0017019956,0.0046226643,-0.0031970425,-0.018157883,0.42895064,-1.4461807,1.9810504,-2.1035864,-1.571287,2.40742,-0.14250898,0.19645318,-0.22341307,0.031710826,-0.0033541499,-0.124198005,-0.59376204,0.095768064,-9.500193,0.88960326,47.739727,-1.1324682,-1.7737191,-3.5166764,-0.30455893,-0.036849484,-0.13408862,27.8125,29.0,28.0625,31.75,33.8125,34.625
0.2660522,-1.8230124,-0.21833989,-0.58393097,-0.0005816362,0.0895474,-0.17597313,-0.38954285,-0.3254502,0.060055282,-3.0767825,0.6302612,-6.880373e-05,-0.12802193,0.019987365,0.00017060406,0.0025055008,0.0011561087,-0.024299905,0.428686,-1.4458095,1.9805945,-2.1035268,-1.5712746,2.407206,-0.14429401,0.19568619,-0.22674003,0.030969083,-0.003242567,-0.11983959,-0.57460845,0.019153614,-9.481039,0.8537928,47.737038,-1.0833218,-1.7516483,-3.5429645,-0.30708665,-0.027655896,-0.16585635,27.8125,29.0,28.0625,31.75,33.8125,34.625
0.26805228,-1.8714404,-0.5412971,-0.65884304,0.011995433,0.08128878,-0.16400664,-0.38977557,-0.32539678,0.060016472,-3.0767174,0.6302901,-0.00016280824,-0.13172701,0.020590024,0.002036154,0.00065804395,0.0058255605,-0.03227067,0.4283963,-1.4453782,1.9801863,-2.1034677,-1.571287,2.406943,-0.14827761,0.19602507,-0.23128869,0.03016562,-0.0035206594,-0.11584901,-0.6895301,-0.05746084,-9.3661175,0.86945957,47.73525,-0.9986849,-1.77915,-3.3218784,-0.29341388,-0.04310248,-0.20630147,27.8125,29.0,28.0625,31.75,33.8125,34.625
0.27005225,-2.157162,-0.32424593,-0.73923683,0.02861991,0.06992172,-0.16843084,-0.39006487,-0.3253749,0.060039904,-3.07674,0.63042957,-5.8041496e-05,-0.13306072,0.019861903,0.002373307,0.0006017173,0.0076065077,-0.035081748,0.42810902,-1.444982,1.9796833,-2.1034443,-1.571287,2.4067402,-0.14748304,0.19821861,-0.2344368,0.029480932,-0.004203924,-0.11224018,-0.7661445,-0.019153614,-9.32781,0.8918391,47.709274,-1.1247818,-1.7577329,-3.1757715,-0.27155066,-0.07198648,-0.25711387,27.8125,29.0,28.0625,31.75,33.8125,34.625
0.27205238,-1.3586962,0.046727013,-0.906661,0.037436806,0.0878518,-0.18056062,-0.3903333,-0.32533845,0.060057823,-3.076721,0.630543,-1.8707578e-05,-0.13331138,0.020236999,0.0018918142,0.0014935345,0.0072749574,-0.038284063,0.42782092,-1.4445987,1.9791931,-2.1033604,-1.5712994,2.4065256,-0.14782628,0.19931778,-0.23457314,0.029191962,-0.004872746,-0.1093797,-0.7469909,0.076614454,-9.500193,0.84484416,47.73077,-1.0002317,-1.6432521,-3.2347727,-0.26010877,-0.026195846,-0.32492816,27.8125,29.0,28.0625,31.75,33.8125,34.625
0.27405217,-1.7254647,0.029163655,-0.78547883,0.019411108,0.09304779,-0.17097345,-0.39059213,-0.32527807,0.060027514,-3.0766313,0.63075584,-8.690418e-05,-0.13399516,0.020400062,0.0019592573,0.0017480068,0.0076590804,-0.040715773,0.42749655,-1.4441546,1.9787506,-2.1033003,-1.5713114,2.4063458,-0.14832288,0.20017779,-0.23580784,0.029322857,-0.0052695745,-0.10744288,-0.80445176,0.019153614,-9.461885,0.86945957,47.71823,-1.1079999,-1.6820747,-3.3836565,-0.23201406,-0.043152973,-0.3896333,27.8125,29.0,28.0625,31.75,33.8125,34.625
0.2760523,-1.6113126,-0.12914234,-0.72128737,-0.0020398009,0.10717126,-0.18282695,-0.39083096,-0.32523426,0.060005438,-3.0766118,0.6308113,-0.00016992052,-0.13481638,0.02075835,0.0021965783,0.0018783833,0.008300001,-0.043537464,0.4271965,-1.4437475,1.9783305,-2.1032403,-1.5712875,2.406083,-0.1493101,0.20059974,-0.23694679,0.029514506,-0.005657816,-0.10560687,-0.6703765,-0.076614454,-9.442732,0.8851263,47.71554,-1.12392,-1.677566,-3.4615412,-0.2284263,-0.029148148,-0.454812,27.8125,29.0,28.0625,31.75,33.8125,34.625
0.27805233,-2.1112316,-0.757307,-0.8608152,0.0041573136,0.09144933,-0.17140272,-0.39111137,-0.32517943,0.06000013,-3.0765436,0.6310089,-0.00016760633,-0.13435619,0.021075575,-0.00012065521,0.0037670853,0.0038998474,-0.044250343,0.42687243,-1.4433151,1.9778408,-2.1031682,-1.5713114,2.4058914,-0.1494464,0.20519222,-0.23692174,0.029680222,-0.0055538393,-0.10502995,-0.59376204,-0.11492168,-9.442732,0.8605109,47.694946,-1.0967575,-1.6354893,-3.5113273,-0.22354797,-0.035724103,-0.48139107,27.8125,29.0,28.0625,31.75,33.8125,34.625
0.28005236,-1.9674773,-0.8752084,-0.7959458,0.0047432184,0.07901232,-0.16622134,-0.39138088,-0.32513005,0.060020335,-3.0764768,0.63103205,-7.7671924e-05,-0.13522662,0.021598198,-0.0014649428,0.004995944,0.0014315705,-0.043187637,0.4266077,-1.4429302,1.9773377,-2.1030605,-1.5713953,2.4056501,-0.15096913,0.20939489,-0.23871756,0.030017061,-0.005654426,-0.10761385,-0.3256114,-0.05746084,-9.423578,0.88960326,47.684196,-1.1167053,-1.8766506,-3.6205192,-0.18910086,-0.057388954,-0.5095375,27.8125,29.0,28.0625,31.75,33.8125,34.625
0.2820523,-1.4239725,-0.8373398,-0.8321189,0.016468087,0.054541092,-0.16746768,-0.39166412,-0.32507995,0.06000396,-3.0764856,0.63129985,-0.00010328531,-0.13694184,0.021568095,-0.0015379471,0.005502792,0.0026537743,-0.03778258,0.42623582,-1.44251,1.9769057,-2.103073,-1.5713362,2.4054444,-0.15157829,0.21226875,-0.24167982,0.029205604,-0.0066310866,-0.113624066,-0.22984336,-0.038307227,-9.423578,0.90750587,47.71554,-1.189369,-1.8507185,-3.61692,-0.20511493,-0.036862575,-0.5228409,27.8125,29.0,28.0625,31.75,33.8125,34.625
0.28405228,-0.3807519,0.16480312,-0.82465786,0.011730843,0.03945199,-0.1791257,-0.3919398,-0.32504186,0.06000564,-3.0764468,0.63128644,-3.4052577e-05,-0.13894819,0.021307562,-0.0005517902,0.004674475,0.0063907495,-0.030074906,0.4259715,-1.4420786,1.9764036,-2.1030138,-1.5713962,2.405177,-0.1521387,0.21289352,-0.24433134,0.027474772,-0.007434472,-0.121888794,-0.2681506,0.1340753,-9.346964,0.8717007,47.70659,-1.2048981,-1.92048,-3.561572,-0.16155967,-0.012228502,-0.4231758,27.8125,29.0,28.0625,31.75,33.8125,34.625
0.28605226,-0.37528226,-0.62337744,-0.875268,0.010740049,0.017210064,-0.17534983,-0.392251,-0.3249999,0.060018003,-3.0764487,0.6313969,7.951643e-05,-0.14111456,0.021634605,5.8311503e-05,0.004054472,0.009018482,-0.02077036,0.42564666,-1.4416469,1.9758872,-2.1030018,-1.5714206,2.4049213,-0.15408084,0.21403654,-0.24679387,0.026132211,-0.007959354,-0.13313334,0.0,0.22984336,-9.385271,0.9186956,47.70032,-1.1156082,-1.8816848,-3.5875049,-0.10305479,-0.009482372,-0.34790608,27.8125,29.0,28.0625,31.75,33.8125,34.625
0.2880522,0.15504709,-0.654797,-0.59935266,-0.02102047,0.012963019,-0.17537495,-0.39253306,-0.3249386,0.060016073,-3.0764213,0.63146454,0.00011169604,-0.14155605,0.0217857,0.00038551312,0.0040430995,0.00802702,-0.015558812,0.4253107,-1.4412386,1.9754213,-2.1029532,-1.5714444,2.4046314,-0.15487047,0.21466966,-0.24886829,0.028459614,-0.0075389715,-0.13913496,0.038307227,0.36391866,-9.2703495,0.9231726,47.695843,-1.2158691,-1.9712765,-3.492321,-0.07502624,-0.010904789,-0.24322128,27.8125,29.0,28.0625,31.75,33.8125,34.625
0.29005226,-0.11799003,-1.3718299,-0.71783835,-0.02685869,-0.005247904,-0.17698312,-0.3928061,-0.32488358,0.060000762,-3.0763655,0.6315869,7.587565e-05,-0.14258115,0.02195306,0.00093181257,0.004589949,0.0068187043,-0.0125491135,0.42498633,-1.4407955,1.9749411,-2.1028802,-1.5714563,2.4043908,-0.15590501,0.21634674,-0.2529431,0.032176267,-0.0075447713,-0.14317754,-0.019153614,0.45968673,-9.404425,0.8157518,47.71823,-1.105641,-1.9111915,-3.372696,-0.099721715,-0.009658278,-0.17096657,27.8125,29.0,28.0625,31.75,33.8125,34.625
0.29205212,-0.11272264,-1.6532536,-0.4521003,-0.046551283,0.010732911,-0.17511359,-0.39306796,-0.32484663,0.05999804,-3.0763454,0.63158405,2.9272114e-05,-0.14374292,0.023509823,0.0013005501,0.005188736,0.0066551478,-0.01662383,0.4246972,-1.4403646,1.9744376,-2.102772,-1.5714563,2.4041028,-0.15931503,0.21602197,-0.25388896,0.033843093,-0.008024692,-0.14251171,-0.15322891,0.51714754,-9.308656,0.85826975,47.670765,-1.0244389,-1.7672437,-3.2536993,-0.09312695,0.017547809,-0.13956517,27.8125,29.0,28.0625,31.75,33.8125,34.625
0.29405218,-0.5992968,-2.2029667,-0.63216066,-0.057104092,0.024906913,-0.16591531,-0.3933603,-0.32481322,0.060002178,-3.0763385,0.631605,5.284439e-05,-0.14450845,0.023116637,0.0016403171,0.0051594754,0.00611496,-0.020892026,0.42439702,-1.4399087,1.9738983,-2.1026995,-1.5714682,2.403817,-0.15925692,0.21778592,-0.25721037,0.03587994,-0.007772717,-0.13818464,-0.19153613,0.59376204,-9.423578,0.8403672,47.699425,-0.9168215,-1.8341777,-3.2862988,-0.091607116,0.011253562,-0.14533968,27.8125,29.0,28.0625,31.75,33.8125,34.625
0.29605225,-0.8970879,-2.242792,-0.8015244,-0.06902986,0.027128177,-0.166119,-0.39362985,-0.32474533,0.05996956,-3.0762372,0.6317215,-5.043829e-05,-0.14535174,0.0231851,0.0012718659,0.004946307,0.004211024,-0.02753815,0.4240604,-1.4394292,1.9734081,-2.1025913,-1.5714921,2.4035664,-0.16059098,0.22048292,-0.25987417,0.0374901,-0.006805662,-0.13287267,-0.095768064,0.47884035,-9.346964,0.8940802,47.713753,-0.9251591,-1.7777636,-3.3379605,-0.09572565,0.011819613,-0.23953335,27.8125,29.0,28.0625,31.75,33.8125,34.625
0.2980526,-1.0160784,-2.5220265,-0.71296716,-0.06343729,0.026805036,-0.1670842,-0.39392516,-0.32470632,0.05997527,-3.0762146,0.6318559,-1.1053735e-05,-0.14620307,0.023892809,0.0008141883,0.004710417,0.0038033663,-0.035854373,0.423748,-1.4389853,1.9728812,-2.1025317,-1.571504,2.403341,-0.16272186,0.22169776,-0.2601352,0.03681186,-0.0064172875,-0.12668805,-0.1340753,0.5363012,-9.3661175,0.85826975,47.73614,-1.058511,-1.8619246,-3.326662,-0.080833204,0.000102194026,-0.28885818,27.8125,29.0,28.0625,31.75,33.8125,34.625
0.30005184,-0.5184636,-1.854474,-0.3017158,-0.06910436,0.05496577,-0.17441209,-0.394252,-0.32467124,0.060012314,-3.07623,0.63193554,0.00011683586,-0.14669894,0.02306759,0.0015287232,0.0037433042,0.0059100213,-0.035317667,0.42342454,-1.4385543,1.9722942,-2.1024601,-1.5715278,2.4030657,-0.16146828,0.22154807,-0.26150832,0.036012508,-0.0063943877,-0.12597108,-0.21068975,0.4213795,-9.270349,0.93436235,47.755844,-1.0248309,-1.7660531,-3.3482952,-0.06637278,-0.0036016142,-0.3378218,27.8125,29.0,28.0625,31.75,33.8125,34.625
0.3020518,-0.16162986,-0.76288223,-0.42973977,-0.048039813,0.057708163,-0.18281715,-0.39453313,-0.32462755,0.05998699,-3.0761886,0.6320424,3.903319e-05,-0.14756802,0.023461794,0.0016538213,0.0032381269,0.0053420407,-0.037064783,0.42309996,-1.4380625,1.9717811,-2.1023877,-1.5715154,2.4028134,-0.16323048,0.22244546,-0.26315218,0.03706673,-0.0057069226,-0.12598675,-0.24899697,0.40222588,-9.232041,0.85826975,47.70032,-1.0260187,-1.6520331,-3.421198,-0.04398182,-0.0022736806,-0.33520907,27.8125,29.0,28.0625,31.75,33.8125,34.625
0.30405173,-0.14439072,-0.2360418,-0.6680277,-0.0067985384,0.024143226,-0.1744796,-0.39486134,-0.32457495,0.059990987,-3.0761573,0.6322294,0.00014682992,-0.14809752,0.023717139,0.0006735163,0.002965063,0.0030953109,-0.038818218,0.4227515,-1.4375947,1.9712414,-2.1023757,-1.5715512,2.402586,-0.16475551,0.2252559,-0.2642239,0.0372547,-0.0045291204,-0.12576038,-0.019153614,0.30645782,-9.3661175,0.8851263,47.686886,-0.9631747,-1.7135954,-3.5124307,-0.04474517,-0.02652377,-0.3514266,27.8125,29.0,28.0625,31.75,33.8125,34.625
0.3060518,-0.30621567,-0.6159803,-0.2631795,0.0032031075,0.02244093,-0.17366911,-0.39512244,-0.32453907,0.05996416,-3.0761316,0.6322423,2.9498162e-05,-0.14911519,0.024006644,-0.0005256189,0.0031880862,0.0009848163,-0.039490286,0.42245084,-1.437114,1.9707383,-2.10228,-1.5715269,2.402297,-0.16643041,0.22928584,-0.2661047,0.037120618,-0.0038810847,-0.12676284,-0.1340753,0.15322891,-9.251195,0.8851263,47.687782,-0.91083896,-1.8805425,-3.4304876,-0.010203993,-0.02079365,-0.38132593,27.8125,29.0,28.0625,31.75,33.8125,34.625
0.30805182,-0.18901609,0.46602166,-0.14068344,0.013791315,0.015237743,-0.176616,-0.3954366,-0.32446867,0.05994599,-3.0760636,0.6324578,7.822605e-06,-0.15030032,0.02448306,-0.00017929933,0.0030824125,0.0014213531,-0.036737826,0.42206627,-1.4366226,1.9702114,-2.1022198,-1.5715388,2.402056,-0.16807067,0.23006396,-0.26804653,0.03783625,-0.003972389,-0.13115452,-0.076614454,0.05746084,-9.174581,0.84484416,47.699425,-0.92571485,-1.9554908,-3.4249575,-0.008333696,-0.022654034,-0.35352212,27.8125,29.0,28.0625,31.75,33.8125,34.625
0.31005177,0.12681247,1.118761,-0.51661986,0.051814288,0.008289705,-0.18371059,-0.39575624,-0.32444647,0.059985157,-3.0760942,0.6325738,0.00015377563,-0.15183762,0.023515739,0.0009037123,0.002774184,0.0037603374,-0.029330641,0.42176673,-1.436203,1.9696368,-2.1021717,-1.5715512,2.4018252,-0.16696717,0.23163377,-0.27253568,0.03848921,-0.004646526,-0.13745497,0.0,-0.05746084,-9.212888,0.947788,47.771965,-0.9253379,-1.9163251,-3.3847485,0.0139681995,-0.028756011,-0.30634207,27.8125,29.0,28.0625,31.75,33.8125,34.625
0.31205165,-0.49385616,0.66349506,-0.49060252,0.065254755,-0.001964559,-0.17217502,-0.39604032,-0.324401,0.059956446,-3.0760553,0.6325056,7.135899e-05,-0.15244804,0.023927793,0.0003454099,0.0038998332,0.0017063661,-0.023389876,0.42145413,-1.4356866,1.969097,-2.1020758,-1.5715636,2.4014754,-0.16795631,0.23428807,-0.2748183,0.040443316,-0.0048476905,-0.14438319,-0.076614454,-0.1340753,-9.232041,0.9254084,47.709274,-0.917203,-2.0188286,-3.3343062,0.011381254,-0.034730613,-0.22400805,27.8125,29.0,28.0625,31.75,33.8125,34.625
0.3140517,-0.21702676,0.88600147,-0.46077955,0.046722673,0.014866626,-0.19003214,-0.39633667,-0.32436085,0.059956476,-3.0760493,0.63259655,3.0053856e-05,-0.15358295,0.024308477,0.0007384436,0.003939191,0.00131944,-0.017742835,0.42111737,-1.4352194,1.9685467,-2.101979,-1.5715393,2.4011965,-0.16951796,0.23548183,-0.27762,0.042415332,-0.0047338093,-0.15159108,-0.15322891,-0.19153613,-9.193734,0.8717007,47.7254,-0.935256,-2.1043105,-3.3673944,0.01346998,-0.049018957,-0.12692596,27.8125,29.0,28.0625,31.75,33.8125,34.625
0.31605178,0.26175725,0.73263854,-0.7060505,0.039023444,0.038030043,-0.18313435,-0.39663953,-0.3243006,0.05994632,-3.0760126,0.63260645,1.7831246e-05,-0.15285574,0.02419479,0.00021894732,0.0052930946,-0.0013630217,-0.014211787,0.42077038,-1.43474,1.9680084,-2.1018941,-1.5715636,2.4008608,-0.16845138,0.23688407,-0.27874327,0.045130994,-0.0048759566,-0.15405515,-0.24899697,-0.11492168,-9.289502,0.8537928,47.711063,-1.0734122,-2.0312197,-3.3825092,0.0034795702,-0.04607496,-0.09127988,27.8125,29.0,28.0625,31.75,33.8125,34.625
0.31805182,-0.6316094,0.030228658,-0.62402207,0.007068908,0.051805876,-0.17267874,-0.39691722,-0.32426068,0.05992169,-3.0759687,0.63265777,-8.842334e-05,-0.15197311,0.025042923,-0.0014163977,0.007831077,-0.006377553,-0.019061685,0.42045823,-1.4342357,1.9674696,-2.101786,-1.5715517,2.4005866,-0.16895719,0.23961323,-0.2788979,0.04817606,-0.0051485617,-0.14971049,-0.36391866,0.0,-9.32781,0.98807013,47.705692,-1.1406823,-2.0743353,-3.4197347,-0.015405582,-0.053732105,-0.05252278,27.8125,29.0,28.0625,31.75,33.8125,34.625
0.32005173,-1.03642,-0.49326676,-0.80315197,-0.0083395885,0.063261576,-0.17283991,-0.3972281,-0.3242058,0.05993384,-3.0759254,0.632689,-7.4420015e-05,-0.15187556,0.025119208,-0.0013821139,0.008896826,-0.008540792,-0.02350968,0.42012256,-1.4337682,1.9668821,-2.1016524,-1.5715874,2.4002764,-0.16879892,0.24078164,-0.28121316,0.05173095,-0.005237637,-0.14510357,-0.38307226,0.038307227,-9.3661175,0.8717007,47.71554,-1.2508595,-2.0484915,-3.4528215,-0.05740978,-0.060466744,-0.09670913,27.8125,29.0,28.0625,31.75,33.8125,34.625
0.3220526,-0.786409,-0.3693908,-0.8113949,-0.01707429,0.06700543,-0.1774916,-0.3975002,-0.3241545,0.059909776,-3.0758457,0.63271415,-0.00020463878,-0.15247175,0.025414592,-0.00042385937,0.009745856,-0.008490315,-0.030177685,0.41981035,-1.4332651,1.9663318,-2.1014955,-1.5715994,2.3999906,-0.1691632,0.24055268,-0.28401965,0.055072643,-0.0060458044,-0.13879691,-0.40222588,0.076614454,-9.500193,0.94331104,47.71554,-1.1809247,-2.0316865,-3.4739885,-0.09624091,-0.05223096,-0.14401287,27.8125,29.0,28.0625,31.75,33.8125,34.625
0.32405168,-1.3274572,-0.70687807,-0.8141562,-0.016118975,0.06923629,-0.16630082,-0.39785618,-0.32408795,0.05995561,-3.0758448,0.6329483,-7.247973e-05,-0.15314917,0.026344981,0.00018605834,0.009858656,-0.008382765,-0.03698595,0.4194016,-1.4328462,1.9657334,-2.1014116,-1.5716122,2.3997283,-0.17115888,0.23971541,-0.28495058,0.056790125,-0.006178423,-0.13398482,-0.6512229,0.11492168,-9.385271,0.90750587,47.693153,-1.0847219,-1.9798706,-3.4921901,-0.13911219,-0.053758916,-0.21618196,27.8125,29.0,28.0625,31.75,33.8125,34.625
0.32605258,-1.2163846,-0.5631424,-0.9825464,0.0034862293,0.080359116,-0.167353,-0.39812413,-0.32404134,0.05990633,-3.0757303,0.63300467,-0.00026540292,-0.15283303,0.026785882,-0.001070507,0.011525504,-0.011339417,-0.044080295,0.41910163,-1.4322826,1.9651717,-2.1012552,-1.5716237,2.3994787,-0.17134947,0.24223574,-0.2853489,0.058052488,-0.006514018,-0.12707922,-0.49799395,0.05746084,-9.5385,0.8918391,47.705692,-1.3209653,-1.9619925,-3.5070705,-0.17067203,-0.05359038,-0.3218162,27.8125,29.0,28.0625,31.75,33.8125,34.625
0.32805175,-0.77696365,0.14085391,-0.9982108,0.008678557,0.08664087,-0.18318677,-0.3984341,-0.32401317,0.059921898,-3.0757487,0.6330863,-0.00025861786,-0.152907,0.026751032,-0.00069252995,0.01091689,-0.011311727,-0.046552416,0.41877788,-1.4318155,1.9645847,-2.1011593,-1.5715994,2.3992038,-0.17153989,0.24172902,-0.28593242,0.058871582,-0.0059683924,-0.12479916,-0.51714754,0.05746084,-9.576807,0.9164598,47.684196,-1.3615559,-1.8853937,-3.5217237,-0.20093404,-0.05543443,-0.3634175,27.8125,29.0,28.0625,31.75,33.8125,34.625
0.33005175,-1.1568164,-0.39894673,-0.81332076,0.010340025,0.08379299,-0.17253526,-0.39873037,-0.32392904,0.059882555,-3.0756009,0.63336325,-0.00039234472,-0.15480568,0.026409088,0.00028551184,0.009504053,-0.009369138,-0.049727373,0.41839424,-1.4312879,1.9640464,-2.1010277,-1.5716232,2.3990123,-0.17262247,0.24290912,-0.28967845,0.05908397,-0.005492859,-0.12270546,-0.4213795,0.095768064,-9.5385,0.9410752,47.678825,-1.3140697,-1.8104863,-3.6696062,-0.2249066,-0.075343266,-0.44863245,27.8125,29.0,28.0625,31.75,33.8125,34.625
0.33205196,-1.5728456,-0.50915897,-0.8492899,0.010538588,0.05875815,-0.16601509,-0.39907628,-0.32390514,0.059921086,-3.075639,0.6335046,-0.0002817278,-0.15607797,0.027404897,-0.0004371114,0.01076962,-0.010235006,-0.05054305,0.41805816,-1.4308202,1.9634112,-2.1009562,-1.5716122,2.3987598,-0.17479827,0.24565083,-0.2912819,0.05925219,-0.0062947427,-0.12406315,-0.40222588,0.11492168,-9.481039,0.97464454,47.70838,-1.2970209,-1.9064401,-3.5835698,-0.24782535,-0.06854746,-0.49026525,27.8125,29.0,28.0625,31.75,33.8125,34.625
0.33405235,-0.95362204,-0.38371438,-1.0507162,0.0073323436,0.06414078,-0.16553529,-0.39937747,-0.32382524,0.059902605,-3.0755084,0.6336073,-0.00032618394,-0.15744703,0.027768122,-0.0006380308,0.0117783155,-0.00946784,-0.044383664,0.41771042,-1.4303161,1.9628485,-2.1008122,-1.5716842,2.3984935,-0.17560732,0.24794188,-0.29343975,0.058813117,-0.0075562377,-0.1310266,-0.2681506,0.095768064,-9.461885,0.9388393,47.678825,-1.2242789,-1.8065231,-3.6049232,-0.2610846,-0.03341471,-0.47432685,27.8125,29.0,28.0625,31.75,33.8125,34.625
0.33605167,-1.0717579,-0.51563656,-1.0113086,-0.0046798005,0.054995257,-0.16602859,-0.39968064,-0.32378864,0.059899908,-3.0755079,0.63362134,-0.00035648097,-0.15793374,0.028540779,-0.0015177222,0.012737577,-0.011863149,-0.036491364,0.4173861,-1.4298245,1.9622744,-2.1007159,-1.5716723,2.3981783,-0.17731526,0.25037834,-0.29460594,0.06011016,-0.007478039,-0.14062648,-0.076614454,0.11492168,-9.500193,0.89631605,47.68599,-1.0574081,-2.0154772,-3.5425615,-0.29875055,-0.06457375,-0.38878155,27.8125,29.0,28.0625,31.75,33.8125,34.625
0.33805266,-0.05729651,-1.1797509,-1.0500575,-0.0043874676,0.055167556,-0.17329513,-0.40000474,-0.32370088,0.059886944,-3.0753791,0.6337816,-0.0004369533,-0.16084471,0.028994603,-0.0011005036,0.011157398,-0.009518375,-0.029762538,0.4169899,-1.4292965,1.9616636,-2.100537,-1.57172,2.3978992,-0.18065059,0.2526911,-0.2978985,0.058283817,-0.007025649,-0.15068896,-0.095768064,0.076614454,-9.595961,0.84484416,47.64389,-0.99942124,-1.9167212,-3.6015072,-0.32154214,-0.061746985,-0.2962977,27.8125,29.0,28.0625,31.75,33.8125,34.625
0.34005272,-0.6989721,-1.1255213,-1.0382373,-0.023921061,0.034669004,-0.16564165,-0.4003578,-0.32365608,0.059895664,-3.0753648,0.6338881,-0.00042342182,-0.16290012,0.028884921,-0.0015996135,0.011031165,-0.008129258,-0.023385288,0.41661844,-1.4287555,1.9610046,-2.1004307,-1.5717205,2.3975964,-0.18163349,0.25651115,-0.30069456,0.05592957,-0.0074953716,-0.15804572,-0.2681506,0.19153613,-9.519346,0.82694155,47.723602,-1.0824192,-2.1963668,-3.5129035,-0.3079071,-0.048857868,-0.1994107,27.8125,29.0,28.0625,31.75,33.8125,34.625
0.3420521,-0.9719147,-1.2061284,-1.0309206,-0.030998167,0.03866312,-0.16489366,-0.40066075,-0.32360628,0.059888296,-3.0753303,0.6338986,-0.00043291968,-0.16408548,0.029582486,-0.0015301546,0.011154242,-0.0065761167,-0.022296872,0.41629443,-1.4282646,1.9604415,-2.1003354,-1.5717443,2.3972838,-0.18322344,0.2569282,-0.30114028,0.054581366,-0.008250748,-0.16072163,-0.2873042,0.21068975,-9.481039,0.89631605,47.658226,-1.0235777,-2.0974135,-3.5374815,-0.30443552,-0.058769085,-0.13208726,27.8125,29.0,28.0625,31.75,33.8125,34.625
0.34405214,-0.5023522,-1.3434156,-0.83454615,-0.044180777,0.057389498,-0.17624924,-0.40098912,-0.3235608,0.059909035,-3.075331,0.63397896,-0.00043158943,-0.16616014,0.029925596,-0.0003784737,0.010357138,-0.004862465,-0.028607707,0.41593462,-1.4277854,1.9598187,-2.1002028,-1.5717324,2.3969743,-0.1853836,0.25759178,-0.3049256,0.05581746,-0.008216625,-0.1565696,-0.095768064,0.28730422,-9.595961,0.94331104,47.657326,-1.0333655,-2.068684,-3.5591998,-0.32620737,-0.04403233,-0.14586578,27.8125,29.0,28.0625,31.75,33.8125,34.625
0.3460519,-1.2545861,-1.8694832,-0.71312386,-0.06139875,0.051496122,-0.15814222,-0.40133756,-0.32347912,0.059887663,-3.0752466,0.6341942,-0.00045859456,-0.16764647,0.028822992,-0.00024489663,0.008079937,-0.002388406,-0.034870613,0.41551533,-1.4272336,1.9592208,-2.1001203,-1.5717558,2.3967006,-0.18506752,0.25964564,-0.30698338,0.05263573,-0.0071452134,-0.14999144,-0.19153613,0.2681506,-9.481039,0.8627467,47.689575,-0.99530697,-1.9769654,-3.5008502,-0.29555735,-0.05043447,-0.17764775,27.8125,29.0,28.0625,31.75,33.8125,34.625
0.3480523,-1.3435907,-1.577868,-0.7200113,-0.05473576,0.044107977,-0.16440566,-0.40169743,-0.3234303,0.059910245,-3.075232,0.6342694,-0.00036302177,-0.17003879,0.028285036,0.0015167516,0.004942752,0.0039025152,-0.041255534,0.41515592,-1.4267193,1.9585623,-2.1000264,-1.571792,2.3963904,-0.18604372,0.25829667,-0.30870253,0.048679672,-0.006812994,-0.14458276,-0.36391866,0.40222588,-9.385271,0.89631605,47.69763,-0.9667562,-1.973206,-3.495349,-0.25478455,-0.056136105,-0.27552503,27.8125,29.0,28.0625,31.75,33.8125,34.625
0.35005224,-0.6667639,-0.84949994,-0.77632177,-0.049339157,0.064262345,-0.17977962,-0.4020085,-0.32338056,0.059896383,-3.0752025,0.63434064,-0.00046341238,-0.17127764,0.02870502,0.0021221875,0.0041457205,0.00613567,-0.043903165,0.41479573,-1.4261924,1.9579638,-2.0998948,-1.5717682,2.3960788,-0.18751746,0.25783902,-0.30942696,0.047500193,-0.0069946097,-0.14340775,-0.2681506,0.2681506,-9.519346,0.9701675,47.705692,-0.9918015,-1.7174952,-3.5194535,-0.24355432,-0.050128583,-0.30396426,27.8125,29.0,28.0625,31.75,33.8125,34.625
0.35205212,-1.3058145,-1.2888452,-0.8562594,-0.01941052,0.06015895,-0.1636654,-0.40237176,-0.32331353,0.059901826,-3.0751214,0.6345159,-0.00036933244,-0.172448,0.028858837,0.0020934257,0.0037282377,0.007350814,-0.04638444,0.41442415,-1.4256533,1.9573182,-2.0998118,-1.5718402,2.3958275,-0.188477,0.2590884,-0.31060746,0.046140727,-0.0071008597,-0.14188513,-0.17238252,0.076614454,-9.442732,0.9455522,47.684196,-0.9737092,-1.6863313,-3.695266,-0.21004918,-0.04320786,-0.33877257,27.8125,29.0,28.0625,31.75,33.8125,34.625
0.3540522,-1.0399826,-0.6681784,-0.79528326,-0.0061136037,0.054728832,-0.17388362,-0.40272024,-0.32328665,0.059927106,-3.0751922,0.634624,-0.00033513005,-0.1730552,0.028169835,0.0019533467,0.002580588,0.008055816,-0.045687336,0.41405278,-1.4251614,1.956683,-2.0997398,-1.5717801,2.3955147,-0.1880035,0.26061493,-0.31182802,0.04473084,-0.006328015,-0.14211035,-0.19153613,0.0,-9.5385,0.89631605,47.66987,-1.005772,-1.6531097,-3.6427534,-0.18576127,-0.071810976,-0.35311288,27.8125,29.0,28.0625,31.75,33.8125,34.625
0.3560523,-1.4982955,-0.7817845,-0.6303823,0.010127135,0.04622882,-0.1636551,-0.40306506,-0.32323143,0.059902474,-3.0751326,0.634742,-0.00032032182,-0.17429744,0.026140584,0.0026885623,0.0012745272,0.010360079,-0.04033226,0.4136947,-1.4245851,1.9560713,-2.099692,-1.5718154,2.3952384,-0.18526249,0.26322702,-0.3164999,0.044144753,-0.0060722805,-0.14472246,-0.45968673,0.05746084,-9.481039,0.90750587,47.672558,-1.152967,-1.8219436,-3.5867386,-0.15026088,-0.08111784,-0.40269804,27.8125,29.0,28.0625,31.75,33.8125,34.625
0.35805234,-1.067347,0.14359918,-0.60833395,0.0043893987,0.06610023,-0.17887475,-0.40341148,-0.32316458,0.059900135,-3.0750976,0.6349023,-0.00029489608,-0.17452225,0.025228776,0.0025894984,0.0011340713,0.01099645,-0.032438837,0.41329965,-1.4240698,1.9554724,-2.099621,-1.5718278,2.3949482,-0.18348326,0.26478115,-0.3180203,0.043461096,-0.0062055425,-0.15083556,-0.32561144,0.0,-9.442732,0.9298854,47.682407,-1.300439,-1.8402634,-3.4861493,-0.1194299,-0.0857722,-0.317208,27.8125,29.0,28.0625,31.75,33.8125,34.625
0.36005273,-0.41028374,0.6258101,-0.9601032,0.03163696,0.058374334,-0.18203947,-0.40376857,-0.323134,0.0599261,-3.075136,0.63498294,-0.00024427034,-0.17646097,0.02586712,0.0020374379,0.0016263897,0.009933338,-0.026168639,0.41293928,-1.4235537,1.9548019,-2.0995247,-1.5718039,2.3946335,-0.18599664,0.26877928,-0.3216263,0.044231642,-0.0062328684,-0.15961744,-0.019153614,0.05746084,-9.481039,0.947788,47.721813,-1.2519882,-1.9393642,-3.470038,-0.08203895,-0.09379721,-0.2539823,27.8125,29.0,28.0625,31.75,33.8125,34.625
0.36205187,-0.6813204,0.45191738,-0.7437455,0.02049883,0.052628078,-0.18037222,-0.40412575,-0.32306498,0.05992338,-3.0751152,0.6350303,-0.00024010421,-0.17756744,0.026190218,0.00085098715,0.0027796188,0.0073786685,-0.019365799,0.41253206,-1.4230121,1.9541677,-2.0994284,-1.5718158,2.394259,-0.1872421,0.27352822,-0.32473937,0.045384932,-0.006274802,-0.16766387,-0.11492168,0.095768064,-9.519346,0.8940802,47.686886,-1.3443308,-2.0511608,-3.3967524,-0.08514587,-0.08330699,-0.12962888,27.8125,29.0,28.0625,31.75,33.8125,34.625
0.36405185,-0.82742375,-0.14279287,-0.7158401,0.0035710232,0.03841379,-0.17134577,-0.40444636,-0.3230184,0.059927765,-3.0750968,0.6350448,-0.00024462622,-0.18025003,0.026466038,0.0034403577,0.0012130594,0.0120850485,-0.018564617,0.4121958,-1.4225085,1.953555,-2.0993087,-1.5718278,2.3939345,-0.18941972,0.2718401,-0.32911062,0.04649888,-0.0067348927,-0.17064005,-0.15322891,0.1340753,-9.481039,0.93436235,47.71554,-1.2889907,-1.9936223,-3.3531156,-0.06498592,-0.10220869,-0.047115184,27.8125,29.0,28.0625,31.75,33.8125,34.625
0.36605206,-0.46001622,-0.66346896,-0.99287856,-0.00839817,0.036359835,-0.1740095,-0.40483794,-0.3229449,0.05995604,-3.0750525,0.6351127,-8.573042e-05,-0.17854694,0.02792316,0.00046402917,0.005795782,0.005681783,-0.022227911,0.41180056,-1.4219785,1.9528626,-2.099212,-1.5719122,2.3935878,-0.18944848,0.27548662,-0.32706466,0.048502725,-0.008343588,-0.16700314,-0.21068975,0.24899697,-9.595961,0.8717007,47.687782,-1.3123837,-1.9716899,-3.3906097,-0.05063039,-0.101491965,-0.028877255,27.8125,29.0,28.0625,31.75,33.8125,34.625
0.36805207,-0.5275059,-0.9019755,-0.70160174,-0.045101993,0.04138998,-0.17348374,-0.4051827,-0.32286516,0.059922777,-3.0749447,0.6353247,-0.00016138353,-0.17859195,0.028768549,0.00042560234,0.0068450905,0.0048902966,-0.031147404,0.4113933,-1.4213903,1.9522413,-2.0991037,-1.571937,2.3933272,-0.19040166,0.27530244,-0.32727012,0.050043315,-0.008988721,-0.15903515,-0.22984336,0.30645782,-9.595961,0.90750587,47.694946,-1.2106364,-1.9816366,-3.6289382,-0.053421162,-0.06680393,-0.09808316,27.8125,29.0,28.0625,31.75,33.8125,34.625
0.370052,-0.5423826,-1.6253201,-0.855291,-0.050947588,0.04286905,-0.17510688,-0.40553436,-0.32282025,0.059936367,-3.0749452,0.6353671,-0.00017760607,-0.17935243,0.029765032,0.00088900275,0.0069362647,0.0043559037,-0.040869627,0.41102087,-1.4208498,1.951559,-2.0989592,-1.571925,2.3929815,-0.19271348,0.2750215,-0.3286446,0.05223332,-0.008848654,-0.15162517,-0.15322891,0.24899697,-9.615114,0.93436235,47.713753,-1.1788219,-1.7785369,-3.7801867,-0.047096543,-0.082248785,-0.16438235,27.8125,29.0,28.0625,31.75,33.8125,34.625
0.37205204,-0.9536389,-2.042769,-1.0826173,-0.049184088,0.024153452,-0.17119242,-0.40594727,-0.32278705,0.059999075,-3.074981,0.6355879,2.7143682e-05,-0.1804884,0.031306658,0.0005462024,0.007935689,0.0022994364,-0.047832824,0.4106366,-1.4203331,1.9508051,-2.0988748,-1.571937,2.3927307,-0.1961597,0.27675292,-0.33052737,0.05466934,-0.008915723,-0.14810893,-0.15322891,0.19153613,-9.710882,0.9791215,47.692257,-1.1442825,-1.8422852,-3.710063,-0.064271085,-0.080544785,-0.26670232,27.8125,29.0,28.0625,31.75,33.8125,34.625
0.37405252,-0.41570878,-1.722439,-0.78670835,-0.05474636,0.032827172,-0.17186493,-0.40627384,-0.32270986,0.059978165,-3.074878,0.63572353,-1.0078654e-05,-0.18336272,0.030661946,0.0027242282,0.004594921,0.008455274,-0.055012114,0.41026473,-1.4197924,1.9502066,-2.0987556,-1.5719846,2.3924572,-0.19746347,0.27587363,-0.3340547,0.05209445,-0.008324825,-0.14223255,-0.2681506,0.28730422,-9.730036,0.9298854,47.698532,-1.0074352,-1.5758936,-3.6893015,-0.027983753,-0.060861684,-0.3374089,27.8125,29.0,28.0625,31.75,33.8125,34.625
