Tylouw/Master_Thesis_Code/training_data/batch_1/big_rod_t0.3/sample_52_session_2.csv
timestamp[s],tcp_force_x[N],tcp_force_y[N],tcp_force_z[N],tcp_force_rx[Nm?],tcp_force_ry[Nm?],tcp_force_rz[Nm?],tcp_pose_x[m],tcp_pose_y[m],tcp_pose_z[m],tcp_pose_rx[rot_vec_x],tcp_pose_ry[rot_vec_y],tcp_pose_rz[rot_vec_z],tcp_velo_x[m/s],tcp_velo_y[m/s],tcp_velo_z[m/s],tcp_velo_rx[rot_vec_x/s],tcp_velo_ry[rot_vec_y/s],tcp_velo_rz[rot_vec_z/s],q1[rad],q2[rad],q3[rad],q4[rad],q5[rad],q6[rad],qd1[rad/s],qd2[rad/s],qd3[rad/s],qd4[rad/s],qd5[rad/s],qd6[rad/s],tool_acc_x,tool_acc_y,tool_acc_z,current_of_whole_robot[A],voltage_of_whole_robot[V],current_J1[A],current_J2[A],current_J3[A],current_J4[A],current_J5[A],current_J6[A],temp_J1[C],temp_J2[C],temp_J3[C],temp_J4[C],temp_J5[C],temp_J6[C]
8.129864e-07,-0.27988002,-0.8251623,0.4350809,-0.011454523,0.02025546,-0.016970567,-0.37287804,-0.32821703,0.059928924,-3.0784693,0.62486374,-0.00031007413,0.0022821426,0.0011257583,-0.0033771242,0.0032404142,-0.00696767,-2.9817085e-05,0.44815025,-1.4708492,2.009596,-2.107703,-1.5706614,2.4230676,-0.000115421295,0.0033329504,0.004009316,0.00034102346,0.000107901134,-8.778518e-05,0.076614454,0.30645782,-9.002198,0.7239871,47.744205,-0.20044154,-2.804368,-2.4937966,-0.4853575,0.14433447,-0.10903154,27.6875,28.9375,28.0,31.6875,33.625,34.5
0.00205259,-0.2507735,-0.5644023,0.4786425,-0.0030602566,0.013667733,-0.02117939,-0.37289047,-0.32822096,0.059919495,-3.0784845,0.6248472,-0.00031751793,-0.00043918894,-0.0001909406,-0.0027628208,-0.0006076837,0.0009921615,-2.5860902e-05,0.4481382,-1.4708133,2.0095847,-2.1077306,-1.5706495,2.4230433,-0.00011334502,0.0040337266,0.004010755,-0.009202382,0.00010537445,-8.6727734e-05,0.038307227,0.22984336,-8.887277,0.7329411,47.698532,-0.20102255,-2.8094392,-2.3834498,-0.4563655,0.13998461,-0.122476324,27.6875,28.9375,28.0,31.6875,33.625,34.5
0.004052169,-0.33591706,-0.55037534,0.27831855,0.008499324,0.010500208,-0.011484964,-0.3728664,-0.32820907,0.059896972,-3.078429,0.6247972,-0.00035622937,-0.0016353023,-0.0007695284,-0.0020197553,-0.002510877,0.004936477,-2.3808641e-05,0.4481623,-1.4708015,2.009621,-2.1077201,-1.5706857,2.4230433,-0.00011134172,0.003419513,0.0037896687,-0.012746556,0.000102963444,-8.5695516e-05,0.076614454,0.15322891,-9.040505,0.7642693,47.691364,-0.15083241,-3.0795848,-2.5305839,-0.36776146,0.14920697,-0.103939086,27.6875,28.9375,28.0,31.6875,33.625,34.5
0.006052388,-0.17519253,-0.24955282,0.19277877,0.020709502,-0.0010496906,-0.017077597,-0.37287194,-0.32821628,0.059895642,-3.0784645,0.62488216,-0.0003742382,-0.0008740219,-0.00040126886,-0.0015167379,-0.001385014,0.002619554,-2.377434e-05,0.4481382,-1.4708018,2.0096319,-2.107753,-1.5706376,2.4230676,-0.00010940835,0.0023852258,0.002697546,-0.008044158,0.00010066024,-8.468754e-05,0.05746084,0.038307227,-9.040505,0.7105615,47.692257,-0.19976345,-2.9863214,-2.5108252,-0.38673377,0.14816742,-0.102579266,27.6875,28.9375,28.0,31.6875,33.625,34.5
0.008052502,0.13127132,0.40974733,-0.34618375,0.041185796,-0.022336403,-0.010023965,-0.37287068,-0.3282285,0.05989943,-3.0784721,0.624845,-0.00037442075,-9.04073e-05,-2.8863962e-05,-0.0010927685,-0.00028657104,0.0003162718,-2.3852464e-05,0.4481623,-1.4707903,2.0096076,-2.1077402,-1.5706376,2.4230676,-0.00010754074,0.0013929257,0.0017999553,-0.0036025308,0.00011683469,-8.370305e-05,-0.076614454,0.019153614,-9.155427,0.78217715,47.686886,-0.14139129,-2.9425452,-2.5153928,-0.4294622,0.14929676,-0.11596074,27.6875,28.9375,28.0,31.6875,33.625,34.5
0.010052487,0.38046816,0.4598739,-0.7747614,0.05541722,-0.019146558,-0.014664646,-0.37288105,-0.3282122,0.059889354,-3.078451,0.6249562,-0.00040265062,0.00013528703,8.681396e-05,-0.000998162,0.00021140884,-0.00071027107,-3.6513815e-05,0.44811413,-1.4707782,2.00962,-2.1077511,-1.5706257,2.4230914,-0.00011907631,0.0013721046,0.0012049425,-0.001845736,0.00011553344,-8.2741135e-05,-0.038307227,0.095768064,-9.32781,0.800085,47.658226,-0.66578734,-2.4377456,-2.988459,-0.46066812,0.1479526,-0.19706556,27.6875,28.9375,28.0,31.6875,33.625,34.5
0.012051857,-0.27126712,-0.17608792,-0.8631865,0.03033382,-0.008997875,-0.018356634,-0.37287426,-0.32820615,0.05987053,-3.078426,0.6248372,-0.00044047445,-0.0013270697,0.0016101715,-0.0030471573,0.0021663348,-0.0047765374,-0.004218426,0.44812506,-1.4707408,2.0096195,-2.1077397,-1.5706495,2.4230313,-0.004317636,0.0069821505,-0.00035518938,-0.0013838585,0.00011319008,-9.7695665e-05,0.095768064,0.095768064,-9.423578,0.7083204,47.678825,-0.84140706,-2.3014417,-3.091056,-0.47985867,0.1411094,-0.22594519,27.6875,28.9375,28.0,31.6875,33.625,34.5
0.014051952,-0.18073253,-0.5108928,-0.9829826,-0.01743561,0.022648454,-0.026312977,-0.37286884,-0.32820237,0.059867628,-3.0784078,0.62485045,-0.00047138977,-0.005405475,0.002506527,-0.0040358575,0.002870103,-0.006276405,-0.0004965422,0.4481229,-1.4707375,2.009617,-2.1077158,-1.5706495,2.4230397,-0.009719965,0.014995419,-0.006925002,-0.0011719447,0.00011087114,-0.009216745,-0.095768064,0.1340753,-9.691729,0.74413085,47.666286,-0.3942501,-2.9013002,-2.9305425,-0.4721985,0.1514815,-0.2166981,27.6875,28.9375,28.0,31.6875,33.625,34.5
0.016052691,-1.2829809,-1.5776732,-1.114377,-0.03221691,0.044171784,-0.025083382,-0.37286314,-0.3281974,0.059843596,-3.0783896,0.62480533,-0.0005579216,-0.0054219775,0.0028596832,-0.0039420463,0.002908816,-0.006357181,0.0046275207,0.44811058,-1.4706899,2.009617,-2.1077034,-1.5706376,2.4230015,-0.0103974035,0.014412159,-0.00657385,-0.000850914,0.00010864081,-0.015018649,-0.32561144,0.21068975,-9.749189,0.70608455,47.716442,-0.45926696,-2.8138332,-3.0918612,-0.47684836,0.15633026,-0.16083828,27.6875,28.9375,28.0,31.6875,33.625,34.5
0.018052572,-2.0508296,-2.0325265,-0.9320877,-0.04949285,0.07692483,-0.04063753,-0.37285006,-0.3281762,0.059819687,-3.0783215,0.62482953,-0.0006243697,-0.005135343,0.0028759898,-0.0036273112,0.002741178,-0.0060049547,0.006759825,0.44809875,-1.4706662,2.0096405,-2.1076791,-1.5706614,2.4230134,-0.010165325,0.013239621,-0.006073541,-0.0005694128,0.000106498206,-0.01691945,-0.53630114,0.21068975,-9.749189,0.7105615,47.65464,-0.6470044,-2.571054,-3.3903217,-0.48923156,0.14287975,-0.16274154,27.6875,28.9375,28.0,31.6875,33.625,34.5
0.020051729,-1.7708027,-1.0348312,-0.82194877,-0.059334792,0.109818615,-0.063652456,-0.37287104,-0.32817963,0.05983487,-3.0783608,0.6247412,-0.0005807806,-0.0061013796,0.003360979,-0.00417339,0.0032419397,-0.0070673227,0.005752159,0.4480861,-1.4706653,2.0096047,-2.1076791,-1.5706614,2.4229407,-0.011962411,0.015597317,-0.007452131,-0.0003742268,0.000113002774,-0.017707733,-0.4213795,0.2681506,-9.959879,0.7620334,47.639416,-0.73926985,-2.521964,-3.528163,-0.4854704,0.15535142,-0.17914999,27.6875,28.9375,28.0,31.6875,33.625,34.5
0.022051847,-2.187928,-1.1961864,-0.95371425,-0.017710848,0.09028719,-0.07459079,-0.37290198,-0.3281729,0.059821855,-3.0783489,0.62477857,-0.00062090036,-0.0085156895,0.0036908586,-0.0030917318,0.0021146294,-0.0047838422,0.0037012228,0.44803718,-1.4705933,2.0095556,-2.1076791,-1.5706495,2.4229167,-0.014792251,0.016337762,-0.010747582,-0.00036563489,0.00013162642,-0.018484585,-0.5554548,0.2681506,-9.864111,0.7732232,47.71554,-0.7201185,-2.439736,-3.44525,-0.50080144,0.16345327,-0.19283542,27.6875,28.9375,28.0,31.6875,33.625,34.5
0.024051832,-1.5066191,-0.7413705,-0.9003162,0.0018611191,0.07807795,-0.09767254,-0.37290415,-0.32816315,0.05980344,-3.0783317,0.62481374,-0.00070351234,-0.009940195,0.0037451263,-0.0032710484,0.0021114496,-0.0049451333,0.0033365567,0.4480007,-1.4705565,2.0095546,-2.1076672,-1.5706257,2.4229043,-0.016236708,0.019041805,-0.013301448,-0.0003717412,0.0001971496,-0.019562555,-0.7086837,0.24899697,-9.825804,0.7777002,47.71554,-0.7790091,-2.526933,-3.4330406,-0.5026338,0.16164488,-0.18073678,27.6875,28.9375,28.0,31.6875,33.625,34.5
0.0260524,-1.6256417,-0.6820035,-1.0851345,0.012829499,0.061817486,-0.11110754,-0.37291956,-0.3281707,0.05980354,-3.078378,0.62476647,-0.00072342483,-0.010783492,0.0039643063,-0.0028962612,0.0017234226,-0.0042893426,0.002104662,0.44797626,-1.4705325,2.0095308,-2.1076791,-1.5705894,2.4228444,-0.017458834,0.019211072,-0.014381908,-0.00021921642,0.00026099666,-0.019552289,-0.8810662,0.22984336,-9.787497,0.69041777,47.692257,-0.75228906,-2.4280481,-3.4290519,-0.49874115,0.15443331,-0.16992322,27.6875,28.9375,28.0,31.6875,33.625,34.5
0.02805258,-1.9076177,-1.0764855,-1.019256,0.0149558615,0.06648996,-0.12582545,-0.37295017,-0.32816198,0.059800435,-3.0783312,0.62477607,-0.0006917494,-0.01162855,0.0032815628,-0.0017670651,-0.0010664687,-0.0029610787,0.0014689304,0.44796398,-1.4704728,2.0094697,-2.1076672,-1.5706366,2.4228442,-0.018253412,0.018404085,-0.016117197,-9.0455214e-05,0.0021965639,-0.019714374,-0.842759,0.11492168,-9.710882,0.784413,47.68599,-0.8058387,-2.3290045,-3.4515924,-0.5001865,0.14032036,-0.1737811,27.6875,28.9375,28.0,31.6875,33.625,34.5
0.030051677,-1.785001,-0.9377269,-0.7291533,-0.006584343,0.09184587,-0.1374494,-0.37296993,-0.32815439,0.05979545,-3.0783496,0.6247805,-0.00071388745,-0.012234939,0.0032431036,-0.0020358784,-0.0006978393,-0.003287129,0.0009386528,0.44791588,-1.4704481,2.0094569,-2.1076791,-1.5706133,2.4227965,-0.018601479,0.020183519,-0.017456539,-7.572587e-05,0.0020027154,-0.019530669,-0.78529817,0.095768064,-9.615114,0.7732232,47.696735,-0.8083885,-2.390768,-3.4081903,-0.50310653,0.14879285,-0.19793716,27.6875,28.9375,28.0,31.6875,33.625,34.5
0.03205262,-2.2147124,-0.72072816,-0.565639,-0.009336565,0.09648881,-0.14935625,-0.37299007,-0.32815957,0.05978599,-3.078341,0.6247024,-0.00073257467,-0.013819874,0.003341321,-0.0014589755,-0.00095642137,-0.0018305306,4.6109082e-05,0.44791532,-1.4703761,2.0093968,-2.1076672,-1.5706252,2.4227483,-0.01995441,0.021257585,-0.019960651,-6.941172e-05,0.0015988786,-0.019988567,-0.6703765,0.095768064,-9.634268,0.78217715,47.701214,-0.7816547,-2.288981,-3.404931,-0.50727355,0.14217053,-0.20240134,27.6875,28.9375,28.0,31.6875,33.625,34.5
0.034052216,-1.9232054,-0.43526992,-0.5232656,0.018416267,0.09792627,-0.16298254,-0.37304693,-0.3281465,0.05981501,-3.0783777,0.6248252,-0.0006391976,-0.01525002,0.0035135788,-0.000732553,-0.0014795382,-0.00020434932,-0.000279671,0.44783092,-1.4703879,2.0093486,-2.107691,-1.5706133,2.422736,-0.021416066,0.0215615,-0.0219608,-6.440952e-05,0.0013629227,-0.021122573,-0.6512228,0.038307227,-9.5385,0.78888994,47.705692,-0.8189329,-2.34105,-3.4086702,-0.52830684,0.14437029,-0.17317685,27.6875,28.9375,28.0,31.6875,33.625,34.5
0.036052395,-1.6467948,-0.2420428,-0.67891675,0.04470097,0.06856958,-0.17349412,-0.3730971,-0.3281558,0.059811953,-3.0784016,0.624791,-0.0006363478,-0.016063193,0.0036239333,-0.0006334177,-0.0015037848,0.00018039905,0.00024262792,0.44779465,-1.4702917,2.0092528,-2.107703,-1.5706013,2.4226754,-0.022260528,0.0224933,-0.023201581,-0.0001120329,0.0012149159,-0.022488112,-0.4213795,0.019153614,-9.5385,0.6658024,47.70838,-0.8176675,-2.305355,-3.3416805,-0.5206226,0.15894002,-0.18756677,27.6875,28.9375,28.0,31.6875,33.625,34.5
0.038052525,-0.9858734,0.019324034,-0.6167965,0.049401395,0.04011393,-0.1913391,-0.37311426,-0.32811907,0.059787862,-3.0783234,0.624852,-0.00067710347,-0.01703675,0.0039173155,-0.0005617321,-0.0015936189,0.00049031584,0.00016666339,0.4477342,-1.4702433,2.0092523,-2.107691,-1.5706371,2.422663,-0.023657558,0.023466215,-0.024417235,-0.00018824998,0.0011568359,-0.023808224,-0.34476504,-0.1340753,-9.5385,0.779936,47.71823,-0.7689459,-2.3498054,-3.3468962,-0.5053109,0.14098755,-0.18290092,27.6875,28.9375,28.0,31.6875,33.625,34.5
0.040052548,0.32963154,0.5616958,-0.55598944,0.03784116,0.037820734,-0.20205961,-0.37316006,-0.32811975,0.059801374,-3.0783763,0.6248254,-0.0006119224,-0.018447153,0.003902911,0.00011927815,-0.002305824,0.0022953947,0.00012797247,0.44768575,-1.4702194,2.0092032,-2.1077273,-1.5706252,2.4225912,-0.02481249,0.023918873,-0.026378863,-0.0006140445,0.001013212,-0.024922725,-0.2873042,-0.17238252,-9.481039,0.7150385,47.71286,-0.79077137,-2.2002068,-3.3551655,-0.502931,0.1717745,-0.1829946,27.6875,28.9375,28.0,31.6875,33.625,34.5
0.042052668,-0.12670882,-0.22618285,-0.67330605,0.03982606,0.019430337,-0.18672624,-0.37317088,-0.32811415,0.05977436,-3.0783525,0.62481964,-0.00072504336,-0.019673873,0.004231115,0.00032800483,-0.0025797586,0.0030225036,0.0005043548,0.44764915,-1.4701352,2.0091674,-2.1077034,-1.5706013,2.422554,-0.026493698,0.024828717,-0.027797813,-0.00087827415,0.0009387892,-0.026979163,-0.076614454,-0.076614454,-9.461885,0.7597976,47.71554,-0.70930195,-2.2229867,-3.3826876,-0.4844625,0.164692,-0.18399505,27.6875,28.9375,28.0,31.6875,33.625,34.5
0.044051792,-0.40031767,-0.55406284,-0.76769036,0.027287629,0.011518701,-0.16426289,-0.37324414,-0.32811743,0.059795734,-3.0783813,0.62490195,-0.0006331105,-0.021322597,0.00412382,0.00076082797,-0.0036228283,0.0050320798,0.0013886031,0.44758874,-1.4700749,2.0090578,-2.1077278,-1.5706013,2.4225414,-0.027828962,0.025934061,-0.029661031,-0.0023838344,0.0010029485,-0.029197004,-0.05746084,0.019153614,-9.519346,0.7418897,47.711063,-0.70636284,-2.1746612,-3.3479502,-0.45856392,0.16428223,-0.1443018,27.6875,28.9375,28.0,31.6875,33.625,34.5
0.046052072,-0.91217977,-1.4655087,-0.7498014,0.03240303,0.0051692766,-0.15602022,-0.37325227,-0.32809338,0.059785653,-3.078349,0.62481815,-0.00067138986,-0.02224175,0.0043609184,0.00077123835,-0.0037377928,0.0046982034,0.0017850051,0.44755223,-1.4700506,2.0090458,-2.1076915,-1.5706252,2.4224567,-0.029275194,0.027255366,-0.031254992,-0.0018616971,0.0012465346,-0.031039188,-0.038307227,0.11492168,-9.423578,0.7866488,47.709274,-0.69552654,-2.2276707,-3.3258028,-0.45195788,0.16718772,-0.12788087,27.6875,28.9375,28.0,31.6875,33.625,34.5
0.04805203,-0.48394734,-0.6938108,-0.5638915,0.005855346,0.014647181,-0.17056586,-0.37332642,-0.32808653,0.05978681,-3.0783699,0.6249571,-0.0006347391,-0.022900386,0.004824404,0.0009788387,-0.003738423,0.0043025645,0.002052695,0.44745573,-1.4699665,2.008962,-2.1077392,-1.5706013,2.4224443,-0.03085577,0.027594881,-0.03236219,-0.0007375208,0.0014194598,-0.032887366,0.038307227,0.19153613,-9.461885,0.7978386,47.695843,-0.6561986,-2.191401,-3.4345376,-0.46427006,0.18579969,-0.13205022,27.6875,28.9375,28.0,31.6875,33.625,34.5
0.050052445,-0.3441718,-0.8112511,-0.56850755,-0.0036530052,0.015644642,-0.16570908,-0.37337416,-0.32806668,0.059804566,-3.0783625,0.62487745,-0.0005586176,-0.023736266,0.00492291,0.0013613008,-0.0039418563,0.0048172567,0.0031040863,0.44740736,-1.4699426,2.0088894,-2.1077154,-1.570649,2.4223473,-0.031768944,0.028072447,-0.033873305,-0.0002576396,0.0013780768,-0.034850974,0.30645782,0.21068975,-9.481039,0.7553206,47.699425,-0.67394316,-2.100255,-3.3943682,-0.4728277,0.19432116,-0.13322541,27.6875,28.9375,28.0,31.6875,33.625,34.5
0.052052516,-0.095721,-1.2253084,-0.7395534,-0.006706477,0.010517056,-0.16682126,-0.3734299,-0.32808292,0.059820294,-3.078436,0.62479603,-0.0005060151,-0.024590671,0.004888035,0.0015963268,-0.00455928,0.005144597,0.0031957135,0.44737107,-1.4698822,2.0087926,-2.1077392,-1.5706252,2.422251,-0.032755204,0.02888405,-0.035321057,-0.00018444237,0.0017920177,-0.03592862,0.038307227,0.30645782,-9.5385,0.7463667,47.705692,-0.68569803,-2.0642958,-3.429535,-0.47505888,0.16898322,-0.10878069,27.6875,28.9375,28.0,31.6875,33.625,34.5
0.054052427,0.24201205,-0.8850216,-0.6999272,-0.030192576,0.019457605,-0.17747812,-0.37345156,-0.32804215,0.05978678,-3.0783362,0.6248525,-0.0005934276,-0.02527589,0.0050792135,0.0015200808,-0.0049756574,0.004827105,0.0039968216,0.44729862,-1.4697981,2.0087688,-2.107703,-1.5706605,2.4222264,-0.034078088,0.029846305,-0.036213115,-0.0001517683,0.0022987002,-0.03805316,0.0,0.28730422,-9.500193,0.8224646,47.707485,-0.7186873,-2.012235,-3.4582963,-0.46502584,0.1738548,-0.09388822,27.6875,28.9375,28.0,31.6875,33.625,34.5
0.056052536,0.17326245,-0.8805821,-0.7896101,-0.034746416,0.023170868,-0.17444383,-0.3735015,-0.32803643,0.05979507,-3.0783727,0.6248405,-0.00058660493,-0.026239904,0.005264957,0.0016072795,-0.005275007,0.0050039543,0.0043630158,0.44722632,-1.4697498,2.0086968,-2.107703,-1.5706366,2.422142,-0.03542704,0.030916736,-0.03759435,-0.00012970905,0.0024896474,-0.039767653,-0.095768064,0.28730422,-9.461885,0.7530795,47.658226,-0.6437053,-2.017775,-3.433341,-0.4706217,0.19150126,-0.07405299,27.6875,28.9375,28.0,31.6875,33.625,34.5
0.05805239,-0.45340705,-1.6624819,-0.8143483,-0.018988099,0.017516749,-0.15627053,-0.37357083,-0.32802936,0.05982537,-3.0784247,0.6248516,-0.0005081769,-0.027123842,0.0049158586,0.0018417494,-0.006063116,0.005344407,0.0032830106,0.447142,-1.4697254,2.0086005,-2.107703,-1.5706247,2.422058,-0.035947744,0.032183334,-0.039526355,-0.000113322065,0.0030527166,-0.039207924,-0.05746084,0.28730422,-9.481039,0.7463667,47.678825,-0.69591427,-1.9895244,-3.485845,-0.45657688,0.16525957,-0.07942553,27.6875,28.9375,28.0,31.6875,33.625,34.5
0.060052473,-0.41064408,-1.123043,-0.70403814,-0.032305058,0.027959762,-0.17524524,-0.37360695,-0.32800207,0.059795413,-3.078371,0.62493783,-0.0005830243,-0.02784593,0.0048808707,0.0018686202,-0.007146419,0.0049474053,0.0014079832,0.44705752,-1.4696293,2.0085638,-2.107703,-1.5706242,2.4220343,-0.037308168,0.033162102,-0.040680233,-5.2333857e-05,0.0041974722,-0.038695,-0.05746084,0.30645782,-9.576807,0.72622824,47.70211,-0.68310404,-1.975475,-3.4936461,-0.4556652,0.19003922,-0.09104829,27.6875,28.9375,28.0,31.6875,33.625,34.5
0.062051743,-0.5541633,-1.3445358,-0.7866517,-0.024235466,0.038920574,-0.17393786,-0.37365952,-0.327996,0.059810214,-3.0784104,0.6249253,-0.00060424523,-0.028292023,0.004458882,0.0018403467,-0.008117808,0.0045013754,0.002844413,0.4469735,-1.4695808,2.0084684,-2.1076672,-1.5705875,2.4219375,-0.037635483,0.034398183,-0.041985095,-3.4170268e-06,0.0052636745,-0.040459886,-0.114921674,0.34476504,-9.576807,0.7933669,47.68599,-0.75604194,-2.0163803,-3.5140176,-0.45785064,0.17040424,-0.082566164,27.6875,28.9375,28.0,31.6875,33.625,34.5
0.064051725,-1.2008476,-1.4445355,-0.75779295,-0.012811279,0.035944153,-0.16138306,-0.3737406,-0.3280075,0.059835788,-3.0784926,0.62482655,-0.0005110274,-0.029448953,0.004118028,0.002391272,-0.009643165,0.0052539846,0.0027175876,0.44691315,-1.4695085,2.0083358,-2.107691,-1.5705751,2.4218051,-0.03874617,0.035198152,-0.0441292,-2.2310742e-07,0.0063128266,-0.041443925,-0.19153613,0.34476504,-9.500193,0.73741806,47.685097,-0.74249184,-2.0174963,-3.4930167,-0.46202344,0.15041575,-0.086268485,27.6875,28.9375,28.0,31.6875,33.625,34.5
0.06605243,-1.2563279,-1.0535532,-0.60939044,-0.013478613,0.041138347,-0.1591781,-0.3737938,-0.3280032,0.059851166,-3.078499,0.62478864,-0.00048291415,-0.030286701,0.003784606,0.0027408025,-0.01082188,0.005663462,0.0039571407,0.44686484,-1.4694486,2.0082266,-2.1076553,-1.570587,2.4217324,-0.039471228,0.03600371,-0.045817126,-1.4567321e-08,0.0071953903,-0.04340901,-0.22984336,0.34476504,-9.500193,0.7732232,47.678825,-0.73152673,-1.969826,-3.481986,-0.44866872,0.1356329,-0.07113017,27.6875,28.9375,28.0,31.6875,33.625,34.5
0.06805247,-1.1736977,-0.73176587,-0.57471234,-0.007731647,0.038764957,-0.1584134,-0.37387037,-0.32800627,0.059841193,-3.0785463,0.62485665,-0.0004848165,-0.031016849,0.003914144,0.0021597303,-0.010661491,0.0045328927,0.0024407452,0.44676852,-1.469328,2.0081308,-2.1077154,-1.5705389,2.4216726,-0.0406009,0.0384284,-0.047151353,-9.511419e-10,0.007539007,-0.043021504,-0.21068975,0.2681506,-9.500193,0.76874626,47.683304,-0.73729193,-1.9037573,-3.4631248,-0.45474097,0.13104235,-0.066053666,27.6875,28.9375,28.0,31.6875,33.625,34.5
0.07005254,-1.5848153,-0.9007671,-0.62679523,0.007289873,0.025988655,-0.1493207,-0.3739029,-0.32799426,0.059846234,-3.0785666,0.6247664,-0.0005122981,-0.032012135,0.0039341226,0.0022937427,-0.010180994,0.005262659,0.00039930825,0.4467084,-1.4692913,2.0080707,-2.1076791,-1.570527,2.4215536,-0.041028105,0.039839536,-0.04900936,-6.2102774e-11,0.0067871064,-0.041404612,-0.30645782,0.21068975,-9.5385,0.7620334,47.66987,-0.8239111,-1.9862721,-3.5320015,-0.43937945,0.124519065,-0.10119468,27.6875,28.9375,28.0,31.6875,33.625,34.5
0.07205236,-0.9072687,-0.22678046,-0.3454715,0.005498486,0.04586572,-0.16757372,-0.37400392,-0.3279851,0.059867207,-3.078598,0.62486905,-0.00040701887,-0.033568937,0.0044560675,0.002627828,-0.010274428,0.00618325,5.7972396e-05,0.4465996,-1.4692074,2.0079386,-2.1077154,-1.570527,2.421505,-0.043195687,0.04086297,-0.05090159,-4.054867e-12,0.0064736204,-0.043228433,-0.2681506,0.17238253,-9.481039,0.7777002,47.68599,-0.7162032,-1.9153237,-3.4902,-0.4289121,0.11028448,-0.118991174,27.6875,28.9375,28.0,31.6875,33.625,34.5
0.07405246,-1.25321,0.010452378,-0.2879963,0.013280291,0.04983192,-0.1674556,-0.37403268,-0.32798195,0.05984634,-3.0786145,0.62473756,-0.00048987806,-0.03452124,0.0042184843,0.0025750669,-0.01062117,0.0061032786,0.0004295495,0.4465514,-1.4691108,2.0078776,-2.107703,-1.5705031,2.4213727,-0.043839436,0.04283796,-0.05295407,-2.6475385e-13,0.0068145585,-0.04424317,-0.22984336,0.11492168,-9.3661175,0.75755644,47.71554,-0.75712,-1.9382532,-3.469174,-0.44326958,0.12138507,-0.11862804,27.6875,28.9375,28.0,31.6875,33.625,34.5
0.07605256,-1.45323,-0.04017672,-0.3589769,0.016254868,0.045777567,-0.1620683,-0.37413317,-0.32797745,0.059870023,-3.0786684,0.62488323,-0.00044513503,-0.034737833,0.004191912,0.0022844735,-0.009842227,0.0058825486,0.00077827385,0.44641963,-1.4690266,2.0077336,-2.1077154,-1.5704554,2.421325,-0.04356321,0.04409013,-0.053665623,-1.7286536e-14,0.0062102256,-0.044313483,-0.3256114,0.05746084,-9.385271,0.800085,47.73077,-0.82308626,-1.9607575,-3.430645,-0.43221262,0.115510985,-0.12570736,27.6875,28.9375,28.0,31.6875,33.625,34.5
0.07805252,-1.3184003,-0.040614765,-0.3087038,0.018503703,0.04984314,-0.1583629,-0.3741982,-0.3279486,0.059871264,-3.0786462,0.62489784,-0.00042170784,-0.03673918,0.004289514,0.0033195848,-0.010472465,0.008283554,-0.00023356594,0.44632295,-1.4689544,2.0076487,-2.107703,-1.5704798,2.4212403,-0.045229413,0.044706147,-0.056718227,-1.1286873e-15,0.0057365866,-0.044965085,-0.4213795,0.15322891,-9.289502,0.7665104,47.705692,-0.8722499,-1.8825505,-3.4698725,-0.40543884,0.11078324,-0.1534016,27.6875,28.9375,28.0,31.6875,33.625,34.5
0.0800525,-1.2721889,-0.35840937,-0.28725722,0.016473344,0.052570257,-0.1664028,-0.3742923,-0.32795984,0.05989549,-3.078724,0.6248181,-0.00032925233,-0.038455658,0.0046382197,0.0032309683,-0.009911107,0.008625839,-0.001673485,0.4462504,-1.4688576,2.0074923,-2.1077268,-1.5704674,2.4211082,-0.046984315,0.047378045,-0.059453245,-7.369523e-17,0.005081212,-0.045276426,-0.40222588,0.076614454,-9.404425,0.7978386,47.658226,-0.8353637,-1.9235041,-3.3067667,-0.42723966,0.123181865,-0.15772524,27.6875,28.9375,28.0,31.6875,33.625,34.5
0.082091704,-0.8007487,-0.06681739,-0.25473753,0.005782415,0.053362362,-0.17125762,-0.37436217,-0.32793942,0.05989496,-3.0787005,0.62483335,-0.00030656578,-0.03860982,0.005957973,0.0019129833,-0.008288972,0.006253595,-0.003283452,0.44616556,-1.4687613,2.007385,-2.1077154,-1.5704921,2.421036,-0.049299292,0.049159966,-0.05839426,-4.8117712e-18,0.0046445946,-0.045981057,-0.40222588,0.038307227,-9.404425,0.7329411,47.69763,-0.7997837,-2.0403538,-3.4798527,-0.40591007,0.1154878,-0.1892251,27.6875,28.9375,28.0,31.6875,33.625,34.5
0.0841006,-0.722465,-0.16254959,-0.1704561,0.0038050108,0.05402507,-0.1692677,-0.37442148,-0.3279319,0.059886467,-3.0787022,0.6248144,-0.0003750128,-0.039513886,0.005862849,0.0031828799,-0.009096341,0.008103302,-0.0028954658,0.44608122,-1.4686419,2.0072649,-2.1076787,-1.5704678,2.4209397,-0.049878944,0.04801498,-0.0602862,0.0010217266,0.004572094,-0.0469481,-0.40222588,0.076614454,-9.32781,0.7978386,47.68062,-0.757442,-1.876633,-3.4702678,-0.3942275,0.12863798,-0.20662169,27.6875,28.9375,28.0,31.6875,33.625,34.5
0.086105704,-0.6992724,-0.16553366,-0.40510562,0.005315458,0.05670114,-0.16258894,-0.3745201,-0.32792452,0.059907023,-3.0787578,0.62486356,-0.00030585317,-0.04145589,0.00445287,0.004444415,-0.010494959,0.010578801,-0.0015645982,0.44596168,-1.4685574,2.0071304,-2.1077025,-1.5704435,2.4208438,-0.049099516,0.050159793,-0.06561759,0.0013727226,0.00476036,-0.047496106,-0.4405331,0.095768064,-9.346964,0.7642693,47.72719,-0.915172,-1.7781031,-3.2565355,-0.40661913,0.122612566,-0.23878844,27.6875,28.9375,28.0,31.6875,33.625,34.5
0.088056125,-1.6645118,-0.8316689,-0.48660034,0.019437024,0.036248725,-0.15283969,-0.3745805,-0.32790628,0.059889417,-3.078745,0.6248608,-0.00036454227,-0.04144852,0.0059710243,0.0028796168,-0.0089872535,0.007302815,-0.0015314259,0.44586468,-1.4684367,2.0070355,-2.1076906,-1.5704316,2.4207468,-0.05197256,0.05203975,-0.06416613,0.0016482862,0.0048153833,-0.05040326,-0.45968673,0.17238252,-9.385271,0.80679786,47.71465,-0.8206098,-1.8465207,-3.283063,-0.39588875,0.12537408,-0.2424316,27.6875,28.9375,28.0,31.6875,33.625,34.5
0.090098865,-1.3664203,-0.20332523,-0.41135192,-0.008708589,0.052436154,-0.1688678,-0.37468556,-0.32789072,0.059921034,-3.0787814,0.6249441,-0.00028775143,-0.042853028,0.0058444575,0.002447482,-0.008807281,0.0066536483,-0.0014752214,0.44573238,-1.4683638,2.00688,-2.1076787,-1.5704197,2.420662,-0.053067576,0.055631697,-0.067135416,0.0016899065,0.004931405,-0.05155201,-0.28730422,0.15322891,-9.385271,0.8023209,47.71554,-0.807577,-1.9518945,-3.4136887,-0.39477187,0.11587655,-0.23314452,27.6875,28.9375,28.0,31.6875,33.625,34.5
0.09209892,-1.4318997,-0.9870708,-0.42458168,-0.00997884,0.05668857,-0.16317943,-0.3747609,-0.32788178,0.05991581,-3.0787761,0.6248294,-0.00025231962,-0.044324957,0.0055030216,0.004390147,-0.010659572,0.010579655,-0.0029760369,0.44567198,-1.4682326,2.006748,-2.1076787,-1.5704559,2.4205308,-0.053726673,0.053573873,-0.06930755,0.0015773813,0.004906322,-0.050709262,-0.36391866,0.15322891,-9.346964,0.7642693,47.701214,-0.83397686,-1.8458343,-3.2764003,-0.38069648,0.11610053,-0.28510195,27.6875,28.9375,28.0,31.6875,33.625,34.5
0.09409826,-1.2962283,-1.0438511,-0.45067212,-0.012428942,0.05732017,-0.15793413,-0.37485114,-0.32786155,0.059914492,-3.0787785,0.62496334,-0.00028728374,-0.045296635,0.005564574,0.0037715125,-0.01008365,0.009546291,-0.001949149,0.44552788,-1.4681118,2.0066154,-2.1076667,-1.5704197,2.42047,-0.054652687,0.05671696,-0.07137558,0.0016860266,0.00482949,-0.052660357,-0.4405331,0.22984336,-9.385271,0.7150385,47.717335,-0.85367393,-1.7898548,-3.2536693,-0.37673736,0.12780847,-0.294729,27.6875,28.9375,28.0,31.6875,33.625,34.5
0.09606253,-1.0767633,-1.1070927,-0.63169444,-0.013080318,0.053200915,-0.16459203,-0.37495565,-0.32786268,0.05994512,3.0787647,-0.6249599,0.00022215677,-0.04560412,0.005892327,0.0028598679,-0.009446763,0.007511604,-0.0007513856,0.44541946,-1.4680152,2.006436,-2.1076543,-1.5703958,2.4203613,-0.055736456,0.059160743,-0.07205653,0.0020347256,0.0051355986,-0.05494135,-0.36391866,0.2681506,-9.442732,0.7597976,47.698532,-0.88455665,-1.9489007,-3.2686186,-0.36805868,0.11237365,-0.31352735,27.6875,28.9375,28.0,31.6875,33.625,34.5
0.09805565,-0.38228092,-0.843453,-0.525008,-0.018130846,0.06173454,-0.1688798,-0.3750339,-0.3278338,0.059923727,-3.0788076,0.6248921,-0.00016425081,-0.047241054,0.0051937997,0.0038887325,-0.010647913,0.009251034,-0.0002740263,0.44533518,-1.467883,2.0063508,-2.107702,-1.5704559,2.4202294,-0.05611259,0.060410358,-0.07591462,0.0025520287,0.005464203,-0.055793025,-0.30645782,0.30645782,-9.461885,0.7732232,47.70838,-0.85333204,-1.878713,-3.2171347,-0.376552,0.11252569,-0.3296042,27.6875,28.9375,28.0,31.6875,33.625,34.5
0.10005323,-0.91175056,-1.3831381,-0.7357452,-0.009060215,0.036772348,-0.15414985,-0.3751348,-0.32783154,0.059934244,3.0787907,-0.6248893,0.00018528916,-0.046483114,0.0057676993,0.0024635883,-0.008920627,0.0061903163,-0.0030341337,0.44521526,-1.4677384,2.0061595,-2.1076663,-1.5704197,2.42011,-0.05633056,0.062239252,-0.07479584,0.0031138994,0.0052293916,-0.053251024,-0.30645782,0.34476504,-9.423578,0.7732232,47.698532,-1.0322242,-1.9736663,-3.262146,-0.37716946,0.113546476,-0.38425615,27.6875,28.9375,28.0,31.6875,33.625,34.5
0.10205215,-1.168429,-1.2340418,-0.673188,-0.020504342,0.030820476,-0.15490432,-0.37525627,-0.32782975,0.05997652,3.0786958,-0.62490857,3.1770713e-05,-0.048059557,0.0066479514,0.002255847,-0.008911595,0.006133496,-0.004027335,0.44509432,-1.467666,2.0059912,-2.107702,-1.5704077,2.4200132,-0.059398778,0.06396275,-0.07614545,0.0027966257,0.005250375,-0.055324223,-0.24899697,0.2681506,-9.481039,0.7620334,47.709274,-0.9035388,-1.9245788,-3.3571458,-0.3789295,0.11002971,-0.41539305,27.6875,28.9375,28.0,31.6875,33.625,34.5
0.104052275,-0.6428737,-1.2163559,-0.50109005,-0.020918947,0.034898248,-0.16197707,-0.3753526,-0.32780415,0.059956536,3.0786953,-0.62500155,0.00010132037,-0.049768463,0.004273447,0.004027736,-0.010805034,0.010193443,0.0015314503,0.44495127,-1.4674858,2.0058334,-2.1076782,-1.5703958,2.4199283,-0.05642796,0.06556783,-0.08190985,0.0024782743,0.0051978305,-0.05790861,-0.17238252,0.28730422,-9.423578,0.80679786,47.687782,-1.1245817,-1.9986075,-3.096613,-0.3730467,0.12968731,-0.4299695,27.6875,28.9375,28.0,31.6875,33.625,34.5
0.106052205,-0.75527525,-0.98063546,-0.5396888,-0.018700069,0.02184997,-0.1657132,-0.37545806,-0.32780567,0.059969068,3.0786598,-0.62497514,8.2133585e-05,-0.048963588,0.00588578,0.00182345,-0.008501426,0.00611917,0.0020915677,0.44484252,-1.4673414,2.0056431,-2.1076663,-1.5703715,2.4198077,-0.058497354,0.06747406,-0.07891108,0.0022458448,0.0048810355,-0.06053893,-0.15322891,0.2681506,-9.385271,0.8157518,47.66987,-1.0660543,-1.9551029,-3.1827383,-0.34810466,0.13079035,-0.46004134,27.6875,28.9375,28.0,31.625,33.625,34.4375
0.10805244,-0.46685287,-1.1247723,-0.39731133,-0.008081124,0.019207159,-0.15250748,-0.37554738,-0.32778642,0.0599621,3.0786717,-0.6249959,8.4533014e-05,-0.050802357,0.0058289063,0.0022994382,-0.009447693,0.0069529777,0.0036222744,0.44473392,-1.4671972,2.0054977,-2.1076543,-1.5703834,2.4197106,-0.060361758,0.06935343,-0.082116485,0.0024105865,0.0053705554,-0.063932665,-0.11492168,0.38307226,-9.270349,0.8247004,47.71465,-1.1569921,-2.0120592,-3.1892314,-0.35177058,0.1265881,-0.4641975,27.6875,28.9375,28.0,31.625,33.625,34.4375
0.11005251,-0.33575162,-0.4066909,-0.42640457,-0.008348742,0.006079678,-0.17213106,-0.37565404,-0.32779285,0.05999421,3.0786138,-0.6248849,1.4307456e-05,-0.05155735,0.005644392,0.0023135766,-0.009789372,0.0068203574,0.007592591,0.44462577,-1.4671006,2.005318,-2.1076543,-1.5703477,2.4195406,-0.060925025,0.07085083,-0.08384973,0.0026215226,0.005739799,-0.06846511,-0.019153614,0.22984336,-9.32781,0.7777002,47.705692,-1.0659406,-2.0437016,-3.0984492,-0.34418076,0.12276299,-0.4402668,27.6875,28.9375,28.0,31.625,33.625,34.4375
0.11205265,-0.6511815,-0.48782793,-0.3020007,0.0022124234,-0.0061145653,-0.15959284,-0.37578368,-0.32775056,0.059995227,3.0786119,-0.624882,-5.2157662e-05,-0.052403823,0.005360063,0.0025604595,-0.010117039,0.0069614686,0.0117352735,0.44444573,-1.4669566,2.0051625,-2.1076782,-1.5703715,2.4193592,-0.061287843,0.07223791,-0.086083196,0.0031988632,0.0059764753,-0.07296937,0.019153614,0.19153613,-9.270349,0.71951014,47.701214,-1.2131547,-1.9440973,-3.0974178,-0.33940077,0.120590046,-0.43260968,27.6875,28.9375,28.0,31.625,33.625,34.4375
0.11405251,-0.2697379,-0.22128452,-0.27279672,-0.0012408185,0.0041405256,-0.16963384,-0.37586534,-0.32775575,0.05998521,3.0786035,-0.62480134,2.5360978e-05,-0.053216245,0.005901189,0.0021188108,-0.009950379,0.0058709863,0.015590086,0.44434905,-1.4667882,2.0049946,-2.1076539,-1.5703229,2.4192133,-0.063231766,0.073983215,-0.08707358,0.0035042986,0.0062932707,-0.07876793,0.038307227,0.15322891,-9.232041,0.7866488,47.67793,-1.1674951,-2.0795345,-3.1194324,-0.33739358,0.12766321,-0.37306273,27.6875,28.9375,28.0,31.625,33.625,34.4375
0.11605211,-0.6133906,-0.8817516,-0.38953763,0.018519904,0.0033649008,-0.15528414,-0.37602398,-0.32775915,0.06002991,3.078549,-0.62469244,-9.910609e-05,-0.054393385,0.00581575,0.00303507,-0.010653175,0.0076036216,0.019749612,0.44420463,-1.4666326,2.004718,-2.1076415,-1.570311,2.419008,-0.06403015,0.0738818,-0.089140184,0.0038091044,0.0061906516,-0.08372394,0.076614454,0.15322891,-9.251195,0.7597976,47.70032,-1.1849447,-1.9669005,-3.060475,-0.34632713,0.11806088,-0.33171368,27.6875,28.9375,28.0,31.625,33.625,34.4375
0.11805231,-0.4165687,-0.5601913,-0.39243907,0.0033546265,0.014352873,-0.15843268,-0.37614244,-0.32774746,0.060034815,3.078543,-0.6246303,-0.00016720897,-0.054386083,0.00640792,0.00066004955,-0.008746685,0.0022903902,0.023195434,0.4440842,-1.4664749,2.0045388,-2.1076653,-1.5703229,2.4188497,-0.065498516,0.07933362,-0.08992965,0.004762404,0.0067588515,-0.08863749,-0.019153614,0.17238252,-9.346964,0.7038487,47.70211,-1.14177,-2.1518793,-3.0833967,-0.33531392,0.12879129,-0.27822053,27.6875,28.9375,28.0,31.625,33.625,34.4375
0.12005227,-0.50983644,-0.6294742,-0.2919405,-0.0023002902,0.026165523,-0.17098185,-0.37621343,-0.3277196,0.06001106,3.078566,-0.6245959,-7.024119e-05,-0.05556769,0.0066291783,0.00257774,-0.010887908,0.0053727743,0.0257421,0.44395167,-1.4663322,2.0044305,-2.107641,-1.5702986,2.4186928,-0.06736324,0.07621245,-0.09101282,0.005265342,0.007363946,-0.09305006,-0.05746084,0.17238252,-9.3661175,0.7284641,47.687782,-1.163153,-1.953071,-3.0983324,-0.3272643,0.09850018,-0.22995588,27.6875,28.9375,28.0,31.625,33.625,34.4375
0.122052245,-0.8198566,-0.25680223,-0.2706908,-0.01072949,0.03186204,-0.16658169,-0.37631977,-0.32769787,0.060011912,3.0786116,-0.624469,-9.13284e-05,-0.056032807,0.00683375,0.0018917153,-0.010040892,0.0034953335,0.027481006,0.4438314,-1.4661758,2.0042508,-2.1076167,-1.5703224,2.4184878,-0.068173006,0.07883901,-0.09257106,0.006255327,0.00740572,-0.09559777,-0.11492168,0.21068975,-9.32781,0.7620334,47.672558,-1.2256799,-1.9466724,-3.15092,-0.32269803,0.11259459,-0.18016276,27.6875,28.9375,28.0,31.625,33.625,34.4375
0.12405226,-1.6850861,-1.3622296,-0.43189156,0.014260478,0.018896554,-0.14921506,-0.37641495,-0.32768333,0.05999863,3.0786142,-0.62441283,1.4582335e-05,-0.05677423,0.007545868,0.0010885993,-0.009332345,0.0022983311,0.02612106,0.44368672,-1.4659951,2.0040715,-2.1075695,-1.5702752,2.4183078,-0.07006401,0.08097132,-0.093028456,0.005971909,0.007274501,-0.09612835,-0.19153613,0.22984336,-9.251195,0.8314132,47.71554,-1.1757421,-2.1115294,-3.2342248,-0.34229848,0.09800895,-0.13635053,27.6875,28.9375,28.0,31.625,33.625,34.4375
0.1260524,-0.87779266,-0.10351172,-0.2024333,-0.008914108,0.040790327,-0.16801187,-0.37656027,-0.3276911,0.060032718,3.0785537,-0.62424856,-0.00011301802,-0.056900468,0.007862685,0.0005363235,-0.008932899,0.0011411608,0.023797052,0.44355443,-1.4658512,2.003843,-2.1076052,-1.5702509,2.4180808,-0.07084157,0.08214657,-0.093092605,0.0060798586,0.0074223196,-0.094581045,-0.34476504,0.11492168,-9.289502,0.8247004,47.71286,-1.1572727,-1.984015,-3.275969,-0.33936238,0.099547446,-0.15612282,27.6875,28.9375,28.0,31.625,33.625,34.4375
0.1280524,-1.3025596,-0.57041544,-0.30783093,0.015286247,0.041948985,-0.16193913,-0.37667477,-0.32768193,0.06004825,3.0785193,-0.6242035,-0.00010647019,-0.057317603,0.008005451,-0.00035740848,-0.008638223,-0.00078586146,0.022822414,0.44341,-1.4657066,2.00364,-2.107569,-1.5702146,2.4179127,-0.07183745,0.08484511,-0.09406069,0.0062190234,0.007983935,-0.09460183,-0.2681506,0.1340753,-9.251195,0.7978386,47.684196,-1.2434229,-2.021459,-3.2893028,-0.3350389,0.10222349,-0.1275872,27.6875,28.9375,28.0,31.625,33.625,34.4375
0.13005245,-1.4471347,-0.0736194,-0.42429903,0.015694745,0.040571347,-0.15978672,-0.3767548,-0.3276498,0.060014192,3.0785856,-0.6241634,1.3347825e-05,-0.058373902,0.008212949,8.452879e-05,-0.009198077,-9.029676e-05,0.014631214,0.4432779,-1.4655145,2.0034955,-2.1075213,-1.5702146,2.4177473,-0.07328529,0.085239686,-0.09558275,0.0064763986,0.008178617,-0.087858625,-0.34476504,0.095768064,-9.289502,0.7933669,47.698532,-1.1955084,-2.1086583,-3.2877564,-0.3447842,0.094680294,-0.19907181,27.6875,28.9375,28.0,31.625,33.625,34.4375
0.13205169,-0.657783,0.30053705,-0.147482,0.010393059,0.06537438,-0.17809804,-0.3768754,-0.32764104,0.06001757,3.0785553,-0.6240446,2.7502287e-05,-0.06019251,0.008094553,0.0006091203,-0.0098915,0.0009984816,0.010941277,0.44312114,-1.4653462,2.0033023,-2.1075213,-1.570167,2.4175203,-0.074769415,0.08711929,-0.09890733,0.006644628,0.008333797,-0.08565062,-0.4213795,-0.038307227,-9.346964,0.7777002,47.67345,-1.2384127,-2.0598307,-3.2760935,-0.34092253,0.086014986,-0.24968085,27.6875,28.9375,28.0,31.625,33.625,34.4375
0.13405265,-1.4729928,0.06728906,-0.20824516,0.014947997,0.050258473,-0.16752219,-0.3770447,-0.3276278,0.060052577,3.07849,-0.6240901,-0.000117217205,-0.05982746,0.009132728,-0.00059332536,-0.008514765,-0.0012225606,0.008337147,0.4429527,-1.4651781,2.0030396,-2.1075332,-1.5701789,2.4173887,-0.07616418,0.08811196,-0.09724825,0.0065907086,0.008054849,-0.084440894,-0.36391866,0.0,-9.3661175,0.800085,47.653748,-1.2734153,-2.0720284,-3.390142,-0.33859932,0.087683976,-0.25814366,27.6875,28.9375,28.0,31.625,33.625,34.4375
0.13605207,-1.4852505,-0.24813937,-0.36868322,0.020690266,0.051059864,-0.16002297,-0.3771481,-0.32758722,0.060036447,3.078525,-0.6240598,-5.755704e-05,-0.06185809,0.009556213,-4.3495447e-06,-0.008854337,-0.00017253721,0.0045663617,0.44278395,-1.46501,2.0028832,-2.1074975,-1.5701789,2.4171968,-0.078647345,0.08962802,-0.10040886,0.00714252,0.007902356,-0.083151564,-0.45968673,0.019153614,-9.289502,0.7665104,47.67614,-1.2794662,-1.984733,-3.403203,-0.33399364,0.084251665,-0.31567162,27.6875,28.9375,28.0,31.625,33.625,34.4375
0.13802014,-1.7583536,-0.30742913,-0.47948378,0.013288089,0.04906184,-0.1623594,-0.3772707,-0.32758394,0.060040846,3.0785067,-0.624017,-4.8410224e-05,-0.0619969,0.010406831,-0.0002199785,-0.00836309,-0.000428353,0.005233864,0.44265157,-1.4648187,2.0026567,-2.1074736,-1.5701545,2.41704,-0.080113575,0.089207865,-0.0994462,0.00704669,0.0075719166,-0.08528547,-0.34476504,0.076614454,-9.346964,0.7329411,47.65912,-1.2313336,-1.945427,-3.3959422,-0.34484005,0.0830946,-0.31767684,27.6875,28.9375,28.0,31.625,33.625,34.4375
0.1400519,-2.141426,-0.45381573,-0.56196964,0.009144346,0.047961082,-0.15634169,-0.37738642,-0.32755798,0.060034055,3.0785098,-0.6239796,5.653625e-06,-0.06282336,0.010286724,-0.00101802,-0.007515872,-0.001741526,0.005798848,0.44248328,-1.4646374,2.002464,-2.1074374,-1.5701307,2.4168482,-0.080459334,0.092859484,-0.10169435,0.0071971593,0.00736279,-0.08619433,-0.28730422,-0.30645782,-9.3661175,0.78888994,47.68062,-1.2563653,-2.0936813,-3.4551044,-0.35784173,0.084663294,-0.34546864,27.6875,28.9375,28.0,31.625,33.625,34.4375
0.14204857,-2.1224933,-0.3754668,-0.2778202,0.0036498334,0.048414946,-0.16193075,-0.37751132,-0.32753563,0.060005132,3.0785396,-0.62394905,2.4101011e-05,-0.06478251,0.0115451,0.0004647256,-0.009426481,0.0007423863,0.0014036502,0.44233763,-1.464399,2.0022728,-2.1074612,-1.5701426,2.4166799,-0.08498064,0.09047813,-0.102518246,0.007337491,0.008023081,-0.08632138,-0.4213795,0.0,-9.3661175,0.7933669,47.66987,-1.0986564,-1.8802674,-3.4397187,-0.3542778,0.081410974,-0.3565322,27.6875,28.9375,28.0,31.625,33.625,34.4375
0.14405236,-1.3865912,-0.33260125,-0.24538761,0.01499763,0.06574811,-0.1656393,-0.37763566,-0.3275188,0.060015038,3.0784771,-0.623934,7.861581e-05,-0.065273374,0.010631299,-0.00049887336,-0.0084370915,-0.0008664666,0.005109544,0.44214645,-1.4642415,2.0020683,-2.107425,-1.5700706,2.4164872,-0.08353409,0.09516327,-0.105543554,0.0075647123,0.007813746,-0.08857797,-0.40222588,-0.019153614,-9.423578,0.800085,47.637623,-1.2255636,-1.9264108,-3.488899,-0.34760356,0.080201104,-0.35535467,27.6875,28.9375,28.0,31.625,33.625,34.4375
0.14605384,-2.022828,-0.20447785,-0.33863616,0.026788034,0.045827333,-0.16152696,-0.3777629,-0.32749134,0.060028613,3.078464,-0.62393415,2.1489914e-05,-0.06638635,0.012036459,-8.399233e-05,-0.008522283,6.897468e-05,0.0015330417,0.44198933,-1.4640985,2.0018766,-2.107413,-1.5700825,2.416332,-0.08691248,0.09399183,-0.10520328,0.0075151874,0.0074948566,-0.08837961,-0.36391866,0.076614454,-9.481039,0.78888994,47.664497,-1.2094533,-1.8717444,-3.4950018,-0.3532709,0.08074401,-0.3867001,27.6875,28.9375,28.0,31.625,33.625,34.4375
0.14805304,-1.4329284,-0.4697952,-0.4040038,0.031291913,0.060793046,-0.16567959,-0.3778855,-0.32745296,0.060009215,3.0784993,-0.6239386,9.5299794e-05,-0.0693738,0.0119341435,0.0012053596,-0.009669567,0.0031231358,0.0059567615,0.44180822,-1.4638821,2.0016716,-2.1073654,-1.570083,2.4161494,-0.089163825,0.09580548,-0.11015203,0.0074041397,0.007212454,-0.09505159,-0.38307226,0.05746084,-9.500193,0.85155696,47.695843,-0.9704269,-1.8608145,-3.4763675,-0.34496075,0.083180904,-0.3761601,27.6875,28.9375,28.0,31.625,33.625,34.4375
0.15005201,-1.4711494,-0.0038694134,-0.57656384,0.014922514,0.049585134,-0.17217664,-0.37806234,-0.32744753,0.060032073,3.0784159,-0.62384427,-1.9269244e-05,-0.069203675,0.012234636,-0.00012456458,-0.009847291,0.00033528544,0.0066694175,0.44161582,-1.4636893,2.0014203,-2.1074255,-1.5700468,2.4159088,-0.090447955,0.09800939,-0.109449126,0.006942705,0.008578434,-0.097049,-0.3256114,0.11492168,-9.442732,0.8157518,47.689575,-1.0309591,-1.9075837,-3.5420723,-0.32766825,0.08362934,-0.3391059,27.6875,28.9375,28.0,31.625,33.625,34.4375
0.152052,-1.1616839,-0.54137075,-0.695606,0.009827936,0.05421672,-0.17572787,-0.37820837,-0.32740572,0.06002811,3.078445,-0.6238665,-1.1502568e-05,-0.07169744,0.012557275,0.0010088916,-0.010623206,0.0030254242,0.01024149,0.4414233,-1.4634738,2.0011804,-2.1073773,-1.5700706,2.4157267,-0.09292925,0.098854735,-0.11298204,0.006870285,0.008123633,-0.10309988,-0.36391866,0.17238252,-9.442732,0.8112748,47.694946,-0.990008,-1.7628304,-3.3465867,-0.33871043,0.056747563,-0.3066198,27.6875,28.9375,28.0,31.625,33.625,34.4375
0.15405175,-1.6217324,-0.55000955,-0.751066,-0.0022247245,0.047728643,-0.1739846,-0.37833735,-0.3273748,0.060024362,3.0784547,-0.62376887,-1.2696775e-06,-0.07298619,0.013242248,0.00076434563,-0.009204129,0.00258095,0.014978957,0.44124264,-1.4632932,2.0009868,-2.107365,-1.5700592,2.415484,-0.094589256,0.10122784,-0.11527248,0.007805175,0.007031115,-0.10949471,-0.30645782,0.15322891,-9.5385,0.78888994,47.683304,-0.9885565,-1.7317405,-3.3723345,-0.3396008,0.07500495,-0.22759289,27.6875,28.9375,28.0,31.625,33.625,34.4375
0.15605168,-1.6364901,-1.0188068,-0.93741304,-0.0026844786,0.053984083,-0.1617608,-0.3785001,-0.3273644,0.060039002,3.0784307,-0.62364733,-3.6930924e-05,-0.074393675,0.014170233,0.00054499076,-0.008353913,0.0021043774,0.01796226,0.4410618,-1.4630768,2.0007117,-2.107353,-1.5700349,2.4152305,-0.09715893,0.10317732,-0.1170982,0.008484095,0.00647179,-0.11504562,-0.3256114,0.22984336,-9.595961,0.8560339,47.668976,-0.9222443,-1.7637212,-3.338564,-0.35843778,0.10472964,-0.15463161,27.6875,28.9375,28.0,31.625,33.625,34.4375
0.15805167,-1.3300099,-1.2488974,-0.7832984,-0.01646525,0.07004433,-0.15874684,-0.3786425,-0.32731697,0.060032945,3.0784261,-0.6237023,-2.0880618e-05,-0.07497361,0.013866555,0.00060193386,-0.009199707,0.0023079116,0.021380082,0.44084585,-1.4628848,2.000508,-2.1073291,-1.5700344,2.4150496,-0.09751774,0.10414257,-0.11822638,0.008102981,0.0071478016,-0.118822195,-0.5554548,0.22984336,-9.5385,0.7777002,47.658226,-0.805672,-1.8051066,-3.3752637,-0.35287005,0.077381134,-0.096763685,27.6875,28.9375,28.0,31.625,33.625,34.4375
0.1600519,-1.5443058,-1.1485035,-0.76880205,-0.02519664,0.074978925,-0.16773751,-0.37880582,-0.32731307,0.0600538,3.0783625,-0.62359416,-3.9739392e-05,-0.076238796,0.014207992,0.00049513724,-0.009329102,0.0021769237,0.020085884,0.44065315,-1.4626805,2.000232,-2.1073172,-1.5699748,2.4147975,-0.099353,0.10600464,-0.120069936,0.008155962,0.0073253764,-0.119361706,-0.59376204,0.22984336,-9.557653,0.8090337,47.664497,-0.92485374,-1.7867773,-3.3646426,-0.3707971,0.08009436,-0.050748803,27.6875,28.9375,28.0,31.625,33.625,34.4375
0.16205207,-1.8906677,-1.1455435,-0.9938899,-0.020979416,0.064806186,-0.16160798,-0.3789653,-0.32725802,0.060065296,3.078431,-0.62349564,-9.676952e-05,-0.07768605,0.0144382045,0.0011575237,-0.009887644,0.0036863338,0.016115934,0.44044864,-1.4624887,1.9999803,-2.1072576,-1.5700349,2.4145231,-0.10092816,0.10641636,-0.12205215,0.008116719,0.0071829935,-0.11696557,-0.4213795,0.2873042,-9.519346,0.7553206,47.68599,-0.7108834,-1.7767751,-3.2674394,-0.3584296,0.0928459,-0.07354645,27.6875,28.9375,28.0,31.625,33.625,34.4375
0.16405217,-1.7483035,-0.813037,-0.8204617,-0.024654062,0.0653167,-0.15779114,-0.3791284,-0.3272372,0.06006136,3.0783622,-0.62354034,-9.356208e-05,-0.078238346,0.014402422,-0.0002893824,-0.008612728,0.0015248464,0.012810181,0.44023263,-1.4622593,1.9997414,-2.1072814,-1.5699872,2.4143438,-0.1011468,0.110893816,-0.12361551,0.0077077355,0.0069505293,-0.11387631,-0.4213795,0.30645782,-9.576807,0.83589023,47.709274,-0.85443604,-1.9902779,-3.3379934,-0.35311526,0.0992018,-0.08916782,27.6875,28.9375,28.0,31.625,33.625,34.4375
0.16605222,-1.3592921,-1.2287639,-0.9007,-0.010642537,0.06740774,-0.15733343,-0.3792621,-0.32719147,0.060053088,3.0784283,-0.6234607,-8.3765415e-05,-0.079633884,0.014184859,0.0012203536,-0.010510443,0.004702352,0.007378741,0.4400523,-1.4620565,1.9995254,-2.1072338,-1.570023,2.4141057,-0.10217369,0.10943953,-0.12537982,0.007236903,0.0073040994,-0.109471485,-0.4213795,0.2681506,-9.576807,0.7329411,47.67793,-0.8903418,-1.7485025,-3.37079,-0.3390389,0.09107575,-0.12351489,27.6875,28.9375,28.0,31.625,33.625,34.4375
0.16805209,-1.3065441,-1.0745181,-0.85182846,-0.014106257,0.06216485,-0.16035996,-0.3794426,-0.327175,0.060049776,3.078332,-0.6235008,-7.379942e-05,-0.07971609,0.013949793,-4.7960577e-05,-0.009522449,0.0024277838,0.0042211893,0.43981257,-1.4618037,1.9992617,-2.1072695,-1.5699505,2.4139032,-0.10180232,0.11308864,-0.12653261,0.0072268425,0.007381523,-0.10594111,-0.40222588,0.28730422,-9.5385,0.83813137,47.694946,-0.93331003,-1.9542542,-3.421719,-0.3447028,0.09939627,-0.18474892,27.6875,28.9375,28.0,31.625,33.625,34.4375
0.17005214,-1.1508439,-1.0295255,-0.7267752,-0.0077716797,0.057909653,-0.15844342,-0.37962463,-0.32715407,0.060069203,3.0783176,-0.6234401,-0.00016034403,-0.08046864,0.013947009,-5.5491808e-05,-0.009849942,0.0030163021,0.0021590008,0.43962026,-1.4615759,1.9989628,-2.107258,-1.5699629,2.413675,-0.102443516,0.11403716,-0.12742056,0.0064935493,0.0074305795,-0.10451891,-0.28730422,0.2681506,-9.5385,0.800085,47.672558,-0.978654,-1.7461822,-3.2724462,-0.3410726,0.11568411,-0.23171498,27.6875,28.9375,28.0,31.625,33.625,34.4375
0.17205228,-0.84493226,-0.6222426,-0.74299175,-0.016361358,0.04538355,-0.15558642,-0.3797787,-0.327116,0.060063634,3.078311,-0.62342167,-0.00014962655,-0.08234231,0.013119382,0.0008631979,-0.01060254,0.005453252,-0.00070535997,0.4394045,-1.4613594,1.9987334,-2.1072457,-1.5699509,2.4134488,-0.102260455,0.11595026,-0.13160558,0.0062423614,0.0070653874,-0.1014684,-0.11492168,0.24899697,-9.442732,0.8023209,47.686886,-1.0743704,-1.8460402,-3.2980216,-0.3284077,0.10612069,-0.27438176,27.6875,28.9375,28.0,31.625,33.625,34.4375
0.17405239,-0.6671706,-0.87852204,-0.59128183,-0.009115688,0.025838323,-0.16070345,-0.37995932,-0.32710302,0.060077887,3.0782704,-0.623394,-0.00021121727,-0.0824466,0.013591942,-0.00014589718,-0.01009418,0.003677404,-0.0020086076,0.43921185,-1.4611193,1.9984354,-2.1072462,-1.5699385,2.4132442,-0.103385374,0.11779505,-0.1312833,0.005900275,0.007367932,-0.10128979,-0.095768064,0.2681506,-9.270349,0.842603,47.716442,-1.1165503,-1.8213972,-3.4139242,-0.31154627,0.10679267,-0.33265275,27.6875,28.9375,28.0,31.625,33.625,34.4375
0.1760526,-0.13031806,-0.5774114,-0.50088495,-0.007753839,0.02020557,-0.16421196,-0.38014564,-0.32708198,0.06009174,3.0781987,-0.6234588,-0.00023730674,-0.083506174,0.013595485,-0.0003276191,-0.010408766,0.003142051,-0.0057654884,0.4389836,-1.460879,1.998135,-2.1072338,-1.5699028,2.4130657,-0.104614444,0.12001391,-0.13340697,0.006157946,0.007881177,-0.0987606,-0.095768064,0.21068975,-9.232041,0.82022345,47.737934,-1.1204109,-1.8982251,-3.3113933,-0.30350095,0.11378006,-0.38334653,27.6875,28.9375,28.0,31.625,33.625,34.4375
0.17805164,0.22619164,-0.2177614,-0.46248257,-0.008170373,0.0042127552,-0.16675739,-0.38031074,-0.32703564,0.060095876,3.0781927,-0.6235161,-0.0002873571,-0.08443611,0.01407586,-0.001293249,-0.00902049,0.0010010521,-0.007625996,0.43876687,-1.4606739,1.9978961,-2.1072218,-1.5699266,2.4128857,-0.10605177,0.12377874,-0.13560529,0.0071198433,0.007534916,-0.098335415,0.076614454,0.24899697,-9.270349,0.83589023,47.696735,-1.0989509,-1.9199219,-3.3192847,-0.30093122,0.13449988,-0.44517553,27.6875,28.9375,28.0,31.625,33.625,34.4375
0.18005161,0.2759114,-0.77594674,-0.60885096,-0.00030822758,-0.004863915,-0.16664648,-0.3804951,-0.32698584,0.060086917,3.0781784,-0.62356967,-0.00026225345,-0.08517657,0.01416209,-0.0008620099,-0.009804068,0.0017871188,-0.006547919,0.4385028,-1.4604108,1.99762,-2.107198,-1.5699147,2.412657,-0.10705544,0.12371762,-0.13654746,0.007081928,0.007910051,-0.10041707,0.05746084,0.2681506,-9.289503,0.8605109,47.67166,-1.0902961,-1.9854476,-3.22375,-0.30694842,0.13699834,-0.4758343,27.6875,28.9375,28.0,31.625,33.625,34.4375
0.18205182,0.1820867,-0.59630626,-0.34834647,-0.011091395,0.0009858499,-0.16718568,-0.38069138,-0.32701018,0.060124256,3.0780778,-0.62343,-0.00036836707,-0.086442366,0.013763077,-0.0020708397,-0.010000998,-0.00075909507,-0.00035497785,0.43833432,-1.4601691,1.9972724,-2.1072218,-1.5698541,2.4124143,-0.10822117,0.12920566,-0.13990436,0.0071805962,0.00918193,-0.10777287,0.15322891,0.2681506,-9.232041,0.83589023,47.65643,-1.0961039,-2.1792932,-3.2592554,-0.28563124,0.10925385,-0.46871457,27.6875,28.9375,28.0,31.625,33.625,34.4375
0.18405175,-0.015047018,-1.0184741,-0.52202535,-0.0076100393,0.0030756136,-0.16344732,-0.38084325,-0.32695967,0.060092136,3.0781276,-0.62339956,-0.00027693686,-0.08675252,0.014639661,-0.0014115036,-0.010071775,0.00015845284,0.0037460967,0.4381058,-1.4598944,1.9970335,-2.1071851,-1.5698541,2.4121606,-0.10986022,0.12714763,-0.13930933,0.0077899224,0.008856541,-0.11351433,0.17238252,0.30645782,-9.155427,0.85826975,47.679718,-1.1165911,-1.9683214,-3.3111324,-0.27678132,0.1262213,-0.4323919,27.6875,28.9375,28.0,31.625,33.625,34.4375
0.18605223,-0.11397983,-0.62680197,-0.20815179,-0.016254846,0.007035082,-0.16781907,-0.38102186,-0.32694355,0.060116034,3.0780864,-0.62332594,-0.00032941767,-0.086614616,0.01409718,-0.0021004465,-0.009259147,-0.0013834499,0.016039912,0.43790218,-1.4596778,1.9967335,-2.1071613,-1.5698303,2.4119165,-0.10862239,0.12970161,-0.1407276,0.0084078,0.008789054,-0.12456875,0.11492168,0.30645782,-9.174581,0.8179876,47.73614,-1.0938283,-2.078342,-3.3229165,-0.29270858,0.13842042,-0.37283736,27.6875,28.9375,28.0,31.625,33.625,34.4375
0.18805231,-0.17471793,-0.93941396,-0.33539343,-0.01978899,0.019186592,-0.17056675,-0.38116816,-0.32691997,0.060099635,3.0780518,-0.623338,-0.0002686807,-0.08878569,0.015104176,-0.0014175287,-0.010520252,-0.0003969855,0.017844506,0.4376968,-1.4594382,1.9965056,-2.1071608,-1.5697821,2.4117231,-0.11284836,0.13012758,-0.14285728,0.008693325,0.009512898,-0.13059878,0.038307227,0.30645782,-9.193734,0.8224646,47.698532,-1.162518,-1.940625,-3.301529,-0.2793928,0.121605955,-0.27066234,27.6875,28.9375,28.0,31.625,33.625,34.4375
0.19005246,-0.43226567,-0.68420094,-0.14342687,-0.016248418,0.018817525,-0.16457652,-0.38136697,-0.3268793,0.060081933,3.078085,-0.62324333,-0.00023822227,-0.08880153,0.014236197,-0.0013365044,-0.010573171,-0.00024811176,0.025015062,0.43744564,-1.4591142,1.9961818,-2.107137,-1.5697821,2.411409,-0.1111625,0.13129267,-0.14443399,0.008954349,0.009496942,-0.13608277,0.0,0.30645782,-9.097966,0.85155696,47.72808,-1.195,-2.0384963,-3.3008516,-0.27585942,0.13433468,-0.21303661,27.6875,28.9375,28.0,31.625,33.625,34.4375
0.19205257,-0.5237704,-0.8263415,-0.14129685,0.00033048337,0.020709708,-0.15884094,-0.38153735,-0.32685846,0.06008452,3.0781026,-0.62313175,-0.00028025982,-0.09039591,0.014320623,-0.0003571144,-0.011514137,0.0018316362,0.025549583,0.43726504,-1.4588628,1.9958948,-2.1071255,-1.5697945,2.4111567,-0.112647764,0.1313475,-0.14676763,0.008952341,0.009469303,-0.13810103,-0.076614454,0.30645782,-9.174581,0.85826975,47.699425,-1.1708037,-1.8608437,-3.2890263,-0.29194802,0.13436358,-0.1624084,27.6875,28.9375,28.0,31.625,33.625,34.4375
0.19405165,-0.9433973,-0.33857632,-0.19768544,0.0057830657,0.015704628,-0.15952115,-0.38175675,-0.32680556,0.060110044,3.0780716,-0.6230884,-0.00032779525,-0.0905274,0.014388137,-0.0010716907,-0.011916717,1.2069217e-05,0.023369106,0.43696466,-1.4586226,1.9955591,-2.1070774,-1.5697817,2.4108334,-0.113576055,0.13310733,-0.14713016,0.009032968,0.010610939,-0.13684875,-0.038307227,0.2681506,-9.155427,0.79560274,47.694946,-1.1600751,-1.9746239,-3.2764537,-0.26526454,0.12360725,-0.16409563,27.6875,28.9375,28.0,31.625,33.625,34.4375
0.1960536,-0.58227783,-0.52343357,-0.36844823,0.015572952,0.025674706,-0.15789595,-0.38188547,-0.3268121,0.06007042,3.0780628,-0.6229381,-0.00018697655,-0.09188244,0.015395221,-0.00075036875,-0.0121487845,0.0007072898,0.015701504,0.43680745,-1.4583231,1.9953207,-2.1070893,-1.5696977,2.4105835,-0.1165349,0.13314827,-0.14796719,0.009110602,0.010515902,-0.13214007,-0.17238252,0.17238252,-9.11712,0.7866488,47.695843,-1.0087707,-1.832619,-3.3327274,-0.26637697,0.13192834,-0.2064607,27.6875,28.9375,28.0,31.625,33.625,34.4375
0.19805194,-0.5230818,0.26334906,-0.28439516,0.0039720065,0.040744394,-0.15856613,-0.38208857,-0.3267772,0.060072955,3.0780325,-0.6229327,-0.00022086981,-0.093280874,0.014709546,7.239573e-05,-0.012039428,0.00215932,0.011164901,0.4365562,-1.4580468,1.9950083,-2.1070888,-1.5696863,2.410333,-0.11593046,0.13496293,-0.15214954,0.010211195,0.0097984355,-0.12699586,-0.30645782,0.15322891,-9.212888,0.8672237,47.70211,-1.2731155,-2.020461,-3.4072208,-0.26987886,0.13901177,-0.26652285,27.6875,28.9375,28.0,31.625,33.625,34.4375
0.20005211,-0.9561619,-0.08509623,-0.39758798,0.009599109,0.05488367,-0.15805757,-0.38229287,-0.32675493,0.060106933,3.077984,-0.6228678,-0.00031534268,-0.093178004,0.015882593,-0.0006971766,-0.011809988,0.00019674106,0.006941558,0.4363271,-1.4578196,1.9946731,-2.107065,-1.5696739,2.4100697,-0.11838384,0.13505769,-0.1505669,0.010409598,0.010434432,-0.12522647,-0.34476504,0.05746084,-9.251195,0.8403672,47.679718,-1.0298834,-1.6315532,-3.4325767,-0.27068278,0.12541461,-0.28865165,27.6875,28.9375,28.0,31.625,33.625,34.4375
0.20205219,-1.1926932,-0.016292788,-0.52079177,0.016321052,0.06443393,-0.15880156,-0.38246557,-0.32672006,0.060089346,3.0779767,-0.6228672,-0.0002353003,-0.094701774,0.016236112,-3.7850818e-06,-0.012046731,0.0016963085,0.005227301,0.43608657,-1.4575319,1.9943861,-2.1070287,-1.5696381,2.4098299,-0.12002822,0.13553858,-0.15279192,0.010703065,0.010008065,-0.12515552,-0.4405331,0.019153614,-9.3661175,0.842603,47.679718,-1.1385394,-1.717879,-3.3580003,-0.2884516,0.12444124,-0.33050683,27.6875,28.9375,28.0,31.625,33.625,34.4375
0.20405242,-1.4902155,0.04654327,-0.50134087,0.0122879585,0.07936467,-0.16364071,-0.3826087,-0.3266843,0.060057573,3.0780182,-0.6228015,-7.8817386e-05,-0.09615124,0.016801365,-0.00022245855,-0.012024936,0.0010869446,0.0015245347,0.43586975,-1.4572436,1.9941224,-2.1069567,-1.5696014,2.4095669,-0.12244557,0.1378284,-0.1549756,0.011163363,0.010230303,-0.12386982,-0.40222588,-0.076614454,-9.385271,0.87617236,47.691364,-1.074129,-1.6840929,-3.3581073,-0.2793657,0.13816509,-0.38483813,27.6875,28.9375,28.0,31.625,33.625,34.4375
0.20605248,-2.0310545,-0.22006516,-0.6136628,0.026724638,0.07850419,-0.15830342,-0.38281974,-0.32662877,0.060072426,3.077981,-0.62290806,-0.00011061387,-0.09728564,0.016860025,9.005763e-06,-0.013006804,0.0015307313,0.0016109137,0.43558136,-1.4569917,1.9937981,-2.1069095,-1.5696014,2.40935,-0.12393874,0.13884799,-0.15662779,0.010981331,0.01093538,-0.12544852,-0.47884035,-0.05746084,-9.519346,0.8493211,47.66987,-1.035078,-1.7621075,-3.426508,-0.27843854,0.11914992,-0.39054364,27.6875,28.9375,28.0,31.625,33.625,34.4375
0.20805256,-1.1263641,0.963771,-0.71223456,0.011568554,0.09925508,-0.17209801,-0.3830427,-0.3265869,0.060067035,3.0779767,-0.62290645,-0.00015141892,-0.09896895,0.017800942,0.00045231127,-0.01309042,0.0031972714,0.0018019673,0.4353164,-1.4566683,1.9934515,-2.1069095,-1.5696138,2.4090848,-0.12666604,0.13906188,-0.15778732,0.010387032,0.010311635,-0.12836546,-0.49799395,0.0,-9.557653,0.83813137,47.67793,-0.937765,-1.7240491,-3.273716,-0.277636,0.13427731,-0.4348123,27.6875,28.9375,28.0,31.625,33.625,34.4375
0.21005167,-1.4465003,-0.085635945,-1.0078802,0.031018382,0.0952484,-0.16486521,-0.38321748,-0.32656774,0.060053412,3.0779166,-0.62281567,-6.0849914e-05,-0.10050986,0.018236557,0.0002832518,-0.012495808,0.0031137043,0.006299863,0.43506378,-1.4563915,1.9931754,-2.1069095,-1.569518,2.4087832,-0.12841748,0.14166345,-0.16041107,0.0107588265,0.009809847,-0.13461275,-0.61291564,0.0,-9.5385,0.8717007,47.694946,-0.90348834,-1.8799837,-3.4827142,-0.26936245,0.13899519,-0.3607238,27.6875,28.9375,28.0,31.625,33.625,34.4375
0.21205257,-2.0027287,-0.021351757,-0.9955687,0.015441595,0.08724883,-0.15890685,-0.38340542,-0.32653132,0.06005573,3.0779517,-0.6227406,-8.155481e-05,-0.10066686,0.0184794,-0.0016595684,-0.011562684,-0.0006803346,0.013197169,0.43484753,-1.4561146,1.9928516,-2.1068614,-1.5695418,2.408516,-0.12944654,0.14627634,-0.1611081,0.010681195,0.01056812,-0.14253858,-0.51714754,-0.038307227,-9.634268,0.82022345,47.677036,-0.9155359,-1.6997062,-3.4575713,-0.28382748,0.13755828,-0.2851773,27.6875,28.9375,28.0,31.625,33.625,34.4375
0.21405256,-1.8601079,-0.45783764,-1.2377963,0.01652552,0.09282626,-0.15821221,-0.3836276,-0.32647836,0.060067885,3.077915,-0.6227296,-0.00013132356,-0.10189241,0.018676996,-0.0009079518,-0.011561836,0.0014995548,0.020481039,0.43454725,-1.4558511,1.9925283,-2.1068494,-1.5695304,2.4082136,-0.13018854,0.14621189,-0.16273105,0.010407982,0.009660373,-0.1505625,-0.63206923,-0.076614454,-9.825804,0.8247004,47.667187,-0.93310213,-1.84972,-3.3786802,-0.2741597,0.13640508,-0.22664967,27.6875,28.9375,28.0,31.625,33.625,34.4375
0.21605165,-1.431444,-0.52225906,-1.2556983,-0.008290544,0.117469594,-0.17479622,-0.3838377,-0.3264332,0.060055416,3.0779421,-0.6226556,-7.234132e-05,-0.10232733,0.018384742,-0.0015804077,-0.010444371,1.34295615e-05,0.024477104,0.43427145,-1.4555147,1.9921693,-2.1067894,-1.569518,2.4078884,-0.12967879,0.14948253,-0.1650823,0.011316601,0.009267826,-0.1540474,-0.7086837,0.076614454,-9.940725,0.8493211,47.675243,-1.0056902,-1.8582642,-3.4773107,-0.29701945,0.14179066,-0.14947253,27.6875,28.9375,28.0,31.625,33.625,34.4375
0.21805169,-1.5862912,-0.6081963,-1.0026678,-0.022721283,0.1260561,-0.17142259,-0.38404265,-0.3264045,0.060071435,3.0779192,-0.6225741,-0.00012152991,-0.10296092,0.01855432,-0.0026144653,-0.009651876,-0.0014138696,0.02506124,0.43403146,-1.45525,1.9918331,-2.1067655,-1.569506,2.4076006,-0.13039343,0.1527206,-0.16625409,0.010884497,0.009155038,-0.15534447,-0.63206923,0.1340753,-9.80665,0.779936,47.64837,-1.100224,-1.97316,-3.4023762,-0.29434052,0.16454771,-0.09546512,27.6875,28.9375,28.0,31.625,33.625,34.4375
0.22005177,-1.4567842,-0.82433724,-0.99217194,-0.015982278,0.11132557,-0.16397765,-0.38424486,-0.3263721,0.060063627,3.077915,-0.6224995,-9.7882454e-05,-0.10408016,0.018097738,-0.0023082248,-0.010159488,7.312449e-05,0.02140405,0.43377897,-1.454938,1.9914988,-2.1067421,-1.5694822,2.4073024,-0.1303196,0.15410891,-0.16834907,0.010031379,0.008981532,-0.15161182,-0.49799395,0.1340753,-9.691729,0.8537928,47.650166,-0.9497911,-1.967585,-3.4073298,-0.2805421,0.15896603,-0.10198524,27.6875,28.9375,28.0,31.625,33.625,34.4375
0.22205257,-1.2986286,-1.1250145,-0.9166161,-0.011884289,0.08113582,-0.15746063,-0.38446686,-0.3263224,0.06006957,3.0779092,-0.6224654,-0.00015625324,-0.106868535,0.019633388,-0.001812806,-0.010765823,0.0022182222,0.011672236,0.4335015,-1.4546504,1.9911627,-2.1067307,-1.5694946,2.4070046,-0.13527954,0.15487814,-0.17010143,0.008810194,0.008626736,-0.14683807,-0.36391866,0.15322891,-9.615114,0.88960326,47.672558,-1.0208694,-2.035533,-3.4624171,-0.26152882,0.15868591,-0.17673036,27.6875,28.9375,28.0,31.625,33.625,34.4375
0.22405252,-0.78751063,-0.6914011,-0.90562314,-0.016677737,0.051693324,-0.15811689,-0.38468468,-0.32628074,0.060051393,3.0778983,-0.62250185,-0.0001297284,-0.10823695,0.018302219,-0.0009386711,-0.012214433,0.0046378006,0.008164926,0.4332263,-1.4543024,1.9908146,-2.1067188,-1.5694822,2.4067538,-0.1340878,0.15643859,-0.17371769,0.008060155,0.008912249,-0.14213692,-0.2873042,0.19153613,-9.576807,0.8717007,47.70032,-1.0452312,-1.863598,-3.2567725,-0.2497663,0.16777523,-0.24439253,27.6875,28.9375,28.0,31.625,33.625,34.4375
0.22605167,0.20927927,-0.7409242,-0.83136016,-0.01049751,0.04299833,-0.16722356,-0.38491642,-0.32622734,0.0600573,3.0778701,-0.6224217,-0.00022251683,-0.10989383,0.017908989,-0.00053247996,-0.012534371,0.0067434623,0.0038413296,0.43292588,-1.4540263,1.9905022,-2.1067555,-1.5694827,2.406407,-0.13430157,0.15835795,-0.17656942,0.0069474555,0.008319878,-0.13802403,-0.36391866,0.3256114,-9.500193,0.8179876,47.686886,-1.1203517,-1.916133,-3.4153304,-0.22372115,0.18493426,-0.32983664,27.6875,28.9375,28.0,31.625,33.625,34.4375
0.22805166,-0.06552495,-0.9122913,-0.8150631,-0.008343088,0.033577003,-0.1560586,-0.38515112,-0.32621387,0.06007247,3.077785,-0.6224839,-0.00027847692,-0.110383436,0.018942801,-5.650584e-05,-0.012660283,0.007485951,-0.0012737233,0.43267334,-1.4537036,1.9901084,-2.106755,-1.5694469,2.4062045,-0.13643104,0.15670708,-0.17593664,0.0072432933,0.008134408,-0.1350386,-0.30645782,0.34476504,-9.519346,0.84484416,47.666286,-1.1166449,-1.8373368,-3.3580003,-0.21832184,0.19710457,-0.377046,27.6875,28.9375,28.0,31.625,33.625,34.4375
0.23005173,-0.267188,-1.1220951,-0.88556916,-0.019013362,0.03458354,-0.15583554,-0.3853703,-0.32617256,0.06008266,3.0777683,-0.6224811,-0.00028082932,-0.11003571,0.018290294,-0.00037536205,-0.012010413,0.006295818,-0.0023016636,0.4323981,-1.4534032,1.9897369,-2.106695,-1.5694345,2.4059298,-0.13476376,0.15834188,-0.17732555,0.008351712,0.008044621,-0.1323426,-0.095768064,0.30645782,-9.519346,0.9186956,47.71286,-1.1509473,-1.9424906,-3.3644936,-0.20960176,0.2135126,-0.4434886,27.6875,28.9375,28.0,31.625,33.625,34.4375
0.2320525,-0.47729337,-1.4641713,-0.7350681,-0.025546635,0.029715938,-0.15395433,-0.3855925,-0.32614627,0.06008183,3.0777228,-0.6224534,-0.00029067235,-0.11181068,0.019069199,-0.0006595094,-0.012402986,0.005092209,-0.004517706,0.4321326,-1.4530791,1.9893779,-2.1066945,-1.5693983,2.405653,-0.13823403,0.16108868,-0.17997365,0.009186965,0.008910151,-0.13359532,0.0,0.36391866,-9.423578,0.8537928,47.728977,-1.0071025,-1.9035854,-3.4518838,-0.20959339,0.22115652,-0.5194292,27.6875,28.9375,28.0,31.625,33.625,34.4375
0.23405264,-0.1630204,-1.3253783,-0.4786113,-0.04183906,0.03779208,-0.15937665,-0.38581395,-0.32610992,0.060076006,3.077687,-0.62245977,-0.0002972671,-0.1108831,0.01900545,-0.001124346,-0.012134435,0.0032751195,0.004303371,0.43185708,-1.4527556,1.9890307,-2.106694,-1.569374,2.4053862,-0.1375753,0.16114773,-0.17925376,0.010184186,0.009445279,-0.14175844,0.076614454,0.38307226,-9.32781,0.8672237,47.693153,-1.085043,-1.8173375,-3.490176,-0.21949448,0.21930298,-0.50999904,27.6875,28.9375,28.0,31.625,33.625,34.4375
0.23605175,-0.4107534,-1.5854807,-0.4764985,-0.026567835,0.020024333,-0.15507957,-0.38605732,-0.32604837,0.060074076,3.07767,-0.62247145,-0.0003270049,-0.11313558,0.019248081,-0.0008494101,-0.013099174,0.004594747,0.010073705,0.4315322,-1.4524313,1.9886712,-2.106682,-1.569374,2.405071,-0.14008808,0.16343266,-0.18228519,0.009340264,0.009776357,-0.1500393,0.15322891,0.36391866,-9.232041,0.81351066,47.711964,-1.0846395,-1.9024811,-3.4416814,-0.19289121,0.22673813,-0.42172262,27.6875,28.9375,28.0,31.625,33.625,34.4375
0.238052,0.1750532,-1.1259342,-0.50726014,-0.011273329,0.00933491,-0.1547612,-0.38628003,-0.32601407,0.06008696,3.0776625,-0.6223485,-0.00036132554,-0.11445127,0.019014223,-2.9548857e-05,-0.014784694,0.0063298843,0.021367475,0.43126777,-1.4521322,1.9883002,-2.1066463,-1.5693616,2.404731,-0.14123957,0.1635646,-0.18425561,0.008914282,0.010599294,-0.16248336,0.22984336,0.34476504,-9.232041,0.80679786,47.658226,-1.0201298,-1.5986109,-3.4017673,-0.17221686,0.2266173,-0.28642365,27.6875,28.9375,28.0,31.625,33.625,34.4375
0.24005207,0.5069169,-0.22913486,-0.1768789,-0.008912403,-0.0068553775,-0.16154687,-0.38653192,-0.325978,0.060104202,3.0776062,-0.6222761,-0.0004460936,-0.11575578,0.018983452,0.0011547495,-0.016335214,0.008594389,0.027626697,0.43096748,-1.4518207,1.9879164,-2.1066582,-1.5693377,2.404393,-0.14251883,0.1627229,-0.1860637,0.008873504,0.01108463,-0.17002033,0.21068975,0.2681506,-9.136273,0.8247004,47.679718,-1.0271229,-1.6914105,-3.3823147,-0.16229597,0.24392414,-0.21924333,27.6875,28.9375,28.0,31.625,33.625,34.4375
0.24205217,0.7620813,-0.108771175,-0.11840898,0.0018259386,-0.0039971415,-0.16556443,-0.38678607,-0.3259387,0.060098287,3.077619,-0.6221622,-0.0005282356,-0.11715247,0.019247368,0.0012252936,-0.01663134,0.008142315,0.028760565,0.43069082,-1.4514488,1.9875206,-2.106682,-1.5693611,2.404044,-0.14441893,0.16481468,-0.18883725,0.009843605,0.011554759,-0.17305236,0.17238252,0.2681506,-9.002198,0.8247004,47.679718,-0.9611912,-1.5864019,-3.3743975,-0.13536489,0.24645206,-0.14000458,27.6875,28.9375,28.0,31.625,33.625,34.4375
0.24405213,0.49167576,0.15650626,-0.5602645,0.01761574,-0.009076911,-0.16023654,-0.3869738,-0.325924,0.060100872,3.0775752,-0.62206155,-0.00040807383,-0.118808165,0.019544605,0.0018602561,-0.016979225,0.008908135,0.022306014,0.43043807,-1.451149,1.987161,-2.1065977,-1.5692652,2.403734,-0.14629756,0.16599685,-0.19189416,0.010891034,0.011540725,-0.16847521,0.11492168,0.24899697,-9.097966,0.84708,47.698532,-0.97925925,-1.5688403,-3.2249546,-0.13188311,0.23403381,-0.14324766,27.6875,28.9375,28.0,31.625,33.625,34.4375
0.24605231,0.88145614,0.42241353,-0.49492535,0.02061322,0.012391871,-0.16542336,-0.38722908,-0.3258528,0.060073357,3.0775964,-0.62205094,-0.00043017726,-0.120299995,0.019658895,0.0026509345,-0.017769665,0.0100262,0.01417478,0.43010184,-1.4507654,1.9868015,-2.1066215,-1.5692891,2.4033887,-0.147839,0.16662306,-0.19463725,0.011652956,0.011785614,-0.16188416,0.05746084,0.17238252,-9.212888,0.8247004,47.68062,-0.9150219,-1.5751194,-3.2999506,-0.1326801,0.24998319,-0.21230346,27.6875,28.9375,28.0,31.625,33.625,34.4375
0.24805239,-0.31927016,-0.13350083,-0.4079866,0.009528077,0.011909482,-0.15306948,-0.38745895,-0.3258469,0.0600935,3.0775127,-0.62197936,-0.0004112705,-0.120807774,0.020432884,0.00156106,-0.017367752,0.007074041,0.0072706006,0.42983726,-1.4504412,1.9863828,-2.1065738,-1.5692047,2.4030902,-0.15018784,0.16934901,-0.19545357,0.012602074,0.012656842,-0.1573279,-0.095768064,0.11492168,-9.212888,0.79560274,47.70659,-0.9489765,-1.5845491,-3.3786285,-0.14083028,0.253061,-0.30571967,27.6875,28.9375,28.0,31.625,33.625,34.4375
0.25005242,-0.32909334,-0.4511238,-0.31713492,-0.005477212,0.048457246,-0.17237678,-0.38770854,-0.32579905,0.060116224,3.0774653,-0.6219877,-0.0004752087,-0.11963667,0.019531434,0.00018875438,-0.016067108,0.0037207848,0.009150698,0.42952606,-1.4501406,1.9859871,-2.1065376,-1.5691928,2.4027905,-0.14754634,0.17254518,-0.19619094,0.013737705,0.012884237,-0.15656528,-0.19153614,0.076614454,-9.270349,0.84708,47.68599,-1.037315,-1.7242012,-3.3020644,-0.13598062,0.23255444,-0.34238887,27.6875,28.9375,28.0,31.625,33.625,34.4375
0.25205237,-0.96389586,-0.4826425,-0.5861003,-0.0016775156,0.07029825,-0.16725715,-0.38791534,-0.32574335,0.06007715,3.0774941,-0.6220142,-0.00037023518,-0.120761044,0.019847032,-0.0011471086,-0.015391289,0.00015364542,0.0068108016,0.42923713,-1.4497675,1.9856514,-2.1065009,-1.5691808,2.4025147,-0.14957148,0.17774476,-0.19934392,0.0152181,0.013741779,-0.15624955,-0.34476504,0.019153614,-9.423578,0.842603,47.685097,-0.92402565,-1.8772417,-3.2320712,-0.16002426,0.23510839,-0.38093412,27.6875,28.9375,28.0,31.625,33.625,34.4375
0.25405228,-1.4324402,-0.3302689,-0.6375157,-0.004540997,0.09050428,-0.1608455,-0.38815603,-0.32571882,0.060085647,3.0774353,-0.6219424,-0.0003327027,-0.12198446,0.019379493,-0.00031897833,-0.016000455,0.0018495728,0.009355782,0.42893744,-1.4494199,1.9852327,-2.1064527,-1.5691088,2.4021778,-0.1495382,0.17852919,-0.20225142,0.015565228,0.013593739,-0.15875943,-0.4213795,0.11492168,-9.481039,0.87617236,47.70032,-1.0904354,-1.7621193,-3.2690892,-0.15583785,0.24554479,-0.388457,27.6875,28.9375,28.0,31.625,33.625,34.4375
0.25605235,-1.5071543,-0.68353033,-0.54354215,-0.0017862394,0.111182414,-0.1638972,-0.38841525,-0.3256831,0.060093906,3.0774343,-0.6218418,-0.00037667828,-0.12216706,0.019750651,-7.650696e-05,-0.016307997,0.0020417976,0.015373986,0.4286491,-1.4490485,1.9847907,-2.1064165,-1.5691088,2.401827,-0.15041156,0.17782442,-0.20215383,0.015883025,0.013811602,-0.16565096,-0.5363012,0.15322891,-9.500193,0.9097417,47.679718,-1.0438951,-1.7651898,-3.312042,-0.16118784,0.2377969,-0.35895497,27.6875,28.9375,28.0,31.625,33.625,34.4375
0.25805208,-1.4031785,-0.2760798,-0.54756284,-0.013499186,0.1186417,-0.1735882,-0.38863626,-0.3256314,0.06008127,3.0774262,-0.62177956,-0.00035444417,-0.12341874,0.020769415,-0.00016363415,-0.016226834,0.0022729153,0.022092946,0.42834792,-1.4487247,1.984455,-2.1064045,-1.5690845,2.4014883,-0.15316354,0.17862764,-0.20284744,0.0156197315,0.013654972,-0.17512146,-0.5554548,0.11492168,-9.500193,0.8627467,47.675243,-0.92706853,-1.7051132,-3.3442993,-0.16311243,0.23958907,-0.26761654,27.6875,28.9375,28.0,31.625,33.625,34.4375
0.2600519,-1.5049523,0.011402973,-0.59194314,-0.023136033,0.1164927,-0.16237962,-0.38886327,-0.3255978,0.06008398,3.0774155,-0.621637,-0.00031046735,-0.12408064,0.021498766,-0.0014901985,-0.015297396,-7.272325e-05,0.029279875,0.42805985,-1.4483883,1.9840592,-2.106345,-1.5690368,2.4011128,-0.15506956,0.1819655,-0.20359208,0.015572076,0.013796057,-0.18421364,-0.63206923,0.095768064,-9.519346,0.94331104,47.693153,-1.083457,-1.8799236,-3.4871256,-0.14619161,0.24018988,-0.12616996,27.6875,28.9375,28.0,31.625,33.625,34.4375
0.2620519,-1.3358839,-0.32680768,-0.51013905,-0.02086023,0.11247238,-0.16807571,-0.38912085,-0.32555684,0.06008759,3.0774162,-0.62153924,-0.00028631336,-0.12342127,0.021328567,-0.0028255242,-0.013910596,-0.0026306638,0.034052953,0.42774805,-1.4480045,1.9836053,-2.106273,-1.569013,2.4007401,-0.15394336,0.18460555,-0.20363094,0.015888853,0.013602377,-0.18786032,-0.6703765,0.11492168,-9.500193,0.8717007,47.68062,-1.1146219,-1.7566721,-3.4858813,-0.15567309,0.24750647,-0.06203929,27.6875,28.9375,28.0,31.625,33.625,34.4375
0.264052,-1.9185303,-0.9459621,-0.7042086,-0.0030392804,0.093890354,-0.15166193,-0.38937905,-0.32549244,0.060083907,3.0774064,-0.6214634,-0.00030527197,-0.12407932,0.020878488,-0.0017095552,-0.015048166,-0.00017991409,0.030613398,0.42740005,-1.4476571,1.9832224,-2.106261,-1.5690006,2.4003463,-0.15355386,0.1834395,-0.20487192,0.015595305,0.013618756,-0.18403052,-0.7661445,0.11492168,-9.557653,0.83365434,47.67166,-1.1232184,-1.7877262,-3.5999389,-0.15873508,0.25534046,-0.059747078,27.6875,28.9375,28.0,31.625,33.625,34.4375
0.2660523,-1.7170318,-0.37015638,-0.48490694,-0.0068041673,0.100475885,-0.14988142,-0.3896202,-0.3254456,0.060052097,3.0774205,-0.6214127,-0.00026422378,-0.12564532,0.021225583,-0.0022259,-0.0150419045,-0.0002505224,0.021418484,0.42709967,-1.4472489,1.9828385,-2.1062615,-1.5689887,2.4000127,-0.15542124,0.18643834,-0.20691547,0.014701815,0.013623427,-0.17670164,-0.8810662,0.076614454,-9.442732,0.8940802,47.653748,-1.1806219,-1.7856553,-3.6141138,-0.14918797,0.24093908,-0.11808641,27.6875,28.9375,28.0,31.625,33.625,34.4375
0.26805234,-1.3521711,-0.017991563,-0.30764788,0.004393792,0.11117582,-0.15689133,-0.38990283,-0.32541764,0.060067516,3.0773506,-0.62134534,-0.00031170598,-0.12715833,0.020880137,-0.0015633386,-0.015732065,0.0017738859,0.013749447,0.42677543,-1.4468653,1.9823712,-2.10625,-1.5689405,2.3996556,-0.15579188,0.18758929,-0.20966554,0.014174515,0.0134109,-0.16940059,-0.8236054,0.019153614,-9.346964,0.85826975,47.696735,-1.1800708,-1.7431074,-3.6190867,-0.11561403,0.25851116,-0.21048054,27.6875,28.9375,28.0,31.625,33.625,34.4375
0.27005237,-1.5053831,-0.16087328,-0.5949007,0.029801793,0.092125975,-0.14704548,-0.3901328,-0.325357,0.060059045,3.077341,-0.62136596,-0.0002572967,-0.12837827,0.020742068,-0.0018044146,-0.016234756,0.0011388371,0.007072727,0.42645124,-1.4465289,1.9820002,-2.10619,-1.5689162,2.3993456,-0.15692465,0.19038452,-0.21236683,0.014447772,0.01411666,-0.1638553,-0.63206923,0.019153614,-9.2703495,0.87393653,47.67345,-1.1983869,-1.8197652,-3.4847791,-0.108726054,0.25970078,-0.33559304,27.6875,28.9375,28.0,31.625,33.625,34.4375
0.27205235,-1.0225924,-0.11121883,-0.58740675,0.025266984,0.0802612,-0.15479901,-0.39042756,-0.3253491,0.06008105,3.0772603,-0.62129617,-0.00036170924,-0.12945518,0.021087237,-0.001625029,-0.016215032,0.0019230269,-0.0002784903,0.4261626,-1.4461215,1.9814962,-2.1062014,-1.5688804,2.399024,-0.15812092,0.19124064,-0.21377385,0.014293799,0.013781803,-0.15769808,-0.36391866,0.05746084,-9.404425,0.89631605,47.71554,-1.1798209,-1.8013408,-3.4933012,-0.09489842,0.25529534,-0.41585332,27.6875,28.9375,28.0,31.625,33.625,34.4375
0.27405235,-0.957635,-0.49293077,-0.55242753,0.02590143,0.052470088,-0.1540602,-0.39069864,-0.32528338,0.060084596,3.0772295,-0.6213274,-0.00038233327,-0.13038036,0.020336298,-0.00053845905,-0.017268958,0.004161591,0.00037716932,0.4258032,-1.4457623,1.9810776,-2.1061661,-1.568869,2.3986883,-0.15740103,0.1911628,-0.21625696,0.014387454,0.013818569,-0.15763235,-0.19153614,0.095768064,-9.308657,0.88960326,47.71554,-1.2799097,-1.8051322,-3.3876402,-0.09633191,0.26640445,-0.48161605,27.6875,28.9375,28.0,31.625,33.625,34.4375
0.2760525,-0.15382835,-0.22405261,-0.6187879,0.002942014,0.047605123,-0.15736929,-0.39096394,-0.32524472,0.060074266,3.0772038,-0.6213558,-0.00035891458,-0.13168268,0.020876428,-0.00018458582,-0.016904494,0.0051528267,0.006122388,0.42549062,-1.445343,1.9806231,-2.10613,-1.5688447,2.398397,-0.15889314,0.19196601,-0.2181191,0.014717385,0.013088413,-0.16486888,-0.21068975,0.15322891,-9.404425,0.8717007,47.70032,-1.157199,-1.7276317,-3.454795,-0.07726055,0.26789576,-0.48680815,27.6875,28.9375,28.0,31.625,33.625,34.4375
0.27805164,-0.04204321,-0.35697833,-0.6184177,-0.0045811515,0.024287466,-0.15480521,-0.39124742,-0.3251833,0.06006556,3.0771694,-0.6213645,-0.00039532836,-0.13545696,0.021804031,0.0013840819,-0.01822015,0.007701289,0.012837953,0.42512888,-1.444947,1.9802016,-2.1061413,-1.5688328,2.3980453,-0.16377154,0.19357151,-0.22387843,0.016033342,0.013254864,-0.17645948,0.076614454,0.11492168,-9.289502,0.84708,47.635834,-1.0630407,-1.7990872,-3.2575111,-0.08738242,0.28768662,-0.39751607,27.6875,28.9375,28.0,31.625,33.625,34.4375
0.28005245,-0.017507961,-0.72761184,-0.57183504,0.0019024271,0.01405695,-0.15615377,-0.39152372,-0.32514513,0.060082264,3.0771208,-0.62127,-0.00041071,-0.13687706,0.021688415,0.0022603134,-0.018242165,0.009911318,0.024852619,0.42479306,-1.444575,1.9797353,-2.1060932,-1.5687851,2.397657,-0.16404429,0.19416428,-0.22666095,0.016238475,0.012391257,-0.18874507,-0.019153614,0.22984336,-9.289502,0.89631605,47.68062,-1.0997816,-1.6442528,-3.132502,-0.074207455,0.2991904,-0.27822593,27.6875,28.9375,28.0,31.625,33.625,34.4375
0.28205276,-0.11373753,-0.58647287,-0.5939456,-0.008109491,0.023569515,-0.15199888,-0.39175564,-0.32508853,0.06005638,3.0771978,-0.6211303,-0.00030473198,-0.13728447,0.023012808,0.0017072532,-0.017863857,0.007891447,0.028612735,0.42449188,-1.4441674,1.9793152,-2.1059973,-1.5687846,2.397259,-0.16704552,0.1948019,-0.22645646,0.01740704,0.012881008,-0.19550788,-0.076614454,0.28730422,-9.289502,0.8873621,47.687782,-0.9252643,-1.6735228,-3.203005,-0.07540919,0.3067302,-0.18373059,27.6875,28.9375,28.0,31.625,33.625,34.4375
0.28405172,-0.5787802,-1.0586284,-0.8380582,-0.012000627,0.027827522,-0.14457725,-0.3920279,-0.32505438,0.060067378,3.0771656,-0.62103075,-0.00038349594,-0.13763675,0.024114175,0.0010656518,-0.017287869,0.0056612953,0.024480082,0.42419106,-1.443796,1.9788731,-2.1059968,-1.5687727,2.3969004,-0.16951808,0.1959627,-0.22666185,0.018723153,0.013291927,-0.19384705,0.05746084,0.40222588,-9.404425,0.9298854,47.71823,-0.94312257,-1.688379,-3.2753482,-0.07538159,0.30785528,-0.1693623,27.6875,28.9375,28.0,31.625,33.625,34.4375
0.28605178,-0.54100007,-1.6087906,-0.9883476,-0.023947636,0.023017773,-0.14846621,-0.39231983,-0.32502556,0.06007907,3.0770774,-0.6209966,-0.0003910699,-0.13646728,0.023562556,-0.0009411214,-0.01614221,0.0008621911,0.019281596,0.4238438,-1.4433876,1.9783825,-2.1059725,-1.5687002,2.3965433,-0.16797961,0.20004632,-0.22698365,0.019809896,0.014227446,-0.18710878,0.076614454,0.4405331,-9.5385,0.86498255,47.728977,-1.1090977,-1.6907865,-3.2862892,-0.09972915,0.320312,-0.21911532,27.6875,28.9375,28.0,31.625,33.625,34.4375
0.28805175,-0.60938895,-1.9430345,-0.61915493,-0.057879865,0.030685361,-0.15275139,-0.39259684,-0.32495698,0.06005649,3.077099,-0.6209653,-0.00035767633,-0.13654944,0.023977261,-0.0025168594,-0.014527991,-0.0025346973,0.013972177,0.42348358,-1.4429551,1.97794,-2.1059358,-1.5687002,2.396161,-0.16861881,0.20392135,-0.22803184,0.020740137,0.014141664,-0.18243816,-0.114921674,0.38307226,-9.5385,0.90527004,47.71286,-1.0500224,-1.7758029,-3.4143257,-0.10388435,0.30190012,-0.3161111,27.6875,28.9375,28.0,31.625,33.625,34.4375
0.29005176,-0.2123343,-1.7254736,-0.4689583,-0.05970178,0.04090346,-0.15643568,-0.39286283,-0.32489794,0.06006034,3.0770829,-0.62094426,-0.00033634304,-0.13786457,0.024151176,-0.0031731643,-0.014929756,-0.0034579847,0.0101519795,0.4231349,-1.4425826,1.9774965,-2.1058648,-1.5686764,2.3958015,-0.17039336,0.20716152,-0.23014052,0.020288447,0.014879451,-0.1803908,-0.019153614,0.3256114,-9.289502,0.87617236,47.67793,-1.0516512,-1.9240785,-3.4464285,-0.08614464,0.32165664,-0.3429768,27.6875,28.9375,28.0,31.625,33.625,34.4375
0.29205182,-0.05502587,-1.2366538,-0.73773336,-0.020334715,0.016648348,-0.15686679,-0.3931699,-0.324847,0.060068447,3.0770757,-0.620866,-0.00044857027,-0.13932593,0.024501221,-0.00245457,-0.015836235,-0.0014944016,0.008138557,0.4227984,-1.4421633,1.9770068,-2.1058648,-1.5687002,2.3954175,-0.17213273,0.20708983,-0.23165235,0.019709658,0.01490906,-0.18011495,0.17238252,0.30645782,-9.32781,0.90750587,47.71286,-0.98685753,-1.81373,-3.4888997,-0.08124673,0.3260956,-0.36613882,27.6875,28.9375,28.0,31.625,33.625,34.4375
0.29405192,0.7574159,-0.4355491,-0.45391434,-0.017602306,0.02218902,-0.1759618,-0.39338845,-0.32480726,0.060029086,3.0770767,-0.6208642,-0.00021960384,-0.14056258,0.024753295,-0.0023555127,-0.016911892,-0.0011468513,0.010931548,0.42248577,-1.4417319,1.9765872,-2.1057575,-1.5686158,2.3951037,-0.17405364,0.20822807,-0.2331603,0.01934758,0.01573101,-0.18482967,0.11492168,0.3256114,-9.385271,0.84708,47.687782,-0.9402731,-1.8659768,-3.4378848,-0.077958345,0.31927752,-0.36727917,27.6875,28.9375,28.0,31.625,33.625,34.4375
0.2960517,0.011750754,-0.8557453,-0.21613888,-0.0076659746,0.015800908,-0.15606183,-0.3936931,-0.32476968,0.06003379,3.077039,-0.62066025,-0.0002914762,-0.14177816,0.025068864,-0.0032297112,-0.016543234,-0.0020029615,0.018060992,0.42213735,-1.4413109,1.9761084,-2.1057813,-1.56858,2.394633,-0.17552361,0.21167181,-0.23496385,0.01866869,0.015771309,-0.19342637,-0.076614454,0.24899697,-9.193734,0.81351066,47.68062,-0.8927096,-1.9648378,-3.6035976,-0.040044945,0.31743127,-0.30660322,27.6875,28.9375,28.0,31.625,33.625,34.4375
0.2980521,-0.03557666,-0.69763887,-0.37177426,0.012277648,0.01729072,-0.16821328,-0.3939894,-0.32474378,0.06005909,3.0769403,-0.6206135,-0.0003594494,-0.14339365,0.023549555,-0.0014947507,-0.01911912,0.0012769786,0.030221008,0.4218016,-1.4409276,1.9756168,-2.1057694,-1.5685195,2.394281,-0.17458959,0.21198747,-0.23937735,0.01875601,0.01680921,-0.20464842,-0.095768064,0.30645782,-9.155427,0.91198283,47.69763,-0.9295697,-1.9257894,-3.550736,-0.051593207,0.31234372,-0.19426632,27.6875,28.9375,28.0,31.625,33.625,34.4375
0.30005208,-0.017955862,-0.32946774,-0.09309717,0.008346911,0.03888737,-0.16724315,-0.3942623,-0.3246658,0.060023718,3.0769875,-0.62058336,-0.00027074802,-0.14576672,0.022924488,0.0011491465,-0.021288356,0.0060651405,0.035703693,0.42142916,-1.4404731,1.9751724,-2.1057093,-1.5685195,2.393884,-0.17527094,0.21063757,-0.24420796,0.01969901,0.01682107,-0.21081169,-0.1340753,0.28730422,-9.270349,0.83589023,47.707485,-0.9176364,-1.7386668,-3.3215985,-0.053431086,0.3333257,-0.07183385,27.6875,28.9375,28.0,31.625,33.625,34.4375
0.30205205,-0.7472101,-0.80221313,-0.24136151,-0.0015392638,0.04700111,-0.16027617,-0.39453077,-0.32462886,0.060008574,3.0769887,-0.6204504,-0.00019483716,-0.14638484,0.023253838,0.00052506325,-0.020835463,0.0040805545,0.03246895,0.4211049,-1.4400285,1.9746927,-2.1056488,-1.5684713,2.3934767,-0.17650796,0.21321316,-0.24606618,0.020988176,0.017213805,-0.20881343,-0.3256114,0.3256114,-9.155427,0.90527004,47.661808,-0.9155357,-1.9041089,-3.3715687,-0.04932507,0.3198139,-0.06156102,27.6875,28.9375,28.0,31.625,33.625,34.4375
0.30405205,-0.8427998,-0.93295527,-0.3792129,-0.015697215,0.0702644,-0.16452514,-0.39482635,-0.32460436,0.060029507,3.0769494,-0.620235,-0.00024237038,-0.14686018,0.022736477,0.0010209079,-0.021118397,0.004177872,0.024405994,0.42078134,-1.4396214,1.9741782,-2.1056125,-1.5684232,2.393024,-0.17593461,0.21405603,-0.24855903,0.022430236,0.0174341,-0.20017491,-0.5554548,0.3256114,-9.270349,0.8717007,47.695843,-1.0748241,-1.8319836,-3.3947427,-0.06581999,0.30482507,-0.111696884,27.6875,28.9375,28.0,31.625,33.625,34.4375
0.30605206,-1.441629,-0.990692,-0.131947,-0.037302643,0.088251136,-0.16355914,-0.39509472,-0.32452825,0.059996046,3.0769784,-0.62036157,-9.183756e-05,-0.14674672,0.023136778,-0.00010836856,-0.019943727,0.0013430038,0.015949685,0.42040917,-1.4391536,1.9736999,-2.1054924,-1.5684112,2.3927274,-0.17646605,0.21658698,-0.24919438,0.023593798,0.017489789,-0.19225164,-0.7086837,0.26815057,-9.385271,0.9455522,47.693153,-1.2027035,-1.8730608,-3.3152714,-0.07423957,0.32451057,-0.24683374,27.6875,28.9375,28.0,31.625,33.625,34.4375
0.30805206,-1.7301881,-0.850931,-0.15091753,-0.048415743,0.09976274,-0.1641865,-0.39539066,-0.32448176,0.059982456,3.0769906,-0.62019587,-7.07886e-05,-0.14843437,0.02347543,0.0010730071,-0.021353232,0.0032332262,0.005156995,0.4200609,-1.4386865,1.9731964,-2.105456,-1.5683869,2.3922744,-0.17866218,0.21615452,-0.25162926,0.024150783,0.017991303,-0.1836541,-0.6512229,0.2681506,-9.3661175,0.842603,47.70659,-1.2699969,-1.8077404,-3.253902,-0.09251538,0.30541816,-0.34770054,27.6875,28.9375,28.0,31.625,33.625,34.4375
0.310052,-1.3226992,-0.6796456,-0.4477027,-0.027315287,0.102047436,-0.16462234,-0.39570943,-0.32444265,0.059988912,3.0768647,-0.6202681,-1.8750696e-05,-0.14872634,0.023211762,0.001457565,-0.02153919,0.004040598,0.0020481306,0.41965297,-1.4382312,1.9726576,-2.1054084,-1.5682791,2.3919277,-0.17813171,0.21619314,-0.2526972,0.0243866,0.017835611,-0.1800139,-0.5363012,0.21068975,-9.3661175,0.87393653,47.705692,-1.3051682,-1.7081485,-3.3617897,-0.08691695,0.3130037,-0.45578483,27.6875,28.9375,28.0,31.625,33.625,34.4375
0.31205204,-1.3716106,-0.20703465,-0.24722002,-0.017814567,0.093983136,-0.1732399,-0.3960002,-0.32440868,0.05997914,3.076849,-0.6202632,-2.0186144e-05,-0.14983398,0.022991007,0.0012383774,-0.02192505,0.004017622,0.0035403806,0.41934064,-1.4377631,1.9721435,-2.1053722,-1.5682667,2.3916147,-0.17872806,0.21866624,-0.25501937,0.024111077,0.018200796,-0.1821008,-0.57460845,0.095768064,-9.423578,0.900793,47.692257,-1.1766459,-1.6861265,-3.4155588,-0.10055445,0.3033263,-0.51163673,27.6875,28.9375,28.0,31.625,33.625,34.4375
0.31405216,-1.7170568,-0.21764466,-0.20390557,0.006105848,0.08567075,-0.17287429,-0.39627144,-0.32435706,0.059955593,3.0768666,-0.62014455,3.1529198e-05,-0.14970843,0.023257412,-0.00023325456,-0.0210647,0.0019610596,0.014850198,0.4190047,-1.4373194,1.9716886,-2.105337,-1.5682429,2.3912027,-0.17901038,0.22134411,-0.2545772,0.02325724,0.018269306,-0.19369325,-0.47884035,0.13407528,-9.289502,0.8985519,47.66808,-1.3066511,-1.8100629,-3.4935637,-0.06372915,0.30710942,-0.41244906,27.6875,28.9375,28.0,31.625,33.625,34.4375
0.31605217,-1.6306124,0.13598643,-0.3498497,0.038503215,0.0693442,-0.16858937,-0.39656833,-0.32430822,0.059935413,3.0768754,-0.61998415,7.859139e-05,-0.15071711,0.023562912,0.00016301761,-0.020786442,0.0036806245,0.028252989,0.4186451,-1.4368402,1.9711856,-2.1053011,-1.5682071,2.390742,-0.17963065,0.22159055,-0.25575438,0.02278047,0.01733649,-0.20771623,-0.34476504,-0.038307227,-9.308656,0.95897776,47.670765,-1.4162912,-1.8447372,-3.5450354,-0.04615736,0.31477982,-0.29537052,27.6875,28.9375,28.0,31.625,33.625,34.4375
0.3180523,-1.2667989,0.13729139,-0.5498005,0.052933656,0.05794662,-0.16715479,-0.39689323,-0.32427132,0.059956893,3.0768075,-0.6199653,2.140096e-05,-0.15089159,0.024502305,-0.0016160992,-0.019630453,5.7193123e-05,0.03472733,0.4182848,-1.4363958,1.9706239,-2.1052535,-1.5681714,2.390379,-0.18162675,0.2250695,-0.2557974,0.02315787,0.017785734,-0.21618517,-0.24899697,-0.15322891,-9.423578,0.8784135,47.677036,-1.330303,-1.9076968,-3.5140185,-0.054392584,0.3114481,-0.19216642,27.6875,28.9375,28.0,31.625,33.625,34.4375
0.32005253,-0.70283663,0.3151195,-0.33825153,0.03585947,0.04847233,-0.16127694,-0.39722237,-0.3242172,0.059944294,3.0767653,-0.6199192,9.309401e-06,-0.15308386,0.024597049,-0.0009306518,-0.020279845,0.0011477895,0.03154719,0.41788927,-1.435904,1.970097,-2.105253,-1.5681351,2.3899603,-0.1835258,0.22722977,-0.2601179,0.024069255,0.017937798,-0.21490127,-0.17238252,-0.1340753,-9.308656,0.9030289,47.64927,-1.2547364,-1.9281766,-3.615839,-0.07352959,0.30569908,-0.16509068,27.6875,28.9375,28.0,31.625,33.625,34.4375
0.32205164,-0.05998639,0.2948287,-0.49856064,0.027072614,0.037918985,-0.1631968,-0.3975214,-0.3241572,0.059948105,3.0767708,-0.619791,3.0200465e-05,-0.1556086,0.025994588,-0.00078327925,-0.01966513,0.0015110467,0.02104044,0.41751626,-1.4354722,1.969581,-2.1051686,-1.5681113,2.3895068,-0.18753962,0.22964889,-0.26347953,0.024927605,0.01721545,-0.20840678,-0.28730422,-0.19153613,-9.346964,0.8918391,47.675243,-1.1922646,-1.9926476,-3.3932061,-0.048562948,0.33160314,-0.21483108,27.6875,28.9375,28.0,31.625,33.625,34.4375
0.32405162,0.028463306,0.2802792,-0.6940638,0.028589763,0.008906913,-0.16502805,-0.3978135,-0.32410365,0.059934646,3.076793,-0.61970145,7.233457e-05,-0.15672256,0.026174836,-0.0007206443,-0.019928714,0.00123227,0.014689072,0.41716892,-1.4350041,1.969066,-2.1050966,-1.5680994,2.389101,-0.18884483,0.2313624,-0.26584426,0.025721809,0.017555464,-0.20335984,-0.22984336,-0.038307227,-9.461885,0.9612189,47.71554,-1.2877021,-2.0555294,-3.3877244,-0.07599795,0.31091446,-0.29884762,27.6875,28.9375,28.0,31.625,33.625,34.4375
0.32605258,0.14338407,-0.18630145,-0.80277133,0.009631113,0.019980477,-0.17513396,-0.39813498,-0.32402802,0.05993019,3.0767808,-0.6196997,0.0001108471,-0.15748203,0.026283836,-0.00066213176,-0.018841393,0.0006834142,0.010561703,0.41674927,-1.4345362,1.9685277,-2.1050122,-1.5680755,2.3886821,-0.18897006,0.23326068,-0.2686553,0.027581852,0.016775778,-0.19935699,-0.19153613,0.05746084,-9.481039,0.8717007,47.68599,-1.1343099,-2.1042702,-3.4372025,-0.09120081,0.32568723,-0.37161592,27.6875,28.9375,28.0,31.625,33.625,34.4375
0.32805237,-0.54080606,-0.5446885,-0.7316954,-0.014098658,0.022138868,-0.1746632,-0.39842108,-0.32396907,0.059899487,3.076792,-0.6197204,0.00021132866,-0.15723109,0.02716295,-0.0012465842,-0.017978601,-0.0021494706,0.009758961,0.41638944,-1.4340447,1.9680251,-2.1049392,-1.5680512,2.388334,-0.19044721,0.23403296,-0.26884642,0.029952047,0.017129185,-0.20003292,-0.2681506,0.15322891,-9.519346,0.8806493,47.672558,-1.1475312,-2.0675116,-3.3891182,-0.12811211,0.31872684,-0.4253866,27.6875,28.9375,28.0,31.625,33.625,34.4375
0.33005297,-1.0038997,-0.96020097,-0.8675451,-0.02544295,0.043698523,-0.17112474,-0.39873517,-0.32394364,0.059906323,3.0767345,-0.6195882,0.00025742193,-0.15732421,0.027586764,-0.001625034,-0.017610991,-0.0038889816,0.016093753,0.4160298,-1.433565,1.96745,-2.1048667,-1.5679673,2.3878994,-0.1913741,0.23511256,-0.26965436,0.031460926,0.017515983,-0.2072942,-0.24899697,0.15322891,-9.615114,0.8493211,47.667187,-1.1235385,-2.1110797,-3.445742,-0.1584298,0.33744752,-0.37949377,27.6875,28.9375,28.0,31.625,33.625,34.4375
0.33205202,-0.89775306,-1.044216,-0.6827251,-0.041579913,0.076783404,-0.1821733,-0.3990756,-0.3238737,0.059898864,3.0767424,-0.6195053,0.00023943943,-0.15893608,0.027646005,-0.00082734966,-0.018688157,-0.002089294,0.026551144,0.41562182,-1.4330623,1.9668869,-2.1048195,-1.5679673,2.387439,-0.19278677,0.23568712,-0.27222925,0.03141741,0.017793009,-0.21916285,-0.05746084,0.24899697,-9.653421,0.9030289,47.694054,-1.0126588,-1.9045329,-3.4720843,-0.17575917,0.32998163,-0.24602994,27.6875,28.9375,28.0,31.625,33.625,34.4375
0.33405218,-1.5176272,-1.4000298,-0.83524686,-0.03707555,0.07234829,-0.17968862,-0.39936128,-0.32380557,0.05987358,3.076773,-0.6193728,0.0003493879,-0.16010998,0.02750063,-0.000538901,-0.020410491,-0.0016914997,0.032691408,0.41523805,-1.4325947,1.9663957,-2.1047356,-1.5679301,2.3869689,-0.19422731,0.23680368,-0.27422097,0.031264026,0.019204853,-0.22674356,-0.11492168,0.22984336,-9.653421,0.90750587,47.713753,-0.95080054,-1.9410813,-3.47892,-0.18381983,0.3232823,-0.11134492,27.6875,28.9375,28.0,31.625,33.625,34.4375
0.33605212,-0.9466057,-0.8422219,-0.6996969,-0.03468196,0.08225978,-0.17937084,-0.39970493,-0.32375178,0.059892345,3.0767198,-0.6193632,0.00029519826,-0.1609016,0.027970526,2.5854462e-05,-0.02142352,-0.0015876037,0.030388739,0.41484237,-1.4321276,1.9658097,-2.104675,-1.5679063,2.3865743,-0.1961247,0.23643146,-0.2754425,0.032363348,0.020105107,-0.22633693,-0.26815057,0.22984336,-9.595961,0.88289046,47.68599,-1.0504017,-1.8996702,-3.486177,-0.20332742,0.31646362,-0.114797324,27.6875,28.9375,28.0,31.625,33.625,34.4375
0.33805218,-0.9008122,-0.46869084,-0.65457904,-0.031548988,0.07783071,-0.17774685,-0.4000254,-0.32374156,0.059916835,3.076615,-0.6191724,0.00031248428,-0.16152982,0.028210424,-0.00016304343,-0.022090804,-0.0020256608,0.021166872,0.4144831,-1.4316722,1.9652241,-2.104616,-1.5677856,2.3861094,-0.19740126,0.23744836,-0.2762453,0.032291118,0.020895142,-0.21838968,-0.38307226,0.17238252,-9.576807,0.88960326,47.690468,-0.9811409,-1.8303424,-3.5566566,-0.2239417,0.30090716,-0.17946869,27.6875,28.9375,28.0,31.625,33.625,34.4375
0.3400523,-0.9373339,-0.53889436,-1.0070434,0.0029906163,0.05902022,-0.16689847,-0.40036055,-0.32366875,0.05990914,3.0766182,-0.6191193,0.00029724173,-0.16183336,0.027967447,-0.00072459935,-0.022099407,-0.0030532416,0.011907677,0.41407573,-1.4311806,1.9646729,-2.1045673,-1.5677856,2.3856688,-0.19726859,0.2396095,-0.27753603,0.032338943,0.021302609,-0.20899668,-0.45968673,0.22984336,-9.500193,0.8940802,47.66091,-1.0709056,-1.816596,-3.5358136,-0.24236795,0.28877974,-0.2786981,27.6875,28.9375,28.0,31.625,33.625,34.4375
0.34205237,-0.85008186,-0.65569925,-1.0221956,0.013539006,0.05028299,-0.15673955,-0.40067753,-0.32362852,0.059887234,3.0765545,-0.61910826,0.000415743,-0.16141742,0.026850358,-0.00038382833,-0.021953264,-0.0025969597,0.0062370533,0.41368094,-1.430653,1.9641107,-2.1045072,-1.5676898,2.3852754,-0.19446091,0.23995821,-0.27900568,0.033106137,0.020966355,-0.20051864,-0.38307226,0.11492168,-9.595961,0.88289046,47.689575,-1.1989446,-1.887997,-3.4645195,-0.26796764,0.2843271,-0.4062674,27.6875,28.9375,28.0,31.625,33.625,34.4375
0.3440526,-0.35815057,-0.24103959,-0.30871183,-0.012831943,0.0765057,-0.17152233,-0.4010147,-0.32356316,0.059900124,3.0765135,-0.61909896,0.00032240222,-0.16255252,0.02542105,-0.000313416,-0.022934852,-0.00097525393,0.0047486247,0.41328657,-1.4302089,1.9635719,-2.1044843,-1.5676898,2.3848808,-0.19272013,0.24286664,-0.28220436,0.031515248,0.021214547,-0.19728564,-0.45968673,0.22984336,-9.500193,0.9097417,47.670765,-1.2924972,-1.8453522,-3.5948539,-0.2660623,0.27653158,-0.5143921,27.6875,28.9375,28.0,31.625,33.625,34.4375
0.34605193,-1.0223942,-0.66668427,-0.48532462,0.0048251906,0.06474614,-0.17978138,-0.40134546,-0.32350656,0.059891332,3.076469,-0.6190845,0.00041733962,-0.16456306,0.02530951,0.00022216687,-0.024807647,0.0013878997,0.010401007,0.41286653,-1.4296935,1.9629849,-2.104389,-1.5676173,2.3844576,-0.19444385,0.24415417,-0.28460264,0.02975262,0.02198425,-0.20466056,-0.21068975,0.2681506,-9.519346,0.9164598,47.670765,-1.3323498,-2.0460556,-3.5268433,-0.24704665,0.25974637,-0.52005374,27.6875,28.9375,28.0,31.625,33.625,34.4375
0.34805202,-0.39710903,-0.4725461,-0.71607727,-0.003932831,0.06773012,-0.18745497,-0.40169725,-0.32346168,0.05990766,3.076464,-0.6189799,0.0003288727,-0.1661676,0.026021395,-0.0005747692,-0.024533791,1.4015987e-05,0.021022106,0.4125064,-1.429189,1.9623607,-2.1043289,-1.5676292,2.3840332,-0.19707066,0.24785075,-0.28716204,0.030027743,0.022319619,-0.21790557,0.15322891,0.22984336,-9.519346,0.97464454,47.682407,-1.390142,-2.027742,-3.4277859,-0.25760457,0.24331939,-0.4209218,27.6875,28.9375,28.0,31.625,33.625,34.4375
0.35005203,-0.5009944,-0.90964615,-0.6324926,-0.012355522,0.037585244,-0.17215188,-0.40202063,-0.32339483,0.05990117,3.0764267,-0.61890566,0.00041060985,-0.16683885,0.027317982,-0.0004791402,-0.023514124,-0.0007033084,0.03190257,0.412075,-1.428709,1.961811,-2.1042445,-1.5675577,2.3835604,-0.19938602,0.2479359,-0.28802872,0.031942807,0.02169996,-0.23110226,0.095768064,0.2681506,-9.442732,0.9231726,47.70211,-1.297649,-2.154697,-3.4190707,-0.29168424,0.23219422,-0.26860482,27.6875,28.9375,28.0,31.625,33.625,34.4375
0.35205212,0.1402906,-1.0357988,-0.4062725,-0.02220125,0.019991586,-0.17503238,-0.40235603,-0.32334396,0.05990069,3.0764158,-0.6187682,0.00035816987,-0.16895193,0.027980901,-0.00022646782,-0.02274946,0.0007153526,0.033930942,0.41170278,-1.4282176,1.9612478,-2.1042206,-1.5675462,2.383104,-0.20129506,0.25016546,-0.29126912,0.031987134,0.020446144,-0.23503746,-0.076614454,0.34476504,-9.404425,0.87617236,47.690468,-1.3210368,-2.1468527,-3.395245,-0.2993697,0.26276153,-0.19027297,27.6875,28.9375,28.0,31.625,33.625,34.4375
0.35405228,-0.027012177,-1.2122043,-0.60624456,-0.025365412,-0.0025997276,-0.16784021,-0.40271288,-0.32331577,0.05992987,3.076354,-0.6186638,0.0003092359,-0.1701436,0.027900713,-2.3824085e-05,-0.022919971,0.0019781126,0.027071845,0.41133136,-1.4277145,1.9605898,-2.1041367,-1.5674981,2.3826756,-0.20167017,0.2515671,-0.29330957,0.031400703,0.020099482,-0.2285511,-0.21068975,0.34476504,-9.251195,0.88289046,47.664497,-1.273599,-2.1037564,-3.4400797,-0.30163407,0.25334585,-0.22228429,27.6875,28.9375,28.0,31.625,33.625,34.4375
0.35605237,-0.02974265,-1.1967403,-0.44362184,-0.04618318,0.007900909,-0.17088382,-0.4030347,-0.32324144,0.059904516,3.0763562,-0.61857074,0.00037220056,-0.1708553,0.028152589,-0.00016078383,-0.02367424,0.0016344038,0.018165335,0.41091168,-1.4272105,1.9600633,-2.1040895,-1.5674618,2.3821979,-0.20302737,0.2525855,-0.29426098,0.03133785,0.020910528,-0.22100152,0.019153614,0.2873042,-9.270349,0.9791215,47.6636,-1.2739865,-1.9587493,-3.377967,-0.3036707,0.25229216,-0.3171178,27.75,28.9375,28.0,31.625,33.625,34.4375
0.35805237,0.07818833,-1.1005346,-0.49736288,-0.051111523,0.0122524155,-0.17016685,-0.40338162,-0.32318208,0.05989624,3.076356,-0.61851597,0.00038240204,-0.17353922,0.028287746,0.0023695424,-0.027086575,0.006071074,0.010895546,0.41051513,-1.4266723,1.959453,-2.104017,-1.5674495,2.3817675,-0.20609409,0.25055662,-0.29790634,0.031575404,0.022257648,-0.21679667,0.019153614,0.21068975,-9.404425,0.9298854,47.707485,-1.1407195,-2.0291822,-3.4513216,-0.32965097,0.24412823,-0.39410275,27.75,28.9375,28.0,31.625,33.625,34.4375
0.36005238,-0.4747648,-1.8127991,-0.3365741,-0.027545907,0.015365617,-0.16023411,-0.40373084,-0.32312545,0.05990114,3.076294,-0.61844397,0.00041211335,-0.17440683,0.028385563,0.002526832,-0.028425038,0.006631433,0.010092774,0.4100835,-1.4261696,1.9588531,-2.103946,-1.5673774,2.381299,-0.20740253,0.25106514,-0.29881743,0.030953903,0.023271898,-0.21730097,-0.21068975,0.28730422,-9.346964,0.8627467,47.66987,-1.0617508,-1.7740972,-3.4358897,-0.31759286,0.23155302,-0.44278452,27.75,28.9375,28.0,31.625,33.625,34.4375
0.36205235,0.0017567407,-0.3225975,-0.17390741,-0.03217979,0.049179703,-0.17678602,-0.4040872,-0.32308477,0.059913144,3.0762079,-0.6183638,0.0003864761,-0.17593834,0.028771447,0.0026505834,-0.029245952,0.007424752,0.017029045,0.40967554,-1.425666,1.9582437,-2.1039097,-1.567305,2.3808522,-0.20941776,0.25249705,-0.30072796,0.030431256,0.023743516,-0.22624974,-0.19153613,0.24899697,-9.308656,0.86498255,47.67614,-0.97355413,-1.6426985,-3.4882526,-0.32856625,0.1888338,-0.39885697,27.75,28.9375,28.0,31.625,33.625,34.4375
0.36405236,-0.27229762,0.48453376,-0.48135084,0.0009985308,0.062911905,-0.18772341,-0.40443245,-0.32302797,0.059928015,3.0761652,-0.6182143,0.0003926054,-0.17685442,0.028998455,0.002760299,-0.030627241,0.007530815,0.026923135,0.40925512,-1.4251866,1.9576443,-2.1038258,-1.5672444,2.3803442,-0.21116082,0.2531811,-0.30182773,0.030258516,0.025005233,-0.23788504,-0.076614454,0.17238252,-9.346964,0.9701675,47.658226,-0.8713106,-1.649447,-3.4520917,-0.29804975,0.16977724,-0.27006027,27.75,28.9375,28.0,31.625,33.625,34.4375
0.36605248,-1.6165695,-0.16491182,-0.42541555,0.021229314,0.06258184,-0.16748807,-0.40481457,-0.32297465,0.05993904,3.0760753,-0.6181714,0.00034041892,-0.17649706,0.02905576,0.00134784,-0.030156093,0.0048493124,0.03318965,0.40881237,-1.424658,1.9570111,-2.1038024,-1.5671843,2.3798864,-0.21117216,0.25583223,-0.30174085,0.030213077,0.025679838,-0.24416049,-0.21068975,0.05746084,-9.576807,0.95226496,47.667187,-0.880933,-1.6649709,-3.5455413,-0.3088761,0.13447095,-0.16243124,27.75,28.9375,28.0,31.625,33.625,34.4375
0.36805254,-1.4291945,0.39310658,-0.252019,0.015527809,0.09602626,-0.17347468,-0.4051329,-0.32293254,0.059932277,3.0760574,-0.6179559,0.00047013536,-0.17679273,0.027488815,0.0015607718,-0.03162936,0.005621405,0.03259252,0.4084181,-1.4241428,1.9564117,-2.1036832,-1.567088,2.37936,-0.20899472,0.25744402,-0.3040562,0.029643286,0.026710982,-0.24138498,-0.8619126,-0.05746084,-9.385271,0.8717007,47.670765,-1.1126316,-1.8639278,-3.6333497,-0.32875627,0.12523553,-0.15383111,27.75,28.9375,28.0,31.625,33.625,34.4375
0.37005246,-1.2100652,1.0224885,-0.4663016,0.032295797,0.10691143,-0.18237396,-0.4054839,-0.322896,0.05994233,3.0760233,-0.6177993,0.0004254342,-0.17846213,0.026246782,0.0013894332,-0.032129712,0.006273111,0.023948569,0.4080473,-1.4236264,1.9557885,-2.103635,-1.5670518,2.378896,-0.20795709,0.2619559,-0.30880818,0.029070457,0.026900008,-0.23169878,-0.59376204,-0.095768064,-9.404425,0.9545008,47.664497,-1.363509,-1.9076343,-3.5473511,-0.31777534,0.09928018,-0.22618067,27.75,28.9375,28.0,31.625,33.625,34.4375
0.37205237,-1.4959626,0.6016768,-0.38649943,0.038927455,0.107572265,-0.1751083,-0.40582663,-0.32280526,0.059917316,3.076016,-0.617841,0.0004934525,-0.17910415,0.026061133,0.00016643552,-0.03099023,0.004610726,0.014020138,0.40759227,-1.4230976,1.9552253,-2.103563,-1.5670279,2.3784683,-0.20763373,0.2662478,-0.31102735,0.028958406,0.026485858,-0.2214467,-0.49799395,-0.17238252,-9.461885,0.900793,47.68599,-1.3723024,-1.890137,-3.489274,-0.29604316,0.07450892,-0.35078108,27.75,28.9375,28.0,31.625,33.625,34.4375
0.37405235,-1.4666601,0.005517221,-0.39119795,0.040475786,0.090371154,-0.17138764,-0.40619436,-0.3227573,0.05993359,3.0759175,-0.61784196,0.0004405615,-0.18051608,0.026093459,0.0010878573,-0.031150423,0.007265308,0.0058532692,0.407173,-1.4225929,1.9546036,-2.1035273,-1.5669683,2.3780625,-0.20799422,0.26633877,-0.31328258,0.02862114,0.02558381,-0.21363793,-0.28730422,-0.038307227,-9.442732,0.9321212,47.655537,-1.4849435,-1.9618415,-3.3843336,-0.29751366,0.080038615,-0.47990838,27.75,28.9375,28.0,31.625,33.625,34.4375
0.37605214,-1.1417145,0.024554336,-0.6841986,0.022402337,0.054007832,-0.165408,-0.40654922,-0.3227053,0.05993286,3.0758834,-0.6177762,0.0004662323,-0.18242127,0.02705298,0.001091124,-0.029924838,0.0086758705,0.005385312,0.40676504,-1.4220518,1.9539679,-2.1034443,-1.5669211,2.377618,-0.20994909,0.26831785,-0.31558827,0.02816958,0.023907468,-0.21512462,-0.13407528,0.076614454,-9.519346,0.8985519,47.670765,-1.3660197,-1.951242,-3.415463,-0.2922543,0.07220331,-0.5526316,27.75,28.9375,28.0,31.625,33.625,34.4375
