Tylouw/Master_Thesis_Code/training_data/batch_1/big_rod_t0.3/sample_68_session_2.csv
timestamp[s],tcp_force_x[N],tcp_force_y[N],tcp_force_z[N],tcp_force_rx[Nm?],tcp_force_ry[Nm?],tcp_force_rz[Nm?],tcp_pose_x[m],tcp_pose_y[m],tcp_pose_z[m],tcp_pose_rx[rot_vec_x],tcp_pose_ry[rot_vec_y],tcp_pose_rz[rot_vec_z],tcp_velo_x[m/s],tcp_velo_y[m/s],tcp_velo_z[m/s],tcp_velo_rx[rot_vec_x/s],tcp_velo_ry[rot_vec_y/s],tcp_velo_rz[rot_vec_z/s],q1[rad],q2[rad],q3[rad],q4[rad],q5[rad],q6[rad],qd1[rad/s],qd2[rad/s],qd3[rad/s],qd4[rad/s],qd5[rad/s],qd6[rad/s],tool_acc_x,tool_acc_y,tool_acc_z,current_of_whole_robot[A],voltage_of_whole_robot[V],current_J1[A],current_J2[A],current_J3[A],current_J4[A],current_J5[A],current_J6[A],temp_J1[C],temp_J2[C],temp_J3[C],temp_J4[C],temp_J5[C],temp_J6[C]
7.5501157e-07,-0.5491486,-1.4083164,-0.38357213,-0.026619136,0.02606517,-0.008292016,-0.37288603,-0.3282273,0.059953377,-3.0785017,0.62481207,-0.00026584175,0.0026658608,0.0012602652,-0.0037064583,0.003742509,-0.008178324,-0.00014920336,0.4481623,-1.4708731,2.0095608,-2.1076791,-1.5706614,2.4230433,-6.982269e-05,0.003657046,0.004235476,0.0010991865,0.00018232976,7.67604e-05,0.11492168,0.24899697,-8.925584,0.7172743,47.687782,-0.23158282,-2.8505452,-2.4856882,-0.4892003,0.11195731,0.013877368,27.8125,29.0,28.0625,31.75,33.8125,34.625
0.002052452,-0.34121898,-0.9410085,-0.424742,-0.030273335,0.030121716,-0.0067397235,-0.372879,-0.3282026,0.05991702,-3.078452,0.6248991,-0.00036147522,-0.00062671356,-0.0003302593,-0.0026711342,-0.0011498888,0.0019544323,-0.00014388282,0.44811413,-1.4708372,2.0096085,-2.1076953,-1.5706495,2.4230556,-6.893152e-05,0.0037850882,0.004344232,-0.010389629,0.00017522866,7.5684555e-05,0.038307227,0.15322891,-8.983045,0.7463667,47.73614,-0.22574854,-2.8327193,-2.3531423,-0.4465716,0.11986774,0.023094706,27.8125,29.0,28.0625,31.75,33.8125,34.625
0.00405189,-0.7136276,-1.4406039,-0.5620001,-0.014422148,0.023013024,0.00455882,-0.3728833,-0.32821107,0.059909157,-3.0784628,0.624882,-0.0003466822,-0.0012636062,-0.00063641544,-0.0024838443,-0.0020829937,0.0038988993,-0.00014129982,0.44812617,-1.4708133,2.0096085,-2.107731,-1.5706495,2.4230556,-6.80627e-05,0.0038375799,0.0043666726,-0.012621311,0.0001686606,7.463894e-05,0.038307227,0.11492168,-9.002198,0.7978386,47.711063,-0.22033486,-3.0780752,-2.561355,-0.35198063,0.12352999,0.0017734674,27.8125,29.0,28.0625,31.75,33.8125,34.625
0.006052171,-0.32380354,-1.294425,-0.77699167,0.010116127,0.013373644,0.00447753,-0.37290576,-0.32822812,0.05992373,-3.0784838,0.6248473,-0.00022485264,-0.00042557318,-0.00022917653,-0.0020293829,-0.00083472376,0.0013368278,-0.0001403828,0.4481623,-1.4708016,2.0095727,-2.1077769,-1.5706857,2.4230676,-6.7215544e-05,0.0028374325,0.0032991448,-0.0077036656,0.00016256585,7.362088e-05,0.019153614,0.038307227,-9.097966,0.7351769,47.71554,-0.19922543,-3.0171428,-2.5255399,-0.39061522,0.10398905,0.0134972315,27.8125,29.0,28.0625,31.75,33.8125,34.625
0.008052027,0.14891759,-0.11208765,-0.91044563,0.028931292,-0.0033582507,-0.0019630834,-0.37289062,-0.32820368,0.059899196,-3.0784423,0.6248584,-0.00027326442,0.00022844216,8.895398e-05,-0.0015645523,0.00012543044,-0.0006303888,-0.00013934776,0.4481382,-1.470802,2.0096319,-2.1077878,-1.5706977,2.4230556,-6.638913e-05,0.0018892658,0.0023378965,-0.0036052288,0.00015689721,7.263064e-05,-0.038307227,0.11492168,-9.078813,0.7329411,47.701214,-0.29275972,-2.9124243,-2.496642,-0.4250654,0.10547033,0.017458418,27.8125,29.0,28.0625,31.75,33.8125,34.625
0.010052096,0.02115747,0.1959455,-1.3741851,0.040102504,-0.0146260625,0.0018186141,-0.37288392,-0.32819614,0.059908457,-3.0784118,0.6248522,-0.00030625655,0.00032774376,0.00014786706,-0.0012298032,0.00039975508,-0.0011834837,-0.00015536525,0.4481382,-1.4708141,2.0096076,-2.1077158,-1.5707096,2.4230556,-8.3277715e-05,0.0015459526,0.0015471706,-0.0018538259,0.00015161061,7.1667164e-05,-0.05746084,0.1340753,-9.385271,0.7620334,47.70032,-0.78228855,-2.4729729,-2.9088702,-0.46955615,0.1346086,-0.044331625,27.8125,29.0,28.0625,31.75,33.8125,34.625
0.012052057,-0.13101432,-0.64307296,-1.5537533,0.021293648,0.006120213,-0.002496874,-0.37288082,-0.328212,0.059884377,-3.078434,0.624895,-0.00036927868,0.00021466421,0.0001425747,-0.0032003305,0.0022561406,-0.0050717215,-0.00023932138,0.44813818,-1.4707648,2.0096195,-2.1077635,-1.5706614,2.4230795,-0.00018659137,0.00692232,7.689464e-05,-0.0014513147,0.00016105127,5.3910142e-05,0.05746084,0.038307227,-9.500193,0.7329411,47.701214,-0.9250684,-2.356773,-3.0258806,-0.48112512,0.13543916,-0.1079867,27.8125,29.0,28.0625,31.75,33.8125,34.625
0.014052222,-0.73852,-0.96304494,-1.7653233,-0.02855611,0.03218698,-0.0032531205,-0.37287346,-0.32820648,0.05987861,-3.0784154,0.62483907,-0.00042999737,-0.0052340794,0.0032452722,-0.004433264,0.0031776784,-0.0070349076,-0.010944971,0.44813448,-1.4707496,2.0096052,-2.1077158,-1.5706614,2.4230433,-0.01099261,0.014568924,-0.0055063944,-0.001346064,0.00016946983,-4.1939875e-05,-0.076614454,0.076614454,-9.615114,0.7978386,47.737038,-0.5064868,-2.971943,-3.0754833,-0.4878378,0.1343027,-0.15605505,27.8125,29.0,28.0625,31.75,33.8125,34.625
0.01605221,-1.2383773,-1.6589949,-1.7538741,-0.059023723,0.058306254,-0.010937683,-0.3728703,-0.3282026,0.059866253,-3.0783894,0.62490624,-0.00048589765,-0.0062938123,0.003391984,-0.0035698304,0.0023795473,-0.005471525,-0.003166455,0.44812196,-1.4707259,2.0096047,-2.1077034,-1.5706495,2.423076,-0.012256432,0.013990102,-0.006900907,-0.0011289931,0.00020435972,-0.009083672,-0.22984336,0.15322891,-9.672575,0.83589023,47.752266,-0.4931006,-2.8343396,-2.9686112,-0.49547753,0.14004114,-0.13745028,27.8125,29.0,28.0625,31.75,33.8125,34.625
0.018052569,-2.1442995,-2.45938,-1.6241302,-0.06822073,0.08821353,-0.017320111,-0.3728481,-0.3281815,0.059813976,-3.0783377,0.62485665,-0.0006729151,-0.00522636,0.0033919415,-0.0040268116,0.0028704444,-0.006601235,-0.0009690693,0.44808632,-1.4706541,2.0096405,-2.1076796,-1.5706257,2.4230158,-0.011317858,0.0134632895,-0.005314122,-0.0009582059,0.000252914,-0.0103437025,-0.4213795,0.21068975,-9.825804,0.800085,47.71017,-0.73836094,-2.727499,-3.2219086,-0.5135318,0.16226463,-0.14722925,27.8125,29.0,28.0625,31.75,33.8125,34.625
0.020052457,-1.8185987,-1.6518985,-1.6685605,-0.06987435,0.12976687,-0.029776018,-0.37289554,-0.3281769,0.059838876,-3.0783508,0.6248786,-0.000578315,-0.005594844,0.0033904484,-0.0042861053,0.0014451765,-0.007957075,-0.002465072,0.4480499,-1.4706419,2.00957,-2.1076796,-1.5706486,2.4229915,-0.012918019,0.01442984,-0.005809853,-0.0008314425,0.0021243936,-0.0104512535,-0.51714754,0.17238252,-9.80665,0.79560274,47.70838,-0.8119923,-2.5412102,-3.4379632,-0.5261058,0.15984032,-0.18486866,27.8125,29.0,28.0625,31.75,33.8125,34.625
0.022052532,-2.1754916,-1.7026144,-1.9122988,-0.03394123,0.11715793,-0.035447255,-0.37286416,-0.32815734,0.05979747,-3.0782917,0.6249056,-0.0007512297,-0.0070502223,0.002908043,-0.0039683743,-0.0016525002,-0.008544398,-0.0033708601,0.4480249,-1.4706055,2.0096166,-2.1076434,-1.5706238,2.4229908,-0.015396172,0.016178168,-0.008478672,-0.0007343019,0.0051628216,-0.012028588,-0.57460845,0.15322891,-9.768343,0.78888994,47.739727,-0.8776201,-2.472897,-3.5281425,-0.53903806,0.11511448,-0.22503746,27.8125,29.0,28.0625,31.75,33.8125,34.625
0.024052586,-2.2401748,-1.102251,-1.681694,-0.011649056,0.09031051,-0.052302636,-0.37291366,-0.32817465,0.059824184,-3.07836,0.6249006,-0.0006161476,-0.009109081,0.0026268247,-0.0032950672,-0.0036501875,-0.0076482277,-0.0036599159,0.4480121,-1.4705929,2.009555,-2.107703,-1.5706233,2.4229662,-0.017692251,0.018014446,-0.012051437,-0.00067612575,0.006567776,-0.014035513,-0.7086837,0.22984336,-9.787497,0.7351769,47.72719,-0.78730714,-2.429957,-3.4077215,-0.55153066,0.09129982,-0.22135176,27.8125,29.0,28.0625,31.75,33.8125,34.625
0.026052648,-2.148097,-1.1497365,-1.8668543,0.0059875594,0.07539874,-0.054424737,-0.372916,-0.32817367,0.059825484,-3.0783598,0.6248798,-0.0006563792,-0.009678765,0.002530948,-0.003103586,-0.0041393987,-0.007319401,-0.002035812,0.448,-1.4705807,2.0095308,-2.1076677,-1.5706114,2.4229412,-0.018230114,0.01853566,-0.013056649,-0.00070146215,0.0068623913,-0.01619755,-0.842759,0.24899697,-9.653421,0.8090337,47.73525,-0.8000361,-2.4556034,-3.3587284,-0.5601208,0.083312154,-0.19285803,27.8125,29.0,28.0625,31.75,33.8125,34.625
0.028052261,-1.8906592,-1.3484586,-1.6483355,-0.0034978245,0.09604149,-0.065773234,-0.37293544,-0.32818323,0.05981089,-3.0784035,0.6248131,-0.00068974186,-0.01158444,0.0017904873,-0.002221665,-0.007109152,-0.0027765748,-0.0023809639,0.4479757,-1.4705207,2.009507,-2.1077049,-1.5705751,2.4228697,-0.019041555,0.018483168,-0.0140280295,-0.0050602807,0.0075590904,-0.016663417,-0.7469909,0.05746084,-9.825804,0.78888994,47.744205,-0.8716395,-2.47808,-3.4058328,-0.5216496,0.100363836,-0.19527274,27.8125,29.0,28.0625,31.75,33.8125,34.625
0.030052114,-2.217532,-1.5927203,-1.6053287,-0.025039645,0.09727203,-0.086555324,-0.37297216,-0.3281798,0.05980196,-3.078406,0.6248909,-0.0006850476,-0.012717682,0.0016218877,-0.0016526238,-0.008093866,-0.0014231906,-0.0031746712,0.44792742,-1.4704607,2.0094697,-2.107741,-1.5705627,2.4228697,-0.019954992,0.018919485,-0.015724367,-0.005447114,0.007856217,-0.016782459,-0.7852981,0.019153614,-9.730036,0.75084364,47.728977,-0.8667532,-2.3414357,-3.3239744,-0.514041,0.076595455,-0.21788028,27.8125,29.0,28.0625,31.75,33.8125,34.625
0.032052103,-2.4508693,-1.9286047,-1.4840592,-0.02683858,0.09655975,-0.09322788,-0.3730268,-0.32816142,0.059814803,-3.0784013,0.6249852,-0.0006563763,-0.013574389,0.001663433,-0.0011642956,-0.008423355,-0.0014108605,-0.0029860903,0.44784313,-1.4704245,2.0093977,-2.1077282,-1.5705627,2.422845,-0.021006363,0.01954614,-0.017835995,-0.0041163815,0.00814629,-0.018021846,-0.7086837,0.05746084,-9.595961,0.7642693,47.711063,-0.8950212,-2.4105663,-3.3854392,-0.52775127,0.07713503,-0.20880908,27.8125,29.0,28.0625,31.75,33.8125,34.625
0.034052648,-2.1348424,-1.4133416,-1.2854576,-0.011595688,0.0881448,-0.11152622,-0.3730334,-0.32817298,0.059798032,-3.0784135,0.6249495,-0.00070843985,-0.013958077,0.0021667844,-0.0017197024,-0.007417763,-0.003297488,-0.0028304115,0.44784266,-1.470364,2.0093725,-2.1077402,-1.5705389,2.4228206,-0.022242058,0.0214639,-0.018977812,-0.0027555942,0.008056238,-0.019412639,-0.59376204,-0.076614454,-9.576807,0.779936,47.71286,-0.84434456,-2.4046059,-3.2977111,-0.5509193,0.04877858,-0.22151273,27.8125,29.0,28.0625,31.75,33.8125,34.625
0.036052488,-0.8974955,-0.7318069,-1.2979147,0.007536042,0.08954153,-0.13730773,-0.37305257,-0.3281524,0.059777334,-3.0783856,0.62500185,-0.00080679747,-0.015451509,0.0025111549,-0.001167505,-0.0076809525,-0.0021971692,-0.0030981367,0.44777,-1.4703039,2.0093486,-2.1077163,-1.5705146,2.422784,-0.024080588,0.02219422,-0.02111581,-0.002451782,0.007811074,-0.0209821,-0.40222588,0.019153614,-9.576807,0.7665104,47.746887,-0.8827497,-2.359029,-3.263957,-0.5501198,0.06356485,-0.19886675,27.8125,29.0,28.0625,31.75,33.8125,34.625
0.038051978,-1.1118349,-0.3124804,-1.339309,0.019698875,0.051131777,-0.14032419,-0.3731195,-0.32814804,0.059796706,-3.0784116,0.62508434,-0.0006887182,-0.01738246,0.0027937456,-0.00041910305,-0.00837489,0.0009966134,-0.0032803013,0.44770932,-1.4702679,2.0092757,-2.1077645,-1.570527,2.4227717,-0.025846045,0.022398775,-0.022631468,-0.00431716,0.007047543,-0.022561682,-0.34476504,-0.038307227,-9.500193,0.74413085,47.71286,-0.85714996,-2.3074865,-3.2987077,-0.53982115,0.06398663,-0.21337539,27.8125,29.0,28.0625,31.75,33.8125,34.625
0.040051885,-1.3583589,-0.55089355,-1.2436707,0.03071413,0.02698143,-0.15786034,-0.37314615,-0.32814154,0.059792627,-3.0784225,0.6251051,-0.0007499627,-0.019545896,0.0027470153,0.0007168371,-0.009876972,0.0059224116,-0.002321457,0.44764894,-1.4702202,2.0092275,-2.107742,-1.5704917,2.4227228,-0.027186358,0.021869589,-0.023908015,-0.00759795,0.0062577655,-0.024857724,-0.21068975,-0.038307227,-9.519346,0.7530795,47.73077,-0.8169558,-2.2782695,-3.3151426,-0.5156434,0.08499141,-0.2037149,27.8125,29.0,28.0625,31.75,33.8125,34.625
0.04205191,-0.45971692,-0.35637623,-1.3041629,0.015852792,0.048029285,-0.18288489,-0.37316328,-0.32814315,0.05977556,-3.0784407,0.62505054,-0.0007360765,-0.020668177,0.0033359497,0.00071570824,-0.009339613,0.006178642,-0.0022701975,0.44763637,-1.4701718,2.009227,-2.1078012,-1.5704917,2.422674,-0.02890828,0.023043817,-0.025229221,-0.0074471063,0.0056593567,-0.026628679,-0.11492168,-0.019153614,-9.519346,0.71951014,47.713753,-0.84249353,-2.2739358,-3.293972,-0.49416903,0.08038533,-0.1970855,27.8125,29.0,28.0625,31.75,33.8125,34.625
0.0440519,-0.716297,-0.9145292,-1.2868402,0.012180073,0.03800622,-0.16970773,-0.37322298,-0.32813555,0.05979851,-3.0784664,0.6250177,-0.00066657586,-0.021080008,0.003718123,0.0004042241,-0.008878116,0.00463885,-0.0015179956,0.44757587,-1.4701355,2.0091317,-2.1077888,-1.5705036,2.4225898,-0.030168116,0.024481285,-0.026392397,-0.0061344192,0.005910981,-0.028640417,-0.05746084,0.019153614,-9.481039,0.75755644,47.709274,-0.7940836,-2.2820303,-3.3153625,-0.4985072,0.09844021,-0.19209968,27.8125,29.0,28.0625,31.75,33.8125,34.625
0.04605194,-0.23634712,-0.97182095,-1.3895736,-0.0009790335,0.034008443,-0.15731166,-0.37330526,-0.32812193,0.0598113,-3.0785072,0.6250832,-0.0005885143,-0.021752708,0.0040263627,0.00039143025,-0.008714809,0.0035576026,-0.00065481674,0.44746742,-1.470075,2.0090468,-2.107836,-1.5704917,2.422517,-0.03157087,0.025754284,-0.028098408,-0.004656082,0.0062332107,-0.03090576,0.038307227,0.0,-9.5385,0.7105615,47.705692,-0.7738112,-2.314206,-3.2889156,-0.51482916,0.082647264,-0.16830476,27.8125,29.0,28.0625,31.75,33.8125,34.625
0.04805214,-0.51028264,-1.6365216,-1.5150182,0.0032176536,0.019673115,-0.14533873,-0.3732977,-0.32808384,0.059761573,-3.0783892,0.625136,-0.0007443482,-0.022743018,0.0045519937,0.00050399493,-0.008520638,0.0037395013,-0.00043415016,0.44741875,-1.469991,2.0090578,-2.1077883,-1.5705155,2.4225163,-0.033283107,0.026527742,-0.029284392,-0.004323058,0.0059724655,-0.032838285,-0.019153614,0.05746084,-9.500193,0.7709874,47.705692,-0.73859966,-2.2551916,-3.2980118,-0.52770436,0.10161114,-0.16391742,27.8125,29.0,28.0625,31.75,33.8125,34.625
0.050052505,-0.3685641,-1.5808868,-1.3387748,-0.0094800005,0.015139707,-0.14213175,-0.37335724,-0.32808924,0.059799377,-3.0784686,0.6251319,-0.00064719527,-0.023407333,0.0045723612,0.000975241,-0.008944523,0.0045339544,0.001208449,0.44735864,-1.469991,2.0089738,-2.1078002,-1.5704917,2.4224436,-0.033945594,0.026488187,-0.0303733,-0.0040931907,0.0060115852,-0.035142295,-0.038307227,0.21068975,-9.519346,0.784413,47.70838,-0.72199214,-2.1569126,-3.3518362,-0.53699255,0.11029218,-0.1439913,27.8125,29.0,28.0625,31.75,33.8125,34.625
0.052052505,-0.36785764,-1.4583622,-1.2961726,-0.028730778,0.019737773,-0.14346135,-0.37338606,-0.32809687,0.05978253,-3.078505,0.6250613,-0.0006969426,-0.024506943,0.004577868,0.0013285548,-0.0098650735,0.0053761587,0.0019216893,0.44732225,-1.4699069,2.0089257,-2.107824,-1.5704554,2.4223585,-0.035263613,0.02714422,-0.031822562,-0.004457547,0.0064721764,-0.03717347,0.038307227,0.22984336,-9.481039,0.7866488,47.709274,-0.7449646,-2.1401806,-3.3648713,-0.54086816,0.11358252,-0.12525895,27.8125,29.0,28.0625,31.75,33.8125,34.625
0.054052424,-0.5341707,-1.7851665,-1.4359863,-0.025539948,0.019249005,-0.1422105,-0.37342483,-0.32807532,0.05976807,-3.0784907,0.62507766,-0.00075356074,-0.02549336,0.0044717942,0.0016477457,-0.01156175,0.0055918708,0.0020784757,0.4472377,-1.4698349,2.008877,-2.1078122,-1.5704426,2.422286,-0.036924925,0.027760675,-0.033192728,-0.004636119,0.007903836,-0.038993727,0.076614454,0.21068975,-9.557653,0.7709874,47.70032,-0.7540715,-2.0575967,-3.3332992,-0.53411925,0.107133225,-0.12451205,27.8125,29.0,28.0625,31.75,33.8125,34.625
0.056052383,-0.34471583,-1.5494345,-1.4310758,-0.03743504,0.031031635,-0.14397644,-0.373515,-0.32805264,0.059790142,-3.078518,0.62510157,-0.0006268344,-0.026131926,0.004592734,0.0016734994,-0.011564547,0.0054358523,0.0030022778,0.4471293,-1.4697866,2.0087817,-2.1078484,-1.5704664,2.4221892,-0.037772097,0.02872679,-0.03439971,-0.0042560203,0.007975626,-0.04076342,0.038307227,0.24899697,-9.5385,0.7105615,47.70211,-0.75215983,-2.0838037,-3.3718605,-0.54326326,0.09868002,-0.096848674,27.8125,29.0,28.0625,31.75,33.8125,34.625
0.058052424,-0.672652,-1.5383382,-1.3298355,-0.03963237,0.029819755,-0.14414117,-0.3735666,-0.32804754,0.059804536,-3.0785544,0.6251289,-0.0006038939,-0.02683631,0.004861795,0.001521743,-0.011822592,0.004947449,0.003763127,0.44705677,-1.4697503,2.0087087,-2.1078484,-1.5704426,2.4221292,-0.03921212,0.029852146,-0.035314683,-0.0041374513,0.008419037,-0.042964153,0.019153614,0.28730422,-9.595961,0.81351066,47.696735,-0.7342854,-2.0454087,-3.3480427,-0.53832567,0.104298204,-0.06981987,27.8125,29.0,28.0625,31.75,33.8125,34.625
0.06005243,-1.2765214,-2.2031355,-1.5000056,-0.022324206,0.027292911,-0.1292923,-0.37361902,-0.32802624,0.05980177,-3.078549,0.6252049,-0.000616436,-0.027324863,0.004680782,0.0017032746,-0.012560086,0.004885716,0.002181883,0.44696072,-1.4696902,2.008649,-2.1078484,-1.5704302,2.4220812,-0.039776955,0.03044568,-0.03644682,-0.0038631593,0.00911033,-0.041948378,-0.095768064,0.19153613,-9.442732,0.779936,47.70838,-0.80022436,-2.0554447,-3.3580997,-0.5336291,0.09754053,-0.07752105,27.8125,29.0,28.0625,31.75,33.8125,34.625
0.062052533,-1.2149893,-1.8314828,-1.5342336,-0.024896784,0.046672456,-0.1411033,-0.3736661,-0.32804486,0.05982351,-3.078628,0.6251649,-0.00062896335,-0.028333304,0.0044347327,0.002159344,-0.013821832,0.0055338177,0.00027599954,0.4469123,-1.469642,2.0085409,-2.107824,-1.5703701,2.4219978,-0.04080314,0.031130074,-0.038239494,-0.0038848731,0.009966529,-0.041068766,-0.19153613,0.30645782,-9.5385,0.7284641,47.672558,-0.7991385,-1.962374,-3.3973064,-0.54244745,0.08321442,-0.10365755,27.8125,29.0,28.0625,31.75,33.8125,34.625
0.064052485,-1.20104,-1.3716164,-1.5196857,-0.03405851,0.054651815,-0.14460166,-0.37372673,-0.32802698,0.059824575,-3.0786345,0.62514603,-0.0005609897,-0.029107044,0.0044146073,0.0020453108,-0.014036734,0.0054773255,0.0011306413,0.44684014,-1.4695816,2.0084803,-2.1078598,-1.5703944,2.4219131,-0.04160786,0.0325942,-0.039540086,-0.0040911864,0.010183185,-0.0427271,-0.2873042,0.26815057,-9.519346,0.7597976,47.693153,-0.8021409,-1.9792202,-3.3907952,-0.5555179,0.085429296,-0.08910687,27.8125,29.0,28.0625,31.75,33.8125,34.625
0.06605206,-1.3570756,-1.343135,-1.3843627,-0.03057232,0.06066192,-0.14445925,-0.37379625,-0.32803547,0.05983833,-3.0787163,0.6251813,-0.0005702807,-0.030048754,0.004345937,0.0021347287,-0.014753617,0.006069118,0.0017753746,0.44674367,-1.4695092,2.008372,-2.1078722,-1.5703214,2.4218283,-0.042587038,0.03364731,-0.040745452,-0.0047793463,0.010572522,-0.044350132,-0.2681506,0.17238252,-9.5385,0.80456203,47.71465,-0.8752638,-2.003046,-3.415947,-0.5545502,0.08938505,-0.08737877,27.8125,29.0,28.0625,31.75,33.8125,34.625
0.06805253,-1.8001776,-1.766497,-1.4327241,-0.015896413,0.0544268,-0.13292868,-0.37382713,-0.3280227,0.05983116,-3.0787303,0.6251258,-0.00059593236,-0.031334374,0.0038323877,0.0027899172,-0.016477577,0.0077303546,0.0030240417,0.4466835,-1.4694611,2.0083358,-2.1078727,-1.5703095,2.4217317,-0.04334485,0.034304447,-0.042770635,-0.005655684,0.011402994,-0.046356656,-0.36391866,0.19153613,-9.519346,0.78888994,47.70032,-0.8890563,-2.0033894,-3.3821106,-0.5363206,0.076663405,-0.07431165,27.8125,29.0,28.0625,31.75,33.8125,34.625
0.07005259,-1.4256972,-1.2521377,-1.4021673,-0.015029259,0.06611293,-0.1377543,-0.37391186,-0.327995,0.05983066,-3.0787172,0.6251451,-0.00058452436,-0.03261665,0.0045469594,0.0027121666,-0.01661382,0.008029518,-0.0014906544,0.44656268,-1.4693531,2.0082157,-2.1078608,-1.5703214,2.4216247,-0.045834705,0.035362177,-0.043639448,-0.006172774,0.011396033,-0.04433097,-0.4405331,0.15322891,-9.519346,0.7709874,47.698532,-0.894634,-1.9818964,-3.4254825,-0.5321106,0.0807803,-0.0916384,27.8125,29.0,28.0625,31.75,33.8125,34.625
0.07205264,-1.5754106,-1.368267,-1.3354046,-0.0010230212,0.06409519,-0.13748127,-0.37395328,-0.32800025,0.05984034,3.0787551,-0.6251344,0.00058616675,-0.033313505,0.0042859837,0.002453418,-0.017097328,0.00741833,-0.0029199664,0.4465024,-1.4693165,2.008156,-2.1078732,-1.5702733,2.421553,-0.04644346,0.03738239,-0.04524967,-0.0062401625,0.012095161,-0.043509938,-0.45968673,0.11492168,-9.500193,0.800085,47.71554,-0.85298413,-1.9108567,-3.4325278,-0.5376924,0.06347199,-0.12032995,27.8125,29.0,28.0625,31.75,33.8125,34.625
0.07405182,-1.2448722,-0.9554742,-1.0614859,-0.004810699,0.06954477,-0.14415754,-0.37401825,-0.32801515,0.059835628,3.0786867,-0.62511903,0.0005976778,-0.033564776,0.0036345902,0.0024281663,-0.01716473,0.0075393915,-0.0003020455,0.44643083,-1.4692081,2.0080588,-2.107921,-1.5702132,2.4214804,-0.045443248,0.03876821,-0.046701025,-0.0063089775,0.01210263,-0.04512612,-0.34476504,0.076614454,-9.442732,0.7239871,47.69763,-0.929865,-1.9740944,-3.4045289,-0.53899634,0.053128347,-0.12793091,27.8125,29.0,28.0625,31.75,33.8125,34.625
0.076051794,-1.1502609,-0.74988914,-1.0785056,-0.0020362178,0.072991535,-0.14804511,-0.374124,-0.32799107,0.05986561,3.0786421,-0.6251307,0.0004815122,-0.03534007,0.0041739983,0.002808361,-0.017742615,0.008707953,-0.0021744978,0.44629785,-1.469148,2.0079267,-2.1079328,-1.5702251,2.4213605,-0.04806223,0.039765,-0.04857032,-0.0067387642,0.012120131,-0.04587027,-0.40222588,0.11492168,-9.423578,0.8090337,47.709274,-0.9671764,-1.9341738,-3.399962,-0.5361794,0.049071275,-0.12188728,27.8125,29.0,28.0625,31.75,33.8125,34.625
0.07805183,-1.2155924,-1.09538,-1.1015915,0.01156766,0.0631246,-0.1285335,-0.3741876,-0.32798734,0.059866983,3.0786045,-0.62512404,0.0004335745,-0.036777943,0.004684095,0.002489216,-0.017907018,0.008425356,-0.0044114403,0.4462252,-1.4690753,2.0078547,-2.107981,-1.5702132,2.4212885,-0.05049654,0.041973233,-0.050169267,-0.007163545,0.012389315,-0.046066068,-0.38307226,0.076614454,-9.423578,0.7933669,47.73525,-0.8803018,-1.9380429,-3.3356552,-0.5295465,0.050849594,-0.14393106,27.8125,29.0,28.0625,31.75,33.8125,34.625
0.08005176,-1.2844887,-1.0789931,-1.2399561,0.0030152088,0.057370525,-0.13564858,-0.3742485,-0.32797807,0.059867542,3.0785763,-0.6251186,0.000467748,-0.037432957,0.005452787,0.002403563,-0.017429376,0.008242511,-0.0059601786,0.44612843,-1.4689913,2.0077584,-2.1079686,-1.5701774,2.421192,-0.05228662,0.042351212,-0.050456047,-0.0068794936,0.012038792,-0.046306714,-0.34476504,-0.019153614,-9.32781,0.8023209,47.745995,-0.8578887,-1.9495287,-3.4610047,-0.52197284,0.0442783,-0.16887477,27.8125,29.0,28.0625,31.75,33.8125,34.625
0.082052,-1.0328215,-0.7483447,-1.0346481,-0.013696036,0.06479048,-0.13843477,-0.3743401,-0.32795003,0.05987213,3.0785878,-0.6251201,0.00043027903,-0.038449265,0.0044157854,0.0031488056,-0.018171044,0.009705291,-0.0046358774,0.4460089,-1.4688832,2.0076263,-2.1079566,-1.5702013,2.421072,-0.051267635,0.043741476,-0.053758092,-0.006607005,0.012072833,-0.046609838,-0.47884035,0.095768064,-9.289502,0.83365434,47.713753,-0.9207312,-1.871773,-3.40571,-0.5176369,0.054011922,-0.17632282,27.8125,29.0,28.0625,31.75,33.8125,34.625
0.084051766,-1.3014475,-0.85632354,-1.1480482,-0.0072276774,0.058613606,-0.13845736,-0.37442577,-0.32795495,0.059906736,3.078495,-0.625083,0.00038165643,-0.03970179,0.0048965104,0.0026527487,-0.017287299,0.009178486,-0.0054650404,0.44590032,-1.4688343,2.0074933,-2.1079566,-1.5701417,2.420952,-0.05290658,0.04647969,-0.055628225,-0.0066121994,0.011504398,-0.047416206,-0.4405331,0.1340753,-9.32781,0.7978386,47.72002,-1.0144777,-1.9729519,-3.28992,-0.53304845,0.049805783,-0.208328,27.8125,29.0,28.0625,31.75,33.8125,34.625
0.08605182,-1.5586758,-1.2428911,-1.2036927,-0.00049856154,0.056955665,-0.13349827,-0.37449667,-0.32795691,0.05990445,3.078445,-0.62511224,0.00038557156,-0.039921768,0.005958462,0.0021118536,-0.016765969,0.008100074,-0.0070842938,0.44581565,-1.4687263,2.0073855,-2.107981,-1.5701059,2.420892,-0.05508827,0.04667768,-0.05460591,-0.0066317767,0.011503616,-0.047978953,-0.3256114,0.05746084,-9.3661175,0.7463667,47.741516,-0.8729103,-1.991259,-3.4453797,-0.5355482,0.040458824,-0.22194716,27.8125,29.0,28.0625,31.75,33.8125,34.625
0.08805204,-1.2701343,-1.2253556,-1.0434189,-0.0078317635,0.05867385,-0.13644977,-0.37455878,-0.32794008,0.059898037,3.078414,-0.62514377,0.0004615536,-0.041267876,0.005854054,0.0032305939,-0.017726405,0.010436273,-0.006074926,0.44569528,-1.4686308,2.0072896,-2.1079566,-1.5700577,2.4207952,-0.05599842,0.04623854,-0.056693938,-0.0066215177,0.011359253,-0.04989737,-0.3256114,0.076614454,-9.32781,0.78217715,47.72002,-0.95314115,-1.787284,-3.3575149,-0.52904516,0.045739938,-0.22859937,27.8125,29.0,28.0625,31.75,33.8125,34.625
0.09005207,-1.7499455,-1.7348002,-1.0613775,-0.00064487115,0.04735355,-0.120139286,-0.37467596,-0.32791293,0.059922475,3.078374,-0.62515306,0.00029004578,-0.04365345,0.005572888,0.0041888817,-0.017877316,0.012835106,-0.004757504,0.44556284,-1.4685581,2.0071676,-2.1080167,-1.570094,2.4206738,-0.057000387,0.048422407,-0.061347365,-0.0063776956,0.010460209,-0.052211225,-0.3256114,0.15322891,-9.251195,0.7530795,47.7245,-0.93148035,-1.8642445,-3.2787957,-0.53258216,0.050409734,-0.21909694,27.8125,29.0,28.0625,31.75,33.8125,34.625
0.09205209,-1.5226872,-1.6050675,-1.286973,0.002723281,0.054723855,-0.12952341,-0.37476715,-0.32790998,0.059925217,3.0783179,-0.6252394,0.00024461953,-0.043488327,0.00603864,0.002350902,-0.016761336,0.009597509,-0.006528567,0.44546652,-1.4684371,2.0070364,-2.1080525,-1.5700816,2.4206386,-0.057977885,0.051809046,-0.06072293,-0.006986349,0.010852235,-0.05141738,-0.30645782,0.17238252,-9.308657,0.7866488,47.73614,-0.9878018,-1.91642,-3.2196488,-0.5297725,0.05403121,-0.28815943,27.8125,29.0,28.0625,31.75,33.8125,34.625
0.09405205,-1.8752923,-1.6578207,-1.3139659,-0.0060498053,0.04893594,-0.12680861,-0.37485817,-0.32788128,0.0599359,3.0782945,-0.62523365,0.00022644059,-0.04415669,0.0063300612,0.002198027,-0.016293595,0.009242366,-0.006168244,0.44532233,-1.4683529,2.0069168,-2.1080406,-1.5700697,2.4204938,-0.058931936,0.05310659,-0.06189348,-0.0065876055,0.010585207,-0.05273037,-0.24899697,0.24899697,-9.32781,0.7642693,47.71017,-1.0091474,-1.9718956,-3.394048,-0.5109668,0.058368865,-0.2891989,27.8125,29.0,28.0625,31.75,33.8125,34.625
0.09605222,-1.4478686,-1.7260265,-1.2261825,-0.016510315,0.056677293,-0.13172154,-0.37493357,-0.3278752,0.0599178,3.0782688,-0.62522787,0.00032750826,-0.045791417,0.0055854637,0.0045970147,-0.018200852,0.013979376,-0.0044846865,0.4452025,-1.468198,2.0067852,-2.1080287,-1.5700101,2.4203737,-0.058772136,0.05095833,-0.065097556,-0.0063255103,0.010260534,-0.054252595,-0.21068975,0.19153613,-9.3661175,0.7284641,47.696735,-1.1132762,-1.7640574,-3.2936869,-0.5227785,0.07011446,-0.31854457,27.8125,29.0,28.0625,31.75,33.8125,34.625
0.098051675,-1.06134,-2.0430818,-1.3896248,-0.013693058,0.065418355,-0.130828,-0.37503767,-0.32785878,0.059937462,3.0782015,-0.6252919,0.00024975798,-0.04719699,0.0062147523,0.0035285233,-0.017971557,0.011761177,-0.0049892855,0.4450693,-1.4681126,2.0066516,-2.108052,-1.5699977,2.420289,-0.061712578,0.05497133,-0.067078955,-0.006255675,0.011011571,-0.056686882,-0.28730422,0.24899697,-9.423578,0.800085,47.71286,-1.00301,-1.9138362,-3.190207,-0.52009726,0.043974765,-0.31224293,27.8125,29.0,28.0625,31.75,33.8125,34.625
0.10005166,-1.1866463,-2.0202582,-1.4312277,-0.02151197,0.04911905,-0.124506555,-0.3750906,-0.3278489,0.059922248,3.078193,-0.62527174,0.00038126466,-0.046647824,0.0050976747,0.003088838,-0.017361468,0.01101878,-0.0047267415,0.44496235,-1.4679922,2.0065434,-2.1080048,-1.5699376,2.4201705,-0.058949642,0.056903224,-0.068239994,-0.006089811,0.0107766045,-0.054185897,-0.1340753,0.30645782,-9.3661175,0.800085,47.7254,-1.2492573,-1.8952711,-3.1963682,-0.53233796,0.07091662,-0.36395225,27.8125,29.0,28.0625,31.75,33.8125,34.625
0.10205267,-1.4651486,-1.5402306,-1.4890122,-0.039143052,0.037403043,-0.12728506,-0.37525356,-0.32782856,0.059966102,3.0781379,-0.6252782,0.00011585285,-0.04774171,0.005494028,0.002944687,-0.017646747,0.011074006,-0.0060377386,0.44481778,-1.467884,2.0063403,-2.1080763,-1.5699977,2.4200373,-0.06081736,0.058263462,-0.06930048,-0.006564405,0.011018736,-0.054740142,-0.11492168,0.30645782,-9.346964,0.80456203,47.71823,-1.2422343,-1.9457207,-3.1893597,-0.53099895,0.077366404,-0.4247861,27.8125,29.0,28.0625,31.75,33.8125,34.625
0.1040526,-1.3270216,-2.0025356,-1.5205313,-0.036187794,0.031014143,-0.12359756,-0.37533993,-0.32781625,0.059974164,3.07811,-0.6252537,8.012147e-05,-0.050156344,0.0058235764,0.0036545505,-0.018802462,0.012789101,-0.0063634673,0.44470876,-1.4677876,2.0062187,-2.1080887,-1.5699857,2.4199166,-0.0638,0.05976542,-0.072504975,-0.0069051487,0.011321497,-0.057394754,-0.076614454,0.30645782,-9.461885,0.79560274,47.687782,-1.170786,-1.9209427,-3.000187,-0.5304124,0.050324574,-0.419859,27.8125,29.0,28.0625,31.75,33.8125,34.625
0.10605184,-1.6768897,-2.3323412,-1.692386,-0.025563646,0.015916847,-0.12191952,-0.3754195,-0.32781643,0.059965696,3.0780547,-0.6252802,0.00016690679,-0.048956342,0.0065605254,0.0018900165,-0.016823402,0.00935508,-0.0037854242,0.44458866,-1.4676433,2.0060766,-2.1080763,-1.5699137,2.41982,-0.06388198,0.061303638,-0.07018515,-0.006803619,0.011019245,-0.060055785,-0.114921674,0.30645782,-9.442732,0.79560274,47.70032,-1.2248633,-2.0519936,-3.2543802,-0.5231332,0.061141215,-0.44575328,27.8125,29.0,28.0625,31.75,33.8125,34.625
0.108052015,-1.0125175,-2.0207942,-1.5358579,-0.040976327,0.033573393,-0.13090838,-0.37553778,-0.3277878,0.059966967,3.0780444,-0.62531567,9.926831e-05,-0.049882043,0.006325409,0.0020417026,-0.017417274,0.009326627,-0.0019970296,0.44444442,-1.4674991,2.0059206,-2.1081007,-1.5699376,2.4196994,-0.06462386,0.06283852,-0.07231152,-0.006442107,0.011569289,-0.0625849,-0.1340753,0.30645782,-9.423578,0.8537928,47.698532,-1.3506149,-1.9496189,-3.2532096,-0.52727544,0.07070862,-0.45672014,27.8125,29.0,28.0625,31.75,33.8125,34.625
0.11005202,-1.1303607,-2.1174634,-1.4220212,-0.02412519,0.025364082,-0.13079228,-0.37563428,-0.3277871,0.05996947,3.0779889,-0.62528336,9.875331e-05,-0.052424163,0.0061824857,0.003121508,-0.0188846,0.012076168,0.00027704064,0.44432375,-1.4673668,2.0057747,-2.108124,-1.5698894,2.4195657,-0.066717416,0.06419485,-0.076138854,-0.0070777372,0.011708608,-0.0669496,-0.038307227,0.19153613,-9.32781,0.84708,47.713753,-1.2727379,-2.0321531,-3.0539198,-0.5173603,0.080109395,-0.4389506,27.8125,29.0,28.0625,31.75,33.8125,34.625
0.11205213,-1.3652189,-1.8133668,-1.5650333,-0.013495431,0.014078885,-0.13043427,-0.37572628,-0.3277673,0.05997034,3.077951,-0.62525487,0.0001046493,-0.05209276,0.007004697,0.0015748583,-0.017960101,0.009197057,0.003133646,0.4441793,-1.4672585,2.0056565,-2.108137,-1.5698532,2.4194083,-0.068220094,0.06612479,-0.074623376,-0.007520591,0.012119292,-0.07130954,-0.076614454,0.21068975,-9.442732,0.82022345,47.687782,-1.3189082,-2.026585,-3.2486079,-0.5125396,0.07899578,-0.4463525,27.8125,29.0,28.0625,31.75,33.8125,34.625
0.114052474,-1.0588912,-1.6213022,-1.4636693,-0.01092413,0.016894966,-0.13011147,-0.37583947,-0.32776597,0.059979618,3.0779257,-0.625171,8.115885e-05,-0.054082975,0.006519915,0.0025769623,-0.019625492,0.011172348,0.00670436,0.44405878,-1.4671022,2.0054634,-2.108137,-1.5698293,2.4192388,-0.06951833,0.067403056,-0.07831573,-0.0076015177,0.012773285,-0.076176316,-0.019153614,0.22984336,-9.423578,0.84708,47.694054,-1.2321407,-2.0538757,-3.0798342,-0.52228445,0.07838641,-0.38870758,27.8125,29.0,28.0625,31.75,33.8125,34.625
0.11605251,-1.0584177,-1.2748541,-1.3517338,-0.012949062,0.02072106,-0.13159615,-0.3759539,-0.3277547,0.059976246,3.0778673,-0.625157,8.241366e-05,-0.055039577,0.0069120666,0.0024278748,-0.019977916,0.011200223,0.010306111,0.44390222,-1.466946,2.0053074,-2.1081727,-1.5697812,2.419081,-0.07129854,0.06852222,-0.07909972,-0.008104676,0.013084968,-0.08155738,-0.11492168,0.19153613,-9.32781,0.9164598,47.701214,-1.2644614,-2.0381522,-3.121895,-0.52729106,0.08907407,-0.35307252,27.8125,29.0,28.0625,31.75,33.8125,34.625
0.118051946,-1.1854041,-0.81780136,-1.365316,-0.010286987,0.021689994,-0.12906037,-0.3760638,-0.327722,0.05997657,3.0778759,-0.625137,3.121808e-05,-0.055843253,0.006940796,0.0019947956,-0.020196404,0.010557589,0.014016933,0.4437578,-1.4668138,2.005164,-2.1081846,-1.5698045,2.4189231,-0.07237349,0.070661135,-0.08038677,-0.008468245,0.013561672,-0.08634212,-0.095768064,0.13407528,-9.385271,0.7709874,47.701214,-1.2789996,-1.9742923,-3.0858512,-0.5038434,0.06996746,-0.30626765,27.8125,29.0,28.0625,31.75,33.8125,34.625
0.120051935,-1.1502042,-1.2658741,-1.2547362,-0.0031437639,0.03778126,-0.13487493,-0.37617174,-0.3277094,0.05998268,3.077826,-0.625126,1.9017554e-05,-0.057060722,0.0077181053,0.0024432698,-0.020200936,0.0112800095,0.016306927,0.44361305,-1.4666817,2.0050075,-2.108197,-1.5697688,2.418778,-0.07469807,0.070697665,-0.08157932,-0.007957045,0.013262635,-0.090955384,-0.11492168,0.11492168,-9.423578,0.78888994,47.694946,-1.2486292,-2.0918627,-3.135113,-0.49664915,0.107464015,-0.25137177,27.8125,29.0,28.0625,31.75,33.8125,34.625
0.12205204,-1.0231675,-1.3454778,-1.2034853,-0.009249353,0.05836137,-0.13344397,-0.37629476,-0.32770875,0.06000627,3.077812,-0.62496775,-4.2778724e-05,-0.057415817,0.0073924954,0.001347071,-0.020208605,0.008436408,0.018707586,0.44349292,-1.4665369,2.004791,-2.108184,-1.5697564,2.418561,-0.07521397,0.07454606,-0.08344643,-0.007372582,0.014496464,-0.093870714,-0.24899697,0.076614454,-9.32781,0.800085,47.705692,-1.2433847,-1.9905635,-3.1398892,-0.49527198,0.08120971,-0.20541611,27.8125,29.0,28.0625,31.75,33.8125,34.625
0.12405202,-1.600383,-0.6076323,-1.0241294,-0.01487767,0.06264692,-0.14823803,-0.37641057,-0.3276809,0.059992965,3.0777519,-0.6249359,8.513971e-06,-0.058329068,0.007856593,0.0024738656,-0.020961743,0.010217046,0.019047251,0.44328842,-1.4663815,2.004659,-2.1082203,-1.5696849,2.4183443,-0.07681899,0.07283457,-0.08430139,-0.0067260596,0.014418451,-0.09581513,-0.2681506,0.15322891,-9.308657,0.7732232,47.744205,-1.292711,-2.182446,-3.1742978,-0.499548,0.09161323,-0.15834498,27.8125,29.0,28.0625,31.75,33.8125,34.625
0.12605187,-1.8147005,-0.56329095,-1.2270362,-0.015156243,0.07114323,-0.1361834,-0.37651837,-0.32768142,0.0600059,3.0777209,-0.6248349,-2.7756284e-08,-0.05893857,0.008136715,0.0025167735,-0.021816524,0.009804491,0.017046552,0.4431679,-1.4662378,2.0044682,-2.108208,-1.5696481,2.4181647,-0.07850862,0.07323999,-0.08490075,-0.0065243505,0.015372037,-0.095504016,-0.38307226,0.19153613,-9.442732,0.8717007,47.716442,-1.323966,-1.8590958,-3.212851,-0.5063455,0.09372987,-0.14263119,27.8125,29.0,28.0625,31.75,33.8125,34.625
0.12805198,-1.91736,-0.8953675,-1.1178728,-0.0057265856,0.072304934,-0.13909848,-0.37664124,-0.3276653,0.06000906,3.0776744,-0.62478834,-5.1600437e-05,-0.059274632,0.008735016,4.641756e-05,-0.019387733,0.00544933,0.014815924,0.4430114,-1.4660919,2.0043113,-2.108256,-1.5696243,2.4179852,-0.07968951,0.079214245,-0.085812345,-0.006606184,0.015050207,-0.09445164,-0.45968673,0.038307227,-9.500193,0.73741806,47.70211,-1.2997832,-2.1836646,-3.1805468,-0.5168538,0.09749899,-0.14948796,27.8125,29.0,28.0625,31.75,33.8125,34.625
0.13005233,-2.121375,-0.90330607,-1.1901666,-0.011718851,0.07757087,-0.13123506,-0.3767628,-0.32764876,0.060031377,3.077644,-0.6247278,-7.473325e-05,-0.060731024,0.009038077,0.0020264718,-0.021001063,0.009596448,0.008730996,0.442855,-1.4659612,2.0041082,-2.1082203,-1.5696,2.417795,-0.08131433,0.07612812,-0.08689644,-0.006872597,0.014730056,-0.089990556,-0.45968673,0.0,-9.423578,0.7777002,47.701214,-1.3255253,-1.9645963,-3.1909335,-0.5215884,0.09707864,-0.1666453,27.8125,29.0,28.0625,31.75,33.8125,34.625
0.1320523,-2.2569952,-1.2994688,-1.2447553,0.0018719481,0.07061396,-0.13314906,-0.3768797,-0.32763153,0.06003018,3.0776007,-0.6246845,-5.7634064e-05,-0.061779737,0.00996755,0.000801901,-0.019659495,0.007752654,0.0016725034,0.44268617,-1.4658043,2.0039408,-2.1082318,-1.5695528,2.4176047,-0.08368228,0.07959501,-0.08786305,-0.007128344,0.014306319,-0.085298225,-0.5746084,0.0,-9.423578,0.7530795,47.694946,-1.3089392,-2.0773082,-3.2470784,-0.51512223,0.12336182,-0.22454955,27.8125,29.0,28.0625,31.75,33.8125,34.625
0.13405228,-1.5167942,-0.46337458,-1.0004394,-0.009671907,0.08088584,-0.1393649,-0.37703228,-0.32761055,0.06004028,3.077527,-0.62476593,-0.000110535206,-0.062305138,0.009951634,0.00027204055,-0.020055642,0.006751104,0.0007654268,0.44249377,-1.4656241,2.0037248,-2.1082566,-1.5695285,2.4174726,-0.08461904,0.08153505,-0.08872016,-0.0074737584,0.015098704,-0.08532668,-0.53630114,-0.095768064,-9.481039,0.7978386,47.67166,-1.2652274,-2.0822415,-3.2782192,-0.5079294,0.12016902,-0.24633068,27.8125,29.0,28.0625,31.75,33.8125,34.625
0.13605249,-1.337551,-0.5719963,-1.0204661,-0.0065333922,0.07517171,-0.15038496,-0.37714142,-0.32757667,0.060026743,3.0775335,-0.62475234,-6.982683e-05,-0.064528845,0.01135769,0.00040820087,-0.020263454,0.0073325248,-0.006656485,0.44232416,-1.465456,2.003568,-2.1082447,-1.5695161,2.4172938,-0.089170195,0.08276862,-0.09035618,-0.0076847007,0.015031878,-0.08245504,-0.5554548,-0.076614454,-9.308657,0.8537928,47.737038,-1.1632359,-2.0415921,-3.3023982,-0.49542817,0.1407897,-0.2955758,27.8125,29.0,28.0625,31.75,33.8125,34.625
0.13805157,-2.257316,-1.1575568,-1.1639934,0.012468196,0.050379764,-0.13177615,-0.37727383,-0.3275634,0.06003085,3.0774603,-0.6247537,-0.00012545097,-0.06414898,0.010590232,9.5781026e-05,-0.020781083,0.0068575637,-0.0038501269,0.44215676,-1.4652998,2.0034,-2.1083043,-1.5694803,2.4171367,-0.08781443,0.08369042,-0.090549186,-0.008201118,0.015711064,-0.083904594,-0.5554548,0.019153614,-9.270349,0.7978386,47.707485,-1.2464563,-2.1384866,-3.368844,-0.50664085,0.10467832,-0.31053448,27.8125,29.0,28.0625,31.75,33.8125,34.625
0.1400516,-1.5958047,-0.5606315,-1.0222821,0.008689003,0.07334807,-0.1485763,-0.37739524,-0.32753545,0.060015902,3.0774546,-0.62469625,-0.00012889084,-0.06681133,0.01111457,0.0011048509,-0.021993665,0.009355856,-0.005609904,0.4419877,-1.4651198,2.0032442,-2.10834,-1.5694684,2.4169326,-0.09115976,0.08457827,-0.09374679,-0.008662964,0.015735589,-0.085487865,-0.36391866,0.019153614,-9.404425,0.7642693,47.723602,-1.2749845,-2.0614586,-3.1329856,-0.49001247,0.13527851,-0.30793792,27.8125,29.0,28.0625,31.75,33.8125,34.625
0.1420524,-1.6177448,-0.6358976,-1.1005379,0.0071233073,0.07959462,-0.14273463,-0.37752694,-0.32751498,0.06002271,3.077415,-0.6246709,-0.00012430995,-0.066714905,0.012151428,-0.00014086843,-0.021005336,0.006845738,-0.007856458,0.4418069,-1.4649516,2.0030406,-2.1083286,-1.5694317,2.4167411,-0.09310733,0.08606438,-0.09254798,-0.008651161,0.015922971,-0.08518912,-0.38307226,0.0,-9.423578,0.8224646,47.729877,-1.0682746,-2.064849,-3.3665915,-0.48291594,0.1531165,-0.34775174,27.8125,29.0,28.0625,31.75,33.8125,34.625
0.14405233,-1.3735555,-0.46307474,-1.0419149,-0.008352012,0.084047124,-0.14545773,-0.37770826,-0.32747525,0.06005574,3.0773063,-0.6247813,-0.0002384162,-0.069177695,0.011724723,0.0015672877,-0.02310968,0.009998008,-0.0070597744,0.44155452,-1.464808,2.0028121,-2.1083524,-1.5694078,2.4165716,-0.09483232,0.08645479,-0.09696356,-0.008368308,0.016485283,-0.08770678,-0.49799395,-0.095768064,-9.442732,0.80456203,47.709274,-1.137682,-1.8957545,-3.247501,-0.46744922,0.15222867,-0.34801844,27.8125,29.0,28.0625,31.75,33.8125,34.625
0.14605238,-2.0723917,-0.59763885,-1.0390159,-0.01225031,0.061366327,-0.13335375,-0.37781903,-0.32746598,0.060046665,3.077271,-0.62471914,-0.00017881884,-0.06866399,0.013173715,-0.0002526218,-0.020943988,0.0063407584,-0.010247299,0.44139782,-1.4646274,2.0026338,-2.1083524,-1.5693477,2.4163806,-0.0967959,0.088369615,-0.0950073,-0.007999604,0.016096024,-0.086483695,-0.63206923,0.019153614,-9.346964,0.8247004,47.72002,-1.117232,-2.1362925,-3.4126468,-0.48263592,0.16444571,-0.38474202,27.8125,29.0,28.0625,31.75,33.8125,34.625
0.14805174,-1.632202,-0.9804668,-1.1652584,-0.0027028956,0.06414761,-0.13683489,-0.37796965,-0.32744142,0.060034264,3.0772347,-0.6247111,-0.00016131283,-0.07023628,0.0134127885,0.001069634,-0.022550464,0.008959964,-0.008524851,0.44119304,-1.4644003,2.0024173,-2.1083763,-1.5693115,2.4161756,-0.09882773,0.0871575,-0.09667981,-0.008159563,0.0164343,-0.090237126,-0.4213795,-0.038307227,-9.308656,0.85826975,47.71465,-1.0208828,-1.867869,-3.3567824,-0.4824974,0.17920777,-0.39716414,27.8125,29.0,28.0625,31.75,33.8125,34.625
0.15005188,-2.0041296,-1.1114079,-1.1836385,-0.0018757605,0.041830786,-0.13030592,-0.37812504,-0.327384,0.06004122,3.0771973,-0.6248172,-0.0002583547,-0.072021045,0.015334146,-0.0009207994,-0.020154329,0.0058329627,-0.007985443,0.4409636,-1.4642547,2.002249,-2.108412,-1.5693363,2.4160173,-0.103423856,0.09247676,-0.09796153,-0.008335883,0.015613825,-0.095369786,-0.36391866,-0.038307227,-9.423578,0.80456203,47.711063,-0.93852204,-1.9391763,-3.4275804,-0.4766541,0.18735361,-0.34397325,27.8125,29.0,28.0625,31.75,33.8125,34.625
0.15205191,-1.2025265,-0.6248357,-1.0052962,-0.010643434,0.060417615,-0.1467563,-0.37828216,-0.3273671,0.060062915,3.0771408,-0.62478465,-0.00035474787,-0.07344489,0.01418125,0.0013286918,-0.022877628,0.010496278,-0.0033912659,0.44078365,-1.464088,2.002021,-2.1084368,-1.5693239,2.4158244,-0.10280758,0.09048569,-0.10080466,-0.008874081,0.01609532,-0.099345036,-0.5363012,-0.05746084,-9.346964,0.7709874,47.686886,-0.8913516,-1.6885756,-3.394826,-0.46283782,0.19999565,-0.33852854,27.8125,29.0,28.0625,31.75,33.8125,34.625
0.15405232,-1.698098,-0.94374776,-1.2325623,0.0022038557,0.0467157,-0.13984747,-0.37839475,-0.32734576,0.06004763,3.077088,-0.62473357,-0.00023054983,-0.07415244,0.0158242,-0.00048867613,-0.022259725,0.0065468266,-0.0010270914,0.44057828,-1.4639071,2.0018537,-2.108424,-1.5692271,2.4155939,-0.10724132,0.09371044,-0.100228235,-0.008821751,0.01723117,-0.10614363,-0.4405331,0.038307227,-9.346964,0.73741806,47.68062,-0.84824103,-1.7499107,-3.4893494,-0.45500904,0.20736648,-0.26852655,27.8125,29.0,28.0625,31.75,33.8125,34.625
0.15605228,-1.3220263,-0.7666382,-1.1661625,-0.00070093654,0.05977803,-0.14357822,-0.37854716,-0.3272775,0.060032006,3.077116,-0.6248108,-0.00023546886,-0.075438745,0.013710055,0.00040196397,-0.02433373,0.008213364,0.007298577,0.44033915,-1.4637024,2.001661,-2.1084125,-1.5692633,2.4153996,-0.105161116,0.09636023,-0.10519251,-0.008894873,0.018394494,-0.11238659,-0.3256114,0.019153614,-9.404425,0.7866488,47.70032,-0.9121591,-1.8859963,-3.4015505,-0.4571911,0.20395035,-0.19699365,27.8125,29.0,28.0625,31.75,33.8125,34.625
0.15805233,-1.1307887,-1.0602376,-1.3625401,0.0015490674,0.06309303,-0.1337128,-0.37870663,-0.32727632,0.060038935,3.0770292,-0.6246965,-0.0002714851,-0.07545933,0.01458382,-0.00061643583,-0.023659052,0.0061020735,0.010821504,0.44014636,-1.4634984,2.0014336,-2.108472,-1.5691909,2.4151466,-0.10697491,0.09769184,-0.10435905,-0.008844648,0.01870472,-0.117722236,-0.3256114,0.095768064,-9.423578,0.80456203,47.696735,-0.8584335,-1.997106,-3.4049168,-0.4512409,0.21687883,-0.10389474,27.8125,29.0,28.0625,31.75,33.8125,34.625
0.16005224,-1.7660784,-1.146192,-1.2803608,-0.011332306,0.05314895,-0.13420987,-0.37887135,-0.32724348,0.06005789,3.076956,-0.62468034,-0.00030322318,-0.07715544,0.013959731,0.0008325015,-0.024804296,0.008955235,0.011930531,0.43990645,-1.4633306,2.0012052,-2.108472,-1.5691432,2.414906,-0.107141495,0.097939216,-0.10805198,-0.008455766,0.018531403,-0.118994646,-0.40222588,0.17238252,-9.3661175,0.7620334,47.705692,-0.9553176,-1.8310387,-3.2226305,-0.45432234,0.22582683,-0.0658424,27.8125,29.0,28.0625,31.75,33.8125,34.625
0.16205224,-1.11698,-1.281295,-1.5086595,-0.02777458,0.07340272,-0.14219904,-0.379025,-0.3272205,0.060062464,3.0769064,-0.6246318,-0.00033015164,-0.077614725,0.013569804,0.0010843127,-0.02551683,0.0091316635,0.010989512,0.4397026,-1.4631387,2.0009882,-2.1084955,-1.5691069,2.4146783,-0.10715635,0.098636456,-0.10947592,-0.008187246,0.019106954,-0.11806686,-0.34476504,0.28730422,-9.404425,0.78217715,47.698532,-1.0186458,-1.8231244,-3.2925916,-0.4535005,0.2361097,-0.05072435,27.8125,29.0,28.0625,31.75,33.8125,34.625
0.16405226,-1.7068398,-1.8633336,-1.6020794,-0.041741468,0.059250895,-0.12987866,-0.3791619,-0.32718942,0.060055546,3.0768533,-0.6245657,-0.00027826248,-0.078080446,0.013137811,0.001266794,-0.025992177,0.0094347885,0.0083237095,0.43947455,-1.4629589,2.0008085,-2.1085079,-1.5690349,2.4144158,-0.10691438,0.09954768,-0.11093287,-0.008110573,0.019407148,-0.11515797,-0.24899697,0.21068975,-9.557653,0.78217715,47.67614,-1.0995235,-1.6867201,-3.2935886,-0.4699632,0.25949576,-0.071112715,27.8125,29.0,28.0625,31.75,33.8125,34.625
0.16605228,-1.2653193,-2.4509077,-1.6537564,-0.045433186,0.05819596,-0.12727834,-0.3793234,-0.3271503,0.060035992,3.0768642,-0.62459,-0.00024477355,-0.07889885,0.013533102,0.0006034239,-0.025214585,0.008169295,0.0030007693,0.43925795,-1.4626942,2.0005581,-2.1084955,-1.5690349,2.4142132,-0.10821435,0.102186516,-0.1124316,-0.007775739,0.019235022,-0.11113434,-0.19153613,0.30645782,-9.595961,0.85155696,47.70211,-1.1274631,-1.7935263,-3.2462182,-0.4639135,0.26796097,-0.1153776,27.8125,29.0,28.0625,31.75,33.8125,34.625
0.16805232,-1.1246006,-2.1991787,-1.6075813,-0.05921556,0.040569652,-0.12637767,-0.37949148,-0.32711872,0.060035437,3.0768216,-0.62460315,-0.00029560336,-0.07986828,0.013140944,0.0015696979,-0.026553033,0.00990742,-0.0015676894,0.43904194,-1.4624788,2.0003297,-2.1085317,-1.569023,2.414011,-0.10860145,0.10186263,-0.114321016,-0.007707092,0.01970754,-0.10695112,-0.15322891,0.40222588,-9.5385,0.80679786,47.679718,-1.158955,-1.7398515,-3.1814551,-0.46276605,0.26118568,-0.14387211,27.8125,29.0,28.0625,31.75,33.8125,34.625
0.17005245,-1.0522504,-2.616418,-1.8361299,-0.048097424,0.019105675,-0.12296043,-0.3796746,-0.3271071,0.060075514,3.076717,-0.62456495,-0.0003994182,-0.08072234,0.013716398,-0.000677412,-0.025173746,0.005757369,-0.007621999,0.4388253,-1.4623089,2.0000532,-2.1085436,-1.5689744,2.413784,-0.11072937,0.10794755,-0.11587016,-0.007898431,0.02022973,-0.10302052,-0.05746084,0.38307226,-9.557653,0.8112748,47.694054,-1.1074834,-1.9423988,-3.214779,-0.46925378,0.29887766,-0.22343773,27.8125,29.0,28.0625,31.75,33.8125,34.625
0.17205234,-0.67867625,-2.3147233,-1.8301731,-0.04744938,0.010751856,-0.1338286,-0.37982312,-0.32707894,0.06006123,3.0766785,-0.6245581,-0.0003546072,-0.08200527,0.013694997,0.0011918865,-0.027528174,0.009521184,-0.008758669,0.43860883,-1.4620825,1.9998387,-2.1085556,-1.5689262,2.4135683,-0.11212787,0.10507595,-0.11687809,-0.008418424,0.020763364,-0.10328214,-0.019153614,0.36391866,-9.5385,0.80456203,47.679718,-1.1391602,-1.8125955,-3.2976508,-0.45632115,0.3129757,-0.22849053,27.8125,29.0,28.0625,31.75,33.8125,34.625
0.17405245,-0.6861967,-2.6445906,-1.7286601,-0.03889961,0.0068126763,-0.12966564,-0.37999177,-0.3270302,0.06003714,3.0766551,-0.6246716,-0.0003545246,-0.08256511,0.013907694,-0.00066206645,-0.02666881,0.0064196424,-0.01397118,0.43836844,-1.4618292,1.9996222,-2.1085923,-1.5689262,2.4134018,-0.11332472,0.10997723,-0.117919505,-0.009108542,0.021296892,-0.09926496,0.05746084,0.4405331,-9.481039,0.85826975,47.73077,-1.1686268,-1.9710469,-3.2741568,-0.44816083,0.30112422,-0.31808102,27.8125,29.0,28.0625,31.75,33.8125,34.625
0.17605248,-0.4196288,-2.147025,-1.8165493,-0.042881995,0.016438264,-0.13255456,-0.3801781,-0.32700086,0.06006971,3.0765605,-0.6246893,-0.00041472365,-0.08361533,0.013876068,-4.4830863e-06,-0.028581169,0.0075054937,-0.013657372,0.43811625,-1.4616498,1.9993466,-2.1085799,-1.5688776,2.413173,-0.114988714,0.10972096,-0.11906946,-0.0094880015,0.022580352,-0.1012402,0.11492168,0.34476507,-9.5385,0.78217715,47.694946,-1.2064333,-1.8362477,-3.2483244,-0.45022666,0.2992553,-0.33273757,27.8125,29.0,28.0625,31.75,33.8125,34.625
0.17805243,-0.48913562,-1.9234205,-1.5762874,-0.0397539,0.019210964,-0.12714528,-0.38033876,-0.32698074,0.060061134,3.0765202,-0.6246646,-0.0004112037,-0.08554304,0.012338883,0.001119428,-0.03129373,0.00987093,-0.01717908,0.43791205,-1.4614096,1.9991063,-2.1086042,-1.5688409,2.4129586,-0.11472633,0.11171298,-0.12372038,-0.0101248035,0.024022883,-0.09745226,0.1340753,0.30645782,-9.5385,0.7933669,47.701214,-1.1553319,-1.9396183,-3.1163023,-0.4361623,0.31359908,-0.43166238,27.8125,29.0,28.0625,31.75,33.8125,34.625
0.18005228,-0.07041235,-1.4031919,-1.5525817,-0.03874297,0.02827285,-0.14398706,-0.38052225,-0.32695568,0.060089964,3.0764046,-0.624757,-0.00048481068,-0.085086875,0.01441054,-0.0007246012,-0.030132893,0.005208717,-0.020029195,0.43767092,-1.4612294,1.998844,-2.108616,-1.5687927,2.41279,-0.11877174,0.11286817,-0.12098558,-0.009290804,0.024971664,-0.09864681,0.019153614,0.2681506,-9.308656,0.8157518,47.693153,-1.2282919,-1.9467967,-3.3917952,-0.4231504,0.31536567,-0.46256176,27.8125,29.0,28.0625,31.75,33.8125,34.625
0.1820523,-0.5274793,-1.7207795,-1.5217401,-0.019216731,0.021754246,-0.1276877,-0.38070092,-0.32693982,0.060094684,3.0763118,-0.62475425,-0.0005189373,-0.08637436,0.012676522,0.0002238752,-0.031948853,0.0071969456,-0.015049267,0.43744346,-1.4610012,1.9985918,-2.1086638,-1.5687326,2.4125729,-0.11714268,0.114833646,-0.12530465,-0.009492741,0.025781563,-0.10199288,0.11492168,0.21068975,-9.251195,0.83589023,47.694946,-1.1968094,-2.0234795,-3.1273746,-0.4182176,0.30873728,-0.48980963,27.8125,29.0,28.0625,31.75,33.8125,34.625
0.18405235,-0.7042155,-1.6477818,-1.5073795,-0.0014304968,0.0202482,-0.13038106,-0.3808664,-0.32690856,0.060073078,3.0762515,-0.6247962,-0.00043663796,-0.08688156,0.013036821,1.8189072e-05,-0.03272504,0.006699224,-0.00808685,0.43719083,-1.4607375,1.9983524,-2.1086762,-1.5686606,2.4123542,-0.118824884,0.11538167,-0.12539706,-0.009799358,0.026713347,-0.110637456,0.076614454,0.24899697,-9.2703495,0.83365434,47.694946,-1.1908603,-1.9669911,-3.2083397,-0.41845092,0.32145584,-0.44218922,27.8125,29.0,28.0625,31.75,33.8125,34.625
0.18605277,-0.55878365,-1.0831517,-1.4512669,-0.0055046603,0.035457347,-0.13996325,-0.38105637,-0.32688457,0.06008905,3.076207,-0.624707,-0.0005021468,-0.087700084,0.013371458,-0.0014134672,-0.031986542,0.0040721656,-0.0036001133,0.4369624,-1.4605081,1.9980649,-2.1086876,-1.5686363,2.412076,-0.12041653,0.119738474,-0.12694281,-0.009898936,0.027175639,-0.11671231,0.076614454,0.17238252,-9.423578,0.91198283,47.72719,-1.1851315,-2.1796334,-3.2589617,-0.4026447,0.31491834,-0.41554263,27.8125,29.0,28.0625,31.75,33.8125,34.625
0.1880523,-0.68452597,-1.0376908,-1.2806474,-0.008287711,0.045426182,-0.13540204,-0.3812359,-0.32686642,0.060090426,3.0761225,-0.62460804,-0.0005274165,-0.08929806,0.012726486,-7.267355e-05,-0.03361459,0.0064699533,0.005736828,0.43672192,-1.4602808,1.9978241,-2.1087477,-1.5685638,2.4117846,-0.12087316,0.11999823,-0.13040657,-0.009523701,0.027661202,-0.12650187,0.019153614,0.1340753,-9.423578,0.78217715,47.707485,-1.1794202,-1.9510031,-3.2979681,-0.3936448,0.29606107,-0.29741755,27.8125,29.0,28.0625,31.75,33.8125,34.625
0.19005206,-0.90692836,-0.5584486,-1.1400576,-0.009855574,0.05319892,-0.14016983,-0.3813867,-0.326843,0.0600752,3.0760984,-0.6245624,-0.00043835733,-0.08877095,0.01434818,-0.002176737,-0.031873193,0.002034926,0.009036554,0.43650523,-1.4600284,1.9975742,-2.1087239,-1.5685037,2.4115427,-0.12359619,0.122196384,-0.12812309,-0.009225187,0.027975744,-0.1325264,-0.21068975,0.1340753,-9.404425,0.8157518,47.701214,-1.3471982,-2.181075,-3.266392,-0.3920492,0.31394708,-0.23115323,27.8125,29.0,28.0625,31.75,33.8125,34.625
0.19205213,-1.6607201,-0.71685416,-1.1261203,-0.0042030667,0.057748947,-0.13471034,-0.38158834,-0.3268242,0.060116787,3.0759745,-0.624535,-0.00054988294,-0.09072622,0.013838249,-0.0008656853,-0.032630954,0.004164941,0.012781237,0.4362531,-1.4598484,1.9972852,-2.1087472,-1.5684441,2.4112895,-0.12415741,0.12341482,-0.1327634,-0.008029312,0.027785214,-0.13682626,-0.36391866,0.076614454,-9.346964,0.8291774,47.694946,-1.2022521,-2.1338189,-3.1855426,-0.3998524,0.3162282,-0.18357013,27.8125,29.0,28.0625,31.75,33.8125,34.625
0.1940522,-1.5446496,-0.74029136,-1.184132,-0.0059618214,0.08298642,-0.13962837,-0.38173798,-0.32680675,0.06009301,3.0759397,-0.6243945,-0.0004262941,-0.09043989,0.014852916,-0.0015030553,-0.032531004,0.0020070982,0.01106034,0.43602425,-1.4595848,1.9970478,-2.1087468,-1.5683473,2.4109774,-0.12629509,0.123278804,-0.131354,-0.00728692,0.028611768,-0.13724452,-0.45968673,0.0,-9.32781,0.89631605,47.66539,-1.184742,-1.9854188,-3.341804,-0.40231168,0.31361103,-0.1711465,27.8125,29.0,28.0625,31.75,33.8125,34.625
0.19605228,-1.9481505,-1.0180106,-1.2154007,0.00498622,0.09184058,-0.12592052,-0.3819417,-0.3267566,0.060089994,3.0758731,-0.6244801,-0.00046523593,-0.09132354,0.015202536,-0.0020885803,-0.03285861,0.0006418882,0.005806654,0.43573582,-1.4593325,1.9967836,-2.108783,-1.5683235,2.410751,-0.12823234,0.12558968,-0.13261302,-0.0072383056,0.029486833,-0.13392524,-0.68953013,0.095768064,-9.193734,0.84484416,47.716442,-1.1342024,-1.9985149,-3.2989593,-0.41370764,0.31137204,-0.15750608,27.8125,29.0,28.0625,31.75,33.8125,34.625
0.19805232,-2.6093943,-0.82301307,-1.0097847,0.001216415,0.08720344,-0.11688228,-0.38214004,-0.32673353,0.06009354,3.075762,-0.62451977,-0.00048896833,-0.093279056,0.015812486,-0.0012566934,-0.034060434,0.002369321,-0.0022377626,0.43547073,-1.459081,1.996508,-2.1088307,-1.5682515,2.410525,-0.13124673,0.12574911,-0.13468358,-0.0073956028,0.02984599,-0.1288917,-0.8236054,0.019153614,-9.270349,0.8493211,47.698532,-1.0810766,-1.9705169,-3.4052052,-0.4209562,0.30181968,-0.2093844,27.8125,29.0,28.0625,31.75,33.8125,34.625
0.20005241,-2.1766644,-0.5444643,-1.1421007,0.0012400997,0.10888238,-0.122844055,-0.38229612,-0.3267102,0.060083307,3.0757375,-0.6244213,-0.0003916916,-0.09424831,0.016463468,-0.0010595886,-0.03369668,0.0030641153,-0.0077300807,0.43524218,-1.4588293,1.9962443,-2.1087945,-1.5681795,2.4102383,-0.13282424,0.12608726,-0.13555415,-0.007330604,0.029214062,-0.12497753,-0.80445176,-0.095768064,-9.308656,0.8605109,47.70032,-0.9850129,-1.9197307,-3.3070989,-0.40917176,0.30896074,-0.28690863,27.8125,29.0,28.0625,31.75,33.8125,34.625
0.2020525,-2.0663095,-0.2402918,-0.99655294,0.01333046,0.10424775,-0.13308734,-0.38249397,-0.3266657,0.06008484,3.0756712,-0.62440896,-0.00040779237,-0.09580978,0.016540486,-0.0008252226,-0.034077063,0.0036723919,-0.009764004,0.43495372,-1.4585891,1.9959801,-2.1088183,-1.5681313,2.4099507,-0.13431609,0.1280086,-0.13826829,-0.007236845,0.029306836,-0.12443225,-0.7278373,-0.095768064,-9.232041,0.76874626,47.688675,-0.98987913,-1.8522727,-3.3195262,-0.4088655,0.31345683,-0.33536673,27.8125,29.0,28.0625,31.75,33.8125,34.625
0.2040524,-1.7950687,0.0623188,-1.0133978,0.018925661,0.09957428,-0.1373797,-0.38266376,-0.326636,0.06005493,3.0756195,-0.6244757,-0.00029544678,-0.096520536,0.016665556,-0.00020069935,-0.035492297,0.004742899,-0.0110314,0.43470123,-1.4582901,1.9957174,-2.1088188,-1.5680588,2.4097466,-0.13565424,0.12719382,-0.13877475,-0.0074688946,0.03013811,-0.12450344,-0.78529817,-0.095768064,-9.308657,0.78217715,47.711063,-0.99525595,-1.8442868,-3.3130841,-0.39959383,0.29258373,-0.33670568,27.8125,29.0,28.0625,31.75,33.8125,34.625
0.20605236,-2.1984382,-0.3197479,-1.0905064,0.027119545,0.09185026,-0.13353842,-0.38288775,-0.32658872,0.06007561,3.0755446,-0.62449855,-0.0003787816,-0.09704604,0.016188301,-0.0007825436,-0.035812534,0.00414961,-0.010497142,0.43440133,-1.4580493,1.995406,-2.1088312,-1.568035,2.4094708,-0.13550262,0.12977935,-0.14015622,-0.008258496,0.030690439,-0.12488189,-0.80445176,-0.095768064,-9.308657,0.81351066,47.65912,-1.0392544,-1.9674613,-3.3653507,-0.41213733,0.29765707,-0.39425123,27.8125,29.0,28.0625,31.75,33.8125,34.625
0.20805247,-1.7354685,-0.2603059,-1.0729973,0.019138452,0.10631819,-0.13593885,-0.38309625,-0.3265686,0.06008003,3.0754254,-0.62449265,-0.00040784167,-0.09715671,0.015929528,-0.000518072,-0.035946883,0.004963838,-0.010042944,0.43412566,-1.4577862,1.995118,-2.1088908,-1.5679511,2.4092069,-0.1348915,0.12963414,-0.14058332,-0.008462022,0.030483803,-0.124722384,-0.7661445,-0.05746084,-9.232041,0.85826975,47.690468,-1.0828952,-1.7661147,-3.498622,-0.40084326,0.3082851,-0.41029894,27.8125,29.0,28.0625,31.75,33.8125,34.625
0.21005246,-1.893474,-0.54227936,-1.2814903,0.017250538,0.09807632,-0.13159099,-0.3832809,-0.32651913,0.060078748,3.0753973,-0.6245227,-0.0003593889,-0.0988466,0.016911682,0.00014711614,-0.036040585,0.0056842603,-0.0062805205,0.4338483,-1.4575347,1.994831,-2.1088426,-1.5679153,2.408952,-0.13798651,0.1299406,-0.1427507,-0.007262477,0.0302831,-0.13157952,-0.4213795,-0.095768064,-9.308657,0.7709874,47.672558,-0.9513047,-1.7292573,-3.3354118,-0.39809215,0.31385815,-0.3669096,27.8125,29.0,28.0625,31.75,33.8125,34.625
0.21205164,-1.209877,-0.45082822,-1.5244882,-7.9821824e-05,0.09611262,-0.14326619,-0.3834916,-0.32647866,0.060076356,3.0753036,-0.6245577,-0.00037967425,-0.10043063,0.016356668,0.00062336813,-0.037069626,0.0061881035,-0.0018797123,0.4335487,-1.45727,1.9945539,-2.1088903,-1.5678548,2.4086864,-0.1387365,0.13230728,-0.14664885,-0.0065922537,0.031024141,-0.13672562,-0.30645782,-0.019153614,-9.423578,0.8224646,47.679718,-1.2571038,-1.7792207,-3.342249,-0.41386366,0.3224758,-0.3343476,27.8125,29.0,28.0625,31.75,33.8125,34.625
0.21405172,-0.8265743,-0.82377857,-1.614346,-0.014741184,0.072892666,-0.14270361,-0.38368076,-0.3264362,0.060054153,3.0752697,-0.62452817,-0.00033456367,-0.10039855,0.016454024,-0.00020271383,-0.03750332,0.003909041,0.005022007,0.43327224,-1.4569819,1.9942907,-2.1089146,-1.5678061,2.408396,-0.13972825,0.13408843,-0.14684695,-0.006257008,0.032398626,-0.14461784,-0.24899697,0.038307227,-9.461885,0.80679786,47.664497,-1.1344137,-1.738228,-3.3601763,-0.41828716,0.3250016,-0.2818895,27.8125,29.0,28.0625,31.75,33.8125,34.625
0.21605173,-0.5176766,-1.101117,-1.8420185,-0.021196792,0.04710074,-0.13722533,-0.3839084,-0.32640684,0.060072165,3.0751836,-0.6244482,-0.00035909135,-0.1017294,0.016737834,0.00076536834,-0.03819766,0.006292708,0.012004304,0.4329717,-1.4567066,1.993944,-2.1089146,-1.5677346,2.4080567,-0.14109144,0.13341892,-0.14827949,-0.006565184,0.03206062,-0.15296072,-0.19153613,0.19153613,-9.519346,0.92093146,47.716442,-1.1530676,-1.7380098,-3.3290725,-0.42280522,0.3109984,-0.15907896,27.8125,29.0,28.0625,31.75,33.8125,34.625
0.21805201,-0.46881482,-1.7010963,-1.9032906,-0.024845844,0.0307296,-0.13400804,-0.384098,-0.326369,0.06006136,3.0751293,-0.62439954,-0.00033196504,-0.10249126,0.016638683,-0.00026315142,-0.03881239,0.00414069,0.012558613,0.4326955,-1.4564418,1.9936804,-2.1089385,-1.5676736,2.4077573,-0.14246838,0.13701396,-0.14988595,-0.006839365,0.033531018,-0.15488848,-0.19153613,0.21068975,-9.442732,0.9231726,47.692257,-1.2326621,-1.8766546,-3.372361,-0.41566223,0.29330438,-0.1069997,27.8125,29.0,28.0625,31.75,33.8125,34.625
0.22005215,-0.60424876,-1.822324,-2.3386495,-0.023277193,0.020415206,-0.12986073,-0.38431638,-0.3263207,0.060061585,3.0750625,-0.62446344,-0.00031676496,-0.101945326,0.016470702,-0.0013131653,-0.038711477,0.0021389031,0.010899465,0.4323837,-1.456154,1.9933575,-2.108926,-1.5676254,2.407494,-0.14208971,0.13868757,-0.14928597,-0.007243775,0.034283396,-0.15284929,-0.095768064,0.22984336,-9.500193,0.8784135,47.65912,-1.1788977,-1.7639335,-3.3793077,-0.4051664,0.29039603,-0.1038464,27.8125,29.0,28.0625,31.75,33.8125,34.625
0.22205211,-0.39152557,-1.7020842,-2.2675452,-0.03761691,0.020100309,-0.13069811,-0.3845335,-0.32629,0.060066734,3.0749562,-0.62446624,-0.00031620197,-0.10455484,0.017250894,-0.00061334745,-0.039405245,0.0032055043,0.002960137,0.43208206,-1.4558779,1.9930447,-2.10895,-1.5675415,2.407208,-0.14583285,0.14045352,-0.15305382,-0.006490986,0.034464806,-0.14864874,0.019153614,0.2681506,-9.730036,0.8157518,47.667187,-0.97358596,-1.7861744,-3.3659549,-0.42205334,0.28816977,-0.15462197,27.8125,29.0,28.0625,31.75,33.8125,34.625
0.22405207,-0.5411371,-2.2264311,-2.3292234,-0.050210014,0.017498653,-0.126173,-0.38472837,-0.3262609,0.06006427,3.074939,-0.62434834,-0.00033788764,-0.1043418,0.016687293,-0.0016792205,-0.03914814,0.00049246626,-0.0012478252,0.4318426,-1.4556012,1.9927458,-2.1089618,-1.5675172,2.4068973,-0.14511563,0.14368744,-0.15440059,-0.0058127735,0.035362966,-0.14372043,0.076614454,0.45968673,-9.615114,0.88289046,47.705692,-1.1858486,-1.9115119,-3.3890104,-0.44333208,0.274936,-0.22384942,27.8125,29.0,28.0625,31.75,33.8125,34.625
0.226052,-0.9978356,-3.088136,-2.3206403,-0.051727045,0.013685977,-0.1162357,-0.3849389,-0.32621473,0.060059875,3.0748212,-0.6244055,-0.0002407015,-0.10486394,0.017289601,-0.002712213,-0.03986668,-0.0023275642,-0.008446158,0.43149373,-1.455325,1.9924463,-2.1089494,-1.5673965,2.4065993,-0.14781064,0.14608854,-0.1548003,-0.0055441665,0.03719093,-0.13921441,0.11492168,0.47884035,-9.653421,0.83589023,47.72002,-1.1079129,-2.0054996,-3.3951082,-0.42280635,0.2595591,-0.27064735,27.8125,29.0,28.0625,31.75,33.8125,34.625
0.228052,-0.65785563,-2.9399261,-2.5400972,-0.065687016,0.01859681,-0.1179349,-0.38511956,-0.3261719,0.060035225,3.0747828,-0.6244197,-0.00015465874,-0.10618573,0.016839614,-0.0022759708,-0.041880935,-0.0018788826,-0.013719932,0.43121713,-1.4550369,1.9921826,-2.1089494,-1.567336,2.4063365,-0.14911596,0.14748496,-0.1573675,-0.0056227515,0.038818385,-0.13524361,0.19153613,0.5554548,-9.844957,0.800085,47.70838,-1.0675738,-1.9959524,-3.3923686,-0.44808328,0.23748276,-0.32739472,27.8125,29.0,28.0625,31.75,33.8125,34.625
0.23005207,-0.4190553,-3.1145957,-2.319214,-0.078263216,0.012162737,-0.12307501,-0.3853653,-0.326159,0.060070973,3.0746622,-0.6243782,-0.00026582746,-0.106552,0.017004253,-0.002654782,-0.042501654,-0.002919955,-0.017966194,0.4309407,-1.4547609,1.9917997,-2.1089737,-1.5672759,2.40605,-0.150308,0.14863601,-0.15781122,-0.0056381794,0.03983035,-0.13218284,0.11492168,0.61291564,-9.80665,0.8717007,47.70032,-1.0771965,-2.0948665,-3.386095,-0.45244926,0.21586707,-0.40517318,27.8125,29.0,28.0625,31.75,33.8125,34.625
0.23205209,0.20778258,-2.562448,-1.9220815,-0.09688529,0.03146408,-0.13360006,-0.38559267,-0.3261267,0.06006303,3.0745518,-0.62447166,-0.00023523376,-0.10874375,0.016857432,-0.0015315771,-0.044420496,0.0001063947,-0.021273308,0.43062815,-1.4544375,1.991464,-2.108998,-1.567192,2.40581,-0.152138,0.14909922,-0.16067557,-0.006771165,0.040307574,-0.13070185,-0.076614454,0.6512228,-9.691729,0.83589023,47.685097,-0.9998692,-1.9911516,-3.4018795,-0.4487978,0.19350082,-0.49307162,27.8125,29.0,28.0625,31.75,33.8125,34.625
0.23405235,-0.33160356,-2.8203895,-1.8894364,-0.05923622,0.023088695,-0.13182048,-0.3858228,-0.3260915,0.060077347,3.0744364,-0.62452465,-0.00026117807,-0.11021433,0.017042208,-0.0010204138,-0.046232253,0.0017602965,-0.021032456,0.43031543,-1.454162,1.9911278,-2.1090105,-1.567119,2.4055455,-0.15429053,0.14928505,-0.16178323,-0.008081351,0.041280657,-0.13309026,0.019153614,0.40222588,-9.500193,0.8605109,47.696735,-0.9895537,-1.9635828,-3.3593173,-0.4319873,0.185671,-0.5150702,27.8125,29.0,28.0625,31.75,33.8125,34.625
0.23605236,-0.6129702,-1.9648635,-2.0732458,-0.03820237,0.028447114,-0.127814,-0.3860307,-0.3260458,0.06006621,3.0743232,-0.62457216,-0.00019227825,-0.11225017,0.016370038,-0.00039426447,-0.04791319,0.003206259,-0.011852788,0.42997906,-1.4538853,1.9908513,-2.1090343,-1.5670108,2.4052534,-0.15532269,0.15174629,-0.16592343,-0.008356431,0.042234384,-0.14329734,0.076614454,0.4213795,-9.595961,0.9410752,47.72808,-0.92419666,-1.9581636,-3.2821038,-0.42746973,0.14546081,-0.45355824,27.8125,29.0,28.0625,31.75,33.8125,34.625
0.23805243,-1.1498985,-1.5575148,-1.628205,-0.028888067,0.03693643,-0.13287595,-0.3862406,-0.3260286,0.06006361,3.0742247,-0.62452847,-0.00016340236,-0.11318704,0.016355958,-0.0009913752,-0.048508376,0.0019711931,-0.002510983,0.42970243,-1.4535851,1.990529,-2.1090586,-1.5669149,2.4049623,-0.15673152,0.15457033,-0.1677175,-0.008450979,0.043328714,-0.15404338,-0.019153614,0.40222588,-9.500193,0.80456203,47.723602,-0.8296803,-1.9192284,-3.3650522,-0.42580944,0.109062,-0.40691543,27.8125,29.0,28.0625,31.75,33.8125,34.625
0.24005252,-1.3194904,-1.0006175,-1.3112211,-0.016975122,0.06020579,-0.13568924,-0.38647634,-0.32600856,0.0600684,3.0741434,-0.6244871,-0.0001595822,-0.11397656,0.017018778,-0.00058442,-0.049409043,0.0031273111,0.006319204,0.4294141,-1.4532503,1.9901456,-2.109059,-1.5668424,2.4046588,-0.15878676,0.15361072,-0.16747639,-0.009095909,0.0437099,-0.16492659,-0.2873042,0.28730422,-9.308657,0.85155696,47.711063,-0.9970814,-1.7917327,-3.3534446,-0.41455686,0.076964095,-0.27618003,27.8125,29.0,28.0625,31.75,33.8125,34.625
0.24205254,-1.764867,-0.83076715,-1.4072543,-0.0016174548,0.085654244,-0.13198872,-0.38670582,-0.32598367,0.060082573,3.0740135,-0.6243981,-0.00015351071,-0.11360934,0.0159757,-0.00089359324,-0.049062468,0.0028166901,0.015536829,0.42909092,-1.4529741,1.9898113,-2.1090825,-1.5667228,2.4042969,-0.15631731,0.15528107,-0.16866736,-0.00908833,0.043561954,-0.17167078,-0.3256114,0.15322891,-9.385271,0.86945957,47.71554,-1.0838592,-1.9249835,-3.3346155,-0.42061388,0.06133438,-0.18462273,27.8125,29.0,28.0625,31.75,33.8125,34.625
0.24405247,-1.771491,-0.49393362,-1.0550998,-0.0046237544,0.11434934,-0.13447708,-0.38692573,-0.32594302,0.06007255,3.0739095,-0.62443393,-6.9838716e-05,-0.11440904,0.016730364,-0.0001148778,-0.049022116,0.0038391293,0.015572564,0.42875442,-1.4526631,1.989488,-2.109082,-1.5666145,2.4039962,-0.15800016,0.15416904,-0.16949843,-0.008016659,0.043115526,-0.1733897,-0.3256114,0.076614454,-9.423578,0.86945957,47.71286,-1.1044359,-1.798004,-3.4095216,-0.4281701,0.039291043,-0.13072985,27.8125,29.0,28.0625,31.75,33.8125,34.625
0.2460526,-1.7067758,-0.641649,-1.1593701,0.007403756,0.122137226,-0.13545205,-0.38716865,-0.3259144,0.06009802,3.073825,-0.6242886,-0.00015366254,-0.11581296,0.018305218,-0.00037528272,-0.047672722,0.0037003446,0.0049368315,0.4284535,-1.452387,1.989128,-2.1091058,-1.5665554,2.4036157,-0.16124551,0.15533163,-0.17031705,-0.0076757553,0.041948218,-0.16599606,-0.57460845,-0.038307227,-9.308657,0.7911258,47.72002,-1.104121,-1.7933342,-3.312716,-0.43680727,0.030448897,-0.18441738,27.8125,29.0,28.0625,31.75,33.8125,34.625
0.2480519,-1.7444761,0.105633125,-0.8571527,0.00717175,0.114595324,-0.126601,-0.3873918,-0.3258818,0.060089882,3.0737069,-0.62432486,-0.00010059478,-0.11686857,0.017930543,-0.0005726554,-0.045964543,0.0045429566,-0.0005687104,0.42812997,-1.4520744,1.9888042,-2.1091301,-1.5664476,2.40333,-0.1600662,0.15839405,-0.17329767,-0.007803906,0.040030535,-0.15931073,-0.7469909,-0.114921674,-9.5385,0.84708,47.692257,-1.1273792,-1.7078732,-3.2715225,-0.42128137,0.031642165,-0.26105708,27.8125,29.0,28.0625,31.75,33.8125,34.625
0.25005183,-1.7132145,0.8857722,-0.72083807,0.022070976,0.09757202,-0.13412397,-0.3876316,-0.3258601,0.0600754,3.0736268,-0.6242723,-7.196033e-05,-0.119105235,0.018967118,0.0010894048,-0.045223024,0.009461442,-0.0054950602,0.4278292,-1.4517039,1.9884328,-2.109166,-1.5663646,2.403007,-0.16198498,0.15675673,-0.17518911,-0.008420067,0.037313137,-0.15630537,-0.68953013,-0.2681506,-9.193734,0.86945957,47.72629,-1.0414665,-1.6532357,-3.3693538,-0.4079498,0.034479372,-0.321554,27.8125,29.0,28.0625,31.75,33.8125,34.625
0.25205183,-1.3697115,0.72977936,-1.0040786,0.05608681,0.09655101,-0.13302734,-0.38788152,-0.32580054,0.06008649,3.07351,-0.62438244,-8.169483e-05,-0.11999301,0.019247374,0.0006224019,-0.04345965,0.009559038,-0.005804126,0.42745715,-1.4514155,1.9880861,-2.109166,-1.5662931,2.402719,-0.16205648,0.15929523,-0.17698032,-0.0084951315,0.03568242,-0.15606716,-0.61291564,-0.40222588,-9.174581,0.88960326,47.696735,-1.1583903,-1.6306975,-3.3498073,-0.4219218,0.051317774,-0.35871583,27.8125,29.0,28.0625,31.75,33.8125,34.625
0.25405192,-1.37018,0.7270008,-0.8507432,0.06845126,0.098172575,-0.13295549,-0.3881416,-0.32577983,0.060111426,3.0733964,-0.62433994,-0.00018124834,-0.121414,0.019540535,0.0011431777,-0.04324396,0.011402174,-0.006591355,0.42715693,-1.451104,1.9876903,-2.1092021,-1.5662335,2.4024072,-0.16306776,0.16000096,-0.17892918,-0.008815708,0.03474512,-0.15628757,-0.6703765,-0.3256114,-9.155427,0.84708,47.684196,-1.1832254,-1.625169,-3.294323,-0.40713364,0.04503753,-0.36670905,27.8125,29.0,28.0625,31.75,33.8125,34.625
0.256052,-1.9267006,0.63231707,-0.93830955,0.06310399,0.097766995,-0.12744583,-0.38837874,-0.32572928,0.0601057,3.073339,-0.6243068,-0.00015899977,-0.12259215,0.01981804,0.001577956,-0.041869123,0.013010393,-0.0030599171,0.426821,-1.4507802,1.9873422,-2.1092021,-1.5661739,2.4020581,-0.16321036,0.16102107,-0.18120752,-0.00840823,0.03284924,-0.15996318,-0.78529817,-0.2681506,-9.174581,0.88289046,47.691364,-1.2503442,-1.5631785,-3.305604,-0.3966993,0.06509244,-0.37378296,27.8125,29.0,28.0625,31.75,33.8125,34.625
0.2580524,-1.4119433,0.47396326,-1.1260675,0.055434,0.12133068,-0.141114,-0.3886092,-0.32567954,0.060083438,3.0732875,-0.6242732,-9.266841e-05,-0.12313307,0.020788098,0.00060978846,-0.039315056,0.011286224,0.0030581593,0.4264845,-1.450432,1.9870075,-2.1092136,-1.5661024,2.4017074,-0.16431095,0.16374618,-0.18234837,-0.0073057706,0.0312705,-0.16718432,-0.4213795,-0.34476504,-9.2703495,0.8806493,47.71286,-1.2501444,-1.5482838,-3.2773004,-0.41547102,0.09094744,-0.322661,27.8125,29.0,28.0625,31.75,33.8125,34.625
0.26005247,-1.8636713,0.27778518,-1.4140149,0.025824647,0.11230999,-0.1407731,-0.3888363,-0.32563245,0.06007391,3.0732086,-0.62425226,-4.7151432e-05,-0.12345819,0.021687772,-0.0004992747,-0.036973167,0.008841481,0.011415815,0.4261482,-1.4501194,1.9866832,-2.109225,-1.5660189,2.4013684,-0.16543016,0.16662385,-0.18341179,-0.0058544213,0.030193847,-0.17666215,-0.38307226,-0.17238252,-9.442732,0.90750587,47.68062,-1.2768576,-1.6992596,-3.2232008,-0.4190709,0.109382436,-0.22715741,27.8125,29.0,28.0625,31.75,33.8125,34.625
0.26205248,-2.1008801,-0.8028643,-1.3245611,0.0002479042,0.09175188,-0.12248028,-0.38911748,-0.32558453,0.060087625,3.0731206,-0.6242494,-0.000108295084,-0.12399349,0.02188266,-0.0019668385,-0.03442547,0.0060408944,0.01800335,0.42578834,-1.4497702,1.9862651,-2.109237,-1.5659713,2.4010184,-0.1653681,0.1716284,-0.18598741,-0.0046271663,0.029072497,-0.18318577,-0.49799395,-0.038307227,-9.461885,0.8672237,47.683304,-1.3450754,-1.9433862,-3.2475657,-0.4416243,0.14280008,-0.11764835,27.8125,29.0,28.0625,31.75,33.8125,34.625
0.26405248,-2.0509577,-2.3472216,-1.5096083,-0.0029754222,0.07707618,-0.1113349,-0.38932973,-0.3254983,0.06006304,3.073186,-0.6241664,-7.333271e-05,-0.12505019,0.022264685,-0.0015098045,-0.03390922,0.0072762296,0.018959388,0.42546406,-1.449459,1.9859651,-2.1092007,-1.565996,2.400634,-0.16621909,0.17205322,-0.18763748,-0.00429733,0.028093332,-0.18499525,-0.40222588,0.1340753,-9.404425,0.88960326,47.691364,-1.2899885,-1.6753981,-3.3385863,-0.46977663,0.16200617,-0.06189719,27.8125,29.0,28.0625,31.75,33.8125,34.625
0.2660525,-1.5644699,-1.9264578,-1.945461,-0.04059061,0.06558251,-0.12307226,-0.3895876,-0.32546222,0.060067732,3.0731132,-0.62409925,-9.683952e-05,-0.12758091,0.023719488,-0.0004527645,-0.034563225,0.009604642,0.010297309,0.4251383,-1.4491116,1.9855694,-2.1092126,-1.565936,2.400276,-0.17069633,0.17171405,-0.1897413,-0.004242911,0.027727896,-0.1808085,-0.4405331,0.30645782,-9.442732,0.83589023,47.716442,-1.1177983,-1.8358389,-3.29151,-0.4787516,0.191423,-0.09061496,27.8125,29.0,28.0625,31.75,33.8125,34.625
0.26805252,-0.8317791,-2.3859937,-1.9958551,-0.054699387,0.07743027,-0.12223747,-0.38988027,-0.32541028,0.060081773,3.073005,-0.6241396,-0.00014971128,-0.12975118,0.023694923,0.00046622544,-0.03590313,0.011715151,0.00050046237,0.42475384,-1.4487519,1.9851383,-2.1092246,-1.5658759,2.399931,-0.17256221,0.17291746,-0.19318098,-0.004498576,0.028067127,-0.17287248,-0.4405331,0.4213795,-9.595961,0.8224646,47.686886,-1.1901364,-1.773958,-3.2906942,-0.4660749,0.20819655,-0.12530524,27.8125,29.0,28.0625,31.75,33.8125,34.625
0.2700525,-1.3598765,-2.7505212,-1.8824803,-0.076212026,0.06292791,-0.11733777,-0.39010367,-0.3253417,0.06007041,3.0729728,-0.62417656,-7.4812575e-05,-0.12997912,0.024885766,-0.0016935214,-0.033515986,0.008016926,-0.008279034,0.4244053,-1.4484389,1.9848036,-2.1091769,-1.5658277,2.3996098,-0.1744037,0.17713486,-0.19300523,-0.004550864,0.02739509,-0.16593601,-0.4405331,0.53630114,-9.615114,0.8291774,47.62598,-1.025691,-1.8811898,-3.3886797,-0.47859812,0.24084198,-0.23857698,27.8125,29.0,28.0625,31.75,33.8125,34.625
0.27205226,-0.65746146,-2.8846793,-1.9505777,-0.07728816,0.081021756,-0.117229536,-0.39034608,-0.32531372,0.06004907,3.072906,-0.624089,-3.0436773e-05,-0.13021518,0.02561236,-0.0022281439,-0.03342706,0.0071280557,-0.014515203,0.42409265,-1.4480557,1.9844326,-2.109213,-1.5657438,2.3992512,-0.17600998,0.17767756,-0.19237949,-0.004873329,0.027674712,-0.16130523,-0.22984336,0.5554548,-9.481039,0.84484416,47.704796,-0.9426426,-1.7637445,-3.411272,-0.4836974,0.2703997,-0.32164988,27.8125,29.0,28.0625,31.75,33.8125,34.625
0.27405226,-0.8531428,-3.0291913,-1.8814194,-0.07085904,0.056963805,-0.11828569,-0.39064243,-0.32524177,0.06007135,3.072812,-0.6242271,-0.00016910765,-0.13153921,0.025760762,-0.0016243156,-0.03586851,0.008039442,-0.022608355,0.423708,-1.4477321,1.9840254,-2.1092374,-1.5657429,2.3989654,-0.17847511,0.17764348,-0.1936366,-0.005439712,0.029526437,-0.15566951,-0.05746084,0.6512228,-9.5385,0.90750587,47.687782,-1.1304721,-1.7608411,-3.4003053,-0.48281306,0.27284002,-0.42366734,27.8125,29.0,28.0625,31.75,33.8125,34.625
0.27605218,-0.47676107,-2.6541421,-1.6700325,-0.078521945,0.05292035,-0.12468656,-0.39090902,-0.32519296,0.06007157,3.072727,-0.62424594,-0.00021466154,-0.1314284,0.02472128,-0.0020920795,-0.037373964,0.0071083796,-0.020411931,0.42336047,-1.4473841,1.9836439,-2.1092727,-1.5656947,2.3986409,-0.17748442,0.1794552,-0.19448105,-0.006159361,0.031300757,-0.15686859,-0.1340753,0.59376204,-9.461885,0.87617236,47.691364,-1.1049557,-1.801094,-3.506167,-0.4839396,0.28158295,-0.50514436,27.8125,29.0,28.0625,31.75,33.8125,34.625
0.27805257,-0.479161,-2.5394602,-1.6291518,-0.056407936,0.039348785,-0.1232744,-0.39118308,-0.32514897,0.060055878,3.0726228,-0.624316,-0.00021248174,-0.13300586,0.02493506,-0.0021334135,-0.03842685,0.008111827,-0.014166565,0.42299977,-1.4469881,1.9832481,-2.1093218,-1.5656222,2.3983376,-0.1794517,0.18117617,-0.19604419,-0.007603211,0.031888284,-0.1650773,-0.05746084,0.51714754,-9.3661175,0.85155696,47.6421,-1.0586759,-1.8178372,-3.554483,-0.47250193,0.29098764,-0.46146008,27.8125,29.0,28.0625,31.75,33.8125,34.625
0.28005257,-0.47322822,-2.232248,-1.8701128,-0.026869798,0.017368026,-0.12174719,-0.3914545,-0.3250841,0.060061473,3.0725667,-0.6243373,-0.00022707417,-0.13424899,0.025509339,-0.002648888,-0.03942507,0.006993709,-0.0045162966,0.4226268,-1.4466403,1.9828404,-2.1092975,-1.565586,2.3979855,-0.18236102,0.18340154,-0.19736144,-0.00782575,0.033315554,-0.17763178,0.17238252,0.40222588,-9.404425,0.9365982,47.692257,-0.92633414,-1.7800287,-3.6693757,-0.4598365,0.30636886,-0.37044048,27.8125,29.0,28.0625,31.75,33.8125,34.625
0.28205165,-0.14226605,-1.5959977,-1.267064,-0.036699064,0.028199248,-0.1260219,-0.3917327,-0.3250631,0.060062096,3.072414,-0.62430036,-0.00021478368,-0.13627334,0.025255108,-0.0017269742,-0.041291576,0.008992239,0.0053519323,0.4222663,-1.4462564,1.9824208,-2.1093457,-1.5654534,2.3976219,-0.18405756,0.18455611,-0.20076022,-0.0080781635,0.034258507,-0.18918997,0.11492168,0.30645782,-9.3661175,0.83813137,47.701214,-0.9214684,-1.8660675,-3.6236906,-0.45642486,0.30328375,-0.24264345,27.8125,29.0,28.0625,31.75,33.8125,34.625
0.28405178,-0.45989758,-1.3393945,-1.2707436,-0.018207656,0.015800593,-0.11989503,-0.39198032,-0.32501736,0.06004785,3.0723991,-0.6241401,-0.0001896431,-0.13860029,0.02510692,-0.0006162698,-0.042805348,0.012174487,0.010747043,0.42194182,-1.4458848,1.9820374,-2.1093462,-1.5654057,2.3971994,-0.18566833,0.18543665,-0.20411801,-0.009068049,0.034364205,-0.19619332,0.076614454,0.24899697,-9.193734,0.90527004,47.66808,-0.86522484,-1.8212414,-3.4111137,-0.43998632,0.33244672,-0.16365054,27.8125,29.0,28.0625,31.75,33.8125,34.625
0.28605172,-0.22204272,-0.8174187,-1.6711742,0.005689358,0.023118738,-0.12077463,-0.39228675,-0.32497013,0.06006499,3.0722454,-0.62415093,-0.00025524918,-0.13980764,0.025172519,-0.00045356966,-0.04405414,0.011997728,0.0053604436,0.42153317,-1.4455245,1.9816059,-2.1093938,-1.5653089,2.3968177,-0.18743949,0.18690567,-0.20626843,-0.008726726,0.035592716,-0.19256964,-0.05746084,0.21068975,-9.385271,0.92093146,47.70211,-0.8888043,-1.9759793,-3.4633498,-0.4355105,0.34057343,-0.15454358,27.8125,29.0,28.0625,31.75,33.8125,34.625
0.28805158,-0.677173,-1.0133466,-1.1956509,-0.0022805477,0.037794594,-0.12105928,-0.3925404,-0.32491004,0.060039453,3.0722442,-0.62411666,-0.0001772656,-0.14014472,0.025102975,-0.0009910271,-0.04443046,0.009922659,-0.003244952,0.42118514,-1.445117,1.9811991,-2.109357,-1.5652727,2.3964486,-0.18821774,0.18914458,-0.20786782,-0.0076526734,0.03675556,-0.18474,-0.095768064,0.13407528,-9.404425,0.7911258,47.682407,-0.98088026,-1.8839931,-3.3881977,-0.44401926,0.32763928,-0.2259916,27.8125,29.0,28.0625,31.75,33.8125,34.625
0.29005188,-0.7107798,-1.1715516,-1.0736256,-0.015928395,0.05799211,-0.11999363,-0.39283413,-0.32486367,0.06005125,3.0720959,-0.62416357,-0.0002166945,-0.13987695,0.023645021,0.00030407464,-0.046769764,0.0113102915,-0.0058304095,0.42078972,-1.4447582,1.9807786,-2.1093934,-1.5651764,2.396102,-0.18616013,0.1875859,-0.20930973,-0.00687264,0.03833269,-0.18008915,-0.038307227,0.11492168,-9.212888,0.89631605,47.695843,-1.0513012,-1.6870867,-3.2667234,-0.45827,0.3343484,-0.3015544,27.8125,29.0,28.0625,31.75,33.8125,34.625
0.2920517,-0.73741776,-0.8506637,-0.99700475,-0.024677826,0.06692092,-0.12595485,-0.3930963,-0.3248328,0.060041446,3.072018,-0.6241491,-0.00019608921,-0.14182085,0.022911781,0.00085893256,-0.04774721,0.011929891,-0.008871632,0.4204654,-1.4443619,1.9803594,-2.1094043,-1.5651039,2.395779,-0.18669827,0.19073491,-0.21440205,-0.0058844085,0.038968816,-0.17758028,-0.21068975,0.22984336,-9.193734,0.8851263,47.686886,-1.08664,-1.644635,-3.1803617,-0.47352487,0.34390312,-0.35576183,27.8125,29.0,28.0625,31.75,33.8125,34.625
0.29405254,-1.281329,-0.96961343,-1.2350528,-0.01179443,0.072178684,-0.13253783,-0.39339173,-0.32479966,0.060058147,3.0719004,-0.62408525,-0.00021865881,-0.14285514,0.02266285,0.0019661738,-0.049045738,0.013677983,-0.0092253415,0.42009374,-1.443979,1.9798921,-2.1094043,-1.5650076,2.395383,-0.18725732,0.19023168,-0.21655653,-0.0053214203,0.039465163,-0.17778037,-0.2873042,0.114921674,-9.289503,0.83589023,47.666286,-1.2725403,-1.5535035,-3.197476,-0.4649986,0.3436277,-0.37023515,27.8125,29.0,28.0625,31.75,33.8125,34.625
0.29605272,-0.9129289,-0.6290726,-1.6492581,0.006414733,0.07685595,-0.13725924,-0.39365816,-0.3247615,0.06005333,3.0718133,-0.6240645,-0.00019016216,-0.14352256,0.022262711,0.0021687795,-0.05004329,0.013694997,-0.0038678464,0.41974545,-1.4435955,1.979473,-2.1094043,-1.5649236,2.3950331,-0.18753871,0.19139813,-0.21848154,-0.004927798,0.040407076,-0.18341458,-0.22984336,0.038307227,-9.481039,0.84484416,47.71554,-1.2307372,-1.5403422,-3.0873241,-0.48105624,0.34298325,-0.3738507,27.8125,29.0,28.0625,31.75,33.8125,34.625
0.2980517,-1.2557948,-1.0870717,-1.6643257,0.0037197887,0.078827046,-0.13142043,-0.39395732,-0.32468653,0.060054794,3.0717342,-0.62408185,-0.00022344373,-0.14307116,0.022835823,-0.00033659997,-0.048798524,0.008191693,0.0038035668,0.41932523,-1.443222,1.9790534,-2.1094162,-1.564875,2.3946342,-0.18882313,0.19617458,-0.21834955,-0.004230214,0.041575037,-0.19236478,-0.36391866,0.15322891,-9.653421,0.88960326,47.66987,-1.2387395,-1.7695901,-3.2887976,-0.48804677,0.34448034,-0.28591508,27.8125,29.0,28.0625,31.75,33.8125,34.625
0.30005166,-1.6599913,-1.2105129,-1.2880343,-0.029382447,0.10086141,-0.12976405,-0.39423436,-0.32465288,0.060037956,3.071666,-0.6240037,-0.00017992228,-0.14412244,0.022511436,-0.00035721777,-0.048806917,0.008674508,0.015342867,0.41897705,-1.4427902,1.9786099,-2.1094282,-1.5647911,2.3942463,-0.18885148,0.19841295,-0.2208838,-0.004280769,0.04144399,-0.20393069,-0.49799395,0.22984336,-9.461885,0.93436235,47.68062,-1.2950766,-1.8886573,-3.257629,-0.4989429,0.36228383,-0.17844665,27.8125,29.0,28.0625,31.75,33.8125,34.625
0.3020516,-1.4252372,-1.1701891,-1.7754816,-0.03407016,0.11577273,-0.13731183,-0.39451993,-0.3246211,0.06005272,3.07154,-0.62387735,-0.00015218942,-0.14403912,0.022452127,-0.001090849,-0.048482712,0.0073029767,0.0210698,0.41859388,-1.4424181,1.978156,-2.1094162,-1.564659,2.3938007,-0.18870719,0.20017411,-0.22127229,-0.004193804,0.04175356,-0.20950963,-0.4213795,0.24899697,-9.481039,0.80679786,47.651955,-1.3784331,-2.0251627,-3.3267093,-0.4945801,0.36234424,-0.064387195,27.8125,29.0,28.0625,31.75,33.8125,34.625
0.3040518,-1.5644437,-1.778538,-1.5531387,-0.036470853,0.10940408,-0.13089432,-0.39479086,-0.32456306,0.060041804,3.0714784,-0.6238673,-0.00012923888,-0.14375597,0.02349318,-0.002485835,-0.04821595,0.0040521706,0.01568347,0.41822195,-1.4420346,1.9777502,-2.1094162,-1.5645989,2.3934307,-0.1909535,0.20164675,-0.21985704,-0.0039972994,0.042834233,-0.2063663,-0.36391866,0.17238252,-9.576807,0.9231726,47.65643,-1.3477974,-1.8864322,-3.514461,-0.50760734,0.36060965,-0.067499995,27.8125,29.0,28.0625,31.75,33.8125,34.625
0.30605185,-1.6154497,-2.0253253,-1.350374,-0.030689431,0.079963386,-0.115856886,-0.39510047,-0.3245177,0.060048245,3.0713735,-0.62379223,-0.00016230786,-0.14528614,0.023992622,-0.001835915,-0.049219348,0.0053636143,0.0049755676,0.41782576,-1.4416271,1.9772834,-2.10944,-1.5645145,2.3930016,-0.1932084,0.20183858,-0.22161469,-0.0040554632,0.043204002,-0.19790778,-0.36391866,0.21068975,-9.423578,0.86498255,47.657326,-1.3610742,-1.9647576,-3.5470383,-0.5093062,0.36034697,-0.10958488,27.8125,29.0,28.0625,31.75,33.8125,34.625
0.30805188,-1.2069054,-1.3158206,-1.2172458,-0.014823025,0.051965777,-0.13347715,-0.39538988,-0.32446527,0.06002405,3.0712867,-0.62381697,-0.00014473524,-0.14683868,0.024435615,-0.0018532192,-0.0507927,0.0064225206,-0.0053728432,0.4174414,-1.4411951,1.9768642,-2.1094882,-1.564442,2.3926442,-0.19578865,0.20289896,-0.22240768,-0.0059489966,0.044188574,-0.19013418,-0.4213795,0.11492168,-9.3661175,0.9701675,47.64927,-1.1993911,-1.9870435,-3.5787754,-0.5071539,0.3571912,-0.24548927,27.8125,29.0,28.0625,31.75,33.8125,34.625
0.3100519,-0.874631,-1.3515284,-1.3054502,-0.011107307,0.0322126,-0.12333092,-0.3956681,-0.32441214,0.06001901,3.0711856,-0.62385917,-0.000117304866,-0.14910835,0.024356542,-0.0011105762,-0.053864084,0.008340788,-0.016727421,0.4170572,-1.4408119,1.9764451,-2.1094887,-1.5643572,2.3922997,-0.19866295,0.20398477,-0.22504553,-0.007421883,0.046189327,-0.1816443,-0.4213795,0.17238252,-9.270349,0.8806493,47.678825,-1.153068,-1.9702326,-3.517729,-0.48225027,0.3565776,-0.36157748,27.8125,29.0,28.0625,31.75,33.8125,34.625
0.3120518,-0.30707955,-1.5441437,-0.9905027,-0.027343541,0.044953518,-0.13504402,-0.39597437,-0.32436508,0.060007792,3.0710716,-0.62393194,-0.00010503992,-0.1500478,0.023752112,-0.00034816275,-0.0559692,0.009296049,-0.020567747,0.41666168,-1.4403687,1.9759778,-2.1095126,-1.5642728,2.3919647,-0.19914575,0.20430711,-0.22726414,-0.007244284,0.047728293,-0.17827883,-0.34476504,0.21068975,-9.174581,0.8784135,47.666286,-1.2339362,-1.7787622,-3.5063462,-0.4672796,0.32941577,-0.4529038,27.8125,29.0,28.0625,31.75,33.8125,34.625
0.3140517,-0.7581692,-1.7910535,-0.74471015,-0.034216516,0.043022532,-0.14283942,-0.39629567,-0.32432872,0.06003533,3.0708861,-0.6239482,-0.00014109214,-0.1514705,0.02325631,0.00054834876,-0.05939,0.010127636,-0.01993114,0.41624206,-1.439985,1.9754866,-2.109525,-1.5641397,2.3915796,-0.20106265,0.20469593,-0.22981629,-0.007174796,0.05056169,-0.18081658,-0.34476504,0.21068975,-9.11712,0.8537928,47.6636,-1.1884841,-1.8266957,-3.4106662,-0.4707529,0.29796523,-0.50063044,27.8125,29.0,28.0625,31.75,33.8125,34.625
0.31605163,-1.0271065,-1.5684259,-1.1046937,-0.02998317,0.04654639,-0.13862318,-0.39659706,-0.3242701,0.0600152,3.0708208,-0.62398684,-0.00010375839,-0.15355563,0.023883117,0.0007235728,-0.060719393,0.009486231,-0.01186946,0.4158456,-1.4395292,1.9750193,-2.1095245,-1.5640792,2.391216,-0.20476511,0.20711741,-0.23330411,-0.0059568468,0.05210239,-0.19257389,-0.3256114,0.2681506,-9.155427,0.95002913,47.699425,-1.2110586,-1.8248866,-3.3290682,-0.4799134,0.28211176,-0.41806388,27.8125,29.0,28.0625,31.75,33.8125,34.625
0.31805182,-0.91162807,-0.6971707,-0.90997857,-0.044558246,0.06737514,-0.15027548,-0.3968411,-0.32422277,0.05997135,3.0707366,-0.62394184,8.5676686e-05,-0.15474372,0.022733686,0.0010686683,-0.06402406,0.008511401,0.0013824714,0.4154618,-1.4391092,1.9746469,-2.109524,-1.5639337,2.390815,-0.20573649,0.20963861,-0.23725219,-0.004842012,0.05558279,-0.20678715,-0.22984336,0.28730422,-9.251196,0.8314132,47.672558,-1.1541865,-1.7863507,-3.3249369,-0.48338807,0.23954278,-0.28547013,27.8125,29.0,28.0625,31.75,33.8125,34.625
0.32005176,-1.4842024,-2.0026276,-1.0377183,-0.028539507,0.06758688,-0.13443072,-0.39715114,-0.3241893,0.05997573,3.070626,-0.62385523,0.00012963705,-0.15441374,0.022056589,0.0012391272,-0.06546505,0.007563655,0.010195703,0.4150667,-1.4386659,1.9741324,-2.1095002,-1.563814,2.3903804,-0.2051749,0.20977326,-0.23812515,-0.0037213617,0.057345867,-0.21503094,-0.19153613,0.24899697,-9.289502,0.9231726,47.660015,-1.1597604,-1.869757,-3.306117,-0.5143834,0.18630838,-0.16161588,27.8125,29.0,28.0625,31.75,33.8125,34.625
0.32205167,-1.0745623,-1.1706308,-0.7665738,-0.04727442,0.09080515,-0.1410646,-0.3974619,-0.32412347,0.05995255,3.0705676,-0.623729,0.00017180899,-0.15562555,0.022817638,0.0019107035,-0.06499265,0.009034244,0.0072809337,0.41463494,-1.4382107,1.973678,-2.1095235,-1.5637301,2.3898776,-0.20671116,0.20957358,-0.23966809,-0.0030973738,0.056331806,-0.21365413,-0.40222588,0.2681506,-9.136273,0.8537928,47.68599,-1.0504193,-1.7560694,-3.188054,-0.5096257,0.19034874,-0.14327241,27.8125,29.0,28.0625,31.75,33.8125,34.625
0.32405162,-1.501737,-1.0927821,-1.0120952,-0.026678463,0.08565947,-0.13476713,-0.39778778,-0.32408378,0.059981685,3.0703988,-0.6237543,0.0001399163,-0.15659693,0.022675205,0.0018190189,-0.06577992,0.008960045,-0.0006527176,0.41421583,-1.4378151,1.973163,-2.1095111,-1.56361,2.3894966,-0.2075276,0.21142012,-0.24156085,-0.0033032286,0.05708064,-0.20652726,-0.45968673,0.28730422,-9.32781,0.8918391,47.684196,-1.125115,-1.7043512,-3.2146811,-0.5233188,0.15892553,-0.23668611,27.8125,29.0,28.0625,31.75,33.8125,34.625
0.32605183,-1.2519448,-0.99047124,-1.3166717,-0.023952048,0.07951701,-0.13496302,-0.3981011,-0.32406837,0.0599822,3.070202,-0.62375325,0.00016799125,-0.1561726,0.021906255,0.00090272457,-0.067041084,0.0071092495,-0.005336276,0.4138204,-1.4373713,1.9726733,-2.1095598,-1.5634412,2.3891263,-0.20680647,0.21337879,-0.24158138,-0.004042073,0.058984328,-0.20111047,-0.30645782,0.22984336,-9.500193,0.9254084,47.692257,-1.1389245,-1.8419592,-3.3719864,-0.5075272,0.11916494,-0.31435826,27.8125,29.0,28.0625,31.75,33.8125,34.625
0.32805294,-1.3335676,-1.0981841,-1.0886569,-0.026166061,0.07814683,-0.13367599,-0.39840046,-0.32402724,0.059955683,3.0700881,-0.6237688,0.00028233032,-0.15665108,0.021716638,0.0012191976,-0.06592295,0.008706563,-0.007482522,0.41341355,-1.436892,1.9721936,-2.1095598,-1.5633096,2.388744,-0.20555794,0.21390776,-0.24297377,-0.004160346,0.057312306,-0.19772093,-0.36391866,0.17238252,-9.404425,0.91421866,47.681515,-1.2704719,-1.7869937,-3.4577487,-0.5059672,0.09658784,-0.38421315,27.8125,29.0,28.0625,31.75,33.8125,34.625
0.33005276,-0.8643391,-1.1428257,-1.2797589,-0.019765051,0.08293029,-0.14118661,-0.3987095,-0.3239617,0.059940863,3.070022,-0.62373334,0.00031164294,-0.15695165,0.023075487,-0.00081912434,-0.06207267,0.0061739883,-0.0070450716,0.41299412,-1.4364475,1.9717258,-2.1095598,-1.563239,2.3883114,-0.20649166,0.21797924,-0.24299493,-0.0042885435,0.05482753,-0.19909917,-0.30645782,0.095768064,-9.3661175,0.92764956,47.68062,-1.395205,-1.9218946,-3.4488602,-0.5026699,0.0994042,-0.40997988,27.8125,29.0,28.0625,31.75,33.8125,34.625
0.33205238,-0.94398224,-0.6698819,-1.1686355,-0.006714514,0.07063093,-0.14609385,-0.39903942,-0.32391423,0.059942756,3.0699046,-0.6237804,0.00033588367,-0.15751952,0.023489788,-0.0010416274,-0.061513837,0.006071651,-0.0010325013,0.41257456,-1.4359796,1.971188,-2.1095355,-1.5631427,2.3879368,-0.20723853,0.21908414,-0.24387296,-0.004103561,0.054410566,-0.20585768,-0.05746084,0.1340753,-9.404425,0.89631605,47.694946,-1.4850136,-1.9585834,-3.5187194,-0.5095272,0.07990388,-0.36335805,27.8125,29.0,28.0625,31.75,33.8125,34.625
0.33405262,-0.31000277,-0.25111195,-1.3016013,-0.012655258,0.06307408,-0.15037227,-0.3993613,-0.32385796,0.05994519,3.06976,-0.6237236,0.00031684368,-0.15911606,0.025039649,-0.0016889076,-0.05914342,0.0063054604,0.008030812,0.4121308,-1.4355718,1.9707335,-2.1095836,-1.5630234,2.3874767,-0.20976435,0.22154859,-0.24521674,-0.0043446403,0.052233092,-0.21744938,0.076614454,0.11492168,-9.442732,0.8672237,47.69763,-1.3420951,-1.9658079,-3.5108435,-0.497614,0.10734103,-0.24779159,27.8125,29.0,28.0625,31.75,33.8125,34.625
0.3360525,-0.00416244,-0.21358427,-1.12823,-0.0131898215,0.052427404,-0.15326487,-0.3996979,-0.32380593,0.059936177,3.0696542,-0.6236778,0.0003204137,-0.1606674,0.02677305,-0.0021336393,-0.05603983,0.007181168,0.013594316,0.41169924,-1.4350922,1.9702181,-2.109608,-1.5629286,2.3870306,-0.21196036,0.22339694,-0.24637471,-0.004481527,0.049101055,-0.2252172,0.05746084,0.114921674,-9.442732,0.9567419,47.71286,-1.3443274,-2.0798507,-3.5385256,-0.5202506,0.116740555,-0.12775688,27.8125,29.0,28.0625,31.75,33.8125,34.625
0.33805194,-0.044020537,-0.737064,-1.0827615,-0.0045717107,0.048151232,-0.14760756,-0.3999894,-0.32374507,0.059906553,3.06964,-0.6235218,0.00041167962,-0.16357063,0.02677595,-0.0007275413,-0.055575762,0.011580956,0.012368931,0.4113036,-1.4346241,1.9697512,-2.109584,-1.562857,2.3865395,-0.21269704,0.2249916,-0.25140852,-0.00484998,0.046908177,-0.22473511,-0.1340753,0.19153613,-9.308656,0.8873621,47.701214,-1.4093795,-2.030371,-3.3910856,-0.50430655,0.14157446,-0.1088807,27.8125,29.0,28.0625,31.75,33.8125,34.625
0.34005204,-0.82327497,-1.1593621,-1.464865,0.00826776,0.03019432,-0.1359258,-0.40033558,-0.3236964,0.05990389,3.0695076,-0.62353677,0.00038491655,-0.16572219,0.02774652,-0.0003804842,-0.054314394,0.013327647,0.003247447,0.4108713,-1.4341443,1.9692234,-2.1096199,-1.5627621,2.3861341,-0.21478806,0.22677153,-0.25433016,-0.004812473,0.04504434,-0.21770611,-0.076614454,0.15322891,-9.32781,0.8851263,47.70838,-1.2837672,-2.1004744,-3.3906922,-0.4847048,0.18830512,-0.15859617,27.8125,29.0,28.0625,31.75,33.8125,34.625
0.34205183,-0.8053827,-1.0685078,-1.7038006,0.00046841096,0.03573258,-0.14140473,-0.4006396,-0.32365522,0.05990015,3.069381,-0.6234777,0.00043845232,-0.16679272,0.029185653,-0.00068897044,-0.05295757,0.012724748,-0.00926436,0.41046306,-1.4337127,1.9687442,-2.1096194,-1.56263,2.3857057,-0.21742864,0.22791052,-0.25519222,-0.00402291,0.044012994,-0.20783629,-0.076614454,0.17238252,-9.557653,0.8493211,47.690468,-1.1427344,-2.0830874,-3.3194857,-0.49590224,0.18192923,-0.26281178,27.8125,29.0,28.0625,31.75,33.8125,34.625
0.34405202,-0.9461073,-1.4123486,-1.3750359,-0.026374143,0.04838501,-0.14331292,-0.4009746,-0.32358038,0.059907366,3.0693173,-0.6235064,0.00040488827,-0.16796055,0.030297274,3.977718e-05,-0.052392747,0.013735853,-0.0194101,0.41003138,-1.4332699,1.9682182,-2.1095831,-1.5625948,2.3853006,-0.21958812,0.22730418,-0.25654894,-0.0027961547,0.043073427,-0.19985121,-0.26815057,0.2873042,-9.557653,0.8985519,47.679718,-1.0436496,-2.0441658,-3.4019766,-0.49526313,0.21358374,-0.3876457,27.8125,29.0,28.0625,31.75,33.8125,34.625
0.34605214,-1.4439546,-1.774608,-1.4804869,-0.034493703,0.058898244,-0.13512595,-0.40128872,-0.32350683,0.05987432,3.069205,-0.62359864,0.0005243051,-0.16864567,0.030824335,0.0005579015,-0.052277233,0.014410255,-0.023148257,0.40956393,-1.432791,1.9677519,-2.1095827,-1.5624746,2.3849056,-0.2206464,0.2269449,-0.2576326,-0.0019021084,0.042697407,-0.19717334,-0.4405331,0.24899697,-9.557653,0.92093146,47.701214,-1.035159,-2.0472414,-3.4934225,-0.51450884,0.24755684,-0.4855644,27.8125,29.0,28.0625,31.75,33.8125,34.625
0.34805238,-1.7707,-1.444966,-1.7232083,-0.037986424,0.082908735,-0.15174864,-0.40165028,-0.32344532,0.059879214,3.0690627,-0.6236589,0.0004979061,-0.16966037,0.031245865,0.0004142985,-0.051825467,0.014297072,-0.01823051,0.40909675,-1.4323113,1.9672006,-2.1095946,-1.5623788,2.384495,-0.22179818,0.22871724,-0.25952867,-0.0014050173,0.0423897,-0.20324016,-0.34476504,0.17238252,-9.710882,0.9612189,47.688675,-1.0062835,-1.9609853,-3.506485,-0.5306459,0.24131402,-0.5054245,27.8125,29.0,28.0625,31.75,33.8125,34.625
0.35005242,-1.6195194,-1.2682523,-1.4583465,-0.03765746,0.12958209,-0.15139537,-0.40196845,-0.32338616,0.05985203,3.0690002,-0.62358046,0.0005515056,-0.17048319,0.031195516,0.0006711433,-0.052365325,0.014983813,-0.0059597534,0.408677,-1.4318199,1.966709,-2.109607,-1.5622948,2.3840346,-0.2223506,0.22954172,-0.26117983,-0.0012828398,0.04269428,-0.2160617,-0.38307226,0.15322891,-9.691729,0.8717007,47.678825,-1.0831541,-1.9171722,-3.4485886,-0.53622234,0.27333015,-0.39200774,27.8125,29.0,28.0625,31.75,33.8125,34.625
0.35205248,-2.0604255,-0.6473747,-1.4260255,-0.017704478,0.13519156,-0.15404509,-0.40230316,-0.3233606,0.05986433,3.0688596,-0.6234654,0.00051763596,-0.17059368,0.029675284,0.0013005844,-0.053962186,0.016080996,0.009512616,0.40828243,-1.4313639,1.9661702,-2.1096308,-1.5621742,2.383587,-0.22015713,0.23010182,-0.26336658,-0.0011465807,0.043829016,-0.22933155,-0.7086837,0.076614454,-9.672575,0.9410752,47.67345,-1.3003392,-1.9529445,-3.4995852,-0.53581977,0.26758695,-0.22931111,27.8125,29.0,28.0625,31.75,33.8125,34.625
0.35405186,-2.805586,-0.86206794,-1.6442349,0.013863275,0.12655447,-0.13436283,-0.402681,-0.32329488,0.05988497,3.068721,-0.6235282,0.00046863095,-0.16964498,0.029674428,-0.000338124,-0.054051176,0.012302545,0.014198647,0.4078034,-1.4308842,1.9655741,-2.109607,-1.5620898,2.3831656,-0.22021794,0.23238912,-0.26236838,-0.0009241461,0.045476664,-0.23406854,-0.6512228,0.17238252,-9.595961,0.90527004,47.684196,-1.3866413,-1.9841263,-3.5234454,-0.5350169,0.25788248,-0.1552954,27.8125,29.0,28.0625,31.75,33.8125,34.625
0.3560521,-2.0275173,-0.85643166,-1.6992362,0.014999336,0.1401658,-0.13598269,-0.40300503,-0.32323098,0.059870392,3.068668,-0.62340575,0.00052196067,-0.17096376,0.029794833,-0.00037491636,-0.054289512,0.012502715,0.0068809995,0.40737158,-1.4304048,1.9650582,-2.1095827,-1.5620059,2.3826644,-0.2213526,0.23451044,-0.26479816,-0.00090830994,0.045593336,-0.22788307,-0.5554548,0.076614454,-9.710882,0.95226496,47.683304,-1.3456692,-1.9471753,-3.6007745,-0.5436593,0.27596268,-0.18120131,27.8125,29.0,28.0625,31.75,33.8125,34.625
0.3580516,-1.3628496,-1.0103335,-1.7783397,-0.003824641,0.117016315,-0.14018777,-0.40334696,-0.32317466,0.059884407,3.0685563,-0.6233669,0.00048511053,-0.1726207,0.030098498,-0.0008308837,-0.05441185,0.012929347,-0.002116143,0.40693983,-1.4299605,1.9645199,-2.1095712,-1.561922,2.3822234,-0.22295976,0.23746139,-0.2669,-0.0022228397,0.045520376,-0.22048792,-0.30645782,0.11492168,-9.672575,0.91198283,47.67345,-1.3516157,-1.9618025,-3.5861163,-0.52655977,0.28146368,-0.2702553,27.8125,29.0,28.0625,31.75,33.8125,34.625
0.36005157,-1.0311358,-1.3382899,-1.7248572,-0.02873262,0.07144024,-0.14158483,-0.4037183,-0.3231228,0.059888903,3.068441,-0.6233044,0.0003635403,-0.17488706,0.029481191,0.00046641854,-0.055693984,0.016923005,-0.0073572705,0.4065088,-1.4294691,1.9639686,-2.1096432,-1.5618619,2.381769,-0.22312932,0.23844181,-0.2707791,-0.00350943,0.04512156,-0.21540996,-0.36391866,0.19153613,-9.634268,0.900793,47.66987,-1.4634767,-2.0267649,-3.6068873,-0.50985473,0.30876535,-0.35662758,27.8125,29.0,28.0625,31.75,33.8125,34.625
0.362052,-0.5938069,-2.173325,-1.6645182,-0.028239992,0.037321333,-0.13448189,-0.4040621,-0.32303223,0.05986295,3.0683768,-0.6233678,0.00041110805,-0.17576776,0.030023204,6.386763e-05,-0.056202766,0.016001089,-0.009981968,0.40602902,-1.4289654,1.9634532,-2.1096313,-1.5618018,2.3813374,-0.2251372,0.24010095,-0.2718817,-0.0033940047,0.04596526,-0.21478906,-0.36391866,0.15322891,-9.461885,0.93436235,47.66808,-1.3829515,-1.9620912,-3.5049832,-0.49609765,0.3217099,-0.3904981,27.8125,29.0,28.0625,31.75,33.8125,34.625
0.36405215,-0.43419537,-1.8492413,-2.0817575,-0.026453154,0.017320087,-0.13748349,-0.40440962,-0.32296678,0.05986787,3.0682738,-0.6233407,0.0003636074,-0.1767102,0.030740846,-0.0014192446,-0.054017577,0.013874076,-0.003926415,0.4055855,-1.4285089,1.9629263,-2.1096427,-1.5617303,2.3808908,-0.22625896,0.24468686,-0.273906,-0.0030355789,0.04486898,-0.2219667,-0.076614454,0.24899697,-9.481039,0.98807013,47.674347,-1.3353801,-2.182238,-3.5222938,-0.49569365,0.3427124,-0.35621727,27.8125,29.0,28.0625,31.75,33.8125,34.625
0.3660523,-0.2262232,-1.4630686,-1.7069842,-0.022154877,0.014783615,-0.14784531,-0.40481433,-0.3229124,0.05989874,3.068089,-0.6233521,0.00025461288,-0.17804821,0.03115447,-0.00036300777,-0.05508098,0.015701937,0.006648207,0.40509322,-1.428018,1.962304,-2.1096666,-1.5616215,2.3804305,-0.22805057,0.24404344,-0.27582672,-0.0024145863,0.045248758,-0.23432492,0.05746084,0.15322891,-9.595961,0.8112748,47.683304,-1.2163055,-2.0670605,-3.4537506,-0.4909064,0.37043244,-0.25867078,27.8125,29.0,28.0625,31.75,33.8125,34.625
0.36805236,-0.6421259,-1.8347796,-1.4151587,-0.024424087,0.02033806,-0.14149521,-0.4051677,-0.32285157,0.059914466,3.068022,-0.6232182,0.00020903308,-0.17956501,0.03164244,0.00043400662,-0.057952594,0.016384581,0.010667922,0.4046614,-1.4275506,1.9617289,-2.1096313,-1.5615605,2.379924,-0.23149413,0.24370462,-0.27740112,-0.002167191,0.047694784,-0.24177377,-0.076614454,0.22984336,-9.423578,0.8717007,47.686886,-1.0773165,-2.0901709,-3.4595842,-0.49732864,0.36737823,-0.110396504,27.8125,29.0,28.0625,31.75,33.8125,34.625
0.37005243,-0.60310996,-1.9519768,-1.477653,-0.017460283,0.034820568,-0.1311192,-0.4055043,-0.32279092,0.05988028,3.067921,-0.62318003,0.00029479474,-0.18163344,0.032009494,0.0015706789,-0.06173375,0.017244581,0.005101079,0.40420496,-1.4270241,1.961214,-2.1096547,-1.5614399,2.3794572,-0.23560095,0.24359493,-0.2800881,-0.0016224886,0.050839473,-0.24029776,-0.05746084,0.30645782,-9.270349,0.98135734,47.65106,-1.039887,-1.957732,-3.4359913,-0.50176156,0.35761565,-0.09136163,27.8125,29.0,28.0625,31.75,33.8125,34.625
0.37205243,-0.9185247,-1.7068764,-1.6665674,-0.02597947,0.048039716,-0.13811193,-0.40584987,-0.3227129,0.059856076,3.0678318,-0.6231479,0.00034522117,-0.18264972,0.032109935,0.001823747,-0.06400484,0.016841164,-0.006743697,0.40372512,-1.4265208,1.9606994,-2.109666,-1.5613426,2.3789692,-0.23776826,0.24430162,-0.28162754,-0.0013612045,0.053048898,-0.2306079,-0.21068975,0.30645782,-9.32781,0.8560339,47.678825,-0.8952358,-1.8597317,-3.428135,-0.491278,0.36407924,-0.14669666,27.8125,29.0,28.0625,31.75,33.8125,34.625
0.37405235,-1.0253644,-1.8259443,-1.6396424,-0.050905075,0.0706734,-0.14205962,-0.40627974,-0.32265717,0.059923373,3.0676143,-0.62320346,0.00014551483,-0.1835494,0.032644715,0.0026990552,-0.063856944,0.018780021,-0.01810418,0.40322146,-1.4260657,1.9600285,-2.109666,-1.5612472,2.3785295,-0.2385777,0.24331416,-0.2826489,-0.0011247554,0.0521535,-0.2200496,-0.15322891,0.28730422,-9.461885,0.8403672,47.70838,-0.86854035,-1.7338421,-3.4060297,-0.50070095,0.34364125,-0.28570896,27.8125,29.0,28.0625,31.75,33.8125,34.625
0.3760524,-1.334166,-2.2358265,-1.4216855,-0.04043987,0.068234004,-0.1357565,-0.40663874,-0.32259977,0.059925564,3.0674748,-0.6232527,0.00018559094,-0.18451414,0.031411603,0.0029158716,-0.06532963,0.018893717,-0.02529452,0.40275484,-1.4255615,1.959442,-2.1096308,-1.5611266,2.3781123,-0.23764464,0.24595211,-0.2863243,-0.0008002338,0.053434603,-0.21191528,-0.21068975,0.19153613,-9.404425,0.900793,47.709274,-0.99016535,-1.7439606,-3.4700785,-0.502629,0.35685557,-0.41019562,27.8125,29.0,28.0625,31.75,33.8125,34.625
