Tylouw/Master_Thesis_Code/training_data/batch_1/big_rod_t0.3/sample_20_session_1.csv
timestamp[s],tcp_force_x[N],tcp_force_y[N],tcp_force_z[N],tcp_force_rx[Nm?],tcp_force_ry[Nm?],tcp_force_rz[Nm?],tcp_pose_x[m],tcp_pose_y[m],tcp_pose_z[m],tcp_pose_rx[rot_vec_x],tcp_pose_ry[rot_vec_y],tcp_pose_rz[rot_vec_z],tcp_velo_x[m/s],tcp_velo_y[m/s],tcp_velo_z[m/s],tcp_velo_rx[rot_vec_x/s],tcp_velo_ry[rot_vec_y/s],tcp_velo_rz[rot_vec_z/s],q1[rad],q2[rad],q3[rad],q4[rad],q5[rad],q6[rad],qd1[rad/s],qd2[rad/s],qd3[rad/s],qd4[rad/s],qd5[rad/s],qd6[rad/s],tool_acc_x,tool_acc_y,tool_acc_z,current_of_whole_robot[A],voltage_of_whole_robot[V],current_J1[A],current_J2[A],current_J3[A],current_J4[A],current_J5[A],current_J6[A],temp_J1[C],temp_J2[C],temp_J3[C],temp_J4[C],temp_J5[C],temp_J6[C]
1.1710217e-06,-0.44710925,-0.9919307,-0.39435378,-0.04288634,0.03629998,-0.009339039,-0.3728846,-0.32820496,0.05993137,-3.0784435,0.62481993,-0.00022466028,0.0027205115,0.0012898032,-0.0040519168,0.0042851903,-0.00928747,-7.34127e-05,0.4481623,-1.4708607,2.0096085,-2.1077263,-1.5707215,2.4230556,-7.1077964e-05,0.004709221,0.0037129035,0.0018043624,0.00017431201,-0.0,0.076614454,0.22984336,-9.002198,0.7329411,47.704796,-0.2723392,-2.9016085,-2.43962,-0.5199846,0.16018642,-0.016269935,27.5,28.75,27.75,31.375,33.3125,34.0625
0.002054636,-0.9436994,-1.3259829,-0.47833437,-0.02375003,0.02090858,-0.0017885619,-0.37287703,-0.32822052,0.0599406,-3.078482,0.6247889,-0.00025209808,-0.00084078393,-0.000431945,-0.00292779,-0.0010022589,0.0016549665,-6.8668014e-05,0.4481742,-1.4708726,2.009596,-2.1077073,-1.5706857,2.4230433,-6.9972746e-05,0.0048528407,0.0038065498,-0.010585844,0.00017019254,-0.0,0.05746084,0.24899697,-8.90643,0.7463667,47.71554,-0.29719868,-2.8516467,-2.402598,-0.45842516,0.14608683,-0.036018156,27.5,28.75,27.75,31.375,33.3125,34.0625
0.00405384,-0.5228019,-0.67171615,-0.47101304,-0.035553183,0.02919183,-0.007835373,-0.3728965,-0.32820863,0.059940133,-3.0784774,0.6248263,-0.00018431853,-0.0019408567,-0.0009739037,-0.002103294,-0.002815059,0.0053471546,-6.667848e-05,0.44815025,-1.470873,2.0096085,-2.1077554,-1.5707096,2.4230433,-6.8901456e-05,0.0040589203,0.0034674972,-0.01356604,0.00019672237,-0.0,0.019153614,0.1340753,-8.925584,0.7172743,47.728977,-0.2587657,-3.067507,-2.5635667,-0.35668886,0.16008252,-0.01795042,27.5,28.75,27.75,31.375,33.3125,34.0625
0.006053709,-0.05147915,-0.15027803,-0.5917187,-0.022822192,0.023210328,-0.009803831,-0.37288335,-0.32821724,0.059919123,-3.0784817,0.6247888,-0.00025293758,-0.000972191,-0.0005059299,-0.0013490157,-0.0017004386,0.0030489087,-6.700349e-05,0.4481623,-1.4708377,2.0096204,-2.107766,-1.5706857,2.4230313,-6.786233e-05,0.0021630442,0.002604385,-0.008252789,0.00019818393,-0.0,0.0,0.24899697,-9.002198,0.7038487,47.723602,-0.27293476,-2.966989,-2.5065327,-0.38942748,0.14294372,-0.026700625,27.5,28.75,27.75,31.375,33.3125,34.0625
0.008054081,0.07054746,0.4655956,-0.9884721,0.008558723,-0.0043980577,-0.008146094,-0.3728879,-0.32822612,0.059917472,-3.0784914,0.62484914,-0.00030271648,-0.00019764836,-0.00012888724,-0.0011072332,-0.00056025287,0.00071284256,-6.6862995e-05,0.44815025,-1.4708141,2.0095952,-2.107752,-1.5706495,2.4230556,-6.6854234e-05,0.0014553365,0.0019135237,-0.0042547598,0.00019045638,-0.0,-0.019153614,0.11492168,-9.097966,0.7911258,47.729877,-0.26503813,-2.881277,-2.433835,-0.4172959,0.13415298,-0.015575877,27.5,28.75,27.75,31.375,33.3125,34.0625
0.01005391,0.0007768247,0.6287293,-1.4163848,0.033448525,-0.015609401,-0.008155066,-0.37291056,-0.32819834,0.059915602,-3.0784416,0.62487745,-0.0002049861,0.000100561934,2.2066888e-05,-0.0011506004,9.386718e-05,-0.0006230073,-7.4734155e-05,0.44812617,-1.4708141,2.0096076,-2.1077878,-1.5707215,2.4230556,-7.455015e-05,0.0016444315,0.0013896336,-0.0024325645,0.00018276303,-0.0,-0.05746084,0.05746084,-9.308657,0.7038487,47.679718,-0.69769776,-2.3191361,-3.0880675,-0.4479699,0.11468814,-0.0755186,27.5,28.75,27.75,31.375,33.3125,34.0625
0.012053579,-0.14090465,-0.104432285,-1.5296856,0.02069958,0.0017968696,-0.008936722,-0.37288496,-0.32820117,0.059891112,-3.078437,0.624838,-0.00038617832,0.0004488895,0.00031689272,-0.0043021524,0.003328949,-0.007336126,-0.00031136794,0.44811407,-1.4707751,2.009607,-2.1077273,-1.5706614,2.4230194,-0.00031281885,0.009195378,5.1356772e-05,-0.0011932488,0.00017563184,-0.0,0.13407528,0.0,-9.500193,0.74413085,47.696735,-0.8151529,-2.473854,-3.2414315,-0.43521178,0.11636045,-0.11163538,27.5,28.75,27.75,31.375,33.3125,34.0625
0.014053461,-0.5443508,-0.61657155,-1.6549664,-0.020993123,0.028239908,-0.013436681,-0.37290126,-0.32818392,0.059885185,-3.078377,0.6249072,-0.00035461746,-0.005476466,0.0016968736,-0.0039645014,0.002983005,-0.00664063,-0.008281442,0.4480994,-1.4707489,2.0095918,-2.1077268,-1.5707096,2.4230556,-0.008301954,0.0164742,-0.0089132795,-0.0002841431,0.00016903327,-1.2769748e-05,-0.057460837,0.19153613,-9.557653,0.7083204,47.72808,-0.50415075,-2.8956292,-3.0154233,-0.42576534,0.10937515,-0.14752182,27.5,28.75,27.75,31.375,33.3125,34.0625
0.016054112,-1.1892792,-1.6990093,-1.7629833,-0.045001898,0.05742314,-0.011342159,-0.3728466,-0.32818738,0.0598348,-3.0783372,0.6248226,-0.0005952461,-0.005569351,0.002256925,-0.004319268,0.003416141,-0.007524002,-0.009378621,0.44812292,-1.4706889,2.009628,-2.1076672,-1.5706614,2.4230313,-0.009437008,0.016834976,-0.008555816,-1.8552515e-05,0.00016291303,-5.0895225e-05,-0.36391866,0.24899697,-9.615114,0.6859408,47.728977,-0.42405838,-2.6687598,-3.1955514,-0.42310622,0.087711744,-0.17808959,27.5,28.75,27.75,31.375,33.3125,34.0625
0.018053913,-2.2131002,-2.360351,-1.7690849,-0.06933894,0.08498419,-0.0060568945,-0.3728917,-0.32817724,0.059852283,-3.0783224,0.62493074,-0.00048668275,-0.0050787074,0.0019151728,-0.003992545,0.0035161225,-0.007655046,-0.0021100368,0.44808736,-1.4706771,2.0095804,-2.1076906,-1.5706977,2.4230652,-0.008322778,0.016171236,-0.008827766,0.0010775067,0.00012790257,-0.0062054377,-0.38307226,0.30645782,-9.672575,0.7150385,47.71554,-0.6755515,-2.5122573,-3.5214267,-0.4111836,0.06982158,-0.16177197,27.5,28.75,27.75,31.375,33.3125,34.0625
0.020053685,-2.7295878,-2.269056,-1.7400459,-0.06977439,0.10254375,-0.014317216,-0.3728852,-0.328204,0.059838,-3.078357,0.62484044,-0.00057911687,-0.005027741,0.0022828684,-0.004704768,0.0053356057,-0.011421436,0.0002846501,0.44811094,-1.4706162,2.0095432,-2.1076772,-1.5706495,2.423028,-0.008966353,0.018942345,-0.011067919,0.0047292733,0.00012166857,-0.009242984,-0.47884035,0.2681506,-9.615114,0.8157518,47.701214,-0.7380198,-2.4522722,-3.5620737,-0.4551741,0.06789631,-0.13444285,27.5,28.75,27.75,31.375,33.3125,34.0625
0.022054339,-2.212445,-1.4927173,-1.8557607,-0.048279066,0.108218916,-0.021629773,-0.3728524,-0.32817736,0.059793785,-3.0782626,0.62482214,-0.0007466982,-0.0068478677,0.0021607203,-0.00389348,0.0046427473,-0.009924436,-0.0015174567,0.44809872,-1.470568,2.009578,-2.1076171,-1.5706614,2.4230163,-0.0103737125,0.0202427,-0.0144536095,0.0051652784,9.016326e-05,-0.008846073,-0.51714754,0.2681506,-9.787497,0.7083204,47.66808,-0.78373015,-2.4473052,-3.4276392,-0.44990948,0.05468975,-0.1566968,27.5,28.75,27.75,31.375,33.3125,34.0625
0.024053873,-2.3414094,-1.1203966,-1.9000242,-0.03785801,0.087269396,-0.028603623,-0.37288746,-0.32816595,0.05979744,-3.0782511,0.6248207,-0.00070787186,-0.008709067,0.0024142151,-0.0032664516,0.0034354874,-0.0074192425,-0.0033666498,0.44806182,-1.470532,2.0095303,-2.107618,-1.5706857,2.42298,-0.012540335,0.02061063,-0.015909987,0.003472556,8.551135e-05,-0.009162059,-0.6895301,0.30645782,-9.768343,0.7351769,47.711964,-0.75084364,-2.4527357,-3.4977138,-0.43529615,0.0323073,-0.18975157,27.5,28.75,27.75,31.375,33.3125,34.0625
0.026053328,-2.3033428,-1.5865759,-1.6999325,-0.03983408,0.07623863,-0.03267507,-0.37292,-0.32819894,0.059820153,-3.078332,0.62483716,-0.000662806,-0.010030649,0.0024172226,-0.0025663238,0.0025907105,-0.005097213,-0.0037795291,0.4480616,-1.470508,2.0094573,-2.107642,-1.5706376,2.4229798,-0.013578215,0.020565668,-0.017214341,0.0023643349,-0.00016405963,-0.009785426,-0.6703765,0.2681506,-9.864111,0.7329411,47.709274,-0.8187884,-2.3447812,-3.5178733,-0.3909255,0.032119192,-0.20224276,27.5,28.75,27.75,31.375,33.3125,34.0625
0.02805364,-1.8042483,-1.1711465,-1.6255535,-0.0549648,0.08442289,-0.053248923,-0.3729306,-0.3281696,0.059782907,-3.0782418,0.62489605,-0.0007593427,-0.011718807,0.0025989814,-0.0021375578,0.002071476,-0.0037965162,-0.0043489262,0.4480129,-1.4704237,2.009445,-2.1076186,-1.5706614,2.4229794,-0.015386555,0.021845158,-0.019517234,0.001990419,-0.00026733763,-0.011022434,-0.7852981,0.30645782,-9.80665,0.7530795,47.72808,-0.82487035,-2.3011053,-3.5681207,-0.3776725,0.011855492,-0.21164864,27.5,28.75,27.75,31.375,33.3125,34.0625
0.030054275,-2.5508096,-1.3415769,-1.519659,-0.040579744,0.07747572,-0.054601368,-0.3730069,-0.32818705,0.05982181,-3.0783057,0.62494683,-0.00060814107,-0.013174639,0.0027812829,-0.0016950734,0.0020584997,-0.002255048,-0.0035255179,0.4479766,-1.4703875,2.0093243,-2.1076548,-1.5706619,2.4229667,-0.0166036,0.022816224,-0.021514691,0.0016238744,-0.00092844776,-0.0130600855,-0.7469909,0.19153613,-9.749189,0.7911258,47.709274,-0.8011836,-2.2802973,-3.458674,-0.36672378,0.020894662,-0.20857918,27.5,28.75,27.75,31.375,33.3125,34.0625
0.03205418,-2.0803113,-0.5934657,-1.3815036,-0.036200352,0.09265476,-0.06928834,-0.37299553,-0.3281729,0.059791986,-3.0782902,0.62492406,-0.0006799926,-0.013993299,0.0032667266,-0.001601553,0.0031457115,-0.0031773075,-0.0032002646,0.44795218,-1.470363,2.009371,-2.1076777,-1.57065,2.42293,-0.017868433,0.024259275,-0.023802888,0.003773182,-0.0015106599,-0.014647922,-0.6703764,0.095768064,-9.749189,0.75755644,47.699425,-0.7870947,-2.3117447,-3.4519212,-0.3692559,-0.0029839862,-0.19801047,27.5,28.75,27.75,31.375,33.3125,34.0625
0.034054086,-1.5584116,-0.24198382,-1.2529918,-0.007383167,0.09892759,-0.085629426,-0.37305573,-0.32816336,0.059813388,-3.0782678,0.6249957,-0.0006023,-0.014096422,0.0032102568,-0.0014717936,0.0038173737,-0.0047487523,-0.0021318807,0.44790402,-1.4703146,2.0092633,-2.107653,-1.5706862,2.4229295,-0.017906362,0.025346138,-0.025917964,0.0065076374,-0.0014341662,-0.015753811,-0.59376204,0.038307227,-9.557653,0.76874626,47.71554,-0.8865582,-2.311679,-3.4555454,-0.38732213,-0.029070012,-0.19001502,27.5,28.75,27.75,31.375,33.3125,34.0625
0.036053713,-1.4715319,-0.23220596,-1.3022023,0.017285714,0.07513078,-0.09911237,-0.37306824,-0.32817817,0.059791636,-3.0782871,0.6249623,-0.0007334196,-0.01545405,0.0030362601,-0.0007455865,0.0029581424,-0.003194291,-0.0029724634,0.4478797,-1.4702185,2.0092022,-2.107629,-1.5706261,2.4228818,-0.018877674,0.0259355,-0.028218165,0.0064457892,-0.0013390322,-0.015883172,-0.5363012,0.019153614,-9.500193,0.7351769,47.71286,-0.7849117,-2.276363,-3.4192767,-0.3715668,-0.03686673,-0.20842081,27.5,28.75,27.75,31.375,33.3125,34.0625
0.038053382,-1.2539676,0.1735808,-1.3894416,0.017054819,0.05638557,-0.114668585,-0.37312004,-0.32817313,0.05980689,-3.0783024,0.6249849,-0.0006625411,-0.01711217,0.0032296178,-0.00019732823,0.0022982717,-0.0012987225,-0.004350581,0.44783118,-1.4701823,2.0091302,-2.107641,-1.5706381,2.4228456,-0.020589799,0.026660316,-0.030075144,0.0055841138,-0.0015705827,-0.016215274,-0.3256114,0.019153614,-9.500193,0.7351769,47.728977,-0.8075372,-2.2558074,-3.40198,-0.3536703,-0.06421015,-0.20562226,27.5,28.75,27.75,31.375,33.3125,34.0625
0.040053796,-1.5571954,-0.15267229,-1.3673987,0.022911726,0.026710771,-0.12144979,-0.3731567,-0.328169,0.059811622,-3.078289,0.6248863,-0.0005735806,-0.01832272,0.0034230633,7.3862175e-05,0.0032477642,-0.0003759833,-0.0047846246,0.44783103,-1.470134,2.0090692,-2.1076534,-1.5706986,2.4227858,-0.021201339,0.028113287,-0.032394785,0.0060337004,-0.0028296043,-0.016388709,-0.19153613,-0.15322891,-9.423578,0.76874626,47.723602,-0.8402077,-2.254157,-3.427888,-0.32866222,-0.053243667,-0.21221587,27.5,28.75,27.75,31.375,33.3125,34.0625
0.042053662,-0.79333717,0.022124924,-1.2073383,0.0028655294,0.031703424,-0.13920775,-0.37316304,-0.32814014,0.059779115,-3.0782328,0.6250096,-0.000729478,-0.019292632,0.0038618082,7.982538e-05,0.004748509,-0.00083011563,-0.0050882124,0.44774678,-1.4700733,2.0090687,-2.1076162,-1.5706629,2.4227855,-0.022122376,0.029982125,-0.0348332,0.007666804,-0.003989453,-0.017002087,-0.17238252,-0.095768064,-9.423578,0.7418897,47.719128,-0.77784044,-2.1949244,-3.353348,-0.33601958,-0.067346364,-0.20062745,27.5,28.75,27.75,31.375,33.3125,34.0625
0.044053756,-0.3801825,-0.23631144,-1.3465745,-0.00030328202,0.024179636,-0.152808,-0.37323603,-0.32812166,0.05980076,-3.078193,0.6250786,-0.0006265126,-0.020108936,0.0041289655,0.00044311114,0.0052112057,-0.0010130919,-0.005430664,0.4476863,-1.4700133,2.0089476,-2.1075919,-1.5707229,2.4227734,-0.023133963,0.030795073,-0.036937762,0.009323475,-0.004328036,-0.017669745,-0.076614454,-0.038307227,-9.404425,0.7530795,47.70211,-0.8036346,-2.2397194,-3.475548,-0.33597353,-0.070991054,-0.20932335,27.5,28.75,27.75,31.375,33.3125,34.0625
0.04605364,-0.60934925,-0.59806836,-1.3432359,-0.0040951855,0.009724339,-0.1637327,-0.37326413,-0.32813498,0.059811737,-3.0782108,0.6250246,-0.0006127643,-0.020853285,0.0045934226,0.00077872566,0.0054358216,-0.0011474324,-0.0058464454,0.44768578,-1.4699652,2.0088642,-2.1075675,-1.5707229,2.422737,-0.024584588,0.031089798,-0.038333077,0.010642696,-0.004472811,-0.018703835,-0.05746084,0.076614454,-9.423578,0.7665104,47.72719,-0.7136913,-2.1539624,-3.3995962,-0.31626683,-0.080710635,-0.21601677,27.5,28.75,27.75,31.375,33.3125,34.0625
0.048054382,-0.67332447,-0.83635795,-1.4949535,-0.011875794,-0.0021851554,-0.16858159,-0.3733077,-0.32810053,0.05978541,-3.0781434,0.62512624,-0.0006773471,-0.021539275,0.0050315447,0.0006138789,0.0061438456,-0.0020748922,-0.005704666,0.4475894,-1.4698689,2.008816,-2.1075552,-1.5707349,2.4227126,-0.025866523,0.03255814,-0.039838485,0.011822183,-0.0047126845,-0.020125972,0.019153614,0.15322891,-9.423578,0.7284641,47.749577,-0.7313225,-2.1132092,-3.408519,-0.33288544,-0.08833705,-0.19867134,27.5,28.75,27.75,31.375,33.3125,34.0625
0.050053574,-0.7884382,-1.5625542,-1.4506712,-0.011455744,-0.0008363908,-0.1764242,-0.3733498,-0.3281078,0.059819516,-3.078169,0.6250732,-0.00064574264,-0.0227889,0.0051448233,0.0012140058,0.0063579353,-0.00083422754,-0.0053050187,0.44756517,-1.4698448,2.008695,-2.1074831,-1.5707353,2.422652,-0.026715534,0.033301298,-0.042156365,0.012373329,-0.005446747,-0.021371817,0.038307227,0.24899697,-9.442732,0.79560274,47.729877,-0.71401,-1.9872513,-3.4993873,-0.33225024,-0.10818824,-0.17938794,27.5,28.75,27.75,31.375,33.3125,34.0625
0.052053194,-0.14140789,-1.1082711,-1.362009,-0.035384282,0.033514258,-0.19388822,-0.37339643,-0.3280896,0.05979787,-3.0781271,0.62518007,-0.0007172231,-0.023518367,0.0057963366,0.0010220179,0.007947689,-0.0013860235,-0.0052880165,0.44748074,-1.4697365,2.008623,-2.1074712,-1.5707239,2.4226396,-0.027789276,0.034774207,-0.04360081,0.013534083,-0.0066437856,-0.022458903,0.11492168,0.30645782,-9.519346,0.78888994,47.72629,-0.68912446,-2.0578935,-3.4750543,-0.3604222,-0.09756754,-0.18325964,27.5,28.75,27.75,31.375,33.3125,34.0625
0.05405333,-0.4703025,-1.2035817,-1.5218674,-0.043213658,0.037416417,-0.170443,-0.3734367,-0.32805744,0.05978609,-3.078074,0.62514967,-0.0007424121,-0.025012054,0.006479332,0.001379773,0.00968586,0.00074488093,-0.004525646,0.44740847,-1.4696642,2.0085623,-2.107435,-1.5707606,2.4225552,-0.028736895,0.03566723,-0.04532818,0.01320652,-0.009139946,-0.024161674,0.076614454,0.3256114,-9.519346,0.800085,47.701214,-0.6816772,-2.0190282,-3.469686,-0.35642537,-0.09812986,-0.17655411,27.5,28.75,27.75,31.375,33.3125,34.0625
0.056054514,-1.0396945,-1.9624051,-1.685696,-0.03390544,0.036696233,-0.14416537,-0.3734987,-0.3280678,0.05981258,-3.0780945,0.62519187,-0.0006813622,-0.026365094,0.0071337395,0.0020145357,0.011686412,0.0031712651,-0.0037251892,0.44737226,-1.4696041,2.0084302,-2.1074111,-1.5707616,2.4225428,-0.029257217,0.035972804,-0.047171507,0.013431726,-0.011996619,-0.025475502,-0.05746084,0.30645782,-9.500193,0.779936,47.713753,-0.69547594,-2.0026946,-3.4907928,-0.34983665,-0.06708732,-0.16923025,27.5,28.75,27.75,31.375,33.3125,34.0625
0.05805412,-1.1780331,-1.6998699,-1.540034,-0.042872325,0.04929817,-0.14799508,-0.37355474,-0.32804537,0.059812646,-3.078063,0.6252625,-0.0006832975,-0.027860764,0.0076433765,0.0021503347,0.01305815,0.004901822,-0.003333957,0.44728786,-1.4695319,2.0083454,-2.1073873,-1.5707744,2.4225066,-0.030220043,0.037448753,-0.048956107,0.0127788605,-0.013988679,-0.026823515,-0.076614454,0.30645782,-9.5385,0.7978386,47.70659,-0.7422422,-1.8726742,-3.4652166,-0.36253148,-0.04352133,-0.15651011,27.5,28.75,27.75,31.375,33.3125,34.0625
0.060053516,-0.8751574,-1.6331975,-1.5448931,-0.046048228,0.06391685,-0.1514801,-0.37357962,-0.32803586,0.059788447,-3.0780203,0.6251562,-0.00075101486,-0.028923806,0.0076590227,0.0018456166,0.013814923,0.0050103394,-0.0025087197,0.44726378,-1.4694233,2.0082734,-2.1073515,-1.5707988,2.4224217,-0.030715106,0.03996272,-0.050956827,0.012496358,-0.014725893,-0.028139442,-0.095768064,0.28730422,-9.595961,0.7016076,47.672558,-0.70085174,-1.8897946,-3.5055616,-0.36582434,-0.040311005,-0.15143672,27.5,28.75,27.75,31.375,33.3125,34.0625
0.06205347,-0.5474043,-1.2265207,-1.4189702,-0.061054513,0.06639195,-0.16482641,-0.3736505,-0.32801455,0.059824243,-3.0780041,0.6251904,-0.00064614456,-0.02942988,0.0070216744,0.0020453555,0.012296704,0.0048338776,-0.0010609246,0.44719163,-1.4693989,2.0081537,-2.1073039,-1.5708464,2.422373,-0.03094683,0.040968813,-0.05253552,0.012563368,-0.013283899,-0.029821817,-0.11492168,0.34476504,-9.557653,0.78217715,47.73614,-0.74435115,-1.9096227,-3.5120363,-0.3625995,-0.030723713,-0.11470516,27.5,28.75,27.75,31.375,33.3125,34.0625
0.06405339,-0.87486285,-1.3456761,-1.4193419,-0.05349068,0.056226976,-0.15031552,-0.37373888,-0.32801473,0.059834898,-3.0780132,0.62521136,-0.0005902267,-0.030430837,0.0067273644,0.0018601115,0.011742304,0.0046027736,-0.0007883,0.44711947,-1.4692782,2.0079968,-2.1073039,-1.5708579,2.422313,-0.031698074,0.043268967,-0.05457373,0.012266314,-0.012688812,-0.030845819,-0.17238252,0.30645782,-9.461885,0.8023209,47.72808,-0.7532209,-1.9248388,-3.5878742,-0.3494077,-0.03587016,-0.093131475,27.5,28.75,27.75,31.375,33.3125,34.0625
0.06605362,-1.1229671,-1.6272342,-1.2976384,-0.04222019,0.049619213,-0.15214795,-0.37378174,-0.32800564,0.059829194,-3.0779834,0.62524366,-0.000608571,-0.031743683,0.006117293,0.0024432898,0.00972856,0.005585866,-0.0015650229,0.44707114,-1.469194,2.007912,-2.10728,-1.5708693,2.4222887,-0.032675195,0.044389106,-0.057053227,0.01186258,-0.01130508,-0.03104724,-0.28730422,0.30645782,-9.481039,0.7732232,47.7254,-0.69074845,-1.8737833,-3.459981,-0.33863518,-0.06305206,-0.097054765,27.5,28.75,27.75,31.375,33.3125,34.0625
0.06805402,-1.5167508,-1.4858733,-1.4818857,-0.03330156,0.046553507,-0.14382784,-0.37382033,-0.32799882,0.0598279,-3.0779731,0.6252216,-0.0006385613,-0.03246321,0.0056687347,0.0025336219,0.009468719,0.005759547,0.00025112266,0.44702324,-1.4691216,2.007827,-2.1072438,-1.5708693,2.4222283,-0.032585323,0.04601551,-0.059079226,0.011991523,-0.011151907,-0.032772165,-0.30645782,0.28730422,-9.557653,0.7597976,47.70032,-0.8035017,-1.8393011,-3.486734,-0.35093582,-0.06799297,-0.084043585,27.5,28.75,27.75,31.375,33.3125,34.0625
0.070053756,-1.7695167,-0.9213584,-1.0982381,-0.033955842,0.051326677,-0.13950144,-0.37389722,-0.32799095,0.05984195,-3.0779593,0.6252189,-0.000575679,-0.03327199,0.00576436,0.002277278,0.009692326,0.0053881863,-7.1767914e-05,0.4469629,-1.4690251,2.0076835,-2.10722,-1.5709051,2.4221683,-0.0334628,0.047884144,-0.060556307,0.012029604,-0.011195672,-0.033325754,-0.34476504,0.2681506,-9.481039,0.7933669,47.67345,-0.780851,-1.8772649,-3.582724,-0.33962646,-0.10040194,-0.06536059,27.5,28.75,27.75,31.375,33.3125,34.0625
0.07205343,-0.9635189,-0.41666242,-1.0680795,-0.035792008,0.079786256,-0.1579887,-0.37395817,-0.32798594,0.059837732,-3.0779448,0.62519723,-0.00055159844,-0.035528824,0.0051392796,0.0036612502,0.008019489,0.008406351,-0.0017725243,0.4469146,-1.4689169,2.0075743,-2.10722,-1.5709294,2.4221084,-0.03446106,0.048845693,-0.06473994,0.011805225,-0.011000321,-0.032620996,-0.28730422,0.28730422,-9.481039,0.78888994,47.717335,-0.82278305,-1.7803591,-3.3780718,-0.32630596,-0.10278409,-0.08951773,27.5,28.75,27.75,31.375,33.3125,34.0625
0.074053794,-0.8952277,-0.23395477,-0.9729394,-0.031837165,0.085995905,-0.16189712,-0.37401846,-0.3279699,0.05982756,-3.0779164,0.62515354,-0.0005336736,-0.035314985,0.0063050906,0.0018138587,0.011578048,0.005113972,-0.0030983298,0.44685423,-1.468808,2.007478,-2.1072195,-1.5709656,2.4220245,-0.035247102,0.052180927,-0.064351544,0.012593312,-0.012783889,-0.032077033,-0.28730422,0.19153613,-9.519346,0.82022345,47.72271,-0.78554606,-1.8899215,-3.475101,-0.33359247,-0.08183323,-0.08793235,27.5,28.75,27.75,31.375,33.3125,34.0625
0.076053575,-1.3352757,-0.4869031,-1.0290695,-0.029398108,0.075951554,-0.14838828,-0.37411672,-0.32797664,0.05986699,-3.0779715,0.62514514,-0.00045586715,-0.03661591,0.0064165024,0.0021433188,0.012184597,0.006460527,-0.0025189838,0.44677004,-1.4687238,2.0072868,-2.1071837,-1.5709542,2.4219282,-0.035859272,0.05350627,-0.06654861,0.012515571,-0.013916122,-0.03326546,-0.30645782,0.24899697,-9.404425,0.784413,47.70659,-0.8917304,-1.9186944,-3.5036201,-0.3207109,-0.10209138,-0.07770367,27.5,28.75,27.75,31.375,33.3125,34.0625
0.078054115,-1.6467814,-0.5815425,-0.99785745,-0.017797673,0.059516963,-0.1409645,-0.3742256,-0.3279649,0.059899926,-3.077985,0.625302,-0.00036192432,-0.039786175,0.005821066,0.005015549,0.011396608,0.012897903,-0.0025146257,0.44664994,-1.4686401,2.0071166,-2.1071718,-1.5709552,2.4219043,-0.036192313,0.052901883,-0.0725869,0.013017682,-0.015995383,-0.03359618,-0.30645782,0.19153613,-9.308656,0.7396539,47.72808,-0.8556849,-1.745238,-3.3163733,-0.31220764,-0.07116618,-0.08882137,27.5,28.75,27.75,31.375,33.3125,34.0625
0.080053486,-1.4475536,-0.93994117,-1.1442606,-0.0007952301,0.057490136,-0.140944,-0.37424663,-0.32796425,0.059879314,-3.0779514,0.62519944,-0.0004430442,-0.039596118,0.006976405,0.0033740806,0.0129472595,0.0093905,-0.004626366,0.44663736,-1.4685314,2.0070336,-2.107124,-1.5709666,2.421832,-0.038269285,0.055233464,-0.071481645,0.013412985,-0.01587807,-0.033560913,-0.30645782,0.15322891,-9.346964,0.7866488,47.685097,-0.8218079,-1.79148,-3.352228,-0.29667914,-0.052240163,-0.06742264,27.5,28.75,27.75,31.375,33.3125,34.0625
0.08205402,-0.73939943,-0.4109761,-1.171829,-0.020300701,0.06806779,-0.14756557,-0.37434095,-0.32793465,0.05988554,-3.0778978,0.6252654,-0.00039926794,-0.040869154,0.0066505778,0.0026802386,0.013611661,0.008098561,-0.0039315354,0.44652912,-1.46841,2.0068777,-2.1070879,-1.5710152,2.421772,-0.038768437,0.059740663,-0.074941255,0.013813814,-0.01592643,-0.034752116,-0.4213795,0.11492168,-9.404425,0.80456203,47.683304,-0.8663286,-1.9149684,-3.3851078,-0.2888417,-0.04968877,-0.0831034,27.5,28.75,27.75,31.375,33.3125,34.0625
0.084054016,-0.82492006,-0.21127728,-1.0459747,-0.02880862,0.060651697,-0.15187518,-0.37444568,-0.3279598,0.059911106,-3.0779488,0.6252371,-0.00030943225,-0.04177996,0.005894734,0.004038266,0.0121014295,0.009811073,-0.0036755367,0.44648114,-1.4682665,2.0066612,-2.1070874,-1.5710148,2.4217,-0.038582142,0.05924899,-0.07778028,0.0149447555,-0.015304606,-0.03482301,-0.34476504,0.11492168,-9.32781,0.7911258,47.67345,-0.82039464,-1.9451466,-3.2939968,-0.27754417,-0.053675935,-0.07068418,27.5,28.75,27.75,31.375,33.3125,34.0625
0.08605364,-1.2741908,-0.6118541,-1.0122672,-0.019061109,0.054342926,-0.14220807,-0.3745491,-0.32793015,0.059929352,-3.07792,0.62521315,-0.00022149131,-0.04339277,0.006162385,0.004600877,0.01228678,0.011127303,-0.00685804,0.44637275,-1.4681585,2.0064924,-2.1070511,-1.5710753,2.4215806,-0.040032823,0.0604015,-0.08043045,0.015335066,-0.016042452,-0.033088397,-0.4405331,0.22984336,-9.270349,0.77545905,47.72092,-0.862592,-1.7103322,-3.1769834,-0.27734774,-0.029256862,-0.09495464,27.5,28.75,27.75,31.375,33.3125,34.0625
0.08805418,-1.1679156,-0.43162775,-1.1216235,-0.023701878,0.06329983,-0.14605841,-0.37462172,-0.32790276,0.05992214,-3.0778267,0.62532926,-0.00023822718,-0.044028513,0.0067118155,0.0036027909,0.013512477,0.008580854,-0.008492015,0.44628805,-1.4680253,2.0063488,-2.106991,-1.5711235,2.4215803,-0.041626293,0.06367282,-0.08200215,0.016458645,-0.016051002,-0.033045966,-0.3256114,0.24899697,-9.423578,0.779936,47.734352,-0.8310268,-1.9228532,-3.345757,-0.2765044,-0.052033205,-0.11863658,27.5,28.75,27.75,31.375,33.3125,34.0625
0.09005397,-1.2000592,-0.75166047,-1.1538712,-0.026638038,0.06858201,-0.14380433,-0.37470075,-0.32790688,0.059922595,-3.0778491,0.6253147,-0.00023308273,-0.04544956,0.006904631,0.003751341,0.013002421,0.0083811665,-0.009143981,0.4462155,-1.4678931,2.0062025,-2.106991,-1.5711106,2.421496,-0.04362996,0.065522894,-0.08453001,0.017092964,-0.015508893,-0.034397442,-0.24899697,0.24899697,-9.385271,0.75084364,47.741516,-0.7730698,-1.8640525,-3.113925,-0.27587113,-0.033528373,-0.12414619,27.5,28.75,27.75,31.375,33.3125,34.0625
0.09205369,-1.235349,-0.72388244,-0.9680288,-0.04317604,0.069095336,-0.15068601,-0.37479395,-0.32788324,0.05993108,-3.077785,0.6253987,-0.0002053192,-0.045493003,0.007397257,0.0027239881,0.01299577,0.0059520896,-0.010361835,0.44611898,-1.4677606,2.0060236,-2.106931,-1.5711583,2.4214602,-0.045294546,0.067300625,-0.08414114,0.01710763,-0.014454537,-0.034846175,-0.3256114,0.2681506,-9.308657,0.7665104,47.70659,-0.6964346,-1.9021447,-3.2725663,-0.2563127,-0.05689851,-0.121213645,27.5,28.75,27.75,31.375,33.3125,34.0625
0.094053715,-1.5298322,-1.085193,-1.0298209,-0.040564828,0.060767844,-0.14276099,-0.37487778,-0.3278812,0.059950065,-3.0777795,0.6253778,-0.00019491762,-0.046972696,0.006212433,0.004008123,0.012029894,0.007943503,-0.00940002,0.4460473,-1.4676404,2.0058315,-2.1068585,-1.5711702,2.4213762,-0.044400204,0.068667136,-0.08885261,0.018237831,-0.014449773,-0.034910977,-0.2681506,0.21068975,-9.404425,0.7038487,47.677036,-0.7926822,-1.9023261,-3.1495438,-0.24008678,-0.05795501,-0.13335475,27.5,28.75,27.75,31.375,33.3125,34.0625
0.09605354,-1.0301582,-1.0578752,-0.99817884,-0.03994993,0.07256506,-0.14929155,-0.37498626,-0.32787344,0.05997014,-3.077799,0.62536186,-9.954039e-05,-0.046130806,0.0068659186,0.0021422878,0.013979296,0.004165954,-0.009348921,0.44595107,-1.4675196,2.0056527,-2.1068585,-1.5711945,2.4212677,-0.044768967,0.07122923,-0.08746931,0.018539315,-0.014573624,-0.035331942,-0.2681506,0.2681506,-9.308656,0.7351769,47.675243,-0.84331787,-1.9086596,-3.1886485,-0.25458264,-0.03935393,-0.16111827,27.5,28.75,27.75,31.375,33.3125,34.0625
0.09805358,-1.0217203,-1.025404,-1.1294346,-0.042231347,0.058920883,-0.14987354,-0.37506735,-0.32783943,0.05995106,-3.0777128,0.62544084,-0.00018016071,-0.048759703,0.0072873915,0.0031382113,0.01368704,0.0062800357,-0.011722933,0.44583035,-1.4673513,2.0054948,-2.1067865,-1.5712188,2.4212074,-0.04747654,0.072775275,-0.09158636,0.019076401,-0.015232485,-0.035660375,-0.2681506,0.21068975,-9.32781,0.75084364,47.737038,-0.76763284,-1.9050567,-3.229522,-0.24466911,-0.051383786,-0.15173542,27.5,28.75,27.75,31.375,33.3125,34.0625
0.10005446,-0.8566125,-1.1007674,-1.2862426,-0.03536977,0.044498544,-0.1453333,-0.37518203,-0.32783678,0.059973616,-3.0777094,0.6254606,-8.684768e-05,-0.04972871,0.007309917,0.002742809,0.014077574,0.00605347,-0.012421583,0.44574586,-1.467207,2.0052788,-2.1067626,-1.5712546,2.421136,-0.048205163,0.075230956,-0.093307786,0.018713318,-0.015489998,-0.035689037,-0.28730422,0.24899697,-9.346964,0.7665104,47.694054,-0.7614484,-1.9938917,-3.2121277,-0.22848628,-0.054410394,-0.17260545,27.5,28.75,27.75,31.375,33.3125,34.0625
0.1020542,-0.28077808,-0.9734321,-1.0810995,-0.04019981,0.04530086,-0.15185122,-0.375272,-0.32783097,0.05995774,-3.0776756,0.6254721,-0.00011961712,-0.050417647,0.0069268798,0.0028122563,0.013470057,0.006580695,-0.011822879,0.44566196,-1.4670148,2.0050986,-2.1067393,-1.571267,2.4210637,-0.048307486,0.07642243,-0.09465985,0.018132923,-0.015175052,-0.036389064,-0.24899697,0.30645782,-9.3661175,0.7911258,47.737934,-0.7530535,-1.9223298,-3.1236327,-0.1920822,-0.026381668,-0.18793646,27.5,28.75,27.75,31.375,33.3125,34.0625
0.10405377,-0.35429427,-1.4710598,-1.1576732,-0.026689054,0.04438675,-0.14483556,-0.375418,-0.32781997,0.060016476,-3.0776932,0.62562877,0.0001044856,-0.05138473,0.006987477,0.0027289263,0.013948395,0.006694343,-0.011654535,0.44554174,-1.4669305,2.0048711,-2.1067393,-1.5713147,2.421039,-0.048949335,0.07829485,-0.096563615,0.018265411,-0.015654607,-0.037199095,-0.22984336,0.2681506,-9.32781,0.73741806,47.721813,-0.8224596,-1.9533033,-3.2068887,-0.18938322,-0.044480316,-0.18988732,27.5,28.75,27.75,31.375,33.3125,34.0625
0.106053725,-0.5029623,-0.833789,-1.0131485,-0.031507637,0.048449535,-0.14484636,-0.37547144,-0.32780486,0.059969272,-3.0776184,0.62549853,-3.9775823e-05,-0.05219981,0.0069016,0.0028565018,0.013661127,0.006450281,-0.011906031,0.44548145,-1.4667143,2.0047276,-2.1066787,-1.571339,2.4209073,-0.04975612,0.07965621,-0.09853071,0.018964028,-0.015298125,-0.037751917,-0.095768064,0.2681506,-9.404425,0.7709874,47.694946,-0.82409346,-1.9967942,-3.1744852,-0.17968184,-0.04305324,-0.21597002,27.5,28.75,27.75,31.375,33.3125,34.0625
0.10805344,-0.9499213,-0.8761969,-0.9962023,-0.033508886,0.044709124,-0.14364272,-0.3755895,-0.327789,0.059982017,-3.0775926,0.6255316,-1.7392109e-05,-0.052468285,0.0069549796,0.0015045381,0.015008083,0.0035623135,-0.01156465,0.44536126,-1.4665452,2.0044987,-2.1066191,-1.5713629,2.4208112,-0.05009934,0.083721064,-0.100068025,0.019619623,-0.01527183,-0.038435236,-0.15322891,0.21068975,-9.3661175,0.83589023,47.731667,-0.8364172,-1.8632759,-3.115058,-0.16221665,-0.038474806,-0.23963773,27.5,28.75,27.75,31.375,33.3125,34.0625
0.11005402,-1.1689093,-1.1043715,-1.1290548,-0.035405986,0.035202496,-0.13870218,-0.37571314,-0.32775688,0.059990693,-3.0775275,0.6256124,3.764888e-05,-0.05262564,0.006259014,0.0026981418,0.013625843,0.0046876105,-0.00863294,0.44522965,-1.466378,2.0042837,-2.1065705,-1.5714225,2.4207385,-0.049427718,0.08237026,-0.10162318,0.020905644,-0.014511284,-0.040696625,-0.15322891,0.2681506,-9.308657,0.75755644,47.686886,-0.93888277,-2.0640645,-3.2147212,-0.16575974,-0.05767195,-0.23690802,27.5,28.75,27.75,31.375,33.3125,34.0625
0.11205368,-0.99102074,-1.4553763,-1.1156967,-0.028457116,0.043652933,-0.13946088,-0.37579587,-0.32775766,0.060002174,-3.0775132,0.6256095,7.750418e-06,-0.05356687,0.0072374875,0.0024897857,0.014520032,0.003857039,-0.010454294,0.44515675,-1.4662338,2.0040796,-2.1064866,-1.5714229,2.4206657,-0.05179393,0.083563566,-0.10270287,0.021926776,-0.01496213,-0.041239653,-0.21068975,0.3256114,-9.232041,0.8247004,47.705692,-0.92117655,-1.8218873,-3.241518,-0.16314447,-0.06198351,-0.23994038,27.5,28.75,27.75,31.375,33.3125,34.0625
0.11405394,-0.5911246,-0.57554436,-0.97411066,-0.04819169,0.050832152,-0.1503821,-0.37594134,-0.32775095,0.060026377,-3.0775113,0.6257253,0.0001427559,-0.053365313,0.0070758434,0.00036564848,0.016043194,-0.00053804164,-0.011018363,0.44503686,-1.466064,2.0038397,-2.106498,-1.5714582,2.4206185,-0.051640093,0.08891073,-0.10382639,0.022321416,-0.014442916,-0.04052267,-0.19153613,0.30645782,-9.308656,0.7172743,47.72002,-0.9271581,-2.1768434,-3.309938,-0.14137457,-0.057021596,-0.2820268,27.5,28.75,27.75,31.375,33.3125,34.0625
0.1160536,-0.7477351,-0.8561248,-0.8780124,-0.040508736,0.04088683,-0.15144584,-0.3760421,-0.32772872,0.060006272,-3.077435,0.62570727,0.00016838251,-0.053898465,0.006300394,0.001442506,0.016330035,0.002432452,-0.007973144,0.44495353,-1.4658608,2.0036595,-2.1064866,-1.5715312,2.420534,-0.049608745,0.08838865,-0.105697274,0.022156997,-0.015987385,-0.04153176,-0.17238252,0.19153613,-9.3661175,0.800085,47.71286,-1.1483482,-1.875292,-3.3469012,-0.13204783,-0.05494626,-0.2900096,27.5,28.75,27.75,31.375,33.3125,34.0625
0.11805427,-0.33846778,-1.0435055,-0.97922,-0.026500687,0.039672546,-0.1468189,-0.3761668,-0.32772654,0.060030486,-3.0774662,0.6257526,0.00018766994,-0.05446797,0.0069737965,0.00025185928,0.017477006,2.7815133e-05,-0.008394339,0.44482106,-1.465704,2.00342,-2.106438,-1.5715073,2.420426,-0.051362317,0.09151876,-0.106507756,0.022499144,-0.015989019,-0.042863823,-0.076614454,0.19153613,-9.251195,0.77545905,47.71823,-1.0901141,-2.0526845,-3.3091912,-0.11255774,-0.061838657,-0.3056689,27.5,28.75,27.75,31.375,33.3125,34.0625
0.12005404,-0.45846248,-0.35514963,-1.0565652,-0.023269478,0.02655193,-0.14515476,-0.37626258,-0.32772297,0.06002455,-3.077416,0.62574166,0.00020517598,-0.05670918,0.0067011416,0.0016880084,0.016495837,0.0026678925,-0.008103015,0.44476053,-1.465512,2.0032141,-2.1064017,-1.5715555,2.420365,-0.05267825,0.092324816,-0.11087468,0.0232509,-0.016249143,-0.04446773,-0.05746084,0.22984336,-9.270349,0.81351066,47.695843,-1.1709094,-1.9719706,-3.1768064,-0.09358217,-0.043879416,-0.32663754,27.5,28.75,27.75,31.375,33.3125,34.0625
0.1220536,-0.34546205,-0.816862,-1.0175365,-0.0037551457,0.02242415,-0.1392554,-0.37636533,-0.32768032,0.060007814,-3.0773332,0.6256865,0.00016785713,-0.05560596,0.007327423,0.00017741993,0.017318167,-0.0018364785,-0.008726936,0.44462824,-1.4653199,2.0030243,-2.1063297,-1.5716151,2.4202092,-0.053649165,0.09383275,-0.10942212,0.024701055,-0.0150518725,-0.04481718,-0.038307227,0.15322891,-9.32781,0.78888994,47.729877,-1.0906664,-2.006797,-3.380468,-0.071658716,-0.07087545,-0.3219673,27.5,28.75,27.75,31.375,33.3125,34.0625
0.12405375,-0.40364024,-0.6751916,-1.0162017,-0.006948365,0.015415101,-0.14085433,-0.37651235,-0.32769346,0.060038857,-3.077365,0.62575054,0.00025746616,-0.056730274,0.0065223714,0.0011240202,0.017248582,-0.00045290467,-0.010222653,0.4445206,-1.4651277,2.0027359,-2.1063054,-1.5716151,2.4201376,-0.05276802,0.09511505,-0.11332893,0.026049502,-0.015585541,-0.04243819,-0.076614454,0.15322891,-9.289502,0.8023209,47.66271,-1.2317449,-2.0678637,-3.3196425,-0.074594215,-0.08512992,-0.377374,27.5,28.75,27.75,31.375,33.3125,34.0625
0.12605341,-0.5023042,-0.39008382,-1.0335068,-0.02060228,0.023336597,-0.13724455,-0.3766073,-0.3276811,0.06004392,-3.0772932,0.6258512,0.00024540222,-0.056710295,0.0073115625,-4.1999712e-05,0.018421775,-0.003520474,-0.01096177,0.44443607,-1.4649593,2.0025194,-2.106221,-1.5716509,2.4201252,-0.05438919,0.09731389,-0.11334226,0.027133234,-0.015326219,-0.043320213,-0.038307227,0.24899697,-9.251195,0.7777002,47.65912,-1.2444125,-2.0135002,-3.420868,-0.077461116,-0.08679779,-0.41565293,27.5,28.75,27.75,31.375,33.3125,34.0625
0.12805411,-0.4883768,-0.35808966,-0.91894364,-0.025371186,0.03182298,-0.14829843,-0.3767343,-0.3276586,0.06004607,-3.0772784,0.62588644,0.00022845966,-0.057370387,0.007820935,1.4723121e-05,0.01905737,-0.0042690197,-0.0102332365,0.4442797,-1.4647675,2.002292,-2.1061723,-1.5716509,2.419993,-0.05573979,0.09823532,-0.11485608,0.028670903,-0.015581806,-0.045398034,0.0,0.15322891,-9.270349,0.8717007,47.71286,-1.1611676,-1.9198909,-3.4936543,-0.06704078,-0.08853782,-0.42223787,27.5,28.75,27.75,31.375,33.3125,34.0625
0.13005424,-0.77059007,-0.8523428,-1.0480411,-0.022116985,0.027906569,-0.14299144,-0.37684613,-0.32763043,0.060014892,-3.077177,0.62594205,0.00017053807,-0.058933288,0.007977936,0.0010193129,0.019149192,-0.0028084873,-0.009453711,0.44415915,-1.4645157,2.002075,-2.1061246,-1.5716995,2.4199202,-0.056931093,0.098778866,-0.11810402,0.030092157,-0.01630267,-0.04736443,-0.076614454,0.095768064,-9.270349,0.84484416,47.711063,-1.2033746,-1.976688,-3.5191793,-0.06201504,-0.10967979,-0.4377721,27.5,28.75,27.75,31.375,33.3125,34.0625
0.1320536,-0.61763823,-0.79720676,-1.19207,-0.020312611,0.039906044,-0.13934952,-0.37695333,-0.3276369,0.060041565,-3.077177,0.62586427,0.00023045026,-0.058598276,0.008597826,0.0005479881,0.019939406,-0.004404328,-0.008193058,0.444099,-1.4643599,2.0018256,-2.1060522,-1.5717353,2.4198117,-0.057757627,0.09894008,-0.11742962,0.031032009,-0.016328195,-0.049452573,-0.1340753,0.21068975,-9.232041,0.78888994,47.689575,-1.1715553,-1.8038806,-3.4863148,-0.06646933,-0.1013228,-0.42631942,27.5,28.75,27.75,31.375,33.3125,34.0625
0.13405403,-0.3421301,-0.6110428,-1.2049645,-0.013161889,0.048698638,-0.14777,-0.37707168,-0.32759932,0.060019754,-3.077101,0.6259449,0.00013821504,-0.061456326,0.008399939,0.0013797318,0.019885546,-0.0025273087,-0.0077072354,0.44393033,-1.464131,2.0016067,-2.1059802,-1.5717472,2.4197032,-0.059404477,0.10226346,-0.123183966,0.03174165,-0.017104257,-0.05157847,-0.095768064,0.15322891,-9.32781,0.8403672,47.686886,-1.2524022,-2.0340073,-3.3793392,-0.06726643,-0.09282075,-0.4407707,27.5,28.75,27.75,31.375,33.3125,34.0625
0.1360537,-0.6969477,-0.25598368,-1.3285698,-0.01244971,0.053293083,-0.15318558,-0.37719473,-0.32758963,0.060038276,-3.0770607,0.6259158,0.00016841738,-0.061791774,0.008669907,0.0014547176,0.020110335,-0.0028693897,-0.005369544,0.44383416,-1.4639394,2.001331,-2.1058843,-1.5717953,2.4195943,-0.060148694,0.10259544,-0.12392282,0.032546178,-0.017164316,-0.05465982,-0.05746084,0.095768064,-9.404425,0.8291774,47.677036,-1.1692072,-1.8267164,-3.4294212,-0.05518935,-0.1331863,-0.4291014,27.5,28.75,27.75,31.375,33.3125,34.0625
0.13805418,-0.74455297,-0.44297674,-1.3370167,-0.01094556,0.05260155,-0.15010183,-0.37731352,-0.327565,0.060022715,-3.0769913,0.6259187,0.0001520599,-0.06250198,0.008898686,0.0006326221,0.021003777,-0.0048114797,-0.0038076276,0.4437138,-1.4637108,2.0011036,-2.1058366,-1.5718435,2.4194849,-0.06120509,0.10583596,-0.12581404,0.033326272,-0.017146071,-0.057275984,-0.19153613,0.05746084,-9.481039,0.7553206,47.695843,-1.1765527,-1.9115946,-3.3473709,-0.06735617,-0.1325104,-0.42478162,27.5,28.75,27.75,31.375,33.3125,34.0625
0.14005375,-1.4704622,-0.99367523,-1.4807806,-0.012261815,0.052444167,-0.14009313,-0.3774495,-0.32756567,0.060034182,-3.0770059,0.625882,0.00016612622,-0.06385726,0.008910105,0.0013220313,0.020632235,-0.0038725962,-0.0011852831,0.4435934,-1.4634948,2.000828,-2.1057885,-1.571844,2.41934,-0.062363487,0.106690615,-0.12855847,0.034201805,-0.017221514,-0.061055295,-0.28730422,0.19153613,-9.500193,0.7620334,47.694946,-1.1807718,-1.8789873,-3.381837,-0.06287295,-0.115188845,-0.38897485,27.5,28.75,27.75,31.375,33.3125,34.0625
0.14205323,-1.9191784,-1.178965,-1.5449098,-0.029878717,0.06517292,-0.1382771,-0.37755415,-0.3275623,0.060049806,-3.0769846,0.62585634,0.00017364114,-0.064566694,0.008941905,0.0015767353,0.020767443,-0.0036532634,0.002141302,0.44350928,-1.4633268,2.0005877,-2.1057045,-1.5718678,2.4192426,-0.06288861,0.10750554,-0.13021618,0.03489725,-0.017444823,-0.06490541,-0.3256114,0.2681506,-9.500193,0.80679786,47.675243,-1.1980448,-1.7726612,-3.325283,-0.06693773,-0.14227477,-0.37324217,27.5,28.75,27.75,31.375,33.3125,34.0625
0.14405406,-2.3453455,-1.4087725,-1.6055901,-0.042590037,0.078030676,-0.14072807,-0.37769157,-0.32751864,0.060049962,-3.0769062,0.6259156,0.00013095982,-0.06565815,0.009618576,0.0016102707,0.022156004,-0.0039017904,0.004119682,0.4433288,-1.4631106,2.000324,-2.1055963,-1.5719041,2.4191093,-0.0643228,0.109066404,-0.1323525,0.036286857,-0.018603278,-0.06831308,-0.36391866,0.19153613,-9.557653,0.8112748,47.691364,-1.2576003,-1.811438,-3.3264441,-0.08443603,-0.14603704,-0.3249051,27.5,28.75,27.75,31.375,33.3125,34.0625
0.14605384,-1.9452302,-1.2688273,-1.7335682,-0.057354834,0.09868701,-0.14931913,-0.37781996,-0.32748157,0.06003286,-3.0768352,0.62588024,3.1536278e-05,-0.066596225,0.009892417,0.0017576109,0.022106767,-0.0041199946,0.006098458,0.44316036,-1.4628586,2.0000603,-2.105488,-1.5719279,2.4189281,-0.0657289,0.11017777,-0.13413318,0.037122272,-0.01847941,-0.07169555,-0.47884035,0.19153613,-9.691729,0.85155696,47.71286,-1.2457087,-1.7117405,-3.322084,-0.08549157,-0.14777455,-0.29249159,27.5,28.75,27.75,31.375,33.3125,34.0625
0.14805356,-2.8144307,-1.5352799,-1.5593718,-0.052962452,0.08737498,-0.14099936,-0.37792563,-0.32749763,0.060040914,-3.0768406,0.62568796,2.3581795e-05,-0.06783373,0.010032436,0.0016245791,0.022040177,-0.004430058,0.0076698824,0.44311178,-1.4626422,1.9997839,-2.1054041,-1.5719517,2.418759,-0.067203544,0.11240742,-0.13637044,0.03737386,-0.018296063,-0.074740104,-0.5554548,0.2681506,-9.730036,0.800085,47.729877,-1.2745194,-1.7567983,-3.3983388,-0.08982509,-0.1506091,-0.22634667,27.5,28.75,27.75,31.375,33.3125,34.0625
0.15005429,-2.1159236,-1.0781435,-1.5254666,-0.058960307,0.09332484,-0.14845714,-0.37810227,-0.32745516,0.06006622,-3.076791,0.6257748,0.00017733069,-0.06912539,0.010832225,0.0015900348,0.022814963,-0.004007472,0.0071091107,0.4429311,-1.4624504,1.9995087,-2.1053803,-1.5720361,2.4186392,-0.06922336,0.11366022,-0.13769709,0.037389435,-0.019179408,-0.07619713,-0.51714754,0.30645782,-9.653421,0.80679786,47.72002,-1.1758101,-1.6233604,-3.3902383,-0.08499209,-0.17445546,-0.19974634,27.5,28.75,27.75,31.375,33.3125,34.0625
0.15205415,-1.7717919,-0.772448,-1.5289621,-0.055198606,0.09039667,-0.15181135,-0.37823033,-0.32745188,0.06005478,-3.0767417,0.6256872,0.0001329625,-0.07017436,0.010916678,0.000777788,0.023199223,-0.005281908,0.0068086223,0.4428347,-1.4621733,1.9992098,-2.1052964,-1.5720724,2.4184947,-0.07042043,0.11717506,-0.13970353,0.037190583,-0.018992197,-0.077091284,-0.47884035,0.22984336,-9.653421,0.81351066,47.737934,-1.2494655,-1.7291999,-3.466916,-0.080162406,-0.17300077,-0.16414139,27.5,28.75,27.75,31.375,33.3125,34.0625
0.15405351,-1.8608569,-1.4378021,-1.5542953,-0.034830626,0.072641626,-0.13990645,-0.37838897,-0.32744208,0.0600819,-3.0767622,0.6256726,0.00013445485,-0.07029464,0.011758529,-0.0009591359,0.025221502,-0.0087232115,0.005032267,0.44266623,-1.4619566,1.9988865,-2.105201,-1.57206,2.4183147,-0.07182977,0.12084257,-0.13991867,0.037713755,-0.019345984,-0.07672308,-0.61291564,0.1340753,-9.710882,0.78888994,47.661808,-1.1483475,-1.7351493,-3.4380162,-0.078087345,-0.17653269,-0.15616007,27.5,28.75,27.75,31.375,33.3125,34.0625
0.15605426,-1.517222,-0.7078164,-1.456238,-0.035501927,0.07190791,-0.14512117,-0.37855807,-0.3274025,0.06007621,-3.0766962,0.6256986,0.00023007291,-0.07190708,0.011377941,0.00019837568,0.025058016,-0.0068151937,0.003624138,0.44249818,-1.461705,1.9986213,-2.1052005,-1.5721449,2.4181716,-0.07206607,0.12178567,-0.14393021,0.03898262,-0.020021826,-0.075547725,-0.47884035,0.17238252,-9.576807,0.83589023,47.72002,-1.1439669,-1.7809491,-3.3404803,-0.071770325,-0.2027868,-0.14242728,27.5,28.75,27.75,31.375,33.3125,34.0625
0.1580549,-1.5361227,-0.99727833,-1.3908406,-0.007824809,0.061266422,-0.14133416,-0.37866974,-0.32738242,0.06007529,-3.0766227,0.6256676,0.00012785422,-0.073527426,0.0129876295,-0.00060462405,0.026313866,-0.008209626,-0.002731893,0.44237685,-1.4614764,1.9983352,-2.1050441,-1.5721687,2.4180405,-0.0761291,0.124424815,-0.14510912,0.039321776,-0.020568512,-0.07325037,-0.49799395,0.21068975,-9.423578,0.8537928,47.71017,-1.1659164,-1.8147458,-3.382429,-0.08106653,-0.21416287,-0.15907267,27.5,28.75,27.75,31.375,33.3125,34.0625
0.16005346,-1.5150402,-0.27446848,-1.0812528,-0.018020615,0.06016511,-0.13985592,-0.37882298,-0.32737878,0.06007911,-3.0766094,0.6255887,0.00015954026,-0.07384519,0.012259016,6.3024396e-05,0.026503826,-0.00820084,-0.0031730167,0.44225723,-1.4612124,1.9980234,-2.1049955,-1.5722045,2.4178736,-0.07489798,0.12528068,-0.14812411,0.041552722,-0.020745708,-0.07157643,-0.4213795,0.17238252,-9.308657,0.7709874,47.71286,-1.0849074,-1.7578418,-3.3625124,-0.09221397,-0.20400442,-0.1330723,27.5,28.75,27.75,31.375,33.3125,34.0625
0.16205403,-1.2240982,-0.45764974,-0.9264299,-0.013879559,0.06297286,-0.14500332,-0.37898377,-0.32733738,0.06009078,-3.0765257,0.62568915,0.0001854805,-0.07564478,0.012173716,0.00045764074,0.026362898,-0.008549391,-0.009987244,0.44207674,-1.4609839,1.997722,-2.1048987,-1.5722646,2.4177668,-0.076487616,0.12814204,-0.15265845,0.043480597,-0.020473517,-0.06634955,-0.47884035,0.19153613,-9.308656,0.84484416,47.71465,-1.1680697,-1.8196957,-3.1683018,-0.13102463,-0.2193828,-0.21788688,27.5,28.75,27.75,31.375,33.3125,34.0625
0.16405402,-1.3039738,-0.13030554,-0.80026555,-0.016682686,0.053815007,-0.14596897,-0.37916988,-0.327314,0.060091455,-3.0764923,0.62572396,0.00019146089,-0.07744699,0.013946945,-0.0003302906,0.02719623,-0.009551116,-0.016648462,0.44188312,-1.4606837,1.9973749,-2.1048396,-1.5722884,2.4175994,-0.08114009,0.13048235,-0.15340132,0.04314433,-0.020802937,-0.06433886,-0.4405331,0.1340753,-9.232041,0.800085,47.70211,-0.90911186,-1.7805175,-3.3614917,-0.118352644,-0.24123953,-0.24569958,27.5,28.75,27.75,31.375,33.3125,34.0625
0.16605367,-1.2559712,-0.76850134,-1.02908,0.0014162093,0.047736567,-0.14339127,-0.37932202,-0.3273117,0.060114544,-3.0764673,0.6257164,0.0002627667,-0.07645402,0.0135735925,-0.0013254065,0.02905003,-0.01242649,-0.013283002,0.4417759,-1.4604551,1.9970526,-2.1047666,-1.572337,2.417491,-0.07922666,0.13272358,-0.1540319,0.04491928,-0.021249214,-0.065789975,-0.38307226,0.1340753,-9.251195,0.8112748,47.71286,-1.0354962,-1.887489,-3.3169303,-0.13700643,-0.23758414,-0.2429151,27.5,28.75,27.75,31.375,33.3125,34.0625
0.16805407,-1.0203321,-0.502341,-0.8300504,-0.011330459,0.04944609,-0.14387651,-0.37947828,-0.32726163,0.060117364,-3.0763698,0.62577677,0.00024184446,-0.07717189,0.014487445,-0.0026021719,0.03075191,-0.015869426,-0.018017555,0.44158313,-1.4602141,1.9967521,-2.1046464,-1.5723966,2.4173486,-0.08148607,0.13658567,-0.1558075,0.046669766,-0.021321792,-0.06331225,-0.28730422,0.11492168,-9.155427,0.84708,47.72092,-1.0048766,-1.9234415,-3.34579,-0.1487161,-0.23975071,-0.30358544,27.5,28.75,27.75,31.375,33.3125,34.0625
0.17005442,-1.0871037,-0.46910197,-0.74637175,-0.01016944,0.04080776,-0.14373566,-0.3796305,-0.32721576,0.060095627,-3.076258,0.62582946,0.00019112499,-0.07775428,0.015246484,-0.0019539024,0.03175446,-0.016608832,-0.01874229,0.44140258,-1.4599268,1.9964646,-2.104561,-1.5724572,2.4172156,-0.082980864,0.13638294,-0.15786526,0.05002018,-0.021920478,-0.06407867,-0.19153613,0.038307227,-9.11712,0.80679786,47.677036,-0.94762874,-1.8734938,-3.350298,-0.188239,-0.25620764,-0.30161384,27.5,28.75,27.75,31.375,33.3125,34.0625
0.17205428,-0.71571815,0.15516402,-0.53757846,-0.010047831,0.04345017,-0.15239626,-0.3798274,-0.3272065,0.060132813,-3.0762527,0.6260012,0.0002501395,-0.07901988,0.015550914,-0.001902715,0.03208402,-0.016949516,-0.018877162,0.44121012,-1.4596747,1.9960812,-2.1044776,-1.5724572,2.4171312,-0.08451689,0.13837877,-0.16046317,0.051064808,-0.022080341,-0.065478966,-0.21068975,0.038307227,-9.059659,0.7933669,47.70032,-0.8936733,-1.9322462,-3.2998123,-0.22881375,-0.26936466,-0.31073406,27.5,28.75,27.75,31.375,33.3125,34.0625
0.17405461,-0.87981945,-0.001366849,-0.42802462,-0.006679998,0.04111178,-0.14368206,-0.37995628,-0.32718408,0.060120072,-3.076191,0.625912,0.00017816894,-0.08094001,0.015418518,-0.0016480995,0.030531134,-0.014798245,-0.019644987,0.44107762,-1.4594107,1.9957937,-2.1043708,-1.572493,2.4169512,-0.0862538,0.13996772,-0.16230178,0.04869734,-0.021614393,-0.066445634,-0.30645782,0.019153614,-8.983045,0.8247004,47.694946,-0.9296672,-1.8065608,-3.2088647,-0.22684932,-0.2756647,-0.30985734,27.5,28.75,27.75,31.375,33.3125,34.0625
0.17605361,-1.1174755,-0.39918494,-0.41303435,0.0017155163,0.04264741,-0.1340908,-0.38011035,-0.32715422,0.060113348,-3.0761123,0.62597346,0.00013529546,-0.081462234,0.015705911,-0.0011785416,0.030852715,-0.014860477,-0.02012395,0.44090924,-1.459135,1.9954818,-2.104274,-1.5725292,2.4168315,-0.08702954,0.1400095,-0.16384257,0.050384324,-0.021886995,-0.06673996,-0.22984336,0.095768064,-8.925584,0.8627467,47.698532,-0.69224924,-1.7840649,-3.3230786,-0.23156199,-0.28480262,-0.33035493,27.5,28.75,27.75,31.375,33.3125,34.0625
0.17805354,-1.4875126,-0.17155902,-0.49378347,0.0026378338,0.029358806,-0.14510965,-0.3802826,-0.32709655,0.0600912,-3.0759645,0.6260377,7.7126984e-05,-0.08139836,0.01641489,-0.0019545893,0.03294105,-0.017070442,-0.020354968,0.4407051,-1.4588113,1.9951466,-2.1041539,-1.5726136,2.4166868,-0.08761006,0.14176889,-0.16444461,0.05210935,-0.02284365,-0.06708418,-0.2681506,0.11492168,-8.887277,0.90750587,47.68062,-0.8546258,-1.780623,-3.3558307,-0.25743333,-0.30416209,-0.3475377,27.5,28.75,27.75,31.375,33.3125,34.0625
0.18005405,-1.260377,-0.49861497,-0.68895483,0.0044531683,0.038879566,-0.14867038,-0.38045382,-0.32707852,0.06009684,-3.0759273,0.6260894,8.2838626e-05,-0.083613135,0.017861044,-0.0017668009,0.032848656,-0.016915848,-0.023051176,0.4405355,-1.4585351,1.9948114,-2.1040823,-1.5726374,2.4165545,-0.09223093,0.14312129,-0.16653588,0.052659534,-0.022837956,-0.06900738,-0.19153613,0.1340753,-9.002198,0.8605109,47.698532,-0.6191697,-1.7967857,-3.2917633,-0.2923723,-0.30663913,-0.34659445,27.5,28.75,27.75,31.375,33.3125,34.0625
0.18205374,-1.5136036,-0.43756774,-0.777578,-0.014443998,0.041823328,-0.144955,-0.3806219,-0.32702175,0.06008301,-3.0758126,0.62616056,3.2488355e-05,-0.08417851,0.016208839,-0.0012404117,0.03232485,-0.01514289,-0.021870337,0.44032064,-1.4582473,1.9944996,-2.103974,-1.5726975,2.416399,-0.08939936,0.14489691,-0.16963115,0.05214779,-0.02313704,-0.06735169,-0.2681506,0.24899697,-9.136273,0.8157518,47.691364,-0.8282066,-1.6824477,-3.3269544,-0.29474255,-0.3212286,-0.386441,27.5,28.75,27.75,31.375,33.3125,34.0625
0.18405388,-1.1553665,-0.8540785,-0.8878491,-0.023714,0.05709544,-0.14862558,-0.38078678,-0.32699883,0.06009472,-3.075723,0.62616086,6.6063854e-05,-0.08540524,0.016598508,-0.0002716657,0.031765208,-0.012880939,-0.020147942,0.44018796,-1.457972,1.9941405,-2.103855,-1.5727814,2.4162784,-0.09085412,0.14393272,-0.17077295,0.051954906,-0.023608666,-0.07052611,-0.2681506,0.15322891,-9.212888,0.842603,47.672558,-0.7765598,-1.7377846,-3.3202763,-0.31799418,-0.3415989,-0.36676586,27.5,28.75,27.75,31.375,33.3125,34.0625
0.18605419,-1.3421592,-1.1762168,-0.9347778,-0.029688068,0.0601587,-0.1472388,-0.3809409,-0.3269347,0.060074598,-3.075583,0.62632024,-9.315614e-05,-0.08665871,0.01624451,-0.00061607885,0.031755615,-0.012588213,-0.014025128,0.43994796,-1.4576832,1.9938282,-2.1036875,-1.5728058,2.416156,-0.091153264,0.14699043,-0.1732039,0.051037855,-0.023759522,-0.07694217,-0.15322891,0.11492168,-9.193734,0.8224646,47.698532,-0.83699024,-1.7425051,-3.3867311,-0.3118922,-0.35379875,-0.34035754,27.5,28.75,27.75,31.375,33.3125,34.0625
0.18805347,-1.4450887,-1.2195503,-1.3678459,-0.028759247,0.058182534,-0.14288463,-0.38112712,-0.32692453,0.060082417,-3.0755615,0.62629586,-8.7784654e-05,-0.08767581,0.015634397,-0.00021354995,0.030840276,-0.010614218,-0.013168385,0.43978012,-1.4573717,1.9934458,-2.103604,-1.5728296,2.415976,-0.09084602,0.14788453,-0.17483254,0.049589656,-0.023784604,-0.07748991,-0.17238252,0.24899697,-9.32781,0.79560274,47.711964,-0.8860987,-1.6348253,-3.2032733,-0.32688662,-0.34808522,-0.31833655,27.5,28.75,27.75,31.375,33.3125,34.0625
0.19005428,-1.4186159,-1.2633141,-1.4862409,-0.027840301,0.056750394,-0.14542776,-0.3812811,-0.32688165,0.060064103,-3.0754519,0.62619245,-0.00016876994,-0.08934208,0.015043142,0.00013046098,0.030518685,-0.008132141,-0.008202889,0.43961233,-1.4570595,1.9931091,-2.103462,-1.5729021,2.4157581,-0.09063884,0.14998488,-0.17759791,0.04785384,-0.024581777,-0.08224049,-0.15322891,0.30645782,-9.481039,0.7530795,47.696735,-0.97575176,-1.6600962,-3.4344044,-0.3121162,-0.3560089,-0.29433835,27.5,28.75,27.75,31.375,33.3125,34.0625
0.19205384,-1.3387607,-1.3076432,-1.5763067,-0.037713476,0.05960785,-0.14611588,-0.3814439,-0.32685578,0.060055453,-3.0753813,0.62621427,-0.000212547,-0.09019014,0.014808049,0.00035268182,0.030394468,-0.0062611974,-0.003540731,0.43944436,-1.4567596,1.9927744,-2.1033661,-1.5729383,2.4156132,-0.09042961,0.15064232,-0.17854282,0.04638013,-0.025287896,-0.08668858,-0.095768064,0.28730422,-9.519346,0.83589023,47.68062,-1.0339909,-1.6688662,-3.440025,-0.3031328,-0.39049348,-0.23958868,27.5,28.75,27.75,31.375,33.3125,34.0625
0.1940537,-1.0178828,-1.4997572,-1.8294611,-0.050032128,0.05857423,-0.14746478,-0.38164175,-0.32682705,0.060051166,-3.075321,0.6262565,-0.00022627797,-0.09106891,0.014788392,-0.0007270122,0.030998245,-0.006730443,-8.855244e-05,0.4392402,-1.4564228,1.9923915,-2.1032832,-1.5729746,2.4154434,-0.09086642,0.15411314,-0.17956392,0.044595543,-0.025655845,-0.09057387,-0.15322891,0.34476504,-9.595961,0.8493211,47.68062,-1.0268142,-1.8159833,-3.404889,-0.29710394,-0.3872664,-0.18168682,27.5,28.75,27.75,31.375,33.3125,34.0625
0.19605333,-1.1508473,-1.9041973,-1.9786986,-0.06993847,0.058125995,-0.1458436,-0.38182795,-0.32678398,0.060055066,-3.0752437,0.62618136,-0.00016705973,-0.09290474,0.014856401,-0.0015129092,0.032051027,-0.006147046,0.0023660387,0.43905985,-1.4561343,1.9920434,-2.1031997,-1.5730709,2.4152265,-0.091744535,0.15845828,-0.18222173,0.04281043,-0.026878875,-0.09389913,-0.076614454,0.30645782,-9.730036,0.8806493,47.696735,-1.0387623,-1.747797,-3.479024,-0.27464938,-0.384924,-0.1194795,27.5,28.75,27.75,31.375,33.3125,34.0625
0.19805413,-0.80037135,-1.8348509,-2.0845082,-0.08195702,0.051637366,-0.14972572,-0.38201228,-0.3267528,0.060065486,-3.0752,0.6261917,-0.00019145972,-0.094423614,0.015353224,-0.0011215421,0.031882945,-0.0038577686,0.002328586,0.43885535,-1.4558467,1.9916729,-2.1030805,-1.5730952,2.4150343,-0.09339261,0.1587738,-0.18316358,0.041284285,-0.027715612,-0.09550493,-0.019153614,0.2681506,-9.921572,0.84484416,47.74241,-1.0154518,-1.7913342,-3.522254,-0.23230065,-0.39474696,-0.059619233,27.5,28.75,27.75,31.375,33.3125,34.0625
0.20005366,-1.0639925,-1.8288841,-2.1199315,-0.08103077,0.039442103,-0.14371774,-0.3822175,-0.32671663,0.06005118,-3.075131,0.62619674,-0.00020828054,-0.09539888,0.015574893,-0.002073268,0.0329921,-0.0056539234,0.00037602146,0.43863913,-1.4554859,1.9912885,-2.103009,-1.5731434,2.4148304,-0.0944366,0.16270149,-0.18551783,0.041800894,-0.027967136,-0.09459242,-0.019153614,0.30645782,-9.825804,0.947788,47.699425,-1.0439006,-2.0032468,-3.4453006,-0.22963952,-0.390181,-0.05440165,27.5,28.75,27.75,31.375,33.3125,34.0625
0.20205326,-1.1824168,-1.9148569,-2.090849,-0.07156234,0.031642254,-0.14543076,-0.38242078,-0.32669032,0.06004643,-3.0750706,0.6262052,-0.00014306215,-0.09798298,0.014728946,-0.0013873323,0.03211998,-0.0021687644,-0.0024742326,0.43845907,-1.4551494,1.9909176,-2.1029737,-1.5732154,2.4146638,-0.09460759,0.16565384,-0.18995991,0.03976292,-0.028669108,-0.091907196,0.019153614,0.3256114,-9.730036,0.8784135,47.71554,-1.0477452,-1.9868491,-3.538261,-0.19902644,-0.39121777,-0.059083715,27.5,28.75,27.75,31.375,33.3125,34.0625
0.20405383,-0.6169072,-1.2475048,-1.9534243,-0.06587757,0.051527258,-0.14874047,-0.38258976,-0.32664955,0.060024504,-3.0749485,0.6261819,-0.00018561783,-0.09893052,0.014958446,-0.0017943473,0.032586556,-0.00082745973,-0.0061733588,0.43829063,-1.4548134,1.99057,-2.1028664,-1.5732998,2.414497,-0.09514896,0.16711766,-0.19019382,0.037516423,-0.029670937,-0.088742174,-0.05746084,0.3256114,-9.768343,0.8873621,47.684196,-1.0559552,-2.0779543,-3.565466,-0.15311483,-0.4074294,-0.06875156,27.5,28.75,27.75,31.375,33.3125,34.0625
0.20605332,-0.893072,-1.2428415,-2.0437877,-0.043711804,0.038836423,-0.14356378,-0.3827965,-0.32662007,0.060039356,-3.0749104,0.6262146,-0.00012695573,-0.10009547,0.0161204,-0.002045361,0.0337455,-0.0021019555,-0.012106587,0.43808594,-1.4545134,1.9901861,-2.1027944,-1.5733479,2.4143178,-0.09793789,0.16884607,-0.19197139,0.03921185,-0.030174756,-0.08559563,-0.076614454,0.30645782,-9.80665,0.88960326,47.691364,-1.0948532,-1.9989834,-3.4551613,-0.1273556,-0.3790136,-0.0999507,27.5,28.75,27.75,31.375,33.3125,34.0625
0.20805404,-1.0901701,-1.3113302,-2.0724692,-0.04819363,0.039154764,-0.14502737,-0.3829891,-0.3265847,0.060026772,-3.0747988,0.6262102,-0.00014015587,-0.09945564,0.015078144,-0.0016065135,0.034274083,-0.00157525,-0.0120517025,0.43790704,-1.4541541,1.9897908,-2.1026862,-1.5734323,2.414151,-0.094906546,0.16871355,-0.19311602,0.04023485,-0.030879285,-0.082614124,-0.11492168,0.34476504,-9.768343,0.88960326,47.71286,-1.1482027,-1.951097,-3.539482,-0.11252866,-0.40490532,-0.13856724,27.5,28.75,27.75,31.375,33.3125,34.0625
0.21005364,-0.96262705,-1.5853542,-1.881211,-0.06280999,0.057664935,-0.14472418,-0.38318363,-0.32659236,0.060032275,-3.0748243,0.6262952,-0.00014983008,-0.101086594,0.015895408,-0.0013866592,0.03481523,-0.0028171965,-0.017376574,0.43772614,-1.4538295,1.9894084,-2.102649,-1.5733961,2.41402,-0.097825766,0.17086291,-0.1966995,0.04302751,-0.03084007,-0.08020769,-0.22984336,0.40222588,-9.710882,0.90750587,47.737934,-1.1890991,-2.0951085,-3.6013677,-0.136017,-0.4137783,-0.17165005,27.5,28.75,27.75,31.375,33.3125,34.0625
0.21205403,-1.3312386,-1.7974815,-1.810176,-0.055965517,0.05795874,-0.1398533,-0.38341722,-0.3265581,0.060057316,-3.0747516,0.62630004,-4.5205335e-05,-0.10110091,0.016321262,-0.0024499304,0.03753844,-0.0045795706,-0.0194137,0.43752217,-1.4534934,1.9889525,-2.1025412,-1.5734934,2.4138288,-0.09741772,0.17363754,-0.19759771,0.043900814,-0.03255711,-0.077755906,-0.21068975,0.30645782,-9.672575,0.88960326,47.70838,-1.1117375,-2.0127676,-3.6907358,-0.115900494,-0.39141047,-0.20655093,27.5,28.75,27.75,31.375,33.3125,34.0625
0.21405385,-1.571039,-1.4079186,-1.6681575,-0.0508727,0.05565243,-0.14023782,-0.3836212,-0.32652932,0.06005117,-3.0746589,0.6263375,2.9387093e-05,-0.10308681,0.016485527,-0.0013483261,0.037168052,-0.0006166318,-0.019547705,0.43735388,-1.4531462,1.9885696,-2.102494,-1.5735897,2.4136963,-0.09849812,0.17349058,-0.19966018,0.042352647,-0.033914395,-0.07869548,-0.1340753,0.17238252,-9.730036,0.8851263,47.701214,-1.175992,-1.9115423,-3.5335827,-0.07622868,-0.37340462,-0.23218946,27.5,28.75,27.75,31.375,33.3125,34.0625
0.21605341,-1.3777806,-1.2041868,-1.4534296,-0.033573072,0.06749794,-0.13694151,-0.3838266,-0.32649258,0.06005993,-3.0745852,0.62640196,2.653369e-05,-0.10450928,0.017170293,-0.0007613779,0.037929937,5.858942e-07,-0.023790663,0.43713716,-1.4528228,1.9881619,-2.1023734,-1.5736374,2.4135296,-0.10031474,0.17426443,-0.20228264,0.04396467,-0.034868747,-0.07626324,-0.13407528,0.17238252,-9.481039,0.8537928,47.694946,-1.1237634,-1.8751466,-3.5422065,-0.048430864,-0.36590993,-0.2714414,27.5,28.75,27.75,31.375,33.3125,34.0625
0.21805352,-0.7598351,-0.0322348,-1.1149106,-0.023443,0.07140345,-0.14721657,-0.38404566,-0.32647288,0.06008995,-3.0745564,0.6263963,0.00015236506,-0.10599232,0.017794976,-0.0007473002,0.039595082,0.00022259251,-0.026078383,0.43695688,-1.4525224,1.9877423,-2.1023014,-1.5737098,2.4133499,-0.101640396,0.17654668,-0.20514765,0.045048166,-0.03647219,-0.075295284,-0.22984336,0.15322891,-9.442732,0.8537928,47.683304,-1.1774552,-1.8165166,-3.4811096,-0.045833252,-0.36174673,-0.33795768,27.5,28.75,27.75,31.375,33.3125,34.0625
0.22005405,-1.2865853,0.16826807,-1.2247317,0.014347325,0.0438251,-0.13772862,-0.38425565,-0.32643405,0.060065284,-3.0744288,0.6264635,0.00016843468,-0.10779321,0.017158452,0.0014456357,0.038906347,0.0047895107,-0.023420062,0.43676528,-1.4521277,1.9873456,-2.1022413,-1.5738066,2.413217,-0.10107992,0.17542776,-0.2091379,0.04571164,-0.037799325,-0.0773843,-0.36391866,-0.05746084,-9.346964,0.81351066,47.66539,-1.1426252,-1.6598011,-3.4009109,-0.011364864,-0.336527,-0.34039947,27.5,28.75,27.75,31.375,33.3125,34.0625
0.22205348,-0.577569,0.80625725,-0.9948533,0.023725033,0.05519918,-0.15288043,-0.3844651,-0.32642266,0.060075205,-3.0744305,0.6265243,0.00019462977,-0.10861849,0.017310191,0.0022093097,0.037595753,0.0051249093,-0.028738676,0.43656084,-1.4518048,1.9869517,-2.1021926,-1.5738066,2.4130507,-0.10271336,0.1749586,-0.21068445,0.04686991,-0.036746554,-0.0737035,-0.40222588,-0.038307227,-9.193734,0.8940802,47.698532,-1.2661574,-1.6017287,-3.3580492,0.024503568,-0.31235045,-0.39936805,27.5,28.75,27.75,31.375,33.3125,34.0625
0.2240534,-0.97640556,0.5592046,-1.1441436,0.033636775,0.0555939,-0.14627321,-0.38469344,-0.326364,0.060074374,-3.0742745,0.6266266,0.00022818003,-0.109312065,0.017982969,0.0016640192,0.039239153,0.0033317504,-0.028737778,0.43633217,-1.451432,1.9865083,-2.1020606,-1.5739268,2.4129064,-0.10400266,0.1774246,-0.21264958,0.04866999,-0.037488356,-0.07498776,-0.38307226,-0.05746084,-9.212888,0.8291774,47.67793,-1.0581886,-1.5699177,-3.3851,0.030505445,-0.34185869,-0.44338578,27.5,28.75,27.75,31.375,33.3125,34.0625
0.22605406,-1.0358323,0.5435249,-1.010858,0.025590807,0.06401938,-0.14106637,-0.38491723,-0.32633305,0.060083807,-3.074209,0.62676567,0.0002446569,-0.11102767,0.019170567,0.002448226,0.041620582,0.0042443722,-0.027671535,0.43610355,-1.4510844,1.9860772,-2.1019642,-1.5739635,2.4127734,-0.10592841,0.17826548,-0.2160545,0.051400665,-0.04004452,-0.07796832,-0.40222588,-0.1340753,-9.289502,0.86498255,47.682407,-1.1405257,-1.621284,-3.3927395,0.013263091,-0.29551876,-0.46014684,27.5,28.75,27.75,31.375,33.3125,34.0625
0.22805339,-1.7585621,0.19019073,-1.0373994,0.027406257,0.07445801,-0.14476816,-0.38512892,-0.32629004,0.06009,-3.074104,0.6267039,0.00028332806,-0.11204196,0.019959716,0.0027720467,0.042835236,0.0033428562,-0.026249243,0.4359109,-1.4507366,1.9856452,-2.1018317,-1.5740718,2.4125562,-0.10772289,0.17939025,-0.21875878,0.054285586,-0.040778216,-0.08117955,-0.49799395,-0.21068975,-9.3661175,0.9164598,47.701214,-1.0479838,-1.4364481,-3.240737,0.0062593836,-0.26748598,-0.4527116,27.5,28.75,27.75,31.375,33.3125,34.0625
0.2300538,-1.621127,0.5532081,-1.0562627,0.010729185,0.08904617,-0.15191096,-0.3853484,-0.3262508,0.06009302,-3.0739975,0.6267549,0.00027014324,-0.11308488,0.020850072,0.002231582,0.045180026,0.0002864382,-0.02099907,0.43569443,-1.4503642,1.9851898,-2.1016862,-1.5741438,2.4123857,-0.10964023,0.18299617,-0.22247182,0.058116026,-0.0416391,-0.08833969,-0.47884035,-0.15322891,-9.308657,0.900793,47.693153,-1.0130125,-1.528737,-3.2548668,-0.021075774,-0.25532374,-0.404456,27.5,28.75,27.75,31.375,33.3125,34.0625
0.23205331,-1.8621154,-0.14923784,-1.1907388,0.012012284,0.092573926,-0.13749017,-0.3855605,-0.32619897,0.060092203,-3.0738814,0.62682587,0.00031131256,-0.113189265,0.02236072,0.0014273771,0.04801585,-0.0038867234,-0.019643186,0.4354776,-1.450028,1.9847945,-2.1015894,-1.5742406,2.4122286,-0.11192003,0.18510823,-0.2240385,0.062522754,-0.042459574,-0.09197063,-0.45968673,-0.15322891,-9.385271,0.88289046,47.70211,-0.99059,-1.6457958,-3.2435806,-0.053946238,-0.25353768,-0.39317238,27.5,28.75,27.75,31.375,33.3125,34.0625
0.23405369,-2.1462145,-0.48953238,-1.3285899,0.0027751497,0.083722554,-0.1379046,-0.38580543,-0.32611546,0.0600791,-3.073727,0.6268466,0.00031126468,-0.11188204,0.023978017,-0.0005979667,0.05155031,-0.010069952,-0.012477699,0.43518886,-1.4496316,1.984352,-2.1014564,-1.5743603,2.4119732,-0.11328502,0.18739955,-0.2228196,0.06605619,-0.043084,-0.100496374,-0.6512228,-0.076614454,-9.442732,0.94331104,47.703903,-0.84551924,-1.7192497,-3.3660908,-0.08520657,-0.21347979,-0.33152497,27.5,28.75,27.75,31.375,33.3125,34.0625
0.23605339,-1.1470597,-0.213261,-0.9926407,-0.028116286,0.11441577,-0.1580629,-0.38601384,-0.32610938,0.06010393,-3.0736735,0.626815,0.0002806848,-0.112059824,0.024660625,-0.0011331638,0.05332669,-0.012776405,-0.010110719,0.43502057,-1.449272,1.9838499,-2.1012638,-1.574397,2.4117925,-0.11431568,0.18939394,-0.22453897,0.0689621,-0.043570537,-0.1038895,-0.7086837,0.076614454,-9.346964,0.90527004,47.694946,-0.85171825,-1.8286711,-3.4532685,-0.14297831,-0.19110501,-0.25016043,27.5,28.75,27.75,31.375,33.3125,34.0625
0.23805392,-2.1274836,-0.81744576,-1.1263381,-0.024850754,0.08236906,-0.13682945,-0.38624305,-0.32604,0.060094703,-3.0735347,0.62678397,0.00032440602,-0.11151182,0.025554376,-0.002544752,0.055395648,-0.016951311,-0.0072751283,0.43478027,-1.4488997,1.9834307,-2.1011555,-1.574529,2.4115512,-0.115330406,0.19175124,-0.22450435,0.07118934,-0.04370822,-0.107737005,-0.63206923,0.11492168,-9.308656,0.7911258,47.71286,-0.86612463,-1.6673083,-3.4957194,-0.19853589,-0.17176636,-0.22569546,27.5,28.75,27.75,31.375,33.3125,34.0625
0.24005353,-1.3999561,-0.79691195,-1.1745001,-0.023648487,0.07790545,-0.14545612,-0.38643688,-0.3259718,0.060075637,-3.073378,0.62675,0.00020103913,-0.11164501,0.025426215,-0.0034500966,0.056167513,-0.019748837,-0.005786564,0.43454063,-1.4485273,1.9830121,-2.1009514,-1.5746125,2.4113111,-0.11543542,0.1949787,-0.2264531,0.07274577,-0.04326204,-0.109324634,-0.47884035,0.17238252,-9.385271,0.78217715,47.716442,-0.89949965,-1.6610878,-3.523025,-0.2173937,-0.14929804,-0.17456841,27.5,28.75,27.75,31.375,33.3125,34.0625
0.24205334,-1.6184902,-1.2410653,-0.8971571,-0.03280288,0.07187084,-0.1352023,-0.38667905,-0.3259365,0.06008429,-3.0732977,0.6267535,0.00022079892,-0.11192707,0.024705157,-0.0026515913,0.054420017,-0.018949306,-0.005874284,0.43431237,-1.4481323,1.9825209,-2.1008198,-1.574684,2.4110959,-0.11507801,0.19441791,-0.22783434,0.07320708,-0.042027198,-0.10888296,-0.47884035,0.24899697,-9.251195,0.8314132,47.691364,-0.96516025,-1.6214421,-3.5093837,-0.24464759,-0.13455737,-0.14602295,27.5,28.75,27.75,31.375,33.3125,34.0625
0.24405372,-1.2854568,-1.3614291,-0.99236655,-0.037750885,0.06161374,-0.13420086,-0.3868916,-0.32588094,0.060075838,-3.0731704,0.62680364,0.00016370135,-0.11292688,0.023840617,-0.002226111,0.05356436,-0.018604178,-0.007966709,0.43407267,-1.4477603,1.9820889,-2.100663,-1.574756,2.4109044,-0.11467103,0.19640431,-0.23127252,0.07397649,-0.041414354,-0.10638035,-0.45968673,0.28730422,-9.155427,0.8537928,47.711063,-1.0050967,-1.6030414,-3.4950967,-0.28304368,-0.13027667,-0.14185569,27.5,28.75,27.75,31.375,33.3125,34.0625
0.24605413,-0.67632145,-0.8686928,-1.1199341,-0.03335926,0.052702315,-0.13752876,-0.3871495,-0.32583544,0.060076877,-3.0730338,0.6268171,0.00029165254,-0.115068935,0.023596965,-0.0018044427,0.051105864,-0.017150907,-0.014361601,0.43386793,-1.4473403,1.9815983,-2.1005805,-1.5749115,2.4107263,-0.11706138,0.19829409,-0.2341137,0.07256257,-0.03980124,-0.10238047,-0.34476504,0.22984336,-9.11712,0.97464454,47.729877,-0.8603181,-1.6183213,-3.4935212,-0.31593078,-0.12193386,-0.169173,27.5,28.75,27.75,31.375,33.3125,34.0625
0.2480537,-0.7052426,-1.0534621,-1.2663808,-0.04091218,0.035408184,-0.13826877,-0.38741642,-0.32578784,0.060094677,-3.0729647,0.6269007,0.00030519252,-0.11683378,0.022444502,-0.001481151,0.04876354,-0.0147946,-0.019375432,0.43358016,-1.4469441,1.9810818,-2.1004379,-1.5749592,2.4105,-0.11709804,0.20065236,-0.23698036,0.069950424,-0.038675692,-0.09740497,-0.17238252,0.24899697,-9.232041,0.84708,47.734352,-1.0581768,-1.6258416,-3.442127,-0.30091432,-0.14068037,-0.23331583,27.5,28.75,27.75,31.375,33.3125,34.0625
0.25005406,-1.0853722,-1.6992356,-1.0944552,-0.04740234,0.01767751,-0.13469428,-0.38764626,-0.32573766,0.060090363,-3.0728316,0.62695104,0.00029790535,-0.118151724,0.022116072,-0.0017495931,0.04777004,-0.015284679,-0.022940665,0.43335146,-1.4465479,1.9806155,-2.1002934,-1.5750545,2.4103205,-0.118271835,0.20362863,-0.23972535,0.069735624,-0.03758224,-0.09501378,-0.019153614,0.30645782,-9.270349,0.800085,47.687782,-0.8319149,-1.6512887,-3.421938,-0.29391587,-0.114119604,-0.28114653,27.5,28.75,27.75,31.375,33.3125,34.0625
0.25205398,-0.3587827,-1.7925293,-1.1866839,-0.054977026,0.021522308,-0.13726921,-0.38787076,-0.32568067,0.060078118,-3.0726855,0.6270361,0.00021467816,-0.120824926,0.020931914,-0.00042827983,0.044459503,-0.011343806,-0.023978347,0.43309915,-1.44614,1.9801468,-2.1001155,-1.575126,2.4101408,-0.11917192,0.20517659,-0.24407364,0.067549355,-0.036264837,-0.09487501,-0.095768064,0.40222588,-9.212888,0.85155696,47.694054,-0.94096696,-1.6985775,-3.352534,-0.2999319,-0.13211676,-0.30747876,27.5,28.75,27.75,31.375,33.3125,34.0625
0.25405368,-0.7326201,-1.7228826,-1.3286492,-0.052670743,0.015988734,-0.12523815,-0.38813904,-0.3256527,0.060088012,-3.0726023,0.627114,0.00029218302,-0.12401793,0.019745225,0.0011356772,0.041278616,-0.0051736985,-0.02422351,0.4328712,-1.445709,1.9796199,-2.1000211,-1.57521,2.4099727,-0.119811125,0.20636497,-0.24815522,0.06348841,-0.03599133,-0.09526718,-0.095768064,0.45968673,-9.289503,0.84708,47.70659,-0.93004787,-1.5966728,-3.1521096,-0.22921103,-0.14494494,-0.30671975,27.5,28.75,27.75,31.375,33.3125,34.0625
0.2560532,-0.60633135,-1.4110693,-1.5635101,-0.057637405,0.025956286,-0.13730676,-0.38837346,-0.3256019,0.060070496,-3.072487,0.62716794,0.00019708087,-0.12482912,0.020549113,0.0008354319,0.040589496,-0.005596863,-0.02699557,0.43260634,-1.4452773,1.9791411,-2.0998657,-1.5752577,2.409757,-0.12242573,0.20692939,-0.24805202,0.06290014,-0.03520509,-0.095109634,-0.038307227,0.38307226,-9.346964,0.9298854,47.71465,-0.92176926,-1.6116253,-3.2690477,-0.21918692,-0.13039336,-0.32039785,27.5,28.75,27.75,31.375,33.3125,34.0625
0.25805375,-0.8583562,-1.6801364,-1.4125617,-0.06686988,0.04164484,-0.13959019,-0.3886151,-0.32557723,0.060091082,-3.0724304,0.6272117,0.00024959855,-0.12472701,0.018009841,0.0013877901,0.038055398,-0.00408622,-0.0235676,0.43239146,-1.4449058,1.9786505,-2.0997465,-1.5753168,2.4095771,-0.11864116,0.2080324,-0.25034788,0.061642185,-0.033548623,-0.094759405,0.0,0.4405331,-9.519346,0.92093146,47.719128,-1.081661,-1.6385148,-3.2958632,-0.19855633,-0.16039768,-0.37896433,27.5,28.75,27.75,31.375,33.3125,34.0625
0.26005325,-1.3950709,-2.3921099,-1.3922119,-0.084738225,0.049667165,-0.13354099,-0.38886258,-0.32551903,0.060069293,-3.072269,0.6272367,0.00023733273,-0.12698533,0.018880023,0.0011295921,0.03726793,-0.0032878022,-0.025789283,0.43215,-1.4444494,1.9781593,-2.0996153,-1.575437,2.4093728,-0.12233751,0.21038043,-0.2520997,0.059963416,-0.033194434,-0.09623114,0.0,0.49799395,-9.346964,0.8672237,47.716442,-0.88859665,-1.5825746,-3.3510447,-0.1820187,-0.16647816,-0.3792801,27.5,28.75,27.75,31.375,33.3125,34.0625
0.26205373,-0.99542063,-2.0139205,-1.2710354,-0.099403925,0.06626058,-0.14149512,-0.38910353,-0.3254801,0.060038313,-3.072176,0.6273106,0.00013452681,-0.1264748,0.018440614,0.00021213925,0.037225325,-0.003851913,-0.023760919,0.43188658,-1.4439825,1.977682,-2.099508,-1.5754613,2.409168,-0.12115566,0.21158881,-0.25104332,0.05817726,-0.032938693,-0.09707591,0.0,0.40222588,-9.289502,0.8985519,47.71286,-1.1096675,-1.505002,-3.530632,-0.13740851,-0.16472408,-0.39571267,27.5,28.75,27.75,31.375,33.3125,34.0625
0.26405346,-0.9163023,-1.8240174,-1.7365283,-0.0694662,0.042937346,-0.14116696,-0.38936105,-0.3254441,0.060056362,-3.0720913,0.62740386,0.00018404005,-0.12748784,0.018902628,0.0002522563,0.03691037,-0.0032529861,-0.018145476,0.4316462,-1.4435868,1.977167,-2.099377,-1.5755333,2.4089973,-0.12278279,0.21224907,-0.25181466,0.057561886,-0.032937422,-0.10431777,0.19153613,0.30645782,-9.500193,0.87617236,47.711964,-1.0122844,-1.4811071,-3.541449,-0.09172104,-0.1643,-0.33074802,27.5,28.75,27.75,31.375,33.3125,34.0625
0.26605403,-0.6449221,-1.2562675,-1.6933287,-0.041609526,0.022441594,-0.13916823,-0.38960937,-0.3254085,0.060031664,-3.0720108,0.62734795,0.00014342424,-0.12912026,0.018416757,-0.00075686834,0.036990944,-0.004638199,-0.015531302,0.43140596,-1.4431174,1.9766749,-2.099281,-1.5755924,2.4087331,-0.12350257,0.21781316,-0.25576857,0.057211384,-0.03246468,-0.10764891,0.15322891,0.3256114,-9.519346,0.88289046,47.705692,-1.0508378,-1.737813,-3.5027614,-0.079519466,-0.18142608,-0.3187378,27.5,28.75,27.75,31.375,33.3125,34.0625
0.26805365,0.2761836,-0.40905032,-1.5353708,-0.040798858,0.02653558,-0.14504921,-0.38986307,-0.3253857,0.060033873,-3.0719562,0.6273511,0.00015362061,-0.12938136,0.018985925,-0.0020581556,0.0379338,-0.0070002633,-0.010342884,0.43117785,-1.442685,1.9761599,-2.0991733,-1.5756406,2.4085145,-0.12474795,0.22061092,-0.2560026,0.057142228,-0.032365125,-0.11408216,0.038307227,0.22984336,-9.595961,0.83365434,47.693153,-0.96637213,-1.8786736,-3.4666014,-0.04028659,-0.2006455,-0.2555161,27.5,28.75,27.75,31.375,33.3125,34.0625
0.2700541,-0.22259435,-0.7278166,-1.6300285,-0.013591453,0.0057210093,-0.13668457,-0.39013374,-0.32533783,0.06002749,-3.0718796,0.6273145,0.00019771757,-0.1313984,0.019274153,-0.0013894485,0.038970392,-0.0051253224,-0.0065824594,0.43091327,-1.4422415,1.9756573,-2.0990894,-1.5757254,2.4082375,-0.12573992,0.22246699,-0.25986454,0.05784148,-0.034122773,-0.11882287,0.019153614,0.21068975,-9.423578,0.9097417,47.68062,-1.0250382,-1.8520811,-3.6963987,-0.0037728578,-0.19998428,-0.19508283,27.5,28.75,27.75,31.375,33.3125,34.0625
0.2720535,-0.34710178,-0.66405874,-1.7015096,-0.001612199,0.0083514415,-0.13661186,-0.39039412,-0.32530266,0.060021155,-3.071813,0.6273168,0.00015066146,-0.13249928,0.019170763,-0.0007692135,0.03950072,-0.006333506,-0.0040278593,0.43064907,-1.4417855,1.975129,-2.0989559,-1.5757617,2.4079838,-0.12638235,0.22453564,-0.2646019,0.061799843,-0.034126032,-0.122016154,0.019153614,0.19153613,-9.423578,0.8806493,47.693153,-0.98387426,-1.9656975,-3.5157475,0.015814152,-0.18589588,-0.09920497,27.5,28.75,27.75,31.375,33.3125,34.0625
0.274054,-0.6829982,-0.83575517,-1.8864526,-0.0036190448,0.01760664,-0.13866408,-0.3906492,-0.32525674,0.060009144,-3.071678,0.62738556,0.00014409161,-0.13428143,0.018792612,-0.00089909736,0.03811247,-0.0071755066,-0.0053457543,0.43040845,-1.4413289,1.9746135,-2.0988243,-1.5758566,2.4078043,-0.12815681,0.22820376,-0.26865524,0.06234337,-0.032536473,-0.12247625,-0.17238252,0.2873042,-9.500193,0.85155696,47.687782,-0.9638305,-1.9450767,-3.4555311,-0.011266452,-0.23506749,-0.113385886,27.5,28.75,27.75,31.375,33.3125,34.0625
0.27605402,-0.79883736,-0.9495257,-1.6408521,-0.042443957,0.051057655,-0.14224221,-0.39090586,-0.32522628,0.060003694,-3.0716007,0.62733376,0.00014615753,-0.13506705,0.0187642,-0.00021589195,0.03713153,-0.0068680556,-0.010051522,0.43018016,-1.4408739,1.9740871,-2.098704,-1.5759286,2.4075541,-0.12917739,0.22821619,-0.27062097,0.06360922,-0.031771503,-0.11879296,-0.36391866,0.2681506,-9.519346,0.85826975,47.666286,-0.93388546,-1.9787703,-3.3951175,0.027384747,-0.25588888,-0.10859055,27.5,28.75,27.75,31.375,33.3125,34.0625
0.27805385,-1.9576622,-2.0742605,-1.5959673,-0.06816224,0.080398984,-0.13152471,-0.3911784,-0.32517064,0.060006138,-3.0714903,0.6274075,0.00013368201,-0.13500205,0.019359292,0.00041795353,0.038479205,-0.0078091654,-0.013710274,0.42989227,-1.440431,1.9735478,-2.0985472,-1.576001,2.4073272,-0.1295585,0.22745477,-0.27214196,0.06731226,-0.032599866,-0.11550932,-0.6512228,0.19153614,-9.481039,0.94331104,47.713753,-1.0584146,-1.8581846,-3.3933854,0.021976227,-0.24962372,-0.12418989,27.5,28.75,27.75,31.375,33.3125,34.0625
0.28005362,-1.9639678,-1.9866787,-1.5031483,-0.08350222,0.11232574,-0.1356949,-0.39144734,-0.32511976,0.06000676,-3.0713508,0.6275149,7.3665804e-05,-0.13562761,0.018993353,0.0014697525,0.03905219,-0.007261871,-0.017097797,0.4296162,-1.4399631,1.9729737,-2.0983431,-1.576073,2.407137,-0.1288074,0.2277617,-0.2756615,0.07027457,-0.033350773,-0.111362346,-0.7278373,0.19153613,-9.461885,0.9612189,47.707485,-1.0280538,-1.8943589,-3.391186,-0.0135865165,-0.2757363,-0.16343248,27.5,28.75,27.75,31.375,33.3125,34.0625
0.28205323,-3.1549368,-1.7174284,-1.4003474,-0.06884051,0.112425074,-0.13572097,-0.39170685,-0.32511154,0.059996836,-3.0713284,0.62747425,3.4560784e-05,-0.13620579,0.020303346,-3.4129233e-05,0.039867222,-0.010451178,-0.023838399,0.42938724,-1.4394835,1.9724344,-2.0982468,-1.5760845,2.4068859,-0.13200426,0.23064145,-0.27564412,0.07062535,-0.0327584,-0.10782043,-0.7469909,0.28730422,-9.519346,0.90527004,47.65106,-0.9855874,-1.851855,-3.4286058,-0.0075936224,-0.29974413,-0.20904589,27.5,28.75,27.75,31.375,33.3125,34.0625
0.2840542,-2.5579886,-1.2677081,-1.3590649,-0.04377549,0.13445142,-0.1324805,-0.39196903,-0.32507032,0.059975624,-3.071228,0.62753016,-5.850629e-05,-0.13491173,0.019984677,-0.0010238873,0.042559095,-0.013701238,-0.02419154,0.42911223,-1.4389915,1.971896,-2.0981023,-1.5761217,2.4066594,-0.12948042,0.23276655,-0.27650836,0.07344722,-0.033855364,-0.104934156,-0.842759,0.15322891,-9.500193,0.94331104,47.694054,-1.0802923,-1.8973992,-3.5544817,-0.028951041,-0.31306607,-0.26962623,27.5,28.75,27.75,31.375,33.3125,34.0625
0.28605363,-2.33882,-0.5896983,-1.1020275,-0.017826313,0.12915127,-0.14038707,-0.392253,-0.3250239,0.059979286,-3.071087,0.6276176,2.7208207e-05,-0.13529669,0.020761376,-0.00046141728,0.042427108,-0.014862757,-0.028887136,0.4288715,-1.4385251,1.9713348,-2.0979812,-1.5762533,2.4064922,-0.13153087,0.23209308,-0.2778091,0.07641407,-0.03324742,-0.102291845,-0.8236054,0.076614454,-9.3661175,0.91198283,47.70211,-1.0942292,-1.7867916,-3.6083834,-0.046921097,-0.32701784,-0.32568863,27.5,28.75,27.75,31.375,33.3125,34.0625
0.288054,-2.026384,0.32250392,-1.1195953,0.018339405,0.100554876,-0.13868433,-0.39254692,-0.325021,0.059991118,-3.0711038,0.62765884,4.0990875e-05,-0.1351952,0.020544095,-0.000540789,0.042332597,-0.01700526,-0.03040659,0.4286078,-1.4380453,1.9707474,-2.0978968,-1.5762404,2.4062524,-0.13156636,0.23330054,-0.2796796,0.07898425,-0.03226894,-0.10081369,-0.7469909,0.0,-9.251195,0.87393653,47.701214,-1.1156827,-1.6338665,-3.6075015,-0.05411505,-0.36880368,-0.35701412,27.5,28.75,27.75,31.375,33.3125,34.0625
0.2900538,-1.4692671,0.98855263,-1.1513813,0.051148202,0.07449169,-0.14454274,-0.39282036,-0.32498375,0.059985682,-3.0709755,0.6277123,-1.8167308e-05,-0.13609739,0.022169892,-0.0011336061,0.044835232,-0.019762158,-0.035596933,0.42835444,-1.4375417,1.9701484,-2.0977042,-1.5763129,2.4060497,-0.13447128,0.23563243,-0.28180987,0.08233212,-0.03340581,-0.09851815,-0.61291564,-0.19153613,-9.32781,0.88289046,47.72002,-0.88296604,-1.7204509,-3.597446,-0.088878736,-0.38051447,-0.41425484,27.5,28.75,27.75,31.375,33.3125,34.0625
0.29205313,-1.187729,1.4290613,-1.0504524,0.059729643,0.05479986,-0.13675383,-0.39310196,-0.3249156,0.059959468,-3.0708053,0.62786895,-5.5516302e-05,-0.1383944,0.023503026,-0.0010167017,0.04736032,-0.020704338,-0.03853221,0.42805377,-1.4370365,1.9696087,-2.0975716,-1.5764102,2.4058697,-0.13748676,0.23910794,-0.28689218,0.08583161,-0.035335865,-0.098581746,-0.47884035,-0.24899697,-9.212888,0.9097417,47.698532,-1.0219964,-1.8896047,-3.4474325,-0.13769789,-0.3786621,-0.4793532,27.5,28.75,27.75,31.375,33.3125,34.0625
0.29405403,-0.48337385,1.438765,-0.9725098,0.06911817,0.05244093,-0.14399858,-0.39338896,-0.3248657,0.05997379,-3.070691,0.62799555,-5.3733416e-05,-0.13857052,0.023392553,-0.00050751126,0.049532607,-0.021536328,-0.034546606,0.42776614,-1.4365814,1.9690212,-2.0973904,-1.5764827,2.4056766,-0.13621922,0.24024749,-0.290322,0.089753106,-0.03699337,-0.10128762,-0.38307226,-0.34476504,-9.136273,0.9410752,47.69763,-0.9839688,-1.8820381,-3.3827732,-0.16600376,-0.38700038,-0.51005304,27.5,28.75,27.75,31.375,33.3125,34.0625
0.29605347,-0.8109338,1.2512897,-0.95607144,0.06846904,0.037164815,-0.13896124,-0.393648,-0.32481796,0.05994999,-3.070553,0.62798214,-0.0001323977,-0.13969642,0.023379354,0.0005164344,0.05013875,-0.021424929,-0.02888726,0.42751387,-1.4360783,1.9684695,-2.0972211,-1.5765666,2.4054346,-0.1366116,0.24113728,-0.29455823,0.09319806,-0.037641764,-0.10732989,-0.34476504,-0.24899697,-9.11712,0.87393653,47.698532,-0.95123893,-1.8928444,-3.3103855,-0.21818328,-0.40770417,-0.4896069,27.5,28.75,27.75,31.375,33.3125,34.0625
0.29805326,-1.1903082,0.6842079,-0.94257045,0.041124806,0.04415274,-0.13326499,-0.3939487,-0.32476726,0.059967384,-3.0704415,0.6281263,-0.000117905576,-0.1394822,0.024715742,-0.000850305,0.052656375,-0.0250675,-0.02216829,0.4272137,-1.43561,1.9678601,-2.0970414,-1.576639,2.4052396,-0.13821793,0.24333405,-0.29445603,0.095191255,-0.03847288,-0.1156494,-0.34476504,-0.22984336,-9.155427,0.8873621,47.728977,-0.97902906,-1.9706365,-3.276009,-0.26224616,-0.4040818,-0.38658792,27.5,28.75,27.75,31.375,33.3125,34.0625
0.30005383,-0.88072044,0.1282555,-1.0806837,0.0109048,0.07330347,-0.14913698,-0.3942535,-0.32471403,0.059973814,-3.0703237,0.62811565,-0.00015190753,-0.14062057,0.024787951,-0.001163855,0.054427948,-0.024311999,-0.012845686,0.4269135,-1.4350944,1.967214,-2.0968258,-1.5767235,2.4049487,-0.13787064,0.24605814,-0.29684073,0.09482892,-0.040468723,-0.12460812,-0.24899697,-0.28730422,-9.270349,0.8717007,47.709274,-1.0029396,-1.9543877,-3.3669116,-0.30072755,-0.40032196,-0.33330137,27.5,28.75,27.75,31.375,33.3125,34.0625
0.30205348,-0.7755665,-0.34923086,-0.88000286,-0.02487201,0.0900142,-0.15457328,-0.39451703,-0.32465044,0.05996075,-3.0701375,0.6281492,-0.00027762944,-0.14272557,0.024923226,-0.0011875918,0.054826654,-0.021526396,-0.0069345916,0.42663738,-1.4345902,1.9666151,-2.096564,-1.5768203,2.4047186,-0.13873434,0.24851714,-0.29907307,0.09217202,-0.04206071,-0.13136466,-0.17238252,-0.17238252,-9.251195,0.8918391,47.716442,-1.012055,-1.9293637,-3.3085194,-0.29594025,-0.39494675,-0.22988564,27.5,28.75,27.75,31.375,33.3125,34.0625
0.3040547,-1.4024762,-1.1148802,-1.1214772,-0.040465217,0.077430226,-0.14764121,-0.39480838,-0.32459524,0.05994463,-3.070016,0.62810165,-0.0002715119,-0.14404683,0.025254207,-0.0010208427,0.05580359,-0.01878471,-0.0034899868,0.42636135,-1.4340752,1.96604,-2.096433,-1.576929,2.4044294,-0.13897367,0.24933577,-0.300043,0.09018982,-0.044129502,-0.13503192,-0.15322891,0.11492168,-9.270349,0.87617236,47.713753,-1.0189745,-1.9180474,-3.2716184,-0.3069889,-0.38606215,-0.16693032,27.5,28.75,27.75,31.375,33.3125,34.0625
0.3060542,-0.99804133,-1.3610375,-1.3268039,-0.05667628,0.07419838,-0.14147769,-0.39509928,-0.32455227,0.059928,-3.0699046,0.6280785,-0.0003285817,-0.14697586,0.025106713,-0.000807654,0.054813296,-0.012159894,-0.0036763907,0.426085,-1.4335355,1.9654301,-2.096268,-1.5770019,2.4041538,-0.13980418,0.2510287,-0.30092898,0.08292229,-0.046011556,-0.13565785,-0.17238252,0.22984336,-9.308657,0.99702406,47.711964,-0.9895365,-1.9640433,-3.4660354,-0.24785298,-0.3549916,-0.12064981,27.5,28.75,27.75,31.375,33.3125,34.0625
0.30805373,-0.5487218,-1.8936521,-1.5289243,-0.07791906,0.07816083,-0.14902714,-0.3953894,-0.3244769,0.059934493,-3.0697665,0.6281067,-0.00032536793,-0.14840344,0.025282629,-0.00092663016,0.05570941,-0.009903366,-0.0054824664,0.4257731,-1.4330797,1.9648565,-2.0960772,-1.5771102,2.4038782,-0.14003615,0.25284517,-0.30233413,0.08081426,-0.047780067,-0.13406773,-0.076614454,0.34476504,-9.557653,0.97464454,47.70211,-1.0868547,-1.8161899,-3.538899,-0.18111397,-0.3393456,-0.107982546,27.5,28.75,27.75,31.375,33.3125,34.0625
0.3100532,-0.81617665,-2.374993,-1.7658612,-0.08907956,0.060194574,-0.12924941,-0.39573514,-0.3244309,0.059949346,-3.0696507,0.62818396,-0.00018988783,-0.15055552,0.02507609,2.5286015e-05,0.054970663,-0.00472688,-0.0149361845,0.42548472,-1.4325407,1.9641856,-2.095959,-1.5772427,2.4036539,-0.14037392,0.25310338,-0.30415767,0.07739474,-0.04921758,-0.12494144,-0.15322891,0.34476504,-9.423578,0.9545008,47.72808,-1.005864,-1.8727195,-3.5143964,-0.17367962,-0.3293403,-0.19937818,27.5,28.75,27.75,31.375,33.3125,34.0625
0.3120537,-0.94259816,-2.2902522,-1.7406746,-0.07976808,0.034983575,-0.13398531,-0.39599422,-0.3243555,0.05991799,-3.0694373,0.6282201,-0.00031041272,-0.15391132,0.026511572,0.0014134246,0.05349057,-0.00015244377,-0.024768239,0.42520717,-1.4320256,1.9636229,-2.095732,-1.5773629,2.4034276,-0.14534475,0.2524989,-0.30631882,0.075389534,-0.049770374,-0.12006654,-0.17238252,0.40222588,-9.557653,0.9164598,47.70659,-0.91622806,-1.722921,-3.5272403,-0.11786045,-0.28604776,-0.21939448,27.5,28.75,27.75,31.375,33.3125,34.0625
0.3140542,-0.6070589,-2.360741,-1.8638586,-0.076575145,0.046077006,-0.13191792,-0.39628476,-0.32429698,0.059894487,-3.0693288,0.62833077,-0.00033561114,-0.15466271,0.02628284,0.0010319165,0.05534002,0.0006414963,-0.025685763,0.4248958,-1.4315218,1.9630841,-2.0956361,-1.5774239,2.4032001,-0.14409184,0.2551049,-0.30840003,0.074903764,-0.051791154,-0.11787817,-0.17238252,0.45968673,-9.615114,0.98135734,47.709274,-0.94864345,-1.7701149,-3.5996137,-0.09222777,-0.2616669,-0.29228842,27.5,28.75,27.75,31.375,33.3125,34.0625
0.31605393,-0.26422924,-1.9287276,-1.8100208,-0.069065,0.057168446,-0.13423076,-0.3966189,-0.32426256,0.059911024,-3.0692155,0.62840307,-0.00023120752,-0.15609637,0.02743927,0.0007341562,0.056600384,0.00052460853,-0.027879149,0.42463082,-1.430982,1.9624017,-2.0954921,-1.5775436,2.4029958,-0.14654653,0.25696772,-0.3100347,0.07527624,-0.052901533,-0.11813124,-0.038307227,0.49799395,-9.634268,0.91198283,47.709274,-0.84174204,-1.9100504,-3.5851135,-0.059078757,-0.2303063,-0.32148302,27.5,28.75,27.75,31.375,33.3125,34.125
0.31805372,-0.80121255,-1.6684457,-2.0698378,-0.041051935,0.053760134,-0.13074496,-0.39693573,-0.3242143,0.05991076,-3.06909,0.6283947,-0.00018764783,-0.15590014,0.026615473,0.0005828893,0.055878825,-0.00048772965,-0.02686116,0.42435524,-1.4304427,1.9617556,-2.0953362,-1.5776633,2.4027321,-0.14542343,0.25820577,-0.3113839,0.075981446,-0.051840007,-0.11803038,-0.038307227,0.36391866,-9.634268,0.9030289,47.68599,-0.87582195,-1.7422526,-3.5217028,-0.03378446,-0.24394616,-0.32545644,27.5,28.75,27.75,31.375,33.3125,34.125
0.32005414,-0.65268826,-1.377377,-2.0607905,-0.024869433,0.05394974,-0.1336057,-0.3972376,-0.32414293,0.059901208,-3.0689392,0.6284782,-0.00018687398,-0.15731941,0.026957331,0.00022700966,0.05758322,-0.0010365645,-0.027267756,0.4240428,-1.4299378,1.9611696,-2.0951803,-1.577772,2.4024923,-0.14621241,0.2616806,-0.31490046,0.07719837,-0.0531906,-0.11839795,-0.038307227,0.3256114,-9.768343,0.90750587,47.67166,-0.7802204,-1.9454453,-3.7083783,-0.037743326,-0.21682936,-0.3491334,27.5,28.75,27.75,31.375,33.3125,34.125
0.32205403,-0.2738593,-1.2945473,-1.965184,-0.030685764,0.065337315,-0.14632367,-0.39759496,-0.3241139,0.059939813,-3.0688727,0.6285591,-4.1125608e-05,-0.15822615,0.028680274,-0.00034034302,0.06047731,-0.0017422795,-0.027929695,0.42375436,-1.429411,1.9604505,-2.0950363,-1.5778688,2.4022636,-0.1484332,0.263108,-0.3155694,0.07824423,-0.055547234,-0.11994337,-0.076614454,0.30645782,-9.615114,0.9097417,47.672558,-0.95675194,-1.9285525,-3.6249266,-0.019403175,-0.17960279,-0.358214,27.5,28.75,27.75,31.375,33.3125,34.125
0.32405376,-1.4104865,-2.076751,-1.8290857,-0.02944917,0.057769068,-0.12832475,-0.39789402,-0.32404408,0.059906848,-3.0686836,0.6285724,-0.00012174614,-0.15751803,0.02785627,-0.0013105065,0.062694944,-0.0070587033,-0.021394141,0.4234551,-1.428834,1.9598273,-2.0948431,-1.577989,2.4019983,-0.1462706,0.26766646,-0.31989348,0.08370462,-0.055430535,-0.124307856,-0.13407528,0.36391866,-9.557653,0.88960326,47.684196,-0.999238,-2.0692086,-3.6078887,-0.029851671,-0.15669261,-0.3392213,27.5,28.75,27.75,31.375,33.3125,34.125
0.32605347,-0.7552617,-1.0892029,-1.6508915,-0.047846433,0.0615166,-0.14267583,-0.39822555,-0.32398203,0.059909504,-3.0685697,0.6285824,-4.828564e-05,-0.1584203,0.027604373,-0.0014203043,0.06161682,-0.008728513,-0.015518191,0.42314282,-1.4283065,1.9591922,-2.094711,-1.5781082,2.401708,-0.14746262,0.27009714,-0.32289523,0.08526478,-0.053816475,-0.13138482,-0.11492168,0.21068975,-9.5385,0.8537928,47.679718,-0.9897827,-2.1358333,-3.5966969,-0.03994801,-0.1586459,-0.2683752,27.5,28.75,27.75,31.375,33.3125,34.125
0.32805392,-0.45501146,-0.7866501,-1.7655294,-0.029104376,0.042285345,-0.13911672,-0.39853838,-0.32392824,0.059912343,-3.0684454,0.6285724,-3.3642562e-05,-0.15829343,0.028716827,-0.0008774548,0.0636389,-0.01203412,-0.010889209,0.42285436,-1.4277794,1.9585456,-2.0945284,-1.5782164,2.4014301,-0.14890818,0.26995766,-0.32558897,0.09186862,-0.054346047,-0.13745295,-0.038307227,0.076614454,-9.615114,0.9365982,47.692257,-0.9924526,-2.1124868,-3.4983346,-0.080122456,-0.12885989,-0.19798152,27.5,28.75,27.75,31.375,33.3125,34.125
0.3300533,-0.31679147,-0.5985769,-1.4023484,-0.0152723035,0.029546574,-0.13489923,-0.39887324,-0.32388875,0.059927106,-3.0683558,0.62858784,3.2190117e-05,-0.15810464,0.029467648,-0.0013858322,0.0649449,-0.016428867,-0.0062316754,0.42256606,-1.4272399,1.9578627,-2.0943716,-1.5783123,2.4011638,-0.15035027,0.27177876,-0.32770097,0.09662575,-0.05377489,-0.14355612,-0.17238252,0.05746084,-9.481039,0.8717007,47.703903,-0.9125289,-2.000988,-3.6028883,-0.14982274,-0.1257998,-0.0784183,27.5,28.75,27.75,31.375,33.3125,34.125
0.33205387,0.22441097,-0.07936914,-1.5555524,-0.0026210782,0.029352937,-0.14258118,-0.3991821,-0.3238328,0.05992716,-3.0682437,0.6286026,-1.5704765e-05,-0.15781097,0.029687077,-0.00088259514,0.06411366,-0.018355366,-0.0057329354,0.4222536,-1.4267131,1.9572171,-2.0941675,-1.5783838,2.400876,-0.15135089,0.27088487,-0.32871017,0.09990168,-0.052255526,-0.14506249,-0.15322891,-0.076614454,-9.423578,0.92764956,47.670765,-0.9065159,-2.0598648,-3.5756688,-0.17206213,-0.11665651,-0.0643677,27.5,28.75,27.75,31.375,33.3125,34.125
0.3340534,-0.25910488,0.30217567,-1.5138057,0.023554994,0.007196395,-0.13531634,-0.39952183,-0.3237809,0.059940323,-3.0681221,0.6285014,8.929398e-05,-0.15805134,0.029173234,0.00025996412,0.06199144,-0.01876665,-0.009926165,0.42197764,-1.4261624,1.9565223,-2.0939982,-1.5785388,2.4005535,-0.15183483,0.26994258,-0.33101663,0.1026418,-0.050144225,-0.14136682,-0.15322891,-0.17238252,-9.404425,0.87393653,47.709274,-0.8989825,-1.8518469,-3.597096,-0.23301536,-0.13250549,-0.05393207,27.5,28.75,27.75,31.375,33.3125,34.125
0.33605388,-0.12353436,0.29825392,-1.0631758,0.01695754,0.024494471,-0.134582,-0.39982006,-0.32373548,0.059926752,-3.067973,0.6285488,8.979547e-06,-0.15906247,0.028546352,0.000593689,0.060013782,-0.019469064,-0.015554567,0.42170158,-1.4255991,1.9558634,-2.0937827,-1.5786222,2.4003274,-0.15274453,0.27174947,-0.3342832,0.103938,-0.048057843,-0.13665585,-0.2681506,-0.22984336,-9.385271,0.9164598,47.72629,-1.0578882,-1.7796614,-3.4075997,-0.24883792,-0.13571596,-0.08864344,27.5,28.75,27.75,31.375,33.3125,34.125
0.3380538,-0.23371172,0.68837094,-0.8727141,-0.0033261385,0.039081313,-0.13384639,-0.4001239,-0.32367074,0.059912466,-3.067819,0.6286329,-9.840437e-05,-0.16028713,0.026805857,0.0019766882,0.056927945,-0.017200965,-0.020025449,0.42137772,-1.4250478,1.9552168,-2.0935557,-1.5786933,2.400077,-0.15164477,0.2723732,-0.33833838,0.1040511,-0.04617696,-0.13109086,-0.28730422,-0.34476504,-9.232041,0.9186956,47.701214,-0.96972704,-1.6782808,-3.4122396,-0.27759233,-0.17159392,-0.12580855,27.5,28.75,27.75,31.375,33.3125,34.125
0.34005332,-0.10464953,0.20677374,-1.1095176,0.015186832,0.061886553,-0.13460165,-0.4004538,-0.32359764,0.05991373,-3.067649,0.628753,-0.00012727424,-0.16225576,0.026175156,0.003337777,0.054310255,-0.014124849,-0.026158653,0.42104128,-1.424496,1.9545339,-2.0933282,-1.578801,2.399839,-0.15268886,0.2725854,-0.341677,0.10330876,-0.045049258,-0.12600411,-0.22984336,-0.3256114,-9.270349,0.9186956,47.705692,-0.8907363,-1.7559316,-3.3201132,-0.28691882,-0.18785074,-0.21164313,27.5,28.75,27.75,31.375,33.3125,34.125
0.34205395,-1.1919566,-0.1470892,-1.3346968,0.012569756,0.060248982,-0.12673642,-0.40076837,-0.32358277,0.05992035,-3.0676043,0.6287266,-0.0001449966,-0.16346525,0.0255307,0.0018754054,0.053664144,-0.014759251,-0.032273535,0.42077744,-1.4239445,1.953852,-2.0931623,-1.5788368,2.399565,-0.15292138,0.2775924,-0.34356448,0.10053381,-0.04418912,-0.120124385,-0.34476507,-0.24899697,-9.481039,0.9634547,47.71554,-1.0357512,-1.776727,-3.2929864,-0.2710467,-0.2016078,-0.27762517,27.5,28.75,27.75,31.375,33.3125,34.125
0.34405357,-1.3981508,-0.40309003,-1.5699588,-0.0074260915,0.07656343,-0.13252325,-0.4010823,-0.32352835,0.059946347,-3.067459,0.6287921,-0.00014398507,-0.1653997,0.024937766,0.0012593908,0.052201286,-0.013172285,-0.033766028,0.42048898,-1.4234394,1.9531573,-2.0928996,-1.5789446,2.3993373,-0.1537114,0.28136387,-0.34577703,0.09690725,-0.04352935,-0.11942167,-0.36391866,-0.11492168,-9.500193,0.94331104,47.70659,-1.0474596,-1.9148309,-3.3732467,-0.2409882,-0.23259333,-0.3529771,27.5,28.75,27.75,31.375,33.3125,34.125
0.3460533,-1.8629799,-1.2391124,-1.4643886,-0.03686973,0.108641796,-0.13071953,-0.40141693,-0.32346836,0.059940986,-3.0673263,0.6288804,-0.00013933971,-0.16520663,0.02392603,0.0009824014,0.051109463,-0.011156418,-0.03615444,0.42016575,-1.4228748,1.9524878,-2.0927336,-1.5790404,2.3990874,-0.15165344,0.28151542,-0.34467104,0.093375765,-0.04335123,-0.11497405,-0.4213795,0.05746084,-9.442732,0.8090337,47.688675,-1.1404693,-2.0250525,-3.5017867,-0.19176686,-0.24184176,-0.41540846,27.5,28.75,27.75,31.375,33.3125,34.125
0.34805435,-2.277554,-1.5965971,-1.9449263,-0.060537476,0.11078518,-0.13457744,-0.40174258,-0.32339877,0.05993316,-3.0671344,0.62903154,-0.0001993533,-0.16629632,0.025003279,-6.149329e-05,0.051064286,-0.010981843,-0.038582295,0.4198408,-1.4222988,1.9517945,-2.0924952,-1.5791487,2.398883,-0.15431887,0.28320152,-0.3437145,0.09052753,-0.0434112,-0.115206085,-0.4405331,0.19153613,-9.672575,0.87393653,47.72808,-1.0136361,-1.8089039,-3.663837,-0.17233783,-0.25489596,-0.46388736,27.5,28.75,27.75,31.375,33.3125,34.125
0.3500543,-2.4081328,-2.964798,-2.029815,-0.07004763,0.11774724,-0.12585886,-0.40209183,-0.32337156,0.059957817,-3.0670745,0.6291716,-0.0001761119,-0.16839872,0.02612648,-0.0005136308,0.05125601,-0.010875494,-0.037955288,0.41952747,-1.421745,1.9510645,-2.0923154,-1.5791849,2.3986657,-0.15775749,0.28596282,-0.34581754,0.08979903,-0.043671552,-0.11926848,-0.40222588,0.2681506,-9.825804,0.87617236,47.716442,-0.9403788,-1.933027,-3.8291845,-0.12922683,-0.26508147,-0.4772023,27.5,28.75,27.75,31.375,33.3125,34.125
0.35205394,-2.0883431,-2.6052356,-1.7624464,-0.10609009,0.119411305,-0.14040169,-0.40241754,-0.32329437,0.05993891,-3.066895,0.6292024,-0.00019959892,-0.16891308,0.024990935,0.00025476055,0.050835274,-0.008704077,-0.028208455,0.4192047,-1.4211677,1.9504055,-2.0921247,-1.579317,2.3983867,-0.15556769,0.28635454,-0.3480927,0.089434795,-0.04424819,-0.12681592,-0.59376204,0.38307226,-9.672575,1.0149267,47.729877,-1.1602509,-1.7971,-3.7784243,-0.104997665,-0.26486936,-0.43586192,27.5,28.75,27.75,31.375,33.3125,34.125
0.354054,-1.5202541,-2.3550942,-1.9972227,-0.10000382,0.10948938,-0.1410709,-0.40277144,-0.32324895,0.05995489,-3.0667984,0.62913835,-8.904303e-05,-0.17073561,0.024133993,0.00089839054,0.04874175,-0.005953447,-0.019441321,0.41891688,-1.4206026,1.9496878,-2.0919693,-1.5794486,2.3980722,-0.15579441,0.28785092,-0.3509644,0.0873346,-0.043531872,-0.13581425,-0.5363012,0.53630114,-9.768343,0.9947882,47.701214,-1.1293588,-1.7658186,-3.7697785,-0.063055374,-0.29204112,-0.34721607,27.5,28.75,27.75,31.375,33.3125,34.125
0.3560532,-1.2820796,-2.440036,-2.137107,-0.08744082,0.0881657,-0.1359055,-0.40308967,-0.323202,0.05995372,-3.066687,0.6291848,-0.00012102099,-0.17245227,0.02341126,0.003707718,0.047198344,-0.0029157163,-0.010269204,0.41861713,-1.420051,1.949016,-2.0917766,-1.5795206,2.397817,-0.1557799,0.28629637,-0.35659343,0.091011085,-0.043437004,-0.14496864,-0.4213795,0.49799395,-9.921572,0.95002913,47.72002,-1.2662575,-1.6491483,-3.6695342,-0.0806735,-0.32180458,-0.27233794,27.5,28.75,27.75,31.375,33.3125,34.125
0.35805354,-1.520988,-2.652251,-2.1362243,-0.08536758,0.064046636,-0.12681942,-0.40345803,-0.32318157,0.05998076,-3.066665,0.62915695,-2.828918e-05,-0.17472126,0.023223551,0.004429214,0.045489166,9.0427144e-05,-0.005883688,0.41831735,-1.4194744,1.9482616,-2.0916336,-1.5795807,2.3975031,-0.15730052,0.28758988,-0.35944647,0.08905415,-0.043146662,-0.15087736,-0.28730422,0.49799395,-9.844957,0.9679317,47.703007,-1.2577405,-1.547939,-3.4664326,-0.0335382,-0.3367181,-0.1619035,27.5,28.75,27.75,31.375,33.3125,34.125
0.360054,-0.48655695,-1.7685077,-2.0201957,-0.0852134,0.061803296,-0.13405952,-0.40380552,-0.3231192,0.059982024,-3.066516,0.62920004,1.8865258e-05,-0.17527522,0.024162564,0.0026213774,0.047356736,-0.0037665016,-0.005622412,0.4180051,-1.4188957,1.9475559,-2.0914533,-1.5797127,2.3972383,-0.15918581,0.29213047,-0.36092013,0.09021855,-0.043315973,-0.15301976,-0.34476504,0.47884035,-9.864111,0.99031126,47.73077,-1.1878446,-1.6018808,-3.5834785,-0.003708317,-0.34341365,-0.13574448,27.5,28.75,27.75,31.375,33.3125,34.125
0.36205372,-0.4496398,-1.5467417,-2.158485,-0.06837096,0.058334116,-0.1259581,-0.4042024,-0.32308075,0.060024094,-3.0664744,0.6293096,0.00016297853,-0.17484342,0.025162652,0.0010730596,0.049812358,-0.008508812,-0.012798473,0.41765773,-1.4183297,1.9467782,-2.0913084,-1.5797848,2.3969653,-0.16028199,0.29521012,-0.3617507,0.09333172,-0.04359016,-0.14694025,-0.24899697,0.36391866,-9.883265,0.94331104,47.72719,-1.0957508,-1.8019892,-3.7330945,0.012798385,-0.36598954,-0.15974759,27.5,28.75,27.75,31.375,33.3125,34.125
0.36405325,-0.75724673,-1.4841589,-1.7368464,-0.06537531,0.041480698,-0.12590705,-0.40453216,-0.3230183,0.060011204,-3.0663426,0.6293418,7.97067e-05,-0.17422047,0.025851008,4.8590515e-05,0.05202846,-0.0141536305,-0.01965409,0.41732165,-1.417741,1.9460839,-2.091091,-1.5798568,2.3966675,-0.1610414,0.29802844,-0.3640436,0.09889574,-0.043306284,-0.14084105,-0.13407528,0.2681506,-9.825804,0.9768804,47.685097,-1.0612164,-1.8371849,-3.655398,-0.035276186,-0.39077374,-0.18026528,27.5,28.75,27.75,31.375,33.3125,34.125
0.36605403,-0.5559148,-1.12178,-1.0782131,-0.058363903,0.033045147,-0.12743892,-0.4048943,-0.32296568,0.06002093,-3.0662255,0.6294165,0.00017639632,-0.17446573,0.028546186,-0.0012617533,0.055777255,-0.019980615,-0.029265609,0.4170087,-1.4171633,1.9453667,-2.090946,-1.5799769,2.3964174,-0.16530499,0.30062616,-0.36544198,0.104566574,-0.044340085,-0.13548465,-0.095768064,0.19153614,-9.481039,0.9186956,47.67614,-0.9118791,-1.8119912,-3.7450018,-0.05979801,-0.4120185,-0.27282786,27.5,28.75,27.75,31.375,33.3125,34.125
0.3680537,0.3737225,-0.2531829,-0.9860922,-0.011403126,0.023565365,-0.1396676,-0.40525725,-0.32292876,0.06004057,-3.0661557,0.62943816,0.00019040947,-0.17516917,0.029148761,-0.0012454604,0.058469504,-0.022346767,-0.030705158,0.4166854,-1.4165729,1.9445981,-2.0907404,-1.5800375,2.3961174,-0.16581163,0.3032528,-0.36975136,0.10949522,-0.04585302,-0.13453707,-0.076614454,-0.019153614,-9.212888,1.0238806,47.670765,-0.98688626,-2.0241857,-3.6771364,-0.13714059,-0.41917467,-0.31027302,27.5,28.75,27.75,31.375,33.3125,34.125
0.37005416,0.45264944,0.82466125,-1.07409,0.031056106,-0.0035395462,-0.1276049,-0.40559918,-0.32286727,0.060032263,-3.0660195,0.62948555,0.00013494672,-0.17613982,0.028911406,-0.00023152317,0.05772928,-0.022700103,-0.032085802,0.41634968,-1.4159727,1.9438795,-2.090524,-1.5801209,2.3958302,-0.16650134,0.30393326,-0.37377706,0.11284191,-0.045057543,-0.13384718,0.076614454,-0.076614454,-9.174581,0.8851263,47.691364,-0.95391905,-1.8278661,-3.547234,-0.1441721,-0.45261896,-0.34656134,27.5,28.75,27.75,31.375,33.3125,34.125
0.37205335,0.5395272,1.1662642,-0.9810083,0.05757816,-0.02221883,-0.13627943,-0.40599045,-0.32282084,0.060072057,-3.0659487,0.62962115,0.00026154437,-0.17670701,0.029124793,0.0005019237,0.058695357,-0.023608213,-0.03161547,0.41600233,-1.4154084,1.9431022,-2.0903552,-1.5802053,2.3955774,-0.16680701,0.3045854,-0.37725946,0.11686149,-0.045587063,-0.13462023,0.0,-0.1340753,-9.232041,0.97240865,47.694946,-0.9189044,-1.8388399,-3.4149547,-0.22225642,-0.46926194,-0.3453855,27.5,28.75,27.75,31.375,33.3125,34.125
0.374054,0.9560852,1.4816713,-0.8136869,0.05810719,-0.007548625,-0.14721033,-0.40637353,-0.3228005,0.060104594,-3.0658846,0.62966627,0.00033157365,-0.17830941,0.030072855,2.5415888e-05,0.061736524,-0.024217961,-0.03403764,0.4157021,-1.4147934,1.9422749,-2.0901506,-1.5802783,2.3953145,-0.16799724,0.3082771,-0.3809716,0.118666396,-0.04813125,-0.13336627,-0.19153613,-0.17238252,-9.002198,0.9992599,47.701214,-0.8022083,-1.6924615,-3.3799014,-0.23405543,-0.48060966,-0.3843909,27.5,28.75,27.75,31.375,33.3125,34.125
0.37605372,0.03202078,0.8883482,-0.7199471,0.03838594,0.016475067,-0.14571196,-0.4066864,-0.32272696,0.060084764,-3.0656626,0.6297679,0.00015451714,-0.18116164,0.03170816,0.0013095709,0.06402427,-0.01951293,-0.02988816,0.41537824,-1.4141816,1.9415449,-2.0898283,-1.580376,2.3950846,-0.17046821,0.30819792,-0.38384768,0.11816254,-0.0522181,-0.13994253,-0.019153614,-0.22984336,-9.040505,0.88960326,47.677036,-0.86793447,-1.750521,-3.3371654,-0.25375187,-0.45670286,-0.31534055,27.5,28.75,27.75,31.375,33.3125,34.125
0.3780535,-1.1665449,0.051707596,-0.40138546,-0.0052808207,0.06746003,-0.14998533,-0.4070574,-0.322652,0.060109407,-3.0655196,0.6298056,0.00017839918,-0.18156376,0.031342734,0.0008981718,0.06534209,-0.017838461,-0.020410575,0.41501972,-1.4136047,1.9407662,-2.089565,-1.5804962,2.3947694,-0.16866472,0.3097606,-0.38436878,0.11601665,-0.054182373,-0.14759718,-0.17238252,-0.17238252,-9.078813,1.0417832,47.67345,-1.0550103,-1.6780617,-3.374887,-0.24986844,-0.4352071,-0.27835733,27.5,28.75,27.75,31.375,33.3125,34.125
