Tylouw/Master_Thesis_Code/training_data/batch_1/big_rod_t0.3/sample_22_session_1.csv
timestamp[s],tcp_force_x[N],tcp_force_y[N],tcp_force_z[N],tcp_force_rx[Nm?],tcp_force_ry[Nm?],tcp_force_rz[Nm?],tcp_pose_x[m],tcp_pose_y[m],tcp_pose_z[m],tcp_pose_rx[rot_vec_x],tcp_pose_ry[rot_vec_y],tcp_pose_rz[rot_vec_z],tcp_velo_x[m/s],tcp_velo_y[m/s],tcp_velo_z[m/s],tcp_velo_rx[rot_vec_x/s],tcp_velo_ry[rot_vec_y/s],tcp_velo_rz[rot_vec_z/s],q1[rad],q2[rad],q3[rad],q4[rad],q5[rad],q6[rad],qd1[rad/s],qd2[rad/s],qd3[rad/s],qd4[rad/s],qd5[rad/s],qd6[rad/s],tool_acc_x,tool_acc_y,tool_acc_z,current_of_whole_robot[A],voltage_of_whole_robot[V],current_J1[A],current_J2[A],current_J3[A],current_J4[A],current_J5[A],current_J6[A],temp_J1[C],temp_J2[C],temp_J3[C],temp_J4[C],temp_J5[C],temp_J6[C]
6.579794e-07,-0.53138757,-0.8300143,-0.22489396,-0.026117316,0.019232996,0.002218521,-0.3728814,-0.32821867,0.05992988,-3.0784764,0.6248652,-0.00029535446,0.003060343,0.0014580786,-0.0040949276,0.0041383617,-0.008982733,-0.00014623064,0.44815025,-1.470849,2.0095966,-2.1077154,-1.5706614,2.4230676,-7.845077e-05,0.0037184565,0.005055566,0.0011142074,0.00017577874,6.467951e-05,0.076614454,0.21068975,-8.963891,0.6658024,47.72002,-0.19450432,-2.8662581,-2.4430497,-0.4927767,0.1265058,0.01983647,27.5,28.75,27.8125,31.375,33.3125,34.125
0.0020525348,-0.109230086,-0.85782784,-0.16983284,-0.021610593,0.026908552,-0.010988489,-0.37288693,-0.3281998,0.059911862,-3.0784235,0.624893,-0.0003278353,-5.3910835e-08,-2.0898675e-05,-0.0033233152,-0.00026282264,0.00012839935,-0.00014111205,0.44812617,-1.4708132,2.0095966,-2.1077068,-1.5706857,2.4230676,-7.7487864e-05,0.0042930613,0.0051096017,-0.009632874,0.00017023699,6.376302e-05,0.038307227,0.19153613,-8.90643,0.6971306,47.734352,-0.17378756,-2.8401513,-2.407194,-0.47545725,0.111928,0.0028709066,27.5,28.75,27.8125,31.375,33.3125,34.125
0.004052233,-0.37992027,-0.46414202,-0.26279068,-0.014846808,0.014221028,-0.0065046037,-0.37288097,-0.32819682,0.059909612,-3.0784144,0.62483335,-0.000277756,-0.0014901736,-0.00074005686,-0.002216299,-0.0025583648,0.0048923716,-0.00013790373,0.44815025,-1.4708254,2.009621,-2.1077316,-1.5707215,2.4230556,-7.6546414e-05,0.0033830777,0.004409075,-0.013310546,0.00016503326,6.287211e-05,0.05746084,0.17238252,-8.868123,0.6658024,47.750473,-0.17789465,-3.0977178,-2.55387,-0.34550995,0.12707514,0.022828665,27.5,28.75,27.8125,31.375,33.3125,34.125
0.006052473,0.45317158,0.0046280287,-0.28183007,0.0010964186,0.013422385,-0.00821975,-0.37288132,-0.32820988,0.059906434,-3.0784562,0.62480295,-0.00029887544,-0.0005819431,-0.0002992532,-0.001640257,-0.0012104096,0.0021228073,-0.00013717503,0.44815025,-1.4708139,2.0096204,-2.107753,-1.5706857,2.4230313,-7.562759e-05,0.0021834364,0.0031368183,-0.0077584833,0.0001601391,6.200581e-05,0.05746084,0.095768064,-9.002198,0.72622824,47.758533,-0.17474823,-2.9258657,-2.5493903,-0.3837226,0.12277859,0.020448642,27.5,28.75,27.8125,31.375,33.3125,34.125
0.008052472,0.8186191,0.934642,-0.7715222,0.024552517,-0.008030807,-0.017510505,-0.37287176,-0.3282204,0.059902675,-3.0784788,0.6247883,-0.00032227434,0.00029296102,0.00012529879,-0.0013216723,6.0885275e-05,-0.0004907003,-0.00013643368,0.4481623,-1.4708142,2.0096319,-2.107764,-1.5706614,2.4230313,-7.4730524e-05,0.0013070162,0.0023170675,-0.003156014,0.00015552655,6.116303e-05,0.05746084,0.095768064,-9.040505,0.7016076,47.729877,-0.14537576,-2.982192,-2.458748,-0.4299266,0.12981172,0.010245039,27.5,28.75,27.8125,31.375,33.3125,34.125
0.010052543,1.0706781,1.1825378,-1.1149762,0.037969306,-0.011130707,-0.0126383575,-0.37287143,-0.32822025,0.059903868,-3.0784454,0.6248778,-0.0003528182,0.0003907718,0.00016689472,-0.0011831989,0.0003585144,-0.0011388182,-0.00013478838,0.4481623,-1.4708022,2.0096076,-2.1077273,-1.5706614,2.4230914,-7.385444e-05,0.0013071724,0.0016946257,-0.0018206994,0.00016983779,6.0342896e-05,-0.038307227,0.038307227,-9.308657,0.7396539,47.721813,-0.5474056,-2.3499985,-3.0468776,-0.455366,0.10608103,-0.006404508,27.5,28.75,27.8125,31.375,33.3125,34.125
0.012052582,0.6369146,0.41099972,-1.292604,0.019152986,0.0056914696,-0.01628815,-0.37287012,-0.3282239,0.05988738,-3.078459,0.62478435,-0.00039502143,0.00028069486,0.00018790326,-0.0033477035,0.0025005073,-0.0054421853,-0.00023008455,0.44816226,-1.4707648,2.009607,-2.1077397,-1.5706495,2.4230313,-0.00017183353,0.007206552,6.477677e-05,-0.0012834538,0.00010183409,5.9544487e-05,0.019153614,0.095768064,-9.461885,0.7284641,47.705692,-0.72150207,-2.2263944,-3.213183,-0.4487115,0.09013654,-0.05746574,27.5,28.75,27.8125,31.375,33.3125,34.125
0.014051753,-0.7802212,-0.89065874,-1.5794349,-0.007341089,0.011726732,0.004190958,-0.37288392,-0.32821167,0.059886757,-3.0784056,0.62485534,-0.0003490435,-0.0056576026,0.001744666,-0.0038671978,0.0027631829,-0.0059978566,-0.008533213,0.44815925,-1.470749,2.0095913,-2.1077397,-1.5706977,2.4230795,-0.008502047,0.01620314,-0.008697979,-0.00090264203,8.813878e-05,3.9073926e-05,-0.11492168,0.076614454,-9.5385,0.7217513,47.716442,-0.3806852,-2.9239087,-2.982019,-0.4388124,0.08632918,-0.09499672,27.5,28.75,27.8125,31.375,33.3125,34.125
0.016052512,-1.0588548,-1.4407622,-1.8129445,-0.04591135,0.04796009,-0.0032208378,-0.37286845,-0.3281851,0.059841022,-3.0783405,0.624881,-0.0005645398,-0.0062528998,0.002195025,-0.0035523295,0.0025929864,-0.0056344657,-0.009778357,0.4480988,-1.4706774,2.0096037,-2.1076791,-1.5706614,2.4230433,-0.009887651,0.015893713,-0.009166726,-0.00052571984,8.347979e-05,-0.00010126974,-0.4213795,0.24899697,-9.768343,0.75755644,47.696735,-0.42654413,-2.7971194,-2.994121,-0.44548845,0.07552257,-0.14449126,27.5,28.75,27.8125,31.375,33.3125,34.125
0.018052256,-2.386949,-2.1682544,-1.7737539,-0.06481318,0.06844656,-0.003221477,-0.37287194,-0.3282018,0.059843812,-3.0783594,0.6248813,-0.0005879623,-0.005205356,0.002590312,-0.0036856045,0.0031616113,-0.006802817,-0.0032814443,0.44811082,-1.4706539,2.009569,-2.1076672,-1.5706376,2.423053,-0.00967408,0.014414155,-0.0074899513,0.0005756103,7.974323e-05,-0.006386174,-0.38307226,0.34476504,-9.768343,0.8023209,47.744205,-0.5849526,-2.4857712,-3.3944721,-0.4548458,0.07549289,-0.12149848,27.5,28.75,27.8125,31.375,33.3125,34.125
0.020052407,-2.1609693,-1.7925644,-1.5701128,-0.07490069,0.10999114,-0.018122891,-0.37287235,-0.32819757,0.059855208,-3.07835,0.62484044,-0.00059263257,-0.0054394347,0.0028967892,-0.0042801294,0.0044540116,-0.009482839,-0.0022730406,0.44811058,-1.4706649,2.0095437,-2.107618,-1.5706495,2.4230285,-0.01046349,0.01690364,-0.009404695,0.0029759107,7.6357035e-05,-0.008183144,-0.5363012,0.3256114,-9.825804,0.80456203,47.7451,-0.68659854,-2.4664466,-3.572496,-0.47336948,0.07992422,-0.11781524,27.5,28.75,27.8125,31.375,33.3125,34.125
0.022052368,-2.4488354,-1.5741861,-1.6694603,-0.05607179,0.10422114,-0.016535796,-0.37290883,-0.32817635,0.059843626,-3.0783114,0.6248526,-0.00057219755,-0.0076206382,0.002828026,-0.003466362,0.0035997925,-0.007716798,-0.004673379,0.44806197,-1.4706047,2.009507,-2.1076305,-1.5706857,2.4229925,-0.012317568,0.018556027,-0.013103233,0.003060097,7.3249095e-05,-0.0076344176,-0.61291564,0.30645782,-9.787497,0.75084364,47.737038,-0.7818706,-2.4245157,-3.403884,-0.47072572,0.06795091,-0.15894026,27.5,28.75,27.8125,31.375,33.3125,34.125
0.024052383,-1.5241101,-0.93535185,-1.6211613,-0.04093731,0.108511746,-0.030619098,-0.3728993,-0.32818034,0.059820868,-3.0783145,0.62493134,-0.00068986876,-0.008938403,0.0031044423,-0.0033204409,0.0030888137,-0.006660048,-0.005861382,0.44803742,-1.4705683,2.0095193,-2.107631,-1.5706257,2.4230165,-0.014035237,0.019535769,-0.014293031,0.002096752,7.0384485e-05,-0.008162927,-0.7661445,0.34476504,-9.787497,0.7329411,47.72719,-0.79789394,-2.506958,-3.4026742,-0.4542294,0.0620236,-0.19387788,27.5,28.75,27.8125,31.375,33.3125,34.125
0.026052007,-1.082754,-0.81746495,-1.5330254,-0.023102429,0.1020544,-0.03991312,-0.3728957,-0.32818055,0.05978651,-3.0782712,0.6248827,-0.00076697447,-0.010377043,0.002973353,-0.0025595399,0.002045213,-0.004499565,-0.0054704985,0.44804913,-1.4704843,2.009506,-2.107631,-1.5706376,2.4230034,-0.015096414,0.019803496,-0.016147409,0.0012837881,6.77353e-05,-0.009613593,-0.8236054,0.21068975,-9.730036,0.69041777,47.713753,-0.82185686,-2.370039,-3.4139705,-0.45246762,0.064026214,-0.20547894,27.5,28.75,27.8125,31.375,33.3125,34.125
0.028052444,-1.5344031,-0.6724716,-1.5289744,-0.026238099,0.078442134,-0.04969146,-0.37297538,-0.32816324,0.059837136,-3.0783083,0.6249091,-0.0005559106,-0.011579456,0.0030498083,-0.002112494,0.001474409,-0.0033158169,-0.00496183,0.44797668,-1.4705082,2.0094216,-2.1076548,-1.5706857,2.4229429,-0.01632996,0.020405486,-0.017764747,0.0009841907,6.527829e-05,-0.011354637,-0.68953013,0.21068975,-9.768343,0.7418897,47.711063,-0.7878446,-2.3033962,-3.4809957,-0.43929875,0.041525714,-0.22079279,27.5,28.75,27.8125,31.375,33.3125,34.125
0.030051751,-1.6883706,-0.7581809,-1.3809932,-0.018184591,0.07768869,-0.05633787,-0.3729681,-0.32817686,0.05980811,-3.078318,0.6248725,-0.0006763531,-0.012770877,0.003100134,-0.0017963398,0.001123902,-0.0025276376,-0.0039337995,0.44797626,-1.4704359,2.0094087,-2.1076548,-1.5706376,2.4229183,-0.01748793,0.021473374,-0.019653019,0.0009427153,3.362813e-05,-0.013539261,-0.7086837,0.19153613,-9.730036,0.77545905,47.72002,-0.7509011,-2.3201709,-3.437326,-0.42958853,0.045293882,-0.21624176,27.5,28.75,27.8125,31.375,33.3125,34.125
0.03205155,-1.2741334,-0.32052413,-1.3722204,-0.021414675,0.0951783,-0.07086403,-0.37298003,-0.32815278,0.05978068,-3.078233,0.6249899,-0.0007699322,-0.013875736,0.0027145692,-0.0014491016,0.00069310656,-0.0016405784,-0.0032515277,0.44792816,-1.4703634,2.009384,-2.1076186,-1.5706495,2.4229543,-0.017766122,0.02293819,-0.022044044,0.00088250876,3.0570907e-05,-0.014498038,-0.68953013,0.076614454,-9.672575,0.779936,47.72092,-0.75456595,-2.419786,-3.3633184,-0.4138102,0.025089843,-0.21582684,27.5,28.75,27.8125,31.375,33.3125,34.125
0.034051843,-1.7976863,-0.5874169,-1.2379473,0.0007812656,0.08368457,-0.073218636,-0.3730148,-0.32816723,0.05978473,-3.0782533,0.6250137,-0.0007505433,-0.015319474,0.0027662434,-0.0009971415,0.0002140856,-0.0005938235,-0.003861996,0.44791558,-1.4703032,2.0093114,-2.107631,-1.5706376,2.422954,-0.01915774,0.024090474,-0.024345927,0.0008813186,3.906706e-06,-0.015277565,-0.5746084,0.019153614,-9.615114,0.69937176,47.681515,-0.74897563,-2.3300614,-3.3942585,-0.39762545,0.0055211335,-0.21028483,27.5,28.75,27.8125,31.375,33.3125,34.125
0.0360523,-1.0510743,-0.1814728,-1.2946149,0.01860511,0.08147753,-0.09427884,-0.3730594,-0.3281738,0.05978388,-3.0782878,0.6249632,-0.00073273556,-0.016585415,0.00279685,-0.00064109045,-0.00020138625,0.00026947388,-0.004731127,0.4478792,-1.4702308,2.0092394,-2.1076548,-1.5706257,2.4228818,-0.020362524,0.025203945,-0.02637666,0.00084066705,2.5507995e-07,-0.015611807,-0.47884035,-0.095768064,-9.576807,0.7463667,47.716442,-0.7690135,-2.3331892,-3.4035797,-0.38694417,0.013681248,-0.20437121,27.5,28.75,27.8125,31.375,33.3125,34.125
0.038052455,-0.99532384,0.32431108,-1.1424836,0.02743899,0.047580313,-0.10565048,-0.37311932,-0.3281665,0.059792325,-3.0783076,0.62500465,-0.00064501574,-0.017769093,0.0025070005,0.00015268095,-0.0010771493,0.002082674,-0.0041782684,0.44781908,-1.4701829,2.0091784,-2.107703,-1.5706376,2.4228451,-0.020890292,0.025457665,-0.028426914,0.0006232607,1.6654898e-08,-0.0166911,-0.36391866,-0.1340753,-9.595961,0.7105615,47.741516,-0.815243,-2.2061806,-3.3578296,-0.37037665,0.016607996,-0.21504924,27.5,28.75,27.8125,31.375,33.3125,34.125
0.040051952,-0.61091167,0.49557424,-1.4056754,0.03277111,0.023142425,-0.11916095,-0.37316683,-0.32813364,0.059800576,-3.078262,0.62507266,-0.0005846112,-0.018898414,0.0027176584,0.00047644143,-0.0013995924,0.0027463357,-0.0047301697,0.44774666,-1.4701588,2.0091302,-2.1076906,-1.5706857,2.422821,-0.022310609,0.026233295,-0.030044556,0.0007264776,1.0874458e-09,-0.017558454,-0.24899697,-0.1340753,-9.481039,0.7642693,47.716442,-0.7602092,-2.1720603,-3.3391666,-0.35079998,0.009223808,-0.19743013,27.5,28.75,27.8125,31.375,33.3125,34.125
0.042052146,-0.28784236,-0.32704702,-1.3345834,0.04449941,0.004753823,-0.13066016,-0.37320903,-0.328154,0.05980838,-3.0782974,0.625119,-0.000588587,-0.019927971,0.0029481729,0.00082372443,-0.0013365735,0.0026109356,-0.0050911093,0.447722,-1.4700866,2.009033,-2.10769,-1.5706495,2.4228208,-0.023678062,0.02729589,-0.032319505,0.0020886636,7.100244e-11,-0.018563839,-0.1340753,-0.05746084,-9.5385,0.7083204,47.688675,-0.779579,-2.1698694,-3.3653746,-0.34715328,-0.023430385,-0.20470324,27.5,28.75,27.8125,31.375,33.3125,34.125
0.044052195,-0.31662506,-0.3734022,-1.3394274,0.022632893,-0.004076813,-0.1390399,-0.37322563,-0.3281169,0.059801277,-3.0782259,0.625143,-0.0006294944,-0.020478532,0.003436596,0.0004911451,-0.0005822877,0.0010372166,-0.0055041504,0.44766167,-1.470062,2.0090086,-2.10763,-1.5706857,2.4227846,-0.025096681,0.028982602,-0.03374752,0.0035742628,4.635952e-12,-0.01956873,-0.05746084,-0.095768064,-9.519346,0.83365434,47.71286,-0.71852356,-2.225217,-3.3811908,-0.36125806,-0.021978792,-0.20976287,27.5,28.75,27.8125,31.375,33.3125,34.125
0.0460516,-0.5624218,-1.0009271,-1.2388768,0.01196884,-0.0039840103,-0.15003206,-0.37328458,-0.3281195,0.0598078,-3.0782394,0.6251453,-0.0006003027,-0.021318778,0.004131817,0.000759425,0.00075281673,0.0014189186,-0.005211187,0.4476132,-1.469978,2.0089014,-2.10763,-1.5706862,2.422736,-0.02623633,0.029439803,-0.03513238,0.0047403537,-0.0013694527,-0.020997928,-0.11492168,0.0,-9.519346,0.73069996,47.692257,-0.74357426,-2.216416,-3.3708267,-0.35094777,-0.025215387,-0.19739854,27.5,28.75,27.8125,31.375,33.3125,34.125
0.048051998,-0.61541134,-1.349024,-1.3860458,-0.004668309,0.002965163,-0.167467,-0.3733266,-0.32811645,0.059801236,-3.078259,0.62514895,-0.00062310346,-0.022286672,0.0046149376,0.0009267044,0.0012554297,0.0017895583,-0.005179887,0.44755283,-1.4699059,2.0088398,-2.107641,-1.5706619,2.4226754,-0.027603721,0.03021829,-0.03647498,0.0051902826,-0.0019855879,-0.022394544,-0.019153614,0.13407528,-9.442732,0.75084364,47.689575,-0.6543424,-2.140902,-3.337996,-0.36515826,-0.025658552,-0.19089757,27.5,28.75,27.8125,31.375,33.3125,34.125
0.050052438,-0.7269766,-1.710455,-1.5205104,-0.017173437,0.013679561,-0.16956946,-0.37336865,-0.32809356,0.05979731,-3.0781991,0.6252134,-0.0005919023,-0.023455275,0.004632713,0.0015324787,0.0009646527,0.0029982845,-0.004588321,0.44750443,-1.4698458,2.0087802,-2.1076295,-1.5707105,2.422675,-0.028516207,0.030752148,-0.038518753,0.0054841377,-0.0022513054,-0.023896795,0.05746084,0.21068975,-9.5385,0.7642693,47.70032,-0.6731682,-2.0578313,-3.433096,-0.3391589,-0.035486482,-0.18348593,27.5,28.75,27.8125,31.375,33.3125,34.125
0.05205256,-0.46464822,-1.274322,-1.3557588,-0.03758224,0.01864831,-0.1686923,-0.37341225,-0.32809544,0.05980972,-3.0782244,0.6251614,-0.00056344515,-0.02401312,0.0048965765,0.0015104664,0.0011262853,0.0019734395,-0.004521468,0.44746804,-1.4697975,2.0086958,-2.1076167,-1.5707101,2.422603,-0.02971787,0.031876672,-0.040015277,0.006848623,-0.0019537925,-0.025165308,0.038307227,0.24899697,-9.615114,0.78217715,47.73077,-0.67080724,-1.9305265,-3.40446,-0.35148048,-0.027555019,-0.18126416,27.5,28.75,27.8125,31.375,33.3125,34.125
0.05405182,0.20229612,-1.2895746,-1.4437153,-0.028763544,0.022300037,-0.14661376,-0.3734418,-0.32808626,0.059808902,-3.0782323,0.625143,-0.0006176809,-0.024243386,0.0050459146,0.0012022574,0.0013603865,0.0003850979,-0.0034164123,0.44740778,-1.469749,2.0086362,-2.1075804,-1.5706862,2.4225302,-0.030527063,0.033271246,-0.041125577,0.008096065,-0.0014789683,-0.027079988,0.05746084,0.28730422,-9.615114,0.7329411,47.741516,-0.6753929,-1.9713848,-3.3906674,-0.36479333,-0.042046495,-0.15793307,27.5,28.75,27.8125,31.375,33.3125,34.125
0.05605218,-0.37058824,-1.5589658,-1.4838164,-0.020864408,0.004156264,-0.13934787,-0.3735244,-0.3280643,0.059828453,-3.0782187,0.6252361,-0.0005762015,-0.025278945,0.0050230906,0.0016955655,0.0008735591,0.0012338571,-0.0031333428,0.44729948,-1.469677,2.0085042,-2.1075447,-1.5706981,2.4224818,-0.031463444,0.033863705,-0.04297263,0.008373884,-0.0014105435,-0.028298503,0.019153614,0.36391866,-9.634268,0.7530795,47.7451,-0.6585481,-1.9111362,-3.4584336,-0.35337675,-0.055642013,-0.14409356,27.5,28.75,27.8125,31.375,33.3125,34.125
0.05805218,-0.032838807,-1.1910985,-1.4313165,-0.032530297,0.019330287,-0.14072444,-0.37354442,-0.328059,0.059804432,-3.0782003,0.6252324,-0.0006463301,-0.026113244,0.004942557,0.0020846643,0.00047182085,0.0020373606,-0.002454466,0.4472632,-1.4695929,2.008467,-2.1075447,-1.5706862,2.4224455,-0.032073997,0.034385767,-0.04445528,0.008436273,-0.0014009823,-0.029586941,0.0,0.45968673,-9.615114,0.784413,47.71465,-0.68696356,-1.984908,-3.475725,-0.34980392,-0.046398893,-0.12563019,27.5,28.75,27.8125,31.375,33.3125,34.125
0.060052194,-0.123476066,-1.462914,-1.4601791,-0.027878268,0.030603994,-0.14605269,-0.37361297,-0.32805577,0.059828922,-3.078216,0.6252919,-0.00055946404,-0.027067529,0.0050304225,0.0023601635,0.0006418484,0.0022113963,-0.001701121,0.44720295,-1.4695446,2.0083578,-2.1075442,-1.5706981,2.4224205,-0.032944247,0.035544503,-0.0465563,0.009295258,-0.001631128,-0.031208958,-0.05746084,0.36391866,-9.5385,0.8090337,47.737934,-0.67198575,-1.8798771,-3.476962,-0.342326,-0.06732099,-0.11696519,27.5,28.75,27.8125,31.375,33.3125,34.125
0.062052336,-0.6658863,-0.860793,-1.2479802,-0.045881025,0.040460385,-0.14670384,-0.37368497,-0.32805,0.059849564,-3.078219,0.6252916,-0.0004923562,-0.027597524,0.0050209984,0.002048901,0.0012834826,0.00081126654,-0.0006831468,0.44714284,-1.469472,2.0082252,-2.1075199,-1.570722,2.42236,-0.033420302,0.037802845,-0.048634216,0.0106535,-0.0016052122,-0.0327019,-0.095768064,0.28730422,-9.576807,0.7486078,47.7245,-0.71155405,-1.8971474,-3.468339,-0.3669427,-0.07614307,-0.11123656,27.5,28.75,27.8125,31.375,33.3125,34.125
0.064052634,-1.0081291,-1.3116087,-1.1593281,-0.033187058,0.05037302,-0.14771223,-0.37372333,-0.3280279,0.059827063,-3.078181,0.6253428,-0.00057966943,-0.028517349,0.005294265,0.0021799093,0.0015832033,0.0009429509,-0.0015347416,0.44705838,-1.4693757,2.0081656,-2.107496,-1.5707101,2.4223123,-0.03453991,0.038886197,-0.050252702,0.011200869,-0.0019367324,-0.03296815,-0.095768064,0.34476504,-9.481039,0.80679786,47.729877,-0.7254591,-1.860261,-3.4370468,-0.36114386,-0.07709034,-0.08885326,27.5,28.75,27.8125,31.375,33.3125,34.125
0.06605177,-0.87766814,-0.961656,-1.126034,-0.02931162,0.058592934,-0.14195824,-0.37377286,-0.3280242,0.059840444,-3.0782092,0.6252512,-0.00059188745,-0.029165309,0.0050820913,0.0018671377,0.0016888665,0.00035573434,-0.00042539928,0.44699842,-1.4693152,2.0080574,-2.1074479,-1.5706981,2.4221916,-0.034829367,0.04106483,-0.05195173,0.01129592,-0.0017824427,-0.03436594,-0.21068975,0.24899697,-9.500193,0.7284641,47.705692,-0.7745209,-1.9310119,-3.465621,-0.36101413,-0.10253683,-0.085182205,27.5,28.75,27.8125,31.375,33.3125,34.125
0.06805185,-0.6710365,-0.93437475,-1.0147564,-0.015533189,0.06635546,-0.14052238,-0.37385893,-0.32803142,0.05985995,-3.0782228,0.62531155,-0.00047819145,-0.030611448,0.00515379,0.0020986453,0.0012821738,0.0011425026,-0.00028174292,0.44694993,-1.4692189,2.0079124,-2.1074722,-1.570722,2.4221792,-0.03628425,0.04263677,-0.054153975,0.011039642,-0.0017593874,-0.03596302,-0.34476504,0.30645782,-9.500193,0.7911258,47.70032,-0.7257837,-1.872909,-3.4471478,-0.35134444,-0.122686185,-0.056470245,27.5,28.75,27.8125,31.375,33.3125,34.125
0.07005197,-0.7747953,-0.704054,-1.1853698,-0.005671755,0.05550441,-0.13959144,-0.37390414,-0.32802337,0.059861213,-3.0782557,0.62524295,-0.00050199876,-0.03181945,0.0046953065,0.0025310554,0.0006856208,0.0026116644,-0.0016598008,0.4468777,-1.4691584,2.0078404,-2.1074598,-1.5706981,2.42206,-0.03644341,0.043950193,-0.05645481,0.010445701,-0.0018618776,-0.03474216,-0.24899697,0.17238252,-9.461885,0.74413085,47.684196,-0.7668427,-1.8400245,-3.405158,-0.34668338,-0.121274546,-0.07206018,27.5,28.75,27.8125,31.375,33.3125,34.125
0.072052024,-0.8647812,-0.4326985,-1.039883,0.00069863856,0.053581227,-0.1393326,-0.3739763,-0.32800907,0.05986136,-3.0782168,0.62531173,-0.0005212822,-0.0321427,0.005038163,0.0018850298,0.00211121,0.0016180167,-0.003113933,0.4467937,-1.469038,2.0076969,-2.107412,-1.5707105,2.422024,-0.03679383,0.045919765,-0.057210315,0.010746448,-0.002719178,-0.033635993,-0.30645782,0.13407528,-9.385271,0.76874626,47.705692,-0.85471004,-1.8954988,-3.4975762,-0.3558021,-0.115031034,-0.08522771,27.5,28.75,27.8125,31.375,33.3125,34.125
0.074052185,-0.778624,-0.11109619,-1.0390903,-0.0022773878,0.058108035,-0.14251035,-0.37404674,-0.3280067,0.059872866,-3.078235,0.62539214,-0.00051234104,-0.034543015,0.004550332,0.0034958234,0.0011876854,0.005431932,-0.0026046212,0.44670957,-1.4689538,2.0075753,-2.1073997,-1.5706872,2.4219878,-0.037486482,0.04659648,-0.0616287,0.0106528085,-0.0035432458,-0.034833595,-0.3256114,0.19153613,-9.385271,0.8291774,47.701214,-0.8908417,-1.804821,-3.3760867,-0.34763598,-0.13294585,-0.08187227,27.5,28.75,27.8125,31.375,33.3125,34.125
0.076051734,-0.7575976,-0.2689033,-0.9915554,0.0051938794,0.06528693,-0.13885859,-0.37415057,-0.32800525,0.05991513,-3.0782788,0.6253251,-0.00035895605,-0.035185207,0.0054669674,0.0024863246,0.0025705623,0.0040620966,-0.0037460325,0.44663686,-1.4688811,2.007396,-2.1073887,-1.5707229,2.4218678,-0.03933908,0.04888073,-0.061750714,0.0103240665,-0.004196468,-0.03554334,-0.4213795,0.15322891,-9.346964,0.7329411,47.66987,-0.8263513,-1.8178461,-3.3600245,-0.3329683,-0.13747251,-0.067899324,27.5,28.75,27.8125,31.375,33.3125,34.125
0.0780519,-1.1805626,-0.30335727,-0.98969036,-0.0042374604,0.063694045,-0.14316732,-0.3742003,-0.32797775,0.059881613,-3.0782275,0.6253527,-0.00045100515,-0.036079336,0.0060737524,0.0016374328,0.0043968265,0.002989553,-0.0038316543,0.44654036,-1.4687483,2.007324,-2.1073759,-1.5707234,2.4217951,-0.040478833,0.05192055,-0.06318607,0.010479304,-0.005386114,-0.03659351,-0.4213795,0.114921674,-9.385271,0.78888994,47.704796,-0.7742057,-1.976165,-3.445243,-0.35323688,-0.116346955,-0.06082245,27.5,28.75,27.8125,31.375,33.3125,34.125
0.08005214,-1.4239169,-0.9030015,-0.9468243,0.004203609,0.06114416,-0.13145952,-0.37424293,-0.32795718,0.05988194,-3.0782034,0.6253089,-0.0004524997,-0.038611826,0.0059959427,0.0039405213,0.003885267,0.0087944465,-0.0037226737,0.44648018,-1.468689,2.00725,-2.107341,-1.5707487,2.4217107,-0.041229237,0.050573528,-0.06689919,0.010088661,-0.007441152,-0.03744654,-0.4405331,0.11492168,-9.270349,0.80456203,47.70032,-0.8360094,-1.8149731,-3.343438,-0.3381548,-0.117776625,-0.058672637,27.5,28.75,27.8125,31.375,33.3125,34.125
0.08205161,-1.0403388,-0.35294145,-0.9642756,-0.0056519927,0.07184799,-0.14215443,-0.37432015,-0.3279839,0.059885837,-3.078267,0.6253033,-0.00048047252,-0.039916597,0.0061089117,0.0040786224,0.006211171,0.010131232,-0.0046598203,0.44642037,-1.4685445,2.0070822,-2.1073406,-1.5706896,2.4216394,-0.04080283,0.052910987,-0.069898225,0.010560337,-0.010119641,-0.036075816,-0.4213795,0.095768064,-9.3661175,0.78217715,47.71017,-0.9150144,-1.7998189,-3.2367787,-0.3354135,-0.09035063,-0.063781545,27.5,28.75,27.8125,31.375,33.3125,34.125
0.08405166,-1.2449999,-0.82449204,-1.1370091,0.012856221,0.0664011,-0.13375935,-0.37441847,-0.32795152,0.059912506,-3.0782106,0.62540954,-0.0003941731,-0.040617052,0.0080571445,0.002747294,0.009662824,0.008531483,-0.008816912,0.44631147,-1.4684598,2.0069144,-2.1072805,-1.5707501,2.4216042,-0.04344931,0.055162326,-0.06935559,0.010705119,-0.012538917,-0.034560695,-0.4213795,0.095768064,-9.423578,0.8179876,47.694946,-0.89289,-1.7903993,-3.3806775,-0.3268401,-0.04873244,-0.09168646,27.5,28.75,27.8125,31.375,33.3125,34.125
0.086052656,-1.5154707,-0.86191875,-1.1343812,0.008041276,0.057485763,-0.128717,-0.37451264,-0.32794327,0.0599229,-3.0782168,0.6253914,-0.00032655286,-0.042568475,0.008252836,0.002547125,0.011121279,0.008833109,-0.008577875,0.4462271,-1.4683387,2.0067575,-2.1072805,-1.5707744,2.4215078,-0.044590916,0.059034538,-0.07324369,0.011081326,-0.01399124,-0.035936173,-0.30645782,0.15322891,-9.385271,0.71279734,47.678825,-0.8142613,-2.0230293,-3.2528505,-0.33139652,-0.024073768,-0.11251719,27.5,28.75,27.8125,31.375,33.3125,34.125
0.08805178,-1.11001,-0.6367319,-1.0609365,-0.013073967,0.054638654,-0.13876627,-0.37459007,-0.32792717,0.059924964,-3.0781736,0.6254791,-0.00031943386,-0.04427687,0.007998996,0.0048178434,0.0071882284,0.012111281,-0.010480132,0.44614223,-1.46822,2.006614,-2.1072443,-1.5707973,2.4214833,-0.04708538,0.056198727,-0.07541816,0.011427393,-0.011861893,-0.036531627,-0.36391866,0.17238252,-9.423578,0.7486078,47.682407,-0.76744014,-1.7611017,-3.2380245,-0.33904517,-0.033909585,-0.104035884,27.5,28.75,27.8125,31.375,33.3125,34.125
0.09005204,-0.924396,-1.0674505,-1.326739,-0.014904704,0.04601385,-0.13370116,-0.37466264,-0.32790932,0.059904203,-3.078146,0.6254539,-0.00032759845,-0.044073693,0.0066778264,0.0035781697,0.005498865,0.009011868,-0.009554714,0.44605845,-1.4680748,2.0065048,-2.1072567,-1.5708202,2.4213874,-0.046343286,0.060153536,-0.07681952,0.010929104,-0.009005086,-0.036718704,-0.45968673,0.24899697,-9.32781,0.800085,47.699425,-0.778103,-1.841701,-3.2128983,-0.31656826,-0.052391045,-0.1322897,27.5,28.75,27.8125,31.375,33.3125,34.125
0.09205215,-0.6103145,-1.0715827,-1.1783671,-0.036910553,0.046582427,-0.14464796,-0.37475032,-0.3279025,0.059940327,-3.0781367,0.6254517,-0.00031694476,-0.044953994,0.005706003,0.003813777,0.0037516074,0.008458937,-0.009552491,0.44597435,-1.4679781,2.0062883,-2.1071365,-1.5708321,2.4213033,-0.04652624,0.062342785,-0.07991977,0.011577532,-0.007194939,-0.036905445,-0.47884035,0.22984336,-9.442732,0.7486078,47.682407,-0.90968037,-1.8674755,-3.2223892,-0.32103878,-0.06757854,-0.1376581,27.5,28.75,27.8125,31.375,33.3125,34.125
0.094052166,-0.9762137,-1.6634486,-1.2961438,-0.033691417,0.045247044,-0.13759911,-0.37484828,-0.32789186,0.059941616,-3.0781498,0.62549305,-0.00027501193,-0.04495781,0.0067827525,0.00253282,0.004068008,0.0051200218,-0.011878655,0.44586548,-1.4678458,2.0061452,-2.1071599,-1.5708317,2.4212186,-0.04932047,0.064045966,-0.07897837,0.012076824,-0.0060357056,-0.037376452,-0.36391866,0.3256114,-9.3661175,0.8224646,47.70838,-0.8070116,-1.942868,-3.1141834,-0.3458552,-0.10366648,-0.13916011,27.5,28.75,27.8125,31.375,33.3125,34.125
0.09605168,-1.0099343,-1.7103539,-1.3123099,-0.03130674,0.051455427,-0.12751962,-0.37495497,-0.3278747,0.059957143,-3.0781333,0.62552935,-0.00017049635,-0.045668937,0.007019854,0.0020331207,0.004312683,0.0043392596,-0.012693772,0.445769,-1.4677255,2.0059774,-2.1071599,-1.5708793,2.421147,-0.05047168,0.06604957,-0.08000416,0.011906098,-0.0059204916,-0.037712086,-0.38307226,0.34476504,-9.32781,0.7866488,47.66539,-0.8342478,-1.8569157,-3.2916765,-0.31868866,-0.09983545,-0.16543365,27.5,28.75,27.8125,31.375,33.3125,34.125
0.09805209,-0.58597064,-1.0347353,-1.1189166,-0.038566496,0.06761393,-0.14618136,-0.3750237,-0.3278502,0.05992888,-3.0780866,0.625616,-0.0003220938,-0.04850698,0.0063528614,0.0037956205,0.0036577499,0.008391173,-0.013002466,0.445637,-1.4675572,2.0058434,-2.1071002,-1.570844,2.421075,-0.05097817,0.06757472,-0.0858121,0.012255121,-0.0070909546,-0.03790344,-0.24899697,0.28730422,-9.385271,0.75755644,47.68599,-0.8408047,-1.9178392,-3.1364992,-0.31269383,-0.0931368,-0.17266993,27.5,28.75,27.8125,31.375,33.3125,34.125
0.100051984,-0.88401705,-1.0673231,-0.95213634,-0.025065513,0.06225859,-0.13998336,-0.37513655,-0.32782933,0.059954472,-3.0780501,0.6257042,-0.00023425168,-0.04801671,0.0073541827,0.0021461772,0.005887327,0.0059302757,-0.013074295,0.44552872,-1.4674367,2.0056412,-2.107052,-1.5708927,2.4210267,-0.051759258,0.06947043,-0.08400373,0.011733088,-0.008038173,-0.038611736,-0.24899697,0.28730422,-9.346964,0.77545905,47.677036,-0.86084557,-1.9402602,-3.235227,-0.3182504,-0.07201961,-0.18389201,27.5,28.75,27.8125,31.375,33.3125,34.125
0.10205212,-1.1582955,-1.0956683,-1.2162158,-0.00884762,0.041559335,-0.13754037,-0.37526172,-0.32785335,0.059972804,-3.0781338,0.62568325,-0.00013709774,-0.050302517,0.007115769,0.0028617687,0.005636893,0.00820364,-0.013595439,0.44544432,-1.4672683,2.0054252,-2.1071007,-1.5708684,2.4209187,-0.052843567,0.07174342,-0.08807255,0.011372314,-0.0087974,-0.039171413,-0.19153613,0.34476504,-9.3661175,0.83813137,47.698532,-0.8224677,-1.938873,-3.210558,-0.30643126,-0.06646684,-0.20820892,27.5,28.75,27.8125,31.375,33.3125,34.125
0.10405232,-0.7156964,-1.0677416,-1.240965,-0.0019829052,0.037337523,-0.13335827,-0.37535253,-0.3278197,0.059978653,-3.0780594,0.6257252,-8.325236e-05,-0.05105598,0.0073263724,0.0028041925,0.0062713823,0.008223862,-0.013391215,0.4453481,-1.467148,2.0052683,-2.1070526,-1.5709409,2.4208584,-0.05351058,0.073086835,-0.08950378,0.011713269,-0.009381297,-0.040040515,-0.11492168,0.28730422,-9.32781,0.73741806,47.72719,-0.8808396,-1.966228,-3.0664964,-0.2813448,-0.062476948,-0.23331648,27.5,28.75,27.8125,31.375,33.3125,34.125
0.1060518,-0.07363869,-1.0862334,-1.0706995,-0.0087180985,0.032562815,-0.14314869,-0.37546468,-0.32781652,0.05999198,-3.078106,0.6257519,-7.2765084e-05,-0.0515532,0.0069612125,0.0027101168,0.0069434727,0.008552418,-0.010028021,0.44521645,-1.4670038,2.0050766,-2.1070411,-1.5709046,2.4207375,-0.052747235,0.0747878,-0.09115742,0.011660796,-0.010131859,-0.04263809,-0.1340753,0.30645782,-9.385271,0.78888994,47.73077,-0.958199,-1.9139593,-3.157733,-0.26764107,-0.073820636,-0.22712082,27.5,28.75,27.8125,31.375,33.3125,34.125
0.10805205,-0.16235858,-0.54161763,-1.0279229,-0.020098913,0.02005207,-0.14193016,-0.37556985,-0.32777435,0.05997631,-3.0780094,0.6257331,-2.7593687e-05,-0.052708287,0.007858466,0.0022545636,0.0073532853,0.0070182653,-0.012124451,0.4451074,-1.4668232,2.0049083,-2.1070168,-1.5710009,2.4206293,-0.05565103,0.07690984,-0.092679106,0.012614949,-0.0098436205,-0.04344469,-0.15322891,0.22984336,-9.404425,0.7642693,47.684196,-0.90971005,-1.991061,-3.08357,-0.24816579,-0.050127473,-0.23977992,27.5,28.75,27.8125,31.375,33.3125,34.125
0.110052094,-0.57919043,-1.0398134,-1.0349371,-0.014458927,0.007466776,-0.13679966,-0.37568867,-0.3277767,0.060004976,-3.078038,0.6258731,2.4385829e-05,-0.052726936,0.0062709562,0.003094265,0.005769304,0.008012361,-0.010872911,0.44498828,-1.4666913,2.0046918,-2.1069925,-1.5709766,2.420594,-0.05334406,0.077114604,-0.09494869,0.013097454,-0.008842182,-0.042390436,-0.21068975,0.21068975,-9.423578,0.78888994,47.691364,-0.97597814,-1.9670194,-3.034851,-0.27328795,-0.053251676,-0.26305678,27.5,28.75,27.8125,31.375,33.3125,34.125
0.11205254,-0.70154154,-1.240537,-1.0702602,-0.014536473,0.010644087,-0.13172331,-0.37578034,-0.32775012,0.05999826,-3.0779924,0.6258436,1.1861253e-05,-0.053230517,0.0065725837,0.0016297725,0.007314313,0.005011882,-0.010532066,0.44487986,-1.4665344,2.0045235,-2.1069443,-1.5710124,2.420473,-0.054277938,0.08149637,-0.09656543,0.013703051,-0.008949121,-0.043663185,-0.076614454,0.21068975,-9.3661175,0.7866488,47.709274,-1.1648474,-2.0540926,-3.1161451,-0.2799133,-0.07136002,-0.2912526,27.5,28.75,27.8125,31.375,33.3125,34.125
0.114051774,-0.31006804,-0.9356066,-0.8959082,-0.022247158,0.031026278,-0.14226246,-0.37589106,-0.3277884,0.06002963,-3.078094,0.6258255,8.59511e-05,-0.053866547,0.006696017,0.0025124282,0.006832939,0.006916886,-0.01032769,0.4448198,-1.4663911,2.0042965,-2.1069562,-1.5709647,2.420389,-0.05480505,0.08018812,-0.097151786,0.01367353,-0.0093315765,-0.04439474,-0.15322891,0.24899697,-9.308656,0.83589023,47.741516,-1.1236112,-1.9208989,-3.139851,-0.25028467,-0.04714214,-0.31175599,27.5,28.75,27.8125,31.375,33.3125,34.125
0.11605213,-0.59214216,-1.1160774,-1.0599052,-0.011949821,0.0366288,-0.1364196,-0.37601396,-0.32775068,0.060027655,-3.0780182,0.62598395,9.046722e-05,-0.05516792,0.0075845257,0.0022453044,0.007259744,0.005856334,-0.011194251,0.44466272,-1.4662106,2.0040915,-2.106908,-1.5710009,2.4203405,-0.057666264,0.08212956,-0.0989082,0.014625266,-0.009263359,-0.04638825,-0.11492168,0.24899697,-9.32781,0.7642693,47.729877,-1.042494,-1.924099,-3.0780993,-0.25377536,-0.072309695,-0.29371396,27.5,28.75,27.8125,31.375,33.3125,34.125
0.118052214,-0.30262366,-0.9122831,-1.0216901,-0.013674955,0.04480965,-0.13886774,-0.3760882,-0.3277268,0.06001424,-3.0779793,0.62603307,1.05121e-06,-0.05424112,0.0075081247,5.6754172e-05,0.010441921,0.002047243,-0.009925728,0.44454336,-1.4660653,2.0039485,-2.106848,-1.5709895,2.4202569,-0.05584241,0.08662917,-0.09893675,0.014965751,-0.010499914,-0.04582947,-0.019153614,0.22984336,-9.3661175,0.80456203,47.72808,-1.1536587,-2.13445,-3.2369184,-0.25873363,-0.059653074,-0.32206893,27.5,28.75,27.8125,31.375,33.3125,34.125
0.12005245,-0.5660766,-0.7870961,-1.0042617,-0.017816601,0.030485224,-0.1309051,-0.37622252,-0.3277227,0.060022444,-3.0780015,0.6260193,7.076186e-05,-0.055329047,0.008194994,0.0007517442,0.010549495,0.0030345598,-0.013694036,0.44442278,-1.4658738,2.0037215,-2.1068594,-1.5710014,2.420125,-0.057734028,0.086172804,-0.10025446,0.01589569,-0.011019803,-0.04395194,-0.05746084,0.19153613,-9.32781,0.74413085,47.746887,-1.228848,-2.003844,-3.278483,-0.22482854,-0.032595795,-0.39680088,27.5,28.75,27.8125,31.375,33.3125,34.125
0.1220517,-0.78823715,-0.76048017,-1.0034231,-0.0065717185,0.01356572,-0.13483296,-0.3763429,-0.3277031,0.060036298,-3.0779378,0.626083,0.00015373887,-0.05645167,0.008514989,3.7193375e-05,0.010940342,0.0023542426,-0.013461866,0.44432625,-1.4657052,2.003493,-2.1068118,-1.5710734,2.4200766,-0.05928083,0.089072324,-0.10166089,0.015179913,-0.01108505,-0.045729466,0.019153614,0.038307227,-9.232041,0.7866488,47.709274,-1.1489468,-2.062789,-3.27707,-0.23644455,-0.02604872,-0.4049802,27.5,28.75,27.8125,31.375,33.3125,34.125
0.12405165,-0.17133006,-0.7270236,-1.1693796,-0.0020907703,0.016200855,-0.13626736,-0.37645015,-0.32769892,0.06004887,-3.0779676,0.626108,0.00016215263,-0.058665764,0.007962842,0.0014028803,0.009549277,0.0052595166,-0.011931273,0.4442059,-1.465561,2.0033,-2.106788,-1.5710496,2.4199681,-0.060212757,0.09006065,-0.1058971,0.01520515,-0.011086284,-0.048189636,0.0,0.17238252,-9.232041,0.8023209,47.723602,-1.235116,-2.0755773,-3.1943855,-0.21894951,-0.03838162,-0.42380595,27.5,28.75,27.8125,31.375,33.3125,34.125
0.12605216,0.086935356,-0.44151634,-0.927471,-0.01660112,0.02263803,-0.14590496,-0.37658218,-0.32766828,0.060030002,-3.0779057,0.6261134,0.0001596367,-0.05778071,0.00869232,-0.00014842166,0.010392462,0.002030727,-0.0108938,0.4440616,-1.4653211,2.0030735,-2.106764,-1.5710968,2.4198353,-0.06118367,0.09128652,-0.10367354,0.015026358,-0.010458581,-0.05019984,-0.095768064,0.24899697,-9.193734,0.82694155,47.696735,-1.1434145,-1.9905548,-3.338509,-0.18968423,-0.040120915,-0.42312658,27.5,28.75,27.8125,31.375,33.3125,34.125
0.12805246,-0.61737394,-0.8316821,-1.0229838,-0.0028212878,0.015661497,-0.13432463,-0.37667388,-0.3276648,0.0600231,-3.0778875,0.62610966,0.00018344348,-0.05980431,0.008643466,0.0011074501,0.009150788,0.003777577,-0.011388928,0.443989,-1.4651532,2.0029042,-2.1067636,-1.5711211,2.4197628,-0.06313818,0.09190288,-0.107493885,0.016115349,-0.01009388,-0.051657874,-0.22984336,0.15322891,-9.251195,0.74413085,47.660015,-1.1891687,-2.078218,-3.454923,-0.19058503,-0.04524324,-0.43640292,27.5,28.75,27.8125,31.375,33.3125,34.125
0.13005246,-0.6962425,-0.71332467,-1.1340364,-0.0057350844,0.029025244,-0.14166468,-0.37681657,-0.32764965,0.060050886,-3.0779006,0.6261496,0.0002271111,-0.059645846,0.009119945,0.00011940566,0.010416666,0.0017831783,-0.009128212,0.44383278,-1.4649849,2.0026414,-2.106704,-1.5711216,2.41963,-0.06366887,0.09366855,-0.10727122,0.016469548,-0.010378485,-0.05444912,-0.19153613,0.17238252,-9.289502,0.7866488,47.677036,-1.1864384,-2.0094361,-3.3543248,-0.18318486,-0.038732085,-0.44110024,27.5,28.75,27.8125,31.375,33.3125,34.125
0.13205254,-0.87484914,-0.8035081,-1.0041038,-0.000318028,0.04682762,-0.136,-0.37692213,-0.32761693,0.060030427,-3.0778403,0.62623155,0.0001354037,-0.060360894,0.009338566,-7.2948475e-05,0.0101503385,0.00087019784,-0.0069983248,0.44367632,-1.4647809,2.0024498,-2.106644,-1.5711211,2.4195325,-0.06511774,0.09513929,-0.10859872,0.017030602,-0.009753215,-0.058027446,-0.22984336,0.15322891,-9.308657,0.75755644,47.67166,-1.2169275,-1.9133658,-3.4132288,-0.18069234,-0.033020664,-0.42192212,27.5,28.75,27.8125,31.375,33.3125,34.125
0.13405171,-1.2644024,-0.59853846,-0.8732207,-0.0032717115,0.053367842,-0.14045861,-0.3770351,-0.32761127,0.060025834,-3.0778503,0.62623256,0.00012265371,-0.06066173,0.009863964,-0.0001540762,0.010753179,5.5419587e-05,-0.0049617197,0.44355595,-1.4645889,2.0022457,-2.1066315,-1.5711087,2.4194117,-0.06621692,0.09560734,-0.10920451,0.018161435,-0.009948324,-0.061162803,-0.30645782,0.11492168,-9.289502,0.8179876,47.709274,-1.2345121,-2.0342178,-3.4901438,-0.18127924,-0.042234734,-0.42057425,27.5,28.75,27.8125,31.375,33.3125,34.125
0.13605201,-1.6091481,-0.49866602,-1.0754446,0.0071470854,0.049155924,-0.13081555,-0.3771652,-0.3276005,0.060043376,-3.0778196,0.6261855,0.00019591872,-0.06318892,0.009484768,0.002107148,0.008693673,0.0042336667,-0.0023056276,0.44345957,-1.4643977,2.001981,-2.1065714,-1.5711688,2.41929,-0.06778549,0.094833374,-0.11368279,0.018748369,-0.009889977,-0.065385394,-0.2873042,0.0,-9.308656,0.7284641,47.675243,-1.2855477,-1.7665278,-3.4026327,-0.16970813,-0.052643705,-0.37998867,27.5,28.75,27.8125,31.375,33.3125,34.125
0.13805217,-1.4822376,0.028615344,-1.0105519,0.0050588627,0.0523728,-0.14162414,-0.37729603,-0.32758167,0.06002918,-3.0778186,0.62620324,0.00013803905,-0.06219389,0.010562552,-0.0013335847,0.01141001,-0.0028696617,0.00038613298,0.4432909,-1.464168,2.0017545,-2.106547,-1.5711449,2.4191327,-0.069286376,0.10039142,-0.11203653,0.019121092,-0.0092960205,-0.069579095,-0.30645782,0.0,-9.3661175,0.81351066,47.72002,-1.2689636,-2.0327508,-3.5497642,-0.16413751,-0.044915862,-0.33789968,27.5,28.75,27.8125,31.375,33.3125,34.125
0.14005221,-1.392623,-0.38705492,-1.2443391,0.015370027,0.048490394,-0.13768326,-0.3774286,-0.32755297,0.060038242,-3.0777907,0.6262544,0.00016311347,-0.065478764,0.009848795,0.0019232692,0.008216436,0.0039035887,0.0026333623,0.44313437,-1.4639891,2.0015256,-2.1064994,-1.5711688,2.4190118,-0.070836164,0.09848072,-0.11734522,0.018846715,-0.009329367,-0.07337322,-0.34476504,0.076614454,-9.404425,0.7866488,47.71286,-1.1970094,-1.8211882,-3.2895255,-0.14182419,-0.05967118,-0.30556393,27.5,28.75,27.8125,31.375,33.3125,34.125
0.14205226,-1.0894438,-0.32664442,-1.2468159,0.0051669343,0.058788598,-0.13844201,-0.3775616,-0.3275564,0.060063027,-3.077838,0.62606996,0.0002451565,-0.06646357,0.010174521,0.00096767093,0.009673616,0.0026825808,0.0052798004,0.44303802,-1.4638082,2.001261,-2.1064632,-1.5711931,2.4187946,-0.07176776,0.10215608,-0.11920695,0.018758709,-0.010124225,-0.07694862,-0.47884035,0.076614454,-9.404425,0.7866488,47.672558,-1.253739,-1.8660047,-3.4025013,-0.13965452,-0.06974117,-0.255442,27.5,28.75,27.8125,31.375,33.3125,34.125
0.14405262,-1.6897688,-0.6998072,-1.3917372,0.0042514317,0.055643495,-0.1332774,-0.3776927,-0.32751,0.060042556,-3.0777524,0.6261672,0.00020297612,-0.067471795,0.01039261,0.0012686927,0.009479284,0.00259836,0.006132694,0.4428578,-1.4635803,2.0010455,-2.1064155,-1.5712289,2.4186862,-0.0731837,0.10315147,-0.12125442,0.019796759,-0.009920323,-0.079216205,-0.5554548,0.15322891,-9.442732,0.75084364,47.674347,-1.2690957,-1.8814889,-3.3815994,-0.13830419,-0.054172587,-0.19130616,27.5,28.75,27.8125,31.375,33.3125,34.125
0.1460518,-1.5025758,-0.31013685,-1.4947867,-0.01590612,0.069898896,-0.13777922,-0.3777993,-0.3274771,0.060023364,-3.0777078,0.626062,0.00016138356,-0.068191625,0.010710997,0.0012914229,0.009732108,0.0019769096,0.005839637,0.44272515,-1.4633762,2.0008533,-2.1063673,-1.5712651,2.4184937,-0.074420005,0.10429146,-0.12283778,0.020905027,-0.009888777,-0.08015817,-0.38307226,0.1340753,-9.481039,0.8403672,47.677036,-1.2068939,-1.7673303,-3.3242397,-0.15984866,-0.05247681,-0.17512107,27.5,28.75,27.8125,31.375,33.3125,34.125
0.14805172,-1.3925923,-0.74859315,-1.4738961,-0.026480002,0.07908173,-0.1414776,-0.3779272,-0.32744595,0.06002369,-3.0776496,0.6260697,0.000108013,-0.06949909,0.011243646,0.0016660659,0.010302899,0.0027267581,0.0041665058,0.44256872,-1.4631603,2.0005896,-2.106259,-1.5712894,2.4183497,-0.07598648,0.10519625,-0.12487501,0.021604009,-0.010733623,-0.080048166,-0.40222588,0.17238252,-9.595961,0.7911258,47.68599,-1.1740558,-1.8159966,-3.3299985,-0.13100973,-0.04678337,-0.15134692,27.5,28.75,27.8125,31.375,33.3125,34.125
0.15005168,-1.8628052,-1.052464,-1.424095,-0.036804467,0.06974353,-0.1386618,-0.37809962,-0.32744697,0.060047746,-3.0776973,0.6260807,0.00023863134,-0.0708131,0.0113539295,0.0023163697,0.00941057,0.003331241,0.0014149512,0.44242424,-1.4629445,2.0003016,-2.106283,-1.5713009,2.4182062,-0.077698916,0.10581601,-0.1272615,0.022438873,-0.010181377,-0.07900989,-0.53630114,0.19153613,-9.595961,0.80456203,47.683304,-1.289854,-1.7140342,-3.3018556,-0.13216686,-0.058527432,-0.13250315,27.5,28.75,27.8125,31.375,33.3125,34.125
0.15205182,-1.6372882,-1.3735437,-1.6725961,-0.03024136,0.07490616,-0.1349992,-0.37823322,-0.32742026,0.0600548,-3.0776753,0.626079,0.00019271205,-0.071941465,0.012437896,0.0013065982,0.011109245,0.0013870186,-0.0037853597,0.44225517,-1.4627397,2.0000374,-2.106187,-1.5713013,2.418039,-0.080226995,0.10910682,-0.12876093,0.023134604,-0.01088806,-0.07633478,-0.59376204,0.2681506,-9.595961,0.78888994,47.68062,-1.0266533,-1.613904,-3.3270636,-0.13522418,-0.040764034,-0.15544875,27.5,28.75,27.8125,31.375,33.3125,34.125
0.15405215,-1.3293447,-1.3984615,-1.7639551,-0.028124267,0.082918726,-0.13429484,-0.3784141,-0.3273975,0.060082838,-3.077678,0.62609935,0.00030015947,-0.07238317,0.011949818,0.0011503092,0.011478412,0.00084230764,-0.004047524,0.44207543,-1.4625233,1.9997262,-2.1061509,-1.5713376,2.417872,-0.07959853,0.11124356,-0.13094275,0.023826405,-0.010987576,-0.07544324,-0.47884035,0.22984336,-9.634268,0.7486078,47.734352,-1.1819686,-1.7379465,-3.3252163,-0.12997904,-0.055879354,-0.14107421,27.5,28.75,27.8125,31.375,33.3125,34.125
0.15605226,-1.3738335,-1.2919097,-1.6074268,-0.031163067,0.080042034,-0.14108744,-0.37852243,-0.3273759,0.060069483,-3.077646,0.62619394,0.00024033478,-0.07333344,0.013303147,-0.0014081673,0.0124328425,-0.004620692,-0.013706715,0.44192997,-1.4623296,1.9995345,-2.106115,-1.5713252,2.4177897,-0.083941,0.11711544,-0.13162632,0.02398281,-0.00951626,-0.07012762,-0.47884035,0.19153613,-9.691729,0.83365434,47.713753,-1.1020479,-1.812932,-3.3451571,-0.13767175,-0.06818303,-0.20081761,27.5,28.75,27.8125,31.375,33.3125,34.125
0.1580523,-1.8883009,-1.4905322,-1.620546,-0.028008455,0.054131106,-0.13187219,-0.3786831,-0.32734352,0.060074206,-3.0776231,0.6261316,0.00026058778,-0.07462984,0.012668689,0.0007064977,0.011080252,0.00035260373,-0.015689744,0.4417504,-1.4620911,1.9992465,-2.106055,-1.5713614,2.4175744,-0.08325396,0.11474507,-0.13374384,0.023397898,-0.01042688,-0.06745476,-0.5363012,0.2873042,-9.615114,0.7709874,47.70032,-1.0624285,-1.7652041,-3.4236588,-0.12817675,-0.06142231,-0.22978064,27.5,28.75,27.8125,31.375,33.3125,34.125
0.16005236,-1.4056329,-1.0891227,-1.3892006,-0.034792334,0.057671145,-0.14407995,-0.3788117,-0.32732305,0.060052793,-3.077566,0.62621677,0.00020882797,-0.07609232,0.013650712,-0.00072141236,0.01272003,-0.0012007621,-0.01695261,0.44160542,-1.4618378,1.9990076,-2.1060197,-1.5713733,2.41749,-0.08580573,0.1191201,-0.135135,0.022518849,-0.011255033,-0.068739854,-0.49799395,0.2873042,-9.557653,0.8179876,47.705692,-1.0593321,-1.8922379,-3.3968804,-0.09924361,-0.06780853,-0.24352472,27.5,28.75,27.8125,31.375,33.3125,34.125
0.16205244,-1.1159099,-0.9130119,-1.2907289,-0.035707027,0.05874124,-0.13803941,-0.37902662,-0.32730103,0.060095377,-3.0775826,0.62629944,0.000338091,-0.07809998,0.013416418,0.0007158951,0.0108219255,0.0010444778,-0.021207163,0.4413888,-1.4615982,1.9986342,-2.1059716,-1.5713972,2.417323,-0.08760564,0.119275704,-0.13877209,0.023154853,-0.010498877,-0.06628567,-0.38307226,0.21068975,-9.500193,0.76874626,47.693153,-0.96627843,-1.7445248,-3.333138,-0.08500704,-0.06964642,-0.29463822,27.5,28.75,27.8125,31.375,33.3125,34.125
0.16405395,-1.468404,-1.1244122,-1.4328295,-0.014702511,0.042015847,-0.13165188,-0.3791902,-0.32726723,0.060103107,-3.077558,0.6263901,0.00038770976,-0.078125946,0.014317124,-0.00036557706,0.0122980485,-0.0016851015,-0.021875344,0.4411963,-1.461382,1.998372,-2.1059473,-1.5714215,2.4171906,-0.08915755,0.12127464,-0.13878137,0.024259998,-0.010665163,-0.06716936,-0.28730422,0.19153613,-9.346964,0.90527004,47.687782,-0.96674377,-1.8487895,-3.3601832,-0.07953811,-0.0483168,-0.3036588,27.5,28.75,27.8125,31.375,33.3125,34.125
0.16605209,-0.5651575,-0.23489276,-1.1116066,-0.022143358,0.05655284,-0.140367,-0.3793355,-0.3272528,0.060093652,-3.077543,0.6264261,0.00036928212,-0.079797946,0.014548822,-4.252631e-05,0.011768914,-0.0015381256,-0.022370815,0.44103968,-1.4611299,1.9981092,-2.105923,-1.571421,2.4170585,-0.09131192,0.123134576,-0.1417865,0.02504188,-0.010256641,-0.0688271,-0.36391866,0.1340753,-9.32781,0.83589023,47.67345,-0.9107833,-1.7706726,-3.3444023,-0.08140755,-0.06982536,-0.31241405,27.5,28.75,27.8125,31.375,33.3125,34.125
0.16805223,-0.7685167,-0.4240151,-0.82375616,-0.0023088777,0.053042702,-0.14382593,-0.37949604,-0.32722858,0.060093537,-3.0775127,0.62649614,0.00036639982,-0.081481196,0.0137899695,0.0007351684,0.010904746,0.00030474583,-0.021672547,0.44085962,-1.4608774,1.9978193,-2.1058748,-1.571433,2.4169261,-0.09133359,0.1250062,-0.14565945,0.025004596,-0.0102719935,-0.06954441,-0.38307226,0.19153613,-9.32781,0.8291774,47.709274,-0.8034717,-1.8036878,-3.3191695,-0.068812385,-0.07113241,-0.30998218,27.5,28.75,27.8125,31.375,33.3125,34.125
0.17005228,-0.9943498,-0.12051787,-1.0006412,0.0156042185,0.04273299,-0.14085503,-0.37967157,-0.32718524,0.06010917,-3.0774732,0.6265661,0.00043881827,-0.08110217,0.015351472,-0.0019943395,0.01412151,-0.0048278896,-0.02446425,0.44065493,-1.4606606,1.9975327,-2.105827,-1.5714811,2.4167705,-0.0933888,0.12931527,-0.14427151,0.0253199,-0.010987674,-0.068807095,-0.34476504,0.19153613,-9.32781,0.78217715,47.7245,-0.8897902,-1.8553087,-3.2917106,-0.04774024,-0.058066417,-0.32222724,27.5,28.75,27.8125,31.375,33.3125,34.125
0.17205237,-0.515885,0.16828868,-0.88975185,0.00363669,0.05723578,-0.14514042,-0.3798366,-0.327188,0.06010918,-3.0774825,0.6265097,0.00046506705,-0.083225295,0.0157497,-0.0005857098,0.012349152,-0.0022397728,-0.024976464,0.44052178,-1.4603733,1.9972094,-2.1058033,-1.5714935,2.4166012,-0.09630222,0.1286469,-0.14682049,0.02543413,-0.010494695,-0.07120807,-0.24899697,0.15322891,-9.174581,0.7732232,47.728977,-0.6650055,-1.917506,-3.2001336,-0.05076012,-0.079795815,-0.3500123,27.5,28.75,27.8125,31.375,33.3125,34.125
0.17405263,-0.88090837,-0.42917952,-0.6594855,0.005636312,0.051533476,-0.13711995,-0.3800089,-0.32715467,0.06011726,-3.0774627,0.6266016,0.00046120735,-0.08272405,0.015106572,-0.0020924332,0.0139808245,-0.005378506,-0.023512263,0.44030654,-1.4601319,1.99691,-2.1057427,-1.5714935,2.416446,-0.09451171,0.13286339,-0.14823236,0.026162984,-0.010635954,-0.07088025,-0.30645782,0.038307227,-9.097966,0.8157518,47.694054,-0.8550532,-2.067853,-3.3864138,-0.034681924,-0.078000486,-0.34756798,27.5,28.75,27.8125,31.375,33.3125,34.125
0.17605178,-1.0411774,-0.5529614,-0.5503985,-4.9356822e-05,0.044454157,-0.13759,-0.3801768,-0.32710785,0.06010961,-3.0773745,0.6267374,0.00046048436,-0.08354683,0.01531,-0.0015036659,0.013928145,-0.00502756,-0.023434289,0.44010207,-1.4598687,1.9966224,-2.1056826,-1.5715412,2.4163377,-0.09549918,0.13305856,-0.15014194,0.027531294,-0.010743932,-0.07194442,-0.30645782,0.1340753,-9.059659,0.800085,47.71286,-0.8460127,-1.9147782,-3.3713686,-0.0338605,-0.061074458,-0.3945722,27.5,28.75,27.8125,31.375,33.3125,34.125
0.17805174,-0.57379586,-0.2937685,-0.42508307,-0.011205302,0.053612735,-0.14380895,-0.3803393,-0.32706952,0.060106125,-3.0773246,0.626877,0.00041336127,-0.08428415,0.014864633,-0.0012859482,0.013188524,-0.0053583845,-0.018076614,0.4398861,-1.4596167,1.9963349,-2.1056106,-1.5715407,2.4162154,-0.09580616,0.13457723,-0.15255235,0.028396592,-0.00994433,-0.077608876,-0.2681506,0.11492168,-9.078813,0.81351066,47.7245,-0.95131344,-1.9216897,-3.3177443,-0.03201073,-0.085866034,-0.37939134,27.5,28.75,27.8125,31.375,33.3125,34.125
0.18005179,-0.37989694,-0.27172142,-0.48610678,-0.011813998,0.047001116,-0.14941302,-0.3805487,-0.3270231,0.060106564,-3.077269,0.6269213,0.0004432999,-0.08484084,0.014462866,-0.0010829672,0.013557415,-0.005009258,-0.015281885,0.43964648,-1.4593048,1.9959749,-2.1055505,-1.5715894,2.4160109,-0.09515903,0.1359127,-0.15467842,0.029021725,-0.010434225,-0.07975424,-0.22984336,0.095768064,-9.078813,0.8179876,47.744205,-0.9852623,-1.8586924,-3.2463863,-0.029199112,-0.090733185,-0.3194741,27.5,28.75,27.8125,31.375,33.3125,34.125
0.18205205,-0.45560965,-0.32646582,-0.6103025,-0.00056559325,0.030892331,-0.14396007,-0.38071144,-0.32702062,0.06011988,-3.0772893,0.6268655,0.0005251866,-0.085405424,0.014664132,-0.0008685958,0.014607513,-0.004084058,-0.011728621,0.4395144,-1.459065,1.9956759,-2.1055386,-1.5716141,2.4158416,-0.09508886,0.13636285,-0.15575026,0.029250782,-0.01177894,-0.08323476,-0.15322891,0.15322891,-9.11712,0.7709874,47.71465,-1.0114799,-1.944253,-3.3691869,-0.024743833,-0.07120321,-0.32313395,27.5,28.75,27.8125,31.375,33.3125,34.125
0.18405208,-0.7189156,-0.3916847,-0.6725811,0.0014870914,0.0036219137,-0.13557565,-0.38089508,-0.3269792,0.06011889,-3.07723,0.62690836,0.00051187613,-0.086113974,0.014563472,-0.0012165157,0.014042149,-0.005468277,-0.0077088363,0.43929815,-1.4587768,1.9953398,-2.1054542,-1.5716494,2.41566,-0.096203685,0.13860786,-0.15762168,0.029874463,-0.010688474,-0.08836983,-0.095768064,0.19153613,-9.097966,0.7866488,47.707485,-1.1136273,-1.8156793,-3.2829204,-0.015799804,-0.09041131,-0.2537441,27.5,28.75,27.8125,31.375,33.3125,34.125
0.18605268,-0.11438515,-0.21608554,-0.8341502,-0.002253682,0.0024144966,-0.14514956,-0.38106644,-0.32696155,0.06011894,-3.0772498,0.62689054,0.0005132312,-0.08688299,0.014717623,-0.0012415089,0.0152219925,-0.005567595,-0.003422916,0.43910605,-1.4585125,1.9950413,-2.1054304,-1.571638,2.4154544,-0.09642862,0.14032228,-0.15972129,0.030848928,-0.011719515,-0.0928777,-0.038307227,0.24899697,-9.002198,0.7530795,47.687782,-1.0964968,-1.9516265,-3.4188294,-0.014109999,-0.08800734,-0.19625354,27.5,28.75,27.8125,31.375,33.3125,34.125
0.18805173,-0.1445918,-0.79461735,-0.8581744,-0.0033240898,-0.01077586,-0.14215165,-0.38123095,-0.32692987,0.06011303,-3.0771995,0.62699467,0.00045068705,-0.08700138,0.015792385,-0.0026676815,0.016472809,-0.0091855675,-0.0021595203,0.43890122,-1.4582363,1.9947294,-2.105346,-1.5716375,2.415321,-0.09875639,0.14297946,-0.15969169,0.031961083,-0.011320318,-0.096469045,0.076614454,0.2681506,-9.097966,0.7665104,47.666286,-1.0462365,-1.735925,-3.3473206,-0.023096738,-0.07518587,-0.14492463,27.5,28.75,27.8125,31.375,33.3125,34.125
0.19005176,0.100585714,-1.1540132,-0.9483575,-0.02021144,-0.010085422,-0.14294465,-0.3813854,-0.32688707,0.06010837,-3.077125,0.62682456,0.00041296508,-0.08825034,0.015673526,-0.00046443063,0.015271515,-0.0061464957,-8.048242e-05,0.43873313,-1.4579616,1.9944052,-2.1052134,-1.5717095,2.4150567,-0.09944385,0.14057133,-0.16255993,0.033964675,-0.011537432,-0.09923353,0.095768064,0.24899697,-9.193734,0.7463667,47.709274,-1.0653415,-1.8111575,-3.2478437,-0.040654868,-0.08521929,-0.08375454,27.5,28.75,27.8125,31.375,33.3125,34.125
0.1920519,-0.05079611,-1.1214242,-1.0735072,-0.02904908,-0.012754378,-0.13850427,-0.38156226,-0.3268461,0.06008126,-3.0770614,0.62696546,0.0003087731,-0.088654414,0.016125195,-0.001145424,0.01697138,-0.008359393,-0.001075739,0.43849283,-1.4576373,1.9940938,-2.1051528,-1.5716981,2.4149127,-0.100178316,0.14324698,-0.16445455,0.035909913,-0.012146598,-0.09896971,0.095768064,0.2681506,-9.232041,0.83365434,47.687782,-1.0396745,-1.8125556,-3.3637428,-0.046079993,-0.06273764,-0.057993792,27.5,28.75,27.8125,31.375,33.3125,34.125
0.19405216,-0.5088475,-1.2818049,-1.2290677,-0.018344775,-0.010102709,-0.13541009,-0.38176152,-0.32682022,0.0600942,-3.077046,0.6269251,0.00038226388,-0.08952919,0.016085278,-0.00046581152,0.015883463,-0.007827421,-0.0040287054,0.4383005,-1.4573498,1.9937342,-2.1051047,-1.5717453,2.4146974,-0.10132242,0.14325608,-0.1662519,0.03674733,-0.011388603,-0.097161986,0.076614454,0.2681506,-9.174581,0.842603,47.686886,-1.1094482,-1.6879077,-3.355669,-0.074336305,-0.07425144,-0.04596991,27.5,28.75,27.8125,31.375,33.3125,34.125
0.19605231,-0.12789622,-0.5705844,-1.2650795,-0.023715608,0.0064029237,-0.13884361,-0.38192257,-0.326793,0.06010213,-3.0770235,0.62692386,0.00033389957,-0.09001223,0.01699511,-0.001208294,0.017157337,-0.010726253,-0.009274633,0.4381077,-1.4570974,1.9934114,-2.1049964,-1.5717453,2.414507,-0.103444,0.14559059,-0.1676945,0.039022323,-0.011314658,-0.09403685,0.038307227,0.22984336,-9.32781,0.85826975,47.681515,-1.0994756,-1.7279897,-3.3077326,-0.0993572,-0.0833125,-0.057857707,27.5,28.75,27.8125,31.375,33.3125,34.125
0.19805238,-0.027496345,-0.43344635,-1.448678,-0.017787749,0.0140685905,-0.14153627,-0.3821067,-0.3267774,0.06009924,-3.076984,0.6270121,0.00028690553,-0.090222344,0.01582568,-0.00047536692,0.016666126,-0.010518469,-0.011112893,0.43791643,-1.4567739,1.9930395,-2.1049116,-1.5717453,2.414376,-0.10162461,0.14645755,-0.17080079,0.0408663,-0.010964578,-0.090378195,0.0,0.30645782,-9.385271,0.8224646,47.686886,-1.1008584,-1.693465,-3.3294768,-0.1375453,-0.09135368,-0.09260482,27.5,28.75,27.8125,31.375,33.3125,34.125
0.20005259,-0.6094793,-1.1764575,-1.5135874,-0.013433389,0.013853284,-0.13334486,-0.38227135,-0.32673872,0.06007769,-3.0769267,0.62696606,0.00024175191,-0.09168384,0.016836246,-0.0020840776,0.017254729,-0.01319093,-0.017971816,0.43772325,-1.4564722,1.9927405,-2.1048524,-1.571781,2.4141617,-0.10513817,0.15109545,-0.17217186,0.040266268,-0.010375523,-0.08703186,-0.076614454,0.28730422,-9.423578,0.8717007,47.66808,-1.1508255,-1.8561814,-3.4296234,-0.14847165,-0.11363797,-0.12756021,27.5,28.75,27.8125,31.375,33.3125,34.125
0.20205174,-0.8433573,-1.4302205,-1.6951978,-0.019163523,0.028050918,-0.1323185,-0.38243127,-0.3267006,0.060052894,-3.076822,0.62704104,8.747457e-05,-0.0912238,0.016367655,-0.0018811409,0.01768646,-0.013636083,-0.019316966,0.43751976,-1.4561375,1.9923929,-2.1047084,-1.5717934,2.4140186,-0.10366385,0.15113172,-0.1730488,0.04169432,-0.010589502,-0.08421051,-0.11492168,0.22984336,-9.5385,0.87393653,47.698532,-1.1442521,-1.6884338,-3.434248,-0.15723056,-0.090877995,-0.17533658,27.5,28.75,27.8125,31.375,33.3125,34.125
0.20405182,-0.7272816,-1.2295063,-1.8559973,-0.03220934,0.04817508,-0.13865331,-0.38262013,-0.32666728,0.060057733,-3.0767832,0.6270541,0.00010374652,-0.092267215,0.016583636,-0.0018574416,0.017454727,-0.014405747,-0.023420177,0.43731517,-1.4558494,1.9920453,-2.1046364,-1.5718287,2.4138274,-0.10527857,0.1528739,-0.17534134,0.042840052,-0.010058837,-0.08172193,-0.15322891,0.21068975,-9.691729,0.84484416,47.72002,-1.2380474,-1.7992603,-3.3806865,-0.2211771,-0.10136452,-0.21107948,27.5,28.75,27.8125,31.375,33.3125,34.125
0.20605193,-0.5210164,-1.0507343,-1.7417954,-0.041747537,0.06268897,-0.13516325,-0.3827828,-0.32663602,0.06005007,-3.0767193,0.62706035,5.9483395e-06,-0.09276556,0.017589573,-0.003317344,0.019968474,-0.017828658,-0.024154792,0.43712258,-1.4555483,1.9916981,-2.1045039,-1.5718416,2.4136472,-0.10697911,0.15680222,-0.17678727,0.044521786,-0.010898399,-0.08268403,-0.13407528,0.11492168,-9.710882,0.7732232,47.709274,-1.1393157,-1.8337519,-3.4691176,-0.23580107,-0.12513363,-0.22929138,27.5,28.75,27.8125,31.375,33.3125,34.125
0.20805226,-1.121816,-1.2266169,-1.6433877,-0.03510562,0.05834928,-0.14208908,-0.38300565,-0.32658175,0.060054697,-3.0766473,0.6272213,4.8306054e-05,-0.09417063,0.018802997,-0.003872412,0.021271575,-0.01926579,-0.030071083,0.43685767,-1.455236,1.9913267,-2.1044438,-1.5718893,2.4134922,-0.11001451,0.15942028,-0.17874289,0.04571215,-0.011476372,-0.0798006,-0.3256114,0.1340753,-9.653421,0.82694155,47.67345,-1.1042669,-1.9951448,-3.4590921,-0.29074174,-0.116205186,-0.30052528,27.5,28.75,27.8125,31.375,33.3125,34.125
0.21005227,-1.132006,-0.6935848,-1.5165911,-0.020698728,0.05775518,-0.13107756,-0.38316187,-0.3265592,0.06003315,-3.0766037,0.6271532,-7.326886e-05,-0.0950836,0.016709037,-0.0032835328,0.01885678,-0.016549507,-0.028084328,0.43667856,-1.454912,1.9909915,-2.104337,-1.5718893,2.4132764,-0.10753804,0.16112657,-0.18147926,0.043254577,-0.010460294,-0.079309985,-0.49799395,0.076614454,-9.634268,0.9545008,47.705692,-1.2075186,-1.90909,-3.4864206,-0.28439012,-0.10896349,-0.32212394,27.5,28.75,27.8125,31.375,33.3125,34.125
0.21205218,-0.8963086,-0.05833141,-1.6503932,-0.013707243,0.06439497,-0.14317662,-0.383363,-0.32650912,0.06003394,-3.076548,0.6272982,-6.756368e-05,-0.097245015,0.018423516,-0.003588293,0.01829286,-0.016220758,-0.03290265,0.43642458,-1.4546243,1.9906563,-2.1042774,-1.5719126,2.4131203,-0.11279581,0.1623974,-0.18192863,0.04189053,-0.010099538,-0.0797495,-0.47884035,0.15322891,-9.710882,0.8940802,47.71286,-1.0903488,-2.0481215,-3.482119,-0.2906493,-0.13563246,-0.3306319,27.5,28.75,27.8125,31.375,33.3125,34.125
0.21405213,-1.031824,-0.5867773,-1.7176162,-0.0021596851,0.074106805,-0.1356744,-0.38357913,-0.32649928,0.060047306,-3.07652,0.62752306,-6.328294e-05,-0.09773,0.017517818,-0.0029395632,0.01832477,-0.015091358,-0.033717252,0.43620932,-1.4542885,1.9902357,-2.1042054,-1.5719012,2.4130492,-0.11111888,0.16327354,-0.18462689,0.042706612,-0.010610739,-0.07725545,-0.49799395,0.1340753,-9.710882,0.9254084,47.754948,-1.1876032,-1.88539,-3.4517348,-0.31136745,-0.16179076,-0.43717414,27.5,28.75,27.8125,31.375,33.3125,34.125
0.21605232,-2.3422356,-0.8042558,-1.5983078,-0.01144625,0.066240944,-0.13432512,-0.3837674,-0.32646078,0.060047466,-3.0764358,0.6275246,-0.00011332893,-0.09870561,0.018130535,-0.004129839,0.019121226,-0.017027827,-0.033723325,0.43600464,-1.4539639,1.9898413,-2.1040614,-1.5719489,2.4128566,-0.113105275,0.16686928,-0.18589544,0.042462267,-0.010530524,-0.07923395,-0.68953013,0.19153613,-9.576807,0.7642693,47.72719,-1.160147,-1.9783509,-3.4772964,-0.3291797,-0.1604793,-0.45627135,27.5,28.75,27.8125,31.375,33.3125,34.125
0.21805212,-1.7108088,-0.8174699,-1.7035439,-0.025408257,0.10304792,-0.14347966,-0.38395172,-0.32639435,0.060028914,-3.0763526,0.6276411,-0.00020634913,-0.10042186,0.018794993,-0.0025658282,0.018485038,-0.013299593,-0.03266668,0.43572795,-1.4536653,1.98953,-2.1039665,-1.5719613,2.4126635,-0.11509083,0.16491458,-0.18727551,0.04214425,-0.011547766,-0.082272105,-0.7278373,0.13407528,-9.5385,0.8851263,47.7245,-1.0809044,-1.7972857,-3.544495,-0.34330875,-0.15230393,-0.4677828,27.5,28.75,27.8125,31.375,33.3125,34.125
0.22005199,-2.2754533,-0.9786524,-1.3771815,-0.03826228,0.109790735,-0.14220016,-0.38414928,-0.32638133,0.060054787,-3.0763402,0.627712,-0.00014009114,-0.101413175,0.01947892,-0.0029315902,0.018506547,-0.013297189,-0.02878316,0.43554735,-1.4533892,1.9891471,-2.103895,-1.5719856,2.412529,-0.11714292,0.1661425,-0.1876535,0.041288782,-0.011578754,-0.088207506,-0.6703765,0.114921674,-9.557653,0.8493211,47.73256,-0.9910928,-1.8500787,-3.54825,-0.34980404,-0.1761382,-0.4480481,27.5,28.75,27.8125,31.375,33.3125,34.125
0.22205202,-2.3143985,-0.98661596,-1.3890682,-0.038328994,0.11175966,-0.1354388,-0.38437155,-0.3263582,0.06006162,-3.076342,0.62765497,-0.00013042374,-0.10406498,0.019722795,-0.002431486,0.017865118,-0.010791663,-0.026607357,0.4353185,-1.4530411,1.9887275,-2.103823,-1.571998,2.4122646,-0.11950135,0.16838905,-0.19103335,0.039871328,-0.01207414,-0.092737906,-0.5554548,0.038307227,-9.442732,0.9164598,47.684196,-0.94058055,-1.8782103,-3.5113783,-0.35884613,-0.1785618,-0.40255842,27.5,28.75,27.8125,31.375,33.3125,34.125
0.22405207,-1.80256,-0.5684618,-1.041882,-0.028977467,0.11529586,-0.13907062,-0.3845846,-0.3263354,0.060052138,-3.0763123,0.6277018,-0.00017498812,-0.106235035,0.019692227,-0.0010556914,0.016620724,-0.0065154345,-0.021838767,0.43509012,-1.4526697,1.9883193,-2.103752,-1.571998,2.4120696,-0.12079137,0.16799398,-0.19343673,0.038258556,-0.01277143,-0.09879265,-0.6895301,0.0,-9.442732,0.8672237,47.701214,-0.92926705,-1.8057485,-3.5525532,-0.34860963,-0.15587708,-0.3792727,27.5,28.75,27.8125,31.375,33.3125,34.125
0.22605209,-2.0395124,-0.14284699,-0.9975197,-0.0056311735,0.095129214,-0.13833693,-0.3847967,-0.32628196,0.06004554,-3.0762541,0.627725,-0.0001612725,-0.10792149,0.019426294,-0.00038654063,0.015000099,-0.003755628,-0.015285774,0.43483785,-1.452346,1.9879602,-2.1036928,-1.5720462,2.4118395,-0.12187388,0.1685598,-0.19519387,0.036243863,-0.012487668,-0.106427155,-0.6703765,-0.095768064,-9.404425,0.89631605,47.70032,-0.88883644,-1.8304749,-3.4791362,-0.34101674,-0.1893972,-0.27682096,27.5,28.75,27.8125,31.375,33.3125,34.125
0.22805223,-1.5138305,0.40695524,-1.06665,0.019369392,0.07946045,-0.1370889,-0.38502356,-0.3262443,0.060026802,-3.0762255,0.6278136,-0.00021899636,-0.10972531,0.018653894,0.00023964774,0.013801394,-0.0011714308,-0.011630893,0.4345619,-1.451962,1.9875644,-2.1036456,-1.5720338,2.4116228,-0.121902406,0.17039976,-0.19840395,0.03475798,-0.012509787,-0.11010773,-0.59376204,-0.15322891,-9.3661175,0.87393653,47.705692,-0.91859066,-1.746022,-3.464448,-0.30510205,-0.20502004,-0.24213067,27.5,28.75,27.8125,31.375,33.3125,34.125
0.23005182,-1.4528909,0.07605085,-1.0500847,0.030036088,0.073886655,-0.13428639,-0.38522905,-0.32621145,0.06002404,-3.0761957,0.62774736,-0.00021599226,-0.11108059,0.017651081,0.0014437084,0.012396621,0.0015815482,-0.008175066,0.4343461,-1.4516267,1.9871806,-2.1035736,-1.57207,2.4113698,-0.12120511,0.1708675,-0.20166947,0.03445615,-0.012409277,-0.11286439,-0.63206923,0.0,-9.251195,0.86498255,47.71017,-1.0235705,-1.5670015,-3.362782,-0.30012962,-0.20286423,-0.18460727,27.5,28.75,27.8125,31.375,33.3125,34.125
0.23205185,-1.1962845,0.32095262,-1.0232216,0.024192061,0.07112368,-0.13557361,-0.3854855,-0.32614627,0.06003803,-3.0761068,0.6279206,-0.00010730247,-0.11287044,0.017202582,0.0020625524,0.012426924,0.0038873022,-0.0075798603,0.43405813,-1.4512908,1.9867605,-2.103514,-1.5721544,2.4112017,-0.121160395,0.17287353,-0.20526277,0.033954114,-0.013414305,-0.1134101,-0.59376204,0.05746084,-9.193734,0.8403672,47.72271,-1.0473225,-1.5895036,-3.2930565,-0.2834399,-0.19036579,-0.14657135,27.5,28.75,27.8125,31.375,33.3125,34.125
0.23405184,-1.0475715,-0.074204996,-1.5133122,0.03018201,0.063511536,-0.13396421,-0.38569692,-0.32612196,0.060045708,-3.0761142,0.6278855,-0.00010898331,-0.11424862,0.018057771,0.0021800103,0.012856035,0.00436643,-0.011415183,0.43382922,-1.4509668,1.9863652,-2.1034424,-1.5721544,2.4109502,-0.123470515,0.17386661,-0.20674622,0.03419184,-0.0140062,-0.111882456,-0.3256114,0.019153614,-9.404425,0.9030289,47.723602,-0.88446975,-1.5535989,-3.3526628,-0.27607387,-0.199922,-0.15975678,27.5,28.75,27.8125,31.375,33.3125,34.125
0.23605178,-0.38460943,0.015505966,-1.1992848,-0.003095808,0.06703635,-0.14280134,-0.38593617,-0.32606775,0.06004649,-3.076074,0.62799567,-0.00011639966,-0.11558953,0.018839505,0.0018305823,0.014069882,0.0043067713,-0.01717134,0.433529,-1.4506187,1.9859585,-2.10337,-1.5721668,2.4107242,-0.12527274,0.17610809,-0.20852861,0.034301754,-0.0150831845,-0.10792415,-0.22984336,0.038307227,-9.404425,0.7732232,47.728977,-1.1047847,-1.5483432,-3.3573978,-0.26623234,-0.1916633,-0.18914738,27.5,28.75,27.8125,31.375,33.3125,34.125
0.23805186,-0.63366395,-1.102282,-1.2694309,-0.013675238,0.04884131,-0.13641788,-0.38617027,-0.32603276,0.060066618,-3.0760183,0.62806374,-4.7036334e-05,-0.11662826,0.018150857,0.0014754056,0.014233186,0.0040253443,-0.02130583,0.43330094,-1.4502821,1.985515,-2.1032746,-1.5722269,2.410546,-0.124786116,0.17964715,-0.21171416,0.034270387,-0.015113446,-0.10330091,-0.24899697,0.11492168,-9.3661175,0.8537928,47.711964,-0.9960471,-1.6715143,-3.2852235,-0.256692,-0.19282761,-0.23473074,27.5,28.75,27.8125,31.375,33.3125,34.125
0.2400524,-0.6181625,-1.5045174,-1.4888024,-0.023444623,0.03364018,-0.12624948,-0.38640574,-0.32600036,0.060078535,-3.0760016,0.6280424,8.0942334e-07,-0.11838882,0.01825031,0.00085726375,0.014614552,0.0036962992,-0.025820965,0.4330605,-1.4499338,1.9850825,-2.103203,-1.5722626,2.4102948,-0.1262647,0.18374279,-0.21480694,0.033725083,-0.015324824,-0.10026159,-0.28730422,0.24899697,-9.442732,0.8224646,47.733456,-1.0194582,-1.6586707,-3.197969,-0.23209576,-0.17569295,-0.26708663,27.5,28.75,27.8125,31.375,33.3125,34.125
0.24205236,-0.09903248,-1.6743886,-1.700083,-0.0417709,0.04230187,-0.13941996,-0.38662004,-0.3259304,0.060025465,-3.0758653,0.62818706,-0.0001618646,-0.1186005,0.017468253,0.0012600652,0.013447168,0.004585934,-0.025317537,0.4327607,-1.4495025,1.9847006,-2.1031072,-1.5722865,2.410103,-0.12534532,0.18388072,-0.2158764,0.03335095,-0.0146561405,-0.09984481,-0.17238252,0.40222588,-9.5385,0.8224646,47.72002,-1.0763602,-1.7919141,-3.263614,-0.21938814,-0.2056167,-0.2826771,27.5,28.75,27.8125,31.375,33.3125,34.125
0.24405244,-0.4355995,-1.741319,-1.6342534,-0.0615514,0.041793168,-0.13255624,-0.3868814,-0.32590315,0.060048565,-3.0758407,0.62833595,-5.628544e-05,-0.11813042,0.019150062,-0.00067830086,0.016298141,0.00073115,-0.02703372,0.43250814,-1.4491422,1.9842342,-2.103059,-1.5723227,2.409947,-0.12732466,0.18610084,-0.21414714,0.0340923,-0.015618454,-0.10010703,0.019153614,0.4405331,-9.557653,0.84484416,47.701214,-0.93589866,-1.7893988,-3.4323802,-0.22322693,-0.20221029,-0.34566712,27.5,28.75,27.8125,31.375,33.3125,34.125
0.2460517,0.14349644,-1.9403166,-1.5233672,-0.06834007,0.051362887,-0.13720165,-0.38712025,-0.32586128,0.060061287,-3.0758052,0.6283863,1.5706108e-05,-0.11942316,0.01877551,-0.0002179245,0.014866685,0.0019826556,-0.02795825,0.43225604,-1.4488062,1.983816,-2.1029994,-1.5723709,2.4097311,-0.1281619,0.18718338,-0.21632315,0.033438526,-0.014848281,-0.100020856,-0.038307227,0.45968673,-9.634268,0.85155696,47.687782,-1.2204483,-1.8068326,-3.4456398,-0.20869322,-0.20958403,-0.34911212,27.5,28.75,27.8125,31.375,33.3125,34.125
0.24805209,-0.18441568,-2.0029314,-1.5892673,-0.07433666,0.034590427,-0.13193563,-0.3873583,-0.3258171,0.06004883,-3.0757377,0.6284677,1.1970071e-06,-0.11900704,0.018816538,-0.0026783347,0.016448686,-0.0016081304,-0.027894044,0.43199217,-1.4484094,1.983385,-2.1029284,-1.5724066,2.409527,-0.12782565,0.19194177,-0.2157609,0.032034162,-0.014788068,-0.0997478,0.0,0.5363012,-9.595961,0.8806493,47.71554,-1.0684888,-1.851315,-3.6148772,-0.17771862,-0.19503668,-0.37537503,27.5,28.75,27.8125,31.375,33.3125,34.125
0.25005198,-0.39253682,-2.237631,-1.347034,-0.07590338,0.029239126,-0.12871416,-0.38756835,-0.325785,0.060036935,-3.0756707,0.6285131,-2.7696537e-05,-0.12049884,0.01893151,-0.0018485044,0.014796096,-0.00028917036,-0.029587021,0.4317751,-1.448038,1.9829777,-2.1028445,-1.5724424,2.4093473,-0.12986273,0.19203222,-0.21785565,0.032138318,-0.013850476,-0.10009291,0.0,0.53630114,-9.557653,0.779936,47.681515,-1.0598876,-1.7611411,-3.5373402,-0.1326941,-0.2263557,-0.36925262,27.5,28.75,27.8125,31.375,33.3125,34.125
0.25205216,0.51945156,-1.9808813,-1.3861854,-0.06656038,0.030365212,-0.14606753,-0.38785592,-0.32576096,0.060070504,-3.0757027,0.6286139,0.0001434682,-0.12111784,0.01979627,-0.0015637212,0.015902704,-0.0006958482,-0.028826794,0.43149883,-1.4476786,1.9824985,-2.1028435,-1.5724667,2.40913,-0.1313382,0.19216567,-0.2191795,0.03415364,-0.014676605,-0.102327846,0.11492168,0.51714754,-9.423578,0.84484416,47.695843,-1.0333407,-1.7437663,-3.4903972,-0.13010876,-0.2283316,-0.41207388,27.5,28.75,27.8125,31.375,33.3125,34.125
0.25405216,0.09154929,-1.6666147,-1.3525715,-0.047611862,-0.0008895525,-0.13409476,-0.38810644,-0.32571128,0.060053997,-3.0756052,0.6287253,0.0001103144,-0.12268992,0.019435016,-0.0012088809,0.015205845,-8.9390785e-05,-0.023470188,0.43122256,-1.4472466,1.9820312,-2.1027482,-1.5725144,2.4089363,-0.132154,0.19445315,-0.22272062,0.034542963,-0.014320249,-0.10849837,0.095768064,0.47884035,-9.404425,0.9097417,47.7451,-1.0296468,-1.768398,-3.5272696,-0.11034037,-0.21889207,-0.3542982,27.5,28.75,27.8125,31.375,33.3125,34.125
0.2560522,0.25885752,-1.235254,-1.2735085,-0.040169615,-0.0024311878,-0.13267511,-0.38838086,-0.325668,0.0600716,-3.0756032,0.62877953,0.00018980332,-0.12385814,0.019660674,-0.00071799377,0.01534487,-0.000109972396,-0.019237498,0.4309221,-1.4468751,1.9815639,-2.102699,-1.5725383,2.4086702,-0.13337953,0.1956391,-0.22565098,0.036347125,-0.01444413,-0.11395572,-0.038307227,0.38307226,-9.346964,0.8023209,47.72808,-1.0188034,-1.7366776,-3.475883,-0.108008504,-0.21886154,-0.31914017,27.5,28.75,27.8125,31.375,33.3125,34.125
0.2580518,-0.14912553,-1.0226151,-1.1486255,-0.022460036,-0.0006875485,-0.12957807,-0.38860837,-0.32565477,0.060077112,-3.0756037,0.6287576,0.0001455507,-0.12465707,0.019718016,-0.00093254534,0.01454775,-0.0015673239,-0.014749884,0.43069378,-1.4464909,1.9810966,-2.1025913,-1.5725259,2.4084284,-0.13495113,0.19758247,-0.22764201,0.03736785,-0.013125672,-0.1200173,0.038307227,0.28730422,-9.270349,0.8179876,47.70838,-1.010659,-1.7576544,-3.4249997,-0.098667055,-0.25524184,-0.25294304,27.5,28.75,27.8125,31.375,33.3125,34.125
0.26005173,-0.07201552,-0.913428,-1.2986797,0.0026399961,0.01945758,-0.1357438,-0.3888702,-0.32562897,0.06009529,-3.075601,0.62875414,0.00026341793,-0.12635267,0.01980924,-0.0006825473,0.013810001,-0.00051264255,-0.009809663,0.43045303,-1.446119,1.9806303,-2.102556,-1.572574,2.4081862,-0.13661537,0.19933897,-0.23012435,0.03680453,-0.0129050575,-0.12662153,0.0,0.21068975,-9.289502,0.7620334,47.687782,-0.9391146,-1.8016546,-3.5065308,-0.068740174,-0.25803056,-0.18779457,27.5,28.75,27.8125,31.375,33.3125,34.125
0.26205173,-0.3767147,-0.38762957,-1.1399028,-0.004308054,0.0350944,-0.1311207,-0.38910767,-0.32559836,0.060079414,-3.075605,0.62873644,0.00019594369,-0.12948558,0.019411596,0.00094184896,0.011947505,0.0026747023,-0.011856194,0.4301765,-1.4457116,1.9801964,-2.1024954,-1.5725497,2.4078984,-0.13868478,0.20110817,-0.2360043,0.037240062,-0.012559161,-0.1266417,-0.13407528,0.17238252,-9.251195,0.84708,47.7254,-0.8953176,-1.7349386,-3.2580914,-0.023172338,-0.2632012,-0.14744976,27.5,28.75,27.8125,31.375,33.3125,34.125
0.2640518,-0.7531736,-0.050316487,-0.73750603,-0.0010754555,0.051091854,-0.13678189,-0.3893605,-0.3255363,0.060055293,-3.0754843,0.6288831,0.0001306545,-0.13083336,0.019412877,0.0024227155,0.011664173,0.0040767267,-0.0114406515,0.42987666,-1.4452683,1.97973,-2.1023867,-1.5725979,2.407706,-0.13950044,0.2008267,-0.2397633,0.039877135,-0.01290128,-0.1278697,-0.38307226,0.076614454,-9.289503,0.9231726,47.747787,-1.0058722,-1.6219978,-3.1908493,-0.038033552,-0.28616714,-0.09974222,27.5,28.75,27.8125,31.375,33.3125,34.125
0.2660518,-1.222649,0.1372262,-1.1218107,0.02471901,0.0575543,-0.12898518,-0.38962752,-0.3255236,0.06008736,-3.0755537,0.6288996,0.00018502446,-0.129693,0.019139595,0.0018088551,0.012899603,0.001825602,-0.014314109,0.4296009,-1.4449089,1.9792398,-2.1023266,-1.5725621,2.4074318,-0.13779067,0.20161797,-0.23970406,0.041598856,-0.013068065,-0.12328735,-0.49799395,0.038307227,-9.212888,0.800085,47.737934,-1.026544,-1.6539798,-3.1605139,-0.033779614,-0.30419013,-0.10655469,27.5,28.75,27.8125,31.375,33.3125,34.125
0.2680518,-1.0356667,-0.009730231,-1.1398228,0.033641737,0.092539735,-0.13089925,-0.38988042,-0.32548454,0.060070846,-3.075474,0.6290024,0.00015405938,-0.1301432,0.02003219,0.0015439449,0.013154347,-2.1117525e-05,-0.020539245,0.42933586,-1.444465,1.9787606,-2.1022418,-1.5725979,2.4072416,-0.14007519,0.20242831,-0.24049348,0.04336157,-0.012530336,-0.119347684,-0.57460845,0.0,-9.346964,0.8403672,47.716442,-0.91873956,-1.5473208,-3.2686026,-0.032179333,-0.3322575,-0.15910861,27.5,28.75,27.8125,31.375,33.3125,34.125
0.270052,-1.5044668,0.181131,-0.72020054,0.0017807658,0.11170168,-0.14171088,-0.3901089,-0.32543933,0.060056664,-3.0754142,0.6289517,6.796667e-05,-0.13012081,0.019182952,0.0017514719,0.013739927,1.4705719e-05,-0.022652421,0.42907286,-1.4440578,1.9783062,-2.1021101,-1.5726222,2.406955,-0.1380148,0.2036357,-0.24267034,0.044546764,-0.013085186,-0.11517051,-0.49799395,-0.019153614,-9.3661175,0.84484416,47.73525,-1.1336398,-1.525064,-3.3648446,-0.025718622,-0.32295924,-0.2226451,27.5,28.75,27.8125,31.375,33.3125,34.125
0.27205214,-1.6298732,0.060981657,-0.77773273,-0.0028331862,0.11393816,-0.13324846,-0.39037347,-0.32540524,0.06006249,-3.075383,0.6291029,6.380744e-05,-0.13045609,0.020681106,0.0010655762,0.015268826,-0.0020220156,-0.029196868,0.42878392,-1.4436501,1.977816,-2.1020257,-1.5726222,2.4067647,-0.14060274,0.20454094,-0.24252127,0.045987055,-0.013621429,-0.11121285,-0.6895301,0.019153614,-9.232041,0.87617236,47.71823,-1.0639985,-1.4472954,-3.4949145,-0.031353135,-0.3593978,-0.28168482,27.5,28.75,27.8125,31.375,33.3125,34.125
0.27405202,-1.9161583,0.11282212,-0.97873396,0.014539437,0.094943635,-0.12943946,-0.39065495,-0.32534662,0.060063653,-3.07531,0.6291668,0.00012764457,-0.13120836,0.022326404,-0.0012483498,0.018936474,-0.0062103546,-0.03398928,0.42848322,-1.4432287,1.9773239,-2.1019537,-1.5726947,2.4065137,-0.1431162,0.20996396,-0.24362276,0.046997882,-0.015216655,-0.108928174,-0.7469909,-0.19153613,-9.385271,0.92093146,47.72002,-1.0581185,-1.7131121,-3.4534905,-0.0324095,-0.357465,-0.31572068,27.5,28.75,27.8125,31.375,33.3125,34.125
0.27605203,-1.367295,0.48907912,-0.80931306,0.017525677,0.09313101,-0.14054622,-0.39091536,-0.32529598,0.060052034,-3.0752223,0.62924516,0.00013322203,-0.13170873,0.022149177,-0.0018484639,0.019743856,-0.007049181,-0.035722654,0.4282073,-1.4427967,1.9768461,-2.1018698,-1.5727547,2.4062984,-0.14284119,0.21264806,-0.24539003,0.04717474,-0.015611132,-0.10691688,-0.63206923,-0.2681506,-9.385271,0.90750587,47.72002,-1.029092,-1.7325575,-3.5140011,-0.024052538,-0.3475641,-0.36711287,27.5,28.75,27.8125,31.375,33.3125,34.125
0.278052,-0.74232274,1.0532521,-0.9581085,0.034365784,0.07320224,-0.13328202,-0.39117363,-0.32524776,0.060054284,-3.075159,0.6293303,0.00016290642,-0.13355017,0.02288039,-0.0013616699,0.02013461,-0.0063716327,-0.040740497,0.42793038,-1.442401,1.9763774,-2.101786,-1.5728034,2.406083,-0.14522183,0.21408606,-0.24846819,0.048359588,-0.016252967,-0.10427615,-0.5554548,-0.114921674,-9.32781,0.88960326,47.716442,-0.9108228,-1.8695834,-3.5494118,-0.012737845,-0.34781948,-0.4390564,27.5,28.75,27.8125,31.375,33.3125,34.125
0.28005195,-0.6740981,0.5944581,-1.0760092,0.048835535,0.052231885,-0.12625363,-0.39144388,-0.32522717,0.060050245,-3.075148,0.6295019,8.078041e-05,-0.13317269,0.022916974,-0.0024298981,0.02127958,-0.009875964,-0.04146905,0.4276304,-1.4419447,1.9758514,-2.1016886,-1.5727547,2.405892,-0.14511375,0.21687265,-0.24973777,0.05050701,-0.015845256,-0.10343986,-0.61291564,-0.15322891,-9.193734,0.95897776,47.694054,-1.0167797,-1.8492832,-3.6499362,-0.023200251,-0.36677855,-0.495274,27.5,28.75,27.8125,31.375,33.3125,34.125
0.28205213,-0.86145276,0.28482506,-0.9753839,0.034800738,0.03926651,-0.12728372,-0.39171964,-0.32514435,0.06004441,-3.0750058,0.6296037,7.808843e-05,-0.13438673,0.022567293,-0.0011067134,0.020989932,-0.009108795,-0.038738053,0.42730653,-1.4415135,1.9753474,-2.1015446,-1.5728511,2.4056504,-0.14532332,0.21737747,-0.25410926,0.053534176,-0.015919862,-0.10637757,-0.63206923,-0.019153614,-9.155427,0.8940802,47.695843,-1.0449393,-1.7681379,-3.4643307,-0.05004,-0.3847288,-0.51315904,27.5,28.75,27.8125,31.375,33.3125,34.125
0.28405213,-0.6338825,0.2256618,-1.0998898,0.0150323585,0.05759801,-0.13814433,-0.3919532,-0.32511932,0.06003097,-3.0749369,0.6296637,2.178441e-05,-0.13515127,0.022967309,-0.0009923693,0.023006713,-0.010015355,-0.03409926,0.4270784,-1.4410819,1.9748677,-2.1014354,-1.5728759,2.405469,-0.14563385,0.21927197,-0.25724468,0.05642349,-0.017398765,-0.111320175,-0.6895301,0.15322891,-9.11712,0.8784135,47.694054,-1.0205276,-1.7999296,-3.3904078,-0.09265701,-0.3628559,-0.50626415,27.5,28.75,27.8125,31.375,33.3125,34.125
0.2860522,-0.97556245,-0.85417944,-1.1681758,0.0054652398,0.064587064,-0.13491087,-0.39222234,-0.3250632,0.06001387,-3.0748322,0.6298094,-0.00010803004,-0.13512899,0.023614038,-0.0009668993,0.024651024,-0.01193744,-0.025588147,0.42675424,-1.4406023,1.9743289,-2.1012666,-1.5728878,2.4052496,-0.14620161,0.21986021,-0.25883603,0.059831817,-0.018130021,-0.12039488,-0.51714754,0.24899697,-9.193734,0.8157518,47.689575,-1.1243914,-1.7931421,-3.2403746,-0.1418564,-0.36276066,-0.41598123,27.5,28.75,27.8125,31.375,33.3125,34.125
0.28805247,-1.3232628,-1.7219448,-1.3405383,-0.02372248,0.076476604,-0.13136366,-0.39246958,-0.3250012,0.059995994,-3.074741,0.62982297,-0.00020163343,-0.13582468,0.023782585,-0.000962574,0.02591616,-0.013419432,-0.016050864,0.42645416,-1.4401704,1.9738506,-2.1011217,-1.572924,2.4049702,-0.1466072,0.22207241,-0.26207593,0.062701225,-0.018706057,-0.13033287,-0.49799395,0.3256114,-9.174581,0.86945957,47.699425,-1.1308149,-1.7922082,-3.390194,-0.19296408,-0.3750987,-0.3656764,27.5,28.75,27.8125,31.375,33.3125,34.125
0.2900525,-1.2024881,-2.0725627,-1.0641569,-0.064920776,0.09379626,-0.13868332,-0.39277244,-0.32493654,0.06001863,-3.0746543,0.62989813,-9.908811e-05,-0.13666488,0.024163205,-0.0009737539,0.026508406,-0.014688148,-0.010375228,0.42614192,-1.4397506,1.9732989,-2.101002,-1.5730203,2.4047165,-0.14786516,0.22388437,-0.26466373,0.064842165,-0.018740017,-0.13726564,-0.34476504,0.34476504,-9.232041,0.88960326,47.701214,-1.1551305,-1.6379626,-3.3402348,-0.23734844,-0.38199332,-0.26222786,27.5,28.75,27.8125,31.375,33.3125,34.125
0.29205263,-1.280864,-2.5640025,-1.2916832,-0.06675889,0.07666179,-0.13272573,-0.39303675,-0.32488444,0.059986576,-3.0745652,0.629934,-0.00024375932,-0.13660988,0.02423011,-0.0013552594,0.027218856,-0.015704686,-0.0058759195,0.42583013,-1.4392471,1.9727725,-2.100858,-1.5730323,2.404439,-0.14764659,0.22498731,-0.26530725,0.06558522,-0.01899952,-0.14154314,-0.28730422,0.4405331,-9.3661175,0.83365434,47.664497,-1.1807432,-1.8173177,-3.2927256,-0.2710033,-0.3807267,-0.19063845,27.5,28.75,27.8125,31.375,33.3125,34.125
0.29405168,-1.1513293,-2.3601658,-1.348,-0.05812635,0.061870705,-0.11843911,-0.39330617,-0.32482734,0.059972342,-3.0744789,0.62991744,-0.00030783398,-0.13861522,0.024656126,-0.0005101447,0.027016943,-0.012939404,-0.007609682,0.42552918,-1.4387796,1.9722456,-2.1007144,-1.5730809,2.4041393,-0.14935142,0.22550674,-0.2677739,0.0649218,-0.019983523,-0.1415078,-0.3256114,0.38307226,-9.346964,0.9321212,47.701214,-1.159928,-1.7365835,-3.4659667,-0.2910692,-0.37710726,-0.13526416,27.5,28.75,27.8125,31.375,33.3125,34.125
0.29605165,-0.30294228,-1.1109117,-1.1837578,-0.061245315,0.06085302,-0.13709238,-0.3936258,-0.32475415,0.05997246,-3.0743861,0.62999856,-0.00024942413,-0.13981846,0.026599046,-0.0006437942,0.027534612,-0.013656174,-0.015146101,0.42517972,-1.4383006,1.9716834,-2.1006181,-1.5731648,2.403853,-0.15368722,0.22558545,-0.26785153,0.0657777,-0.020160899,-0.13830666,-0.21068975,0.3256114,-9.308656,0.88289046,47.67345,-1.0281973,-1.7427438,-3.4941635,-0.3234251,-0.38563448,-0.13522062,27.5,28.75,27.8125,31.375,33.3125,34.125
0.2980525,-0.27579334,-1.2870177,-1.3523096,-0.025054546,0.030749325,-0.11966762,-0.3939039,-0.32473198,0.05996895,-3.0743725,0.6300367,-0.00026672092,-0.14150281,0.025373492,-0.00061787345,0.024879219,-0.010180887,-0.020823603,0.4249042,-1.4378327,1.971145,-2.100536,-1.5731643,2.4036033,-0.15335494,0.22765528,-0.26922718,0.060829483,-0.019184204,-0.13229813,-0.1340753,0.2681506,-9.32781,0.91198283,47.681515,-1.0308002,-1.7008619,-3.57841,-0.30698866,-0.39263207,-0.21172082,27.5,28.75,27.8125,31.375,33.3125,34.125
0.30005255,-0.35951316,-0.9785678,-1.0736066,-0.020785766,0.02184087,-0.12535161,-0.3941821,-0.32466784,0.059946854,-3.0742586,0.63019013,-0.00038311136,-0.14337969,0.025987882,-0.0007651479,0.023517098,-0.008695056,-0.02938332,0.42456704,-1.4373411,1.9706057,-2.1003816,-1.5731877,2.403377,-0.15633103,0.22907825,-0.27002883,0.058296327,-0.018571114,-0.12671371,-0.05746084,0.28730422,-9.251195,0.94331104,47.672558,-0.8753389,-1.6984243,-3.5241857,-0.2963871,-0.3952564,-0.27379772,27.5,28.75,27.8125,31.375,33.3125,34.125
0.30205256,0.25922686,-0.73696536,-1.2527361,-0.00827135,0.033157986,-0.13061234,-0.39449075,-0.32462865,0.059970085,-3.0742269,0.63026047,-0.00029401027,-0.1451201,0.025174398,6.536865e-05,0.022755431,-0.0063645784,-0.030845813,0.42426735,-1.4368975,1.9700302,-2.1002862,-1.5732363,2.4031258,-0.15596952,0.23092303,-0.2740477,0.058027484,-0.018842293,-0.12488711,0.13407528,0.24899697,-9.251195,0.87617236,47.68599,-0.9609095,-1.8246953,-3.6175456,-0.28754452,-0.40530974,-0.32267067,27.5,28.75,27.8125,31.375,33.3125,34.125
0.30405292,0.62155527,-0.17556839,-1.6847824,0.0031327417,0.01540169,-0.12844479,-0.3947707,-0.3245851,0.059943125,-3.0741704,0.6302662,-0.00035191773,-0.14658865,0.024310315,-0.00024961142,0.022766953,-0.0053763557,-0.029591963,0.42396757,-1.4363931,1.9695033,-2.1002028,-1.5732602,2.4028373,-0.15518351,0.23476702,-0.27748176,0.056713622,-0.01928297,-0.12534972,0.24899697,0.17238252,-9.442732,0.88289046,47.72271,-0.96111405,-1.8677604,-3.4131696,-0.28070307,-0.41274822,-0.32761323,27.5,28.75,27.8125,31.375,33.3125,34.125
0.3060519,0.21470244,-0.41169876,-1.5943846,-0.004640522,0.0070371274,-0.1316543,-0.3950728,-0.32452694,0.05993548,-3.0740626,0.63039935,-0.00033298053,-0.14951341,0.024590453,9.270899e-06,0.022651592,-0.0007866878,-0.031625014,0.42365453,-1.4359013,1.9689411,-2.1000965,-1.5733327,2.4026217,-0.15682039,0.23709598,-0.27986318,0.052527636,-0.021087438,-0.124943815,0.076614454,0.21068975,-9.423578,0.92764956,47.71554,-0.84135944,-1.8989127,-3.387077,-0.22076303,-0.38075942,-0.35403258,27.5,28.75,27.8125,31.375,33.3125,34.125
0.30805203,-0.0041290033,-1.0030955,-1.3523146,-0.02200383,0.021645462,-0.1291856,-0.39537013,-0.32447982,0.059945006,-3.074009,0.6304826,-0.0003154489,-0.15090829,0.024791557,-0.00027684748,0.024186445,-0.00056935014,-0.031419426,0.42334297,-1.4354451,1.9683765,-2.0999768,-1.5733699,2.4023695,-0.15722871,0.24022879,-0.28293002,0.052886944,-0.022587819,-0.12555008,-0.019153614,0.19153613,-9.308657,0.8985519,47.70211,-0.9996668,-1.9748167,-3.362072,-0.20986441,-0.38169292,-0.3715632,27.5,28.75,27.8125,31.375,33.3125,34.125
0.310052,-0.113994375,-0.7793554,-1.8297255,-0.029453488,0.027129078,-0.13452844,-0.39562336,-0.32443634,0.059910167,-3.0739393,0.6304858,-0.00050059485,-0.15098865,0.025309283,-0.0010258708,0.024008984,-0.0023335668,-0.029243322,0.4230424,-1.4349412,1.967851,-2.0998209,-1.573357,2.4020803,-0.1586811,0.24136207,-0.28263447,0.052975904,-0.021729697,-0.12917916,0.076614454,0.21068975,-9.500193,0.85826975,47.70032,-0.99232537,-2.0273032,-3.3856292,-0.1999468,-0.3823598,-0.36682057,27.5,28.75,27.8125,31.375,33.3125,34.125
0.3120521,-0.49068028,-1.9043095,-1.8051248,-0.04369941,0.036424816,-0.13469201,-0.39596558,-0.3243532,0.05991192,-3.0738256,0.6306702,-0.00044334636,-0.15238269,0.025286656,-0.0008813009,0.022447333,-0.0019189557,-0.025454523,0.42265794,-1.4344376,1.9672531,-2.099713,-1.5734404,2.4018261,-0.16043748,0.24289124,-0.28469336,0.052447885,-0.020500915,-0.13472773,0.019153614,0.22984336,-9.691729,0.88960326,47.701214,-0.92972314,-2.038102,-3.5115376,-0.19639426,-0.39650726,-0.31999865,27.5,28.75,27.8125,31.375,33.3125,34.125
0.31405222,-0.7071967,-1.928106,-1.6176796,-0.077736326,0.051902853,-0.12994839,-0.3962429,-0.3243309,0.059897136,-3.073807,0.63064325,-0.00046453712,-0.15398096,0.025507605,-0.00030627687,0.022836275,0.0006426138,-0.01858467,0.4223937,-1.4339464,1.9667147,-2.099642,-1.5734533,2.401548,-0.16109924,0.24367009,-0.28680623,0.051581684,-0.021936875,-0.14225212,-0.1340753,0.2681506,-9.557653,0.96569055,47.71465,-0.948436,-2.0284011,-3.4921224,-0.1813069,-0.3797148,-0.24172416,27.5,28.75,27.8125,31.375,33.3125,34.125
0.31605208,-1.0927391,-1.3102677,-1.8032323,-0.059584666,0.055507295,-0.13580212,-0.39658424,-0.32426605,0.059920155,-3.0737402,0.6307013,-0.0003588727,-0.15585862,0.026357485,-0.00033687754,0.02432728,0.002699469,-0.012252055,0.4220453,-1.4334667,1.966092,-2.0995228,-1.5735382,2.4012449,-0.16259886,0.24553823,-0.2886573,0.05026468,-0.02416521,-0.15007497,-0.2873042,0.2681506,-9.615114,0.800085,47.709274,-0.8902315,-2.0521224,-3.4276433,-0.15370613,-0.36018106,-0.14556094,27.5,28.75,27.8125,31.375,33.3125,34.125
0.31805214,-1.540854,-0.9870547,-1.804745,-0.028374279,0.06908454,-0.1260617,-0.3968675,-0.3242401,0.05990599,-3.0737243,0.63073605,-0.00044606248,-0.15501083,0.026108949,-0.0013484721,0.025443539,0.0007631275,-0.009436569,0.42174584,-1.432963,1.9655293,-2.0994146,-1.5735143,2.4009695,-0.16113448,0.24710332,-0.28829873,0.050558288,-0.024402618,-0.15142423,-0.24899697,0.2681506,-9.844957,0.94331104,47.699425,-0.93371326,-1.9752657,-3.6291099,-0.12357943,-0.35535598,-0.08892748,27.5,28.75,27.8125,31.375,33.3125,34.125
0.32005244,-1.7168173,-0.9452378,-1.737229,-0.016544012,0.08449599,-0.1255516,-0.39720327,-0.32418823,0.05990273,-3.0736532,0.63070333,-0.00036251734,-0.15617807,0.02556521,-0.00015130187,0.022857033,0.0028024185,-0.012311181,0.4214332,-1.432424,1.964907,-2.0993307,-1.5736092,2.4006462,-0.1619382,0.24644816,-0.2903798,0.050354768,-0.022879634,-0.14935862,-0.28730422,0.17238252,-9.80665,0.88960326,47.72092,-0.949038,-2.066555,-3.6024346,-0.09932178,-0.37914798,-0.05765611,27.5,28.75,27.8125,31.375,33.3125,34.125
0.32205236,-2.0428345,-0.3516503,-1.5883801,-0.017216567,0.080332264,-0.12555553,-0.3974746,-0.32411918,0.05986767,-3.0735688,0.6307089,-0.00047940333,-0.15817714,0.025850583,0.0008959711,0.021920009,0.0049337517,-0.01882135,0.42109653,-1.4319329,1.9644035,-2.099211,-1.5736336,2.4003243,-0.1639563,0.24690987,-0.29349,0.050678,-0.022908423,-0.14486262,-0.61291564,0.05746084,-9.634268,0.9164598,47.70032,-0.88791955,-1.9283535,-3.6046612,-0.09570603,-0.36839986,-0.09043667,27.5,28.75,27.8125,31.375,33.3125,34.125
0.3240524,-1.1562239,-0.07073722,-1.6827142,-0.0051027187,0.0957755,-0.1324411,-0.3978062,-0.32406527,0.05987716,-3.0735047,0.63084984,-0.00039787663,-0.15855965,0.025529377,0.0008949443,0.02289112,0.0052844537,-0.02331906,0.42076138,-1.4314407,1.9638046,-2.099127,-1.5736936,2.400086,-0.16285042,0.24836214,-0.29535982,0.051177323,-0.023924908,-0.1392546,-0.61291564,0.05746084,-9.672575,0.87393653,47.68599,-1.05849,-1.9273392,-3.5598671,-0.07281828,-0.3527791,-0.13644543,27.5,28.75,27.8125,31.375,33.3125,34.125
0.3260526,-1.3278916,0.13157275,-1.5490406,0.0007018096,0.09320001,-0.11963043,-0.3981219,-0.32402492,0.05988032,-3.0734541,0.6308809,-0.00039986905,-0.15934502,0.025813032,0.000603133,0.023993727,0.0047374093,-0.028849104,0.4204491,-1.430925,1.9631823,-2.098995,-1.5737299,2.3998,-0.16335489,0.25048533,-0.297423,0.052073326,-0.024702666,-0.1342243,-0.51714754,-0.019153614,-9.672575,0.96569055,47.692257,-1.1343884,-1.9701207,-3.6510618,-0.06161467,-0.35728943,-0.20023595,27.5,28.75,27.8125,31.375,33.3125,34.125
0.3280522,-1.5354542,0.027860168,-1.6176239,0.007384492,0.08310738,-0.12240397,-0.39848143,-0.32400674,0.059899006,-3.0734453,0.6309395,-0.00026891514,-0.15943989,0.025457213,0.0009570664,0.025110774,0.0037668499,-0.034932256,0.42014942,-1.430374,1.9625005,-2.0989344,-1.573778,2.3995385,-0.16221656,0.25167277,-0.30042738,0.055243857,-0.025300015,-0.12700133,-0.4405331,-0.095768064,-9.615114,0.8940802,47.695843,-1.2626514,-1.9042461,-3.5740194,-0.049258202,-0.346102,-0.29951283,27.5,28.75,27.8125,31.375,33.3125,34.125
0.33005252,-0.83927894,0.34799057,-1.54155,0.015437022,0.08326377,-0.13604453,-0.39880195,-0.32393962,0.05990603,-3.0733929,0.63114136,-0.00023190778,-0.1614706,0.025313731,0.0008771548,0.024202397,0.005055405,-0.03840686,0.4197769,-1.429918,1.9619478,-2.0988514,-1.5738024,2.3992991,-0.16365437,0.25467592,-0.3034083,0.053668115,-0.025001466,-0.12496396,-0.4213795,-0.19153613,-9.672575,0.93436235,47.705692,-1.167521,-1.9638956,-3.575607,-0.033551503,-0.3372169,-0.3388061,27.5,28.75,27.8125,31.375,33.3125,34.125
0.33205253,-1.2025573,-0.013096443,-1.6158413,0.018931514,0.062253326,-0.12499552,-0.39914036,-0.32389814,0.059916362,-3.0733151,0.63124394,-0.0001310583,-0.1622153,0.026576225,0.00049283507,0.025452903,0.004346305,-0.044439293,0.41947624,-1.4293907,1.9613031,-2.0987546,-1.5738868,2.3990731,-0.16587159,0.25558093,-0.30383304,0.054342788,-0.02584377,-0.121145986,-0.49799395,-0.1340753,-9.883265,0.91421866,47.716442,-1.031342,-2.0081785,-3.5332925,-0.0024653957,-0.33023643,-0.4370277,27.5,28.75,27.8125,31.375,33.3125,34.125
0.3340516,-0.9191966,0.2546203,-1.4171423,-0.0002621719,0.08220802,-0.13246658,-0.39942697,-0.32385066,0.059895027,-3.073224,0.63126147,-0.00022409811,-0.16293773,0.02696867,-0.0005762789,0.028133998,0.0023059384,-0.043412037,0.41917643,-1.4288623,1.9607161,-2.0985987,-1.5739235,2.3987966,-0.16597125,0.259758,-0.30660775,0.055885788,-0.02748139,-0.12226233,-0.40222588,-0.038307227,-9.576807,0.95226496,47.686886,-1.2297664,-1.9806075,-3.5017376,0.009338287,-0.2982136,-0.4835396,27.5,28.75,27.8125,31.375,33.3125,34.125
0.33605206,-0.52978235,0.25173634,-1.4669665,-0.003289277,0.0916572,-0.14645602,-0.39977223,-0.32377768,0.059905723,-3.073127,0.63144845,-0.00016084353,-0.16307682,0.027321313,-0.0006969386,0.030169422,0.00019260906,-0.038105387,0.4188049,-1.4283584,1.9600915,-2.098478,-1.5739955,2.3985548,-0.1658912,0.26152733,-0.3092859,0.059520386,-0.028495789,-0.12748428,-0.30645782,0.038307227,-9.5385,0.8918391,47.667187,-1.2751265,-2.2227168,-3.4759989,-0.00485592,-0.26678807,-0.4763229,27.5,28.75,27.8125,31.375,33.3125,34.125
0.33805206,-0.8403431,-0.5005631,-1.339898,-0.013228494,0.07985219,-0.1363491,-0.40011173,-0.3237495,0.059921436,-3.0730994,0.6314933,-7.59186e-05,-0.16487016,0.026966901,0.0005303224,0.028784024,0.0033614524,-0.029516557,0.41850513,-1.4278314,1.9594344,-2.0983822,-1.5740436,2.398287,-0.16651084,0.26164007,-0.31219113,0.058808602,-0.028548261,-0.13669224,-0.11492168,0.038307227,-9.500193,0.9298854,47.67793,-1.322623,-2.09547,-3.4801993,0.021472365,-0.25475883,-0.42459807,27.5,28.75,27.8125,31.375,33.3125,34.125
0.34005222,-1.1755742,-0.97279227,-1.0999513,-0.03378746,0.06897864,-0.12729134,-0.4004587,-0.3236703,0.059937645,-3.072988,0.63163733,3.530477e-05,-0.16569924,0.027991368,0.0007714314,0.029628072,0.0024311615,-0.021728544,0.41814512,-1.4273401,1.9588112,-2.098262,-1.5741519,2.398032,-0.16861783,0.2621655,-0.31400725,0.06123389,-0.028966602,-0.1465858,-0.1340753,0.11492168,-9.346964,0.9947882,47.670765,-1.3022971,-1.9592414,-3.4716096,0.015719263,-0.22698316,-0.32287776,27.5,28.75,27.8125,31.375,33.3125,34.125
0.3420522,-0.36483037,-1.1291581,-1.319953,-0.023678858,0.05062601,-0.12597841,-0.40077448,-0.32360092,0.059905093,-3.072862,0.631587,-4.535023e-06,-0.16646968,0.02898685,0.0014193273,0.030074712,0.0015043898,-0.015562119,0.41782096,-1.4267652,1.9582013,-2.0981295,-1.5742477,2.3976934,-0.17086528,0.26192155,-0.31610352,0.06454889,-0.02903518,-0.15499671,-0.11492168,0.13407528,-9.346964,0.94331104,47.658226,-1.174754,-1.9613606,-3.5347645,0.010349598,-0.22075571,-0.22024077,27.5,28.75,27.8125,31.375,33.3125,34.125
0.34405234,0.006703885,-0.5756161,-1.3302307,-0.0284045,0.020256551,-0.11986575,-0.4011177,-0.32356444,0.05992332,-3.0728776,0.63164675,5.0442697e-05,-0.16600561,0.030604273,0.0011979049,0.031542614,-0.0017832951,-0.014367352,0.4174726,-1.4262621,1.9575671,-2.0980442,-1.5742477,2.3973806,-0.17326172,0.26125544,-0.31586862,0.06855789,-0.029040275,-0.15859054,-0.05746084,0.22984336,-9.461885,0.9231726,47.687782,-1.0483284,-1.696691,-3.4721355,-0.027175102,-0.19654351,-0.14404802,27.5,28.75,27.8125,31.375,33.3125,34.125
0.34605202,0.23215364,-0.7461425,-1.2560807,-0.025714958,0.0015708474,-0.12375827,-0.40144446,-0.3234976,0.059924327,-3.0727518,0.6316005,7.7034834e-05,-0.16661707,0.03212459,0.0008511501,0.03302067,-0.004497955,-0.017950775,0.41716024,-1.4257232,1.95691,-2.0978634,-1.5743674,2.3970563,-0.17621209,0.26253158,-0.31740978,0.071879394,-0.029300135,-0.15795466,-0.019153614,0.17238252,-9.385271,0.95002913,47.672558,-1.1032513,-1.6316633,-3.6641128,-0.04374029,-0.18104261,-0.10492019,27.5,28.75,27.8125,31.375,33.3125,34.125
0.3480521,0.47950938,-0.003583198,-0.8526799,-0.037072282,0.0031248087,-0.13223395,-0.40178555,-0.32343003,0.059924047,-3.0727048,0.6317462,6.8969886e-05,-0.16684403,0.03142468,0.0014570511,0.033101816,-0.0056109116,-0.021895545,0.4167655,-1.4252076,1.9562982,-2.0977547,-1.5743798,2.396759,-0.1751721,0.26378196,-0.32115346,0.075427726,-0.028919447,-0.15296997,-0.21068975,0.19153613,-9.232041,0.9701675,47.679718,-1.1192541,-1.6774821,-3.6688442,-0.09814268,-0.15366179,-0.17690915,27.5,28.75,27.8125,31.375,33.3125,34.125
0.35005224,0.3607274,-0.037673824,-1.0396395,-0.012602674,0.0039593778,-0.12076398,-0.40212515,-0.32336852,0.05993123,-3.072594,0.6318421,9.279283e-05,-0.1686106,0.031361613,0.0023075426,0.032381903,-0.0062139696,-0.031655677,0.4164296,-1.4246669,1.9556268,-2.0975854,-1.5744632,2.396498,-0.1769107,0.26596284,-0.326498,0.078857414,-0.028011369,-0.144949,-0.11492168,0.19153613,-9.251195,0.9925471,47.653748,-1.0363226,-1.6977234,-3.4275947,-0.1337373,-0.13295943,-0.23505904,27.5,28.75,27.8125,31.375,33.3125,34.125
0.35205236,0.33310702,0.09339805,-1.1452299,0.01942193,0.014568624,-0.13047901,-0.40246794,-0.3233141,0.059927985,-3.0725312,0.63196427,3.7231708e-05,-0.1684898,0.031784713,0.0021265042,0.03255335,-0.009130542,-0.035302717,0.41605768,-1.4241042,1.9549569,-2.097429,-1.5744747,2.396211,-0.17805862,0.2668666,-0.3280148,0.0822019,-0.026992332,-0.14245287,-0.05746084,0.11492168,-9.308657,0.9298854,47.678825,-1.0016516,-1.764894,-3.4358745,-0.17829096,-0.13287063,-0.30732372,27.5,28.75,27.8125,31.375,33.3125,34.125
0.35405236,-0.24004531,0.3444209,-1.2166567,0.034570914,0.0049701193,-0.1315045,-0.4028209,-0.3232685,0.059963625,-3.0724962,0.6320153,0.00017264255,-0.16905984,0.032186814,0.00056268525,0.0329147,-0.014271755,-0.038342886,0.41573307,-1.4236119,1.954286,-2.097308,-1.5745462,2.3959231,-0.18021272,0.27188745,-0.3309075,0.084901586,-0.025243033,-0.14157417,0.019153614,0.038307227,-9.3661175,0.9231726,47.694946,-0.8412739,-1.8024156,-3.2844415,-0.22500685,-0.12729274,-0.31986415,27.5,28.75,27.8125,31.375,33.3125,34.125
0.35605237,-0.5264216,0.12257336,-0.92851716,0.026357153,0.012823029,-0.12354448,-0.40313756,-0.32317823,0.05993996,-3.07236,0.63227385,5.1750892e-05,-0.1704842,0.03258622,-0.00014815929,0.0328331,-0.016509524,-0.04026201,0.41532528,-1.4230825,1.9536976,-2.09714,-1.5745696,2.395695,-0.18253009,0.2758271,-0.33423173,0.08628263,-0.024296755,-0.14197204,-0.076614454,0.095768064,-9.232041,0.94331104,47.686886,-0.84673506,-1.9568405,-3.3639488,-0.2820037,-0.14291501,-0.3518055,27.5,28.75,27.8125,31.375,33.3125,34.125
0.3580524,0.22886613,-0.082089745,-0.9428474,0.008570052,0.056623854,-0.13855626,-0.40346977,-0.32312602,0.05996685,-3.0722945,0.63225836,2.8632774e-05,-0.17096451,0.0315332,0.0009213646,0.031488016,-0.014013298,-0.04009148,0.41499096,-1.4225663,1.9529923,-2.0969012,-1.5746177,2.39536,-0.18094528,0.27518466,-0.335973,0.0858301,-0.024089666,-0.14055689,-0.15322891,0.05746084,-9.212888,0.9186956,47.65643,-0.99019355,-1.8500636,-3.3314018,-0.30381382,-0.12153691,-0.39897472,27.5,28.75,27.8125,31.375,33.3125,34.125
0.3600525,-0.85212904,-0.86994696,-1.237136,-0.000229096,0.04731744,-0.13335288,-0.40381014,-0.3230741,0.059965808,-3.0722277,0.63229746,-7.0746455e-06,-0.17016175,0.032639332,-0.0014778879,0.032828674,-0.017601758,-0.03469368,0.41464284,-1.4220011,1.9523109,-2.0967343,-1.5746535,2.3950455,-0.18225054,0.27753177,-0.33295608,0.08424978,-0.023903616,-0.1472608,-0.11492168,0.095768064,-9.270349,0.900793,47.699425,-0.9648404,-1.890893,-3.490323,-0.31433108,-0.13423267,-0.32947087,27.5,28.75,27.8125,31.375,33.3125,34.125
0.36205262,-0.9627696,-1.1859021,-1.2820457,-0.046793923,0.07639471,-0.14052004,-0.4041425,-0.32299933,0.059965122,-3.0720937,0.63237816,-6.962996e-05,-0.17141858,0.03212229,-0.0010573767,0.031662986,-0.014938345,-0.026744906,0.41428357,-1.4214482,1.951629,-2.0965073,-1.574726,2.3947546,-0.18209812,0.27831638,-0.33444852,0.08199959,-0.023965316,-0.15505372,-0.15322891,0.15322891,-9.404425,0.9298854,47.698532,-0.9362154,-1.8697224,-3.7117016,-0.3116582,-0.1395857,-0.27493542,27.5,28.75,27.8125,31.375,33.3125,34.125
0.36405164,-1.1072725,-1.9271154,-1.1508675,-0.07160992,0.09177975,-0.14343965,-0.4045009,-0.3229188,0.059964567,-3.0719903,0.6324066,-5.9547576e-05,-0.17356771,0.030959005,0.0006557036,0.0287727,-0.009132233,-0.017474864,0.41390055,-1.4208839,1.9509472,-2.096341,-1.5748099,2.3944035,-0.18167362,0.2777939,-0.33717346,0.07870897,-0.023712214,-0.16389784,-0.21068975,0.19153614,-9.461885,0.97464454,47.699425,-1.0769958,-1.7199528,-3.65375,-0.31893742,-0.11751058,-0.16695353,27.5,28.75,27.8125,31.375,33.3125,34.125
0.36605173,-1.1959361,-2.068838,-1.0571675,-0.083284475,0.10417021,-0.1425726,-0.40485263,-0.3228915,0.05999035,-3.072005,0.632444,-1.8153512e-05,-0.17560337,0.028900195,0.001189393,0.025479864,-0.0035589982,-0.0111714825,0.41356593,-1.420355,1.9502534,-2.0962117,-1.5748094,2.3940907,-0.17984301,0.27978235,-0.33940947,0.072501004,-0.022970185,-0.16837253,-0.38307226,0.22984336,-9.519346,0.8940802,47.68599,-1.3441997,-1.6745088,-3.6468282,-0.25052053,-0.11524391,-0.063695066,27.5,28.75,27.8125,31.375,33.3125,34.125
0.36805195,-1.9217453,-1.945884,-1.3452033,-0.06911116,0.08428916,-0.13168308,-0.40520293,-0.3228243,0.059976865,-3.071939,0.6324854,-5.180225e-05,-0.1762615,0.027228035,0.002473402,0.023069728,0.00021698192,-0.009611956,0.41318342,-1.4197785,1.9495944,-2.0960805,-1.5748452,2.393743,-0.17755345,0.2790266,-0.34120995,0.07061771,-0.022298459,-0.16764367,-0.5554548,0.28730422,-9.634268,0.95897776,47.668976,-1.4694164,-1.5830846,-3.6147733,-0.2211633,-0.13095745,-0.058968462,27.5,28.75,27.8125,31.375,33.3125,34.125
0.37005195,-1.6601427,-1.9580199,-1.7354759,-0.054222006,0.08073493,-0.12292994,-0.4055251,-0.3227766,0.059965808,-3.0718665,0.63249207,-0.00011468183,-0.18001798,0.026347686,0.0045119696,0.01990611,0.006751419,-0.016473461,0.41285956,-1.4192135,1.9489349,-2.0959141,-1.574881,2.3934333,-0.17895941,0.28009057,-0.34657824,0.06767698,-0.02203888,-0.16218469,-0.32561144,0.36391866,-9.710882,0.9164598,47.686886,-1.4119389,-1.4801095,-3.516684,-0.19411823,-0.13178246,-0.053374343,27.5,28.75,27.8125,31.375,33.3125,34.125
0.37205225,-1.5571445,-1.5103029,-1.8040867,-0.049319904,0.054164372,-0.12309532,-0.40591872,-0.32269666,0.05999362,-3.071806,0.63261795,3.295286e-05,-0.18283163,0.026712378,0.0036880358,0.018662756,0.008445534,-0.026658969,0.41245124,-1.4186842,1.9482406,-2.0958078,-1.5749654,2.393112,-0.18197349,0.2844382,-0.34889802,0.06360614,-0.021562647,-0.15501437,-0.24899697,0.3256114,-9.80665,0.9679317,47.681515,-1.3245045,-1.6572404,-3.448574,-0.12395832,-0.12975769,-0.14740257,27.5,28.75,27.8125,31.375,33.3125,34.125
0.37405238,-0.5558241,-1.7679386,-2.1714604,-0.039792348,0.050933123,-0.125634,-0.40628788,-0.322654,0.06001251,-3.0717673,0.6328065,9.1048525e-05,-0.18284026,0.027397841,0.0013864674,0.020080967,0.003957149,-0.03672569,0.41209158,-1.4181298,1.9475344,-2.0956876,-1.5749887,2.3928754,-0.18336438,0.28916365,-0.34928697,0.06397557,-0.02103326,-0.14634095,-0.40222588,0.38307226,-9.902418,0.95226496,47.684196,-1.2313089,-1.8079817,-3.6026163,-0.09748761,-0.13609068,-0.2533356,27.5,28.75,27.8125,31.375,33.3125,34.125
0.37605238,-0.81455725,-1.7045269,-1.8469008,-0.06586984,0.046057567,-0.13789275,-0.40664163,-0.32260442,0.06000607,-3.0717103,0.6328341,0.00013683828,-0.18300885,0.027972115,0.0003410715,0.020951495,0.0019942026,-0.04130121,0.41175574,-1.4175522,1.946865,-2.0955918,-1.5750488,2.3925648,-0.18434626,0.29132086,-0.34959698,0.06427629,-0.021036644,-0.14274712,-0.53630114,0.38307226,-9.902418,1.0328293,47.694946,-1.2835345,-1.8554533,-3.650394,-0.08261715,-0.13264784,-0.29456857,27.5,28.75,27.8125,31.375,33.3125,34.125
