Tylouw/Master_Thesis_Code/training_data/batch_1/big_rod_t0.3/sample_85_session_3.csv
timestamp[s],tcp_force_x[N],tcp_force_y[N],tcp_force_z[N],tcp_force_rx[Nm?],tcp_force_ry[Nm?],tcp_force_rz[Nm?],tcp_pose_x[m],tcp_pose_y[m],tcp_pose_z[m],tcp_pose_rx[rot_vec_x],tcp_pose_ry[rot_vec_y],tcp_pose_rz[rot_vec_z],tcp_velo_x[m/s],tcp_velo_y[m/s],tcp_velo_z[m/s],tcp_velo_rx[rot_vec_x/s],tcp_velo_ry[rot_vec_y/s],tcp_velo_rz[rot_vec_z/s],q1[rad],q2[rad],q3[rad],q4[rad],q5[rad],q6[rad],qd1[rad/s],qd2[rad/s],qd3[rad/s],qd4[rad/s],qd5[rad/s],qd6[rad/s],tool_acc_x,tool_acc_y,tool_acc_z,current_of_whole_robot[A],voltage_of_whole_robot[V],current_J1[A],current_J2[A],current_J3[A],current_J4[A],current_J5[A],current_J6[A],temp_J1[C],temp_J2[C],temp_J3[C],temp_J4[C],temp_J5[C],temp_J6[C]
5.7701254e-07,-0.20731357,-0.82493967,-0.3635321,-0.050708234,0.044883907,-0.013207213,-0.37288406,-0.32823494,0.059942067,-3.0785084,0.6249097,-0.00027402735,0.0027707433,0.0012861637,-0.00341681,0.003816921,-0.00825193,-2.7484396e-06,0.44816232,-1.4708613,2.0095847,-2.1077263,-1.5706376,2.4231033,-4.630323e-16,0.0031142663,0.0039566313,0.0020195018,0.00014863248,-4.962452e-33,0.076614454,0.17238252,-8.868123,0.7642693,47.72808,-0.18206333,-2.9334302,-2.4337392,-0.50718117,0.090296626,-0.13286972,27.875,29.125,28.1875,31.875,34.0,34.8125
0.0020529581,-0.50263983,-0.84140533,-0.32362613,-0.041281786,0.037510905,-0.008943326,-0.3728559,-0.32821065,0.059890725,-3.0784311,0.624856,-0.00042154736,-0.0004509873,-0.00027100777,-0.0023089477,-0.0010872966,0.0018971001,4.340528e-07,0.44815028,-1.4708016,2.0096323,-2.1077068,-1.5706495,2.4230676,-6.212169e-18,0.0029590074,0.004174539,-0.009314972,0.00014562627,-3.2401264e-34,0.05746084,0.17238252,-8.868123,0.7463667,47.70211,-0.17666304,-2.7474394,-2.390563,-0.47579932,0.06903717,-0.15074106,27.875,29.125,28.1875,31.875,34.0,34.8125
0.004052664,-0.49665764,-0.5307232,-0.41270787,-0.031431682,0.032254033,-0.011256621,-0.37286526,-0.3282322,0.059909917,-3.078505,0.62483263,-0.0003126954,-0.0015543819,-0.0008040765,-0.0020870897,-0.00232589,0.0044610878,1.8429315e-06,0.44817424,-1.4708371,2.0096438,-2.1077788,-1.5706376,2.4230676,-8.334417e-20,0.0037141931,0.0035081923,-0.01225129,0.00014273924,-2.115571e-35,0.05746084,0.21068975,-8.963891,0.7911258,47.711063,-0.18182427,-3.063656,-2.5617318,-0.36550117,0.08489634,-0.15289542,27.875,29.125,28.1875,31.875,34.0,34.8125
0.006051986,0.14135589,-0.16602582,-0.52270055,-0.012486933,0.026091814,-0.009224572,-0.37289107,-0.3282082,0.059927672,-3.0784552,0.6249183,-0.00025326395,-0.00073976954,-0.0004089126,-0.0017110283,-0.0010181454,0.001767772,9.760649e-07,0.44813824,-1.4708494,2.009608,-2.1077416,-1.5706857,2.4230914,-1.1181684e-21,0.0029620163,0.00235173,-0.0073486287,0.00013996445,-1.3813165e-36,0.05746084,0.1340753,-8.983045,0.76874626,47.701214,-0.17403542,-3.01913,-2.5170612,-0.39043403,0.0836758,-0.15745556,27.875,29.125,28.1875,31.875,34.0,34.8125
0.008052271,0.628976,0.56138194,-1.0423487,0.010787885,0.006388727,-0.012524532,-0.37285438,-0.3282163,0.05988544,-3.0784523,0.6248219,-0.00039305078,-0.00011950658,-0.00010769573,-0.0012480154,-0.00024734487,0.0001856475,1.3722806e-07,0.44816232,-1.470802,2.0096552,-2.107752,-1.5706495,2.4230556,-1.5001656e-23,0.0018466667,0.0017108268,-0.0038324855,0.00013740607,-9.01901e-38,-0.038307227,0.095768064,-9.059659,0.7620334,47.7254,-0.22207677,-2.9783573,-2.4879062,-0.43308157,0.066850975,-0.15787125,27.875,29.125,28.1875,31.875,34.0,34.8125
0.010052446,0.54957193,0.52168435,-1.3846841,0.02485514,0.0035313265,-0.010097666,-0.372862,-0.32820696,0.059895996,-3.078416,0.6248145,-0.00037517992,0.00031266303,0.00014760408,-0.001335377,0.0005666929,-0.0014253308,-6.59743e-05,0.4481623,-1.470802,2.00962,-2.1077034,-1.5706857,2.4230556,-6.575831e-05,0.0018942365,0.0013830903,-0.0017475837,0.000105847575,-5.888769e-39,0.038307227,0.19153613,-9.289503,0.7284641,47.73256,-0.5821291,-2.3463154,-3.0917568,-0.44376194,0.043004073,-0.24136296,27.875,29.125,28.1875,31.875,34.0,34.8125
0.012051818,-0.5272375,-0.3892725,-1.3552474,0.0029710704,0.005717987,-0.008676022,-0.37284923,-0.32821342,0.059881385,-3.078438,0.62478125,-0.00043848262,-0.0020043838,0.0004954941,-0.0019027296,0.0013735804,-0.0030668613,-0.0027390968,0.44816154,-1.4707885,2.0096414,-2.1077154,-1.5706495,2.4230313,-0.0028176366,0.00723058,-0.0034770914,-0.0003946273,8.266703e-05,-7.5341486e-05,0.095768064,0.13407528,-9.461885,0.7463667,47.70838,-0.69858015,-2.1922448,-3.2609553,-0.44497427,0.05613183,-0.27672273,27.875,29.125,28.1875,31.875,34.0,34.8125
0.014052274,-0.79792035,-1.1532283,-1.7530664,-0.026662905,0.036209453,-0.013746654,-0.37287173,-0.32821047,0.059862643,-3.0784116,0.62483066,-0.00047219082,-0.0049447613,0.0017557088,-0.004189319,0.0033849115,-0.0072333184,0.0024870327,0.44813544,-1.470713,2.0096042,-2.1077268,-1.5706495,2.4230394,-0.007855746,0.016199121,-0.008145045,-7.010386e-05,6.0963568e-05,-0.010335404,0.0,0.019153614,-9.5385,0.7396539,47.734352,-0.4619172,-2.846541,-3.073894,-0.44876587,0.021203157,-0.24021234,27.875,29.125,28.1875,31.875,34.0,34.8125
0.016052447,-1.3719045,-1.5266216,-1.639777,-0.066028275,0.06533469,-0.024075318,-0.37286866,-0.32818508,0.059857845,-3.07835,0.6247961,-0.00048603784,-0.0050415024,0.002129829,-0.004544838,0.003737068,-0.007967584,0.0076967333,0.44812316,-1.4707129,2.0096042,-2.1076791,-1.5706977,2.4230134,-0.00864632,0.01675044,-0.007949191,-4.5772813e-06,5.848265e-05,-0.016335728,-0.30645782,0.22984336,-9.557653,0.784413,47.701214,-0.45323765,-2.7703352,-3.2622576,-0.43567324,0.03373331,-0.1761636,27.875,29.125,28.1875,31.875,34.0,34.8125
0.018052517,-1.9348196,-1.9542267,-1.5964541,-0.07978577,0.09764995,-0.044853836,-0.3728668,-0.32819527,0.059839457,-3.0783877,0.62480336,-0.0006245437,-0.0056815995,0.0019360179,-0.003634183,0.0032260579,-0.0059941043,0.009254989,0.44808707,-1.4706652,2.0095913,-2.1076672,-1.5706137,2.422977,-0.00859336,0.015844366,-0.009044794,-2.9886377e-07,-0.00034022663,-0.017839696,-0.3256114,0.22984336,-9.634268,0.7083204,47.695843,-0.5288875,-2.4891338,-3.4348822,-0.4130002,0.022323005,-0.1852211,27.875,29.125,28.1875,31.875,34.0,34.8125
0.020052504,-1.7900313,-1.6680288,-1.6261375,-0.07292119,0.118859805,-0.06369144,-0.37285268,-0.32819685,0.059815224,-3.0783534,0.62473935,-0.0006897013,-0.0060628382,0.0021090657,-0.0038326727,0.0042619808,-0.008223029,0.008302422,0.44811094,-1.4706165,2.0095904,-2.1076539,-1.5706257,2.4229653,-0.009290241,0.017952451,-0.01155437,0.0028585843,-0.00030775304,-0.01758306,-0.45968673,0.28730422,-9.730036,0.81351066,47.744205,-0.623582,-2.4140472,-3.5062249,-0.43049225,0.0014433595,-0.22499344,27.875,29.125,28.1875,31.875,34.0,34.8125
0.022052778,-1.8475019,-1.2069712,-1.6077828,-0.05050101,0.106085904,-0.08603969,-0.37289366,-0.3281733,0.059831075,-3.0783057,0.6246723,-0.00059639016,-0.0074348273,0.0025458182,-0.0037814882,0.0046348204,-0.008845398,0.0066521536,0.44808623,-1.4705919,2.0095189,-2.1076176,-1.5707096,2.422905,-0.011314415,0.020040845,-0.014270892,0.0042078597,-0.000377116,-0.017955257,-0.53630114,0.2681506,-9.730036,0.6926589,47.692257,-0.72593224,-2.4529915,-3.4614303,-0.44812733,-0.0033143589,-0.24199247,27.875,29.125,28.1875,31.875,34.0,34.8125
0.024051974,-1.4610847,-1.1179507,-1.667636,-0.04252989,0.103436254,-0.093776055,-0.37287945,-0.328173,0.05979269,-3.0782945,0.62476575,-0.0007674014,-0.00898146,0.0026279886,-0.0031559581,0.0035344553,-0.006652448,0.00663712,0.44804975,-1.4705321,2.0095413,-2.107618,-1.5706376,2.422928,-0.012898766,0.020312935,-0.015711544,0.0029241876,-0.00034429296,-0.01952333,-0.59376204,0.30645782,-9.730036,0.7016076,47.703007,-0.72423327,-2.4622371,-3.469644,-0.42401725,-0.004959778,-0.22474915,27.875,29.125,28.1875,31.875,34.0,34.8125
0.026051871,-1.3298291,-0.81750077,-1.6433297,-0.051259696,0.09644063,-0.10929438,-0.37293476,-0.3281889,0.059818715,-3.078361,0.62472254,-0.00062022865,-0.010594909,0.0024435937,-0.001948387,0.0021228213,-0.0036112051,0.0059913606,0.44803736,-1.4705082,2.0094693,-2.1076787,-1.5706495,2.4228804,-0.013984437,0.019816771,-0.017751236,0.002107335,-0.0003938596,-0.019961787,-0.6512229,0.2873042,-9.691729,0.7777002,47.709274,-0.79352367,-2.311014,-3.4823742,-0.40088165,-0.02726337,-0.21163028,27.875,29.125,28.1875,31.875,34.0,34.8125
0.028051903,-2.0818057,-1.3980241,-1.4845253,-0.047858592,0.08903777,-0.12280399,-0.37294173,-0.32818127,0.059809428,-3.0783377,0.62468,-0.0006541392,-0.011924889,0.0027352439,-0.0019733517,0.0019720925,-0.0031828322,0.004400051,0.4480247,-1.4704716,2.009445,-2.1076548,-1.5706614,2.4228442,-0.01570667,0.021459615,-0.019393703,0.0016555014,-0.0004489368,-0.0200912,-0.7469909,0.24899697,-9.710882,0.78217715,47.701214,-0.7506883,-2.3202693,-3.560615,-0.39227888,-0.034472317,-0.22664328,27.875,29.125,28.1875,31.875,34.0,34.8125
0.03005208,-2.0403223,-1.1451159,-1.4165788,-0.0501974,0.10523951,-0.14091036,-0.37298763,-0.3281752,0.059802357,-3.078319,0.62467706,-0.00062927825,-0.0133896815,0.0028486126,-0.001634322,0.0019577257,-0.0020767539,0.003405253,0.44798827,-1.4703873,2.0093715,-2.1076667,-1.5706862,2.4228084,-0.016932266,0.022882551,-0.021708822,0.0015456742,-0.0009205081,-0.020319358,-0.7278373,0.17238252,-9.634268,0.779936,47.70032,-0.74694395,-2.2807171,-3.4733586,-0.37652832,-0.070688084,-0.22869211,27.875,29.125,28.1875,31.875,34.0,34.8125
0.032052338,-1.3461708,-0.4061915,-1.289403,-0.03452321,0.1225579,-0.16355275,-0.37299082,-0.32816836,0.059782196,-3.0783126,0.6247144,-0.00075066707,-0.014275453,0.0033760422,-0.001316448,0.003989501,-0.001611616,0.0033727034,0.4479402,-1.4703391,2.0093591,-2.107642,-1.5706385,2.4227843,-0.017351339,0.023876471,-0.023911329,0.003223207,-0.0029558013,-0.020700421,-0.6703765,0.1340753,-9.576807,0.7709874,47.689575,-0.7423689,-2.302723,-3.4720364,-0.3482408,-0.044788085,-0.23987955,27.875,29.125,28.1875,31.875,34.0,34.8125
0.03405198,-1.7556293,-0.35676113,-1.2182891,-0.00015610644,0.09852751,-0.15904157,-0.3730091,-0.32815355,0.059767008,-3.0782785,0.62468785,-0.00080004864,-0.0147672035,0.0037136213,-0.0011046361,0.004945402,-0.0030276915,0.0036132496,0.44790375,-1.4702787,2.009322,-2.1076167,-1.5706505,2.4227357,-0.018265348,0.024981879,-0.026286311,0.0061835293,-0.0032044419,-0.021853555,-0.4405331,0.095768064,-9.519346,0.7709874,47.698532,-0.75682116,-2.3377655,-3.4527693,-0.37944716,-0.05665327,-0.21651044,27.875,29.125,28.1875,31.875,34.0,34.8125
0.03605175,-1.2582582,0.33324066,-1.1998423,0.017428335,0.08157541,-0.17979848,-0.37307188,-0.32815164,0.059792824,-3.0782974,0.6246722,-0.0006748346,-0.016032867,0.0033336536,-0.000315724,0.0035555116,-0.0015250577,0.0041475515,0.4478676,-1.4702426,2.009226,-2.1076295,-1.5706867,2.4226875,-0.01910412,0.02543413,-0.028561875,0.0060472144,-0.0026069826,-0.023226667,-0.47884035,0.019153614,-9.557653,0.7665104,47.691364,-0.8034285,-2.2780237,-3.4924483,-0.37856966,-0.091174334,-0.21376377,27.875,29.125,28.1875,31.875,34.0,34.8125
0.038051844,-0.6245993,0.16080558,-1.3057573,0.017444609,0.0650781,-0.20058824,-0.3731049,-0.32815486,0.059785623,-3.0782938,0.6246898,-0.0006762809,-0.017489064,0.0029242698,0.00025446244,0.00193629,0.00031141553,0.0044092806,0.44784322,-1.4701705,2.009166,-2.107641,-1.5706862,2.4226747,-0.020101769,0.026304873,-0.030541876,0.004797299,-0.0019506463,-0.024485763,-0.30645782,-0.019153614,-9.615114,0.7709874,47.68062,-0.7702904,-2.24582,-3.3840423,-0.34567073,-0.08930634,-0.21525928,27.875,29.125,28.1875,31.875,34.0,34.8125
0.04005196,-0.50174135,-0.07417897,-1.2036717,0.0057781152,0.050356023,-0.19789931,-0.37312987,-0.32811555,0.05977041,-3.07826,0.6246445,-0.0006710325,-0.018669935,0.0030028026,0.0004222811,0.0016129118,0.0006878261,0.00478771,0.4477708,-1.4701461,2.009177,-2.1076534,-1.570722,2.4225783,-0.021405336,0.027706755,-0.032477845,0.0048502507,-0.0018278775,-0.026166614,-0.17238252,0.0,-9.519346,0.7530795,47.672558,-0.7018535,-2.2369297,-3.3905888,-0.31562325,-0.113980055,-0.22074701,27.875,29.125,28.1875,31.875,34.0,34.8125
0.042052373,-0.22561172,-0.40653938,-1.2549843,-0.0005585874,0.050133176,-0.18853647,-0.37317815,-0.3281302,0.059772596,-3.0782578,0.6246626,-0.00069809984,-0.019513236,0.0033256833,0.0002151379,0.0027601488,-4.2668694e-06,0.005942734,0.44774657,-1.4700375,2.0090444,-2.1076167,-1.5707105,2.4225657,-0.022278018,0.029766398,-0.034517303,0.005953123,-0.0025660035,-0.028191466,-0.15322891,0.0,-9.481039,0.79560274,47.66987,-0.738106,-2.2942684,-3.4152098,-0.32142395,-0.13002576,-0.1961028,27.875,29.125,28.1875,31.875,34.0,34.8125
0.04405271,-0.2361974,-0.13537945,-1.2774897,-0.009038339,0.03985147,-0.16941735,-0.37323335,-0.32812876,0.059809268,-3.0782924,0.62465024,-0.0005702961,-0.020097215,0.00419377,0.00036095607,0.0052022804,-0.00016781862,0.0072436975,0.4477102,-1.4700373,2.00896,-2.1076162,-1.5707349,2.4225173,-0.022997387,0.030404832,-0.03602629,0.0080347555,-0.004694079,-0.030207148,-0.19153613,0.05746084,-9.595961,0.7396539,47.67345,-0.71511424,-2.1959991,-3.4400225,-0.33584785,-0.11539656,-0.1809482,27.875,29.125,28.1875,31.875,34.0,34.8125
0.046052348,0.14976299,-0.50478625,-1.1522651,-0.0014733844,0.04670332,-0.17850058,-0.37326348,-0.32810244,0.05979812,-3.0782416,0.62465835,-0.0006069107,-0.021201437,0.004564062,0.0010469386,0.005506661,0.00047340902,0.007795428,0.44764972,-1.4699773,2.0089114,-2.10758,-1.5707592,2.4224684,-0.024318619,0.03069371,-0.038259767,0.009533575,-0.0052502104,-0.032077752,0.019153614,0.076614454,-9.442732,0.784413,47.653748,-0.6730939,-2.1663527,-3.3804035,-0.3204357,-0.12030107,-0.1671391,27.875,29.125,28.1875,31.875,34.0,34.8125
0.04805247,-0.86458236,-1.0315933,-1.5824978,-0.0020456298,0.016708998,-0.1577509,-0.37331453,-0.32809913,0.05980137,-3.0782588,0.62458396,-0.00063343364,-0.021660225,0.0048995,0.0008188043,0.0059206802,-0.001004027,0.008431288,0.4475893,-1.4698929,2.0088031,-2.1075437,-1.5707477,2.4223595,-0.025542727,0.032123484,-0.039641917,0.01099569,-0.0049854275,-0.033937607,-0.019153614,0.11492168,-9.519346,0.8157518,47.65464,-0.7119315,-2.0731518,-3.4250932,-0.33104277,-0.13525209,-0.14989266,27.875,29.125,28.1875,31.875,34.0,34.8125
0.050052427,-0.18111072,-0.823915,-1.4232712,-0.018292164,0.024306143,-0.16457893,-0.3733462,-0.32810616,0.05979134,-3.0782819,0.6245892,-0.0007099603,-0.022573145,0.005203607,0.0011650245,0.006433969,-0.0005963441,0.0087485695,0.44754106,-1.4698089,2.0087311,-2.1075313,-1.5706996,2.4223115,-0.02650625,0.03282907,-0.041426733,0.011932986,-0.005628166,-0.035215985,-0.038307227,0.11492168,-9.500193,0.72622824,47.677036,-0.66036797,-2.0752459,-3.4550068,-0.3482405,-0.13510782,-0.14017418,27.875,29.125,28.1875,31.875,34.0,34.8125
0.052052837,-0.26908007,-1.2068133,-1.5512595,-0.034022167,0.03031272,-0.15709876,-0.37339565,-0.32810172,0.059800256,-3.07827,0.6245477,-0.000687103,-0.023740247,0.005886028,0.001167393,0.008281127,-0.00023146573,0.009474557,0.44750455,-1.4697365,2.008623,-2.107495,-1.5707244,2.4222507,-0.02761026,0.03446076,-0.04341438,0.012764405,-0.0074551036,-0.037040785,0.019153614,0.24899697,-9.519346,0.779936,47.660015,-0.618039,-2.0370412,-3.4628026,-0.3465668,-0.11578734,-0.13585427,27.875,29.125,28.1875,31.875,34.0,34.8125
0.054052085,-0.14835173,-1.2502747,-1.4238368,-0.042273976,0.039507344,-0.16673459,-0.3734529,-0.32805192,0.059797477,-3.0781841,0.62464464,-0.00063184125,-0.024817634,0.006943027,0.0010902955,0.011249544,0.0005575449,0.011084187,0.44740826,-1.469688,2.0085733,-2.1074827,-1.5707973,2.422226,-0.028526366,0.035775308,-0.04483762,0.013452728,-0.010476774,-0.039558947,0.038307227,0.24899697,-9.500193,0.74413085,47.687782,-0.66068065,-2.1038787,-3.498951,-0.36662424,-0.1288001,-0.09461093,27.875,29.125,28.1875,31.875,34.0,34.8125
0.056051917,-0.7732474,-1.8443837,-1.4080383,-0.038454626,0.04359472,-0.15495396,-0.37347054,-0.32805157,0.05978692,-3.078177,0.6245084,-0.0007315363,-0.02616409,0.007471737,0.001697179,0.012766575,0.0029526164,0.010836107,0.4473841,-1.469604,2.008489,-2.1074111,-1.5707864,2.4221177,-0.029109292,0.036099326,-0.046566665,0.013363464,-0.012887709,-0.039886475,-0.05746084,0.3256114,-9.500193,0.75084364,47.694054,-0.6567387,-2.0271912,-3.4682665,-0.3479936,-0.08663915,-0.09694076,27.875,29.125,28.1875,31.875,34.0,34.8125
0.05805199,-0.6124879,-1.5184466,-1.5427402,-0.047816355,0.066965304,-0.16513878,-0.37355497,-0.3280517,0.05981501,-3.078212,0.6244591,-0.00061971485,-0.027561083,0.007736655,0.0021222336,0.013310477,0.004497015,0.008966595,0.44732377,-1.4695319,2.0083454,-2.1074111,-1.5708102,2.4220223,-0.030084532,0.037111484,-0.048630998,0.013261204,-0.01404742,-0.038989153,-0.05746084,0.40222588,-9.519346,0.7463667,47.709274,-0.6714337,-1.9414734,-3.5431633,-0.36410034,-0.0450607,-0.11750339,27.875,29.125,28.1875,31.875,34.0,34.8125
0.06005236,-1.0216275,-1.521217,-1.4658191,-0.052754056,0.066238895,-0.15742847,-0.37359375,-0.32802343,0.05979456,-3.0781538,0.62450486,-0.0006570537,-0.028301364,0.0073205186,0.0018837079,0.012209238,0.0039454023,0.009042023,0.44725153,-1.4694474,2.0082967,-2.1073992,-1.570834,2.421986,-0.030800512,0.039117984,-0.050192393,0.012830567,-0.01282281,-0.039781265,-0.076614454,0.4213795,-9.5385,0.7709874,47.71465,-0.67531276,-1.8805721,-3.496592,-0.3418337,-0.06899827,-0.10961862,27.875,29.125,28.1875,31.875,34.0,34.8125
0.06205195,-0.8104199,-1.6685325,-1.43901,-0.055972908,0.06839038,-0.16005987,-0.37365556,-0.32801318,0.059816066,-3.0781715,0.6244702,-0.0006694722,-0.02910122,0.0065945163,0.0021684805,0.010485479,0.0042293286,0.009736972,0.44716737,-1.4693868,2.0081646,-2.1073277,-1.5708212,2.421878,-0.031121092,0.040361486,-0.052145682,0.012532949,-0.011397049,-0.040798545,-0.076614454,0.38307226,-9.519346,0.76874626,47.70032,-0.6820381,-1.9301279,-3.5633554,-0.36086282,-0.09449567,-0.11454052,27.875,29.125,28.1875,31.875,34.0,34.8125
0.064052574,-0.4178558,-1.5625141,-1.4317452,-0.058474522,0.07414689,-0.1646808,-0.37370482,-0.3280092,0.05982496,-3.078161,0.62442756,-0.00064710877,-0.02955095,0.0060071726,0.0016148688,0.009329346,0.0028611217,0.011071004,0.44713125,-1.4693142,2.0080564,-2.107292,-1.570845,2.4218168,-0.031525116,0.042882618,-0.053561285,0.012153392,-0.009768209,-0.042538904,-0.17238252,0.34476504,-9.500193,0.7463667,47.70211,-0.74117947,-1.8922322,-3.568318,-0.35181075,-0.09402053,-0.109004535,27.875,29.125,28.1875,31.875,34.0,34.8125
0.06605268,-1.1122273,-1.5228093,-1.5399079,-0.053898837,0.05681298,-0.15199682,-0.37376997,-0.32802567,0.059833612,-3.078221,0.6243247,-0.00059906556,-0.030895317,0.005756891,0.0021870923,0.008579738,0.0042053484,0.011090083,0.44709498,-1.469218,2.0079362,-2.1073158,-1.5708331,2.4217088,-0.032330524,0.04391481,-0.055975955,0.011999249,-0.009677551,-0.04336241,-0.21068975,0.28730422,-9.5385,0.78217715,47.687782,-0.75652945,-1.9624348,-3.498921,-0.34428626,-0.12743384,-0.09222907,27.875,29.125,28.1875,31.875,34.0,34.8125
0.06805196,-0.7520921,-1.0374954,-1.1998761,-0.046061505,0.07166399,-0.16026717,-0.37383825,-0.32798803,0.059842695,-3.0781367,0.6243467,-0.000574976,-0.03217083,0.005481347,0.0024218035,0.008781309,0.005565593,0.0092725735,0.44701096,-1.4691335,2.0078037,-2.1072323,-1.5709051,2.4216495,-0.03243867,0.04572845,-0.058384236,0.011453987,-0.010453879,-0.041649092,-0.22984336,0.24899697,-9.423578,0.7642693,47.709274,-0.79603255,-1.88842,-3.4830115,-0.34239346,-0.10600616,-0.12425222,27.875,29.125,28.1875,31.875,34.0,34.8125
0.07005221,-0.7309757,-0.72936636,-1.1995856,-0.033423472,0.08058824,-0.16661532,-0.3738821,-0.3279963,0.059828438,-3.0781791,0.6242409,-0.00062578934,-0.032838352,0.006063691,0.0018922962,0.009624977,0.0046439297,0.008377948,0.44696248,-1.469025,2.0077198,-2.1072438,-1.5708693,2.4215295,-0.033887774,0.047486477,-0.05915389,0.011663503,-0.0108183855,-0.042201947,-0.30645782,0.2681506,-9.461885,0.8112748,47.72271,-0.74121284,-1.9736044,-3.5539312,-0.33293542,-0.117282405,-0.14211874,27.875,29.125,28.1875,31.875,34.0,34.8125
0.07205259,-1.4607234,-0.75536007,-1.2604307,-0.02395423,0.0768206,-0.16199248,-0.37396076,-0.32797,0.059833363,-3.0781488,0.62425315,-0.0005887146,-0.03533237,0.005727763,0.0035148463,0.009109151,0.008472349,0.009148898,0.44686618,-1.468929,2.0075977,-2.10722,-1.5709056,2.421445,-0.03469755,0.04825006,-0.0637538,0.011825569,-0.012018139,-0.043777198,-0.30645782,0.24899697,-9.404425,0.75755644,47.709274,-0.7644695,-1.8774223,-3.4774582,-0.34702483,-0.10539092,-0.13120453,27.875,29.125,28.1875,31.875,34.0,34.8125
0.074052,-1.201118,-0.6294971,-1.0919197,-0.024312384,0.08748473,-0.15631925,-0.37404242,-0.32798386,0.059853226,-3.0781882,0.62420356,-0.0005301241,-0.035257217,0.0062261485,0.0020356067,0.011136118,0.0057523744,0.008940703,0.44681808,-1.4688202,2.0074298,-2.107208,-1.5709056,2.421361,-0.03512008,0.0514295,-0.063934825,0.012157657,-0.01266837,-0.043990165,-0.30645782,0.21068975,-9.32781,0.76874626,47.71465,-0.7562518,-1.890419,-3.4625535,-0.3149603,-0.094580635,-0.16063945,27.875,29.125,28.1875,31.875,34.0,34.8125
0.076052435,-1.3852471,-0.51767987,-0.9947171,-0.026751572,0.076374985,-0.14967898,-0.37409005,-0.3279531,0.05984734,-3.0781255,0.6242294,-0.0005827928,-0.03603689,0.006428789,0.0018101179,0.012117025,0.005493192,0.008550011,0.44673386,-1.4687357,2.007334,-2.107136,-1.5709304,2.421301,-0.035675988,0.053325523,-0.06560244,0.012587356,-0.0134463785,-0.044151694,-0.30645782,0.17238252,-9.32781,0.83589023,47.70211,-0.797541,-2.0241842,-3.5577579,-0.3093048,-0.11079757,-0.16530898,27.875,29.125,28.1875,31.875,34.0,34.8125
0.07805255,-0.8200537,-0.7527546,-0.9218023,-0.02381576,0.07925129,-0.1588781,-0.37419134,-0.32794186,0.059862673,-3.0781448,0.6241177,-0.00043425415,-0.038979873,0.0056510367,0.004823853,0.009483269,0.011481473,0.007981541,0.44666156,-1.4686283,2.007189,-2.1071718,-1.5709904,2.4211566,-0.03672127,0.051803168,-0.07091047,0.012876231,-0.013665405,-0.044626184,-0.36391866,0.21068975,-9.346964,0.73069996,47.73883,-0.86308753,-1.7590003,-3.4404998,-0.3036363,-0.09192255,-0.18533576,27.875,29.125,28.1875,31.875,34.0,34.8125
0.08005257,-1.1162647,-0.51823413,-1.014138,-0.023598388,0.05963402,-0.15406246,-0.37427244,-0.3279423,0.059876617,-3.0781667,0.62408453,-0.0004041569,-0.03972408,0.00634949,0.00392637,0.0103470795,0.0098441765,0.00678759,0.44658884,-1.4685196,2.0070322,-2.107148,-1.5709904,2.4210606,-0.038650226,0.054338872,-0.071657814,0.012936601,-0.01373778,-0.045360547,-0.36391866,0.1340753,-9.308657,0.779936,47.685097,-0.8207698,-1.8527555,-3.284885,-0.29604483,-0.09872696,-0.21126664,27.875,29.125,28.1875,31.875,34.0,34.8125
0.08205271,-0.99635977,-0.65379614,-1.0269196,-0.014757855,0.060899276,-0.15976124,-0.37435567,-0.32793763,0.0598849,-3.0781481,0.6240991,-0.00034370957,-0.04061357,0.0062388424,0.0030237094,0.011515986,0.008400322,0.007360339,0.44652882,-1.4683983,2.0068772,-2.1071355,-1.5710262,2.4210122,-0.038947187,0.058413643,-0.074114725,0.013124498,-0.0141726965,-0.046227578,-0.47884035,0.15322891,-9.346964,0.8493211,47.701214,-0.80079925,-1.8516827,-3.496447,-0.29983523,-0.10178968,-0.22676721,27.875,29.125,28.1875,31.875,34.0,34.8125
0.08405273,-1.0411811,-0.50274616,-0.8886047,-0.018717036,0.0682819,-0.15564568,-0.37443456,-0.32793298,0.05990645,-3.0781465,0.62409794,-0.0003160247,-0.041265737,0.0060083843,0.003350965,0.012255221,0.008985731,0.008136151,0.44645697,-1.4683021,2.0067084,-2.107076,-1.5710386,2.42094,-0.0384726,0.059530824,-0.07629153,0.013976871,-0.015094338,-0.046525814,-0.53630114,0.22984336,-9.385271,0.800085,47.71465,-0.9240209,-1.98209,-3.3016443,-0.2873156,-0.07366806,-0.25594282,27.875,29.125,28.1875,31.875,34.0,34.8125
0.086052306,-0.9106069,-0.57110703,-0.9680379,-0.012975379,0.08355414,-0.15778852,-0.37450504,-0.32792184,0.059892032,-3.0781586,0.624005,-0.00033044227,-0.043170616,0.006341226,0.00490992,0.011632364,0.011619998,0.008156005,0.44637218,-1.4681708,2.0065997,-2.1070874,-1.5710386,2.4207957,-0.040418293,0.05881995,-0.07934759,0.015098558,-0.015675243,-0.048488587,-0.40222588,0.24899697,-9.404425,0.7597976,47.707485,-0.84857655,-1.76602,-3.2569704,-0.2846033,-0.07945926,-0.26039645,27.875,29.125,28.1875,31.875,34.0,34.8125
0.08805239,-1.2031695,-0.20728227,-0.98754734,-0.024253417,0.080292426,-0.16495726,-0.3745755,-0.32789135,0.05988015,-3.0780597,0.6239452,-0.0003701213,-0.04359858,0.0065998035,0.0035551377,0.012386839,0.0083806,0.00959489,0.4462997,-1.4680136,2.0064323,-2.106991,-1.5711106,2.4206986,-0.04176523,0.06274865,-0.08072635,0.015787529,-0.014964807,-0.05127342,-0.36391866,0.19153613,-9.3661175,0.7396539,47.698532,-0.8238614,-1.9074341,-3.319075,-0.27928975,-0.0800163,-0.2641179,27.875,29.125,28.1875,31.875,34.0,34.8125
0.09005265,-0.64239264,-0.5212309,-1.1507763,-0.035406422,0.09012005,-0.16402447,-0.37469566,-0.32787657,0.059913322,-3.0780807,0.6240086,-0.00024107513,-0.04597595,0.006284719,0.0046643233,0.010288027,0.009842974,0.0065305578,0.44617897,-1.4679171,2.0062501,-2.106991,-1.571134,2.420615,-0.044158936,0.06433034,-0.08515383,0.016401332,-0.013705393,-0.050604064,-0.38307226,0.21068975,-9.385271,0.7620334,47.691364,-0.75288004,-1.8815849,-3.1618214,-0.2733213,-0.07339474,-0.29710746,27.875,29.125,28.1875,31.875,34.0,34.8125
0.0920532,-0.8816613,-1.1107335,-1.1830479,-0.0436113,0.07648863,-0.16007744,-0.3747914,-0.32788613,0.059949204,-3.0781214,0.6239005,-0.00017123928,-0.045341674,0.006970847,0.0032150662,0.011491824,0.0065481914,0.00687015,0.44611865,-1.4678088,2.006035,-2.106931,-1.5711464,2.4204822,-0.045093093,0.06610822,-0.08389511,0.016852982,-0.013364241,-0.05187978,-0.34476504,0.24899697,-9.404425,0.78888994,47.693153,-0.6854756,-1.8806437,-3.3639007,-0.28155443,-0.11376144,-0.32876426,27.875,29.125,28.1875,31.875,34.0,34.8125
0.0940526,-1.0365931,-1.4977978,-1.2238897,-0.04644962,0.07125741,-0.15781505,-0.37486422,-0.32787237,0.05992503,-3.0780845,0.6238916,-0.00022025715,-0.04654852,0.006148707,0.0036270036,0.011464596,0.007940696,0.009419698,0.44603497,-1.4676403,2.0059025,-2.106919,-1.5711583,2.4203978,-0.044234145,0.06828162,-0.08721164,0.016727405,-0.013951249,-0.053566158,-0.3256114,0.19153613,-9.385271,0.75755644,47.681515,-0.815816,-1.9193399,-3.2395034,-0.26526213,-0.09757355,-0.35330176,27.875,29.125,28.1875,31.875,34.0,34.8125
0.09605202,-0.9441483,-1.4035653,-1.1189226,-0.04702646,0.076713435,-0.15189548,-0.3749515,-0.32785198,0.059938546,-3.0780504,0.62382627,-0.00019071747,-0.046777144,0.0067826095,0.003156806,0.012942598,0.0063883136,0.011297953,0.4459506,-1.46752,2.0057228,-2.1068466,-1.5712069,2.420277,-0.04517046,0.06968177,-0.08800599,0.01815634,-0.014615994,-0.056378856,-0.24899697,0.2681506,-9.500193,0.7642693,47.70032,-0.8660741,-1.8989203,-3.207026,-0.25306264,-0.08842772,-0.33090574,27.875,29.125,28.1875,31.875,34.0,34.8125
0.09805238,-0.53682315,-0.86633396,-1.1767843,-0.054165088,0.08276544,-0.17102566,-0.37505576,-0.32781222,0.05993122,-3.0780077,0.62385905,-0.00017173201,-0.04826756,0.0072726314,0.0029130979,0.013321024,0.0058827526,0.0071052704,0.44580585,-1.4673754,2.0055778,-2.1068347,-1.5712427,2.4201584,-0.047335178,0.072253704,-0.090381645,0.018577233,-0.014742759,-0.05434877,-0.19153613,0.22984336,-9.481039,0.8112748,47.686886,-0.7411184,-1.9802504,-3.2572844,-0.24551491,-0.07601848,-0.38494533,27.875,29.125,28.1875,31.875,34.0,34.8125
0.10005231,-0.5064695,-0.6249402,-1.0503067,-0.048175063,0.06682794,-0.16500737,-0.37516445,-0.32782412,0.05995192,-3.0780463,0.62382793,-0.00013953735,-0.04927085,0.0069757765,0.003008158,0.0123903435,0.0060236636,0.0063962853,0.44572154,-1.4672192,2.0053504,-2.106799,-1.5712303,2.42005,-0.048192903,0.07386112,-0.09233707,0.01839343,-0.01396653,-0.054498237,-0.21068975,0.19153613,-9.404425,0.8112748,47.68599,-0.76102364,-1.9456301,-3.198903,-0.24077469,-0.08319685,-0.45504537,27.875,29.125,28.1875,31.875,34.0,34.8125
0.102052495,-0.621958,-0.6175227,-0.90743226,-0.047755126,0.053333927,-0.16245408,-0.37526068,-0.3278147,0.059956927,-3.0780053,0.62383705,-9.484024e-05,-0.050236333,0.0066428315,0.0029875764,0.0119267665,0.006257399,0.008678355,0.44564942,-1.4670628,2.0051587,-2.1067631,-1.5712785,2.4199889,-0.048636995,0.075771786,-0.09432528,0.018053433,-0.013655769,-0.0572235,-0.22984336,0.24899697,-9.346964,0.83365434,47.65464,-0.7755208,-1.9793282,-3.2255177,-0.22520147,-0.07101742,-0.45412573,27.875,29.125,28.1875,31.875,34.0,34.8125
0.10405252,-0.65873045,-0.9868835,-1.1677597,-0.03958662,0.0442927,-0.1545399,-0.37537166,-0.3277931,0.05995646,-3.0779898,0.62379354,-1.9820927e-05,-0.051129986,0.006514858,0.0029250714,0.011734958,0.006493628,0.011088526,0.44554114,-1.4669063,2.0049903,-2.106775,-1.5713266,2.4198556,-0.049231835,0.07742094,-0.09592816,0.01770445,-0.013589153,-0.06022769,-0.11492168,0.17238252,-9.346964,0.7239871,47.619713,-0.7767033,-1.8886695,-3.140659,-0.21375355,-0.08958619,-0.48035038,27.875,29.125,28.1875,31.875,34.0,34.8125
0.106052294,-0.1875728,-0.9957618,-0.9447866,-0.032073632,0.052422725,-0.1667171,-0.37547153,-0.32777283,0.059960574,-3.0779562,0.623767,-6.919498e-05,-0.052321184,0.0065166517,0.0032345094,0.011795864,0.007067985,0.012749991,0.44542095,-1.4667381,2.0047739,-2.1066787,-1.5713385,2.4197233,-0.050083037,0.078857645,-0.09833999,0.018184232,-0.013900108,-0.06273755,-0.076614454,0.22984336,-9.346964,0.784413,47.66271,-0.86834145,-2.0257723,-3.1927314,-0.18828605,-0.08838011,-0.47095132,27.875,29.125,28.1875,31.875,34.0,34.8125
0.1080524,-0.53673744,-0.571293,-0.9151898,-0.044394907,0.04839018,-0.16619146,-0.37559128,-0.32778552,0.05999532,-3.0780215,0.6237018,3.568337e-05,-0.0529016,0.0064635533,0.0030561236,0.011802956,0.006492767,0.016163168,0.44533673,-1.4666063,2.0045464,-2.1066673,-1.5713385,2.4195902,-0.050652802,0.0804501,-0.09977534,0.018544003,-0.013657936,-0.06672118,-0.11492168,0.24899697,-9.308657,0.7978386,47.698532,-0.85702145,-1.8290963,-3.1380453,-0.1868031,-0.08370085,-0.4735698,27.875,29.125,28.1875,31.875,34.0,34.8125
0.1100525,-0.8493951,-1.356606,-1.0527407,-0.029315677,0.052097563,-0.15277748,-0.3757099,-0.32777214,0.060012247,-3.0780172,0.6235433,0.00014828837,-0.053085044,0.0060103475,0.002613782,0.012747217,0.005628513,0.021347268,0.4452532,-1.4664494,2.0043294,-2.106643,-1.5714105,2.4194086,-0.049627144,0.08284552,-0.1015323,0.019084336,-0.014140271,-0.070877895,-0.076614454,0.36391866,-9.385271,0.84708,47.723602,-0.9842924,-2.0907376,-3.2169073,-0.16488017,-0.10605152,-0.4604727,27.875,29.125,28.1875,31.875,34.0,34.8125
0.11205243,-0.2929423,-0.94185364,-1.061403,-0.037484795,0.067389965,-0.16703913,-0.37580356,-0.32775903,0.06000965,-3.0780044,0.62350065,0.00010337611,-0.054118406,0.0069051734,0.0032251491,0.012303428,0.005648956,0.023866199,0.4451441,-1.4662819,2.0041373,-2.1065829,-1.5714105,2.4192746,-0.052480057,0.0822746,-0.1026552,0.020560898,-0.013753305,-0.07624992,-0.019153614,0.26815057,-9.346964,0.78217715,47.71554,-0.9213276,-1.848213,-3.1594896,-0.15589239,-0.09084677,-0.434838,27.875,29.125,28.1875,31.875,34.0,34.8125
0.11405188,-0.24099185,-0.73695,-1.1238711,-0.037052657,0.065089196,-0.16540116,-0.37590715,-0.32775807,0.06002156,-3.0780427,0.6234462,6.4595435e-05,-0.05333653,0.00667648,0.0008410751,0.015587303,0.0006128612,0.031234425,0.44502476,-1.4661239,2.0039222,-2.1065223,-1.5713748,2.4191165,-0.050792694,0.08810837,-0.10395065,0.021980936,-0.014552612,-0.08192782,-0.11492168,0.15322891,-9.346964,0.784413,47.694946,-0.90497947,-2.0813189,-3.2513466,-0.15084197,-0.094413266,-0.38153663,27.875,29.125,28.1875,31.875,34.0,34.8125
0.11605221,-0.47820315,-0.837577,-0.93493694,-0.036554225,0.052851304,-0.15877879,-0.37603053,-0.327749,0.060017962,-3.078024,0.62324655,0.00015986615,-0.05380648,0.0062361644,0.0021978838,0.013953079,0.0032104934,0.036597323,0.44495285,-1.4659094,2.0036943,-2.1065223,-1.5714582,2.4189227,-0.05060936,0.085921034,-0.10462269,0.021778224,-0.0141998045,-0.08710825,-0.05746084,0.19153613,-9.251195,0.83589023,47.698532,-1.1638825,-1.9432888,-3.280686,-0.13970006,-0.118456334,-0.3298284,27.875,29.125,28.1875,31.875,34.0,34.8125
0.118052214,-0.066450395,-0.7135729,-0.83795017,-0.03002621,0.0546581,-0.16960411,-0.3761192,-0.3277142,0.0599924,-3.077964,0.6231364,8.701274e-05,-0.05490609,0.0067009116,0.0010900327,0.015529981,0.0019973435,0.04031561,0.4448324,-1.4657162,2.0035264,-2.1064622,-1.5714949,2.4187412,-0.051837634,0.08983228,-0.106300615,0.021312138,-0.015116966,-0.09204993,-0.038307227,0.22984336,-9.289503,0.779936,47.684196,-1.091033,-1.9985422,-3.3085866,-0.13731685,-0.089861244,-0.26779616,27.875,29.125,28.1875,31.875,34.0,34.8125
0.120052345,-0.22606297,-0.64540637,-1.1547419,-0.019026289,0.035722587,-0.16256009,-0.37627348,-0.32771328,0.060047314,-3.0780175,0.6230511,0.0002827049,-0.05738805,0.0064183404,0.0021682377,0.013816797,0.003890514,0.04085688,0.4447236,-1.4655839,2.0032494,-2.1064384,-1.5715421,2.4185727,-0.054011043,0.09156835,-0.11075457,0.021572627,-0.01438462,-0.094765104,-0.019153614,0.24899697,-9.308656,0.7732232,47.681515,-1.0692445,-2.0289502,-3.2320929,-0.10513532,-0.113644525,-0.21937376,27.875,29.125,28.1875,31.875,34.0,34.8125
0.12205261,-0.31932566,-0.43701363,-1.0015621,-0.019247418,0.025566155,-0.16029453,-0.37636584,-0.32769334,0.060030285,-3.0779796,0.62286806,0.00022423017,-0.0559508,0.007015706,0.00077337184,0.016197331,0.0003917766,0.043629855,0.44462782,-1.4653798,2.0030472,-2.1063664,-1.5715789,2.4183676,-0.053387463,0.09260906,-0.10904753,0.0230026,-0.015030512,-0.09691338,0.0,0.21068975,-9.270349,0.8291774,47.692257,-1.0509105,-1.9643986,-3.3554282,-0.08314538,-0.1162287,-0.17063877,27.875,29.125,28.1875,31.875,34.0,34.8125
0.12405178,-0.66486275,-0.678505,-0.9354584,-0.015052556,0.020567961,-0.1579593,-0.37650067,-0.3276878,0.06003613,-3.0780168,0.62276113,0.00025347894,-0.057139136,0.006488812,0.0015392331,0.015341163,0.0006173564,0.042915687,0.44449574,-1.4651757,2.002806,-2.1063535,-1.5715784,2.4181643,-0.05389884,0.093994714,-0.112744235,0.024737759,-0.014356852,-0.09671048,-0.05746084,0.21068975,-9.174581,0.7911258,47.71286,-1.2352772,-2.054679,-3.3090386,-0.09010108,-0.10662627,-0.167837,27.875,29.125,28.1875,31.875,34.0,34.8125
0.12605341,-0.46568313,-0.38049853,-1.1060168,-0.021775192,0.03269761,-0.1650343,-0.37658742,-0.32766065,0.060030494,-3.077989,0.62266153,0.00018677843,-0.056881648,0.007857974,4.4845438e-05,0.017972443,-0.0029333937,0.03983339,0.4443752,-1.4650192,2.0026271,-2.1062691,-1.5715908,2.4179852,-0.05564412,0.09619073,-0.11209263,0.026228843,-0.015207229,-0.09537125,-0.11492168,0.17238252,-9.212888,0.7933669,47.690468,-1.1336913,-1.946476,-3.4229758,-0.07764631,-0.114069656,-0.16727963,27.875,29.125,28.1875,31.875,34.0,34.8125
0.12805235,-0.22248699,-0.3976007,-1.0544468,-0.023628794,0.045341123,-0.16760407,-0.37672564,-0.32766682,0.060060676,-3.078035,0.62251925,0.0002842806,-0.057553936,0.008288893,0.00061429874,0.01827391,-0.0024292527,0.03478842,0.44427887,-1.4648397,2.002352,-2.1062334,-1.5716151,2.4177945,-0.056707747,0.095866494,-0.11334067,0.027477892,-0.015688833,-0.091389515,-0.019153614,0.11492168,-9.308657,0.8403672,47.684196,-1.1668653,-1.9559578,-3.4713979,-0.07037079,-0.121553,-0.1786626,27.875,29.125,28.1875,31.875,34.0,34.8125
0.13005185,-1.0403042,-0.7192434,-1.0639141,-0.028495498,0.036884077,-0.15200816,-0.37684307,-0.32764792,0.06005692,-3.0780048,0.622401,0.00029807386,-0.058320493,0.008886754,-0.00031630584,0.019686526,-0.004478292,0.028767781,0.4441703,-1.4646347,2.0021236,-2.1061852,-1.5716633,2.4176161,-0.058229942,0.09906624,-0.11495203,0.02834728,-0.016085891,-0.08688868,-0.17238252,0.21068975,-9.32781,0.85826975,47.705692,-1.1648831,-2.055754,-3.5088177,-0.066664524,-0.108645596,-0.24178848,27.875,29.125,28.1875,31.875,34.0,34.8125
0.13205196,-0.48057896,-0.21450756,-0.8494689,-0.0385951,0.052600984,-0.16668367,-0.3769481,-0.32763198,0.060040332,-3.0779529,0.62235194,0.00023087805,-0.05931855,0.008855724,0.0009199744,0.018488225,-0.0030540149,0.027900133,0.4440618,-1.4644076,2.0018947,-2.1061127,-1.5716866,2.4174838,-0.059357293,0.098060384,-0.11697618,0.029570656,-0.015624894,-0.08714761,-0.19153613,0.19153613,-9.232041,0.784413,47.691364,-1.1608573,-1.8434432,-3.3937087,-0.076868996,-0.14247933,-0.2516451,27.875,29.125,28.1875,31.875,34.0,34.8125
0.13405216,-0.6876569,-0.12716344,-1.1254791,-0.03200593,0.05543168,-0.16142528,-0.37708512,-0.3275969,0.06003548,-3.0779183,0.6222505,0.00024254445,-0.060438864,0.008951654,-1.7199922e-05,0.019575689,-0.005176702,0.02398272,0.44390544,-1.4641905,2.0016553,-2.106064,-1.5717348,2.4172688,-0.060466286,0.102540895,-0.120001115,0.0304962,-0.015701603,-0.08433642,-0.19153613,0.11492168,-9.346964,0.81351066,47.70032,-1.1398308,-1.9369891,-3.5363355,-0.07317528,-0.13894448,-0.3230819,27.875,29.125,28.1875,31.875,34.0,34.8125
0.13605165,-0.6204427,-0.3154306,-1.2238483,-0.029204754,0.062920205,-0.16773656,-0.37719065,-0.32759592,0.060051434,-3.0779417,0.6221014,0.00022907353,-0.060972966,0.0093301395,0.00054806325,0.019666607,-0.0045328545,0.024406448,0.44380915,-1.464023,2.001415,-2.1059806,-1.5717353,2.4170766,-0.061389767,0.10190709,-0.12081988,0.031404506,-0.016062994,-0.08568258,-0.15322891,0.11492168,-9.423578,0.7866488,47.66987,-1.1884192,-1.85325,-3.447114,-0.07894456,-0.12798205,-0.31871936,27.875,29.125,28.1875,31.875,34.0,34.8125
0.13805173,-0.9743431,-0.8041467,-1.2684921,-0.01918888,0.063332394,-0.15858927,-0.37728813,-0.32758275,0.060033068,-3.0778859,0.62203187,0.00014547292,-0.06294306,0.009060301,0.0014232701,0.018619126,-0.003271247,0.02417193,0.4437127,-1.4637948,2.0011861,-2.1058962,-1.5717586,2.416944,-0.06289337,0.103572786,-0.12486399,0.03218732,-0.01567478,-0.08694884,-0.24899697,0.095768064,-9.423578,0.82694155,47.70032,-1.1844939,-1.834702,-3.3827941,-0.07381529,-0.1577166,-0.3233381,27.875,29.125,28.1875,31.875,34.0,34.8125
0.14005175,-1.6110849,-0.97207856,-1.309686,-0.018163001,0.05854638,-0.15759853,-0.3774385,-0.3275538,0.060052853,-3.0778766,0.62199277,0.00023629857,-0.063978896,0.009094011,0.0014842877,0.019382855,-0.0030780255,0.023198914,0.44355646,-1.4636147,2.000934,-2.1058605,-1.5718073,2.4167647,-0.063333794,0.10550393,-0.12730066,0.03284297,-0.01644935,-0.08641356,-0.45968673,0.28730422,-9.3661175,0.8112748,47.68062,-1.1972129,-1.8181186,-3.3186588,-0.07363388,-0.16861929,-0.34287348,27.875,29.125,28.1875,31.875,34.0,34.8125
0.14205194,-1.4490234,-0.30577773,-1.2766368,-0.03876899,0.08332981,-0.16720663,-0.37756276,-0.32754686,0.060069107,-3.0778737,0.62183625,0.00022645573,-0.064826466,0.0094447695,0.0015345216,0.019844532,-0.0032655331,0.024923988,0.44344804,-1.4634106,2.0006468,-2.1057522,-1.5718311,2.4165592,-0.06449414,0.10667416,-0.12890862,0.033641834,-0.016793227,-0.08929693,-0.45968673,0.2681506,-9.442732,0.82022345,47.678825,-1.2808946,-1.7612102,-3.3681993,-0.07609222,-0.15623443,-0.37621576,27.875,29.125,28.1875,31.875,34.0,34.8125
0.14405216,-2.1568856,-0.7928553,-1.2826973,-0.040447548,0.08803713,-0.15792863,-0.3776889,-0.32751486,0.060056776,-3.0778267,0.6217901,0.00017307131,-0.06657849,0.010027226,0.002088833,0.02006837,-0.0018813403,0.021836622,0.4432914,-1.4631826,2.000407,-2.1056802,-1.5718554,2.41638,-0.06658175,0.10760314,-0.13129526,0.03394462,-0.017599836,-0.08829287,-0.47884035,0.19153614,-9.557653,0.78217715,47.63673,-1.239033,-1.7632489,-3.3682835,-0.07900975,-0.17640482,-0.41131854,27.875,29.125,28.1875,31.875,34.0,34.8125
0.14605229,-1.8018223,-0.65727466,-1.4941298,-0.056809515,0.10103082,-0.16316032,-0.37779835,-0.3274748,0.060031097,-3.0777316,0.6216921,9.305889e-05,-0.067549005,0.010488551,0.0021031783,0.020286588,-0.002307543,0.024955152,0.44315878,-1.4629427,2.000179,-2.105584,-1.5719155,2.4161985,-0.068268836,0.108868524,-0.13294147,0.03478988,-0.017631391,-0.093095645,-0.61291564,0.15322891,-9.576807,0.8023209,47.66808,-1.1624868,-1.5072913,-3.3818066,-0.061667487,-0.17929228,-0.40377885,27.875,29.125,28.1875,31.875,34.0,34.8125
0.14805233,-2.234167,-1.0492314,-1.350446,-0.05670434,0.09194624,-0.15536512,-0.37795934,-0.32746822,0.0600595,-3.0777614,0.6215806,0.0001998724,-0.06791921,0.010561017,0.00041685166,0.021427292,-0.0060119187,0.028030261,0.44302642,-1.4627373,1.9998792,-2.1055481,-1.5719513,2.415993,-0.06907947,0.11379494,-0.13468473,0.035429325,-0.01707573,-0.09698218,-0.61291564,0.21068975,-9.5385,0.84484416,47.66808,-1.1904622,-1.7043548,-3.3489602,-0.079866394,-0.16305628,-0.35752264,27.875,29.125,28.1875,31.875,34.0,34.8125
0.15005244,-2.4616766,-1.7905167,-1.4477174,-0.039067253,0.08841485,-0.14781079,-0.37810257,-0.32744882,0.060059126,-3.077735,0.621515,0.0001492492,-0.06929976,0.01086425,0.0009835205,0.02151249,-0.004690209,0.031904817,0.44287023,-1.4624853,1.9995798,-2.1054518,-1.5719637,2.4157994,-0.07040476,0.114447735,-0.13679712,0.035722326,-0.017734967,-0.102178395,-0.5554548,0.28730422,-9.461885,0.8247004,47.674347,-1.202567,-1.67694,-3.3710523,-0.08252909,-0.1993894,-0.3326684,27.875,29.125,28.1875,31.875,34.0,34.8125
0.15205264,-2.072562,-1.1649843,-1.4749949,-0.04666405,0.08437612,-0.1549474,-0.37824795,-0.32740235,0.060060777,-3.0776832,0.6213665,0.00016862425,-0.06969118,0.011232787,-0.0012717476,0.023246955,-0.008668235,0.037066787,0.4427017,-1.4622676,1.9993166,-2.1053684,-1.5720357,2.415545,-0.07149627,0.120098196,-0.13782462,0.03541676,-0.017613364,-0.10842999,-0.45968673,0.24899697,-9.615114,0.8985519,47.685097,-1.1470578,-1.9655201,-3.4175777,-0.075194836,-0.20918885,-0.2859801,27.875,29.125,28.1875,31.875,34.0,34.8125
0.1540522,-1.8630006,-1.0384308,-1.466196,-0.040795226,0.07958719,-0.15469664,-0.37838143,-0.32739958,0.060077734,-3.0777035,0.62121445,0.00020794614,-0.07181539,0.011258888,0.001198076,0.021515686,-0.0036850942,0.04180478,0.44259322,-1.4620652,1.9990405,-2.1053088,-1.5720595,2.4153392,-0.07301946,0.117519215,-0.14070243,0.035617143,-0.01819535,-0.114688836,-0.36391866,0.19153613,-9.653421,0.8090337,47.687782,-1.14173,-1.7225804,-3.2744715,-0.06947423,-0.19358507,-0.18627307,27.875,29.125,28.1875,31.875,34.0,34.8125
0.15605193,-1.3063656,-0.72401726,-1.32364,-0.03869077,0.087726034,-0.16467214,-0.3785418,-0.32739457,0.060092866,-3.0777411,0.62104636,0.00024728387,-0.0728106,0.01121048,0.00040833477,0.022676608,-0.0050072493,0.046431854,0.44244924,-1.4618239,1.9987282,-2.1052601,-1.5720724,2.4150858,-0.07345244,0.12147303,-0.14338176,0.036024503,-0.01868727,-0.11974609,-0.40222588,0.19153613,-9.461885,0.87617236,47.689575,-1.1775409,-1.8644028,-3.469448,-0.075678766,-0.20796764,-0.121568605,27.875,29.125,28.1875,31.875,34.0,34.8125
0.15805168,-0.6723518,-0.19864048,-1.1139388,-0.030014731,0.09151726,-0.17556623,-0.37870693,-0.32736117,0.060103804,-3.0777125,0.6209841,0.00031827352,-0.07424416,0.012720569,0.00021694788,0.023386588,-0.0056264596,0.04420183,0.4422797,-1.4615963,1.9984406,-2.1052125,-1.5721325,2.4148812,-0.07726172,0.12254605,-0.14431712,0.036738936,-0.019066725,-0.1213242,-0.36391866,0.15322891,-9.385271,0.8179876,47.68599,-1.0036961,-1.7783117,-3.3865914,-0.0626399,-0.22157271,-0.07092619,27.875,29.125,28.1875,31.875,34.0,34.8125
0.16005172,-1.0156871,-0.34222105,-1.160088,-0.018571347,0.07473232,-0.16057177,-0.37886015,-0.3273425,0.060087983,-3.0776958,0.62078965,0.00026394794,-0.074654475,0.012337275,0.000112031215,0.024501137,-0.0060789185,0.043189507,0.44212404,-1.4612963,1.9981288,-2.1051404,-1.5721563,2.4146066,-0.076321624,0.12467409,-0.14672993,0.037909955,-0.01989068,-0.11936724,-0.4405331,0.11492168,-9.385271,0.82022345,47.694946,-1.1027987,-1.8048524,-3.348318,-0.06705262,-0.20929122,-0.063608974,27.875,29.125,28.1875,31.875,34.0,34.8125
0.16205218,-0.72934216,-0.14528915,-0.891622,-0.01644478,0.07544038,-0.16347688,-0.37903458,-0.3273224,0.060115863,-3.077707,0.6206216,0.00040419312,-0.07651403,0.012697381,0.00027127017,0.024539296,-0.006432021,0.03728975,0.44197926,-1.4610795,1.9978169,-2.1051037,-1.5722283,2.4143558,-0.07869412,0.12735294,-0.15037867,0.039209567,-0.019770913,-0.115839295,-0.38307226,0.1340753,-9.251195,0.78888994,47.70211,-1.0425085,-1.8557191,-3.3502536,-0.06989389,-0.23932381,-0.08911851,27.875,29.125,28.1875,31.875,34.0,34.8125
0.16405241,-0.9932823,-0.16100506,-0.9432526,-0.012965698,0.056715578,-0.16171248,-0.37914866,-0.3272779,0.060093574,-3.0776212,0.62051123,0.00024273364,-0.07603455,0.014059108,-0.00051122665,0.025718125,-0.010337246,0.030641932,0.44181034,-1.4608277,1.9975537,-2.1049469,-1.5722522,2.414129,-0.081182085,0.12777594,-0.14976531,0.04220651,-0.019173704,-0.111679286,-0.2681506,0.19153613,-9.193734,0.81351066,47.664497,-0.89611083,-1.8226732,-3.325272,-0.09876877,-0.2475672,-0.12772954,27.875,29.125,28.1875,31.875,34.0,34.8125
0.16605203,-1.368222,-0.44158196,-1.2937791,-0.0038309048,0.038717855,-0.14580086,-0.37934822,-0.32727423,0.060131602,-3.0776644,0.6204839,0.00038322044,-0.07637585,0.014322709,-0.0022839468,0.028523654,-0.0143218385,0.026404606,0.44164237,-1.460586,1.9971937,-2.1049225,-1.572277,2.4139388,-0.0813818,0.1333308,-0.15228051,0.04397247,-0.019997139,-0.10763962,-0.36391866,0.019153614,-9.308656,0.86945957,47.677036,-1.0541084,-2.0402856,-3.1746445,-0.12399389,-0.22936666,-0.17216443,27.875,29.125,28.1875,31.875,34.0,34.8125
0.16805206,-0.8906006,-0.4046237,-1.0661384,-0.01555726,0.057881504,-0.15914588,-0.37948573,-0.32721505,0.060093835,-3.0775135,0.62037855,0.00027775852,-0.07816108,0.0152206,-0.00161183,0.028622793,-0.012184484,0.021350535,0.44147354,-1.4602753,1.9969066,-2.1047914,-1.5723728,2.4137237,-0.08392404,0.13330835,-0.15373522,0.043554317,-0.021022055,-0.10512114,-0.2681506,0.076614454,-9.232041,0.7978386,47.693153,-0.8492411,-1.807313,-3.346359,-0.1170876,-0.24652344,-0.2421901,27.875,29.125,28.1875,31.875,34.0,34.8125
0.17005226,-0.8662547,-0.43838978,-0.89895403,-0.01985383,0.06394885,-0.15351012,-0.37963244,-0.32718834,0.060097523,-3.077484,0.62037414,0.00021360956,-0.07858512,0.0155139845,-0.0017170744,0.029104082,-0.014443434,0.018460916,0.4412931,-1.4600348,1.9966072,-2.1046822,-1.5723728,2.4135444,-0.0851612,0.1349841,-0.15603188,0.0464208,-0.020498266,-0.103468284,-0.19153613,0.076614454,-9.232041,0.7978386,47.71017,-0.8289281,-1.9971044,-3.33345,-0.1452571,-0.27774304,-0.26842973,27.875,29.125,28.1875,31.875,34.0,34.8125
0.1720525,-0.67301434,-0.4435502,-0.95963395,-0.018344449,0.06688953,-0.15416287,-0.37980947,-0.32716987,0.06012664,-3.0774994,0.62026286,0.00029083964,-0.07888863,0.015473453,-0.0023588291,0.029766882,-0.01663582,0.01613759,0.44112515,-1.4598062,1.996271,-2.1046102,-1.5724086,2.4133053,-0.08553838,0.13770837,-0.15793492,0.047860503,-0.020160655,-0.10152267,-0.17238252,0.11492168,-9.136273,0.8605109,47.705692,-0.84333277,-1.9650967,-3.3575397,-0.17236695,-0.25891817,-0.32611942,27.875,29.125,28.1875,31.875,34.0,34.8125
0.17405273,-0.9697429,-0.17375225,-0.6557143,-0.025229042,0.06219067,-0.15689561,-0.37999466,-0.32712403,0.06011775,-3.077425,0.6202511,0.0002567783,-0.08067822,0.017287565,-0.0020582757,0.03115173,-0.018033927,0.01067682,0.4409072,-1.4594942,1.9959239,-2.104513,-1.5724567,2.4130898,-0.09001996,0.13895436,-0.1608405,0.05137064,-0.02082575,-0.100539595,-0.19153613,0.15322891,-8.983045,0.85155696,47.713753,-0.6938443,-1.8890204,-3.3228962,-0.22621714,-0.27555603,-0.36652482,27.875,29.125,28.1875,31.875,34.0,34.8125
0.17605215,-1.023528,-0.08708095,-0.6327397,-0.006581155,0.049312137,-0.14745177,-0.3801249,-0.32712218,0.06011829,-3.0774138,0.6200554,0.00024439185,-0.08075385,0.016437693,-0.0022646121,0.030741189,-0.017305749,0.0106332265,0.44081196,-1.4592425,1.9956249,-2.10443,-1.5724925,2.412874,-0.088502854,0.14013976,-0.16137464,0.04988303,-0.020774119,-0.098977454,-0.22984336,0.24899697,-9.078813,0.78888994,47.66091,-0.8507361,-1.8831911,-3.3643904,-0.21421531,-0.3145174,-0.4411478,27.875,29.125,28.1875,31.875,34.0,34.8125
0.17805241,-0.63269556,-0.23966219,-0.6663202,0.002232065,0.05863574,-0.157568,-0.38030136,-0.3270637,0.060101118,-3.0773115,0.62005365,0.00022072544,-0.08284009,0.01755947,-0.0017426152,0.030272618,-0.015778545,0.009437932,0.4405947,-1.458943,1.9953135,-2.104346,-1.572565,2.412669,-0.09223129,0.14054152,-0.16295941,0.049469024,-0.021022702,-0.10150741,-0.2681506,0.19153614,-9.11712,0.89631605,47.694946,-0.73683655,-1.8142164,-3.3893664,-0.22929071,-0.2899016,-0.4739126,27.875,29.125,28.1875,31.875,34.0,34.8125
0.18005222,-0.71351373,0.011866561,-0.6555716,-0.018057223,0.0663471,-0.16981496,-0.38046443,-0.32704085,0.060110316,-3.0772786,0.61998475,0.00015479617,-0.08351672,0.016286254,-0.00072321127,0.030472588,-0.014866442,0.017445471,0.44041562,-1.4586668,1.9949535,-2.1042016,-1.5725774,2.4124513,-0.0900109,0.14197952,-0.16744527,0.051762458,-0.021615906,-0.10728948,-0.28730422,0.11492168,-9.097966,0.88289046,47.71017,-0.6972257,-1.8355372,-3.3181653,-0.25026304,-0.29826847,-0.4780382,27.875,29.125,28.1875,31.875,34.0,34.8125
0.18205227,-0.392862,-0.12410407,-0.7346764,-0.019855874,0.07184323,-0.16220602,-0.38063923,-0.32700372,0.06010614,-3.0772107,0.61994797,0.00012233976,-0.08340426,0.016911438,-0.0011057591,0.03100793,-0.016292654,0.022602309,0.44022322,-1.4583671,1.9946064,-2.1040938,-1.572625,2.4122448,-0.09110044,0.14223355,-0.16709085,0.052649744,-0.02151036,-0.11353538,-0.19153613,0.15322891,-9.136273,0.7978386,47.693153,-0.7613418,-1.7717474,-3.4065776,-0.295269,-0.32408747,-0.42260665,27.875,29.125,28.1875,31.875,34.0,34.8125
0.18405254,-0.7935111,-0.42896476,-0.7610111,-0.027789677,0.06816575,-0.16143563,-0.38079983,-0.32696187,0.060090154,-3.0771477,0.619871,2.1914766e-05,-0.08442981,0.016640011,-0.0014263348,0.031118466,-0.016392523,0.033208936,0.44001907,-1.4580666,1.9942826,-2.1039736,-1.5726494,2.412001,-0.09139055,0.14495653,-0.1693286,0.052272182,-0.02160714,-0.124428056,-0.17238252,0.11492168,-9.193734,0.8493211,47.707485,-0.8009058,-1.9760156,-3.3660228,-0.30682027,-0.31821185,-0.39866394,27.875,29.125,28.1875,31.875,34.0,34.8125
0.18605219,-0.32161012,-0.83153564,-0.9924775,-0.029272692,0.082106546,-0.1591884,-0.38094884,-0.3269232,0.060080223,-3.077088,0.61970234,1.540484e-05,-0.0856522,0.016229587,-0.00081637857,0.030436056,-0.014330172,0.039407376,0.4398631,-1.4578032,1.9939946,-2.1038911,-1.5727214,2.4117475,-0.091471754,0.14569122,-0.17137851,0.05140586,-0.021895928,-0.13070415,-0.15322891,0.11492168,-9.251195,0.84484416,47.701214,-0.85095894,-1.6561505,-3.3589978,-0.32933795,-0.3335428,-0.277279,27.875,29.125,28.1875,31.875,34.0,34.8125
0.18805233,-0.26136008,-0.36962453,-1.1363478,-0.03991317,0.082992,-0.16567189,-0.3811399,-0.32688525,0.06008075,-3.077059,0.6195584,-1.32015575e-05,-0.08718598,0.0154658295,0.0003945458,0.029193617,-0.010919627,0.04527094,0.43964714,-1.4574919,1.9936236,-2.1037834,-1.5727571,2.4114456,-0.09110745,0.14586942,-0.17415774,0.05037168,-0.022252554,-0.13619946,-0.1340753,0.11492168,-9.289502,0.78217715,47.6421,-0.9356655,-1.5976124,-3.381421,-0.32209867,-0.3455612,-0.21586345,27.875,29.125,28.1875,31.875,34.0,34.8125
0.19005245,-0.9477675,-0.6232803,-1.2965211,-0.039418757,0.06130838,-0.16204989,-0.38130024,-0.32685837,0.060072064,-3.0770197,0.61927915,-2.3118408e-05,-0.08691101,0.01553427,-0.0012438889,0.030862128,-0.012766612,0.048735254,0.4395036,-1.4571909,1.9932879,-2.103688,-1.5728296,2.411133,-0.09045459,0.14900102,-0.17362002,0.04906705,-0.022994766,-0.13900678,-0.19153614,0.17238252,-9.3661175,0.800085,47.716442,-0.9912321,-1.6741277,-3.472073,-0.3255769,-0.35110992,-0.17376918,27.875,29.125,28.1875,31.875,34.0,34.8125
0.19205266,-0.6666446,-0.8461157,-1.5449755,-0.04449452,0.073122375,-0.151609,-0.3814744,-0.32680118,0.060060274,-3.0769298,0.6192421,-0.00010015962,-0.08880681,0.015372729,-0.00069494016,0.030669535,-0.010299864,0.047686763,0.43927518,-1.456891,1.9929522,-2.1035564,-1.5728778,2.4108932,-0.0911707,0.15066521,-0.17651692,0.047977578,-0.023896541,-0.13866712,-0.15322891,0.24899697,-9.3661175,0.8806493,47.686886,-1.0161744,-1.6864755,-3.381576,-0.3219006,-0.3727106,-0.16196579,27.875,29.125,28.1875,31.875,34.0,34.8125
0.19405214,-0.87210673,-1.4259892,-1.8174995,-0.04397191,0.053545106,-0.15171675,-0.38165897,-0.32676172,0.06004036,-3.0768626,0.61902004,-0.00011282409,-0.09038675,0.015322976,-0.0009886594,0.030858634,-0.009347733,0.04243566,0.43909496,-1.4565428,1.9925927,-2.1034734,-1.5729622,2.4105833,-0.09202748,0.1535578,-0.17878199,0.046565615,-0.024486154,-0.13426709,0.019153614,0.24899697,-9.519346,0.8985519,47.734352,-1.0497859,-1.6494268,-3.3873472,-0.31584978,-0.37021196,-0.187542,27.875,29.125,28.1875,31.875,34.0,34.8125
0.19605252,-0.61601996,-1.2502598,-2.0302851,-0.07066453,0.05891571,-0.15441355,-0.3818702,-0.3267414,0.06007155,-3.0768366,0.61899877,-5.403157e-05,-0.09251142,0.015296472,0.0006508249,0.028480446,-0.0049056644,0.035629287,0.4389022,-1.4562438,1.9921621,-2.1033547,-1.5730094,2.4103808,-0.093965925,0.1521591,-0.18062204,0.04477297,-0.024222331,-0.12939914,-0.095768064,0.40222588,-9.653421,0.842603,47.68599,-1.0108527,-1.6408656,-3.3808365,-0.3153833,-0.3643774,-0.25023082,27.875,29.125,28.1875,31.875,34.0,34.8125
0.19805276,-0.62598836,-1.7303966,-2.0993993,-0.09271372,0.061094876,-0.1562891,-0.38201272,-0.32669896,0.060032323,-3.076743,0.618731,-0.0001702387,-0.09354572,0.015387932,-0.00058117515,0.029709356,-0.005551821,0.032741956,0.43874604,-1.4559069,1.9918507,-2.103235,-1.5730823,2.4100697,-0.09443198,0.15628298,-0.18206736,0.04319763,-0.025083508,-0.12696958,-0.17238252,0.36391866,-9.80665,0.90750587,47.70211,-1.0080199,-1.8969905,-3.4065433,-0.2938569,-0.37335807,-0.32162708,27.875,29.125,28.1875,31.875,34.0,34.8125
0.2000532,-0.4034409,-1.6639954,-2.142283,-0.09642932,0.06294513,-0.15969914,-0.3822072,-0.32667506,0.06004488,-3.076709,0.6187243,-0.00015187562,-0.095270276,0.015078558,-0.0008035834,0.02943743,-0.004058079,0.031906545,0.43855393,-1.4556061,1.9914664,-2.1031406,-1.5731181,2.409878,-0.095047876,0.15928254,-0.18446195,0.041117657,-0.02548578,-0.12674609,-0.038307227,0.2681506,-9.921572,0.8627467,47.67793,-1.023678,-1.8024166,-3.4337957,-0.26908398,-0.37384003,-0.3240168,27.875,29.125,28.1875,31.875,34.0,34.8125
0.20205447,-0.3980799,-1.6996796,-2.0683756,-0.08946021,0.06606059,-0.14882721,-0.38238606,-0.3266303,0.060027,-3.0766666,0.6186015,-0.00019727522,-0.096175455,0.015433908,-0.002103515,0.03037425,-0.005501528,0.029560376,0.43833742,-1.4552934,1.9911436,-2.1030686,-1.5731548,2.4095905,-0.09628434,0.1631169,-0.18555379,0.040073566,-0.025735123,-0.12563252,-0.038307227,0.2681506,-9.940725,0.8493211,47.687782,-0.99926054,-1.9629862,-3.4300125,-0.24140711,-0.3644359,-0.3460753,27.875,29.125,28.1875,31.875,34.0,34.8125
0.20405455,-0.79361516,-1.8837192,-2.1792498,-0.062403884,0.054037318,-0.14556177,-0.3825991,-0.32662138,0.060059167,-3.0766928,0.6185101,-8.9640555e-05,-0.097591884,0.015534709,-0.0020446386,0.03052467,-0.0045811147,0.029808331,0.43815717,-1.4550055,1.9907364,-2.1030095,-1.5731906,2.4093502,-0.09730116,0.16503164,-0.18774731,0.039572332,-0.026265904,-0.1268954,0.0,0.30645782,-9.902418,0.77545905,47.623295,-1.1061932,-1.9726098,-3.3342385,-0.21611676,-0.374797,-0.39760894,27.875,29.125,28.1875,31.875,34.0,34.8125
0.20605361,-0.62531954,-1.1429889,-2.2537656,-0.055554315,0.052259978,-0.16065042,-0.3827839,-0.3265669,0.06003505,-3.0766113,0.61837494,-0.00012739177,-0.09945847,0.014457968,-0.0012102416,0.029439239,-0.0009009239,0.033869937,0.43794143,-1.4546695,1.9903992,-2.102926,-1.573263,2.4090607,-0.096468106,0.16669846,-0.1910753,0.03741905,-0.026876565,-0.13011704,0.038307227,0.3256114,-9.844957,0.91421866,47.707485,-0.9898902,-2.0459185,-3.3246999,-0.18776718,-0.37964445,-0.42711455,27.875,29.125,28.1875,31.875,34.0,34.8125
0.2080536,-0.8741339,-0.7584154,-1.9363008,-0.059479043,0.047019083,-0.15966174,-0.3829997,-0.32656768,0.060065858,-3.076639,0.6182238,-9.010111e-06,-0.10004457,0.014920255,-0.0016495745,0.030409137,-0.00069396105,0.0390813,0.43778536,-1.4543576,1.9899682,-2.1028664,-1.5733112,2.408807,-0.09713165,0.16794063,-0.19131476,0.03661703,-0.027851505,-0.1359897,-0.095768064,0.4405331,-9.672575,0.8493211,47.73077,-1.1741544,-1.9330542,-3.4738026,-0.1350894,-0.3724032,-0.3619809,27.875,29.125,28.1875,31.875,34.0,34.8125
0.21005279,-0.67541885,-1.3149043,-1.9042413,-0.060740866,0.07455414,-0.16140343,-0.38319048,-0.32652602,0.060040466,-3.076572,0.6180902,-4.7330133e-05,-0.10050004,0.01613954,-0.0025304132,0.032577354,-0.0036471828,0.04541285,0.43758053,-1.4539977,1.9896096,-2.102794,-1.5733718,2.4085276,-0.09924849,0.17034084,-0.19256938,0.0390302,-0.028591996,-0.14443311,-0.076614454,0.38307226,-9.691729,0.84708,47.71554,-0.9703627,-1.8969562,-3.5237885,-0.13203384,-0.38994068,-0.30970657,27.875,29.125,28.1875,31.875,34.0,34.8125
0.21205232,-0.5349146,-1.0546526,-1.8017125,-0.06473286,0.07605265,-0.15799035,-0.38338575,-0.3265044,0.06005314,-3.0765626,0.6178345,-5.0925777e-05,-0.101363465,0.015881084,-0.0011086866,0.03188853,-0.0015067831,0.053752933,0.4374006,-1.4536744,1.9891909,-2.1026618,-1.5734195,2.4081895,-0.099255234,0.16911577,-0.19478014,0.04020061,-0.028903173,-0.1527772,-0.15322891,0.28730422,-9.749189,0.8090337,47.64658,-1.1912632,-1.8601365,-3.4874833,-0.10448745,-0.38781554,-0.23966625,27.875,29.125,28.1875,31.875,34.0,34.8125
0.21405219,-0.8864799,-0.97701025,-1.4617227,-0.07507695,0.071598776,-0.14704491,-0.38359305,-0.32647073,0.060041074,-3.0765586,0.6176789,-6.34697e-05,-0.102248535,0.016416587,-0.0010960258,0.033185337,-0.002781988,0.05521945,0.43717226,-1.4533265,1.98882,-2.1026127,-1.5734438,2.4078648,-0.10052727,0.17099592,-0.19753991,0.042768884,-0.029551577,-0.15551157,-0.22984336,0.21068975,-9.691729,0.83365434,47.687782,-1.1770426,-1.9595673,-3.463183,-0.12921058,-0.39740494,-0.13125335,27.875,29.125,28.1875,31.875,34.0,34.8125
0.21605289,-0.43383062,-0.66258234,-1.2476125,-0.06649024,0.08898949,-0.15363537,-0.38379925,-0.3264384,0.06005561,-3.0765383,0.61752135,1.7947676e-05,-0.10330754,0.01694722,-0.0013761104,0.034982894,-0.0025547312,0.055591863,0.43698,-1.453026,1.9884361,-2.1025412,-1.5735167,2.407577,-0.10122392,0.17311174,-0.19935155,0.04300585,-0.03128337,-0.15657349,-0.2873042,0.11492168,-9.519346,0.88960326,47.691364,-1.1760256,-1.9059358,-3.5904968,-0.10547508,-0.37437066,-0.0833312,27.875,29.125,28.1875,31.875,34.0,34.8125
0.21805236,-0.68422055,-0.48268986,-1.2210869,-0.030952798,0.08551827,-0.15543197,-0.38405186,-0.32642376,0.060074136,-3.0765417,0.6173124,0.000156506,-0.10547444,0.016900837,0.00013904875,0.034376256,0.0023624138,0.050676145,0.43678772,-1.4526432,1.9879564,-2.1024935,-1.5736011,2.4072542,-0.10193939,0.17253056,-0.20186819,0.041390985,-0.0328095,-0.15236764,-0.3256114,0.038307227,-9.404425,0.8940802,47.678825,-1.032487,-1.7971807,-3.5077446,-0.06802368,-0.36996335,-0.14231317,27.875,29.125,28.1875,31.875,34.0,34.8125
0.22005206,-1.0420859,0.058170937,-1.1792954,-0.0048052543,0.07647877,-0.15091166,-0.38426107,-0.326389,0.060082786,-3.0765262,0.61719644,0.00019866467,-0.10656814,0.016652772,0.0009949157,0.0343078,0.0034169045,0.045570422,0.43657175,-1.4523311,1.9875726,-2.1024215,-1.5736488,2.406968,-0.102111705,0.173215,-0.20496646,0.042822894,-0.033188887,-0.14743146,-0.28730422,0.038307227,-9.442732,0.900793,47.711063,-1.2568346,-1.824415,-3.5249965,-0.030731924,-0.33388734,-0.19164802,27.875,29.125,28.1875,31.875,34.0,34.8125
0.22205192,-0.8654948,0.45330277,-1.0721053,0.01725541,0.08548624,-0.15566926,-0.38446704,-0.3263581,0.060060114,-3.076468,0.617074,0.00015115226,-0.108848944,0.017729163,0.0015913965,0.03507251,0.004263106,0.03719301,0.4363665,-1.4519353,1.9871644,-2.1023371,-1.5736974,2.4066942,-0.105334274,0.17479295,-0.20849864,0.044339813,-0.034245268,-0.14226864,-0.4213795,-0.05746084,-9.32781,0.8784135,47.695843,-0.9931971,-1.7378387,-3.4016042,-0.03126579,-0.3508644,-0.24558917,27.875,29.125,28.1875,31.875,34.0,34.8125
0.22405258,-1.029306,1.1955831,-0.83268464,0.01905731,0.085680544,-0.15752631,-0.3846563,-0.32634568,0.06007739,-3.0764666,0.6168831,0.00019402108,-0.110433914,0.017928746,0.0026533674,0.035941955,0.00620799,0.032838576,0.43621036,-1.4516358,1.9867691,-2.1022408,-1.5737461,2.4064193,-0.105957866,0.17539446,-0.2119867,0.045836676,-0.03585263,-0.13853028,-0.61291564,-0.095768064,-9.270349,0.88289046,47.692257,-1.2081401,-1.5771539,-3.3229933,-0.016665567,-0.33536124,-0.32455546,27.875,29.125,28.1875,31.875,34.0,34.8125
0.22605225,-1.2420919,0.6808347,-0.8166004,0.02580637,0.09404604,-0.15476835,-0.38490197,-0.3262801,0.06007053,-3.0763605,0.61686444,0.0002460585,-0.11144285,0.01860887,0.0026074336,0.035766505,0.004814545,0.027508536,0.4359456,-1.4512521,1.986338,-2.1021569,-1.5738539,2.4061568,-0.10851471,0.17679782,-0.21388902,0.047507003,-0.035106804,-0.13575786,-0.63206923,-0.095768064,-9.212888,0.8672237,47.68599,-1.0785893,-1.5189917,-3.2673802,0.011363393,-0.3250178,-0.40107313,27.875,29.125,28.1875,31.875,34.0,34.8125
0.22805193,-1.3032029,0.6946038,-0.89648277,0.020519093,0.10314713,-0.15915531,-0.38513276,-0.32623756,0.060096458,-3.0763235,0.61683905,0.00031420024,-0.11213724,0.019136973,0.0028960363,0.036959432,0.004223863,0.024049627,0.43570516,-1.4509405,1.9859065,-2.1020482,-1.5739139,2.4059055,-0.10947029,0.17766452,-0.2161058,0.04989117,-0.035933748,-0.1332512,-0.5746084,-0.24899697,-9.212888,0.80456203,47.699425,-1.0365181,-1.5204446,-3.3636894,0.00097494514,-0.3210997,-0.47187835,27.875,29.125,28.1875,31.875,34.0,34.8125
0.23005204,-1.2352345,0.60833365,-0.9212878,0.014718867,0.1082671,-0.15620308,-0.38536987,-0.32621032,0.060096473,-3.076277,0.61671376,0.000322213,-0.11357449,0.020519167,0.0029126639,0.03964497,0.0036865685,0.023827175,0.43548837,-1.4505327,1.9854268,-2.1019394,-1.573975,2.4056168,-0.11173298,0.17951852,-0.21883737,0.052374184,-0.03815424,-0.1352808,-0.6512229,-0.30645782,-9.289502,0.8806493,47.68599,-0.9552375,-1.4807651,-3.2312222,0.012278755,-0.29558164,-0.5049032,27.875,29.125,28.1875,31.875,34.0,34.8125
0.23205274,-1.7662411,0.4438186,-1.1117437,0.0059017455,0.10878151,-0.16172689,-0.38556713,-0.3261431,0.060087115,-3.0761726,0.6166295,0.00028913617,-0.11473756,0.02182252,0.0019151433,0.04258712,0.0011095157,0.030903999,0.43524772,-1.4502075,1.9850553,-2.1018064,-1.5740594,2.405337,-0.114018746,0.18336438,-0.22140348,0.05462435,-0.03977281,-0.14463267,-0.7278373,-0.11492168,-9.32781,0.8090337,47.664497,-0.89210737,-1.5375087,-3.1239212,-0.020222321,-0.26165143,-0.5128237,27.875,29.125,28.1875,31.875,34.0,34.8125
0.23405205,-1.3813491,0.37874082,-0.97090816,0.002296451,0.123394646,-0.16405883,-0.38578486,-0.32611355,0.060092952,-3.0760987,0.6164178,0.00029719967,-0.11405737,0.022891412,-0.0009542233,0.04639632,-0.0061745597,0.039333493,0.43506733,-1.4498223,1.9845766,-2.10165,-1.5741557,2.4050343,-0.11506949,0.18926065,-0.22215891,0.057640888,-0.04018687,-0.1541085,-0.5554548,-0.1340753,-9.251195,0.8940802,47.677036,-0.8942606,-1.6962309,-3.1960912,-0.023868037,-0.24709387,-0.40498227,27.875,29.125,28.1875,31.875,34.0,34.8125
0.23605187,-1.542026,0.24830626,-1.1194996,-0.004591911,0.11893788,-0.1602811,-0.3860154,-0.32606634,0.06012016,-3.0760784,0.6162921,0.00038953294,-0.11331512,0.024177223,-0.0012270368,0.048989676,-0.008977697,0.050761323,0.43482703,-1.4495233,1.9841584,-2.1015527,-1.5742277,2.4047184,-0.11593592,0.1888001,-0.22192912,0.06144499,-0.04138095,-0.16640042,-0.49799395,0.0,-9.232041,0.79560274,47.68062,-0.85597074,-1.6731558,-3.3860416,-0.06753537,-0.21278098,-0.2925098,27.875,29.125,28.1875,31.875,34.0,34.8125
0.23805203,-1.77587,-0.75839686,-1.0649117,-0.007728669,0.109961495,-0.15698695,-0.38627145,-0.3260011,0.06011176,-3.0760007,0.6160793,0.00045123286,-0.11297351,0.024357408,-0.001568352,0.050174084,-0.011563768,0.058344245,0.4345632,-1.4491155,1.983703,-2.1014678,-1.5743479,2.404332,-0.11587583,0.19007096,-0.22328766,0.064317904,-0.041394886,-0.17392172,-0.5554548,0.095768064,-9.346964,0.8493211,47.658226,-0.8649291,-1.6611636,-3.410637,-0.09471989,-0.18225314,-0.19483042,27.875,29.125,28.1875,31.875,34.0,34.8125
0.24005216,-0.8661134,-0.21658237,-1.0365306,-0.0338441,0.11313043,-0.15787488,-0.38647786,-0.3259641,0.06010015,-3.0759327,0.61589086,0.0003540302,-0.1121995,0.024744919,-0.0022304198,0.051814273,-0.0143892635,0.061217215,0.43434712,-1.4487196,1.9832491,-2.1012995,-1.574396,2.4040072,-0.115633614,0.19100314,-0.22343218,0.066757634,-0.0417212,-0.17654721,-0.63206923,0.1340753,-9.289503,0.9097417,47.67345,-0.8539964,-1.697478,-3.5886407,-0.12612212,-0.17164955,-0.14449346,27.875,29.125,28.1875,31.875,34.0,34.8125
0.24205253,-0.99401253,-0.3051319,-1.2222795,-0.032917526,0.08593366,-0.15167922,-0.38669327,-0.3259078,0.06008487,-3.0758379,0.61564547,0.0003024968,-0.11252701,0.024649868,-0.002585185,0.052890055,-0.016149044,0.053951647,0.4341193,-1.448323,1.9828056,-2.1011436,-1.5744919,2.4036386,-0.11550485,0.19347246,-0.22591493,0.06882404,-0.041965183,-0.16914624,-0.4405331,0.095768064,-9.289502,0.86945957,47.650166,-0.9647639,-1.7902303,-3.6321604,-0.17680587,-0.1543792,-0.18132441,27.875,29.125,28.1875,31.875,34.0,34.8125
0.24405256,-0.24511231,-0.69118834,-1.0571607,-0.03599378,0.08495111,-0.15555605,-0.3869272,-0.325861,0.0600846,-3.075778,0.6155044,0.00030553568,-0.11481042,0.025705589,-0.0021504005,0.05329956,-0.01599841,0.04420642,0.4338778,-1.4479396,1.9823502,-2.101023,-1.5745643,2.403317,-0.11906691,0.19549258,-0.22963016,0.070558995,-0.042404514,-0.16295737,-0.4405331,0.095768064,-9.289502,0.85826975,47.65643,-0.786268,-1.7516121,-3.6063352,-0.2217813,-0.12433706,-0.24124745,27.875,29.125,28.1875,31.875,34.0,34.8125
0.246052,-0.10453426,-0.8376344,-1.1877975,-0.04732184,0.054040153,-0.15683177,-0.38717622,-0.3257905,0.060093783,-3.0756512,0.6154785,0.0003109905,-0.114610724,0.024517523,-0.0019803673,0.052944873,-0.016227923,0.04284052,0.43360272,-1.447556,1.9818596,-2.1008432,-1.5746721,2.4030423,-0.11686774,0.19667168,-0.23159382,0.07138716,-0.042000633,-0.15939006,-0.36391866,0.3256114,-9.155427,0.91421866,47.65643,-1.1001126,-1.6261495,-3.5605507,-0.21769677,-0.09955379,-0.32486355,27.875,29.125,28.1875,31.875,34.0,34.8125
0.24805218,0.013855608,-1.1090336,-1.2251813,-0.052080333,0.035085533,-0.15751904,-0.3874169,-0.325758,0.060104992,-3.075606,0.6152774,0.00038197378,-0.11598543,0.025029806,-0.0024972258,0.052678417,-0.017905567,0.039718237,0.43339774,-1.4471714,1.9813794,-2.1007354,-1.574768,2.4027178,-0.1195464,0.19966832,-0.23402,0.07220221,-0.04106585,-0.1589485,-0.21068975,0.34476507,-9.232041,0.8605109,47.655537,-0.8290664,-1.6869038,-3.462918,-0.27030063,-0.09234511,-0.35470414,27.875,29.125,28.1875,31.875,34.0,34.8125
0.2500525,0.42505896,-1.2080166,-1.2644758,-0.06163201,0.028258549,-0.16118696,-0.38763386,-0.32568696,0.060090166,-3.0754795,0.61513585,0.00027372735,-0.117674686,0.024001632,-0.0016241219,0.050335534,-0.016222404,0.039656796,0.43313366,-1.4467758,1.9809245,-2.1005318,-1.5748514,2.402382,-0.11992929,0.20128231,-0.23782247,0.071849436,-0.039688725,-0.15926792,-0.076614454,0.30645782,-9.251195,0.8247004,47.682407,-0.95469,-1.7304603,-3.5041928,-0.30491066,-0.08491781,-0.38552648,27.875,29.125,28.1875,31.875,34.0,34.8125
0.25205266,0.26555935,-1.697196,-1.1601189,-0.065561436,0.025166174,-0.15888377,-0.38789105,-0.32564548,0.060103904,-3.0754366,0.6149526,0.00038733095,-0.12008255,0.02270499,-0.00082051597,0.04702401,-0.013069767,0.042376876,0.43290564,-1.4463915,1.9804443,-2.1004493,-1.5749587,2.4020452,-0.12060915,0.20355107,-0.24166583,0.069126174,-0.03803559,-0.16267277,0.0,0.2681506,-9.251195,0.9410752,47.696735,-0.93177366,-1.7473984,-3.3535466,-0.30135274,-0.081972234,-0.38213974,27.875,29.125,28.1875,31.875,34.0,34.8125
0.25405303,0.7209164,-1.405483,-1.1189251,-0.07607896,0.04826227,-0.16236976,-0.38815397,-0.32559285,0.06008748,-3.075344,0.6148726,0.00034441892,-0.12202272,0.022868145,-0.00033900898,0.044282712,-0.0120754745,0.046276435,0.43262845,-1.4459239,1.9799284,-2.1003172,-1.5750302,2.4017303,-0.1238232,0.20448902,-0.2436806,0.06808997,-0.036014084,-0.16979112,0.0,0.3256114,-9.174581,0.8717007,47.68599,-0.8856406,-1.6931934,-3.251555,-0.2741745,-0.084516674,-0.3245224,27.875,29.125,28.1875,31.875,34.0,34.8125
0.25605246,-0.26741278,-1.6150366,-1.3923262,-0.04903529,0.018603975,-0.1530641,-0.38836724,-0.3255508,0.060076885,-3.0752742,0.61463886,0.00028503788,-0.121828996,0.020572929,8.9414025e-05,0.042584535,-0.011717068,0.060173195,0.43241397,-1.4455276,1.9794735,-2.1001618,-1.5751017,2.401379,-0.12020489,0.20608513,-0.24657258,0.06827761,-0.03468271,-0.18007079,0.17238252,0.4405331,-9.289503,0.86498255,47.672558,-0.97684556,-1.7805982,-3.1198778,-0.2995576,-0.086077854,-0.23722357,27.875,29.125,28.1875,31.875,34.0,34.8125
0.25805193,0.020096563,-1.1709776,-1.5604596,-0.06435264,0.043930776,-0.15224777,-0.38863027,-0.32549563,0.06008011,-3.0752308,0.61451346,0.00029299824,-0.12421644,0.021045567,-3.557814e-05,0.03994247,-0.009058096,0.063268706,0.43212423,-1.4451205,1.9789833,-2.1000445,-1.5751609,2.401017,-0.12385129,0.20744286,-0.24683376,0.06360413,-0.033443823,-0.18681607,0.1340753,0.4405331,-9.346964,0.86945957,47.658226,-0.8668214,-1.7415128,-3.2706904,-0.25180456,-0.10182607,-0.116225526,27.875,29.125,28.1875,31.875,34.0,34.8125
0.26005197,-0.48592955,-1.7946371,-1.4232045,-0.08015852,0.050813645,-0.154495,-0.38885194,-0.32545045,0.06006908,-3.075167,0.61424834,0.0002339347,-0.12454932,0.019733882,0.0007795167,0.038027648,-0.0072707785,0.06675069,0.43189725,-1.4447134,1.9785169,-2.0998886,-1.5752329,2.4006329,-0.12225398,0.20729247,-0.24846,0.06292305,-0.03248783,-0.18870129,0.076614454,0.4405331,-9.404425,0.784413,47.701214,-1.0190966,-1.6449583,-3.2378945,-0.2315,-0.10158774,-0.055261407,27.875,29.125,28.1875,31.875,34.0,34.8125
0.26205212,-0.29280987,-2.130285,-1.3171271,-0.10052903,0.076024875,-0.14706038,-0.38910583,-0.32541063,0.060073595,-3.0751173,0.61410743,0.00022392086,-0.124704495,0.02031172,-0.0011159879,0.038402896,-0.009827743,0.060766883,0.43164456,-1.4442927,1.9780024,-2.099746,-1.5752925,2.4002988,-0.12384103,0.21054493,-0.24744387,0.061133035,-0.03176138,-0.18430619,0.038307227,0.4213795,-9.481039,0.8112748,47.66091,-0.9979987,-1.7046465,-3.4462771,-0.22078049,-0.113126755,-0.08241075,27.875,29.125,28.1875,31.875,34.0,34.8125
0.26405206,-0.65322715,-2.6790836,-1.4835235,-0.09775076,0.0623332,-0.14663216,-0.3893742,-0.3253732,0.060070053,-3.075084,0.6138747,0.00024162405,-0.12630802,0.020068442,-0.00028724808,0.03651262,-0.0067583607,0.05165237,0.43139216,-1.4438378,1.977476,-2.0996387,-1.5753645,2.3999057,-0.124953724,0.21049118,-0.24891281,0.059093174,-0.03132196,-0.17630419,0.0,0.4213795,-9.442732,0.8873621,47.6636,-0.9611393,-1.6651452,-3.5105405,-0.17748645,-0.12596531,-0.16050416,27.875,29.125,28.1875,31.875,34.0,34.8125
0.26605242,0.08856437,-1.943517,-1.4968401,-0.09264685,0.064848684,-0.14590907,-0.38960263,-0.32533893,0.06005613,-3.0750484,0.61364156,0.00019059543,-0.12768978,0.019662375,-0.0006253395,0.035585206,-0.005681741,0.0431938,0.4311641,-1.4434179,1.9770097,-2.09952,-1.5754122,2.3995368,-0.12555689,0.21311294,-0.25066656,0.056881025,-0.030929325,-0.16844665,0.0,0.3256114,-9.500193,0.9455522,47.70032,-1.0263692,-1.6578102,-3.5322132,-0.1507625,-0.12223999,-0.25991553,27.875,29.125,28.1875,31.875,34.0,34.8125
0.26805234,-0.07246021,-1.2183255,-1.4601656,-0.07213059,0.047687095,-0.14266065,-0.38985956,-0.32528085,0.060036752,-3.07497,0.61357,0.00014983186,-0.12883554,0.019584697,-0.0021609664,0.03615008,-0.007755139,0.03685738,0.4308758,-1.4429728,1.97653,-2.0994122,-1.5754722,2.3992143,-0.12651983,0.2184603,-0.25305715,0.056050617,-0.030583173,-0.16307046,-0.05746084,0.21068975,-9.519346,0.8112748,47.694054,-1.0378871,-1.8641067,-3.4843378,-0.112535715,-0.14325811,-0.33948314,27.875,29.125,28.1875,31.875,34.0,34.8125
0.2700525,0.24103706,-0.3959694,-1.4547915,-0.047805663,0.05139892,-0.15412217,-0.39009863,-0.32526845,0.060032845,-3.0749643,0.6134178,0.00016396858,-0.13030294,0.019309644,-0.002174167,0.035245333,-0.007299024,0.031717986,0.43067154,-1.4425527,1.9760507,-2.0993407,-1.575508,2.398916,-0.12759316,0.22089309,-0.25572646,0.05550106,-0.029950935,-0.15900531,-0.038307227,0.17238252,-9.442732,0.89631605,47.693153,-0.92546165,-1.9134393,-3.640696,-0.087412804,-0.1543524,-0.45622402,27.875,29.125,28.1875,31.875,34.0,34.8125
0.27205324,0.0012783615,-0.119367026,-1.5183097,-0.013681829,0.040381238,-0.16171752,-0.39036873,-0.32523555,0.06002217,-3.074912,0.6132906,0.00015344207,-0.1317838,0.019339608,-0.0017340429,0.03434364,-0.0067203003,0.032370005,0.43041873,-1.4420731,1.9755119,-2.0992324,-1.5755676,2.3985908,-0.12917201,0.22225322,-0.25846782,0.055950288,-0.029398832,-0.16123621,-0.038307227,0.15322891,-9.481039,0.9186956,47.667187,-0.9590548,-1.9291152,-3.6901913,-0.042170074,-0.18614602,-0.5002431,27.875,29.125,28.1875,31.875,34.0,34.8125
0.2740523,-0.052255563,0.030965965,-1.4272332,-0.015149465,0.04738987,-0.15502027,-0.39064157,-0.3251867,0.060023982,-3.0748801,0.6132019,0.0001388711,-0.13402039,0.019002289,-0.00029608104,0.033321466,-0.0042519667,0.04120222,0.43011853,-1.4416414,1.9749955,-2.0991132,-1.5756034,2.3982396,-0.13023937,0.2232685,-0.26322293,0.05695687,-0.029553693,-0.17113192,-0.076614454,0.21068975,-9.481039,0.90750587,47.698532,-0.87330246,-1.9391711,-3.5285594,-0.022158882,-0.20323408,-0.4538281,27.875,29.125,28.1875,31.875,34.0,34.8125
0.27605188,-0.75030535,-0.13983482,-1.1182712,-0.02947741,0.068757065,-0.15925215,-0.39088264,-0.32513833,0.060005926,-3.0747786,0.6129238,0.00012309586,-0.13496047,0.019326586,0.00043358904,0.034991957,-0.0045032753,0.05430849,0.42990267,-1.4411855,1.9744915,-2.0989678,-1.575724,2.3978634,-0.13056795,0.22430462,-0.26694393,0.060475808,-0.031036768,-0.18455558,-0.34476507,0.34476504,-9.442732,0.91421866,47.658226,-1.0686086,-2.0160391,-3.442219,-0.012586847,-0.19592455,-0.3377251,27.875,29.125,28.1875,31.875,34.0,34.8125
0.27805206,-1.1351957,-0.5028816,-1.3088146,-0.040954243,0.09302421,-0.15052293,-0.39113024,-0.3251054,0.05999303,-3.074755,0.61273944,2.3953053e-05,-0.13432719,0.01951982,1.7988932e-05,0.037139893,-0.0066167023,0.06628647,0.42963874,-1.4407306,1.9739765,-2.0988233,-1.5757369,2.3974876,-0.1295323,0.22532293,-0.2678181,0.06308509,-0.032166388,-0.19548987,-0.47884032,0.30645782,-9.481039,0.9254084,47.691364,-0.9878917,-1.9112737,-3.3778498,-0.046584554,-0.1905796,-0.22504112,27.875,29.125,28.1875,31.875,34.0,34.8125
0.28005213,-2.1939669,-1.3345724,-1.4635115,-0.067880444,0.119072266,-0.14518934,-0.39145032,-0.32506478,0.060031317,-3.0747623,0.61258626,0.00015977953,-0.13620867,0.020126248,0.0001706422,0.03658409,-0.006866299,0.06686935,0.42933783,-1.4402989,1.9733785,-2.0987155,-1.5758084,2.3970904,-0.13251854,0.227457,-0.2708572,0.06394167,-0.0315698,-0.19906247,-0.7278373,0.22984336,-9.595961,0.8560339,47.692257,-1.003674,-1.7175581,-3.4718275,-0.030040514,-0.2166777,-0.13613296,27.875,29.125,28.1875,31.875,34.0,34.8125
0.28205213,-2.6271396,-1.5982188,-1.23087,-0.09551368,0.14435548,-0.14488323,-0.39170772,-0.3250287,0.060022302,-3.074697,0.61240095,0.00012841895,-0.13541691,0.018766847,0.00023558082,0.036023673,-0.008013363,0.0656548,0.4290989,-1.4398313,1.9728402,-2.098571,-1.5758799,2.3967445,-0.12987567,0.2282833,-0.27237827,0.06544197,-0.030588157,-0.1952075,-1.0151415,0.30645782,-9.500193,0.8112748,47.66271,-1.1447332,-1.8033187,-3.419643,-0.013159613,-0.24282362,-0.15787886,27.875,29.125,28.1875,31.875,34.0,34.8125
0.28405246,-2.2210236,-1.1604469,-0.9814196,-0.091599196,0.16785789,-0.15871167,-0.39194688,-0.32499123,0.05999568,-3.0746393,0.6121273,1.4567263e-05,-0.13578887,0.020113785,-0.00086898275,0.038982153,-0.011961563,0.055018835,0.428858,-1.439351,1.9723247,-2.0984142,-1.5759286,2.3963404,-0.1318945,0.23149095,-0.27438346,0.06909404,-0.03162873,-0.1865805,-0.95768064,0.22984336,-9.481039,0.82694155,47.67166,-1.1199267,-1.8686686,-3.3882036,-0.04608537,-0.25779486,-0.24571142,27.875,29.125,28.1875,31.875,34.0,34.8125
0.28605187,-2.3731954,-0.74941194,-1.1458138,-0.063327,0.16282952,-0.15611573,-0.3922156,-0.324959,0.059956007,-3.0745778,0.61199963,-7.743235e-05,-0.13715503,0.020022504,-0.00027683325,0.038525745,-0.009134953,0.051824767,0.42859405,-1.4388117,1.9717864,-2.0983193,-1.5759653,2.396005,-0.13225774,0.23181139,-0.2758547,0.06748768,-0.032409046,-0.18374147,-0.91937345,0.11492168,-9.595961,0.9164598,47.681515,-1.1125349,-1.8587689,-3.6112528,-0.027886461,-0.26260358,-0.32593146,27.875,29.125,28.1875,31.875,34.0,34.8125
0.2880518,-2.347619,-0.22932038,-0.8668319,-0.039130714,0.14922999,-0.15254374,-0.39252728,-0.3249094,0.059974637,-3.074526,0.6119141,-5.1638917e-06,-0.1384359,0.02090766,0.00034844465,0.03829158,-0.008771451,0.04890365,0.42829287,-1.4383447,1.9711875,-2.0981867,-1.5760492,2.3956573,-0.13488318,0.23174313,-0.27762404,0.068874136,-0.03235388,-0.18344574,-0.8810662,-0.038307227,-9.442732,0.9679317,47.685097,-0.8776645,-1.8113028,-3.5940905,-0.013872535,-0.28763443,-0.37716675,27.875,29.125,28.1875,31.875,34.0,34.8125
0.29005218,-1.3389153,0.54158217,-1.0597498,0.008992592,0.124259375,-0.1501055,-0.39282385,-0.32488093,0.05998244,-3.0745246,0.6117413,7.320546e-05,-0.13885273,0.022623574,-0.00033403674,0.040095728,-0.011540639,0.04590329,0.42802814,-1.4378769,1.9706258,-2.0981143,-1.5761093,2.3952851,-0.13795662,0.23291644,-0.27804732,0.07137464,-0.032843698,-0.18351726,-0.7278373,-0.076614454,-9.346964,0.86498255,47.650166,-1.0412838,-1.6742541,-3.564086,-0.017419742,-0.30556205,-0.4029751,27.875,29.125,28.1875,31.875,34.0,34.8125
0.29205218,-0.43343416,1.5555693,-0.86831874,0.050427463,0.09475759,-0.16122717,-0.39312023,-0.32487687,0.05999983,-3.0745642,0.61145556,0.00015811148,-0.13983533,0.021783166,0.00057299034,0.040522605,-0.01094354,0.054169685,0.42780063,-1.4373972,1.9700254,-2.0980294,-1.576157,2.3948743,-0.13668065,0.2346024,-0.28270867,0.073931456,-0.033510868,-0.1905035,-0.57460845,-0.21068975,-9.270349,0.9254084,47.67345,-1.0780126,-1.7669075,-3.6085641,-0.0253284,-0.29792905,-0.36383575,27.875,29.125,28.1875,31.875,34.0,34.8125
0.2940524,-0.58034277,1.4011419,-0.9901917,0.0705737,0.068870574,-0.16351062,-0.39339107,-0.32480857,0.059991118,-3.0744736,0.61123955,9.197695e-05,-0.14038862,0.021619981,0.00091740844,0.040950105,-0.01262382,0.065513685,0.42750037,-1.4369295,1.9694742,-2.0978367,-1.5762409,2.3944511,-0.13688114,0.23632143,-0.28633487,0.07745306,-0.03327807,-0.20204487,-0.4405331,-0.24899697,-9.193734,0.9254084,47.658226,-1.0202767,-1.8754016,-3.4289496,-0.0354266,-0.31383103,-0.2637897,27.875,29.125,28.1875,31.875,34.0,34.8125
0.29605168,0.1404841,1.6539104,-1.1299545,0.0746019,0.0553141,-0.15939713,-0.39366156,-0.32474652,0.059957772,-3.074379,0.6110032,8.605681e-06,-0.1405287,0.022514058,-0.00014426412,0.043579288,-0.01778007,0.07370162,0.42721212,-1.4364135,1.9689354,-2.0976913,-1.5763248,2.3940277,-0.13831761,0.24010098,-0.28940955,0.08245019,-0.033602405,-0.21166293,-0.38307226,-0.30645782,-9.155427,0.88960326,47.655537,-1.012809,-1.8635033,-3.3713093,-0.07753371,-0.3535674,-0.13191903,27.875,29.125,28.1875,31.875,34.0,34.8125
0.2980519,0.009634317,1.2462751,-1.0470412,0.060098145,0.04908359,-0.153478,-0.3939527,-0.3246675,0.059942715,-3.0742536,0.6108049,-2.5098083e-05,-0.14006817,0.023709802,-0.0010029754,0.047809035,-0.022158887,0.07490445,0.4268999,-1.4359095,1.9683598,-2.0975096,-1.5764459,2.393608,-0.13864608,0.24247466,-0.29142928,0.08779649,-0.03567203,-0.21317892,-0.40222588,-0.22984336,-9.289502,0.9567419,47.651955,-1.0516919,-1.8879588,-3.2814336,-0.14604354,-0.35728133,-0.047462694,27.875,29.125,28.1875,31.875,34.0,34.8125
0.30005184,-0.28982225,0.19588545,-1.0626662,0.03183153,0.05462145,-0.14707844,-0.39425227,-0.32464832,0.05995439,-3.0742702,0.6105634,4.627481e-08,-0.1398336,0.024908789,-0.0019036068,0.051094573,-0.026312541,0.066623986,0.42663562,-1.4354178,1.96775,-2.0973885,-1.5764827,2.393191,-0.13971317,0.24481027,-0.29313532,0.09233839,-0.036918078,-0.2059581,-0.34476507,-0.15322891,-9.270349,0.8493211,47.63852,-1.0380553,-1.8842525,-3.3605838,-0.2004994,-0.3353251,-0.10409282,27.875,29.125,28.1875,31.875,34.0,34.8125
0.30205175,0.21691544,-0.37510097,-1.1507375,-0.011152549,0.06960461,-0.15717408,-0.39453194,-0.32457095,0.05996343,-3.0741212,0.6104234,-6.298939e-05,-0.14015312,0.025313845,-0.0019465976,0.05291994,-0.02791912,0.055928316,0.42633566,-1.4349498,1.9671382,-2.0971124,-1.5766023,2.3928232,-0.13995643,0.24641529,-0.29566225,0.09550946,-0.03790881,-0.19549428,-0.13407528,-0.17238252,-9.289502,0.88960326,47.666286,-1.0803049,-1.9877741,-3.3784516,-0.26321304,-0.32508874,-0.20125094,27.875,29.125,28.1875,31.875,34.0,34.8125
0.3040519,0.050257593,-0.8262139,-0.90321517,-0.054488648,0.06341559,-0.16229129,-0.39481518,-0.3245288,0.059939194,-3.0740354,0.6102365,-0.00016813226,-0.14146063,0.025807327,-0.0017868126,0.05407769,-0.027119854,0.048430976,0.4260593,-1.4343982,1.9665293,-2.0969322,-1.5766634,2.3924415,-0.1409266,0.24796733,-0.29803723,0.096106105,-0.039304864,-0.18895295,-0.095768064,0.019153614,-9.289502,0.8717007,47.657326,-1.0157496,-2.0171494,-3.3209867,-0.32661158,-0.33653653,-0.31820107,27.875,29.125,28.1875,31.875,34.0,34.8125
0.30605176,-0.4454578,-1.3065325,-1.0571997,-0.07022664,0.0402018,-0.15435003,-0.39508027,-0.32445076,0.05993658,-3.0738988,0.6100367,-0.00022903961,-0.142815,0.02597366,-0.001919968,0.053986568,-0.024952168,0.042534858,0.4257712,-1.4339423,1.9659661,-2.0966942,-1.5767835,2.3920465,-0.14170657,0.24931978,-0.2987651,0.09347107,-0.040139336,-0.18382569,-0.095768064,0.19153613,-9.32781,0.8717007,47.670765,-1.0925672,-2.0368328,-3.29441,-0.31889534,-0.3357916,-0.41571718,27.875,29.125,28.1875,31.875,34.0,34.8125
0.3080517,0.07770261,-1.6202092,-1.4783885,-0.060742654,0.03729515,-0.16541904,-0.39538586,-0.3244058,0.059935316,-3.0738142,0.61000097,-0.00026960977,-0.14382528,0.025681214,-0.0020146535,0.054265555,-0.022550862,0.042573646,0.42547104,-1.433415,1.9653319,-2.0965154,-1.5768441,2.3917353,-0.14104417,0.2507111,-0.2996565,0.090885095,-0.041416258,-0.18319038,0.095768064,0.22984336,-9.404425,0.84484416,47.688675,-1.0937806,-2.0035458,-3.5048375,-0.31930095,-0.31672934,-0.50520474,27.875,29.125,28.1875,31.875,34.0,34.8125
0.31005168,0.17396498,-1.8490415,-1.590136,-0.069137305,0.037790727,-0.17071451,-0.39569515,-0.32434675,0.059929125,-3.0737233,0.60982436,-0.00022299636,-0.14823608,0.026757294,-0.00084217027,0.051788405,-0.01518933,0.047094256,0.42518124,-1.4328991,1.964733,-2.0963867,-1.5769643,2.3913472,-0.146023,0.25103086,-0.30137676,0.08446675,-0.042280555,-0.19268091,0.22984336,0.2681506,-9.5385,0.9186956,47.705692,-0.8275502,-1.9628642,-3.5651624,-0.29397058,-0.32486504,-0.4520445,27.875,29.125,28.1875,31.875,34.0,34.8125
0.31205168,0.24143039,-2.0475035,-1.3518867,-0.08319111,0.057348613,-0.18386605,-0.39597586,-0.32427126,0.059920345,-3.0735939,0.6096914,-0.00030528632,-0.1504086,0.025842017,0.0003718006,0.04937451,-0.007913283,0.06220647,0.42486984,-1.4324087,1.964147,-2.0961611,-1.5770606,2.3909698,-0.14542153,0.2502946,-0.3019933,0.07807356,-0.043203242,-0.20717965,0.17238252,0.30645782,-9.500193,0.8985519,47.66539,-0.9691313,-1.9122872,-3.4958482,-0.2048442,-0.30178234,-0.35829166,27.875,29.125,28.1875,31.875,34.0,34.8125
0.31405172,-0.6557376,-2.132703,-1.5495299,-0.0813256,0.05533501,-0.16247661,-0.39628866,-0.3242181,0.059907258,-3.0735548,0.609412,-0.00032238968,-0.1526854,0.02660284,0.0007683891,0.0497621,-0.0060857474,0.06975663,0.42455694,-1.4318695,1.9635361,-2.096029,-1.5771326,2.3904877,-0.14780682,0.2520379,-0.3049033,0.07764608,-0.044386655,-0.21710375,0.19153613,0.40222588,-9.5385,0.9298854,47.657326,-0.7984241,-1.8206078,-3.5964665,-0.1887666,-0.28599522,-0.23574767,27.875,29.125,28.1875,31.875,34.0,34.8125
0.31605214,-0.4944211,-1.735103,-1.6351842,-0.08997247,0.074899755,-0.16947429,-0.3965625,-0.3241759,0.059886657,-3.073465,0.60912204,-0.00041677008,-0.15468416,0.025560288,0.0019458553,0.047838777,-0.0002448544,0.07341797,0.42430547,-1.4313295,1.9629258,-2.0958278,-1.5772175,2.3900669,-0.14696826,0.25209627,-0.30682454,0.07334912,-0.045101807,-0.21991473,0.019153614,0.4213795,-9.595961,0.9768804,47.647476,-0.9029217,-1.7829068,-3.644086,-0.13734703,-0.28861988,-0.15393186,27.875,29.125,28.1875,31.875,34.0,34.8125
0.3180521,-0.57294035,-1.9764192,-1.9666656,-0.07915145,0.07033946,-0.16112956,-0.39686835,-0.3241261,0.0599024,-3.0734406,0.6089107,-0.00037334042,-0.15548062,0.025485424,0.001265486,0.048456036,-0.0010415242,0.06687417,0.42400512,-1.4308623,1.9623274,-2.0956833,-1.5772895,2.389638,-0.14721258,0.2551715,-0.30885035,0.07329417,-0.045318,-0.21361183,0.0,0.40222588,-9.710882,0.9254084,47.698532,-0.9061644,-1.861408,-3.6588907,-0.11176161,-0.2890203,-0.2125194,27.875,29.125,28.1875,31.875,34.0,34.8125
0.32005206,-0.5096193,-2.0645607,-1.7579048,-0.0814163,0.071191765,-0.1651603,-0.3971997,-0.3240811,0.05990505,-3.0734055,0.60867804,-0.00026395134,-0.15770313,0.026385782,0.0017564541,0.049085367,0.0009100506,0.0569317,0.4237163,-1.4303348,1.9617041,-2.0956004,-1.5773977,2.3892086,-0.1496905,0.25659162,-0.31168765,0.07321148,-0.046665825,-0.20613743,-0.05746084,0.49799395,-9.691729,0.9365982,47.694946,-0.91006386,-1.7557989,-3.6631675,-0.08090334,-0.2621592,-0.31265375,27.875,29.125,28.1875,31.875,34.0,34.8125
0.32205218,-1.4158882,-2.4280462,-1.7261318,-0.0672318,0.059656065,-0.15050744,-0.3975278,-0.3240309,0.059906792,-3.0733287,0.6084902,-0.00019177856,-0.15812816,0.026056165,0.0010690899,0.05177353,0.0004843459,0.054805085,0.42342907,-1.4297943,1.9610571,-2.0954683,-1.5775183,2.3888142,-0.14780772,0.26006505,-0.3143194,0.073861055,-0.048936196,-0.20211045,-0.38307226,0.40222588,-9.615114,0.9321212,47.672558,-1.0215373,-1.9030011,-3.6087408,-0.0694994,-0.23821191,-0.3521824,27.875,29.125,28.1875,31.875,34.0,34.8125
0.32405195,-1.1695362,-1.8434262,-2.113215,-0.05523957,0.06857,-0.17047188,-0.3978297,-0.32398945,0.05990186,-3.0732687,0.6082863,-0.00025239066,-0.15847954,0.026827328,-5.2596624e-05,0.053297717,-0.0023601549,0.05372518,0.4231407,-1.4292544,1.9604119,-2.0952766,-1.5775789,2.3884065,-0.14921403,0.26299512,-0.31554022,0.07534426,-0.049182355,-0.20243067,-0.22984336,0.38307226,-9.825804,0.9030289,47.66539,-0.97434515,-1.9052591,-3.6373358,-0.042586915,-0.23636398,-0.3844021,27.875,29.125,28.1875,31.875,34.0,34.8125
0.32605246,-0.54673404,-1.4784443,-1.6717793,-0.07466311,0.09392279,-0.17629893,-0.39817247,-0.32392338,0.059903603,-3.0731812,0.6082065,-0.00019199059,-0.15996552,0.027038258,-0.00035099822,0.054189954,-0.0033498213,0.058099262,0.42280436,-1.4287133,1.9597634,-2.095144,-1.5776867,2.388032,-0.15037942,0.26655018,-0.3193538,0.07679612,-0.049636792,-0.20796432,-0.1340753,0.2681506,-9.883265,0.91421866,47.64927,-0.96231306,-2.1390038,-3.5433679,-0.047159232,-0.21751955,-0.39075866,27.875,29.125,28.1875,31.875,34.0,34.8125
0.32805258,-0.71710736,-0.9129798,-1.1514553,-0.08844294,0.09806944,-0.18116474,-0.39849955,-0.32390177,0.0599361,-3.0732005,0.6078775,-0.00010331684,-0.16170025,0.027650045,0.000465979,0.05482471,-0.0012173413,0.068630844,0.4225399,-1.4282103,1.959082,-2.094988,-1.5777591,2.3875597,-0.15179996,0.26697177,-0.3218943,0.07712271,-0.051158857,-0.21990691,-0.21068975,0.22984336,-9.615114,0.90750587,47.68062,-0.93322945,-2.1740234,-3.5441432,-0.031833876,-0.202243,-0.30976918,27.875,29.125,28.1875,31.875,34.0,34.8125
0.33005163,-1.0482347,-0.74009377,-1.2052345,-0.04174172,0.08554851,-0.1683167,-0.39881665,-0.3238538,0.059913013,-3.0731246,0.60760635,-0.00012940564,-0.16191798,0.02926777,0.00019087388,0.058720168,-0.0037135046,0.078167036,0.42225146,-1.4276234,1.9584349,-2.0948431,-1.577856,2.387112,-0.15309763,0.26815313,-0.3237327,0.08154865,-0.053765457,-0.23071958,-0.24899697,0.19153613,-9.500193,0.9455522,47.719128,-0.94079316,-2.078473,-3.5619097,-0.058304247,-0.169862,-0.12976381,27.875,29.125,28.1875,31.875,34.0,34.8125
0.3320526,-1.0468315,-0.108453244,-1.3000958,-0.004410283,0.074847914,-0.16149558,-0.39913988,-0.3237894,0.0599063,-3.0730615,0.607344,-0.00012779608,-0.16215064,0.029005745,0.0006345831,0.058308113,-0.0039300453,0.0790391,0.4219275,-1.4270836,1.9578012,-2.0946872,-1.5779518,2.3866324,-0.15293777,0.2683443,-0.32543892,0.083046935,-0.05332807,-0.2314314,-0.47884035,0.095768064,-9.615114,0.87617236,47.716442,-0.97262824,-2.1394746,-3.6443784,-0.03583403,-0.13667777,-0.094506696,27.875,29.125,28.1875,31.875,34.0,34.8125
0.33405182,-0.45596802,0.30446276,-1.1856718,0.006938154,0.07355605,-0.17905772,-0.3994588,-0.32372493,0.059898503,-3.0729403,0.60713303,-9.8128054e-05,-0.16074882,0.030210186,0.00020251707,0.05971662,-0.010706641,0.0697372,0.4216388,-1.4265335,1.9571546,-2.094516,-1.5780958,2.3862278,-0.15482746,0.2684565,-0.326434,0.09069149,-0.05180959,-0.22402701,-0.2681506,-0.15322891,-9.595961,0.90527004,47.65912,-0.99448603,-1.920676,-3.6027656,-0.082353145,-0.13386801,-0.15987694,27.875,29.125,28.1875,31.875,34.0,34.8125
0.33605218,-0.5049869,0.41474915,-0.78011733,0.011849141,0.05746384,-0.16053687,-0.39977843,-0.3236916,0.059908845,-3.0729449,0.6067918,-8.06767e-05,-0.16026227,0.0292293,0.0011982432,0.060691644,-0.010757758,0.06278978,0.42135215,-1.4260064,1.9564956,-2.09436,-1.5781559,2.3857276,-0.15193644,0.26822606,-0.3294104,0.09439374,-0.05263812,-0.21418084,-0.51714754,-0.30645782,-9.32781,0.87617236,47.6636,-1.0848155,-1.7719369,-3.6597333,-0.15303469,-0.12919274,-0.25280687,27.875,29.125,28.1875,31.875,34.0,34.8125
0.3380526,0.26356718,1.2247818,-0.77860343,0.027796162,0.04886452,-0.17501053,-0.40011752,-0.32361624,0.059905153,-3.0728338,0.6067165,-6.990127e-05,-0.16092767,0.029239161,0.001476134,0.060950898,-0.0127973985,0.053628225,0.42100373,-1.4254547,1.9558376,-2.0941904,-1.5782636,2.385347,-0.1527433,0.27015385,-0.33326194,0.09830624,-0.05202025,-0.2058258,-0.6512229,-0.38307226,-9.212888,0.9567419,47.661808,-0.9658569,-1.7551186,-3.522331,-0.18470022,-0.12848541,-0.37420994,27.875,29.125,28.1875,31.875,34.0,34.8125
0.34005257,-0.079539046,1.1128339,-1.1234002,0.05445421,0.02627892,-0.16481726,-0.4004461,-0.32355607,0.05992125,-3.072729,0.6065045,-6.861091e-06,-0.16189623,0.028999353,0.0025940198,0.059778903,-0.012434025,0.049458373,0.42071545,-1.4249276,1.9551543,-2.0939863,-1.5784072,2.38494,-0.15355042,0.2701786,-0.3365245,0.10071278,-0.05110213,-0.20246626,-0.32561144,-0.4405331,-9.32781,0.92764956,47.64389,-1.1398503,-1.6863317,-3.387207,-0.22317147,-0.11160907,-0.494637,27.875,29.125,28.1875,31.875,34.0,34.8125
0.34205258,-0.9838037,1.4392747,-0.9673463,0.042796224,0.012776082,-0.17138809,-0.4007539,-0.32351628,0.059929114,-3.0726914,0.60630065,-2.2342187e-05,-0.16275707,0.028640617,0.0021073003,0.0591999,-0.0151958,0.053587608,0.42042735,-1.424412,1.9545077,-2.0938056,-1.5784668,2.3845296,-0.15450148,0.2738839,-0.34028354,0.10297944,-0.049497962,-0.20755401,-0.1340753,-0.49799395,-9.3661175,1.044019,47.67166,-1.1015779,-1.625304,-3.3673143,-0.24258637,-0.12596563,-0.53460467,27.875,29.125,28.1875,31.875,34.0,34.8125
0.34405252,-0.23059773,1.1641734,-1.0347689,0.04065067,0.039913278,-0.17855658,-0.4010706,-0.32345447,0.059928335,-3.0726025,0.6060249,-8.228592e-05,-0.16297996,0.02827696,0.00081825594,0.059006214,-0.01822063,0.06606168,0.42011535,-1.423859,1.9538249,-2.0935662,-1.5785626,2.384057,-0.15471378,0.27775902,-0.34197915,0.10334223,-0.048197076,-0.2202441,-0.038307227,-0.47884035,-9.251195,1.061927,47.685097,-1.2128531,-1.8789876,-3.3136487,-0.28195024,-0.135183,-0.41784227,27.875,29.125,28.1875,31.875,34.0,34.8125
0.34605196,-0.6384462,1.2568052,-1.2118386,0.030864462,0.048909113,-0.17495656,-0.40142745,-0.3233847,0.059956096,-3.0725236,0.6057709,-1.6692768e-05,-0.16375293,0.027549632,0.00087658677,0.057178102,-0.017998006,0.080262676,0.41977915,-1.4233193,1.9530948,-2.0933397,-1.5786937,2.3835726,-0.15480414,0.27923506,-0.34376046,0.10253368,-0.0467276,-0.2345443,-0.36391866,-0.34476504,-9.423578,0.9030289,47.692257,-1.1769543,-1.944597,-3.3598099,-0.2906766,-0.14878687,-0.27271783,27.875,29.125,28.1875,31.875,34.0,34.8125
0.34805217,-1.2005858,0.12428016,-1.0521076,-0.013090817,0.09526906,-0.17744799,-0.4017129,-0.3233408,0.05994545,-3.0724204,0.60542315,-0.00013797273,-0.16429716,0.028152037,-0.00062639103,0.056596555,-0.019731076,0.08328596,0.41952628,-1.4227548,1.952413,-2.0930645,-1.5787896,2.383116,-0.15697029,0.2818376,-0.34295878,0.10039498,-0.045571394,-0.23973544,-0.38307226,-0.19153613,-9.461885,0.98807013,47.66987,-0.99246323,-1.8660249,-3.5303252,-0.29046035,-0.16782075,-0.16830009,27.875,29.125,28.1875,31.875,34.0,34.8125
0.35005215,-1.5437361,-0.9461116,-1.4562536,-0.04931981,0.12054428,-0.17424645,-0.40204865,-0.32327142,0.05992328,-3.0723577,0.6051829,-0.00025798968,-0.1650298,0.027861124,-0.00092004094,0.05542569,-0.017898321,0.07782369,0.41915447,-1.4221532,1.9517311,-2.0928628,-1.5788373,2.3826025,-0.15706192,0.2826802,-0.34267712,0.097135864,-0.045266863,-0.23436123,-0.3256114,-0.019153614,-9.519346,0.8717007,47.67793,-1.2501054,-1.8621354,-3.65081,-0.27617082,-0.1725184,-0.18149623,27.875,29.125,28.1875,31.875,34.0,34.8125
0.35205206,-1.8503573,-2.0730171,-1.6661837,-0.08348541,0.12704986,-0.16070232,-0.40239066,-0.32319894,0.05993666,-3.0722346,0.6050072,-0.0001865232,-0.16686285,0.027484693,-0.00069116557,0.053701017,-0.0148129575,0.06924669,0.41884252,-1.4216124,1.9510373,-2.0926607,-1.5789932,2.382197,-0.15792893,0.284113,-0.34421918,0.09373878,-0.0449342,-0.22665012,-0.49799395,0.30645782,-9.634268,0.99702406,47.682407,-1.1856424,-1.8658239,-3.8059373,-0.23808849,-0.1898102,-0.2824047,27.875,29.125,28.1875,31.875,34.0,34.8125
0.35405222,-1.8567424,-3.005848,-1.570277,-0.11868121,0.13277787,-0.17422585,-0.40272003,-0.32317218,0.059964247,-3.072258,0.6046876,-0.00015123126,-0.16951309,0.026634552,0.0007225629,0.051333796,-0.008657338,0.06390155,0.4185549,-1.4210956,1.950343,-2.0924823,-1.5790414,2.3817067,-0.15816629,0.28445902,-0.34708226,0.08969078,-0.045268163,-0.22153763,-0.49799395,0.51714754,-9.595961,0.9254084,47.63136,-1.2161213,-1.7969501,-3.7433662,-0.20626904,-0.17968899,-0.34270802,27.875,29.125,28.1875,31.875,34.0,34.8125
0.35605165,-1.6737838,-3.2790573,-1.9405285,-0.13486746,0.112723574,-0.16516213,-0.40307528,-0.3230897,0.059956513,-3.0721323,0.60450816,-0.000120699064,-0.1720481,0.026686165,0.0025459214,0.04902301,-0.0035913633,0.061151203,0.41820678,-1.4205071,1.9496478,-2.0923035,-1.5791854,2.381263,-0.1601679,0.28331742,-0.34969065,0.087832555,-0.04524521,-0.220785,-0.28730422,0.6512228,-9.787497,0.9365982,47.63404,-1.1981344,-1.7454475,-3.7055707,-0.14174822,-0.19044721,-0.39489537,27.875,29.125,28.1875,31.875,34.0,34.8125
0.35805178,-1.1346878,-3.4524057,-2.1589053,-0.12449941,0.08065053,-0.1731637,-0.40340596,-0.32304606,0.0599705,-3.0721052,0.60420954,-5.6568555e-05,-0.17497706,0.026227182,0.003839653,0.046955016,0.00017359928,0.068535365,0.41791883,-1.4199787,1.9489764,-2.0921485,-1.5792812,2.3807921,-0.1617428,0.28491935,-0.35432574,0.08647325,-0.044960693,-0.22974391,-0.30645782,0.51714754,-9.921572,0.99031126,47.655537,-1.1407987,-1.6015282,-3.7188478,-0.14626645,-0.20576626,-0.37693697,27.875,29.125,28.1875,31.875,34.0,34.8125
0.36005172,-0.5328394,-3.0268457,-2.055655,-0.13078806,0.06880312,-0.16877781,-0.40378562,-0.32297182,0.059973285,-3.07202,0.60401255,2.0274238e-05,-0.17809352,0.026614089,0.0049494645,0.044693194,0.0046331016,0.07721821,0.41755858,-1.4193776,1.9482473,-2.091994,-1.5794128,2.38032,-0.16489828,0.285499,-0.35701135,0.08343527,-0.044800363,-0.24158162,-0.22984336,0.68953013,-9.959879,0.95226496,47.692257,-1.1789042,-1.4844795,-3.5305448,-0.079491876,-0.21983266,-0.23832676,27.875,29.125,28.1875,31.875,34.0,34.8125
0.36205178,-0.8142814,-2.8841403,-2.5197823,-0.09813586,0.030562751,-0.16230288,-0.40413398,-0.32292935,0.05998589,-3.072023,0.6036637,2.85438e-05,-0.1765993,0.02605856,0.0030090506,0.045648403,-0.0017375994,0.08372509,0.41723558,-1.4188111,1.9475287,-2.0918128,-1.5794724,2.3797789,-0.16356991,0.2894743,-0.35798338,0.08656322,-0.043130524,-0.24677196,-0.24899697,0.7086837,-9.80665,0.98807013,47.655537,-1.1229057,-1.6477084,-3.6717358,-0.054355957,-0.21567044,-0.14782701,27.875,29.125,28.1875,31.875,34.0,34.8125
0.36405185,-0.13022141,-2.179151,-2.4804132,-0.091082364,0.045578297,-0.16477457,-0.40451136,-0.32287297,0.06001619,-3.0719984,0.60344946,0.00013391659,-0.17745349,0.026815075,0.0013441356,0.045750104,-0.0038335875,0.07810742,0.41688737,-1.418258,1.9467882,-2.0916464,-1.5795683,2.3793,-0.1659492,0.2931241,-0.3581662,0.08504243,-0.04236054,-0.24353975,-0.34476504,0.7086837,-9.921572,0.900793,47.68062,-0.9861038,-1.7155727,-3.7923684,-0.019779138,-0.2640319,-0.12052651,27.875,29.125,28.1875,31.875,34.0,34.8125
0.36605236,-0.84891844,-2.352935,-1.9417207,-0.10728242,0.0697527,-0.16493899,-0.4048562,-0.32283032,0.060008217,-3.0719554,0.6032162,0.00012467519,-0.17795253,0.027176185,0.00037708422,0.04591748,-0.0073165363,0.06664608,0.41657528,-1.4176561,1.946081,-2.0914896,-1.5796398,2.378848,-0.16767523,0.29648545,-0.36048913,0.08731034,-0.04106296,-0.23381104,-0.2681506,0.6512228,-9.902418,0.97240865,47.70211,-0.9924052,-1.8390151,-3.770526,-0.003000665,-0.28061455,-0.22659291,27.875,29.125,28.1875,31.875,34.0,34.8125
0.36805236,-0.7224272,-2.3641026,-1.4221044,-0.10588109,0.08847099,-0.16554202,-0.4052137,-0.3228124,0.060031846,-3.071975,0.6029957,0.00016029092,-0.17775169,0.027769346,-0.00042558924,0.047150362,-0.011153698,0.054659277,0.41627523,-1.417079,1.9453267,-2.0913208,-1.5796756,2.378408,-0.16872773,0.29868335,-0.3621247,0.09083363,-0.040572062,-0.22288011,-0.17238252,0.4213795,-9.653421,0.9298854,47.683304,-0.925461,-1.8386157,-3.8568015,-0.011856924,-0.30338264,-0.35798508,27.875,29.125,28.1875,31.875,34.0,34.8125
0.3700526,-0.5373954,-1.4924692,-1.207417,-0.06971047,0.0722926,-0.1651121,-0.40559375,-0.32274592,0.06005248,-3.0719113,0.6028905,0.00026109957,-0.17935838,0.02824218,0.0008236944,0.047717936,-0.011513862,0.04546721,0.41591573,-1.4165131,1.9445947,-2.0911634,-1.5797838,2.3779912,-0.17047362,0.29976395,-0.36746752,0.095686495,-0.04090842,-0.21542989,-0.1340753,0.3256114,-9.481039,0.9835985,47.72808,-0.8834441,-1.9816931,-3.7840953,-0.013363952,-0.3409614,-0.49450397,27.875,29.125,28.1875,31.875,34.0,34.8125
0.3720525,-0.14709774,-0.3840963,-0.9521204,-0.027424362,0.04559796,-0.17384423,-0.40597352,-0.32270724,0.060074925,-3.071923,0.60273504,0.00033995276,-0.17990795,0.02770975,0.001048813,0.048079547,-0.013570733,0.04927954,0.4155683,-1.415937,1.9438518,-2.0910308,-1.5798315,2.3775454,-0.17005505,0.3023403,-0.37198418,0.099598,-0.04043356,-0.2188274,-0.019153614,0.076614454,-9.346964,0.96569055,47.653748,-0.91590357,-1.786746,-3.6312604,-0.055576764,-0.37979138,-0.559635,27.875,29.125,28.1875,31.875,34.0,34.8125
0.37405255,0.7872976,0.82286006,-1.0707551,0.031292904,0.011869801,-0.17642021,-0.40633628,-0.32263476,0.060073357,-3.0718286,0.602514,0.00035650042,-0.1795942,0.02871205,0.0011481917,0.05113261,-0.017705353,0.06352893,0.41522068,-1.4153357,1.9431213,-2.0908363,-1.5799521,2.377072,-0.17063697,0.30340156,-0.3751418,0.10653573,-0.041667968,-0.23364767,-0.019153614,-0.15322891,-9.232041,0.99702406,47.705692,-0.8142401,-1.6473379,-3.454423,-0.11887054,-0.40265203,-0.45564902,27.875,29.125,28.1875,31.875,34.0,34.8125
0.37605178,0.76427925,1.60327,-1.2144603,0.08536367,-0.024654124,-0.17450741,-0.40669948,-0.32259646,0.06007218,-3.0717998,0.60221195,0.00031894163,-0.18066624,0.029444745,0.00046682896,0.053468123,-0.019393416,0.07697476,0.41489673,-1.414697,1.9423441,-2.0906322,-1.5800132,2.3765633,-0.17162773,0.30685827,-0.37814572,0.10841256,-0.04324528,-0.24806908,-0.11492168,-0.038307227,-9.11712,0.92764956,47.687782,-0.94284403,-1.8350136,-3.4007866,-0.12223507,-0.39830983,-0.31462574,27.875,29.125,28.1875,31.875,34.0,34.8125
