Tylouw/Master_Thesis_Code/training_data/batch_1/big_rod_t0.3/sample_31_session_1.csv
timestamp[s],tcp_force_x[N],tcp_force_y[N],tcp_force_z[N],tcp_force_rx[Nm?],tcp_force_ry[Nm?],tcp_force_rz[Nm?],tcp_pose_x[m],tcp_pose_y[m],tcp_pose_z[m],tcp_pose_rx[rot_vec_x],tcp_pose_ry[rot_vec_y],tcp_pose_rz[rot_vec_z],tcp_velo_x[m/s],tcp_velo_y[m/s],tcp_velo_z[m/s],tcp_velo_rx[rot_vec_x/s],tcp_velo_ry[rot_vec_y/s],tcp_velo_rz[rot_vec_z/s],q1[rad],q2[rad],q3[rad],q4[rad],q5[rad],q6[rad],qd1[rad/s],qd2[rad/s],qd3[rad/s],qd4[rad/s],qd5[rad/s],qd6[rad/s],tool_acc_x,tool_acc_y,tool_acc_z,current_of_whole_robot[A],voltage_of_whole_robot[V],current_J1[A],current_J2[A],current_J3[A],current_J4[A],current_J5[A],current_J6[A],temp_J1[C],temp_J2[C],temp_J3[C],temp_J4[C],temp_J5[C],temp_J6[C]
5.659531e-07,-0.62433887,-0.64623946,0.7501953,-0.015607887,0.003257413,-0.019280894,-0.37290174,-0.32821333,0.059943937,-3.078482,0.6248083,-0.00024433035,0.003159124,0.0015205495,-0.0042420165,0.0046140905,-0.009839219,-1.3094607e-05,0.4481382,-1.4708489,2.0095613,-2.1077025,-1.5706857,2.4230194,-6.8222595e-05,0.0042362176,0.0046201902,0.0020100493,0.000119078846,-5.804284e-05,0.095768064,0.1340753,-8.829816,0.7486078,47.73256,-0.09571335,-2.909052,-2.5471597,-0.5010823,0.14227203,-0.10003735,27.5625,28.8125,27.875,31.5,33.4375,34.1875
0.002052403,-0.05175887,0.2114371,0.8705666,-0.024478361,0.015124706,-0.029292399,-0.37288558,-0.32819694,0.059913702,-3.0784128,0.62489057,-0.00028885205,-0.0005766487,-0.00028573937,-0.002891408,-0.001068789,0.0019187678,-9.724712e-06,0.4481382,-1.4708252,2.0096085,-2.1077197,-1.5707096,2.4230795,-6.7809524e-05,0.0039752834,0.004764661,-0.010932789,0.000117141404,-5.7303754e-05,0.019153614,0.24899697,-8.925584,0.7351769,47.701214,-0.061672553,-2.7822394,-2.3893943,-0.44670728,0.13989004,-0.12119873,27.5625,28.8125,27.875,31.5,33.4375,34.1875
0.004051912,-0.4337197,0.099636346,0.5253162,-0.011731778,0.0075964797,-0.027841553,-0.372877,-0.32820776,0.059915245,-3.0784569,0.6248031,-0.00029709344,-0.0017780702,-0.00086659414,-0.002092905,-0.0027759816,0.0054557817,-8.4001485e-06,0.44815025,-1.4708372,2.009621,-2.1077316,-1.5706857,2.4230313,-6.6974535e-05,0.0035667024,0.0040140026,-0.013701011,0.00011526614,-5.658323e-05,0.0,0.17238252,-8.963891,0.71951014,47.694054,-0.07181127,-3.0334668,-2.5731854,-0.33409733,0.15598124,-0.10514653,27.5625,28.8125,27.875,31.5,33.4375,34.1875
0.006052123,0.5525384,0.46735856,0.52077097,0.0036386645,0.009658603,-0.03824807,-0.37288386,-0.32821986,0.059903007,-3.0784748,0.62484574,-0.00030695242,-0.00092925737,-0.00046048113,-0.0015921098,-0.0014308968,0.0026900722,1.6709797e-06,0.44815025,-1.4708017,2.0096204,-2.1077774,-1.5706614,2.4230556,-5.527819e-05,0.0026209597,0.0026809399,-0.008346757,0.000110712725,-5.588061e-05,0.038307227,0.19153613,-8.90643,0.7665104,47.701214,-0.07678285,-2.954216,-2.4896188,-0.36777243,0.1547103,-0.10843361,27.5625,28.8125,27.875,31.5,33.4375,34.1875
0.008052023,0.48390585,0.8439911,0.20630811,0.037293177,-0.019315396,-0.025193898,-0.3729131,-0.32821456,0.059928592,-3.0784671,0.62488246,-0.00021298659,-0.0003749022,-0.00019168132,-0.0012026964,-0.00046875206,0.0007106569,1.2397933e-06,0.4481382,-1.470814,2.0095723,-2.1077645,-1.5706977,2.4230676,-5.446324e-05,0.0020279717,0.0015403657,-0.0044123325,0.000107781794,-5.5195196e-05,0.0,0.19153614,-9.078813,0.7329411,47.701214,-0.0780838,-2.9493961,-2.4600935,-0.41620964,0.14265823,-0.110732935,27.5625,28.8125,27.875,31.5,33.4375,34.1875
0.010051855,0.32912606,0.8508994,-0.43252185,0.05647547,-0.031058807,-0.026115216,-0.37290072,-0.32821497,0.05989806,-3.0784466,0.6248399,-0.00027226223,-3.182372e-05,-2.1377973e-05,-0.0010854679,8.1536e-05,-0.00041996068,-8.5550835e-07,0.44815025,-1.4707661,2.0095952,-2.1077878,-1.5706977,2.4230556,-6.0898234e-05,0.0017585913,0.0011233297,-0.0024684966,0.000105242696,-5.990218e-05,0.0,0.1340753,-9.308657,0.7172743,47.71286,-0.60860056,-2.3956337,-2.9903972,-0.45522428,0.16062053,-0.19512561,27.5625,28.8125,27.875,31.5,33.4375,34.1875
0.012051841,0.029221319,0.7067144,-0.43691373,0.01217518,-0.0075132237,-0.034849938,-0.37288454,-0.3282074,0.059892647,-3.078437,0.62487674,-0.0003703623,0.0002539764,0.00017097215,-0.0033225727,0.0026380904,-0.0057307445,-2.7260858e-05,0.44812614,-1.4707758,2.009607,-2.1077392,-1.5706614,2.4230556,-0.00016526922,0.007433948,-0.0003603061,-0.0007661177,0.0001028366,-0.00013657677,0.076614454,0.0,-9.442732,0.7620334,47.71554,-0.6972989,-2.5076232,-3.0930395,-0.4524272,0.13130134,-0.25002518,27.5625,28.8125,27.875,31.5,33.4375,34.1875
0.014052649,-0.74675137,-0.45060503,-0.39950457,-0.022467753,0.01218877,-0.0280632,-0.37288377,-0.32818404,0.05987167,-3.0783682,0.62489873,-0.00043768145,-0.0048184334,0.0021258853,-0.00420083,0.0032738643,-0.007091002,0.0018823184,0.44809934,-1.4707373,2.0096047,-2.107703,-1.5706857,2.4230514,-0.008462897,0.015316866,-0.0070653446,-0.00044443982,0.0001005388,-0.010338597,-0.05746084,0.038307227,-9.576807,0.72622824,47.70032,-0.45625827,-2.8899353,-2.943955,-0.4582864,0.13258366,-0.21032125,27.5625,28.8125,27.875,31.5,33.4375,34.1875
0.016052183,-1.3940191,-0.8127469,-0.4919098,-0.058480352,0.039801545,-0.040432487,-0.37289304,-0.3281903,0.059872653,-3.078414,0.6248107,-0.00044470155,-0.0059534074,0.0030626848,-0.003850539,0.0029713577,-0.0064643044,0.004607222,0.4480862,-1.4707255,2.0095923,-2.1077154,-1.5706614,2.4229774,-0.011255744,0.014978076,-0.0075191096,-0.00034837655,9.834142e-05,-0.015856152,-0.3256114,0.21068975,-9.80665,0.74413085,47.694946,-0.29310352,-2.7716172,-3.0654812,-0.47283164,0.13896652,-0.15633424,27.5625,28.8125,27.875,31.5,33.4375,34.1875
0.018052643,-1.656784,-1.2845845,-0.5131648,-0.072062835,0.08373977,-0.05257064,-0.37288353,-0.32818598,0.05985876,-3.0783892,0.6247853,-0.00050510885,-0.0049497066,0.0028980875,-0.004342777,0.0035642895,-0.0076890513,0.006886111,0.44808674,-1.4707015,2.0095923,-2.107691,-1.5706614,2.4229653,-0.010031516,0.014946607,-0.006423582,-5.1870426e-05,9.623832e-05,-0.016911566,-0.4213795,0.19153613,-9.844957,0.72622824,47.68599,-0.5654597,-2.5402966,-3.3479836,-0.47494492,0.13028798,-0.1553386,27.5625,28.8125,27.875,31.5,33.4375,34.1875
0.020052534,-1.8450323,-0.87639743,-0.5652298,-0.06641999,0.10263885,-0.08259278,-0.37288547,-0.32818052,0.059847303,-3.0783677,0.624819,-0.0005350484,-0.0058421562,0.002772582,-0.0042283596,0.003406643,-0.0073671467,0.0071489858,0.44807467,-1.4706771,2.0095918,-2.107691,-1.5706614,2.422977,-0.010607314,0.016325656,-0.008209666,-3.3867684e-06,9.422321e-05,-0.01774896,-0.51714754,0.21068975,-9.844957,0.683705,47.694946,-0.74349,-2.4828959,-3.5045967,-0.46711826,0.1448958,-0.18452424,27.5625,28.8125,27.875,31.5,33.4375,34.1875
0.022052404,-1.335271,-0.18740766,-0.46056128,-0.036955807,0.10277286,-0.09551182,-0.37290633,-0.3281816,0.059822593,-3.0783565,0.6247789,-0.0006057684,-0.00861667,0.003070734,-0.0033082338,0.0023981303,-0.005320166,0.005348793,0.44804958,-1.4705807,2.0095427,-2.107691,-1.5706495,2.4229283,-0.013701696,0.018113371,-0.012282397,-2.2113178e-07,0.000105983236,-0.019040449,-0.51714754,0.3256114,-9.710882,0.77545905,47.684196,-0.64440435,-2.4523773,-3.428237,-0.46030855,0.14191508,-0.1997638,27.5625,28.8125,27.875,31.5,33.4375,34.1875
0.024051962,-1.3891754,0.06796206,-0.5803184,-0.0055028275,0.07412202,-0.115505084,-0.37292176,-0.3281718,0.05981144,-3.0783396,0.6247757,-0.00061053684,-0.009394766,0.003312453,-0.0036897643,0.0026840835,-0.0059494646,0.005499207,0.4480251,-1.470544,2.0095308,-2.107703,-1.5706614,2.422904,-0.014872761,0.020011036,-0.013489679,-1.4438326e-08,0.00011711009,-0.020360926,-0.6512229,0.30645782,-9.672575,0.7709874,47.672558,-0.77678156,-2.4937763,-3.3682642,-0.48386836,0.148901,-0.18580684,27.5625,28.8125,27.875,31.5,33.4375,34.1875
0.026052501,-1.6558847,-0.29843843,-0.63600534,-0.00036210794,0.060834188,-0.12640199,-0.37292215,-0.32816324,0.059791155,-3.0783129,0.62477183,-0.00069733197,-0.010391269,0.0037391868,-0.0032993353,0.0022860426,-0.0051436643,0.0037588915,0.44800055,-1.4704962,2.0095193,-2.1076791,-1.5706495,2.4228804,-0.016586322,0.02003753,-0.01441466,-9.427195e-10,0.00012349547,-0.020333635,-0.7852981,0.24899697,-9.634268,0.7978386,47.678825,-0.72133124,-2.4846914,-3.4204268,-0.46526474,0.14213338,-0.17786473,27.5625,28.8125,27.875,31.5,33.4375,34.1875
0.028052133,-1.4889262,0.10017896,-0.3837807,-0.028225457,0.07578977,-0.1422547,-0.37296915,-0.32816008,0.05982523,-3.0783396,0.6247577,-0.0005551344,-0.011570128,0.0034936585,-0.002162454,0.0011700253,-0.0028525917,0.0030350487,0.4479764,-1.4705083,2.0094573,-2.107691,-1.5706857,2.4228442,-0.017202519,0.019437712,-0.016363993,-6.1552846e-11,0.00013457912,-0.020224923,-0.7469909,0.19153613,-9.634268,0.7978386,47.658226,-0.80762845,-2.3681607,-3.4449103,-0.45997214,0.14635177,-0.17837067,27.5625,28.8125,27.875,31.5,33.4375,34.1875
0.030051665,-1.8136773,-0.45212194,-0.4292492,-0.027741259,0.082649186,-0.14876582,-0.37298593,-0.32817477,0.05981319,-3.0783882,0.62476844,-0.0006395205,-0.012890281,0.0034136458,-0.0019903942,0.000913956,-0.0023362935,0.0021422063,0.44793996,-1.4704477,2.009421,-2.107703,-1.5706137,2.4228082,-0.018254176,0.021284433,-0.018785546,-4.0189614e-12,0.0001361738,-0.020381996,-0.7469909,0.095768064,-9.653421,0.7553206,47.693153,-0.7366588,-2.3895683,-3.4051328,-0.4665698,0.1556778,-0.18982658,27.5625,28.8125,27.875,31.5,33.4375,34.1875
0.032052286,-1.7352366,-0.48259485,-0.28506923,-0.016305484,0.08766318,-0.16542977,-0.3730259,-0.3281598,0.05981533,-3.0783587,0.62482065,-0.0006164449,-0.0138541,0.003528274,-0.0019071257,0.0006757187,-0.0022375018,0.0014510597,0.4478916,-1.4703995,2.0093606,-2.107691,-1.5706376,2.4227962,-0.019459616,0.022526372,-0.020375298,0.00015444015,0.00030469388,-0.020895533,-0.63206923,0.05746084,-9.615114,0.7463667,47.68599,-0.7953706,-2.3553853,-3.3740664,-0.4700584,0.14496334,-0.18692668,27.5625,28.8125,27.875,31.5,33.4375,34.1875
0.03405234,-1.5533489,-0.29773694,-0.37721846,0.011874807,0.08193282,-0.1764421,-0.37305,-0.32816288,0.059799355,-3.0783803,0.62472874,-0.00064158754,-0.014952744,0.0034581164,-0.0013140263,7.1015725e-06,-0.0009878535,0.0017048281,0.4478673,-1.4703275,2.0093238,-2.1077154,-1.5706257,2.4227118,-0.02036426,0.02290396,-0.02214596,0.00013148705,0.00036142516,-0.02205294,-0.47884035,0.076614454,-9.5385,0.8179876,47.684196,-0.78249013,-2.2972066,-3.3514585,-0.46260384,0.13289422,-0.1977737,27.5625,28.8125,27.875,31.5,33.4375,34.1875
0.03605263,-1.5809643,0.11657593,-0.5561838,0.036818173,0.053788494,-0.19337638,-0.37310386,-0.32814613,0.05980928,-3.078377,0.624805,-0.00058642734,-0.016180879,0.0034037293,-0.0008958999,-0.00052654534,3.0348812e-05,0.0017675548,0.4477949,-1.4702911,2.0092638,-2.1077268,-1.5706376,2.4226875,-0.021400496,0.023879923,-0.024148399,8.585165e-06,0.00039715937,-0.02315057,-0.34476507,0.019153614,-9.481039,0.7620334,47.698532,-0.7401259,-2.414237,-3.3629394,-0.46755165,0.13784224,-0.18728562,27.5625,28.8125,27.875,31.5,33.4375,34.1875
0.038052764,-0.9232338,0.33457378,-0.5255949,0.046643518,0.036714554,-0.20632319,-0.37313274,-0.32814917,0.05981564,-3.078372,0.62478465,-0.0005740877,-0.017428556,0.0035635952,-0.00045808573,-0.0009829871,0.0010086913,0.0015190489,0.44778237,-1.4702429,2.0091908,-2.107703,-1.5706495,2.422663,-0.022823345,0.024585854,-0.025926199,5.6054995e-07,0.00038058037,-0.0243237,-0.24899697,-0.038307227,-9.500193,0.82022345,47.71554,-0.831881,-2.3338645,-3.331481,-0.45800334,0.15472825,-0.18002947,27.5625,28.8125,27.875,31.5,33.4375,34.1875
0.040051658,-0.31420326,0.3353515,-0.6163468,0.04987902,0.033051547,-0.20396079,-0.3731868,-0.32814744,0.059819613,-3.0784023,0.6248673,-0.0005103739,-0.01856134,0.0036586293,2.8033479e-05,-0.0015130648,0.0020446249,0.0019833194,0.44772193,-1.4701948,2.0091426,-2.107763,-1.5706376,2.4226503,-0.024046455,0.025070516,-0.027573641,3.6599904e-08,0.00040713476,-0.026010046,-0.19153613,-0.114921674,-9.404425,0.779936,47.72271,-0.7950754,-2.284073,-3.3333616,-0.44559342,0.1463202,-0.16917336,27.5625,28.8125,27.875,31.5,33.4375,34.1875
0.0420522,0.32413295,0.2697092,-0.60342544,0.03527226,0.03273121,-0.19935505,-0.37320727,-0.32814234,0.059809413,-3.0784092,0.6247722,-0.0005667953,-0.019631723,0.003805059,0.00020169886,-0.0017207522,0.0025083413,0.0026413712,0.4476856,-1.4701346,2.0090945,-2.1077392,-1.5706257,2.4225538,-0.025281066,0.026179744,-0.02919059,2.389712e-09,0.00038831917,-0.027901543,-0.1340753,-0.19153613,-9.481039,0.7709874,47.703903,-0.7333306,-2.2511241,-3.377843,-0.44491145,0.1468977,-0.16413203,27.5625,28.8125,27.875,31.5,33.4375,34.1875
0.044051927,-0.1956053,-0.48052534,-0.49895936,0.02530538,0.014019542,-0.18363766,-0.37324485,-0.32812402,0.059811875,-3.0783958,0.624789,-0.0005560056,-0.020887686,0.004039916,0.0002045592,-0.0017831315,0.002672221,0.0031573842,0.44762498,-1.470098,2.0090458,-2.1077268,-1.5706376,2.4225054,-0.026849052,0.02790275,-0.031088838,1.5603112e-10,0.00036863692,-0.029984092,-0.11492168,-0.095768064,-9.442732,0.8291774,47.686886,-0.6760888,-2.3036137,-3.343287,-0.42760426,0.16048709,-0.14854597,27.5625,28.8125,27.875,31.5,33.4375,34.1875
0.04605208,-0.086010255,-0.8423283,-0.52864385,0.005964183,0.022961615,-0.18119387,-0.37327233,-0.3281137,0.059802968,-3.078373,0.6247836,-0.00057405466,-0.021856677,0.0042381515,0.00035183772,-0.0019570251,0.003065766,0.003517283,0.44758868,-1.4700378,2.0089977,-2.1077154,-1.5706495,2.4224687,-0.028088687,0.028837988,-0.03245462,1.0187718e-11,0.00035068888,-0.031582635,-0.11492168,0.095768064,-9.481039,0.7665104,47.693153,-0.70066917,-2.2626963,-3.2845707,-0.42951292,0.14374627,-0.1312324,27.5625,28.8125,27.875,31.5,33.4375,34.1875
0.048051827,-0.690424,-0.5920143,-0.5182073,-0.012851682,0.0073277173,-0.17483176,-0.37333065,-0.32810763,0.059814822,-3.0783927,0.62480634,-0.00055623957,-0.022918824,0.0044304114,0.00088843383,-0.002482842,0.0041919383,0.004298697,0.4475161,-1.4699779,2.0089018,-2.107703,-1.5706376,2.4224079,-0.029399121,0.02894713,-0.033806376,6.651852e-13,0.00033439725,-0.033673618,-0.019153614,0.095768064,-9.442732,0.7642693,47.707485,-0.6755042,-2.1613197,-3.330495,-0.42718685,0.14954151,-0.12578596,27.5625,28.8125,27.875,31.5,33.4375,34.1875
0.050051745,0.050243385,-0.66887945,-0.5957708,-0.017440343,0.03092295,-0.18315507,-0.3733546,-0.3280807,0.05978538,-3.0783327,0.6248132,-0.0006752115,-0.023833394,0.0048132925,0.0010196823,-0.0027305472,0.0044746003,0.0040609404,0.44744366,-1.469882,2.0088532,-2.1076553,-1.5706376,2.4223473,-0.031011876,0.029545069,-0.03476682,4.3431835e-14,0.00042965845,-0.035048187,-0.019153614,0.11492168,-9.557653,0.7665104,47.705692,-0.64580756,-2.0944448,-3.3729327,-0.42001706,0.16452211,-0.1165702,27.5625,28.8125,27.875,31.5,33.4375,34.1875
0.05205251,-0.35453793,-0.88765115,-0.60557634,-0.017040279,0.0127096,-0.1770225,-0.37342104,-0.32806805,0.059800215,-3.0783613,0.6248185,-0.00061589916,-0.024277685,0.004977318,0.0010056985,-0.002498644,0.004001439,0.0048774835,0.4473595,-1.4698337,2.0087688,-2.1076667,-1.5706376,2.422263,-0.03171573,0.030401725,-0.03584743,0.00075073476,0.00042587845,-0.036567993,0.05746084,0.28730422,-9.5385,0.77545905,47.72271,-0.70650744,-2.1022274,-3.4168658,-0.40717733,0.15808064,-0.093481466,27.5625,28.8125,27.875,31.5,33.4375,34.1875
0.054052014,-0.00231004,-1.1822164,-0.75522834,-0.018220851,0.014882955,-0.1798386,-0.3734512,-0.3280632,0.05980537,-3.0783904,0.62474686,-0.0005867384,-0.025430711,0.005150688,0.001455041,-0.0027255237,0.0045465766,0.006292462,0.447323,-1.4698094,2.008733,-2.1076787,-1.5706376,2.422178,-0.033063065,0.031202711,-0.03791111,0.0014235735,0.00039124407,-0.039329063,-0.038307227,0.3256114,-9.519346,0.784413,47.7245,-0.7219008,-2.006679,-3.4157665,-0.41436327,0.16167861,-0.09141958,27.5625,28.8125,27.875,31.5,33.4375,34.1875
0.056052238,-0.023108004,-0.89772,-0.6392237,-0.028568363,0.015901973,-0.18351963,-0.37352288,-0.32805714,0.05981815,-3.0784218,0.6247154,-0.0004741657,-0.026152011,0.0052836407,0.0012709771,-0.0025883086,0.0043336223,0.0057239044,0.44726261,-1.4697489,2.0086482,-2.1077263,-1.5706614,2.422094,-0.03394142,0.032657303,-0.03907899,0.0013873812,0.00036006945,-0.039637834,-0.05746084,0.28730422,-9.634268,0.7150385,47.689575,-0.64526,-2.0596619,-3.364985,-0.4156401,0.1523501,-0.08472398,27.5625,28.8125,27.875,31.5,33.4375,34.1875
0.05805181,-0.40865645,-1.4385824,-0.64752805,-0.026726589,0.021697704,-0.18014854,-0.37356395,-0.328043,0.059790097,-3.0784132,0.6247337,-0.0006086641,-0.026965706,0.005198243,0.0017871594,-0.0031051524,0.005461682,0.0045931516,0.4471664,-1.4696292,2.0085757,-2.1077025,-1.5706137,2.4220104,-0.03449586,0.032789577,-0.040400863,0.0013384371,0.00033337987,-0.039060675,0.0,0.30645782,-9.576807,0.8157518,47.71286,-0.71796083,-2.0246632,-3.4511113,-0.42068613,0.15372278,-0.075099796,27.5625,28.8125,27.875,31.5,33.4375,34.1875
0.06005249,-0.6857141,-1.3619354,-0.61862266,-0.035281703,0.025542332,-0.18220037,-0.37363145,-0.32803065,0.059822418,-3.078447,0.62468266,-0.0004685352,-0.028005825,0.00513296,0.0020977512,-0.0034555027,0.0061111706,0.004368086,0.4471061,-1.4696168,2.0084908,-2.107715,-1.5706495,2.421914,-0.03533503,0.033846073,-0.042295262,0.0014376392,0.0003680914,-0.039673544,-0.076614454,0.3256114,-9.595961,0.85155696,47.72719,-0.68568337,-2.017037,-3.4644933,-0.38806802,0.17834376,-0.08702041,27.5625,28.8125,27.875,31.5,33.4375,34.1875
0.062052324,-0.88184595,-1.2828872,-0.6413566,-0.030217621,0.036227174,-0.1763368,-0.3736716,-0.32800493,0.059809472,-3.0783858,0.6246899,-0.0004960597,-0.02902186,0.0054139844,0.002017409,-0.0034297346,0.005976179,0.0037515466,0.4470458,-1.4695326,2.0084198,-2.1076787,-1.5706857,2.4218662,-0.036802508,0.035364978,-0.04381097,0.0015656379,0.00039830265,-0.04052346,-0.15322891,0.28730422,-9.576807,0.7150385,47.694054,-0.71127677,-2.0063176,-3.4679966,-0.3881169,0.18032336,-0.076150335,27.5625,28.8125,27.875,31.5,33.4375,34.1875
0.06405183,-0.91466534,-0.9047026,-0.67021555,-0.021816807,0.03783769,-0.17719914,-0.37374687,-0.32800955,0.05982285,-3.0784357,0.6247367,-0.0004705451,-0.029716194,0.0051905466,0.002057776,-0.0034358453,0.0059043905,0.005463189,0.4469616,-1.4694482,2.008299,-2.1076906,-1.5706495,2.421805,-0.037028506,0.036893763,-0.045675714,0.0019648084,0.0004333804,-0.042459913,-0.22984336,0.2681506,-9.557653,0.779936,47.701214,-0.718943,-1.9834547,-3.4214215,-0.399136,0.18790114,-0.07196894,27.5625,28.8125,27.875,31.5,33.4375,34.1875
0.066052325,-0.71047175,-0.4472723,-0.47463515,-0.019132128,0.04471499,-0.18177657,-0.37379962,-0.3280224,0.059831247,-3.0785072,0.6246364,-0.00046123433,-0.030582035,0.0052308636,0.0024652556,-0.0038485706,0.006192432,0.0057373256,0.44691333,-1.4693761,2.0082033,-2.107702,-1.5706133,2.421685,-0.03805095,0.037488833,-0.047430556,0.0026870014,0.00068023696,-0.043756023,-0.21068975,0.19153613,-9.557653,0.72622824,47.667187,-0.7627795,-1.9251919,-3.5373316,-0.40363705,0.17690189,-0.06086715,27.5625,28.8125,27.875,31.5,33.4375,34.1875
0.06805186,-0.9782489,-0.16997424,-0.23169269,-0.007105858,0.037211183,-0.17943189,-0.3738739,-0.32802188,0.059860796,-3.0785408,0.62464446,-0.00035930943,-0.031173512,0.0049280897,0.0022148783,-0.0045495075,0.0053979736,0.0034495362,0.44685307,-1.4693274,2.0080822,-2.107702,-1.5706252,2.4216256,-0.038672436,0.03936476,-0.04892405,0.0027143338,0.0016567967,-0.042090293,-0.24899697,0.28730422,-9.500193,0.78217715,47.701214,-0.7820827,-1.9574718,-3.460619,-0.3799687,0.18106316,-0.08541253,27.5625,28.8125,27.875,31.5,33.4375,34.1875
0.0700525,-0.7487933,-0.16834058,-0.17355041,-0.00018903142,0.043094452,-0.18312493,-0.37394166,-0.32799074,0.05984831,-3.0785084,0.6246962,-0.00040555754,-0.03229479,0.004721785,0.0021987618,-0.00531039,0.0053585405,0.0019841343,0.44673273,-1.4692191,2.0079863,-2.1076782,-1.5706247,2.4215417,-0.039765414,0.041342035,-0.051023614,0.0025412273,0.0023546454,-0.041717634,-0.28730422,0.22984336,-9.423578,0.75084364,47.71286,-0.7902889,-1.9350755,-3.403207,-0.3638002,0.16335548,-0.11630429,27.5625,28.8125,27.875,31.5,33.4375,34.1875
0.07205201,-1.1840992,-0.42536154,-0.28699827,0.013857282,0.037070367,-0.17603876,-0.37401682,-0.3279886,0.05986453,-3.078545,0.6246263,-0.00036038502,-0.033540606,0.0043041506,0.0027722174,-0.006385561,0.00667732,0.0029003597,0.44666052,-1.4691347,2.0078537,-2.1076663,-1.5706247,2.4214213,-0.04036901,0.04232972,-0.053355,0.0022296791,0.0027504875,-0.043236468,-0.24899697,0.095768064,-9.385271,0.7777002,47.716442,-0.85171044,-1.9215772,-3.437881,-0.37349328,0.14638002,-0.12116201,27.5625,28.8125,27.875,31.5,33.4375,34.1875
0.07405276,-0.68375254,0.035563245,-0.07357434,0.003186427,0.05420196,-0.17970277,-0.3740772,-0.32796824,0.0598711,-3.0785315,0.6246819,-0.00033440487,-0.034913033,0.005213237,0.0023664178,-0.005745787,0.006204874,0.0010181156,0.4465756,-1.469074,2.0077693,-2.1076543,-1.5706366,2.421373,-0.043060407,0.04436653,-0.05465683,0.0021980978,0.002375622,-0.044043794,-0.22984336,0.05746084,-9.346964,0.7665104,47.694054,-0.7674421,-1.9397807,-3.39177,-0.35392252,0.17060025,-0.12166755,27.5625,28.8125,27.875,31.5,33.4375,34.1875
0.076052114,-1.1996402,0.17857508,-0.07406574,-0.0006691478,0.046221748,-0.17612526,-0.37414217,-0.32797647,0.05987354,-3.0785892,0.6247127,-0.0003614365,-0.035637185,0.005088648,0.0028193705,-0.0058900444,0.00701346,0.0014221811,0.44649148,-1.468978,2.007661,-2.1076663,-1.5705765,2.4213006,-0.043323923,0.0447945,-0.056256663,0.002581966,0.002155571,-0.044710018,-0.34476504,0.11492168,-9.32781,0.7553206,47.678825,-0.7910087,-1.9321259,-3.4090083,-0.34164494,0.16895574,-0.1385169,27.5625,28.8125,27.875,31.5,33.4375,34.1875
0.07805183,-1.7091584,-0.56242627,-0.019368345,0.015574636,0.03868409,-0.16827583,-0.3742197,-0.32795185,0.05987277,-3.0785627,0.62464803,-0.00031628538,-0.036748875,0.0043497323,0.0034049242,-0.0060390076,0.0078155305,0.0025411185,0.44640788,-1.4688697,2.007541,-2.1076539,-1.5706252,2.4211802,-0.042787336,0.04665802,-0.059870142,0.003542878,0.0019386942,-0.045289814,-0.4213795,0.1340753,-9.308657,0.76874626,47.687782,-0.8827197,-1.8534614,-3.2754443,-0.3454625,0.15573959,-0.1650492,27.5625,28.8125,27.875,31.5,33.4375,34.1875
0.08005239,-0.6598776,0.19428062,0.0966081,0.005232699,0.06050579,-0.18052858,-0.37428653,-0.3279346,0.0598751,-3.078542,0.624664,-0.00032152492,-0.036430992,0.00568882,0.0013112401,-0.00376886,0.0028435187,0.0011702852,0.44632295,-1.4687726,2.0074208,-2.1076176,-1.5706371,2.421108,-0.04507845,0.050062474,-0.059112303,0.0048446134,0.0020415708,-0.04621061,-0.47884035,0.095768064,-9.346964,0.7105615,47.689575,-0.87035286,-2.0355098,-3.3879046,-0.3514198,0.17978236,-0.18377662,27.5625,28.8125,27.875,31.5,33.4375,34.1875
0.08205228,-0.99385107,-0.2616482,-0.19202101,0.014691689,0.040327385,-0.16630502,-0.37435022,-0.32794207,0.059879303,-3.0786178,0.6246419,-0.00033438113,-0.037752233,0.0057757776,0.002844244,-0.005518275,0.005411304,0.00047779945,0.44623837,-1.4686893,2.007325,-2.107641,-1.5705765,2.421,-0.046743166,0.048284147,-0.06075706,0.005197587,0.0025104927,-0.04718302,-0.36391866,0.095768064,-9.3661175,0.8179876,47.709274,-0.7948886,-1.860878,-3.414753,-0.35101786,0.1626351,-0.20227104,27.5625,28.8125,27.875,31.5,33.4375,34.1875
0.084051795,-1.0567492,-0.42438564,-0.21872738,0.0071727843,0.036888413,-0.16859293,-0.3744442,-0.32793552,0.059896477,-3.078608,0.6246988,-0.00023751584,-0.040835362,0.005530789,0.0043370067,-0.007693492,0.008393466,-0.0019411751,0.44616544,-1.4685811,2.0071666,-2.107641,-1.5706128,2.420964,-0.049512286,0.049762268,-0.06578983,0.005119424,0.0031778957,-0.04753095,-0.38307226,0.095768064,-9.3661175,0.81351066,47.723602,-0.7582693,-1.8281053,-3.3115363,-0.34050503,0.1503768,-0.21560943,27.5625,28.8125,27.875,31.5,33.4375,34.1875
0.08605184,-0.97694594,-0.53440166,-0.10393947,0.0038721722,0.036248248,-0.17348602,-0.37451985,-0.32792088,0.05989377,-3.0786083,0.62465924,-0.00025369888,-0.040478073,0.005547848,0.003454725,-0.0068115513,0.0063841175,-5.2838768e-05,0.44606945,-1.4684607,2.007035,-2.1076171,-1.5706128,2.4208434,-0.049259398,0.05157503,-0.06587069,0.0055806376,0.0032499863,-0.049166378,-0.3256114,0.22984336,-9.289502,0.82022345,47.705692,-0.7215096,-1.84882,-3.247962,-0.3351875,0.15379302,-0.23199403,27.5625,28.8125,27.875,31.5,33.4375,34.1875
0.088052474,-0.6422974,0.05853954,-0.056503836,-0.013178494,0.054327153,-0.17973407,-0.3745999,-0.3279108,0.05992207,-3.0786555,0.6246286,-0.00023423081,-0.040356968,0.005381328,0.0019239943,-0.0055706697,0.0033985134,0.0033989616,0.44596168,-1.4683994,2.006892,-2.1075695,-1.5705885,2.4207106,-0.048940822,0.055536237,-0.06675184,0.005730123,0.0034185448,-0.052298676,-0.30645782,0.19153613,-9.32781,0.7933669,47.728977,-0.8832756,-1.918886,-3.4324236,-0.34189302,0.13701452,-0.24788761,27.5625,28.8125,27.875,31.5,33.4375,34.1875
0.09005207,-0.9400924,-0.31236356,-0.056875,-0.0055942032,0.05356524,-0.18444915,-0.37470213,-0.32789135,0.059921708,-3.07865,0.6246482,-0.00020694155,-0.042736974,0.0057325107,0.0037199545,-0.007240804,0.006271557,0.00010722537,0.44584066,-1.468256,2.006735,-2.107569,-1.5706004,2.4206026,-0.05191365,0.05475152,-0.07023021,0.0066797165,0.0036827095,-0.051978517,-0.28730422,0.21068975,-9.346964,0.7351769,47.74331,-0.7723436,-1.9199905,-3.2617583,-0.3578282,0.13135514,-0.26229542,27.5625,28.8125,27.875,31.5,33.4375,34.1875
0.09205179,-1.306045,-0.4090763,-0.076103166,-0.00995701,0.043059602,-0.1688316,-0.3747874,-0.32790044,0.059946924,-3.078735,0.62462693,-0.00013760664,-0.04352417,0.0059300386,0.0036488215,-0.007139043,0.005611715,-0.0003930814,0.44575617,-1.4681835,2.006603,-2.1075923,-1.5705642,2.420494,-0.053115398,0.05626103,-0.0719157,0.007496416,0.0038785976,-0.052678972,-0.3256114,0.11492168,-9.289502,0.7777002,47.7254,-0.79931957,-1.7215502,-3.2541409,-0.34697574,0.1379936,-0.30115348,27.5625,28.8125,27.875,31.5,33.4375,34.1875
0.09405231,-0.72989655,-0.72743744,-0.113438584,-0.01719242,0.052812256,-0.17052357,-0.37485895,-0.3278646,0.059927996,-3.0786781,0.6246531,-0.00024336885,-0.043778695,0.005954777,0.002742077,-0.0066552195,0.0033462408,0.0005739209,0.44562408,-1.4680388,2.006471,-2.1075208,-1.5705642,2.4203856,-0.053741768,0.059101276,-0.07310562,0.008097378,0.004413595,-0.05427262,-0.28730422,0.24899697,-9.3661175,0.7620334,47.67793,-0.830684,-1.8931274,-3.2544851,-0.36147833,0.11602863,-0.30990306,27.5625,28.8125,27.875,31.5,33.4375,34.1875
0.09605223,-0.9173369,-0.8365637,-0.17294192,-0.027748015,0.049774222,-0.17374839,-0.37495142,-0.32785365,0.059927907,-3.078701,0.6246764,-0.0002501208,-0.04521326,0.005778305,0.003345716,-0.0071061263,0.0050220704,0.0021005813,0.44550386,-1.4679068,2.006326,-2.1075208,-1.5705403,2.420277,-0.05447349,0.06012876,-0.07556374,0.007824401,0.004093415,-0.056528714,-0.3256114,0.24899697,-9.404425,0.8179876,47.74241,-0.82429373,-1.8711505,-3.27,-0.36360797,0.12788138,-0.31431857,27.5625,28.8125,27.875,31.5,33.4375,34.1875
0.09805212,-0.603499,-0.8294685,-0.2771047,-0.028492281,0.051341634,-0.17815113,-0.3750132,-0.3278557,0.05993344,-3.078725,0.6245685,-0.00027879648,-0.045295853,0.0063454397,0.002287121,-0.0057857255,0.0029800818,-0.0006960593,0.44544348,-1.4677981,2.006183,-2.1074731,-1.5705279,2.4201465,-0.055394012,0.062307723,-0.07560175,0.008097202,0.003782342,-0.054651845,-0.30645782,0.3256114,-9.385271,0.83813137,47.728977,-0.82853085,-1.950404,-3.0723417,-0.37415344,0.10690431,-0.357563,27.5625,28.8125,27.875,31.5,33.4375,34.1875
0.10005169,-0.55561715,-0.875053,-0.2811555,-0.03164843,0.052092675,-0.17942813,-0.37513623,-0.32782277,0.059948914,-3.0787117,0.62467986,-0.00019608211,-0.045468185,0.006636084,0.00145935,-0.00471269,0.0017960806,-0.00064418156,0.44528732,-1.4676777,2.006015,-2.1074731,-1.5705527,2.4200616,-0.055767313,0.06427471,-0.07582635,0.007886435,0.0033262738,-0.055075597,-0.22984336,0.34476504,-9.423578,0.7486078,47.728977,-0.878577,-1.9217567,-3.3029299,-0.36822927,0.13404426,-0.42390424,27.5625,28.8125,27.875,31.5,33.4375,34.1875
0.102052286,-1.0823928,-1.0863737,-0.0807884,-0.031592347,0.03576452,-0.17334072,-0.37522778,-0.32781342,0.059945796,-3.0787323,0.6247023,-0.0001770487,-0.047737904,0.006033637,0.002641725,-0.005723997,0.004444206,0.0015631858,0.44517902,-1.4675453,2.005882,-2.107497,-1.5705408,2.4199648,-0.056508888,0.06595639,-0.08041197,0.007966677,0.0030903816,-0.05802112,-0.19153613,0.30645782,-9.289503,0.82022345,47.72808,-0.97621286,-1.9767872,-3.1660886,-0.35595244,0.123628646,-0.43274504,27.5625,28.8125,27.875,31.5,33.4375,34.1875
0.10405184,-0.1307808,-0.23032,-0.13778053,-0.032622583,0.052437272,-0.18945074,-0.37531084,-0.3278042,0.059939053,-3.0787299,0.6247009,-0.000246359,-0.047900375,0.007159438,0.0014271156,-0.004729327,0.0023851718,0.0019359919,0.44507033,-1.467389,2.0057147,-2.1074493,-1.5705165,2.4198556,-0.05874593,0.06750074,-0.0792392,0.007538037,0.0030786288,-0.060631417,-0.11492168,0.3256114,-9.289502,0.84708,47.737934,-0.89230216,-1.9293325,-3.162022,-0.34641552,0.14035144,-0.4511642,27.5625,28.8125,27.875,31.5,33.4375,34.1875
0.106052026,-0.46423373,-0.022559917,-0.18821557,-0.021753205,0.023514442,-0.18137372,-0.3754392,-0.3277937,0.05995444,-3.0787547,0.62466496,-0.00014831894,-0.04880872,0.0052785766,0.002208714,-0.0058384617,0.0044000675,0.0074705,0.44495124,-1.4672326,2.00551,-2.1074612,-1.5705408,2.419711,-0.056100674,0.06953059,-0.08318637,0.0071576503,0.0032070272,-0.063517936,-0.095768064,0.24899697,-9.3661175,0.8224646,47.74062,-1.066622,-2.0614657,-3.2299438,-0.35860124,0.118528776,-0.4626019,27.5625,28.8125,27.875,31.5,33.4375,34.1875
0.10805162,-0.046285115,-0.48670727,-0.16211702,-0.010140996,0.022402357,-0.17538223,-0.37551382,-0.32778448,0.059963662,-3.0787814,0.62457263,-0.00013300136,-0.05008491,0.0056068455,0.0022238872,-0.0059234053,0.004647295,0.009750546,0.44486666,-1.4671363,2.0053775,-2.1074374,-1.5705408,2.4195657,-0.05783184,0.07109301,-0.084927954,0.007077398,0.003174254,-0.06752776,-0.076614454,0.19153613,-9.232041,0.7978386,47.71823,-1.0628595,-1.9909549,-3.1272488,-0.35441267,0.12151122,-0.4476758,27.5625,28.8125,27.875,31.5,33.4375,34.1875
0.11005232,0.15318552,-0.38136244,-0.08404218,-0.013218095,0.021288188,-0.18816748,-0.37565428,-0.32777733,0.05998248,-3.0788362,0.62458223,-8.123745e-05,-0.05159494,0.005990621,0.0023048033,-0.0060149147,0.0052613285,0.011989419,0.44471017,-1.4669678,2.0051491,-2.1074374,-1.5705165,2.4194083,-0.059763744,0.07273073,-0.08685808,0.0067789615,0.0029927434,-0.07169661,-0.05746084,0.19153614,-9.346964,0.8537928,47.71823,-1.0734668,-2.0263498,-3.184461,-0.34127116,0.134645,-0.4479651,27.5625,28.8125,27.875,31.5,33.4375,34.1875
0.11205196,-0.016184777,-0.27491906,-0.29226497,-0.0130973235,0.012569144,-0.18134636,-0.37577307,-0.32775956,0.059995558,-3.0788562,0.6245447,-2.606301e-05,-0.052278157,0.006060046,0.0021603156,-0.005785344,0.005241304,0.016960602,0.44457787,-1.4668238,2.004958,-2.1074255,-1.5705284,2.4192502,-0.060353868,0.074126616,-0.0880538,0.006695826,0.0027946872,-0.07725658,-0.076614454,0.21068975,-9.404425,0.78217715,47.701214,-1.0429151,-2.0521107,-3.1580386,-0.32601047,0.12291793,-0.40371644,27.5625,28.8125,27.875,31.5,33.4375,34.1875
0.114051856,-0.5174604,-0.60393614,-0.28681803,-0.014596404,0.008397197,-0.17624946,-0.37584123,-0.32774115,0.059976574,-3.07884,0.6244807,-8.6241096e-05,-0.053011447,0.0058562565,0.002343587,-0.0058571436,0.0056277104,0.02221575,0.4444819,-1.4666797,2.0048373,-2.1074011,-1.5705284,2.4191165,-0.060545184,0.07527179,-0.08979424,0.0069119646,0.0026867157,-0.082701884,0.05746084,0.22984336,-9.3661175,0.8112748,47.701214,-1.1872917,-2.037622,-3.1388056,-0.3257566,0.113232255,-0.34917897,27.5625,28.8125,27.875,31.5,33.4375,34.1875
0.11605198,-0.84656966,-0.7289099,-0.36071444,-0.012539815,0.011182425,-0.17122743,-0.3759603,-0.32775107,0.05999115,-3.0789032,0.6243185,-5.6688095e-05,-0.053391155,0.0067440853,0.00078670686,-0.0038657042,0.0021703541,0.025421435,0.44438523,-1.4664985,2.0045989,-2.1073768,-1.5705165,2.4189107,-0.06232573,0.07906904,-0.09065862,0.007959184,0.0023787713,-0.08768678,-0.076614454,0.24899697,-9.32781,0.7709874,47.679718,-1.151093,-2.129499,-3.1692686,-0.3326316,0.12725256,-0.306766,27.5625,28.8125,27.875,31.5,33.4375,34.1875
0.118052505,-0.7042325,-1.0164195,-0.3237823,-0.0018749196,0.018757496,-0.17357582,-0.37608412,-0.32771432,0.059992258,-3.078912,0.6243561,-2.3754023e-05,-0.054052148,0.0069056745,0.0021989236,-0.0048203873,0.0043429784,0.029751647,0.44420493,-1.4663557,2.004442,-2.1073892,-1.5705165,2.418753,-0.06314876,0.07672851,-0.091517515,0.008787302,0.002310064,-0.09283998,-0.1340753,0.2681506,-9.3661175,0.82694155,47.70032,-1.1395099,-1.9751792,-3.1172318,-0.3329609,0.13989437,-0.22983795,27.5625,28.8125,27.875,31.5,33.4375,34.1875
0.12005206,-0.000516017,-0.59211934,-0.3391545,-0.016338184,0.039532963,-0.18663493,-0.37616855,-0.32770348,0.05997978,-3.0789416,0.6242085,-0.00011862223,-0.054996498,0.0070882733,0.0017130098,-0.0047188965,0.0032999394,0.030976845,0.44408444,-1.4661872,2.0042741,-2.1073415,-1.5704807,2.4185367,-0.064558335,0.0792603,-0.09324697,0.008972906,0.0026593215,-0.09547406,-0.11492168,0.24899697,-9.385271,0.800085,47.701214,-1.1557069,-1.8669376,-3.238824,-0.34188628,0.1382086,-0.20975852,27.5625,28.8125,27.875,31.5,33.4375,34.1875
0.12205286,-0.44097573,-0.581441,-0.24313785,-0.019060144,0.035464976,-0.17936243,-0.37631813,-0.32770884,0.06002568,3.0789256,-0.62405086,-9.6694486e-05,-0.055617277,0.007620335,0.00010491582,-0.004008742,9.26987e-05,0.030502703,0.4439758,-1.4660658,2.0040462,-2.1073892,-1.5705041,2.4183319,-0.066594996,0.083419636,-0.09413413,0.008897511,0.003408985,-0.09703602,-0.19153613,0.21068975,-9.385271,0.79560274,47.686886,-1.1465168,-2.19653,-3.2396069,-0.3365647,0.1268723,-0.17334744,27.5625,28.8125,27.875,31.5,33.4375,34.1875
0.12405244,-0.687631,-0.11680812,-0.079710804,-0.023713715,0.040103238,-0.184896,-0.37640074,-0.32770133,0.059999466,3.0789962,-0.6239125,2.1159749e-05,-0.056162447,0.0077122333,0.00079337147,-0.004692913,0.0013555125,0.029425902,0.4438797,-1.4658506,2.0038555,-2.1073287,-1.5704926,2.4181406,-0.06728339,0.08245997,-0.09469121,0.008981233,0.0034754607,-0.09664789,-0.19153613,0.17238252,-9.32781,0.784413,47.692257,-1.1873022,-2.0505834,-3.2385335,-0.3382535,0.120982826,-0.16501582,27.5625,28.8125,27.875,31.5,33.4375,34.1875
0.12605228,-0.69703835,-0.17481372,-0.29997754,-0.009993515,0.042158958,-0.18288316,-0.37652445,-0.3276686,0.060004484,3.0789826,-0.62393,3.2539723e-05,-0.05686446,0.008276394,-3.665017e-05,-0.0036295222,3.6389833e-05,0.02758975,0.44369912,-1.465694,2.0036633,-2.1072934,-1.5704807,2.4179728,-0.06867832,0.084996544,-0.09560167,0.009006263,0.0030800228,-0.096205175,-0.21068975,0.076614454,-9.385271,0.7777002,47.66808,-1.1633166,-2.0608482,-3.310024,-0.3376773,0.12154207,-0.15030158,27.5625,28.8125,27.875,31.5,33.4375,34.1875
0.12805185,-1.2394012,-0.32495952,-0.27929714,0.008016971,0.03028372,-0.17498064,-0.37664023,-0.327662,0.060007807,3.0789711,-0.6238153,2.4476007e-05,-0.058235716,0.0082633905,0.00040684958,-0.004428131,0.0013572398,0.021113459,0.4435667,-1.465526,2.0034707,-2.1072934,-1.5704569,2.4177704,-0.06996136,0.08589115,-0.097494684,0.00847081,0.0032316854,-0.09101069,-0.30645782,0.076614454,-9.308656,0.8179876,47.70032,-1.1556847,-2.1503215,-3.2813606,-0.3187986,0.12503509,-0.1801922,27.5625,28.8125,27.875,31.5,33.4375,34.1875
0.13005178,-0.58355594,0.56394,-0.049354315,0.0039146906,0.052809864,-0.18551946,-0.37675208,-0.32764083,0.06000231,3.0790095,-0.62371063,3.076425e-05,-0.059815824,0.008094943,0.00096940884,-0.0047158683,0.002304467,0.016051812,0.4434343,-1.4653457,2.003279,-2.1072686,-1.5704683,2.417568,-0.07093604,0.08761564,-0.10084675,0.009119112,0.0030786847,-0.086921506,-0.40222588,0.11492168,-9.232041,0.779936,47.698532,-1.2150953,-2.0467541,-3.3048263,-0.32589573,0.112988755,-0.23285958,27.5625,28.8125,27.875,31.5,33.4375,34.1875
0.13205227,-0.97879493,0.2715944,-0.008344384,0.01624501,0.048149604,-0.17017359,-0.37689462,-0.32762346,0.060010895,3.0789678,-0.623722,-1.778837e-05,-0.059581395,0.008816399,-9.4184456e-05,-0.004681079,6.6106935e-05,0.014059689,0.44326583,-1.4651657,2.003064,-2.1072814,-1.5704564,2.417412,-0.07267708,0.08855445,-0.09937377,0.008742517,0.0040143803,-0.08667225,-0.4213795,0.05746084,-9.289502,0.7709874,47.66987,-1.246793,-2.099099,-3.343847,-0.32478923,0.11577764,-0.2631745,27.5625,28.8125,27.875,31.5,33.4375,34.1875
0.13405184,-0.98788685,0.2967267,-0.1161043,0.012301266,0.05577821,-0.18246754,-0.37699747,-0.32760188,0.060021438,3.078982,-0.6236497,-1.7728438e-05,-0.0615139,0.008728314,0.0005801041,-0.0054957634,0.0014939724,0.010307569,0.44313312,-1.4650333,2.0028827,-2.1072328,-1.5704564,2.4172325,-0.07429896,0.0901828,-0.10274891,0.008850052,0.0041313744,-0.08453998,-0.30645782,-0.05746084,-9.251195,0.8247004,47.66271,-1.2047131,-2.0242333,-3.4086857,-0.314888,0.09304677,-0.30930534,27.5625,28.8125,27.875,31.5,33.4375,34.1875
0.13605174,-1.3240557,0.24144997,-0.15478088,0.0022290493,0.051584844,-0.17757733,-0.37712434,-0.32760283,0.060035896,3.078945,-0.623565,-1.8421899e-06,-0.061678465,0.009569651,0.0003417311,-0.0048511922,0.00072776695,0.01042448,0.44298878,-1.4648536,2.0026433,-2.107197,-1.5704082,2.41704,-0.07582504,0.09014687,-0.10230851,0.00941994,0.0038823439,-0.08618299,-0.49799395,0.0,-9.346964,0.7284641,47.653748,-1.2281804,-2.0168717,-3.3431191,-0.3102875,0.10622526,-0.3149828,27.5625,28.8125,27.875,31.5,33.4375,34.1875
0.13805237,-1.6508693,-0.4015527,-0.34147674,0.009886282,0.050046884,-0.17268354,-0.37725192,-0.32756528,0.060025238,3.0789754,-0.6235528,-5.742554e-06,-0.062100682,0.010309337,-0.0011023508,-0.0030386741,-0.002550405,0.010115612,0.4428201,-1.4646606,2.0024521,-2.1071842,-1.5704321,2.41686,-0.07740431,0.09394385,-0.10345128,0.010503975,0.003648633,-0.08745219,-0.5554548,0.019153614,-9.270349,0.80679786,47.687782,-1.2284228,-2.0954967,-3.4356213,-0.32815439,0.110923454,-0.32916117,27.5625,28.8125,27.875,31.5,33.4375,34.1875
0.140052,-1.5343616,-0.049664848,-0.2053732,0.0025512397,0.053313125,-0.17707072,-0.37738332,-0.32755488,0.06002896,3.0789833,-0.6234972,-7.658663e-05,-0.063799955,0.010418903,0.0007724762,-0.004642924,0.001653969,0.008235836,0.44269967,-1.4644699,2.0022361,-2.107197,-1.5704569,2.4167042,-0.078861065,0.09169048,-0.10515813,0.009977473,0.003295488,-0.08702779,-0.5554548,0.019153614,-9.346964,0.80679786,47.73256,-1.172322,-1.8349748,-3.378362,-0.31305778,0.102387704,-0.35119176,27.5625,28.8125,27.875,31.5,33.4375,34.1875
0.14205255,-1.5034488,0.19651017,-0.18783645,0.009800461,0.0557154,-0.17875007,-0.37752026,-0.3275265,0.060020488,3.078979,-0.6234953,-2.1295642e-05,-0.06517831,0.010110491,0.00028860735,-0.0040765754,0.0007648155,0.010499589,0.44250754,-1.4642527,2.0020077,-2.1071603,-1.5704325,2.4165115,-0.07938946,0.095862634,-0.10878591,0.010482687,0.0031565358,-0.08981722,-0.51714754,-0.038307227,-9.442732,0.8157518,47.704796,-1.2028335,-1.8890121,-3.4311323,-0.31216156,0.102132455,-0.3518445,27.5625,28.8125,27.875,31.5,33.4375,34.1875
0.14405216,-1.5557172,0.25582448,-0.103438854,0.010882039,0.0553704,-0.17913356,-0.3776288,-0.32749638,0.06001887,3.0789664,-0.6235339,3.1823365e-05,-0.06579992,0.012263243,-0.0003549926,-0.003617244,-0.00034795707,0.005181968,0.442338,-1.4640975,2.0018294,-2.1071131,-1.5704087,2.4163678,-0.08399023,0.09525751,-0.10656432,0.010070938,0.003219709,-0.08910185,-0.49799395,-0.11492168,-9.385271,0.7620334,47.65643,-1.0891012,-1.8992436,-3.5522337,-0.32846525,0.10073428,-0.39335376,27.5625,28.8125,27.875,31.5,33.4375,34.1875
0.14605245,-0.9390736,0.17117022,-0.23056999,0.008103321,0.06765723,-0.18390615,-0.3777617,-0.32746404,0.06001233,3.0789871,-0.6234953,5.9216305e-05,-0.06797933,0.010550165,0.0013996034,-0.0054715234,0.0035122817,0.012394693,0.44215855,-1.4638933,2.001611,-2.1070774,-1.5704087,2.4161618,-0.08270058,0.096811585,-0.11229261,0.00996398,0.0032299897,-0.09502141,-0.4213795,0.0,-9.442732,0.8247004,47.72002,-1.1655622,-1.8532085,-3.3983727,-0.30947092,0.09764631,-0.3920909,27.5625,28.8125,27.875,31.5,33.4375,34.1875
0.1480521,-0.9643521,0.06923305,-0.085965365,0.0038221434,0.07036603,-0.18753251,-0.3779139,-0.32743812,0.060012728,3.07901,-0.623403,8.262922e-06,-0.06876623,0.0113628,0.00057315413,-0.004922867,0.0019255711,0.013067563,0.44198972,-1.4636768,2.0013711,-2.1070774,-1.5704321,2.4159327,-0.08501306,0.099014744,-0.11285723,0.009992358,0.0034149364,-0.09800632,-0.36391866,0.076614454,-9.461885,0.8672237,47.71823,-1.1826024,-1.9332588,-3.4826927,-0.32152423,0.10846965,-0.35861534,27.5625,28.8125,27.875,31.5,33.4375,34.1875
0.15005165,-1.2752509,0.20084266,-0.43406808,-0.006429466,0.06121504,-0.18861994,-0.37803748,-0.327428,0.060022604,3.0789557,-0.62339145,4.9720682e-05,-0.07099289,0.012606647,0.0010238895,-0.005382268,0.0029490143,0.014353693,0.44182,-1.463509,2.0011551,-2.1070416,-1.570372,2.4157627,-0.08927762,0.09978451,-0.11475888,0.0100100925,0.0033908472,-0.10355574,-0.4213795,0.15322891,-9.442732,0.7866488,47.716442,-0.94806856,-1.8423812,-3.3761106,-0.31297967,0.088041484,-0.3247407,27.5625,28.8125,27.875,31.5,33.4375,34.1875
0.15205218,-1.3012885,-0.609757,-0.6803376,-0.010496007,0.06262835,-0.18221007,-0.37817082,-0.3273977,0.060000252,3.079017,-0.62324476,8.3507075e-05,-0.07181697,0.012010861,0.0015683334,-0.005667797,0.004369317,0.021705432,0.44165254,-1.463269,2.0009387,-2.1070292,-1.5703844,2.415496,-0.08862124,0.10065813,-0.11698115,0.0099542355,0.0030343845,-0.1102493,-0.38307226,0.22984336,-9.519346,0.7732232,47.68599,-1.1017457,-1.8574939,-3.3821297,-0.30803806,0.10848601,-0.2394217,27.5625,28.8125,27.875,31.5,33.4375,34.1875
0.15405221,-1.1515071,-0.5990553,-0.55693305,-0.031299744,0.074687354,-0.18254702,-0.3783395,-0.3273642,0.060028967,3.0789914,-0.6232764,1.2628944e-05,-0.07353802,0.012630995,0.0020200368,-0.005806434,0.005079232,0.025489824,0.44144768,-1.4630889,2.000663,-2.106981,-1.5703968,2.4153144,-0.09115315,0.10177404,-0.11940267,0.010559531,0.002859691,-0.11656384,-0.49799395,0.22984336,-9.5385,0.8157518,47.707485,-0.9978593,-1.7488391,-3.3529124,-0.32725662,0.107375875,-0.16481046,27.5625,28.8125,27.875,31.5,33.4375,34.1875
0.15605216,-1.7267745,-1.1221986,-0.7227338,-0.03104247,0.058574293,-0.17844772,-0.37847278,-0.3273528,0.060021177,3.079013,-0.6231067,5.167907e-05,-0.07451516,0.01314034,0.0020328148,-0.005507417,0.0052386094,0.028154433,0.4412911,-1.462861,2.0004237,-2.1069572,-1.5703725,2.4150493,-0.09271073,0.10276785,-0.12059438,0.010746267,0.00251906,-0.12078484,-0.51714754,0.24899697,-9.557653,0.7777002,47.68599,-0.9369926,-1.6380167,-3.378843,-0.3291407,0.12676944,-0.10658979,27.5625,28.8125,27.875,31.5,33.4375,34.1875
0.15805185,-1.3295907,-0.7541743,-0.77354044,-0.04114865,0.06960725,-0.1892938,-0.37866172,-0.3273398,0.06007884,3.078955,-0.62299967,-0.00011156809,-0.07561168,0.013462844,0.0011691409,-0.005091942,0.0037429237,0.027236987,0.44109854,-1.462704,2.0001128,-2.1069334,-1.5703725,2.4147975,-0.094426446,0.10621396,-0.12241388,0.010649279,0.0027950448,-0.12158153,-0.49799395,0.2681506,-9.634268,0.7866488,47.716442,-0.9874487,-1.683355,-3.395063,-0.32824892,0.10808874,-0.06683773,27.5625,28.8125,27.875,31.5,33.4375,34.1875
0.1600524,-1.1548598,-0.71341926,-0.7004679,-0.0451167,0.06957557,-0.18306299,-0.37879866,-0.3272977,0.060056817,3.078992,-0.6229709,-7.7414414e-05,-0.07678485,0.013989738,0.0008775126,-0.005074267,0.0036465486,0.023140619,0.44090572,-1.4624759,1.9999088,-2.1069214,-1.5703844,2.4145823,-0.09642835,0.10792428,-0.12354904,0.010167629,0.0028130386,-0.119486175,-0.4213795,0.19153613,-9.730036,0.78217715,47.692257,-0.7427789,-1.6892029,-3.3381577,-0.31843406,0.117354676,-0.068282485,27.5625,28.8125,27.875,31.5,33.4375,34.1875
0.16205227,-1.295315,-0.57324165,-0.60572463,-0.039574895,0.06577462,-0.18194157,-0.37896374,-0.32727787,0.060053863,3.0789902,-0.6228959,-7.948457e-05,-0.07791114,0.0135885,-6.362485e-05,-0.005126346,0.0025064333,0.018984906,0.44071373,-1.4622227,1.9996332,-2.10691,-1.5703725,2.4143438,-0.09698773,0.11224978,-0.1260016,0.009303266,0.003341015,-0.1158882,-0.49799395,0.28730422,-9.634268,0.81351066,47.71017,-0.8817273,-2.0220537,-3.2961082,-0.28951538,0.11914128,-0.07722098,27.5625,28.8125,27.875,31.5,33.4375,34.1875
0.16405192,-1.1315812,-0.79903597,-0.63118535,-0.024342833,0.06280704,-0.17933783,-0.37911907,-0.3272203,0.060047865,3.0790138,-0.6229058,-8.850098e-05,-0.08023261,0.0149677405,0.0009259652,-0.0064232224,0.004761795,0.009937122,0.44048384,-1.4620196,1.9994172,-2.1068866,-1.5703963,2.4141173,-0.10172049,0.11137263,-0.12720235,0.00878493,0.0035478242,-0.111572824,-0.4405331,0.2873042,-9.519346,0.8090337,47.686886,-0.58593607,-1.7157629,-3.3414698,-0.29677036,0.090035304,-0.14303586,27.5625,28.8125,27.875,31.5,33.4375,34.1875
0.16605265,-1.272851,-0.9213968,-0.60393286,-0.021737795,0.05475122,-0.17243251,-0.3792815,-0.32721037,0.060052942,3.0789456,-0.6228926,-7.6855635e-05,-0.08094555,0.013420378,0.0011409298,-0.0066242283,0.0055511435,0.008413876,0.4402809,-1.4617907,1.9991525,-2.1068866,-1.5703367,2.413915,-0.09930208,0.11424807,-0.13090478,0.008819483,0.0033900267,-0.1076283,-0.4405331,0.22984336,-9.442732,0.81351066,47.681515,-0.8598068,-1.9513562,-3.3752112,-0.27331775,0.11241272,-0.18696696,27.5625,28.8125,27.875,31.5,33.4375,34.1875
0.1680523,-1.0596932,-0.15323886,-0.3630102,-0.030624775,0.05376352,-0.17779444,-0.37946048,-0.3271518,0.06006362,3.0789897,-0.6228829,-0.00014533215,-0.080748305,0.014215461,-0.00014307516,-0.005647707,0.003179319,0.005750731,0.44005245,-1.4615747,1.9988784,-2.1068385,-1.5703963,2.413675,-0.10065015,0.1159185,-0.12977982,0.0085797515,0.003521352,-0.10631373,-0.28730422,0.24899697,-9.3661175,0.7933669,47.703903,-0.83368564,-1.8223748,-3.3533268,-0.27047658,0.1155301,-0.24123427,27.5625,28.8125,27.875,31.5,33.4375,34.1875
0.17005205,-0.5927797,0.01354281,-0.37109745,-0.020080546,0.06180085,-0.17747009,-0.37963104,-0.32716456,0.06007151,3.0789144,-0.6227926,-0.00017923921,-0.08233122,0.013293219,0.0007930824,-0.0070952815,0.0053858003,0.0029885704,0.43988454,-1.4613227,1.9985899,-2.1068742,-1.5703362,2.4134605,-0.10052504,0.1172383,-0.13332252,0.008195006,0.00389082,-0.10342433,-0.2681506,0.19153614,-9.423578,0.84708,47.70659,-0.85501134,-1.8789512,-3.25846,-0.2868994,0.11222428,-0.26828414,27.5625,28.8125,27.875,31.5,33.4375,34.1875
0.1720516,-0.802723,-0.006740489,-0.21144857,-0.0066332137,0.04466818,-0.17715994,-0.3797865,-0.32714203,0.060089927,3.078905,-0.62273157,-0.00022295305,-0.082501166,0.013256692,0.00018495067,-0.0066918745,0.0038716728,0.0027910662,0.43970457,-1.4611303,1.9983267,-2.1068385,-1.5703362,2.4132438,-0.1007512,0.1192694,-0.13431153,0.008694499,0.0041743712,-0.103452474,-0.2681506,0.17238252,-9.346964,0.80679786,47.70211,-0.95604897,-1.8286843,-3.3070002,-0.23780136,0.10089564,-0.33966422,27.5625,28.8125,27.875,31.5,33.4375,34.1875
0.17405221,-0.15318768,-0.015444792,-0.25041854,0.000604134,0.046379868,-0.18219966,-0.37996805,-0.32710207,0.060069747,3.0789127,-0.6228122,-0.00020353867,-0.08330261,0.012518213,0.0004531867,-0.006653959,0.004232045,0.00028440237,0.43947688,-1.4608302,1.9980382,-2.106826,-1.5703481,2.4130657,-0.09989391,0.12130439,-0.13737607,0.009413979,0.003979805,-0.10008657,-0.15322891,0.21068975,-9.308656,0.8090337,47.69763,-1.0953135,-1.8643107,-3.2424893,-0.24210076,0.11027017,-0.38761547,27.5625,28.8125,27.875,31.5,33.4375,34.1875
0.17605208,-0.4194626,-0.08746089,-0.099879086,0.0058226264,0.020852232,-0.17824441,-0.38014874,-0.32708257,0.060092255,3.078862,-0.6227644,-0.00029595394,-0.08546909,0.012482286,-6.143808e-05,-0.006248025,0.0038924287,-0.0016342762,0.4392724,-1.4606247,1.9977621,-2.106838,-1.5703362,2.412838,-0.10154088,0.12617658,-0.1415659,0.009214493,0.0037569716,-0.099811085,-0.038307227,0.095768064,-9.212888,0.86945957,47.672558,-1.0521508,-1.9806545,-3.2308435,-0.23621574,0.09301975,-0.45438647,27.5625,28.8125,27.875,31.5,33.4375,34.1875
0.17805175,0.0002887464,-0.13356304,-0.20182684,0.0030955863,0.011631189,-0.18138167,-0.38032457,-0.3270416,0.06008333,3.0788703,-0.6228216,-0.00031593695,-0.084575936,0.013083782,-0.00038083867,-0.0062128846,0.0029467214,0.00088059984,0.43905613,-1.4603618,1.9974889,-2.106826,-1.5703601,2.4126565,-0.10207214,0.124598764,-0.13912101,0.009216059,0.004134679,-0.102859385,-0.019153614,0.17238252,-9.270349,0.89631605,47.66539,-1.0906445,-1.9487171,-3.3447275,-0.22915736,0.10358854,-0.4795943,27.5625,28.8125,27.875,31.5,33.4375,34.1875
0.18005237,0.16420826,-0.09363813,-0.18963869,-0.009463762,0.005128967,-0.18502998,-0.3804946,-0.3270211,0.06010099,3.0788424,-0.62275475,-0.00033810077,-0.08562475,0.013583759,-0.0015452979,-0.0051361388,0.0005294966,0.006755725,0.43885145,-1.4601448,1.9971999,-2.1067898,-1.5703362,2.4124138,-0.103919454,0.12879176,-0.1412572,0.009809601,0.004191749,-0.11058006,0.05746084,0.21068975,-9.212888,0.78888994,47.66987,-1.0485507,-2.0875435,-3.22121,-0.21589532,0.11480296,-0.45864224,27.5625,28.8125,27.875,31.5,33.4375,34.1875
0.18205184,0.41678554,-0.50504154,-0.067191415,-0.013094,0.0048222463,-0.18736649,-0.38065994,-0.32699022,0.06009776,3.0788066,-0.62278396,-0.00030305603,-0.08629166,0.013847628,-0.0014739055,-0.004844455,0.00035345528,0.0110047115,0.4386233,-1.4599049,1.9969362,-2.1067655,-1.5703,2.4122086,-0.104819514,0.12969907,-0.14262664,0.010561929,0.0040038656,-0.115728244,0.076614454,0.19153613,-9.155427,0.81351066,47.63673,-1.0241399,-1.9973403,-3.29634,-0.21152171,0.113776475,-0.42625055,27.5625,28.8125,27.875,31.5,33.4375,34.1875
0.18405253,-0.068765976,-0.65117437,-0.033634324,-0.020562647,0.0009862302,-0.17455807,-0.38086128,-0.32697827,0.060111895,3.0788016,-0.6226412,-0.0004034278,-0.08706533,0.0138171315,-0.0009889011,-0.0055119544,0.0009778461,0.021587422,0.43843108,-1.4596293,1.9966015,-2.1067774,-1.5703119,2.4119282,-0.105619,0.12991215,-0.14410162,0.010975848,0.0043551167,-0.12710981,0.038307227,0.24899697,-9.155427,0.8403672,47.68062,-1.0836197,-1.9641514,-3.31299,-0.20231,0.11763918,-0.32603753,27.5625,28.8125,27.875,31.5,33.4375,34.1875
0.18605241,-0.18556543,-0.8201933,-0.038630467,-0.020745419,0.013925606,-0.17933218,-0.38099447,-0.32692558,0.06007627,3.0788877,-0.6225412,-0.00026619187,-0.08746677,0.01385713,-0.0017116775,-0.0044890987,-0.00072245026,0.02725578,0.43821502,-1.4593647,1.9963735,-2.1067054,-1.5703119,2.411639,-0.10585649,0.132735,-0.14580253,0.011830671,0.0041377726,-0.13301477,0.15322891,0.36391866,-9.097966,0.8157518,47.69763,-1.1230458,-2.0066638,-3.3200006,-0.18949895,0.10923484,-0.28320214,27.5625,28.8125,27.875,31.5,33.4375,34.1875
0.18805178,0.050515804,-0.3637116,-0.08267478,-0.018644875,0.014391306,-0.1816,-0.3812035,-0.32691234,0.060086377,3.0788581,-0.6224185,-0.00034587766,-0.08943721,0.014535651,-0.00052791,-0.0053701196,0.0014404202,0.029316353,0.43799794,-1.4590776,1.9960378,-2.1067293,-1.5703,2.4113493,-0.108718,0.1322766,-0.14815032,0.012308678,0.004026453,-0.13793537,0.095768064,0.28730422,-9.155427,0.842603,47.716442,-0.9727688,-1.8712609,-3.298222,-0.18048967,0.12566043,-0.19955787,27.5625,28.8125,27.875,31.5,33.4375,34.1875
0.19005246,-0.1738818,-0.6909926,0.14123406,-0.011332022,0.009515327,-0.17992716,-0.38138747,-0.32689458,0.06011038,3.0788434,-0.6223368,-0.00037836444,-0.08880645,0.01378816,-0.0009388946,-0.005143786,0.00025541225,0.03294179,0.43779463,-1.4588374,1.9957031,-2.1066697,-1.5702881,2.411097,-0.106910154,0.13349262,-0.14870296,0.012816426,0.0043302095,-0.13975282,0.038307227,0.24899697,-9.155427,0.7978386,47.71286,-1.1963428,-1.9415672,-3.3649507,-0.1828219,0.11856994,-0.17070317,27.5625,28.8125,27.875,31.5,33.4375,34.1875
0.19205184,-0.13347317,-0.20302218,0.16096587,-0.015229399,0.011804514,-0.17838036,-0.3815653,-0.32686013,0.060082912,3.0788658,-0.6222095,-0.00035119028,-0.09068495,0.01464589,-0.0010105533,-0.005662101,0.0003749206,0.027147368,0.43756536,-1.4585373,1.9954389,-2.1066935,-1.5702757,2.4107857,-0.1103802,0.13533626,-0.15054661,0.012489319,0.0047421344,-0.13742755,-0.19153613,0.24899697,-9.11712,0.8023209,47.694054,-0.9819329,-1.8982573,-3.3610811,-0.17458445,0.11453732,-0.16955286,27.5625,28.8125,27.875,31.5,33.4375,34.1875
0.19405252,-0.3328799,-0.19915509,-0.15465201,-0.003917828,0.0038655493,-0.17365983,-0.3817374,-0.32681715,0.06009023,3.0789025,-0.6221624,-0.00035663124,-0.09028776,0.01459418,-0.0009431036,-0.0060740123,-0.0004519495,0.022433026,0.4373495,-1.4582982,1.9951404,-2.106621,-1.5702995,2.410536,-0.11035919,0.13485268,-0.15040374,0.013398763,0.0054644807,-0.13269347,-0.21068975,0.2681506,-9.212888,0.77545905,47.70032,-1.1307847,-1.7631812,-3.4502053,-0.16081926,0.110402346,-0.2062014,27.5625,28.8125,27.875,31.5,33.4375,34.1875
0.19605225,-0.31975546,-0.34793246,-0.16121559,-0.003954839,0.021856556,-0.17738059,-0.38188884,-0.3267918,0.060068477,3.0789196,-0.62207276,-0.0002629981,-0.09200791,0.014565124,-0.000112362446,-0.0071404465,0.001024615,0.0162464,0.437145,-1.4580219,1.9948758,-2.1065853,-1.5702637,2.4102736,-0.11198135,0.13571163,-0.15336674,0.013717178,0.0057921954,-0.12812793,-0.19153613,0.17238252,-9.251195,0.8717007,47.711063,-1.1997793,-1.9246777,-3.2959456,-0.16215649,0.105832696,-0.25871897,27.5625,28.8125,27.875,31.5,33.4375,34.1875
0.19805188,0.09558773,-0.07895035,-0.3503816,-0.017465262,0.043301176,-0.17868821,-0.3821214,-0.32675964,0.0600812,3.0788662,-0.62212056,-0.0003508145,-0.09380592,0.014875146,-0.0002440058,-0.0072264015,0.00028888127,0.01313902,0.43688023,-1.4577217,1.9945163,-2.1065962,-1.5702633,2.4100456,-0.11432408,0.13889466,-0.15684652,0.014644304,0.0061857416,-0.1273611,-0.17238252,0.13407528,-9.32781,0.86945957,47.72002,-1.1717869,-1.7967546,-3.3084188,-0.19154346,0.100168034,-0.30792898,27.5625,28.8125,27.875,31.5,33.4375,34.1875
0.20005243,-0.08835626,0.009617832,-0.23903105,-0.0144522935,0.05220328,-0.18267427,-0.38228497,-0.32673383,0.06007022,3.0789056,-0.6219927,-0.0003227842,-0.09364225,0.014375917,0.00033665323,-0.0077132583,0.0014429393,0.01447542,0.43668872,-1.4574467,1.9942282,-2.106561,-1.5702637,2.4097695,-0.1131576,0.1378861,-0.15709525,0.014651381,0.0061361436,-0.12753122,-0.2681506,0.13407528,-9.32781,0.7620334,47.70659,-1.1350961,-1.6309159,-3.3773642,-0.15928008,0.09238122,-0.3503977,27.5625,28.8125,27.875,31.5,33.4375,34.1875
0.2020519,-1.0939713,0.20721744,-0.17358379,-0.014081518,0.048422586,-0.17951116,-0.38246042,-0.32671702,0.06006738,3.0788498,-0.62196535,-0.00022648384,-0.095779106,0.016123043,2.8641727e-05,-0.007150897,0.00044794678,0.009296622,0.43644688,-1.4571701,1.9939169,-2.1065128,-1.5701793,2.4095178,-0.118163556,0.14013872,-0.15914248,0.015598087,0.0060441587,-0.12735717,-0.30645782,0.076614454,-9.423578,0.8157518,47.70032,-1.1618509,-1.8025146,-3.338479,-0.17389657,0.09700857,-0.40301248,27.5625,28.8125,27.875,31.5,33.4375,34.1875
0.20405237,-1.0288936,-0.012097566,-0.48725098,0.009707971,0.06511138,-0.17997162,-0.38266993,-0.32668936,0.06008149,3.0788455,-0.6219241,-0.0002830681,-0.096511416,0.014890888,0.0008506607,-0.008323786,0.0021826087,0.010612622,0.43621954,-1.4568827,1.9935573,-2.106477,-1.5701913,2.4092655,-0.11665322,0.14092803,-0.16191989,0.015517132,0.006373474,-0.1271613,-0.36391866,0.0,-9.481039,0.8403672,47.713753,-1.1311139,-1.6956985,-3.388206,-0.16201855,0.08291826,-0.40171188,27.5625,28.8125,27.875,31.5,33.4375,34.1875
0.20605195,-1.2575575,0.45204127,-0.7271,0.014943486,0.0658791,-0.1842227,-0.38283584,-0.32665962,0.060064305,3.0788815,-0.6218329,-0.0001818715,-0.09608773,0.016208636,-0.0010363364,-0.0070893136,-0.0021496764,0.014346455,0.43600264,-1.4565825,1.9932469,-2.1064045,-1.5701674,2.4089873,-0.11915517,0.14320835,-0.16029923,0.016068736,0.007084647,-0.13339902,-0.4405331,0.0,-9.500193,0.842603,47.70211,-1.1209823,-1.6271099,-3.5529945,-0.1663784,0.08043795,-0.39219046,27.5625,28.8125,27.875,31.5,33.4375,34.1875
0.20805243,-1.7127472,0.25280952,-0.6924006,0.010527354,0.07095733,-0.17964074,-0.38301593,-0.32661092,0.060047284,3.078926,-0.6217633,-0.00014875081,-0.0981284,0.016441165,0.0003237106,-0.008313678,0.0008097476,0.01741903,0.43576205,-1.456295,1.9929584,-2.1063688,-1.5701793,2.4086978,-0.12120745,0.14282031,-0.16299571,0.015956197,0.006936951,-0.13852255,-0.5554548,-0.019153614,-9.595961,0.91198283,47.71465,-1.044528,-1.7269053,-3.4089627,-0.15032303,0.07496466,-0.33859462,27.5625,28.8125,27.875,31.5,33.4375,34.1875
0.21005203,-1.1531382,0.3070876,-0.8056817,0.008198826,0.092532195,-0.18000953,-0.38324338,-0.32655844,0.060053032,3.0788906,-0.62181044,-0.00013840762,-0.09948106,0.017395897,-0.0012896776,-0.006355097,-0.0020204994,0.023255715,0.43544924,-1.4559934,1.9925994,-2.106321,-1.5701555,2.4084191,-0.12369787,0.1480472,-0.16524783,0.016384644,0.0063570538,-0.14684705,-0.49799395,-0.05746084,-9.595961,0.85826975,47.686886,-0.97972333,-1.8158588,-3.4386725,-0.14759535,0.059743136,-0.27902138,27.5625,28.8125,27.875,31.5,33.4375,34.1875
0.21205245,-1.2398129,0.40070677,-0.98860234,-0.0026407144,0.10036769,-0.18716002,-0.3834227,-0.3265306,0.060061827,3.078894,-0.6217109,-0.00014075551,-0.100211084,0.018249165,-0.0016586956,-0.0053095478,-0.0028455313,0.030559348,0.4352326,-1.4557415,1.9922885,-2.106273,-1.5701436,2.4081402,-0.12546206,0.1493906,-0.16609071,0.017082063,0.0057620155,-0.15591374,-0.51714754,-0.038307227,-9.787497,0.8560339,47.694054,-0.87510556,-1.8328705,-3.478641,-0.15076327,0.057331048,-0.1857049,27.5625,28.8125,27.875,31.5,33.4375,34.1875
0.21405196,-2.1738157,-0.4211417,-0.8886336,-0.010533132,0.09413604,-0.17840043,-0.38362232,-0.326506,0.060045864,3.0788896,-0.6215371,-9.4324816e-05,-0.10130317,0.018674672,-0.002271707,-0.004297571,-0.0039588124,0.031425525,0.43498012,-1.4554169,1.9919642,-2.1062725,-1.5700954,2.40778,-0.1268304,0.15244392,-0.16825554,0.01764137,0.005310683,-0.15814632,-0.6512229,0.038307227,-9.80665,0.84484416,47.684196,-0.90128314,-1.9054122,-3.4399729,-0.17275146,0.07164191,-0.1383642,27.5625,28.8125,27.875,31.5,33.4375,34.1875
0.21605167,-1.9156376,-0.5126877,-0.9763733,-0.015596385,0.10644751,-0.171201,-0.38384888,-0.32647228,0.060057957,3.0788968,-0.62144387,-0.00014967119,-0.102106266,0.019006427,-0.0028185658,-0.0038250394,-0.0049247574,0.028683905,0.43472782,-1.4551047,1.9915813,-2.1062367,-1.5701078,2.4074688,-0.12805234,0.15474935,-0.1696496,0.01780408,0.0052907076,-0.15662542,-0.7086837,0.019153614,-9.80665,0.8090337,47.687782,-0.9096569,-1.991734,-3.4799347,-0.14327042,0.07514304,-0.09971492,27.5625,28.8125,27.875,31.5,33.4375,34.1875
0.21805254,-1.5046724,0.2339814,-0.6762729,-0.02666803,0.110072255,-0.188832,-0.38403767,-0.32643187,0.060051575,3.078928,-0.62139547,-0.00010352751,-0.10294601,0.018671485,-0.0027408444,-0.003790187,-0.004346492,0.024412515,0.4344878,-1.4548048,1.9912461,-2.1061652,-1.5701078,2.4071949,-0.12789461,0.15640582,-0.17168403,0.017672705,0.0050028716,-0.15219483,-0.7661445,0.019153614,-9.883265,0.8537928,47.694946,-0.92307484,-1.9958808,-3.5059175,-0.15397918,0.06878116,-0.13161708,27.5625,28.8125,27.875,31.5,33.4375,34.1875
0.22005232,-1.6207249,-0.21395661,-0.67774636,-0.016302975,0.09822883,-0.17821783,-0.384243,-0.32641187,0.06006927,3.0788898,-0.62125564,-0.00014632111,-0.105286434,0.018145885,-0.0011640734,-0.005080068,-0.0006315792,0.018416524,0.43424773,-1.4545411,1.9909095,-2.1061528,-1.570072,2.4068725,-0.1286072,0.1570272,-0.1759671,0.017427344,0.004606539,-0.14690822,-0.6703765,0.038307227,-9.710882,0.85155696,47.72002,-0.98667073,-1.9921372,-3.4291759,-0.15042813,0.06970136,-0.19210374,27.5625,28.8125,27.875,31.5,33.4375,34.1875
0.22205204,-1.1218568,-0.24460042,-0.5326995,-0.007957328,0.10103272,-0.17663871,-0.384462,-0.3263573,0.06005682,3.0789044,-0.62128085,-0.0001670311,-0.10592256,0.018815707,-0.0016175754,-0.004681658,-0.00097630447,0.01197403,0.4339713,-1.4542173,1.9905752,-2.1061413,-1.5700959,2.4066103,-0.13017571,0.1581077,-0.1760649,0.016921502,0.0043866774,-0.14203377,-0.57460845,0.076614454,-9.653421,0.90750587,47.703007,-1.0615385,-1.9597554,-3.5104682,-0.13513991,0.06564535,-0.27935922,27.5625,28.8125,27.875,31.5,33.4375,34.1875
0.22405192,-1.1727759,-0.13628435,-0.68882257,-0.00233401,0.07578144,-0.17594771,-0.38469687,-0.3263169,0.060064632,3.078913,-0.6212259,-0.00023495354,-0.10635971,0.01759444,-0.001504743,-0.005067802,-3.4383868e-06,0.010359011,0.4337079,-1.4538928,1.9901909,-2.1061175,-1.5701202,2.4063118,-0.12815025,0.15997802,-0.17829664,0.016234422,0.0043254853,-0.13839145,-0.4213795,0.1340753,-9.634268,0.88289046,47.67166,-1.0756457,-2.0303388,-3.4693742,-0.12623101,0.07163553,-0.36245254,27.5625,28.8125,27.875,31.5,33.4375,34.1875
0.22605266,-0.4141766,-0.57716304,-0.49553996,-0.017564695,0.0708305,-0.18409115,-0.3849074,-0.3262832,0.06006687,3.0788708,-0.6212034,-0.0002040864,-0.108270675,0.019428309,-0.0020170396,-0.003958944,-0.0007310557,0.0025451265,0.43343008,-1.4535934,1.9898442,-2.1060817,-1.570072,2.4060254,-0.13266997,0.16211776,-0.17962618,0.016559277,0.00362309,-0.13509566,-0.40222588,0.28730422,-9.615114,0.7866488,47.670765,-0.88710284,-1.8617444,-3.4605594,-0.118143074,0.07344045,-0.41616976,27.5625,28.8125,27.875,31.5,33.4375,34.1875
0.22805212,-0.2170854,-0.8939616,-0.6108306,-0.03715008,0.05708057,-0.17591833,-0.38512665,-0.32623535,0.060055222,3.078907,-0.62119037,-0.00019498146,-0.10858446,0.019045506,-0.0013055155,-0.004516884,0.000798559,0.0021325324,0.4331664,-1.453246,1.9894732,-2.1060336,-1.5700959,2.4057493,-0.13204682,0.16141409,-0.18051878,0.016530957,0.003481909,-0.13405958,-0.38307226,0.2681506,-9.519346,0.7866488,47.678825,-1.0583489,-1.8016534,-3.5183659,-0.108091645,0.08696021,-0.48048395,27.5625,28.8125,27.875,31.5,33.4375,34.1875
0.23005176,-0.7821082,-1.3484417,-0.34703332,-0.02887593,0.03884649,-0.18024167,-0.38537937,-0.32619622,0.060088217,3.0788171,-0.6212666,-0.00031836287,-0.10881579,0.019099394,-0.0016721279,-0.004142083,-0.00039271053,0.004302147,0.43286642,-1.4529697,1.9890898,-2.106033,-1.570084,2.4055085,-0.13236298,0.16296887,-0.1816376,0.017336953,0.0036573298,-0.13654457,-0.30645782,0.22984336,-9.461885,0.83589023,47.66091,-1.0624183,-1.8688487,-3.4664712,-0.094876185,0.08960867,-0.513866,27.5625,28.8125,27.875,31.5,33.4375,34.1875
0.2320524,-0.43404427,-0.607717,-0.03096544,-0.038761973,0.042170078,-0.1844063,-0.38563085,-0.32616645,0.060107905,3.0787642,-0.62121207,-0.00038776392,-0.11112255,0.019633656,-0.00031704528,-0.005770125,0.001778908,0.011667487,0.43257716,-1.4526465,1.9886822,-2.1060212,-1.5700601,2.4051921,-0.13563743,0.16281806,-0.18476395,0.0179676,0.004237117,-0.14718312,-0.15322891,0.22984336,-9.346964,0.92093146,47.6636,-0.98441005,-1.7451282,-3.4410474,-0.09730413,0.10745861,-0.4588575,27.5625,28.8125,27.875,31.5,33.4375,34.1875
0.23405255,-0.01566409,-0.45152158,-0.08437034,-0.011962994,0.035708457,-0.18007429,-0.38581878,-0.32613426,0.06009027,3.078829,-0.6210811,-0.0003372897,-0.11107782,0.017891109,0.00053537084,-0.006977539,0.0036626179,0.028328246,0.43236238,-1.4523112,1.988335,-2.105961,-1.570072,2.4048877,-0.13248177,0.16287382,-0.18676928,0.01770546,0.0045412243,-0.1606876,-0.019153614,0.28730422,-9.251195,0.8918391,47.637623,-1.1478066,-1.7548966,-3.4471593,-0.08677818,0.10109687,-0.38251007,27.5625,28.8125,27.875,31.5,33.4375,34.1875
0.23605219,0.97339237,0.50684917,-0.07706631,-0.009570114,0.031208087,-0.19408399,-0.38605973,-0.3260869,0.060087837,3.078785,-0.62112635,-0.0003448521,-0.11263292,0.018269278,0.0005001047,-0.007504271,0.0037936955,0.035037637,0.43204963,-1.4519747,1.9879631,-2.1059496,-1.5700477,2.404609,-0.13471362,0.16485527,-0.18891029,0.017533857,0.004971177,-0.16962765,0.13407528,0.28730422,-9.212888,0.8940802,47.66808,-0.99098635,-1.7443273,-3.4120584,-0.06361058,0.096113056,-0.25614995,27.5625,28.8125,27.875,31.5,33.4375,34.1875
0.23805173,1.0027826,0.3981532,-0.027926136,-0.007474141,0.010852682,-0.18685988,-0.38628516,-0.32604307,0.060084175,3.078844,-0.62094396,-0.00039271463,-0.11401023,0.01839575,0.001057991,-0.007799302,0.0050295587,0.03953977,0.43179727,-1.4516394,1.9875921,-2.1059253,-1.570084,2.4042356,-0.13588332,0.1657082,-0.19124424,0.017767793,0.004724716,-0.17529796,0.21068975,0.24899697,-9.251195,0.8403672,47.688675,-1.111824,-1.5547674,-3.3323283,-0.0540027,0.08278337,-0.15742756,27.5625,28.8125,27.875,31.5,33.4375,34.1875
0.24005231,0.7562743,0.050716665,-0.19173492,0.008950015,-0.015814267,-0.18089563,-0.38650662,-0.32600793,0.06007345,3.0788498,-0.6207541,-0.00033190317,-0.11584798,0.019023698,0.0013345807,-0.0076386686,0.0053478032,0.03650068,0.43150857,-1.4512913,1.9872202,-2.105889,-1.5700358,2.403828,-0.13835096,0.16760941,-0.19425915,0.018670334,0.004440975,-0.17472471,0.19153613,0.24899697,-9.174581,0.8717007,47.70838,-1.0577579,-1.5994359,-3.303848,-0.044312097,0.104423806,-0.12257767,27.5625,28.8125,27.875,31.5,33.4375,34.1875
0.24205193,0.92624235,0.19280285,-0.5009604,0.010574861,-0.026062151,-0.17099835,-0.38673115,-0.32596564,0.060088847,3.0788486,-0.62073827,-0.00037246806,-0.11731318,0.018833907,0.0022320491,-0.008153939,0.0063796723,0.029850412,0.4312444,-1.4509916,1.9868368,-2.1058285,-1.5700482,2.4035542,-0.1391889,0.16864294,-0.19782774,0.020048765,0.0044755884,-0.16891061,0.17238252,0.24899697,-9.232041,0.8627467,47.672558,-1.0398394,-1.594877,-3.3571007,-0.03748706,0.10680674,-0.21090244,27.5625,28.8125,27.875,31.5,33.4375,34.1875
0.24405245,1.0996946,-0.10984653,-0.3367948,-0.008789897,-0.009930401,-0.1778155,-0.38701108,-0.32591665,0.06011621,3.0788121,-0.6207172,-0.0004885899,-0.11773759,0.019273661,0.0018885006,-0.007667326,0.0050539454,0.021098904,0.43091998,-1.4506556,1.9863938,-2.1058047,-1.5700601,2.4032216,-0.14033489,0.17004952,-0.19891115,0.021128887,0.0045987274,-0.16130438,0.019153614,0.2681506,-9.251195,0.88289046,47.699425,-1.0400908,-1.4848604,-3.3438628,-0.04055726,0.10618717,-0.28080237,27.5625,28.8125,27.875,31.5,33.4375,34.1875
0.24605203,0.84760916,-0.5665036,-0.29434198,-0.029515583,0.020000588,-0.17740424,-0.38719136,-0.3258732,0.060077205,3.0788639,-0.6206134,-0.00035637672,-0.11799286,0.020077687,0.00023391955,-0.006352119,0.0011957441,0.017664777,0.4306674,-1.450307,1.9860829,-2.1057565,-1.5700353,2.4028978,-0.14223656,0.17381282,-0.1996126,0.022125075,0.0050021564,-0.15977204,-0.019153614,0.2681506,-9.270349,0.8605109,47.695843,-1.0126904,-1.6631646,-3.3029308,-0.05306328,0.103704065,-0.33528984,27.5625,28.8125,27.875,31.5,33.4375,34.1875
0.24805175,-0.39877877,-1.2251632,-0.5162887,-0.016125683,0.018046372,-0.17058195,-0.3874371,-0.32584667,0.06009251,3.0788412,-0.62059057,-0.0003488711,-0.11921241,0.02026795,0.00014340668,-0.0065794825,0.00013485955,0.015782053,0.43039075,-1.4499469,1.9856266,-2.1056721,-1.5700115,2.40261,-0.1439637,0.17621952,-0.20244958,0.023427572,0.0056510973,-0.15961541,-0.019153614,0.30645782,-9.32781,0.8985519,47.68599,-0.97941077,-1.6725588,-3.2152143,-0.054463208,0.11644642,-0.3535586,27.5625,28.8125,27.875,31.5,33.4375,34.1875
0.25005242,-0.4205115,-0.7239481,-0.54692626,-0.02454428,0.03756414,-0.18129389,-0.38762185,-0.32581347,0.0600676,3.0789104,-0.6204118,-0.00024629055,-0.120583765,0.020391738,0.0009964328,-0.0073030223,0.00088145497,0.015183145,0.43016225,-1.4495993,1.985279,-2.1056,-1.5699996,2.4022615,-0.14550956,0.17671607,-0.20533788,0.02484168,0.0059841294,-0.16056186,-0.11492168,0.21068975,-9.519346,0.7463667,47.716442,-0.91353214,-1.7724156,-3.3098598,-0.07488588,0.11537674,-0.37988955,27.5625,28.8125,27.875,31.5,33.4375,34.1875
0.25205207,-1.0633318,-0.96347916,-0.33283165,-0.03605353,0.05304761,-0.17877278,-0.38788918,-0.32574308,0.060072325,3.0789037,-0.62044793,-0.00024191641,-0.12110394,0.021474207,-0.00021041722,-0.006549937,-0.0019490826,0.016995933,0.4298015,-1.4492388,1.9848489,-2.1055276,-1.5699991,2.4019244,-0.14817618,0.17927761,-0.20564474,0.025477028,0.006483328,-0.16504145,-0.21068975,0.28730422,-9.461885,0.84484416,47.70032,-1.0018984,-1.8512836,-3.276062,-0.084900394,0.08278601,-0.36251307,27.5625,28.8125,27.875,31.5,33.4375,34.1875
0.2540526,-1.171105,-0.9403174,-0.2521799,-0.040056158,0.07399362,-0.18012843,-0.38813564,-0.32571745,0.060092162,3.0788841,-0.62030184,-0.00028046747,-0.11979035,0.020050349,-0.0009763889,-0.0063755745,-0.0034522533,0.029614445,0.4295266,-1.448903,1.9844173,-2.10548,-1.5699753,2.401561,-0.1446159,0.18087707,-0.20571955,0.025401028,0.0069643906,-0.1740996,-0.4405331,0.30645782,-9.308656,0.842603,47.693153,-1.0947316,-1.755286,-3.3995557,-0.07871963,0.10214929,-0.29848003,27.5625,28.8125,27.875,31.5,33.4375,34.1875
0.2560521,-1.6648325,-1.4558578,-0.722448,-0.012828779,0.07233796,-0.1696275,-0.38837078,-0.32569864,0.060093682,3.078878,-0.62019885,-0.00027087313,-0.120500684,0.020940589,-0.001996007,-0.0055633034,-0.0050783446,0.03797711,0.42927393,-1.448531,1.9839872,-2.1054323,-1.5699509,2.401245,-0.14673981,0.18326934,-0.20607962,0.025198186,0.0069098487,-0.18458557,-0.38307226,0.22984336,-9.557653,0.86945957,47.68599,-0.95941246,-1.6622398,-3.47341,-0.09757461,0.086976245,-0.16807602,27.5625,28.8125,27.875,31.5,33.4375,34.1875
0.2580522,-1.6251389,-0.81841767,-0.39075363,-0.02797404,0.091038845,-0.1749572,-0.38860703,-0.32564396,0.060053848,3.0789251,-0.6200912,-0.0001833455,-0.120839655,0.020707717,-0.001492265,-0.0065151397,-0.0041866372,0.043384876,0.42896205,-1.448112,1.9836043,-2.1054084,-1.569939,2.4008603,-0.14680883,0.18279368,-0.20676513,0.025158739,0.0073943934,-0.19006304,-0.45968673,0.2681506,-9.461885,0.800085,47.70838,-1.1107289,-1.7290708,-3.4753137,-0.093149066,0.088303186,-0.1055203,27.5625,28.8125,27.875,31.5,33.4375,34.1875
0.26005167,-1.3291045,-0.37900403,-0.30747175,-0.02511304,0.09973393,-0.17066535,-0.38885564,-0.32560515,0.0600844,3.0788975,-0.61995316,-0.00023610325,-0.122175194,0.020933094,-0.001588161,-0.006326053,-0.003501315,0.039517373,0.42866156,-1.447812,1.9831852,-2.1053483,-1.5699152,2.4004774,-0.14795598,0.18476063,-0.20865798,0.024546783,0.006941183,-0.1873405,-0.4405331,0.19153614,-9.442732,0.842603,47.686886,-1.1007946,-1.715049,-3.6132655,-0.09581715,0.090221554,-0.08152426,27.5625,28.8125,27.875,31.5,33.4375,34.1875
0.26205224,-1.4437859,-0.1533547,-0.4120549,-0.004963186,0.08972533,-0.17097999,-0.38911763,-0.32557198,0.060098484,3.078872,-0.61983716,-0.0002740113,-0.12434655,0.021785986,-0.0013271177,-0.0067492626,-0.0026075516,0.031075167,0.42836022,-1.4474517,1.9827417,-2.1053126,-1.5698913,2.4001071,-0.15128297,0.18644999,-0.21117182,0.024385804,0.0069542513,-0.18222341,-0.7278373,0.076614454,-9.346964,0.8918391,47.70838,-0.9102597,-1.6791902,-3.5761693,-0.089415506,0.06445132,-0.10060239,27.5625,28.8125,27.875,31.5,33.4375,34.1875
0.26405197,-1.0967162,0.13882557,-0.12874274,0.0065422263,0.08956355,-0.1699593,-0.38934988,-0.32551312,0.060077816,3.0788944,-0.6197691,-0.00018918577,-0.12543501,0.021547403,-0.0014163544,-0.0069012856,-0.0027968243,0.023856666,0.4280365,-1.4470795,1.9823588,-2.105253,-1.569867,2.3997383,-0.15178847,0.18890572,-0.21386208,0.024730962,0.007152975,-0.17550927,-0.7278373,0.038307227,-9.270349,0.9164598,47.71465,-1.0723909,-1.7373881,-3.5817413,-0.0879554,0.078001335,-0.18499857,27.5625,28.8125,27.875,31.5,33.4375,34.1875
0.2660527,-0.6051131,0.6602642,-0.13006034,0.017904323,0.09230731,-0.18178341,-0.38960302,-0.3254828,0.060068585,3.0788891,-0.6196962,-0.00016634224,-0.12615758,0.021510676,-0.0015212533,-0.0066628894,-0.0027713533,0.015024266,0.42774847,-1.446672,1.9819154,-2.1052167,-1.5698432,2.3994057,-0.15206315,0.19050124,-0.21551275,0.02486304,0.00691668,-0.16695039,-0.7852981,-0.038307227,-9.442732,0.88289046,47.691364,-1.0232497,-1.7411089,-3.521122,-0.07180607,0.07103106,-0.29900938,27.5625,28.8125,27.875,31.5,33.4375,34.1875
0.26805222,-1.4127326,0.669873,-0.09785701,0.03082173,0.07128934,-0.16939084,-0.38987124,-0.32547218,0.0600876,3.0788538,-0.6195578,-0.00023440624,-0.1264095,0.021434652,-0.0022485307,-0.005505062,-0.004133165,0.010018485,0.42748442,-1.4462878,1.9814361,-2.105193,-1.5698193,2.39906,-0.15169849,0.19315358,-0.2170227,0.025443757,0.0064337407,-0.16157815,-0.842759,-0.095768064,-9.3661175,0.8672237,47.72271,-1.1195734,-1.774579,-3.5206885,-0.07928272,0.08524722,-0.39517972,27.5625,28.8125,27.875,31.5,33.4375,34.1875
0.27005208,-1.4529251,0.61738634,0.0026167196,0.027935091,0.081714615,-0.17214411,-0.39011315,-0.32537618,0.06005604,3.0789106,-0.61974156,-0.00012984074,-0.1282563,0.0212063,-0.0010026678,-0.006664138,-0.0018610455,0.0069522825,0.42712408,-1.4458921,1.9810404,-2.1050847,-1.5698551,2.3988075,-0.15278447,0.19365375,-0.22063367,0.026001424,0.0065217665,-0.15959692,-0.6703765,-0.13407528,-9.308656,0.8537928,47.709274,-1.1041461,-1.793793,-3.4891915,-0.08849023,0.07188794,-0.48562172,27.5625,28.8125,27.875,31.5,33.4375,34.1875
0.27205157,-1.1264434,1.0490106,0.12916091,0.011270592,0.09885461,-0.18905547,-0.39038557,-0.32535228,0.060079254,3.0788927,-0.61961967,-0.00021816215,-0.12913299,0.021241896,-0.0006606552,-0.0064316266,-0.0017511091,0.011928669,0.42684808,-1.4455198,1.9805616,-2.105048,-1.5698551,2.398458,-0.1533109,0.19479527,-0.22305709,0.027286312,0.0062774727,-0.16509806,-0.4405331,-0.15322891,-9.346964,0.8717007,47.71286,-1.1763041,-1.9077541,-3.4768977,-0.09525344,0.07363088,-0.5056933,27.5625,28.8125,27.875,31.5,33.4375,34.1875
0.27405217,-1.2515444,1.018899,0.07931874,0.0057857065,0.09053822,-0.18192478,-0.39062133,-0.3253088,0.060041714,3.0789037,-0.61957675,-8.380788e-05,-0.13100797,0.021366524,5.118006e-05,-0.0062607876,-0.00086339744,0.022074625,0.42653558,-1.445088,1.9801525,-2.1049998,-1.5698074,2.3981175,-0.15466419,0.19670211,-0.22726688,0.028872402,0.005744874,-0.17659526,-0.34476504,-0.15322891,-9.308657,0.88289046,47.686886,-1.1777478,-1.833068,-3.2415628,-0.12628447,0.07757054,-0.412636,27.5625,28.8125,27.875,31.5,33.4375,34.1875
0.27605188,-0.91361696,0.6056205,-0.24092996,0.016110277,0.07823297,-0.17562598,-0.39092508,-0.32525355,0.06006887,3.0788996,-0.61953,-0.0002078736,-0.13248855,0.021305801,0.001374331,-0.0065216543,0.0013690499,0.034677275,0.42619932,-1.4447055,1.9796504,-2.1049516,-1.5698436,2.397753,-0.1552238,0.19661602,-0.23054959,0.030108286,0.005077441,-0.18975528,-0.2681506,-0.05746084,-9.346964,0.82694155,47.687782,-1.1887758,-1.6100824,-3.111829,-0.13453712,0.071655,-0.30645907,27.5625,28.8125,27.875,31.5,33.4375,34.1875
0.27805173,-0.84911835,0.14490537,-0.54498816,0.009980489,0.05487447,-0.16612265,-0.39116254,-0.3252022,0.060064014,3.0789354,-0.6193991,-0.0001239734,-0.13207433,0.021552483,-0.00023111457,-0.004821012,-0.0015570894,0.043011677,0.4258874,-1.4443328,1.9792188,-2.1048439,-1.5698203,2.397355,-0.154987,0.19972214,-0.23048013,0.030313544,0.004735209,-0.1978526,-0.3256114,0.13407528,-9.423578,0.8560339,47.668976,-1.2098631,-1.7209972,-3.2635193,-0.13941392,0.096177906,-0.19057456,27.5625,28.8125,27.875,31.5,33.4375,34.1875
0.28005219,-0.38064238,-0.57265407,-0.53065664,-0.016060637,0.05140121,-0.17889433,-0.39144155,-0.3251415,0.060046963,3.078961,-0.6193098,-0.00010614935,-0.13291542,0.022211665,-0.0010248962,-0.004134681,-0.0026270328,0.041303508,0.4255386,-1.443901,1.9787649,-2.104808,-1.5698203,2.3969476,-0.15665981,0.20210886,-0.2313736,0.030080715,0.0045467126,-0.1978164,-0.38307226,0.21068975,-9.423578,0.85155696,47.705692,-1.1434861,-1.5541985,-3.3229675,-0.16864644,0.11172817,-0.13596795,27.5625,28.8125,27.875,31.5,33.4375,34.1875
0.28205168,-0.15524289,-0.715443,-0.694449,-0.04829269,0.040308405,-0.16277105,-0.3917194,-0.32508647,0.060061038,3.079,-0.6191892,-0.00016847189,-0.13453652,0.0242085,-0.00038888463,-0.004088638,-0.0025353788,0.02987096,0.4252253,-1.4435178,1.9782861,-2.1047356,-1.569856,2.3965545,-0.16154402,0.20125042,-0.23233674,0.03182807,0.0044690506,-0.19126809,-0.2681506,0.19153613,-9.461885,0.87617236,47.67345,-1.1021891,-1.5706954,-3.4327912,-0.18738773,0.11721212,-0.1926659,27.5625,28.8125,27.875,31.5,33.4375,34.1875
0.28405222,-0.44961604,-1.358499,-0.5227304,-0.05430862,0.027477413,-0.15989143,-0.39197078,-0.32503268,0.060039636,3.0790174,-0.61913776,-5.5903616e-05,-0.13346905,0.024460519,-0.0026908692,-0.0018137003,-0.007843824,0.024662958,0.4248896,-1.443097,1.9778432,-2.1046512,-1.5698203,2.3961847,-0.16105177,0.20542458,-0.23217063,0.033265974,0.004572773,-0.18556814,-0.24899697,0.19153613,-9.481039,0.85826975,47.65912,-1.099885,-1.7049459,-3.5416412,-0.20541629,0.11931084,-0.3015403,27.5625,28.8125,27.875,31.5,33.4375,34.1875
0.2860518,-0.3095145,-1.2676306,-0.22245413,-0.055216372,0.036219828,-0.17417127,-0.39225706,-0.32498103,0.06005054,3.0790176,-0.61910236,-6.896902e-05,-0.13508306,0.02568222,-0.0032210096,-0.001387599,-0.008503968,0.018593125,0.42455232,-1.4426893,1.977341,-2.1045673,-1.5698203,2.3958256,-0.16445485,0.20771746,-0.23359303,0.033172805,0.004451318,-0.18290025,-0.038307227,0.2681506,-9.385271,0.9186956,47.70211,-1.0002292,-1.9034312,-3.5109062,-0.21587673,0.1312994,-0.36135638,27.5625,28.8125,27.875,31.5,33.4375,34.1875
0.2880523,0.1349632,-0.7706681,-0.30988872,-0.028287238,0.025956461,-0.17326312,-0.39250132,-0.32492858,0.060010087,3.0790567,-0.61899346,4.700654e-06,-0.1354422,0.025721624,-0.0034377535,-0.0015900537,-0.009456404,0.017725475,0.42424068,-1.4422576,1.9769458,-2.1045554,-1.5698074,2.3954413,-0.16507876,0.20897533,-0.23475534,0.033863667,0.005015706,-0.18265676,0.019153614,0.30645782,-9.308657,0.9365982,47.709274,-1.0198058,-1.788018,-3.5819426,-0.24704988,0.12780295,-0.3686281,27.5625,28.8125,27.875,31.5,33.4375,34.1875
0.2900519,0.5139765,-0.28546527,-0.37768435,-0.006704268,0.0009150832,-0.18041487,-0.3927853,-0.32487833,0.060012694,3.0790474,-0.61900765,5.6523135e-05,-0.13665155,0.024392452,-0.0029188646,-0.003072433,-0.00770693,0.023609389,0.42389274,-1.4418257,1.9764298,-2.104448,-1.5697836,2.3951037,-0.16390046,0.21102065,-0.2381289,0.03299536,0.0056334543,-0.18736093,0.19153613,0.34476504,-9.3661175,0.84484416,47.705692,-1.0416098,-1.9883373,-3.650896,-0.24689022,0.1503391,-0.39108616,27.5625,28.8125,27.875,31.5,33.4375,34.1875
0.29205254,1.0463564,-0.40602794,0.17697057,-0.031732257,0.005344527,-0.19703098,-0.39306417,-0.32484278,0.059998132,3.0790567,-0.6188898,2.7806598e-05,-0.13928565,0.024089415,-0.0029037292,-0.0038913311,-0.0053641773,0.030658668,0.42359233,-1.4413812,1.9759635,-2.104449,-1.5697836,2.394729,-0.16527139,0.21473135,-0.241873,0.030565843,0.0054104677,-0.19577782,0.21068975,0.38307226,-9.270349,0.8851263,47.652847,-0.98858273,-1.8540817,-3.5287452,-0.2473676,0.13365966,-0.3176759,27.5625,28.8125,27.875,31.5,33.4375,34.1875
0.29405218,0.53456384,-0.77829504,0.08929323,-0.047169205,0.0046242233,-0.1860245,-0.3933292,-0.32477033,0.059982944,3.079151,-0.6187107,0.000121172576,-0.14118177,0.0240077,-0.0016706545,-0.005795103,-0.0021407357,0.04082981,0.42324367,-1.4409502,1.9754833,-2.104318,-1.569796,2.3942568,-0.16683099,0.21439853,-0.24415584,0.029467937,0.005803047,-0.20750816,0.0,0.4405331,-9.136273,0.84708,47.666286,-1.039375,-1.8310483,-3.407597,-0.23154682,0.14416331,-0.21338424,27.5625,28.8125,27.875,31.5,33.4375,34.1875
0.2960518,0.50090456,-0.7552983,-0.25797632,-0.041846573,0.012479579,-0.1851166,-0.39363486,-0.32473376,0.0599999,3.0790563,-0.61866957,9.874617e-05,-0.14305523,0.023782592,0.00015741974,-0.007364268,0.00016845267,0.045877893,0.42287144,-1.4405428,1.9749802,-2.1042926,-1.569723,2.393871,-0.16814934,0.21402083,-0.24843258,0.031393867,0.006299615,-0.21387307,-0.095768064,0.47884035,-9.232041,0.8940802,47.694946,-1.0246266,-1.8194821,-3.3701935,-0.26000938,0.1416178,-0.094803534,27.5625,28.8125,27.875,31.5,33.4375,34.1875
0.29805264,-0.15637924,-1.1957489,-0.33971938,-0.04706996,0.014891327,-0.17200556,-0.39387783,-0.32470936,0.059987683,3.0791192,-0.61839736,0.00018254397,-0.14368321,0.024480779,8.2782826e-05,-0.0065030456,-0.0016351186,0.04216824,0.42260677,-1.440111,1.9745001,-2.1041958,-1.5696992,2.3934288,-0.16980636,0.21543355,-0.25056198,0.03411411,0.0062449863,-0.21182016,-0.095768064,0.49799395,-9.251195,0.8873621,47.731667,-0.8733895,-1.8035254,-3.2741213,-0.27150804,0.12806727,-0.058850825,27.5625,28.8125,27.875,31.5,33.4375,34.1875
0.3000521,-0.46022484,-1.4578133,0.18874344,-0.06689673,0.040329017,-0.17621674,-0.39418396,-0.32464877,0.059984934,3.079133,-0.61830914,0.00014403703,-0.14426614,0.025291124,-0.00069888716,-0.00584856,-0.0036366521,0.031271487,0.42224622,-1.439667,1.973998,-2.1041596,-1.5697111,2.3930118,-0.17178096,0.21755157,-0.2514463,0.034965936,0.0064687952,-0.20289767,-0.22984336,0.4213795,-9.097966,0.91421866,47.739727,-0.982553,-1.8572912,-3.2255454,-0.31541914,0.1509014,-0.13522059,27.5625,28.8125,27.875,31.5,33.4375,34.1875
0.3020517,-0.48661205,-1.0223045,0.025372557,-0.059550714,0.06832707,-0.18450677,-0.39446008,-0.32459182,0.05998463,3.0791657,-0.6182815,0.00020416164,-0.14583902,0.025070377,0.00013364597,-0.007073193,-0.0013339856,0.022432437,0.4219099,-1.4392358,1.973483,-2.104029,-1.5697111,2.3926544,-0.17264171,0.21807148,-0.25386238,0.034254886,0.006622757,-0.19491848,-0.22984336,0.38307226,-9.289503,0.84484416,47.713753,-0.8809862,-1.8338311,-3.294239,-0.3266105,0.13846959,-0.25129288,27.5625,28.8125,27.875,31.5,33.4375,34.1875
0.30405238,-1.0376638,-0.928927,-0.04560731,-0.042973213,0.0789826,-0.17450424,-0.39473557,-0.32454947,0.059954453,3.0791793,-0.618214,0.0002724312,-0.1470731,0.024902144,0.00064108067,-0.008864858,-0.00031400553,0.012439462,0.42158535,-1.4387566,1.9730037,-2.1039932,-1.5696868,2.3922863,-0.1740038,0.2186774,-0.25570777,0.03382568,0.007825104,-0.18628813,-0.4405331,0.3256114,-9.385271,0.90750587,47.703903,-0.9447969,-1.7752898,-3.3873425,-0.32903683,0.13502279,-0.37823254,27.5625,28.8125,27.875,31.5,33.4375,34.1875
0.30605203,-1.0321943,-0.17176051,0.31655353,-0.051395707,0.105346486,-0.19009341,-0.39504677,-0.32449773,0.05996076,3.0791988,-0.61816067,0.0002613616,-0.14784373,0.024531938,0.0015407325,-0.010424763,0.0019518427,0.008524198,0.42123783,-1.4382898,1.9724411,-2.1038978,-1.5696987,2.3919034,-0.17412165,0.21779631,-0.2566698,0.03295888,0.00831769,-0.18249089,-0.49799395,0.36391866,-9.346964,0.8717007,47.716442,-1.10549,-1.7223246,-3.4382539,-0.3439383,0.14045109,-0.4532046,27.5625,28.8125,27.875,31.5,33.4375,34.1875
0.30805257,-1.0733327,0.40340057,0.0034589674,-0.03188756,0.09779062,-0.19487002,-0.39533377,-0.3244624,0.059961047,3.07913,-0.6181241,0.00032581968,-0.14694627,0.024229899,-0.0002310798,-0.009276833,-0.0006897974,0.012898228,0.42087817,-1.4378576,1.9719394,-2.1038382,-1.5696148,2.3915298,-0.17268172,0.22070868,-0.2557903,0.032068424,0.00835418,-0.18542497,-0.40222588,0.2681506,-9.32781,0.9410752,47.70211,-1.1082469,-1.6593637,-3.3952236,-0.35119128,0.12906818,-0.5006779,27.5625,28.8125,27.875,31.5,33.4375,34.1875
0.3100522,-0.85466164,0.54374325,0.08682396,-0.0123395715,0.09479392,-0.20248403,-0.39560682,-0.32441428,0.059937615,3.0791516,-0.6181039,0.0003997365,-0.14823158,0.024074677,-0.00022015642,-0.009735694,0.00041485453,0.023946341,0.4205537,-1.4373897,1.9714488,-2.1037667,-1.5696024,2.3911903,-0.17329045,0.22255997,-0.25776246,0.031010374,0.008311768,-0.19708082,-0.4213795,0.038307227,-9.423578,0.91198283,47.709274,-1.126564,-1.8471618,-3.5595136,-0.33528468,0.13313527,-0.42174664,27.5625,28.8125,27.875,31.5,33.4375,34.1875
0.31205183,-0.95527637,0.5817854,0.3236587,-0.008315185,0.09389215,-0.20203146,-0.39592245,-0.32436386,0.059926104,3.079179,-0.6179078,0.0003428514,-0.1491879,0.023144212,0.00024772907,-0.010660436,0.0025473067,0.040097453,0.4202062,-1.4369102,1.9709338,-2.1037672,-1.5696148,2.3907173,-0.1721902,0.22370529,-0.25993514,0.029728904,0.008293325,-0.21213,-0.38307226,-0.095768064,-9.3661175,0.9791215,47.689575,-1.1836479,-1.8698564,-3.563052,-0.3254676,0.121668294,-0.30419433,27.5625,28.8125,27.8125,31.5,33.4375,34.1875
0.31405243,-0.81052625,0.93876606,-0.12595505,0.017429877,0.06971604,-0.19342142,-0.39623114,-0.32431823,0.059939496,3.0791628,-0.61786234,0.00032375965,-0.15111312,0.023424523,-0.00026660954,-0.01052995,0.003034479,0.046443846,0.4198574,-1.436466,1.9703826,-2.1036842,-1.5696024,2.3903425,-0.17393461,0.22727388,-0.26258945,0.028437864,0.0079778405,-0.22021824,-0.21068975,-0.19153613,-9.385271,0.8918391,47.681515,-1.1138037,-1.9401948,-3.5766382,-0.31290132,0.11299195,-0.19206922,27.5625,28.8125,27.8125,31.5,33.4375,34.25
0.31605205,-0.37770054,1.3161217,-0.062254883,0.0188617,0.05917201,-0.18746887,-0.39651537,-0.32426968,0.05989602,3.079212,-0.6176448,0.00043357702,-0.15362212,0.023942072,0.0003902194,-0.010820311,0.005450384,0.041741457,0.41950873,-1.4359502,1.969891,-2.103648,-1.5695671,2.389852,-0.17632554,0.22894323,-0.26594916,0.02781477,0.0072385157,-0.21790455,-0.34476504,-0.2681506,-9.461885,0.8985519,47.66987,-1.0655408,-1.9360399,-3.4397283,-0.29137665,0.12539135,-0.17722419,27.5625,28.8125,27.8125,31.5,33.4375,34.25
0.31805253,-0.2584475,1.1307427,-0.040632628,0.014167509,0.05789752,-0.19029178,-0.39686367,-0.3242312,0.059938435,3.0791368,-0.617595,0.00025158527,-0.15432766,0.023588374,-9.480201e-05,-0.010342091,0.0052789226,0.035478424,0.4191492,-1.43553,1.9693164,-2.103636,-1.5695671,2.3894713,-0.17584978,0.23168156,-0.26793244,0.027408388,0.0068971124,-0.21116306,-0.61291564,-0.15322891,-9.308656,0.900793,47.670765,-1.3129756,-1.9740837,-3.3626602,-0.28533536,0.1339462,-0.24146944,27.5625,28.8125,27.8125,31.5,33.4375,34.25
0.3200519,-0.07538024,1.1020776,-0.5213222,0.030393863,0.05554395,-0.1905168,-0.39713287,-0.32419565,0.059917003,3.0791857,-0.61737597,0.0003616421,-0.1553825,0.023338472,0.00013032484,-0.0110339755,0.005842284,0.030700667,0.41883722,-1.4350505,1.9688014,-2.1035402,-1.5695313,2.3890166,-0.17636469,0.23312454,-0.27019054,0.027431568,0.007283283,-0.20689985,-0.4213795,-0.11492168,-9.404425,0.98807013,47.70211,-1.3049437,-1.9608082,-3.3377886,-0.26801783,0.12785254,-0.3116176,27.5625,28.8125,27.8125,31.5,33.4375,34.25
0.32205254,-0.4360304,0.40178,-0.5385825,0.027782245,0.048847325,-0.19433087,-0.39743772,-0.32412443,0.05988659,3.0792098,-0.61739975,0.00042619967,-0.15527767,0.023704916,-0.00072004757,-0.009994187,0.003891913,0.027765512,0.41845384,-1.4345468,1.9682873,-2.1034796,-1.5695313,2.3886454,-0.17667429,0.23490626,-0.27055582,0.028220732,0.007118977,-0.20427445,-0.34476504,-0.019153614,-9.634268,0.9186956,47.691364,-1.3976983,-2.0505204,-3.375822,-0.2765152,0.1380715,-0.38388515,27.5625,28.8125,27.8125,31.5,33.4375,34.25
0.3240522,-0.161292,-0.3777127,-0.3039164,-0.019817252,0.07535808,-0.19610955,-0.3977538,-0.32406643,0.05988976,3.079241,-0.61732835,0.00043153745,-0.15669909,0.024688747,-0.0005773158,-0.008862164,0.0042969477,0.026286328,0.41809404,-1.4340671,1.9677128,-2.1033719,-1.5695437,2.3882375,-0.17870021,0.23617369,-0.2726301,0.029122358,0.0059178937,-0.20481914,-0.36391866,0.076614454,-9.5385,0.9298854,47.693153,-1.3221459,-2.0731094,-3.4599137,-0.28576759,0.1585708,-0.4209013,27.5625,28.8125,27.8125,31.5,33.4375,34.25
0.32605207,-1.2020684,-1.0716767,-0.4256001,-0.039946966,0.05968977,-0.19328406,-0.39807644,-0.32402846,0.059911866,3.0792336,-0.6171481,0.00033917616,-0.15801293,0.025148932,-0.00035724416,-0.008743451,0.004865814,0.033485133,0.417758,-1.4336236,1.9671491,-2.1033242,-1.5695437,2.3877902,-0.18024537,0.2374141,-0.27472684,0.02951953,0.0055963933,-0.2135614,-0.17238252,0.15322891,-9.710882,0.86945957,47.65643,-1.2665563,-2.059752,-3.5286374,-0.2840425,0.17298123,-0.373494,27.5625,28.8125,27.8125,31.5,33.4375,34.25
0.32805166,-0.91111654,-1.293145,-0.67987067,-0.053070586,0.06891966,-0.19305012,-0.3984058,-0.32398227,0.05991205,3.0792265,-0.61704403,0.00034688914,-0.15914412,0.025246233,0.00018463533,-0.0096867755,0.0057314206,0.04405234,0.41738567,-1.4331205,1.9665626,-2.1032522,-1.5695194,2.3873541,-0.1815093,0.23787111,-0.27667195,0.029852338,0.0061154785,-0.22539225,-0.22984336,0.15322891,-9.80665,0.87393653,47.667187,-1.1867049,-2.0145454,-3.4284496,-0.26464874,0.17346792,-0.24391073,27.5625,28.8125,27.8125,31.5,33.4375,34.25
0.33005217,-0.9105172,-1.0087353,-0.71661735,-0.061968032,0.066700526,-0.19112486,-0.39868626,-0.3239229,0.059879698,3.0792944,-0.6168628,0.0004518668,-0.16040206,0.026668014,-0.00033260608,-0.009974352,0.005216196,0.04639544,0.4170374,-1.4326289,1.9660605,-2.1031687,-1.569507,2.3868845,-0.1852979,0.23891222,-0.27661467,0.029118747,0.006574706,-0.23152485,-0.34476504,0.17238252,-9.730036,0.8985519,47.64927,-1.1308541,-1.8813313,-3.4262571,-0.26641363,0.17324877,-0.13700461,27.5625,28.8125,27.8125,31.5,33.4375,34.25
0.33205172,-0.8259382,-0.7923819,-0.7666227,-0.05108995,0.0604209,-0.19129089,-0.39902854,-0.32386068,0.059872787,3.0792584,-0.6168184,0.00045379944,-0.16181575,0.026456578,0.0007917098,-0.011329166,0.008112273,0.042544253,0.41661823,-1.4321259,1.9654983,-2.1031334,-1.5694712,2.3864424,-0.18591158,0.23847112,-0.27863172,0.028387897,0.006643405,-0.2282864,-0.34476507,0.30645782,-9.710882,0.9567419,47.65643,-1.1658294,-1.9095099,-3.5796967,-0.23493358,0.1759875,-0.108739056,27.5625,28.8125,27.8125,31.5,33.4375,34.25
0.33405215,-1.0339441,-0.8464907,-0.47819623,-0.039378107,0.064535715,-0.18052274,-0.39937052,-0.32381546,0.059895042,3.079286,-0.6165991,0.0003559701,-0.16323493,0.026953679,0.0008281344,-0.011615121,0.008742431,0.032098956,0.41626996,-1.4316462,1.964887,-2.1030614,-1.5694951,2.3859541,-0.18781075,0.23988931,-0.28033504,0.027968926,0.006659005,-0.21973895,-0.5363012,0.24899697,-9.691729,0.9254084,47.667187,-1.0441349,-1.8065583,-3.5876973,-0.23453799,0.16787532,-0.19660145,27.5625,28.8125,27.8125,31.5,33.4375,34.25
0.33605167,-0.5185459,-0.37739116,-0.70067066,-0.028229127,0.08169234,-0.19230512,-0.3996759,-0.3237663,0.059871368,3.0792742,-0.6165232,0.00042889814,-0.16557568,0.027138578,0.0011382815,-0.012673188,0.010273057,0.021187574,0.41589808,-1.4311427,1.9643592,-2.1030142,-1.5694474,2.3855367,-0.19010366,0.24230012,-0.28369468,0.027092393,0.00699476,-0.21111894,-0.40222588,0.30645782,-9.634268,0.90527004,47.684196,-1.0397476,-1.8226467,-3.5648894,-0.21031803,0.17377016,-0.30325785,27.5625,28.8125,27.8125,31.5,33.4375,34.25
0.33805224,-0.60210806,0.11954662,-0.63465875,-0.026390603,0.07091159,-0.19241108,-0.40003267,-0.32371238,0.059887316,3.0792024,-0.61653167,0.00034605144,-0.16654904,0.026633171,0.001906851,-0.014375236,0.012359499,0.012747524,0.41549078,-1.4306632,1.9637731,-2.10299,-1.5694226,2.385144,-0.19023372,0.24219173,-0.28521436,0.026120678,0.0077229217,-0.20280834,-0.22984336,0.19153613,-9.749189,0.9410752,47.72271,-1.0805215,-1.8878162,-3.5149713,-0.18278411,0.15861246,-0.45486084,27.5625,28.8125,27.8125,31.5,33.4375,34.25
0.3400517,-0.79528815,-0.08564669,-0.2705331,-0.026086563,0.05893848,-0.19129129,-0.40036812,-0.32366624,0.059881497,3.0792408,-0.6164225,0.00028555156,-0.16739026,0.026511792,0.0010964682,-0.01435867,0.011835671,0.011702892,0.41515535,-1.4301353,1.9631761,-2.1029427,-1.5694588,2.384736,-0.1906409,0.24521765,-0.28667197,0.025032539,0.007923122,-0.20216972,-0.30645782,0.17238252,-9.595961,0.92764956,47.72629,-1.0367725,-1.8857095,-3.6123166,-0.1696231,0.18142107,-0.52165556,27.5625,28.8125,27.8125,31.5,33.4375,34.25
0.34205264,-0.6155892,-0.267365,-0.47587916,-0.020493794,0.059387602,-0.19923244,-0.40070152,-0.3235962,0.059883714,3.0792081,-0.6163908,0.00023376248,-0.16936514,0.027216911,0.0017191301,-0.01438132,0.013616237,0.02026431,0.41474703,-1.4296796,1.9626483,-2.1029189,-1.5694474,2.3843124,-0.19290182,0.24617885,-0.28930458,0.025086038,0.0072440663,-0.21298988,-0.22984336,0.1340753,-9.500193,0.9410752,47.679718,-0.97491395,-1.9769278,-3.5297441,-0.13717176,0.19386706,-0.47306687,27.5625,28.8125,27.8125,31.5,33.4375,34.25
0.34405267,-0.38288322,0.009892734,-0.20021039,-0.013180719,0.0584606,-0.20003639,-0.40104043,-0.32353768,0.05987461,3.079214,-0.6162469,0.0002851224,-0.16988243,0.027552458,0.0007026359,-0.013162738,0.0104507245,0.034737915,0.41433954,-1.4291513,1.9620494,-2.102834,-1.5694112,2.3838146,-0.19384648,0.24997212,-0.29193,0.027335115,0.0074161664,-0.22840723,-0.05746084,0.1340753,-9.481039,0.9298854,47.70032,-0.9589367,-2.0245848,-3.5638986,-0.114788994,0.18351555,-0.33292413,27.5625,28.8125,27.8125,31.5,33.4375,34.25
0.34605294,-0.14931314,0.20172417,-0.31940162,-0.00037189267,0.03729441,-0.19178812,-0.40141177,-0.3235045,0.059924986,3.0791442,-0.6160527,8.286764e-05,-0.17017287,0.027113987,0.00109349,-0.013426135,0.009899804,0.04601447,0.41396832,-1.4287068,1.9614261,-2.1028216,-1.5693988,2.3833313,-0.19339743,0.25084978,-0.2943743,0.029317318,0.00793003,-0.23923318,-0.095768064,0.076614454,-9.519346,0.9410752,47.70659,-1.1285253,-2.2624092,-3.4554377,-0.10881243,0.19392869,-0.19964442,27.5625,28.8125,27.8125,31.5,33.4375,34.25
0.3480526,-0.3719845,-0.10007486,-0.42365363,0.0004950131,0.023361279,-0.18172303,-0.40172035,-0.3234679,0.0599066,3.0791867,-0.6158083,0.00013748366,-0.16955996,0.025935648,0.0006258314,-0.012868098,0.008304281,0.048615392,0.41363433,-1.4281799,1.9608525,-2.1027496,-1.5693744,2.3828397,-0.19063814,0.25307405,-0.2962747,0.030686906,0.008057966,-0.23907436,-0.24899697,0.1340753,-9.442732,0.9321212,47.713753,-1.2595243,-2.1018102,-3.5403845,-0.10748002,0.19240546,-0.15767378,27.5625,28.8125,27.8125,31.5,33.4375,34.25
0.35005224,0.073421605,-0.1291759,-0.14549422,-0.019342393,0.04199424,-0.18693146,-0.40207916,-0.32338986,0.05990611,3.0791924,-0.6158122,8.5930486e-05,-0.16974339,0.025292585,0.0013669486,-0.012131687,0.009019952,0.041911554,0.4132159,-1.4276646,1.9602536,-2.1026886,-1.5693992,2.3824234,-0.18876952,0.25342265,-0.2989311,0.032626066,0.0070989793,-0.23050033,-0.30645782,0.22984336,-9.289502,0.88289046,47.709274,-1.4607916,-2.0495436,-3.5576754,-0.08838655,0.20086288,-0.21371055,27.5625,28.8125,27.8125,31.5,33.4375,34.25
0.35205197,0.0026832062,-0.46957603,-0.26506716,-0.028838024,0.05304493,-0.19106744,-0.40241852,-0.32334566,0.05991799,3.0791807,-0.6156985,7.920174e-05,-0.17086741,0.025937852,0.0017964509,-0.01219634,0.009096487,0.033272285,0.4128438,-1.4271606,1.9596308,-2.1025922,-1.5693749,2.381982,-0.190684,0.25396013,-0.30096313,0.034024872,0.007130937,-0.22377487,-0.114921674,0.22984336,-9.346964,0.9388393,47.698532,-1.395399,-2.0139108,-3.4547043,-0.0979464,0.21619001,-0.32846785,27.5625,28.8125,27.8125,31.5,33.4375,34.25
0.35405165,-0.6743232,-0.7747969,-0.14982109,-0.027856242,0.027913215,-0.18723421,-0.40278375,-0.32329088,0.0599268,3.079168,-0.61554325,-1.4603008e-05,-0.17284141,0.026551934,0.0028762154,-0.013586757,0.0116302,0.027419617,0.4124476,-1.4266466,1.95902,-2.1025684,-1.5693749,2.381491,-0.19336659,0.25355518,-0.30298737,0.033573844,0.0074024466,-0.22060367,0.095768064,0.22984336,-9.308656,0.88960326,47.68062,-1.4189816,-1.9392679,-3.4088917,-0.08411664,0.2121376,-0.3938205,27.5625,28.8125,27.8125,31.5,33.4375,34.25
0.35605213,-0.39755073,-1.3633562,-0.35674664,-0.025114238,0.020206464,-0.18365109,-0.40313402,-0.32324433,0.059933085,3.0791578,-0.6154231,-2.2512215e-05,-0.17436577,0.027099617,0.003401811,-0.013932798,0.0127039,0.029222557,0.41206348,-1.4261192,1.9583858,-2.1024845,-1.5693511,2.3810334,-0.19532432,0.25425932,-0.30520886,0.03398236,0.007300141,-0.22436328,-0.019153614,0.22984336,-9.289502,0.9679317,47.685097,-1.2654,-1.7437395,-3.400814,-0.044047207,0.22577453,-0.39369446,27.5625,28.8125,27.8125,31.5,33.4375,34.25
0.35805196,0.039125428,-0.71938765,-0.08695511,-0.029631222,0.018352125,-0.19172227,-0.403468,-0.3231883,0.059934326,3.0791442,-0.6153371,1.2203937e-05,-0.17499541,0.028355919,0.002906046,-0.013600033,0.010153925,0.03726836,0.4116672,-1.4256159,1.9577874,-2.1023881,-1.5693144,2.3805854,-0.1984044,0.2556331,-0.30625758,0.036150582,0.008034573,-0.2354896,-0.076614454,0.21068975,-9.212888,0.98807013,47.677036,-1.3298194,-1.7199011,-3.5093055,-0.048615303,0.21931064,-0.28788957,27.5625,28.8125,27.8125,31.5,33.4375,34.25
0.3600517,0.81390244,0.04056864,-0.12084249,-0.017864807,0.02786554,-0.19975439,-0.40384546,-0.3231452,0.059957303,3.0791368,-0.61505944,-0.00012415904,-0.17494994,0.028163603,0.0029455565,-0.01380077,0.009676542,0.048900954,0.41128394,-1.4251004,1.9571418,-2.1023638,-1.5693144,2.3800302,-0.19806193,0.25601277,-0.30709204,0.036979266,0.008451266,-0.2467791,0.019153614,0.076614454,-9.32781,0.95897776,47.684196,-1.3271518,-1.6502345,-3.5304623,-0.044272516,0.22876579,-0.15513277,27.5625,28.8125,27.8125,31.5,33.4375,34.25
0.36205244,0.37722138,0.19955742,-0.15481806,0.0034901707,0.02538791,-0.18780926,-0.40421447,-0.32309344,0.05997603,3.0791087,-0.61491853,-0.00017966265,-0.17621878,0.02832303,0.0033945283,-0.014666966,0.010479087,0.049027238,0.41087615,-1.4245845,1.9564942,-2.1022923,-1.56929,2.3795383,-0.19946744,0.2568408,-0.3092412,0.037228785,0.008942963,-0.24830975,-0.1340753,0.05746084,-9.32781,1.005978,47.668976,-1.2346731,-1.6590623,-3.5890303,-0.021389188,0.20164147,-0.088900246,27.5625,28.8125,27.8125,31.5,33.4375,34.25
0.36405197,0.18488841,0.45497686,-0.27297562,0.020725548,0.018505108,-0.18715204,-0.40453374,-0.32303643,0.05995788,3.0791218,-0.6147733,-0.00011622336,-0.17732829,0.029518522,0.0020859616,-0.013323564,0.00805537,0.03852972,0.4104921,-1.424069,1.9559311,-2.1022198,-1.5692548,2.3790622,-0.202169,0.26053846,-0.31072512,0.037776537,0.008668087,-0.24051297,-0.15322891,0.0,-9.270349,0.95226496,47.672558,-1.1089363,-1.8044219,-3.4861026,-0.031346805,0.23339866,-0.13912648,27.5625,28.8125,27.8125,31.5,33.4375,34.25
0.36605164,-0.30945987,0.31476447,-0.45244864,0.026676193,0.019377492,-0.17823914,-0.40485355,-0.32297316,0.059936255,3.0791438,-0.6147248,1.215892e-05,-0.17911887,0.029929483,0.0014405887,-0.012705503,0.0066709016,0.025770854,0.41009593,-1.4235283,1.9553331,-2.1020882,-1.5692185,2.3786333,-0.20412485,0.26493004,-0.31463635,0.038809936,0.008623895,-0.22970842,-0.22984336,0.05746084,-9.308656,0.9321212,47.68062,-1.022984,-1.8931017,-3.4551792,0.0017803719,0.23808606,-0.25800955,27.5625,28.8125,27.8125,31.5,33.4375,34.25
0.3680522,-0.5519971,0.32982028,-0.43163306,0.01940755,0.041836858,-0.17826712,-0.4052484,-0.32291904,0.059984066,3.0790877,-0.61464256,-0.00017870338,-0.18003236,0.030568903,0.00047397497,-0.011666071,0.0037085772,0.01415588,0.40968803,-1.4230462,1.9546622,-2.102039,-1.5692304,2.3781815,-0.20595104,0.26877004,-0.31739923,0.040850848,0.008875052,-0.21991722,-0.40222588,-0.076614454,-9.308656,0.9410752,47.677036,-0.9695802,-1.9963051,-3.4055119,-0.017096141,0.22851771,-0.3882472,27.5625,28.8125,27.8125,31.5,33.4375,34.25
0.37005183,-0.4941085,0.27634165,-0.58648205,0.027700456,0.05591627,-0.18816407,-0.40558618,-0.32282603,0.0599612,3.0791016,-0.6146464,-7.939195e-05,-0.18122058,0.030822814,0.0023541767,-0.0129069025,0.006395093,0.009620565,0.40923193,-1.4225192,1.9540876,-2.1019309,-1.5692066,2.3777263,-0.20717315,0.26648107,-0.3195496,0.042336572,0.008930033,-0.21660447,-0.3256114,-0.038307227,-9.385271,1.0149267,47.681515,-0.89536774,-1.9509407,-3.3598254,-0.020278402,0.2199851,-0.51130205,27.5625,28.8125,27.8125,31.5,33.4375,34.25
0.37205243,-1.3786271,-0.05073431,-0.52021205,0.0068687624,0.06465237,-0.18536784,-0.40595537,-0.3227955,0.059991013,3.0790865,-0.6144621,-0.00015831449,-0.18142617,0.030980155,0.0012072495,-0.011455476,0.003061021,0.019784627,0.40887287,-1.4219897,1.9533924,-2.101835,-1.5691942,2.3772545,-0.20741817,0.27031052,-0.32194918,0.044563968,0.008954218,-0.22701192,-0.51714754,0.095768064,-9.461885,0.9321212,47.672558,-0.9111595,-1.8939376,-3.339839,-0.018888917,0.23336947,-0.466829,27.5625,28.8125,27.8125,31.5,33.4375,34.25
0.3740521,-1.5258185,-0.5407103,-0.28163874,-0.012339289,0.10033675,-0.19157313,-0.4062936,-0.322736,0.059980497,3.0790656,-0.61442703,-5.3036376e-05,-0.18002658,0.029959023,0.0009474423,-0.011146422,0.0011518577,0.03705533,0.40845507,-1.4214491,1.9527706,-2.101714,-1.5691341,2.3768177,-0.20452796,0.2707141,-0.3224036,0.04652692,0.009441607,-0.2413934,-0.6512228,0.05746084,-9.404425,0.9791215,47.653748,-1.2058046,-1.842853,-3.4588273,-0.05341444,0.23092592,-0.3331052,27.5625,28.8125,27.8125,31.5,33.4375,34.25
