Tylouw/Master_Thesis_Code/training_data/batch_1/big_rod_t0.3/sample_8_session_1.csv
timestamp[s],tcp_force_x[N],tcp_force_y[N],tcp_force_z[N],tcp_force_rx[Nm?],tcp_force_ry[Nm?],tcp_force_rz[Nm?],tcp_pose_x[m],tcp_pose_y[m],tcp_pose_z[m],tcp_pose_rx[rot_vec_x],tcp_pose_ry[rot_vec_y],tcp_pose_rz[rot_vec_z],tcp_velo_x[m/s],tcp_velo_y[m/s],tcp_velo_z[m/s],tcp_velo_rx[rot_vec_x/s],tcp_velo_ry[rot_vec_y/s],tcp_velo_rz[rot_vec_z/s],q1[rad],q2[rad],q3[rad],q4[rad],q5[rad],q6[rad],qd1[rad/s],qd2[rad/s],qd3[rad/s],qd4[rad/s],qd5[rad/s],qd6[rad/s],tool_acc_x,tool_acc_y,tool_acc_z,current_of_whole_robot[A],voltage_of_whole_robot[V],current_J1[A],current_J2[A],current_J3[A],current_J4[A],current_J5[A],current_J6[A],temp_J1[C],temp_J2[C],temp_J3[C],temp_J4[C],temp_J5[C],temp_J6[C]
9.820214e-07,-0.3683301,-0.98998225,-0.26282164,-0.035397235,0.025626719,-0.015866332,-0.37287468,-0.32820877,0.05992207,-3.0784383,0.6247991,-0.00030569275,0.0025638775,0.0012225874,-0.0037621735,0.004017775,-0.008710634,-0.0001363562,0.4481623,-1.470837,2.0095956,-2.1076906,-1.5706977,2.4230433,-8.05644e-05,0.0043245396,0.0034734253,0.0017928211,0.00016485719,5.3553114e-05,0.019153614,0.21068975,-9.021352,0.75084364,47.751366,-0.20950195,-2.9837866,-2.4642549,-0.5326342,0.08814231,0.016393708,27.4375,28.75,27.6875,31.3125,33.1875,33.875
0.002054975,-1.0280963,-0.9009809,-0.21643668,-0.031383034,0.01512883,-0.003983155,-0.372875,-0.3282068,0.059912685,-3.0784318,0.6248561,-0.00032596968,-0.0014009927,-0.0006944297,-0.0024108489,-0.0018620427,0.0034565344,-0.00013067324,0.44815025,-1.4708251,2.009608,-2.1077077,-1.5706857,2.4230676,-7.954711e-05,0.004361266,0.0034142875,-0.011698171,0.00016116687,5.2923566e-05,0.05746084,0.24899697,-8.963891,0.68146914,47.729877,-0.17241451,-2.7818007,-2.3169303,-0.45200747,0.09870669,0.003207909,27.4375,28.75,27.6875,31.3125,33.1875,33.875
0.004053816,-0.6191867,-1.033182,-0.27842447,-0.025355386,0.023613937,-0.008928368,-0.37288398,-0.3282071,0.059919517,-3.0784726,0.62482584,-0.00031906896,-0.0017825931,-0.0008721568,-0.002228682,-0.0028622157,0.0055726846,-0.00012892924,0.44812617,-1.4708372,2.0096085,-2.1077201,-1.5706614,2.4230194,-7.85552e-05,0.0036743283,0.004338415,-0.014275848,0.00014190566,5.2308147e-05,0.05746084,0.22984336,-8.983045,0.7396539,47.729877,-0.13565296,-3.0692165,-2.588401,-0.351071,0.079433665,0.008031549,27.4375,28.75,27.6875,31.3125,33.1875,33.875
0.006053715,-0.33649927,-0.19578737,-0.28546438,-0.020348914,0.01667675,-0.010560373,-0.3728993,-0.32820573,0.059934445,-3.0784802,0.62486553,-0.00022428816,-0.00035175149,-0.00017356979,-0.0020400535,-0.00090324687,0.0015706556,-0.00012899702,0.44812617,-1.4708616,2.0096085,-2.107753,-1.5706857,2.4230433,-7.758787e-05,0.0025041646,0.003777049,-0.008088587,0.00012319967,5.1707102e-05,0.038307227,0.19153613,-9.078813,0.7172743,47.703007,-0.121935785,-2.928688,-2.609386,-0.39227444,0.10039993,0.014582721,27.4375,28.75,27.6875,31.3125,33.1875,33.875
0.008053752,0.5068322,0.54942346,-0.8352151,0.017821297,-0.004290612,-0.018191103,-0.3728933,-0.32820523,0.059907828,-3.0784597,0.62491965,-0.00030702545,-0.00019773678,-9.810879e-05,-0.0013381134,-0.00037359493,0.0004887935,-0.0001275589,0.44811413,-1.470814,2.00962,-2.1077645,-1.5706614,2.4230676,-7.664394e-05,0.0018979338,0.0020177022,-0.004518463,0.00011897339,5.112067e-05,-0.019153614,0.1340753,-9.136273,0.66132545,47.711063,-0.13278833,-2.9224672,-2.5060472,-0.42588854,0.09570855,0.0028935247,27.4375,28.75,27.6875,31.3125,33.1875,33.875
0.010054074,0.42284545,0.9909507,-1.0972053,0.041932188,-0.022144515,-0.01165139,-0.37287375,-0.32822138,0.059906565,-3.0784748,0.6248066,-0.00032306107,-2.2849623e-05,-9.140075e-06,-0.0011504369,1.4214389e-05,-0.00030494406,-0.00013332862,0.4481623,-1.4708141,2.00962,-2.1077516,-1.5706614,2.4230433,-8.2847415e-05,0.0017302611,0.001387572,-0.0028372584,0.000115847324,5.0546503e-05,0.11492168,0.05746084,-9.155427,0.7642693,47.705692,-0.6345501,-2.3900657,-2.9773493,-0.45242912,0.07548397,-0.045027964,27.4375,28.75,27.6875,31.3125,33.1875,33.875
0.012053671,-0.16480109,0.102100395,-1.3343837,0.036254205,-0.019930283,-0.014231446,-0.37289447,-0.32821158,0.0599067,-3.0784733,0.6248469,-0.00030948213,-0.0018162094,0.0014523527,-0.0030197795,0.0018929542,-0.0042137904,-0.004497069,0.448125,-1.4707997,2.0096066,-2.1077635,-1.5706614,2.4230313,-0.0044660596,0.007666949,-0.0010223149,-0.0020271463,0.000112935515,3.3235414e-05,0.114921674,0.076614454,-9.308657,0.7620334,47.686886,-0.8038566,-2.558199,-3.0402603,-0.46270114,0.07663162,-0.115670614,27.4375,28.75,27.6875,31.3125,33.1875,33.875
0.0140543,-0.094776005,-0.4136096,-1.3622823,-0.01312566,0.020021508,-0.018699806,-0.3728607,-0.32820484,0.059875954,-3.0784214,0.6248576,-0.00044075062,-0.0053795422,0.002527504,-0.004117415,0.0028201907,-0.0061644465,-0.006464817,0.44813493,-1.4707733,2.00964,-2.1077273,-1.5706495,2.4230545,-0.009735426,0.014955137,-0.0066009583,-0.0015773722,0.00011017013,-0.0032640074,-0.019153614,0.076614454,-9.442732,0.65684843,47.721813,-0.39008054,-2.9019508,-2.9707742,-0.46076858,0.08586993,-0.17020541,27.4375,28.75,27.6875,31.3125,33.1875,33.875
0.01605384,-1.4646227,-1.4094532,-1.3696172,-0.05097958,0.04250986,-0.021923665,-0.37286103,-0.32818106,0.059848815,-3.0783386,0.6248174,-0.00050003716,-0.0058921822,0.0028143504,-0.003859184,0.0027056606,-0.0059307613,-0.00041188762,0.44812253,-1.4707136,2.0096285,-2.1076915,-1.5706977,2.4230275,-0.010739953,0.014909485,-0.0072397143,-0.0011547093,0.00010753722,-0.0103212185,-0.30645782,0.15322891,-9.730036,0.7463667,47.701214,-0.38689572,-2.7944093,-3.0480256,-0.48216152,0.10037573,-0.12381482,27.4375,28.75,27.6875,31.3125,33.1875,33.875
0.018053586,-1.9578305,-1.9799155,-1.3413119,-0.07509742,0.09106139,-0.029386654,-0.37286097,-0.3281814,0.059845727,-3.0783448,0.624857,-0.00056547235,-0.0051639853,0.003078928,-0.004099644,0.003263924,-0.007079117,0.00076106837,0.44809863,-1.4707018,2.009617,-2.1076672,-1.5706614,2.4230275,-0.010572657,0.014315318,-0.0062342184,-0.0002889549,0.00010502725,-0.011327831,-0.4405331,0.21068975,-9.844957,0.7329411,47.695843,-0.631428,-2.579669,-3.2591314,-0.48276794,0.096912056,-0.12934758,27.4375,28.75,27.6875,31.3125,33.1875,33.875
0.020054094,-2.5572262,-2.169462,-1.5672015,-0.06397861,0.10971114,-0.025771627,-0.3728621,-0.32819465,0.059820067,-3.0783522,0.6247824,-0.00067452225,-0.0058561466,0.0033891138,-0.00459541,0.0037439018,-0.008118207,-0.0011367832,0.4480982,-1.4706172,2.0095804,-2.1076553,-1.5706257,2.4229796,-0.011797896,0.016378177,-0.0074222814,-1.886669e-05,0.00012046058,-0.010654296,-0.47884035,0.24899697,-9.768343,0.7463667,47.70838,-0.7247424,-2.5219646,-3.4444213,-0.49739128,0.10629138,-0.16920313,27.4375,28.75,27.6875,31.3125,33.1875,33.875
0.022053478,-2.4903314,-1.0250742,-1.4728006,-0.054728255,0.10558211,-0.044141103,-0.37290323,-0.32818633,0.059844274,-3.078358,0.62488,-0.0005608401,-0.00805733,0.003625837,-0.0036316216,0.0027215732,-0.006083943,-0.0024958663,0.44806135,-1.470629,2.0095432,-2.1076791,-1.5706495,2.423003,-0.014268558,0.017203983,-0.010542609,-1.2318601e-06,0.00015384647,-0.011763931,-0.53630114,0.21068975,-9.691729,0.7530795,47.70032,-0.7552897,-2.4671514,-3.477757,-0.49502182,0.122555725,-0.22621518,27.4375,28.75,27.6875,31.3125,33.1875,33.875
0.024054268,-1.8662461,-0.6420198,-1.4398297,-0.025609866,0.09584276,-0.06460317,-0.37289783,-0.32817075,0.059806067,-3.0783226,0.62483376,-0.000651648,-0.009636443,0.0035236923,-0.0034565274,0.0021264679,-0.005686895,-0.0007228595,0.44803685,-1.4705683,2.009567,-2.107691,-1.5706495,2.422954,-0.015755987,0.019435352,-0.013392542,-8.043166e-08,0.000509108,-0.01502306,-0.6895301,0.19153613,-9.749189,0.7620334,47.701214,-0.783419,-2.4916553,-3.4045224,-0.5099479,0.09372762,-0.21368514,27.4375,28.75,27.6875,31.3125,33.1875,33.875
0.026053593,-1.7019329,-0.37544864,-1.5130345,-0.017894978,0.07613889,-0.0797261,-0.37291604,-0.32817522,0.05979705,-3.0783274,0.6248345,-0.00070505665,-0.010097464,0.0036627802,-0.0033845378,0.000910386,-0.0060772835,-0.0006192883,0.4480122,-1.4705085,2.0095193,-2.1076791,-1.5706252,2.4229293,-0.017291993,0.019568719,-0.01370527,-5.2516125e-09,0.0017720421,-0.016665127,-0.8236054,0.21068975,-9.691729,0.7665104,47.73256,-0.7146063,-2.458672,-3.4157972,-0.5138929,0.1061188,-0.18793663,27.4375,28.75,27.6875,31.3125,33.1875,33.875
0.028054204,-1.8718356,-0.9324346,-1.6131907,-0.012658585,0.07658297,-0.08575642,-0.3729184,-0.32816577,0.05979617,-3.0783155,0.62481296,-0.000708214,-0.011249261,0.0031971207,-0.0022186867,-0.0011009678,-0.0041440614,-0.0008674211,0.44800004,-1.4705087,2.0095189,-2.1076672,-1.5706366,2.4229052,-0.01812134,0.018986525,-0.01574052,-3.4289277e-10,0.002742553,-0.017247304,-0.7469909,0.17238252,-9.749189,0.75084364,47.737038,-0.76859266,-2.3950331,-3.4496896,-0.50965714,0.07915131,-0.18697587,27.4375,28.75,27.6875,31.3125,33.1875,33.875
0.030053902,-2.4460003,-0.9417038,-1.3711534,-0.03239249,0.079292655,-0.1017427,-0.37296048,-0.32815424,0.059779454,-3.0783012,0.62484854,-0.0007230646,-0.011819048,0.0030447063,-0.0025393635,-0.0008474144,-0.004623385,-0.0006006787,0.44794,-1.470424,2.0094697,-2.107691,-1.5706366,2.4228692,-0.01833573,0.020963678,-0.01717563,-2.2388445e-11,0.0027178484,-0.017727243,-0.82360536,0.15322891,-9.710882,0.7553206,47.71823,-0.7637707,-2.338399,-3.434733,-0.5028467,0.07407039,-0.21609792,27.4375,28.75,27.6875,31.3125,33.1875,33.875
0.032053478,-2.468758,-0.8165276,-1.1461442,-0.036049437,0.10145956,-0.10747077,-0.3729984,-0.32817876,0.059817784,-3.0783823,0.62488437,-0.0006371574,-0.013308262,0.003265478,-0.0021581177,-0.0009288839,-0.003557656,-0.0007455492,0.44792742,-1.4704356,2.0093973,-2.107703,-1.5706009,2.4228687,-0.019839082,0.022196803,-0.01940268,-1.4618055e-12,0.0023258536,-0.019083124,-0.7278373,0.05746084,-9.710882,0.82694155,47.723602,-0.7708639,-2.3334987,-3.3974628,-0.5123271,0.08860545,-0.20709863,27.4375,28.75,27.6875,31.3125,33.1875,33.875
0.03405341,-2.205513,-0.5633684,-1.105724,-0.018807545,0.10450573,-0.13414195,-0.37301004,-0.3281629,0.059785057,-3.078357,0.6248794,-0.00072181824,-0.014843106,0.0034432502,-0.0013068528,-0.0014477617,-0.0016193977,-0.0011950801,0.4478789,-1.4703637,2.0093963,-2.1077154,-1.570589,2.4228203,-0.021312535,0.022369174,-0.021545222,-9.544545e-14,0.0019477285,-0.020105073,-0.57460845,0.019153614,-9.557653,0.7486078,47.717335,-0.7509433,-2.3867614,-3.3658175,-0.51450014,0.082732916,-0.19828251,27.4375,28.75,27.6875,31.3125,33.1875,33.875
0.0360535,-2.0144246,-0.26733622,-1.3718721,0.008464993,0.07829695,-0.14564128,-0.37306404,-0.32816133,0.059790485,-3.078392,0.62486684,-0.00068748085,-0.015738098,0.0034306645,-0.0009940427,-0.0017928361,-0.00091278093,-0.000609298,0.4478187,-1.4703037,2.0093234,-2.1077392,-1.570577,2.4227479,-0.02210124,0.023063185,-0.023025334,-6.231906e-15,0.0019495303,-0.021478496,-0.40222588,-0.019153614,-9.576807,0.8224646,47.752266,-0.8107244,-2.3776345,-3.3892398,-0.5215603,0.10302004,-0.21277663,27.4375,28.75,27.6875,31.3125,33.1875,33.875
0.038053293,-1.2086575,0.17989248,-1.1701769,0.020763677,0.05217312,-0.16267985,-0.37311298,-0.32814842,0.05979666,-3.078365,0.6248421,-0.00062869507,-0.016923595,0.0034860936,-0.0006528456,-0.0026927597,0.00018798489,-2.7402693e-05,0.44778216,-1.4702433,2.0092404,-2.1077273,-1.5706247,2.4226995,-0.023504274,0.02370158,-0.024350643,-0.0006973412,0.0022788025,-0.023462985,-0.24899697,-0.038307227,-9.423578,0.64342284,47.699425,-0.79779696,-2.3650322,-3.355314,-0.50016016,0.07925764,-0.20347472,27.4375,28.75,27.6875,31.3125,33.1875,33.875
0.04005405,-1.2157971,-0.06882514,-1.4143213,0.030999904,0.011372899,-0.16370289,-0.37314674,-0.32812205,0.059780635,-3.0783367,0.625009,-0.0006796462,-0.018059347,0.0034140039,-0.00034905365,-0.0038197623,0.00084574946,0.00066562317,0.4476857,-1.4701952,2.009227,-2.1077397,-1.5706009,2.4227107,-0.024889974,0.024597721,-0.025943933,-0.0010830234,0.00300408,-0.025542066,-0.24899697,-0.076614454,-9.557653,0.7553206,47.749577,-0.7570831,-2.2396626,-3.3606434,-0.48499376,0.08067928,-0.19895416,27.4375,28.75,27.6875,31.3125,33.1875,33.875
0.042053863,-0.23436399,0.15661934,-1.3143375,0.010732951,0.017361723,-0.17510983,-0.37320107,-0.32811823,0.059800193,-3.078368,0.6249572,-0.0006074856,-0.019644922,0.003518687,-5.387043e-07,-0.004863881,0.002531137,0.0005379661,0.4476372,-1.470159,2.0091426,-2.1077402,-1.5706128,2.422626,-0.026664188,0.025524644,-0.02744119,-0.0024850287,0.0032099024,-0.027187439,-0.15322891,-0.019153614,-9.442732,0.8157518,47.739727,-0.69686836,-2.2409105,-3.3554587,-0.4786658,0.07858923,-0.18640739,27.4375,28.75,27.6875,31.3125,33.1875,33.875
0.04405347,-0.44016963,-0.6590442,-1.3362775,0.009806155,0.012870911,-0.15875192,-0.37320593,-0.32810563,0.059771426,-3.0783458,0.6249334,-0.00069453905,-0.02079422,0.0036343778,-1.7124314e-05,-0.0049902066,0.0025958533,0.000996726,0.44760063,-1.4700985,2.0091422,-2.1077402,-1.5706004,2.4225774,-0.027980393,0.027284844,-0.029343033,-0.002456402,0.0032892216,-0.028961355,-0.095768064,-0.019153614,-9.423578,0.7284641,47.698532,-0.6991943,-2.2615342,-3.3096647,-0.47820556,0.097603574,-0.18816443,27.4375,28.75,27.6875,31.3125,33.1875,33.875
0.04605406,0.15875793,-0.48011798,-1.2761272,-0.009884319,0.036708824,-0.163965,-0.37326887,-0.32809314,0.059781674,-3.0783358,0.62496924,-0.0006682168,-0.021676198,0.0038917004,0.00025660646,-0.00492795,0.0027928795,0.002230417,0.44752827,-1.4700263,2.009034,-2.1077158,-1.5706128,2.4225287,-0.0291638,0.028002482,-0.030922413,-0.0017451938,0.003145281,-0.031377267,-0.038307227,0.095768064,-9.461885,0.8179876,47.744205,-0.7146982,-2.2246845,-3.3568196,-0.4700688,0.08151727,-0.16693717,27.4375,28.75,27.6875,31.3125,33.1875,33.875
0.04805433,-0.62739575,-0.5612829,-1.4155275,-0.020906925,0.020157006,-0.15056297,-0.3733287,-0.3280879,0.059798293,-3.078374,0.6250146,-0.00060511654,-0.022582712,0.004310221,0.00070316816,-0.0054396335,0.0030881092,0.0031483239,0.44745564,-1.4699905,2.008962,-2.1077397,-1.5706004,2.4224796,-0.030994827,0.027991442,-0.03209332,-0.0010516352,0.0034786398,-0.034126192,0.019153614,0.1340753,-9.481039,0.7620334,47.728977,-0.6477076,-2.1947122,-3.358293,-0.4789832,0.09874636,-0.14718503,27.4375,28.75,27.6875,31.3125,33.1875,33.875
0.05005388,-0.22060947,-0.6500891,-1.3816464,-0.028705483,0.027444176,-0.15029141,-0.37336025,-0.3280903,0.05980124,-3.0783882,0.6249786,-0.0005913932,-0.023334542,0.0043087713,0.00095290964,-0.0058213198,0.0032423194,0.0042767064,0.44743147,-1.4699425,2.0089023,-2.1077392,-1.5706004,2.4224312,-0.031858977,0.028733209,-0.033582233,-0.0006097465,0.0037533008,-0.036118362,0.076614454,0.076614454,-9.481039,0.73069996,47.699425,-0.64009815,-2.0946968,-3.3754587,-0.47818285,0.09293376,-0.1376197,27.4375,28.75,27.6875,31.3125,33.1875,33.875
0.052053303,-0.5277832,-1.0761015,-1.4772633,-0.028725883,0.013350107,-0.14376862,-0.3734024,-0.3280636,0.059783358,-3.0783346,0.6249667,-0.000643427,-0.023993803,0.0044336715,0.0010886624,-0.0060603237,0.0027907193,0.005025646,0.44735909,-1.4698461,2.0088294,-2.107703,-1.5706242,2.4223583,-0.03296482,0.029606406,-0.035062388,0.0002987135,0.0041601923,-0.03797346,0.11492168,0.22984336,-9.461885,0.77545905,47.741516,-0.6386572,-2.117528,-3.418962,-0.48290324,0.10091919,-0.115512475,27.4375,28.75,27.6875,31.3125,33.1875,33.875
0.054054074,-0.9727136,-1.8962036,-1.6156886,-0.027532855,-0.0010911188,-0.13940847,-0.3734563,-0.3280469,0.059776485,-3.0783536,0.624971,-0.0006652812,-0.02493672,0.0046931705,0.0012502341,-0.0064126914,0.0031805714,0.004663685,0.4472625,-1.469774,2.0087688,-2.1077154,-1.5706004,2.422262,-0.034402512,0.030310621,-0.036189694,0.00021859196,0.0043065934,-0.039048687,-0.076614454,0.28730422,-9.461885,0.76874626,47.73525,-0.6459559,-2.0578294,-3.412098,-0.48270056,0.08084709,-0.1068909,27.4375,28.75,27.6875,31.3125,33.1875,33.875
0.056053568,-0.52853245,-1.7291118,-1.6139919,-0.03864452,0.011598776,-0.13869037,-0.37351775,-0.32803804,0.059801582,-3.0783896,0.62497735,-0.0005904121,-0.025820473,0.0049639973,0.0010559442,-0.0063599334,0.002934562,0.006056327,0.44719005,-1.4697496,2.0086844,-2.1077154,-1.5706004,2.422189,-0.035747703,0.031829935,-0.037396815,0.00015089111,0.004363958,-0.041785393,-0.038307227,0.3256114,-9.557653,0.7284641,47.701214,-0.6167832,-2.0493486,-3.4205117,-0.48781347,0.0924294,-0.097205505,27.4375,28.75,27.6875,31.3125,33.1875,33.875
0.058054302,-0.8517459,-2.2432907,-1.6947905,-0.028581461,0.012758658,-0.13834094,-0.37355614,-0.3280356,0.059784293,-3.0784194,0.62498367,-0.00065275485,-0.02665282,0.0048215934,0.0014837851,-0.006775234,0.0039018244,0.006319404,0.44711792,-1.4696655,2.0086372,-2.1077392,-1.5705522,2.422117,-0.03619856,0.032315172,-0.03890779,0.00012736321,0.004316401,-0.042498305,0.05746084,0.3256114,-9.595961,0.6411817,47.717335,-0.65622985,-2.0067067,-3.4743962,-0.48491073,0.08078551,-0.06892788,27.4375,28.75,27.6875,31.3125,33.1875,33.875
0.060053796,-1.2090948,-1.6677285,-1.6208861,-0.03568036,0.019970575,-0.13492195,-0.37361884,-0.32802272,0.05982251,-3.078429,0.624929,-0.0005308841,-0.027843846,0.0050834743,0.0019498774,-0.0070337467,0.0050235474,0.004063304,0.44706944,-1.4696534,2.008528,-2.107703,-1.5706004,2.4220333,-0.037595835,0.03275677,-0.040457513,0.00011141103,0.0040645637,-0.04163772,-0.11492168,0.34476504,-9.5385,0.7150385,47.71465,-0.64603484,-1.9678669,-3.4740205,-0.4904763,0.085350126,-0.08270496,27.4375,28.75,27.6875,31.3125,33.1875,33.875
0.06205409,-1.1090996,-1.4268049,-1.6176329,-0.032743897,0.0393071,-0.1473767,-0.3736696,-0.32803264,0.05980796,-3.078471,0.6248795,-0.0005920425,-0.02844808,0.004899809,0.00197378,-0.0072843097,0.005070698,0.0044936626,0.44700935,-1.4695331,2.0084321,-2.1077154,-1.5705522,2.421937,-0.03793035,0.033927858,-0.041809045,0.00014252201,0.0042668884,-0.042402066,-0.15322891,0.3256114,-9.615114,0.7418897,47.70659,-0.735525,-1.9570944,-3.4605985,-0.46667272,0.090523854,-0.10543339,27.4375,28.75,27.6875,31.3125,33.1875,33.875
0.064053684,-1.2310982,-1.5060402,-1.5644782,-0.029015819,0.05059616,-0.14101095,-0.37373883,-0.3280323,0.05982804,-3.0785444,0.624894,-0.00056392734,-0.029603366,0.0047591804,0.002311704,-0.008407098,0.005517313,0.00439767,0.446913,-1.4694849,2.0083358,-2.1077268,-1.5705036,2.4218404,-0.039259493,0.035017397,-0.043779407,0.0001348866,0.005084905,-0.04363518,-0.19153613,0.24899697,-9.576807,0.7866488,47.71286,-0.70417404,-2.0271423,-3.4669995,-0.47883546,0.088334486,-0.08560775,27.4375,28.75,27.6875,31.3125,33.1875,33.875
0.06605374,-1.4348756,-1.3765626,-1.3822901,-0.029262468,0.05349729,-0.13624345,-0.37379187,-0.3280173,0.059829146,-3.0785265,0.6248902,-0.00054043933,-0.030413376,0.004701423,0.0024549987,-0.008580971,0.005928873,0.005379007,0.4468527,-1.4694128,2.0082514,-2.1077154,-1.5705274,2.42178,-0.03986382,0.036067575,-0.04525971,0.000118058946,0.0050605265,-0.04521974,-0.15322891,0.24899697,-9.519346,0.8179876,47.71554,-0.70983934,-1.9179878,-3.4881244,-0.4803028,0.06689047,-0.06544516,27.4375,28.75,27.6875,31.3125,33.1875,33.875
0.068053305,-1.9185586,-1.3183452,-1.4197164,-0.01451344,0.038270425,-0.13504118,-0.37383628,-0.32800677,0.059829473,-3.0785434,0.62491333,-0.00058970245,-0.031175258,0.0049091615,0.0019829425,-0.008042259,0.005241297,0.005123861,0.44676843,-1.469352,2.0081785,-2.107691,-1.5704917,2.421708,-0.04081032,0.03825135,-0.046574224,0.00010439359,0.0048688343,-0.045909654,-0.2681506,0.24899697,-9.481039,0.8493211,47.71554,-0.71731395,-1.9479136,-3.483955,-0.47669393,0.08177084,-0.06918995,27.4375,28.75,27.6875,31.3125,33.1875,33.875
0.07005366,-1.0756226,-0.8546903,-1.3222462,-0.012178028,0.059481774,-0.15004517,-0.37392002,-0.32799375,0.059841372,-3.0785823,0.6248455,-0.00047769796,-0.032232877,0.004562459,0.002427518,-0.008638568,0.0062147574,0.0026303274,0.44668418,-1.4692796,2.0080826,-2.1077392,-1.5705155,2.4215767,-0.041187823,0.03933864,-0.048787262,9.352963e-05,0.004986202,-0.043792,-0.36391866,0.19153613,-9.461885,0.68146914,47.693153,-0.8190228,-1.9381404,-3.4758477,-0.46738663,0.081339285,-0.11377029,27.4375,28.75,27.6875,31.3125,33.1875,33.875
0.072054364,-1.552667,-1.0031365,-1.3965621,0.0026255222,0.046195194,-0.13915968,-0.37396887,-0.32797235,0.059824366,-3.0785704,0.62490207,-0.00057193264,-0.033672966,0.0051103756,0.0024374104,-0.008874806,0.0063057784,0.001436151,0.4465754,-1.4691834,2.0080106,-2.1077154,-1.5704798,2.4215047,-0.04362956,0.040856183,-0.05047856,8.471292e-05,0.0051547214,-0.045038875,-0.34476504,0.15322891,-9.423578,0.7665104,47.70211,-0.73989224,-1.9273231,-3.4851398,-0.46228248,0.075137295,-0.114859164,27.4375,28.75,27.6875,31.3125,33.1875,33.875
0.0740542,-1.0051731,-0.19934851,-1.1100792,-0.0025349013,0.06145948,-0.14486885,-0.37404594,-0.32798836,0.05984985,-3.0786414,0.6248582,-0.000478844,-0.034743804,0.004961423,0.0026974888,-0.009256898,0.0069347457,0.0016595196,0.44652727,-1.4691111,2.007878,-2.1077392,-1.5704674,2.4214203,-0.044360448,0.042156853,-0.052503634,7.741749e-05,0.0052273287,-0.045991417,-0.28730422,0.11492168,-9.404425,0.7709874,47.71465,-0.7282839,-1.9324241,-3.432781,-0.44412693,0.070247315,-0.12507565,27.4375,28.75,27.6875,31.3125,33.1875,33.875
0.07605337,-1.532453,-0.22266811,-1.0381747,0.00135349,0.04848269,-0.13293502,-0.37413,-0.32797796,0.05986321,-3.0786698,0.6248637,-0.0004192925,-0.034796316,0.0045744176,0.0022365141,-0.008943664,0.006118508,0.002545832,0.44643152,-1.4690267,2.0077574,-2.1077507,-1.5704674,2.4213245,-0.043718867,0.0439593,-0.053428188,7.12802e-05,0.005298329,-0.046235193,-0.3256114,0.095768064,-9.251195,0.76874626,47.7451,-0.8578552,-1.9197681,-3.382089,-0.4632253,0.075480506,-0.13407266,27.4375,28.75,27.6875,31.3125,33.1875,33.875
0.07805413,-1.6286193,-0.47888795,-0.9927075,-0.0025869266,0.05592876,-0.13686052,-0.37419406,-0.3279593,0.059856538,-3.0786428,0.6248778,-0.00043660475,-0.03670868,0.0046643964,0.0034351703,-0.009966051,0.0086401785,0.00093969353,0.44634673,-1.4689188,2.0076487,-2.1077268,-1.5704798,2.421252,-0.045493826,0.043987457,-0.05622357,0.0001230625,0.0051258756,-0.04640218,-0.34476507,0.05746084,-9.289502,0.7553206,47.71554,-0.85744303,-1.8657308,-3.411119,-0.4503746,0.06616118,-0.15421268,27.4375,28.75,27.6875,31.3125,33.1875,33.875
0.080053665,-1.7128567,-0.48711067,-0.96605015,-0.008496029,0.051961824,-0.13320357,-0.37427697,-0.32796732,0.059894722,-3.0787282,0.62485695,-0.00036662648,-0.03835366,0.004587847,0.0032226965,-0.010271165,0.008314747,7.7048615e-05,0.44626227,-1.4688697,2.0075047,-2.1077154,-1.5704435,2.4211438,-0.047109023,0.04726876,-0.059341714,0.00012246419,0.005539658,-0.04715263,-0.34476504,0.11492168,-9.346964,0.7978386,47.73614,-0.87364113,-1.8850219,-3.261823,-0.43919826,0.086059734,-0.17286226,27.4375,28.75,27.6875,31.3125,33.1875,33.875
0.082053974,-1.2712582,-0.5621703,-1.0380015,-0.0046943245,0.055642232,-0.14307858,-0.3743571,-0.32794797,0.059874717,-3.0787241,0.62483805,-0.0003834916,-0.03844256,0.0061012786,0.0017411627,-0.008543654,0.0055451635,-0.0019646902,0.44615328,-1.4687253,2.0073974,-2.1077392,-1.5704435,2.4210236,-0.04977855,0.049082827,-0.05795615,0.0001687069,0.005179869,-0.047780443,-0.4405331,0.05746084,-9.423578,0.74413085,47.701214,-0.71323377,-2.0297244,-3.4060245,-0.43212548,0.065521605,-0.18320584,27.4375,28.75,27.6875,31.3125,33.1875,33.875
0.08405355,-1.1179706,-0.44400135,-0.9701954,-0.018493975,0.05790353,-0.14681116,-0.3744432,-0.32792756,0.059887033,-3.0787325,0.62485856,-0.00032627056,-0.03943884,0.00570717,0.0033236553,-0.009770141,0.0087575475,-0.001486622,0.44604537,-1.4686421,2.0072777,-2.1077392,-1.5704559,2.4209275,-0.049735557,0.04735129,-0.059694543,0.00021246567,0.0048995223,-0.048214115,-0.38307226,0.11492168,-9.32781,0.80456203,47.728977,-0.75996107,-1.8200059,-3.445859,-0.42842132,0.065092295,-0.21747124,27.4375,28.75,27.6875,31.3125,33.1875,33.875
0.086053915,-1.558759,-0.57264364,-0.9419232,-0.013357177,0.046820916,-0.13665529,-0.3745163,-0.32792476,0.059890073,-3.0787573,0.6249599,-0.00032916816,-0.041387185,0.004456359,0.004204755,-0.011149879,0.010504481,-0.00077840727,0.44594947,-1.4685454,2.007167,-2.1077507,-1.5704197,2.4208918,-0.049464073,0.05010087,-0.06477641,0.00037409438,0.005382726,-0.048648115,-0.3256114,0.11492168,-9.289502,0.7777002,47.737934,-0.8364204,-1.8267249,-3.3382425,-0.41482705,0.059636503,-0.23340097,27.4375,28.75,27.6875,31.3125,33.1875,33.875
0.08805427,-2.1956604,-1.0882509,-1.1611712,0.005936587,0.030074604,-0.12608695,-0.3746175,-0.3279005,0.059914365,-3.0787659,0.62496156,-0.0002495464,-0.04173595,0.0058733462,0.0028444286,-0.009730576,0.007894055,-0.0005083169,0.4458285,-1.4684609,2.007013,-2.1077268,-1.5704435,2.420771,-0.052325714,0.052152585,-0.06393303,0.00044654682,0.005233219,-0.05177957,-0.34476504,0.1340753,-9.385271,0.7709874,47.74868,-0.80208576,-1.8455638,-3.3263402,-0.42156497,0.066963196,-0.2374514,27.4375,28.75,27.6875,31.3125,33.1875,33.875
0.0900538,-1.5658256,-1.009916,-1.2248397,-0.007019727,0.051122397,-0.13553199,-0.37466678,-0.32790494,0.05990737,-3.0787911,0.6249081,-0.00031382704,-0.042620968,0.0062598987,0.0019746746,-0.008588504,0.0061420454,-0.0008593117,0.44576803,-1.468352,2.006904,-2.1077025,-1.5704077,2.4206738,-0.053657092,0.055544272,-0.0657982,0.0009965263,0.004954681,-0.052758142,-0.24899697,0.19153613,-9.385271,0.7597976,47.71554,-0.8124862,-1.9897583,-3.404154,-0.4157806,0.069209665,-0.24705139,27.4375,28.75,27.6875,31.3125,33.1875,33.875
0.09205399,-1.841924,-1.2018291,-1.0805949,-0.024847899,0.047108836,-0.13632599,-0.3747507,-0.32789215,0.059893172,-3.0788155,0.6248368,-0.00032540134,-0.044191156,0.0055741244,0.004482926,-0.011041062,0.0105731925,-0.00149976,0.44566005,-1.468209,2.0067847,-2.1077263,-1.5703958,2.4205184,-0.053973336,0.052944414,-0.068828546,0.0015712779,0.0052535534,-0.052433223,-0.38307226,0.17238252,-9.32781,0.7284641,47.728977,-0.86606145,-1.8381978,-3.2408218,-0.4220979,0.063093275,-0.29307964,27.4375,28.75,27.6875,31.3125,33.1875,33.875
0.09405366,-1.5399181,-1.571807,-1.2098972,-0.021679673,0.053980675,-0.13562906,-0.37486023,-0.3278725,0.059917927,3.0787792,-0.6249444,0.00027730188,-0.04498628,0.00565981,0.0035916888,-0.010153669,0.00893954,-0.00072910095,0.44551578,-1.468112,2.0066159,-2.1077025,-1.5703834,2.420446,-0.05477061,0.056511868,-0.07076281,0.0017966666,0.005157541,-0.05399911,-0.3256114,0.22984336,-9.3661175,0.76874626,47.72002,-0.88187325,-1.8212869,-3.2509384,-0.41229343,0.073636875,-0.3094814,27.4375,28.75,27.6875,31.3125,33.1875,33.875
0.096054114,-1.5549797,-1.3406224,-1.2094413,-0.031809233,0.054488193,-0.13628086,-0.3749559,-0.32785636,0.05993768,3.0787637,-0.62495923,0.00022004981,-0.045710605,0.005793949,0.0030824174,-0.010265532,0.0076835556,0.0007625232,0.4454074,-1.4680154,2.006459,-2.1076787,-1.5703958,2.420349,-0.056096062,0.05876656,-0.07212184,0.0019841827,0.0058002127,-0.0568159,-0.2681506,0.28730422,-9.461885,0.800085,47.71554,-0.8813732,-1.9446752,-3.2599173,-0.41617006,0.06302802,-0.31781337,27.4375,28.75,27.6875,31.3125,33.1875,33.875
0.09805385,-1.6075057,-1.5057062,-1.3225399,-0.036471523,0.048452567,-0.13067496,-0.37503508,-0.32784978,0.059920285,3.0787714,-0.6248846,0.00020668024,-0.04693708,0.005294511,0.0035227493,-0.011169002,0.008670828,-0.00022523923,0.44532317,-1.4678712,2.0063512,-2.1077263,-1.5703954,2.4202173,-0.056513064,0.06024651,-0.07473208,0.0018333964,0.0061860564,-0.05624386,-0.22984336,0.3256114,-9.385271,0.7642693,47.705692,-0.9098227,-1.8894455,-3.2345006,-0.41680413,0.08000521,-0.338846,27.4375,28.75,27.6875,31.3125,33.1875,33.875
0.10005356,-1.3374184,-1.6314188,-1.289413,-0.035517175,0.0454557,-0.13148627,-0.3751291,-0.3278418,0.059936374,3.0787616,-0.6248455,0.0002035555,-0.04733502,0.005625047,0.00289522,-0.010720203,0.0076301927,-0.0030975025,0.44521487,-1.4677507,2.006171,-2.1076787,-1.570383,2.420086,-0.057506595,0.061939314,-0.07512349,0.0016654653,0.0062301075,-0.054364588,-0.30645782,0.28730422,-9.404425,0.7777002,47.741516,-0.99207443,-1.977006,-3.192019,-0.40488458,0.0728072,-0.40184563,27.4375,28.75,27.6875,31.3125,33.1875,33.875
0.10205425,-1.3320417,-1.160032,-1.2274438,-0.045757532,0.040395755,-0.13726519,-0.37523878,-0.32783225,0.059948843,3.0787082,-0.624834,0.00015208857,-0.047977574,0.006403062,0.0022237522,-0.009881789,0.0065307505,-0.0027041347,0.4450822,-1.4676304,2.0060155,-2.1077025,-1.5703596,2.4199529,-0.059338644,0.06363405,-0.075452924,0.0016569397,0.0059507056,-0.056588776,-0.24899697,0.28730422,-9.346964,0.7553206,47.687782,-0.877866,-1.929551,-3.1871166,-0.39512372,0.06836715,-0.43043947,27.4375,28.75,27.6875,31.3125,33.1875,33.875
0.10405401,-1.1281757,-1.6497374,-1.2945983,-0.028050125,0.03730971,-0.13010772,-0.37534818,-0.32781726,0.059957262,3.0786994,-0.6248486,0.00011080817,-0.049036782,0.0046599796,0.0033298354,-0.011018464,0.008991391,0.0024876609,0.44496307,-1.467486,2.0058348,-2.1076906,-1.570371,2.4198442,-0.056976162,0.0650759,-0.07957512,0.0016276314,0.0059114047,-0.05941522,-0.05746084,0.21068975,-9.461885,0.75084364,47.739727,-1.1233689,-2.027593,-3.160534,-0.3946268,0.082706764,-0.44637096,27.4375,28.75,27.6875,31.3125,33.1875,33.875
0.10605488,-1.2111392,-1.3550031,-1.2883906,-0.024657378,0.020527951,-0.1362844,-0.37545997,-0.3278027,0.059979048,3.0785909,-0.62496126,9.336312e-05,-0.048913814,0.005590845,0.0019949412,-0.009945388,0.006297326,0.0030604023,0.4447944,-1.4673897,2.005679,-2.1076906,-1.570311,2.4197595,-0.05872472,0.06690438,-0.0785405,0.0016625362,0.006110066,-0.061736796,-0.076614454,0.22984336,-9.423578,0.77545905,47.707485,-1.1163639,-1.965018,-3.149168,-0.39002323,0.07377905,-0.44781065,27.4375,28.75,27.6875,31.3125,33.1875,33.875
0.10805413,-1.0896049,-1.1535418,-1.2019521,-0.026155429,0.007833376,-0.13105178,-0.37553322,-0.32779908,0.059951346,3.0786345,-0.6248544,0.00013912488,-0.0512642,0.005875675,0.0027038641,-0.010986405,0.0076719085,0.0038829534,0.44472152,-1.4672095,2.0055468,-2.1077025,-1.570311,2.4196146,-0.061593443,0.06855858,-0.082030535,0.0018096312,0.00645003,-0.06542651,-0.17238252,0.3256114,-9.385271,0.75084364,47.719128,-1.0592709,-1.9910309,-3.1827297,-0.38709193,0.06589895,-0.4590105,27.4375,28.75,27.6875,31.3125,33.1875,33.875
0.11005391,-0.7221186,-0.85434705,-1.1815591,-0.023619335,0.006591889,-0.14395228,-0.3756744,-0.32777944,0.059987314,3.078579,-0.6249167,2.1155038e-05,-0.051837362,0.005300284,0.0028676041,-0.011313275,0.008049628,0.008860597,0.44456553,-1.4670892,2.0053294,-2.1076906,-1.5703229,2.4195046,-0.061095983,0.069918215,-0.08391928,0.0018577977,0.006586743,-0.06990503,-0.019153614,0.21068975,-9.423578,0.7620334,47.728977,-1.0715443,-2.042084,-3.1331682,-0.38403946,0.06882716,-0.4362749,27.4375,28.75,27.6875,31.3125,33.1875,33.875
0.11205352,-0.6682735,-1.1973397,-1.27561,-0.014524288,0.0056393025,-0.13541354,-0.3757571,-0.32777646,0.059980605,3.0785873,-0.62478167,4.5603723e-05,-0.05262941,0.005315887,0.0026912568,-0.011390813,0.0076143034,0.012908565,0.44446933,-1.4669448,2.0051858,-2.10769,-1.570299,2.4193232,-0.06199528,0.071675666,-0.08550141,0.00204464,0.006842678,-0.074851505,-0.05746084,0.19153613,-9.404425,0.7866488,47.72808,-1.1946034,-2.0506597,-3.1089523,-0.35712242,0.061722115,-0.42013532,27.4375,28.75,27.6875,31.3125,33.1875,33.875
0.114054285,-0.77211785,-1.0168087,-1.166799,-0.0144707095,0.006082463,-0.14268714,-0.37590075,-0.3277642,0.06001829,3.0785294,-0.6247862,-9.995839e-05,-0.053491477,0.0057135886,0.0024503723,-0.011500134,0.006837903,0.016852062,0.4443248,-1.4668245,2.0049698,-2.107702,-1.5703105,2.419189,-0.063788675,0.073206164,-0.08671846,0.002384981,0.007284399,-0.080587365,-0.05746084,0.24899697,-9.270349,0.6971306,47.71823,-1.1083574,-2.0170572,-3.0634718,-0.36823997,0.05988142,-0.38334072,27.4375,28.75,27.6875,31.3125,33.1875,33.875
0.116053715,-0.93964994,-0.9014115,-1.1110368,-0.016526457,0.006919306,-0.14327204,-0.37599346,-0.32775316,0.06001573,3.0785413,-0.6246325,-7.637397e-05,-0.054583147,0.0055873035,0.0032256315,-0.012442648,0.008080109,0.021153642,0.44420445,-1.4666809,2.0048149,-2.10769,-1.5702866,2.4189713,-0.064726755,0.073315024,-0.0887052,0.002739056,0.007600698,-0.08582635,0.0,0.19153614,-9.385271,0.78217715,47.70659,-1.1671945,-1.9639885,-3.0680242,-0.36660933,0.055598162,-0.32229397,27.4375,28.75,27.6875,31.3125,33.1875,33.875
0.11805411,-1.2195089,-0.95742476,-1.2030181,-0.015236103,0.014113884,-0.13706578,-0.37609723,-0.32773656,0.060014572,3.0785904,-0.62452507,-8.219511e-05,-0.054874916,0.006297342,0.0012095076,-0.010381859,0.0041324063,0.024591615,0.44409606,-1.4665114,2.0046227,-2.1076543,-1.5703105,2.4187899,-0.06619342,0.07808947,-0.08945045,0.0031604555,0.0074365893,-0.09072983,-0.019153614,0.11492168,-9.308657,0.83589023,47.701214,-1.1611937,-2.116709,-3.0905833,-0.35593218,0.056209043,-0.28346053,27.4375,28.75,27.6875,31.3125,33.1875,33.875
0.12005355,-1.2542608,-0.8767728,-1.0226051,-0.017040875,0.028887356,-0.13855937,-0.37619185,-0.32772857,0.059992727,3.0785456,-0.62447757,2.670813e-05,-0.05616183,0.00664303,0.003066441,-0.012185317,0.007423938,0.025945174,0.44393933,-1.4663327,2.0044787,-2.1076658,-1.5702266,2.4186091,-0.0681157,0.07509941,-0.09049351,0.0034555255,0.007649758,-0.09400609,-0.05746084,0.19153613,-9.308657,0.73741806,47.705692,-1.0503253,-1.9219173,-3.0847034,-0.3634992,0.05069475,-0.22825244,27.4375,28.75,27.6875,31.3125,33.1875,33.875
0.1220541,-1.0314445,-0.7707896,-1.0928844,-0.02146305,0.04435369,-0.14442831,-0.37631038,-0.3277127,0.060007527,3.0785196,-0.6244137,-2.112619e-05,-0.05639585,0.007011916,0.002016661,-0.011208046,0.005034982,0.027419567,0.44379503,-1.4662002,2.004299,-2.1076658,-1.5702146,2.4184284,-0.06909482,0.07784623,-0.091258466,0.0040532905,0.0077993884,-0.09645874,-0.17238252,0.2873042,-9.289502,0.8112748,47.686886,-1.1473672,-1.9052813,-3.2028294,-0.36696202,0.05703696,-0.18140349,27.4375,28.75,27.6875,31.3125,33.1875,33.875
0.124053724,-1.8855984,-1.2300086,-1.1911494,-0.011100821,0.030090658,-0.13716331,-0.37644145,-0.3277051,0.060027555,3.0785317,-0.6242434,-6.484201e-05,-0.056463085,0.0075002294,0.00035279963,-0.010528067,0.001111165,0.025674477,0.4436626,-1.466031,2.0040586,-2.10763,-1.5702142,2.4181883,-0.07077132,0.081490226,-0.09159117,0.004575055,0.00887465,-0.09639056,-0.21068975,0.17238252,-9.308656,0.7978386,47.71554,-1.120159,-2.1442132,-3.1550727,-0.35923207,0.051097766,-0.16037941,27.4375,28.75,27.6875,31.3125,33.1875,33.875
0.12605396,-1.3206999,-0.6126013,-0.9442011,-0.026097514,0.048292857,-0.13998233,-0.37654853,-0.3276942,0.060028613,3.078496,-0.6242191,-8.638192e-05,-0.057168517,0.0075781634,0.0010569186,-0.010948119,0.0025152091,0.023420695,0.44353032,-1.4658877,2.0039036,-2.1076534,-1.5701908,2.4180455,-0.07137655,0.080868445,-0.092564605,0.004725562,0.008653381,-0.09474103,-0.28730422,0.1340753,-9.289502,0.8112748,47.71823,-1.1527617,-1.9851778,-3.2350888,-0.35874003,0.054691717,-0.1637415,27.4375,28.75,27.6875,31.3125,33.1875,33.875
0.12805358,-1.889324,-1.0293125,-1.1373119,-0.0045741065,0.044422556,-0.13595481,-0.37664002,-0.327676,0.060005933,3.0785234,-0.6241681,1.1755593e-05,-0.05788814,0.007998496,0.00028715126,-0.010177367,0.0012542641,0.021262968,0.44339794,-1.465695,2.0037353,-2.1076176,-1.570167,2.417878,-0.07268038,0.08341481,-0.09361683,0.0047048293,0.008490839,-0.09388646,-0.28730422,0.076614454,-9.308657,0.7597976,47.746887,-1.187929,-2.0366051,-3.2399,-0.35069138,0.043615423,-0.131331,27.4375,28.75,27.6875,31.3125,33.1875,33.875
0.13005425,-1.5270278,-0.63463545,-1.1551715,0.0064035854,0.053026292,-0.13735212,-0.3767739,-0.32765895,0.06001974,3.0784862,-0.62410647,-2.417216e-05,-0.058934778,0.008116217,0.00055770663,-0.011373357,0.0014509875,0.013155289,0.44322917,-1.465539,2.0035317,-2.1076176,-1.5701421,2.4176755,-0.074480124,0.08410894,-0.095016025,0.0047171293,0.0094874315,-0.087578386,-0.4405331,0.05746084,-9.270349,0.8023209,47.709274,-1.233664,-2.1281447,-3.3096173,-0.3721958,0.034907002,-0.21237494,27.4375,28.75,27.6875,31.3125,33.1875,33.875
0.13205361,-1.718185,-0.6859026,-1.0188358,0.012971265,0.04748257,-0.13543168,-0.3769031,-0.32764602,0.060045004,3.0784683,-0.62402576,-0.00012481396,-0.06017482,0.007865734,0.00084368576,-0.01191999,0.0021448312,0.011998216,0.44309708,-1.4654067,2.003328,-2.1076176,-1.5701541,2.4174955,-0.07522764,0.085736744,-0.09746554,0.004677035,0.009685411,-0.08716668,-0.4213795,0.095768064,-9.193734,0.83589023,47.729877,-1.1747961,-2.0351617,-3.2734952,-0.352005,0.027902307,-0.25813282,27.4375,28.75,27.6875,31.3125,33.1875,33.875
0.13405405,-1.9926648,-0.38801375,-1.0395706,0.00468676,0.046373636,-0.13181186,-0.377046,-0.3276267,0.060062986,3.078377,-0.6240884,-0.00012784913,-0.06076202,0.009052245,0.00028852499,-0.010855243,0.0013186074,0.006530558,0.44289234,-1.465251,2.0031126,-2.1076057,-1.570094,2.4173415,-0.07753555,0.08655104,-0.0971136,0.004721738,0.009082579,-0.08400596,-0.38307226,0.095768064,-9.212888,0.8224646,47.729877,-1.2771208,-2.0603776,-3.3038347,-0.34732226,0.027689498,-0.27604598,27.4375,28.75,27.6875,31.3125,33.1875,33.875
0.136054,-1.8563124,-0.37978017,-1.1383923,0.0064756856,0.0497759,-0.14304633,-0.37713125,-0.3276029,0.06002764,3.07846,-0.6239704,-7.4781424e-06,-0.06193118,0.009821774,7.602946e-05,-0.010028831,0.0011272815,0.0050419234,0.44277158,-1.4650347,2.0029442,-2.1075575,-1.5700945,2.4171367,-0.079550214,0.08815823,-0.0984844,0.005016044,0.008408379,-0.08453115,-0.36391866,0.019153614,-9.346964,0.8112748,47.754948,-1.168737,-1.9625489,-3.4036984,-0.34364092,0.030978564,-0.31548518,27.4375,28.75,27.6875,31.3125,33.1875,33.875
0.13805388,-1.6901644,-0.3837462,-0.9893747,0.002628339,0.055234708,-0.14665462,-0.37727904,-0.32757273,0.060048744,3.0784233,-0.62398213,-0.000109731816,-0.06295267,0.009959665,0.0007345947,-0.010687779,0.0019095832,0.005623853,0.4425911,-1.464891,2.0027401,-2.1075695,-1.5701069,2.4169683,-0.080866136,0.08824107,-0.100255705,0.0057157273,0.008674427,-0.08642785,-0.4405331,0.019153614,-9.404425,0.7284641,47.734352,-1.1613941,-1.998967,-3.2711546,-0.34324566,0.02251422,-0.33084375,27.4375,28.75,27.6875,31.3125,33.1875,33.875
0.14005345,-2.2317078,-0.3534222,-1.0086892,-0.0054377345,0.048237476,-0.13917378,-0.3773964,-0.32755423,0.060022008,3.0784483,-0.62387204,-3.9064857e-05,-0.06291365,0.010141494,-0.001234647,-0.009001403,-0.0018629562,0.0056724404,0.44243494,-1.4646615,2.0025485,-2.1075695,-1.5700825,2.4167404,-0.08120453,0.09293931,-0.10098238,0.0058788275,0.008762273,-0.08681418,-0.38307226,-0.095768064,-9.385271,0.8314132,47.72271,-1.3172342,-2.0445251,-3.4327362,-0.37471396,0.030750696,-0.3333906,27.4375,28.75,27.6875,31.3125,33.1875,33.875
0.14205396,-2.0643294,-0.35244617,-0.9957015,-0.014241208,0.052508358,-0.13892797,-0.37753507,-0.3275386,0.06002837,3.078396,-0.623958,-4.7104906e-05,-0.065298334,0.01147327,0.0007139853,-0.01005163,0.001814252,0.0031476174,0.4422656,-1.464471,2.002321,-2.107557,-1.5700587,2.4166315,-0.08537382,0.09041716,-0.10281578,0.00646811,0.008138198,-0.08845728,-0.40222588,-0.11492168,-9.289503,0.7866488,47.716442,-1.0186466,-1.829581,-3.370706,-0.3605157,0.029104099,-0.36513853,27.4375,28.75,27.6875,31.3125,33.1875,33.875
0.14405382,-1.8122652,-0.27225617,-1.0769193,-0.010753391,0.058156118,-0.14578699,-0.37765196,-0.3275266,0.060028333,3.0783875,-0.62389946,-2.356805e-05,-0.06515589,0.0111497035,-0.0002235602,-0.009551101,-0.00031970916,0.002691169,0.4421219,-1.4642904,2.0021164,-2.1075332,-1.5700339,2.4164524,-0.08492151,0.09308594,-0.10371234,0.006840143,0.008598267,-0.08754821,-0.3256114,-0.019153614,-9.232041,0.8112748,47.728977,-1.1496403,-1.8085841,-3.4830856,-0.36959487,0.04034263,-0.36310017,27.4375,28.75,27.6875,31.3125,33.1875,33.875
0.1460534,-1.6552248,-0.8083968,-1.3253108,0.01097214,0.062206857,-0.14053154,-0.37782958,-0.32750568,0.060058307,3.0783176,-0.6239057,-0.00013353767,-0.067404315,0.012253493,0.0008974644,-0.011203385,0.0016649271,0.0005544959,0.4419163,-1.4641111,2.0018528,-2.1075451,-1.5700225,2.4162598,-0.08938828,0.092273824,-0.10539895,0.006839909,0.009249778,-0.08987731,-0.45968673,0.038307227,-9.346964,0.82694155,47.71554,-1.0365752,-1.8944764,-3.4115417,-0.3592057,0.016548818,-0.40266365,27.4375,28.75,27.6875,31.3125,33.1875,33.875
0.14805384,-1.888397,-0.3376321,-1.0787356,0.0071811555,0.051009025,-0.14015765,-0.37792626,-0.32746005,0.060036406,3.0783834,-0.6238567,-8.058087e-05,-0.068686135,0.011663711,0.0009934575,-0.011161667,0.0027258925,0.0074767834,0.4417605,-1.4639424,2.0017087,-2.1075099,-1.5700463,2.4160652,-0.0890651,0.094835624,-0.10833123,0.006273384,0.008749295,-0.096474186,-0.38307226,0.0,-9.289502,0.8717007,47.71554,-0.99555385,-1.8248457,-3.4859533,-0.36393595,0.02183106,-0.35198998,27.4375,28.75,27.6875,31.3125,33.1875,33.875
0.15005322,-1.6225388,-0.31286484,-1.2702464,0.0025403427,0.050941817,-0.13891505,-0.37806675,-0.3274476,0.060035802,3.0783193,-0.62380487,-1.4347518e-05,-0.069602266,0.012851012,-7.322932e-05,-0.010027645,0.00079460634,0.007940556,0.4415556,-1.463738,2.0014818,-2.1074975,-1.5699629,2.415836,-0.09193337,0.097431205,-0.10879615,0.0063858842,0.008552479,-0.09980533,-0.45968673,-0.019153614,-9.3661175,0.7463667,47.72719,-0.9900818,-1.6799306,-3.3666825,-0.35948098,0.038061053,-0.34245023,27.4375,28.75,27.6875,31.3125,33.1875,33.875
0.15205391,-1.3383096,-1.0136675,-1.3734311,0.006461731,0.053999662,-0.14644787,-0.37824455,-0.32742932,0.060062442,3.078273,-0.62381214,-0.000105360436,-0.071812116,0.012821205,0.0007345881,-0.010879165,0.0024064493,0.012658267,0.44136283,-1.4635335,2.0011923,-2.107485,-1.5699629,2.415654,-0.093857504,0.09919706,-0.11268305,0.0066909385,0.0086378185,-0.10644422,-0.34476504,0.15322891,-9.423578,0.80456203,47.72002,-0.92842734,-1.7056437,-3.32483,-0.3538234,0.017172184,-0.2891861,27.4375,28.75,27.6875,31.3125,33.1875,33.875
0.15405402,-1.7099231,-1.016687,-1.5348222,-0.0076609245,0.04867058,-0.13044098,-0.37834424,-0.32738498,0.060024474,3.0783243,-0.6237618,1.2259322e-05,-0.07269626,0.012944676,0.00025921664,-0.009925373,0.0017873411,0.018465152,0.44118255,-1.4633292,2.0010483,-2.1074612,-1.5699505,2.4154358,-0.094438516,0.101892754,-0.11464595,0.0069340207,0.008031012,-0.112830736,-0.3256114,0.11492168,-9.500193,0.8291774,47.734352,-0.9184842,-1.7821286,-3.316456,-0.36539134,0.0331541,-0.22978991,27.4375,28.75,27.6875,31.3125,33.1875,33.875
0.15605392,-2.47976,-1.7674462,-1.6028502,-0.009027382,0.043081135,-0.12306851,-0.37850896,-0.32734916,0.06003781,3.0783458,-0.62363136,-2.964098e-05,-0.07494044,0.014585471,0.0008804417,-0.010178419,0.0028922078,0.019146524,0.440977,-1.4631253,2.0007846,-2.1074255,-1.5699629,2.4151464,-0.0993008,0.10193231,-0.11623383,0.0073794764,0.0077922638,-0.11837319,-0.38307226,0.1340753,-9.557653,0.779936,47.721813,-0.78977144,-1.7605206,-3.282504,-0.36235708,0.053596176,-0.121764496,27.4375,28.75,27.6875,31.3125,33.1875,33.875
0.15805428,-1.8790534,-1.2783265,-1.5506991,-0.041383285,0.0642582,-0.13722639,-0.37864774,-0.3273301,0.060041986,3.0782983,-0.6236382,2.8466545e-06,-0.075055905,0.013895206,0.00070622505,-0.010298494,0.0023470244,0.02285824,0.4407854,-1.4629332,2.0005572,-2.1074007,-1.5699147,2.4149652,-0.09829919,0.10362272,-0.11779229,0.007697056,0.008134631,-0.12108252,-0.34476504,0.22984336,-9.519346,0.7463667,47.71286,-0.83318806,-1.7225513,-3.2939277,-0.36951643,0.04806382,-0.08127268,27.4375,28.75,27.6875,31.3125,33.1875,33.875
0.16005357,-2.4033325,-1.820348,-1.6022617,-0.034626316,0.055091824,-0.135334,-0.37879342,-0.3272896,0.06004248,3.078352,-0.6234787,-4.6302703e-05,-0.07686307,0.015212155,0.00066891854,-0.010032557,0.0019317858,0.018015077,0.440604,-1.4627409,2.0003412,-2.1073892,-1.5699505,2.4146776,-0.10228776,0.10516241,-0.119598575,0.008449609,0.00807134,-0.12022672,-0.47884035,0.28730422,-9.634268,0.8179876,47.70838,-0.784708,-1.7753019,-3.262396,-0.39411867,0.03802872,-0.06268223,27.4375,28.75,27.6875,31.3125,33.1875,33.875
0.1620535,-1.9540179,-1.7056876,-1.642564,-0.03931901,0.0699949,-0.14167702,-0.3789702,-0.3272565,0.0600568,3.0783205,-0.62347394,-8.0871185e-05,-0.077472,0.014156687,0.001525294,-0.011072537,0.0041067437,0.016268762,0.4403768,-1.4625252,2.0000646,-2.107365,-1.5699385,2.4144516,-0.10080704,0.10528998,-0.12159906,0.007913188,0.008083607,-0.11699811,-0.51714754,0.2681506,-9.557653,0.7933669,47.698532,-0.8188747,-1.7280065,-3.215705,-0.3918906,0.07659507,-0.07698622,27.4375,28.75,27.6875,31.3125,33.1875,33.875
0.16405381,-2.4675596,-1.6923324,-1.7274343,-0.034999847,0.055352308,-0.12905078,-0.37913826,-0.32724842,0.060073707,3.0782394,-0.6234214,-0.00011232413,-0.07792692,0.014281937,-0.00081207504,-0.009856616,0.0002998016,0.011172401,0.44017226,-1.4623195,1.9998015,-2.1073773,-1.5698789,2.4142246,-0.10174963,0.11124441,-0.12262522,0.0069512143,0.008608822,-0.11284249,-0.51714754,0.22984336,-9.557653,0.7777002,47.688675,-0.8241116,-1.8916392,-3.3274217,-0.38118646,0.060765643,-0.11790177,27.4375,28.75,27.6875,31.3125,33.1875,33.875
0.16605334,-1.4404206,-1.4347775,-1.6923217,-0.036221217,0.0698189,-0.14232698,-0.37930095,-0.3272019,0.060059298,3.078237,-0.6234812,-5.7302826e-05,-0.079281636,0.013825869,0.0012833212,-0.0125462655,0.0043949597,0.0066949846,0.43993205,-1.462069,1.9995497,-2.107342,-1.5698661,2.4140222,-0.10250022,0.10855762,-0.12438906,0.006549862,0.009288888,-0.10911594,-0.38307226,0.24899697,-9.576807,0.800085,47.723602,-0.8317691,-1.7886473,-3.297607,-0.36999804,0.034981016,-0.15493467,27.4375,28.75,27.6875,31.3125,33.1875,33.875
0.16805378,-1.6588967,-1.549145,-1.5560279,-0.025075242,0.059589688,-0.1293643,-0.37944698,-0.32716864,0.06003807,3.0782561,-0.62342936,-3.898054e-05,-0.07897463,0.013946316,-0.0008556762,-0.010308766,0.0007672209,0.0031486962,0.43974015,-1.4618276,1.9993342,-2.1073534,-1.5698661,2.4137957,-0.10208671,0.113281496,-0.12469706,0.0063701053,0.008805665,-0.105154894,-0.28730422,0.3256114,-9.481039,0.800085,47.701214,-0.9680054,-1.8196145,-3.2802289,-0.37958175,0.05612074,-0.22610858,27.4375,28.75,27.6875,31.3125,33.1875,33.875
0.17005333,-1.8440437,-1.139523,-1.6112823,-0.020975137,0.039016087,-0.13217235,-0.37962714,-0.3271404,0.06006877,3.0782235,-0.62342185,-0.00014210095,-0.08054768,0.0134111885,0.00057204807,-0.011454277,0.004289665,0.0029885191,0.43953615,-1.4616363,1.9990472,-2.10733,-1.5698789,2.4135914,-0.10211538,0.11290242,-0.12744157,0.0058207335,0.008344894,-0.10502071,-0.24899697,0.2681506,-9.481039,0.75755644,47.701214,-0.9886918,-1.7232475,-3.134853,-0.37807247,0.06752483,-0.22645701,27.4375,28.75,27.6875,31.3125,33.1875,33.875
0.1720538,-1.2558365,-1.1198115,-1.4339525,-0.022664137,0.03607837,-0.13703589,-0.37980512,-0.32712445,0.060078673,3.0781748,-0.6234153,-0.00017900161,-0.08162152,0.013048259,0.00038512968,-0.012437257,0.004245539,-0.0017247485,0.43933198,-1.4613959,1.9987587,-2.10733,-1.5698541,2.4133894,-0.10294187,0.11519203,-0.12941006,0.0051199575,0.009251825,-0.101132646,-0.15322891,0.1340753,-9.461885,0.78888994,47.68599,-1.0237234,-1.8160956,-3.3956337,-0.3630646,0.048652254,-0.32325298,27.4375,28.75,27.6875,31.3125,33.1875,33.875
0.17405352,-0.65770674,-0.84400314,-1.3865783,-0.029194275,0.031350926,-0.13425173,-0.3799864,-0.32710344,0.06008616,3.0780818,-0.62345195,-0.00019827604,-0.08188955,0.013113276,-0.00020422641,-0.012273976,0.0033342834,-0.00016318109,0.43909213,-1.4611679,1.998495,-2.1073544,-1.5697945,2.4131844,-0.103407696,0.11685175,-0.12984759,0.004800942,0.009499405,-0.10315914,-0.1340753,0.19153613,-9.404425,0.8314132,47.70211,-1.134481,-1.7850018,-3.2960525,-0.34881794,0.04706452,-0.3398394,27.4375,28.75,27.6875,31.3125,33.1875,33.875
0.17605399,-0.17091483,-0.72800076,-1.3895828,-0.025397977,0.021399602,-0.13801852,-0.38014808,-0.32707903,0.06009002,3.0780828,-0.6234181,-0.00023937847,-0.0838534,0.013696576,-0.00013875072,-0.012086564,0.0039658877,-0.0066621853,0.43891102,-1.4609394,1.9982308,-2.107343,-1.569806,2.4129822,-0.1058893,0.119138636,-0.1325305,0.004704186,0.009056479,-0.09913929,0.038307227,0.17238252,-9.346964,0.8314132,47.73525,-1.0651183,-1.9071327,-3.2078614,-0.3261906,0.075440854,-0.4191945,27.4375,28.75,27.6875,31.3125,33.1875,33.875
0.17805348,0.02262517,-0.77235854,-1.2786894,-0.024653781,0.0077145584,-0.13433494,-0.3803172,-0.3270518,0.060092866,3.0780756,-0.6234351,-0.0002786766,-0.08410076,0.013809341,-0.0007180653,-0.011362943,0.0022312717,-0.005455522,0.4387188,-1.4606992,1.9979557,-2.10733,-1.5698184,2.4128017,-0.10632511,0.12128014,-0.13384058,0.0057519395,0.009142894,-0.10078088,0.11492168,0.19153613,-9.423578,0.800085,47.72808,-1.0424842,-1.8537571,-3.203293,-0.33335066,0.064645514,-0.46412095,27.4375,28.75,27.6875,31.3125,33.1875,33.875
0.18005396,-0.36232075,-0.98944974,-1.1928872,-0.015813053,-0.007164982,-0.1453642,-0.38049743,-0.32703453,0.060099266,3.0780127,-0.62338173,-0.0002395216,-0.08564229,0.013680397,-0.0004034617,-0.011673571,0.0032394945,-0.0029849184,0.43847865,-1.4604467,1.9976562,-2.1073062,-1.5697459,2.4125364,-0.10728572,0.12319811,-0.13668844,0.0056499266,0.008996356,-0.10420988,0.019153614,0.2681506,-9.3661175,0.80456203,47.684196,-1.0846821,-2.055102,-3.0736234,-0.33580652,0.07503454,-0.48809978,27.4375,28.75,27.6875,31.3125,33.1875,33.875
0.18205346,-0.050711177,-0.95086294,-1.1774783,-0.018975215,0.009756748,-0.14468838,-0.3806763,-0.3270011,0.06010332,3.078012,-0.62337685,-0.0003063183,-0.08604513,0.013843019,-0.0022281192,-0.009923817,-0.00010808253,0.004038205,0.4382744,-1.4602057,1.9973801,-2.1073062,-1.5697702,2.4123294,-0.10778769,0.12835066,-0.1382971,0.0058854404,0.008841037,-0.11173294,0.11492168,0.19153613,-9.346964,0.800085,47.701214,-1.0322379,-2.0229225,-3.297203,-0.31924024,0.09258165,-0.4238441,27.4375,28.75,27.6875,31.3125,33.1875,33.875
0.18405399,0.07196208,-1.165134,-1.4111147,-0.018399553,0.02122424,-0.1464686,-0.38084605,-0.32695428,0.06010352,3.0780227,-0.6233004,-0.0003465686,-0.08718909,0.015118637,-0.0012583656,-0.011041868,0.0008359339,0.0072299326,0.43804508,-1.4599907,1.9971417,-2.1073058,-1.5697821,2.4120512,-0.11153932,0.12628254,-0.13846111,0.0067921854,0.009464082,-0.118677035,0.19153613,0.30645782,-9.251195,0.8179876,47.71554,-1.0047572,-2.0165343,-3.2634544,-0.32777244,0.09700027,-0.39959738,27.4375,28.75,27.6875,31.3125,33.1875,33.875
0.18605399,-0.6938212,-1.3267679,-1.0522974,-0.027374906,0.01386775,-0.13779573,-0.38103274,-0.32694045,0.060113586,3.0779498,-0.6232981,-0.00030823742,-0.08667472,0.013729322,-0.0016477753,-0.011038278,0.00013527303,0.019557852,0.43780634,-1.4597266,1.996818,-2.1072695,-1.5697101,2.4118204,-0.10862839,0.12833242,-0.13987468,0.0068095215,0.009766951,-0.12809294,0.076614454,0.2681506,-9.232041,0.88960326,47.77734,-1.197124,-2.0040748,-3.2745209,-0.31928417,0.08805527,-0.30441138,27.4375,28.75,27.6875,31.3125,33.1875,33.875
0.18805346,-0.875516,-1.5198593,-1.1065058,-0.03176939,0.020686837,-0.13620013,-0.38119504,-0.32689834,0.06009917,3.0779696,-0.6232246,-0.0002658365,-0.08805998,0.015424505,-0.0016462207,-0.0105814375,-0.0009854522,0.021134356,0.43757656,-1.4594748,1.9965667,-2.1072452,-1.5696982,2.4115424,-0.11300323,0.12893939,-0.14097238,0.008517556,0.00983244,-0.13404438,-0.019153614,0.28730422,-9.097966,0.779936,47.766594,-1.016298,-1.9895241,-3.322718,-0.33112067,0.09577179,-0.25565344,27.4375,28.75,27.6875,31.3125,33.1875,33.875
0.19005395,-0.9218561,-1.1736176,-1.0803391,-0.026120018,0.023535317,-0.1358908,-0.38135916,-0.3268798,0.060086228,3.0779953,-0.6230928,-0.0002653478,-0.08853493,0.014586858,-0.0015486816,-0.011221252,-0.0005321268,0.02579942,0.43739703,-1.4591988,1.9962906,-2.1072452,-1.5696977,2.4112775,-0.112061545,0.13044105,-0.14281654,0.008182035,0.010219022,-0.13776669,-0.076614454,0.22984336,-9.078813,0.8247004,47.711063,-1.22066,-2.003823,-3.3165836,-0.33548588,0.084740415,-0.19550216,27.4375,28.75,27.6875,31.3125,33.1875,33.875
0.19205356,-0.8374882,-0.9675428,-1.1038201,-0.020806413,0.03009119,-0.13126455,-0.38154575,-0.32686043,0.060099665,3.0779462,-0.62294865,-0.0002687228,-0.09025076,0.014783082,-0.0006276911,-0.012227982,0.001690702,0.02443818,0.43715638,-1.4589592,1.9959916,-2.1072333,-1.5696377,2.4109533,-0.11385185,0.13053681,-0.14497627,0.0078173345,0.010192458,-0.13819398,-0.05746084,0.2681506,-9.193734,0.8291774,47.704796,-1.2482833,-1.9007224,-3.231967,-0.33119065,0.092628814,-0.16258767,27.4375,28.75,27.6875,31.3125,33.1875,33.875
0.19405426,-0.63172966,-0.8090288,-0.85751516,-0.014617933,0.040441982,-0.1370379,-0.38173068,-0.32683155,0.060093887,3.077946,-0.622951,-0.00026841825,-0.09110508,0.0154701155,-0.0011379033,-0.011543405,0.0010102756,0.019465068,0.4369401,-1.4586712,1.9956802,-2.1072094,-1.5696381,2.4107387,-0.11559862,0.13230154,-0.14579076,0.007773861,0.00985683,-0.13496676,-0.21068975,0.17238252,-9.251195,0.87393653,47.68599,-1.2160475,-1.9105554,-3.3148108,-0.31258452,0.117566325,-0.16145818,27.4375,28.75,27.6875,31.3125,33.1875,33.875
0.19605409,-0.56211954,-0.54474574,-1.044423,-0.0077730846,0.046529718,-0.13556397,-0.38191438,-0.32678744,0.060093116,3.0779362,-0.62287515,-0.0002873427,-0.09156073,0.014884966,-0.0006730961,-0.012628677,0.0015810083,0.014498426,0.43668798,-1.4584316,1.9954165,-2.1072094,-1.5696257,2.4104407,-0.11533396,0.1326731,-0.14734213,0.007974347,0.010596027,-0.12973481,-0.38307226,0.17238252,-9.251195,0.7777002,47.68062,-1.1701871,-1.7969716,-3.413155,-0.32289174,0.09179338,-0.22999552,27.4375,28.75,27.6875,31.3125,33.1875,33.875
0.19805363,-1.3455552,-0.4326609,-0.9937593,0.00093619357,0.043178484,-0.13177861,-0.38209075,-0.32676694,0.060088623,3.0779438,-0.62280315,-0.0003006374,-0.09290594,0.016242528,-0.0022818078,-0.011517163,-0.0012642285,0.0077972766,0.43649477,-1.4581543,1.9951166,-2.1071975,-1.5696257,2.4102018,-0.119120285,0.13689496,-0.14833526,0.0077928067,0.01078908,-0.12681878,-0.49799395,0.095768064,-9.251195,0.7866488,47.68062,-1.2257255,-1.9362257,-3.385592,-0.3176969,0.087513044,-0.28172433,27.4375,28.75,27.6875,31.3125,33.1875,33.875
0.20005342,-1.0300053,-0.1537386,-0.95769775,-0.0031543355,0.0698877,-0.14140207,-0.38226524,-0.3267508,0.06008996,3.0779128,-0.6227198,-0.00027206753,-0.09351064,0.015821325,-0.00013331909,-0.013053424,0.0027496666,0.007651719,0.43627924,-1.4578923,1.9948176,-2.1071737,-1.5695776,2.4099383,-0.11859407,0.13331823,-0.14940353,0.008159701,0.01048565,-0.12614684,-0.38307226,0.076614454,-9.232041,0.81351066,47.701214,-1.1802101,-1.6679952,-3.3461359,-0.3106653,0.11367102,-0.3266551,27.4375,28.75,27.6875,31.3125,33.1875,33.875
0.20205413,-1.6559615,-0.12518863,-0.9990061,-0.0039326297,0.06946981,-0.13917072,-0.3824802,-0.32670993,0.06011097,3.0778487,-0.6227463,-0.00029780867,-0.095135204,0.015692635,0.000718648,-0.014759645,0.0031703487,0.005227364,0.43599024,-1.4576402,1.9944814,-2.107137,-1.5695413,2.4096742,-0.12061442,0.1343535,-0.15282674,0.009448124,0.011858097,-0.12574132,-0.4405331,0.038307227,-9.289502,0.83365434,47.67793,-1.1203116,-1.8672309,-3.2407947,-0.31672078,0.09873778,-0.35980055,27.4375,28.75,27.6875,31.3125,33.1875,33.875
0.20405397,-1.754662,-0.36180186,-1.0334083,0.0030937137,0.08359244,-0.13885966,-0.38265434,-0.3266737,0.06009511,3.0778208,-0.62275994,-0.000221787,-0.0958228,0.016503766,-0.00019978329,-0.013858407,0.0014721014,0.004653638,0.43573776,-1.4573638,1.9942058,-2.1071131,-1.5694932,2.4094338,-0.122595936,0.13674037,-0.15344644,0.009611897,0.011757417,-0.12714875,-0.57460845,-0.095768064,-9.346964,0.8560339,47.737038,-1.0752623,-1.655416,-3.3095958,-0.3130843,0.08868781,-0.3804518,27.4375,28.75,27.6875,31.3125,33.1875,33.875
0.20605387,-1.5550967,-0.17022651,-1.2090874,0.0011008853,0.103578545,-0.14029925,-0.38286445,-0.3266409,0.060100876,3.0777862,-0.62277406,-0.0002554446,-0.09761784,0.0172495,-7.891599e-05,-0.01392211,0.0022079514,0.001001901,0.4354847,-1.4570761,1.9938706,-2.1071012,-1.5694813,2.4091942,-0.12531166,0.13828912,-0.1554183,0.009345511,0.011505329,-0.12621084,-0.59376204,-0.17238252,-9.404425,0.8179876,47.698532,-1.0237802,-1.6962032,-3.364274,-0.31361514,0.09408145,-0.4104492,27.4375,28.75,27.6875,31.3125,33.1875,33.875
0.2080534,-1.3675478,0.43088293,-1.4210557,0.00045754848,0.11045024,-0.1464221,-0.38301182,-0.32659176,0.06004322,3.0778875,-0.6226188,-7.7441655e-05,-0.09949848,0.017448885,0.0008509104,-0.0150565365,0.0038446365,0.006000358,0.435256,-1.4567403,1.9936188,-2.107053,-1.5694693,2.408856,-0.12748438,0.13886786,-0.15831946,0.009716233,0.011829713,-0.13338219,-0.51714754,-0.11492168,-9.481039,0.80456203,47.70838,-0.9321172,-1.650223,-3.3122451,-0.31949246,0.096157536,-0.36554128,27.4375,28.75,27.6875,31.3125,33.1875,33.875
0.21005403,-2.2134624,0.3504694,-1.467161,0.0046784305,0.08566486,-0.14365579,-0.38325375,-0.32657388,0.060090765,3.077789,-0.62259483,-0.0002613594,-0.099083565,0.018660009,-0.0016674359,-0.011905089,-0.00065079005,0.0113879405,0.43500358,-1.4564991,1.9932479,-2.1070774,-1.5694579,2.4086013,-0.12867287,0.1430677,-0.15729593,0.009912823,0.010898413,-0.13995607,-0.6703765,-0.05746084,-9.519346,0.8717007,47.713753,-0.8582628,-1.815501,-3.4611325,-0.3175776,0.12283617,-0.33670735,27.4375,28.75,27.6875,31.3125,33.1875,33.875
0.21205534,-2.170209,-0.38920158,-1.6477032,0.0139390165,0.08973919,-0.13469845,-0.38342917,-0.32653365,0.06005928,3.0777917,-0.62253505,-9.002341e-05,-0.10072303,0.018724414,-0.00035463308,-0.013493429,0.0019667149,0.01736858,0.43472713,-1.4561764,1.9929479,-2.1070178,-1.5693859,2.4082873,-0.13036817,0.1423014,-0.15947568,0.009836753,0.011228477,-0.14763206,-0.7469909,-0.019153614,-9.576807,0.8314132,47.71465,-0.89348346,-1.535717,-3.3688197,-0.31539372,0.104644336,-0.25806147,27.4375,28.75,27.6875,31.3125,33.1875,33.875
0.21405435,-2.0285716,-0.24941947,-1.9030865,-0.0017133033,0.09217111,-0.13986441,-0.383659,-0.32646534,0.06008266,3.0777948,-0.6225502,-0.00023503519,-0.10170384,0.018464163,-0.00026791886,-0.013018804,0.0023506777,0.024412166,0.4344393,-1.4559362,1.9926246,-2.107005,-1.569446,2.4080088,-0.13026623,0.1443754,-0.16210487,0.010247594,0.010651048,-0.15457101,-0.7469909,-0.076614454,-9.730036,0.8157518,47.66271,-0.9364021,-1.6544971,-3.3449569,-0.33260566,0.100527406,-0.1606649,27.4375,28.75,27.6875,31.3125,33.1875,33.875
0.21605344,-1.6139511,-0.33897063,-1.7907608,-0.02140053,0.10999768,-0.1477375,-0.38382435,-0.32644615,0.060062826,3.077788,-0.6224322,-0.00010617818,-0.102102704,0.018895846,-0.0018629235,-0.011247581,-0.0002456115,0.027086904,0.4342109,-1.4556351,1.9923247,-2.1069577,-1.5693735,2.4077077,-0.13100535,0.14849041,-0.16306081,0.010208632,0.010131699,-0.157984,-0.6512229,0.0,-9.825804,0.8717007,47.688675,-0.98618376,-1.8554833,-3.423012,-0.3217476,0.14708683,-0.124077454,27.4375,28.75,27.6875,31.3125,33.1875,33.875
0.21805413,-1.7136081,-0.7346408,-1.6350918,-0.038252477,0.11411768,-0.14299054,-0.3840439,-0.3264004,0.060059305,3.0777743,-0.62239426,-0.00014997022,-0.10350109,0.019331489,-0.0026314803,-0.011172991,-0.0014500414,0.021229666,0.43393433,-1.4553344,1.9920014,-2.1069696,-1.5693735,2.4074094,-0.13324136,0.15191814,-0.16509148,0.009932884,0.0105686085,-0.15436096,-0.6512228,0.0,-9.710882,0.7329411,47.698532,-1.1171563,-1.9156728,-3.3279567,-0.33597815,0.1404033,-0.09947376,27.4375,28.75,27.6875,31.3125,33.1875,33.875
0.22005397,-1.5706892,-1.2197783,-1.7384515,-0.028687414,0.10208556,-0.14289252,-0.38426018,-0.32636228,0.06008096,3.0777714,-0.6223565,-0.00020504605,-0.10296171,0.01840842,-0.002665919,-0.010148874,-0.0014562404,0.01909661,0.43368357,-1.4550585,1.9916314,-2.1069095,-1.5693864,2.4071357,-0.1303501,0.15287082,-0.16626145,0.010584503,0.00964189,-0.14933531,-0.49799395,0.1340753,-9.672575,0.84708,47.711063,-1.10572,-2.0216098,-3.4419835,-0.31846195,0.14565094,-0.14644742,27.4375,28.75,27.6875,31.3125,33.1875,33.875
0.2220536,-1.4511477,-1.2589352,-1.7621841,-0.03279719,0.0752172,-0.1262625,-0.38449392,-0.3263268,0.06008984,3.0777404,-0.6222397,-0.00028537473,-0.10556279,0.019592412,-0.0024740112,-0.010602665,0.00013161462,0.00981354,0.43340588,-1.4547586,1.9912833,-2.1069338,-1.569374,2.4067893,-0.13455403,0.15454951,-0.16832586,0.00933828,0.009385755,-0.14425372,-0.34476504,0.11492168,-9.672575,0.8090337,47.688675,-0.9049119,-1.9388275,-3.4277086,-0.3100746,0.1633707,-0.20790654,27.4375,28.75,27.6875,31.3125,33.1875,33.875
0.2240533,-1.0195134,-1.210593,-1.7304902,-0.031688757,0.039995365,-0.12877132,-0.38469926,-0.32627895,0.060063966,3.0777502,-0.6222822,-0.00021342188,-0.10690566,0.01838754,-0.0017480655,-0.012621179,0.002185579,0.006011902,0.43313,-1.4544106,1.9909471,-2.106898,-1.5693616,2.406539,-0.13402314,0.155994,-0.17139533,0.008247724,0.010336614,-0.1399199,-0.24899697,0.21068975,-9.615114,0.8090337,47.691364,-1.0586178,-1.9879258,-3.4894996,-0.29581285,0.18584166,-0.2933237,27.4375,28.75,27.6875,31.3125,33.1875,33.875
0.22605436,-0.76264185,-1.4571878,-1.6201613,-0.030613057,0.030611623,-0.13683401,-0.3849218,-0.32623875,0.060064707,3.077687,-0.6222906,-0.00021325416,-0.10736,0.018777877,-0.0012825216,-0.0127396975,0.0033133242,0.0020307195,0.43282977,-1.4541116,1.9906129,-2.106898,-1.5693134,2.4062521,-0.13480736,0.15508771,-0.17147914,0.008171736,0.009974469,-0.13672262,-0.24899697,0.30645782,-9.500193,0.90750587,47.703903,-1.0652335,-1.8442193,-3.386571,-0.2827351,0.19365463,-0.3763827,27.4375,28.75,27.6875,31.3125,33.1875,33.875
0.22805387,-0.72444487,-1.4478452,-1.5772055,-0.02923257,0.025764218,-0.12512174,-0.38513926,-0.32619748,0.060076192,3.0776656,-0.6222519,-0.00027529002,-0.10944475,0.0192989,-0.000940119,-0.013349304,0.0045239455,-0.0042249765,0.4325646,-1.4538354,1.9902767,-2.1068866,-1.5693139,2.4059658,-0.13752541,0.15675713,-0.17405868,0.0077253957,0.010018782,-0.13318276,-0.2681506,0.3256114,-9.442732,0.80456203,47.71286,-0.9161385,-1.9587998,-3.2829146,-0.28554186,0.19169179,-0.44920424,27.4375,28.75,27.6875,31.3125,33.1875,33.875
0.23005359,-0.71712554,-1.7383075,-1.7194238,-0.029394813,0.019090734,-0.124356575,-0.38537323,-0.3261696,0.060074043,3.0776324,-0.62226105,-0.00030780098,-0.108928174,0.018094197,-0.002048291,-0.013166972,0.0020201842,-0.001942983,0.43230194,-1.4534866,1.9898933,-2.1068866,-1.569302,2.4057133,-0.1353327,0.16034187,-0.17564698,0.008080039,0.01090683,-0.13327074,-0.038307227,0.47884035,-9.461885,0.8806493,47.696735,-1.1949704,-1.9943278,-3.382015,-0.27480385,0.17739345,-0.488864,27.4375,28.75,27.6875,31.3125,33.1875,33.875
0.23205341,-0.610761,-1.8482342,-1.5993444,-0.050964206,0.029866703,-0.1370978,-0.38557056,-0.32611936,0.060071174,3.0776072,-0.62227416,-0.00025839815,-0.10973904,0.01853205,-0.0016755412,-0.013516217,0.00273485,0.0012769267,0.43201336,-1.4532113,1.9895824,-2.1068385,-1.5692657,2.4054363,-0.1367767,0.1602041,-0.1764174,0.008206993,0.01092912,-0.13793452,0.076614454,0.45968673,-9.481039,0.87617236,47.686886,-1.0646055,-1.8799733,-3.444305,-0.2770235,0.21184063,-0.51613575,27.4375,28.75,27.6875,31.3125,33.1875,33.875
0.23405425,-0.17476168,-1.982417,-1.2369456,-0.067357086,0.04313211,-0.14683789,-0.38581055,-0.3260847,0.060073607,3.077585,-0.62232107,-0.0003139371,-0.11085682,0.018949628,-0.0014766548,-0.014181266,0.0024150736,0.009519367,0.43174878,-1.4528638,1.9891871,-2.106826,-1.5692772,2.405204,-0.13892612,0.16119216,-0.1782167,0.009042288,0.011684253,-0.1483254,0.05746084,0.40222588,-9.404425,0.8537928,47.707485,-1.0949329,-1.8656813,-3.3715467,-0.2565537,0.21969339,-0.437902,27.4375,28.75,27.6875,31.3125,33.1875,33.875
0.23605399,-0.63657963,-2.0454862,-1.2854812,-0.052998953,0.024689605,-0.13385727,-0.38605973,-0.32606018,0.060087107,3.0775146,-0.6222432,-0.00033403983,-0.11250623,0.019199137,-0.0011720052,-0.015199811,0.003156428,0.020158254,0.43144777,-1.452528,1.9887794,-2.1068141,-1.5692171,2.4048636,-0.14113127,0.16260669,-0.18049118,0.0088302605,0.0123212235,-0.16116749,0.15322891,0.34476504,-9.308657,0.86498255,47.703903,-1.0821679,-1.7877697,-3.3929467,-0.25737897,0.22963357,-0.32865334,27.4375,28.75,27.6875,31.3125,33.1875,33.875
0.2380537,-0.4325878,-1.5242351,-1.3384321,-0.034787294,0.010803779,-0.13628139,-0.38629025,-0.3260058,0.060102504,3.0775094,-0.62212306,-0.00039553273,-0.1139644,0.0190511,0.00035860724,-0.01708145,0.006683298,0.027580278,0.43114755,-1.452253,1.9884323,-2.1067903,-1.5692171,2.4044893,-0.14217862,0.16104552,-0.18211232,0.008036297,0.012572848,-0.16963558,0.2873042,0.34476504,-9.32781,0.8605109,47.723602,-1.084091,-1.6654881,-3.3692107,-0.25155613,0.22937986,-0.23595768,27.4375,28.75,27.6875,31.3125,33.1875,33.875
0.24005333,-0.29864874,-1.9046783,-1.2641922,-0.009403229,-0.009986196,-0.11953291,-0.38650018,-0.32597634,0.06007218,3.0775127,-0.62200665,-0.00037274664,-0.11528494,0.018843547,0.0009328643,-0.018312637,0.007820412,0.030766018,0.43089542,-1.4518932,1.988109,-2.1068265,-1.5691928,2.4041643,-0.1432693,0.16192098,-0.18443713,0.007949131,0.0132201025,-0.1739108,0.11492168,0.22984336,-9.308657,0.8537928,47.713753,-1.0600696,-1.6856174,-3.4206169,-0.24361917,0.23156008,-0.15522426,27.4375,28.75,27.6875,31.3125,33.1875,33.875
0.24205412,-0.40998116,-0.6901194,-1.0187436,-0.015088615,-0.01709105,-0.1346613,-0.38674277,-0.3259313,0.060084525,3.0774567,-0.621978,-0.00037402415,-0.116585426,0.019190792,0.0007167434,-0.018522078,0.0071912776,0.026979135,0.43057054,-1.4515811,1.9877247,-2.1067903,-1.5691446,2.4038289,-0.14522946,0.16422637,-0.18665235,0.008351874,0.013677803,-0.17208229,0.05746084,0.22984336,-9.212888,0.87393653,47.709274,-0.99850917,-1.5753963,-3.3832023,-0.21653272,0.241095,-0.13579401,27.4375,28.75,27.6875,31.3125,33.1875,33.875
0.24405393,0.39332497,-0.46510127,-1.3945968,0.008725087,0.005772184,-0.12636253,-0.38698336,-0.32589635,0.060085684,3.0774448,-0.62190276,-0.00046053153,-0.11837556,0.019200308,0.0014069312,-0.019706689,0.008501876,0.019392867,0.430306,-1.4512452,1.9873527,-2.1068141,-1.569156,2.4035192,-0.1470358,0.16539742,-0.18961003,0.008445074,0.014207659,-0.16629991,0.019153614,0.17238252,-9.232041,0.8403672,47.70838,-0.98563725,-1.5546256,-3.269971,-0.19952042,0.24414928,-0.19640522,27.4375,28.75,27.6875,31.3125,33.1875,33.875
0.24605364,-0.6368641,-0.65979856,-1.4839954,0.015689459,-0.0047874884,-0.12414314,-0.38723734,-0.32584578,0.060099345,3.0773888,-0.62185764,-0.0005017085,-0.118623406,0.019553894,0.0011515953,-0.019590862,0.0077991714,0.012090261,0.4299697,-1.4509335,1.9869713,-2.1068027,-1.5691203,2.403162,-0.14791721,0.16607139,-0.18989407,0.008743185,0.014401149,-0.15987782,0.019153614,0.19153613,-9.3661175,0.8717007,47.70659,-0.9099549,-1.5996206,-3.313295,-0.19612232,0.24210829,-0.2867821,27.4375,28.75,27.6875,31.3125,33.1875,33.875
0.24805328,-0.60949177,-0.5626781,-1.3137411,-0.00680764,0.02637229,-0.13026229,-0.38744536,-0.3258209,0.060088173,3.0773764,-0.621818,-0.00038400298,-0.119322464,0.020092085,0.0007091754,-0.019615976,0.0057654404,0.009136192,0.4297047,-1.4505736,1.986576,-2.1067183,-1.5690602,2.402874,-0.14999637,0.16803396,-0.19146149,0.010195543,0.015266127,-0.159003,-0.076614454,0.11492168,-9.2703495,0.78888994,47.711063,-0.8570389,-1.5344932,-3.2486792,-0.19101077,0.2343123,-0.31586945,27.4375,28.75,27.6875,31.3125,33.1875,33.875
0.25005388,-1.5540166,-0.6414011,-1.3074859,-0.0033389481,0.040713258,-0.12370321,-0.387664,-0.32581255,0.06009982,3.0772967,-0.62170506,-0.00040613965,-0.11963559,0.019877449,-0.0002773456,-0.018656805,0.0030995624,0.008758381,0.4294533,-1.4502729,1.9862164,-2.1067297,-1.5689877,2.4025624,-0.14993349,0.17184694,-0.19382651,0.0115846805,0.015516006,-0.15855981,-0.28730422,0.019153614,-9.3661175,0.8717007,47.723602,-1.0849719,-1.6580081,-3.282795,-0.22548103,0.23583707,-0.3420933,27.4375,28.75,27.6875,31.3125,33.1875,33.875
0.25205362,-1.775963,-0.53627634,-1.4964159,-0.0056889905,0.070537634,-0.13141698,-0.38788953,-0.32574442,0.060060788,3.0773082,-0.62176406,-0.00029245456,-0.12025953,0.019050382,-0.00062537566,-0.019125815,0.0016948414,0.010190911,0.42911732,-1.4498886,1.9858683,-2.1066935,-1.5689639,2.402262,-0.14948703,0.17511031,-0.196957,0.012541113,0.016515827,-0.15954521,-0.38307226,0.095768064,-9.481039,0.85155696,47.711964,-0.9956006,-1.7032402,-3.2887344,-0.2135337,0.22584653,-0.3647179,27.4375,28.75,27.6875,31.3125,33.1875,33.875
0.25405416,-2.156235,-0.46996856,-1.3106861,-0.016062299,0.09518273,-0.14174297,-0.38810837,-0.32570103,0.060070936,3.077302,-0.62166446,-0.00021792289,-0.12138673,0.019149313,0.000271401,-0.020080907,0.0033043416,0.014517842,0.42881688,-1.4495775,1.985473,-2.1065857,-1.5689152,2.4019003,-0.1506644,0.17469864,-0.1986623,0.012818323,0.016718727,-0.16504925,-0.4213795,0.15322891,-9.519346,0.8157518,47.72002,-1.1360147,-1.7499084,-3.251812,-0.22497222,0.2296748,-0.3485338,27.4375,28.75,27.6875,31.3125,33.1875,33.875
0.2560541,-2.366185,-0.7356133,-1.3145306,-0.015169318,0.10332335,-0.13101034,-0.38837522,-0.32565585,0.060080174,3.077277,-0.62157685,-0.00030853163,-0.12239088,0.019163307,-5.288338e-05,-0.019802205,0.0029645753,0.023128279,0.42850477,-1.449229,1.9850653,-2.1065972,-1.5689157,2.401537,-0.15137053,0.177202,-0.20079176,0.012890187,0.016630527,-0.17436324,-0.57460845,0.11492168,-9.461885,0.8605109,47.698532,-1.1605687,-1.8622063,-3.1373148,-0.2147869,0.22700411,-0.27881396,27.4375,28.75,27.6875,31.3125,33.1875,33.875
0.258054,-2.46508,-0.63215613,-1.3591596,-0.025918098,0.108226165,-0.13529716,-0.38860348,-0.32560596,0.060057063,3.0772884,-0.62147754,-0.00022830728,-0.12249225,0.019327948,-0.0005723663,-0.019523064,0.0017409323,0.032192394,0.4281925,-1.4488571,1.9846944,-2.1065614,-1.568879,2.4011614,-0.15182838,0.17854947,-0.20125909,0.013265891,0.016894748,-0.18388563,-0.7278373,0.17238252,-9.519346,0.8851263,47.71286,-1.0734891,-1.73979,-3.2576163,-0.22878996,0.21984819,-0.15069571,27.4375,28.75,27.6875,31.3125,33.1875,33.875
0.2600537,-2.3083715,-0.9811161,-1.4605355,-0.028658766,0.1076569,-0.1336601,-0.38884446,-0.32558882,0.060079895,3.077269,-0.6213388,-0.00026521937,-0.12343164,0.02110618,-0.0022308102,-0.017621528,-0.0006169882,0.033792924,0.42793927,-1.4485205,1.9842523,-2.1065018,-1.5688556,2.4008243,-0.15533969,0.1816744,-0.20089567,0.012732052,0.016160958,-0.18899642,-0.8236054,0.1340753,-9.576807,0.8537928,47.70032,-1.0430323,-1.7315396,-3.495637,-0.2199035,0.22072773,-0.071511015,27.4375,28.75,27.6875,31.3125,33.1875,33.875
0.26205328,-2.2854939,-0.8183581,-1.3433018,-0.04010179,0.11106281,-0.12488225,-0.38911748,-0.32554865,0.060078356,3.0772371,-0.62121874,-0.00031939778,-0.12380919,0.02071586,-0.0014501625,-0.018048545,0.00067759893,0.031134859,0.4276158,-1.4481376,1.9838332,-2.1065252,-1.5688318,2.4004302,-0.15471444,0.18118143,-0.20232679,0.013305841,0.016019376,-0.18571174,-0.8810662,0.095768064,-9.653421,0.8717007,47.711063,-1.1526637,-1.6162015,-3.4909801,-0.20531456,0.24029428,-0.05310005,27.4375,28.75,27.6875,31.3125,33.1875,33.875
0.2640543,-2.661742,-0.9855097,-1.2514765,-0.045011856,0.09443722,-0.12277337,-0.38935626,-0.325501,0.06006463,3.0772264,-0.621143,-0.00024518243,-0.12414734,0.020746285,-0.0021329948,-0.017512089,0.00050750276,0.025525233,0.42729175,-1.4477658,1.9834379,-2.106478,-1.5687836,2.4000604,-0.15465681,0.18298408,-0.20257992,0.012139242,0.015588187,-0.18004431,-1.0151415,0.05746084,-9.557653,0.8717007,47.70838,-1.2146876,-1.7660339,-3.586152,-0.21086791,0.25242877,-0.10534165,27.4375,28.75,27.6875,31.3125,33.1875,33.875
0.2660542,-2.113763,-0.44501218,-1.1657453,-0.04055247,0.10867727,-0.12635523,-0.38962287,-0.3254529,0.06007812,3.077175,-0.62113625,-0.00032498152,-0.12551823,0.020448921,-0.0017015773,-0.018838784,0.001509984,0.017430073,0.42696747,-1.4474297,1.9830312,-2.1064785,-1.5687717,2.3997388,-0.15566938,0.18431152,-0.2050289,0.011790776,0.016378904,-0.17295903,-0.9002198,0.038307227,-9.442732,0.90527004,47.688675,-1.2254071,-1.6995115,-3.5689135,-0.2034519,0.23732398,-0.18273199,27.4375,28.75,27.6875,31.3125,33.1875,33.875
0.26805463,-1.8695246,-0.31517965,-1.3130469,-0.019593712,0.10704366,-0.1311298,-0.38987836,-0.32539746,0.060063403,3.0771787,-0.6210843,-0.000273458,-0.12700237,0.020279989,-0.0016905065,-0.01957053,0.002080521,0.008778088,0.4266311,-1.447034,1.9826111,-2.1064308,-1.5687474,2.3993697,-0.15676515,0.18664412,-0.20759971,0.011201495,0.016789597,-0.16540138,-0.7469909,0.076614454,-9.404425,0.83589023,47.694946,-1.2348616,-1.7185018,-3.501661,-0.18950382,0.25154573,-0.3267666,27.4375,28.75,27.6875,31.3125,33.1875,33.875
0.27005455,-1.98766,-0.4899818,-1.1991657,0.0074388306,0.08348397,-0.12106239,-0.39013255,-0.3253821,0.060069688,3.077117,-0.6210179,-0.000304475,-0.12882884,0.01995708,-0.0008812179,-0.02040203,0.0045077372,0.0023358301,0.426355,-1.4466617,1.98218,-2.1064308,-1.5686997,2.3990602,-0.15742975,0.1878697,-0.2107424,0.010567669,0.016537959,-0.15962087,-0.57460845,0.095768064,-9.3661175,0.84708,47.68599,-1.2570963,-1.7077284,-3.5211015,-0.15100259,0.24888104,-0.4016536,27.4375,28.75,27.6875,31.3125,33.1875,33.875
0.2720542,-1.2068053,-0.041832395,-1.1394868,0.0039858446,0.076354116,-0.1406323,-0.3903822,-0.32533452,0.060053386,3.0770879,-0.6210125,-0.0002704033,-0.12982504,0.02002545,-0.0011415795,-0.02041732,0.0037862405,-0.00054653845,0.42603067,-1.446278,1.9817847,-2.1064184,-1.5686635,2.3987365,-0.15848279,0.19023834,-0.2129922,0.01110625,0.01684743,-0.1577902,-0.45968673,0.114921674,-9.404425,0.87393653,47.70032,-1.2399114,-1.7702527,-3.4500484,-0.15490068,0.25945786,-0.49331674,27.4375,28.75,27.6875,31.3125,33.1875,33.875
0.27405423,-0.68508315,-0.046213496,-0.9659883,-0.0030292007,0.06516339,-0.13884558,-0.39068267,-0.32529864,0.06008103,3.0770075,-0.6209925,-0.00038650545,-0.13236354,0.020678394,0.00013659972,-0.020673659,0.0066701323,0.0033283688,0.42569387,-1.4459062,1.981305,-2.1064184,-1.5686401,2.3983977,-0.16108277,0.19073664,-0.2166402,0.011548973,0.015915079,-0.16426173,-0.28730422,0.17238252,-9.289502,0.84484416,47.67166,-1.300895,-1.741093,-3.4369812,-0.12880185,0.27343202,-0.48737592,27.4375,28.75,27.6875,31.3125,33.1875,33.875
0.27605423,-0.5967381,-0.52130336,-1.2262218,-0.009299818,0.04615385,-0.1379734,-0.39095277,-0.32524544,0.060087774,3.0769813,-0.6209997,-0.00040509808,-0.1329465,0.019944174,0.0004216293,-0.021094594,0.0070908773,0.015833179,0.42535815,-1.445534,1.9808615,-2.1063702,-1.5686277,2.39807,-0.16023508,0.192173,-0.2190765,0.012021217,0.016149368,-0.17591718,-0.1340753,0.095768064,-9.346964,0.97464454,47.658226,-1.3319049,-1.8901465,-3.327004,-0.12534261,0.27869916,-0.4076172,27.4375,28.75,27.6875,31.3125,33.1875,33.875
0.2780533,-0.46287417,-0.84502023,-1.2337648,-0.02035315,0.032352723,-0.12736793,-0.39120686,-0.32517734,0.06004278,3.07696,-0.62108475,-0.00028556792,-0.13505279,0.020750472,0.0006353977,-0.020808319,0.007571677,0.025851786,0.4249853,-1.4451022,1.9804777,-2.1063583,-1.56858,2.3977532,-0.16307941,0.19439943,-0.2223093,0.012749327,0.01570136,-0.18877946,-0.038307227,0.22984336,-9.32781,0.83365434,47.672558,-1.1696428,-1.7958322,-3.3050153,-0.13041946,0.29175258,-0.28984421,27.4375,28.75,27.6875,31.3125,33.1875,33.875
0.28005385,0.07759366,-1.2267681,-1.1542895,-0.035395868,0.039438058,-0.13468017,-0.39149746,-0.32516024,0.06008129,3.076918,-0.62090224,-0.0004530735,-0.13726646,0.021724341,0.0017884606,-0.021683047,0.009534943,0.029655265,0.42470798,-1.4447433,1.979987,-2.1063578,-1.56858,2.3973677,-0.166632,0.19417387,-0.2249163,0.013451668,0.015727561,-0.19613247,-0.05746084,0.22984336,-9.232041,0.80456203,47.67793,-1.087794,-1.6793412,-3.2454996,-0.13401231,0.29069412,-0.18683587,27.4375,28.75,27.6875,31.3125,33.1875,33.875
0.28205353,-0.51463103,-1.2403795,-1.1654569,-0.036569774,0.023585375,-0.12366515,-0.3917734,-0.32509816,0.06007137,3.0769362,-0.6208112,-0.0004526732,-0.13756232,0.021700699,0.0011448241,-0.02098771,0.0076710717,0.029252946,0.4243599,-1.4443351,1.9795436,-2.1063216,-1.56858,2.3969607,-0.16678783,0.19677274,-0.22670768,0.014633719,0.01586565,-0.19588503,-0.15322891,0.34476504,-9.289502,0.842603,47.682407,-0.99969065,-1.6650558,-3.0859427,-0.12450313,0.31265754,-0.14453034,27.4375,28.75,27.6875,31.3125,33.1875,33.875
0.2840542,0.4661798,-0.8102732,-1.5668015,-0.037230674,0.047929533,-0.1333813,-0.39202043,-0.32505706,0.060053784,3.0769374,-0.6206624,-0.00035078626,-0.1379619,0.021867556,0.0012450989,-0.02170284,0.0070566144,0.021453008,0.4240353,-1.4439278,1.979113,-2.1062615,-1.5685195,2.3965433,-0.16788884,0.19713728,-0.2276042,0.015431749,0.01675623,-0.18918625,-0.095768064,0.4213795,-9.423578,0.8784135,47.70211,-0.9833205,-1.5960705,-3.2915382,-0.119301826,0.30720782,-0.19274786,27.4375,28.75,27.6875,31.3125,33.1875,33.875
0.28605357,-0.4136388,-1.2899884,-1.5768064,-0.05129878,0.026779398,-0.12972748,-0.39230272,-0.32500172,0.060061093,3.0769136,-0.62062263,-0.0003851132,-0.13930896,0.022267042,0.0019046043,-0.022448335,0.007417226,0.013823332,0.42368677,-1.4435444,1.9786576,-2.1062248,-1.5685071,2.3961732,-0.16996598,0.19765778,-0.23006363,0.016730493,0.017287344,-0.18363202,0.05746084,0.38307226,-9.500193,0.90527004,47.729877,-1.0263762,-1.5394505,-3.3071566,-0.1351721,0.2956983,-0.29902366,27.4375,28.75,27.6875,31.3125,33.1875,33.875
0.28805423,-0.52380747,-1.913662,-1.2835447,-0.06973271,0.032049935,-0.12939595,-0.39258438,-0.3249506,0.060064692,3.0768566,-0.620668,-0.00042273995,-0.13905528,0.022430107,2.8677223e-05,-0.020286458,0.0037492474,0.011949221,0.42333934,-1.4431596,1.9782146,-2.1062129,-1.5684832,2.3958616,-0.16960979,0.20205656,-0.23095787,0.01746583,0.016832812,-0.18140025,-0.095768064,0.4213795,-9.423578,0.87393653,47.72808,-1.1293523,-1.7632194,-3.3728604,-0.13322878,0.32598168,-0.35674894,27.4375,28.75,27.6875,31.3125,33.1875,33.875
0.29005373,-0.42583334,-1.4900793,-1.2495862,-0.07279765,0.039072484,-0.13119753,-0.39286593,-0.32490528,0.060059786,3.076823,-0.62062263,-0.00035102028,-0.13891771,0.023111712,-0.0015888867,-0.020089954,0.0005499511,0.010356145,0.4229788,-1.4427277,1.9777244,-2.1061413,-1.5684227,2.3954773,-0.17135605,0.2045364,-0.23004052,0.017080111,0.017969968,-0.1815535,-0.019153614,0.34476504,-9.404425,0.83813137,47.693153,-1.0763547,-1.8850013,-3.46774,-0.12820065,0.33032158,-0.3633805,27.4375,28.75,27.6875,31.3125,33.1875,33.875
0.29205343,-0.31612682,-0.7814412,-1.2742004,-0.06262018,0.025918406,-0.143972,-0.39314944,-0.32486463,0.060065817,3.0767722,-0.6205157,-0.00040868658,-0.1402793,0.023619333,-0.0016428517,-0.02099171,0.00055534014,0.012398079,0.4226419,-1.4423437,1.9772819,-2.1061532,-1.5683869,2.3950803,-0.17384312,0.20596185,-0.23152387,0.016782802,0.01881049,-0.18608001,0.21068975,0.2681506,-9.519346,0.8605109,47.692257,-0.985034,-1.9051721,-3.4980145,-0.12292963,0.31966642,-0.38127425,27.4375,28.75,27.6875,31.3125,33.1875,33.875
0.294054,-0.0388052,-0.88231003,-0.9846296,-0.05256449,0.024520434,-0.13789304,-0.3934376,-0.32482857,0.060067784,3.076741,-0.62042856,-0.00044742372,-0.14183915,0.023874076,-0.001531501,-0.021412339,0.0014855838,0.01825483,0.42231748,-1.4419237,1.9768027,-2.1061413,-1.5683626,2.3947058,-0.17548658,0.20767099,-0.23364927,0.016205458,0.018833175,-0.19357802,0.1340753,0.24899697,-9.3661175,0.8873621,47.703903,-0.9488151,-1.8503113,-3.5376606,-0.0989054,0.32637316,-0.3047697,27.4375,28.75,27.6875,31.3125,33.1875,33.875
0.29605433,-0.25630176,-0.6471549,-0.8398714,-0.040499736,0.014061593,-0.13788392,-0.39369488,-0.32478052,0.060044788,3.0767746,-0.6203137,-0.0003909719,-0.14305928,0.02357348,-0.0015603552,-0.022479942,0.0015288024,0.028952867,0.42200482,-1.441492,1.9763588,-2.1060932,-1.5683502,2.3943174,-0.17645286,0.20990281,-0.23613392,0.016012441,0.019801896,-0.2052411,0.05746084,0.21068975,-9.270349,0.8627467,47.686886,-0.8873347,-1.8935865,-3.5265622,-0.09510283,0.32651365,-0.21587446,27.4375,28.75,27.6875,31.3125,33.1875,33.875
0.29805404,-0.026319584,-0.24987881,-0.90338796,-0.020258887,0.0214921,-0.14179169,-0.39399686,-0.3247499,0.06003934,3.0766964,-0.6202002,-0.0003491584,-0.14411776,0.024317728,-0.0013184084,-0.022919305,0.0020602788,0.033495825,0.42163232,-1.4410367,1.9758567,-2.1060817,-1.5682544,2.3938842,-0.1786817,0.2100327,-0.23693289,0.016059013,0.020007819,-0.21201196,-0.038307227,0.22984336,-9.32781,0.8314132,47.728977,-0.9780724,-1.7202202,-3.4792213,-0.0843879,0.33563405,-0.092307046,27.4375,28.75,27.6875,31.3125,33.1875,33.875
0.30005378,-0.7778578,-0.22935319,-0.6122422,-0.025297318,0.033270936,-0.13446951,-0.39428538,-0.3246862,0.06003534,3.0766976,-0.620123,-0.00037967847,-0.1444303,0.023091491,-0.00055341906,-0.023467327,0.0032927296,0.03325561,0.42127335,-1.4406292,1.9754018,-2.1060574,-1.5682544,2.3934772,-0.17651615,0.21065469,-0.23962863,0.016785787,0.020004023,-0.20960455,-0.17238252,0.24899697,-9.193734,0.8627467,47.701214,-1.0787224,-1.8297044,-3.5094578,-0.083639234,0.32303467,-0.054787405,27.4375,28.75,27.6875,31.3125,33.1875,33.875
0.30205348,-1.1668167,-0.75679845,-0.8148613,-0.013065345,0.04172269,-0.13366269,-0.39454317,-0.32464868,0.06003502,3.0766451,-0.62005925,-0.00026006368,-0.14575198,0.022527434,-0.0004251608,-0.024016015,0.0029741677,0.025635403,0.42092538,-1.440233,1.9749345,-2.105961,-1.568158,2.3930962,-0.17682984,0.21361919,-0.24357922,0.017845895,0.020613803,-0.20229611,-0.3256114,0.24899697,-9.174581,0.80679786,47.703903,-1.0502485,-1.7856276,-3.309287,-0.064708866,0.30212796,-0.13124497,27.4375,28.75,27.6875,31.3125,33.1875,33.875
0.30405423,-1.4415977,-0.94886583,-0.7887971,-0.02260817,0.06516337,-0.13757944,-0.39484513,-0.3245967,0.060024917,3.0766475,-0.6199674,-0.0002925567,-0.14564787,0.022503844,-0.0004255965,-0.024336386,0.001683729,0.017455868,0.42057717,-1.4397779,1.9744424,-2.1059492,-1.5681576,2.3926907,-0.177074,0.21398468,-0.24442899,0.019362709,0.02142865,-0.19435984,-0.49799395,0.2873042,-9.212888,0.8560339,47.707485,-1.1799133,-1.6839743,-3.2641263,-0.076604545,0.30964434,-0.24482182,27.4375,28.75,27.6875,31.3125,33.1875,33.875
0.30605385,-2.005945,-0.9998693,-0.7695615,-0.03619404,0.083527714,-0.13455321,-0.39508554,-0.32456625,0.059988588,3.0766575,-0.6198593,-9.0784895e-05,-0.14579198,0.022060411,-0.00059271476,-0.023969525,0.00027517887,0.009469258,0.42026532,-1.4393098,1.973976,-2.1058524,-1.5680736,2.3923101,-0.17637473,0.21593757,-0.24675842,0.021175588,0.021635761,-0.18567504,-0.59376204,0.24899697,-9.212888,0.84484416,47.716442,-1.2382846,-1.8023071,-3.2910404,-0.08662087,0.31280464,-0.355384,27.4375,28.75,27.6875,31.3125,33.1875,33.875
0.30805337,-2.099011,-0.81930447,-0.8384844,-0.04214954,0.09099973,-0.13932595,-0.39540827,-0.32450065,0.06000579,3.0765867,-0.6199453,-0.0001730049,-0.1476074,0.022797242,0.0004282668,-0.024517708,0.0019372747,0.002848958,0.41986778,-1.4389027,1.9734725,-2.105828,-1.5680617,2.3919756,-0.17895512,0.21584675,-0.24926834,0.02203664,0.02146492,-0.18163273,-0.53630114,0.22984336,-9.212888,0.9388393,47.70211,-1.129711,-1.7201419,-3.352995,-0.10617134,0.30346143,-0.4377125,27.4375,28.75,27.6875,31.3125,33.1875,33.875
0.31005388,-2.3602095,-1.0338268,-0.86370337,-0.037833445,0.092736915,-0.13644183,-0.39573097,-0.32446533,0.06000939,3.076498,-0.6199646,-0.0001939969,-0.1496423,0.023198703,0.0012094516,-0.025615687,0.003727595,0.0018815306,0.4194953,-1.4384352,1.9729346,-2.1058161,-1.5680021,2.3916268,-0.18139422,0.21665275,-0.25203192,0.021933734,0.021750143,-0.18310165,-0.7469909,0.22984336,-9.193734,0.9365982,47.709274,-1.1402421,-1.8159091,-3.2509923,-0.09574767,0.3012663,-0.49524724,27.4375,28.75,27.6875,31.3125,33.1875,33.875
0.3120536,-1.8440404,-0.37643248,-0.6247102,-0.039033506,0.10622086,-0.14362521,-0.39598963,-0.3244347,0.059979938,3.0765276,-0.6197707,-5.0107814e-05,-0.14977357,0.022469312,0.0013489943,-0.02640123,0.004888913,0.014366002,0.41918418,-1.437956,1.9724425,-2.1057332,-1.5679415,2.391191,-0.18017612,0.21697843,-0.25255716,0.020799631,0.022004193,-0.19436915,-0.7469909,0.15322891,-9.232041,0.88960326,47.711063,-1.2916756,-1.6548903,-3.2565255,-0.096999034,0.29509136,-0.43278974,27.4375,28.75,27.6875,31.3125,33.1875,33.875
0.31405324,-1.5229582,0.3119544,-0.7897268,-0.02114084,0.11262887,-0.15730542,-0.39630216,-0.32437804,0.059989784,3.07649,-0.6197343,-0.00011438825,-0.14959705,0.022586638,-0.00010086851,-0.025332473,0.0027023898,0.028892413,0.4188127,-1.4375356,1.9719404,-2.1057093,-1.5679296,2.390802,-0.18004715,0.21991901,-0.25254035,0.02032347,0.021961188,-0.20876509,-0.57460845,0.095768064,-9.346964,0.8627467,47.68599,-1.3923503,-1.7727288,-3.3723273,-0.09980732,0.30242282,-0.2990326,27.4375,28.75,27.6875,31.3125,33.1875,33.875
0.3160539,-1.9662052,-0.0963205,-1.0205882,0.0039415793,0.08893152,-0.1433663,-0.3966172,-0.3243332,0.0599755,3.076481,-0.6196126,-0.00012026521,-0.15023853,0.022551911,-0.0004821204,-0.025487015,0.0022392955,0.037166182,0.41845307,-1.4370433,1.9714144,-2.105697,-1.5679053,2.3903677,-0.18057255,0.22182725,-0.25388858,0.020159282,0.022313746,-0.21756287,-0.34476504,0.0,-9.346964,0.8537928,47.684196,-1.4347345,-1.9353524,-3.5291677,-0.082244515,0.28312024,-0.17488603,27.4375,28.75,27.6875,31.3125,33.1875,33.875
0.3180535,-1.4204355,-0.015293635,-0.735373,-0.0025292428,0.0797056,-0.14227945,-0.39689124,-0.32431212,0.059966706,3.0764198,-0.619467,-2.3773599e-05,-0.15166712,0.02322395,-0.0005723,-0.02611823,0.0022796015,0.033627402,0.4181169,-1.4365999,1.9709233,-2.1056497,-1.5677975,2.3899486,-0.18320046,0.22328773,-0.2553657,0.019909387,0.022872794,-0.2166509,-0.49799395,-0.076614454,-9.346964,0.8717007,47.71465,-1.3877668,-1.8592863,-3.5064955,-0.07263746,0.28770068,-0.15133482,27.4375,28.75,27.6875,31.3125,33.1875,33.875
0.32005423,-1.082933,0.09225078,-1.0046809,-0.0038645023,0.053445254,-0.14431486,-0.39721572,-0.3242298,0.059947114,3.0764372,-0.6193788,-2.3974208e-05,-0.15285744,0.023617495,-0.0012038731,-0.02554368,0.0015727482,0.02530375,0.41769704,-1.4361202,1.9704207,-2.1056259,-1.5677975,2.3894718,-0.18455885,0.22628346,-0.25738707,0.019805532,0.022620957,-0.20968443,-0.40222588,-0.1340753,-9.32781,0.9365982,47.701214,-1.2979937,-2.0082088,-3.6007237,-0.057805125,0.27628264,-0.2254729,27.4375,28.75,27.6875,31.3125,33.1875,33.875
0.3220539,-0.7024983,-0.19786736,-1.1788011,0.0021273044,0.038421758,-0.13929556,-0.3975225,-0.3241887,0.059953444,3.076389,-0.6193134,-2.5980193e-05,-0.15479806,0.02404164,-0.00055374374,-0.025679985,0.0029162513,0.018733127,0.41733664,-1.4356759,1.9698933,-2.1055777,-1.5677494,2.389077,-0.1864877,0.22766207,-0.26066855,0.020431811,0.022197464,-0.20504054,-0.21068975,-0.05746084,-9.385271,0.92764956,47.71286,-1.2238392,-2.076392,-3.3966546,-0.06408138,0.27788788,-0.3317843,27.4375,28.75,27.6875,31.3125,33.1875,33.875
0.32405365,-0.1522554,0.087295614,-1.2364279,-0.0072530434,0.021002123,-0.151146,-0.39784116,-0.324155,0.059961636,3.0763006,-0.619278,-3.721221e-05,-0.15652832,0.02486692,-0.00015429602,-0.026095456,0.00341145,0.011905897,0.4169648,-1.435221,1.969355,-2.1055534,-1.5676774,2.3886945,-0.18936907,0.22869384,-0.26300195,0.021123527,0.022381993,-0.20109229,-0.17238252,-0.019153614,-9.3661175,0.8403672,47.674347,-1.0797642,-2.0891352,-3.3714375,-0.051878974,0.26205754,-0.40573564,27.4375,28.75,27.6875,31.3125,33.1875,33.875
0.32605422,-0.044202134,-0.2830523,-1.2911012,-0.012633106,0.016979637,-0.15318033,-0.39816862,-0.32407147,0.059944406,3.0763223,-0.6193003,-4.4757915e-05,-0.15808511,0.024862522,-1.2704834e-05,-0.027091773,0.0035620783,0.011230777,0.41655698,-1.4347292,1.9688271,-2.1055052,-1.5677012,2.3882983,-0.1910069,0.23087946,-0.26595718,0.021356521,0.023231445,-0.20205314,-0.22984336,0.1340753,-9.32781,0.8717007,47.667187,-1.0989302,-2.0176132,-3.3341398,-0.051984593,0.26632488,-0.41585267,27.4375,28.75,27.6875,31.3125,33.1875,33.875
0.32805395,-0.9144925,-0.93978906,-1.3430991,-0.020828988,0.0222888,-0.13765386,-0.39847794,-0.3240203,0.059937496,3.0762725,-0.61924654,2.0804502e-05,-0.158025,0.025865383,-0.0014666144,-0.025755394,3.749698e-05,0.01702313,0.4161611,-1.4342611,1.9682997,-2.1054451,-1.5676287,2.3878753,-0.19276777,0.23347294,-0.2659501,0.02256556,0.023457736,-0.20960644,-0.24899697,0.095768064,-9.3661175,0.91198283,47.692257,-1.1826872,-2.1047916,-3.2522082,-0.041925523,0.2574938,-0.3771224,27.4375,28.75,27.6875,31.3125,33.1875,33.875
0.33005357,-0.6229139,-0.7801566,-1.5567542,-0.031957474,0.05337607,-0.15494105,-0.39875436,-0.32398632,0.05992233,3.076263,-0.6191037,0.00013398992,-0.15934166,0.027110366,-0.0011352255,-0.025815578,-0.0006874122,0.025164155,0.4158245,-1.4337937,1.9677862,-2.1053607,-1.5675567,2.387451,-0.19621462,0.233976,-0.2678607,0.024668915,0.023825284,-0.22119473,-0.076614454,0.1340753,-9.615114,0.90527004,47.679718,-1.0956161,-2.0250936,-3.3708835,-0.056779385,0.2514454,-0.24719831,27.4375,28.75,27.6875,31.3125,33.1875,33.875
0.33205426,-1.2173783,-1.3938177,-1.5376779,-0.044232886,0.06095044,-0.14894766,-0.39909083,-0.32391474,0.059921116,3.0762794,-0.6189499,0.00010270682,-0.1603666,0.027342895,-0.00078606623,-0.026055733,-0.00071735063,0.031171516,0.41541687,-1.4333142,1.967235,-2.105312,-1.5675567,2.3869455,-0.1974488,0.23502278,-0.27024767,0.02597057,0.024078887,-0.22843476,-0.038307227,0.17238252,-9.634268,0.9231726,47.687782,-1.0652962,-2.0496042,-3.4263432,-0.09023524,0.24312826,-0.13931668,27.4375,28.75,27.6875,31.3125,33.1875,33.875
0.33405432,-1.0631297,-1.6566293,-1.3206806,-0.05108417,0.06740575,-0.14222054,-0.39938465,-0.3238695,0.059903566,3.0762713,-0.6188329,0.00022976923,-0.1604632,0.02657648,-0.00012714315,-0.027071685,-0.000101964135,0.03146086,0.41504595,-1.4328225,1.9666961,-2.1052158,-1.5674847,2.3865027,-0.19637357,0.23482502,-0.27182463,0.026793221,0.024749635,-0.22764935,-0.2873042,0.21068975,-9.615114,0.8537928,47.688675,-1.0428418,-2.1331065,-3.4642465,-0.10042517,0.24262148,-0.11127575,27.4375,28.75,27.6875,31.3125,33.1875,33.875
0.33605412,-1.2535715,-0.95102406,-1.5692376,-0.046520356,0.059414327,-0.14869764,-0.39972547,-0.32384446,0.059926566,3.0761795,-0.6187032,0.00017098367,-0.16200918,0.026866844,0.0005579782,-0.028361442,0.0010419871,0.0213709,0.41467392,-1.4323559,1.9661096,-2.105192,-1.5674123,2.3860617,-0.19844119,0.2352841,-0.2740552,0.026995927,0.025473751,-0.21962327,-0.40222588,0.30645782,-9.691729,0.83589023,47.69763,-1.0307413,-1.9870894,-3.4552634,-0.11130299,0.20166516,-0.20162264,27.4375,28.75,27.6875,31.3125,33.1875,33.875
0.3380537,-0.96070784,-0.3385869,-1.6017596,-0.044034783,0.070172265,-0.15161198,-0.4000572,-0.32375053,0.059886884,3.0761688,-0.6188201,0.0002964532,-0.1614553,0.027316896,-0.0004557584,-0.028046653,-0.001272956,0.011495652,0.41420686,-1.4318167,1.9655727,-2.1051204,-1.5673765,2.3856692,-0.19901136,0.2362534,-0.27301058,0.027215712,0.026090585,-0.21032035,-0.30645782,0.22984336,-9.691729,0.86498255,47.72002,-1.0083909,-1.911679,-3.533008,-0.11648524,0.17543595,-0.2965989,27.4375,28.75,27.6875,31.3125,33.1875,33.875
0.34005404,-0.6943685,-0.36255777,-1.5871758,-0.02741833,0.06907244,-0.15409802,-0.40035483,-0.3237127,0.05988726,3.0761154,-0.6187156,0.00033062565,-0.16221386,0.026624216,0.00015669194,-0.02871584,0.000309452,0.004400051,0.41384763,-1.4313725,1.9650573,-2.1050723,-1.5673045,2.3852518,-0.19814831,0.2368718,-0.27516693,0.027034434,0.026053915,-0.20236011,-0.28730422,0.24899697,-9.730036,0.9947882,47.67166,-1.0466704,-1.9294782,-3.5699682,-0.12219527,0.16837,-0.41392875,27.4375,28.75,27.6875,31.3125,33.1875,33.875
0.3420533,-1.4383862,-0.87226826,-1.5681583,-0.025542697,0.06412156,-0.14718764,-0.40068215,-0.32365352,0.05988228,3.0760798,-0.618688,0.00037424156,-0.16290408,0.02614847,-0.00034397002,-0.028645523,-0.00037360456,0.0026281832,0.4134405,-1.4308809,1.9644946,-2.1050003,-1.5672559,2.3848321,-0.19776924,0.2398548,-0.27752832,0.027079333,0.026259083,-0.20020767,-0.34476504,0.22984336,-9.672575,0.9768804,47.709274,-1.1962049,-1.9872389,-3.649509,-0.12078696,0.16628055,-0.49511552,27.4375,28.75,27.6875,31.3125,33.1875,33.875
0.3440542,-2.091029,-0.9048776,-1.511966,-0.028173132,0.062380757,-0.14663027,-0.4010378,-0.32359785,0.059894815,3.07601,-0.6186866,0.00028642765,-0.16411567,0.025580216,0.0002968076,-0.029050674,0.0004540913,0.010499781,0.41303343,-1.4304014,1.963919,-2.1049883,-1.567232,2.3844335,-0.19754311,0.24154818,-0.28129432,0.02827242,0.026330192,-0.2078493,-0.38307226,0.15322891,-9.557653,0.95897776,47.71554,-1.4505053,-1.9078141,-3.5767336,-0.13745548,0.13875657,-0.5016239,27.4375,28.75,27.6875,31.3125,33.1875,33.875
0.3460543,-1.003195,-0.6863638,-1.7221668,-0.015215494,0.08372448,-0.15172487,-0.40133622,-0.32356855,0.059896793,3.0760078,-0.61848485,0.00035728188,-0.1637826,0.025553772,-0.0009689424,-0.028469674,-0.0024140757,0.024581907,0.41269806,-1.4299215,1.9633449,-2.10488,-1.5671719,2.3839726,-0.19746943,0.2442795,-0.2817671,0.028941434,0.02697958,-0.22185755,0.095768064,0.1340753,-9.615114,0.9701675,47.694054,-1.4060879,-2.0215456,-3.5532477,-0.1400527,0.13359159,-0.39878857,27.4375,28.75,27.6875,31.3125,33.1875,33.875
0.3480539,-1.4060184,-0.9457819,-1.8332955,-0.010060048,0.043806795,-0.1436799,-0.40169823,-0.3235081,0.059896167,3.0759816,-0.6183378,0.00030067904,-0.1658348,0.0262503,-0.00053624384,-0.028839003,-0.0014920451,0.03468999,0.41227788,-1.4294058,1.962758,-2.1048682,-1.5671481,2.3834643,-0.20019975,0.24590759,-0.28484124,0.029455889,0.026988013,-0.23469305,0.13407528,0.17238252,-9.672575,0.92093146,47.703903,-1.2339785,-1.9986593,-3.4626355,-0.1633242,0.122281075,-0.23719588,27.4375,28.75,27.6875,31.3125,33.1875,33.875
0.35005337,-0.599845,-1.1051183,-1.1506422,-0.03343601,0.038147017,-0.14656325,-0.4020406,-0.32344952,0.059911445,3.075912,-0.618283,0.00031934617,-0.16654466,0.0267638,-0.0020020916,-0.027266897,-0.002819619,0.03759678,0.41184646,-1.4289371,1.9621714,-2.1047847,-1.5670766,2.3830078,-0.20092241,0.24969211,-0.28565958,0.028380303,0.026094887,-0.23832138,-0.038307227,0.17238252,-9.5385,0.947788,47.687782,-1.2521397,-2.039603,-3.4861588,-0.17030287,0.11389316,-0.16593105,27.4375,28.75,27.6875,31.3125,33.1875,33.875
0.35205403,-0.42054608,-1.1649302,-1.3446923,-0.04163851,0.012558547,-0.14185154,-0.4023681,-0.32341036,0.059900735,3.0758693,-0.61808807,0.00033789707,-0.16846548,0.026905537,-0.0013250876,-0.027140498,-0.00081017235,0.029503094,0.41146255,-1.4284337,1.9616212,-2.1047728,-1.5670041,2.3825078,-0.2019253,0.25122923,-0.28909996,0.028497828,0.02516367,-0.23122871,-0.11492168,0.21068975,-9.3661175,0.88960326,47.68599,-1.1847274,-2.0737076,-3.475279,-0.17279428,0.10632247,-0.20886534,27.4375,28.75,27.6875,31.3125,33.1875,33.875
0.35405368,-0.50295234,-1.4297693,-1.5244497,-0.02839514,-0.0002929739,-0.13403414,-0.4027116,-0.3233367,0.059899054,3.0758588,-0.61808956,0.0003458213,-0.16977662,0.027912196,-0.0005082822,-0.026686322,3.6229667e-05,0.018953037,0.4110427,-1.4279307,1.9610337,-2.1046884,-1.5669931,2.3820906,-0.2041165,0.25095272,-0.29116923,0.030235166,0.024394045,-0.22287002,-0.11492168,0.24899697,-9.5385,0.9545008,47.677036,-1.128577,-2.1717184,-3.4789732,-0.18862602,0.11596893,-0.31267616,27.4375,28.75,27.6875,31.3125,33.1875,33.875
0.3560535,-0.27872294,-1.2631515,-1.432549,-0.04152733,0.014308255,-0.14804259,-0.40304717,-0.32327044,0.059885055,3.0758626,-0.6180343,0.00039686734,-0.17054552,0.02925271,-0.00090345024,-0.026133882,-0.0010587118,0.012200645,0.41063464,-1.4274036,1.9604467,-2.1046045,-1.5669688,2.3816478,-0.20693518,0.2517378,-0.29145268,0.0309596,0.02431581,-0.21893711,-0.05746084,0.3256114,-9.5385,0.8537928,47.6636,-1.1354965,-1.9679928,-3.5048509,-0.19333722,0.11643395,-0.36897364,27.4375,28.75,27.6875,31.3125,33.1875,33.875
0.35805392,-0.5653376,-1.6258843,-1.3171484,-0.0523904,0.021739578,-0.14432007,-0.40342295,-0.32325992,0.059930094,3.0757203,-0.6179266,0.00029923208,-0.17252709,0.029639907,0.00029699793,-0.027033702,0.0004295264,0.01095633,0.41025048,-1.4269122,1.9597763,-2.1045673,-1.566873,2.3812149,-0.2091793,0.25220674,-0.29520234,0.032550085,0.02457987,-0.219932,-0.05746084,0.2681506,-9.3661175,0.9164598,47.666286,-1.0776474,-1.9463947,-3.4700909,-0.21212275,0.09640836,-0.43443424,27.4375,28.75,27.6875,31.3125,33.1875,33.875
0.3600537,-0.84233654,-1.5290354,-1.0079472,-0.048852034,0.04403222,-0.1433211,-0.4037473,-0.32318372,0.05990555,3.07571,-0.6178412,0.00037070914,-0.1735884,0.030440772,0.0018850933,-0.027874038,0.0021925431,0.01875469,0.40981856,-1.4264098,1.9592494,-2.1045191,-1.5668248,2.380731,-0.21134488,0.24988091,-0.29675132,0.034531817,0.024672253,-0.22989684,-0.19153614,0.2681506,-9.251195,0.900793,47.694946,-1.0038291,-1.7711633,-3.4335563,-0.23731557,0.07989501,-0.36243355,27.4375,28.75,27.6875,31.3125,33.1875,33.875
0.36205348,-1.0363618,-0.88990694,-1.1671917,-0.02385974,0.054842442,-0.15177679,-0.40408745,-0.32312492,0.059912786,3.0756667,-0.6177687,0.0004077346,-0.17559646,0.031047743,0.002257441,-0.029193753,0.0036165272,0.028043043,0.40939862,-1.4259185,1.9586514,-2.1044242,-1.5667647,2.3802717,-0.21428388,0.25104782,-0.29885337,0.033704244,0.02534648,-0.24212235,-0.21068975,0.17238252,-9.270349,0.92764956,47.687782,-0.91998774,-1.6734216,-3.5469065,-0.2773546,0.056057833,-0.22545779,27.4375,28.75,27.6875,31.3125,33.1875,33.875
0.36405417,-1.1080065,0.18939392,-1.2442123,-0.0016406245,0.069703944,-0.15492427,-0.40444311,-0.32306865,0.059908982,3.075643,-0.617647,0.00043422484,-0.17667344,0.031063538,0.002102912,-0.030126948,0.0047284407,0.031514294,0.408979,-1.425379,1.9580292,-2.1043527,-1.5667166,2.3797793,-0.2152218,0.25236708,-0.2997158,0.031894244,0.025773825,-0.24653025,-0.22984336,0.038307227,-9.481039,0.8851263,47.68599,-0.933983,-1.6656659,-3.4406395,-0.27972943,0.06391847,-0.11135636,27.4375,28.75,27.6875,31.3125,33.1875,33.875
0.36605385,-2.0808706,-0.08505941,-1.0206081,0.012827357,0.080764346,-0.1333259,-0.40478864,-0.3230212,0.05991168,3.0755374,-0.61752874,0.0004796316,-0.17585586,0.029026182,0.002378989,-0.031027872,0.005143719,0.031227538,0.40853715,-1.4248878,1.957455,-2.104317,-1.5665959,2.3792772,-0.21103239,0.2530022,-0.30121604,0.032041367,0.026440566,-0.24205178,-0.5746084,-0.076614454,-9.3661175,0.90527004,47.66271,-1.0736408,-1.5594203,-3.592699,-0.27662075,0.033368926,-0.12428007,27.4375,28.75,27.6875,31.3125,33.1875,33.875
0.36805353,-2.10104,0.44294295,-0.7864019,0.013499268,0.102260046,-0.13730024,-0.40513536,-0.32295883,0.059907243,3.0755398,-0.6174171,0.000499676,-0.17517789,0.028700355,0.0011046511,-0.029264836,0.002331901,0.023667725,0.4081305,-1.4243599,1.9568437,-2.1042325,-1.5665725,2.3788009,-0.20933922,0.2559898,-0.3021132,0.033212747,0.025923358,-0.23279884,-0.80445176,-0.019153614,-9.3661175,1.0015011,47.687782,-1.2222459,-1.634863,-3.6329265,-0.2905171,0.017174099,-0.23387234,27.4375,28.75,27.6875,31.3125,33.1875,33.875
0.37005427,-2.186374,0.50015116,-1.1812817,0.03149777,0.10575751,-0.14609951,-0.40548906,-0.32290524,0.05991915,3.0754719,-0.61740625,0.0005083063,-0.17695183,0.028573697,0.0012349478,-0.028183244,0.0031443564,0.013527096,0.40771133,-1.4238547,1.956221,-2.1041481,-1.566513,2.3783839,-0.20943068,0.25930417,-0.30648407,0.03394091,0.024589326,-0.22274782,-0.36391866,-0.1340753,-9.385271,0.91421866,47.657326,-1.3227293,-1.7483451,-3.6550872,-0.30316228,0.033736154,-0.35246968,27.4375,28.75,27.6875,31.3125,33.1875,33.875
0.3720541,-1.6898739,0.97088695,-1.1308029,0.030326523,0.09784471,-0.15064694,-0.40585563,-0.32285264,0.059943616,3.0753896,-0.6173355,0.000425606,-0.17833433,0.02866257,0.0012320412,-0.027101476,0.004160646,0.005382941,0.40729192,-1.4233754,1.9556097,-2.104112,-1.5664653,2.377931,-0.20955677,0.26170594,-0.3093208,0.03386427,0.023193883,-0.21472739,-0.24899697,-0.15322891,-9.461885,0.95002913,47.672558,-1.3092169,-1.9650671,-3.4771047,-0.33206874,0.025297804,-0.49549377,27.4375,28.75,27.6875,31.3125,33.1875,33.875
0.37405375,-1.1789106,0.37444693,-1.0914363,0.008283198,0.08958393,-0.1494968,-0.40620425,-0.3228027,0.059935667,3.075384,-0.6171964,0.00041575616,-0.18009627,0.029638967,0.0011539817,-0.026171545,0.0052930703,0.007761223,0.40690783,-1.4228349,1.9549998,-2.1040647,-1.5664419,2.3774612,-0.21169244,0.26351744,-0.3112252,0.03332294,0.021908142,-0.2192413,-0.2681506,-0.05746084,-9.385271,0.97464454,47.66808,-1.2745305,-1.929918,-3.3941965,-0.32923943,0.02303777,-0.5271451,27.4375,28.75,27.6875,31.3125,33.1875,33.875
