Tylouw/Master_Thesis_Code/training_data/batch_1/big_rod_t0.3/sample_37_session_1.csv
timestamp[s],tcp_force_x[N],tcp_force_y[N],tcp_force_z[N],tcp_force_rx[Nm?],tcp_force_ry[Nm?],tcp_force_rz[Nm?],tcp_pose_x[m],tcp_pose_y[m],tcp_pose_z[m],tcp_pose_rx[rot_vec_x],tcp_pose_ry[rot_vec_y],tcp_pose_rz[rot_vec_z],tcp_velo_x[m/s],tcp_velo_y[m/s],tcp_velo_z[m/s],tcp_velo_rx[rot_vec_x/s],tcp_velo_ry[rot_vec_y/s],tcp_velo_rz[rot_vec_z/s],q1[rad],q2[rad],q3[rad],q4[rad],q5[rad],q6[rad],qd1[rad/s],qd2[rad/s],qd3[rad/s],qd4[rad/s],qd5[rad/s],qd6[rad/s],tool_acc_x,tool_acc_y,tool_acc_z,current_of_whole_robot[A],voltage_of_whole_robot[V],current_J1[A],current_J2[A],current_J3[A],current_J4[A],current_J5[A],current_J6[A],temp_J1[C],temp_J2[C],temp_J3[C],temp_J4[C],temp_J5[C],temp_J6[C]
8.379575e-07,-0.6637813,-0.78745246,0.39076093,-0.0145258615,0.0021446175,-0.018652083,-0.37288845,-0.32819623,0.05992447,-3.0784369,0.62487656,-0.00027681285,0.0033467237,0.0016263037,-0.004146808,0.0045048906,-0.009584668,-2.5304025e-05,0.44812617,-1.4708492,2.009609,-2.107715,-1.5706977,2.4230556,-8.8423636e-05,0.003460852,0.0052922615,0.0018366528,0.000108100474,-6.64948e-05,0.019153614,0.15322891,-8.925584,0.77545905,47.685097,-0.22726995,-2.8954494,-2.506469,-0.50635546,0.14418688,-0.092465244,27.625,28.8125,27.875,31.5625,33.5,34.3125
0.0020523448,-0.12954599,-0.27732807,0.5219751,-0.0117932875,0.010982113,-0.028896999,-0.37288642,-0.32820377,0.05991345,-3.0784242,0.6248354,-0.0002881812,-0.00035561243,-0.00016538287,-0.0029151002,-0.0007888654,0.0013656407,-1.9574887e-05,0.44815025,-1.4708134,2.009596,-2.1077197,-1.5707096,2.4230556,-8.561958e-05,0.0038070513,0.0048409756,-0.010221037,0.000106276835,-6.5526634e-05,0.038307227,0.17238252,-8.963891,0.6971306,47.71554,-0.17678228,-2.8180628,-2.3752742,-0.45337313,0.15293062,-0.118558854,27.625,28.8125,27.875,31.5625,33.5,34.3125
0.00405228,-0.26190552,-0.41850358,0.5039034,0.009527237,0.0041892664,-0.023581179,-0.37288144,-0.3282163,0.059916213,-3.0784497,0.6248786,-0.0002809334,-0.0014059481,-0.0006787748,-0.0023075347,-0.002412003,0.0046984307,-1.6902099e-05,0.4481623,-1.4708254,2.0096085,-2.107744,-1.5706857,2.4230914,-8.298785e-05,0.0034149655,0.004573823,-0.013268829,0.00011749131,-6.458609e-05,0.038307227,0.1340753,-9.021352,0.67475104,47.711063,-0.24738723,-3.001137,-2.5941427,-0.33645153,0.16304909,-0.09965557,27.625,28.8125,27.875,31.5625,33.5,34.3125
0.00605248,-0.3918451,-0.17010525,0.1601795,0.028056854,-0.020889802,-0.016335413,-0.37288064,-0.328229,0.059916053,-3.078481,0.62486595,-0.00031685075,-0.0006981254,-0.00033761119,-0.0016449519,-0.0011538492,0.0021024668,-1.6074935e-05,0.4481623,-1.4708138,2.0095956,-2.1077416,-1.5706495,2.4230795,-8.0513244e-05,0.0024841141,0.002799694,-0.0076790657,0.00011736754,-6.367223e-05,0.095768064,0.15322891,-8.887277,0.7351769,47.707485,-0.17749006,-3.0490832,-2.5063665,-0.3857124,0.13448428,-0.09876847,27.625,28.8125,27.875,31.5625,33.5,34.3125
0.008052639,-0.26921713,0.26546356,-0.3863654,0.06101705,-0.049101856,-0.01092226,-0.37285691,-0.32822815,0.0599025,-3.0784795,0.62484664,-0.00035841137,-0.000268577,-0.00013000488,-0.00073488336,-0.00072927854,0.0012377929,-1.5366555e-05,0.4481742,-1.4708264,2.0096428,-2.107752,-1.5706376,2.4230795,-7.818181e-05,0.0007762335,0.0017331346,-0.003941359,0.00011560001,-6.2783816e-05,0.038307227,0.095768064,-9.059659,0.784413,47.71465,-0.22189623,-2.872661,-2.4719222,-0.43229452,0.16427863,-0.10799819,27.625,28.8125,27.875,31.5625,33.5,34.3125
0.010051659,0.40167356,0.90781206,-0.5360363,0.054081205,-0.030485373,-0.019290077,-0.3728576,-0.32820505,0.059869874,-3.0784454,0.6247812,-0.00042383102,0.00030534482,0.00014697526,-0.00087704347,0.00027160833,-0.0008282764,-1.4533811e-05,0.4481382,-1.4707783,2.0096676,-2.1077635,-1.5706495,2.423007,-7.598168e-05,0.0009017896,0.0013352982,-0.001373334,0.00011378098,-6.1920044e-05,0.038307227,0.05746084,-9.174581,0.7150385,47.68062,-0.72636247,-2.3877048,-2.9339237,-0.4612639,0.14540966,-0.18085891,27.625,28.8125,27.875,31.5625,33.5,34.3125
0.012051795,0.06463012,-0.019127581,-0.70700276,0.026580408,-0.010636543,-0.027201364,-0.3728713,-0.32819864,0.059884764,-3.078393,0.62488663,-0.00039225625,0.00036448106,0.00022463157,-0.0038030657,0.0030515154,-0.006611504,-7.864652e-05,0.44813818,-1.4707755,2.0096195,-2.1077158,-1.5706857,2.4230795,-0.00017248336,0.008373847,-0.00027796678,-0.000815464,0.00011201134,-9.231203e-05,0.0,0.038307227,-9.32781,0.7083204,47.737038,-0.8808689,-2.527597,-3.035901,-0.45657164,0.15641421,-0.22393592,27.625,28.8125,27.875,31.5625,33.5,34.3125
0.014051776,-0.73121196,-0.87667555,-0.9068857,-0.02056017,0.015512792,-0.028834332,-0.3728831,-0.32819614,0.059874356,-3.07839,0.62486714,-0.00040705936,-0.0048710885,0.0028646511,-0.0040134373,0.0030778686,-0.0066963383,-0.0024850357,0.44812274,-1.4707379,2.0096047,-2.1077268,-1.5706857,2.4230523,-0.009905697,0.013766178,-0.0057470286,-0.00065218797,0.000110295536,-0.007415037,-0.095768064,0.17238252,-9.500193,0.6389459,47.734352,-0.5077872,-2.912356,-2.9717977,-0.48502487,0.15370353,-0.22834145,27.625,28.8125,27.875,31.5625,33.5,34.3125
0.016051857,-1.6719068,-1.305819,-0.8084138,-0.05097706,0.035691973,-0.038426697,-0.3728735,-0.32820645,0.05988776,-3.0784285,0.6247758,-0.00042919954,-0.006034889,0.0029854043,-0.0031713,0.002294564,-0.0050768205,0.0026099072,0.44813436,-1.4707621,2.0095923,-2.107691,-1.5706614,2.423002,-0.011190887,0.013417271,-0.007323737,-0.0005263884,0.00010863135,-0.013794311,-0.21068975,0.24899697,-9.615114,0.683705,47.71286,-0.48125064,-2.7299323,-3.001779,-0.48219264,0.16256279,-0.15814033,27.625,28.8125,27.875,31.5625,33.5,34.3125
0.01805254,-1.8419721,-1.782626,-0.8795641,-0.067556284,0.07833006,-0.04358524,-0.3728576,-0.32818827,0.059829682,-3.0783684,0.6247631,-0.00061846,-0.0052775107,0.0031934378,-0.0035828843,0.0029358866,-0.0063816854,0.004541006,0.44809848,-1.4706663,2.0096176,-2.1076791,-1.5706376,2.4229658,-0.010884917,0.013194358,-0.0062803067,0.000107151616,9.660523e-05,-0.015420283,-0.47884035,0.2681506,-9.710882,0.7911258,47.723602,-0.7056753,-2.5639877,-3.2793944,-0.5046447,0.15687539,-0.15466346,27.625,28.8125,27.875,31.5625,33.5,34.3125
0.02005252,-2.0321069,-1.3468418,-0.8488866,-0.063611634,0.100911625,-0.06319593,-0.37289265,-0.32817724,0.05984092,-3.0783563,0.6248381,-0.00055056624,-0.005896335,0.0037384413,-0.004170849,0.0034305619,-0.007498313,0.0031357328,0.44806197,-1.4706538,2.0095809,-2.107691,-1.5706614,2.4229777,-0.012498708,0.014934346,-0.006853069,0.00016010409,0.00013359818,-0.015628267,-0.57460845,0.22984336,-9.921572,0.784413,47.716442,-0.8177103,-2.4602134,-3.4900758,-0.5187218,0.15907986,-0.17743048,27.625,28.8125,27.875,31.5625,33.5,34.3125
0.022052553,-1.9636726,-0.82877016,-0.9429539,-0.037432197,0.09383902,-0.074931085,-0.37287927,-0.32817295,0.05980618,-3.0783298,0.62481505,-0.00067805185,-0.00740852,0.0036662475,-0.0040446846,0.0017950764,-0.007686035,0.0011985459,0.44804922,-1.4705932,2.0095913,-2.1076791,-1.5706366,2.4229538,-0.01479005,0.016872482,-0.009249101,7.3440075e-05,0.0016820796,-0.015983932,-0.5746084,0.19153613,-9.864111,0.842603,47.709274,-0.81749606,-2.4868827,-3.481841,-0.5250682,0.16553405,-0.1990545,27.625,28.8125,27.875,31.5625,33.5,34.3125
0.024052598,-1.6699646,-0.26193812,-0.93060267,-0.012370093,0.07388281,-0.09840898,-0.3729138,-0.3281853,0.059822008,-3.0783772,0.6248246,-0.0006414516,-0.009454274,0.0030794356,-0.0032323732,-0.000640812,-0.006543437,0.00056552846,0.4480245,-1.4705687,2.0095308,-2.107691,-1.5706123,2.422929,-0.016694449,0.018666646,-0.013065454,4.795112e-06,0.003374187,-0.017256128,-0.7278373,0.24899697,-9.883265,0.82694155,47.711063,-0.84010994,-2.496206,-3.3485355,-0.5159786,0.14891656,-0.20547017,27.625,28.8125,27.875,31.5625,33.5,34.3125
0.026052034,-1.7896497,-0.26335734,-1.0297675,0.008881535,0.057286147,-0.109509125,-0.37293485,-0.32815695,0.05980602,-3.078328,0.62485236,-0.00063745555,-0.009878139,0.0032103024,-0.0031770563,-0.0010752298,-0.0065782275,0.0017263464,0.44797626,-1.4705327,2.0095308,-2.107703,-1.5706481,2.4229045,-0.017599259,0.018955786,-0.013509124,3.1308656e-07,0.0037779016,-0.019322367,-0.8619126,0.22984336,-9.825804,0.7418897,47.739727,-0.78345156,-2.478041,-3.3890796,-0.52599084,0.14331344,-0.17969894,27.625,28.8125,27.875,31.5625,33.5,34.3125
0.0280521,-1.9726185,-0.20340002,-1.0190201,0.005615333,0.06538859,-0.109810784,-0.3729415,-0.32818332,0.059814412,-3.0783906,0.6247695,-0.0006670333,-0.011002934,0.003347597,-0.0023291055,-0.0014753984,-0.004654611,0.00085274345,0.44798782,-1.4705088,2.0094826,-2.107691,-1.5706009,2.4228563,-0.018557975,0.01853849,-0.014996093,2.0442315e-08,0.0033024536,-0.01940562,-0.82360536,0.1340753,-9.825804,0.76874626,47.71286,-0.8078379,-2.3771582,-3.4662783,-0.52869713,0.13699862,-0.16673364,27.625,28.8125,27.875,31.5625,33.5,34.3125
0.030052068,-2.409296,-0.7346714,-0.8369861,0.0033872405,0.07394203,-0.12282561,-0.37298575,-0.32816005,0.059792537,-3.0783582,0.6248598,-0.00069627084,-0.012027519,0.0032268665,-0.0020149606,-0.0014214024,-0.0034287479,-7.816683e-06,0.44790372,-1.4704245,2.009446,-2.1077154,-1.5706009,2.4228327,-0.018865488,0.019565709,-0.016768483,-0.00033392454,0.0027179695,-0.0188501,-0.7469909,0.05746084,-9.825804,0.7486078,47.723602,-0.9371029,-2.3850708,-3.406272,-0.5309555,0.15596184,-0.18930936,27.625,28.8125,27.875,31.5625,33.5,34.3125
0.032052033,-2.095918,-0.13990036,-0.52722746,-0.018527705,0.097919166,-0.15587455,-0.37303078,-0.32814962,0.059813388,-3.078356,0.6248793,-0.00060007896,-0.014301728,0.0028937787,-0.0009188918,-0.0029518951,0.0002091574,-0.0013656341,0.44786733,-1.4704123,2.0093849,-2.1077163,-1.5706366,2.422809,-0.02016696,0.020279037,-0.01966329,-0.0020941617,0.002512891,-0.018790826,-0.6512228,0.019153614,-9.615114,0.7553206,47.737038,-0.8261573,-2.320971,-3.3450499,-0.51236314,0.15368293,-0.18007535,27.625,28.8125,27.875,31.5625,33.5,34.3125
0.034052104,-2.356624,-0.27801573,-0.6051416,0.004665073,0.07460993,-0.16147289,-0.37302977,-0.3281577,0.059784412,-3.078371,0.6248642,-0.0007317529,-0.015511958,0.0031930036,-0.0009348205,-0.0034241735,0.00060181395,-0.00297124,0.44784275,-1.47034,2.009372,-2.1077163,-1.5705765,2.422773,-0.022000331,0.021565145,-0.020900806,-0.0027009246,0.0027633375,-0.019018147,-0.47884035,-0.05746084,-9.557653,0.69937176,47.70659,-0.9053306,-2.3969862,-3.3493962,-0.5190258,0.16111454,-0.20596853,27.625,28.8125,27.875,31.5625,33.5,34.3125
0.036052015,-1.1507833,0.2484407,-0.594429,0.025459966,0.065714106,-0.18280648,-0.37309846,-0.328159,0.059811212,-3.0784137,0.624911,-0.00062808214,-0.015920646,0.0030526451,-0.0010765829,-0.0042946553,-0.0003231827,-0.0026122674,0.4477824,-1.4703038,2.0092762,-2.1077402,-1.5705761,2.4227364,-0.022907281,0.022711322,-0.021905148,-0.0023900273,0.0039480813,-0.020285547,-0.36391866,-0.17238252,-9.557653,0.7239871,47.72271,-0.91162866,-2.371093,-3.3583772,-0.5110999,0.15125749,-0.20894107,27.625,28.8125,27.875,31.5625,33.5,34.3125
0.038051862,-1.1277022,0.36657462,-0.5015326,0.047660798,0.021474589,-0.19221738,-0.37312365,-0.32814986,0.059805185,-3.078422,0.62491286,-0.0006413688,-0.01696795,0.0028664316,-0.00065072393,-0.005274123,0.00016093111,-0.0024765548,0.44773415,-1.4702674,2.0092528,-2.1077516,-1.5705642,2.4226882,-0.023961259,0.023605676,-0.023923581,-0.0021284283,0.0046171215,-0.021475324,-0.38307226,-0.095768064,-9.461885,0.7329411,47.745995,-0.8705368,-2.31686,-3.245741,-0.51679146,0.14265391,-0.18550248,27.625,28.8125,27.875,31.5625,33.5,34.3125
0.04005171,-0.47456217,0.33847493,-0.61633176,0.05790678,0.0045165597,-0.2067522,-0.37315512,-0.32812673,0.059793536,-3.078387,0.62502104,-0.00066952023,-0.018134333,0.0028655203,0.0001890948,-0.006326563,0.0017923363,-0.0027014962,0.4476617,-1.4702196,2.009227,-2.1077516,-1.5705637,2.4226878,-0.025178399,0.02333008,-0.02554037,-0.0021628195,0.004855312,-0.02246718,-0.22984336,-0.1340753,-9.461885,0.7463667,47.709274,-0.87953585,-2.2716048,-3.2418466,-0.5017114,0.14598201,-0.17964047,27.625,28.8125,27.875,31.5625,33.5,34.3125
0.042051584,-0.34543848,0.24398094,-0.49337298,0.042768262,0.0070843888,-0.20569645,-0.37319282,-0.32813185,0.059801925,-3.078416,0.62495065,-0.00063975714,-0.01956903,0.00317897,0.0006447668,-0.00705198,0.0029709104,-0.0035579035,0.44763702,-1.4701716,2.009155,-2.1077516,-1.5705637,2.4226155,-0.027164267,0.023896543,-0.027126327,-0.0025202148,0.0049949707,-0.023595663,-0.15322891,0.0,-9.3661175,0.8157518,47.703007,-0.785872,-2.1946528,-3.3466883,-0.5083117,0.13684316,-0.18219289,27.625,28.8125,27.875,31.5625,33.5,34.3125
0.04405258,-0.3434666,-0.0056013865,-0.49464527,0.019462872,0.009537196,-0.20461084,-0.3732658,-0.3281263,0.05981321,-3.0784378,0.62493545,-0.00054113445,-0.02091801,0.003379479,0.0010141873,-0.0076233884,0.0042331405,-0.0033732955,0.4475764,-1.4700993,2.0090582,-2.1077878,-1.5705875,2.4225428,-0.028738758,0.024633879,-0.028646452,-0.0031228908,0.0049601486,-0.025353186,-0.038307227,-0.076614454,-9.442732,0.683705,47.677036,-0.7747035,-2.2304893,-3.3079052,-0.49325666,0.13893953,-0.17796601,27.625,28.8125,27.875,31.5625,33.5,34.3125
0.046052303,-1.0812621,-0.8104124,-0.6440595,0.00998461,-0.0001736781,-0.17367862,-0.37328732,-0.32813665,0.05981862,-3.0784836,0.62492543,-0.0005452417,-0.021634609,0.0034338506,0.00076390005,-0.008000087,0.0031598737,-0.002798146,0.44755203,-1.4700748,2.0090215,-2.1077998,-1.5705518,2.4225063,-0.030034399,0.026444035,-0.030179378,-0.0025975287,0.005762061,-0.027224362,-0.095768064,0.076614454,-9.385271,0.779936,47.672558,-0.7640226,-2.2902431,-3.294093,-0.5013763,0.14905646,-0.15296152,27.625,28.8125,27.875,31.5625,33.5,34.3125
0.048052233,-0.7907326,-0.8571683,-0.67026544,-0.0030176742,0.0024153222,-0.17299421,-0.37333047,-0.3281105,0.05981799,-3.0784633,0.62499803,-0.0005876519,-0.022367392,0.0038844123,0.00086689676,-0.0080088535,0.0028852208,-0.002826834,0.44745553,-1.4700266,2.008962,-2.1077635,-1.5705398,2.4224577,-0.03162806,0.027014444,-0.031201683,-0.0019014275,0.005887372,-0.02878923,0.0,0.17238252,-9.385271,0.7396539,47.705692,-0.76727456,-2.1905832,-3.2981355,-0.491616,0.1335009,-0.13473295,27.625,28.8125,27.875,31.5625,33.5,34.3125
0.05005254,-0.6942984,-0.87040323,-0.61217874,-0.0059452592,-0.00035946973,-0.17507574,-0.37336075,-0.32808232,0.059794102,-3.0784185,0.62502694,-0.0006361741,-0.023229662,0.004214263,0.0011223025,-0.00794801,0.0032065168,-0.0022571357,0.4473831,-1.4699546,2.0089376,-2.1077635,-1.5705518,2.422409,-0.032895092,0.027555326,-0.03249492,-0.0014117083,0.0056899586,-0.030625131,0.0,0.22984336,-9.404425,0.7239871,47.674347,-0.7378214,-2.1400805,-3.3059025,-0.5151198,0.1259084,-0.14308746,27.625,28.8125,27.875,31.5625,33.5,34.3125
0.052052494,-0.57073265,-1.0964792,-0.7433601,9.428623e-05,-0.009331983,-0.17370962,-0.37340575,-0.32806978,0.059791476,-3.0784092,0.6251203,-0.0006478578,-0.024110742,0.0046328,0.0011794468,-0.007484252,0.0034269479,-0.0019520267,0.44731054,-1.4698944,2.0088775,-2.1077635,-1.5705398,2.422396,-0.034128983,0.028480016,-0.033709478,-0.0011173962,0.0051741884,-0.03216231,0.019153614,0.2681506,-9.519346,0.8224646,47.70211,-0.7510331,-2.1569965,-3.3449814,-0.52094996,0.13592914,-0.12210256,27.625,28.8125,27.875,31.5625,33.5,34.3125
0.05405249,-0.4622041,-0.72918063,-0.6328651,-0.015620328,-0.01190876,-0.1760663,-0.37345806,-0.32804993,0.059788357,-3.0783923,0.6250594,-0.00061369006,-0.025044397,0.005026965,0.0013495269,-0.0072741443,0.0038730553,-0.0024930108,0.4472502,-1.4698223,2.0088055,-2.1077635,-1.5705761,2.4222999,-0.03545329,0.029171,-0.034903925,-0.00092480524,0.004789668,-0.032944094,-0.038307227,0.2681506,-9.461885,0.7530795,47.694946,-0.7294744,-2.1301305,-3.444499,-0.52137816,0.15173051,-0.11426072,27.625,28.8125,27.875,31.5625,33.5,34.3125
0.056051966,-0.6893801,-1.5744761,-0.9819674,-0.006927255,-0.0086728,-0.17040174,-0.37351182,-0.32805055,0.059809312,-3.0784445,0.62512726,-0.0005741738,-0.025745414,0.004788734,0.0016696986,-0.007983941,0.004302098,-0.0011025905,0.447178,-1.4697981,2.0087335,-2.107775,-1.5705398,2.4222634,-0.035943028,0.029829713,-0.036392298,-0.0007890807,0.0052428157,-0.0348239,0.019153614,0.28730422,-9.481039,0.7553206,47.701214,-0.6826308,-2.059429,-3.3879638,-0.52078027,0.1486697,-0.095350355,27.625,28.8125,27.875,31.5625,33.5,34.3125
0.058052003,-0.9537357,-1.705033,-0.8550665,-0.016856689,-0.002858281,-0.16408889,-0.37357467,-0.3280427,0.05981386,-3.0784767,0.62511444,-0.0006090477,-0.026608523,0.0049207583,0.0017141599,-0.008205712,0.0043484448,0.00024468286,0.44708157,-1.469714,2.0086253,-2.1077507,-1.5705036,2.422155,-0.037087664,0.030957105,-0.03775709,-0.0006882001,0.0054195793,-0.037315194,-0.038307227,0.30645782,-9.481039,0.784413,47.694946,-0.7710892,-2.0226393,-3.4510894,-0.5030509,0.14529885,-0.08136767,27.625,28.8125,27.875,31.5625,33.5,34.3125
0.06005218,-1.0770358,-1.4725527,-0.73510695,-0.02678228,0.01231666,-0.17278081,-0.3735983,-0.3280153,0.059803307,-3.0784132,0.62514085,-0.0006331047,-0.027604641,0.005105588,0.0020734412,-0.009047277,0.004832935,-0.0013551707,0.44703314,-1.4696659,2.0085886,-2.1077154,-1.5705398,2.422131,-0.03870612,0.031346392,-0.039028063,-0.0006102541,0.0059651043,-0.037334345,-0.05746084,0.36391866,-9.576807,0.7933669,47.721813,-0.747841,-1.9651093,-3.4200728,-0.51945746,0.14619768,-0.074673325,27.625,28.8125,27.875,31.5625,33.5,34.3125
0.06205197,-1.5622125,-1.520711,-0.7497045,-0.02294564,0.018623522,-0.16455567,-0.3736714,-0.32802096,0.05980814,-3.0784717,0.6250956,-0.000596791,-0.028561,0.0048524793,0.0023326185,-0.009059503,0.0055868253,-0.0025287436,0.44696096,-1.4695696,2.0084798,-2.1077507,-1.5705155,2.4220233,-0.038876567,0.03271369,-0.04114004,-0.00054819096,0.0056487946,-0.03632886,-0.11492168,0.3256114,-9.5385,0.7396539,47.723602,-0.8110548,-1.974277,-3.4322038,-0.5419526,0.16325021,-0.09066838,27.625,28.8125,27.875,31.5,33.5,34.3125
0.064052105,-1.1626087,-1.2593418,-0.7179061,-0.007599519,0.034864172,-0.17251141,-0.37373427,-0.32801524,0.059831403,-3.078508,0.6251608,-0.00055990653,-0.029256674,0.004753324,0.0022218402,-0.009663865,0.0051293666,-0.0026555993,0.4468767,-1.4695332,2.008384,-2.1077392,-1.5704912,2.4219751,-0.03981672,0.03416747,-0.04249433,-0.0004976089,0.006390892,-0.037142273,-0.22984336,0.24899697,-9.481039,0.7486078,47.737934,-0.7954751,-1.9132743,-3.3989224,-0.53895926,0.14559394,-0.08842872,27.625,28.8125,27.875,31.5,33.5,34.3125
0.06605207,-1.2928115,-1.2709509,-0.6683464,0.009929186,0.035954766,-0.16695285,-0.37379852,-0.3280188,0.059829395,-3.0785632,0.625153,-0.0005768803,-0.03007377,0.004428919,0.0022017935,-0.010582677,0.004842212,-0.002298212,0.44679248,-1.4694368,2.0082881,-2.107763,-1.570443,2.421879,-0.040583536,0.035840843,-0.044283323,-0.0005210323,0.0073408773,-0.03826678,-0.28730422,0.19153613,-9.519346,0.7172743,47.687782,-0.8789722,-2.0093985,-3.4328387,-0.53334993,0.14562753,-0.079964176,27.625,28.8125,27.875,31.5,33.5,34.3125
0.068052165,-1.4142842,-0.7783378,-0.6227547,0.010495954,0.030076498,-0.16249977,-0.37382618,-0.328011,0.059820376,-3.0785663,0.6251139,-0.0006192861,-0.030539373,0.0041551245,0.0024073524,-0.01142856,0.0050458824,-0.001542355,0.4467443,-1.4693767,2.00824,-2.1077507,-1.5704306,2.421806,-0.04094202,0.03633616,-0.04529241,-0.0005578956,0.008012543,-0.039381895,-0.19153613,0.21068975,-9.5385,0.8023209,47.70838,-0.8484081,-1.8973913,-3.4523563,-0.5469084,0.1184154,-0.08266446,27.625,28.8125,27.875,31.5,33.5,34.3125
0.0700521,-0.94984454,-0.478733,-0.59158254,0.002747253,0.03986098,-0.16705312,-0.3739253,-0.32799265,0.059840616,-3.0786035,0.62519795,-0.0005408268,-0.0317383,0.0046548224,0.00223538,-0.01123571,0.0048173005,-0.001983423,0.44661188,-1.4693041,2.0081193,-2.1077745,-1.5704187,2.4217215,-0.042905733,0.038083177,-0.046839155,-0.0004667525,0.007937792,-0.040902656,-0.22984336,0.21068975,-9.519346,0.779936,47.70211,-0.87801045,-1.9581532,-3.5189402,-0.53018934,0.111816004,-0.06928715,27.625,28.8125,27.875,31.5,33.5,34.3125
0.072052024,-1.2766281,-0.54262125,-0.44657683,0.008345522,0.03795372,-0.16867498,-0.3739981,-0.3279867,0.059860278,-3.0786202,0.6252038,-0.00044160653,-0.03341678,0.004875325,0.0023776912,-0.011315573,0.0062202727,-0.005144272,0.44655108,-1.4692439,2.008011,-2.1077874,-1.570443,2.4216623,-0.04447022,0.039822474,-0.048840508,-0.0015032566,0.007400874,-0.039303087,-0.21068975,0.11492168,-9.442732,0.8537928,47.72271,-0.7969363,-1.8990344,-3.3600483,-0.5313113,0.13224925,-0.07317885,27.625,28.8125,27.875,31.5,33.5,34.3125
0.074051976,-2.00225,-0.7862452,-0.50030637,0.021084597,0.025291206,-0.15277752,-0.37404975,-0.32797986,0.059839644,-3.0786352,0.62516946,-0.00052025355,-0.034585137,0.0044736397,0.0027735163,-0.01246998,0.0075181145,-0.0067521203,0.4464669,-1.4691235,2.0079262,-2.1077878,-1.5704068,2.4215548,-0.04508739,0.040861536,-0.050700523,-0.002351135,0.007875704,-0.038312014,-0.22984336,0.114921674,-9.519346,0.7463667,47.696735,-0.84363055,-1.970938,-3.3831363,-0.514384,0.11407505,-0.12140043,27.625,28.8125,27.875,31.5,33.5,34.3125
0.07605244,-1.1690949,-0.45730338,-0.40976053,0.015513005,0.045173395,-0.17092945,-0.374115,-0.32798412,0.05985224,-3.0786757,0.62527245,-0.00052119413,-0.035096914,0.00381757,0.0027209963,-0.0128698675,0.00759486,-0.0047699637,0.4463832,-1.4690512,2.007818,-2.1077878,-1.5703586,2.4215302,-0.044529367,0.04261942,-0.052458093,-0.0025917492,0.008200962,-0.03973505,-0.28730422,0.095768064,-9.404425,0.7463667,47.716442,-0.95629114,-1.9173967,-3.3527806,-0.5181175,0.11667676,-0.10232343,27.625,28.8125,27.875,31.5,33.5,34.3125
0.07805242,-1.7943239,-0.33431208,-0.43856305,0.021090375,0.027981618,-0.15929705,-0.37418914,-0.3279597,0.059873223,-3.0786924,0.62519985,-0.00045594608,-0.035776176,0.0049190153,0.0022192723,-0.0117757805,0.006468056,-0.0061143786,0.44628623,-1.4690028,2.0077112,-2.1077635,-1.5703825,2.421386,-0.046868313,0.043776985,-0.052715812,-0.0020011403,0.007703466,-0.040728275,-0.38307226,0.17238252,-9.442732,0.8157518,47.729877,-0.87880635,-1.9537069,-3.4474168,-0.5161786,0.11469152,-0.12661698,27.625,28.8125,27.875,31.5,33.5,34.3125
0.080052294,-1.2152377,0.119586766,-0.3500589,0.016394956,0.035697654,-0.17188643,-0.37427804,-0.32797885,0.0598906,-3.0787506,0.625193,-0.00040314565,-0.038322274,0.004943784,0.0034302545,-0.013020245,0.008686225,-0.008064995,0.44622558,-1.4688826,2.007542,-2.107775,-1.5703586,2.4213138,-0.049316596,0.045029555,-0.056980234,-0.0015263776,0.007863843,-0.04122315,-0.34476504,0.05746084,-9.442732,0.8090337,47.711964,-0.8909576,-1.8745489,-3.3564904,-0.5103253,0.12104671,-0.142507,27.625,28.8125,27.875,31.5,33.5,34.3125
0.082052566,-1.3456188,-0.19875355,-0.21729635,0.019241288,0.02812288,-0.16727255,-0.37434566,-0.32795584,0.05988881,3.0787194,-0.6252645,0.0004101503,-0.03884094,0.0054497495,0.0024971515,-0.01227161,0.006705491,-0.009427786,0.44610497,-1.4688098,2.007469,-2.1077874,-1.5703348,2.4212418,-0.05084854,0.04762042,-0.05775889,-0.0012273628,0.008044203,-0.041391723,-0.36391866,-0.05746084,-9.3661175,0.7530795,47.713753,-0.84546554,-1.9345248,-3.261121,-0.5158641,0.10940495,-0.14716807,27.625,28.8125,27.875,31.5,33.5,34.3125
0.08405253,-1.5293076,-0.6295102,-0.15974699,0.011993362,0.031012246,-0.16697915,-0.37440747,-0.3279542,0.059879363,3.0787053,-0.62529886,0.0004906726,-0.03852267,0.0052031926,0.0023319593,-0.01209655,0.0063291923,-0.008002793,0.4460214,-1.4686779,2.0073373,-2.1077511,-1.5702986,2.4211814,-0.050090045,0.047910657,-0.05772705,-0.0011321198,0.008048148,-0.04205854,-0.49799395,0.038307227,-9.308656,0.7396539,47.707485,-0.9021024,-1.9636147,-3.4111705,-0.50833666,0.10451701,-0.17375205,27.625,28.8125,27.875,31.5,33.5,34.3125
0.086052224,-1.4855678,-0.8478652,-0.29745176,0.0058821193,0.043169804,-0.17119192,-0.374495,-0.3279236,0.05988355,3.0786908,-0.6253545,0.0004228153,-0.0401179,0.005486009,0.003405376,-0.012831933,0.008559013,-0.009296051,0.4459008,-1.4685944,2.0072415,-2.107775,-1.5703224,2.4210975,-0.051847436,0.047520854,-0.059791744,-0.0010054095,0.0077486276,-0.042520758,-0.40222588,0.05746084,-9.289503,0.7597976,47.7254,-0.9470979,-1.7671484,-3.46693,-0.51254284,0.09782945,-0.18963619,27.625,28.8125,27.875,31.5,33.5,34.3125
0.08805224,-2.1469269,-1.012551,-0.5336531,0.01119517,0.03112395,-0.15622196,-0.3745513,-0.32790354,0.059869666,3.078702,-0.6253191,0.00046221734,-0.043071326,0.0051620314,0.0048284857,-0.014215399,0.0116115725,-0.010498007,0.4458041,-1.4684978,2.007167,-2.107775,-1.5703105,2.4209774,-0.05384631,0.04930187,-0.06504342,-0.0008837878,0.0076699564,-0.04331435,-0.30645782,0.095768064,-9.442732,0.7709874,47.7254,-0.8512962,-1.8069873,-3.1541684,-0.5225744,0.10443438,-0.20750168,27.625,28.8125,27.875,31.5,33.5,34.3125
0.090052806,-1.2344855,-0.7139962,-0.4369197,0.004542717,0.048484217,-0.16906117,-0.37466076,-0.32790932,0.05989796,3.078598,-0.62535596,0.00039098028,-0.041679855,0.005996259,0.0020495222,-0.012236105,0.005799914,-0.010727988,0.44568375,-1.4684007,2.0070012,-2.1077993,-1.5702628,2.4208932,-0.054633982,0.052772287,-0.0625128,-0.0007871155,0.008400815,-0.04387349,-0.38307226,0.1340753,-9.3661175,0.77545905,47.701214,-0.8666503,-1.8707793,-3.358162,-0.52159417,0.11055462,-0.22392175,27.625,28.8125,27.875,31.5,33.5,34.3125
0.092051946,-1.1836973,-0.9752788,-0.30513227,0.0064840624,0.043111436,-0.17615171,-0.37476045,-0.327891,0.059913278,3.0785873,-0.625392,0.0003226508,-0.043584287,0.005599036,0.0028215651,-0.013115912,0.007474444,-0.009923505,0.44557533,-1.4682925,2.0068443,-2.1077874,-1.5702866,2.4208088,-0.055638805,0.054543845,-0.0662522,-0.00070943555,0.008467864,-0.045680117,-0.3256114,0.19153613,-9.308657,0.779936,47.71554,-0.87835336,-1.9648385,-3.2755847,-0.5087571,0.0881917,-0.24934179,27.625,28.8125,27.875,31.5,33.5,34.3125
0.09405189,-1.062808,-0.50143224,-0.52397084,-0.008115908,0.044016592,-0.17418155,-0.37485045,-0.3278639,0.05992292,3.078576,-0.62540704,0.00030684756,-0.044767227,0.0055910326,0.0045302715,-0.014393007,0.010774776,-0.0077734566,0.4454431,-1.4681975,2.0067122,-2.107763,-1.5702866,2.4206874,-0.05649134,0.052324068,-0.067784764,-0.00048283517,0.008197618,-0.048681695,-0.34476504,0.19153613,-9.346964,0.7553206,47.711063,-0.92245114,-1.7689202,-3.2443337,-0.5205072,0.09169491,-0.23703262,27.625,28.8125,27.875,31.5,33.5,34.3125
0.096052215,-1.1579428,-0.3149392,-0.47249174,-0.012366728,0.040011447,-0.17053661,-0.37492225,-0.32785577,0.05992065,3.0785363,-0.62543815,0.00030105194,-0.045748655,0.005663885,0.0034847388,-0.013609014,0.008902848,-0.0091674365,0.44534683,-1.4681001,2.0066159,-2.107787,-1.5702628,2.4206157,-0.057569098,0.056496423,-0.06999479,-0.00041655466,0.008294581,-0.048363484,-0.24899697,0.19153613,-9.461885,0.7866488,47.701214,-0.94824755,-1.8357639,-3.2367787,-0.5247603,0.113442376,-0.2505261,27.625,28.8125,27.875,31.5,33.5,34.3125
0.09805228,-1.0760963,-1.034937,-0.48807,-0.014924681,0.039759394,-0.1672649,-0.3750345,-0.3278395,0.05993415,3.0785043,-0.6254893,0.0002580494,-0.045610458,0.0053868806,0.0027997547,-0.01371924,0.00733427,-0.008864923,0.4452149,-1.4679677,2.0064366,-2.1077745,-1.5702628,2.4205198,-0.057431012,0.058250517,-0.07035346,-0.00044541142,0.009072245,-0.048528302,-0.19153613,0.2681506,-9.461885,0.77545905,47.72271,-1.0355288,-1.9305232,-3.1855745,-0.5268517,0.10376601,-0.2963781,27.625,28.8125,27.875,31.5,33.5,34.3125
0.10005229,-1.3156524,-0.95301706,-0.42431456,-0.025649913,0.03065234,-0.16314389,-0.37513208,-0.32783285,0.0599358,3.078443,-0.62551624,0.00027080858,-0.04858045,0.0058582393,0.0038954457,-0.014119401,0.010095155,-0.010275963,0.4450818,-1.4678354,2.0062902,-2.107787,-1.5702146,2.4204113,-0.06041346,0.05985202,-0.07463793,-0.00041959618,0.008238683,-0.050095476,-0.15322891,0.2681506,-9.5385,0.7732232,47.705692,-0.9475801,-1.822158,-3.1604762,-0.5410095,0.10712956,-0.3104095,27.625,28.8125,27.875,31.5,33.5,34.3125
0.10205219,-0.28146905,-0.8923587,-0.49059865,-0.028687732,0.044456188,-0.17845112,-0.37522206,-0.32782763,0.059952844,3.0784044,-0.62554425,0.00026621387,-0.046663016,0.0054758145,0.002206984,-0.012487397,0.0068074833,-0.005421484,0.4449747,-1.4677272,2.0061238,-2.1077507,-1.5701908,2.4203267,-0.05791654,0.061527498,-0.072609685,-0.00045026882,0.008187746,-0.05245373,-0.17238252,0.30645782,-9.442732,0.7978386,47.698532,-1.1448067,-1.9870481,-3.1262078,-0.5319317,0.12842475,-0.3255906,27.625,28.8125,27.875,31.5,33.5,34.3125
0.10405201,-0.96381694,-1.4256281,-0.6390362,-0.018963296,0.017530896,-0.16951263,-0.37533993,-0.32780093,0.059965257,3.0783856,-0.625599,0.00015919542,-0.047500614,0.0057390127,0.0018615254,-0.01286916,0.0059237177,-0.0073314332,0.4448421,-1.4676067,2.0059683,-2.1077745,-1.5702261,2.4202309,-0.059637334,0.06328377,-0.07376222,-0.00042393224,0.008914869,-0.052264158,-0.11492168,0.28730422,-9.442732,0.779936,47.657326,-1.1667284,-1.9418142,-3.2843328,-0.52637017,0.10468787,-0.33762938,27.625,28.8125,27.875,31.5,33.5,34.3125
0.10605223,-0.74536294,-1.1166573,-0.3937997,-0.026245693,0.010036599,-0.17033051,-0.37541494,-0.32779402,0.05996072,3.0783699,-0.62557715,0.00017954063,-0.050355755,0.005158685,0.003246974,-0.014144949,0.0090922145,-0.010338491,0.4447457,-1.4674863,2.0058463,-2.1077745,-1.5702027,2.4201229,-0.06095655,0.06533433,-0.07919323,-0.00045025873,0.008692756,-0.05057245,-0.019153614,0.30645782,-9.385271,0.76874626,47.682407,-1.2127539,-1.9669738,-3.0784588,-0.53144974,0.098925464,-0.4000795,27.625,28.8125,27.875,31.5,33.5,34.3125
0.10805218,-0.053495158,-0.42791384,-0.35964978,-0.019818366,0.00802405,-0.17923449,-0.37551668,-0.3277937,0.059957013,3.0783226,-0.62560564,0.0001585043,-0.049726903,0.0063177524,0.0016920744,-0.01265411,0.0060853683,-0.009984457,0.4446372,-1.4673301,2.0056913,-2.1078107,-1.5701789,2.4200382,-0.06251728,0.066542335,-0.07694678,-0.0005459852,0.008648311,-0.05248799,-0.13407528,0.24899697,-9.385271,0.78217715,47.692257,-1.1371441,-1.9663928,-3.1554248,-0.53466725,0.11176266,-0.42921275,27.625,28.8125,27.875,31.5,33.5,34.3125
0.1100521,-0.29253465,-0.9366843,-0.3519743,-0.0026991959,0.0016391139,-0.1724384,-0.37562084,-0.327793,0.05997124,3.0782685,-0.62561244,0.00014717843,-0.05129531,0.0052003805,0.0026299385,-0.014131842,0.008086358,-0.0069019957,0.4445173,-1.4671978,2.0055106,-2.1077993,-1.5701421,2.4199295,-0.06212853,0.06820026,-0.080892466,-0.00069791346,0.009116924,-0.05517937,-0.05746084,0.24899697,-9.385271,0.80456203,47.721813,-1.2825661,-2.0170736,-3.1622102,-0.52455944,0.11647874,-0.4327037,27.625,28.8125,27.875,31.5,33.5,34.3125
0.11205193,-0.9593777,-0.53964406,-0.292583,-0.007040981,-0.0124515705,-0.17302401,-0.3757333,-0.32776314,0.05997103,3.0782828,-0.6256156,8.397255e-05,-0.052720837,0.0057239607,0.00252384,-0.014649853,0.00822812,-0.0070170145,0.44438443,-1.4670537,2.0053551,-2.1078112,-1.5701784,2.419797,-0.06464734,0.069751255,-0.08223785,-0.0012556264,0.00952306,-0.05758229,-0.019153614,0.19153613,-9.251195,0.7642693,47.757637,-1.1980107,-2.0179243,-3.0634127,-0.53326464,0.10937722,-0.45086217,27.625,28.8125,27.875,31.5,33.5,34.3125
0.114052266,-0.06459113,-0.33473903,-0.31839427,-0.001915306,0.008043138,-0.18231852,-0.3758419,-0.32776865,0.059986133,3.0781848,-0.6256138,0.00010421591,-0.054083843,0.0056617903,0.0028933787,-0.0151627,0.009363963,-0.0051323567,0.44424003,-1.4669212,2.0051749,-2.1078112,-1.570094,2.419664,-0.06571577,0.07101219,-0.08440319,-0.0015896206,0.009498019,-0.060533334,-0.019153614,0.30645782,-9.32781,0.74413085,47.73256,-1.2173854,-2.0002084,-3.0904489,-0.5052911,0.11412674,-0.46527344,27.625,28.8125,27.875,31.5,33.5,34.3125
0.116051815,-0.3786602,-0.59035665,-0.28710315,0.0034591337,0.0058626216,-0.1775588,-0.37596974,-0.32774,0.059997976,3.0781915,-0.62565094,3.942274e-05,-0.054604795,0.00592102,0.0023164432,-0.015014705,0.007925255,-0.0022153321,0.4440957,-1.4667649,2.0049703,-2.1077874,-1.5701302,2.419542,-0.06697565,0.0730124,-0.085367635,-0.0012635745,0.009985919,-0.064709835,0.019153614,0.21068975,-9.32781,0.78888994,47.675243,-1.2447238,-2.0340292,-3.052305,-0.5093174,0.10685626,-0.44875157,27.625,28.8125,27.875,31.5,33.5,34.3125
0.11805179,-1.236738,-1.0795791,-0.20035845,0.0076832906,-0.005167065,-0.15659358,-0.37606817,-0.32774264,0.059995145,3.0781176,-0.6256159,6.377204e-05,-0.055956658,0.0061153285,0.0032160573,-0.016409764,0.009317025,-0.0004713349,0.4439632,-1.4666213,2.0048268,-2.1078231,-1.5700577,2.419397,-0.06897947,0.072660625,-0.08710498,-0.0010251353,0.0106499735,-0.0684572,-0.019153614,0.15322891,-9.346964,0.7866488,47.71554,-1.1918237,-1.9568357,-3.0300846,-0.5020685,0.10227275,-0.4270109,27.625,28.8125,27.875,31.5,33.5,34.3125
0.12005175,-0.6733201,-0.15332566,-0.12770495,-0.0069686747,0.025293913,-0.17937839,-0.37617156,-0.32773447,0.060009133,3.078069,-0.62560415,5.3844422e-05,-0.05601006,0.0063263807,0.0011950621,-0.014819186,0.005370498,0.0038943079,0.4438308,-1.4664999,2.0046585,-2.1078112,-1.570022,2.4192636,-0.06958065,0.07758445,-0.08794038,-0.00086100673,0.010912808,-0.073422745,-0.1340753,0.11492168,-9.32781,0.81351066,47.7254,-1.2637357,-2.1470037,-3.0546818,-0.50006956,0.10391607,-0.39171132,27.625,28.8125,27.875,31.5,33.5,34.3125
0.122051686,-0.6856916,-0.526998,-0.2081791,-0.0019348589,0.040522657,-0.18498643,-0.37628177,-0.32770163,0.05998639,3.0781202,-0.625517,6.110379e-05,-0.057059668,0.0067545082,0.0026079274,-0.016421907,0.007830909,0.0069228224,0.44368622,-1.4663088,2.004503,-2.1078231,-1.5700458,2.4190583,-0.07156447,0.07510332,-0.08848738,-0.0007422441,0.011304677,-0.078435935,-0.22984336,0.11492168,-9.346964,0.7486078,47.745995,-1.2428445,-1.8983825,-3.0797114,-0.49197894,0.11800879,-0.35552582,27.625,28.8125,27.875,31.5,33.5,34.3125
0.12405168,-1.386811,-0.6130429,-0.22551402,-0.0031747993,0.04289547,-0.1734182,-0.37641513,-0.3277038,0.060031038,3.0780141,-0.6255119,-3.4993099e-07,-0.05747446,0.006980033,0.0016491414,-0.015422428,0.0061347676,0.010632983,0.44352996,-1.4662002,2.0042756,-2.1077988,-1.5699857,2.4189124,-0.072219364,0.077967495,-0.08947109,-0.0006523317,0.011139216,-0.08279876,-0.3256114,0.1340753,-9.346964,0.78217715,47.682407,-1.2202704,-1.9931836,-3.1919904,-0.5002326,0.10239279,-0.29041284,27.625,28.8125,27.875,31.5,33.5,34.3125
0.126052,-1.7522701,-0.30443752,0.065731235,-0.0020928702,0.043066595,-0.17414542,-0.3765093,-0.32770407,0.06002454,3.0780227,-0.62539697,6.460518e-05,-0.057970308,0.0075293067,0.0009967942,-0.014820188,0.004920481,0.013473445,0.44342148,-1.46602,2.0040839,-2.107763,-1.5699495,2.4187312,-0.073658355,0.07967784,-0.08988988,-0.0005818976,0.011116346,-0.08707799,-0.38307226,0.11492168,-9.404425,0.76874626,47.728977,-1.2607617,-2.1500487,-3.1651096,-0.49855757,0.09629222,-0.24898383,27.625,28.8125,27.875,31.5,33.5,34.3125
0.12805204,-1.321763,0.19653802,-0.15379001,-0.0030157838,0.062460747,-0.18098961,-0.3766437,-0.32769576,0.06003177,3.0779755,-0.6253672,-1.2167295e-05,-0.058475167,0.007873151,0.00060293754,-0.014625185,0.004132549,0.0143378675,0.44327724,-1.465852,2.0038931,-2.1078107,-1.5699376,2.4185746,-0.07484089,0.08100927,-0.09047929,-0.0005252115,0.011285593,-0.08912383,-0.36391866,0.05746084,-9.289502,0.7709874,47.73256,-1.2629595,-1.9706528,-3.2302046,-0.48307675,0.09311132,-0.21630825,27.625,28.8125,27.875,31.5,33.5,34.3125
0.13005212,-1.2780397,0.1762794,-0.13155507,0.009689515,0.05982174,-0.17949419,-0.37676284,-0.32767767,0.060035314,3.077939,-0.6253798,-2.0011279e-05,-0.0594826,0.008594209,-1.9338166e-05,-0.0134346485,0.0033672254,0.013993583,0.44312066,-1.4656953,2.0037124,-2.1078107,-1.5699142,2.4184306,-0.07656641,0.08337216,-0.091679506,-0.00047860097,0.010540067,-0.090503015,-0.34476504,0.0,-9.3661175,0.7777002,47.72808,-1.2516764,-2.0447862,-3.2525952,-0.49197412,0.091752596,-0.17150998,27.625,28.8125,27.875,31.5,33.5,34.3125
0.13205217,-1.79546,0.25894964,-0.07171136,0.012625814,0.03983775,-0.17497815,-0.37688902,-0.32764387,0.06003203,3.0779305,-0.62532127,2.6614837e-06,-0.061011195,0.008939967,0.0005218137,-0.014159698,0.0044524064,0.011524579,0.44292784,-1.4655273,2.0035322,-2.1077988,-1.5698899,2.4182024,-0.078678384,0.084013656,-0.09364782,-0.0004396,0.010727507,-0.09014495,-0.49799395,0.0,-9.270349,0.80679786,47.741516,-1.35357,-2.09256,-3.2629514,-0.49183637,0.089827895,-0.15288448,27.625,28.8125,27.875,31.5,33.5,34.3125
0.1340521,-1.1496764,-0.03211914,-0.14631587,0.029224107,0.055597596,-0.17376801,-0.3770207,-0.32762554,0.060034253,3.0778975,-0.6253161,-4.0091318e-06,-0.06226958,0.009395205,0.00043192168,-0.013771537,0.0045976387,0.008309014,0.4427594,-1.465347,2.0033286,-2.1077988,-1.5698661,2.418035,-0.08034825,0.085756786,-0.0953845,-0.0004064783,0.010313965,-0.08859734,-0.5554548,0.019153614,-9.270349,0.7866488,47.744205,-1.3115258,-2.078098,-3.333563,-0.49365604,0.09304896,-0.15984464,27.625,28.8125,27.875,31.5,33.5,34.3125
0.13605234,-1.5732032,-0.04853772,-0.11740171,0.031427756,0.042989776,-0.16818362,-0.3771299,-0.32761133,0.06003669,3.0778913,-0.6252596,-8.026456e-06,-0.06266208,0.010188936,-2.2496919e-05,-0.012648392,0.0040661255,0.0058456035,0.44262686,-1.4651911,2.0031483,-2.107787,-1.5698541,2.4178681,-0.08163216,0.086579286,-0.0952696,-0.00037800512,0.009528827,-0.08741693,-0.4213795,0.0,-9.385271,0.8023209,47.73525,-1.2660885,-2.0405233,-3.1904132,-0.4811091,0.08549225,-0.15141833,27.625,28.8125,27.875,31.5,33.5,34.3125
0.13805215,-1.8156419,-0.23851797,-0.23464261,0.024010958,0.0438298,-0.17281456,-0.37725276,-0.3275846,0.060034037,3.0778823,-0.62522167,-1.0569357e-05,-0.06307094,0.010172596,-0.00027204023,-0.012707459,0.003543465,-0.0004310478,0.44245875,-1.4650229,2.002969,-2.107787,-1.5698422,2.4176776,-0.08212184,0.08787086,-0.096141085,-0.00035325962,0.0098036975,-0.08162944,-0.61291564,-0.019153614,-9.289502,0.8090337,47.72719,-1.3331418,-2.0439224,-3.4351394,-0.48031932,0.10180512,-0.21443711,27.625,28.8125,27.875,31.5,33.5,34.3125
0.14005218,-1.4155202,-0.044520058,-0.109058045,0.007887878,0.06300839,-0.17363691,-0.37738624,-0.3275472,0.060036376,3.0778832,-0.6252248,-3.800213e-05,-0.06576528,0.011398708,0.0007876363,-0.013239178,0.005969614,-0.0058448366,0.44227722,-1.4648551,2.002776,-2.1077745,-1.5698541,2.417498,-0.086416185,0.0880122,-0.09874916,-0.00030466737,0.009242457,-0.08050783,-0.61291564,-0.095768064,-9.289502,0.7866488,47.729877,-1.1041324,-1.9802673,-3.2806814,-0.46774077,0.09929165,-0.2621718,27.625,28.8125,27.875,31.5,33.5,34.3125
0.14205214,-1.1122146,0.3384702,-0.167717,0.0011206348,0.07566014,-0.1794238,-0.37754443,-0.32755274,0.060036354,3.0777702,-0.62528,-5.71481e-05,-0.06531858,0.0112939915,-0.0011014813,-0.011747201,0.0023519185,-0.0074115163,0.44209766,-1.4646263,2.0025375,-2.1078346,-1.5697821,2.4173675,-0.08591999,0.09217754,-0.09904353,-0.0002621601,0.009447505,-0.07844372,-0.5554548,-0.076614454,-9.32781,0.8247004,47.72719,-1.2883388,-2.088314,-3.3845758,-0.47121906,0.11297111,-0.26899853,27.625,28.8125,27.875,31.5,33.5,34.3125
0.14405207,-1.9192332,0.1408596,-0.3427913,0.010355734,0.055994924,-0.17884213,-0.37766045,-0.32750663,0.060031455,3.0777817,-0.6253415,-4.0064508e-05,-0.06745425,0.012743162,0.0003428715,-0.0130778225,0.005116307,-0.012376522,0.44191593,-1.4644713,2.0023696,-2.1077988,-1.5697945,2.4172227,-0.09052102,0.090002544,-0.09997593,-0.0002221993,0.009465444,-0.07807982,-0.49799395,-0.038307227,-9.32781,0.7597976,47.696735,-1.2102164,-1.8553487,-3.4894238,-0.4680747,0.10422778,-0.3243511,27.625,28.8125,27.875,31.5,33.5,34.3125
0.14605172,-1.2355001,0.14169021,-0.21659605,0.018022925,0.055608757,-0.17633592,-0.37782392,-0.32749307,0.060054503,3.077716,-0.6252884,-0.00016290635,-0.06753769,0.012363633,-0.0004446951,-0.012679941,0.0035987657,-0.010127572,0.44173622,-1.4643029,2.0021422,-2.107847,-1.5697821,2.4170184,-0.09004409,0.09263933,-0.10110167,-0.00018829956,0.009763604,-0.079850025,-0.3256114,0.038307227,-9.289502,0.9298854,47.692257,-1.107794,-1.7781634,-3.507718,-0.46866703,0.10816282,-0.31925076,27.625,28.8125,27.875,31.5,33.5,34.3125
0.14805257,-1.1263754,0.40642732,-0.30573624,0.019307286,0.042229675,-0.1759075,-0.37792963,-0.3274554,0.060028557,3.0777164,-0.62536716,-6.6826055e-05,-0.06969797,0.013126554,0.00093326357,-0.013525931,0.0066035003,-0.012313879,0.44155517,-1.4641114,2.0019848,-2.1078227,-1.5697583,2.4168866,-0.09301338,0.091736995,-0.103281945,-0.00017755071,0.00923715,-0.080632046,-0.36391866,0.0,-9.385271,0.83813137,47.70211,-1.0995231,-1.9235363,-3.387598,-0.46328875,0.12556206,-0.32372615,27.625,28.8125,27.875,31.5,33.5,34.3125
0.15005256,-1.2206467,0.061524898,-0.50706106,0.017499493,0.03724417,-0.17238826,-0.37807372,-0.32743412,0.060026012,3.0776772,-0.6254185,-3.0046178e-05,-0.07063442,0.013976744,1.94159e-05,-0.012777238,0.0049628275,-0.014953057,0.44136238,-1.463895,2.0017464,-2.1077988,-1.569722,2.4167309,-0.09541721,0.09437654,-0.10412217,-0.00016911233,0.009261224,-0.08039587,-0.47884035,0.05746084,-9.461885,0.80456203,47.66271,-1.0296406,-1.8667948,-3.4868631,-0.45311296,0.11056708,-0.3637914,27.625,28.8125,27.875,31.5,33.5,34.3125
0.15205257,-1.2462984,-0.42917204,-0.5150339,0.021105085,0.039008338,-0.17354171,-0.37822852,-0.3273943,0.060033854,3.0776653,-0.6254142,-8.768415e-05,-0.072110735,0.013330187,0.0004026666,-0.014084932,0.0055654715,-0.0128024705,0.4411581,-1.4637146,2.0015295,-2.1077988,-1.5697345,2.4165256,-0.09610101,0.09661246,-0.107488886,-0.00014178036,0.010186138,-0.08322839,-0.32561144,0.11492168,-9.346964,0.8493211,47.699425,-1.0394065,-1.9087855,-3.2630553,-0.45683223,0.12362996,-0.3481441,27.625,28.8125,27.875,31.5,33.5,34.3125
0.15405189,-1.1628777,-0.32403535,-0.5605326,0.0030011912,0.04096762,-0.17678155,-0.37839794,-0.32736093,0.06006853,3.077558,-0.6255873,-0.0001716214,-0.074940965,0.014964437,0.0010818873,-0.014366856,0.007235058,-0.018880993,0.44092828,-1.4635704,2.0012882,-2.107787,-1.5697101,2.4164176,-0.101325884,0.09734698,-0.1098724,-0.000117619034,0.009732505,-0.08237208,-0.4213795,0.038307227,-9.404425,0.80456203,47.678825,-0.8458768,-1.7254543,-3.3690777,-0.43902004,0.12741305,-0.40949598,27.625,28.8125,27.875,31.5,33.5,34.3125
0.1560518,-1.486022,-0.29836774,-0.41552782,-0.009520748,0.047425896,-0.17759383,-0.37852556,-0.32733685,0.060045946,3.0775502,-0.6255442,-7.8855235e-05,-0.075044736,0.01414484,0.00028643262,-0.013394463,0.0059332284,-0.012663908,0.44073713,-1.4633416,2.0010846,-2.1077745,-1.569662,2.4162006,-0.0996259,0.100844584,-0.11198291,9.848718e-05,0.009406889,-0.08688762,-0.59376204,0.095768064,-9.442732,0.83365434,47.684196,-0.9412478,-1.8129479,-3.305274,-0.4503313,0.1378578,-0.38358653,27.625,28.8125,27.875,31.5,33.5,34.3125
0.15805182,-1.6143788,-0.82197046,-0.6736878,-0.0036392908,0.05599245,-0.16998515,-0.37866113,-0.32731703,0.060054068,3.0774896,-0.6255892,-9.027156e-05,-0.07727957,0.015607407,0.0008733859,-0.014383183,0.006925707,-0.013600769,0.4405553,-1.463174,2.000881,-2.1077745,-1.5696262,2.4160547,-0.104629435,0.10091429,-0.11343512,0.00016845381,0.009883172,-0.09095351,-0.4213795,0.15322891,-9.500193,0.7911258,47.68062,-0.80664253,-1.7935396,-3.2728608,-0.45202062,0.14521703,-0.34324545,27.625,28.8125,27.875,31.5,33.5,34.3125
0.16005196,-1.3598037,-0.8565952,-0.68893,-0.021635547,0.06984716,-0.1822772,-0.37881202,-0.32728475,0.060051676,3.0774887,-0.6255473,-7.635909e-05,-0.076801516,0.01441142,0.00064422365,-0.014150427,0.005867484,-0.0071884557,0.44035232,-1.4629576,2.000642,-2.1077502,-1.5696138,2.4158258,-0.10208376,0.102788314,-0.11522395,0.0011455907,0.010127314,-0.09481932,-0.36391866,0.17238252,-9.481039,0.7866488,47.691364,-0.90653706,-1.7147298,-3.3032053,-0.45956737,0.14923981,-0.3345428,27.625,28.8125,27.875,31.5,33.5,34.3125
0.16205198,-2.1635277,-1.2208986,-0.6605949,-0.02912388,0.04768883,-0.17303225,-0.37898344,-0.32724807,0.060047302,3.0774932,-0.6255462,-0.00013009204,-0.0779681,0.014908088,0.0006517308,-0.014234612,0.005758941,-0.0030472502,0.44014758,-1.4627175,2.0003898,-2.1077626,-1.5696381,2.41562,-0.10408639,0.10410631,-0.11679327,0.0014640712,0.010256446,-0.10096203,-0.36391866,0.2681506,-9.481039,0.7463667,47.71554,-0.8606858,-1.7895222,-3.3382344,-0.45716417,0.16652583,-0.2529301,27.625,28.8125,27.875,31.5,33.5,34.3125
0.16405214,-1.3199365,-1.2053049,-0.7006552,-0.034694802,0.061982263,-0.18082011,-0.3791559,-0.3272019,0.060048107,3.0774639,-0.6256134,-0.00016028012,-0.078470804,0.014324443,0.0008326247,-0.015193762,0.006060423,0.0028560048,0.4399077,-1.4625016,2.0001495,-2.1077626,-1.5696377,2.415426,-0.10388692,0.105108954,-0.11829552,0.0012874007,0.011001944,-0.10666504,-0.30645782,0.36391866,-9.5385,0.76874626,47.72808,-0.9286938,-1.7418151,-3.3042102,-0.46311408,0.15980531,-0.21382238,27.625,28.8125,27.875,31.5,33.5,34.3125
0.16605222,-1.8418432,-1.3596169,-0.7135131,-0.029519416,0.040423844,-0.172619,-0.37930858,-0.32717836,0.06004477,3.077452,-0.6255315,-0.00012354282,-0.07874441,0.014256978,-0.0010525396,-0.013706857,0.0028103543,0.0075040082,0.4397037,-1.4622722,1.9998983,-2.1077387,-1.5696014,2.4151726,-0.10398497,0.110308215,-0.119698025,0.0010749182,0.011042391,-0.1114095,-0.24899697,0.3256114,-9.481039,0.8157518,47.70032,-0.9878199,-1.866277,-3.2684073,-0.45704255,0.16107814,-0.11428685,27.625,28.8125,27.875,31.5,33.5,34.3125
0.16805165,-1.3454565,-1.2052636,-0.77794755,-0.020800784,0.031447854,-0.17743276,-0.37946555,-0.32716107,0.060070645,3.0773723,-0.625475,-0.00018419775,-0.07944722,0.013370811,0.0007858809,-0.016426593,0.0060522505,0.009996032,0.43949983,-1.4621176,1.9996709,-2.1077502,-1.5695533,2.4149437,-0.103629515,0.107841484,-0.12115972,0.0009181647,0.012133734,-0.11354534,-0.15322891,0.34476504,-9.519346,0.8247004,47.701214,-1.0496881,-1.807543,-3.2933316,-0.44518337,0.16895787,-0.07274259,27.625,28.8125,27.875,31.5,33.5,34.3125
0.17005262,-0.97758985,-1.412382,-0.65297425,-0.021651717,0.02479038,-0.17140931,-0.37964663,-0.3271441,0.06007259,3.077352,-0.62539554,-0.00025833314,-0.07998381,0.013634782,-0.0010873253,-0.01486547,0.0027800943,0.008149981,0.43930748,-1.4618642,1.9993948,-2.1077864,-1.5695533,2.4147046,-0.10453681,0.113021985,-0.12259615,0.0008010947,0.012117414,-0.11260424,-0.076614454,0.28730422,-9.500193,0.7866488,47.703903,-1.1660256,-1.9111855,-3.3449242,-0.4361033,0.16034062,-0.057500094,27.625,28.8125,27.875,31.5,33.5,34.3125
0.17205179,-0.73665047,-1.1566218,-0.5917421,-0.016934454,0.011149681,-0.17382523,-0.37981263,-0.32710466,0.06008402,3.077313,-0.625428,-0.00029429435,-0.08256043,0.013396209,0.0009790738,-0.016412199,0.0075693126,0.0042345272,0.43907896,-1.4616729,1.9991544,-2.1077745,-1.5695418,2.4145014,-0.10588519,0.112367466,-0.12653211,0.00040303596,0.011475912,-0.11003415,-0.05746084,0.28730422,-9.461885,0.8314132,47.73525,-1.1420412,-1.8043764,-3.3016603,-0.436198,0.18538868,-0.07894441,27.625,28.8125,27.875,31.5,33.5,34.3125
0.17405182,-0.037741583,-0.7947655,-0.6190454,-0.017168025,0.008078164,-0.17570694,-0.37999427,-0.3270666,0.06007059,3.0772958,-0.62546587,-0.00028053427,-0.08227458,0.014156586,-0.00039202272,-0.015483238,0.0048312126,-0.0011918122,0.43883863,-1.4613966,1.9988798,-2.1077745,-1.5695294,2.414287,-0.10721384,0.1141929,-0.12542886,0.00034667132,0.011799743,-0.10593705,0.0,0.28730422,-9.3661175,0.84708,47.723602,-1.0915962,-1.873636,-3.248765,-0.41880757,0.18543367,-0.09608129,27.625,28.8125,27.875,31.5,33.5,34.3125
0.17605197,-0.12941359,-0.5818636,-0.57842463,-0.017430736,-0.009124732,-0.17179671,-0.38018575,-0.32705,0.060094643,3.0772083,-0.6255087,-0.00037967847,-0.08428114,0.014032943,0.00029663998,-0.01608954,0.006540548,-0.0065202904,0.4386222,-1.4611804,1.9985913,-2.1077988,-1.5695056,2.4141088,-0.10857706,0.115976535,-0.12899527,0.00032618907,0.011623444,-0.10196828,0.05746084,0.24899697,-9.404425,0.80679786,47.728977,-1.0852044,-1.8804444,-3.173851,-0.40655953,0.21618181,-0.14323036,27.625,28.8125,27.875,31.5,33.5,34.3125
0.17805207,-0.9317209,-0.94254446,-0.40861845,-0.0060209734,-0.033670455,-0.15619,-0.3803181,-0.3270121,0.060064506,3.0772672,-0.6254457,-0.0003136507,-0.08460039,0.013984434,-0.0001445473,-0.016688365,0.005373419,-0.010986303,0.4384419,-1.4609282,1.9983758,-2.1077745,-1.569517,2.4138818,-0.10941505,0.11747469,-0.12966335,0.0002922398,0.012652048,-0.09834087,0.0,0.28730422,-9.3661175,0.8403672,47.73525,-1.0900104,-1.9484652,-3.323416,-0.42201743,0.21969655,-0.19681004,27.625,28.8125,27.875,31.5,33.5,34.3125
0.18005204,0.0653802,-0.37936664,-0.41556594,-0.01016889,-0.00471484,-0.17009322,-0.38050205,-0.3270007,0.06007744,3.0771399,-0.6255157,-0.0003259518,-0.0854582,0.013577121,-5.373882e-05,-0.017283516,0.0055807917,-0.01218218,0.43820187,-1.4607004,1.9980997,-2.1077988,-1.5694331,2.4137018,-0.10965231,0.11914888,-0.13174066,0.00026374147,0.013107411,-0.09738012,0.076614454,0.21068975,-9.232041,0.76874626,47.681515,-1.1183741,-1.8972952,-3.2278938,-0.4075672,0.22138985,-0.23969191,27.625,28.8125,27.875,31.5,33.5,34.3125
0.18205214,0.01861524,-0.12957002,-0.39012933,-0.0017522064,-0.0048787915,-0.17144507,-0.38068703,-0.32697853,0.06010869,3.0770392,-0.62561435,-0.0003961738,-0.08771966,0.013883599,0.00025534615,-0.018039942,0.0063095205,-0.017460808,0.43797284,-1.4605075,1.9978122,-2.107787,-1.5693969,2.4135473,-0.11241032,0.12161428,-0.13519959,0.00027892343,0.013484015,-0.0948562,0.17238252,0.15322891,-9.3661175,0.8784135,47.696735,-1.0647992,-2.059237,-3.2031643,-0.40946668,0.2223537,-0.27575073,27.625,28.8125,27.875,31.5,33.5,34.3125
0.1840522,-0.39382303,-0.639698,-0.37797904,0.0008086107,-0.013041536,-0.16806465,-0.3808304,-0.32693967,0.06006896,3.0770671,-0.6255622,-0.00029591518,-0.08610358,0.013982272,-0.002061978,-0.016483258,0.0015607467,-0.017386016,0.4377573,-1.4602314,1.9975976,-2.107787,-1.5693725,2.4132957,-0.11152537,0.12452562,-0.133152,0.00028303996,0.014087665,-0.0940479,0.076614454,0.22984336,-9.232041,0.8247004,47.73077,-1.2620435,-1.9588566,-3.2219176,-0.3822379,0.22012572,-0.34415472,27.625,28.8125,27.875,31.5,33.5,34.3125
0.1860526,-0.31819102,-0.39040264,-0.18935928,-0.0082087,0.004985895,-0.17189835,-0.3810349,-0.3269161,0.060099173,3.0769835,-0.6256231,-0.00037879322,-0.088329025,0.013753085,-0.00073023856,-0.018418731,0.0039833724,-0.020089261,0.43751672,-1.4600035,1.9972733,-2.1077745,-1.5693482,2.413104,-0.113475494,0.12511742,-0.13691725,0.0004442672,0.014815736,-0.09329165,-0.095768064,0.21068975,-9.212888,0.8247004,47.73077,-1.1053867,-2.054811,-3.073426,-0.37638238,0.2363497,-0.34848216,27.625,28.8125,27.875,31.5,33.4375,34.3125
0.18805183,-0.9122257,-0.50986284,-0.2177146,-0.008647896,0.010468688,-0.1667145,-0.38120696,-0.32689852,0.060107525,3.076949,-0.62563676,-0.00041242127,-0.088178575,0.014468152,-0.0016264964,-0.01724102,0.0016492665,-0.023120863,0.4373243,-1.4597635,1.9969858,-2.1077626,-1.5693363,2.4129248,-0.11457394,0.12654309,-0.13669467,0.0014112437,0.014743213,-0.091358185,-0.1340753,0.2681506,-9.270349,0.84708,47.686886,-1.2180452,-2.0687242,-3.2967227,-0.378794,0.22136867,-0.44731653,27.625,28.8125,27.875,31.5,33.4375,34.3125
0.1900518,-1.0537714,-0.3161214,-0.15200627,-0.018649766,0.02674701,-0.17378144,-0.38136938,-0.32687008,0.060097,3.07689,-0.6257009,-0.00037991902,-0.08866357,0.014692558,-0.0015032961,-0.017745052,0.0011189529,-0.022199884,0.4370959,-1.4595237,1.9967469,-2.1077735,-1.5692881,2.412744,-0.11582035,0.12694389,-0.13763528,0.002226215,0.015429743,-0.09352528,-0.11492168,0.19153613,-9.289502,0.8090337,47.729877,-1.1866307,-1.9232657,-3.3289003,-0.38036516,0.2379919,-0.48525605,27.625,28.8125,27.875,31.5,33.4375,34.3125
0.19205177,-0.91816133,-0.53386354,-0.09024457,-0.014389242,0.032757938,-0.17526525,-0.38154328,-0.32684213,0.060095444,3.0768611,-0.6257327,-0.00033136315,-0.090157606,0.015942149,-0.0019064435,-0.017216682,7.870347e-05,-0.021445818,0.43686673,-1.4592595,1.996447,-2.1077259,-1.5692524,2.4125385,-0.11938363,0.12894307,-0.13910861,0.0028790887,0.015395505,-0.0978419,-0.1340753,0.19153613,-9.270349,0.8403672,47.70838,-1.1608679,-2.0089192,-3.3523638,-0.3946516,0.24185383,-0.4942061,27.625,28.8125,27.875,31.5,33.4375,34.3125
0.19405182,-1.0650833,-0.324299,0.031033188,-0.0090786535,0.039255433,-0.17461371,-0.3817131,-0.32682618,0.060097758,3.0767696,-0.6257472,-0.00032454048,-0.09007713,0.014569749,-0.0010545296,-0.018206235,0.0019550934,-0.011527259,0.43663943,-1.459032,1.9961952,-2.1077497,-1.5691804,2.412332,-0.11676195,0.12850286,-0.14054675,0.0026587048,0.015510651,-0.10513734,-0.22984336,0.1340753,-9.078813,0.75084364,47.70659,-1.2885032,-1.8741791,-3.2672913,-0.39414808,0.23277393,-0.42735082,27.625,28.8125,27.875,31.5,33.4375,34.3125
0.19605201,-1.2370644,-0.05657096,-0.00093357766,0.003664896,0.0433977,-0.17003089,-0.3819315,-0.32678664,0.060106475,3.076731,-0.62575704,-0.00039950604,-0.092664324,0.01611597,-0.0011834442,-0.018039446,0.002331487,-0.009710099,0.43637374,-1.4587557,1.9958719,-2.107762,-1.5691804,2.4120777,-0.121644795,0.1308299,-0.1427854,0.002314056,0.015212409,-0.11183473,-0.3256114,0.21068975,-9.174581,0.8247004,47.698532,-1.1209204,-1.9350107,-3.227563,-0.37733042,0.23921567,-0.40363175,27.625,28.8125,27.875,31.5,33.4375,34.3125
0.198052,-1.0353948,0.14534639,-0.30580723,0.015219033,0.060879808,-0.17546047,-0.38209936,-0.3267525,0.06010134,3.0767229,-0.62573105,-0.00036117455,-0.09298848,0.015776552,-0.0011040461,-0.019251337,0.002521195,-0.0011498871,0.43614605,-1.4585042,1.9955968,-2.1077263,-1.5691556,2.411835,-0.12192003,0.13123344,-0.1433222,0.0017781929,0.016240714,-0.120670095,-0.38307226,0.0,-9.308657,0.8627467,47.703007,-1.2446718,-1.8855884,-3.3549843,-0.3819132,0.25023198,-0.29382548,27.625,28.8125,27.875,31.5,33.4375,34.3125
0.2000521,-1.4353676,0.23743051,-0.16389444,0.021483196,0.06492636,-0.17991753,-0.38228583,-0.3267562,0.060097165,3.0766473,-0.625637,-0.00036743132,-0.093867026,0.016464517,-0.002396561,-0.01849879,0.00016621029,0.0021139455,0.43594128,-1.4582156,1.9952973,-2.107774,-1.5690836,2.4115813,-0.12412617,0.13485739,-0.14440078,0.0017042087,0.016567098,-0.12613806,-0.47884032,0.0,-9.289502,0.842603,47.687782,-1.1709424,-1.799479,-3.4053583,-0.37240815,0.23618178,-0.23385108,27.625,28.8125,27.875,31.5,33.4375,34.3125
0.2020521,-1.7216586,0.31503293,-0.15086648,0.021934396,0.0726888,-0.17266646,-0.38245958,-0.3266853,0.060063403,3.0766692,-0.6256787,-0.00024095653,-0.0962643,0.01599055,0.0006452652,-0.021887802,0.005777014,0.0039007857,0.43564063,-1.457929,1.995046,-2.1077263,-1.5690597,2.411304,-0.12572996,0.13182335,-0.14808053,0.0019116804,0.017260753,-0.1295287,-0.7852981,-0.076614454,-9.212888,0.91421866,47.707485,-1.1291704,-1.7705618,-3.3724768,-0.35324815,0.23282325,-0.1737248,27.625,28.8125,27.875,31.5,33.4375,34.3125
0.20405202,-1.9038091,0.20251784,-0.21570139,0.026140513,0.08278684,-0.173137,-0.38266727,-0.3266665,0.06008362,3.0765915,-0.6256643,-0.00031183645,-0.0958221,0.017914576,-0.0016938868,-0.019608397,0.0004459108,0.0013002418,0.43539944,-1.4576763,1.9947222,-2.1077383,-1.5690235,2.411064,-0.12899497,0.13466786,-0.14614993,0.002940942,0.017464083,-0.13019279,-0.80445176,-0.038307227,-9.308657,0.90527004,47.677036,-1.0382632,-1.8640995,-3.4739008,-0.36484647,0.22911304,-0.15923768,27.625,28.8125,27.875,31.5,33.4375,34.3125
0.20605205,-1.6457936,0.43117344,-0.29296732,0.02548827,0.09236423,-0.1711246,-0.38282695,-0.32664052,0.060060997,3.0765913,-0.62557006,-0.00019437604,-0.09705591,0.018104026,-0.0008777037,-0.019506752,0.001030343,-0.002597732,0.4351713,-1.4573889,1.9944466,-2.107701,-1.5689639,2.410777,-0.13012965,0.13527887,-0.14917608,0.004877713,0.017115401,-0.12742907,-0.80445176,-0.095768064,-9.32781,0.8224646,47.694054,-1.0328318,-1.74828,-3.2604218,-0.38050056,0.24985328,-0.17754206,27.625,28.8125,27.875,31.5,33.4375,34.3125
0.2080521,-1.5891173,0.6675051,-0.24140662,0.019463968,0.09126486,-0.18220015,-0.38305387,-0.32659224,0.06008428,3.0765252,-0.62567663,-0.00028465554,-0.09889232,0.018385626,-0.00034483153,-0.020371815,0.0019962795,-0.009577042,0.4348825,-1.4571368,1.994111,-2.1076891,-1.5689634,2.4105635,-0.13242431,0.13661356,-0.15195318,0.005076013,0.017492786,-0.12274155,-0.80445176,-0.11492168,-9.404425,0.83365434,47.678825,-0.88226837,-1.7791698,-3.3599625,-0.38412353,0.24488866,-0.2087723,27.625,28.8125,27.875,31.5,33.4375,34.3125
0.21005197,-1.876391,0.18158507,-0.5416776,0.033003174,0.08502509,-0.17155409,-0.38325915,-0.3265468,0.060067087,3.0764666,-0.6257809,-0.0002673723,-0.099660896,0.018135196,-8.1226506e-05,-0.020555295,0.0033499694,-0.013675046,0.43459448,-1.456837,1.9938234,-2.107714,-1.5689276,2.4103482,-0.13227066,0.13734187,-0.15323225,0.004325844,0.01708336,-0.1184887,-0.7086837,-0.17238252,-9.461885,0.8314132,47.693153,-0.97335875,-1.7634104,-3.3739138,-0.3863013,0.2394392,-0.2561886,27.625,28.8125,27.875,31.5,33.4375,34.3125
0.21205202,-1.3447105,0.3811265,-0.5925821,0.029741911,0.09400038,-0.18748291,-0.38344753,-0.32649976,0.06004313,3.076462,-0.6258011,-0.00017317144,-0.10086486,0.017750341,-0.0006182018,-0.020671561,0.002971586,-0.015431101,0.4343184,-1.4565246,1.993523,-2.1076777,-1.5688919,2.4100854,-0.13269529,0.14089361,-0.15584125,0.0036833757,0.01733668,-0.11715599,-0.6703765,-0.17238252,-9.519346,0.8090337,47.71554,-1.0007663,-1.7069488,-3.300559,-0.3809201,0.25092506,-0.31658775,27.625,28.8125,27.875,31.5,33.4375,34.3125
0.21405199,-1.9434901,0.20850298,-0.76180154,0.01985896,0.08689323,-0.16707009,-0.38366157,-0.32647365,0.06005764,3.0763576,-0.62585604,-0.0002068676,-0.10105808,0.017461278,0.0003034777,-0.021771837,0.004745441,-0.015277529,0.43404263,-1.4562616,1.9932007,-2.1076896,-1.5688313,2.4098575,-0.13241082,0.13922736,-0.15610228,0.003549404,0.017599346,-0.117024064,-0.59376204,-0.019153614,-9.519346,0.8247004,47.701214,-1.0942158,-1.7242892,-3.4863837,-0.37127498,0.25732505,-0.34083933,27.625,28.8125,27.875,31.5,33.4375,34.3125
0.21605209,-1.913041,-0.21654105,-1.0592425,0.021360524,0.078638814,-0.16564184,-0.38385847,-0.32642788,0.060063448,3.0763345,-0.6258525,-0.00022549415,-0.10173778,0.017778069,-0.0009866292,-0.02026677,0.0024986914,-0.01720144,0.43377802,-1.4560084,1.9929007,-2.1076658,-1.5688199,2.4095938,-0.13323623,0.14334151,-0.15781873,0.0038286767,0.01717958,-0.11592367,-0.4596867,-0.019153614,-9.615114,0.7732232,47.688675,-0.98120654,-1.8963425,-3.3675857,-0.36532795,0.26588306,-0.359524,27.625,28.8125,27.875,31.5,33.4375,34.3125
0.21805261,-0.794629,0.02510145,-1.0998372,-0.0053871125,0.08079021,-0.1804823,-0.38407007,-0.32639092,0.06005229,3.0763087,-0.6259446,-0.00023790485,-0.10403562,0.019437186,-0.0010712434,-0.02008013,0.0015492135,-0.020331638,0.43352458,-1.4556843,1.992566,-2.1076653,-1.5688194,2.4094014,-0.13840239,0.1455544,-0.16043855,0.0051828385,0.017413387,-0.11795809,-0.34476504,0.05746084,-9.749189,0.8918391,47.68062,-1.1021528,-1.8546817,-3.3734784,-0.37425005,0.27475217,-0.3642903,27.625,28.8125,27.875,31.5,33.4375,34.3125
0.22005256,-0.89692837,-1.0415874,-1.2171972,-0.014703627,0.053740747,-0.17032278,-0.38428444,-0.32633027,0.060055748,3.076226,-0.6260987,-0.00025031777,-0.10366002,0.019173397,-0.002059799,-0.018555608,-0.00031889864,-0.018446844,0.4332012,-1.4554317,1.9922775,-2.1076653,-1.5687836,2.409185,-0.13709848,0.14813776,-0.16120538,0.005714937,0.0168217,-0.118537754,-0.22984336,0.17238252,-9.691729,0.8851263,47.70838,-1.0183827,-1.9332117,-3.4322567,-0.3784305,0.2790637,-0.40296844,27.625,28.8125,27.875,31.5,33.4375,34.3125
0.22205244,-0.55456376,-0.9379922,-1.0322229,-0.037105367,0.037402883,-0.18239957,-0.38452324,-0.32629764,0.06007571,3.07618,-0.62606627,-0.0003278943,-0.10454567,0.019072602,-0.0026421382,-0.018300116,-0.000932531,-0.012470011,0.43292487,-1.4551316,1.9918956,-2.1076534,-1.5687717,2.4088945,-0.13761276,0.15104409,-0.16306154,0.0053465096,0.01686286,-0.12502621,-0.1340753,0.21068975,-9.672575,0.90750587,47.717335,-1.0890706,-2.0562124,-3.3710494,-0.39734402,0.2875109,-0.3621732,27.625,28.8125,27.875,31.5,33.4375,34.3125
0.22405244,-0.9354945,-1.552087,-0.91381145,-0.035642255,0.023248937,-0.16601971,-0.3847303,-0.32623705,0.06006191,3.0761514,-0.6261537,-0.000318407,-0.10643642,0.019551761,-0.002393564,-0.018806381,0.00048896926,-0.0080873715,0.43262422,-1.4548436,1.9916071,-2.1076539,-1.5687598,2.4086523,-0.13997087,0.15251946,-0.165102,0.004427957,0.01673272,-0.13176544,-0.11492168,0.3256114,-9.576807,0.7777002,47.694946,-1.0923822,-1.9983861,-3.414474,-0.37232286,0.31945118,-0.32289457,27.625,28.8125,27.875,31.5,33.4375,34.3125
0.22605169,-0.48381612,-1.2609792,-0.875721,-0.029911466,0.015904907,-0.17005871,-0.3849152,-0.32622254,0.06005173,3.0761096,-0.62604433,-0.00019752541,-0.10654406,0.018269828,-0.0022039325,-0.019674499,0.0014571953,0.00079350395,0.43237284,-1.4545318,1.9912728,-2.1076062,-1.568664,2.408338,-0.13785046,0.15360339,-0.16660267,0.0036300544,0.017119287,-0.13852522,-0.095768064,0.3256114,-9.615114,0.8537928,47.698532,-1.1352289,-1.9993984,-3.3339696,-0.36553627,0.3254565,-0.24416792,27.625,28.8125,27.875,31.5,33.4375,34.3125
0.22805175,-0.4494889,-1.0786325,-1.0147046,-0.027396997,0.0017843652,-0.16752572,-0.38514745,-0.32617342,0.060050104,3.0761027,-0.6260214,-0.00028300082,-0.109549396,0.018325424,-0.0005271251,-0.022230946,0.00482175,0.0044327457,0.4320956,-1.4542204,1.9909357,-2.1076305,-1.5686873,2.4080477,-0.14107598,0.15403342,-0.17090544,0.0033879357,0.0180425,-0.14538658,0.095768064,0.40222588,-9.461885,0.82694155,47.711964,-0.99763083,-1.9474931,-3.4015958,-0.35756165,0.31518218,-0.14962727,27.625,28.8125,27.875,31.5,33.4375,34.3125
0.23005176,0.108163215,-1.0306648,-0.69856316,-0.027529202,-0.00092103163,-0.16699,-0.38539058,-0.3261385,0.060060818,3.0760267,-0.62604284,-0.000336273,-0.10916855,0.018576397,-0.0021207838,-0.020984167,0.0019729007,0.007205998,0.4317959,-1.4539075,1.9905657,-2.107642,-1.5686511,2.4077713,-0.14116456,0.15695707,-0.17051595,0.0031999054,0.018121544,-0.148247,0.15322891,0.4213795,-9.3661175,0.8224646,47.701214,-1.14379,-2.0503867,-3.3545594,-0.35062033,0.33106285,-0.12539053,27.625,28.8125,27.875,31.5,33.4375,34.3125
0.2320519,-0.29683384,-1.6025803,-0.8799408,-0.013381795,-0.017378451,-0.16187271,-0.3855911,-0.32607892,0.060048997,3.0760193,-0.6260446,-0.00028610343,-0.11065083,0.018908037,-0.0011789496,-0.022296384,0.0032055867,0.0014036718,0.43149522,-1.4536206,1.9902653,-2.1076062,-1.5686268,2.4074728,-0.14341685,0.15676166,-0.17264508,0.0038558699,0.018788941,-0.14469635,0.15322891,0.49799395,-9.385271,0.8224646,47.737038,-1.0969734,-1.8081626,-3.3317237,-0.3453715,0.33479333,-0.1329942,27.625,28.8125,27.875,31.5,33.4375,34.3125
0.23405257,0.3880557,-1.2901148,-0.7552804,-0.029623218,-0.0069848564,-0.17075449,-0.38582167,-0.3260397,0.06005057,3.0759563,-0.6261119,-0.00032408212,-0.111141525,0.018913789,-0.001097794,-0.023196982,0.0025507542,-0.0042700176,0.4312067,-1.4533092,1.9899176,-2.1076176,-1.5686024,2.4072347,-0.14447935,0.1574656,-0.17381513,0.004536605,0.01988249,-0.14008355,0.11492168,0.4405331,-9.423578,0.86945957,47.72629,-1.1452502,-1.8627418,-3.3516774,-0.34390652,0.33734393,-0.13300309,27.625,28.8125,27.875,31.5,33.4375,34.3125
0.2360527,-0.04814638,-1.6273656,-0.68437535,-0.041679524,-0.016508631,-0.16836287,-0.3860757,-0.32601744,0.06007619,3.0758653,-0.6260383,-0.00038754745,-0.11165198,0.019536948,-0.0014773521,-0.022673227,0.001695339,-0.010355613,0.43090627,-1.452997,1.9895114,-2.1076171,-1.5685428,2.4069002,-0.14589623,0.15859547,-0.17434204,0.0049351486,0.01977207,-0.13541277,0.05746084,0.40222588,-9.404425,0.86498255,47.71286,-1.0629594,-1.9470441,-3.3318448,-0.35526246,0.34728652,-0.1862632,27.625,28.8125,27.875,31.5,33.4375,34.3125
0.23805176,-0.09246601,-1.7515072,-0.4679394,-0.054129917,0.00012991579,-0.16729747,-0.38628316,-0.3260016,0.06007099,3.0758195,-0.6259937,-0.00037452168,-0.1127702,0.019981291,-0.000997727,-0.0232755,0.0025964673,-0.016266942,0.43066576,-1.4526737,1.9891633,-2.1076171,-1.5684947,2.406638,-0.14770725,0.15864408,-0.17556551,0.005042109,0.019939361,-0.13131137,-0.05746084,0.38307226,-9.251195,0.8672237,47.705692,-0.979979,-1.8198915,-3.3173344,-0.33873677,0.36004555,-0.27454278,27.625,28.8125,27.875,31.5,33.4375,34.3125
0.2400517,0.44289452,-1.1608295,-0.38443193,-0.036194474,0.021471715,-0.16800141,-0.38648877,-0.32594177,0.060043775,3.0758023,-0.62610865,-0.00026455833,-0.11412732,0.019947352,-0.00044919725,-0.024616353,0.0028988488,-0.021962898,0.43035302,-1.4523374,1.98884,-2.1075695,-1.5684584,2.4063993,-0.14943269,0.15969928,-0.17822099,0.0058070906,0.021016745,-0.1273404,0.019153614,0.3256114,-9.251195,0.8717007,47.68599,-0.9346496,-1.8608531,-3.3031192,-0.35428727,0.3756516,-0.32598072,27.625,28.8125,27.875,31.5,33.4375,34.3125
0.24205178,-0.44538602,-0.94489443,-0.35091355,1.7593638e-05,0.0012299665,-0.16166985,-0.3867286,-0.3259087,0.060067326,3.0756896,-0.62618375,-0.00033951437,-0.114877366,0.019795276,-0.0010161839,-0.02565198,0.0014340534,-0.026012307,0.43005258,-1.4520614,1.9884814,-2.1075814,-1.5684098,2.4061604,-0.150724,0.1622624,-0.1798002,0.0057239165,0.022576025,-0.12457855,0.05746084,0.28730422,-9.308657,0.8672237,47.694946,-0.94486666,-1.7572567,-3.406077,-0.35447466,0.33453542,-0.39099255,27.625,28.8125,27.875,31.5,33.4375,34.3125
0.24405186,-0.4886905,-0.16924185,-0.12715082,0.0048171584,0.010606863,-0.17227721,-0.38697535,-0.32586315,0.060061924,3.075626,-0.6262888,-0.00036322945,-0.11681245,0.020242024,0.00066006806,-0.028112072,0.004123667,-0.031193484,0.42973948,-1.4517148,1.98811,-2.1075928,-1.5683855,2.4059212,-0.15384601,0.16059783,-0.18189542,0.0060154176,0.023692414,-0.12251742,-0.19153613,0.17238252,-9.136273,0.8403672,47.688675,-0.8789949,-1.6235461,-3.3829074,-0.35391277,0.33753812,-0.45413673,27.625,28.8125,27.875,31.5,33.4375,34.3125
0.24605191,-0.7277904,0.35195228,-0.09936371,0.028206998,0.017998539,-0.16288804,-0.38722408,-0.32585174,0.060095623,3.0754461,-0.62638384,-0.0003471863,-0.11723987,0.018944612,0.0007404369,-0.029146377,0.004616271,-0.027857123,0.42941642,-1.4514146,1.9876903,-2.1075575,-1.5682529,2.4056807,-0.15217602,0.16256535,-0.18419436,0.0054934747,0.02444008,-0.12417988,-0.21068975,0.095768064,-9.174581,0.8717007,47.68599,-1.0525246,-1.6632991,-3.3573108,-0.3429944,0.325356,-0.5285469,27.625,28.8125,27.875,31.5,33.4375,34.3125
0.24805194,-1.0370034,0.410994,-0.33540502,0.05456211,0.035751067,-0.1634642,-0.38743436,-0.3258176,0.060067505,3.075418,-0.626393,-0.00027400607,-0.118274614,0.018347252,0.0014308365,-0.030145563,0.0059190844,-0.020382222,0.42914036,-1.4510549,1.9873537,-2.1075575,-1.5682048,2.405414,-0.1521035,0.16340077,-0.18680713,0.0056992425,0.024817334,-0.13158128,-0.24899697,-0.019153614,-9.193734,0.8627467,47.705692,-1.0617979,-1.6219249,-3.3335662,-0.32930636,0.31294793,-0.50821704,27.625,28.8125,27.875,31.5,33.4375,34.3125
0.2500521,-1.4251133,0.35488892,-0.35663095,0.05054929,0.05666597,-0.17324644,-0.3876755,-0.32578662,0.06008455,3.075346,-0.62635446,-0.00034636905,-0.11878918,0.018793091,0.0013386415,-0.029944042,0.005609707,-0.012788454,0.42885217,-1.4507554,1.9869832,-2.1075695,-1.568169,2.4051113,-0.15324844,0.1640569,-0.18746488,0.0060989237,0.024795778,-0.14031777,-0.2681506,-0.019153614,-9.251195,0.8717007,47.68062,-1.1471782,-1.4737495,-3.3245695,-0.3163958,0.3024458,-0.42652342,27.625,28.8125,27.875,31.5,33.4375,34.3125
0.25205207,-1.304187,0.52232784,-0.46000034,0.040001392,0.080001876,-0.18454275,-0.38789618,-0.32574186,0.060070038,3.0752845,-0.62645024,-0.0002747754,-0.11931852,0.019019827,0.0005480536,-0.02940325,0.0037253085,-0.0017584366,0.42853993,-1.450419,1.9866356,-2.1075451,-1.5681089,2.404867,-0.15422757,0.16683635,-0.18897517,0.006812979,0.025112903,-0.15232617,-0.3256114,-0.095768064,-9.308656,0.89631605,47.693153,-1.1259502,-1.5652101,-3.2491279,-0.332461,0.2995974,-0.31213903,27.625,28.8125,27.875,31.5,33.4375,34.3125
0.25405192,-1.2864813,0.5952078,-0.26067632,0.025204772,0.089118004,-0.17898086,-0.38815102,-0.325704,0.060089882,3.0752046,-0.6264117,-0.00026666233,-0.11973828,0.019284677,-0.00029747142,-0.028590057,0.0008713702,0.0046315137,0.4282033,-1.4500943,1.9862169,-2.107497,-1.5680364,2.4045167,-0.1552716,0.16999647,-0.19105189,0.008700142,0.025585406,-0.15975775,-0.5554548,-0.11492168,-9.308657,0.95897776,47.686886,-1.0123491,-1.6648982,-3.2009892,-0.34053564,0.29884404,-0.22357261,27.625,28.8125,27.875,31.5,33.4375,34.3125
0.2560522,-2.478692,-0.15109713,-0.7926143,0.030040888,0.06948199,-0.16529626,-0.3883632,-0.32564586,0.060060915,3.0752623,-0.62630874,-0.0001899804,-0.12175447,0.020445291,-0.0012874013,-0.027073633,-0.00092884194,0.0048792553,0.42791405,-1.4497333,1.9858688,-2.1074483,-1.5680369,2.404156,-0.1586307,0.17463344,-0.19421442,0.009511689,0.024948766,-0.16336434,-0.51714754,-0.095768064,-9.423578,0.8179876,47.655537,-0.9864311,-1.90657,-3.2957745,-0.36599445,0.30145204,-0.14566004,27.625,28.8125,27.875,31.5,33.4375,34.3125
0.25805175,-1.8500016,-0.20467934,-0.7028449,0.020126313,0.08803422,-0.16646276,-0.3885858,-0.3256019,0.060050342,3.0752108,-0.6263557,-0.00011959867,-0.12247472,0.01996691,-0.001239882,-0.02654533,-1.616975e-05,0.0044561103,0.42760262,-1.4493974,1.9855098,-2.1074126,-1.5679773,2.4038806,-0.1576715,0.17640984,-0.19629848,0.009225138,0.024082823,-0.16198137,-0.7661445,-0.05746084,-9.500193,0.80679786,47.651955,-1.1225125,-1.7979707,-3.2145033,-0.36874267,0.30025348,-0.11624991,27.625,28.8125,27.875,31.5,33.4375,34.3125
0.260052,-2.1467152,-0.35449132,-0.57104874,0.000987111,0.09547233,-0.16247225,-0.38885447,-0.32555938,0.060065273,3.0751011,-0.6264328,-0.00015866928,-0.12388733,0.01964149,7.335966e-05,-0.027441124,0.0032134335,-0.0019098155,0.4272548,-1.4490623,1.9851016,-2.107413,-1.5679177,2.4035952,-0.15778975,0.17587703,-0.19866732,0.008819908,0.023556752,-0.15573105,-1.0151415,0.05746084,-9.5385,0.8806493,47.67614,-1.2312855,-1.7251375,-3.140839,-0.3591427,0.2973571,-0.19808486,27.625,28.8125,27.875,31.5,33.4375,34.3125
0.26205188,-1.8814976,-0.50931233,-0.701244,-0.008918765,0.1211015,-0.16536394,-0.38908783,-0.32553506,0.060059484,3.0750349,-0.6263844,-9.422869e-05,-0.12384868,0.01964493,2.4985848e-05,-0.027552256,0.0024898138,-0.00949544,0.42695472,-1.4487029,1.9847077,-2.1073887,-1.5678333,2.4032736,-0.15790707,0.17619345,-0.19914612,0.009593536,0.023948757,-0.14826229,-0.9959879,0.15322891,-9.519346,0.8918391,47.717335,-1.2012377,-1.7320473,-3.2798672,-0.37291235,0.2956875,-0.28045452,27.625,28.8125,27.875,31.5,33.4375,34.3125
0.26405185,-2.5019484,-0.63916594,-0.71379507,-0.016164873,0.11437376,-0.16466826,-0.389337,-0.32549417,0.06007029,3.0750148,-0.62634313,-0.00015261784,-0.12345062,0.020391693,-0.001975518,-0.026962632,-0.0014294657,-0.01288483,0.4266662,-1.4483662,1.984301,-2.1073644,-1.5678328,2.4029622,-0.15956584,0.1790903,-0.19775815,0.009119076,0.025042864,-0.14653021,-0.80445176,0.24899697,-9.595961,0.8806493,47.709274,-1.2598113,-1.931714,-3.4456253,-0.38368508,0.28265008,-0.31875062,27.625,28.8125,27.875,31.5,33.4375,34.3125
0.26605198,-1.9861469,-0.98397404,-0.74152106,-0.014071609,0.11613453,-0.16494858,-0.38959998,-0.32542515,0.06005471,3.074946,-0.62648344,-0.000107989385,-0.12410702,0.02012935,-0.0026083842,-0.027245801,-0.0025720142,-0.013363742,0.42628205,-1.4479942,1.9839181,-2.107353,-1.5677842,2.4026747,-0.15998799,0.1819295,-0.19951592,0.008974951,0.025772547,-0.14647171,-0.7661445,0.21068975,-9.595961,0.91198283,47.707485,-1.2771242,-1.7488472,-3.4211617,-0.38256702,0.27889517,-0.3476752,27.625,28.8125,27.875,31.5,33.4375,34.3125
0.26805192,-1.918839,-1.00003,-0.60138094,-0.017377099,0.083534576,-0.16174455,-0.38985378,-0.32540295,0.060078867,3.074859,-0.6264647,-0.00017212832,-0.12491949,0.020672768,-0.0020486808,-0.027739951,-0.0011399564,-0.014253768,0.42599356,-1.447671,1.9834989,-2.1073415,-1.5677365,2.402386,-0.16148032,0.1810316,-0.1997664,0.008631776,0.025645657,-0.14707203,-0.59376204,0.2873042,-9.519346,0.88289046,47.694054,-1.276573,-1.7787373,-3.5374725,-0.37894213,0.26850444,-0.36956757,27.625,28.8125,27.875,31.5,33.4375,34.3125
0.27005205,-1.0362794,-0.98878187,-0.6081393,-0.016964734,0.07045704,-0.17047828,-0.3901298,-0.3253799,0.060091764,3.074739,-0.62651604,-0.00021148035,-0.12645863,0.02079003,-0.002521188,-0.028611308,-0.0011042766,-0.012634552,0.4256688,-1.4472989,1.983056,-2.1073534,-1.5676645,2.402109,-0.16339554,0.18387201,-0.20161436,0.007273438,0.026440928,-0.15060213,-0.47884035,0.22984336,-9.5385,0.87617236,47.693153,-1.1540537,-1.7145656,-3.5870173,-0.37007833,0.28381968,-0.3729783,27.625,28.8125,27.875,31.5,33.4375,34.3125
0.2720519,-0.30476663,-0.4825367,-0.6554418,-0.01494812,0.048896726,-0.17043613,-0.39038473,-0.32531753,0.06006883,3.0747218,-0.6265664,-0.00016059326,-0.12857519,0.020637289,-0.0017962456,-0.030297851,0.0013004745,-0.007947769,0.4253207,-1.4469032,1.9826602,-2.10733,-1.5676402,2.4017947,-0.16513939,0.18515052,-0.2044793,0.006003263,0.02699054,-0.15703107,-0.3256114,0.21068975,-9.481039,0.85826975,47.711964,-1.3091327,-1.7815032,-3.4886508,-0.34712642,0.25878268,-0.31630147,27.625,28.8125,27.875,31.5,33.4375,34.3125
0.27405196,-0.10075244,-0.9252208,-0.69506896,-0.0010252482,0.023338197,-0.16957033,-0.39066193,-0.32525608,0.06007831,3.0746415,-0.6266037,-0.0002195291,-0.1305406,0.020651782,-0.0015508101,-0.029941317,0.0028352202,-0.00024993814,0.42494825,-1.4465669,1.9822649,-2.1073425,-1.5676044,2.401456,-0.1660732,0.18781137,-0.20799983,0.005656375,0.02606083,-0.16565938,-0.1340753,0.19153613,-9.461885,0.84484416,47.688675,-1.1622795,-1.769879,-3.4587293,-0.3278692,0.25826094,-0.23352382,27.625,28.8125,27.875,31.5,33.4375,34.3125
0.27605215,-0.27955222,-0.85115004,-0.35028988,-0.0070814965,0.010077875,-0.16349675,-0.39091098,-0.3252178,0.06004601,3.0746539,-0.62648886,-0.00011492996,-0.13214967,0.022099238,-0.0014975648,-0.029648181,0.0032227742,0.0033323087,0.4246349,-1.4461235,1.9818338,-2.1073062,-1.5675567,2.4010696,-0.169716,0.18846738,-0.20896344,0.0057710526,0.025645133,-0.17288567,-0.095768064,0.19153613,-9.3661175,0.842603,47.683304,-1.0312588,-1.80998,-3.4051015,-0.32374793,0.2617715,-0.10473753,27.625,28.8125,27.875,31.5,33.4375,34.3125
0.27805245,-0.0106807295,-0.37165347,-0.49444556,-0.015141296,0.016415427,-0.16859815,-0.39119887,-0.3251786,0.060080215,3.074537,-0.6264444,-0.0002536409,-0.13291952,0.021648182,-0.00075044134,-0.031081863,0.0041160565,0.0058924686,0.42428705,-1.4458121,1.9814152,-2.107342,-1.5675086,2.4007094,-0.17002393,0.18858197,-0.21096584,0.006277225,0.026617654,-0.17574842,0.0,0.28730422,-9.32781,0.85826975,47.678825,-1.0621388,-1.7309268,-3.4834833,-0.33086133,0.2500523,-0.04106348,27.625,28.8125,27.875,31.5,33.4375,34.3125
0.2800526,0.3531958,-0.797756,-0.5799428,-0.0070566875,0.01642295,-0.16962934,-0.39146385,-0.32512674,0.060059812,3.074483,-0.6265321,-0.0001683879,-0.13419043,0.020643797,0.00063148106,-0.03365089,0.0062160846,0.0015160087,0.42392713,-1.4453927,1.9809836,-2.1073058,-1.567448,2.4004114,-0.17005703,0.18852058,-0.21420127,0.006604675,0.028080562,-0.17140284,0.22984336,0.2681506,-9.346964,0.89631605,47.66808,-1.028966,-1.771665,-3.385945,-0.31685477,0.25613225,-0.07327119,27.625,28.8125,27.875,31.5,33.4375,34.3125
0.28205156,-0.042613737,-0.82027245,-0.45201498,-0.027529635,-0.0048397714,-0.1595259,-0.39174345,-0.32510665,0.060077757,3.0743866,-0.626478,-0.00023414152,-0.13557579,0.020647174,0.0008357808,-0.034859575,0.0055193566,-0.0063293152,0.42361414,-1.4450207,1.9805282,-2.1073172,-1.5673875,2.4000773,-0.17200701,0.19055465,-0.21728002,0.0077831927,0.029472573,-0.1655019,0.11492168,0.30645782,-9.3661175,0.90750587,47.689575,-0.9642061,-1.8062651,-3.3975208,-0.3140641,0.22534887,-0.107656196,27.625,28.8125,27.875,31.5,33.4375,34.3125
0.28405157,-0.2900911,-1.1757767,-0.16870613,-0.030933697,-0.012014185,-0.15711175,-0.39201552,-0.32507223,0.060070705,3.074301,-0.6264835,-0.00018863687,-0.13699232,0.02081238,0.0011399449,-0.035483766,0.006117504,-0.013944444,0.42326576,-1.4446131,1.9800848,-2.1073053,-1.5673035,2.3997436,-0.17356576,0.19194114,-0.21964198,0.007960327,0.029786814,-0.1594432,-0.038307227,0.38307226,-9.212888,0.9388393,47.691364,-1.0804282,-1.6976612,-3.2319705,-0.3139558,0.18749976,-0.18607874,27.625,28.8125,27.875,31.5,33.4375,34.3125
0.28605178,0.33147785,-0.58916014,-0.6155658,-0.017939327,-0.0053180056,-0.16890678,-0.39229438,-0.32500473,0.060069658,3.0742228,-0.62664396,-0.00018732407,-0.13857123,0.02082855,0.001783699,-0.03648034,0.0073713604,-0.022812685,0.42288178,-1.4442408,1.9796642,-2.1072814,-1.5672668,2.39947,-0.17502178,0.19294614,-0.22233538,0.00808792,0.03016842,-0.15202838,0.0,0.34476504,-9.251195,0.8537928,47.705692,-1.0249878,-1.7394278,-3.175051,-0.3077199,0.19305985,-0.29385197,27.625,28.8125,27.875,31.5,33.4375,34.3125
0.28805178,0.0017647916,-0.8764274,-0.9099238,-0.0029937257,-0.0075844284,-0.16348034,-0.39254504,-0.32496446,0.060053386,3.074184,-0.62666005,-0.00010182725,-0.13936342,0.021515185,0.0021729895,-0.037095554,0.0077733877,-0.029185489,0.42255685,-1.4438342,1.9792341,-2.1072333,-1.5672067,2.3991604,-0.17707692,0.1924517,-0.22282834,0.008459509,0.030556858,-0.14771113,0.019153614,0.4405331,-9.385271,0.83589023,47.70211,-0.97492373,-1.7318633,-3.1978068,-0.3108281,0.17962866,-0.38010678,27.625,28.8125,27.875,31.5,33.4375,34.3125
0.290052,-0.56835127,-1.3057902,-0.5638999,-0.026678767,0.0075020785,-0.15574048,-0.39285266,-0.32492626,0.060072977,3.0740767,-0.6267157,-0.00017704729,-0.13942276,0.022329062,-2.520617e-05,-0.036139462,0.002711164,-0.033645112,0.4221961,-1.4434373,1.9787439,-2.1072328,-1.5671586,2.3988485,-0.17927684,0.19700925,-0.22317655,0.009265831,0.031775963,-0.1454467,0.019153614,0.36391866,-9.404425,0.8537928,47.694054,-0.8599409,-1.5569525,-3.3288713,-0.32213148,0.15755142,-0.46798748,27.625,28.8125,27.875,31.5,33.4375,34.3125
0.29205206,-0.73574126,-1.4895641,-0.5285501,-0.033318285,0.035866156,-0.15801604,-0.3930881,-0.32488123,0.060038578,3.0740216,-0.6268566,-7.6369615e-06,-0.13898936,0.022582779,-0.0018616017,-0.03474771,-0.001531805,-0.030332109,0.4218599,-1.4430168,1.9783367,-2.1071727,-1.5670747,2.3986075,-0.17956315,0.20084563,-0.22361594,0.010343578,0.032249164,-0.1490475,-0.05746084,0.30645782,-9.461885,0.8873621,47.684196,-0.9191296,-1.8559465,-3.3112893,-0.323732,0.13507037,-0.4969241,27.625,28.8125,27.875,31.5,33.4375,34.3125
0.29405212,-0.700552,-0.96966964,-0.53873676,-0.03604284,0.05852165,-0.16627821,-0.39335996,-0.32483545,0.06004722,3.073927,-0.6268891,-1.9032574e-07,-0.1391914,0.02292084,-0.002999192,-0.034134567,-0.0039431453,-0.02149537,0.42149934,-1.4426566,1.9779071,-2.107149,-1.5670017,2.3982797,-0.18051317,0.20363738,-0.22431491,0.0107578365,0.032712094,-0.15883186,-0.038307227,0.24899697,-9.500193,0.79560274,47.672558,-0.87034154,-1.761647,-3.5023117,-0.3230676,0.10336881,-0.43931094,27.625,28.8125,27.875,31.5,33.4375,34.3125
0.2960525,-1.0827068,-0.8990146,-0.3468876,-0.020222733,0.057544943,-0.16830626,-0.39363453,-0.3247862,0.060024988,3.07389,-0.62689483,8.3527564e-05,-0.14054668,0.02331228,-0.0029830013,-0.034173906,-0.0034024075,-0.011134204,0.42113915,-1.442213,1.9774512,-2.1071126,-1.5669421,2.397928,-0.18211316,0.20526776,-0.22623466,0.010603017,0.03255266,-0.17079298,0.038307227,0.15322891,-9.404425,0.88289046,47.694054,-0.9807252,-1.9015445,-3.4499578,-0.3372784,0.10676688,-0.34003133,27.625,28.8125,27.875,31.5,33.4375,34.3125
0.29809517,-0.57954276,-0.167859,-0.2583006,-0.00064420374,0.056499895,-0.17003031,-0.39392197,-0.3247498,0.06003249,3.0738065,-0.62681293,3.088907e-05,-0.1402786,0.022193702,-0.002710224,-0.035003107,-0.0022410378,0.0011697273,0.42079204,-1.4418294,1.9770087,-2.107137,-1.566882,2.3975408,-0.17987438,0.20528802,-0.22676095,0.009767962,0.03287637,-0.18085492,-0.019153614,0.17238252,-9.32781,0.88960326,47.666286,-1.0717485,-1.8167377,-3.5873518,-0.31336808,0.07464362,-0.19766587,27.625,28.8125,27.875,31.5,33.4375,34.3125
0.3000575,-0.92464,0.15211573,-0.084998354,0.01215731,0.038972415,-0.16260594,-0.39419544,-0.32472125,0.060015433,3.0737374,-0.6267382,7.457758e-05,-0.14177887,0.022134343,-0.0032848998,-0.034323726,-0.0020403445,0.005596991,0.420456,-1.4413972,1.9765648,-2.1071498,-1.5667986,2.3971672,-0.18041259,0.20903787,-0.22956634,0.008965121,0.032187957,-0.18581843,-0.21068975,0.19153613,-9.212888,0.8985519,47.658226,-1.1597039,-1.9216558,-3.4703677,-0.30016577,0.049360767,-0.15221295,27.625,28.8125,27.875,31.5,33.4375,34.3125
0.3020583,-0.7938604,0.46227798,-0.016862964,0.025865821,0.045085266,-0.16356544,-0.39445484,-0.32469282,0.060000468,3.0736737,-0.6267087,0.00015007987,-0.14341457,0.022086563,-0.0024631163,-0.03456216,0.0008450448,0.0007972998,0.42013222,-1.4409777,1.9761218,-2.107126,-1.5667151,2.3968334,-0.18089959,0.20957248,-0.23192343,0.008068852,0.03121398,-0.18150556,-0.34476504,0.19153613,-9.155427,0.95897776,47.666286,-1.307489,-1.8090808,-3.5522885,-0.29246664,0.05132574,-0.14885595,27.625,28.8125,27.875,31.5,33.4375,34.3125
0.30405766,-0.9458719,0.5093802,-0.04960497,0.02229785,0.04357206,-0.16624379,-0.39476547,-0.324629,0.060012896,3.0735927,-0.6267356,0.00011741219,-0.14490595,0.021871952,-0.0009175801,-0.035032958,0.0036916528,-0.007625425,0.4197239,-1.4405824,1.975643,-2.1071012,-1.566667,2.3964527,-0.18107991,0.20909141,-0.23521344,0.009040663,0.030473407,-0.17326094,-0.30645782,0.21068975,-9.2703495,1.0305934,47.688675,-1.2558851,-1.857281,-3.5224385,-0.27649322,0.0587089,-0.22053018,27.625,28.8125,27.875,31.5,33.4375,34.3125
0.30605733,-0.9086911,-0.28610653,0.070839114,0.009196669,0.054576058,-0.16554181,-0.39505905,-0.3245851,0.059992716,3.0735328,-0.6268021,0.00021071963,-0.14666848,0.02192694,-0.0006843131,-0.034656685,0.0041027055,-0.012776645,0.41935143,-1.4401025,1.9751381,-2.107053,-1.5665954,2.3961296,-0.1821347,0.21185473,-0.23918137,0.01003254,0.02994761,-0.16916375,-0.51714754,0.22984336,-9.212888,0.9164598,47.664497,-1.1925781,-1.8278228,-3.4480157,-0.27876082,0.044928778,-0.30489936,27.625,28.8125,27.875,31.5,33.4375,34.3125
0.30805302,-1.9604691,-1.0297651,-0.19476642,0.0017041987,0.06814212,-0.15001267,-0.3953488,-0.32456142,0.060013045,3.0734153,-0.6268554,0.00014417457,-0.14781903,0.022073772,-2.3823039e-05,-0.034110095,0.0056021144,-0.015199113,0.41902754,-1.439719,1.9746598,-2.1070526,-1.5665354,2.3958545,-0.18247992,0.2124272,-0.2415685,0.01071552,0.028850544,-0.16708416,-0.7852981,0.22984336,-9.097966,0.8717007,47.6636,-1.3271155,-1.8028984,-3.4063783,-0.29269874,0.035066314,-0.33730078,27.625,28.8125,27.875,31.5,33.4375,34.3125
0.31005278,-1.8863817,-0.6722681,-0.50217915,-0.0024648125,0.091619305,-0.16204573,-0.3956181,-0.3244942,0.059975896,3.073456,-0.626862,0.00023319735,-0.14855725,0.022091873,5.8145374e-06,-0.032686092,0.0060597993,-0.014339883,0.4186801,-1.4392511,1.974204,-2.106993,-1.5665358,2.3955061,-0.18199234,0.21411712,-0.24380822,0.011443118,0.027355898,-0.16745864,-0.6895301,0.24899697,-9.289503,0.8806493,47.686886,-1.4598296,-1.8659353,-3.4175594,-0.31020162,0.047396787,-0.35516715,27.625,28.8125,27.875,31.5,33.4375,34.3125
0.31205255,-1.6562005,-0.55711204,-0.19454628,-0.026381638,0.12076454,-0.17011522,-0.3959016,-0.3244435,0.059952494,3.073388,-0.62692195,0.00033812423,-0.15005788,0.022932982,0.0008915574,-0.032380193,0.007922798,-0.011758167,0.41829658,-1.4387962,1.9737366,-2.1069567,-1.5664524,2.395169,-0.18394889,0.21376471,-0.24569,0.012146267,0.026332444,-0.17199835,-0.49799395,0.22984336,-9.404425,0.90750587,47.713753,-1.5194744,-1.7833514,-3.315218,-0.32224947,0.05067077,-0.38168323,27.625,28.8125,27.875,31.5,33.4375,34.3125
0.31405258,-2.013109,-0.6821624,0.055697232,-0.039228894,0.12233073,-0.16806367,-0.3962208,-0.32441217,0.05995439,3.0732787,-0.62685746,0.0003318872,-0.15197034,0.023881348,0.001450015,-0.032296635,0.010116862,-0.0073787323,0.4179119,-1.4383409,1.9732221,-2.106969,-1.566357,2.3947585,-0.18648495,0.21418062,-0.24738014,0.011508485,0.025399553,-0.17891248,-0.53630114,0.2681506,-9.251195,0.90527004,47.677036,-1.3588798,-1.8214302,-3.3562715,-0.3155248,0.053117134,-0.3204084,27.625,28.875,27.875,31.5,33.4375,34.3125
0.3160526,-1.7407746,-0.17668642,-0.517931,-0.016244045,0.10058159,-0.17515682,-0.39651078,-0.32437453,0.05996631,3.0732162,-0.6267434,0.0003090417,-0.15354183,0.025707807,0.00096347096,-0.03172704,0.0101577975,-0.00072216353,0.41756326,-1.4379452,1.9727434,-2.1069453,-1.5662969,2.394347,-0.19066653,0.21527083,-0.24739082,0.010690514,0.024909118,-0.18974984,-0.47884032,0.2873042,-9.32781,0.8717007,47.655537,-1.3063323,-1.6935298,-3.3482344,-0.2974896,0.05889235,-0.19622035,27.625,28.875,27.875,31.5,33.4375,34.3125
0.31805217,-1.3224393,0.12280595,-0.5992006,0.0033251275,0.07580744,-0.17286691,-0.39684203,-0.324304,0.059958894,3.073144,-0.6268966,0.0002852176,-0.15528189,0.025717225,0.0010630387,-0.032260407,0.011564104,0.005150479,0.4171439,-1.4374772,1.9722298,-2.1069338,-1.5662731,2.394033,-0.1918896,0.2174542,-0.24992287,0.009583304,0.024854852,-0.1968432,-0.28730422,0.24899697,-9.481039,0.89631605,47.68062,-1.3449943,-1.8030009,-3.3915567,-0.2978863,0.06286149,-0.09422277,27.625,28.875,27.875,31.5,33.4375,34.3125
0.32002348,-0.6456382,0.090156466,-0.4168197,-0.0019402388,0.07080877,-0.17495996,-0.39714482,-0.32424423,0.05993466,3.0731292,-0.62685513,0.0003310339,-0.1553961,0.026333502,0.00024143106,-0.030561542,0.010845631,0.004303852,0.4167604,-1.4369974,1.9717382,-2.10691,-1.5662373,2.3936257,-0.19211799,0.21894857,-0.24977319,0.009302554,0.023596745,-0.19622704,-0.47884035,0.095768064,-9.481039,0.9254084,47.684196,-1.2545359,-1.9168476,-3.556182,-0.28345147,0.09068605,-0.034043036,27.625,28.875,27.875,31.5,33.4375,34.3125
0.32205734,-0.6696654,0.288322,-0.26315957,-0.000285075,0.05520042,-0.17551143,-0.39745346,-0.32418856,0.05992725,3.073099,-0.626834,0.00031974714,-0.15671092,0.027522424,-0.0007077688,-0.028482104,0.010466961,-0.005092511,0.41638818,-1.4365416,1.9712352,-2.1068866,-1.566214,2.3932445,-0.19406126,0.2218938,-0.2508797,0.008638573,0.02183584,-0.18877482,-0.45968673,0.0,-9.461885,0.8940802,47.729877,-1.1727853,-2.01324,-3.5300107,-0.2676897,0.10262875,-0.09978978,27.625,28.875,27.875,31.5,33.4375,34.3125
0.32405815,-0.8164829,0.3370124,-0.45676142,0.0066285194,0.05480816,-0.16877845,-0.39777598,-0.3241309,0.059925362,3.0730238,-0.62691957,0.00029321713,-0.1572183,0.027713466,-0.0011412986,-0.027932243,0.010002513,-0.014921388,0.41599283,-1.4360858,1.9707221,-2.1068742,-1.5661777,2.3929126,-0.1944255,0.22359155,-0.25188902,0.008572303,0.021507531,-0.17930901,-0.5554548,0.076614454,-9.500193,0.83365434,47.71554,-1.1693165,-1.9557521,-3.481951,-0.2410978,0.12416795,-0.18820211,27.625,28.875,27.875,31.5,33.4375,34.3125
0.3260532,-1.2937893,0.04753889,-0.3748293,0.014828723,0.044149593,-0.17344236,-0.39809188,-0.32409346,0.05991957,3.072921,-0.626939,0.0003080414,-0.15839647,0.027826441,-0.00093758054,-0.029191025,0.00977485,-0.02261643,0.41560903,-1.4356178,1.9702066,-2.1068738,-1.5660933,2.3925545,-0.19622187,0.22490722,-0.25406107,0.009121295,0.022746425,-0.17340651,-0.19153613,0.019153614,-9.442732,0.8873621,47.691364,-1.0944418,-2.0667183,-3.5248897,-0.23949693,0.11562334,-0.2667826,27.625,28.875,27.875,31.5,33.4375,34.3125
0.3280526,-0.48640144,0.12452086,-0.36698824,0.019665262,0.043388892,-0.17366266,-0.39842927,-0.3240309,0.059944805,3.0728266,-0.62705535,0.00021937978,-0.16067712,0.027797187,-6.499793e-05,-0.029994829,0.0109616155,-0.02944103,0.4152014,-1.4351984,1.9696668,-2.106838,-1.5660695,2.3922322,-0.19800457,0.22706915,-0.25886363,0.010341597,0.023003474,-0.16835989,-0.17238252,-0.038307227,-9.423578,0.85826975,47.696735,-1.0275179,-2.103818,-3.4683032,-0.23476505,0.12376629,-0.38759717,27.625,28.875,27.875,31.5,33.4375,34.3125
0.3300518,-0.6066645,0.071156666,-0.36518562,0.01381018,0.031197265,-0.16807403,-0.39873388,-0.32396412,0.059923798,3.0727751,-0.62712234,0.00023536343,-0.16227768,0.028427735,-0.00017795955,-0.030068161,0.01143747,-0.033420343,0.41480502,-1.4347427,1.9691995,-2.106838,-1.5660332,2.3918846,-0.20020787,0.22898272,-0.26075983,0.009866925,0.022878857,-0.16658266,-0.4213795,0.05746084,-9.385271,0.8627467,47.68599,-1.0848409,-2.063305,-3.393296,-0.23469019,0.14442056,-0.45735377,27.625,28.875,27.875,31.5,33.4375,34.3125
0.33205196,-1.1618516,-0.35732144,-0.5528556,0.01401345,0.02968437,-0.16818565,-0.39905214,-0.3239099,0.059892524,3.0727644,-0.6271354,0.0003134468,-0.1636645,0.028585277,-0.0004562698,-0.029815767,0.011592686,-0.030328391,0.41442162,-1.4342024,1.9686488,-2.1067898,-1.565998,2.391511,-0.20125268,0.23169686,-0.26326635,0.009653715,0.02259415,-0.1707193,-0.26815057,0.05746084,-9.346964,0.8851263,47.682407,-1.0789752,-2.1095335,-3.4377227,-0.22349745,0.15335545,-0.48863915,27.625,28.875,27.875,31.5,33.4375,34.3125
0.33405253,-0.2651498,-0.02254505,-0.7791844,0.0062158643,0.05214619,-0.18720457,-0.3993906,-0.32386267,0.05990649,3.0726573,-0.6272214,0.00025005342,-0.16371788,0.028456256,-0.0002588774,-0.029645972,0.0111814,-0.018957905,0.41402656,-1.4337472,1.968099,-2.1067774,-1.5659498,2.3911839,-0.2008967,0.23209909,-0.26460212,0.01110032,0.022661448,-0.18173188,-0.1340753,0.19153614,-9.481039,0.99031126,47.687782,-1.1001987,-2.1233482,-3.3984296,-0.234647,0.16284236,-0.38942474,27.625,28.875,27.875,31.5,33.4375,34.3125
0.33605254,-1.0651934,-0.6525976,-0.64267695,-0.017196346,0.04357647,-0.17819874,-0.39968657,-0.3237906,0.059875123,3.072677,-0.6271764,0.00030508783,-0.1628365,0.027486831,-0.000300682,-0.02989658,0.010394037,-0.003632708,0.41364422,-1.433268,1.9676198,-2.1067412,-1.5659374,2.3907712,-0.19859429,0.23235483,-0.26512045,0.012052676,0.023249995,-0.1947549,-0.24899697,0.28730422,-9.595961,1.0126908,47.684196,-1.3219346,-2.0329785,-3.4675782,-0.24115044,0.1624381,-0.25863245,27.625,28.875,27.875,31.5,33.4375,34.3125
0.33805183,-1.1458467,-0.86488247,-0.2357351,-0.04597563,0.06750042,-0.17820463,-0.40000063,-0.32373205,0.059878778,3.0725882,-0.6272287,0.00036410097,-0.16287813,0.026494266,0.00045517358,-0.031156503,0.011433632,0.0056661046,0.41322532,-1.4328244,1.9670929,-2.1066697,-1.565853,2.3903966,-0.19710289,0.23200026,-0.26664874,0.012538044,0.024019318,-0.20256062,-0.36391866,0.2681506,-9.5385,0.87393653,47.684196,-1.5242629,-2.1114788,-3.4901803,-0.23581034,0.18039072,-0.17022964,27.625,28.875,27.875,31.5,33.4375,34.3125
0.34005204,-1.3395663,-0.93755555,-0.56739295,-0.022791052,0.060481697,-0.17882873,-0.40036076,-0.32368228,0.05989606,3.0724945,-0.627191,0.0002406016,-0.16483496,0.027308716,0.0010134892,-0.031252664,0.012914041,0.0022129233,0.41281736,-1.4323577,1.9665302,-2.1066935,-1.5658172,2.3899777,-0.19966431,0.23296039,-0.26914904,0.012698313,0.023539154,-0.20166574,-0.2873042,0.2681506,-9.557653,0.91198283,47.677036,-1.4695417,-1.9717481,-3.446193,-0.23029287,0.20595863,-0.148227,27.625,28.875,27.875,31.5,33.4375,34.3125
0.3420522,-1.1478435,-0.77365863,-0.8106422,-0.007028992,0.051461123,-0.1684479,-0.40070966,-0.3236079,0.059887163,3.0724862,-0.6271942,0.00022322252,-0.16566809,0.028658856,0.00043364163,-0.03037569,0.012091066,-0.007553706,0.41239688,-1.4318421,1.9659551,-2.1066453,-1.5658172,2.3895607,-0.20229839,0.23407738,-0.26921576,0.012731288,0.023055173,-0.19453374,-0.21068975,0.28730422,-9.730036,0.9186956,47.70032,-1.3879758,-1.9329324,-3.3937178,-0.2194869,0.2314938,-0.21510014,27.625,28.875,27.875,31.5,33.4375,34.3125
0.34405237,-0.22888094,-0.33184645,-0.47459581,-0.023733066,0.048652988,-0.18875156,-0.40102404,-0.32356367,0.05989354,3.0723894,-0.62723464,0.00022737298,-0.16695216,0.02872081,0.00086879544,-0.032187507,0.012647306,-0.016481508,0.41201314,-1.4313982,1.9654292,-2.1066096,-1.5657448,2.389215,-0.20418698,0.23478524,-0.27108145,0.012637612,0.024483388,-0.18749003,-0.19153613,0.30645782,-9.576807,0.88960326,47.66987,-1.3421907,-1.9474416,-3.5695684,-0.21332967,0.23357216,-0.28546444,27.625,28.875,27.875,31.5,33.4375,34.3125
0.3460519,-0.49343568,-0.6966399,-0.70869714,-0.025609905,0.016161129,-0.17633681,-0.40134096,-0.3235131,0.059870046,3.0722795,-0.6272918,0.00030699174,-0.16851294,0.029323123,0.0009073412,-0.033618215,0.013128669,-0.02276538,0.41159272,-1.430907,1.9649261,-2.10661,-1.5656365,2.3888447,-0.20707792,0.23592879,-0.27237514,0.011784065,0.025598714,-0.18409409,-0.17238252,0.2681506,-9.615114,0.94331104,47.68062,-1.238728,-1.956568,-3.6072316,-0.19883916,0.24646567,-0.33326024,27.625,28.875,27.875,31.5,33.4375,34.3125
0.348052,-0.52025837,-0.86189085,-0.3256866,-0.030568507,0.026507167,-0.17866704,-0.40169594,-0.32345185,0.05987042,3.0722098,-0.6274091,0.00024001766,-0.17050494,0.029561847,0.0011252941,-0.033412825,0.014069273,-0.023537092,0.4111851,-1.4304031,1.9643506,-2.1065972,-1.5656246,2.3885198,-0.20855168,0.23859417,-0.2760737,0.01205542,0.0250506,-0.18479371,-0.24899697,0.2681506,-9.595961,0.9388393,47.672558,-1.1998849,-1.922121,-3.6013174,-0.17455143,0.2519805,-0.37999272,27.625,28.875,27.875,31.5,33.4375,34.3125
0.35005212,-0.75850403,-0.85982835,-0.70580035,-0.023759237,0.019323008,-0.17455707,-0.40206,-0.3233989,0.05989719,3.0721378,-0.6273517,0.00012283781,-0.17090075,0.029643951,0.00027307638,-0.03306662,0.012251416,-0.019982925,0.4107777,-1.4299353,1.9637531,-2.1065738,-1.5656003,2.3880863,-0.20909142,0.24137135,-0.2774953,0.012538432,0.025501369,-0.18888344,0.019153614,0.22984336,-9.461885,0.9164598,47.657326,-1.2073116,-1.9090235,-3.4733443,-0.18210217,0.27898446,-0.40818125,27.625,28.875,27.875,31.5,33.4375,34.3125
0.35205215,-0.11384789,-0.8378443,-0.6653773,-0.020347875,0.024236728,-0.19011712,-0.4023624,-0.3233458,0.059884436,3.0720663,-0.62738997,0.00021263889,-0.17242686,0.030351516,0.00045517244,-0.034490585,0.011502232,-0.013639736,0.4103812,-1.4294679,1.9632376,-2.1065133,-1.5655159,2.3877232,-0.21249108,0.24271385,-0.27980062,0.013689875,0.027144007,-0.19862276,0.095768064,0.2681506,-9.595961,0.8851263,47.660015,-1.1084664,-1.9924617,-3.4856057,-0.19474792,0.26561555,-0.31399155,27.625,28.875,27.875,31.5,33.4375,34.3125
0.35405213,-0.80327314,-0.68283653,-0.21889536,-0.033327978,0.021932421,-0.18924128,-0.40272474,-0.32327616,0.059878398,3.0720036,-0.62740856,0.0001817693,-0.17381692,0.030499753,4.4166638e-05,-0.034901213,0.011152924,-0.0044101947,0.40993762,-1.4289519,1.9626626,-2.1065013,-1.5654796,2.3872998,-0.21401824,0.24563089,-0.28223574,0.013437103,0.027711146,-0.20937586,-0.095768064,0.19153613,-9.461885,0.9231726,47.664497,-1.0467167,-1.9707012,-3.4552288,-0.17760426,0.28822625,-0.18355283,27.625,28.875,27.875,31.5,33.4375,34.3125
0.35605216,-0.5011145,-0.48594347,-0.47133,-0.014853446,0.03299001,-0.18250965,-0.40310648,-0.32322314,0.059900664,3.071885,-0.6274005,8.174333e-05,-0.1748309,0.030821368,-0.0006355078,-0.035230458,0.009841789,-0.0022346864,0.4094941,-1.4284599,1.9620527,-2.1065013,-1.5654196,2.386867,-0.21574421,0.24844542,-0.2840101,0.013510685,0.02858069,-0.21327141,-0.11492168,0.24899697,-9.385271,0.86945957,47.66271,-1.010746,-2.0661495,-3.5662909,-0.16015396,0.28963172,-0.09249434,27.625,28.875,27.875,31.5,33.4375,34.3125
0.35805216,-0.4439645,-0.38997677,-0.50090384,-0.0009137444,0.031179134,-0.18701619,-0.40342534,-0.32314074,0.059852567,3.0719311,-0.6273733,0.00016950752,-0.17663357,0.030671038,0.0009469863,-0.036627598,0.0129114,-0.0074644783,0.4090865,-1.4279089,1.9615248,-2.1064537,-1.5654196,2.3864367,-0.21672618,0.24792832,-0.2872498,0.013885049,0.028614774,-0.20902424,-0.24899697,0.24899697,-9.557653,0.93436235,47.68062,-0.9759893,-2.0330284,-3.482398,-0.1534971,0.292939,-0.116358675,27.625,28.875,27.875,31.5,33.4375,34.3125
0.36005223,-0.7609966,-0.32068607,0.06417047,-0.027231613,0.053408403,-0.18899338,-0.40382588,-0.32309967,0.059916005,3.0717137,-0.62740797,3.045628e-06,-0.17673114,0.029857444,0.001696237,-0.0376156,0.013740924,-0.014895235,0.40861958,-1.4274778,1.9608902,-2.1064532,-1.5653113,2.3860202,-0.21543373,0.24762824,-0.28888386,0.014653178,0.029212454,-0.20029359,-0.51714754,0.11492168,-9.423578,0.9097417,47.698532,-1.0193454,-2.030549,-3.3730214,-0.13801673,0.31474033,-0.19294003,27.625,28.875,27.875,31.5,33.4375,34.3125
0.36205232,-1.5084513,-0.35435954,0.089653626,-0.020087678,0.0518606,-0.1810718,-0.4041606,-0.32304755,0.059910905,3.0716271,-0.6274498,6.16624e-05,-0.17637286,0.028670365,0.0016732833,-0.03842726,0.013186792,-0.021084046,0.40820098,-1.4269747,1.9603156,-2.106393,-1.5652269,2.3856392,-0.21335864,0.24871902,-0.29029885,0.015145151,0.030158456,-0.19202664,-0.57460845,0.24899697,-9.289503,0.87617236,47.694054,-1.2090399,-1.8638129,-3.509513,-0.13344078,0.31176707,-0.28693914,27.625,28.875,27.875,31.5,33.4375,34.3125
0.36405233,-1.625996,-0.5668115,0.014680735,-0.0054669636,0.068864614,-0.18128662,-0.40450457,-0.32299274,0.05988934,3.0715654,-0.627554,0.000103509665,-0.1771919,0.027746813,0.002917188,-0.040443953,0.014729929,-0.027388573,0.407794,-1.4264234,1.9597291,-2.1063569,-1.5651788,2.3853056,-0.21288568,0.24843553,-0.2931419,0.016035734,0.031379413,-0.18524544,-0.4405331,0.17238252,-9.3661175,0.8918391,47.699425,-1.3743622,-1.816405,-3.4255083,-0.13405375,0.3022032,-0.3867188,27.625,28.875,27.875,31.5,33.4375,34.3125
0.36605236,-0.8742452,-0.28884295,0.09511346,-0.0044358587,0.08154614,-0.18129164,-0.40487096,-0.32295546,0.059908666,3.0714567,-0.6275125,4.357942e-05,-0.17841202,0.027901562,0.0038534661,-0.0414468,0.016644482,-0.03043675,0.407386,-1.4259205,1.9591068,-2.1063325,-1.5651063,2.3848863,-0.21402197,0.24799857,-0.2949053,0.01609611,0.0315602,-0.18332973,-0.3256114,0.095768064,-9.308656,0.9388393,47.678825,-1.3504677,-1.6667457,-3.3773863,-0.1274907,0.31175488,-0.49162304,27.625,28.875,27.875,31.5,33.4375,34.3125
0.3680522,-0.96599585,0.2559329,-0.024854183,0.011992529,0.047381196,-0.19055444,-0.40522757,-0.32287893,0.059917346,3.071327,-0.6277101,-2.3421218e-05,-0.17924206,0.028358864,0.0036189873,-0.041519538,0.016063545,-0.025526313,0.4069304,-1.4254649,1.958568,-2.1063325,-1.5650586,2.3845713,-0.21550885,0.2495062,-0.29629305,0.016538426,0.03190939,-0.18972325,-0.19153613,0.076614454,-9.308656,0.95226496,47.71286,-1.3387327,-1.7036412,-3.4421217,-0.12452492,0.30692613,-0.51002437,27.625,28.875,27.875,31.5,33.4375,34.3125
0.37005216,-0.5612182,0.25745603,-0.16301519,0.023322858,0.037190612,-0.1809338,-0.4056013,-0.32283813,0.059938535,3.0712306,-0.627643,-6.988458e-05,-0.17988485,0.028418459,0.0035596322,-0.0413927,0.01682431,-0.013214548,0.40651137,-1.4249493,1.9579214,-2.1062853,-1.5649866,2.3841233,-0.215663,0.25049117,-0.29727086,0.015981222,0.031566992,-0.20218734,-0.17238252,0.05746084,-9.3661175,0.9992599,47.711964,-1.4410486,-1.7251267,-3.4354696,-0.110719234,0.31473663,-0.39988476,27.625,28.875,27.875,31.5,33.4375,34.3125
0.3720521,-0.31878346,0.57051593,-0.07590673,0.015293473,0.031186352,-0.19591182,-0.40594745,-0.32277423,0.059939362,3.0711718,-0.62758404,-6.2914034e-05,-0.18064994,0.028649408,0.0028427136,-0.04093074,0.015850157,-0.000971998,0.4060801,-1.4244574,1.9573478,-2.1062372,-1.5649265,2.3836632,-0.21648109,0.25322962,-0.29888743,0.016036794,0.03159672,-0.21524632,-0.1340753,0.0,-9.289502,0.93436235,47.71286,-1.4808965,-1.6677778,-3.505786,-0.095038936,0.3235565,-0.24352059,27.625,28.875,27.875,31.5,33.4375,34.3125
0.37405232,0.14811485,0.3070789,-0.34612593,0.021357976,0.03263182,-0.19299507,-0.4063336,-0.3227313,0.05995958,3.0710435,-0.6275741,-0.00015411667,-0.18100086,0.029635292,0.0010085463,-0.039978974,0.011849443,0.0017260981,0.40564832,-1.4239413,1.9567131,-2.1062372,-1.5648545,2.3832424,-0.21880847,0.25717193,-0.29950124,0.01681536,0.032360725,-0.22026587,-0.05746084,-0.05746084,-9.404425,0.8873621,47.698532,-1.4564192,-1.81595,-3.5647583,-0.07801375,0.33224976,-0.14643487,27.625,28.875,27.875,31.5,33.4375,34.3125
0.3760524,-0.1130952,-0.043646913,-0.31795564,0.02139561,0.016062375,-0.17139652,-0.40667224,-0.3226499,0.059950683,3.070977,-0.627621,-0.00011732649,-0.1827456,0.029845092,0.00091788045,-0.03970093,0.011533128,-0.0049715186,0.4051919,-1.4234608,1.9561743,-2.106189,-1.5647944,2.3828242,-0.22024654,0.2604586,-0.303394,0.017819738,0.032216378,-0.21500434,-0.17238252,-0.05746084,-9.500193,0.91198283,47.672558,-1.2576104,-1.9780757,-3.5377133,-0.08878351,0.35180464,-0.14150305,27.625,28.875,27.875,31.5,33.4375,34.3125
