Tylouw/Master_Thesis_Code/test_recorded_data/real_test9/insertion_2_2026-02-25_13-40-20.csv
timestamp[s],tcp_force_x[N],tcp_force_y[N],tcp_force_z[N],tcp_force_rx[Nm?],tcp_force_ry[Nm?],tcp_force_rz[Nm?],tcp_pose_x[m],tcp_pose_y[m],tcp_pose_z[m],tcp_pose_rx[rot_vec_x],tcp_pose_ry[rot_vec_y],tcp_pose_rz[rot_vec_z],tcp_velo_x[m/s],tcp_velo_y[m/s],tcp_velo_z[m/s],tcp_velo_rx[rot_vec_x/s],tcp_velo_ry[rot_vec_y/s],tcp_velo_rz[rot_vec_z/s],q1[rad],q2[rad],q3[rad],q4[rad],q5[rad],q6[rad],qd1[rad/s],qd2[rad/s],qd3[rad/s],qd4[rad/s],qd5[rad/s],qd6[rad/s],tool_acc_x,tool_acc_y,tool_acc_z,current_of_whole_robot[A],voltage_of_whole_robot[V],current_J1[A],current_J2[A],current_J3[A],current_J4[A],current_J5[A],current_J6[A],temp_J1[C],temp_J2[C],temp_J3[C],temp_J4[C],temp_J5[C],temp_J6[C]
6.560001e-07,0.4543059,0.5442734,1.0501709,-0.015513204,0.023956062,-0.021013368,-0.3815406,-0.34955114,0.08496624,-3.0785193,0.62489504,-0.00015387402,-0.0011527279,-0.0005995885,-0.00092921493,-0.0018720564,0.003302576,1.6805545e-05,0.479166,-1.4235858,1.9549516,-2.1004288,-1.5707697,2.4541326,-8.046458e-05,0.0020146612,0.0014813306,-0.007290209,0.00012496953,-9.647971e-05,0.11492168,0.095768064,-8.676587,0.72622824,47.699425,-0.115501575,-2.96591,-2.2437255,-0.4620682,0.21976477,-0.2189546,22.25,21.875,21.75,22.0625,21.75,21.9375
0.002553012,1.0981603,0.7199488,1.2052683,-0.0064215064,0.03447187,-0.024107823,-0.38153008,-0.34954306,0.08493708,-3.078484,0.6249271,-0.00023930654,-0.0015874063,-0.00082709186,-0.00283617,-0.0024377464,0.0043762764,1.6666123e-05,0.47915396,-1.4235488,1.9549764,-2.1004307,-1.5707573,2.454145,-7.905114e-05,0.004901209,0.004062102,-0.013971112,0.00012214563,-9.445457e-05,0.11492168,0.038307227,-8.676587,0.71279734,47.65643,-0.16666718,-3.0694284,-2.2075424,-0.43503153,0.20739369,-0.24275902,22.25,21.875,21.75,22.0625,21.75,21.9375
0.005051765,1.0715641,1.081246,1.2412834,-0.0010557512,0.021623328,-0.023516083,-0.38150465,-0.3495568,0.084920704,-3.078503,0.6248343,-0.00023959516,-0.0019587828,-0.0010271752,-0.0023700334,-0.0033844293,0.006156863,1.6165499e-05,0.47920188,-1.423549,1.9550251,-2.100479,-1.5707573,2.4541326,-7.768648e-05,0.0041626305,0.004151848,-0.015338862,0.00013802196,-9.251249e-05,0.11492168,0.1340753,-8.504205,0.779936,47.690468,-0.14166857,-3.3619633,-2.4895163,-0.35596514,0.22322562,-0.22943574,22.25,21.875,21.75,22.0625,21.75,21.9375
0.007551888,1.8083441,2.1004915,0.7103239,0.026485547,0.0056832116,-0.03220851,-0.38153645,-0.3495667,0.084945224,-3.0785472,0.62484324,-0.00015216345,-0.00137528,-0.00072160247,-7.2066614e-05,-0.0023737736,0.0042501073,3.1221633e-05,0.47918996,-1.4235501,1.954975,-2.1004994,-1.5707573,2.4541206,-7.5093674e-05,0.0009043314,0.0005763457,-0.00634706,0.00013344195,-0.00010544679,0.038307227,0.038307227,-8.619126,0.75084364,47.67166,-0.081674404,-3.114048,-2.3018012,-0.40552628,0.1918189,-0.23503654,22.25,21.875,21.75,22.0625,21.75,21.9375
0.010052075,1.2325561,1.4997686,0.3228372,0.03212392,-0.0049295225,-0.023395086,-0.38153985,-0.34955347,0.08492913,-3.078502,0.62489223,-0.00015854534,-0.0008223278,-0.00043208344,0.0004654911,-0.0016561978,0.002889224,3.092732e-05,0.47917792,-1.4235266,1.9549874,-2.1005104,-1.5707816,2.454145,-7.3861185e-05,-0.00034148607,7.732413e-06,-0.0029941613,0.00013067908,-0.00010448859,0.019153614,-0.1340753,-8.810662,0.7418897,47.7254,-0.32243255,-2.3156586,-3.0712104,-0.424824,0.1679047,-0.25016195,22.25,21.875,21.75,22.0625,21.75,21.9375
0.012552461,0.64395165,0.3363302,0.061675053,0.006384647,0.007610249,-0.020392621,-0.38154432,-0.3495463,0.08494595,-3.0785005,0.62491053,-0.00018376729,-0.0029774143,-0.0015406584,-0.0007644969,-0.0002951579,0.00025046655,-1.9146469e-06,0.47915396,-1.423548,1.9549598,-2.1004503,-1.5707697,2.4541326,-0.0001094071,0.008097056,-0.007217471,-0.0012384257,0.00012802384,-0.00010257434,0.0,0.038307227,-9.136273,0.6948948,47.72271,-0.47116053,-2.237319,-3.082757,-0.40182722,0.15894482,-0.25632375,22.25,21.875,21.75,22.0625,21.75,21.9375
0.015051787,0.23742531,-0.53658485,-0.24879606,-0.026001005,0.035924517,-0.021785147,-0.3815459,-0.34956193,0.08492535,-3.078504,0.6248922,-0.00024385338,-0.0036853757,-0.0017421468,-0.004707818,0.004545758,-0.009067605,-0.0002807024,0.47916588,-1.4234835,1.9549354,-2.1004608,-1.5707458,2.4541326,-0.0004141909,0.020190291,-0.012963185,0.0029145777,0.00012547387,-0.00012458474,-0.019153614,0.17238252,-9.289502,0.74413085,47.703007,-0.41703898,-3.0725732,-2.9767895,-0.41919065,0.15296745,-0.2605941,22.25,21.875,21.75,22.0625,21.75,21.9375
0.017552247,-0.9769687,-1.8907698,-0.47809416,-0.06976478,0.0749406,-0.022877954,-0.3815322,-0.34953636,0.08487724,-3.0783925,0.6249097,-0.00042067384,-0.0067968504,-0.00044885825,-0.002308367,0.0029305457,-0.00595801,-0.0038111208,0.47914004,-1.4234004,1.954934,-2.1003883,-1.5707573,2.4541318,-0.0055852714,0.018475099,-0.016998509,0.0051607923,0.00012066726,-0.0017639521,-0.38307226,0.6512229,-9.691729,0.7620334,47.670765,-0.22560035,-2.5177305,-3.1627727,-0.43237746,0.13426143,-0.28583705,22.25,21.875,21.75,22.0625,21.75,21.9375
0.02005183,-1.0177199,-2.3902805,-0.6418504,-0.066922866,0.088813,-0.021672102,-0.38153595,-0.34951678,0.08484911,-3.0783153,0.6249304,-0.00049870403,-0.0070403544,-0.0013041776,-0.002703935,0.003256794,-0.0065935464,2.6209033e-05,0.47911638,-1.4233396,1.9549206,-2.100352,-1.5707816,2.454131,-0.0042949864,0.021074748,-0.019117296,0.005393819,0.000118399534,-0.004309577,-0.51714754,0.7469909,-9.80665,0.6948948,47.67166,-0.3897689,-2.5521894,-3.1874843,-0.4137318,0.10363913,-0.2557459,22.25,21.875,21.75,22.0625,21.75,21.9375
0.02255199,-1.4939544,-2.1482832,-0.5501749,-0.07375345,0.08291994,-0.023886528,-0.38154456,-0.34955937,0.08486576,-3.0783951,0.62477344,-0.00043748028,-0.007389808,-0.0019131883,-0.0026607392,0.0033381216,-0.006750409,0.0011430056,0.47917673,-1.4233152,1.9548601,-2.100376,-1.5707697,2.4540832,-0.0035397375,0.022625996,-0.021134794,0.006036749,0.000116215335,-0.004669984,-0.6512229,0.8236054,-9.883265,0.82694155,47.74241,-0.5042749,-2.5475328,-3.266713,-0.4081552,0.094662815,-0.2518235,22.25,21.875,21.75,22.0625,21.75,21.9375
0.025051963,-0.61629325,-1.5305097,-0.57646793,-0.07418802,0.09379059,-0.03173789,-0.38156888,-0.34955847,0.084868476,-3.0783691,0.62482625,-0.00046698496,-0.008225837,-0.0020794116,-0.0020891703,0.0031106216,-0.0062424154,0.00013507086,0.4791526,-1.4232666,1.9547876,-2.1003277,-1.5707697,2.4540954,-0.0039989753,0.02325353,-0.023406133,0.007125102,8.1502934e-05,-0.0041201995,-0.53630114,0.82360536,-9.844957,0.7172743,47.67166,-0.57059366,-2.5279582,-3.338299,-0.39250433,0.09001313,-0.26744568,22.25,21.875,21.75,22.0625,21.75,21.9375
0.027552096,-0.52420276,-1.095458,-0.6373079,-0.061108496,0.05906083,-0.029409861,-0.38162026,-0.3495455,0.084845304,-3.0783045,0.6248918,-0.00047585907,-0.011132386,-0.0017304487,-0.0011679685,0.0024827886,-0.004896521,-0.0032162978,0.47910336,-1.4231457,1.9547023,-2.1003273,-1.5708054,2.4540954,-0.007267134,0.025616467,-0.028495671,0.0083680535,9.67168e-06,-0.0040341746,-0.47884035,0.57460845,-9.883265,0.7911258,47.66987,-0.52293366,-2.4738731,-3.240219,-0.36619294,0.044410236,-0.2757386,22.25,21.875,21.75,22.0625,21.75,21.9375
0.030052757,-0.69589156,-0.25344527,-0.58829695,-0.041580755,0.053488463,-0.02585479,-0.3816298,-0.34955996,0.08484002,-3.0783267,0.6248963,-0.00055240886,-0.012574761,-0.0023864543,-0.00095142075,0.001985499,-0.003938077,-0.0025588777,0.4790913,-1.4230969,1.9546531,-2.1003034,-1.5707573,2.4540832,-0.007436317,0.028180117,-0.031855844,0.008084896,6.314915e-07,-0.0048586205,-0.38307226,0.34476504,-9.768343,0.7217513,47.64927,-0.52364147,-2.4544535,-3.23507,-0.35399926,0.03175396,-0.28930318,22.25,21.875,21.75,22.0625,21.75,21.9375
0.03255279,-0.26088288,0.45788947,-0.46002257,-0.02115455,0.06467815,-0.043975633,-0.3816966,-0.34958392,0.08486107,-3.0783725,0.62492436,-0.00042402654,-0.014206826,-0.0029479915,-0.00057383947,0.0013992845,-0.0028253454,-0.0023800053,0.47907925,-1.4230239,1.9545325,-2.100351,-1.5707697,2.454083,-0.00795263,0.030613644,-0.035487276,0.008024939,4.1231885e-08,-0.0055515957,-0.19153613,0.15322891,-9.730036,0.7329411,47.682407,-0.57707965,-2.4720519,-3.1440125,-0.33504373,0.008171883,-0.287491,22.25,21.875,21.75,22.0625,21.75,21.9375
0.03505248,-0.07318106,0.81205255,-0.2815762,-0.0017735498,0.059519786,-0.04030439,-0.38171515,-0.3496015,0.084859334,-3.0783567,0.6248257,-0.00040340543,-0.015688324,-0.00277684,-0.00043079405,0.0011714535,-0.00239753,-0.0036430298,0.4791146,-1.4229513,1.9544481,-2.1003273,-1.5708054,2.454059,-0.009629395,0.032383893,-0.03786703,0.008149482,2.6921474e-09,-0.0059638955,-0.1340753,0.0,-9.672575,0.7642693,47.685097,-0.52383816,-2.531267,-3.1096597,-0.31232998,0.008628546,-0.28079322,22.25,21.875,21.75,22.0625,21.75,21.9375
0.03755253,0.28292644,1.308177,-0.3430515,0.007245918,0.041265626,-0.044785704,-0.38177887,-0.34960583,0.08484944,-3.0783308,0.62493664,-0.00049852306,-0.017632335,-0.0025195947,-0.000299153,0.0031133438,-0.00270778,-0.0046218503,0.47904205,-1.4228059,1.9542907,-2.1002662,-1.5707701,2.454059,-0.010935676,0.035960294,-0.042844377,0.010726764,-0.0015857539,-0.0062856236,-0.11492168,-0.095768064,-9.461885,0.7665104,47.698532,-0.5007837,-2.5510235,-3.118596,-0.28561518,-0.028684799,-0.28715324,22.25,21.875,21.75,22.0625,21.75,21.9375
0.04005279,0.2488401,0.9770699,-0.51301664,0.011367308,0.03814372,-0.039439976,-0.38182256,-0.34961906,0.08484026,-3.0783508,0.624921,-0.0004968138,-0.018629113,-0.0022274968,-0.00068001973,0.004327211,-0.003199337,-0.005147264,0.47901782,-1.422709,1.9542063,-2.10029,-1.5707582,2.4540224,-0.011864866,0.03834052,-0.0448359,0.0113368565,-0.0024395622,-0.006686463,-0.038307227,-0.1340753,-9.557653,0.7351769,47.62867,-0.5930689,-2.5619137,-3.0826783,-0.29546523,-0.05054848,-0.29538515,22.25,21.875,21.75,22.0625,21.75,21.9375
0.042552713,0.55570793,1.1048542,-0.28596026,-4.7322246e-05,0.04902656,-0.04974778,-0.38187048,-0.3496074,0.08484808,-3.0783253,0.62493503,-0.00041908177,-0.020015474,-0.0023428618,0.0010165188,0.0040608305,0.0004960229,-0.0053827628,0.47898188,-1.4226613,1.9541339,-2.1002896,-1.5708069,2.4539986,-0.012061164,0.03711579,-0.047404304,0.011732674,-0.0039108815,-0.0066434075,-0.038307227,-0.038307227,-9.615114,0.8090337,47.687782,-0.6276869,-2.4788215,-3.0954065,-0.29422688,-0.07647841,-0.30549386,22.25,21.875,21.75,22.0625,21.75,21.9375
0.045052156,-0.12454316,0.43591455,-0.2790511,0.00094144815,0.049494386,-0.040140107,-0.38189432,-0.3496019,0.08484275,-3.078253,0.62497854,-0.00050868763,-0.02162786,-0.001728683,0.0013304134,0.0052682287,0.0021031548,-0.0065472624,0.4789574,-1.4225769,1.9540251,-2.1001818,-1.5708193,2.4540105,-0.013553805,0.03832503,-0.049514234,0.011769876,-0.005728327,-0.0069662496,-0.11492168,0.05746084,-9.615114,0.7486078,47.675243,-0.576409,-2.3706658,-3.117656,-0.2716278,-0.051247798,-0.29990435,22.25,21.875,21.75,22.0625,21.75,21.9375
0.04755211,-0.26021552,-0.0405625,-0.33573234,-0.03417917,0.04960843,-0.042404685,-0.3819601,-0.34962365,0.084851965,-3.0782704,0.6250213,-0.0005194518,-0.023083279,-0.0015466441,0.00093044655,0.0060308496,0.0010551121,-0.0071057817,0.47892073,-1.4224557,1.9538573,-2.100146,-1.5707954,2.4539983,-0.015103071,0.041699845,-0.05271337,0.0128762545,-0.005927048,-0.007954745,-0.095768064,0.19153614,-9.557653,0.784413,47.67166,-0.5593941,-2.3448448,-3.2580638,-0.27497935,-0.09776275,-0.29558963,22.25,21.875,21.75,22.0625,21.75,21.9375
0.050052416,-0.5263897,-0.97904795,-0.4408376,-0.027680106,0.041530035,-0.03429712,-0.3820387,-0.3496145,0.08487385,-3.0782375,0.62507176,-0.00044155307,-0.024554674,-0.0018599905,0.0014689689,0.006754932,0.0027109943,-0.007097143,0.47886083,-1.4223709,1.9536995,-2.1000974,-1.570844,2.4539742,-0.015062082,0.043593243,-0.05622002,0.013357921,-0.0073390137,-0.007917734,-0.13407528,0.24899697,-9.500193,0.8493211,47.694946,-0.6398634,-2.2665322,-3.175675,-0.2733537,-0.084586605,-0.2993383,22.25,21.875,21.75,22.0625,21.75,21.9375
0.052552436,0.031059025,-0.94176453,-0.4489477,-0.03315981,0.053047985,-0.032423224,-0.38206983,-0.34961683,0.084861465,-3.0782142,0.62510616,-0.00047180508,-0.02431859,-0.00077775697,0.0003770994,0.008999863,0.0007638072,-0.007876179,0.47883636,-1.4222863,1.9536284,-2.100086,-1.5708445,2.4539742,-0.016106056,0.044595435,-0.054996893,0.013898873,-0.0084307995,-0.008180813,-0.19153613,0.36391866,-9.481039,0.80679786,47.678825,-0.58626556,-2.2708473,-3.3774142,-0.27854323,-0.080145,-0.30209538,22.25,21.875,21.75,22.0625,21.75,21.9375
0.05505232,-0.33881313,-0.88229156,-0.36956024,-0.047056105,0.047588866,-0.045691457,-0.38215023,-0.34962362,0.08487825,-3.0782146,0.62512314,-0.00040470745,-0.025493946,-0.0010990635,0.00075648486,0.009622522,0.0021995297,-0.0069679446,0.4787885,-1.4221778,1.9534606,-2.1000621,-1.5708688,2.453937,-0.015891526,0.046254877,-0.05780143,0.0140602095,-0.009650817,-0.00887074,-0.17238252,0.45968673,-9.461885,0.73741806,47.66539,-0.61023307,-2.2777727,-3.3845906,-0.28352797,-0.06222017,-0.29422736,22.25,21.875,21.75,22.0625,21.75,21.9375
0.057552613,-0.42125714,-1.3053428,-0.2404696,-0.042592075,0.058247678,-0.02921812,-0.38224313,-0.349638,0.0848842,-3.078196,0.62521607,-0.00040384976,-0.028624669,-0.0018852812,0.0022710948,0.008693329,0.0060479445,-0.007849271,0.47872823,-1.4220086,1.9532427,-2.100014,-1.5708693,2.4539373,-0.016815431,0.04887895,-0.06427022,0.014064017,-0.01061296,-0.008907772,-0.21068975,0.49799395,-9.442732,0.8291774,47.688675,-0.61352134,-2.1289148,-3.1855373,-0.2476042,-0.083322324,-0.2893085,22.25,21.875,21.75,22.0625,21.75,21.9375
0.060052443,0.115034245,-0.610178,-0.15965214,-0.053990327,0.066019304,-0.041723296,-0.382299,-0.34963596,0.08488959,-3.0781326,0.62524086,-0.0003344608,-0.028373605,-0.0015087755,0.0011505821,0.010743839,0.0040988876,-0.0071043386,0.47871622,-1.421912,1.9531115,-2.0999777,-1.5709418,2.453949,-0.016698308,0.05089469,-0.064138785,0.014593724,-0.011533997,-0.009533563,-0.15322891,0.4405331,-9.308656,0.7530795,47.71823,-0.53784573,-2.0524817,-3.532411,-0.24064857,-0.07491,-0.3071332,22.25,21.875,21.75,22.0625,21.75,21.9375
0.062552065,0.03278648,-0.78413534,0.01034965,-0.047209896,0.055649363,-0.0417602,-0.38235912,-0.3496376,0.08488385,-3.0781274,0.62523985,-0.00037610214,-0.030177966,-0.0020282974,0.0020225546,0.009999749,0.0060899444,-0.006664852,0.47865605,-1.4217913,1.9529785,-2.0999415,-1.5709294,2.453889,-0.017284162,0.05251453,-0.068024896,0.014750047,-0.01179949,-0.010555943,0.0,0.40222588,-9.346964,0.8090337,47.74331,-0.6506964,-2.025814,-3.343863,-0.22820064,-0.078294225,-0.30482855,22.25,21.875,21.75,22.0625,21.75,21.9375
0.065052085,-0.15523474,-1.0197287,-0.04917211,-0.034105334,0.04075055,-0.032634582,-0.38243207,-0.34968644,0.08492541,-3.078214,0.62519884,-0.00025694256,-0.030930674,-0.0025338468,0.0023653484,0.009711014,0.006723937,-0.005913297,0.4786682,-1.4217067,1.9527868,-2.0999415,-1.570918,2.4538646,-0.017060159,0.05374292,-0.0702952,0.015096476,-0.011838436,-0.011083436,-0.076614454,0.4405331,-9.3661175,0.800085,47.689575,-0.63421667,-2.0724833,-3.394592,-0.22003594,-0.086191684,-0.3035145,22.25,21.875,21.75,22.0625,21.75,21.9375
0.067552164,-0.0658679,-0.15716119,0.10416192,-0.01785179,0.03443714,-0.03226184,-0.38256645,-0.34968194,0.08493797,-3.0781498,0.6253204,-0.0001831068,-0.032969728,-0.002785176,0.0024761206,0.009839549,0.007413678,-0.006616015,0.47857183,-1.4215014,1.9525098,-2.099882,-1.570978,2.4538524,-0.018229095,0.057175614,-0.07454376,0.0153589165,-0.012278649,-0.011546374,-0.05746084,0.34476504,-9.232041,0.8314132,47.696735,-0.5788664,-1.9725676,-3.4372892,-0.18150327,-0.109895624,-0.30144435,22.25,21.875,21.75,22.0625,21.75,21.9375
0.07005251,0.39524928,0.13128786,0.25047815,-0.011250224,0.042704027,-0.040809754,-0.38264418,-0.34971026,0.0849381,-3.0781746,0.6253639,-0.00017963133,-0.033390686,-0.0026717288,0.0019987691,0.011336362,0.0067900484,-0.0063012294,0.47853583,-1.4213446,1.95233,-2.0998814,-1.5709542,2.4538405,-0.018191928,0.059153773,-0.07585655,0.015939925,-0.013321443,-0.011821456,-0.038307227,0.28730422,-9.155427,0.72622824,47.70032,-0.6189538,-1.9134319,-3.4638557,-0.17249049,-0.09733382,-0.3036104,22.25,21.875,21.75,22.0625,21.75,21.9375
0.07255178,0.41823292,0.3602795,0.31627375,-0.0033218882,0.04496623,-0.042191926,-0.3827077,-0.34973243,0.08495334,-3.0782068,0.6253133,-0.00010858254,-0.035394687,-0.003128952,0.0030478106,0.011209409,0.008858455,-0.006109651,0.4785235,-1.421248,1.9521846,-2.0998814,-1.5709661,2.4537926,-0.018725738,0.061000485,-0.08059847,0.016943123,-0.014168785,-0.012543487,-0.019153614,0.24899697,-9.155427,0.81351066,47.682407,-0.62612593,-1.9027939,-3.432085,-0.15894857,-0.08736023,-0.30199334,22.25,21.875,21.75,22.0625,21.75,21.9375
0.0750517,0.41146347,0.7080184,0.33029258,-0.009923564,0.047444265,-0.045648184,-0.38277543,-0.3497416,0.08495103,-3.078151,0.6253209,-0.00011878057,-0.03511111,-0.0020112668,0.0017268413,0.015373345,0.00682868,-0.006081318,0.47849953,-1.421091,1.9519938,-2.099809,-1.5710038,2.4537807,-0.018791283,0.062957436,-0.08012193,0.018237919,-0.016926924,-0.012631806,0.019153614,0.24899697,-9.097966,0.74413085,47.67614,-0.6319698,-1.9497383,-3.4978218,-0.15506208,-0.07482505,-0.28921142,22.25,21.875,21.75,22.0625,21.75,21.9375
0.07755172,0.2662822,0.32905263,0.33264628,-0.012298394,0.0422832,-0.04668696,-0.3829041,-0.34974664,0.08495663,-3.0780876,0.62530696,-3.7653834e-05,-0.037976056,-0.003064244,0.001928009,0.015044837,0.0068830177,-0.0062466767,0.47843933,-1.4208608,1.9517039,-2.0997484,-1.5710872,2.45372,-0.019720213,0.06893798,-0.087771975,0.019704588,-0.01667381,-0.0133914165,-0.095768064,0.19153613,-9.136273,0.8560339,47.682407,-0.6091788,-1.9657596,-3.3761368,-0.12949581,-0.058621507,-0.28927568,22.25,21.875,21.75,22.0625,21.75,21.9375
0.08005275,-0.025843706,0.11303157,0.18682495,-0.01668184,0.029984044,-0.032854315,-0.38300183,-0.3497639,0.084972456,-3.078099,0.62540495,1.979557e-05,-0.038330417,-0.0035554864,0.0029780283,0.013603245,0.008162424,-0.00525403,0.4783793,-1.4207169,1.9515003,-2.0997365,-1.5710868,2.4537199,-0.019582035,0.06786405,-0.08908286,0.020286093,-0.015984219,-0.014247604,-0.19153613,0.24899697,-9.155427,0.8157518,47.70032,-0.644601,-1.9018078,-3.5734587,-0.11358781,-0.07359677,-0.28347015,22.25,21.875,21.75,22.0625,21.75,21.9375
0.08255238,0.10433436,-0.059550926,-0.08931937,-0.016670479,0.031877052,-0.0347449,-0.3830698,-0.34975484,0.08496676,-3.078019,0.62536824,3.2480293e-05,-0.039072815,-0.004039563,0.003338933,0.013410814,0.0081580365,-0.0045979363,0.47834343,-1.4205723,1.9513315,-2.0996644,-1.5711588,2.4536715,-0.019508254,0.069303714,-0.09184458,0.021520944,-0.015815359,-0.014828134,-0.1340753,0.24899697,-9.308657,0.82022345,47.711063,-0.6434745,-1.8220177,-3.5173135,-0.08722484,-0.07435169,-0.26762345,22.25,21.875,21.75,22.0625,21.75,21.9375
0.085052244,-0.064217135,-0.29130018,-0.0954564,-0.017088188,0.035360683,-0.0357574,-0.383122,-0.34976807,0.08497119,-3.0779843,0.6254191,-1.3065622e-05,-0.03956111,-0.0035472745,0.0019111618,0.015808338,0.0045960452,-0.0047575473,0.4783189,-1.4204509,1.9511632,-2.09958,-1.5711592,2.4536831,-0.020535877,0.07353054,-0.09390778,0.02362402,-0.016304797,-0.015693337,-0.1340753,0.2681506,-9.346964,0.7463667,47.64389,-0.6571649,-1.8860407,-3.492528,-0.07996357,-0.0680337,-0.26067072,22.25,21.875,21.75,22.0625,21.75,21.9375
0.08755244,-0.61326766,-0.5060277,-0.2724398,-0.030107629,0.043119088,-0.035395857,-0.38327503,-0.34978038,0.08497008,-3.077908,0.62540346,-1.7184175e-05,-0.040884424,-0.004203466,0.0029796606,0.015019962,0.0043746396,-0.0059740744,0.47823495,-1.420138,1.9507798,-2.0994585,-1.5712188,2.4535995,-0.021061994,0.075141475,-0.098957196,0.026891476,-0.015507046,-0.015001588,-0.21068975,0.40222588,-9.404425,0.8247004,47.682407,-0.64904577,-1.7669017,-3.5486813,-0.11046775,-0.052661315,-0.22842649,22.25,21.875,21.75,22.0625,21.75,21.9375
0.090052545,-0.3009107,-0.5145578,-0.38056022,-0.046003174,0.057247784,-0.04423624,-0.3833498,-0.34976375,0.0849398,-3.077812,0.6254801,-0.00011167227,-0.041493967,-0.0045067244,0.0024548315,0.015157453,0.0027791297,-0.0070918803,0.4781507,-1.4199448,1.9506115,-2.099387,-1.5712427,2.4535754,-0.021443922,0.07796581,-0.101213716,0.027800094,-0.014898994,-0.014264116,-0.22984336,0.38307226,-9.5385,0.7978386,47.672558,-0.60471267,-1.7119427,-3.5417109,-0.11149268,-0.05770396,-0.24741918,22.25,21.875,21.75,22.0625,21.75,21.9375
0.09255258,-0.5211634,-1.0507567,-0.3974883,-0.04966638,0.06190433,-0.03363843,-0.3834652,-0.3497911,0.084993556,-3.077847,0.62554574,7.010506e-05,-0.042652994,-0.0043193763,0.0025508676,0.015750635,0.0027242722,-0.008439141,0.47811425,-1.4198362,1.9503587,-2.0993626,-1.5712789,2.4535756,-0.022536835,0.07975303,-0.10372424,0.02884599,-0.015401754,-0.014009262,-0.30645782,0.4213795,-9.576807,0.7486078,47.686886,-0.61387485,-1.7305462,-3.597731,-0.09627058,-0.06366713,-0.23859948,22.25,21.875,21.75,22.0625,21.75,21.9375
0.095051885,-0.7662844,-1.3793806,-0.466703,-0.049358916,0.054670744,-0.029653134,-0.38351843,-0.3497771,0.084949225,-3.0777283,0.6255792,-8.4298255e-05,-0.043661293,-0.0052152006,0.0027726805,0.015105476,0.0029241769,-0.0087478105,0.47805452,-1.419631,1.9502033,-2.0992668,-1.5713028,2.453552,-0.02216006,0.082180664,-0.10714534,0.029362654,-0.014928976,-0.013320632,-0.2681506,0.4405331,-9.634268,0.7709874,47.661808,-0.65020293,-1.7492206,-3.5569878,-0.11065419,-0.087358005,-0.23588316,22.25,21.875,21.75,22.0625,21.75,21.9375
0.09755204,0.07840592,-0.24993868,-0.5317721,-0.056260448,0.06836658,-0.041655026,-0.3837046,-0.34983894,0.08498582,-3.0777173,0.62561435,-3.2519176e-05,-0.045646176,-0.0064230436,0.0027729187,0.014991762,0.0033108338,-0.0075284964,0.47800657,-1.419281,1.9496859,-2.0991228,-1.5713271,2.4535277,-0.021792121,0.08713762,-0.11295545,0.029818874,-0.015017771,-0.014168673,-0.19153613,0.4405331,-9.615114,0.8627467,47.682407,-0.6863289,-1.7325938,-3.4533157,-0.083170876,-0.050559767,-0.21428731,22.25,21.875,21.75,22.0625,21.75,21.9375
0.10005202,-0.0036134159,-0.5136939,-0.5180917,-0.03662413,0.05317692,-0.040200833,-0.38379526,-0.34984404,0.08499977,-3.0777102,0.6256318,1.9132853e-05,-0.04863306,-0.0071815513,0.004133056,0.01367178,0.0065117064,-0.00826861,0.47794622,-1.4191478,1.9494933,-2.0990865,-1.5713509,2.4534793,-0.023008646,0.089776784,-0.11911216,0.029886642,-0.015331273,-0.0146413855,-0.15322891,0.38307226,-9.653421,0.8493211,47.684196,-0.64531636,-1.7647183,-3.3563743,-0.06036224,-0.06009157,-0.20936257,22.25,21.875,21.75,22.0625,21.75,21.9375
0.10255257,-0.19131947,-0.26363903,-0.5357552,-0.03190171,0.042913944,-0.039169878,-0.38391608,-0.3498719,0.08502339,-3.0777242,0.6256165,9.7210424e-05,-0.04808872,-0.00678015,0.0015776869,0.015752235,0.0008318748,-0.009173493,0.477898,-1.4189539,1.9492062,-2.0990388,-1.5713743,2.45342,-0.023667537,0.094554335,-0.11902543,0.031019008,-0.014562841,-0.014397161,-0.1340753,0.38307226,-9.615114,0.8023209,47.655537,-0.69431937,-2.0372012,-3.389903,-0.062279426,-0.09322913,-0.20216829,22.25,21.875,21.75,22.0625,21.75,21.9375
0.105052665,-0.03866216,-0.69225466,-0.39601427,-0.028386584,0.044701826,-0.03699634,-0.38400075,-0.3498644,0.085017875,-3.077633,0.62567455,0.00012601654,-0.05006594,-0.0074562505,0.0036395094,0.014393479,0.0043796515,-0.00957457,0.47784996,-1.418786,1.9490126,-2.0989783,-1.5714468,2.45342,-0.02402763,0.09433175,-0.12376206,0.032202877,-0.0149960825,-0.014352753,-0.2681506,0.34476504,-9.576807,0.7732232,47.613445,-0.6410566,-1.7517447,-3.265787,-0.06769907,-0.08283903,-0.20115928,22.25,21.875,21.75,22.0625,21.75,21.9375
0.10755185,0.017887387,-0.41032133,-0.11350892,-0.049105246,0.057629194,-0.046885315,-0.38420895,-0.34992018,0.08506779,-3.077627,0.6257099,0.00021586758,-0.051649775,-0.008332866,0.0017638244,0.0156119615,0.0018440858,-0.008796927,0.47777793,-1.4184351,1.9484609,-2.0988228,-1.5714825,2.453371,-0.023968326,0.10217695,-0.12841742,0.031822465,-0.0149231,-0.0150683895,-0.11492168,0.40222588,-9.557653,0.8224646,47.696735,-0.692427,-1.676053,-3.2361443,-0.024504455,-0.06399087,-0.2019481,22.25,21.875,21.75,22.0625,21.75,21.9375
0.1100519,-0.019174427,-0.93032396,-0.19208477,-0.038903695,0.06493053,-0.037808936,-0.38434342,-0.34992334,0.08505464,-3.0775793,0.62579733,0.00024818117,-0.052149523,-0.0076180752,0.00019680141,0.017723171,-0.0017263597,-0.010343215,0.4776813,-1.4181814,1.9481972,-2.0988104,-1.5715188,2.4533353,-0.025537888,0.10614781,-0.12976158,0.033335987,-0.015156581,-0.015090204,-0.11492168,0.36391866,-9.481039,0.779936,47.670765,-0.6524799,-1.9236444,-3.3336072,-0.0047994754,-0.106047824,-0.18536288,22.25,21.875,21.75,22.0625,21.75,21.9375
0.112552084,-0.26899454,-0.6302904,-0.11969432,-0.04807034,0.057006925,-0.039693598,-0.38444212,-0.34996375,0.08507299,-3.0775886,0.62577945,0.00028859536,-0.05321856,-0.0075975438,0.0006022103,0.018245496,-0.0010398207,-0.011038736,0.47766915,-1.4179888,1.9479207,-2.0987499,-1.5715312,2.453311,-0.026085144,0.10732129,-0.13227206,0.034306046,-0.015938932,-0.014939554,-0.19153613,0.4213795,-9.481039,0.7978386,47.67793,-0.603031,-1.8274392,-3.2446094,-0.016662288,-0.08674443,-0.18111368,22.25,21.875,21.75,22.0625,21.75,21.9375
0.11505221,-0.25355214,-0.674964,0.21355593,-0.04387565,0.052899115,-0.042068765,-0.3845448,-0.34997505,0.08508799,-3.0775583,0.6257932,0.00029605158,-0.05545261,-0.0086670155,0.0022126383,0.016752383,0.0021255903,-0.011572389,0.4776091,-1.4178082,1.9476575,-2.098654,-1.5715555,2.4532635,-0.026158042,0.108801484,-0.13778675,0.03484266,-0.01607909,-0.014475521,-0.21068975,0.47884035,-9.270349,0.78888994,47.681515,-0.64704704,-1.8280773,-3.268055,0.007178179,-0.085413694,-0.1736615,22.25,21.875,21.75,22.0625,21.75,21.9375
0.11755218,0.011454853,-0.23401184,0.45196012,-0.03276689,0.035255883,-0.0407872,-0.38479006,-0.35000953,0.08509707,-3.0775,0.6260108,0.00035534278,-0.055038076,-0.008687538,0.00069815543,0.018427195,-0.0019022132,-0.010821202,0.47746533,-1.4173627,1.9471062,-2.0985692,-1.5715908,2.4532633,-0.025933972,0.11229686,-0.13881087,0.03671377,-0.015714407,-0.015003077,-0.17238252,0.40222588,-9.078813,0.84484416,47.698532,-0.7056539,-1.7800386,-3.347155,0.028576754,-0.1198211,-0.18430239,22.25,21.875,21.75,22.0625,21.75,21.9375
0.12005228,0.044434354,-0.21343036,0.5623742,-0.021524318,0.032276675,-0.038478345,-0.3848889,-0.35004175,0.08509984,-3.0774808,0.6258916,0.00036186335,-0.056101114,-0.00848146,5.0701543e-05,0.018989136,-0.002356245,-0.011597413,0.47745284,-1.4171336,1.9468182,-2.0984867,-1.571627,2.4531791,-0.027092274,0.11498028,-0.14031953,0.03620044,-0.016010003,-0.015383006,-0.1340753,0.3256114,-9.097966,0.82022345,47.699425,-0.7235048,-1.7460418,-3.406123,0.035420865,-0.10928774,-0.1759114,22.25,21.875,21.75,22.0625,21.75,21.9375
0.12255258,0.31060764,0.5782246,0.72942847,-0.02645916,0.034608133,-0.04961389,-0.38504386,-0.35005322,0.085129656,-3.0774262,0.62597656,0.00050033565,-0.05704991,-0.00871424,0.00036688757,0.01986789,-0.0019415836,-0.01177133,0.47738093,-1.4169048,1.9464711,-2.0984137,-1.5717114,2.4531674,-0.026959302,0.11670303,-0.14334658,0.03754165,-0.016984412,-0.0150735,-0.038307227,0.2681506,-8.983045,0.84708,47.67793,-0.7418057,-1.6398978,-3.3659177,0.05611542,-0.10339418,-0.15517087,22.25,21.875,21.75,22.0625,21.75,21.9375
0.12505265,0.92724997,0.86513406,0.996662,-0.018539999,0.04097527,-0.056081392,-0.38514632,-0.35007805,0.085127145,-3.0774071,0.6259719,0.00052061543,-0.0568563,-0.008559095,-7.89642e-05,0.020699235,-0.0051861578,-0.011766218,0.47734472,-1.4166875,1.9462188,-2.0983765,-1.5717353,2.453131,-0.027496569,0.118294746,-0.1449167,0.040779572,-0.016228797,-0.015616934,-0.076614454,0.21068975,-8.848969,0.86945957,47.679718,-0.678626,-1.7999513,-3.3927374,0.05778935,-0.12773599,-0.16998416,22.25,21.875,21.75,22.0625,21.75,21.9375
0.12755285,0.6300382,1.4508687,0.8561454,0.0028059771,0.02558661,-0.04594768,-0.38536122,-0.35013425,0.085131675,-3.0773478,0.62601644,0.00048153842,-0.05811069,-0.008663002,0.00020090524,0.021978877,-0.0071147336,-0.011785919,0.4772606,-1.4162184,1.9456314,-2.0982077,-1.5717591,2.4530826,-0.028294425,0.12143542,-0.15023069,0.045252107,-0.01648311,-0.016391601,-0.05746084,0.21068975,-8.791509,0.842603,47.683304,-0.6854054,-1.6676002,-3.5035534,0.030301027,-0.14383385,-0.15132418,22.25,21.875,21.75,22.0625,21.75,21.9375
0.1300519,0.5026739,1.2539057,0.7919339,0.006748669,0.0197721,-0.043174762,-0.38550398,-0.35015547,0.085150294,-3.0773232,0.62606853,0.0005441221,-0.05845625,-0.008489169,-0.00045387348,0.024133695,-0.009711591,-0.011865808,0.4771885,-1.4159771,1.9452952,-2.0981352,-1.5717953,2.4530463,-0.028475681,0.12444292,-0.15288703,0.04819814,-0.017204328,-0.016490733,-0.05746084,0.15322891,-8.791509,0.8291774,47.698532,-0.69859993,-1.6922951,-3.4784923,0.0098235905,-0.14183575,-0.14530206,22.25,21.875,21.75,22.0625,21.75,21.9375
0.1325521,1.0622972,0.9307685,0.80853957,-6.618106e-05,0.043256436,-0.04776005,-0.38560835,-0.3501675,0.08514628,-3.0772662,0.62609565,0.0005057659,-0.05850991,-0.007898606,-0.00071527204,0.026265368,-0.011831645,-0.012417852,0.47712833,-1.4157486,1.9450196,-2.0980375,-1.5718197,2.4530106,-0.029008841,0.12563276,-0.15440854,0.051393986,-0.018122269,-0.016468817,-0.095768064,0.21068975,-8.791509,0.79560274,47.687782,-0.7145143,-1.6388841,-3.4061675,-0.007830758,-0.14594665,-0.14966929,22.25,21.875,21.75,22.0625,21.75,21.9375
0.13505219,0.44810557,0.6888346,0.80213654,-0.0034200207,0.031173207,-0.039345715,-0.38571432,-0.35019004,0.08514401,-3.077186,0.6260798,0.00043502726,-0.059699975,-0.008359758,-0.00077847124,0.026980609,-0.013968412,-0.012709185,0.47709203,-1.415483,1.9446839,-2.097881,-1.5718554,2.4529748,-0.029481964,0.12950757,-0.15953821,0.054872748,-0.017781846,-0.01664735,-0.038307227,0.19153613,-8.944737,0.7486078,47.68062,-0.7012706,-1.7312388,-3.302742,-0.04750558,-0.17202768,-0.13831642,22.25,21.875,21.75,22.0625,21.75,21.9375
0.13755223,0.5604248,0.61436915,0.48538312,-0.026536522,0.0489707,-0.048222464,-0.3859606,-0.35020384,0.08514012,-3.077021,0.62619853,0.0004055991,-0.060388587,-0.007890542,-0.0027250766,0.03190511,-0.020649757,-0.0129502965,0.47694793,-1.4149756,1.9440602,-2.0976632,-1.5719522,2.4529264,-0.030136557,0.13696387,-0.16517371,0.061248466,-0.019092606,-0.017053474,-0.11492168,0.2681506,-8.983045,0.8291774,47.686886,-0.7392034,-1.7867637,-3.3627477,-0.14200479,-0.15745421,-0.13830101,22.25,21.875,21.75,22.0625,21.75,21.9375
0.14005229,0.094693355,-0.31686217,0.22291057,-0.016347097,0.045289878,-0.04153508,-0.38606134,-0.3502289,0.08512608,-3.0769482,0.6261842,0.00025990536,-0.06048694,-0.007580521,-0.0008094597,0.031223647,-0.018996527,-0.013400372,0.47689968,-1.4146891,1.9437245,-2.0974953,-1.5719522,2.4528787,-0.030668702,0.13329823,-0.16597421,0.06393259,-0.01924529,-0.017133659,-0.1340753,0.3256114,-9.136273,0.86945957,47.70659,-0.72893053,-1.5973533,-3.3575354,-0.20670563,-0.16869429,-0.14496452,22.25,21.875,21.75,22.0625,21.75,21.9375
0.14255261,-0.12913758,-0.35617322,0.099145345,-0.03757753,0.053519882,-0.04317903,-0.38617542,-0.35024488,0.08511947,-3.076825,0.6262543,0.00017108524,-0.060849637,-0.0077678626,-0.0018817993,0.032856543,-0.021725738,-0.01332311,0.47685185,-1.414399,1.943365,-2.0973146,-1.5720004,2.4528906,-0.030541161,0.13725573,-0.16850938,0.06568357,-0.019448154,-0.017079271,-0.21068975,0.38307226,-9.308656,0.8247004,47.68599,-0.7919395,-1.7778988,-3.3112428,-0.2446042,-0.17009586,-0.13873386,22.25,21.875,21.75,22.0625,21.75,21.9375
0.14505187,-0.2092864,-0.7287946,0.007950632,-0.048709825,0.05882595,-0.043597683,-0.38628384,-0.35024402,0.085094996,-3.0767033,0.6262486,5.6074292e-05,-0.062161498,-0.008184376,-0.001698723,0.032640915,-0.021660369,-0.013929882,0.47677952,-1.4141101,1.9430531,-2.0971591,-1.5720485,2.4528306,-0.03108589,0.13973069,-0.17200527,0.06654479,-0.019296829,-0.017013187,-0.21068975,0.5363012,-9.385271,0.84484416,47.658226,-0.76043165,-1.7071071,-3.3714113,-0.3111133,-0.18344882,-0.14934261,22.25,21.875,21.75,22.0625,21.75,21.9375
0.14755188,-0.80385196,-1.757179,-0.16427039,-0.062445752,0.067439355,-0.039791733,-0.38655025,-0.3502887,0.08509345,-3.0765834,0.6263568,-4.4008317e-05,-0.06466607,-0.009245089,-0.0021012595,0.031840093,-0.02024513,-0.013932682,0.47663543,-1.4135317,1.942334,-2.0969088,-1.5720843,2.4527698,-0.03150374,0.14515981,-0.17692474,0.06440614,-0.019257467,-0.017422771,-0.19153613,0.4405331,-9.5385,0.8023209,47.653748,-0.7915281,-1.7534165,-3.3732507,-0.36231261,-0.21916942,-0.14934364,22.25,21.875,21.75,22.0625,21.75,21.9375
0.15005194,-1.11388,-1.1993467,-0.20807558,-0.07261064,0.06171012,-0.03913866,-0.38667977,-0.3502827,0.08508602,-3.0764625,0.6263898,-2.2272508e-05,-0.066442385,-0.010020452,-0.0011271866,0.030418606,-0.01584965,-0.01383409,0.4765635,-1.413267,1.9420222,-2.096802,-1.5721806,2.4527342,-0.031292286,0.14579009,-0.1792608,0.061554078,-0.020025592,-0.017305005,-0.19153613,0.51714754,-9.576807,0.8985519,47.66808,-0.83481336,-1.6422881,-3.427585,-0.36080587,-0.20844162,-0.15588494,22.25,21.875,21.75,22.0625,21.75,21.9375
0.15255184,-0.3142768,-0.79465765,-0.070753105,-0.0635307,0.07873411,-0.044408713,-0.38682175,-0.35033593,0.085099496,-3.0764532,0.62636805,-5.047118e-05,-0.068472184,-0.010465343,-0.00031590747,0.02882113,-0.011201656,-0.014328339,0.47652724,-1.4129547,1.9416021,-2.0966718,-1.5721806,2.4526858,-0.031919375,0.14637809,-0.18098731,0.057831388,-0.020752043,-0.017433902,-0.22984336,0.53630114,-9.519346,0.9097417,47.65643,-0.81236964,-1.6160052,-3.4551582,-0.3392247,-0.21529967,-0.14487854,22.25,21.875,21.75,22.0625,21.75,21.9375
0.1550519,-0.8430393,-1.1074507,-0.4059621,-0.045441333,0.059789155,-0.03723075,-0.3869673,-0.35034382,0.08509491,-3.0763347,0.6263628,2.0521731e-05,-0.069099896,-0.010700333,-0.001847281,0.0295815,-0.011829512,-0.014325093,0.47647923,-1.412653,1.9412435,-2.0965765,-1.5723008,2.45265,-0.031832106,0.15027033,-0.18143941,0.055296436,-0.021148281,-0.01734678,-0.19153613,0.53630114,-9.500193,0.80679786,47.6421,-0.827405,-1.7888384,-3.58146,-0.305261,-0.21304753,-0.13795431,22.25,21.875,21.75,22.0625,21.75,21.9375
0.1575522,-0.10621868,-0.3018088,-0.41844627,-0.04869307,0.059337575,-0.0476504,-0.38728383,-0.35040486,0.085108295,-3.0762765,0.6265231,2.7550252e-05,-0.073026,-0.013003647,-0.001718568,0.025471024,-0.006120312,-0.014893804,0.47631142,-1.4120386,1.9404649,-2.0964,-1.5723246,2.4525902,-0.031922847,0.1562981,-0.1871094,0.04797349,-0.020145858,-0.016866637,-0.17238252,0.34476504,-9.634268,0.8940802,47.689575,-0.91867936,-1.8331504,-3.5912623,-0.24020821,-0.24587458,-0.16678247,22.25,21.875,21.75,22.0625,21.75,21.9375
0.16005251,0.0609527,-0.4952275,-0.40957862,-0.048306882,0.055280805,-0.044217736,-0.3873907,-0.3504494,0.085087344,-3.0762255,0.62649375,-5.1697825e-05,-0.0733368,-0.012916755,-0.003572541,0.026999347,-0.008534769,-0.015407815,0.47629938,-1.4117248,1.9401292,-2.0963037,-1.572337,2.4525666,-0.03220085,0.16057186,-0.18764865,0.047086343,-0.020401435,-0.016627401,-0.1340753,0.2681506,-9.710882,0.83813137,47.694946,-0.95122516,-1.8834875,-3.676079,-0.19995111,-0.2601751,-0.16312212,22.25,21.875,21.75,22.0625,21.75,21.9375
0.16255201,0.16933121,-0.15566793,-0.10577518,-0.050461363,0.0512869,-0.048094504,-0.3875814,-0.35044488,0.085083544,-3.0761247,0.6266268,1.5510119e-05,-0.07539805,-0.013451389,-0.0027836282,0.026190765,-0.005839456,-0.015607084,0.47616705,-1.4113876,1.9397329,-2.0962327,-1.572421,2.4525306,-0.032799326,0.16245057,-0.19148147,0.046271514,-0.020931872,-0.017022671,-0.095768064,0.28730422,-9.653421,0.78888994,47.694054,-0.99778044,-1.9069018,-3.6891127,-0.17989597,-0.27581543,-0.17301977,22.25,21.875,21.75,22.0625,21.75,21.9375
0.16505212,-0.025207685,-0.21383286,-0.18895257,-0.03922894,0.041446738,-0.037812483,-0.38772172,-0.35048625,0.08508354,-3.0760999,0.6266204,-4.9687696e-06,-0.07669636,-0.013804674,-0.0024303838,0.02660529,-0.005172408,-0.015559267,0.476119,-1.4110749,1.9393505,-2.0961368,-1.5724334,2.452482,-0.032944195,0.16459848,-0.19504143,0.04728165,-0.02161296,-0.017211057,-0.05746084,0.24899697,-9.519346,0.8918391,47.66271,-0.9946021,-1.9516084,-3.7365737,-0.16798832,-0.28384334,-0.18155715,22.25,21.875,21.75,22.0625,21.75,21.9375
0.16755219,0.30911115,0.19235298,-0.15123492,-0.025568195,0.033023484,-0.040612813,-0.38803345,-0.35053378,0.08507118,-3.0759683,0.62674695,2.924387e-05,-0.080114074,-0.015358955,-0.0009935986,0.024149258,8.2567814e-05,-0.016192172,0.4759749,-1.4104251,1.9385937,-2.0959818,-1.5725292,2.4524343,-0.03314365,0.167802,-0.20155478,0.04479226,-0.02186027,-0.01677204,0.0,0.24899697,-9.404425,0.83365434,47.707485,-1.0298024,-1.8034556,-3.5094967,-0.059580594,-0.29260215,-0.20807436,22.25,21.875,21.75,22.0625,21.75,21.9375
0.17005226,0.9381592,0.2661324,0.04640727,-0.029064892,0.042273805,-0.052173626,-0.38821468,-0.3505708,0.085095264,-3.0759416,0.62675995,0.00010163601,-0.08022641,-0.01573517,-0.0012068347,0.025244668,-0.0020583298,-0.015882807,0.4759032,-1.4100999,1.9381388,-2.095873,-1.5725774,2.4523745,-0.03256994,0.17008556,-0.20443384,0.04779078,-0.021852475,-0.01650707,0.019153614,0.34476504,-9.3661175,0.8247004,47.728977,-1.0944601,-1.8971775,-3.497889,-0.05958499,-0.3265733,-0.20957221,22.25,21.875,21.75,22.0625,21.75,21.9375
0.17255272,0.30015916,-0.5302047,-0.21569043,-0.02291941,0.031135002,-0.040137973,-0.38837525,-0.3506159,0.08508806,-3.0758982,0.62684584,8.1448816e-05,-0.08088541,-0.015846146,-0.0012020628,0.026743928,-0.0026002096,-0.014653909,0.4758433,-1.4097389,1.9377192,-2.0957887,-1.5725898,2.452374,-0.03231297,0.17213598,-0.20732397,0.04979957,-0.02294128,-0.017473958,-0.019153614,0.3256114,-9.404425,0.7978386,47.70659,-1.1211021,-1.8581583,-3.4266672,-0.055768892,-0.33435518,-0.22453241,22.25,21.875,21.75,22.0625,21.75,21.9375
0.17505254,-0.13284019,-0.98891497,-0.13075398,-0.03964603,0.029584434,-0.033024292,-0.38853055,-0.3506392,0.08508686,-3.075828,0.6268129,5.098386e-05,-0.08235299,-0.015512923,-0.0008260062,0.026615309,-0.0027389964,-0.016230015,0.47577065,-1.4094019,1.9373001,-2.0956442,-1.572637,2.45229,-0.03431396,0.17360227,-0.21028121,0.05135105,-0.02276902,-0.01789669,-0.095768064,0.4213795,-9.3661175,0.8873621,47.691364,-1.128341,-1.8474915,-3.4646397,-0.049429312,-0.33370194,-0.2381935,22.25,21.875,21.75,22.0625,21.75,21.9375
0.17755257,-0.2673753,-1.1173081,0.2250321,-0.063295916,0.053472813,-0.043843824,-0.38887376,-0.35072163,0.085100375,-3.075712,0.62686574,0.00014750496,-0.084028855,-0.015579938,-0.0009786321,0.028219525,-0.0047117476,-0.01685734,0.47567412,-1.408692,1.9364027,-2.0954397,-1.5727576,2.4522421,-0.035371557,0.17807294,-0.21607567,0.055159956,-0.023297917,-0.018322408,-0.24899697,0.4405331,-9.3661175,0.8672237,47.721813,-1.1828756,-1.70275,-3.4753315,-0.058544435,-0.35737026,-0.25664735,22.25,21.875,21.75,22.0625,21.75,21.9375
0.18005277,-0.8036946,-1.2292206,0.18595329,-0.046743736,0.047726948,-0.03671376,-0.38902816,-0.35073787,0.08509916,-3.075634,0.6269441,0.00014794499,-0.083606,-0.01585561,-0.00029018076,0.028187534,-0.0046021994,-0.015907602,0.47559062,-1.40838,1.9360203,-2.0953314,-1.5728058,2.4522178,-0.034468763,0.17684631,-0.21666494,0.056861017,-0.023319198,-0.018368714,-0.21068975,0.40222588,-9.32781,0.842603,47.71017,-1.286094,-1.7748553,-3.540895,-0.036036752,-0.36032096,-0.2347682,22.25,21.875,21.75,22.0625,21.75,21.9375
0.18255274,-0.124138586,-0.25112584,0.41312155,-0.040500317,0.060195897,-0.0508501,-0.38919482,-0.35079643,0.08510852,-3.0756376,0.6269647,0.0001605226,-0.086693995,-0.015956037,0.0010201934,0.02695082,-0.0017336003,-0.018188808,0.4755417,-1.408031,1.9355763,-2.0952475,-1.5728058,2.4521816,-0.036943935,0.17888173,-0.22214083,0.057184275,-0.023545071,-0.018559532,-0.19153613,0.36391866,-9.270349,0.86945957,47.71465,-1.1827302,-1.7913005,-3.5435824,0.001959631,-0.38691324,-0.25091475,22.25,21.875,21.75,22.0625,21.75,21.9375
0.18505198,-0.21789351,0.19666238,0.33396703,-0.020031577,0.050598305,-0.048023716,-0.38936993,-0.35082594,0.08508545,-3.0755353,0.6270386,0.00014221306,-0.08748334,-0.01613686,0.00063621864,0.027291467,-0.0020619866,-0.017480785,0.4754697,-1.4076216,1.9351338,-2.0951517,-1.5728658,2.4521692,-0.03722631,0.18120636,-0.22402155,0.05718388,-0.023705544,-0.019546859,-0.22984336,0.30645782,-9.270349,0.8873621,47.701214,-1.2096031,-1.6951067,-3.5054812,0.0073029827,-0.42114067,-0.27823794,22.25,21.875,21.75,22.0625,21.75,21.9375
0.18755198,0.013786526,0.7692329,0.37735617,-0.006632562,0.05198939,-0.04960314,-0.38975835,-0.3508769,0.08509834,-3.0753925,0.6271817,0.00022007013,-0.08787119,-0.015139844,-0.0001521731,0.030212343,-0.0071137976,-0.017925985,0.47527692,-1.4068757,1.9341892,-2.0949218,-1.5729855,2.4520848,-0.039099272,0.18445078,-0.22746293,0.0632002,-0.023990437,-0.020972105,-0.28730422,0.22984336,-9.11712,0.8806493,47.713753,-1.1365491,-1.7074778,-3.5489836,-0.018850476,-0.43842733,-0.25149873,22.25,21.875,21.75,22.0625,21.75,21.9375
0.19005193,0.026282215,0.72791696,0.5073735,-0.0012842922,0.04892113,-0.052505318,-0.38992044,-0.35092556,0.085099325,-3.075336,0.62720734,0.00018130892,-0.08839142,-0.015503945,-0.00027157099,0.031863738,-0.008597085,-0.016669082,0.4752293,-1.4065022,1.9337219,-2.0947773,-1.5730098,2.4520607,-0.038447015,0.18723212,-0.23114687,0.06617716,-0.024784368,-0.021571433,-0.24899697,0.076614454,-9.193734,0.8717007,47.71554,-1.224091,-1.838718,-3.4721282,-0.017614665,-0.43601286,-0.27050096,22.25,21.875,21.75,22.0625,21.75,21.9375
0.19255225,-0.1006148,0.7851093,0.37296164,-0.002226724,0.050126184,-0.040788062,-0.39008874,-0.35094824,0.0850872,-3.075245,0.62718856,0.000119171964,-0.08780279,-0.014454213,-0.0017491386,0.03633784,-0.014837643,-0.017335037,0.475145,-1.4061165,1.933267,-2.094619,-1.5730585,2.4519768,-0.039068382,0.1907172,-0.2332905,0.07243285,-0.025901906,-0.02152051,-0.19153613,0.095768064,-9.193734,0.87393653,47.685097,-1.2818536,-1.9286214,-3.5225675,-0.04913739,-0.45501322,-0.28726172,22.25,21.875,21.75,22.0625,21.75,21.9375
0.1950523,0.07139651,0.8220677,0.41022587,-0.0015244643,0.044009093,-0.0540059,-0.39026684,-0.35098273,0.08507278,-3.075167,0.6271911,9.074546e-05,-0.088734455,-0.013737181,-0.001433564,0.03840354,-0.016602349,-0.01837741,0.4750725,-1.4057083,1.9327997,-2.0944984,-1.5731071,2.4519162,-0.040534165,0.19228142,-0.23693165,0.0770238,-0.026933245,-0.021937776,-0.2681506,0.0,-9.11712,0.8537928,47.65643,-1.2268342,-1.7751718,-3.5533817,-0.12420437,-0.45968384,-0.29643765,22.25,21.875,21.75,22.0625,21.75,21.9375
0.19755232,0.31638518,1.254556,0.3434596,0.014080919,0.03974013,-0.048957918,-0.39064556,-0.35102025,0.085065834,-3.07495,0.6273372,8.996303e-05,-0.08924901,-0.012337417,-0.0036135786,0.04376864,-0.022449208,-0.018749824,0.47488013,-1.4049252,1.9318427,-2.094209,-1.5732516,2.4518437,-0.04215128,0.19816281,-0.24000062,0.08186061,-0.02903809,-0.023170698,-0.19153613,0.019153614,-9.040505,0.83365434,47.682407,-1.1652117,-1.8483596,-3.489946,-0.19706361,-0.46370268,-0.28465012,22.25,21.875,21.75,22.0625,21.75,21.9375
0.20005219,0.42031685,0.7809249,0.41114452,0.013246811,0.04199668,-0.05158482,-0.39081377,-0.35106185,0.08506059,-3.0748954,0.62736493,2.5396395e-05,-0.09094632,-0.012291942,-0.0025757595,0.044417437,-0.020823896,-0.019334096,0.47480783,-1.4045405,1.9313759,-2.094065,-1.573264,2.451796,-0.04295749,0.19922897,-0.24409984,0.08374671,-0.030367486,-0.023384476,-0.2681506,0.019153614,-9.097966,0.88960326,47.678825,-1.1927407,-1.8596714,-3.513733,-0.23206289,-0.46473312,-0.30459955,22.25,21.875,21.75,22.0625,21.75,21.9375
0.20255248,0.37368762,0.47099003,0.40946448,0.007275951,0.05315,-0.054899275,-0.3909773,-0.35106587,0.08505089,-3.0747252,0.62736773,-5.956844e-05,-0.091978006,-0.012095699,-0.0023075608,0.04537668,-0.02027332,-0.0197989,0.4747236,-1.4041557,1.9308976,-2.093825,-1.5733603,2.451736,-0.043551233,0.2004761,-0.24646308,0.08481058,-0.03148199,-0.02350387,-0.28730422,0.11492168,-9.059659,0.8918391,47.685097,-1.177653,-1.8958632,-3.605921,-0.2603465,-0.4650434,-0.3027081,22.25,21.875,21.75,22.0625,21.75,21.9375
0.20505248,-0.06884962,0.30561483,0.38134766,-0.012619972,0.0499069,-0.04237525,-0.39116043,-0.35108247,0.08502215,-3.0745926,0.6274167,-0.00017594683,-0.09339641,-0.012144404,-0.0028963743,0.04605367,-0.021069221,-0.020679919,0.47461528,-1.4037105,1.930406,-2.0936458,-1.5734085,2.4516757,-0.0445686,0.20422828,-0.24965648,0.08526519,-0.03173398,-0.02363324,-0.2681506,0.22984336,-9.078813,0.8806493,47.64658,-1.1542103,-1.8592882,-3.496429,-0.29128408,-0.45333815,-0.28843564,22.25,21.875,21.75,22.0625,21.75,21.9375
0.20755272,-0.7057089,-0.8136258,0.17424543,-0.042032838,0.07513367,-0.049038354,-0.3915376,-0.35113093,0.08502068,-3.0743253,0.6274953,-0.00023578826,-0.09677894,-0.0119073605,-0.0022214814,0.04758516,-0.014944483,-0.021503532,0.47445884,-1.4028803,1.9293541,-2.09324,-1.5735782,2.4516037,-0.045515213,0.20687154,-0.25363925,0.08186231,-0.03592192,-0.023731107,-0.34476504,0.34476504,-9.270349,0.8851263,47.64658,-1.1257235,-1.9142599,-3.5368812,-0.29160422,-0.43998593,-0.32965568,22.25,21.875,21.75,22.0625,21.75,21.9375
0.2100518,-1.0053662,-1.1248268,0.1318101,-0.056007765,0.08445779,-0.047546264,-0.3917219,-0.35116586,0.08499816,-3.0742311,0.6275898,-0.00029084185,-0.09822668,-0.011648151,-0.0030198605,0.048169527,-0.013422856,-0.022016749,0.47437465,-1.402447,1.9288753,-2.0931213,-1.5736145,2.451591,-0.046520814,0.20953205,-0.2542876,0.078762695,-0.037151437,-0.024214804,-0.28730422,0.34476504,-9.289502,0.9231726,47.683304,-1.176809,-1.941556,-3.5633373,-0.29136825,-0.41774407,-0.32741004,22.25,21.875,21.75,22.0625,21.75,21.9375
0.21255206,-1.7977434,-1.5900311,0.23061645,-0.060750462,0.075219244,-0.032215275,-0.3919153,-0.35117942,0.08498579,-3.0741208,0.6276257,-0.00030882383,-0.10117302,-0.012207831,-0.0021412536,0.047133263,-0.007893106,-0.022980617,0.47426635,-1.4020379,1.9283961,-2.0929792,-1.573687,2.4515197,-0.04721062,0.21161693,-0.2579237,0.07492232,-0.038776416,-0.023928888,-0.34476504,0.38307226,-9.32781,0.8605109,47.64927,-1.1106013,-1.8947506,-3.6177483,-0.2502055,-0.39267302,-0.34778708,22.25,21.875,21.75,22.0625,21.75,21.9375
0.21505201,-0.9302859,-1.1792047,-0.10643644,-0.047787543,0.079726055,-0.03980437,-0.39214638,-0.3511838,0.0849782,-3.0739815,0.6277113,-0.00030371762,-0.10371402,-0.012602589,-0.0010122454,0.04591029,-0.002269118,-0.023269678,0.47412217,-1.4015814,1.9278454,-2.0928128,-1.5737833,2.4514475,-0.047884326,0.21235366,-0.2606296,0.07132601,-0.04027718,-0.024302686,-0.34476504,0.34476504,-9.3661175,0.8873621,47.652847,-1.1064228,-1.7978514,-3.547182,-0.21599571,-0.3734507,-0.34861788,22.25,21.875,21.75,22.0625,21.75,21.9375
0.2175521,-0.6571712,-0.8766308,-0.4727685,-0.020915916,0.060000755,-0.039932624,-0.3925407,-0.35125056,0.08495588,-3.0738,0.6277885,-0.00032509153,-0.10715964,-0.013540152,-0.0005157763,0.04291436,0.0030203161,-0.023946913,0.47395366,-1.4007152,1.9268302,-2.0925515,-1.5739034,2.4513514,-0.049414705,0.21562631,-0.26450163,0.065838486,-0.04005589,-0.025149582,-0.40222588,0.47884035,-9.653421,0.92764956,47.693153,-1.0683012,-1.8438514,-3.782838,-0.097883396,-0.3527669,-0.35664842,22.25,21.875,21.75,22.0625,21.75,21.9375
0.2200521,-0.6199327,-0.41955057,-0.38658437,-0.035225138,0.059671007,-0.05057022,-0.3927769,-0.35125855,0.08496803,-3.0736907,0.6278422,-0.00018311867,-0.10818462,-0.012357038,-0.0005872913,0.045310054,0.003145021,-0.025589412,0.47383302,-1.4003068,1.9263028,-2.0924428,-1.5740365,2.451279,-0.051069666,0.21654831,-0.2657882,0.06718516,-0.042246066,-0.025152588,-0.24899697,0.4213795,-9.749189,0.8179876,47.693153,-0.94203645,-1.8085322,-3.9583955,-0.06954226,-0.31221882,-0.3504843,22.25,21.875,21.75,22.0625,21.75,21.9375
0.2225524,-0.6834293,-0.7101556,-0.2510418,-0.04126002,0.05748951,-0.045156494,-0.39296743,-0.35129192,0.08492516,-3.073542,0.6278681,-0.00027946473,-0.10866963,-0.013443851,-0.0008563954,0.04643655,0.0020859865,-0.024534658,0.47376186,-1.399801,1.9257768,-2.0922868,-1.5741085,2.4512436,-0.049274575,0.22015573,-0.26992103,0.06916668,-0.0427722,-0.024402246,-0.19153613,0.38307226,-9.595961,0.93436235,47.655537,-1.0896177,-1.8879004,-3.8563056,-0.06871099,-0.28113148,-0.37201428,22.25,21.875,21.75,22.0625,21.75,21.9375
0.22505249,-0.34579295,-0.5187016,-0.34916052,-0.04792312,0.06596617,-0.045736883,-0.39319864,-0.3513164,0.08493074,-3.0734315,0.6279599,-0.00021694836,-0.11149212,-0.013471989,-0.00042878368,0.046369106,0.0042914012,-0.02569036,0.47365302,-1.3993556,1.9252132,-2.0921433,-1.5742048,2.451207,-0.051156074,0.22348192,-0.2747447,0.068664804,-0.04373474,-0.02512007,-0.22984336,0.4213795,-9.519346,0.8560339,47.65912,-1.0929425,-1.9360633,-3.7381387,-0.032938194,-0.2723048,-0.38568446,22.25,21.875,21.75,22.0625,21.75,21.9375
0.22755234,-0.122692145,-0.34196138,-0.79795843,-0.032994792,0.040412176,-0.044956964,-0.39364344,-0.3513717,0.084910445,-3.0732164,0.62808776,-0.00016378675,-0.11432787,-0.012967239,-0.00012441304,0.04744905,0.0023076162,-0.027147612,0.4734479,-1.3984292,1.9241232,-2.0918906,-1.5743726,2.4511104,-0.054456204,0.22825557,-0.28233227,0.07371714,-0.04380772,-0.026955744,-0.21068975,0.22984336,-9.576807,0.9388393,47.678825,-0.87927175,-1.9665636,-3.5970702,-0.04657207,-0.20402795,-0.3700506,22.25,21.875,21.75,22.0625,21.75,21.9375
0.23005259,0.15124914,-0.7466991,-0.3930562,-0.03246986,0.04720361,-0.038682237,-0.39388576,-0.3514001,0.08491961,-3.0731223,0.62818253,-0.00010093853,-0.11515558,-0.014724186,-0.00013083422,0.046040725,0.0034923682,-0.025381315,0.47332862,-1.3979716,1.9235367,-2.091747,-1.5744561,2.451063,-0.052506477,0.23124878,-0.2855767,0.07226262,-0.04310691,-0.026773,-0.2681506,0.22984336,-9.5385,0.8717007,47.686886,-0.98242855,-2.0548992,-3.583334,0.016103214,-0.18465766,-0.37532863,22.25,21.875,21.75,22.0625,21.75,21.9375
0.23255217,0.3236064,-0.3106468,-0.5988172,-0.023186319,0.038200613,-0.04733729,-0.3941012,-0.35140046,0.084889136,-3.072927,0.62823594,-9.641448e-05,-0.117170386,-0.015066149,0.00085511967,0.045384023,0.004216689,-0.02571573,0.47322023,-1.3974901,1.9230098,-2.0915906,-1.5746001,2.4510138,-0.05381734,0.23333335,-0.29086745,0.07451163,-0.04286686,-0.027743693,-0.21068975,0.24899697,-9.557653,0.86945957,47.678825,-1.0133044,-2.1440096,-3.4820542,0.043524824,-0.17289075,-0.39332864,22.25,21.875,21.75,22.0625,21.75,21.9375
0.23505233,0.45093468,0.25500995,-0.8724211,-0.022759182,0.02959289,-0.04704265,-0.39432222,-0.3514427,0.084883414,-3.0728443,0.62825644,-0.00012888409,-0.117145576,-0.014174542,-0.00021318042,0.046862423,-0.000593427,-0.025776323,0.47312358,-1.397009,1.9224232,-2.0914214,-1.5746483,2.450941,-0.055814262,0.23574446,-0.29222265,0.07839479,-0.041994814,-0.029681277,-0.15322891,0.2873042,-9.634268,0.87617236,47.67166,-0.87173986,-2.0958352,-3.3715487,0.044908695,-0.16156153,-0.38141438,22.25,21.875,21.75,22.0625,21.75,21.9375
0.23755254,-0.5071362,-0.5050958,-0.43086785,-0.03032601,0.02618279,-0.034743365,-0.39479756,-0.35150948,0.08487962,-3.0726674,0.62841195,-0.000115704934,-0.114535674,-0.013066865,-0.0020340718,0.04972472,-0.011945185,-0.027258849,0.4728832,-1.3960472,1.9212412,-2.091119,-1.574767,2.4508216,-0.05685058,0.2375492,-0.29264113,0.088396944,-0.03935674,-0.029245833,-0.2681506,0.30645782,-9.519346,0.9164598,47.670765,-0.83990633,-2.0874581,-3.7881238,-0.03152264,-0.15782462,-0.37721604,22.25,21.875,21.75,22.0625,21.75,21.9375
0.24005224,-0.32927158,-0.31891727,-0.19259067,-0.03026199,0.036810186,-0.045870192,-0.395063,-0.351545,0.08491578,-3.072611,0.6284564,2.9684586e-05,-0.113870025,-0.01292262,-0.0012238658,0.05033384,-0.016078437,-0.026944712,0.47276306,-1.3956031,1.920607,-2.0909727,-1.5748624,2.450737,-0.057241295,0.23705228,-0.29569712,0.09589179,-0.038011298,-0.029958867,-0.22984336,0.22984336,-9.519346,0.9097417,47.675243,-0.85884,-2.0518646,-3.8864944,-0.10297845,-0.16582595,-0.38182524,22.25,21.875,21.75,22.0625,21.75,21.9375
0.2425525,0.17221135,0.20228583,-0.06685698,-0.033777,0.053959884,-0.0530614,-0.39528868,-0.35155472,0.084879935,-3.0724044,0.6285461,-4.7445337e-06,-0.114930816,-0.013551036,4.3450536e-06,0.048704367,-0.015856335,-0.025620913,0.47265497,-1.3950746,1.920031,-2.0907924,-1.574994,2.4507124,-0.057832707,0.23747891,-0.29970625,0.098513566,-0.03667889,-0.031874456,-0.13407528,0.19153613,-9.481039,0.91421866,47.66271,-0.8611695,-1.817009,-3.7838626,-0.16743314,-0.17275351,-0.37228027,22.25,21.875,21.75,22.0625,21.75,21.9375
0.24505252,0.18030293,0.5213081,-0.2215417,-0.011362772,0.039087772,-0.054570694,-0.39552087,-0.35158998,0.084901705,-3.072347,0.62857234,-4.6861045e-05,-0.11491763,-0.013536586,-1.8214039e-06,0.048816994,-0.018809916,-0.025411908,0.47252277,-1.3946297,1.9194096,-2.0905635,-1.5750183,2.4506044,-0.05851876,0.23863833,-0.30200264,0.10231777,-0.03544071,-0.032773335,-0.095768064,0.1340753,-9.346964,0.8806493,47.65643,-0.80272555,-1.7481791,-3.707708,-0.19930308,-0.1702835,-0.3384537,22.25,21.875,21.75,22.0625,21.75,21.9375
0.24755237,0.27386838,0.55792266,-0.39655182,0.0141406385,0.029125998,-0.04501894,-0.39597476,-0.35165086,0.08489796,-3.072107,0.6286935,-0.00010781584,-0.11767103,-0.015053025,0.0009157839,0.04575548,-0.018896846,-0.025578132,0.4723062,-1.393667,1.9182004,-2.0901554,-1.5751609,2.4504957,-0.05985039,0.24316724,-0.31011635,0.10455973,-0.032705337,-0.033943675,-0.15322891,0.095768064,-9.442732,0.9097417,47.653748,-0.73830223,-1.8466935,-3.6865256,-0.27468953,-0.20413217,-0.33655924,22.25,21.875,21.75,22.0625,21.75,21.9375
0.2500523,-0.27548492,-0.11284984,-0.4606631,0.0010164451,0.026184278,-0.037429348,-0.39622322,-0.35167295,0.08492071,-3.0719879,0.6287448,-4.7695434e-05,-0.12054123,-0.015744891,0.0018073855,0.04443931,-0.015654324,-0.025992792,0.47218594,-1.39321,1.9175657,-2.0899413,-1.5752691,2.4504235,-0.060968366,0.2460959,-0.3154263,0.10344511,-0.03303053,-0.034641426,-0.05746084,-0.038307227,-9.461885,0.9455522,47.64837,-0.6520324,-1.754601,-3.5225463,-0.29823363,-0.20738098,-0.30997536,22.25,21.875,21.75,22.0625,21.75,21.9375
0.25255257,0.38634896,-0.03881547,-0.3161949,-0.028454982,0.064265005,-0.048035905,-0.39646703,-0.35169595,0.084910944,-3.0718794,0.6287977,-0.00014817936,-0.12254295,-0.016133187,0.00141546,0.043549597,-0.013607128,-0.025670113,0.47202954,-1.3926924,1.916931,-2.0897148,-1.5753053,2.4503148,-0.061923094,0.24935654,-0.3177507,0.10026939,-0.033195477,-0.035912685,-0.17238252,0.11492168,-9.442732,0.8717007,47.651955,-0.6088656,-1.9004328,-3.430253,-0.26740724,-0.21248016,-0.27728727,22.25,21.875,21.75,22.0625,21.75,21.9375
0.25505272,-0.35517928,-0.8929892,-0.53055924,-0.03019741,0.05452355,-0.04290503,-0.39669818,-0.35174242,0.08491551,-3.0717618,0.62890625,-0.00015438994,-0.12359064,-0.016559996,0.00015697123,0.043466326,-0.012578511,-0.024710044,0.47194573,-1.3921986,1.9162968,-2.089513,-1.5753769,2.4503145,-0.06183207,0.25286913,-0.318197,0.09624126,-0.03360759,-0.036776476,-0.11492168,0.24899697,-9.557653,0.90527004,47.64837,-0.612342,-1.9511354,-3.449153,-0.23738603,-0.20648526,-0.25236523,22.25,21.875,21.75,22.0625,21.75,21.9375
0.25755188,-0.56735873,-1.8224534,-0.12382262,-0.08724698,0.0975492,-0.05771076,-0.3972062,-0.3517955,0.08492188,-3.0715468,0.62901336,-0.00017095543,-0.12643325,-0.017203325,-0.0006246,0.041166585,-0.008857278,-0.025210457,0.47166932,-1.3911883,1.9150075,-2.0891082,-1.5755209,2.450134,-0.06331582,0.25719032,-0.32020766,0.08955058,-0.033286963,-0.037755508,-0.17238252,0.34476504,-9.576807,0.88960326,47.66808,-0.6487712,-1.9612699,-3.7447114,-0.1590943,-0.21085589,-0.22165705,22.25,21.875,21.75,22.0625,21.75,21.9375
0.26005188,-1.3632463,-2.3948061,-0.3984161,-0.06853494,0.06167079,-0.039043438,-0.39747015,-0.35181838,0.084928446,-3.0714314,0.6290461,-0.00011174033,-0.12768272,-0.017868476,0.00061928557,0.03900102,-0.0047106915,-0.024662705,0.4715372,-1.3906838,1.9143609,-2.0889294,-1.5756291,2.450038,-0.06323196,0.2562385,-0.32149717,0.08710336,-0.03325667,-0.03821792,-0.17238252,0.40222588,-9.653421,0.9410752,47.677036,-0.5282633,-1.878552,-3.7975726,-0.1209798,-0.22619672,-0.20534292,22.25,21.875,21.75,22.0625,21.75,21.9375
0.26255202,-0.37159398,-1.8531411,-0.13702926,-0.06412306,0.06607064,-0.046522573,-0.397713,-0.35187784,0.08493071,-3.071362,0.62902945,-7.41058e-05,-0.12906052,-0.01985675,0.001586928,0.037191555,-0.00126358,-0.022278039,0.4714661,-1.390167,1.9137148,-2.0887744,-1.5757011,2.449966,-0.060988642,0.25820658,-0.32578078,0.08552015,-0.033226423,-0.038356528,-0.2681506,0.47884035,-9.481039,0.8560339,47.664497,-0.7236429,-1.7118334,-3.7894406,-0.06630062,-0.2427887,-0.16205627,22.25,21.875,21.75,22.0625,21.75,21.9375
0.26505202,-0.37738994,-0.83264434,-0.3507788,-0.03691978,0.033823356,-0.042977076,-0.39797613,-0.35190743,0.08492297,-3.0713174,0.62911534,-6.923696e-05,-0.1317285,-0.020272365,0.0035094947,0.0360715,0.0038517728,-0.02257935,0.47129774,-1.3896624,1.9131159,-2.0886667,-1.5757254,2.4498575,-0.06178782,0.25843772,-0.33040395,0.08484202,-0.034568343,-0.038844645,-0.1340753,0.51714754,-9.5385,0.947788,47.653748,-0.7102761,-1.7238334,-3.721558,-0.017509831,-0.23135841,-0.1715582,22.25,21.875,21.75,22.0625,21.75,21.9375
0.267552,0.6963988,-0.17678115,-0.3615907,-0.019779062,0.028901683,-0.045472503,-0.39855164,-0.35199812,0.084967315,-3.0711803,0.6293165,0.00012957088,-0.13301568,-0.022000028,0.004818678,0.034212768,0.0054002805,-0.022931295,0.47103435,-1.3886168,1.9117168,-2.0883543,-1.5758809,2.4497385,-0.06036901,0.260176,-0.33605972,0.08652698,-0.03361788,-0.03707865,-0.30645782,0.47884035,-9.404425,0.95897776,47.679718,-0.7204727,-1.5425212,-3.6133018,0.058042683,-0.23851949,-0.11217692,22.25,21.875,21.75,22.0625,21.75,21.9375
0.27005205,0.44180307,-0.4021758,-0.3627817,-0.040688697,0.04420071,-0.04722786,-0.39876184,-0.35203427,0.08493675,-3.0710442,0.6292693,-3.4595974e-05,-0.13299449,-0.022230143,0.004999248,0.03446854,0.0023828556,-0.024573464,0.47093818,-1.3880761,1.9110945,-2.088102,-1.5759286,2.4496312,-0.060571704,0.26151955,-0.33922333,0.09115053,-0.032474205,-0.035639264,-0.2681506,0.45968673,-9.461885,0.9679317,47.688675,-0.85521245,-1.4313614,-3.5994678,0.026271973,-0.26379126,-0.1199518,22.25,21.875,21.75,22.0625,21.75,21.9375
0.2725522,-0.590226,-1.4472637,-0.48331094,-0.027723277,0.0380096,-0.038677625,-0.399069,-0.35209084,0.08497739,-3.070997,0.6293926,0.00010112389,-0.13315614,-0.021516621,0.0032582933,0.037769247,-0.0028226709,-0.025583968,0.4708059,-1.387546,1.9103407,-2.0879328,-1.576001,2.4495826,-0.061548267,0.26622492,-0.3418069,0.0951607,-0.03305059,-0.035602763,-0.076614454,0.38307226,-9.500193,0.9455522,47.6636,-0.7581415,-1.489906,-3.6371017,0.025406616,-0.2808826,-0.12395324,22.25,21.875,21.75,22.0625,21.75,21.9375
0.27505228,0.6260212,-0.6326792,-0.18067996,-0.05351899,0.074636675,-0.055561103,-0.39933124,-0.3521387,0.08498477,-3.0708885,0.62946516,9.869138e-05,-0.1304669,-0.02069504,0.0001817791,0.04432985,-0.015398134,-0.024627566,0.47069824,-1.3870033,1.9096364,-2.087713,-1.576073,2.449535,-0.060464464,0.27180618,-0.3438797,0.10583064,-0.033178017,-0.035472523,-0.019153614,0.34476504,-9.519346,0.99031126,47.685097,-0.8463119,-1.7383717,-3.5797791,-0.06606994,-0.28954715,-0.13782933,22.25,21.875,21.75,22.0625,21.75,21.9375
0.27755237,0.38845426,0.18544194,-0.057644032,-0.011192661,0.024263399,-0.04607759,-0.3998856,-0.35221115,0.084997006,-3.0706987,0.6296379,0.00012678959,-0.13009742,-0.019711731,-0.000551124,0.048853863,-0.02144637,-0.028823271,0.47041005,-1.3859205,1.9082478,-2.0873277,-1.5762056,2.4493804,-0.0609684,0.2747662,-0.34785572,0.11429963,-0.03445499,-0.031770073,-0.019153614,0.24899697,-9.308656,0.87393653,47.65643,-0.79746175,-1.8900797,-3.7343698,-0.16710246,-0.31150725,-0.100680515,22.25,21.875,21.75,22.0625,21.75,21.9375
0.2800524,1.0919685,0.87937456,0.056492805,0.007900389,0.011224256,-0.057654686,-0.40014765,-0.35227072,0.08501638,-3.0706298,0.62971884,0.00011256428,-0.13120781,-0.0203487,0.00010778964,0.048117306,-0.021191696,-0.030199133,0.4703021,-1.3853921,1.9075302,-2.0870998,-1.5762414,2.4493325,-0.06110601,0.2763505,-0.35175097,0.11604997,-0.03391857,-0.03053219,0.24899697,0.17238252,-9.251195,0.9768804,47.694054,-0.86116284,-1.8159122,-3.669531,-0.21228376,-0.3334938,-0.1362723,22.25,21.875,21.75,22.0625,21.75,21.9375
0.28255266,1.7919834,1.0240095,-0.17203465,0.013065068,-0.0074321507,-0.053313646,-0.4004525,-0.3522977,0.08503177,-3.0704727,0.62976176,0.00021502082,-0.13235733,-0.020816244,0.00046040758,0.047978576,-0.021879718,-0.029803505,0.47016993,-1.384815,1.9067644,-2.0868719,-1.5763973,2.4492483,-0.06149493,0.2787326,-0.35605824,0.11851051,-0.033496898,-0.03131634,0.26815057,0.11492168,-9.193734,0.9186956,47.689575,-0.90472174,-1.7960334,-3.5274124,-0.22292686,-0.36017424,-0.14521341,22.25,21.875,21.75,22.0625,21.75,21.9375
0.2850518,1.3751996,0.67181414,0.12855604,0.0040904065,-0.02123644,-0.037897427,-0.4007063,-0.35234576,0.08502495,-3.0703728,0.6298558,0.00014722443,-0.13549814,-0.021829788,0.0018978721,0.04615875,-0.015723525,-0.030991962,0.4700499,-1.3842616,1.9060796,-2.0866578,-1.5764335,2.4492006,-0.06177045,0.28056395,-0.36088955,0.11520231,-0.034684528,-0.030391173,0.11492168,0.15322891,-9.078813,0.9164598,47.661808,-0.9284465,-1.6871142,-3.476471,-0.21410893,-0.35161185,-0.14399238,22.25,21.875,21.8125,22.0625,21.75,21.9375
0.2875518,0.6532796,-0.891013,-0.11719047,-0.04261942,0.023520416,-0.04992556,-0.40122312,-0.35244027,0.085029446,-3.0701246,0.62997514,4.3957585e-05,-0.13768528,-0.022555841,0.00193502,0.046389893,-0.011412712,-0.031240039,0.4698342,-1.3831428,1.9046348,-2.0861442,-1.5765666,2.449093,-0.06107214,0.28362092,-0.36403543,0.11155453,-0.036866616,-0.029423324,0.11492168,0.2681506,-9.346964,0.9612189,47.6636,-0.9447457,-1.6894943,-3.4485164,-0.18552762,-0.35760385,-0.14615402,22.25,21.875,21.8125,22.0625,21.75,21.9375
0.29005185,-0.90277624,-2.0985947,0.251782,-0.07669042,0.03448661,-0.039506376,-0.40149468,-0.35247985,0.08502775,-3.069999,0.6299876,7.378355e-05,-0.1404346,-0.023020482,0.0035602304,0.043571927,-0.0063324124,-0.03363216,0.46972564,-1.3825787,1.9039277,-2.085941,-1.5766743,2.4490094,-0.06274533,0.2837933,-0.36753422,0.10907188,-0.036668655,-0.02870199,0.076614454,0.2681506,-9.212888,0.9164598,47.651955,-0.9894047,-1.6761929,-3.5084925,-0.15266436,-0.3623001,-0.18298382,22.25,21.875,21.8125,22.0625,21.75,21.9375
0.29255205,-0.54442775,-1.9066986,0.09778917,-0.08528812,0.06494706,-0.04301829,-0.40175417,-0.3525136,0.085003614,-3.069858,0.63009214,-9.91723e-05,-0.14114802,-0.023149488,0.002169359,0.04372734,-0.0062666144,-0.03537116,0.4695695,-1.3819776,1.9032115,-2.0856674,-1.5766987,2.4489377,-0.06298052,0.2869253,-0.36751214,0.10593291,-0.036845576,-0.02719073,-0.05746084,0.47884035,-9.32781,0.96569055,47.63852,-0.9163929,-1.5261271,-3.56072,-0.110801265,-0.37359053,-0.1790146,22.25,21.875,21.8125,22.0625,21.75,21.9375
0.29505214,-1.0038915,-1.6099929,0.16252291,-0.065435596,0.06276669,-0.04362722,-0.40206295,-0.35256994,0.085030414,-3.06978,0.63020873,3.3570483e-05,-0.14173998,-0.024326734,0.004008393,0.04247532,-0.0012178278,-0.033922527,0.4694504,-1.3814131,1.9024462,-2.0855,-1.5767945,2.4489021,-0.06073273,0.28489217,-0.3691264,0.10451365,-0.038018197,-0.02638521,-0.19153613,0.57460845,-9.32781,0.9925471,47.645687,-1.0901804,-1.5696793,-3.7170162,-0.075337455,-0.3975578,-0.1881035,22.25,21.875,21.8125,22.0625,21.75,21.9375
0.29755202,-0.28576759,0.04527106,0.08052999,-0.024855565,0.055634145,-0.052029032,-0.40262493,-0.35268298,0.08504988,-3.0696177,0.6303654,7.927521e-05,-0.14494626,-0.023293385,0.0016177743,0.045463786,-0.0033166567,-0.036014173,0.4692213,-1.3802813,1.9009756,-2.0851052,-1.5769156,2.4487932,-0.06419265,0.29365402,-0.37421888,0.104053915,-0.039759718,-0.02773746,-0.19153613,0.51714754,-9.404425,0.9410752,47.62688,-1.0282094,-1.454833,-3.6753364,-0.0024468726,-0.40692335,-0.2215828,22.25,21.875,21.8125,22.0625,21.75,21.9375
0.30005193,0.0517014,0.23252237,0.20694888,-0.024048327,0.06738162,-0.05617936,-0.4029295,-0.35273603,0.08505091,-3.0695066,0.63039774,0.00017605591,-0.14509036,-0.02495516,0.00085398497,0.047044747,-0.0025499475,-0.032619063,0.46911463,-1.3796673,1.9002098,-2.0849383,-1.5770358,2.448722,-0.060387712,0.29756805,-0.377023,0.1029766,-0.041526124,-0.02731423,-0.36391866,0.51714754,-9.270349,0.97464454,47.627773,-1.1509373,-1.6272388,-3.7333617,0.02734426,-0.40282136,-0.23060839,22.25,21.875,21.8125,22.0625,21.75,21.9375
0.30255225,-0.71393466,-0.13378729,0.30208358,-0.021089638,0.0638035,-0.044730853,-0.40320426,-0.35278574,0.0850506,-3.0693736,0.63054186,0.00012514228,-0.1461357,-0.024211835,-0.0003151913,0.050018746,-0.004729293,-0.033931114,0.4689941,-1.3790778,1.8994564,-2.084686,-1.5770963,2.4487095,-0.061552584,0.30166334,-0.37979695,0.104944155,-0.0432,-0.027151326,-0.4213795,0.38307226,-9.270349,0.89631605,47.64658,-1.2455674,-1.7831317,-3.695725,0.04464648,-0.3869998,-0.22958134,22.25,21.875,21.8125,22.0625,21.75,21.9375
0.3050522,-0.6553379,-0.28152534,0.18899311,-0.031634726,0.06949868,-0.04712562,-0.4034887,-0.35284725,0.08504425,-3.0692651,0.63059545,8.6794455e-05,-0.1472706,-0.023483532,0.0006069233,0.05251919,-0.005601045,-0.035068747,0.46888572,-1.3784527,1.8986791,-2.0844557,-1.5771574,2.4486494,-0.062673725,0.3026427,-0.38447908,0.11055527,-0.045038767,-0.027118301,-0.2873042,0.3256114,-9.308656,0.9567419,47.64658,-1.1502786,-1.733787,-3.6451888,0.041194748,-0.3909895,-0.24971616,22.25,21.875,21.8125,22.0625,21.75,21.9375
0.30755222,-0.53787583,-0.65695906,0.4520192,-0.022427578,0.0584684,-0.04359295,-0.40408075,-0.35292628,0.0850264,-3.0689597,0.6307787,7.879089e-05,-0.14640576,-0.021287141,0.00051090366,0.061251022,-0.013712862,-0.0344821,0.46862173,-1.3772025,1.8971361,-2.083996,-1.5773629,2.4485414,-0.06317599,0.3046218,-0.3902833,0.12555245,-0.049161043,-0.028171625,-0.47884035,0.2681506,-9.11712,0.9679317,47.682407,-1.2377812,-1.6629333,-3.6435585,-0.10765065,-0.34176627,-0.26311833,22.25,21.875,21.8125,22.0625,21.75,21.9375
0.3100522,-0.23204216,0.8386389,0.66497463,-0.014391198,0.046190046,-0.056323487,-0.40439725,-0.352977,0.08503639,-3.0688515,0.6308316,0.00019003179,-0.1470397,-0.020480027,-0.00020262528,0.06468586,-0.015115093,-0.03455143,0.4685016,-1.3765892,1.896346,-2.0838158,-1.5774835,2.4484692,-0.063642725,0.30724412,-0.3924463,0.12789248,-0.051598866,-0.028551782,-0.34476504,0.15322891,-8.983045,0.9321212,47.657326,-1.2831912,-1.6510737,-3.616596,-0.13759983,-0.29730886,-0.27446395,22.25,21.875,21.8125,22.0625,21.75,21.9375
0.31255236,0.42267132,0.9547006,0.7816065,0.020003133,0.047275897,-0.046819724,-0.4047025,-0.35302705,0.08503732,-3.0687158,0.6309362,0.00017667482,-0.14781503,-0.020249441,0.0010335812,0.065181926,-0.016071703,-0.035145614,0.4683691,-1.3759525,1.895532,-2.0835626,-1.5775675,2.4484205,-0.06463317,0.30723378,-0.39659625,0.13311858,-0.05161651,-0.028943263,-0.36391866,0.095768064,-8.810662,0.95226496,47.675243,-1.212843,-1.5679717,-3.705957,-0.20221227,-0.29294503,-0.29531118,22.25,21.875,21.8125,22.0625,21.75,21.9375
0.31505248,0.5759609,1.6840054,0.85814136,0.02460431,0.03170281,-0.05610641,-0.4049941,-0.3530679,0.08504435,-3.068546,0.6310149,0.00021024283,-0.14784943,-0.019576237,-0.00020060265,0.06736619,-0.018382236,-0.03516621,0.46826088,-1.3753513,1.8947438,-2.083299,-1.5777,2.4483845,-0.06522822,0.30956736,-0.39694592,0.13417244,-0.05253124,-0.029507454,-0.28730422,-0.05746084,-8.810662,0.9612189,47.647476,-1.1767478,-1.5241578,-3.6253593,-0.20901826,-0.28588492,-0.31124532,22.25,21.875,21.8125,22.0625,21.75,21.9375
0.3175525,0.18098561,1.5198812,1.0034293,0.008701639,0.0485425,-0.05652917,-0.40558532,-0.35313344,0.08501282,-3.0681515,0.6311413,9.768658e-05,-0.15384494,-0.02003888,0.0008533058,0.067722395,-0.009325417,-0.036439687,0.4679964,-1.3740401,1.8931283,-2.0827143,-1.5779413,2.4482527,-0.06695659,0.3155273,-0.40559927,0.12893626,-0.056989145,-0.02991173,-0.21068975,-0.05746084,-8.868123,0.9455522,47.664497,-1.1449342,-1.626379,-3.478404,-0.19727147,-0.2133252,-0.313343,22.25,21.875,21.8125,22.0625,21.75,21.9375
0.32005247,-0.11498164,0.55515754,0.9105312,-0.0066025653,0.069597006,-0.056568556,-0.40590513,-0.35318378,0.08500182,-3.068022,0.63122874,8.7719716e-05,-0.15704979,-0.021518249,0.0015455569,0.06345208,-0.003903762,-0.037029266,0.46785203,-1.373366,1.8923019,-2.0824897,-1.5780247,2.4481807,-0.06790146,0.31840384,-0.40951455,0.12319206,-0.05565462,-0.03027052,-0.21068975,-0.11492168,-8.868123,0.9321212,47.678825,-1.1023906,-1.6831622,-3.4454854,-0.111231536,-0.19295795,-0.34228936,22.25,21.875,21.8125,22.0625,21.75,21.9375
0.32255226,-0.93964565,-0.47596958,0.6373744,-0.0030888873,0.06232726,-0.039511822,-0.40619004,-0.35321817,0.08498146,-3.067831,0.63124377,2.3917244e-05,-0.15994291,-0.022893185,0.0031815644,0.060538545,0.0024651666,-0.036966626,0.46773216,-1.3727174,1.8915132,-2.0822036,-1.5781454,2.4480963,-0.06782676,0.3195938,-0.41401854,0.119498715,-0.05595229,-0.030246321,-0.15322891,-0.076614454,-8.925584,0.9254084,47.666286,-1.1400322,-1.7199221,-3.4104474,-0.08090837,-0.17379467,-0.35784975,22.25,21.875,21.8125,22.0625,21.75,21.9375
0.32505226,-1.1000043,-0.16724545,0.32106477,-0.018775364,0.061562993,-0.041206654,-0.40651804,-0.35324287,0.08497551,-3.0676467,0.63149375,3.3188215e-05,-0.16173896,-0.021858735,0.0017489835,0.06101748,0.0013068133,-0.04023775,0.46755093,-1.3720673,1.8907002,-2.0819647,-1.5782527,2.4480963,-0.07110826,0.32349157,-0.41526234,0.118081085,-0.055870775,-0.030252287,-0.4405331,0.095768064,-9.11712,0.8873621,47.657326,-0.97589684,-1.77071,-3.4716895,-0.019779257,-0.1552059,-0.34134907,22.25,21.875,21.8125,22.0625,21.75,21.9375
0.32755232,-0.8699532,-1.4668777,-0.12806009,-0.034158435,0.06386198,-0.04335066,-0.4071265,-0.35332954,0.08494553,-3.0673077,0.63159156,-7.945119e-05,-0.15948391,-0.0221037,-0.001821967,0.062329825,-0.007142252,-0.038994245,0.46728748,-1.3707211,1.8890399,-2.081401,-1.5784563,2.4479403,-0.070091136,0.32825515,-0.41356727,0.11972488,-0.053244993,-0.03048599,-0.47884035,0.28730422,-9.32781,1.0373062,47.65643,-1.1059043,-1.7422817,-3.9241948,0.0018963793,-0.13253044,-0.3954969,22.25,21.875,21.8125,22.0625,21.75,21.9375
0.33005244,-0.5871583,-1.6351217,-0.6273088,-0.04913716,0.05595012,-0.046299882,-0.4074542,-0.35336265,0.08494877,-3.0671527,0.6316755,9.867445e-06,-0.16140006,-0.020968609,-0.0006566748,0.060227785,-0.006957716,-0.043731306,0.4671418,-1.3700844,1.8882259,-2.081185,-1.5785993,2.4478683,-0.07462412,0.32749757,-0.41597015,0.12175694,-0.05145679,-0.030293517,-0.57460845,0.36391866,-9.423578,1.0126908,47.6636,-0.9114435,-1.8286586,-4.015024,0.012845107,-0.15095353,-0.40852654,22.25,21.875,21.8125,22.0625,21.75,21.9375
0.33255264,-0.8546496,-2.0754452,-0.65455,-0.05773234,0.045937356,-0.037701905,-0.40777284,-0.35340443,0.0849429,-3.066958,0.6318225,-4.0952098e-05,-0.16047281,-0.022277333,-0.00039169984,0.060429357,-0.010358936,-0.041086845,0.46699876,-1.3693993,1.8873528,-2.0808718,-1.5787071,2.4478438,-0.07228098,0.32892635,-0.41969046,0.12715842,-0.050111596,-0.030598277,-0.47884035,0.51714754,-9.557653,0.9634547,47.664497,-0.9182037,-1.7764382,-3.9195628,-0.010142201,-0.16171995,-0.40691018,22.25,21.875,21.8125,22.0625,21.75,21.9375
0.33505288,-0.5904604,-1.9692328,-0.8222639,-0.05954719,0.04840786,-0.041941337,-0.40807435,-0.35344172,0.08491306,-3.0668051,0.63190556,-0.00012949777,-0.1614961,-0.022128962,-0.00012730702,0.06103471,-0.014751159,-0.042920846,0.46684197,-1.3687257,1.8865632,-2.0806296,-1.5787781,2.4477599,-0.07415364,0.3320504,-0.42583692,0.13436006,-0.04868188,-0.030640252,-0.51714754,0.5363012,-9.730036,1.0015011,47.655537,-0.95195377,-1.6972766,-3.7972033,-0.10043672,-0.17807788,-0.4371065,22.25,21.875,21.8125,22.0625,21.75,21.9375
0.33755198,-0.08172253,-1.6015421,-0.94495714,-0.028253138,0.040776253,-0.03985041,-0.40875748,-0.35352132,0.08493858,-3.0664885,0.6321646,-7.688308e-05,-0.16054213,-0.020219859,-0.0028059916,0.06469049,-0.0282087,-0.046341065,0.4665169,-1.3673903,1.8847822,-2.0800512,-1.5790051,2.4476402,-0.07799165,0.33767167,-0.42944163,0.14597106,-0.045895044,-0.031073837,-0.26815057,0.4405331,-9.749189,0.9768804,47.678825,-0.67191994,-1.9334843,-3.8834558,-0.24563988,-0.21168071,-0.4655396,22.25,21.875,21.8125,22.0625,21.75,21.9375
0.34005344,-0.14604048,-0.7746041,-0.76949245,-0.03576314,0.03563436,-0.045273915,-0.409048,-0.3535657,0.08490534,-3.0663075,0.6321432,-0.0001976624,-0.1603089,-0.019940088,-0.004940605,0.06624099,-0.033588704,-0.045960564,0.46639663,-1.3666922,1.8839573,-2.0797517,-1.5791014,2.4475315,-0.07877463,0.34218183,-0.43067315,0.14817315,-0.044878162,-0.032237392,-0.40222588,0.34476504,-9.710882,0.9768804,47.6421,-0.68778944,-2.063772,-3.8870583,-0.2873814,-0.21925247,-0.45678416,22.25,21.875,21.8125,22.0625,21.75,21.9375
0.3425527,-0.33407152,-1.1082405,-0.83270895,-0.029797575,0.043485906,-0.040652774,-0.40937948,-0.35360804,0.08489448,-3.0661361,0.63233536,-0.000308803,-0.16282152,-0.02138791,-0.005411727,0.06320207,-0.030153606,-0.045693643,0.46621653,-1.3659816,1.8830608,-2.0794308,-1.5791606,2.447495,-0.07902704,0.3465336,-0.4337555,0.14245084,-0.04374667,-0.032758463,-0.17238252,0.24899697,-9.615114,0.98135734,47.64121,-0.54792017,-2.1789181,-4.0327234,-0.28589505,-0.23133002,-0.4889156,22.25,21.875,21.8125,22.0625,21.75,21.9375
0.34505263,-0.4005255,-1.2144294,-0.50973725,-0.037573803,0.05393519,-0.041076865,-0.40973,-0.35366166,0.08490255,-3.0660117,0.632423,-0.00027832654,-0.16517884,-0.022419088,-0.0039833775,0.059000716,-0.024301527,-0.045639686,0.46606037,-1.3652854,1.8821515,-2.079169,-1.5792564,2.4474108,-0.0798295,0.3462965,-0.4358913,0.13768668,-0.042655323,-0.033621453,-0.05746084,0.05746084,-9.615114,0.9634547,47.666286,-0.59602785,-2.101719,-3.9183106,-0.25417495,-0.2569002,-0.4952129,22.25,21.875,21.8125,22.0625,21.75,21.9375
0.34755263,0.19106166,-0.23967357,-0.45640746,-0.027174227,0.050897487,-0.049795713,-0.41041568,-0.35375208,0.08488674,-3.065737,0.6326868,-0.00032393006,-0.17313725,-0.027248243,0.0015637527,0.047572814,-0.0034066194,-0.04080232,0.46571258,-1.3638796,1.880391,-2.0786593,-1.5794119,2.4472659,-0.07867855,0.3471778,-0.44701037,0.12406861,-0.041932296,-0.037303545,0.0,0.095768064,-9.461885,0.95897776,47.64121,-0.6227329,-1.9713145,-3.7063923,-0.05968854,-0.29841286,-0.46687937,22.25,21.875,21.8125,22.0625,21.75,21.9375
0.35005257,0.007863695,-0.124323025,-0.8254861,-0.0042989566,0.037218835,-0.04842433,-0.41077662,-0.35380957,0.08490727,-3.0656064,0.632848,-0.00021484144,-0.17446923,-0.027571013,0.0025660712,0.04638273,-0.0017560072,-0.040206116,0.46556848,-1.3631948,1.8794707,-2.0784194,-1.579532,2.4472406,-0.07935132,0.34753585,-0.4500925,0.12476085,-0.041627847,-0.038574435,-0.17238252,0.15322891,-9.672575,1.0149267,47.63673,-0.6405934,-1.8471713,-3.7209597,-0.025351685,-0.3222968,-0.45779365,22.25,21.875,21.8125,22.0625,21.75,21.9375
0.35255265,0.35643724,0.22857577,-0.9887045,-0.015102226,0.040799297,-0.052030135,-0.4110975,-0.35384598,0.08490025,-3.0654821,0.63291603,-0.0002814191,-0.17332092,-0.02813444,0.0010722146,0.04831539,-0.0046438943,-0.037752334,0.46538928,-1.3625338,1.8786329,-2.0781434,-1.5795926,2.4471211,-0.077065215,0.35011953,-0.45020574,0.12572913,-0.042066094,-0.03873429,-0.019153614,0.11492168,-9.730036,1.0261165,47.635834,-0.7059233,-1.7848011,-3.7666302,0.04009235,-0.35660347,-0.45379674,22.25,21.875,21.8125,22.0625,21.75,21.9375
0.35505182,0.40607318,-0.19323574,-0.83486086,-0.0271265,0.048622746,-0.05081001,-0.41146094,-0.3539191,0.08491878,-3.0653656,0.6329652,-0.00019141198,-0.17266902,-0.028238041,8.142424e-05,0.04934159,-0.0077308626,-0.035624094,0.46526957,-1.3618124,1.8776668,-2.0778797,-1.5797123,2.4470484,-0.07650345,0.35197645,-0.45084298,0.12770341,-0.041610282,-0.04030422,-0.038307227,0.15322891,-9.844957,0.97240865,47.657326,-0.813372,-1.9126763,-3.94206,0.008654808,-0.3700229,-0.4508841,22.25,21.875,21.8125,22.0625,21.75,21.9375
0.35755187,0.35465372,-0.45727125,-1.0871532,-0.046440657,0.052639686,-0.062127966,-0.4121593,-0.35402843,0.0849304,-3.0651355,0.63315994,-0.00017617668,-0.17299558,-0.027743096,-0.0022080399,0.054929312,-0.015794398,-0.030613666,0.46494558,-1.360417,1.8758477,-2.07735,-1.5798687,2.4468782,-0.076621525,0.35988405,-0.4574042,0.13600919,-0.043035876,-0.045413967,0.05746084,0.24899697,-9.864111,1.0283576,47.668976,-0.74322176,-2.111628,-4.0275497,0.033279818,-0.39652225,-0.38605928,22.25,21.875,21.8125,22.0625,21.75,21.9375
0.360052,-0.23913117,-1.5258478,-0.9392387,-0.035361536,0.035576146,-0.039406054,-0.4125161,-0.35409623,0.084945455,-3.0650592,0.633181,-0.00017025437,-0.17301199,-0.026692217,-0.0021172233,0.058607787,-0.020598121,-0.029412895,0.46478933,-1.3597089,1.8749007,-2.0770714,-1.5799288,2.4467459,-0.077665724,0.36157542,-0.46177578,0.14460683,-0.04418488,-0.04764635,-0.11492168,0.30645782,-9.883265,1.0305934,47.678825,-0.8360347,-2.0619195,-3.8587637,-0.037921853,-0.40936238,-0.33722657,22.25,21.875,21.8125,22.0625,21.75,21.9375
0.36255223,-0.20504265,-0.76442176,-0.7564999,-0.033959948,0.024870357,-0.03717418,-0.4128311,-0.3541408,0.08493811,-3.0648756,0.6332756,-0.00021855,-0.17276731,-0.025760809,-0.0015631724,0.062335223,-0.024715398,-0.030890808,0.46465713,-1.3590252,1.8740262,-2.0767572,-1.5800375,2.4466982,-0.07811067,0.36219516,-0.46597803,0.15354486,-0.045664378,-0.04659397,-0.19153613,0.3256114,-9.634268,1.0395473,47.685097,-0.7893895,-2.0815475,-3.8962226,-0.12353588,-0.40405118,-0.32526636,22.25,21.875,21.8125,22.0625,21.75,21.9375
0.36505234,1.2862458,0.043774124,-1.0100447,-0.013818412,0.021423602,-0.05078909,-0.41317517,-0.35417986,0.08492165,-3.0647147,0.6333536,-0.0002925534,-0.17179619,-0.025378935,-0.0015004992,0.0650442,-0.028686762,-0.029305825,0.46447733,-1.3582933,1.8731164,-2.0764554,-1.5801219,2.4465895,-0.0774574,0.3625343,-0.4682417,0.1602154,-0.04631865,-0.04751419,0.05746084,0.40222588,-9.691729,1.0328293,47.65643,-0.8460504,-1.9237489,-3.9483442,-0.21555535,-0.42220888,-0.32895187,22.25,21.875,21.8125,22.0625,21.75,21.9375
0.36755273,0.67615145,-0.5031248,-0.36136425,-0.035086975,0.01503257,-0.04785678,-0.4139087,-0.3542856,0.08496644,-3.0644414,0.63348424,-0.0002362811,-0.17474805,-0.025831984,0.0010830034,0.063896425,-0.021736028,-0.02713047,0.46415323,-1.3568677,1.8711528,-2.0757978,-1.5803384,2.4463851,-0.07779257,0.36179805,-0.4735116,0.1594516,-0.048460327,-0.049998812,0.05746084,0.3256114,-9.519346,1.0731167,47.70032,-0.85923207,-1.610518,-3.9139085,-0.29035917,-0.4484709,-0.2398286,22.25,21.875,21.8125,22.0625,21.75,21.9375
0.37005183,0.5521425,-0.8371735,-0.61785746,-0.039344843,0.033142377,-0.046796907,-0.41422072,-0.3543371,0.084940165,-3.0642686,0.6335415,-0.00039846657,-0.17845613,-0.026468,0.0012731735,0.06458276,-0.014437663,-0.02750727,0.46400926,-1.356135,1.8702534,-2.075453,-1.5803999,2.446301,-0.07757103,0.36605212,-0.47794655,0.15342379,-0.052375335,-0.04935281,0.0,0.2681506,-9.519346,1.0305934,47.692257,-0.86502326,-1.7116845,-3.9130642,-0.24215835,-0.4370814,-0.22220117,22.25,21.875,21.8125,22.0625,21.75,21.9375
0.37255234,-0.53448987,-1.1613032,-0.33497855,-0.053109214,0.06194472,-0.04776026,-0.41457182,-0.3543953,0.084967,-3.0641403,0.63355184,-0.0003435164,-0.18141665,-0.027134413,0.0013931368,0.063700594,-0.008159216,-0.02824504,0.46387732,-1.3554502,1.869296,-2.0751321,-1.580521,2.4461935,-0.07771648,0.3690013,-0.48058027,0.14709954,-0.05441931,-0.048737336,0.1340753,0.1340753,-9.557653,1.0775883,47.67345,-0.89777666,-1.7641037,-3.7941763,-0.1474829,-0.40466583,-0.18717565,22.25,21.875,21.8125,22.0625,21.75,21.9375
0.3750523,-0.8131538,-1.1834899,-0.103837684,-0.053091303,0.077764235,-0.045020908,-0.41497022,-0.35444626,0.084978424,-3.064024,0.6336402,-0.00026997775,-0.18458912,-0.028657615,0.0021459628,0.06041935,-0.0015970677,-0.028993214,0.4636854,-1.354694,1.8683003,-2.0748713,-1.5806283,2.446073,-0.0777111,0.37174404,-0.48448363,0.14091557,-0.05444449,-0.047980826,0.114921674,0.11492168,-9.557653,1.0574499,47.65464,-0.94572407,-1.7999017,-3.7908354,-0.054834113,-0.4115854,-0.18112898,22.25,21.875,21.8125,22.0625,21.75,21.9375
0.3775525,-0.73165935,0.04785297,-0.04396275,-0.016484417,0.05797584,-0.050581362,-0.415698,-0.35457996,0.08501144,-3.0638208,0.63371146,-0.00012657548,-0.1871058,-0.028135283,0.002665576,0.06489812,0.0026271462,-0.031400457,0.46340963,-1.3532668,1.8663858,-2.0743434,-1.5808347,2.4458704,-0.07720852,0.3746084,-0.48968762,0.1415058,-0.060335528,-0.045011144,-0.13407528,0.30645782,-9.385271,1.0104496,47.681515,-1.0487607,-1.7671807,-3.844509,0.02402347,-0.3741141,-0.16795361,22.25,21.875,21.8125,22.0625,21.75,21.9375
0.3800526,0.07350977,0.4566371,-0.20425881,-0.0039764903,0.05065265,-0.05225553,-0.41605014,-0.35461217,0.08500186,-3.0636148,0.6337618,-0.00011624044,-0.18702304,-0.027639465,0.0018031814,0.06861532,0.0010448124,-0.032246623,0.46325395,-1.3525338,1.8654536,-2.0740316,-1.5809916,2.4457748,-0.07640419,0.37683916,-0.49115828,0.14383301,-0.062947385,-0.043328337,-0.22984336,0.28730422,-9.423578,1.0775883,47.68062,-0.9814036,-1.6737089,-4.000498,0.019716207,-0.33251688,-0.16736677,22.25,21.875,21.8125,22.0625,21.75,21.9375
0.3825528,0.39774096,0.14766781,-0.060922105,-0.005760744,0.047967233,-0.046045028,-0.41644394,-0.35467723,0.08502279,-3.0634897,0.6338684,-1.7028678e-05,-0.18676044,-0.027326372,0.0029307846,0.07242682,-0.00086932024,-0.032273363,0.4630983,-1.3517793,1.8644327,-2.073753,-1.5811127,2.4457033,-0.07517344,0.37679783,-0.49567652,0.15181571,-0.06548837,-0.042044777,-0.21068975,0.3256114,-9.32781,1.1290656,47.678825,-1.2499774,-1.5976093,-3.863128,-0.033248648,-0.2965284,-0.17443997,22.25,21.875,21.8125,22.0625,21.75,21.9375
0.38505188,0.38044176,0.23096311,-0.14899081,-0.0025321,0.0300376,-0.045328755,-0.41680548,-0.35473862,0.08504415,-3.0633314,0.63391364,5.3093903e-05,-0.18613353,-0.024345752,0.0009310179,0.078650475,-0.009325452,-0.037559785,0.4629771,-1.3510587,1.8634409,-2.0734274,-1.5812572,2.4456325,-0.07857401,0.37962294,-0.49664587,0.16031824,-0.06725316,-0.040138185,-0.34476504,0.30645782,-9.251195,1.0283576,47.67793,-1.0599067,-1.4361222,-3.951422,-0.104495555,-0.24991924,-0.15878798,22.25,21.875,21.8125,22.0625,21.75,21.9375
0.387552,0.23091616,-0.12366343,0.59910154,-0.025276575,0.054846935,-0.055452343,-0.41755244,-0.35484713,0.0850491,-3.062985,0.6340484,9.03132e-05,-0.18662335,-0.024102246,0.0010487965,0.08414454,-0.014704915,-0.04038664,0.46267736,-1.3495227,1.8614272,-2.072777,-1.5815219,2.4454653,-0.07779444,0.38418156,-0.5054895,0.17188762,-0.06975043,-0.036493056,-0.24899697,0.22984336,-9.040505,1.0708755,47.68599,-1.1737808,-1.5129485,-3.7998235,-0.23431326,-0.1798886,-0.20112343,22.25,21.875,21.8125,22.0625,21.75,21.9375
0.39005196,-0.055884503,0.2574641,0.5553734,-0.02742701,0.056711692,-0.058458883,-0.41792482,-0.3548889,0.0850435,-3.0627418,0.6341872,6.2778e-05,-0.19092937,-0.025584111,0.0038916527,0.080768004,-0.0063105677,-0.043109417,0.46252126,-1.3487309,1.8603967,-2.072395,-1.5816783,2.4454298,-0.0784157,0.38549057,-0.51324064,0.16932029,-0.07049258,-0.03437164,-0.24899697,0.21068975,-8.983045,1.0753525,47.65643,-1.0986885,-1.5120785,-3.647942,-0.22761339,-0.13230851,-0.22512622,22.25,21.875,21.8125,22.0625,21.75,21.9375
0.39255196,-0.6511193,-0.5761167,0.47750103,-0.016566334,0.05751828,-0.054646064,-0.41830733,-0.35494584,0.08505364,-3.0626068,0.6342734,3.659686e-05,-0.19284673,-0.026945151,0.0028496035,0.07601206,-0.005139624,-0.045407183,0.46234086,-1.3479629,1.8593663,-2.0720499,-1.5817608,2.4453223,-0.07972064,0.38964134,-0.5149455,0.16368659,-0.066777274,-0.033409797,-0.1340753,0.17238252,-9.097966,1.0731167,47.627773,-1.052011,-1.4853207,-3.5351734,-0.1752052,-0.15462413,-0.25525904,22.25,21.875,21.8125,22.0625,21.75,21.9375
0.3950521,-0.82015157,-1.1145113,0.58263475,-0.034800816,0.0713523,-0.04657551,-0.41867027,-0.35499808,0.08504771,-3.0624113,0.634384,2.695467e-05,-0.19474949,-0.027902089,0.0012923103,0.07302972,-0.0026656,-0.045821674,0.46219656,-1.3471937,1.858374,-2.071718,-1.5818919,2.4452744,-0.08047912,0.39394492,-0.5152185,0.1560883,-0.06524191,-0.033761967,-0.24899697,0.15322891,-9.040505,1.0171678,47.652847,-1.059746,-1.7123797,-3.7646756,-0.110575095,-0.16882873,-0.24153122,22.25,21.875,21.8125,22.0625,21.75,21.9375
0.39755258,-0.7955434,-1.5715554,0.5716279,-0.05619662,0.055150878,-0.047703788,-0.41944546,-0.35512647,0.08506212,-3.0620573,0.63459337,0.00013493143,-0.19703282,-0.03023103,0.002782294,0.06661235,0.0014002403,-0.04789809,0.4619207,-1.345611,1.8562778,-2.0710719,-1.5821785,2.445179,-0.08048664,0.39525038,-0.52013224,0.15317841,-0.06132287,-0.031724393,-0.3830723,0.36391866,-8.983045,1.0977321,47.639416,-1.0818083,-1.4966843,-3.8746052,0.03547301,-0.16401546,-0.29109883,22.25,21.875,21.8125,22.0625,21.75,21.9375
0.40005267,-0.21450119,-1.4430223,0.29974985,-0.051800247,0.039982274,-0.046033684,-0.4198681,-0.3551681,0.0850687,-3.0618842,0.6347664,0.00022491573,-0.19892502,-0.030639373,0.0042351442,0.064848244,0.0032877142,-0.049270526,0.46171635,-1.3448075,1.8552235,-2.0707843,-1.5823225,2.445107,-0.081667125,0.39585412,-0.5248086,0.15475798,-0.060596284,-0.031536873,-0.6512228,0.47884035,-9.002198,1.1850197,47.63404,-1.0681417,-1.4260347,-3.7858691,0.032427732,-0.17920984,-0.30609965,22.25,21.875,21.8125,22.0625,21.75,21.9375
0.40255198,-0.48461714,-1.3513203,0.20579332,-0.058008797,0.030631829,-0.049043983,-0.4202626,-0.35522723,0.085059464,-3.0616875,0.63485605,0.00026590828,-0.19988501,-0.03043579,0.0041618193,0.06459163,0.00086860126,-0.048753373,0.46157172,-1.3439794,1.8541692,-2.0704715,-1.5824784,2.445046,-0.08342131,0.39811188,-0.52843356,0.15813197,-0.05931626,-0.033815973,-0.49799395,0.4213795,-9.155427,1.1850197,47.657326,-1.075501,-1.5101815,-3.6981535,0.054600444,-0.17379114,-0.28207666,22.25,21.875,21.8125,22.0625,21.75,21.9375
0.4050521,0.2878109,-1.0394249,0.36381558,-0.054258488,0.049934477,-0.050334238,-0.42067438,-0.35531077,0.08509548,-3.0616395,0.63501793,0.00028969918,-0.1981193,-0.029715814,0.001982397,0.067389175,-0.0074135615,-0.048691053,0.4613796,-1.3432108,1.8530825,-2.0701582,-1.5825018,2.444962,-0.083685145,0.40109876,-0.5286949,0.16404781,-0.058129136,-0.03415514,-0.45968673,0.4405331,-9.097966,1.0417832,47.639416,-0.86684895,-1.3817761,-3.8331764,0.00980257,-0.18772691,-0.30090263,22.25,21.875,21.8125,22.0625,21.75,21.9375
0.40755242,-0.75686,-0.40557867,0.44439143,-0.021957822,0.04731698,-0.041748676,-0.4214655,-0.3554338,0.08505776,-3.06126,0.6352602,0.00011749483,-0.19627218,-0.026707508,-0.0013547224,0.07384697,-0.026352245,-0.05157446,0.46102998,-1.3414825,1.8509015,-2.069422,-1.5826925,2.4448173,-0.08840342,0.40768728,-0.5338036,0.1823442,-0.055495404,-0.036001403,-0.45968673,0.21068975,-8.848969,1.0798295,47.670765,-0.8142019,-1.7593366,-3.8833258,-0.18709895,-0.22915453,-0.29515272,22.25,21.875,21.8125,22.0625,21.75,21.9375
0.41005245,-0.27821156,0.42963114,0.5515766,0.0007334412,0.04306764,-0.049722027,-0.42186686,-0.35548642,0.085078456,-3.0610902,0.63533604,0.0001744717,-0.19655535,-0.029077426,-0.0012283673,0.07307628,-0.028246338,-0.05011131,0.46086305,-1.3407018,1.8498238,-2.0690615,-1.5828365,2.4447217,-0.0854236,0.41185182,-0.5402659,0.18599406,-0.05396606,-0.03449567,-0.21068975,0.038307227,-8.810662,1.0149267,47.653748,-0.8743843,-1.8295852,-3.656815,-0.22976783,-0.265152,-0.30505356,22.25,21.875,21.8125,22.0625,21.75,21.9375
0.41252002,-0.102000535,0.74423313,0.55836976,0.021498838,0.040451575,-0.043553498,-0.42229235,-0.35555965,0.085081145,-3.060977,0.6354647,0.00018039579,-0.19959122,-0.029873913,-0.0005292339,0.070297375,-0.02389689,-0.052056033,0.46067044,-1.3398496,1.84871,-2.068752,-1.5829085,2.4446256,-0.08679008,0.41446218,-0.5446094,0.18258825,-0.053435467,-0.03391942,-0.28730422,0.05746084,-8.7532015,1.048496,47.642998,-0.8352137,-1.9234483,-3.5396333,-0.239398,-0.29341447,-0.33379412,22.25,21.875,21.8125,22.0625,21.75,21.9375
0.41505274,0.011282189,1.1434656,0.5836092,0.0029106073,0.04694238,-0.052920338,-0.4227035,-0.35560215,0.0850532,-3.0607371,0.6356783,0.00015579375,-0.20289576,-0.031526163,0.0005932191,0.06566275,-0.015171204,-0.050613564,0.46047875,-1.338974,1.8476323,-2.0684202,-1.583052,2.444601,-0.086780645,0.41576663,-0.54717445,0.17393927,-0.053215403,-0.03534778,-0.095768064,0.038307227,-8.829816,1.048496,47.64121,-0.85483503,-1.7686198,-3.6269345,-0.14040431,-0.31669527,-0.33933938,22.25,21.875,21.8125,22.0625,21.75,21.9375
0.4175521,0.39367405,-0.2061837,0.27565312,-0.04273374,0.06905061,-0.05848257,-0.42350098,-0.35572958,0.08503274,-3.06034,0.63587743,2.6628426e-05,-0.20513546,-0.03237139,-0.0007380734,0.06337402,-0.010399073,-0.05076305,0.46015462,-1.3372464,1.8453954,-2.067633,-1.5832804,2.4444575,-0.0869344,0.4195222,-0.54742724,0.16512008,-0.053329356,-0.03533682,-0.076614454,-0.019153614,-9.174581,1.0820653,47.661808,-0.8876116,-1.8053533,-3.8694408,0.03981528,-0.35344878,-0.35281515,22.25,21.875,21.8125,22.0625,21.75,21.9375
0.42005187,-0.5593502,-0.9240689,0.03411769,-0.06163944,0.06577931,-0.046199165,-0.423901,-0.35577363,0.08500901,-3.0601368,0.636062,2.469248e-06,-0.20678957,-0.03257066,-0.0002447776,0.06390894,-0.010569292,-0.05132871,0.45996246,-1.3364062,1.8443536,-2.0673206,-1.5834006,2.4444094,-0.0876138,0.4222606,-0.5528956,0.1682261,-0.05375016,-0.03543856,-0.11492168,-0.019153614,-9.212888,1.0686398,47.68599,-0.84513915,-1.9062359,-3.841259,0.063242294,-0.3609563,-0.35121816,22.25,21.875,21.8125,22.0625,21.75,21.9375
0.4225523,-0.7849059,-1.049917,-0.22312479,-0.042883344,0.05256544,-0.041073356,-0.4243357,-0.35586426,0.08501838,-3.06003,0.6361337,5.8972306e-05,-0.20795272,-0.031946607,-0.0014170329,0.0662339,-0.0130698765,-0.052783422,0.459806,-1.3355297,1.843191,-2.0670087,-1.5834969,2.444313,-0.08894621,0.4265967,-0.55639285,0.17065369,-0.054731634,-0.035302665,-0.11492168,0.05746084,-9.346964,1.0596858,47.668976,-0.75656354,-2.0632248,-3.789802,0.07758146,-0.37255377,-0.37584597,22.25,21.875,21.8125,22.0625,21.75,21.9375
0.42505267,0.17234465,0.21617366,-0.50830525,-0.02127979,0.04141983,-0.0484334,-0.42472583,-0.35591125,0.08497372,-3.0598195,0.63622123,-8.107135e-05,-0.20668344,-0.030822104,-0.002725472,0.070266336,-0.020528782,-0.053546883,0.45961392,-1.3346417,1.8421258,-2.0666463,-1.5835928,2.4442055,-0.08946885,0.42892084,-0.5583884,0.17878957,-0.05503412,-0.0350481,-0.11492168,0.17238252,-9.423578,1.1201116,47.67345,-0.75816464,-2.089256,-3.7925735,0.008304845,-0.3934409,-0.3771313,22.25,21.875,21.8125,22.0625,21.75,21.9375
0.42755184,0.547274,0.3510768,-0.9829793,0.0031520876,0.0054523908,-0.04531783,-0.42556688,-0.3560329,0.08497127,-3.0594494,0.6365011,-9.1904185e-05,-0.20311023,-0.02781928,-0.004793032,0.08142401,-0.035441276,-0.052285567,0.45925403,-1.332914,1.8398522,-2.0659091,-1.5838345,2.444073,-0.08936383,0.43129334,-0.5613677,0.19768007,-0.05842376,-0.036154337,-0.11492168,0.21068975,-9.615114,1.1201116,47.670765,-0.76062715,-2.126505,-4.1039667,-0.19207123,-0.40327647,-0.39504737,22.25,21.875,21.8125,22.0625,21.75,21.9375
0.430052,0.58858806,0.24258988,-0.83381057,-0.009145784,0.01456406,-0.045512155,-0.4259743,-0.35609382,0.08494904,-3.0592384,0.6365874,-0.00017085632,-0.204726,-0.026707562,-0.0029924745,0.082795024,-0.032016188,-0.052680947,0.45908523,-1.3320159,1.8387145,-2.0655143,-1.5839552,2.443988,-0.09087768,0.42944083,-0.5639276,0.19961171,-0.06120041,-0.03723101,-0.11492168,0.17238252,-9.615114,1.0910193,47.670765,-0.54428434,-1.9304572,-4.0480185,-0.22650476,-0.38501704,-0.40367877,22.25,21.875,21.8125,22.0625,21.75,21.9375
0.4325517,0.17147344,-0.15477657,-0.9231703,-0.033790234,0.044342916,-0.049964294,-0.42639923,-0.356132,0.084936865,-3.0590122,0.6368229,-0.00024912957,-0.20731726,-0.028367693,-0.0025295317,0.0820257,-0.025848106,-0.049771573,0.458858,-1.3311394,1.8375772,-2.0651085,-1.5840639,2.4439402,-0.08895836,0.43282822,-0.56839615,0.19479951,-0.06329466,-0.038185894,-0.05746084,0.076614454,-9.691729,1.044019,47.63404,-0.78709775,-1.8646895,-4.0856266,-0.20566922,-0.37134033,-0.39281565,22.25,21.875,21.8125,22.0625,21.75,21.9375
0.43505183,-0.86549455,-1.2759624,-0.9041287,-0.050339896,0.07302776,-0.044052474,-0.42680514,-0.35619783,0.08492367,-3.058805,0.6368351,-0.00028792772,-0.2121553,-0.027269175,-0.0025300016,0.08252157,-0.017564116,-0.052333307,0.4587129,-1.3302507,1.8364276,-2.0647056,-1.5842093,2.4438322,-0.092342965,0.4362748,-0.57120574,0.18694513,-0.06745495,-0.038948394,-0.038307227,0.038307227,-9.883265,1.1469735,47.64479,-0.63581693,-2.0263143,-3.9460387,-0.12476758,-0.3178381,-0.37715137,22.25,21.875,21.8125,22.0625,21.75,21.9375
0.43755183,-1.6970643,-1.4783503,-0.92717427,-0.041734442,0.0890904,-0.043885812,-0.42767525,-0.35630825,0.084936775,-3.0584655,0.6371573,-0.00025735292,-0.21495186,-0.029298663,-0.0039044784,0.0830437,-0.014246063,-0.047023296,0.45830578,-1.3285341,1.8341273,-2.063976,-1.5844377,2.4436748,-0.08988502,0.4443193,-0.57765293,0.18253651,-0.069474004,-0.04176451,-0.076614454,0.11492168,-9.959879,1.155922,47.642998,-0.7563284,-2.2780664,-3.9777002,-0.012198912,-0.31606796,-0.3619566,22.25,21.875,21.8125,22.0625,21.75,21.9375
0.4400519,-1.2211291,-0.18366939,-0.8625619,-0.033333775,0.075782955,-0.0456561,-0.4281144,-0.35635003,0.08491739,-3.0582495,0.6372795,-0.00017746065,-0.2161159,-0.029061232,-0.0019812621,0.08523573,-0.008848773,-0.04465952,0.45811433,-1.3276464,1.8330139,-2.063677,-1.5846194,2.4435904,-0.088673994,0.44231758,-0.5799574,0.18295197,-0.07385618,-0.04285819,-0.2681506,0.076614454,-9.921572,1.099968,47.651955,-0.818871,-2.1116707,-4.0421524,0.01468719,-0.2675845,-0.3412875,22.25,21.875,21.8125,22.0625,21.75,21.9375
0.4425523,-0.08421469,0.16900903,-1.1042202,0.0021065993,0.0426595,-0.050688934,-0.42852548,-0.35642642,0.08488262,-3.0580478,0.63729,-0.000210391,-0.21463685,-0.028464444,-0.0024839516,0.08769604,-0.013513119,-0.042894483,0.4579826,-1.3267121,1.8318661,-2.0633276,-1.5847634,2.443494,-0.08824692,0.44234994,-0.5804693,0.1886694,-0.07401508,-0.044185072,-0.15322891,0.17238252,-9.825804,1.1783017,47.65643,-0.8243712,-1.9567506,-4.1901007,0.017075246,-0.24043572,-0.32085386,22.25,21.875,21.8125,22.0625,21.75,21.9375
0.44505188,1.1681033,0.8270813,-1.1606089,0.017508036,0.014562589,-0.050035026,-0.42897096,-0.35646686,0.084878564,-3.0578113,0.63742673,-0.00013557127,-0.2148797,-0.028031237,-0.0014443632,0.09135886,-0.015600257,-0.04089541,0.45779058,-1.325825,1.8307036,-2.0629656,-1.5849565,2.4434211,-0.08770929,0.44313645,-0.5858949,0.19676583,-0.076401025,-0.04560918,-0.11492168,0.019153614,-9.825804,1.1111577,47.634937,-0.86625534,-1.9462063,-4.117071,-0.04053099,-0.17905112,-0.29396293,22.25,21.875,21.8125,22.0625,21.75,21.9375
0.44755197,1.2145833,0.7985984,-0.9708934,-0.0012005391,-0.0047388133,-0.04301412,-0.42982602,-0.35658503,0.08489785,-3.0574596,0.63757575,-0.00010926782,-0.21494132,-0.027993541,-0.0015918658,0.09730502,-0.02463734,-0.038411308,0.4574311,-1.324108,1.8283681,-2.0621703,-1.5852207,2.443205,-0.08680638,0.44923472,-0.5972183,0.212669,-0.07777771,-0.04715669,-0.095768064,0.11492168,-9.576807,1.1111577,47.651955,-1.0268811,-1.9537364,-4.01284,-0.21039778,-0.108790874,-0.25297198,22.25,21.875,21.8125,22.0625,21.75,21.9375
0.45005208,1.2721401,0.45833525,-1.1909797,-0.0025951474,0.015220777,-0.05380832,-0.43024725,-0.356647,0.0848811,-3.0572207,0.6376547,-0.00015867711,-0.21492365,-0.027311465,-0.0031918364,0.09580303,-0.027570436,-0.038276546,0.4572742,-1.3231848,1.8271726,-2.0617402,-1.5853757,2.4431317,-0.089223996,0.4507348,-0.59553635,0.21138926,-0.075181715,-0.04973234,0.095768064,0.05746084,-9.749189,1.0753525,47.642998,-0.85661936,-2.0793567,-4.091343,-0.22126204,-0.12738924,-0.2168168,22.25,21.875,21.8125,22.0625,21.75,21.9375
0.45255247,-0.33869535,-1.0637746,-0.6812408,-0.043771926,0.045628246,-0.03651595,-0.43068558,-0.35668948,0.08489305,-3.0570076,0.63769937,-0.00017494864,-0.21704727,-0.03154269,-0.0013829605,0.0865701,-0.019054435,-0.03403546,0.45707127,-1.3223091,1.8259624,-2.0612767,-1.5855302,2.4429872,-0.08629976,0.4512277,-0.5986356,0.20221986,-0.07071915,-0.051098682,-0.076614454,0.19153613,-9.787497,1.1022091,47.627773,-1.0745465,-1.8789784,-4.1178474,-0.12663832,-0.15824662,-0.17634004,22.25,21.875,21.8125,22.0625,21.75,21.9375
0.45505247,-1.1173283,-2.1672425,-0.6085922,-0.09304664,0.07829668,-0.047576483,-0.4311037,-0.35675636,0.084894806,-3.0568063,0.6377529,-0.00015916776,-0.22227699,-0.031864177,5.3614498e-05,0.08194107,-0.010073154,-0.04014452,0.456926,-1.3214335,1.824788,-2.0608723,-1.5856861,2.4429042,-0.090009734,0.45347014,-0.6033579,0.19461471,-0.07054127,-0.048693527,-0.05746084,0.17238252,-9.634268,1.155922,47.613445,-0.9316988,-1.9079244,-4.204961,-0.013597608,-0.16334885,-0.163674,22.25,21.875,21.8125,22.0625,21.75,21.9375
0.4575525,-1.3788035,-3.6707463,-0.78239053,-0.1055198,0.06381483,-0.039696604,-0.43202755,-0.35687762,0.084930964,-3.056476,0.63798356,-3.699411e-06,-0.22410595,-0.035231374,0.0031651282,0.074488446,-0.008815606,-0.03911828,0.4565303,-1.3196591,1.8223451,-2.060116,-1.5859722,2.4427001,-0.08901546,0.45434952,-0.6132785,0.19917652,-0.0644405,-0.04879974,-0.22984336,0.4405331,-9.825804,1.1850197,47.650166,-0.87346476,-1.6370248,-3.9845433,0.019840151,-0.22112684,-0.11854854,22.25,21.875,21.8125,22.0625,21.75,21.9375
0.4600525,0.15235013,-2.525368,-1.1113285,-0.08198755,0.049929928,-0.04685669,-0.43244535,-0.356961,0.084920906,-3.056322,0.63802487,-8.270899e-05,-0.22246109,-0.03292175,0.002034895,0.079935305,-0.016375523,-0.041025914,0.45637393,-1.3187475,1.8211488,-2.0597055,-1.5860566,2.442592,-0.090502046,0.45476726,-0.6135458,0.20821142,-0.06598498,-0.04835025,-0.1340753,0.6512228,-9.844957,1.1402553,47.666286,-0.93533695,-1.6422918,-4.141192,-0.06443739,-0.20174749,-0.10574697,22.25,21.875,21.8125,22.0625,21.75,21.9375
0.46255162,0.03886825,-1.6035866,-0.8958309,-0.054295328,0.0065308535,-0.027912224,-0.4328974,-0.3570458,0.08494018,-3.0561626,0.6381633,-1.4780082e-05,-0.21925955,-0.032049917,-0.0008256621,0.08279566,-0.030258814,-0.045048643,0.45621768,-1.3178469,1.8199042,-2.0593183,-1.5861872,2.4425452,-0.09118228,0.4582058,-0.6140663,0.21903805,-0.06238201,-0.045052946,-0.51714754,0.7278373,-9.844957,1.1827786,47.65643,-0.88090396,-1.6315187,-4.372436,-0.14607525,-0.23851487,-0.10659503,22.25,21.875,21.8125,22.0625,21.75,21.9375
0.46505174,1.0232766,-1.142124,-0.63350093,-0.040608115,0.019849487,-0.048453424,-0.4333751,-0.35709092,0.08495594,-3.0559773,0.6383143,6.896881e-05,-0.22137319,-0.03307542,0.0012600693,0.08041636,-0.0291422,-0.047565304,0.4559894,-1.3169476,1.8186697,-2.058935,-1.5863427,2.442438,-0.09195232,0.4594631,-0.6216823,0.22334644,-0.06073998,-0.043323837,-0.36391866,0.6703765,-9.442732,1.1357784,47.62419,-0.85226643,-1.6889107,-4.324227,-0.22288775,-0.28821734,-0.122483045,22.25,21.875,21.8125,22.0625,21.75,21.9375
0.46755186,0.2506687,-1.2085925,0.014291106,-0.036589473,0.04867126,-0.04176598,-0.4342826,-0.35725826,0.08499819,-3.0556588,0.63854825,0.0001024501,-0.2283712,-0.03685686,0.0027303495,0.071682215,-0.015266281,-0.04934105,0.45565358,-1.3151233,1.8161191,-2.0580661,-1.5865706,2.4422944,-0.09205592,0.4659902,-0.6309075,0.20973115,-0.059062533,-0.041664615,-0.3256114,0.49799395,-9.289503,1.1648761,47.699425,-0.79294264,-1.7330117,-3.9323628,-0.11333725,-0.35379973,-0.113620564,22.25,21.875,21.8125,22.0625,21.75,21.9375
0.4700521,-1.0720454,-1.9455832,0.42066604,-0.07338616,0.08892301,-0.044979844,-0.43475083,-0.35734496,0.08503661,-3.0555594,0.6386601,9.381147e-05,-0.22981738,-0.03798326,0.0024209039,0.068480186,-0.012103852,-0.050762594,0.4554494,-1.3142235,1.814814,-2.0576131,-1.5866297,2.4421747,-0.09202997,0.46792266,-0.63184106,0.20448673,-0.057586204,-0.040234905,-0.19153613,0.49799395,-9.193734,1.106686,47.66091,-0.8110611,-1.6930778,-4.072867,0.011993105,-0.38914928,-0.13850617,22.25,21.875,21.8125,22.0625,21.75,21.9375
