Tylouw/Master_Thesis_Code/test_recorded_data/trial6/insertion_9_2026-01-23_15-25-47.csv
num_insertion,tcp_force_x[N],tcp_force_y[N],tcp_force_z[N],tcp_force_rx[Nm?],tcp_force_ry[Nm?],tcp_force_rz[Nm?],tcp_pose_x[m],tcp_pose_y[m],tcp_pose_z[m],tcp_pose_rx[rot_vec_x],tcp_pose_ry[rot_vec_y],tcp_pose_rz[rot_vec_z],tcp_velo_x[m/s],tcp_velo_y[m/s],tcp_velo_z[m/s],tcp_velo_rx[rot_vec_x/s],tcp_velo_ry[rot_vec_y/s],tcp_velo_rz[rot_vec_z/s],q1[rad],q2[rad],q3[rad],q4[rad],q5[rad],q6[rad],qd1[rad/s],qd2[rad/s],qd3[rad/s],qd4[rad/s],qd5[rad/s],qd6[rad/s],tool_acc_x,tool_acc_y,tool_acc_z,current_of_whole_robot[A],voltage_of_whole_robot[V],current_J1[A],current_J2[A],current_J3[A],current_J4[A],current_J5[A],current_J6[A],temp_J1[C],temp_J2[C],temp_J3[C],temp_J4[C],temp_J5[C],temp_J6[C]
1.0,0.25537625959954396,-0.1027909494938695,-1.2018222082087058,0.00035822443077249133,-0.040100437659260565,-0.11687240178543257,-0.5393159441478189,-0.32414284024787293,0.2600441352029679,-3.078735401057283,0.6246981522648015,0.00011940327409775405,0.0016400787370670865,-0.0005452749359219813,-0.00040964038047277624,-0.00021411219324247215,0.0009612417204729911,-0.0008212082582997222,0.32579493522644043,-1.1514826577952881,1.6616719404803675,-2.0795284710326136,-1.571369473134176,2.300692319869995,0.0017146860482171178,-0.0019835056737065315,0.00446705985814333,-0.0034619560465216637,-0.000103141283034347,0.002534787869080901,0.5746083855628967,-0.3064578175544739,-9.117119789123535,0.7418897151947021,47.6949462890625,-0.2847093343734741,-4.309122085571289,-2.6787965297698975,-0.3589784502983093,-0.014642145484685898,0.004969955421984196,28.0625,29.9375,28.5625,32.3125,34.875,36.0
1.0,0.5953190233522759,0.1230460206905963,-1.470564501256314,0.03258085946612122,-0.0408497385168052,-0.1119642933497219,-0.5393035169418829,-0.3241502720261353,0.260032265510764,-3.0787096442991833,0.624672798125646,0.0001493200223433747,0.0007104846848896131,-0.0006476826792177594,0.00048016872350206273,-0.0007702468853974837,0.0025842965647372086,4.2682154039252324e-05,0.3257948160171509,-1.151470498447754,1.661670986806051,-2.0795284710326136,-1.5713813940631312,2.300704002380371,0.0013852452393621206,-0.0013723612064495683,0.0014471544418483973,-0.002769063925370574,-0.0001008303152048029,0.001341522322036326,0.17238253355026245,-0.019153613597154617,-9.059659004211426,0.6904177665710449,47.699424743652344,-0.36650049686431885,-4.290685176849365,-2.484745979309082,-0.3372012972831726,-0.01605403609573841,0.01444525271654129,28.0625,29.9375,28.5625,32.3125,34.875,36.0
1.0,0.017606345350176356,-0.5491383538969741,-1.6796762909637197,0.0030632114460014664,-0.005452607723507345,-0.12031663023384175,-0.5392961093318588,-0.32416568540220425,0.2600625423930141,-3.0787584585540553,0.6246248203504173,0.00017837774398284033,0.000314414583484627,-0.0006372270655005496,0.0008067029164083139,-0.0007948364954567611,0.0026477221033892715,0.0008055502904103235,0.32581856846809387,-1.1515062910369416,1.6616466681109827,-2.079503675500387,-1.571357552205221,2.300691604614258,0.0011614185059443116,-0.001050424762070179,2.840563320205547e-05,-0.001740399980917573,-9.862030856311321e-05,0.0003551422560121864,0.038307227194309235,0.15322890877723694,-9.136273384094238,0.7553206086158752,47.72092056274414,-0.33139318227767944,-3.900296926498413,-2.153010845184326,-0.3842853903770447,-0.026085220277309418,0.0255084577947855,28.0625,29.9375,28.5625,32.3125,34.875,36.0
1.0,-1.2529658152732783,-1.5997978653374978,-1.5449054085314966,-0.06896833401923558,0.062774493825541,-0.1140079363790317,-0.5393061246143495,-0.32415354368160587,0.26004109954116644,-3.0787120947324276,0.6246728283688264,8.152497412397287e-05,0.00022154781649676394,-0.000475709721591965,0.0004813830881037634,-0.0004761959904312803,0.0017022807960530484,0.0006492526008861881,0.32579463720321655,-1.1514702302268525,1.6616342703448694,-2.0794559917845667,-1.571357552205221,2.300703525543213,0.0008638558792881668,-0.0005932991625741124,3.8109783417894505e-07,-0.001171838492155075,-9.650552965467796e-05,0.00021418047253973782,-0.15322890877723694,0.26815059781074524,-9.251194953918457,0.7060845494270325,47.71017074584961,-0.30423226952552795,-3.833448886871338,-2.0947928428649902,-0.43733739852905273,-0.014711486175656319,0.019096726551651955,28.0625,29.9375,28.5625,32.3125,34.875,36.0
1.0,-2.8593809792787575,-3.0749080607087516,-1.4828791571718143,-0.1249165627413793,0.11421057520627056,-0.1095438468198972,-0.5392969816472946,-0.32416465270710265,0.2600488590991483,-3.0786944473956823,0.6246707750091769,7.112528810804066e-05,0.0022823361352338686,0.00025734238874675324,-0.0035777372767746216,0.0024197631956753107,-0.00681904982315109,0.0005240780841921647,0.3258184492588043,-1.151481793527939,1.6616247336017054,-2.0794202289977015,-1.571369473134176,2.3007283210754395,0.0008144648163579404,0.00037547750980593264,0.007781260646879673,-0.0009214978199452162,-9.447922639083117e-05,0.00029101374093443155,-0.26815059781074524,0.28730422258377075,-9.404424667358398,0.7105615139007568,47.687782287597656,-0.32397156953811646,-3.8709211349487305,-2.4115848541259766,-0.47877395153045654,-0.02320294827222824,0.035060107707977295,28.0625,29.9375,28.5625,32.3125,34.875,36.0
1.0,-3.700874693788375,-3.315963439101905,-1.2917243483592233,-0.1527978587605902,0.1351931374965643,-0.10613128534234449,-0.5392758902521512,-0.3241665483114856,0.26002186693288865,-3.0786933143529223,0.6245733076579159,-2.118289386964957e-05,0.0024948182779143432,0.000374501726285383,-0.0040870089799093096,0.002756506386723007,-0.00781528172532586,0.00046437455244407403,0.32583048939704895,-1.1514817637256165,1.6616857687579554,-2.0794202289977015,-1.571357552205221,2.3006796836853027,0.0007451699930243194,0.0005466083530336618,0.008705910295248032,-0.0009656815091148019,-9.253635653294623e-05,0.0002815291518345475,-0.24899697303771973,0.17238251864910126,-9.423578262329102,0.7732232213020325,47.6707649230957,-0.29420560598373413,-3.819453477859497,-2.616628646850586,-0.5108305811882019,-0.0318245030939579,0.0174239594489336,28.0625,29.9375,28.5625,32.3125,34.875,36.0
1.0,-2.630715065788515,-2.386339555496243,-1.2348749563205037,-0.10377252232551995,0.11781430429342897,-0.10979921687784451,-0.5392825172956447,-0.32415722894364923,0.2600048261221848,-3.078638899377631,0.6246594339408811,-7.352596032027327e-06,0.0016714735407228122,8.27384453575584e-05,-0.002869822902514109,0.001827550328489732,-0.00509316256353669,0.0005177854636153583,0.3258184492588043,-1.1514577132514496,1.6616962591754358,-2.0794440708556117,-1.5713933149920862,2.3007283210754395,0.000762802257668227,0.0006895369733683765,0.00577206676825881,-0.00105102953966707,-9.067181235877797e-05,0.00024543682229705155,-0.325611412525177,0.15322890877723694,-9.193734169006348,0.7888899445533752,47.66628646850586,-0.3175862729549408,-3.7423534393310547,-2.4104418754577637,-0.5324295163154602,-0.026815898716449738,0.022538185119628906,28.0625,29.9375,28.5625,32.3125,34.875,36.0
1.0,-1.2606891993489622,-0.610406775863476,-1.1472547789082377,-0.033721262000239824,0.05585225831185543,-0.10813096358396619,-0.5392669657246792,-0.3241790588235963,0.2600344811459854,-3.0787232961636524,0.6246190468227046,8.252294620730113e-05,0.000648800659442845,-0.00021259471526232596,-0.0014831197525240493,-0.0008292385345958595,0.0027044177657254524,0.0004631616240569977,0.32585442066192627,-1.1515057247928162,1.6617072264300745,-2.079494138757223,-1.571357552205221,2.3007283210754395,0.0006816764944233,0.0005186271155253053,0.004376487340778112,-0.007722319569438696,-8.888088632375002e-05,0.0002160603617085144,-0.2106897532939911,0.15322890877723694,-9.193734169006348,0.7754590511322021,47.686885833740234,-0.3375242054462433,-3.675243377685547,-2.175787925720215,-0.5316625833511353,-0.024957437068223953,0.015588624402880669,28.0625,29.9375,28.5625,32.3125,34.875,36.0
1.0,-0.5125471147547767,0.13915511604465072,-1.4217534665406801,0.005372614084276954,0.014951283794047886,-0.11115828933537342,-0.5392907514111174,-0.32416376407144154,0.26004225852035073,-3.078753684090216,0.6246241062159477,0.000165290903250936,0.00010440421377157675,-0.0004093582091642456,-0.000936036247136628,-0.0028182532244529087,0.008539837508004277,0.0005013654567653087,0.32581841945648193,-1.1514938038638611,1.6616843382464808,-2.0795442066588343,-1.571357552205221,2.300691604614258,0.000699247932061553,0.000531232450157404,0.004554702900350094,-0.014078237116336823,-8.71592783369124e-05,0.0001928738784044981,-0.2106897532939911,0.1149216815829277,-9.155426979064941,0.7396538853645325,47.6680793762207,-0.32733553647994995,-3.595686912536621,-2.147426128387451,-0.46402814984321594,-0.01564403623342514,0.028495371341705322,28.0625,29.9375,28.5625,32.3125,34.875,36.0
1.0,-0.20740832926251504,0.03730135917260309,-1.2953789804734357,-0.008401821035434388,0.014063670248815094,-0.10888458315044527,-0.5392900124928075,-0.32414675515593866,0.26001878800959877,-3.0787122882328197,0.6246539241639315,0.00010910713975755489,0.0005927599869045687,-0.00020512356201950814,-0.001975033859563768,-0.0024502119562595306,0.007451916940814277,0.000460877747227481,0.3257945477962494,-1.1514816743186493,1.6617205778705042,-2.0795442066588343,-1.571369473134176,2.300691604614258,0.0006403753650374711,0.0007282515871338546,0.006959608756005764,-0.015531680546700954,-8.550321217626333e-05,0.00017418093921151012,-0.24899697303771973,0.019153613597154617,-9.174580574035645,0.7038487195968628,47.70748519897461,-0.33278417587280273,-3.5795278549194336,-2.164170026779175,-0.4478541910648346,-0.03584589064121246,0.020558711141347885,28.0625,29.9375,28.5625,32.3125,34.875,36.0
1.0,-0.5499772226218528,-0.7948367567880316,-1.3203018342265365,-0.03070658749586103,0.031121939500927592,-0.10285869551506015,-0.5392801692925338,-0.3241679611186107,0.260002088168935,-3.0787295589322885,0.6246190683021534,9.867425987404229e-05,0.0007344773202694863,-0.0001230884720896689,-0.0023396432837496746,-0.0017227547053176168,0.005307953282557276,0.00042482989159642673,0.3258304297924042,-1.1514576238444825,1.6617329756366175,-2.0795799694456996,-1.571357552205221,2.300703525543213,0.0005880952230654657,0.001007288577966392,0.00694575160741806,-0.013532847166061401,-8.390883158426732e-05,0.00015879601414781064,-0.07661445438861847,-0.09576806426048279,-9.097966194152832,0.6926589012145996,47.718231201171875,-0.36718612909317017,-3.5739691257476807,-2.2318379878997803,-0.48605239391326904,-0.03933028131723404,0.019509345293045044,28.0625,29.9375,28.5625,32.3125,34.875,36.0
1.0,-1.1189165199753088,-1.0020136844511196,-1.2278948423693845,-0.047152368629665244,0.04265612740858439,-0.10438742775841807,-0.5392741837563529,-0.32416840568684285,0.259994284138174,-3.07873557200772,0.6246012650217325,3.070887515800974e-05,0.00039555091762434255,-0.00020794826300810977,-0.0035357894121890855,-0.0007550729469228708,0.002489025966339138,0.00039422367692304466,0.3258303999900818,-1.1514567595771332,1.6617439428912562,-2.079555650750631,-1.5713337103473108,2.300691604614258,0.0005436766659840941,0.003360740840435028,0.006030850112438202,-0.011990992352366447,-9.668977145338431e-05,0.00014590949285775423,0.07661445438861847,-0.19153612852096558,-9.136273384094238,0.7306999564170837,47.66449737548828,-0.3380325436592102,-3.557325839996338,-2.092797040939331,-0.5287854671478271,-0.0366424061357975,0.01967991329729557,28.0625,29.9375,28.5625,32.3125,34.875,36.0
1.0,-0.8222293178014972,-0.39019382743900916,-1.1381077195341496,-0.03750644276499099,0.04267678540643458,-0.11683545048104209,-0.5392892900913347,-0.3241710412622777,0.2599941015303143,-3.07875264827117,0.6246238459218323,0.0001619365706918967,0.00013314874799979964,-0.0002723926373796487,-0.0032051239883206218,-0.001032091871140802,0.0033029304972044113,0.0003668722669895639,0.3258303999900818,-1.1514327687076111,1.6617324987994593,-2.079651018182272,-1.571357552205221,2.300703525543213,0.0005054976209066808,0.003446548478677869,0.0051859463565051556,-0.012091649696230888,-9.69295360846445e-05,0.00013496028259396553,0.26815059781074524,-0.26815059781074524,-9.232041358947754,0.7530794739723206,47.69853210449219,-0.400829553604126,-3.6038243770599365,-1.9777307510375977,-0.5337846875190735,-0.030145026743412018,0.01765861175954342,28.0625,29.9375,28.5625,32.3125,34.875,36.0
1.0,0.00033240287355282283,0.15458819287829995,-1.230327751944403,0.007224639017391376,-0.0038798527972689614,-0.10503279374272097,-0.5392863256311707,-0.3241687448380316,0.25999541379919344,-3.0787525229933754,0.6246636643130802,0.0002201355229753439,0.0005799659111961513,-4.482446036677577e-05,-0.0038262730135121847,-0.0010283229134711587,0.0032832170384848825,0.0002670002736433003,0.325830340385437,-1.1514448386481781,1.6617572943316858,-2.0796996555724085,-1.571369473134176,2.3007283210754395,0.00038863191730342805,0.0031099573243409395,0.00750194676220417,-0.01405118964612484,-9.370115731144324e-05,0.00011735092266462743,0.28730422258377075,-0.19153612852096558,-9.078812599182129,0.7597975730895996,47.69853210449219,-0.3407922387123108,-3.362305164337158,-2.031573534011841,-0.5298441648483276,-0.04427778720855713,0.02104960009455681,28.0625,29.9375,28.5625,32.3125,34.875,36.0
1.0,0.4866050592549522,0.29994675444370794,-1.4625541223513943,0.0027734687787792636,-0.015449583877751583,-0.11066462163527621,-0.5392723121016768,-0.3241484079624056,0.2599233729143407,-3.0786817591774067,0.6246479222455376,2.468058396103344e-05,0.0006313024406843446,-1.2245782226675237e-05,-0.005059410234855566,-0.0003508346697500307,0.0012775938764888672,0.0002511850151785289,0.3258063793182373,-1.1513962012580414,1.6618526617633265,-2.0796996555724085,-1.571369473134176,2.300703525543213,0.0003653553139884025,0.004596257116645575,0.00825238786637783,-0.014170979149639606,-9.21034297789447e-05,0.00011016450298484415,0.2298433631658554,-0.19153614342212677,-9.155426979064941,0.7597975730895996,47.70927429199219,-0.42071592807769775,-3.3978447914123535,-2.021820545196533,-0.5300057530403137,-0.018930993974208832,0.02344348281621933,28.0625,29.9375,28.5625,32.3125,34.875,36.0
1.0,0.43492218222543505,-0.4480698834948124,-1.4208737523206176,-0.014256556808838408,-0.007013706176197965,-0.11471587485952571,-0.5392916432096861,-0.3241537361444916,0.25996894032010376,-3.07874023708426,0.6246407176388409,0.0002123963997672998,0.0007304233203121901,3.534284685063864e-05,-0.006897330605667715,0.0009068028215563463,-0.002414503327922148,0.00023826771198995193,0.3258063793182373,-1.1514193278602143,1.6617925802813929,-2.079747816125387,-1.5713813940631312,2.300691604614258,0.00034531840356066823,0.0068358550779521465,0.009115686640143394,-0.01337344665080309,-9.799025428947061e-05,0.00010380849562352523,0.325611412525177,-0.15322890877723694,-9.232041358947754,0.7687462568283081,47.704795837402344,-0.3759829103946686,-3.4455461502075195,-1.9113883972167969,-0.5432430505752563,-0.03908384218811989,0.01260809414088726,28.0625,29.9375,28.5625,32.3125,34.875,36.0
1.0,-0.7122040371225745,-1.5072925288161942,-1.531196163307411,-0.03775532163520966,-0.012854691713129768,-0.09792633304255892,-0.5392816719751307,-0.32415933242650113,0.25992501846160226,-3.078685087999801,0.624688347711171,5.4923860737509813e-05,0.0009088745311649867,0.00010831726988266072,-0.007403291142528878,0.0013862341751991192,-0.003808038303963987,0.00022634623326055322,0.3258183002471924,-1.1513713163188477,1.6618168989764612,-2.0797110996642054,-1.571369473134176,2.3007402420043945,0.00032737094443291426,0.007151672150939703,0.009689991362392902,-0.01278986781835556,-0.00010340914741391316,9.814582153921947e-05,0.26815059781074524,0.019153613597154617,-9.193734169006348,0.7195101380348206,47.65284729003906,-0.36305326223373413,-3.4880268573760986,-1.9905116558074951,-0.5576884746551514,-0.02787952870130539,0.01333809457719326,28.0625,29.9375,28.5625,32.3125,34.875,36.0
1.0,-0.7500547398877989,-1.7712504010299608,-1.4330852347142018,-0.06201817531327179,0.018314713540747655,-0.10885129537980247,-0.5392700929412286,-0.32414765374713056,0.2599253984049656,-3.078707981651697,0.6246341795775989,8.655077009642668e-05,0.0011977661515152407,0.0002183617903113956,-0.00767465739596969,0.001972089359718756,-0.005489094518380596,0.0002158680608012621,0.3258063793182373,-1.151407466535904,1.6618769804583948,-2.0797583065428675,-1.571369473134176,2.300691604614258,0.0003111985861323774,0.0069839004427194595,0.010217475704848766,-0.011369393207132816,-0.000115824761451222,9.306936408393085e-05,0.17238251864910126,0.038307227194309235,-9.308656692504883,0.6702793836593628,47.65553665161133,-0.3692505955696106,-3.368947744369507,-1.9703328609466553,-0.6039327383041382,-0.04039653018116951,0.01974543370306492,28.0625,29.9375,28.5625,32.3125,34.875,36.0
1.0,-1.3010088397693156,-1.5472282016998369,-1.5776702073868887,-0.08099351200440709,0.023249255018252403,-0.10362423641482771,-0.5392781882445778,-0.3241336463295987,0.2598874984218193,-3.0786665818128505,0.6246640031177132,3.0098493088850504e-05,0.001299551957593597,0.0002640636538276646,-0.008163343825359791,0.002306631753028425,-0.0063927082681890105,0.00020789232068368316,0.32578250765800476,-1.151359425192215,1.6619012991534632,-2.0797821484007777,-1.5713813940631312,2.300691604614258,0.0002984682796522975,0.007403214927762747,0.010734304785728455,-0.011342283338308334,-0.00014247502258513123,8.849219011608511e-05,0.19153612852096558,0.13407528400421143,-9.308655738830566,0.7262282371520996,47.742408752441406,-0.3776213228702545,-3.2913334369659424,-1.9653701782226562,-0.6387253403663635,-0.03388335555791855,0.013317953795194626,28.0625,29.9375,28.5625,32.3125,34.875,36.0
1.0,-0.9604900454123388,-1.6239251193971758,-1.5821338534410423,-0.07769450005957783,0.03277179917523153,-0.1031542968123119,-0.5392712136134912,-0.3241479686147941,0.2598709876958648,-3.0786625411263544,0.6246441837090327,-2.8482184272265272e-05,0.001304230530919443,0.000393818674416683,-0.009699723198589895,0.0029035233774615476,-0.008100419268422896,1.8095946660605844e-05,0.32580628991127014,-1.1513346892646332,1.6619017759906214,-2.079771181146139,-1.571369473134176,2.300703525543213,0.0001045798635459505,0.009191066026687622,0.012006410397589207,-0.012593246065080166,-0.0001613605418242514,8.434454503003508e-05,0.17238251864910126,0.2106897532939911,-9.289502143859863,0.7038487195968628,47.70658874511719,-0.3637860417366028,-3.3512630462646484,-1.9668117761611938,-0.6453137993812561,-0.03273001313209534,0.023280296474695206,28.0625,29.9375,28.5625,32.375,34.875,36.0
1.0,-1.1073727876679487,-1.7933015518653825,-1.4302140993075791,-0.0729288500317932,0.018773939586361626,-0.10832853609745323,-0.5392743026850364,-0.32414377483602996,0.2598604751400209,-3.0786826144553303,0.6246483255028267,-4.7716131088557254e-05,0.0011239656642760283,0.00033869350016725634,-0.009883907764513504,0.002603392535980813,-0.007195123304667003,1.3369853863960142e-05,0.32579436898231506,-1.1513225597194214,1.6619141737567347,-2.0797954998412074,-1.571345631276266,2.300691604614258,9.658740600571036e-05,0.009704605676233768,0.012049653567373753,-0.014103738591074944,-0.0001704127644188702,8.056806836975738e-05,0.1149216741323471,0.3064578175544739,-9.289502143859863,0.7418897151947021,47.67882537841797,-0.4299716353416443,-3.371793270111084,-1.9602563381195068,-0.6433412432670593,-0.021942734718322754,0.01588238775730133,28.0625,29.9375,28.5625,32.375,34.875,36.0
1.0,-0.9050262750221687,-1.9131988165619331,-1.6543011473020073,-0.07156620260057361,0.014495236957206902,-0.11053594707083764,-0.5392570137070348,-0.324149623551219,0.2598042291967123,-3.078621199757581,0.6246166692445831,-0.00011555859956547552,0.0011079117654287924,0.000336071147985078,-0.010150188034432853,0.0021802361724866525,-0.005967434221333633,1.1049729063130161e-05,0.3258182108402252,-1.1512745779803772,1.6619856993304651,-2.079844137231344,-1.5713813940631312,2.300703525543213,9.163763024844229e-05,0.009929659776389599,0.01286847610026598,-0.016446175053715706,-0.00016609505109954625,7.71156555856578e-05,0.19153612852096558,0.3064578175544739,-9.346963882446289,0.7463666796684265,47.70121383666992,-0.42658987641334534,-3.2755861282348633,-1.9380853176116943,-0.6443928480148315,-0.024300910532474518,0.015006250701844692,28.0625,29.9375,28.5625,32.375,34.875,36.0
1.0,-0.5854198353531326,-2.2339500295399004,-1.771649484983538,-0.07159364792280033,0.022418929374783382,-0.10695234056183783,-0.5392456600877538,-0.3241470177053486,0.2598313330472286,-3.0786508692154335,0.6246433785870276,-5.974213299711527e-05,0.0009803288989623314,0.0003223533985902156,-0.010987740254151411,0.0022337621024053162,-0.006149268949848106,-3.244103536663484e-05,0.3258182108402252,-1.151334063415863,1.6620100180255335,-2.0798570118346156,-1.571369473134176,2.3007164001464844,4.538206849247217e-05,0.011158152483403683,0.01341211423277855,-0.018028927966952324,-0.00016119643987622112,7.394700514851138e-05,0.15322890877723694,0.26815059781074524,-9.385271072387695,0.6680382490158081,47.68867492675781,-0.42459529638290405,-3.2632060050964355,-1.9488894939422607,-0.6560108065605164,-0.03259675204753876,0.010709173046052456,28.0625,29.9375,28.5625,32.375,34.875,36.0
1.0,-0.6249151203364681,-2.110214642313669,-1.5801052210774233,-0.07986498393831143,0.02543151201560826,-0.10655050178379574,-0.5392438689146601,-0.3241296462462005,0.2597672173605197,-3.078599542686979,0.6246314466425704,-0.00016481659866355737,0.0008257444921518068,0.0002717379532950658,-0.010957299965247979,0.0018051120435935062,-0.004906787920953765,-3.387366397350832e-05,0.3257943391799927,-1.1512740415385743,1.6620824972735804,-2.079905172387594,-1.5713813940631312,2.300691604614258,4.1608109313528985e-05,0.011342273093760014,0.013430049642920494,-0.01954532600939274,-0.0001565278071211651,7.1028305683285e-05,0.1149216815829277,0.325611412525177,-9.366117477416992,0.6926589012145996,47.702110290527344,-0.4166761040687561,-3.3730945587158203,-1.9253242015838623,-0.655065655708313,-0.03963080048561096,0.002402679994702339,28.0625,29.9375,28.5625,32.375,34.875,36.0
1.0,-0.5334765006143953,-1.8336866720610612,-1.3466621111848165,-0.07672230019664782,0.03141477935839988,-0.10987872026332163,-0.53926007830928,-0.324136408619665,0.25978329758426566,-3.07863572755276,0.6246579528884525,-9.243156968947022e-05,0.0006015403978900408,0.00019629159471137248,-0.01108745557053482,0.0013846293090175764,-0.003689530658220893,-3.36936849543779e-05,0.3257943391799927,-1.1512619119933625,1.66203481355776,-2.0799299679198207,-1.571369473134176,2.300703525543213,3.974781429860741e-05,0.01186300627887249,0.013400974683463573,-0.02132481336593628,-0.00015211848949547857,6.833155202912167e-05,0.13407528400421143,0.3064578175544739,-9.27034854888916,0.7396538853645325,47.702110290527344,-0.3986330032348633,-3.2696473598480225,-1.9792160987854004,-0.6398848295211792,-0.029013656079769135,0.007166816852986813,28.0625,29.9375,28.5625,32.375,34.875,36.0
1.0,-0.8682475677987443,-1.5540964646669853,-1.447226555870492,-0.06693355115605452,0.020929308209706947,-0.10574480326618194,-0.539268330166648,-0.3241236451696944,0.2597356949918661,-3.0786089314316993,0.6246718163373396,-0.0001561467561473496,0.0002616767343964094,8.143335054099583e-05,-0.01124542583386719,0.0010535788139532346,-0.002736456233885245,-3.3339583736529946e-05,0.32577037811279297,-1.151201681499817,1.6620696226703089,-2.079978128472799,-1.571369473134176,2.300691604614258,3.806628592428751e-05,0.012695920653641224,0.012903271242976189,-0.02266894467175007,-0.00014795032620895654,6.58321296214126e-05,0.17238251864910126,0.24899697303771973,-9.27034854888916,0.6769921779632568,47.66718673706055,-0.4584352672100067,-3.3402462005615234,-1.8624346256256104,-0.6606324911117554,-0.02470955066382885,0.01247338391840458,28.0625,29.9375,28.5625,32.375,34.875,36.0
1.0,-0.9332058305038955,-1.5951019568904548,-1.4590044662634605,-0.054026856323086306,0.016972265639154962,-0.0999814374391248,-0.5392566153738005,-0.324133975606491,0.2597445290763074,-3.078641310669265,0.6245826780089673,-8.115537527697383e-05,0.00019693301396110505,6.126312884000853e-05,-0.011254468725445931,0.0005989849131339399,-0.0013772922811861213,-9.769624316941858e-06,0.3257943391799927,-1.1512256425670166,1.6620939413653772,-2.080026765862936,-1.5713813940631312,2.3006558418273926,3.6521407309919596e-05,0.012717001140117645,0.013315784744918346,-0.024535680189728737,-0.00015579142200294882,4.001421984867193e-05,0.26815059781074524,0.24899697303771973,-9.193734169006348,0.7799360156059265,47.69584274291992,-0.44613373279571533,-3.3198611736297607,-1.8489397764205933,-0.6633865237236023,-0.05348433554172516,0.010213649831712246,28.0625,29.9375,28.5625,32.375,34.875,36.0
1.0,-0.9076635855148366,-1.2670508717489923,-1.2076849447248137,-0.05509630567365835,0.014694116481879467,-0.10620234341784135,-0.5392389534618027,-0.3241344570979299,0.2597012751251899,-3.0785751553270044,0.624704487801911,-0.00015346756799365313,-0.00026037226581391545,-9.244991690840007e-05,-0.011771001440444297,0.0003196836440250161,-0.000546230303679144,-2.9424461148938597e-06,0.32580626010894775,-1.151201145058014,1.662165943776266,-2.0800630054869593,-1.5713933149920862,2.3007521629333496,3.509711677907035e-05,0.014231053180992603,0.012802749872207642,-0.026413416489958763,-0.00016284355660900474,3.121143163298257e-05,0.15322890877723694,0.19153612852096558,-9.117119789123535,0.6747510433197021,47.70927429199219,-0.41121548414230347,-3.3150970935821533,-1.8010568618774414,-0.6403946876525879,-0.022580914199352264,0.013098366558551788,28.0625,29.9375,28.5625,32.375,34.875,36.0
1.0,-0.9744181510833084,-1.685899257322186,-1.4491359135673256,-0.040856525152957214,0.007569290347228622,-0.09815259119147265,-0.5392601053787451,-0.3241351540148538,0.2596912812620341,-3.078612457042758,0.6246341576368378,-0.00013024640801229212,-0.00013813816139252952,-5.041895748452767e-05,-0.011603330833364652,-5.809304520156612e-05,0.0005564968449045723,-3.2995647534868416e-06,0.3257943391799927,-1.1511533123305817,1.6621301809894007,-2.0800992451109828,-1.5713813940631312,2.300691604614258,3.37798373948317e-05,0.013666301965713501,0.01350188534706831,-0.02771344967186451,-0.00015944603364914656,2.9696308047277853e-05,0.09576806426048279,0.2298433631658554,-9.21288776397705,0.7172743082046509,47.73524856567383,-0.4238456189632416,-3.3612561225891113,-1.8603482246398926,-0.6563805341720581,-0.036854565143585205,-0.003758908249437809,28.0625,29.9375,28.5625,32.375,34.875,36.0
1.0,-0.5329129064926164,-0.9467604351550333,-1.363183425106102,-0.05371085955819703,0.02372347339736096,-0.10943704311662977,-0.5392706673632812,-0.324123171390906,0.2596148495462993,-3.0785900777410364,0.624687178269935,-0.00016164971103966636,-0.0004934240272034191,-0.0001703523502929853,-0.012223466625852206,-0.0006434459165419857,0.0022418697480445014,-4.950620564331806e-06,0.32577037811279297,-1.1510568720153351,1.6622017065631312,-2.0802442036070765,-1.5713813940631312,2.300703525543213,3.1421172025147825e-05,0.01499892957508564,0.01382909994572401,-0.031157398596405983,-0.0001518104545539245,2.7826899895444512e-05,0.09576806426048279,0.1149216815829277,-9.174580574035645,0.6814691424369812,47.71017074584961,-0.5087453126907349,-3.3418474197387695,-1.793441891670227,-0.6312227249145508,-0.029378434643149376,0.01181681640446186,28.0625,29.9375,28.5625,32.375,34.875,36.0
1.0,-0.5800459283414641,-0.797424420607093,-1.3242620982091455,-0.05044718177933196,0.031720715352504564,-0.11370641305453906,-0.5392431619516481,-0.32416042671099404,0.2596064669600727,-3.07861250370785,0.6245767262567404,-0.00016159829376265772,-0.000812427663104386,-0.00027845771719983367,-0.012724206175574867,-0.0009071939268589375,0.0029957741810686445,-5.76709967470105e-06,0.32584214210510254,-1.1510564249804993,1.6622255484210413,-2.080268522302145,-1.5713813940631312,2.300703525543213,3.0361125027411617e-05,0.01620027981698513,0.013717169873416424,-0.03304549306631088,-0.00014823822129983455,2.6992149287252687e-05,0.019153613597154617,0.13407529890537262,-9.155426979064941,0.7127973437309265,47.70838165283203,-0.4670606255531311,-3.317460536956787,-1.7406370639801025,-0.6274205446243286,-0.0351109653711319,0.017391463741660118,28.0625,29.9375,28.5625,32.375,34.875,36.0
1.0,-0.890260070897493,-1.099508010123291,-1.3524764002028016,-0.03688447758177342,0.030560347713536752,-0.11153182692833184,-0.5392540090156206,-0.3241343132422384,0.25956906137963504,-3.0785997593124192,0.6246316966414222,-0.00020324423212451435,-0.0007218610915772597,-0.00024724077953733797,-0.01340652736937671,-0.0007342981831243297,0.0024726991567198564,-6.1729538463728255e-06,0.3257943391799927,-1.1510203641704102,1.6622737089740198,-2.0803290806212367,-1.571369473134176,2.300691604614258,2.9370205083978362e-05,0.016842834651470184,0.01458468846976757,-0.03400468826293945,-0.00014483016275335103,2.6206133043160662e-05,0.09576806426048279,0.1149216741323471,-9.21288776397705,0.7239871025085449,47.67882537841797,-0.4570792317390442,-3.3529868125915527,-1.7941280603408813,-0.6148463487625122,-0.029566265642642975,0.021290704607963562,28.0625,29.9375,28.5625,32.375,34.875,36.0
1.0,-0.6739144273422656,-0.7928998932654892,-1.4695420323387984,-0.03774171634792533,0.033103798663261436,-0.11328161092370317,-0.5392552104144087,-0.3241502024272734,0.2595489594725248,-3.0786386208388863,0.6246205575999982,-0.00010701706178670804,-0.0009123461042857597,-0.00031398673310970536,-0.013685440320046602,-0.0009776999002964867,0.0031048098918867104,-6.851198036038139e-06,0.32581818103790283,-1.150984064941742,1.6622985045062464,-2.080461164514059,-1.571369473134176,2.300703525543213,2.8442074835766107e-05,0.017521914094686508,0.014575215056538582,-0.03535115346312523,-0.00011989033373538405,2.5464603822911158e-05,0.09576806426048279,0.019153613597154617,-9.21288776397705,0.6904177665710449,47.7244987487793,-0.4686378240585327,-3.3839874267578125,-1.8278253078460693,-0.6084620356559753,-0.03661257401108742,-0.004315946716815233,28.0625,29.9375,28.5625,32.375,34.875,36.0
1.0,-0.9388844979210463,-0.6321506898454732,-1.457995441595277,-0.045142792846689914,0.029508821730516627,-0.11164765776718828,-0.5392486200197159,-0.32414920207233583,0.25948204019002324,-3.07860203734171,0.624613149066093,-0.00024513423208194024,-0.0008839123121778923,-0.0003046397715773794,-0.014587589107864056,-0.000852232354147664,0.002698152080058987,-7.404724571001077e-06,0.32581818103790283,-1.150911734705307,1.6623576323138636,-2.0804978809752406,-1.571357552205221,2.300703525543213,2.7570777092478238e-05,0.018544796854257584,0.0155494948849082,-0.03692293167114258,-0.00011018208897439763,2.4763818146311678e-05,0.07661445438861847,0.1149216815829277,-9.27034854888916,0.6881819367408752,47.68061828613281,-0.47537022829055786,-3.4128339290618896,-1.7595577239990234,-0.5952531695365906,-0.025434168055653572,0.01205451413989067,28.0625,29.9375,28.5625,32.375,34.875,36.0
1.0,-0.6627250824037652,-1.0153747192667746,-1.5163344227699072,-0.0408348888116629,0.03688946246042081,-0.10947989302017685,-0.5392531926878913,-0.324144264355169,0.25948150956224364,-3.0786261757769298,0.6246372158679409,-0.00020576683157587437,-0.00113724728786567,-0.0003870050146111545,-0.013792361505046499,-0.0018172640833691576,0.005635516470767348,-8.469176295517437e-06,0.32580626010894775,-1.1509119731238862,1.6623700300799769,-2.080546041528219,-1.571345631276266,2.300703525543213,2.675130235729739e-05,0.01789737492799759,0.015100443735718727,-0.03891806676983833,-0.00014187257329467684,2.4100660084513947e-05,-0.038307227194309235,0.019153613597154617,-9.27034854888916,0.7351769208908081,47.660911560058594,-0.479256272315979,-3.343803882598877,-1.7471895217895508,-0.5879331231117249,-0.033338457345962524,0.006200545467436314,28.0625,29.9375,28.5625,32.375,34.875,36.0
1.0,-1.0501253227678196,-0.7191335242011637,-1.5301217586373197,-0.05046919265178303,0.03327529934922025,-0.10711049354828649,-0.5392583423192373,-0.3241500001560622,0.25943479484951487,-3.0785938232477155,0.624611486169867,-0.00019397223621799419,-0.0010710515428044352,-0.0003634716386176212,-0.014445573513519614,-0.0017204497554597707,0.0053590394556394015,-8.907076338989105e-06,0.32581818103790283,-1.1508397620967408,1.6623943487750452,-2.080630441705221,-1.5713813940631312,2.300703525543213,2.5979059500969015e-05,0.018536817282438278,0.015962395817041397,-0.04012652486562729,-0.00014613794337492436,2.34720682783518e-05,-0.05746084079146385,-0.019153613597154617,-9.327810287475586,0.7172743082046509,47.6895751953125,-0.49179404973983765,-3.374284267425537,-1.776654839515686,-0.569486141204834,-0.03255659341812134,-0.0032281670719385147,28.0625,29.9375,28.5625,32.375,34.875,36.0
1.0,-0.6629452470426846,-0.5207957568792878,-1.471617329104557,-0.05799261188716848,0.049041714431740706,-0.11270128493360328,-0.5392609391775853,-0.3241391468332813,0.25942336669757093,-3.0786442540357597,0.6246409746230623,-0.00015668002725586342,-0.0012289946629771946,-0.00043394735725647816,-0.01480097451803611,-0.0019745901549506595,0.0055871675812736105,-9.629340456142457e-06,0.3257943391799927,-1.150839553480484,1.6624415556537073,-2.08072628597402,-1.571345631276266,2.300691604614258,2.525022682675626e-05,0.019277343526482582,0.015974169597029686,-0.041176918894052505,1.924975913425442e-05,2.287544521095697e-05,0.019153613597154617,0.019153613597154617,-9.308655738830566,0.6859408020973206,47.6976318359375,-0.5130666494369507,-3.3650734424591064,-1.6871132850646973,-0.564170777797699,-0.035662271082401276,0.012224780395627022,28.0625,29.9375,28.5625,32.375,34.875,36.0
1.0,-1.4094616742232395,-0.9601714267792679,-1.5780880094787901,-0.04624985187547405,0.03336577671821058,-0.10182155390529467,-0.5392648752575534,-0.3241379821955248,0.2594058903116977,-3.0786415223074615,0.6246404095375458,-9.010351032321744e-05,-0.001055397653234273,-0.00037371983926727883,-0.015142034905465323,-0.0020359784484626333,0.0057881407678845994,-1.0146197205021324e-05,0.3257943391799927,-1.1508155924132843,1.662466828023092,-2.080810686151022,-1.571369473134176,2.300691604614258,2.456115726090502e-05,0.019275931641459465,0.017035378143191338,-0.042446739971637726,1.2414573575370014e-05,2.2308400730253197e-05,0.0,-0.038307227194309235,-9.366117477416992,0.7396538853645325,47.703006744384766,-0.500156044960022,-3.320128917694092,-1.7697513103485107,-0.541742205619812,-0.02430221065878868,0.0026570737827569246,28.0625,29.9375,28.5625,32.375,34.875,36.0
1.0,-0.8338393650693018,-1.0218304845889432,-1.4741403501543922,-0.04262485908637495,0.052031486449470275,-0.11429091393730091,-0.5392589151840894,-0.32415924980325894,0.25933780805111606,-3.0786231651110327,0.6245791864338001,-0.0001719845380981119,-0.0014582471114785462,-0.0005089856805840559,-0.01578326795804601,-0.002224049793772004,0.006364147013693848,-1.078617888822527e-05,0.32583022117614746,-1.1507191222957154,1.6625030676471155,-2.0808831653990687,-1.571369473134176,2.300691604614258,2.3908636649139225e-05,0.020842796191573143,0.016727576032280922,-0.04431166872382164,8.105828896987077e-07,2.176880298065953e-05,-0.019153613597154617,0.019153613597154617,-9.327810287475586,0.7284641265869141,47.703006744384766,-0.5192175507545471,-3.364640235900879,-1.7180123329162598,-0.5274758338928223,-0.03214744105935097,0.0036343256942927837,28.0625,29.9375,28.5625,32.375,34.875,36.0
1.0,-1.3897302785623742,-1.0828856799977187,-1.545021275920447,-0.053398140245726644,0.0391584850785846,-0.10588106261366359,-0.539259502936338,-0.32415287336067045,0.2592931785178433,-3.0786005439148143,0.6246527823283266,-0.00022976594124012365,-0.0014428691020845897,-0.0005031718177411999,-0.016368355994052335,-0.002083603135607789,0.005948946114553765,-1.1050901676298788e-05,0.32581818103790283,-1.1506706935218354,1.6625502745257776,-2.0809432468810023,-1.571357552205221,2.3007283210754395,2.3289965611184016e-05,0.021528106182813644,0.017279475927352905,-0.045110564678907394,5.2925269500292416e-08,2.125468017766252e-05,-0.038307227194309235,0.09576806426048279,-9.251194953918457,0.6792280077934265,47.6976318359375,-0.4913192391395569,-3.4190335273742676,-1.739886999130249,-0.5192946195602417,-0.031014535576105118,0.02362166903913021,28.0625,29.9375,28.5625,32.375,34.875,36.0
1.0,-0.9780673848049637,-0.786505350598453,-1.5585361055434803,-0.06501659504306191,0.04408508389316705,-0.11482720897182404,-0.5392849130728026,-0.324140783257043,0.25928512190132186,-3.078654780094516,0.6246432676820559,-0.00016642561808861525,-0.0012746957201131683,-0.00044554025506512,-0.016507375877105917,-0.0021913327084745254,0.006267510655938585,-1.1487666793064027e-05,0.3257824182510376,-1.150635079746582,1.6625378767596644,-2.081027170220846,-1.5713337103473108,2.3006796836853027,2.2702504793414846e-05,0.021293455734848976,0.018137319013476372,-0.04607004299759865,3.455641994776215e-09,2.0764247892657295e-05,0.0,0.1149216815829277,-9.385271072387695,0.7127973437309265,47.71375274658203,-0.5107757449150085,-3.3388381004333496,-1.727998971939087,-0.5155749320983887,-0.03246772289276123,-0.01071510836482048,28.0625,29.9375,28.5625,32.375,34.875,36.0
1.0,-0.8136052509591074,-0.9775344659326588,-1.5412240356609082,-0.061192080082942246,0.0434446841368075,-0.11227487957646025,-0.5392865285603488,-0.3241465731549552,0.25927602841409164,-3.0786820989941335,0.6246488470243812,-1.7232833706162907e-05,-0.0014956471330615873,-0.0005203274059419616,-0.01632886399750642,-0.00251144280846095,0.007206191370931961,-1.1872948498632744e-05,0.3257943391799927,-1.1506228905967255,1.6625741163836878,-2.0811716518797816,-1.571357552205221,2.300691604614258,2.2143900423543528e-05,0.021480465307831764,0.017623567953705788,-0.04673506319522858,2.256287517932165e-10,2.0295981812523678e-05,0.0,0.019153613597154617,-9.442731857299805,0.7441308498382568,47.67882537841797,-0.5633703470230103,-3.480470657348633,-1.7385404109954834,-0.48461949825286865,-0.03307822346687317,0.014282242394983768,28.0625,29.9375,28.5625,32.375,34.875,36.0
1.0,-0.985916285509161,-1.1748975151697698,-1.5426907246707338,-0.054140291332588394,0.030811668440353327,-0.1049956714661452,-0.5392829130317764,-0.3241530790034544,0.25922600761966375,-3.078669928065989,0.6246464054677033,-5.110686045033376e-05,-0.0015314294795675419,-0.0005319601749942948,-0.0177592896313468,-0.0017563742730287589,0.004973758632354598,6.867097250546062e-06,0.32580626010894775,-1.1505622428706666,1.662621800099508,-2.081255098382467,-1.571357552205221,2.300703525543213,2.1612142518279143e-05,0.023427700623869896,0.01818770170211792,-0.0468897670507431,1.4731944830703725e-11,1.3251824384497013e-06,-0.019153613597154617,0.0,-9.327810287475586,0.7306999564170837,47.72808074951172,-0.5429210066795349,-3.431579351425171,-1.6966755390167236,-0.47489720582962036,-0.03327400982379913,0.0026263059116899967,28.0625,29.9375,28.5625,32.375,34.875,36.0
1.0,-0.7901857687780227,-1.2352668179371993,-1.6427896754994409,-0.046850914161523385,0.026779615151849,-0.10676558864073651,-0.5393059131322108,-0.3241400881107191,0.2591961098622589,-3.0786847023651442,0.624707003057395,-5.4463444724115475e-05,-0.0013169892493892189,-0.0004450984021602659,-0.018207713411432003,-0.0013379181647612981,0.0037438658985704644,-1.294206929387595e-05,0.32577037811279297,-1.1505022805980225,1.6626222769366663,-2.081327100793356,-1.5713337103473108,2.300703525543213,2.89954471099918e-07,0.023583488538861275,0.018885737285017967,-0.04644445702433586,9.618907233222007e-13,8.652494187799675e-08,0.038307227194309235,0.17238251864910126,-9.366117477416992,0.7195101380348206,47.702110290527344,-0.49900108575820923,-3.5267934799194336,-1.7050354480743408,-0.47979554533958435,-0.035093873739242554,0.004331432282924652,28.0625,29.9375,28.5625,32.375,34.875,36.0
1.0,-1.0170111552251786,-1.464845667937953,-1.7351340124833818,-0.03913048788614883,0.01686741122215142,-0.10335879980336068,-0.539280624519938,-0.3241587811735581,0.25914444937651887,-3.0786648104859347,0.6246469591692462,-2.7929970974943806e-05,-0.0013250856557879575,-0.0004476776253977575,-0.018624426278454703,-0.0010141789869150823,0.0027881698563193176,-1.2896741599375396e-05,0.32581818103790283,-1.1504661601832886,1.6627185980426233,-2.0814582310118617,-1.571369473134176,2.3007164001464844,3.890109567805666e-09,0.024178609251976013,0.01891605369746685,-0.04606085643172264,6.280459279809497e-14,5.649459566825499e-09,0.038307227194309235,0.07661445438861847,-9.346963882446289,0.7777001857757568,47.7244987487793,-0.5855118036270142,-3.3845534324645996,-1.6295835971832275,-0.4954165816307068,-0.03942400589585304,0.00901251845061779,28.0625,29.9375,28.5625,32.375,34.875,36.0
1.0,-0.6208517046076745,-1.0614043947816258,-1.4741847288566123,-0.04340832514841417,0.016884221770220878,-0.11106550445114637,-0.5392778343272437,-0.3241656455710979,0.25909772293497607,-3.078666155275994,0.6245499977835356,-7.672693936637152e-05,-0.0010156763568887417,-0.0003425064776065347,-0.018611424246685746,-0.000894703261980266,0.002441699270302229,-1.2842163480055021e-05,0.32583022117614746,-1.1504064363292237,1.6627548376666468,-2.0815183124937953,-1.571369473134176,2.3006677627563477,5.2190779475935756e-11,0.023527005687355995,0.01975366100668907,-0.04588037356734276,4.1006914796313035e-15,3.688693239745078e-10,0.05746084079146385,0.13407529890537262,-9.27034854888916,0.7262282371520996,47.71196365356445,-0.576418399810791,-3.355286121368408,-1.7305753231048584,-0.4997430443763733,-0.02696744166314602,-0.0049044424667954445,28.0625,29.9375,28.5625,32.375,34.875,36.0
1.0,-0.7877180890355229,-1.0994395956258185,-1.5843069957659874,-0.036799883818097776,-0.00022696505599292122,-0.10589411824643767,-0.5392947623422758,-0.32414683173569725,0.2590049739666831,-3.078621872857392,0.62465587646516,-0.00010065395989098289,-0.0009216446016544632,-0.0003104065738542696,-0.019329248675800152,2.5156137682014086e-05,-0.0002659687114332148,-1.1885363909176231e-05,0.3257943391799927,-1.150286154156067,1.6628378073321741,-2.0816971264281214,-1.5713813940631312,2.300703525543213,9.394155273828326e-15,0.024416988715529442,0.01968049630522728,-0.0438375361263752,1.7481891491685578e-17,1.5725476476546874e-12,0.17238251864910126,0.1149216815829277,-9.27034854888916,0.6926589012145996,47.71375274658203,-0.5893837213516235,-3.3343253135681152,-1.6574594974517822,-0.5327736139297485,-0.03321761637926102,0.0012183845974504948,28.0625,29.9375,28.5625,32.375,34.875,36.0
1.0,-0.49744731172655743,-1.1214835854434493,-1.4879951994883467,-0.03429448740783315,-0.0015826437203493582,-0.09863275630881832,-0.5393256331848775,-0.32414176345208334,0.25901049924489605,-3.07865105098996,0.6247208901163646,1.0816127935995449e-05,-0.0009063974998496332,-0.00030501774666454506,-0.020589761551437283,0.0007851433402479504,-0.0025105154328498107,-1.1488118063406866e-05,0.32577037811279297,-1.150249646311142,1.662790600453512,-2.081768652001852,-1.5713813940631312,2.3007164001464844,1.2603458502405884e-16,0.02605472132563591,0.020207971334457397,-0.04363302141427994,1.1414424504887145e-18,1.0267612091498582e-13,0.19153612852096558,0.07661445438861847,-9.289502143859863,0.6948947906494141,47.70658874511719,-0.6264355778694153,-3.584317207336426,-1.6010842323303223,-0.5262940526008606,-0.04514521360397339,0.011068451218307018,28.0625,29.9375,28.5625,32.375,34.875,36.0
1.0,0.1640220664712021,-0.5724386296318819,-1.4378013370093679,-0.04704178316957048,0.009812963703065239,-0.12008948934077966,-0.5393099320968208,-0.3241532293085406,0.2589453210988206,-3.078670295355234,0.6246467421214482,-1.575097649072505e-05,-0.0007606356981185963,-0.00025543255692151746,-0.021019976851471122,0.0009590182250737505,-0.0030230635624717687,-1.1556162988177038e-05,0.3257943391799927,-1.1501894456199189,1.662886921559469,-2.0819126568236292,-1.571369473134176,2.300691604614258,1.6909148533626565e-18,0.026291068643331528,0.020955029875040054,-0.044075191020965576,7.45280296881416e-20,6.704016326314821e-15,0.17238251864910126,0.05746084079146385,-9.251194953918457,0.6993717551231384,47.71196365356445,-0.5571089386940002,-3.4549434185028076,-1.5832267999649048,-0.548147976398468,-0.04080638289451599,0.004917075391858816,28.0625,29.9375,28.5625,32.375,34.875,36.0
1.0,-0.06900589719652506,-0.8284567510137354,-1.422496801640516,-0.04469715589380773,0.00677063767465912,-0.11105713704968904,-0.5393050594197555,-0.3241658039964107,0.2589170534526707,-3.078664190803564,0.6246852643954115,2.5625566413905344e-05,-0.000755043556431109,-0.0002535239228066502,-0.02123239422416737,0.0012376647304272164,-0.0038433606575600174,-1.1252368975390038e-05,0.32581818103790283,-1.1501534146121521,1.662922207509176,-2.0820075474181117,-1.5713813940631312,2.3007402420043945,2.2685780497261973e-20,0.026605291292071342,0.02085111476480961,-0.04341916739940643,4.866147235594258e-21,4.37724392526157e-16,0.19153612852096558,0.09576806426048279,-9.174580574035645,0.7306999564170837,47.687782287597656,-0.5851085782051086,-3.5464706420898438,-1.5883760452270508,-0.569717526435852,-0.03652123361825943,0.009337387047708035,28.0625,29.9375,28.5625,32.375,34.875,36.0
1.0,-0.3996286478369956,-1.0382761900062198,-1.4006457662436005,-0.038747865932763026,0.0049427560491919174,-0.10033571555712804,-0.539316662505016,-0.32413993958608495,0.25884459068385707,-3.078629312386381,0.6246959812978148,-9.842243718405262e-05,-0.000719022332411349,-0.00024123890396405352,-0.021263167351106022,0.0011897466023777538,-0.003702953182881212,-1.1369002551744939e-05,0.32577037811279297,-1.1500695508769532,1.662983242665426,-2.0820681057372035,-1.571369473134176,2.300703525543213,3.043586931056053e-22,0.02655567042529583,0.021060669794678688,-0.04372745752334595,3.1772467265623973e-22,2.858027468634428e-17,0.17238251864910126,0.038307227194309235,-9.21288776397705,0.6725152134895325,47.686885833740234,-0.6016339063644409,-3.4054489135742188,-1.585432767868042,-0.599486231803894,-0.03620044142007828,-0.004210313782095909,28.0625,29.9375,28.5625,32.375,34.875,36.0
1.0,-0.616927186192457,-1.2182779826186882,-1.4271214361325535,-0.036727244736554636,0.001201232336790179,-0.09684351936025927,-0.5392969603082624,-0.3241486258993333,0.25881260312559384,-3.0786267839041472,0.6246781601539699,-0.00011473935443975141,-0.0008527600133372269,0.0001656785399424326,-0.02165308854748943,0.0009918211244895336,-0.003123416031605153,-0.000708434441375991,0.3257940709590912,-1.150057540541031,1.6630552450763147,-2.082140108148092,-1.571369473134176,2.3007164001464844,-0.0006964572821743786,0.026756778359413147,0.022079147398471832,-0.04555944725871086,2.074515011886189e-23,1.866087615466047e-18,0.2298433631658554,0.07661445438861847,-9.155426979064941,0.6546126008033752,47.7164421081543,-0.6168398857116699,-3.443227767944336,-1.5740721225738525,-0.5852034687995911,-0.03647115081548691,0.0049705482088029385,28.0625,29.9375,28.5625,32.375,34.875,36.0
1.0,-0.06856827848358643,-0.9982337772853155,-1.3518826657555223,-0.046439610259566014,0.015420612879622306,-0.10825945004849861,-0.5393009024834845,-0.32415772104382223,0.2587662248359143,-3.0786246073653825,0.624658595788867,-0.00013149171341387373,-0.0006768422463488276,0.00020380187748169796,-0.021710908055201296,0.0014224621488724016,-0.004386661366329848,-0.0006744867978561663,0.32580602169036865,-1.1499856871417542,1.663079086934225,-2.0822235546507777,-1.571369473134176,2.3007164001464844,-0.00066308060195297,0.026587901636958122,0.02211412601172924,-0.04409091919660568,1.3545100674356648e-24,1.2184219203950365e-19,0.325611412525177,0.038307227194309235,-9.21288776397705,0.7709873914718628,47.687782287597656,-0.5553469657897949,-3.4549858570098877,-1.596961498260498,-0.6269299983978271,-0.051600273698568344,-0.006492624059319496,28.0625,29.9375,28.5625,32.375,34.875,36.0
1.0,-0.36973224631179064,-1.1316853484700824,-1.205796394468594,-0.04586790505741293,0.010219450871268469,-0.10506990462539893,-0.5393181255942822,-0.3241402858720652,0.2587412043785261,-3.0786503458946033,0.6246816166443575,-5.161283344508942e-05,-0.00037061587311172303,0.0002531221979655434,-0.021927920373931653,0.0019538746774292546,-0.005946590891868282,-0.0005895008072290848,0.32577016949653625,-1.1499497455409546,1.6631153265582483,-2.0823546848692835,-1.571369473134176,2.300691604614258,-0.0005786750698462129,0.02638310007750988,0.02257811836898327,-0.042702145874500275,8.843983703381313e-26,7.955424081512949e-21,0.2298433631658554,0.038307227194309235,-9.21288776397705,0.7329410910606384,47.692256927490234,-0.5717496871948242,-3.3487138748168945,-1.5620231628417969,-0.6777123212814331,-0.05609165132045746,0.0022206781432032585,28.0625,29.9375,28.5625,32.375,34.875,36.0
1.0,-0.1590882009094126,-0.9607206808419585,-1.4178111682321317,-0.050658481148933045,0.01982226517190116,-0.11644953905630546,-0.5393044116252098,-0.3241551423285869,0.2586964732536594,-3.0786097127286762,0.6246348465583201,-7.124846949179449e-05,-0.0002495581217601666,0.0002514559768673609,-0.022198187664661313,0.0016992996927282372,-0.005199014941427174,-0.0005241578713348001,0.3258060812950134,-1.149901733999588,1.6631634871112269,-2.0824152431883753,-1.5714057127581995,2.300703525543213,-0.0005127047770656645,0.026413902640342712,0.02355438843369484,-0.044498953968286514,5.774489174423017e-27,5.194323671534177e-22,0.17238251864910126,0.09576806426048279,-9.289502143859863,0.6971306204795837,47.71017074584961,-0.6315395832061768,-3.411898136138916,-1.613651990890503,-0.6834848523139954,-0.04704507067799568,-0.011440576985478401,28.0625,29.9375,28.5625,32.375,34.875,36.0
1.0,-0.615028166326161,-0.8856801608343707,-1.3930177357780513,-0.05683175440313412,0.011507196284814919,-0.11237997517836694,-0.5393059088540063,-0.32415821113049104,0.2586319263675205,-3.078610523915669,0.6246159375526646,-0.00015564111421103807,-0.00018500781889950208,0.00023943479027938334,-0.022984631543428984,0.0018269941620569132,-0.00558079357393737,-0.00047201485669352725,0.3258061110973358,-1.14981763184581,1.6632116476642054,-2.0824996433653773,-1.5713813940631312,2.300691604614258,-0.0004602365952450782,0.027264727279543877,0.0244574174284935,-0.0458502434194088,3.7703290149562408e-28,3.3915222374571944e-23,0.26815059781074524,0.038307227194309235,-9.327810287475586,0.7127973437309265,47.70927429199219,-0.622169554233551,-3.3414711952209473,-1.6650362014770508,-0.7031891345977783,-0.03680207580327988,-0.009993509389460087,28.0625,29.9375,28.5625,32.375,34.875,36.0
1.0,-0.774099269256187,-1.1126576843988496,-1.359515862171699,-0.04842661539383405,0.01608024846928969,-0.11079561498957992,-0.539300978937722,-0.32415903086291237,0.25860326523493576,-3.078634771327555,0.624601845168174,-0.00017372909333666852,-0.00025418421093073313,0.00018820791851660188,-0.02323479012745351,0.001541129515533493,-0.004744471642208238,-0.0004298747826662211,0.3258061110973358,-1.149793491964676,1.6632593313800257,-2.082572122613424,-1.571357552205221,2.3006796836853027,-0.000417516304878518,0.027660204097628593,0.024852575734257698,-0.04752470552921295,2.461755252203915e-29,2.2144215050224438e-24,0.2106897532939911,0.07661445438861847,-9.423578262329102,0.7016075849533081,47.69853210449219,-0.6365185379981995,-3.489842653274536,-1.6579303741455078,-0.7113643288612366,-0.03749774768948555,0.009303893893957138,28.0625,29.9375,28.5625,32.375,34.875,36.0
1.0,-0.2662330492643998,-1.0367662002909908,-1.4646999787618094,-0.046734499288687684,0.030559787561356334,-0.11555323060354386,-0.5392908590019464,-0.324177656554159,0.25854449930286005,-3.0786260716814393,0.6245616483831044,-0.00018158289558601782,-0.000228302775381075,0.0001740085345635718,-0.023572659813299188,0.0021446142129062807,-0.006519700016466047,-0.00039367505351404786,0.325842022895813,-1.149721698170044,1.6633194128619593,-2.082691331902975,-1.571369473134176,2.300691604614258,-0.0003820535202976316,0.028193993493914604,0.02449139580130577,-0.04582231491804123,1.6073502866138215e-30,1.4458591495322232e-25,0.17238251864910126,0.019153613597154617,-9.289502143859863,0.7217512726783752,47.693153381347656,-0.6232073307037354,-3.4087929725646973,-1.5469835996627808,-0.742732048034668,-0.03990368917584419,0.009562627412378788,28.0625,29.9375,28.5625,32.375,34.875,36.0
1.0,-1.04581866817915,-0.9447619917540337,-1.429876826216118,-0.04415084083662528,0.010961345087763794,-0.10961824410880878,-0.5392988578167237,-0.32414931895717564,0.258482886911687,-3.0785815863194173,0.6246292467504848,-0.00026321272111902395,-0.00029292322318431527,0.00013268747616365976,-0.024037201128794018,0.0022133663573803506,-0.00672814562831231,-0.00036392546810908824,0.3257942199707031,-1.1496611398509522,1.6633909384356897,-2.0827633343138636,-1.571369473134176,2.300691604614258,-0.0003521474136505276,0.028920700773596764,0.024693593382835388,-0.04653173312544823,1.0494848828971908e-31,9.440426334528156e-27,0.09576806426048279,0.13407528400421143,-9.193734169006348,0.7418897151947021,47.71375274658203,-0.6632804870605469,-3.451613426208496,-1.487939715385437,-0.7839664816856384,-0.027869392186403275,-0.0006369816837832332,28.0625,29.9375,28.5625,32.375,34.875,36.0
1.0,-0.5727233857508687,-0.7375469556804299,-1.460418775059451,-0.058292937438354786,0.03155756362113371,-0.11574919109219756,-0.5393106116177566,-0.3241545596366632,0.258451067592291,-3.0785979476470207,0.6246914995408569,-0.00022435454744038075,-0.00013279917340728534,0.0001983470637200932,-0.024775323092113534,0.0020059009023355237,-0.006123010529978094,-0.00038191860105735403,0.3257942199707031,-1.1496009987643738,1.6634038130389612,-2.082872053185934,-1.571357552205221,2.3007283210754395,-0.0003692578466143459,0.029364127665758133,0.026372749358415604,-0.04929402470588684,6.852386361065133e-33,6.163923379571793e-28,0.13407529890537262,0.1149216815829277,-9.346963882446289,0.6769921779632568,47.6394157409668,-0.6616075038909912,-3.4511122703552246,-1.5496238470077515,-0.7987006902694702,-0.04008902609348297,-0.004679982550442219,28.0625,29.9375,28.5625,32.375,34.875,36.0
1.0,-1.3620327903113698,-1.9907792458304985,-1.4761102353978846,-0.04437405640608022,0.027869115711335143,-0.09806910659851473,-0.539304213727068,-0.3241458861536454,0.2584108618559228,-3.078621283625545,0.6246565847610679,-0.00021888480588109731,-6.192089118834971e-05,0.00021983086142335503,-0.02554426688384134,0.0020201191937280656,-0.006171157211654191,-0.00037823657792515635,0.32578229904174805,-1.1495767694762726,1.6634882132159632,-2.082991739312643,-1.571345631276266,2.300691604614258,-0.00036507262848317623,0.030115924775600433,0.027478313073515892,-0.05110122263431549,4.474118384464308e-34,4.024601360311424e-29,0.05746084079146385,0.19153612852096558,-9.27034854888916,0.7083203792572021,47.623294830322266,-0.6631490588188171,-3.3962512016296387,-1.6095099449157715,-0.8069295883178711,-0.03928893059492111,-0.010707221925258636,28.0625,29.9375,28.5625,32.375,34.875,36.0
1.0,-1.0230635579308238,-1.3085300022519704,-1.3124090956632608,-0.05251529501988969,0.043451238000936206,-0.1095251026733482,-0.5392891470383036,-0.3241589749466367,0.25829358037405337,-3.0785401322018555,0.6246415703194748,-0.0002933441835286943,-0.0003337866469484956,9.948568553683223e-05,-0.026741679254717064,0.0016139778398420526,-0.004992587812054812,-0.0003362788122454584,0.3258180618286133,-1.1494440895370026,1.663607422505514,-2.083161016503805,-1.5713933149920862,2.3007283210754395,-0.00032181950518861413,0.03203076496720314,0.028464028611779213,-0.05524835363030434,1.9073868438621804e-36,1.7157507316141653e-31,0.038307227194309235,0.038307227194309235,-9.174580574035645,0.7038487195968628,47.67703628540039,-0.6495916843414307,-3.4664244651794434,-1.4667532444000244,-0.8364571332931519,-0.044183745980262756,-0.01379814650863409,28.0625,29.9375,28.5625,32.375,34.875,36.0
1.0,-0.503266740345859,-0.8983355493212994,-1.2973330895401676,-0.056571209356294436,0.049861108430436285,-0.12661227641014364,-0.5393034485091707,-0.3241455997754019,0.2582312259142723,-3.078576394819071,0.6246093529336535,-0.000364204784055624,0.00022065211317246532,0.00027635702766218946,-0.027794446112667903,0.0018188382617585763,-0.005596856322234098,-0.00031877729650007196,0.32578229904174805,-1.1493602854064484,1.6636565367328089,-2.0832697353758753,-1.571345631276266,2.3006677627563477,-0.00030371680622920394,0.03212606906890869,0.031218765303492546,-0.05746034160256386,1.2453873066909864e-37,1.1202625732545515e-32,0.038307227194309235,-0.019153613597154617,-9.136273384094238,0.6881819367408752,47.72092056274414,-0.6806247234344482,-3.496985912322998,-1.6698887348175049,-0.8343066573143005,-0.03154214844107628,0.0018626528326421976,28.0625,29.9375,28.5625,32.375,34.875,36.0
1.0,-0.8485443380247284,-1.3120969753657037,-1.2441262287343573,-0.044026580298273124,0.042623630250888805,-0.10927808961678845,-0.539326594443902,-0.3241380919962036,0.25819410763833067,-3.078546452461225,0.6246607047990405,-0.00019194573638627816,-0.0004450259893148886,6.701030968106567e-05,-0.02773379136563065,8.170659770088962e-05,-0.0005018708285760981,-0.0003472714392428802,0.3257702589035034,-1.1492878955653687,1.6636808554278772,-2.0834514103331507,-1.5714176336871546,2.300691604614258,-0.00032976269721984863,0.033011458814144135,0.031277164816856384,-0.06378711014986038,8.131488359947192e-39,7.314514975524126e-34,0.019153613597154617,0.038307227194309235,-9.155426979064941,0.7575564384460449,47.6949462890625,-0.6776251196861267,-3.5171375274658203,-1.6155034303665161,-0.8078709840774536,-0.04325009137392044,-0.008350338786840439,28.0625,29.9375,28.5625,32.375,34.875,36.0
1.0,-0.40153946919664935,-0.9747974626397496,-1.3438545476822077,-0.053940435548861396,0.05096628743144632,-0.1128113277516682,-0.5393019747050996,-0.32416581163885294,0.25813043156317245,-3.078583933238235,0.6245918578136006,-0.0002804519467599427,-0.0009629369631577039,-0.00011633928115177116,-0.028478314236238707,-1.5320003288077366e-05,-0.00023132413339834595,-0.0003363386941493054,0.3258180618286133,-1.1492270690253754,1.663764778767721,-2.0835591755309046,-1.571369473134176,2.300691604614258,-0.0003184281522408128,0.03499305248260498,0.030554983764886856,-0.06533390283584595,5.309281660587797e-40,4.7758553291312225e-35,0.0,0.05746084079146385,-9.232041358947754,0.7665104269981384,47.70838165283203,-0.6685401201248169,-3.5773141384124756,-1.5846718549728394,-0.7790300846099854,-0.04465828835964203,-0.0025358092971146107,28.0625,29.9375,28.5625,32.375,34.875,36.0
1.0,-0.9472392455961691,-1.309788003967685,-1.3175401230475505,-0.04764484501182416,0.040874494457102874,-0.10859158165153393,-0.5393028616995864,-0.3241701445783063,0.2580748514646294,-3.0785718773272968,0.6245318334020404,-0.00023202615443301933,-0.0009833578408431631,-0.00013332815586533653,-0.027532610574200644,-0.0014546648667913657,0.004005492676177488,-0.00032277873183312315,0.3258301317691803,-1.1491558414748688,1.6638243834124964,-2.0837046108641566,-1.5714057127581995,2.3006677627563477,-0.0003031754167750478,0.033559806644916534,0.03125559538602829,-0.06907590478658676,3.4665321410467325e-41,3.118292208664935e-36,0.038307227194309235,0.09576806426048279,-9.193734169006348,0.6904177665710449,47.72987747192383,-0.7250139713287354,-3.6257073879241943,-1.5736631155014038,-0.7588764429092407,-0.048988863825798035,0.0028584860265254974,28.0625,29.9375,28.5625,32.375,34.875,36.0
1.0,-0.9318673240651245,-1.154208232755389,-1.2928142557351745,-0.05450835801436443,0.04164062492979828,-0.11337184361023582,-0.5393095579142116,-0.32414516193080306,0.2580013123142843,-3.0785596069802557,0.6246634125569749,-0.0003074696339991438,-0.0011935229350347968,-0.000213743011099781,-0.02758734690662496,-0.00308711533744227,0.008798934462071958,-0.00031141944222418783,0.32578232884407043,-1.1490838688663025,1.6639211813556116,-2.08383907894277,-1.571369473134176,2.300703525543213,-0.00028925490914843976,0.03365122899413109,0.0327596478164196,-0.0757351666688919,2.2630970198845796e-42,2.036022096830723e-37,0.05746084079146385,0.05746084079146385,-9.27034854888916,0.7239871025085449,47.6949462890625,-0.7281901240348816,-3.486720561981201,-1.5894017219543457,-0.6825469732284546,-0.04335877299308777,-0.008783316239714622,28.0625,29.9375,28.5625,32.375,34.875,36.0
1.0,-1.04149335500411,-1.1700618196788808,-1.4147276088248566,-0.05961861416945524,0.04513109212578113,-0.1108469894078349,-0.5393226500238597,-0.32415608152244824,0.25797450015356904,-3.078597957657641,0.6246330958750967,-0.00018590533367925427,-0.0012575139647077018,-0.00021900184036660088,-0.028542773243655558,-0.00278959099320757,0.007914732741703664,-0.00033673709709887987,0.3257942199707031,-1.149024025802948,1.663933579121725,-2.083994051019186,-1.5713813940631312,2.300691604614258,-0.0003144553047604859,0.03497098758816719,0.03329532593488693,-0.07665769010782242,1.471363387541058e-43,1.3293768206433458e-38,0.05746084079146385,0.038307227194309235,-9.346963882446289,0.7016075849533081,47.68598937988281,-0.7121202349662781,-3.5085413455963135,-1.6690956354141235,-0.6490805745124817,-0.040100254118442535,0.0017071629408746958,28.0625,29.9375,28.5625,32.375,34.875,36.0
1.0,-0.44653758826811674,-0.721220135887543,-1.2702792310456654,-0.07075358550482205,0.05378054374137979,-0.12961075144717213,-0.5393309342346687,-0.32414334209601614,0.25789407435440775,-3.078583124635,0.6246493957750665,-0.0002170729232619595,-0.0017846888993780308,-0.00040567948572665545,-0.0291199137148946,-0.003375374441469167,0.00962340555007285,-0.000326113714118548,0.3257702887058258,-1.1489272874644776,1.6640165487872522,-2.0841509304442347,-1.5713813940631312,2.3006796836853027,-0.0003027511411346495,0.03664695471525192,0.03298727422952652,-0.07983189076185226,9.80908925027372e-45,8.679880908766852e-40,0.09576806426048279,0.038307227194309235,-9.366117477416992,0.6769921779632568,47.668975830078125,-0.732764720916748,-3.634239435195923,-1.6120309829711914,-0.6276754140853882,-0.058215923607349396,-0.0016460667829960585,28.0625,29.9375,28.5625,32.375,34.875,36.0
1.0,-0.8457902553458267,-1.295110552811354,-1.3328769237722824,-0.05181052744943116,0.04083309428395737,-0.11137416279685351,-0.5393239856449263,-0.32415528654197945,0.25785001821753106,-3.0785863845227475,0.6247087739786844,-0.00013994140011840093,-0.0018954308853094785,-0.0004888211592126426,-0.028581639117956036,-0.004555994342407818,0.01309443638541119,-0.0002577375397360841,0.3257942497730255,-1.1488794845393677,1.6640880743609827,-2.084320207635397,-1.5713933149920862,2.3007402420043945,-0.00023288205557037145,0.035993754863739014,0.03346946835517883,-0.08332721143960953,0.0,5.66741150911529e-41,0.09576806426048279,0.13407529890537262,-9.270349502563477,0.7195101380348206,47.72092056274414,-0.7334387302398682,-3.579059600830078,-1.5927367210388184,-0.5765131711959839,-0.05012360215187073,-0.0006209223647601902,28.0625,29.9375,28.5625,32.375,34.875,36.0
1.0,-1.2506011002299582,-1.4556746985641804,-1.3084976039092235,-0.047726778219613325,0.027288667053782363,-0.10280983585923398,-0.5393380517333017,-0.32414575179331473,0.2578325075897193,-3.0786628219541257,0.6246848935861647,1.1466885633493413e-05,-0.00185202410261473,-0.0004575353028465736,-0.02992943026300924,-0.004193131860685401,0.012017480020586002,-0.00028312304341960925,0.3257702887058258,-1.1488550764373322,1.6641371885882776,-2.0845123730101527,-1.5713813940631312,2.300691604614258,-0.0002579562133178115,0.037556324154138565,0.034730758517980576,-0.08501462638378143,0.0,3.700829244281842e-42,0.038307227194309235,0.09576806426048279,-9.251194953918457,0.6299919486045837,47.67255783081055,-0.7159004211425781,-3.731781244277954,-1.6361511945724487,-0.5408774018287659,-0.04525581747293472,-0.008818543516099453,28.0625,29.9375,28.5625,32.375,34.875,36.0
1.0,-0.986514789584391,-1.2722479786785068,-1.2627141263929431,-0.04906644511878611,0.029354413854377356,-0.1124380055732563,-0.5393463585920552,-0.3241498117247834,0.2577385958190843,-3.078644928132142,0.6247004412840915,-6.556261127109814e-05,-0.0017817906333665269,-0.0004121393757444054,-0.030636232718347978,-0.00393135239601318,0.011242841875553036,-0.00031619807406191476,0.3257702887058258,-1.1487224859050293,1.6641977469073694,-2.084655900994772,-1.571369473134176,2.300703525543213,-0.0002909447066485882,0.03828812763094902,0.03546059876680374,-0.08565859496593475,0.0,2.4102333586386854e-43,0.019153613597154617,0.15322890877723694,-9.308656692504883,0.7262282371520996,47.70121383666992,-0.797247052192688,-3.6280863285064697,-1.5993952751159668,-0.5002428293228149,-0.03885146602988243,-0.0046962350606918335,28.0625,29.9375,28.5625,32.375,34.875,36.0
1.0,-0.8519080312117574,-1.0347757959726707,-1.3306566251126828,-0.05376347610815971,0.024136564973619445,-0.1134407798872521,-0.5393424797427807,-0.32415248501486144,0.2576745712758545,-3.0786278173398856,0.6246586044128668,-2.0735495109101775e-05,-0.0014596005311311522,-0.0002851500025511642,-0.029983286373642934,-0.003836013253193514,0.010973109658326888,-0.0003428689025322387,0.32578229904174805,-1.1486514669707795,1.6642816702472132,-2.084822794000143,-1.5714057127581995,2.300691604614258,-0.0003180306521244347,0.03684460371732712,0.03564612567424774,-0.08411453664302826,0.0,1.5414283107572988e-44,0.019153613597154617,0.13407528400421143,-9.232041358947754,0.6971306204795837,47.72987747192383,-0.7144641876220703,-3.6565208435058594,-1.6856459379196167,-0.48528701066970825,-0.046095721423625946,-0.0005294205620884895,28.0625,29.9375,28.5625,32.375,34.875,36.0
1.0,-0.41938911472793894,-0.5774092778803754,-1.3384319551777606,-0.05733234600653413,0.02277141822694188,-0.11335758449683683,-0.5393455434859658,-0.3241390812592874,0.2576234170490053,-3.078630470487481,0.6247569289884166,-1.5280123670711817e-07,-0.0015210020302559007,0.0002054622890891849,-0.0306393213688994,-0.0028231403772786094,0.007994395223375778,-0.00112905378608159,0.32575806975364685,-1.1486033958247681,1.664365593587057,-2.0849772892394007,-1.5713933149920862,2.3007283210754395,-0.0011053263442590833,0.03747444972395897,0.03570238873362541,-0.08165442943572998,0.0,1.401298464324817e-45,0.1149216815829277,0.1149216741323471,-9.289502143859863,0.7217512726783752,47.65911865234375,-0.7172554731369019,-3.5362768173217773,-1.6135592460632324,-0.48130089044570923,-0.040560487657785416,-0.020603729411959648,28.0625,29.9375,28.5625,32.375,34.875,36.0
1.0,-0.34587567591955504,-0.7280763683710488,-1.5138917511379848,-0.03786865820196543,0.01222656765892543,-0.1111164355607982,-0.539350152639124,-0.32415619945586494,0.2575421285276934,-3.0786548288019344,0.6246647094442017,1.3797905810972587e-05,-0.0012331006631249057,0.00029708921769710205,-0.03259533783128928,-0.0007510674712604241,0.0018914863994077824,-0.0011171546141693195,0.32578203082084656,-1.1484827262214203,1.6644247213946741,-2.085167547265524,-1.5713933149920862,2.300691604614258,-0.00109535688534379,0.039715927094221115,0.03617075830698013,-0.07791920006275177,0.0,0.0,0.15322890877723694,0.038307227194309235,-9.174580574035645,0.7396538853645325,47.69584274291992,-0.7331151962280273,-3.6858320236206055,-1.581589937210083,-0.5126312971115112,-0.06424687802791595,-0.0241384357213974,28.0625,29.9375,28.5625,32.375,34.875,36.0
1.0,-0.19066547232544,-0.5880458130176653,-1.4092552274027452,-0.03429997612194713,0.0055352064902733835,-0.11354255234082541,-0.539360057007685,-0.3241567583890814,0.2575001820505669,-3.078723927734333,0.6246790817338119,5.466417426715935e-05,-0.000719961850058494,0.0004527896395467258,-0.033443499804434645,0.000306373035107943,-0.0012161078578083323,-0.0010872074297243225,0.3257700204849243,-1.148422585134842,1.664473835621969,-2.085334917108053,-1.571345631276266,2.3006796836853027,-0.001066330587491393,0.0399077869951725,0.037410277873277664,-0.07606799900531769,0.0,0.0,0.15322890877723694,0.09576806426048279,-9.117119789123535,0.7374180555343628,47.7191276550293,-0.6959240436553955,-3.7443318367004395,-1.638890027999878,-0.5352067947387695,-0.048845283687114716,-0.01740981638431549,28.0625,29.9375,28.5625,32.375,34.875,36.0
1.0,-0.3710029862285399,-0.7633141025249297,-1.3689041649484888,-0.028978512369115188,-0.0005184117456996998,-0.11001284174214457,-0.5393422754921744,-0.3241469696900398,0.2574013559632021,-3.078625091389913,0.6247368567221844,-6.431626326765079e-05,-0.0005366797141740558,0.00044452459405104226,-0.033319711236469984,0.0005753968483621641,-0.0020033666844387343,-0.000978208057128915,0.3257700502872467,-1.148338870411255,1.664605442677633,-2.0854417286314906,-1.5713813940631312,2.3007283210754395,-0.0009577685850672424,0.0395304299890995,0.03737983480095863,-0.07482824474573135,0.0,0.0,0.19153612852096558,0.038307227194309235,-9.155426979064941,0.7083203792572021,47.69853210449219,-0.7387378811836243,-3.669767379760742,-1.6502777338027954,-0.5576679706573486,-0.05780092626810074,-0.005272520240396261,28.0625,29.9375,28.5625,32.375,34.875,36.0
1.0,-0.3759722566388981,-0.7794229044591908,-1.4330392828128806,-0.02912193773717988,-0.0012464389644286332,-0.11121037777531319,-0.5393481496189186,-0.3241451181518105,0.25733564514553187,-3.078625125741666,0.6246399016636546,-3.879967112160737e-06,-0.0004878743504601619,0.0005484926663532289,-0.0342004118365823,0.001253634852933696,-0.004003154447641863,-0.0011120739003326776,0.32576999068260193,-1.1482541126063843,1.6646769682513636,-2.085621496240133,-1.5714176336871546,2.3006677627563477,-0.0010921088978648186,0.04055393487215042,0.037802137434482574,-0.07416237890720367,0.0,0.0,0.24899697303771973,-0.019153613597154617,-9.136273384094238,0.6971306204795837,47.68867492675781,-0.6968486309051514,-3.635401725769043,-1.6587234735488892,-0.5746658444404602,-0.04171907901763916,-0.009592495858669281,28.0625,29.9375,28.5625,32.375,34.875,36.0
1.0,-0.4794046072849314,-0.6968472626021867,-1.2461132684474565,-0.036581848393327836,-0.015743319189622875,-0.10815359457751555,-0.5393483840955654,-0.3241657723294771,0.2572007645348124,-3.078663109574687,0.6246285980353896,-6.120984269051885e-05,2.3994829813535e-05,0.0008559136510083872,-0.035091594994719984,0.002483091735134903,-0.0076150904902043464,-0.0012655988741386902,0.32579392194747925,-1.1480748218349,1.664797608052389,-2.085907598535055,-1.571369473134176,2.3006796836853027,-0.0012973418924957514,0.040695372968912125,0.03909188508987427,-0.07177812606096268,0.0,-5.057830276200548e-05,0.3447650372982025,-0.05746084079146385,-9.078812599182129,0.7530794739723206,47.6734504699707,-0.7653300762176514,-3.6197619438171387,-1.655501127243042,-0.6389024257659912,-0.040187448263168335,-0.0007773030083626509,28.0625,29.9375,28.5625,32.375,34.875,36.0
1.0,-0.11827380524701453,-0.7037154460325289,-1.3925786488530614,-0.021047219720876274,-0.009670072570762375,-0.11549943459711,-0.5393609586910874,-0.32415316416060513,0.2571265381412149,-3.0786300796595167,0.6247384367240721,-5.314942156357766e-05,0.00020413352938749435,0.0010216254448864293,-0.03563063963052481,0.0031185938642654784,-0.009484696674443705,-0.0014253119644447646,0.3257698714733124,-1.1479785603335877,1.6648696104632776,-2.0860749683775843,-1.5713813940631312,2.3007283210754395,-0.0014580960851162672,0.04100634902715683,0.03962897136807442,-0.07065152376890182,0.0,-5.105472155264579e-05,0.2298433631658554,0.0,-9.155426979064941,0.6904177665710449,47.7191276550293,-0.7358517646789551,-3.735287666320801,-1.6867516040802002,-0.6480935215950012,-0.05585446208715439,-0.012689548544585705,28.0625,29.9375,28.5625,32.375,34.875,36.0
1.0,-0.06409008698457919,-0.6158700848074925,-1.328176624464483,-0.021570151011784094,-0.011050843028187514,-0.11139581872093053,-0.5393464124828703,-0.32414820922863036,0.2570527954908335,-3.0786081518254207,0.6246942762630532,-0.0001351029733124881,0.0005966964494347488,0.0011427733320239662,-0.036366845130720804,0.0037716061485326535,-0.011404747702069925,-0.0014071717455954962,0.3257698714733124,-1.1479187172702332,1.6649778524981897,-2.0861827335753382,-1.5713813940631312,2.300703525543213,-0.0014390680007636547,0.04121842235326767,0.040880218148231506,-0.07008678466081619,0.0,-4.976789568900131e-05,0.3447650372982025,0.0,-9.174580574035645,0.7306999564170837,47.71017074584961,-0.7057079076766968,-3.619854688644409,-1.6832242012023926,-0.6922234296798706,-0.0597059428691864,-0.011332690715789795,28.0625,29.9375,28.5625,32.375,34.875,36.0
1.0,0.01048378370785119,-1.0152115232649597,-1.0409036260948568,-0.01527283523343081,-0.01272506618678508,-0.10622796644388187,-0.5393421931785728,-0.32413110643441134,0.2569919662644574,-3.0785868227264377,0.62470952091099,-0.0001836027775386013,0.0005769782689451749,0.0014343957537250231,-0.036684955886446,0.003995606136919622,-0.0120650273200993,-0.0018677219620995985,0.32574576139450073,-1.1478706461242218,1.6650732199298304,-2.086290498773092,-1.5713813940631312,2.300691604614258,-0.0018983813934028149,0.04138195887207985,0.041367001831531525,-0.07003986090421677,0.0,-4.8436639190185815e-05,0.28730422258377075,0.0,-9.155426979064941,0.6680382490158081,47.674346923828125,-0.6889603137969971,-3.6436479091644287,-1.7560992240905762,-0.7092485427856445,-0.05398908257484436,-0.01127924770116806,28.0625,29.9375,28.5625,32.375,34.875,36.0
1.0,-0.3453539738462718,-0.7441262259958319,-1.26313520507961,-0.0285962279665818,-0.010575865377179581,-0.1132183608891755,-0.5393433180928199,-0.3241393347862978,0.2569015618272763,-3.0785684032425933,0.624705550628272,-0.0002352151560550929,0.0011034727902981866,0.001510749253215279,-0.03708654072251801,0.004677042242720288,-0.014063798383571502,-0.0017103054371810126,0.32575786113739014,-1.1477507513812562,1.6651461760150355,-2.086445470849508,-1.5713813940631312,2.300703525543213,-0.0017403148813173175,0.0410199910402298,0.04247838258743286,-0.06867753714323044,0.0,-4.7167912271106616e-05,0.2298433631658554,0.05746084079146385,-9.174580574035645,0.7486078143119812,47.6949462890625,-0.7230614423751831,-3.5874123573303223,-1.7353436946868896,-0.7821335792541504,-0.06322377920150757,-0.005998669192194939,28.0625,29.9375,28.5625,32.375,34.875,36.0
1.0,-0.0079947028297421,-0.6465237136090621,-1.3762750451586083,-0.04279851256193442,0.012410835797592447,-0.11947143887628246,-0.5393586111308512,-0.3241354353474317,0.25684828185317415,-3.078570167783879,0.6247061877352762,-0.0001937452445861068,0.000933951059790987,0.0014575269893790858,-0.037439234120154215,0.004370049924689553,-0.013168009932420012,-0.0017188525136847602,0.3257457911968231,-1.1476667088321229,1.6651824156390589,-2.0865894756712855,-1.5713933149920862,2.300691604614258,-0.0017470043385401368,0.04172108322381973,0.042732108384370804,-0.07057928293943405,0.0,-4.5963333832332864e-05,0.2298433631658554,0.038307227194309235,-9.155426979064941,0.7418897151947021,47.686885833740234,-0.7061083316802979,-3.5843074321746826,-1.7801408767700195,-0.801517128944397,-0.052346497774124146,-0.014786376617848873,28.0625,29.9375,28.5625,32.375,34.875,36.0
1.0,-0.37240536847054234,-0.9057684362804318,-1.3760354958595948,-0.05320935044193636,0.025107623569094753,-0.1138018530289638,-0.5393387553335098,-0.3241480467142926,0.25677135881623925,-3.07856147822556,0.624724835710285,-0.0003186383478593217,0.0009686752917757975,0.0013488170993863988,-0.03749785671716315,0.0036708496607751207,-0.011113490571164336,-0.0015355808517407688,0.32576984167099,-1.147594229584076,1.6652777830706995,-2.0866862736144007,-1.571357552205221,2.3007283210754395,-0.0015614274889230728,0.04166765511035919,0.043624378740787506,-0.07358836382627487,0.0,-4.481886571738869e-05,0.2106897532939911,0.1149216815829277,-9.27034854888916,0.6971306204795837,47.72897720336914,-0.7622330784797668,-3.62913179397583,-1.7180198431015015,-0.7897252440452576,-0.03994085639715195,-0.006763285957276821,28.0625,29.9375,28.5625,32.375,34.875,36.0
1.0,-0.7736113724209113,-1.530806935507046,-1.382057128904573,-0.05455743364702858,0.02856635044314413,-0.11301026832357257,-0.5393446798996718,-0.3241385742896388,0.2566819463261531,-3.0785371508688733,0.6246609953671357,-0.00030641136081083567,0.0013687327462623211,0.0013990279181849965,-0.03861797364540306,0.004179953332699829,-0.012615198019316471,-0.001404486067698116,0.3257579505443573,-1.1474866432002564,1.6653741041766565,-2.0868784389891566,-1.5713933149920862,2.3006796836853027,-0.0014291744446381927,0.042357780039310455,0.04540936276316643,-0.07447781413793564,0.0,-4.372995317680761e-05,0.17238251864910126,0.07661445438861847,-9.251194953918457,0.6613254547119141,47.668975830078125,-0.7616119980812073,-3.5485143661499023,-1.9153122901916504,-0.8315455913543701,-0.05037051439285278,-0.012322199530899525,28.0625,29.9375,28.5625,32.375,34.875,36.0
1.0,-1.2634545548846066,-1.8052820358746269,-1.5432051407970588,-0.06143732389131981,0.031723662680113396,-0.10553694055833943,-0.5393402469178668,-0.324127979304823,0.2566349242455447,-3.0785198702522374,0.6246958182483339,-0.0002950335098204961,0.0010345700748227247,0.0012115407838752968,-0.03809981974927852,0.0026708785325237337,-0.008181826978765995,-0.0012938180980442055,0.32574597001075745,-1.147450641994812,1.6654580275165003,-2.08699955562734,-1.5714057127581995,2.300691604614258,-0.001315529691055417,0.04215577617287636,0.045567918568849564,-0.0791175365447998,0.0,-4.269271084922366e-05,0.038307227194309235,0.17238251864910126,-9.193734169006348,0.7486078143119812,47.70748519897461,-0.8077813386917114,-3.586014986038208,-1.908374309539795,-0.8265537023544312,-0.057463064789772034,-0.009915468282997608,28.0625,29.9375,28.5625,32.375,34.875,36.0
1.0,-1.210736786498086,-1.850129911462367,-1.684142634580151,-0.0637221677195805,0.04548139203389862,-0.1197439982545371,-0.539333748315569,-0.32412955462923765,0.2565249779258125,-3.078530095645419,0.6247171788989112,-0.00037048516270476886,0.00010983771295107929,0.0008923293708398292,-0.037661802961222,0.0011188420880792003,-0.0032517246074450544,-0.0012694211744378333,0.32574597001075745,-1.147330568437912,1.6655891577350062,-2.0872165165343226,-1.571369473134176,2.300703525543213,-0.0012883603340014815,0.04322675243020058,0.04418110474944115,-0.08396877348423004,-0.00012208757107146084,-4.1703526221681386e-05,0.05746084079146385,0.13407529890537262,-9.346963882446289,0.7888899445533752,47.704795837402344,-0.7417172193527222,-3.598445415496826,-1.777724027633667,-0.7819194793701172,-0.055860161781311035,-0.024247203022241592,28.0625,29.9375,28.5625,32.375,34.875,36.0
1.0,-1.6110104413591244,-2.0961096399613552,-1.812954739042559,-0.06898265007199825,0.0380186578504927,-0.10326063064390342,-0.5393189386523294,-0.32413625121493084,0.2564321988246619,-3.078481321462724,0.6246497715323631,-0.00042300346081518514,0.00035233365322786755,0.0010768354821158062,-0.0382566085541801,0.000353321743227377,-0.0009795806469805387,-0.0014279109956996203,0.32576990127563477,-1.1472345453551789,1.6656988302813929,-2.0873624287047328,-1.5714057127581995,2.300691604614258,-0.0014441526727750897,0.04309408739209175,0.04683471471071243,-0.08888733386993408,-0.00012978343875147402,-4.075917604495771e-05,-0.019153613597154617,0.2298433631658554,-9.404424667358398,0.7508436441421509,47.699424743652344,-0.7856130003929138,-3.60756254196167,-1.9302699565887451,-0.7482695579528809,-0.046074286103248596,-0.00041441648500040174,28.0625,29.9375,28.5625,32.375,34.875,36.0
1.0,-1.488793071777926,-2.2026937206715442,-1.6389476120399606,-0.07572413663204536,0.0521812282055189,-0.10681036048715857,-0.5393228832000564,-0.3241298402220215,0.25636893753956386,-3.078501124356932,0.6246156706417503,-0.00038965416103051436,4.171251945350322e-05,0.0009451922767611214,-0.038406025720808666,-0.0008729622947884187,0.002535002691155722,-0.0013949027933994457,0.3257579803466797,-1.147162453537323,1.6657827536212366,-2.0875431499876917,-1.5714057127581995,2.3006558418273926,-0.0014082856941968203,0.04365697130560875,0.04751547425985336,-0.09385327994823456,-0.00010318068962078542,-3.985660805483349e-05,0.0,0.19153612852096558,-9.327810287475586,0.7105615139007568,47.72897720336914,-0.7898682355880737,-3.5743753910064697,-1.8707910776138306,-0.7230441570281982,-0.04491179436445236,-0.00920667964965105,28.0625,29.9375,28.5625,32.375,34.875,36.0
1.0,-1.4423901120334248,-1.7873009117532064,-1.7330413616893514,-0.08199708567896358,0.06024182509363862,-0.1080822634879926,-0.5393157352841244,-0.3241351652317596,0.25631911402859175,-3.0785157020589233,0.6246377761405307,-0.0003397825224781745,1.9357176721436924e-05,0.000880454654929119,-0.03841976505925326,-0.0016552560524295266,0.005157022815926291,-0.0012921336328226864,0.32576993107795715,-1.147114412193634,1.6658671537982386,-2.087712427178854,-1.5714057127581995,2.3006796836853027,-0.0013034238945692778,0.04356018826365471,0.04850665479898453,-0.09748177230358124,-0.00020770879928022623,-3.899318107869476e-05,0.019153613597154617,0.19153612852096558,-9.461885452270508,0.7508436441421509,47.730770111083984,-0.7869312763214111,-3.5846688747406006,-2.0557727813720703,-0.6508607864379883,-0.04018263518810272,-0.006449938751757145,28.0625,29.9375,28.5625,32.375,34.875,36.0
1.0,-1.5729454294622633,-2.1150400033331023,-1.9155349337053322,-0.0741363047411033,0.05733858637099272,-0.1081304563864509,-0.5393178502395464,-0.3241268957333127,0.2562126433999362,-3.0784909480346356,0.624710734873387,-0.00032983118941401474,-0.0009152138028488614,0.0005163325343580607,-0.03767661538385817,-0.0032431658474215102,0.009784682704592203,-0.001224898435939465,0.32575803995132446,-1.1469943088344117,1.6659982840167444,-2.087964197198385,-1.5714176336871546,2.3007164001464844,-0.0012336807558313012,0.04435863718390465,0.046555496752262115,-0.10122157633304596,-0.00019760825671255589,-3.816638491116464e-05,0.05746084079146385,0.15322890877723694,-9.385271072387695,0.7016075849533081,47.7244987487793,-0.8350870609283447,-3.5219686031341553,-1.8980633020401,-0.6315937042236328,-0.04401743412017822,-0.006289095152169466,28.0625,29.9375,28.5625,32.375,34.875,36.0
1.0,-1.9199488714189612,-1.7939477799292691,-1.9726109282973494,-0.06572576485143014,0.04075552787725065,-0.10228243626002977,-0.5393096135796087,-0.32413439309252523,0.25610832322168936,-3.0784865215868153,0.6246908026951628,-0.0004288421248005323,-0.0008095148275173618,0.0004478123430409853,-0.03741043163169986,-0.004372038448534634,0.012999679121977368,-0.00107209404068561,0.32576999068260193,-1.1468746823123475,1.6661065260516565,-2.088133474389547,-1.5713933149920862,2.3007164001464844,-0.001078387489542365,0.04365032911300659,0.04784797877073288,-0.10521306842565536,-0.00016384675109293312,-3.737387669389136e-05,0.0,0.19153612852096558,-9.53849983215332,0.6993717551231384,47.70121383666992,-0.814931333065033,-3.5378966331481934,-1.8492565155029297,-0.5435085892677307,-0.05001874640583992,0.0022721088025718927,28.0625,29.9375,28.5625,32.375,34.875,36.0
1.0,-1.4397651475844702,-1.4277943476215675,-1.888359157803883,-0.06238223521732582,0.044661904093798346,-0.10981636829260247,-0.5393331115554658,-0.3241268513320692,0.2560772494398399,-3.078549750536367,0.6246832336078141,-0.00026671645931107,-0.0006740653279424509,0.00043643530374123246,-0.03795865885633169,-0.0038549242046362034,0.01139933260963288,-0.0009879630595527424,0.325746089220047,-1.146814541225769,1.6661418120013636,-2.088348527947897,-1.5713933149920862,2.3006796836853027,-0.0009938963921740651,0.044215649366378784,0.04811316728591919,-0.10436199605464935,-0.00013865008077118546,-3.661363007267937e-05,0.0,0.19153612852096558,-9.519346237182617,0.6590895652770996,47.69853210449219,-0.8241003751754761,-3.467750310897827,-1.8801298141479492,-0.5364677906036377,-0.05187226086854935,-0.0030858367681503296,28.0625,29.9375,28.5625,32.375,34.875,36.0
1.0,-0.4822933846275556,-0.3603570121497419,-1.6943897627257563,-0.04802208002157077,0.023356505672392537,-0.11937080455553359,-0.539336769225987,-0.3241137343028638,0.25587868639452394,-3.0785266271694263,0.6247554053466813,-0.00032801928400009886,-0.00024825618432579234,0.0005861332390903282,-0.038972207649722194,-0.002006028396015099,0.005861706306317398,-0.0010000607716252287,0.3257220983505249,-1.1465864044478913,1.6663687864886683,-2.0887657604613246,-1.5713813940631312,2.300703525543213,-0.001006677164696157,0.04502163454890251,0.048174429684877396,-0.09939125925302505,-0.00010592628677841276,-3.518230369081721e-05,0.038307227194309235,0.07661445438861847,-9.404424667358398,0.7105615139007568,47.70121383666992,-0.8145341277122498,-3.539675712585449,-1.917722463607788,-0.5505356788635254,-0.05807206779718399,-0.007261630147695541,28.0625,29.9375,28.5625,32.375,34.875,36.0
1.0,-0.5256548764219809,-0.19344793579745523,-1.8836102559533392,-0.03263854425519649,0.008316811381593972,-0.11442057683702557,-0.5393192634247144,-0.32413629290274887,0.25581965708270615,-3.0785398992360817,0.6247021183271969,-0.0002462511330445233,0.00013741495215524623,0.0008605842342561547,-0.03795639202872675,-0.00171049915492694,0.004973828114001442,-0.001222577821981744,0.32576993107795715,-1.1465271574309845,1.6664660612689417,-2.088968416253561,-1.5714057127581995,2.3007164001464844,-0.001229441142641008,0.042932674288749695,0.048082806169986725,-0.0962749496102333,-9.4752867880743e-05,-3.4507818782003596e-05,0.019153613597154617,-0.07661445438861847,-9.481039047241211,0.7038487195968628,47.674346923828125,-0.8711740970611572,-3.367684841156006,-1.8503698110580444,-0.6015576124191284,-0.05245461314916611,-0.021186096593737602,28.0625,29.9375,28.5625,32.375,34.875,36.0
1.0,0.024237452934762954,-0.1437165507356651,-1.8447483989679658,-0.01911247027455423,0.012711205137255654,-0.12032382798575669,-0.5393402674479192,-0.32412264990268297,0.2557703360989158,-3.0786129071422965,0.6246585148973101,-0.00015345987189534094,8.399684011023466e-05,0.0009158000733742205,-0.039321620739382376,-0.00027424266242466965,0.0007126253852460943,-0.0013359565496515455,0.32573401927948,-1.146454469566681,1.6665251890765589,-2.0891829929747523,-1.5713813940631312,2.3006439208984375,-0.001343604177236557,0.044973473995923996,0.047692056745290756,-0.09342828392982483,-8.571564831072465e-05,-3.3858701499411836e-05,0.07661445438861847,-0.07661445438861847,-9.442731857299805,0.6792280077934265,47.702110290527344,-0.8421244621276855,-3.4805872440338135,-1.8601528406143188,-0.6237289309501648,-0.05736877769231796,-0.011773327365517616,28.0625,29.9375,28.5625,32.375,34.875,36.0
1.0,-0.3986633092413169,-0.21274201763790823,-1.859134859398225,-0.01021716700322398,-0.0050990553352541395,-0.11015832937856405,-0.5393367486845709,-0.3241147535275735,0.25566872489379455,-3.0785799758052863,0.6247479312894562,-0.00023044379627496045,0.0002848823766597899,0.001295955300192025,-0.040686267833655275,0.001191375171716207,-0.003625315293422879,-0.0018164244051391168,0.325721800327301,-1.1463461977294465,1.666645352040426,-2.0893618069090785,-1.571369473134176,2.300691604614258,-0.0018247724510729313,0.046220749616622925,0.04847989231348038,-0.09088457375764847,-7.825268403394148e-05,-3.323352575534955e-05,0.09576806426048279,-0.17238251864910126,-9.461885452270508,0.7105615139007568,47.68061828613281,-0.7467395067214966,-3.471925973892212,-1.790361762046814,-0.6676173210144043,-0.053463175892829895,0.002578970044851303,28.0625,29.9375,28.5625,32.375,34.875,36.0
1.0,-0.3076787412113261,-0.3100482670506323,-1.6948563988915353,-0.007774473828380257,0.006958165601345368,-0.10905889021474335,-0.5393188991136194,-0.3241230246335177,0.2555719719540786,-3.0785317164298225,0.624777608047722,-0.00030540963624818915,0.0003020261578564204,0.0012737106860018484,-0.041541207149426544,0.002188132705169033,-0.006581566831814469,-0.0017736162061171075,0.3257458209991455,-1.1462497574141999,1.6667655150042933,-2.0895163021483363,-1.5713813940631312,2.3007402420043945,-0.0017824163660407066,0.04750770702958107,0.04813730716705322,-0.08870919793844223,-7.198756065918133e-05,-3.263110193074681e-05,0.15322890877723694,-0.19153612852096558,-9.404424667358398,0.7083203792572021,47.71554183959961,-0.835006058216095,-3.5444817543029785,-1.838773488998413,-0.7158137559890747,-0.046652622520923615,-0.009284082800149918,28.0625,29.9375,28.5625,32.375,34.875,36.0
1.0,-0.07316321950828883,-0.08899876920328886,-1.4154943144163936,-0.02085294905543519,0.01613653465188808,-0.11730962745694563,-0.5393372026000973,-0.3240993781191295,0.25548724514129073,-3.0785439697905153,0.624740796904558,-0.00033083904755176914,0.0008457606184081618,0.00136292750528985,-0.041505247923401774,0.002805102976574503,-0.008404972141725087,-0.0016272005649566117,0.3256979286670685,-1.1461423200419922,1.6668484846698206,-2.0896951160826625,-1.571369473134176,2.3006677627563477,-0.0016362164169549942,0.046574439853429794,0.04888548702001572,-0.08659916371107101,-6.665223190793768e-05,-3.205001848982647e-05,0.28730422258377075,-0.24899697303771973,-9.404424667358398,0.6523714661598206,47.73883056640625,-0.8135589361190796,-3.400423526763916,-1.8031245470046997,-0.7572956085205078,-0.05888327956199646,-0.020458802580833435,28.0625,29.9375,28.5625,32.375,34.875,36.0
1.0,-0.4260513767555314,-0.2916796080533632,-1.601911350654606,-0.0207133595449397,0.007194094110931409,-0.10901099094341324,-0.5393475922366285,-0.324100416347005,0.25540219711655926,-3.0785187065325195,0.6247929693369088,-0.0002961774070953779,0.001025642496203033,0.0014115375863768128,-0.0415250045183653,0.002929793309984415,-0.008783475444089904,-0.0015944125485582005,0.32569795846939087,-1.1460224849036713,1.6669204870807093,-2.089898725549215,-1.5713933149920862,2.300703525543213,-0.0016176667995750904,0.046272456645965576,0.04928823560476303,-0.08630144596099854,-6.205336831044406e-05,-4.6187680709408596e-05,0.2106897532939911,-0.26815059781074524,-9.461885452270508,0.7486078143119812,47.694053649902344,-0.7836809158325195,-3.358276128768921,-1.778808832168579,-0.7991430163383484,-0.05105224624276161,-0.006275390274822712,28.0625,29.9375,28.5625,32.375,34.875,36.0
1.0,-0.11190156900862756,-0.15454654780604593,-1.5230729447501388,-0.03275650757940584,0.01737094664053338,-0.1225759888031517,-0.5393294907665142,-0.3240955046427517,0.2553300729149447,-3.078517162076926,0.6247927520959332,-0.0003379250070609734,0.0007175214661857558,0.0012476135300871505,-0.04209717135330032,0.0028354474320827225,-0.008528998683548953,-0.0015040359444512268,0.32569795846939087,-1.1459739667228241,1.6670520941363733,-2.090055128137106,-1.5713813940631312,2.300703525543213,-0.0015270737931132317,0.04766875505447388,0.048942722380161285,-0.08762353658676147,-5.804840475320816e-05,-4.635359437088482e-05,0.13407529890537262,-0.17238251864910126,-9.404424667358398,0.7239871025085449,47.68330383300781,-0.8100333213806152,-3.449453830718994,-1.739492654800415,-0.830203652381897,-0.05941864475607872,-0.012942313216626644,28.0625,29.9375,28.5625,32.375,34.875,36.0
1.0,-0.5151219433915692,-0.5713245556703024,-1.650302762189987,-0.0397042560486136,0.018285115699975193,-0.1168609704093524,-0.5393074970107598,-0.32410482782268246,0.2552284786219793,-3.0784916190648217,0.6247889840367276,-0.00044515563743705353,0.0004857521079350807,0.0011722651341222854,-0.04202579848248606,0.0019283765477392937,-0.005876380179561002,-0.0015119351895517032,0.3257219195365906,-1.14587818205867,1.6671846548663538,-2.0902115307249964,-1.571369473134176,2.3007283210754395,-0.0015329166781157255,0.04786020517349243,0.04927188903093338,-0.09094757586717606,-5.452957339002751e-05,-4.563282345770858e-05,0.15322890877723694,-0.1149216815829277,-9.366117477416992,0.8045620322227478,47.702110290527344,-0.8214161396026611,-3.3845503330230713,-1.7884982824325562,-0.8311829566955566,-0.059412047266960144,-0.012431809678673744,28.0625,29.9375,28.5625,32.375,34.875,36.0
1.0,-0.9803006259093647,-1.0791581654468556,-1.712898770539836,-0.0454800541100151,0.022896690581538308,-0.10713437732005093,-0.5393252585306628,-0.32410184540536874,0.25517825058687255,-3.078514395319318,0.6247539759216917,-0.0003673930728599494,0.00018705441600412923,0.0011421898197068077,-0.04149154217534,0.00032957958185550164,-0.0011864636416664028,-0.001625408795322787,0.3257099688053131,-1.1457941991141816,1.6672199408160608,-2.0903812847533167,-1.5713813940631312,2.300691604614258,-0.0016434848075732589,0.04738233983516693,0.04987853765487671,-0.0960313081741333,-5.1412971515674144e-05,-4.487839396460913e-05,0.17238251864910126,-0.1149216815829277,-9.385271072387695,0.7418897151947021,47.75226593017578,-0.8101319074630737,-3.363654136657715,-1.7286993265151978,-0.8167133927345276,-0.05857481807470322,-0.014499697834253311,28.0625,29.9375,28.5625,32.375,34.875,36.0
1.0,-1.0689872308020631,-1.4133410280952536,-1.6714830795004085,-0.06719543681609758,0.042806079246559936,-0.11008448520862812,-0.5393325524958753,-0.32409380461260073,0.255073662209643,-3.078476013379204,0.624746719751598,-0.0003977596876345354,0.0005387706549723084,0.0015963978603856606,-0.04236053049500596,3.6977875936816714e-05,-0.0003358558470214224,-0.002143016588708265,0.32569772005081177,-1.1456624132445832,1.6673172155963343,-2.090573926965231,-1.5714057127581995,2.3006796836853027,-0.0021590739488601685,0.04722528159618378,0.05294141545891762,-0.09983665496110916,-4.8633755795890465e-05,-4.414487557369284e-05,0.1149216815829277,0.038307227194309235,-9.366117477416992,0.7239871025085449,47.699424743652344,-0.8060130476951599,-3.3137412071228027,-1.9255681037902832,-0.807768702507019,-0.05261853337287903,-0.009276110678911209,28.0625,29.9375,28.5625,32.375,34.875,36.0
1.0,-1.4977122254598296,-2.1142692991542766,-1.649616617439047,-0.0790144274108672,0.06067566654636276,-0.11035560198703849,-0.539314864548067,-0.3240955652209367,0.25500797047663015,-3.0784688979256765,0.6247643566831707,-0.00040747625008811416,-0.001384758782536692,0.0011301797359984601,-0.04032764467647856,-0.0036966893355534704,0.010621550298605903,-0.002437185696695042,0.3257097005844116,-1.1456143122962494,1.6674354712115687,-2.0907331905760707,-1.5714057127581995,2.300703525543213,-0.002448570914566517,0.04780609905719757,0.049481820315122604,-0.10853393375873566,-4.61396157334093e-05,-4.3434774852357805e-05,0.05746084079146385,0.15322890877723694,-9.442731857299805,0.7016075849533081,47.725399017333984,-0.8155425786972046,-3.253981590270996,-1.7410310506820679,-0.7260354161262512,-0.05015575513243675,-0.010589899495244026,28.0625,29.9375,28.5625,32.375,34.875,36.0
1.0,-1.940003359994881,-2.474742174006772,-1.8129269338672778,-0.09110432943329347,0.06883833695801424,-0.10739915079373957,-0.5393233086491207,-0.32409190204894045,0.2549143127451815,-3.0784772929655206,0.6248061289960927,-0.0004025589306457129,-0.001387821642644282,0.0010729621083021069,-0.04075646929441706,-0.004396983213783521,0.012786563329854847,-0.002346884665708359,0.325697660446167,-1.1454942387393494,1.6675322691546839,-2.0909611187376917,-1.5713933149920862,2.3007164001464844,-0.002356167882680893,0.04820307344198227,0.05081424489617348,-0.11253847181797028,-8.18935950519517e-05,-4.274706952855922e-05,0.019153613597154617,0.19153612852096558,-9.442731857299805,0.6725152134895325,47.718231201171875,-0.7552180290222168,-3.224320411682129,-1.692488670349121,-0.7017907500267029,-0.051442064344882965,-0.0021697680931538343,28.0625,29.9375,28.5625,32.375,34.875,36.0
1.0,-1.762228165881122,-2.49021191602311,-1.9597136088556513,-0.09964571719533516,0.07882639769531151,-0.10071579971026066,-0.5393130570310178,-0.3240832629036262,0.25484550046506876,-3.07851817322043,0.6248334852363142,-0.00035485348940288565,-0.0014773788685711047,0.0008558156915592066,-0.04065122173185332,-0.005749969867929147,0.01676629411435274,-0.0020619330348906656,0.32568588852882385,-1.145446167593338,1.6676762739764612,-2.0912023983397425,-1.571369473134176,2.3007164001464844,-0.0020684790797531605,0.04812966287136078,0.05185659974813461,-0.11771084368228912,-8.331115532200783e-05,-4.2080850107595325e-05,-0.13407529890537262,0.363918662071228,-9.53849983215332,0.7553206086158752,47.71733474731445,-0.8343919515609741,-3.2285141944885254,-1.7852783203125,-0.6222636699676514,-0.04869388788938522,-0.004589531570672989,28.0625,29.9375,28.5625,32.375,34.875,36.0
1.0,-1.6023949290264465,-2.2531055520395498,-1.9156592276776763,-0.1080817755484112,0.07619388467799548,-0.11162875291025175,-0.5393391978303768,-0.32405194047251606,0.2547536191501544,-3.0785057779682967,0.6249065202474576,-0.0003122989364847225,-0.001489975974719012,0.0008000822661224236,-0.041209724365731684,-0.006330254092446595,0.018459130758154533,-0.001984961717281963,0.3256259262561798,-1.1453262728503724,1.66777211824526,-2.091442724267477,-1.5713813940631312,2.300703525543213,-0.0019895427394658327,0.04873660206794739,0.05311069265007973,-0.12136140465736389,-7.995049963938072e-05,-4.1435047023696825e-05,-0.09576806426048279,0.38307225704193115,-9.404424667358398,0.6725152134895325,47.74509811401367,-0.8496216535568237,-3.1833274364471436,-1.8305095434188843,-0.5687520503997803,-0.07238448411226273,-0.01490662433207035,28.0625,29.9375,28.5625,32.375,34.875,36.0
1.0,-2.175558503078061,-2.456230459643547,-1.8634348090494497,-0.09439424397133445,0.05056101443632286,-0.10534280089962912,-0.5393218390537737,-0.32409022134122306,0.2546587770493107,-3.078529422221633,0.6247769339202489,-0.00024447308751025034,-0.0017961883821313188,0.0005036728559995722,-0.040626601073778947,-0.007047535906845989,0.02065485644728988,-0.0016854819523096005,0.3256978988647461,-1.1452062887004395,1.667879883443014,-2.0917064152159632,-1.5714057127581995,2.300691604614258,-0.0016888078534975648,0.04874212294816971,0.05207059904932976,-0.12263653427362442,-0.00010974884935421869,-4.0808758058119565e-05,-0.13407529890537262,0.4213795065879822,-9.481039047241211,0.6613254547119141,47.72629165649414,-0.8346695303916931,-3.150611400604248,-1.7715438604354858,-0.5330936312675476,-0.06527475267648697,-0.011753440834581852,28.0625,29.9375,28.5625,32.375,34.875,36.0
1.0,-1.0269021095507012,-1.8554066025296498,-1.778232711784644,-0.09222836726557154,0.04297539329060511,-0.10677913920858713,-0.5393212074366337,-0.3240692027183628,0.25457586343847677,-3.078533627093772,0.6248546504938205,-0.0002681787084881827,-0.0020689740538543024,0.0005442599548007903,-0.042717058567192434,-0.004885801848529725,0.014280737572358997,-0.0018886091751351033,0.32566195726394653,-1.145133064394333,1.6680119673358362,-2.0919085941710414,-1.5713813940631312,2.300703525543213,-0.0018935682019218802,0.05225324258208275,0.05093429237604141,-0.11828062683343887,-0.00010983732499880716,-4.0201157389674336e-05,-0.05746084079146385,0.3447650372982025,-9.366117477416992,0.7038487195968628,47.70927429199219,-0.8173727989196777,-3.2170968055725098,-1.6206300258636475,-0.5470384955406189,-0.048992156982421875,-0.01666870340704918,28.0625,29.9375,28.5625,32.375,34.875,36.0
1.0,-1.1432323874962647,-1.322062172664832,-1.6323337036370207,-0.04274019284042123,-0.004960573663231618,-0.10419770274836959,-0.5393527677871073,-0.3240629566204885,0.25441561047926503,-3.0785895816063102,0.6248858988909279,-6.85666359989564e-05,-0.0012652199557357303,0.000979807402328401,-0.04249897727866882,-0.0034247614600749795,0.009976972504076547,-0.0021390630620590476,0.3256377875804901,-1.144905464058258,1.6681798140155237,-2.0924445591368617,-1.5713933149920862,2.300691604614258,-0.0021449513733386993,0.05050944909453392,0.05161351338028908,-0.11267106980085373,-0.0001018557813949883,-3.903867400367744e-05,0.0,0.24899697303771973,-9.27034854888916,0.7038487195968628,47.723602294921875,-0.8322237730026245,-3.117845296859741,-1.6804289817810059,-0.6037153601646423,-0.0658484697341919,-0.0037852427922189236,28.0625,29.9375,28.5625,32.375,34.875,36.0
