Tylouw/Master_Thesis_Code/test_recorded_data/real_test2/insertion_5_2026-02-24_17-05-35.csv
timestamp[s],tcp_force_x[N],tcp_force_y[N],tcp_force_z[N],tcp_force_rx[Nm?],tcp_force_ry[Nm?],tcp_force_rz[Nm?],tcp_pose_x[m],tcp_pose_y[m],tcp_pose_z[m],tcp_pose_rx[rot_vec_x],tcp_pose_ry[rot_vec_y],tcp_pose_rz[rot_vec_z],tcp_velo_x[m/s],tcp_velo_y[m/s],tcp_velo_z[m/s],tcp_velo_rx[rot_vec_x/s],tcp_velo_ry[rot_vec_y/s],tcp_velo_rz[rot_vec_z/s],q1[rad],q2[rad],q3[rad],q4[rad],q5[rad],q6[rad],qd1[rad/s],qd2[rad/s],qd3[rad/s],qd4[rad/s],qd5[rad/s],qd6[rad/s],tool_acc_x,tool_acc_y,tool_acc_z,current_of_whole_robot[A],voltage_of_whole_robot[V],current_J1[A],current_J2[A],current_J3[A],current_J4[A],current_J5[A],current_J6[A],temp_J1[C],temp_J2[C],temp_J3[C],temp_J4[C],temp_J5[C],temp_J6[C]
1.4000397641211748e-07,0.1372043052078813,0.6892326695501994,1.378088678459236,0.004108786241876683,-0.005376565153273015,-0.01589976846115843,-0.38155254165179453,-0.3495751171352913,0.0849426689606069,-3.078550185252912,0.6248629072348072,-0.00013897476986611513,-0.0011387612596165265,-0.0005713168293709292,-0.0030003375418175483,-0.001896237661562426,0.0034380145282342503,2.5029381282154538e-05,0.4791899621486664,-1.4235128623298188,1.9549415747271937,-2.100514074365133,-1.5707572142230433,2.454132556915283,-8.977484685601667e-05,0.004550626501441002,0.004643923137336969,-0.013119938783347607,7.72602143115364e-05,-0.0001139690721174702,0.1149216815829277,-0.15322890877723694,-8.772355079650879,0.7642692923545837,47.705692291259766,-0.05459805577993393,-3.4414830207824707,-2.636725902557373,-0.34178394079208374,0.06193731725215912,-0.25132787227630615,28.3125,29.5625,28.6875,32.75,35.1875,36.4375
0.00026141200214624405,1.1298407156949315,2.090191162952621,1.0973033763203812,0.05632985872025256,-0.036735491113798265,-0.027990345187419302,-0.3815583879116821,-0.3495726910291911,0.08495817798772182,-3.078576057329444,0.6249456160408424,-0.00011727743237917441,-0.001362822957051757,-0.0006883607716891123,0.0004795375739633652,-0.0024200718766966833,0.004470414061233173,2.4445901114212288e-05,0.4791660010814667,-1.4235504430583497,1.9549511114703577,-2.100523134271139,-1.570733372365133,2.4541568756103516,-8.688594243722036e-05,1.9659199097077362e-05,5.6082721130223945e-05,-0.005158744752407074,7.469525735359639e-05,-0.00011047167936339974,0.13407529890537262,-0.019153613597154617,-8.695740699768066,0.6904177665710449,47.693153381347656,-0.10320276021957397,-3.165462017059326,-2.316840171813965,-0.37788188457489014,0.054357677698135376,-0.25211426615715027,28.3125,29.5625,28.6875,32.75,35.1875,36.4375
0.004196998997940682,0.35419645325266175,0.9553847183914302,0.4021811666098139,0.013538260443698685,-0.017004699498423148,-0.0256070842460194,-0.3815320214955726,-0.3495547227148676,0.084937664018845,-3.0785294539186348,0.6248589707481355,-0.00020815376253907595,-0.0029647644791127793,-0.0015040281305154666,0.00015034891854029162,-0.0011060544135048746,0.0019336951655982476,5.042278446550937e-05,0.4791660010814667,-1.4235488337329407,1.9549849669085901,-2.100474020043844,-1.5707457701312464,2.454108715057373,-0.00012806359154637903,0.0058693359605968,-0.006736319046467543,-0.00135918112937361,7.229524635476992e-05,-0.00017404202662874013,0.019153613597154617,-0.019153613597154617,-9.174580574035645,0.6837049722671509,47.64120864868164,-0.5410564541816711,-2.4090476036071777,-3.049992322921753,-0.41711848974227905,0.05832715332508087,-0.32288849353790283,28.3125,29.5625,28.6875,32.75,35.1875,36.4375
0.00819855000008829,-1.1216313736214054,-1.3064637393768748,0.023690123678729448,-0.07647513093280525,0.04766382555233381,-0.03333499216558774,-0.38152266464405493,-0.3495308109460874,0.08488561016342167,-3.0784300634365636,0.6248765281859281,-0.0003618774223007436,-0.0060202985498622056,0.0012806643502049609,-0.003451657308226874,0.0032974712626376193,-0.006548882308506847,0.0011772425085509065,0.4791390895843506,-1.4234608572772522,1.9549949804889124,-2.1004368267455042,-1.5707572142230433,2.4541053771972656,-0.007899122312664986,0.016378894448280334,-0.011338124983012676,0.0022891815751791,7.004466897342354e-05,-0.009068667888641357,-0.2298433631658554,0.3447650372982025,-9.53849983215332,0.7642692923545837,47.69853210449219,-0.125937357544899,-3.0061960220336914,-3.1521739959716797,-0.43207693099975586,0.062204547226428986,-0.28720206022262573,28.3125,29.5625,28.6875,32.75,35.1875,36.4375
0.012197717995150015,-1.8405831415065854,-1.6302072276384494,-0.4506627190448169,-0.0793764320345808,0.08198218093308819,-0.05044496177447196,-0.38153266855332557,-0.3495514168214668,0.08487814310754394,-3.078438731168297,0.6248170511751291,-0.0004281384513333492,-0.0070845381031907715,-0.0004368681187533313,-0.0018291520951833438,0.0018382784199555934,-0.0037854686298466346,0.007711877340919924,0.47915202379226685,-1.4233888399652024,1.9549215475665491,-2.100400587121481,-1.570733372365133,2.454080104827881,-0.005848080851137638,0.017045335844159126,-0.016007309779524803,0.00316657405346632,8.061514381552115e-05,-0.013550016097724438,-0.49799394607543945,0.6320692300796509,-9.787496566772461,0.7486078143119812,47.68867492675781,-0.5023097991943359,-2.5699381828308105,-3.2094409465789795,-0.45803263783454895,0.05764750391244888,-0.2558983862400055,28.3125,29.5625,28.6875,32.75,35.1875,36.4375
0.016198415993130766,-1.8522262159019216,-1.9093118807834488,-0.7059610710394588,-0.0594697176535281,0.0625600476913592,-0.0637395655165663,-0.38157197853660907,-0.3495512490773893,0.0848681715687089,-3.0784239772079394,0.6247758480870271,-0.0004725521162258786,-0.009634817304964093,-0.0008447104405625476,-0.0016710306481764335,0.000717441358425659,-0.0017047048437623424,0.007565431133534804,0.47911524772644043,-1.4232915800860901,1.954825226460592,-2.100365301171774,-1.570733372365133,2.454019546508789,-0.007501518353819847,0.020472560077905655,-0.01983897015452385,0.0012075549457222223,0.00010187903535552323,-0.01505421195179224,-0.6129156351089478,0.727837324142456,-9.921571731567383,0.7083203792572021,47.694053649902344,-0.603003740310669,-2.6505279541015625,-3.24434757232666,-0.4360847473144531,0.07114589214324951,-0.2508326768875122,28.3125,29.5625,28.6875,32.75,35.1875,36.4375
0.020135603001108393,-1.5383766350444228,-1.5502985977919281,-0.5943890500330292,-0.05911335617954391,0.04862104944451406,-0.0967411308018915,-0.38159617671194423,-0.3495647607812927,0.08485031629902492,-3.078439643837945,0.624762067069786,-0.0005080512989734768,-0.01262252959601618,-0.0010789580161323453,-0.0008889915054751431,-0.0006141719371481329,0.000692597234783337,0.0039758062774282055,0.4791024625301361,-1.4232066732696076,1.9547746817218226,-2.1003900967040003,-1.570709530507223,2.453996181488037,-0.009893739596009254,0.02335503324866295,-0.02476055547595024,0.0005056677618995309,0.0001666650641709566,-0.013853885233402252,-0.689530074596405,0.5363011956214905,-9.959878921508789,0.7329410910606384,47.693153381347656,-0.4798271059989929,-2.5945467948913574,-3.178852081298828,-0.4141494631767273,0.08424687385559082,-0.29678747057914734,28.3125,29.5625,28.6875,32.75,35.1875,36.4375
0.02413000700471457,-0.9664988835807742,-0.23363818051525498,-0.38165619542208673,-0.015295661033773954,0.06015983266962059,-0.12430614717520747,-0.3816804418810943,-0.3495476139032867,0.0848393191726268,-3.0783905554435287,0.6248100722043353,-0.0004349112373601965,-0.01520738244450417,-0.0012659274108495213,0.00038772419067521356,-0.0025784881097588998,0.002287677411971804,0.003015200805145892,0.4790296256542206,-1.4230739784291764,1.954653565083639,-2.1004134617247523,-1.5707691351519983,2.4539597034454346,-0.012552348896861076,0.02491496317088604,-0.029703954234719276,0.0015634746523573995,0.0011658843141049147,-0.015551340766251087,-0.38307225704193115,0.19153612852096558,-9.749189376831055,0.7195101380348206,47.71017074584961,-0.7108011245727539,-2.426819324493408,-3.1716790199279785,-0.415189266204834,0.0785071849822998,-0.2940811216831207,28.3125,29.5625,28.6875,32.75,35.1875,36.4375
0.028127473997301422,-0.47232692824188827,0.9525719944194069,-0.18768721842953776,0.02985454238454021,0.044517718508295404,-0.15544532048477858,-0.3817567082827395,-0.3495696412379604,0.08485394331589552,-3.078441886141709,0.6248200320610153,-0.00045564045068826475,-0.017780222275436474,-0.0017429339884513031,0.0002627762704595101,-0.004014517406404914,0.002093518330670507,0.0021346572765404276,0.47896885871887207,-1.422952265744545,1.95447284380068,-2.100377222100729,-1.5707204977618616,2.4538986682891846,-0.014897708781063557,0.029604388400912285,-0.034747205674648285,0.001423526555299759,0.0025184901896864176,-0.01701546646654606,-0.24899697303771973,-0.07661445438861847,-9.672574996948242,0.7374180555343628,47.70748519897461,-0.6516059041023254,-2.567330837249756,-3.090980291366577,-0.4037477374076843,0.052690714597702026,-0.27092817425727844,28.3125,29.5625,28.6875,32.75,35.1875,36.4375
0.032139310002094135,-0.7197740198126894,0.22745260383626192,-0.23174226756087946,0.041114423791748615,0.02829570845587493,-0.1642708686259421,-0.3818507934303869,-0.34958458496044625,0.08486942840789052,-3.078501922170957,0.6248334003685085,-0.0003372332863771113,-0.020485582287627674,-0.002105727294284731,0.0014137291723203549,-0.005201048813595098,0.005104353633944831,5.8990073845330976e-05,0.4789081811904907,-1.422843561773636,1.9543269316302698,-2.1004373035826625,-1.5707204977618616,2.45383882522583,-0.016550231724977493,0.03156045824289322,-0.03952445834875107,0.0010272834915667772,0.0021749413572251797,-0.01658868044614792,-0.19153612852096558,-0.13407529890537262,-9.672574996948242,0.7620334029197693,47.70748519897461,-0.5764551162719727,-2.5314226150512695,-3.076857328414917,-0.36597615480422974,0.059692785143852234,-0.29104214906692505,28.3125,29.5625,28.6875,32.75,35.1875,36.4375
0.03613883999059908,-0.09114607944349272,-0.04730104126496451,-0.08788265413740588,0.017245078889658334,0.047397942974896835,-0.17262731653690927,-0.3819060401647247,-0.3495808738086701,0.08485361158021101,-3.0784402818732604,0.6248013563812496,-0.0003770091516067008,-0.022021484991407308,-0.0023358354382536205,0.0010110458772199077,-0.004444491131368163,0.005059548765072747,0.0004851830673921753,0.47887206077575684,-1.4226978582194825,1.9541829268084925,-2.100377222100729,-1.570756737385885,2.4537906646728516,-0.017169060185551643,0.035312674939632416,-0.04289959371089935,0.001040291623212397,0.0015156615991145372,-0.0176303181797266,-0.15322890877723694,-0.05746084079146385,-9.615114212036133,0.8045620322227478,47.69584274291992,-0.5999327898025513,-2.631714344024658,-3.077873706817627,-0.3474428653717041,0.06740820407867432,-0.2755599021911621,28.3125,29.5625,28.6875,32.75,35.1875,36.4375
0.04012679299921729,-0.013959441946914113,0.16819014261268223,-0.1611390457603715,0.001215985915527653,0.03768487312818112,-0.17014561539820602,-0.3819859702275275,-0.3495979255964216,0.08485425660932958,-3.0784879626056685,0.6247909352098007,-0.000410270168620568,-0.02278055389617806,-0.0018148375628590993,0.0018545804937864997,-0.0031685452339548746,0.003999797183060055,0.0019688895411341355,0.4787997007369995,-1.422553689484932,1.9540136496173304,-2.100363870660299,-1.5707090536700647,2.4537057876586914,-0.018405985087156296,0.035617876797914505,-0.04621303826570511,0.005579985678195953,0.0008743010694161057,-0.020348912104964256,-0.038307227194309235,0.05746084079146385,-9.59596061706543,0.7239871025085449,47.656429290771484,-0.5940927267074585,-2.3762712478637695,-3.1238372325897217,-0.3572327494621277,0.07466329634189606,-0.2647145986557007,28.3125,29.5625,28.6875,32.75,35.1875,36.4375
0.04412519700417761,-0.32702970832392303,-1.009817607674643,-0.12134180082127094,-0.030928850311400177,0.028303850358943616,-0.16397282055833878,-0.38211053896473224,-0.3496112705741272,0.08491402937672565,-3.0785480853231455,0.6248604191616339,-0.0002401316790197096,-0.024808531719900825,-0.002126158381998839,0.0019702781240613578,-0.003817555380932902,0.005138534848202924,0.0007110894666120839,0.478715181350708,-1.4224685740521927,1.9537742773639124,-2.100339551965231,-1.5707209745990198,2.4536571502685547,-0.019751407206058502,0.03863685950636864,-0.04974910616874695,0.004787045996636152,0.0009194049052894115,-0.02043411135673523,-0.09576806426048279,0.3064578175544739,-9.59596061706543,0.7083203792572021,47.6895751953125,-0.6431869864463806,-2.3465232849121094,-3.1874608993530273,-0.33617711067199707,0.08409963548183441,-0.24772962927818298,28.3125,29.5625,28.6875,32.75,35.1875,36.4375
0.048131667004781775,-0.2854864606244375,-1.6250647412038897,-0.38513871134645233,-0.04087513791330382,0.027227850620296087,-0.14866743765759424,-0.3822088294465798,-0.3496189162724052,0.08490345905793553,-3.078579345028667,0.6247904658177921,-0.00023851989968101748,-0.02562161785902526,-0.001859159809184325,0.0011221604540218363,-0.0030808874125799212,0.003035464813591813,0.0010958884544842139,0.47863060235977173,-1.4222872865251084,1.9535940329181116,-2.100351949731344,-1.5707090536700647,2.4535250663757324,-0.021157950162887573,0.0417841300368309,-0.05162930116057396,0.0057250079698860645,0.0012324966955929995,-0.022224752232432365,-0.07661445438861847,0.49799394607543945,-9.500192642211914,0.7642692923545837,47.681514739990234,-0.582158088684082,-2.25612211227417,-3.357978343963623,-0.31559598445892334,0.08730301260948181,-0.24859148263931274,28.3125,29.5625,28.6875,32.75,35.1875,36.4375
0.05212737999681849,0.07902403190208213,-1.278552675403913,0.04094629787370819,-0.025936540782809415,0.025456412986220665,-0.15303002526949316,-0.38232282411323126,-0.3496365031425178,0.0849285567046244,-3.078588149202562,0.6248485242538214,-0.00014080150429425145,-0.027624457493440117,-0.0027114356899394128,0.0019043680740338763,-0.004271365116892784,0.0037073202678221022,0.0031209112626661636,0.47857052087783813,-1.4221303772977372,1.9533517996417444,-2.1003276310362757,-1.570732895527975,2.453500270843506,-0.021937167271971703,0.04469328746199608,-0.057060606777668,0.007099059410393238,0.0019723025616258383,-0.025027280673384666,-0.07661445438861847,0.5171475410461426,-9.423578262329102,0.8045620322227478,47.70748519897461,-0.6159273386001587,-2.2259631156921387,-3.3484349250793457,-0.31943267583847046,0.07604676485061646,-0.22002434730529785,28.3125,29.5625,28.6875,32.75,35.1875,36.4375
0.05613865099439863,-0.6591467017999846,-1.4293750169267732,0.020721494516244308,-0.013419257212713875,0.0054984181461262,-0.1412120132086211,-0.38243449289521053,-0.3496310621255628,0.08491573878869105,-3.078604656803921,0.6248122503932966,-0.00015546893550584062,-0.028986790719766793,-0.0031110122605930075,0.0017022834535517731,-0.005168929800978385,0.0038611477012917596,0.0036577133917518496,0.4784501791000366,-1.421937109237053,1.9531601111041468,-2.1003276310362757,-1.5707204977618616,2.453355312347412,-0.02290990762412548,0.047423772513866425,-0.05954873561859131,0.006304681766778231,0.002691327827051282,-0.026536237448453903,-0.019153613597154617,0.38307225704193115,-9.327810287475586,0.7351769208908081,47.693153381347656,-0.5797064900398254,-2.1718482971191406,-3.304669141769409,-0.3113231956958771,0.09296084940433502,-0.19895856082439423,28.3125,29.5625,28.6875,32.75,35.1875,36.4375
0.06012697999540251,-0.2929573622104334,-1.021056033622602,0.1415414454349305,-0.01857651428235493,0.022249844352877565,-0.14936722907307293,-0.3825785222203788,-0.3496559738063771,0.08495121897741384,-3.0786437972888088,0.6248958465092456,-8.083991976106395e-05,-0.031526302540256575,-0.004041778577361083,0.0030314450348897753,-0.007182511830725789,0.005436233462041259,0.004866661694371454,0.47835370898246765,-1.421744019990303,1.9528473059283655,-2.100279470483297,-1.5707080999957483,2.453306198120117,-0.02422836236655712,0.049971867352724075,-0.06582534313201904,0.007704529445618391,0.0037456497084349394,-0.029061920940876007,-0.07661445438861847,0.24899697303771973,-9.232041358947754,0.7687462568283081,47.718231201171875,-0.5629798173904419,-2.0750622749328613,-3.23952579498291,-0.30607837438583374,0.06872843205928802,-0.1527872383594513,28.3125,29.5625,28.6875,32.75,35.1875,36.4375
0.06412822200218216,-0.17264621069445732,0.02318893970507547,0.2934658162696665,0.0017084711187298103,0.020295826337098956,-0.15205478416314594,-0.3826943001501721,-0.34969752473972315,0.08495716227646793,-3.0787514881378626,0.6247261939223319,-0.00015349597708685884,-0.03229469040067836,-0.004879716576131317,0.0023792219800876403,-0.007566751416305217,0.004200176537538953,0.004435418687059378,0.4782697856426239,-1.4215144974044343,1.9525602499591272,-2.1002313099303187,-1.5706236998187464,2.4531028270721436,-0.02398725040256977,0.053698379546403885,-0.06860160082578659,0.007674291729927063,0.0046506477519869804,-0.028389038518071175,0.0,0.2298433631658554,-9.21288776397705,0.7150384783744812,47.68061828613281,-0.6496289968490601,-1.9644012451171875,-3.3094115257263184,-0.2752130925655365,0.05995260924100876,-0.16927814483642578,28.3125,29.5625,28.6875,32.75,35.1875,36.4375
0.06812633899971843,-0.3661367444597712,-0.32966066181878695,0.16768232797339977,0.023606910817396968,0.020671497062727938,-0.14888971835941037,-0.38284982290420716,-0.34971614508031423,0.08498580130223882,-3.078770083856052,0.6248437344996725,-1.4399812427999397e-05,-0.03334552962106015,-0.0048479708105186444,0.0016593028225041601,-0.00728696583289061,0.0022584990858193596,0.0055331699658311174,0.47817331552505493,-1.4213090550950547,1.9522598425494593,-2.1002313099303187,-1.5706475416766565,2.453077554702759,-0.025387907400727272,0.05719441547989845,-0.0711783617734909,0.00860501080751419,0.0052956026047468185,-0.030886352062225342,-0.05746084079146385,0.2298433631658554,-9.155426979064941,0.7687462568283081,47.6627082824707,-0.6296273469924927,-1.957199215888977,-3.404289960861206,-0.2572292387485504,0.06775572150945663,-0.15684396028518677,28.3125,29.5625,28.6875,32.75,35.1875,36.4375
0.07212532000266947,-0.39908940957420935,-0.19842499721853962,0.36204095626986144,0.005264990636603359,0.0326311401315483,-0.1474019408118667,-0.38298191409102805,-0.3497276772124586,0.08498183890206779,-3.07880471884283,0.6247931161463931,2.1179800462470297e-06,-0.03474552006671023,-0.004666526129755643,0.0015495904003376088,-0.006105815291501778,0.0017150735461571765,0.0051751358928858945,0.4780648946762085,-1.4210800242475052,1.9520066420184534,-2.1002303562560023,-1.5706360975848597,2.4529333114624023,-0.02651124820113182,0.060078129172325134,-0.07459523528814316,0.010167926549911499,0.004494393244385719,-0.03164852038025856,-0.19153612852096558,0.09576806426048279,-9.193734169006348,0.7844129800796509,47.68867492675781,-0.6482261419296265,-1.9288876056671143,-3.547724723815918,-0.24589836597442627,0.05566082149744034,-0.14483100175857544,28.3125,29.5625,28.6875,32.8125,35.1875,36.4375
0.0761249420029344,-0.8010044310250888,0.14538092941605363,0.4034572704423513,-0.004228315093363402,0.032601918237007387,-0.14914931005148158,-0.383105137648405,-0.34974975531379815,0.08499051070323882,-3.078827585194625,0.6247016428405842,-8.02581441588001e-05,-0.037094958533090534,-0.005348871598897321,0.0013171434936756054,-0.0049662732447721,0.0016129579487326744,0.0052655873892015655,0.47796881198883057,-1.4208378803781052,1.9516823927508753,-2.100110193292135,-1.5706003347979944,2.45277738571167,-0.026879113167524338,0.06583566963672638,-0.08094190061092377,0.01137702539563179,0.0035178065299987793,-0.03210172429680824,-0.2298433631658554,0.17238251864910126,-9.232041358947754,0.7508436441421509,47.65553665161133,-0.7191439867019653,-1.9560037851333618,-3.3652820587158203,-0.26153942942619324,0.06158425658941269,-0.14660796523094177,28.3125,29.5625,28.6875,32.8125,35.1875,36.4375
0.0801280029991176,-0.47650106985446367,0.050988970034325315,0.08656880247926806,-0.013774288684586099,0.04054084136403903,-0.15691367038165854,-0.3832681934134889,-0.3497557713594636,0.08500432748476741,-3.0788333504346825,0.6247802474340256,-1.0467703224593098e-05,-0.03941277966496662,-0.00533819690181465,0.0028159592375838647,-0.006218446719435513,0.004242010590572325,0.00325449426058088,0.47783613204956055,-1.4205973011306305,1.9513700644122522,-2.100086351434225,-1.5706122557269495,2.452693223953247,-0.02895694226026535,0.06625715643167496,-0.08503500372171402,0.0121387280523777,0.0034156907349824905,-0.03216623142361641,-0.24899697303771973,0.26815059781074524,-9.366117477416992,0.7665104269981384,47.67524337768555,-0.6896162033081055,-1.8594344854354858,-3.4546098709106445,-0.27670925855636597,0.04650279879570007,-0.1521712839603424,28.3125,29.5625,28.6875,32.8125,35.1875,36.4375
0.08413010799267795,-1.3140160177471725,-0.8868227907115211,-0.15253845850167783,-0.02819969476435378,0.038772966496834656,-0.14101525701593842,-0.38339190131505296,-0.34978862306261815,0.08497953158338112,-3.0788213913586313,0.6246823112253392,-0.00019191749031749423,-0.04136502761932787,-0.005426508761729531,0.002339830923442952,-0.005845101845023858,0.003992321576920119,0.001753887140618908,0.47775158286094666,-1.4202595365098496,1.9510100523578089,-2.099954744378561,-1.5705645720111292,2.4525492191314697,-0.030452553182840347,0.07050666213035583,-0.08881910145282745,0.012069380842149258,0.0031876566354185343,-0.0321587435901165,-0.24899697303771973,0.3447650372982025,-9.404424667358398,0.7597975730895996,47.70748519897461,-0.6359338760375977,-1.9694921970367432,-3.4827020168304443,-0.27377963066101074,0.0675000324845314,-0.17076581716537476,28.3125,29.5625,28.6875,32.8125,35.1875,36.4375
0.08812547099660151,-1.129164958494524,-1.0606885554147978,-0.22354541047915005,-0.04348856877145313,0.0591063297183617,-0.14838474696153392,-0.38358298542840663,-0.3497904111692577,0.08500975797973309,-3.078850928304901,0.6246495912901658,-2.9355462873462255e-05,-0.04319499392260324,-0.005980547757442064,0.0020509082283364124,-0.0056658505810372045,0.004001784601115306,0.0009551994992065826,0.4776073694229126,-1.4200178694776078,1.9506614843951624,-2.0999423466124476,-1.5706127325641077,2.452381134033203,-0.031039290130138397,0.07485181093215942,-0.09316816180944443,0.012146844528615475,0.003018854185938835,-0.03194345906376839,-0.3064578175544739,0.325611412525177,-9.691728591918945,0.7732232213020325,47.68061828613281,-0.6963096857070923,-1.6824285984039307,-3.446028709411621,-0.28510624170303345,0.07488127052783966,-0.20890647172927856,28.3125,29.5625,28.6875,32.8125,35.1875,36.4375
0.09212621899496298,-0.8973335156454643,-1.328588712554644,-0.3915108609995189,-0.03445367839959503,0.05621180826415914,-0.1468228311932334,-0.38375890763218407,-0.34982638067037286,0.08501774845850779,3.0788376464498945,-0.6246856249741166,5.316739444966098e-05,-0.04599659273601571,-0.006713501189526242,0.0013918388975781941,-0.006262071115936141,0.00420216257638609,-0.00019745891797633836,0.4774869382381439,-1.4196915489486237,1.9502533117877405,-2.0998712978758753,-1.570576016102926,2.452285051345825,-0.03255832940340042,0.0811811313033104,-0.0986376404762268,0.010835076682269573,0.00344255194067955,-0.032306548207998276,-0.26815059781074524,0.363918662071228,-9.576807022094727,0.8224645853042603,47.679718017578125,-0.7389750480651855,-1.80299711227417,-3.451486349105835,-0.2615852653980255,0.06952396035194397,-0.2214423418045044,28.3125,29.5625,28.6875,32.8125,35.1875,36.4375
0.09613407899450976,-0.5743413201612799,-1.1682246751175804,-0.4591359120342735,-0.032197447659748746,0.035810406821840154,-0.1452870378860914,-0.38396291798550086,-0.3498684879211441,0.0850388007744918,3.078769314970186,-0.6246712269815686,-5.100735099345971e-05,-0.04914005926573757,-0.007217564794892812,0.0021894609281011288,-0.007671905902309718,0.006667409937742107,-0.0008904986417584831,0.4773663878440857,-1.4193659883788605,1.9498322645770472,-2.0998712978758753,-1.570564095173971,2.4521644115448,-0.0346033088862896,0.08466706424951553,-0.10433455556631088,0.01020917296409607,0.0035523883998394012,-0.03365490213036537,-0.2106897532939911,0.363918662071228,-9.634267807006836,0.8157517910003662,47.674346923828125,-0.7179772257804871,-1.7536647319793701,-3.3919270038604736,-0.2636895179748535,0.07863135635852814,-0.25676989555358887,28.3125,29.5625,28.6875,32.8125,35.1875,36.4375
0.10013918099866714,-0.6771570747596797,-1.0309757479600459,-0.2987038095689789,-0.023469625554590718,0.03950294084631684,-0.14547988173936396,-0.3841836452481396,-0.34989897639719664,0.08506694666093745,3.0787057733705647,-0.6246379648946161,-0.0001534113819296103,-0.05227217410225262,-0.008395041478386298,0.0014134375679752675,-0.007799068658382588,0.006393263616888744,0.0008181791684415268,0.47721004486083984,-1.419038475756981,1.9493873755084437,-2.0998479328551234,-1.570552174245016,2.451995611190796,-0.03551405668258667,0.09274768829345703,-0.11173690110445023,0.009716343134641647,0.003779244376346469,-0.03626934438943863,-0.19153612852096558,0.3447650372982025,-9.53849983215332,0.8090336918830872,47.65284729003906,-0.6289087533950806,-1.941479206085205,-3.1969261169433594,-0.22223898768424988,0.08280758559703827,-0.28132718801498413,28.3125,29.5625,28.6875,32.8125,35.1875,36.4375
0.10413567599607632,-0.5085983842860966,-0.6063618529119861,-0.1992131936153126,-0.027935841501746505,0.04225988079830784,-0.14968580669176945,-0.38441194411542057,-0.34992539039924525,0.08507318338153519,3.078681406414014,-0.6246896085224505,-0.00020642166869866587,-0.05417792506485976,-0.00886194447251149,0.0013217523424841606,-0.008441467291967953,0.0054668677730090355,0.0014899522492681158,0.47705355286598206,-1.4186412406018754,1.948906723652975,-2.0997992954649867,-1.5705636183368128,2.4518747329711914,-0.03700346127152443,0.09686528891324997,-0.11656386405229568,0.010950437746942043,0.004770876839756966,-0.038428936153650284,-0.2106897532939911,0.38307225704193115,-9.557653427124023,0.6076123714447021,47.71464920043945,-0.7093900442123413,-1.8429100513458252,-3.0494511127471924,-0.21055005490779877,0.06587865203619003,-0.28508034348487854,28.3125,29.5625,28.6875,32.8125,35.1875,36.4375
0.1081255519966362,-0.32335746244601205,-0.27411255372201193,0.05606896841599196,-0.031507234280696586,0.0413045185723664,-0.1481008456041561,-0.38462649990277453,-0.34995247705951865,0.0850961098572175,3.0786293632046027,-0.6246401111780794,-0.00029331073852886016,-0.05596586954634979,-0.009288666308561466,0.0015987241793419848,-0.009224708675040143,0.006156694006785467,0.0030420240525013964,0.47689712047576904,-1.4183157694390793,1.9484756628619593,-2.0997749767699183,-1.5705516974078577,2.4516942501068115,-0.03808711841702461,0.09957443177700043,-0.12035705149173737,0.011062159202992916,0.005147394724190235,-0.041062530130147934,-0.2106897532939911,0.3447650372982025,-9.500192642211914,0.7754590511322021,47.67524337768555,-0.6673538684844971,-1.9383294582366943,-3.133739948272705,-0.2032848596572876,0.06981594115495682,-0.2877289354801178,28.3125,29.5625,28.6875,32.8125,35.1875,36.4375
0.1121393539942801,-0.5093688453279642,-0.8115471451619023,0.2829107913269109,-0.031433133819712564,0.0394453187589179,-0.15360336980512249,-0.38483549625537294,-0.35001062098561414,0.08508508714866378,3.0785822422653966,-0.6245528984871125,-0.0002346543653725001,-0.0572623173852078,-0.009693298741623928,0.0014136636273402567,-0.009292239233905259,0.0054593684492849045,0.003114113895019942,0.47676488757133484,-1.4178822946599503,1.9479954878436487,-2.099739213983053,-1.570479694996969,2.4515137672424316,-0.03875907137989998,0.10283365100622177,-0.123917356133461,0.011954246088862419,0.005523701664060354,-0.0418049655854702,-0.28730422258377075,0.3447650372982025,-9.327810287475586,0.7284641265869141,47.668975830078125,-0.7589250206947327,-1.9391205310821533,-3.103389263153076,-0.17907223105430603,0.08170825988054276,-0.3045541048049927,28.3125,29.5625,28.6875,32.8125,35.1875,36.4375
0.11612545000389218,-0.4303469291831394,-0.34792071281522563,0.427743968924811,-0.022814530773144784,0.03970213534207223,-0.1550315927855444,-0.3851110900172979,-0.3500630634426947,0.08514462773448386,3.0785282654579444,-0.6244819220165061,-0.0004823423431603204,-0.0583045626734827,-0.010088057134186028,0.0008289982187245562,-0.008943912096417272,0.0042829603160908485,0.005727401507767009,0.47663289308547974,-1.4174967271140595,1.9474089781390589,-2.0997029743590296,-1.5705273787127894,2.4513447284698486,-0.03912563994526863,0.10651998221874237,-0.12698079645633698,0.01253468170762062,0.00575811555609107,-0.04478226974606514,-0.19153612852096558,0.3447650671005249,-9.117119789123535,0.7799360156059265,47.6949462890625,-0.798916220664978,-1.904414415359497,-3.1327645778656006,-0.15877215564250946,0.05879908800125122,-0.33794671297073364,28.3125,29.5625,28.6875,32.8125,35.1875,36.4375
0.12012606300413609,-0.3002183350605174,0.035464157640537786,0.6967647182449856,0.0012807709561976233,0.03042608175237187,-0.14891218692109928,-0.38534513108542223,-0.3500919139463387,0.0851307619190465,3.0784855743010318,-0.6245117993565649,-0.00043078774949807793,-0.05965833564355347,-0.010406841171905398,0.0001283749989321328,-0.008211631954398486,0.0033546685965927716,0.003972249689447087,0.47644075751304626,-1.4170507949641724,1.9469178358661097,-2.099654813806051,-1.570479694996969,2.451176881790161,-0.039631616324186325,0.11081277579069138,-0.13042737543582916,0.012853199616074562,0.005527183413505554,-0.04353068768978119,-0.13407529890537262,0.2298433631658554,-9.040505409240723,0.7575564384460449,47.66360092163086,-0.8185338973999023,-1.9254671335220337,-3.2543046474456787,-0.13566449284553528,0.07333715260028839,-0.39763784408569336,28.3125,29.5625,28.6875,32.8125,35.1875,36.4375
0.1241235699999379,0.12024727721512826,0.025211787909770928,0.886189812216649,0.012756890449014369,0.012742489451907743,-0.1540863262627705,-0.38557889057059247,-0.3501588190341904,0.08515197393072199,3.078456839816963,-0.624387332831502,-0.0005316866270048804,-0.060759188673336365,-0.01088909186533229,0.0004523183896027378,-0.00878457440366819,0.0036125513131922173,0.008236308560860668,0.4763444662094116,-1.4166294944337388,1.9463775793658655,-2.099619051019186,-1.570479694996969,2.4510068893432617,-0.03999482840299606,0.11264033615589142,-0.13347412645816803,0.013580319471657276,0.005919978022575378,-0.04815633222460747,-0.038307227194309235,0.13407529890537262,-8.925583839416504,0.6971306204795837,47.671661376953125,-0.9410468339920044,-1.8423465490341187,-3.371863842010498,-0.096488356590271,0.07009031623601913,-0.3827688694000244,28.3125,29.5625,28.6875,32.8125,35.1875,36.4375
0.12812544500047807,-0.03424001544728047,-0.008112297486968867,0.602276207814545,0.026504803761984212,-0.006260000154158462,-0.14338999373973332,-0.38585852436079543,-0.35018683097366815,0.08515513454849355,3.078396946122033,-0.6243549332723606,-0.0005656929324172904,-0.0626416610586681,-0.011367528492921003,0.0007555516175899643,-0.008935957584307637,0.00395200349587322,0.009957436746158385,0.47611624002456665,-1.4161603462747117,1.9458258787738245,-2.0995942554869593,-1.5704434553729456,2.4507663249969482,-0.04081641137599945,0.11593776196241379,-0.13825839757919312,0.014699812978506088,0.005897133611142635,-0.05069616436958313,-0.019153613597154617,0.17238251864910126,-9.002198219299316,0.8358902335166931,47.704795837402344,-0.9703354835510254,-1.7379385232925415,-3.3516523838043213,-0.09131267666816711,0.0737524926662445,-0.3634662628173828,28.3125,29.5625,28.6875,32.8125,35.1875,36.4375
0.13212435199238826,0.27491509293456595,0.40988718926571255,0.6701080283382327,-0.0022814352621408403,0.00948352778794406,-0.15409363201985193,-0.38609781932352855,-0.3502402941919219,0.08515360057750282,3.078412780843271,-0.624162161148263,-0.0005768557022181671,-0.06352035069854076,-0.011546734095419271,-0.00027708851560376475,-0.007385734064955899,0.0008590818516815374,0.015765308695247414,0.4759840667247772,-1.4156899762204667,1.9452751318561,-2.0995336971678675,-1.5704310576068323,2.450512170791626,-0.041298139840364456,0.12080337852239609,-0.1421011984348297,0.017138991504907608,0.005939691327512264,-0.05698361620306969,0.0,0.19153612852096558,-9.002198219299316,0.7844129800796509,47.68598937988281,-1.0517377853393555,-1.8450686931610107,-3.4833126068115234,-0.060235396027565,0.07477385550737381,-0.34319108724594116,28.3125,29.5625,28.6875,32.8125,35.1875,36.4375
0.13612464399193414,-0.20890623066584618,-0.5977474797041743,0.1292932416909401,-0.004480002720815441,0.009706967306619524,-0.14726379889773292,-0.38634859580406916,-0.35026515533553415,0.08512935340784092,3.078445281555531,-0.6241464674944333,-0.0004885576036223978,-0.06536073497725554,-0.011229993554896458,-0.001035127442862737,-0.006295233527010372,-0.0024158359641899304,0.018496697817112988,0.47579142451286316,-1.415171818142273,1.9447100798236292,-2.099424978295797,-1.5704191366778772,2.450305938720703,-0.04381166025996208,0.12606438994407654,-0.14722633361816406,0.02041485533118248,0.006467059254646301,-0.062226783484220505,-0.07661445438861847,0.19153612852096558,-9.27034854888916,0.6859408020973206,47.65374755859375,-1.061915636062622,-1.87424898147583,-3.2912347316741943,-0.0903540551662445,0.057890236377716064,-0.29609739780426025,28.3125,29.5625,28.6875,32.8125,35.1875,36.4375
0.14012654799444135,-0.27547586129844764,-0.8984916856641952,-0.03146981838578551,-0.02720221552382538,0.03189113492316098,-0.15458209699186884,-0.3865852664722859,-0.3503090844412001,0.08511940317949288,3.078466511034245,-0.624011461155959,-0.00037857832120100456,-0.0661581900777488,-0.012577837594993316,-0.0001848570920835594,-0.006424533954297467,-0.000897733055537571,0.02645968538477369,0.4756241738796234,-1.4146785748055954,1.9441354910479944,-2.099292894402975,-1.570371452962057,2.45005202293396,-0.04178079217672348,0.127712681889534,-0.15136978030204773,0.02150898240506649,0.005880412645637989,-0.06815674155950546,-0.038307227194309235,0.363918662071228,-9.346963882446289,0.8090336918830872,47.6627082824707,-1.2271630764007568,-1.848393201828003,-3.3485565185546875,-0.10590173304080963,0.07693387567996979,-0.2009386420249939,28.3125,29.5625,28.6875,32.8125,35.1875,36.4375
0.14412286199512891,-1.0914343693950923,-1.4278255419679495,-0.4190886801247125,-0.04632342981446244,0.041965522794032165,-0.1497897060025987,-0.38685728717330087,-0.35036087432129964,0.08514106631118429,3.0785011292398474,-0.6237674958816386,-0.0004034157385236611,-0.06945124654011868,-0.01227373186978769,-0.00038832250734379266,-0.0072310499470341055,-0.0016589347712153521,0.026444125993821066,0.47546666860580444,-1.4141844821027298,1.9434874693499964,-2.0991603336729945,-1.5703709761248987,2.4497382640838623,-0.04590820148587227,0.13299202919006348,-0.1572442352771759,0.022409917786717415,0.0069392649456858635,-0.0722660943865776,-0.2298433631658554,0.4596867263317108,-9.481039047241211,0.7396538853645325,47.6627082824707,-1.1582006216049194,-1.8039199113845825,-3.4107284545898438,-0.12452928721904755,0.06504590064287186,-0.10924451798200607,28.3125,29.5625,28.6875,32.8125,35.1875,36.4375
0.14813018999120686,-1.4624391883200214,-2.0905040893601354,-0.5669192890613978,-0.058867383987280766,0.05973149119843385,-0.15168615525467719,-0.3871351410001476,-0.35039125667251575,0.0851075861398124,3.0785170102402284,-0.6236941564045915,-0.00027803858457007196,-0.07128406144192741,-0.012041221190143076,-0.0009055582243889277,-0.00693433192065391,-0.0022222551482702847,0.024386212371672163,0.47523805499076843,-1.4136066746762772,1.9428771177874964,-2.099064966241354,-1.5703228155719202,2.4494621753692627,-0.047926951199769974,0.136697918176651,-0.16043169796466827,0.022533392533659935,0.006922375410795212,-0.072225421667099,-0.49799394607543945,0.5363011956214905,-9.730035781860352,0.7597975730895996,47.718231201171875,-1.1279330253601074,-1.8395452499389648,-3.3826746940612793,-0.12198612093925476,0.0693822130560875,-0.09422478079795837,28.3125,29.5625,28.6875,32.8125,35.1875,36.4375
0.1521246060001431,-1.1999016388911823,-1.179510960830147,-0.478297047798259,-0.04228106122485423,0.07872246617312949,-0.16012956022868113,-0.38741027412431395,-0.35045321662616213,0.08510892540274911,3.0785348230407035,-0.6234704090608352,-0.000267126674900213,-0.0735338543478432,-0.012820458656681943,-0.0006277433469187172,-0.008487156246851422,-0.0007468696903236561,0.01764948542068631,0.47508180141448975,-1.4130649876645585,1.9422286192523401,-2.0989695988097132,-1.5702984968768519,2.449164390563965,-0.04897105321288109,0.14009475708007812,-0.16480983793735504,0.02149096131324768,0.007614727597683668,-0.0665307492017746,-0.3447650372982025,0.4213795065879822,-9.84495735168457,0.9679316878318787,47.70390319824219,-1.2282485961914062,-1.7955302000045776,-3.338489532470703,-0.10399438440799713,0.06113671511411667,-0.11755253374576569,28.3125,29.5625,28.6875,32.8125,35.1875,36.4375
0.15612528099154588,-1.300626381282737,-0.7684158599737985,-0.4353206131682044,-0.005441074738043956,0.05595253902058905,-0.1485735929614771,-0.38770704215967233,-0.35052304705695647,0.08510064230777628,3.078523506537372,-0.6233554926657157,-0.00024073634781756866,-0.0754094715775191,-0.012869501251622322,-0.0010139518365162511,-0.008879027655907252,-0.0008932874826901445,0.011623126797448369,0.4749130606651306,-1.4124632340720673,1.9415352980243128,-2.0988861523070277,-1.5702627340899866,2.448925733566284,-0.05078255385160446,0.14369221031665802,-0.16806459426879883,0.02110004425048828,0.008021203801035881,-0.062314223498106,-0.47884035110473633,0.325611412525177,-9.576807022094727,0.8202234506607056,47.67882537841797,-1.2117276191711426,-1.815442681312561,-3.424119710922241,-0.083220474421978,0.03212786093354225,-0.13035672903060913,28.3125,29.5625,28.6875,32.8125,35.1875,36.4375
0.16013154199754354,-0.9696831650197677,0.06080109823007107,-0.27953871576299677,-0.0022922860160852383,0.052436210855597035,-0.1585054458354322,-0.3880639286824925,-0.35057909615172317,0.08512879798519798,3.0784129605816317,-0.6233538153540854,-0.0003894511984533974,-0.07785237297496696,-0.012895091113409253,-0.0024930179959747265,-0.008506587623129148,-0.001515529962074715,0.006831213829363893,0.47467249631881714,-1.4118964833072205,1.940815273915426,-2.098874708215231,-1.5702384153949183,2.4486985206604004,-0.05286317691206932,0.15009061992168427,-0.1716732382774353,0.019036661833524704,0.007969612255692482,-0.05959885194897652,-0.40222588181495667,0.07661445438861847,-9.710882186889648,0.8269415497779846,47.671661376953125,-1.1700502634048462,-1.903125286102295,-3.3742966651916504,-0.055026788264513016,0.03008488565683365,-0.21267735958099365,28.3125,29.5625,28.6875,32.8125,35.1875,36.4375
0.16412538399163168,-0.4547883122801629,0.2700211421668023,-0.024271222860701446,0.005375884917710783,0.05805048842896112,-0.1616335317478244,-0.38835626553404384,-0.3506219840680421,0.08511281805000101,3.0784362068005566,-0.6232635444231444,-0.0003173446554490096,-0.0795560694927551,-0.012600476131108613,-0.003243094832613355,-0.00701069200479825,-0.00301849092098702,0.0040231615278283755,0.4744679629802704,-1.4113063526204606,1.940143887196676,-2.0987545452513636,-1.570214573537008,2.448435068130493,-0.05448683723807335,0.1546168327331543,-0.17558921873569489,0.020451843738555908,0.007317852228879929,-0.05841205641627312,-0.3447650372982025,-0.019153613597154617,-9.481039047241211,0.7799360156059265,47.70748519897461,-1.153810977935791,-2.054548978805542,-3.555615186691284,-0.025894083082675934,0.01493083406239748,-0.27174288034439087,28.3125,29.5625,28.6875,32.8125,35.1875,36.4375
0.1681251580012031,-0.5748873501000464,0.3490500037559464,0.2107398631450186,0.012352625375471809,0.03827570407850432,-0.15394941480667906,-0.38870673960213814,-0.3506806718805655,0.08512792312890874,3.0783427480750762,-0.6232639896417992,-0.0004349227167537104,-0.08184601373089949,-0.012361020637068738,-0.004120630407307567,-0.005943486125840483,-0.0044509985638020695,0.001962344425018074,0.47423896193504333,-1.4107157599977036,1.939425293599264,-2.0987421474852503,-1.5701912085162562,2.448218584060669,-0.05674303323030472,0.16017651557922363,-0.18029801547527313,0.02136707864701748,0.007021475583314896,-0.05860361084342003,-0.15322890877723694,0.09576806426048279,-9.251194953918457,0.8179876208305359,47.69673538208008,-1.124361276626587,-2.1577601432800293,-3.621317148208618,0.006650057155638933,0.018027406185865402,-0.31126055121421814,28.3125,29.5625,28.6875,32.8125,35.1875,36.4375
0.17214429700106848,-0.98946517070794,-0.20128164843058155,0.32858894360531166,0.010492682038395717,0.015570106960973995,-0.14880405354719728,-0.3890525594498203,-0.35073167453827264,0.08512164217868048,3.0783053053548985,-0.6232178653927221,-0.00040081046517016295,-0.08568968091875814,-0.012922905513912442,-0.0013860476858353846,-0.008565449863493477,0.00012668945240253477,0.0004256558081433895,0.47398629784584045,-1.4100670379451294,1.9386690298663538,-2.0986463032164515,-1.5701430479632776,2.4479422569274902,-0.059302836656570435,0.16116741299629211,-0.18813587725162506,0.022948652505874634,0.0072527071461081505,-0.05962345376610756,-0.2298433631658554,0.15322890877723694,-9.174580574035645,0.8851262927055359,47.704795837402344,-1.116105079650879,-1.9251312017440796,-3.379307270050049,0.011264227330684662,0.02502432093024254,-0.34595367312431335,28.3125,29.5625,28.6875,32.8125,35.1875,36.4375
0.17625374499766622,-0.44026147180810027,-0.4071306659120088,0.4619237446724053,-0.005737242452091949,0.03570952930812009,-0.15481033104450845,-0.38941408454816856,-0.3507651659753699,0.08512982570274277,3.078246197481809,-0.6233583814485667,-0.00042679116030952833,-0.08819532280694663,-0.013216600707868946,-0.00038504486410626774,-0.008216891766888916,0.0003474399194885067,-0.0004906072146319759,0.47361382842063904,-1.4090927702239533,1.9375317732440394,-2.0984894237914027,-1.5701311270343226,2.4476301670074463,-0.06069805473089218,0.16458022594451904,-0.19537360966205597,0.026741499081254005,0.0068370625376701355,-0.06009909138083458,-0.363918662071228,0.3064578175544739,-9.174580574035645,0.7866488099098206,47.65911865234375,-1.087428331375122,-1.8704957962036133,-3.324504852294922,0.0004578228108584881,0.030154641717672348,-0.4370230734348297,28.3125,29.5625,28.6875,32.8125,35.1875,36.4375
0.18025750399101526,-0.6755016090952203,-0.9722387881880703,0.39955674229072974,-0.04887026995897896,0.056206589254667996,-0.15587117801902892,-0.3897507202124919,-0.3508187546653991,0.08511648113717293,3.078256811555538,-0.6233425093996142,-0.0003794631046794478,-0.08973388989928338,-0.012002509171728777,-0.0008915345789016085,-0.007491867845872883,-0.0007747087746844777,-0.002306550084615784,0.4734926223754883,-1.4087677758983155,1.937125031148092,-2.0984050236144007,-1.5701192061053675,2.447533369064331,-0.06409983336925507,0.16669055819511414,-0.19687186181545258,0.02746165171265602,0.006703370250761509,-0.06168404594063759,-0.2106897532939911,0.3064578175544739,-9.155426979064941,0.8761723637580872,47.67613983154297,-0.9137747287750244,-1.7981276512145996,-3.3304266929626465,-0.0030026657041162252,0.05390943959355354,-0.48724931478500366,28.3125,29.5625,28.6875,32.8125,35.1875,36.4375
0.1841986929939594,-1.1139528512432308,-1.650158902143747,0.3747128042789026,-0.04175438514021447,0.04826543478107026,-0.1533996234011311,-0.3901227225672355,-0.35084765342897606,0.08510932399021057,3.0782454616416413,-0.6233931965145532,-0.0003173080344195178,-0.09031833901364995,-0.012034179452679804,-0.0017634292571565523,-0.005839386270163631,-0.004198133877954223,0.004632404002042928,0.47319257259368896,-1.4080813092044373,1.9363120237933558,-2.098248144189352,-1.5700948874102991,2.4472668170928955,-0.06454046070575714,0.1708078235387802,-0.200511172413826,0.030791405588388443,0.0067964461632072926,-0.06906234472990036,-0.26815059781074524,0.5554547905921936,-9.193734169006348,0.8023208975791931,47.6895751953125,-1.000182032585144,-1.9676835536956787,-3.3252644538879395,-0.033850397914648056,0.03780036419630051,-0.4532615542411804,28.3125,29.5625,28.6875,32.8125,35.1875,36.4375
0.18819785300001968,-0.6477310334832709,-0.7737952414397562,0.1454133776223377,-0.019542693308017164,0.030109541951321598,-0.14999630733880953,-0.3905123005397526,-0.3509232004174786,0.08510989473357036,3.078189673838077,-0.6232246064400748,-0.0003958147527738162,-0.09459867212432807,-0.012013122597213767,-0.00050412002702683,-0.00762410083226493,-0.0018173699090703885,0.015089587338516439,0.47285518050193787,-1.4069993507913132,1.9350665251361292,-2.0981279812254847,-1.5700472036944788,2.4467933177948,-0.06861215829849243,0.17471152544021606,-0.20829248428344727,0.03174931928515434,0.007299639284610748,-0.08358762413263321,-0.17238251864910126,0.325611412525177,-9.27034854888916,0.8582697510719299,47.7244987487793,-0.8285626173019409,-1.8435125350952148,-3.4295759201049805,-0.031741466373205185,0.02931072935461998,-0.38577327132225037,28.3125,29.5625,28.6875,32.8125,35.1875,36.4375
0.1922471760044573,-0.3059093604697855,0.092033121967346,0.24292280471441388,-0.0040617082386820375,0.026623600740368545,-0.1525454232025517,-0.39089159977034127,-0.3509754677715676,0.08508793453365082,3.0782159121258172,-0.6231280993200607,-0.00031950671388099116,-0.09401204953447719,-0.0112946918053699,-0.003498225171109823,-0.0044609511209422635,-0.007847099914556975,0.016573566625179975,0.4726869761943817,-1.406613440518715,1.9346240202533167,-2.098079820672506,-1.5700348059283655,2.4466004371643066,-0.06925229728221893,0.18003317713737488,-0.20795467495918274,0.03290245682001114,0.007234504912048578,-0.0857112780213356,-0.15322890877723694,0.24899697303771973,-9.174580574035645,0.8470799922943115,47.68598937988281,-0.8222482204437256,-1.7817492485046387,-3.438636064529419,-0.03359280526638031,0.04528309032320976,-0.33593034744262695,28.3125,29.5625,28.6875,32.8125,35.1875,36.4375
0.1961981369968271,-0.7115285875645937,-0.043896999799104136,0.16632556081952843,0.0073987103692179056,0.022044826483776155,-0.15360724306827714,-0.39127610314951866,-0.3510140476717458,0.0850692821772806,3.078231362906921,-0.6229924920675779,-0.00024697153837893347,-0.09603346828818363,-0.011715084715261299,-0.0024701362978865227,-0.006022464227364945,-0.008067333762819017,0.022589016639553428,0.4723864197731018,-1.4058797818473359,1.933786694203512,-2.0979472599425257,-1.5699980894671839,2.446213722229004,-0.07111556828022003,0.18222379684448242,-0.21364012360572815,0.03588808700442314,0.008721420541405678,-0.09358910471200943,-0.13407529890537262,0.17238251864910126,-9.27034854888916,0.8112748265266418,47.679718017578125,-0.7987543344497681,-1.9064658880233765,-3.4860775470733643,-0.06868749856948853,0.023108653724193573,-0.20945662260055542,28.3125,29.5625,28.6875,32.8125,35.1875,36.4375
0.20019725100428332,0.08922360214389086,0.3487947888150751,0.16616677605234353,0.007530287468578447,0.035366564429488066,-0.15733702461832552,-0.39167595979160885,-0.3510830947830833,0.08509197952443065,3.0781979431581172,-0.6228124129798766,-0.00031957553929160747,-0.09753117796506859,-0.010876366669191057,-0.0037889806627925417,-0.0039830432172271325,-0.011425223881531067,0.021773654697852182,0.472133606672287,-1.4051812303117295,1.9329007307635706,-2.0978385410704554,-1.569974724446432,2.4458532333374023,-0.07366850227117538,0.18724879622459412,-0.21711990237236023,0.03826772794127464,0.008437753655016422,-0.09532404690980911,-0.15322890877723694,-0.05746084079146385,-9.308656692504883,0.8493211269378662,47.67524337768555,-0.7207282781600952,-2.001953363418579,-3.421111583709717,-0.12202092260122299,0.027905117720365524,-0.14940245449543,28.3125,29.5625,28.6875,32.8125,35.1875,36.4375
0.2041387159988517,-0.5289229641494664,-0.16465474048567588,0.017942078664386487,0.0287391105684395,0.020620711177474008,-0.1475212635613348,-0.3920341063956115,-0.35109266702669967,0.08502427700776788,3.078322968187615,-0.6227250643102068,-7.901820935127592e-05,-0.09894336248193841,-0.010982582570840055,-0.004811084970023028,-0.00191209024995461,-0.013841727698165975,0.015500041500037781,0.4718213379383087,-1.404386730199196,1.932087246571676,-2.0976339779295863,-1.5699628035174769,2.4454710483551025,-0.07420048117637634,0.1928148716688156,-0.22191698849201202,0.040595367550849915,0.007662508636713028,-0.08958087861537933,-0.24899697303771973,0.05746084079146385,-9.346963882446289,0.7553206086158752,47.687782287597656,-0.6402718424797058,-2.173321485519409,-3.4530436992645264,-0.1659221351146698,0.04755889251828194,-0.1608174741268158,28.3125,29.5625,28.6875,32.8125,35.1875,36.4375
0.2081576619966654,-0.5434570425173996,-0.11377697795669896,0.02503891174061968,0.011560247615431923,0.03493163371485325,-0.15529226463018744,-0.3924391740020592,-0.35113161333141957,0.08500355842833146,3.0783157766634344,-0.6227269724946745,3.283628016107906e-05,-0.09971256465513662,-0.011595699775783074,-0.004325460299098514,-0.002397478716741529,-0.014461037628645229,0.007888817866015488,0.47149741649627686,-1.4036054921201249,1.9311898390399378,-2.097466131249899,-1.5699146429644983,2.4451496601104736,-0.07412239909172058,0.19446080923080444,-0.22561883926391602,0.042981378734111786,0.008361036889255047,-0.08189132064580917,-0.24899697303771973,0.15322890877723694,-9.251194953918457,0.8336543440818787,47.702110290527344,-0.641706109046936,-2.139285087585449,-3.4585347175598145,-0.23900821805000305,0.04164610803127289,-0.21470269560813904,28.3125,29.5625,28.6875,32.8125,35.1875,36.4375
0.2121286049950868,-0.6616318469918205,-0.7110813811731462,-0.07209636857771615,-0.012595193024903232,0.06589026951561928,-0.15753333167260458,-0.3928563957148659,-0.35118424184252145,0.08499088384353615,3.078330253075326,-0.6226920336763536,8.108864596178896e-05,-0.10326775387332625,-0.011130640775906829,-0.0033517444284605342,-0.002773979913599752,-0.011762999215142598,0.004170138006511309,0.47120821475982666,-1.4027994883111496,1.9302447477923792,-2.0972982845702113,-1.5699027220355433,2.4448373317718506,-0.07747957110404968,0.19728851318359375,-0.23134535551071167,0.04331192001700401,0.0074540008790791035,-0.0815265104174614,-0.24899697303771973,0.13407529890537262,-9.461885452270508,0.8403671979904175,47.700321197509766,-0.6653156280517578,-2.205432176589966,-3.465506076812744,-0.2843792736530304,0.05302135646343231,-0.28179731965065,28.3125,29.5625,28.6875,32.8125,35.1875,36.4375
0.21612797600391787,-0.7644401298957758,-1.0322650887677876,-0.12793861600421413,-0.04311241996664785,0.07126894478155595,-0.1639285636301988,-0.3932576074378927,-0.35123119482498044,0.0849574521272746,3.0783806727122474,-0.6226047372485771,0.00023976645196716149,-0.10335990767933162,-0.013353754784911492,-0.0032900707563265586,-0.0034419820672762693,-0.011841589800861911,0.005762257575949281,0.47090956568717957,-1.4019697320512314,1.9293106237994593,-2.0970946751036585,-1.5698664824115198,2.4444782733917236,-0.07393599301576614,0.20045942068099976,-0.23549489676952362,0.0440591499209404,0.008065911941230297,-0.07957448810338974,-0.3447650372982025,0.325611412525177,-9.500192642211914,0.8627467155456543,47.66718673706055,-0.8688924312591553,-2.0318188667297363,-3.479877471923828,-0.36990371346473694,0.056273579597473145,-0.31933826208114624,28.3125,29.5625,28.6875,32.8125,35.1875,36.4375
0.2201271139929304,-0.11670330238146204,-1.094108857423335,-0.33223256719542815,-0.051127670014134624,0.06692476542080313,-0.1581632340475256,-0.3936783691166539,-0.3512651080451458,0.08494601349682301,3.0783793659633876,-0.6226428405848589,0.00028607555485380987,-0.10648089264886665,-0.014477274497779025,-0.002213177242104235,-0.006213858753266558,-0.0059700279282936764,0.004790265280732578,0.470585435628891,-1.4011881661466141,1.9283903280841272,-2.096928735772604,-1.5698545614825647,2.444178581237793,-0.07452398538589478,0.20264412462711334,-0.23959852755069733,0.03949221223592758,0.007849459536373615,-0.07918792217969894,-0.038307227194309235,0.325611412525177,-9.634267807006836,0.8358902335166931,47.68240737915039,-0.9849750995635986,-2.0182278156280518,-3.5755958557128906,-0.3510386347770691,0.059178099036216736,-0.3734971284866333,28.3125,29.5625,28.6875,32.8125,35.1875,36.4375
0.22412771999370307,-0.12489099048608576,-0.7778431531808819,-0.4896024746978005,-0.027145875932986518,0.0294360216244702,-0.1564779567289422,-0.3940801651839079,-0.35132465667443286,0.0848942792662144,3.0784260347618435,-0.6225342872165286,0.00042849906926404745,-0.10960506708812488,-0.0156892753314014,-0.0014115842380535218,-0.008756625700479649,-0.0007594552404713012,0.0073166016966706715,0.4703093469142914,-1.4003222745708008,1.9274686018573206,-2.0967866382994593,-1.5698187986956995,2.443829298019409,-0.07502173632383347,0.2056463658809662,-0.24411334097385406,0.0352158322930336,0.0077285198494791985,-0.08220978826284409,0.0,0.325611412525177,-9.653421401977539,0.8179876208305359,47.69584274291992,-1.0122493505477905,-2.1268599033355713,-3.5934267044067383,-0.33225762844085693,0.07680764049291611,-0.3907053470611572,28.3125,29.5625,28.6875,32.8125,35.1875,36.4375
0.22812675200111698,-0.01787404904251022,-1.3983648321012578,-0.7146215737233792,-0.03280125935802282,0.015570773126423233,-0.15403287126107093,-0.39454037507597634,-0.3513750530221227,0.08489521487235302,3.078395867601917,-0.62252312388089,0.0004300952166522717,-0.11243756353086592,-0.01610789650032401,-0.0018567340190835616,-0.00968440180982806,0.001181986871879644,0.013981663034871791,0.4699726998806,-1.3994917583516617,1.9264643828021448,-2.0966316662230433,-1.5697949568377894,2.4434900283813477,-0.07665416598320007,0.21046951413154602,-0.24822793900966644,0.032368388026952744,0.0076662697829306126,-0.09050442278385162,0.09576806426048279,0.4596867263317108,-9.806650161743164,0.8426030278205872,47.66628646850586,-0.9279874563217163,-2.1938259601593018,-3.7905197143554688,-0.2892551124095917,0.10428111255168915,-0.35073670744895935,28.3125,29.5625,28.6875,32.8125,35.1875,36.4375
0.23213097199914046,0.38228227079601157,-1.355972105472899,-0.4586963161912724,-0.06150088523827311,0.02360213498634724,-0.16110654625054582,-0.39499216308524754,-0.3514415369009027,0.08488447230208845,3.078415449529352,-0.6223280214459327,0.00045737687875590827,-0.11610775282152878,-0.01634352946280328,-0.0009325788787651482,-0.011214171844947454,0.003453658788530582,0.022417475733105596,0.4696717858314514,-1.3986259561828156,1.9254449049579065,-2.096476217309469,-1.569770638142721,2.4430654048919678,-0.07957828044891357,0.21432556211948395,-0.2550607919692993,0.03264082223176956,0.007993183098733425,-0.10186152160167694,0.13407528400421143,0.38307225704193115,-9.730035781860352,0.8224645853042603,47.679718017578125,-0.9650615453720093,-2.170759439468384,-3.6028730869293213,-0.312880277633667,0.09770458936691284,-0.2280324399471283,28.3125,29.5625,28.6875,32.8125,35.1875,36.4375
0.23612797899113502,0.1429793150714887,-1.4197106150624068,-0.5612162995822016,-0.0473238622948658,0.028944822273360434,-0.15521603841723125,-0.3954782750558781,-0.3515300981514835,0.08488973884042683,3.078354427683357,-0.6221569263848703,0.00036678630898306707,-0.11798456271281833,-0.018551278093401135,-0.0012525748429015012,-0.012165177480808757,0.006358284082894722,0.030663480314579883,0.46937260031700134,-1.3977468621781846,1.924392048512594,-2.096405645410055,-1.5697348753558558,2.4426677227020264,-0.07700036466121674,0.21966156363487244,-0.25994330644607544,0.029179994016885757,0.007524146232753992,-0.10752522945404053,0.09576806426048279,0.47884035110473633,-9.615114212036133,0.8381313681602478,47.67524337768555,-1.0442620515823364,-2.3374550342559814,-3.4542555809020996,-0.2359853833913803,0.12468491494655609,-0.13170582056045532,28.3125,29.5625,28.6875,32.8125,35.1875,36.4375
0.24017243499110918,-0.17243668107926846,-1.0071737893542156,-0.6791916986503949,-0.03776212370334766,0.017313846494644687,-0.14475882893180989,-0.3959482062772029,-0.35163381844868646,0.08490409288925915,3.0783310027209843,-0.6218449834403758,0.00026718734632416406,-0.12073697980300777,-0.02061658264758063,0.0004876814474910309,-0.016431181909562456,0.008456421254479035,0.027541918776941524,0.4691207706928253,-1.3968814325383683,1.9233277479754847,-2.09630884746694,-1.569709602986471,2.4422247409820557,-0.07739835232496262,0.2226717323064804,-0.267842173576355,0.030260439962148666,0.010378293693065643,-0.10480015724897385,-0.09576806426048279,0.4213795065879822,-9.59596061706543,0.8247004151344299,47.681514739990234,-1.1254733800888062,-2.2714931964874268,-3.417656183242798,-0.20943641662597656,0.10766319930553436,-0.09131880104541779,28.3125,29.5625,28.6875,32.8125,35.1875,36.4375
0.2441342209931463,-0.7452667527953879,-1.1001151310794157,-0.4784192564781824,-0.018371582986405618,0.02806704828974679,-0.14720029217627367,-0.39641983515433193,-0.35169269258459773,0.08486675199273425,3.078327448922984,-0.6217529881327789,0.00031915042048663404,-0.12342674470007703,-0.02047185649367064,0.0018970230645790102,-0.017915646666953857,0.012004647860470143,0.018516288279347384,0.46878382563591003,-1.3959564876607438,1.9223087469684046,-2.0962020359435023,-1.5696738401996058,2.441831350326538,-0.07972542941570282,0.22322367131710052,-0.27179309725761414,0.029825301840901375,0.010089983232319355,-0.09810005128383636,-0.1149216815829277,0.4405331015586853,-9.557653427124023,0.8045620322227478,47.71017074584961,-1.0831210613250732,-2.089665412902832,-3.402034282684326,-0.1952456682920456,0.10695776343345642,-0.14445507526397705,28.3125,29.5625,28.6875,32.8125,35.1875,36.4375
0.24812716999440454,-1.1675161946708403,-1.0717821060802553,-0.4687156970015827,-0.035254135679012685,0.05287067782302248,-0.1480511870030768,-0.39692365417621517,-0.35177902269943884,0.08488064444819332,3.0782683024297484,-0.6216482309519219,0.00028816579468363607,-0.12362622221670051,-0.0201064596832268,0.0017301411075208704,-0.016791470877118613,0.010665089361118868,0.010932340442781505,0.46845969557762146,-1.395043508415558,1.9211748282061976,-2.0960451565184535,-1.5696261564837855,2.4414498805999756,-0.0801658034324646,0.22418412566184998,-0.2732173502445221,0.031994204968214035,0.009701727889478207,-0.09095548838376999,-0.2106897532939911,0.325611412525177,-9.59596061706543,0.8694595694541931,47.705692291259766,-1.1762301921844482,-1.8470580577850342,-3.6296446323394775,-0.13835155963897705,0.1299821436405182,-0.22795924544334412,28.3125,29.5625,28.6875,32.8125,35.1875,36.4375
0.25213953100319486,-0.8294206259058323,0.1836849006406372,-0.35470219242522916,-0.01560675345702807,0.066427500792779,-0.15648458080947497,-0.3974296508212444,-0.35187722326245496,0.08489652446116358,3.0781614282619763,-0.6215688140718743,0.00020678927286550477,-0.1264297606148169,-0.02120370946238749,0.0018415513131260926,-0.01838117289199596,0.01135312981024256,0.007154472450003502,0.468147337436676,-1.3941406172565003,1.9200614134417933,-2.095949789086813,-1.5695655981646937,2.4411020278930664,-0.08124152570962906,0.22948889434337616,-0.2798638939857483,0.032006461173295975,0.010809287428855896,-0.0882498100399971,-0.2106897532939911,0.07661445438861847,-9.576807022094727,0.8694595694541931,47.690467834472656,-1.2066779136657715,-1.8620569705963135,-3.634953022003174,-0.11593163013458252,0.11786827445030212,-0.3306841254234314,28.3125,29.5625,28.6875,32.8125,35.1875,36.4375
0.2561389039910864,-0.6083867275953712,0.5654550929638223,-0.4129685580592128,0.03498066814225114,0.03949390661168606,-0.14673394532651152,-0.3979459269450865,-0.35195398674612777,0.08490263552048921,3.0781047652860374,-0.6215021199423817,0.00013507694236511555,-0.127898287068069,-0.02053045335510101,0.001870907264111599,-0.017569659898973775,0.010068967373299504,0.00119881966449073,0.4678106904029846,-1.3932145100883027,1.918936554585592,-2.0958291492857875,-1.5695417563067835,2.4407315254211426,-0.08347354829311371,0.23173241317272186,-0.2833898663520813,0.03480341657996178,0.010672926902770996,-0.08452422171831131,-0.38307225704193115,0.07661445438861847,-9.519346237182617,0.9298853874206543,47.69584274291992,-1.18120539188385,-1.8843803405761719,-3.560091495513916,-0.09812965989112854,0.1140156164765358,-0.41674894094467163,28.3125,29.5625,28.6875,32.8125,35.1875,36.4375
0.2601360279950313,-1.026959812058405,0.2793772004350146,-0.6614527979723548,0.025905306936329163,0.04738120553787768,-0.14201501287034926,-0.398462479931719,-0.35204450938432896,0.08491529315096777,3.078034312676872,-0.6215053711927657,6.404577720889766e-05,-0.13103291019192795,-0.020783909594292486,0.0011342877735436574,-0.01627251939949531,0.008665840852985265,0.00037174463295287785,0.467498242855072,-1.3922754985145112,1.9177754561053675,-2.095684667626852,-1.5695179144488733,2.4404306411743164,-0.08534223586320877,0.23933713138103485,-0.29131388664245605,0.03696863353252411,0.010147701017558575,-0.08556084334850311,-0.40222588181495667,-0.038307227194309235,-9.634267807006836,0.8940802216529846,47.68867492675781,-1.0633971691131592,-2.125304698944092,-3.502768039703369,-0.06763333827257156,0.11617948114871979,-0.497611403465271,28.3125,29.5625,28.6875,32.8125,35.1875,36.4375
0.2641253850015346,-1.5658996354062915,-0.5097675672703531,-0.4504921911025673,-0.01660478493692883,0.07687333280423876,-0.14701382287101716,-0.39896699811160935,-0.35210392679093594,0.08490531194962964,3.078020354215437,-0.6214804981220905,0.00012199589679424691,-0.13435742008037208,-0.018769892420185903,0.002323299968696349,-0.015528564629419898,0.009627567984812683,0.003821863539788084,0.4671361744403839,-1.3913264286569138,1.9166396299945276,-2.0954801044859828,-1.569482151662008,2.4400553703308105,-0.09095799922943115,0.24036133289337158,-0.2961979806423187,0.040326740592718124,0.009058943018317223,-0.09462492167949677,-0.5363011360168457,0.17238251864910126,-9.557653427124023,0.7844129800796509,47.661808013916016,-0.9594787955284119,-2.1035947799682617,-3.3682823181152344,-0.07675245404243469,0.13586699962615967,-0.4952266216278076,28.3125,29.5625,28.6875,32.8125,35.1875,36.4375
0.268131517994334,-1.6602701377835336,-1.1560700941182482,-0.3886404813999946,-0.03676093240656005,0.07365396278540143,-0.15000438638964794,-0.3995213074187387,-0.3521988159565485,0.0849465467643361,3.0778911268987588,-0.6213876854899494,5.0407430717843546e-05,-0.13409192365668274,-0.01881388118456027,0.001302506965869918,-0.014441073397781808,0.006311066346513008,0.01756537437163895,0.4667644798755646,-1.3903883856586,1.9154074827777308,-2.095311304131979,-1.5693982283221644,2.4396426677703857,-0.0907934382557869,0.24300217628479004,-0.29771241545677185,0.042678482830524445,0.009612975642085075,-0.10820280015468597,-0.4596867263317108,0.28730422258377075,-9.730035781860352,0.8828904628753662,47.70927429199219,-1.0092558860778809,-2.0537056922912598,-3.636636734008789,-0.07683248817920685,0.1388372778892517,-0.3961884379386902,28.3125,29.5625,28.6875,32.8125,35.1875,36.4375
0.27213617200322915,-1.3074841806670119,-0.8231514616298594,-0.1011588242518481,-0.023508263515201723,0.046631613507247316,-0.1411598925929171,-0.40009373229247225,-0.35228141122459167,0.08497694954108026,3.0778250401501652,-0.6212145177319152,-8.206126632737889e-05,-0.13792200333503613,-0.018064778074942292,0.003151110927688269,-0.015125432632569387,0.01091840495531444,0.02545281805293388,0.4663912355899811,-1.3894153994372864,1.914163891469137,-2.0951677761473597,-1.5693743864642542,2.4391703605651855,-0.09442618489265442,0.24396470189094543,-0.30332520604133606,0.042932651937007904,0.008171560242772102,-0.11971928924322128,-0.28730419278144836,0.2106897532939911,-9.442731857299805,0.8761723637580872,47.67882537841797,-0.8103471994400024,-1.788278341293335,-3.6427361965179443,-0.03692062199115753,0.14869673550128937,-0.23249922692775726,28.3125,29.5625,28.6875,32.8125,35.1875,36.4375
0.2761406880017603,-0.1146294386946198,0.47442920782949144,-0.04626838204701806,0.02876099659906105,0.038913256697526474,-0.1551793918656861,-0.400648339861491,-0.3523622361727692,0.08498636668573742,3.0777980264000444,-0.6209582318056108,-0.00016997524022195778,-0.14028277860853797,-0.01908127997690793,0.004927906245571585,-0.017640013219061647,0.013503187270812716,0.02628907114339045,0.4660309851169586,-1.3884299111417313,1.912955109273092,-2.0950356922545375,-1.5693500677691858,2.4386541843414307,-0.09518864750862122,0.24523991346359253,-0.3093969225883484,0.04429449886083603,0.009265112690627575,-0.12131553143262863,-0.24899697303771973,0.15322890877723694,-9.27034854888916,0.9052700400352478,47.70121383666992,-0.8901376724243164,-1.6207191944122314,-3.539963960647583,-0.025904860347509384,0.15238891541957855,-0.15417605638504028,28.3125,29.5625,28.6875,32.8125,35.1875,36.4375
0.28012784699967597,-0.4364813609091065,0.4787763291360769,-0.2577761560630835,0.039511719930840475,0.0234884797282852,-0.14786790727930896,-0.40121377079115045,-0.35243527068435637,0.08499287039185127,3.0777448689045426,-0.6208567213319579,-0.00018744901234560892,-0.14150836409166737,-0.019291434770017143,0.00244095728574235,-0.01543848070725364,0.007571819589557704,0.01628727881450745,0.4656347334384918,-1.387418032889702,1.9117100874530237,-2.0948554478087367,-1.5693019072162073,2.438201904296875,-0.0961102843284607,0.2538934051990509,-0.31484076380729675,0.04736804962158203,0.009959345683455467,-0.11223232001066208,-0.363918662071228,0.2106897532939911,-9.251194953918457,0.9254084229469299,47.68240737915039,-0.9284849762916565,-1.7236180305480957,-3.377666473388672,-0.016317566856741905,0.15755389630794525,-0.2215059995651245,28.3125,29.5625,28.6875,32.8125,35.1875,36.4375
0.28414145299757365,-0.8437788441642875,-1.0029925749922932,0.029902361812672116,-0.018893226690623526,0.041430677162964814,-0.14278216171361163,-0.4017721346657252,-0.35250252712901986,0.08500731328788644,3.0777652862292433,-0.6207069290689414,-0.0002036582179300386,-0.14022258366885965,-0.019425819805811012,0.001562313082115756,-0.010757689026027568,0.0004146646185990231,0.012422223747991498,0.46526357531547546,-1.386407734160759,1.9104307333575647,-2.09459986309194,-1.5693023840533655,2.4377353191375732,-0.09401927888393402,0.25763818621635437,-0.31966498494148254,0.056943271309137344,0.008998030796647072,-0.10627499222755432,-0.15322890877723694,0.24899697303771973,-9.346963882446289,0.8426030278205872,47.70658874511719,-0.9768942594528198,-1.981734275817871,-3.431361675262451,-0.10537451505661011,0.17707884311676025,-0.31735658645629883,28.3125,29.5625,28.6875,32.8125,35.1875,36.4375
0.2881380070029991,-0.18827150569958445,-0.9861683003297654,-0.1074462976677644,-0.03443981221850953,0.020558974348857673,-0.14494590438713184,-0.4023719602463864,-0.35257982946813876,0.08506578562399814,3.077674281839493,-0.620748256565256,-0.00032985865696591557,-0.1405302278795941,-0.018550932079072626,0.0005011725815290613,-0.008673981535240113,-0.0035300040369008806,0.009387384717801622,0.46486696600914,-1.385421873336174,1.9090798536883753,-2.0943476162352503,-1.5692899862872522,2.4373767375946045,-0.09555428475141525,0.26056018471717834,-0.3217487633228302,0.06056874245405197,0.00891961995512247,-0.10477379709482193,-0.09576806426048279,0.363918662071228,-9.27034854888916,0.8582697510719299,47.6895751953125,-0.994104266166687,-1.9188194274902344,-3.5345091819763184,-0.20628148317337036,0.21032750606536865,-0.3649906516075134,28.3125,29.5625,28.6875,32.8125,35.1875,36.4375
0.2921314510022057,0.04435554848061496,-0.8428778961139429,0.03542020350521913,-0.027499409279135197,-0.0029089839222124656,-0.14990288532889387,-0.40292396159004684,-0.35264039323152796,0.0850298996410456,3.077701602197095,-0.6206357863103573,-0.00022547348457366398,-0.1422104149008922,-0.01839561026907223,-7.764529107898534e-05,-0.008624490790546129,-0.0054480703534349655,0.010552789718030933,0.46447035670280457,-1.3843391102603455,1.9078367392169397,-2.0941316090025843,-1.569254223500387,2.4369070529937744,-0.097560815513134,0.2646515667438507,-0.32593682408332825,0.06241171807050705,0.009728179313242435,-0.1079447939991951,0.17238251864910126,0.3447650372982025,-9.251194953918457,0.9589777588844299,47.69136428833008,-0.8767430782318115,-1.8367178440093994,-3.6726019382476807,-0.2373814582824707,0.228785440325737,-0.397678941488266,28.3125,29.5625,28.6875,32.8125,35.1875,36.4375
0.29614062399195973,0.5493280584222472,-0.5646348846863442,-0.17393525184090705,0.008359147136034308,-0.022650055013017336,-0.15541105592501225,-0.4035140934065662,-0.35271138500905413,0.08503210067801753,3.077651998431654,-0.620600141377462,-0.00014811485529616576,-0.14530549193316394,-0.01962429307382795,0.0008064825560123224,-0.010755144169959534,-0.0030040825964278758,0.018910388311899368,0.464038223028183,-1.3832570028356095,1.9064958731280726,-2.093867918054098,-1.5691817442523401,2.436459541320801,-0.09838902205228806,0.26880380511283875,-0.3330806791782379,0.06228755787014961,0.010534631088376045,-0.11712780594825745,0.19153612852096558,0.363918662071228,-9.232041358947754,0.9164597988128662,47.71017074584961,-0.9241853952407837,-1.6663377285003662,-3.4506359100341797,-0.2730158567428589,0.22450599074363708,-0.345782995223999,28.3125,29.5625,28.6875,32.8125,35.1875,36.4375
0.3001446010021027,-0.04404645238585975,-0.7328246750757641,-0.14908231709107406,-0.01649635584105689,0.005899213908780278,-0.16038014979043277,-0.40410270474925936,-0.3528109555490242,0.08505052933775062,3.077634629819986,-0.6203987273792693,-0.00016521465063386643,-0.14734992577279823,-0.02097799785601468,0.0017531542009495496,-0.01257699899283118,7.052782260699692e-05,0.029591307847307638,0.4636783003807068,-1.3821747165969391,1.9051197210894983,-2.093617101708883,-1.5691455046283167,2.43597674369812,-0.09778634458780289,0.2711600959300995,-0.33807680010795593,0.061385732144117355,0.010795215144753456,-0.1272037774324417,0.17238251864910126,0.40222588181495667,-9.136273384094238,0.8582697510719299,47.69136428833008,-1.001578450202942,-1.7785496711730957,-3.448577880859375,-0.3067032992839813,0.2442062497138977,-0.2077873945236206,28.3125,29.5625,28.6875,32.8125,35.1875,36.4375
0.3041427400021348,-0.8927689132009765,-2.0460980348268327,0.24313502893570157,-0.057953204792778774,0.05129426381299711,-0.14559360352263176,-0.40469389926454874,-0.35289707704771733,0.08504768139130522,3.077634932279535,-0.6201849331674693,-0.00015252485202057442,-0.14973916107436774,-0.021573755140896832,0.001965037676553335,-0.014554519708995869,0.0021659319212675126,0.03325421640600147,0.46329379081726074,-1.3810687077096482,1.9037683645831507,-2.0933906040587367,-1.5691092650042933,2.4354593753814697,-0.09910432249307632,0.2742193639278412,-0.34202826023101807,0.0595337338745594,0.011626101098954678,-0.13218294084072113,-0.05746084079146385,0.4596867263317108,-9.155426979064941,0.8560339212417603,47.660911560058594,-1.006719708442688,-1.5976568460464478,-3.4252190589904785,-0.319344162940979,0.26137763261795044,-0.08084291219711304,28.3125,29.5625,28.6875,32.8125,35.1875,36.4375
0.30812803099979647,-0.5941033563866233,-1.0811926653518467,-0.25809292630849423,-0.027947169949711463,0.05151441857714442,-0.13090371835301018,-0.4052679194729285,-0.35298810867273617,0.0850280707212625,3.0776675837521865,-0.6199663704112524,-7.791358109030879e-05,-0.15231029927125608,-0.02220605507057946,-0.00014226768381527482,-0.016347057722530523,0.002259380313512202,0.024594713521001288,0.4629333019256592,-1.3799374562552948,1.9024189154254358,-2.0931412182249964,-1.5690730253802698,2.4349589347839355,-0.10092459619045258,0.281358003616333,-0.3447626829147339,0.05423805117607117,0.01315954141318798,-0.12534217536449432,-0.07661445438861847,0.47884035110473633,-9.385271072387695,0.8627467155456543,47.67255783081055,-1.0583980083465576,-1.8079900741577148,-3.5632591247558594,-0.2922953963279724,0.23674985766410828,-0.0995749980211258,28.3125,29.5625,28.6875,32.8125,35.1875,36.4375
0.3121404339908622,-0.8236813895109556,-0.7292367744877943,-0.23719519072804562,-0.021658067850824504,0.0355306514803707,-0.13953661237631887,-0.40589231488454375,-0.35308758622658604,0.08502464146945338,3.0776062575743737,-0.6198618645752454,-0.00011241242633583637,-0.1552513055250079,-0.024255940308692065,0.0004325269430351745,-0.019124382833254953,0.007920213307083316,0.015679794750058915,0.46253782510757446,-1.3787822288325806,1.9010193983661097,-2.0929633579649867,-1.5690248648272913,2.43450665473938,-0.09968585520982742,0.28530484437942505,-0.3498701751232147,0.04908829554915428,0.013093499466776848,-0.11518516391515732,-0.17238251864910126,0.4213795065879822,-9.346963882446289,0.9164597988128662,47.68867492675781,-1.1163185834884644,-2.0277609825134277,-3.572568416595459,-0.2009538859128952,0.25714653730392456,-0.19859570264816284,28.3125,29.5625,28.6875,32.8125,35.1875,36.4375
0.3161451769992709,-1.1052533939337084,-1.1549457174930926,-0.07900423963564639,-0.030105375651190668,0.040022974754257507,-0.14446656129654797,-0.406533434636531,-0.3532023606528053,0.08503903858012513,3.0774895585357243,-0.6197827928567567,-0.00018520902423540837,-0.15847430890865122,-0.024784537795685728,0.0011128503141359521,-0.020736551997277433,0.011234732593453667,0.009231594415594194,0.46214139461517334,-1.3776284021190186,1.8995822111712855,-2.0927959881224574,-1.5689528624164026,2.4340763092041016,-0.1013047844171524,0.28874173760414124,-0.355437695980072,0.047538917511701584,0.013054975308477879,-0.11035222560167313,-0.26815059781074524,0.40222588181495667,-9.232041358947754,0.8963160514831543,47.67524337768555,-1.1166572570800781,-1.9142801761627197,-3.667510509490967,-0.16634780168533325,0.2640141248703003,-0.30117565393447876,28.3125,29.5625,28.6875,32.8125,35.1875,36.4375
0.3201274329912849,-1.0443419854744198,-1.3447602835840224,0.11904381938427873,-0.028431888753225942,0.04819996633720881,-0.13717011520652717,-0.40714716354094804,-0.3532797312442823,0.08500665057315601,3.0774918468915127,-0.6197273272707495,-0.00013700473121850077,-0.16090911591053864,-0.02463996730660604,0.0015447249926558622,-0.020507558177431884,0.012859183075289002,0.0036738636261599705,0.4617328941822052,-1.3764386785081406,1.8981965223895472,-2.0925804577269496,-1.5689290205584925,2.43363356590271,-0.10288137197494507,0.29153791069984436,-0.36019548773765564,0.048152994364500046,0.012116881087422371,-0.10636987537145615,-0.4213795065879822,0.40222588181495667,-9.251194953918457,0.9679316878318787,47.67882537841797,-1.1352617740631104,-1.8125817775726318,-3.472011089324951,-0.10425039380788803,0.2687167227268219,-0.4324151873588562,28.3125,29.5625,28.6875,32.8125,35.1875,36.4375
0.3241404389991658,-0.9851271581613515,-0.3372503543779162,0.1957967532263973,-0.02166057838362046,0.06355713861454934,-0.14258390149075034,-0.40779094779250374,-0.35339998631963104,0.08499467686045006,3.0773830289189528,-0.6196628748944735,-9.59170220602542e-05,-0.16218961910014948,-0.024960783307483584,0.0017001007455270977,-0.020729684612376117,0.01140017673452833,0.008049514888826631,0.4613245725631714,-1.3752124619534989,1.8967250029193323,-2.0923873386778773,-1.5688207785235804,2.433199405670166,-0.10369188338518143,0.29446274042129517,-0.36507347226142883,0.051337335258722305,0.012983785010874271,-0.1115541160106659,-0.4596867263317108,0.24899697303771973,-9.21288776397705,0.8806493282318115,47.67882537841797,-1.0838850736618042,-1.6727161407470703,-3.5672173500061035,-0.08794903755187988,0.28613466024398804,-0.4703722596168518,28.3125,29.5625,28.6875,32.8125,35.1875,36.4375
0.3281452209921554,-0.8729042635445476,1.0044876911388239,0.2157747363581354,0.007008473345764155,0.06636831337970797,-0.15129290037085158,-0.40846002401136,-0.35349519542566304,0.08500175758194972,3.077289650106326,-0.6195593264051956,-0.00016216997371691584,-0.16458069012480733,-0.025149604741473288,0.0005880588552746726,-0.022266579656180216,0.010145785470923891,0.021070836174775495,0.4608800709247589,-1.3740215462497254,1.8952539602862757,-2.092208524743551,-1.5687602202044886,2.4327027797698975,-0.10629136860370636,0.3000723719596863,-0.36933332681655884,0.05046389251947403,0.01495229359716177,-0.12717150151729584,-0.5363011360168457,0.1149216815829277,-9.289502143859863,0.9030289053916931,47.6680793762207,-1.0059986114501953,-1.850583553314209,-3.537327527999878,-0.012392004020512104,0.24221956729888916,-0.34580492973327637,28.3125,29.5625,28.6875,32.8125,35.1875,36.4375
0.332139691003249,-0.9645086411302874,0.7112309799711286,0.2037991817453943,0.029412429456766757,0.07421496390177784,-0.14465654080508863,-0.4091206940644012,-0.35358533927454233,0.08496943463458934,3.077263438558467,-0.6193929857210988,-0.0001229929167619032,-0.16615399704730796,-0.02505764905940242,0.00047339400911148715,-0.02021392819013345,0.008026050202364778,0.03380483133620464,0.4604356288909912,-1.3727585089257737,1.8937819639789026,-2.0920149288573207,-1.5687006155597132,2.4321584701538086,-0.10704611986875534,0.30435436964035034,-0.3756253719329834,0.05533016473054886,0.014085477218031883,-0.1406584233045578,-0.38307225704193115,-0.07661445438861847,-9.193734169006348,0.9477880001068115,47.66449737548828,-1.0997402667999268,-2.1098179817199707,-3.639463424682617,0.012936035171151161,0.25574368238449097,-0.18855932354927063,28.3125,29.5625,28.6875,32.8125,35.1875,36.4375
0.33614059099636506,-0.4213553059757096,0.45357100704378595,0.10035356256039081,0.022381366066559327,0.06176536056735986,-0.14689692332328982,-0.40981392640271924,-0.35366922392436306,0.08496639568284103,3.0772244280808025,-0.6192318657232986,-0.00016700882079585748,-0.16908175536963482,-0.02538175365750191,0.0002099271429804376,-0.020497085874889274,0.008477132704934715,0.032299638499784886,0.45996716618537903,-1.3715075266412278,1.8922513167010706,-2.091799398461813,-1.5686643759356897,2.4315950870513916,-0.10875432193279266,0.3098093271255493,-0.381952166557312,0.055684588849544525,0.014142676256597042,-0.14085812866687775,-0.5363011360168457,0.019153613597154617,-9.21288776397705,0.8896032571792603,47.643890380859375,-1.0855973958969116,-2.142479658126831,-3.420182704925537,0.025722119957208633,0.2562072277069092,-0.1351931393146515,28.3125,29.5625,28.6875,32.8125,35.1875,36.4375
0.3401412200037157,0.3050407247634432,0.7080841338991283,-0.19585465939690236,0.009969752448557093,0.048354039332895594,-0.13956902835113677,-0.41047294623085945,-0.35377426354255687,0.08494662934222372,3.0772192367495044,-0.6189687201071233,-0.00015537628605491718,-0.17095255053154307,-0.024454056853309206,0.0007529591897087992,-0.018698807600095988,0.006457314015377024,0.01798843657104525,0.4595583975315094,-1.3702458453229447,1.8907440344439905,-2.091581960717672,-1.5686166922198694,2.431023359298706,-0.1112649068236351,0.3124108910560608,-0.38802915811538696,0.06175877898931503,0.01341764722019434,-0.1290559470653534,-0.325611412525177,0.1149216815829277,-9.308656692504883,0.9075058698654175,47.67255783081055,-0.9677529335021973,-2.0359654426574707,-3.417276382446289,0.030370019376277924,0.2690965235233307,-0.22702518105506897,28.3125,29.5625,28.6875,32.8125,35.1875,36.4375
0.3441631729947403,-0.2474239438646668,-0.33139405688846885,-0.47688721756593094,-0.004613391788085069,0.0440251945159618,-0.14054887244407605,-0.41113350847840957,-0.353841000498957,0.08492355158919226,3.0772197363817195,-0.6189346764323798,-9.413865605545137e-06,-0.16965016544485162,-0.02128048646925784,-0.0008817671732177795,-0.014141800880641027,-0.0014739233995780926,0.009273031077542043,0.45907697081565857,-1.3689836126616974,1.889214817677633,-2.0912443600096644,-1.5685566107379358,2.430521249771118,-0.11497954279184341,0.3125000298023224,-0.38649848103523254,0.06927432864904404,0.012856903485953808,-0.124058298766613,-0.28730422258377075,0.17238251864910126,-9.461885452270508,0.9119828343391418,47.681514739990234,-0.7519177198410034,-2.0204226970672607,-3.8185083866119385,-0.01760127954185009,0.2906438708305359,-0.29880356788635254,28.3125,29.5625,28.6875,32.8125,35.1875,36.4375
0.3482120980042964,-0.06755901861862157,-0.33373333571465463,-0.6853193707920412,-0.028403931344214286,0.059220669131099184,-0.13742275256452519,-0.4118249613855238,-0.3539386021525509,0.08492164655324813,3.0772211034291193,-0.6188751636344781,-2.5199354592111747e-05,-0.16993990481086713,-0.021538132792463763,-0.0022798771626814517,-0.011143487775694431,-0.00880149449787465,0.010108009434015769,0.4586571753025055,-1.3676847231439133,1.8876002470599573,-2.0909420452513636,-1.5685566107379358,2.4300649166107178,-0.11484967917203903,0.3191094994544983,-0.3934688866138458,0.0775383934378624,0.013421538285911083,-0.1247609555721283,-0.26815059781074524,0.3447650372982025,-9.653421401977539,0.9813573360443115,47.67703628540039,-0.7381348609924316,-2.101409912109375,-3.7622668743133545,-0.11193105578422546,0.3018031120300293,-0.37385281920433044,28.3125,29.5625,28.6875,32.8125,35.1875,36.4375
0.35212929399858695,0.042513691250789354,-0.7283855048383417,-0.6980622346461224,-0.03195565318431698,0.04322197902743943,-0.14600744727462084,-0.41253216269935616,-0.35400600237826485,0.08491471876665987,3.0771983304725112,-0.6188265220846385,6.633810401931806e-06,-0.1710606162443287,-0.02251416722714744,-0.0032851125467102385,-0.009666154617582804,-0.012590450778045176,0.017872256128104308,0.45815345644950867,-1.3663968306830903,1.8860090414630335,-2.0906411610045375,-1.5685208479510706,2.429534435272217,-0.11405715346336365,0.3257260322570801,-0.40049314498901367,0.08202362060546875,0.013777954503893852,-0.1317301243543625,-0.038307227194309235,0.4596867263317108,-9.634267807006836,0.965690553188324,47.657325744628906,-0.884911060333252,-2.320087432861328,-3.579418897628784,-0.22480541467666626,0.30073392391204834,-0.3443657159805298,28.3125,29.5625,28.6875,32.8125,35.1875,36.4375
0.3561299959983444,0.12384922029257078,-1.482963020548653,-0.7516847420734756,-0.039643367940386226,0.02493812589207265,-0.137018967978948,-0.41323990481388984,-0.35408426909002394,0.08492105205425293,3.0771864300358023,-0.6187385417879121,7.740630834832044e-05,-0.17144695063979756,-0.022424195164801666,-0.0040948606444987275,-0.00829353378673088,-0.015853622399093974,0.03185798005459772,0.45766162872314453,-1.3650994312814255,1.8843587080584925,-2.090269228021139,-1.5684722105609339,2.428989887237549,-0.11438426375389099,0.32908716797828674,-0.40388405323028564,0.08563253283500671,0.01400731224566698,-0.146042600274086,-0.09576806426048279,0.5746084451675415,-9.634267807006836,0.965690553188324,47.685096740722656,-0.9719234704971313,-2.2573907375335693,-3.687459945678711,-0.34437549114227295,0.3303908705711365,-0.15679650008678436,28.3125,29.5625,28.6875,32.8125,35.1875,36.4375
0.3601378759922227,-0.6677322366694038,-2.2899803383577977,-0.4263409180985431,-0.06717364054614457,0.026676083193306895,-0.13108818472076408,-0.41392292238509787,-0.3541861865541271,0.08491454072658539,3.0771543666913264,-0.6185567963846992,0.00019176988849313453,-0.17411370529301307,-0.023169344109286803,-0.0017742474973168464,-0.0124337150994769,-0.009292825384611706,0.0358148111787856,0.4572051465511322,-1.3638020318797608,1.882744614277975,-2.0899349651732386,-1.568376366292135,2.428424596786499,-0.11554460972547531,0.3276912569999695,-0.40719008445739746,0.08264996856451035,0.014812672510743141,-0.1511596143245697,0.038307227194309235,0.4405331015586853,-9.615114212036133,0.9858343005180359,47.65911865234375,-0.8263238668441772,-2.0851597785949707,-3.847801446914673,-0.3587459623813629,0.33105629682540894,-0.06845100224018097,28.3125,29.5625,28.6875,32.8125,35.1875,36.4375
0.36412636400200427,0.5080541201272467,-0.31052029862490105,-0.5217886248273316,-0.023601752176115043,0.014567108224841852,-0.13690041206663406,-0.4146602789807276,-0.35429081212190555,0.08492837342149856,3.077124916852892,-0.6183067552457742,0.00010037472541905937,-0.1804490257953896,-0.02630613399180369,0.0013851215639337133,-0.019285627099460998,0.00401436597355515,0.024438460842714754,0.4567492604255676,-1.362479881649353,1.8810699621783655,-2.089675088922018,-1.5683520475970667,2.4278171062469482,-0.11538487672805786,0.33119863271713257,-0.41698020696640015,0.07395033538341522,0.015043686144053936,-0.13961829245090485,0.1149216815829277,0.325611412525177,-9.500192642211914,0.9142186641693115,47.651954650878906,-0.8790558576583862,-1.9328715801239014,-3.6762776374816895,-0.2961927056312561,0.3384326100349426,-0.14564533531665802,28.3125,29.5625,28.6875,32.8125,35.1875,36.4375
0.36812773399287835,0.8658079093635345,0.2835965659949796,-0.8228074089511402,-0.002937695419294655,0.028163597526380316,-0.14145649740594674,-0.41538060998243054,-0.3544019445161887,0.08493067387419262,3.0770439770284788,-0.618276786732771,0.0001184349554872547,-0.1845589777012122,-0.02723037726980106,0.00046298925405604814,-0.022183708512396424,0.00862171294771929,0.01279272928103968,0.4562925696372986,-1.361144245868065,1.8793953100787562,-2.0893780193724574,-1.5682795683490198,2.4273526668548584,-0.11727636307477951,0.3376893997192383,-0.42137089371681213,0.06642888486385345,0.015581506304442883,-0.12986113131046295,0.09576806426048279,0.325611412525177,-9.615114212036133,0.9433110356330872,47.71554183959961,-0.9047513008117676,-2.1524858474731445,-3.6152281761169434,-0.18360212445259094,0.3498964011669159,-0.2674757242202759,28.3125,29.5625,28.6875,32.8125,35.1875,36.4375
0.37214004099951126,-0.833589726571688,-2.036643087696035,-0.7826553341908573,-0.05904622297520896,0.03973525604091049,-0.12784216020026765,-0.41611785911441257,-0.35449746334903254,0.0849416420211179,3.077009556315905,-0.6181003586734931,4.509081085929323e-05,-0.1851172125850218,-0.02640545621043581,-0.002152694072834129,-0.021289787831817016,0.004558614478070716,0.00390814805732588,0.45582395792007446,-1.3598237347653885,1.8777225653277796,-2.0891033611693324,-1.5682557264911097,2.42677903175354,-0.11939989030361176,0.3426048457622528,-0.4216005802154541,0.06577542424201965,0.01657077483832836,-0.12309858202934265,-0.05746084079146385,0.363918662071228,-9.634267807006836,0.9880701303482056,47.68598937988281,-0.7682206630706787,-2.188255548477173,-3.7381858825683594,-0.13427403569221497,0.33629101514816284,-0.3910057544708252,28.3125,29.5625,28.6875,32.8125,35.1875,36.4375
0.3761250590032432,-0.8036700851033389,-1.6987231411645665,-0.8810278708357397,-0.07053990092112333,0.0542142728927949,-0.1453806554468993,-0.416846822020281,-0.3546099732606754,0.08492615789432154,3.0769153879768245,-0.6180580168395455,0.00012364300533813412,-0.18730765838311428,-0.028437459161036325,3.704226481881845e-05,-0.02409871268095887,0.008803808439365826,0.008804096183811588,0.4553445279598236,-1.3584443938783188,1.8760345617877405,-2.0888153515257777,-1.5681474844561976,2.426285743713379,-0.11785601824522018,0.34383490681648254,-0.42866066098213196,0.06658567488193512,0.017228055745363235,-0.12644848227500916,-0.038307227194309235,0.4213795065879822,-9.921571731567383,0.9679316878318787,47.66718673706055,-0.9550622701644897,-2.0196356773376465,-3.882655382156372,-0.11340954154729843,0.34400713443756104,-0.4731864929199219,28.3125,29.5625,28.6875,32.8125,35.1875,36.4375
0.38014261799980886,-0.20271986938786082,-0.39588491186483377,-0.7034626882424804,-0.038368424621138396,0.06113705851894189,-0.15229931452720893,-0.4176102708039362,-0.3547343080511114,0.0849571205217016,3.0767770124016196,-0.6179429003576091,5.460682972963454e-05,-0.19054270380653313,-0.029566099655283305,0.003113172014834066,-0.028577412426970594,0.014884540507169376,0.024959689948527042,0.4548640847206116,-1.35710163534198,1.8742864767657679,-2.0885402164854945,-1.5680506865130823,2.4257516860961914,-0.11911176145076752,0.3431346118450165,-0.43516865372657776,0.06642687320709229,0.01862550526857376,-0.14385581016540527,-0.26815059781074524,0.47884035110473633,-9.768342971801758,0.9679316878318787,47.6895751953125,-1.0134029388427734,-1.8479697704315186,-3.7216217517852783,-0.0663871094584465,0.321136474609375,-0.34303516149520874,28.3125,29.5625,28.6875,32.8125,35.1875,36.4375
0.3841501549904933,-0.4575865893923652,-0.5249214450400596,-0.6647240581807993,-0.024549631981575545,0.054385024003112396,-0.1467786947471492,-0.41837198774715584,-0.3548581440041888,0.08498760894640847,3.076720616670458,-0.6176358980552666,-8.509016667316828e-05,-0.1916109425077562,-0.02937745653845098,0.0010848390859744903,-0.026324929741730216,0.011597223014743885,0.037679229373419665,0.4544198513031006,-1.355756939654686,1.872537914906637,-2.08827604869985,-1.568014923726217,2.425123691558838,-0.11971735954284668,0.3493233621120453,-0.43876421451568604,0.06782863289117813,0.018100114539265633,-0.15717776119709015,-0.19153612852096558,0.325611412525177,-9.787496566772461,0.999259889125824,47.6734504699707,-0.973457932472229,-1.8485798835754395,-3.7864041328430176,-0.0011354973539710045,0.32427775859832764,-0.1753479391336441,28.3125,29.5625,28.6875,32.8125,35.1875,36.4375
0.3881394889904186,-0.8399373925796985,-0.4529591248860416,-0.32290714612411225,-0.021935069665507012,0.042831154485066386,-0.13826686780465655,-0.4191574388865082,-0.3549998044413438,0.08501666389541279,3.0765623036951824,-0.6173955334102839,-0.0001849365534268856,-0.19192433720038624,-0.028867547037668584,-0.0012602189360790147,-0.02282668608172166,0.003971035728187794,0.031954763224543964,0.4539397656917572,-1.354375348692276,1.8707545439349573,-2.0880466900267542,-1.56789476076235,2.4245142936706543,-0.12064407020807266,0.35632604360580444,-0.4437940716743469,0.07425739616155624,0.018330497667193413,-0.15237532556056976,-0.38307225704193115,0.13407529890537262,-9.710882186889648,1.0328292846679688,47.66986846923828,-0.9773427248001099,-2.034970283508301,-3.7639927864074707,-0.013257301412522793,0.3092406690120697,-0.12889090180397034,28.3125,29.5625,28.6875,32.8125,35.1875,36.4375
0.39213863799523097,-0.3532031715381741,0.44985988310171204,0.10025025965514588,-0.0010215816204483825,0.033904145520393725,-0.15209564075504103,-0.419918144330858,-0.3551132868192875,0.08500495803310704,3.076512618414854,-0.6172183935414833,-0.00010408947793475274,-0.19189397024501537,-0.028588947746809795,-1.817091203948911e-05,-0.020869897319635927,-0.001241458833088273,0.020322423475590212,0.4534476101398468,-1.3529371184161683,1.8689683119403284,-2.0877071819701136,-1.567798916493551,2.4239184856414795,-0.12105759233236313,0.3571740388870239,-0.4507423937320709,0.08588982373476028,0.01884835585951805,-0.14115500450134277,-0.28730422258377075,0.09576806426048279,-9.366117477416992,0.999259889125824,47.69136428833008,-1.0485568046569824,-1.9193048477172852,-3.7139344215393066,-0.09753994643688202,0.2867050766944885,-0.271333783864975,28.3125,29.5625,28.6875,32.8125,35.1875,36.4375
0.39612666600442026,-0.2837367763926052,1.280003969144108,0.673977177673262,0.03451910126338744,0.019458807592024795,-0.15180525032322426,-0.4207328384129251,-0.35527008937653376,0.08508205106600697,3.076327069597858,-0.6170646771673309,-0.0003177203549327831,-0.19383820119819675,-0.029454967089850185,0.0018364871527084324,-0.02124974042900152,-0.0006626622661529765,0.01862941340437689,0.4529918432235718,-1.351569728260376,1.8670762220965784,-2.0874182186522425,-1.5677149931537073,2.423391103744507,-0.12094272673130035,0.3591126799583435,-0.45900532603263855,0.09154260903596878,0.018963707610964775,-0.1393408477306366,-0.47884032130241394,0.0,-9.097966194152832,1.0619269609451294,47.681514739990234,-1.0429593324661255,-1.7115578651428223,-3.5492262840270996,-0.14691315591335297,0.2900025546550751,-0.33455514907836914,28.3125,29.5625,28.6875,32.8125,35.1875,36.4375
0.40012558599119075,-0.23040147289692586,0.5933195107904266,0.7448912016762349,0.03742337827012632,0.023306212160960064,-0.14935511390229947,-0.4214932357422896,-0.3553621399535326,0.08506718927985457,3.0763247599453374,-0.6170040862634769,-0.00024615020850383306,-0.19455638901929526,-0.029579864654509614,0.0011736654301065532,-0.021856605738565134,-0.004905993567207814,0.0207070887005157,0.4524993598461151,-1.350129635339119,1.8652809301959437,-2.087033887902731,-1.5676777998553675,2.4228618144989014,-0.12235254049301147,0.36279863119125366,-0.46340349316596985,0.0958227887749672,0.02137400396168232,-0.14282554388046265,-0.38307225704193115,0.019153613597154617,-9.097966194152832,1.0440189838409424,47.66360092163086,-1.073000431060791,-1.7509369850158691,-3.5910065174102783,-0.2229539155960083,0.2441767156124115,-0.3575315475463867,28.3125,29.5625,28.6875,32.8125,35.1875,36.4375
0.40412614299566485,-0.11077092190604478,0.3613279693387641,0.8606827817158142,0.0053469913125660795,0.059777407788270856,-0.16432270043676803,-0.4222755670128017,-0.35545608204858853,0.0850595937029544,3.0763501540259046,-0.6167705080176797,-0.00019627212729391824,-0.1974434693545856,-0.028594248598256527,0.0010781997222804314,-0.018650179310971474,-0.0026996753475013483,0.03336866962851506,0.451994925737381,-1.3486658048680802,1.8634360472308558,-2.0866385898985804,-1.5676434675799769,2.4222090244293213,-0.12390743941068649,0.3667575418949127,-0.46864840388298035,0.09659937769174576,0.017552541568875313,-0.157045379281044,-0.13407529890537262,0.09576806426048279,-8.753201484680176,0.9500291347503662,47.671661376953125,-1.0377469062805176,-1.7483670711517334,-3.6309614181518555,-0.25187352299690247,0.2385038584470749,-0.22777704894542694,28.3125,29.5625,28.6875,32.8125,35.1875,36.4375
0.4081240200030152,-0.7457043764142764,-0.5981007527228899,1.0937883557474477,-0.031671664457076414,0.060760012267174486,-0.16514184746752783,-0.4230608537699222,-0.35558623819785184,0.08507362525809506,3.0763015030846086,-0.6164678813374525,-0.00016074344131601824,-0.20034335272285111,-0.030537480619429992,-0.0005153350222150535,-0.02167351124115195,-0.0016284874252786225,0.042035946102013416,0.45151498913764954,-1.3472124499133606,1.861556355153219,-2.086257597009176,-1.5675461927997034,2.4215469360351562,-0.12395630031824112,0.37484419345855713,-0.4742504060268402,0.09187585860490799,0.01981411501765251,-0.1657562106847763,-0.28730422258377075,0.2298433631658554,-8.887276649475098,1.0104496479034424,47.66718673706055,-1.0736184120178223,-1.868034839630127,-3.581507682800293,-0.24685317277908325,0.24302557110786438,-0.042035579681396484,28.3125,29.5625,28.6875,32.8125,35.1875,36.4375
0.41213687699928414,-1.2809853514949725,-1.5595879744819714,0.8117991215250306,-0.05257264393161397,0.025455642257479358,-0.1475336752092488,-0.4238843129019867,-0.3557159259906919,0.08507458960200778,3.0762146959006866,-0.6162651596676906,-0.00013438213681021106,-0.20651630863053003,-0.03207396952946921,0.002568267988251558,-0.02705124947800496,0.010704201759011408,0.029137722936118132,0.45099854469299316,-1.3456890445998688,1.8596275488482874,-2.0859128437437953,-1.5674384276019495,2.4209156036376953,-0.1257399171590805,0.376869797706604,-0.4825788736343384,0.08472903072834015,0.019228115677833557,-0.1546390801668167,-0.4596867263317108,0.5554547905921936,-8.829815864562988,0.9925470948219299,47.67703628540039,-1.0203170776367188,-1.7582019567489624,-3.451930046081543,-0.14109651744365692,0.21031975746154785,-0.12529528141021729,28.3125,29.5625,28.6875,32.8125,35.1875,36.4375
0.4161602039966965,-1.3005317334349726,-1.9124009956677999,0.6295685011001089,-0.05423369857314161,0.03137878489846509,-0.15143313763632146,-0.4247039316787823,-0.3558089856638993,0.08506233684050002,3.0761735731827162,-0.6162034564057053,-0.00011431790595345045,-0.20653952149127616,-0.03212314282755174,0.0017339201659433408,-0.026576016953805983,0.011509278966535984,0.01821467043764234,0.4504588842391968,-1.3441772323897858,1.8577373663531702,-2.0855542622008265,-1.5673907438861292,2.4203433990478516,-0.12486578524112701,0.3778740167617798,-0.48193231225013733,0.08254183083772659,0.018428977578878403,-0.14284372329711914,-0.363918662071228,0.7852981090545654,-8.983044624328613,1.1223474740982056,47.6895751953125,-1.1387253999710083,-1.6418801546096802,-3.75349497795105,-0.07220587134361267,0.214850515127182,-0.27025067806243896,28.3125,29.5625,28.6875,32.8125,35.1875,36.4375
0.4201406109932577,-1.1614552857760216,-1.8664423296058104,0.5304388737205349,-0.05142964582402046,0.055358455683974045,-0.15451579776363406,-0.4255578484269851,-0.35593620316696584,0.08505608750080476,3.0760971713246628,-0.6161144218341352,-0.00014287095793114106,-0.20896035499169935,-0.03323356178015895,0.0014894389241643657,-0.02778385037526192,0.01049981731192914,0.010512733852477668,0.4499427378177643,-1.3425936561873932,1.8557494322406214,-2.0852185688414515,-1.5673301855670374,2.4197821617126465,-0.12545515596866608,0.38381093740463257,-0.4896247684955597,0.08466976135969162,0.019945116713643074,-0.1357259601354599,-0.49799394607543945,0.8427590131759644,-9.040505409240723,1.0619269609451294,47.66360092163086,-1.2088907957077026,-1.7812360525131226,-3.705470085144043,-0.06240053474903107,0.19807323813438416,-0.4103773832321167,28.3125,29.5625,28.6875,32.8125,35.1875,36.4375
0.4241441420017509,-1.3706516137500175,-1.6828827932680195,0.4773524792707265,-0.04876074576561586,0.03308438299537851,-0.15644024551818844,-0.4264141791825489,-0.35606325919594123,0.08505266048618579,3.0760189625999184,-0.6160375655489325,-0.0001715405330690558,-0.2120405910595456,-0.033658419075127156,0.0011698057039141309,-0.028351365481128495,0.010698825028823586,0.014134478622259194,0.44942614436149597,-1.3410092306188126,1.8537491003619593,-2.0848709545531214,-1.5672701040851038,2.4192283153533936,-0.12712091207504272,0.3897586464881897,-0.4969113767147064,0.08561898022890091,0.020390864461660385,-0.14100976288318634,-0.1149216815829277,0.6320692300796509,-9.251194953918457,0.9298853874206543,47.67703628540039,-1.121619462966919,-1.9797338247299194,-3.5800604820251465,-0.0005553618539124727,0.16102054715156555,-0.4607818126678467,28.3125,29.5625,28.6875,32.8125,35.1875,36.4375
0.4282501480047358,-0.38728194320499515,-0.7135595936104779,0.24388313822798274,-0.03983760576194413,0.006155565439567488,-0.1695130940106142,-0.4272745202909363,-0.35620343967863777,0.0850271518582007,3.075933251871177,-0.6159320894734064,-0.0001341157756897095,-0.2140507042378806,-0.030611413790409093,-0.0010034012629758133,-0.02384908524782502,0.0027355078350138696,0.03533451322434275,0.44866815209388733,-1.338573009972908,1.850720230733053,-2.0844012699522914,-1.5671384970294397,2.418295383453369,-0.1329929381608963,0.39638298749923706,-0.5029047131538391,0.09425197541713715,0.01990802027285099,-0.16807982325553894,0.15322890877723694,0.07661445438861847,-9.174580574035645,0.999259889125824,47.657325744628906,-0.9538748264312744,-2.0441417694091797,-3.6963584423065186,-0.014933640137314796,0.1356627643108368,-0.19288235902786255,28.3125,29.5625,28.6875,32.8125,35.1875,36.4375
0.43225023699051235,0.8761183006783726,0.6304096455920231,0.5265743938025668,0.018596128679035866,-0.02355872519203525,-0.16446647421755278,-0.42812200744356493,-0.3563393067656179,0.0849999712298321,3.075906481126536,-0.6155773953144532,-0.00011005283844460398,-0.21513195851167685,-0.03211982745578316,0.00035255187778309767,-0.02454200882816298,0.0035176681547467816,0.03895229175858406,0.44840487837791443,-1.3377455186894913,1.8497369925128382,-2.0842086277403773,-1.5670903364764612,2.417935371398926,-0.1313210278749466,0.398159921169281,-0.5092529058456421,0.09783787280321121,0.020190425217151642,-0.170024573802948,0.07661445438861847,0.05746084079146385,-9.117119789123535,1.039547324180603,47.66718673706055,-0.9721893668174744,-1.9880397319793701,-3.500352382659912,-0.03836062178015709,0.13394421339035034,-0.15358424186706543,28.3125,29.5625,28.6875,32.8125,35.1875,36.4375
