Tylouw/Master_Thesis_Code/test_recorded_data/real_test2/insertion_2_2026-02-24_17-04-52.csv
timestamp[s],tcp_force_x[N],tcp_force_y[N],tcp_force_z[N],tcp_force_rx[Nm?],tcp_force_ry[Nm?],tcp_force_rz[Nm?],tcp_pose_x[m],tcp_pose_y[m],tcp_pose_z[m],tcp_pose_rx[rot_vec_x],tcp_pose_ry[rot_vec_y],tcp_pose_rz[rot_vec_z],tcp_velo_x[m/s],tcp_velo_y[m/s],tcp_velo_z[m/s],tcp_velo_rx[rot_vec_x/s],tcp_velo_ry[rot_vec_y/s],tcp_velo_rz[rot_vec_z/s],q1[rad],q2[rad],q3[rad],q4[rad],q5[rad],q6[rad],qd1[rad/s],qd2[rad/s],qd3[rad/s],qd4[rad/s],qd5[rad/s],qd6[rad/s],tool_acc_x,tool_acc_y,tool_acc_z,current_of_whole_robot[A],voltage_of_whole_robot[V],current_J1[A],current_J2[A],current_J3[A],current_J4[A],current_J5[A],current_J6[A],temp_J1[C],temp_J2[C],temp_J3[C],temp_J4[C],temp_J5[C],temp_J6[C]
1.1699739843606949e-07,-0.6522685591046105,-0.5213323087710058,0.6314929331891072,-0.034835381129058395,0.015430915290790936,-0.003154291162756223,-0.38152560318997336,-0.3495271224996602,0.08492276626032802,-3.0784618141091893,0.624961205598517,-0.00026855548042596086,-0.001253475523718005,-0.0006404838175801442,-0.0019517184795108003,-0.002852558132956161,0.005156256920835103,5.60656379831992e-07,0.4791298806667328,-1.4235496085933228,1.955012623463766,-2.1004420719542445,-1.5707572142230433,2.4541449546813965,-0.00010632665362209082,0.002453813562169671,0.0046032993122935295,-0.012948335148394108,0.00013430888066068292,-0.00010651002958184108,0.24899697303771973,-0.038307227194309235,-8.71489429473877,0.7418897151947021,47.69584274291992,-0.09987343847751617,-3.354991912841797,-2.6621971130371094,-0.32901594042778015,0.09146441519260406,-0.22396327555179596,28.3125,29.5625,28.6875,32.75,35.1875,36.4375
0.0002591480006230995,-0.3374489230424903,0.08328384022289415,0.19143176499761322,0.0157996042282225,-0.024762241529003186,-0.0006466750915779819,-0.3815109912436403,-0.3495316595078603,0.08489476105517724,-3.0784361580310504,0.6249171503157671,-0.00027375698831288975,-0.0014196546756990265,-0.0007339752102288488,0.0001503155446297016,-0.0023404183722432643,0.004156284505691974,5.257116666483542e-07,0.4791660010814667,-1.423514188533165,1.9550464789019983,-2.100487371484274,-1.5707815329181116,2.4541568756103516,-0.00010285498865414411,0.0007605587597936392,5.924698416492902e-05,-0.005587604362517595,0.00014784182712901384,-0.0001024678276735358,0.2298433631658554,-0.09576806426048279,-8.619126319885254,0.7575564384460449,47.70390319824219,-0.10141056776046753,-3.249155044555664,-2.3143272399902344,-0.3753699064254761,0.07464390993118286,-0.2027679681777954,28.3125,29.5625,28.6875,32.75,35.1875,36.4375
0.0042458090028958395,-0.8474929085277685,-1.261368582714217,-0.5483721816923639,-0.03202049059439603,0.00975195373752383,-0.005788366053819078,-0.38150778091374316,-0.3495340131194715,0.08489139167075946,-3.0784521388981214,0.624805021814413,-0.0003164271492565846,-0.0029025705162226065,-0.0015108623609472146,-0.00046815805884891986,-0.000698013265042707,0.0009949284607932523,8.15721959129493e-05,0.4791660010814667,-1.4235003751567383,1.9550326506244105,-2.100462099114889,-1.5707696119891565,2.454084873199463,-0.00010100520012201741,0.007096853572875261,-0.006661211606115103,-0.001640901667997241,0.00014250831736717373,-0.000178059795871377,0.13407528400421143,0.1149216815829277,-9.193734169006348,0.7508436441421509,47.69673538208008,-0.5747083425521851,-2.424776792526245,-2.928506851196289,-0.41654685139656067,0.10166312754154205,-0.271746426820755,28.3125,29.5625,28.6875,32.75,35.1875,36.4375
0.00823613500688225,-2.0987638005524984,-3.0693877906938667,-0.7282275529594051,-0.12523413800829286,0.08239867311167197,-0.014013671720430495,-0.3815071580275307,-0.3495364647292032,0.08487759457079644,-3.0784088556055695,0.6248709816826413,-0.0004042647904490643,-0.0063559428549710235,0.0006916294823084506,-0.002340908455657304,0.0015690128269147511,-0.0034169409989668396,0.0025353439212870144,0.4791634678840637,-1.4234494727901001,1.9549949804889124,-2.1004134617247523,-1.5707572142230433,2.4541289806365967,-0.007216468453407288,0.014511563815176487,-0.011359966360032558,0.0006018236163072288,0.0001555262424517423,-0.009744239039719105,-0.17238251864910126,0.40222588181495667,-9.557653427124023,0.7732232213020325,47.725399017333984,-0.32513272762298584,-2.910825729370117,-3.1227190494537354,-0.4484979510307312,0.10983339697122574,-0.22190628945827484,28.3125,29.5625,28.6875,32.75,35.1875,36.4375
0.012237578994245268,-3.0633915189768723,-3.3604660278527616,-1.1935829859107578,-0.11582672589128881,0.0869617514623979,-0.030922858652189845,-0.3815129202350708,-0.3495197812964362,0.08484791094715771,-3.0783624265215246,0.6248026829132447,-0.0005214319738637257,-0.0071981334999557545,-0.0012488405533277712,-0.0010418623516044983,-0.0007662854553082387,-0.0026157718999596465,0.006720130138052184,0.4791279435157776,-1.4233772170594712,1.9549692312823694,-2.1003648243346156,-1.5707562605487269,2.454056739807129,-0.005572283174842596,0.015974033623933792,-0.016407355666160583,0.002392657333984971,0.0018493377137929201,-0.012285872362554073,-0.5171475410461426,0.689530074596405,-9.749189376831055,0.7351769208908081,47.693153381347656,-0.63844895362854,-2.493443250656128,-3.231452703475952,-0.47774383425712585,0.10915456712245941,-0.20104235410690308,28.3125,29.5625,28.6875,32.75,35.1875,36.4375
0.016198151002754457,-2.2361906877798443,-2.7076114656348125,-1.4889144604987423,-0.1211840334986741,0.1033732826222729,-0.059863222731381754,-0.38154828021606263,-0.3495471945168601,0.08483905727910585,-3.0784255537505865,0.6247218224826768,-0.0005534404925277477,-0.009493426051520931,-0.0016429394638992193,-0.0011210245614103704,-0.0035598913620954386,-0.0020161552920213263,0.0029204139838338115,0.4791148900985718,-1.4232801657966156,1.9548843542682093,-2.1003900967040003,-1.5707080999957483,2.4539852142333984,-0.008313200436532497,0.019165098667144775,-0.01941618323326111,0.0003832165675703436,0.004041580483317375,-0.011229048483073711,-0.6703764796257019,0.7661445140838623,-9.90241813659668,0.7396538853645325,47.718231201171875,-0.578345775604248,-2.633090019226074,-3.2335524559020996,-0.4741811156272888,0.09613988548517227,-0.23785069584846497,28.3125,29.5625,28.6875,32.75,35.1875,36.4375
0.02013425499899313,-2.3656922660120263,-2.845772145363923,-1.3913538371087872,-0.10974727389994851,0.09220887633984684,-0.07593493777676938,-0.3816038488669961,-0.3495432492122055,0.08484488008383745,-3.078404606386278,0.62475759039827,-0.0004883168336527032,-0.012221708792012256,-0.00143218264882006,-0.0008415118489362738,-0.0032693701676314627,-0.000513099782859789,-0.0006916326844442454,0.47907835245132446,-1.4232070606997986,1.954787556325094,-2.1003900967040003,-1.57074481645693,2.4539737701416016,-0.010640135034918785,0.022573012858629227,-0.023927612230181694,0.0002902114065364003,0.0030819005332887173,-0.009939124807715416,-0.727837324142456,0.4405331015586853,-9.90241813659668,0.7642692923545837,47.725399017333984,-0.7088680267333984,-2.5713324546813965,-3.2390809059143066,-0.4814871549606323,0.10677292197942734,-0.2688771188259125,28.3125,29.5625,28.6875,32.75,35.1875,36.4375
0.024129211000399664,-2.016495017837297,-1.3330623210756731,-1.1204005309901484,-0.06515943917392795,0.08513602419257515,-0.10115021714682386,-0.3816401568028058,-0.34955782931882057,0.08480533274315338,-3.078390264363275,0.6248315454602918,-0.0006091375218465785,-0.01512126670888487,-0.0020186833282744517,0.001012630591438272,-0.006428998478307861,0.002838330372394872,-0.0008412086836065702,0.47904136776924133,-1.4230505389026185,1.9547017256366175,-2.100401540795797,-1.5706961790667933,2.4539847373962402,-0.013030878268182278,0.023369796574115753,-0.02905534766614437,0.00018646338139660656,0.004327996168285608,-0.012180320918560028,-0.4596867263317108,0.07661445438861847,-9.959878921508789,0.7195101380348206,47.66360092163086,-0.7548364400863647,-2.6020357608795166,-3.1735689640045166,-0.46030193567276,0.09758999943733215,-0.27810099720954895,28.3125,29.5625,28.6875,32.75,35.1875,36.4375
0.02812730599544011,-1.5459658720326346,-0.409923378986926,-0.811716892974573,-0.021045579076484064,0.06853948330596413,-0.12395346572022269,-0.3817466679425398,-0.34957677864043835,0.08484835824961845,-3.0784708217803676,0.6248662435363466,-0.0004755923350964895,-0.017748815063403638,-0.0028791999297328244,0.0009553982729329199,-0.00940890693325659,0.0020768065025690598,-0.0010788689375469413,0.4789685606956482,-1.4229646784118195,1.954508129750387,-2.1004139385619105,-1.5706833044635218,2.453923463821411,-0.015722637996077538,0.028255339711904526,-0.0344664603471756,3.94138533010846e-06,0.007312237750738859,-0.014636129140853882,-0.3064578175544739,-0.07661445438861847,-9.615114212036133,0.7195101380348206,47.71733474731445,-0.6603508591651917,-2.6583480834960938,-3.0768918991088867,-0.4453899562358856,0.05399492010474205,-0.27518290281295776,28.3125,29.5625,28.6875,32.75,35.1875,36.4375
0.03212674200767651,-1.499207483297413,-0.6104016067719136,-0.8506534547633641,-0.007988047294271371,0.06155165277283859,-0.1447739254918205,-0.3818232675875379,-0.3495978095336874,0.08484262073376778,-3.0785075125571155,0.6248928917180718,-0.000457169806267275,-0.019546073101137384,-0.003063374606599834,0.0017082482666164118,-0.00949262200879692,0.004217065232659562,-0.0007756164604962069,0.4789202809333801,-1.422820047741272,1.9543641249286097,-2.1004497013487757,-1.5706589857684534,2.4538872241973877,-0.01650727167725563,0.029708916321396828,-0.03785015642642975,1.6802745861355106e-08,0.006393309682607651,-0.01572011411190033,-0.19153612852096558,-0.17238251864910126,-9.615114212036133,0.7888899445533752,47.700321197509766,-0.7404948472976685,-2.5833678245544434,-3.0150203704833984,-0.44117239117622375,0.06710394471883774,-0.24054627120494843,28.3125,29.5625,28.6875,32.75,35.1875,36.4375
0.036141290998784825,-1.60447499406792,-0.7459255977077899,-0.8646028965033128,-0.0420261084111053,0.0702484959752556,-0.16252518630203486,-0.38189419482789577,-0.34960056586500443,0.08485704874189551,-3.0785292863613734,0.6248982858477192,-0.00041309498377362157,-0.02155485712121137,-0.002903812171804301,0.001530713331787969,-0.008640951646248077,0.004766201193846675,-0.002642776961049493,0.4788597524166107,-1.4227348429015656,1.954231087361471,-2.1004377804198207,-1.5706594626056116,2.453827381134033,-0.01803944818675518,0.03317591920495033,-0.0414079949259758,7.163273446630924e-11,0.005377922207117081,-0.015380701050162315,-0.2106897532939911,-0.17238253355026245,-9.481039047241211,0.7844129800796509,47.70121383666992,-0.6956360936164856,-2.5392813682556152,-3.042780876159668,-0.4220064580440521,0.056924007833004,-0.24387401342391968,28.3125,29.5625,28.6875,32.75,35.1875,36.4375
0.04012653499376029,-1.4936104730772666,-1.598907597548816,-1.0037052051303423,-0.0514400546089168,0.05797067189388591,-0.1415959146185655,-0.3819887562544023,-0.34959266445117443,0.08485634307445089,-3.0785198705797043,0.6249924372800781,-0.00042406523409902597,-0.023773845979197246,-0.002653025933329649,0.002522510331300987,-0.008522630034493599,0.007555759181235592,-0.0028201103651974216,0.4787513315677643,-1.4225904655507584,1.954062287007467,-2.1004139385619105,-1.5706480185138147,2.4537789821624756,-0.019694726914167404,0.03419344499707222,-0.04484115168452263,3.053815880726951e-13,0.003980762790888548,-0.016854196786880493,-0.07661445438861847,0.09576806426048279,-9.615114212036133,0.7172743082046509,47.68598937988281,-0.6804267764091492,-2.353900194168091,-3.1021764278411865,-0.42202821373939514,0.08662524819374084,-0.2342205047607422,28.3125,29.5625,28.6875,32.75,35.1875,36.4375
0.04412690599565394,-1.682135771977248,-2.8924967558040784,-1.0744991575514986,-0.05881069820917691,0.03867984291669036,-0.13018433854626235,-0.3820963612914579,-0.34962956943865586,0.08489842180287924,-3.078622333003122,0.6249937515383228,-0.0002891374708082075,-0.024679860209026273,-0.0026829466130234986,0.0019774146782237795,-0.008279433199115577,0.006713469793012661,-0.0018327578954268307,0.4787028431892395,-1.4224812549403687,1.9538467566119593,-2.1004377804198207,-1.5706241766559046,2.453718423843384,-0.020576735958456993,0.036878131330013275,-0.04666625335812569,1.3018894281716228e-15,0.004151191562414169,-0.018722007051110268,-0.09576806426048279,0.3064578175544739,-9.461885452270508,0.7821771502494812,47.703006744384766,-0.691137969493866,-2.4454407691955566,-3.2250308990478516,-0.40036725997924805,0.09901393949985504,-0.23004239797592163,28.3125,29.5625,28.6875,32.75,35.1875,36.4375
0.048127055997611023,-1.0674593764085705,-2.69263412847343,-0.9066137487730123,-0.09285121203975882,0.0558760575581219,-0.13946553653553206,-0.38220218957747054,-0.3496304352095043,0.08490090025591127,-3.078618393664124,0.6250503122059942,-0.0002769499076292254,-0.02672164435603923,-0.002875434381572676,0.0025620299167491926,-0.009289630240504413,0.006629271407378152,-0.0031952578966174573,0.47860613465309143,-1.422312171464302,1.9536421934710901,-2.100412984887594,-1.5706236998187464,2.453657627105713,-0.022673577070236206,0.0394628681242466,-0.05135047063231468,0.0017060001846402884,0.005081473384052515,-0.019455498084425926,-0.13407528400421143,0.47884035110473633,-9.59596061706543,0.7597975730895996,47.65016555786133,-0.653229832649231,-2.2476515769958496,-3.141489267349243,-0.389705628156662,0.10501028597354889,-0.21908840537071228,28.3125,29.5625,28.6875,32.75,35.1875,36.4375
0.05212466500233859,-1.7823358178519315,-3.001870754210028,-0.8276202127501567,-0.08449980216216443,0.03974529110547734,-0.13106522961911263,-0.3823303893501873,-0.34962273336185845,0.08492987883399997,-3.0786590446927007,0.6251155016163255,-0.00017531029524023192,-0.027373536164711332,-0.002916564717834839,0.0017796391073914956,-0.008986044648484742,0.004708770923880273,-0.0024013619895057077,0.4784739315509796,-1.4221911293319245,1.953437630330221,-2.100412984887594,-1.5706236998187464,2.4535610675811768,-0.02356175146996975,0.042488645762205124,-0.05317103490233421,0.002343816217035055,0.005696482490748167,-0.021136892959475517,-0.05746084079146385,0.4405331015586853,-9.461885452270508,0.7306999564170837,47.67882537841797,-0.6891573071479797,-2.167026996612549,-3.2752161026000977,-0.4024643301963806,0.10156408697366714,-0.20323984324932098,28.3125,29.5625,28.6875,32.75,35.1875,36.4375
0.056125874994904734,-1.5525547890022293,-2.5888066398595155,-0.5640927743444293,-0.07332137039024793,0.03444534347484119,-0.1279141993980142,-0.38242495527195797,-0.3496570775421964,0.0849420423959513,-3.0787315664626806,0.6250910838566271,-0.00013942883564274273,-0.030417176375237515,-0.003965725582962257,0.003148399768082606,-0.011633012534917324,0.008175921232906284,-0.0012804736069431943,0.4784253239631653,-1.422034130697586,1.9532330671893519,-2.100424905816549,-1.5705869833575647,2.4534881114959717,-0.024953126907348633,0.04502280429005623,-0.0589640811085701,0.0013046346139162779,0.006436579395085573,-0.023646511137485504,-0.07661445438861847,0.40222588181495667,-9.27034854888916,0.7105615139007568,47.6949462890625,-0.620152473449707,-2.0983567237854004,-3.1521315574645996,-0.36542218923568726,0.0958663821220398,-0.184830904006958,28.3125,29.5625,28.6875,32.75,35.1875,36.4375
0.060125628995592706,-0.9979769283027418,-1.9479293128922155,-0.5626226290452545,-0.07172126019906175,0.04384037597967462,-0.1298092336367642,-0.38257070671368504,-0.34967615319740303,0.08495861682769928,3.078763605417972,-0.6251365532183982,7.871385338225792e-05,-0.03192950810525813,-0.004600878627083314,0.0030343491010612414,-0.01332624511876007,0.007792510188430155,-0.0018186587066452535,0.47831693291664124,-1.4218167972615738,1.9529441038714808,-2.1004134617247523,-1.5705745855914515,2.453404188156128,-0.02621539682149887,0.048143208026885986,-0.062207259237766266,0.0009833534713834524,0.008111299946904182,-0.0243705902248621,0.0,0.325611412525177,-9.232041358947754,0.8582697510719299,47.69853210449219,-0.6735321283340454,-2.0842092037200928,-3.300644874572754,-0.36815112829208374,0.09318819642066956,-0.1688007116317749,28.3125,29.5625,28.6875,32.75,35.1875,36.4375
0.06413177700596862,-1.112322080834683,-1.4524605693866062,-0.2621586125543758,-0.04785787279866524,0.04089296763315481,-0.13036625128908907,-0.38270615952302356,-0.34969918704100444,0.08497932233809616,3.0786673002160243,-0.6251151661160786,3.8334222798186736e-05,-0.03338066216182778,-0.004803951812481357,0.002891207033740387,-0.01339246978827988,0.007875738325970643,0.00044558559464746503,0.4781966507434845,-1.4216357183507462,1.9526923338519495,-2.100424905816549,-1.5705145041095179,2.4532828330993652,-0.02719441056251526,0.0510072186589241,-0.0651596263051033,0.0009700468508526683,0.008129109628498554,-0.02761130779981613,-0.13407529890537262,0.2298433631658554,-9.232041358947754,0.6859408020973206,47.67703628540039,-0.7074769735336304,-2.0157837867736816,-3.3183960914611816,-0.3243984580039978,0.09291917085647583,-0.12769630551338196,28.3125,29.5625,28.6875,32.75,35.1875,36.4375
0.06812523200642318,-1.0119917383065489,-1.3725930803099602,-0.25080197347425676,-0.03462059715918227,0.050652357493186556,-0.1377882985456997,-0.3828351679230773,-0.3497216752252429,0.08497984774052078,3.0786267836535353,-0.6251281279983201,8.898430527151469e-05,-0.034050449950366414,-0.005010095404013595,0.0023354869806665587,-0.013564798395168456,0.004380740667533564,-0.0025262477568461575,0.4780882000923157,-1.4213942301324387,1.9524038473712366,-2.1003762684264125,-1.5704658667193812,2.4531877040863037,-0.028489189222455025,0.054439298808574677,-0.06849275529384613,0.003890527877956629,0.009890965186059475,-0.02593517303466797,-0.05746084079146385,0.13407529890537262,-9.174580574035645,0.7575564384460449,47.69853210449219,-0.6624895930290222,-1.9884920120239258,-3.3789076805114746,-0.33936840295791626,0.06507179141044617,-0.15335401892662048,28.3125,29.5625,28.6875,32.75,35.1875,36.4375
0.07212477500434034,-1.6286178489972218,-1.730197036914035,-0.4227489387786985,-0.03303759689669166,0.05815117240648606,-0.12086611602096317,-0.382973371184014,-0.349743648522368,0.08500878315226049,3.078563102237557,-0.6251320514654536,-1.0717269082983799e-06,-0.03583722887248534,-0.006385884223573941,0.002952493124754715,-0.01444112213504414,0.006499177410138597,0.0007628502096035904,0.4779926538467407,-1.4212129277041932,1.952127758656637,-2.1003648243346156,-1.5704544226275843,2.4531028270721436,-0.027569787576794624,0.05756756663322449,-0.07336672395467758,0.003354489104822278,0.009686274453997612,-0.028300780802965164,-0.1149216815829277,0.09576806426048279,-9.155426979064941,0.7642692923545837,47.693153381347656,-0.8454363346099854,-1.9743642807006836,-3.3176751136779785,-0.3262326419353485,0.055780790746212006,-0.12580400705337524,28.3125,29.5625,28.6875,32.75,35.1875,36.4375
0.07612558100663591,-1.7123897761239701,-1.7028166077674787,-0.2889279758531894,-0.04833501813038632,0.06484784043121229,-0.12330553200080062,-0.3831147715443167,-0.3497544914024186,0.08499508737535022,3.0785365259079005,-0.6251275056720731,3.848723403392123e-05,-0.03738470769878437,-0.005475431246396368,0.0022298814955197285,-0.013308979669344837,0.0051815390209403985,-0.0009679229180642422,0.4778596758842468,-1.4209475976279755,1.9518526236163538,-2.1003524265685023,-1.5704181830035608,2.452970504760742,-0.030353808775544167,0.06065329164266586,-0.07541065663099289,0.004007390700280666,0.009285698644816875,-0.029352176934480667,-0.2298433631658554,0.19153612852096558,-9.27034854888916,0.7284641265869141,47.700321197509766,-0.8123679161071777,-1.9216505289077759,-3.5491394996643066,-0.3092254400253296,0.06294059008359909,-0.09571097791194916,28.3125,29.5625,28.6875,32.75,35.1875,36.4375
0.08012577900080942,-2.037692116329924,-1.9481526203822201,-0.6822799912194512,-0.04480605975980326,0.05299868912048972,-0.11629479420097011,-0.3832723874723917,-0.34978625670335245,0.08501854450831778,3.078479516810519,-0.6250579312127281,-6.588015654512639e-05,-0.03888459901819267,-0.005831871316336594,0.0024046197900434866,-0.013477397039265374,0.004528011992398458,-0.0015316760633800747,0.4777633547782898,-1.4207183730653306,1.9515393416034144,-2.100363870660299,-1.5704062620746058,2.452838182449341,-0.03135976940393448,0.06366737931966782,-0.07966919988393784,0.005754484795033932,0.009734521619975567,-0.02979184128344059,-0.2298433631658554,0.1149216815829277,-9.346963882446289,0.7396538853645325,47.70658874511719,-0.7836335897445679,-1.958176612854004,-3.504734754562378,-0.315959632396698,0.052683837711811066,-0.10539039224386215,28.3125,29.5625,28.6875,32.75,35.1875,36.4375
0.08412619199953042,-1.9966649604565516,-2.4863267757006247,-0.7967391994486231,-0.05994135965669166,0.06933195825301891,-0.12204137189530037,-0.38340592610663077,-0.34981626102426777,0.08501091718603965,3.0784417294192132,-0.6250697740107402,7.903872265926625e-05,-0.040552257071984316,-0.005914120437393039,0.001294083200029082,-0.012426357034559223,0.0019461896806694337,-0.0032549602440001997,0.47764286398887634,-1.420428217654564,1.951202694569723,-2.100267549554342,-1.5703218618976038,2.4527299404144287,-0.03288464993238449,0.06942129880189896,-0.08406008034944534,0.007170216646045446,0.009981438517570496,-0.029591474682092667,-0.38307225704193115,0.3064578175544739,-9.500192642211914,0.7933669090270996,47.705692291259766,-0.7539844512939453,-1.8615882396697998,-3.424978733062744,-0.32984408736228943,0.04400935396552086,-0.11950136721134186,28.3125,29.5625,28.6875,32.75,35.1875,36.4375
0.0881238099973416,-2.2218110307065353,-2.7129793043359887,-1.115221315201717,-0.08052044870462728,0.08009905939940506,-0.11958169938368211,-0.3835833701792907,-0.3498270271159534,0.0850012718296208,3.078415497197785,-0.6251226068046754,5.115696365052492e-05,-0.04270761881870699,-0.006316823752686928,0.00226297983479641,-0.013406973738853805,0.00422165993728545,-0.0037438771456369396,0.4774983525276184,-1.4201153677752991,1.9508665243731897,-2.100267549554342,-1.5703218618976038,2.4526219367980957,-0.034028589725494385,0.0711262971162796,-0.08824845403432846,0.007184315472841263,0.009799537248909473,-0.030243750661611557,-0.28730422258377075,0.363918662071228,-9.691728591918945,0.7888899445533752,47.6949462890625,-0.8121654391288757,-1.6110814809799194,-3.4890637397766113,-0.3281877636909485,0.04704546928405762,-0.10937578976154327,28.3125,29.5625,28.6875,32.75,35.1875,36.4375
0.09212563499750104,-2.1237519623354366,-2.5974092484309903,-1.1221354480066879,-0.08552404715186175,0.06805292678281558,-0.12370639657631298,-0.3837693016208274,-0.34983530453313905,0.08501260222993548,3.078368448896578,-0.6251714939248773,-1.8090341817928134e-05,-0.044712779405842076,-0.006215820106833111,0.0007213613923446427,-0.012184837738212937,0.0015122858153293112,-0.006379751507528005,0.47734174132347107,-1.4198367905667801,1.9505189100848597,-2.100255628625387,-1.5703218618976038,2.4525020122528076,-0.03612464666366577,0.0778382197022438,-0.09256493300199509,0.007757714483886957,0.00995390024036169,-0.029700525104999542,-0.15322890877723694,0.3447650671005249,-9.691728591918945,0.7732232213020325,47.694053649902344,-0.7882615327835083,-1.8411693572998047,-3.45458984375,-0.3280266523361206,0.05618581920862198,-0.1422070562839508,28.3125,29.5625,28.6875,32.75,35.1875,36.4375
0.09612492599990219,-1.6516110389044383,-2.3215328946711464,-1.1353348987856224,-0.07114015419160274,0.06235539592299647,-0.12255457762004064,-0.3839706692906091,-0.34988562935067963,0.08503415944935896,3.0782783820185875,-0.6251531732852088,-4.4856493273473214e-05,-0.047466179297402586,-0.007190525668045217,0.0013289078614974962,-0.014190905267829875,0.004280079759269911,-0.007323546656074691,0.4772094786167145,-1.4194992196610947,1.9500749746905726,-2.10022034267568,-1.5702617804156702,2.4523699283599854,-0.03720829635858536,0.08128087222576141,-0.09748709946870804,0.005858622025698423,0.010452653281390667,-0.02983698435127735,-0.24899697303771973,0.325611412525177,-9.557653427124023,0.7933669090270996,47.67882537841797,-0.7255068421363831,-1.803005337715149,-3.4490973949432373,-0.31114470958709717,0.06694426387548447,-0.18046505749225616,28.3125,29.5625,28.6875,32.75,35.1875,36.4375
0.10012833900691476,-1.7792046677714788,-1.9278716518510581,-0.8240024859176288,-0.0778952104716861,0.05138423420209372,-0.12922762266727483,-0.38415223912473445,-0.3499211521744998,0.08505167901607813,3.0782011410071153,-0.6251958947089422,-5.478387927190932e-05,-0.05013147426141207,-0.007543738245640447,0.00161222692014774,-0.014629626935250767,0.005246523730954214,-0.008619000942790486,0.47707676887512207,-1.4191973519376297,1.9496782461749476,-2.1001726589598597,-1.57021409669985,2.4522738456726074,-0.03897463530302048,0.08536509424448013,-0.10289763659238815,0.006128207314759493,0.010390494018793106,-0.030304111540317535,-0.19153612852096558,0.325611412525177,-9.519346237182617,0.7575564384460449,47.68240737915039,-0.7444232702255249,-1.845022201538086,-3.3558502197265625,-0.31564009189605713,0.04321958124637604,-0.19408385455608368,28.3125,29.5625,28.6875,32.75,35.1875,36.4375
0.1041260250058258,-1.499542034310735,-1.9673018976285674,-0.833324921041422,-0.057870667001765214,0.057694410239673685,-0.1307429538860214,-0.3843738185284524,-0.34995332914499605,0.08505721444815945,3.0781066328893134,-0.6252529685968574,-0.0001203591799252738,-0.05295297223965459,-0.008399280219712528,0.001859764092307912,-0.016048772455856248,0.0058372892329264315,-0.008886708631576166,0.47690829634666443,-1.4188355219415207,1.9492562452899378,-2.1001960239806117,-1.5701778570758265,2.452153205871582,-0.04061107710003853,0.0902785211801529,-0.10916280001401901,0.0063035748898983,0.011372046545147896,-0.03166923299431801,-0.15322890877723694,0.26815059781074524,-9.519346237182617,0.7597975730895996,47.68419647216797,-0.7173644304275513,-1.8553521633148193,-3.1616430282592773,-0.280022531747818,0.02851126529276371,-0.22414788603782654,28.3125,29.5625,28.6875,32.75,35.1875,36.4375
0.10812664100376423,-1.9466706746357607,-2.234684739125756,-0.7969948211286374,-0.06763281844953417,0.05528088400626057,-0.12431899073171686,-0.3846126466639868,-0.3499918321942146,0.0851007490000254,3.0779788757975486,-0.6252833496518416,-0.0002289254694526142,-0.054780374340305166,-0.008910891071334704,0.0015550508649126791,-0.0162009291046501,0.005368686846527263,-0.007306341598221765,0.4767279326915741,-1.4185097378543396,1.94877797762026,-2.1001721821227015,-1.5701292196856897,2.4520082473754883,-0.04156012088060379,0.09463133662939072,-0.11357735842466354,0.006715456955134869,0.01172147411853075,-0.034194789826869965,-0.2298433631658554,0.3064578175544739,-9.385271072387695,0.8179876208305359,47.702110290527344,-0.8169088363647461,-1.9753148555755615,-3.185462474822998,-0.28080078959465027,0.03480721265077591,-0.2631259858608246,28.3125,29.5625,28.6875,32.75,35.1875,36.4375
0.11212719499599189,-2.0114136250880117,-2.4864291337534308,-0.6508954815298873,-0.06919708443691105,0.060653395787394815,-0.12367470260969339,-0.3848310155445122,-0.35002237581853596,0.08509715346614752,3.077937986012822,-0.6252727905417965,-0.00021966706906709332,-0.05618368306046446,-0.00975991799636438,0.0010335924805775893,-0.015624947515776113,0.004413133434198691,-0.004915035077963786,0.4765600562095642,-1.4181115192225953,1.9483211676227015,-2.10013546566152,-1.5700934568988245,2.4518392086029053,-0.041272178292274475,0.09953614324331284,-0.1182498186826706,0.007601040881127119,0.011644000187516212,-0.03629502281546593,-0.13407529890537262,0.3064578175544739,-9.327810287475586,0.8045620322227478,47.686885833740234,-0.8964967727661133,-1.923745036125183,-3.1433300971984863,-0.2914222478866577,0.04503708705306053,-0.2617419958114624,28.3125,29.5625,28.6875,32.75,35.1875,36.4375
0.11612484299985226,-2.093327303324656,-2.4315973579326244,-0.44151526405457303,-0.080023435692306,0.060139189714289554,-0.12340570266279428,-0.38503929460952874,-0.35005696480765663,0.08509220388105676,3.0779129021659926,-0.6252673395226193,-0.00020808760902158216,-0.05719171830099307,-0.009509136339539696,0.00038129815574675113,-0.014687817596928126,0.003541496897166932,-0.004036339124530344,0.4764157831668854,-1.4177141648582001,1.9478657881366175,-2.1000877819456996,-1.5700696150409144,2.451694965362549,-0.042351409792900085,0.10238371044397354,-0.12011804431676865,0.007831295020878315,0.011210593394935131,-0.038251232355833054,-0.2298433631658554,0.38307225704193115,-9.27034854888916,0.8291773796081543,47.674346923828125,-0.9008105397224426,-1.8267593383789062,-3.256126880645752,-0.2886965870857239,0.048428975045681,-0.2363295555114746,28.3125,29.5625,28.6875,32.75,35.1875,36.4375
0.12012658300227486,-1.2895177532269644,-1.7852955121775738,-0.3442165467954681,-0.07172015014692923,0.06025038556072777,-0.13040075185272804,-0.38530658597812883,-0.35010985916055587,0.08512029764025664,3.077789119915637,-0.6253178634397091,-0.0003033220104579071,-0.05901190075127503,-0.010014359618929792,0.0005615940566612408,-0.014546316458026318,0.004813834175184048,-0.003641514091678344,0.47623568773269653,-1.4172928494266053,1.947315518056051,-2.1000758610167445,-1.570021931325094,2.4515624046325684,-0.04266565293073654,0.10553114116191864,-0.12413865327835083,0.007645510137081146,0.010499175637960434,-0.03895607590675354,-0.13407528400421143,0.3064578175544739,-9.193734169006348,0.7239871025085449,47.737037658691406,-1.0324777364730835,-1.8172290325164795,-3.3178257942199707,-0.27460864186286926,0.050552837550640106,-0.2892981171607971,28.3125,29.5625,28.6875,32.75,35.1875,36.4375
0.1241390759969363,-1.2043148375421278,-1.2165028551529722,-0.07843004760478736,-0.06643418704264324,0.045663826039721744,-0.12408549630754205,-0.385589062803164,-0.3501626118705045,0.08515538389001975,3.0776571783923496,-0.6253082850584962,-0.0004959978590580795,-0.0600844790539312,-0.010396249420014918,-0.00047629960191651345,-0.014034046929004633,0.0034309637929394008,-0.0012648303108185807,0.4760555326938629,-1.416883186703064,1.9467762152301233,-2.100124021569723,-1.5699976126300257,2.4513933658599854,-0.04304321110248566,0.10997479408979416,-0.12685130536556244,0.007382344454526901,0.010682499036192894,-0.041706591844558716,-0.05746084079146385,0.2298433631658554,-9.117119789123535,0.7911257743835449,47.71017074584961,-1.1291711330413818,-1.784327745437622,-3.40310001373291,-0.2383933663368225,0.04820733889937401,-0.30760133266448975,28.3125,29.5625,28.6875,32.75,35.1875,36.4375
0.12812549900263548,-0.9168863106682144,-1.212295388698616,-0.06340577954932324,-0.043960869347134224,0.031819540855658204,-0.12686194611982213,-0.38579998464114273,-0.3502022997252212,0.08512804316603134,3.077606786883279,-0.6253376852514061,-0.00033895987482258233,-0.061529153905705264,-0.011087313801805375,-0.0004077549848717537,-0.014820121048455143,0.003546204093863859,-0.0030402690649209904,0.4758754074573517,-1.4164254826358338,1.946296517048971,-2.100051542321676,-1.5699017683612269,2.4512381553649902,-0.04348958656191826,0.11299458891153336,-0.13058021664619446,0.007631615735590458,0.011319389566779137,-0.04037633165717125,0.019153613597154617,0.19153612852096558,-8.944737434387207,0.8090336918830872,47.674346923828125,-1.1683688163757324,-1.7376928329467773,-3.4225878715515137,-0.22536838054656982,0.05981576442718506,-0.35109764337539673,28.3125,29.5625,28.6875,32.75,35.1875,36.4375
0.13212533500336576,-1.1689459135028195,-1.2099517754977271,-0.35026164020552225,-0.023262022832001513,0.013382007382584361,-0.11794977682984477,-0.3860711377806007,-0.35026339534935763,0.0851509387846297,3.0774892305061052,-0.6253509310948379,-0.0004356542253914878,-0.06384138341689528,-0.010529258042647469,-0.0009844830444644794,-0.01374372293938439,0.0022984548045098824,-0.002428445893871159,0.47570645809173584,-1.4159794461778183,1.9457319418536585,-2.100051542321676,-1.5698536078082483,2.4510927200317383,-0.04631892591714859,0.1176614835858345,-0.13497880101203918,0.008973444811999798,0.010937306098639965,-0.04381345957517624,0.0,0.13407529890537262,-9.117119789123535,0.7978386282920837,47.68867492675781,-1.1260812282562256,-1.9567790031433105,-3.3701987266540527,-0.21168391406536102,0.06414306163787842,-0.35549306869506836,28.3125,29.5625,28.6875,32.75,35.1875,36.4375
0.1361245050065918,-1.2486838794747654,-1.3447866864748241,-0.3542325149860303,-0.04479581534804038,0.03292967217293917,-0.12510534521155078,-0.38630909675285047,-0.35028572091808463,0.08512886930808425,3.0774985690629357,-0.6252923200432079,-0.0003789043297452356,-0.06590573922984794,-0.011035485297403488,-0.0008583210216294918,-0.014306307567777728,0.002073048267179403,0.0005160148456718194,0.47551411390304565,-1.4155097764781495,1.9452288786517542,-2.0999914608397425,-1.5698297659503382,2.4508628845214844,-0.047627922147512436,0.12158586829900742,-0.1400875598192215,0.01010508369654417,0.011536676436662674,-0.048064760863780975,-0.05746084079146385,0.2298433631658554,-9.02135181427002,0.8090336918830872,47.703006744384766,-1.2992444038391113,-1.9825141429901123,-3.421640396118164,-0.2026090919971466,0.06615098565816879,-0.3194335699081421,28.3125,29.5625,28.6875,32.75,35.1875,36.4375
0.1401442750066053,-2.2588558070373868,-2.2442644917851924,-0.7197147269929369,-0.06788017198511014,0.03389068280203177,-0.11510889071734905,-0.38655931833083707,-0.3503354123117776,0.08512372892058745,3.0774780935899186,-0.6252118649921571,-0.00032652553982536473,-0.06765255541380694,-0.009586820306086269,-0.00172526918319704,-0.013124775765992103,-0.0005544801183174846,-0.0007845575058120849,0.4753444790840149,-1.415016160612442,1.9446538130389612,-2.0999065838255824,-1.5697816053973597,2.450645923614502,-0.051822908222675323,0.12490169703960419,-0.142410010099411,0.011994888074696064,0.01169190276414156,-0.05095812678337097,-0.019153613597154617,0.24899697303771973,-9.366117477416992,0.7933669090270996,47.67792892456055,-1.055250883102417,-1.8778033256530762,-3.3063058853149414,-0.22306036949157715,0.07146724313497543,-0.3455389142036438,28.3125,29.5625,28.6875,32.75,35.1875,36.4375
0.14413651599898003,-1.9826612072099445,-1.8106277914934013,-0.7865392556580777,-0.08107719851350897,0.06951669381557188,-0.126102915937131,-0.3868114646501722,-0.35036003876799,0.08510078305971891,3.0774649106328433,-0.6252432489008438,-0.00021673819375963966,-0.06856309021619024,-0.011068047600167167,-0.0023543634909267124,-0.013271119544050023,-0.0019306512155921264,0.005623382393776834,0.4751291275024414,-1.4145099234632035,1.9441021124469202,-2.0998107395567835,-1.5697334448443812,2.4504520893096924,-0.05044720321893692,0.1299499273300171,-0.14700335264205933,0.012703591957688332,0.012446356005966663,-0.05598864331841469,-0.28730419278144836,0.363918662071228,-9.461885452270508,0.7933669090270996,47.67882537841797,-1.2957781553268433,-1.7887961864471436,-3.4376602172851562,-0.22744858264923096,0.08511215448379517,-0.286834716796875,28.3125,29.5625,28.6875,32.75,35.1875,36.4375
0.1481261699955212,-2.775010835411753,-2.900108118672102,-1.0764524694108444,-0.0862227930737831,0.08354209049508028,-0.1299850606881047,-0.38708767866969485,-0.3504137921955174,0.08509833789692692,3.0774188711841326,-0.6251173560397139,-0.0001997487552414333,-0.07234951173527822,-0.011513443498147983,-0.0004188391704941148,-0.016403226473741313,0.002057823332867512,0.007468940113282294,0.47493594884872437,-1.4139927190593262,1.9435017744647425,-2.0997630558409632,-1.5696728865252894,2.4501864910125732,-0.05362766236066818,0.13170750439167023,-0.15343530476093292,0.012405875138938427,0.013400811702013016,-0.06101147457957268,-0.4405331015586853,0.38307225704193115,-9.730035781860352,0.8291773796081543,47.6895751953125,-1.1809430122375488,-1.836795687675476,-3.4275259971618652,-0.23335745930671692,0.09568333625793457,-0.2157026082277298,28.3125,29.5625,28.6875,32.75,35.1875,36.4375
0.15213350800331682,-2.84367095028806,-3.1223565275828316,-1.0816945782906848,-0.11108044464967293,0.1143406130520572,-0.12598872669245975,-0.38736992271624654,-0.35046509570747125,0.0851077467404237,3.0773459858715055,-0.6250418647192426,-0.00015731805231955685,-0.07405881745188282,-0.01144078693277755,-0.0011514577145503113,-0.015828109170645317,0.0017496953812258895,0.011003485248821845,0.4747196137905121,-1.4134869140437623,1.9428790251361292,-2.0996791325011195,-1.5695894400226038,2.44993257522583,-0.05503736063838005,0.1357433795928955,-0.15634068846702576,0.011826904490590096,0.013031232170760632,-0.06595312058925629,-0.7086837291717529,0.5554547905921936,-9.710882186889648,0.7911257743835449,47.69673538208008,-1.201636791229248,-1.879159688949585,-3.381830930709839,-0.2402787208557129,0.08815047889947891,-0.1301184594631195,28.3125,29.5625,28.6875,32.75,35.1875,36.4375
0.15612476800743025,-2.836866537053525,-2.6303026473023823,-1.1373052640502959,-0.09036054286963635,0.09838737902687456,-0.1190391183554875,-0.3877030697981313,-0.3505006069545056,0.08512748865092423,3.0772902480367654,-0.6249735281675352,-0.0002883389098171593,-0.07714714617627338,-0.011814939030845866,0.0003520718202444999,-0.018122648524100005,0.0062745610524917545,0.009307565346407642,0.47447890043258667,-1.4129578483155747,1.9422195593463343,-2.0996562443175257,-1.5695894400226038,2.4496567249298096,-0.05710369348526001,0.1369074285030365,-0.16076405346393585,0.010016653686761856,0.013000806793570518,-0.06631968170404434,-0.5746084451675415,0.3064578175544739,-9.730035781860352,0.8269415497779846,47.674346923828125,-1.2154934406280518,-1.7581175565719604,-3.3468360900878906,-0.22286362946033478,0.12168239802122116,-0.08668792247772217,28.3125,29.5625,28.6875,32.75,35.1875,36.4375
0.16012616000080016,-1.7944318122007608,-1.4433131601712446,-1.061930597385835,-0.06203655475699855,0.08519644757144391,-0.12769626927682337,-0.3880085109755048,-0.35056788083546125,0.08510386388446828,3.0772094560731116,-0.6249200672837788,-0.00021850518140499725,-0.07954978146233552,-0.011930079212698999,-0.0009775533812014581,-0.01853120536004874,0.005293076544483801,0.005997402996645626,0.4742620885372162,-1.4123432350209733,1.9415600935565394,-2.099632879296774,-1.5694926420794886,2.4494171142578125,-0.05949816480278969,0.14301370084285736,-0.1644539088010788,0.008292202837765217,0.013803889974951744,-0.06540119647979736,-0.4405331015586853,0.2298433631658554,-9.576807022094727,0.8426030278205872,47.7164421081543,-1.156325101852417,-1.7709509134292603,-3.4175684452056885,-0.20134928822517395,0.11214205622673035,-0.040613867342472076,28.3125,29.5625,28.6875,32.75,35.1875,36.4375
0.16412456100806594,-1.5440289968448615,-1.0165105803501442,-0.7549145990438753,-0.05823269747611513,0.07640296322299232,-0.13167588079279438,-0.3883778957557798,-0.35060120165163405,0.0851305789420751,3.077117649554673,-0.6249618764458531,-0.00037576579246996185,-0.0823217140000773,-0.011543197645131462,-0.0017928997186726632,-0.018011854983786012,0.005007619591329063,-0.0014888288883430564,0.4739851951599121,-1.4117769312909623,1.940841023121969,-2.0996090374388636,-1.5694926420794886,2.449178457260132,-0.06241723895072937,0.1484292447566986,-0.1687760055065155,0.00768978102132678,0.013467805460095406,-0.06082935258746147,-0.40222588181495667,0.07661445438861847,-9.557653427124023,0.864982545375824,47.681514739990234,-1.1820464134216309,-2.003453016281128,-3.3617429733276367,-0.15014246106147766,0.12960824370384216,-0.07022016495466232,28.3125,29.5625,28.6875,32.75,35.1875,36.4375
0.1681244829960633,-1.3804197664817979,-1.1672994158603074,-0.6339225440442947,-0.03787465226653891,0.07043339418830645,-0.12939758875800522,-0.38869026515509164,-0.3506502029214253,0.08511240771658327,3.0770272392690785,-0.6249449899189159,-0.00037264786085624906,-0.08290372410322476,-0.011923826703187108,-0.002617937732553939,-0.016969254377394938,0.002875378710089076,-0.005882433056163698,0.4737452566623688,-1.4111990642598649,1.940218750630514,-2.0996204815306605,-1.5694206396686,2.448939800262451,-0.06223336234688759,0.1522655040025711,-0.17174409329891205,0.009196712635457516,0.01351040881127119,-0.05624957010149956,-0.17238251864910126,0.07661445438861847,-9.346963882446289,0.8739365339279175,47.7164421081543,-1.1948094367980957,-2.0958967208862305,-3.4908015727996826,-0.15220987796783447,0.1473020315170288,-0.1418076604604721,28.3125,29.5625,28.6875,32.75,35.1875,36.4375
0.17213751300005242,-1.4163838031463807,-1.2574277330512809,-0.49842936246727104,-0.04217558855395226,0.04855821420871115,-0.12469594267121502,-0.38904154162461385,-0.3506810968039839,0.08511523180201302,3.076953512819647,-0.6249915200704946,-0.00043373171170428375,-0.0861884378530583,-0.010023441668401181,-0.002988844461104323,-0.01699049509342646,0.002453340550154527,-0.014317671597529273,0.47346705198287964,-1.4106090825847168,1.9395235220538538,-2.0995847187437953,-1.5693967978106897,2.448700428009033,-0.06858642399311066,0.15552978217601776,-0.17478179931640625,0.009337964467704296,0.013719421811401844,-0.05416475981473923,-0.13407529890537262,0.038307227194309235,-9.251194953918457,0.8470799922943115,47.71733474731445,-0.9319483041763306,-2.1873319149017334,-3.6071131229400635,-0.12450172007083893,0.16569370031356812,-0.19969742000102997,28.3125,29.5625,28.6875,32.75,35.1875,36.4375
0.17612551599449944,-1.2262756123536662,-1.7070201173678177,-0.37714590410999105,-0.04390070195372765,0.04511536622913409,-0.1223506639778369,-0.38941643245979096,-0.35074562244029395,0.0851239280692403,3.0767972516763393,-0.6250555137906947,-0.0004941582417022469,-0.0891170940998453,-0.011695450799153037,-0.0010795164415729553,-0.019172847507952142,0.005648990689986024,-0.015098286546378431,0.4731910526752472,-1.4099719238332291,1.93876821199526,-2.099584241906637,-1.5693123976336878,2.4484846591949463,-0.06849699467420578,0.1584336757659912,-0.18289119005203247,0.010709984228014946,0.014199024066329002,-0.05328929051756859,-0.2106897532939911,0.19153612852096558,-9.117119789123535,0.8560339212417603,47.68867492675781,-0.9644709825515747,-1.9516228437423706,-3.3595404624938965,-0.10219727456569672,0.1713302731513977,-0.21604159474372864,28.3125,29.5625,28.6875,32.75,35.1875,36.4375
0.1801253320008982,-1.4014555067950945,-1.758453215054957,-0.37039785296413325,-0.06699057970464424,0.044640372961107316,-0.13024182957845915,-0.38974670008846013,-0.3507838830846329,0.08509457041163193,3.0767846527788043,-0.6250925054436266,-0.00041029228343681957,-0.09118340165548945,-0.011256867308673712,-0.0008417345901339373,-0.019356974242499443,0.004782093993547288,-0.017862893304933673,0.47293806076049805,-1.4093103420785447,1.9380491415606897,-2.09948792080068,-1.5692761580096644,2.448256731033325,-0.07138162851333618,0.1611943542957306,-0.1872420608997345,0.012991836294531822,0.014755195938050747,-0.05340803414583206,-0.17238251864910126,0.325611412525177,-9.078812599182129,0.7508436441421509,47.70927429199219,-0.9007459878921509,-1.9090687036514282,-3.340174674987793,-0.11713255196809769,0.1835288107395172,-0.2877025604248047,28.3125,29.5625,28.6875,32.75,35.1875,36.4375
0.1841246459953254,-2.2228866877514997,-2.857453708661211,-0.4821054984182285,-0.09901120680659811,0.07429007200966369,-0.12494654216795426,-0.39013050194033383,-0.3508046345060624,0.08509667206451427,3.0767092019237943,-0.6252675487024297,-0.00042447238637132107,-0.09265735937656665,-0.011181531761719396,-0.0018313408795337755,-0.018367470168393633,0.002183901877968566,-0.01808176873585489,0.47261372208595276,-1.4086601001075287,1.9372709433185022,-2.099391122857565,-1.5692523161517542,2.448051691055298,-0.07292697578668594,0.16621746122837067,-0.19130291044712067,0.01480034552514553,0.015060054138302803,-0.05473189800977707,-0.38307225704193115,0.4596866965293884,-9.289502143859863,0.7978386282920837,47.734352111816406,-0.830959677696228,-1.8142433166503906,-3.3163342475891113,-0.12136077880859375,0.22139424085617065,-0.3292841613292694,28.3125,29.5625,28.6875,32.75,35.1875,36.4375
0.18813808099366724,-2.1834068658222954,-2.6257745226755573,-0.48102633629966474,-0.10445316374705974,0.08619462193542335,-0.13189731765086507,-0.3905149826073963,-0.350850989211943,0.08509368538296802,3.0765292026033544,-0.6254626398139268,-0.0003885232569658905,-0.094802513904165,-0.011605314890376172,-0.00011225216364824545,-0.02129178620108502,0.003937648590916809,-0.020155060573975078,0.4722769856452942,-1.4079993826201935,1.9365056196795862,-2.099354406396383,-1.5691316763507288,2.4478600025177,-0.07507801055908203,0.16645099222660065,-0.19593636691570282,0.016313543543219566,0.016867149621248245,-0.05480683222413063,-0.47884035110473633,0.5171475410461426,-9.346963882446289,0.8112748265266418,47.681514739990234,-0.7746864557266235,-1.8354957103729248,-3.458416223526001,-0.1310376226902008,0.21668457984924316,-0.386333703994751,28.3125,29.5625,28.6875,32.75,35.1875,36.4375
0.1921430100046564,-2.019048137467026,-2.2682779216198927,-0.5347970423491494,-0.07167378273686835,0.06830896522062041,-0.12471392669583435,-0.3909220935839158,-0.35090364689119113,0.08510111343488799,3.0764235311634156,-0.6255180287010961,-0.0005061874778153686,-0.09742792643302832,-0.011752780846615926,-5.924320747940563e-05,-0.023380592289871795,0.005496771170911475,-0.021956460091518734,0.47198811173439026,-1.4073133033565064,1.93569261232485,-2.0993434391417445,-1.5691073576556605,2.447619676589966,-0.0777580589056015,0.1695910543203354,-0.1993175595998764,0.014219829812645912,0.018018068745732307,-0.055681198835372925,-0.3447650372982025,0.325611412525177,-9.193734169006348,0.9030289053916931,47.687782287597656,-0.6395687460899353,-1.8058140277862549,-3.2962584495544434,-0.10400508344173431,0.23024506866931915,-0.4322696924209595,28.3125,29.5625,28.6875,32.75,35.1875,36.4375
0.19620456600387115,-1.6081581289909144,-1.3809808876554377,-0.751644745334682,-0.03563828249031088,0.056774831890321835,-0.12706251314784062,-0.3912909755698781,-0.3509795918901636,0.08508677637723841,3.076309864930767,-0.6255321271622267,-0.0003845582041831862,-0.09972605578929467,-0.011663430755937234,-0.002294802322903288,-0.02243029983759146,0.002598663741692463,-0.021273934730939435,0.47171127796173096,-1.4065898817828675,1.9348662535296839,-2.0992475948729457,-1.5689752737628382,2.44736647605896,-0.08015922456979752,0.17764580249786377,-0.2034616321325302,0.013338513672351837,0.018487123772501945,-0.05876164510846138,-0.2298433631658554,0.19153614342212677,-9.404424667358398,0.8045620322227478,47.6895751953125,-0.6761627793312073,-1.9121770858764648,-3.3714351654052734,-0.08316092193126678,0.23937608301639557,-0.5033482313156128,28.3125,29.5625,28.6875,32.75,35.1875,36.4375
0.20017950699548237,-1.640117347762048,-1.120062063045077,-0.4651070898324265,-0.03578743028718118,0.06832536385448576,-0.12789285055882232,-0.39170074530104754,-0.35103241644982286,0.08508004347235784,3.076192081625829,-0.6256171303084329,-0.00042294057971991445,-0.10062036257686995,-0.013157990909031053,-0.0017265244165286782,-0.023682869994222894,0.0033926106447033774,-0.012252867627128794,0.47139978408813477,-1.4058685314706345,1.9340408484088343,-2.0992237530150355,-1.5689147154437464,2.4471235275268555,-0.07868918776512146,0.17988379299640656,-0.2076190859079361,0.01400155108422041,0.019256576895713806,-0.06630915403366089,-0.24899697303771973,0.0,-9.27034854888916,0.8157517910003662,47.66628646850586,-0.7729218602180481,-1.951619267463684,-3.418638229370117,-0.04225726053118706,0.24979925155639648,-0.4364808201789856,28.3125,29.5625,28.6875,32.75,35.1875,36.4375
0.20413707199622877,-1.7715924627926047,-1.266050477363428,-0.6421474800578673,-0.028181048570108815,0.049049037399216414,-0.12078250558602202,-0.3921351503867977,-0.3510713365511234,0.0850767641787957,3.0760830688410308,-0.6256445524781502,-0.0004073722555241794,-0.10248689738784499,-0.014365959490446903,-0.0022677337173570788,-0.02308780202059679,0.0008380032254882775,0.0012849339149213768,0.4708839952945709,-1.4047130209258576,1.9327481428729456,-2.09910311321401,-1.5688427130328577,2.446662664413452,-0.07845927774906158,0.18675647675991058,-0.21533124148845673,0.017424238845705986,0.019907649606466293,-0.07961297780275345,0.0,0.05746084079146385,-9.327810287475586,0.8761723637580872,47.67882537841797,-0.8634853959083557,-2.1579697132110596,-3.454802989959717,-0.05212054401636124,0.26322150230407715,-0.3089156746864319,28.3125,29.5625,28.6875,32.75,35.1875,36.4375
0.20831469200493302,-1.012407622258766,-1.345184064802505,-0.64865831554,-0.051195055827937624,0.053553324627050466,-0.1354781718800789,-0.39253579316106246,-0.3510979348338315,0.0850276645293723,3.07610031456449,-0.6256829383497976,-0.0003573524340720747,-0.10290997709984691,-0.014244321135521607,-0.0034883511543768713,-0.02190623584440867,-0.0013311435872104497,0.004157489288073565,0.4707159399986267,-1.4043278110078354,1.9323414007769983,-2.0990792713561,-1.5688307921039026,2.44649338722229,-0.07895710319280624,0.19013915956020355,-0.216633602976799,0.01782379113137722,0.01984395459294319,-0.08298252522945404,-0.07661445438861847,0.15322890877723694,-9.346963882446289,0.8403671979904175,47.723602294921875,-0.8129720091819763,-2.0999488830566406,-3.4577693939208984,-0.043946459889411926,0.27342844009399414,-0.2748377323150635,28.3125,29.5625,28.6875,32.75,35.1875,36.4375
0.2121445560042048,-0.9717627822982204,-2.2144893252012845,-0.81165503859054,-0.06862469633166601,0.046661447524477866,-0.12718149715401547,-0.3929326763241652,-0.3511621269316793,0.08501388210984626,3.07602568407231,-0.6255678213350787,-0.0003013853328994922,-0.10315363965040891,-0.01477837065661026,-0.003354030225416322,-0.022022706873498114,-0.001877595351638332,0.010049124446896998,0.47041618824005127,-1.4035826188376923,1.9314916769610804,-2.099006315270895,-1.5687344709979456,2.446131706237793,-0.07834618538618088,0.19135312736034393,-0.2188030332326889,0.019236503168940544,0.020208491012454033,-0.08826189488172531,-0.019153613597154617,0.3064578175544739,-9.423578262329102,0.8560339212417603,47.68867492675781,-0.9336893558502197,-2.127501964569092,-3.486363410949707,-0.06454296410083771,0.29291024804115295,-0.19618535041809082,28.3125,29.5625,28.6875,32.75,35.1875,36.4375
0.21613511600298807,-1.3183496343656502,-2.488025590985327,-1.0597502148650757,-0.10111060437329744,0.035470267424912744,-0.1286791289759699,-0.3933520182453119,-0.3512149320363602,0.08500479570736652,3.07596808416283,-0.6254992345327716,-0.0002555125308855009,-0.10626491472962783,-0.01503711300908079,-0.0021145348179101593,-0.024241293186092062,0.0006771353772946072,0.006504996845645039,0.47009119391441345,-1.4028127950480958,1.930594269429342,-2.098899026910299,-1.568662468587057,2.4457716941833496,-0.08103135228157043,0.19353452324867249,-0.2243075966835022,0.019285565242171288,0.02102023735642433,-0.08739975839853287,0.1149216815829277,0.49799394607543945,-9.500192642211914,0.7911257743835449,47.69853210449219,-0.8953981399536133,-2.190608024597168,-3.4824888706207275,-0.07173649966716766,0.30232757329940796,-0.1299186497926712,28.3125,29.5625,28.6875,32.75,35.1875,36.4375
0.22014261000731494,-1.1929693839114652,-3.296549143796649,-1.28059028601969,-0.09281636685798889,0.04362792110498457,-0.11739260764615782,-0.3937605379129309,-0.3512775378365051,0.08496212735345665,3.075924444000565,-0.6254166821556817,-0.00012657051699289175,-0.10802417169870966,-0.015808959541833718,-0.0021595640850137765,-0.024679145292518093,0.0008174624373025976,-0.00024155826391566992,0.4697791337966919,-1.4019828599742432,1.9297083059894007,-2.0988151035704554,-1.5685661474811,2.4454140663146973,-0.08131749927997589,0.1974644958972931,-0.22903010249137878,0.01975533366203308,0.021327661350369453,-0.08093750476837158,-0.019153613597154617,0.40222588181495667,-9.519346237182617,0.965690553188324,47.731666564941406,-0.9813103675842285,-2.086214065551758,-3.416816234588623,-0.05645419657230377,0.32233741879463196,-0.16270624101161957,28.3125,29.5625,28.6875,32.75,35.1875,36.4375
0.2241717279976001,-1.4221447580929019,-3.200517693739875,-1.219869357961942,-0.09954888262717157,0.046911456253548506,-0.11745689017223823,-0.3942202704038549,-0.35133352775778387,0.08496868085114362,3.0758164130326597,-0.6254551429374963,-0.00016354630739317782,-0.10919664801042081,-0.016628444438526756,-0.0017473747476314467,-0.026388486646626925,0.0011372179183014406,-0.006811003749813541,0.4694311022758484,-1.40118923903022,1.9287517706500452,-2.0987311802306117,-1.56850511232485,2.4451043605804443,-0.08160484582185745,0.19935154914855957,-0.23240329325199127,0.020177092403173447,0.022699983790516853,-0.074651800096035,-0.038307227194309235,0.5363011360168457,-9.59596061706543,0.8426030278205872,47.66718673706055,-1.0308618545532227,-2.078615188598633,-3.6108078956604004,-0.05900051072239876,0.3251746892929077,-0.21145716309547424,28.3125,29.5625,28.6875,32.75,35.1875,36.4375
0.22817443900567014,-0.8478284600096381,-2.5104716458717933,-1.2068760359570685,-0.07527674671838955,0.05835793341744459,-0.12457940858588822,-0.3946523467349542,-0.35139673031225577,0.08494437290517073,3.0757312461111344,-0.6254362288867732,-0.00011993505353181846,-0.11160092209861855,-0.01790818164241948,-0.0009667829834481006,-0.02944575989284755,0.0035117122795562633,-0.007708654094808642,0.46910709142684937,-1.400371493106224,1.9278424421893519,-2.0986715755858363,-1.568420712147848,2.444779872894287,-0.08235091716051102,0.2021981179714203,-0.23731832206249237,0.01875290833413601,0.02434571646153927,-0.07449634373188019,0.09576806426048279,0.4596867263317108,-9.653421401977539,0.8739365339279175,47.68240737915039,-0.957133412361145,-2.025301933288574,-3.5076653957366943,-0.03472398221492767,0.32325196266174316,-0.2842298448085785,28.3125,29.5625,28.6875,32.75,35.1875,36.4375
0.23216969599889126,-1.0893523323534535,-1.7767678827635895,-1.0326258050547508,-0.06591741491752727,0.0554282715794832,-0.12886171202252725,-0.395097960333953,-0.35147777341536846,0.08493986390998595,3.075585589594847,-0.6255430475588947,-5.469095105977001e-05,-0.1129877367368024,-0.017286563968714773,-0.0024203598066257124,-0.02858495488832385,0.00042363614527240773,-0.01167595018460521,0.468781977891922,-1.399540976887085,1.926861588154928,-2.0985638103880824,-1.568301026021139,2.444540500640869,-0.08490392565727234,0.2069731056690216,-0.23995472490787506,0.019769582897424698,0.024975281208753586,-0.07307935506105423,-0.05746084079146385,0.24899697303771973,-9.557653427124023,0.9119828343391418,47.703006744384766,-0.9938347339630127,-2.1160385608673096,-3.506349802017212,-0.029745088890194893,0.3207419812679291,-0.31254374980926514,28.3125,29.5625,28.6875,32.75,35.1875,36.4375
0.23614455699862447,-1.4433377488457597,-2.1902092286493837,-1.008406472714057,-0.06679860895720184,0.05658445151307834,-0.12139326545196556,-0.39554629850927764,-0.351570468983102,0.08493912035109463,3.075430336666361,-0.6255487907092266,-7.681511166495424e-05,-0.11533060065314474,-0.018144706002085245,-0.0011077994628026255,-0.03009708304683818,0.0029803898257895383,-0.012301482802395902,0.46848195791244507,-1.398723692899086,1.9259031454669397,-2.0985270939269007,-1.5681927839862269,2.4442644119262695,-0.08547209948301315,0.2089446634054184,-0.24555028975009918,0.020444294437766075,0.025170817971229553,-0.07301698625087738,-0.05746084079146385,0.13407529890537262,-9.442731857299805,0.8403671979904175,47.69584274291992,-1.0754276514053345,-2.174938678741455,-3.575526237487793,-0.027350077405571938,0.3374335765838623,-0.3560241460800171,28.3125,29.5625,28.6875,32.75,35.1875,36.4375
0.24013679000199772,-1.3287833122508703,-1.717496149014586,-0.7487802122885682,-0.05910592622356919,0.05629169407615536,-0.12492244543793922,-0.396006730042131,-0.35164138465728834,0.08491499212959622,3.0753162388485853,-0.6255435293123971,-2.253573075230134e-05,-0.11802392533351246,-0.019353370473620905,-0.0019054887123645455,-0.03149139458605512,0.001705814736450689,-0.011597308210405513,0.4681335389614105,-1.3978567582419892,1.924934212361471,-2.0984674892821253,-1.5680840651141565,2.443927764892578,-0.08667720854282379,0.21622982621192932,-0.25241827964782715,0.020550627261400223,0.02698812074959278,-0.07492037862539291,-0.17238251864910126,0.15322890877723694,-9.346963882446289,0.8582697510719299,47.69853210449219,-1.1036231517791748,-2.1351566314697266,-3.4866132736206055,0.012336518615484238,0.3215859532356262,-0.36770662665367126,28.3125,29.5625,28.6875,32.75,35.1875,36.4375
0.24414256500313058,-2.035137147469454,-1.59625012369837,-0.8179743798366754,-0.04183361136331683,0.050778197382957885,-0.12014479694397358,-0.39649413138603856,-0.35170474855984735,0.08490387393550114,3.0751649959960132,-0.6256820141407353,1.5259257242620188e-05,-0.12032364084772872,-0.01944252431248763,-0.0006967939549904737,-0.03216662028356695,0.0032436756118865953,-0.007551685656152413,0.4677489995956421,-1.3969789755395432,1.9239166418658655,-2.0983830891051234,-1.5679758230792444,2.4436495304107666,-0.08835627883672714,0.21785271167755127,-0.257699579000473,0.02256634645164013,0.026912787929177284,-0.08064181357622147,-0.28730419278144836,0.19153612852096558,-9.308656692504883,0.9298853874206543,47.69584274291992,-1.0563970804214478,-2.179006338119507,-3.406324625015259,0.02020559087395668,0.3165634870529175,-0.35348939895629883,28.3125,29.5625,28.6875,32.75,35.1875,36.4375
0.24814867299573962,-2.7688314494250488,-2.0519874879637134,-1.0364123196382509,-0.042581551124331936,0.07926472891801005,-0.11215941661373911,-0.396970089721166,-0.3517937539834712,0.08490996997065917,3.0750579383272254,-0.6255783733936529,7.303694512559112e-05,-0.12279380933694464,-0.020659708614471455,0.0018053726745072922,-0.035305338510612364,0.005609048901337081,-0.00019872817087161765,0.4674127995967865,-1.3961022657207032,1.9228466192828577,-2.0982381306090296,-1.5678556601153772,2.443262815475464,-0.0892970934510231,0.21853458881378174,-0.2651009261608124,0.02579580433666706,0.028668006882071495,-0.0889306589961052,-0.4405331015586853,0.3064578175544739,-9.346963882446289,0.8627467155456543,47.705692291259766,-1.0981872081756592,-2.149066925048828,-3.3218469619750977,-0.035419024527072906,0.32044726610183716,-0.2765513062477112,28.3125,29.5625,28.6875,32.75,35.1875,36.4375
0.25213340600021183,-2.7671551143965436,-2.089703836563639,-0.914160529162183,-0.08185517985314045,0.10672872306974296,-0.1219174013973725,-0.3974375794887207,-0.35186364392185693,0.08489631492290367,3.0749712573561974,-0.6254803729622497,0.0001735845153898011,-0.12376872375467346,-0.019316203964124045,0.001989447591137536,-0.03593294139187916,0.003740923954935025,0.0034513911497621175,0.4670511782169342,-1.3952252578786393,1.9218233267413538,-2.098105569879049,-1.5677350203143519,2.4428515434265137,-0.09316856414079666,0.2184511125087738,-0.2661893665790558,0.028391404077410698,0.03009817562997341,-0.09645126014947891,-0.5937620401382446,0.3064578175544739,-9.442731857299805,0.8940802216529846,47.73883056640625,-0.8058705925941467,-2.046565532684326,-3.5157980918884277,-0.05562913417816162,0.27892664074897766,-0.16400425136089325,28.3125,29.5625,28.6875,32.75,35.1875,36.4375
0.25614353599667083,-2.876219019437318,-2.263546262403088,-1.1394525210237731,-0.06122359432742591,0.09300955010899027,-0.11692160396279988,-0.39794505206818315,-0.3519300987121198,0.08489346365882763,3.074809036386919,-0.6255054380402005,0.00020618360351276556,-0.12456250054457457,-0.01803893501145755,0.0004160304714257683,-0.035845563777104204,-0.0006884947701899114,0.0016227123952279876,0.4666420817375183,-1.3943355840495606,1.9207709471331995,-2.098021169702047,-1.5676024595843714,2.442479372024536,-0.09703964740037918,0.22165583074092865,-0.26687201857566833,0.029889069497585297,0.03203485906124115,-0.09848969429731369,-0.6129156351089478,0.17238251864910126,-9.53849983215332,0.8784134984016418,47.67882537841797,-0.8856436610221863,-1.900036334991455,-3.666459083557129,-0.09966675937175751,0.24037478864192963,-0.08249669522047043,28.3125,29.5625,28.6875,32.75,35.1875,36.4375
0.2601297109940788,-1.8880373846816785,-0.9768507574926215,-1.1322349253783726,-0.035527225334149634,0.07950280889356624,-0.11967672399435263,-0.39844797192401354,-0.3520104621523299,0.08487879192457831,3.074700642730763,-0.6254276452401163,0.0002703001501769026,-0.1281706544190213,-0.01804235763407941,0.0007823735317774241,-0.0358906658665515,0.0014494371750135562,-0.00532776938376911,0.46626928448677063,-1.3933971536210557,1.9196823279010218,-2.0979134045042933,-1.5674827734576624,2.4420723915100098,-0.09949187189340591,0.22641204297542572,-0.2734406292438507,0.0297845471650362,0.03109896555542946,-0.09398772567510605,-0.47884035110473633,0.019153613597154617,-9.653421401977539,0.8940802216529846,47.686885833740234,-0.7519006729125977,-1.8977192640304565,-3.703573703765869,-0.10582300275564194,0.22022457420825958,-0.0948876217007637,28.3125,29.5625,28.6875,32.75,35.1875,36.4375
0.2641321099945344,-1.960262101025802,-1.25270406308599,-1.286678535582467,-0.027721476315961405,0.06247206046146431,-0.12684435378064898,-0.3989907184515355,-0.35207958500878656,0.08490207372935474,3.0745113125088284,-0.625487502883924,0.00020332876259445966,-0.12885644270556795,-0.018360680972789995,-0.002008738191770984,-0.03523298606218051,-0.004396912199307879,-0.013120868859961388,0.4658491611480713,-1.3925053191236039,1.9185665289508265,-2.0978294811644496,-1.567374054585592,2.4417145252227783,-0.1005411446094513,0.23409830033779144,-0.2764642834663391,0.0306345596909523,0.033136751502752304,-0.08723561465740204,-0.325611412525177,0.13407529890537262,-9.576807022094727,0.8806493282318115,47.705692291259766,-0.7890164852142334,-2.1945769786834717,-3.599421501159668,-0.13909022510051727,0.17791539430618286,-0.15333208441734314,28.3125,29.5625,28.6875,32.75,35.1875,36.4375
0.2681291930057341,-1.9574862676466118,-2.4275353332488008,-0.9811518582128208,-0.08162104012854571,0.08289182030008052,-0.11849131356015867,-0.399520881398098,-0.35215947809109593,0.08490952685806913,3.074345006520865,-0.6255904330819317,0.0002274347962314944,-0.13270176156566052,-0.019643854502273708,-0.00010614672868736678,-0.03603783706895662,-0.0014392221686711543,-0.019225267210137537,0.46545282006263733,-1.3915667843869706,1.9174202124225062,-2.097696920434469,-1.567253891621725,2.441404342651367,-0.10113957524299622,0.2386099249124527,-0.28696516156196594,0.03362683579325676,0.032509904354810715,-0.08172345161437988,-0.2298433631658554,0.24899697303771973,-9.53849983215332,0.9164597988128662,47.72270965576172,-0.7179560661315918,-2.101167917251587,-3.3930325508117676,-0.1799042522907257,0.17674565315246582,-0.23855143785476685,28.3125,29.5625,28.6875,32.75,35.1875,36.4375
0.272129581993795,-1.3391166243283998,-2.733399133467824,-1.4015218466678414,-0.07471443144142392,0.06448957644991878,-0.11682017439225326,-0.4000445954889182,-0.3522273969263289,0.08491539864401393,3.074229504635092,-0.6256629537685384,0.00027664294630648013,-0.13346983846702704,-0.018935795603319983,-0.00016687417493008692,-0.03572324755832256,-0.00282197820844471,-0.02223739269253605,0.46505624055862427,-1.390629918580391,1.9162676970111292,-2.0975166759886683,-1.567158047352926,2.441068410873413,-0.10305200517177582,0.23961152136325836,-0.2886895537376404,0.03574248403310776,0.03285586088895798,-0.08062213659286499,-0.2106897532939911,0.363918662071228,-9.634267807006836,0.8224645853042603,47.70121383666992,-0.7407033443450928,-2.108121633529663,-3.4137232303619385,-0.21705351769924164,0.12997624278068542,-0.32449257373809814,28.3125,29.5625,28.6875,32.75,35.1875,36.4375
0.27612921099353116,-1.3287958396631876,-2.8731097339397746,-1.216889064917247,-0.1022886700238815,0.04621918054866668,-0.1129153577204464,-0.4005813314148513,-0.35229616108323053,0.08490645794676635,3.074075518928859,-0.6258247448850891,0.0003468629672846593,-0.13392974825055512,-0.019100519694433098,-0.0004874217695391361,-0.034365685527355826,-0.0030417310047181362,-0.02536725103577482,0.4646366536617279,-1.3896562171033402,1.9151132742511194,-2.097373148004049,-1.567038361226217,2.440770149230957,-0.1023261770606041,0.24165423214435577,-0.2907710671424866,0.036599837243556976,0.03173668682575226,-0.07676591724157333,-0.019153613597154617,0.4405331015586853,-9.653421401977539,0.9119828343391418,47.694053649902344,-0.8624259233474731,-1.875793218612671,-3.6809215545654297,-0.2983425259590149,0.1307087242603302,-0.4212275743484497,28.3125,29.5625,28.6875,32.75,35.1875,36.4375
0.2801463649957441,-1.404096378127871,-2.0538028057497364,-1.0848900135855444,-0.07884671593860398,0.038993128066554354,-0.11564272874853737,-0.4011431114524996,-0.3524015379499372,0.08492959674620029,3.073850353679501,-0.6258917930677875,0.00027195318960477683,-0.13721507501170027,-0.020184464818715015,0.001720400656515618,-0.0383636658470298,0.0030973655970274955,-0.02522426230903077,0.46425214409828186,-1.3886951071074982,1.9139164129840296,-2.097302099267477,-1.5669062773333948,2.4404571056365967,-0.10360049456357956,0.24209819734096527,-0.295944482088089,0.03407476842403412,0.03256678953766823,-0.07817497104406357,0.17238251864910126,0.363918662071228,-9.461885452270508,0.8963160514831543,47.711063385009766,-0.824390709400177,-1.8290119171142578,-3.591219425201416,-0.2877180576324463,0.10700701177120209,-0.46568119525909424,28.3125,29.5625,28.6875,32.75,35.1875,36.4375
0.28412938700057566,-0.9036338532893413,-1.4459223512364585,-0.8953392057626205,-0.040060155651331794,0.033396332392185174,-0.12506235308765792,-0.401721775692686,-0.35247376515205,0.08493738939326484,3.0736550855766525,-0.6260389901235255,0.00028805710813892385,-0.14086395956395265,-0.022142873422851355,0.003403811315848418,-0.04154973935498747,0.008244513405614426,-0.01811744040975591,0.4637961983680725,-1.3876968187144776,1.9126961866961878,-2.097170969048971,-1.5667737166034144,2.4401187896728516,-0.10350301861763,0.24581775069236755,-0.3039824962615967,0.03241540864109993,0.03312823921442032,-0.08517710864543915,0.17238251864910126,0.3064578175544739,-9.28950309753418,0.9030289053916931,47.700321197509766,-0.8864657878875732,-1.7796727418899536,-3.504045009613037,-0.294567734003067,0.08087219297885895,-0.49117976427078247,28.3125,29.5625,28.6875,32.75,35.1875,36.4375
0.2881294329999946,-0.9481668710276396,-1.50399469863918,-1.0586626885313863,-0.046119677720556335,0.025737882134229687,-0.11797159662114362,-0.40225469628314997,-0.3525666631122892,0.08494796234816548,3.0735053335117635,-0.6260197972912028,0.00029278969297519085,-0.1429603362927649,-0.022160584741506145,0.001525977902245298,-0.03920115057766764,0.006888714056859923,-0.007343104490223865,0.4634242653846741,-1.3867453348687668,1.9115236441241663,-2.097039361993307,-1.5666545073138636,2.4397547245025635,-0.10426308959722519,0.2531817853450775,-0.3084683418273926,0.031874511390924454,0.03167319670319557,-0.09670833498239517,0.13407529890537262,0.4405331015586853,-9.385271072387695,0.8940802216529846,47.69584274291992,-1.0615628957748413,-2.002556324005127,-3.502443790435791,-0.2999100983142853,0.06284286081790924,-0.4045521914958954,28.3125,29.5625,28.6875,32.75,35.1875,36.4375
0.2921276690030936,-1.5744177930708454,-3.080979102266013,-0.9567924697978316,-0.1057830942821189,0.06602309142110913,-0.12600308809609664,-0.4028491350417796,-0.3526424073195144,0.08497886335557858,3.0733363553477293,-0.6260536858325924,0.00034110317348410695,-0.14485462999592888,-0.022416550041303017,0.002226164434281067,-0.03767999772394119,0.009484930745650332,0.0045577926948996705,0.46295636892318726,-1.3857361835292359,1.9102142492877405,-2.096811433831686,-1.5665114561664026,2.4393303394317627,-0.10380790382623672,0.25549107789993286,-0.31321683526039124,0.03275606408715248,0.029196560382843018,-0.10815415531396866,-0.05746084079146385,0.4596867263317108,-9.461885452270508,0.9231725931167603,47.68061828613281,-1.1225347518920898,-1.8645676374435425,-3.515977382659912,-0.33068719506263733,0.08287092298269272,-0.28051143884658813,28.3125,29.5625,28.6875,32.75,35.1875,36.4375
0.29612844000803307,-1.6431995930313468,-2.7591844628549023,-1.0418358723627397,-0.1175613618698407,0.08194279003165349,-0.13016992405700104,-0.4034196641705412,-0.3527439730085981,0.08497282514448057,3.0732336655094454,-0.625932929711794,0.00027638498852699416,-0.14574416940629029,-0.021259737117530472,0.0006168549506865947,-0.03509220227919424,0.00836702673477541,0.00896605555611478,0.4625958502292633,-1.3846897196820755,1.9089768568622034,-2.0967284641661585,-1.5664399305926722,2.438908338546753,-0.10534589737653732,0.25874271988868713,-0.3134574294090271,0.03195073455572128,0.027416285127401352,-0.11410027742385864,-0.1149216815829277,0.47884032130241394,-9.615114212036133,0.9186956286430359,47.70927429199219,-1.0854027271270752,-1.9555304050445557,-3.6585912704467773,-0.3404160439968109,0.10888509452342987,-0.17571833729743958,28.3125,29.5625,28.6875,32.75,35.1875,36.4375
0.30014156199467834,-1.840177791194509,-2.5103183790156836,-0.9945555695433513,-0.08834678248025497,0.0640510465373888,-0.11440325706220912,-0.40401859041159544,-0.3528566242492935,0.08499232399474521,3.073036903293271,-0.6257995239744136,0.0002663877392017114,-0.14956669728922467,-0.022158545328079052,0.0014604147634886884,-0.037771202830661675,0.013140865143275978,0.0029041949158008923,0.4621751308441162,-1.383643091922142,1.9076722303973597,-2.0966092548766078,-1.5662720839129847,2.4384303092956543,-0.10702793300151825,0.26256418228149414,-0.31934982538223267,0.028564797714352608,0.02767597883939743,-0.10971347242593765,-0.2298433631658554,0.3447650372982025,-9.289502143859863,0.9634547233581543,47.67882537841797,-1.0389176607131958,-1.832327127456665,-3.6743078231811523,-0.31134775280952454,0.10706517100334167,-0.1729060262441635,28.3125,29.5625,28.6875,32.75,35.1875,36.4375
0.30412932799663395,-2.2672951975141062,-1.7240934050096905,-0.997809993844197,-0.04803605633316396,0.04493377377358959,-0.10858108176676154,-0.40461211484087795,-0.3529463918374539,0.08499100396078274,3.0728837890770233,-0.6257933702914052,0.00024132457558625364,-0.15328255772549,-0.02303294667813269,0.0032473805846088013,-0.040092715574881206,0.018575990957300923,-0.00992646701720469,0.4617549180984497,-1.382585273390152,1.9064033667193812,-2.0965024433531703,-1.5661638418780726,2.4380266666412354,-0.10828668624162674,0.2648569345474243,-0.32601305842399597,0.027007801458239555,0.027299271896481514,-0.09813669323921204,-0.325611412525177,0.3064578175544739,-9.327810287475586,0.8426030278205872,47.6949462890625,-1.0738246440887451,-1.9101582765579224,-3.5194246768951416,-0.2685360014438629,0.12229913473129272,-0.28157708048820496,28.3125,29.5625,28.6875,32.75,35.1875,36.4375
0.3081267969973851,-2.0459729459846425,-1.5147023850668995,-0.8008387658221297,-0.04780179415982422,0.0956811705991214,-0.12747224809786192,-0.4052591988689531,-0.3530492533439681,0.08503958532234396,3.0726101577112,-0.6258904359366014,8.019324874524774e-05,-0.15564509371591193,-0.02317051266003375,0.002750627194778078,-0.039706926333175414,0.019814756636287664,-0.0129763259560578,0.4612986147403717,-1.3815509539893647,1.905053440724508,-2.096419473687643,-1.5660322348224085,2.43766713142395,-0.10933205485343933,0.26935136318206787,-0.33014607429504395,0.025728410109877586,0.02642158418893814,-0.09612595289945602,-0.4405331015586853,0.2298433631658554,-9.366117477416992,0.9298853874206543,47.685096740722656,-0.997111976146698,-1.8001935482025146,-3.508500099182129,-0.21720126271247864,0.14738723635673523,-0.3197667598724365,28.3125,29.5625,28.6875,32.75,35.1875,36.4375
0.3121424559940351,-3.074881825734094,-1.7908508078868697,-0.7968287018804863,-0.06495169010082871,0.11616152240063193,-0.11634943310614726,-0.4058713933235691,-0.35315814793980566,0.08504063112541019,3.0724633383180096,-0.625841471679094,8.044529993276635e-05,-0.15683869969566613,-0.022571644379528143,0.0015533046151140983,-0.03814169415903641,0.016450482165785763,-0.015227150839001016,0.46089017391204834,-1.380432592039444,1.9036968390094202,-2.096274038354391,-1.5659120718585413,2.4372477531433105,-0.1112220287322998,0.27390292286872864,-0.33370938897132874,0.02847006730735302,0.0265363696962595,-0.09576132893562317,-0.6129156351089478,0.1149216815829277,-9.346963882446289,0.9276495575904846,47.66718673706055,-0.9388105869293213,-1.7856261730194092,-3.404057264328003,-0.21882084012031555,0.15602581202983856,-0.3712332844734192,28.3125,29.5625,28.6875,32.75,35.1875,36.4375
0.31612812100502197,-2.4016083083861206,-0.9857681064509465,-0.5836656845810616,-0.04647492548718074,0.129007533465361,-0.1283885289017344,-0.4065174729610499,-0.35324717619212587,0.08503995992737148,3.072263429169659,-0.6259513328030513,-2.2044887421609427e-05,-0.15907930432584938,-0.022738622821623755,0.0007858035903814415,-0.038290648271402536,0.0168125655206534,-0.013006191522643373,0.4604334831237793,-1.3793134105256577,1.9023616949664515,-2.096214910546774,-1.5658162275897425,2.4368863105773926,-0.11260852217674255,0.2787076234817505,-0.33765363693237305,0.027258334681391716,0.02654055319726467,-0.0993630439043045,-0.5746084451675415,0.1149216815829277,-9.27034854888916,0.9477880001068115,47.6895751953125,-1.017270803451538,-1.891404628753662,-3.606494426727295,-0.19070139527320862,0.16065749526023865,-0.3810752332210541,28.3125,29.5625,28.6875,32.75,35.1875,36.4375
0.3201257600012468,-2.170775202386262,-1.0755529687397598,-0.2301558570372802,-0.04714193156590563,0.09935349346289626,-0.1187743711502305,-0.40719131791362645,-0.3533194043632149,0.08504330691352646,3.072106142217658,-0.6260283077671359,-0.00017829880433767098,-0.16209025078815562,-0.022658057503758815,0.0010853223079758444,-0.03720857265683192,0.019375708416259612,-0.00511922646228663,0.4599531590938568,-1.378171594148018,1.9009864966021937,-2.0961433849730433,-1.5657690207110804,2.4364752769470215,-0.11388185620307922,0.2827412784099579,-0.34339895844459534,0.027224214747548103,0.024488316848874092,-0.10852234065532684,-0.5554547905921936,0.15322890877723694,-9.232041358947754,0.9477880001068115,47.70927429199219,-1.0360212326049805,-1.8933322429656982,-3.544224262237549,-0.134256049990654,0.20617952942848206,-0.3117824196815491,28.3125,29.5625,28.6875,32.75,35.1875,36.4375
0.3241269959980855,-2.187234633478751,-1.689583534504878,-0.5021530497175343,-0.052656625941192844,0.04745870973385973,-0.11358230810978154,-0.40784656049303325,-0.3534266542923648,0.08504682706650038,3.071934185290267,-0.6259884573668436,-0.00022463873650441143,-0.16513669661714828,-0.022261715803144785,0.0021227881057775985,-0.03873811744454305,0.020683182960762582,0.0006968881975672608,0.4595080018043518,-1.377005399470665,1.8995698134051722,-2.096022745172018,-1.5656488577472132,2.436028242111206,-0.11738937348127365,0.28495579957962036,-0.3490547835826874,0.028883712366223335,0.02533816173672676,-0.11783920228481293,-0.40222588181495667,0.3064578175544739,-9.174580574035645,0.9679316878318787,47.67613983154297,-0.8983224034309387,-1.7755112648010254,-3.5395383834838867,-0.08821561932563782,0.23191368579864502,-0.20643386244773865,28.3125,29.5625,28.6875,32.75,35.1875,36.4375
0.3281260149960872,-1.4533164263573664,-1.7471334424398548,-0.1017075547824444,-0.0695269170315057,0.053219494883603405,-0.11910486708316809,-0.40849640849889507,-0.3534941524766883,0.08501294673435017,3.0718448266963505,-0.6259483374312089,-0.00023175161622015933,-0.16616421121106462,-0.022775890300534295,0.00283108197483726,-0.03875830083329935,0.020334341190545138,0.004925733944731253,0.4590279757976532,-1.375815601353981,1.8982113043414515,-2.0959140262999476,-1.5655768553363245,2.435535430908203,-0.1172381266951561,0.2867222726345062,-0.3538397550582886,0.03224721923470497,0.025549232959747314,-0.1219138354063034,-0.4405331015586853,0.28730422258377075,-8.925583839416504,0.9343623518943787,47.71464920043945,-0.845270037651062,-1.7161662578582764,-3.385219097137451,-0.0825224369764328,0.2766261100769043,-0.07712115347385406,28.3125,29.5625,28.6875,32.75,35.1875,36.4375
0.3321265660051722,-1.7697693011342357,-1.5390498504310473,-0.25665460789779276,-0.05917218571726107,0.07560028760476552,-0.1191532825408212,-0.40917926048363307,-0.35355088244241134,0.08501931648843264,3.071673448540414,-0.6260880311584656,-0.0002642113891927283,-0.16729739917565825,-0.023648377772322954,0.0024246081781386644,-0.040220508553953024,0.01809967971714313,-0.0019684665975107513,0.4584881365299225,-1.374660612349846,1.8967879454242151,-2.095745702783102,-1.565479580556051,2.435105800628662,-0.11773377656936646,0.2907666862010956,-0.3584496080875397,0.03415340185165405,0.027847545221447945,-0.11550472676753998,-0.26815056800842285,0.3064578175544739,-9.078812599182129,0.9298853874206543,47.70121383666992,-0.969188928604126,-1.9052488803863525,-3.504140853881836,-0.07377435266971588,0.29729169607162476,-0.09284229576587677,28.3125,29.5625,28.6875,32.75,35.1875,36.4375
0.33612588299729396,-1.7931276383551895,-1.5199097810661493,-0.23298447588700863,-0.05913698510701021,0.06816702858172186,-0.11325357291875528,-0.4098337125525003,-0.35365309713269455,0.08499602637796966,3.071534585158428,-0.6260637323142388,-0.0002091423355147293,-0.16840824107892655,-0.02311628264016809,7.164432897484654e-05,-0.03869059077071788,0.012896932213550524,-0.011890392395524446,0.45803141593933105,-1.373433606033661,1.8953478972064417,-2.0955893001952113,-1.5653474966632288,2.43465256690979,-0.11984162032604218,0.29740166664123535,-0.36178717017173767,0.036181941628456116,0.02876128815114498,-0.10768504440784454,-0.3447650372982025,0.3447650372982025,-9.040505409240723,0.938839316368103,47.70748519897461,-0.9254858493804932,-1.964550256729126,-3.5254604816436768,-0.03884635865688324,0.3002241849899292,-0.16562394797801971,28.3125,29.5625,28.6875,32.75,35.1875,36.4375
0.34014554700115696,-1.405782444719279,-2.0649218024074822,-0.8486070037499955,-0.04886698649704353,0.02563538754343909,-0.10730840830954969,-0.4105353160578232,-0.35374069164138,0.08500305372457517,3.071373421447572,-0.6261655527851866,-0.00032994213544998213,-0.16977706487965716,-0.02454759856378926,0.00011455142015716363,-0.040002140855208014,0.011942984201991339,-0.015957159529518483,0.4575516879558563,-1.3722190868905564,1.893857781087057,-2.095456739465231,-1.565286938344137,2.434258222579956,-0.11918406188488007,0.3016367256641388,-0.3676886260509491,0.038113877177238464,0.03035872057080269,-0.10294982045888901,0.038307227194309235,0.24899697303771973,-9.078812599182129,0.9119828343391418,47.70658874511719,-0.922063946723938,-1.989130973815918,-3.5753023624420166,-0.02555890381336212,0.32306936383247375,-0.2792678773403168,28.3125,29.5625,28.6875,32.75,35.1875,36.4375
0.3441304940060945,-0.6004563433845406,-2.1722324342754855,-0.5566104870189033,-0.055047507280902096,0.014692190371542187,-0.10794693921788671,-0.4112243499650103,-0.3538322198624444,0.08496895994575929,3.071170941882598,-0.6262603388808091,-0.0002920670143723283,-0.17173790429403368,-0.025647810665315816,0.0006112496620291569,-0.04060565474745613,0.01315105628271729,-0.02115511641681131,0.4570361077785492,-1.3709564071944733,1.8924110571490687,-2.09536137203359,-1.5651310125934046,2.433828830718994,-0.11866805702447891,0.30523669719696045,-0.37369173765182495,0.03916672617197037,0.030353914946317673,-0.09723126888275146,-0.019153613597154617,0.325611412525177,-9.117119789123535,0.9589777588844299,47.70748519897461,-1.0500097274780273,-2.088578462600708,-3.458883762359619,-0.01000029593706131,0.3581496477127075,-0.38537123799324036,28.3125,29.5625,28.6875,32.75,35.1875,36.4375
0.3481260490079876,-0.4383320561762192,-2.1867581748832134,-1.0849584943465362,-0.0567482354428087,0.03066671477327203,-0.10739683111235807,-0.41188501031534197,-0.35392449655803737,0.08494762079277243,3.0710497097719553,-0.6263523556316181,-0.00018339894211402867,-0.1738350791198156,-0.02536971987007742,0.0010874723464298231,-0.04221563464928018,0.011700583600154092,-0.02497653356815499,0.456566721200943,-1.3697068703225632,1.8909161726581019,-2.0951205692686976,-1.565009895955221,2.4334332942962646,-0.12182362377643585,0.30776676535606384,-0.3788760304450989,0.0424279123544693,0.03244582563638687,-0.09655759483575821,0.2106897532939911,0.4596867263317108,-9.385271072387695,0.8694595694541931,47.70748519897461,-0.9490158557891846,-1.9905298948287964,-3.4405250549316406,-0.008207453414797783,0.36665961146354675,-0.47530803084373474,28.3125,29.5625,28.6875,32.75,35.1875,36.4375
0.3521296069957316,-1.0332161615845885,-2.4587098231691855,-1.2667389060979974,-0.09946397825791103,0.04799563134830588,-0.1136261922235138,-0.412569031008366,-0.3540106536273944,0.08492094138415818,3.070904718142812,-0.6264511665302693,-8.999470301971513e-05,-0.17203165094606368,-0.022949097873893192,-0.0019294693198245933,-0.038778034797535846,0.0011500918232046783,-0.01885595615849031,0.45606184005737305,-1.368432880645134,1.8894107977496546,-2.094914575616354,-1.5648773352252405,2.433009624481201,-0.12506712973117828,0.3104393184185028,-0.3770937919616699,0.04903765022754669,0.03408542275428772,-0.10591775178909302,0.19153612852096558,0.3447650372982025,-9.442731857299805,0.8873621225357056,47.718231201171875,-0.8712862133979797,-2.133308172225952,-3.7792272567749023,-0.058304619044065475,0.382038414478302,-0.46117204427719116,28.3125,29.5625,28.6875,32.75,35.1875,36.4375
0.35613526099768933,-0.583688590454535,-2.4473041317480306,-1.636873226519091,-0.10771609305286967,0.05843858485398799,-0.12508861697447526,-0.4132717410675869,-0.354088477158386,0.08492021441201147,3.0707066943527512,-0.6265740645555207,-6.328304425121673e-05,-0.1736591015026814,-0.02378499276108668,-0.0026858271259384953,-0.038892834904130334,-0.0009216176053708522,-0.004765959850976692,0.455521821975708,-1.367205412392952,1.8879039923297327,-2.094722887078756,-1.5647333304034632,2.432572841644287,-0.1253240704536438,0.3161744475364685,-0.3830667734146118,0.05120157450437546,0.035177845507860184,-0.12025659531354904,0.07661445438861847,0.5363011956214905,-9.557653427124023,0.9164597988128662,47.70390319824219,-0.8173478841781616,-2.1182944774627686,-3.7502079010009766,-0.08997137099504471,0.3896455466747284,-0.33299291133880615,28.3125,29.5625,28.6875,32.75,35.1875,36.4375
0.36012718999700155,-1.5427179341941542,-2.755132067522086,-1.5705691064096847,-0.09329943346055199,0.04578214089762116,-0.10819328281424061,-0.4139527108408677,-0.3541909260718668,0.0848716692739736,3.0706068272496716,-0.6265077856165944,8.437672758676974e-05,-0.17421560940629413,-0.02561034602313734,-0.0027981145602042623,-0.038831737832070556,-0.005292096791652849,0.00763851969517651,0.4550425410270691,-1.3658700448325654,1.886371914540426,-2.0945168934264125,-1.5645883719073694,2.432065725326538,-0.12348728626966476,0.32166868448257446,-0.3913198709487915,0.05800561606884003,0.037097398191690445,-0.13081634044647217,-0.07661445438861847,0.5554547905921936,-9.749189376831055,0.938839316368103,47.68061828613281,-0.9242162108421326,-2.3282406330108643,-3.565002918243408,-0.19128721952438354,0.3770337402820587,-0.14846622943878174,28.3125,29.5625,28.6875,32.75,35.1875,36.4375
0.364128212997457,-1.4050042658955806,-2.342982235584779,-1.6955289101530235,-0.0852790007444699,0.06262808801759599,-0.10900445287651651,-0.4146717453441793,-0.35431110747308936,0.08490876974030187,3.0704356300047495,-0.6263783094168849,6.527964742396994e-05,-0.1752737934284665,-0.026765153123563697,-0.003609739645928045,-0.04210162658730189,-0.0075904277099517505,0.003189627636513953,0.4545624852180481,-1.3646199864200135,1.884733025227682,-2.094253202477926,-1.5644429365741175,2.431527853012085,-0.12434489279985428,0.32582977414131165,-0.39479300379753113,0.05794687569141388,0.04104137420654297,-0.1272062510251999,-0.09576806426048279,0.5171475410461426,-9.940725326538086,0.9880701303482056,47.692256927490234,-1.1534374952316284,-2.325409412384033,-3.6842617988586426,-0.2419615387916565,0.36595243215560913,-0.10317453742027283,28.3125,29.5625,28.6875,32.75,35.1875,36.4375
0.36812736600404605,-1.444029546070479,-2.374283040651975,-1.45118407834178,-0.10117254872715795,0.07639314330270999,-0.10599950389080037,-0.41539832897013335,-0.354424315404152,0.08491157407629224,3.0702243316402495,-0.6264183259064948,0.00012592153090869854,-0.17584472722411465,-0.026423612596305983,-0.0024206008381082544,-0.045406686027922125,-0.007744837177800612,-0.010893935882862374,0.45404553413391113,-1.3633115154555817,1.883108917866842,-2.0940257511534632,-1.5642622152911585,2.4310641288757324,-0.1267814338207245,0.3236807584762573,-0.3956690728664398,0.05961909145116806,0.04404134675860405,-0.11554621905088425,-0.19153614342212677,0.3064578175544739,-9.730035781860352,0.9522649645805359,47.704795837402344,-0.9541772603988647,-2.0147600173950195,-3.840620994567871,-0.2948216199874878,0.29982686042785645,-0.24986755847930908,28.3125,29.5625,28.6875,32.75,35.1875,36.4375
0.37214743900403846,-0.8285526001069484,-0.7160078563836587,-1.1970251434480745,-0.07034099802803914,0.05906806652303024,-0.1191603413057797,-0.416109017883584,-0.35454437238440006,0.08490203425801959,3.0699976064952,-0.6264112664165449,0.00019884845438031604,-0.18072590374880793,-0.02817650583092921,-0.00044976800624815636,-0.05089733967945983,-0.0026118729934786248,-0.017826954657243696,0.45354098081588745,-1.3620130878737946,1.8815344015704554,-2.093846460381979,-1.5640571753131312,2.4305853843688965,-0.12906016409397125,0.3279706835746765,-0.4052482843399048,0.05789386108517647,0.046697065234184265,-0.11087498813867569,-0.24899697303771973,0.1149216815829277,-9.710882186889648,0.9634547233581543,47.67792892456055,-0.8593959808349609,-1.987288475036621,-3.67012882232666,-0.33778059482574463,0.26141318678855896,-0.331855833530426,28.3125,29.5625,28.6875,32.75,35.1875,36.4375
0.37612713999988046,-0.9600710318002201,0.17844309457164564,-1.3821747844837444,-0.015741025728945684,0.05500531767743447,-0.1156559828958034,-0.41683002882058146,-0.35465793118639494,0.084904880815555,3.0697555026710424,-0.6265725096440742,0.00027925608324709625,-0.1829864282826033,-0.030259868215624573,-0.0021416102908295796,-0.054130399609574824,-0.0033367760753920932,-0.01940788710909061,0.45302483439445496,-1.3607119929841538,1.879913632069723,-2.0936085186400355,-1.5638640562640589,2.4302022457122803,-0.12890228629112244,0.33597084879875183,-0.41061484813690186,0.0545189268887043,0.04991181939840317,-0.10911843180656433,-0.1149216815829277,0.019153613597154617,-9.691728591918945,0.9522649645805359,47.674346923828125,-0.8720033168792725,-2.3455135822296143,-3.6138265132904053,-0.3170093595981598,0.18911591172218323,-0.3961360454559326,28.3125,29.5625,28.6875,32.75,35.1875,36.4375
0.38012760199490003,-2.1019841721157215,-1.2760311021746291,-1.2064021690566251,-0.07876856495516825,0.10641094866398246,-0.11654210837817673,-0.41756416117687184,-0.3547687684329049,0.08491315027957899,3.06956566865933,-0.6265857014157139,0.0003367538284730394,-0.18423619247397727,-0.030288003392070002,-0.0017536091013952025,-0.054001687818355834,-0.001289923836836958,-0.013225194968759388,0.4525090157985687,-1.3593939554742356,1.8782528082477015,-2.0933453045287074,-1.5636966864215296,2.429720163345337,-0.1290173977613449,0.33695077896118164,-0.41300973296165466,0.05424172803759575,0.04894663393497467,-0.11541623622179031,-0.17238251864910126,0.2106897532939911,-9.615114212036133,1.0171678066253662,47.72002029418945,-0.9696624875068665,-2.2414021492004395,-3.750763416290283,-0.3455144166946411,0.14835505187511444,-0.3689633309841156,28.3125,29.5625,28.6875,32.75,35.1875,36.4375
0.38412873800552916,-2.591712765840549,-3.2610426313948127,-1.7416632204496258,-0.11629947800740059,0.12947737285937216,-0.11029842589642225,-0.4182977791362433,-0.35489065462415714,0.08491905503794239,3.0693449000595705,-0.6266089246330246,0.000430880217577801,-0.18635170059036923,-0.03037452418294778,-0.0007942536757414767,-0.055032454525302386,0.002856547888259317,-0.0004696235144498462,0.451992928981781,-1.3580631029656907,1.876580540333883,-2.0930820904173792,-1.5634926001178187,2.429248094558716,-0.12983599305152893,0.33754104375839233,-0.41590049862861633,0.052512746304273605,0.04814355820417404,-0.12899018824100494,-0.3447650372982025,0.363918662071228,-9.940725326538086,0.9813573360443115,47.66449737548828,-1.0213110446929932,-2.017543315887451,-3.992489814758301,-0.33584630489349365,0.1184624433517456,-0.2349972128868103,28.3125,29.5625,28.6875,32.75,35.1875,36.4375
0.3881408699962776,-2.0273807506194337,-2.568356059853432,-1.5606709062151038,-0.09997574013691202,0.10105846562215583,-0.10864618169510254,-0.4190665919634983,-0.35501320023856775,0.08494830769545639,3.069100873654035,-0.6264950996352507,0.00035536300023977926,-0.19210244426172124,-0.031085877450426784,0.002624836460607436,-0.05597715988741914,0.016057318329858312,0.006598724020915853,0.45146477222442627,-1.3567560625127335,1.874902073537008,-2.0929047069945277,-1.5633142630206507,2.4286816120147705,-0.13029660284519196,0.338613897562027,-0.42421412467956543,0.04758606478571892,0.043284013867378235,-0.13652735948562622,-0.4213795065879822,0.40222588181495667,-9.653421401977539,0.9119828343391418,47.69584274291992,-1.125230312347412,-1.723362684249878,-3.66139554977417,-0.27951371669769287,0.12704253196716309,-0.09840042889118195,28.3125,29.5625,28.6875,32.75,35.1875,36.4375
0.39212948200292885,-1.670473991043969,-1.8405418761476833,-1.7357477363174956,-0.05806101258877179,0.08644413196724687,-0.10380897421035246,-0.4198756763390663,-0.35515253095678095,0.08500061123649538,3.0687504857801753,-0.6264245840058389,0.00017994249597253392,-0.19515823089982492,-0.031448035879498314,0.0013380799399171997,-0.05678230491989621,0.018135232760087605,0.00018931808207445222,0.45091235637664795,-1.3554470104030152,1.8731840292560022,-2.0927983723082484,-1.5630987326251429,2.4281320571899414,-0.13173861801624298,0.3448031544685364,-0.42811936140060425,0.04309718310832977,0.043118081986904144,-0.13154630362987518,-0.3064578175544739,0.4596867263317108,-9.84495735168457,1.0015010833740234,47.67703628540039,-1.0696852207183838,-1.977753758430481,-3.806177854537964,-0.17997582256793976,0.0972895473241806,-0.10644946247339249,28.3125,29.5625,28.6875,32.75,35.1875,36.4375
0.396137178002391,-1.7989621745802742,-2.2519261020533534,-1.1078283921037075,-0.10107768875472053,0.12072123601625509,-0.10742120426192454,-0.4206566663356196,-0.3552778231907212,0.08502675976170573,3.0685442021539435,-0.6264625159967852,0.00011941337249861907,-0.19691059546504364,-0.030838832664918076,0.0001923512426527319,-0.05196450769754852,0.01795441393761652,-0.010247713611476167,0.4504084289073944,-1.3540786069682618,1.871418301259176,-2.092546602288717,-1.5629680792437952,2.4276797771453857,-0.1314505934715271,0.3501631021499634,-0.43278932571411133,0.04463892802596092,0.038829587399959564,-0.12083238363265991,-0.4213795065879822,0.5554547905921936,-9.557653427124023,0.9835984706878662,47.65911865234375,-1.1346535682678223,-2.017976999282837,-3.835765838623047,-0.13606996834278107,0.1198737770318985,-0.19322825968265533,28.3125,29.5625,28.6875,32.75,35.1875,36.4375
0.40012602899514604,-1.0273151752995593,-2.0469974372308384,-0.901230385629593,-0.08942783473494063,0.11999337967692558,-0.12029881477527028,-0.4214659690740095,-0.35539538595872444,0.0850322095785912,3.0682850329463243,-0.6265258951878289,2.5289159934796517e-05,-0.20032659612925294,-0.03077202692220307,0.0020357340386933606,-0.05177180526053485,0.02239644876157469,-0.01787517788601306,0.44985607266426086,-1.3526751560023804,1.8696802298175257,-2.09240259746694,-1.5628131071673792,2.427201986312866,-0.1328047811985016,0.3519490361213684,-0.43988141417503357,0.046027276664972305,0.03671838343143463,-0.11455991864204407,-0.26815059781074524,0.363918662071228,-9.557653427124023,0.9903112649917603,47.67882537841797,-1.166213870048523,-1.8977181911468506,-3.676501750946045,-0.09455366432666779,0.1554320901632309,-0.29564058780670166,28.3125,29.5625,28.6875,32.75,35.1875,36.4375
0.404129208996892,-0.473276549777264,-0.8281116177701604,-0.419593326471206,-0.06714450791283769,0.06845272889320561,-0.10993694211651454,-0.4222922287540654,-0.3555085517780559,0.08506579721753058,3.0679928410346453,-0.6267162048197303,-0.0001739925893845826,-0.20310674863079944,-0.030889651151434588,0.002901397339601731,-0.05092452353963948,0.025531348030081853,-0.02356700533590414,0.4493037760257721,-1.3513074678233643,1.8679197470294397,-2.0922581158080042,-1.5626934210406702,2.4268081188201904,-0.13331393897533417,0.3548903167247772,-0.44599348306655884,0.04674268513917923,0.03460093215107918,-0.10937707126140594,-0.2106897532939911,0.26815059781074524,-9.270349502563477,1.0484960079193115,47.700321197509766,-1.105283498764038,-1.7312495708465576,-3.676257371902466,-0.041262105107307434,0.1936246156692505,-0.4278584122657776,28.3125,29.5625,28.6875,32.75,35.1875,36.4375
0.4081383199954871,-0.17988848905619015,-0.8338149779990972,-0.22237784152880088,-0.04748277129936179,0.04732899205675459,-0.12429630586498322,-0.4231308945824066,-0.35566087199533264,0.08509502758580217,3.067679018216122,-0.6267034900686852,-0.00034585081704695557,-0.2061649460104074,-0.030025243660644674,0.0025891098437272743,-0.04981391366237039,0.025630253130142413,-0.02239521231876973,0.44877511262893677,-1.3498791468194504,1.8661001364337366,-2.0921384296812953,-1.5625136534320276,2.426313877105713,-0.13633333146572113,0.3596547245979309,-0.4518665373325348,0.04832067713141441,0.033628903329372406,-0.11356298625469208,-0.038307227194309235,0.2106897532939911,-9.117119789123535,0.9947882294654846,47.67524337768555,-1.1223411560058594,-1.7743535041809082,-3.5511016845703125,0.03412929177284241,0.25700536370277405,-0.5013059973716736,28.3125,29.5625,28.6875,32.75,35.1875,36.4375
0.41213229700224474,-0.6638315610900317,-0.9890148126545664,-0.056640119600164934,-0.04442503688574231,0.05072810409793317,-0.12726367370458863,-0.42395333487051484,-0.35576624376278077,0.08510721014817155,3.0674751034770766,-0.6267278501289598,-0.00046733308402555556,-0.20791446162639826,-0.029625107729747014,0.0023715152082928563,-0.04871041583734646,0.02243567449881166,-0.007297627955109409,0.4482223093509674,-1.3484631937793274,1.8643148581134241,-2.091944833795065,-1.5624054113971155,2.4258041381835938,-0.13834738731384277,0.36409926414489746,-0.4585290551185608,0.05406845360994339,0.03417736291885376,-0.13066554069519043,0.1149216815829277,0.24899697303771973,-8.829815864562988,1.0015010833740234,47.66539001464844,-0.9939719438552856,-1.683598279953003,-3.5444719791412354,0.01649453118443489,0.26591989398002625,-0.36834126710891724,28.3125,29.5625,28.6875,32.75,35.1875,36.4375
0.4161292990029324,-1.2053669574968335,-1.5160696279629953,0.3027718678635818,-0.055702475724461895,0.0663288257069979,-0.13109836754422063,-0.42479513656201795,-0.35587703598004117,0.08512214088194014,3.0672624792550094,-0.626754576433658,-0.0005750338871443119,-0.20940024985820288,-0.0294841989473979,0.0014736472562130716,-0.04800836645876912,0.019058544243531678,0.002428996646788195,0.4476577937602997,-1.34701061368499,1.862471882496969,-2.0917278728880824,-1.5622852484332483,2.4252853393554688,-0.1399196982383728,0.36920151114463806,-0.46404820680618286,0.05796147882938385,0.03512705862522125,-0.14195308089256287,0.019153613597154617,0.3064578175544739,-8.848969459533691,1.0887781381607056,47.68419647216797,-0.930861234664917,-1.8732378482818604,-3.5997982025146484,0.05345720425248146,0.2898937463760376,-0.20106476545333862,28.3125,29.5625,28.6875,32.75,35.1875,36.4375
0.42012766499829013,-0.7376405265542254,-1.5856285652561817,0.5363835758861258,-0.07042774396431685,0.06417003746121791,-0.12081765163312888,-0.42562341932957565,-0.35598873875098147,0.0851145119273089,3.067088209905429,-0.6267553166053222,-0.0005526139238034598,-0.2110084053064435,-0.02979405213017859,0.0036554099533124824,-0.04984846745017913,0.01892684491143412,0.0023067181214465327,0.44709351658821106,-1.3455116909793396,1.860607926045553,-2.091450353662008,-1.5621402899371546,2.4247453212738037,-0.14127950370311737,0.3691686987876892,-0.47084248065948486,0.0641566663980484,0.03688497841358185,-0.14317737519741058,-0.4405331015586853,0.3064578175544739,-8.59997272491455,1.0171678066253662,47.69673538208008,-0.9385029673576355,-1.8302075862884521,-3.3946194648742676,0.03361602500081062,0.30245524644851685,-0.12254118919372559,28.3125,29.5625,28.6875,32.75,35.1875,36.4375
0.4241401839972241,-0.572314979792109,-0.8888840649549197,0.2753161651879059,-0.048409004432658595,0.04695479823092797,-0.12864804913920236,-0.426461781984891,-0.3561221472368996,0.08511609574771342,3.066896571679533,-0.6266648120734544,-0.0005746604366893112,-0.21046745116439208,-0.028193748690339294,0.002228372358123089,-0.04748529827079517,0.011370058589346232,-0.013681235553276827,0.44655290246009827,-1.34400029600177,1.8587115446673792,-2.091196676293844,-1.5619843641864222,2.4241743087768555,-0.14372678101062775,0.37159356474876404,-0.47271478176116943,0.07135975360870361,0.037972573190927505,-0.12962566316127777,-0.28730419278144836,0.4405331015586853,-8.772355079650879,1.0328292846679688,47.70390319824219,-0.9779585003852844,-1.6932957172393799,-3.553558826446533,-0.01995214819908142,0.3214041590690613,-0.22441740334033966,28.3125,29.5625,28.6875,32.75,35.1875,36.4375
0.4281266790057998,-1.8049360330377184,-1.287345203380305,0.26241740552696574,-0.05240542092487642,0.07234450626961149,-0.12512009738243932,-0.42726486824728177,-0.3562357317951031,0.08505958985706677,3.0667575676841072,-0.6267345032901058,-0.00032666033622989597,-0.208919434342957,-0.027210680188710333,-0.0014533763075547605,-0.044075865997067164,-0.0024009732688579427,-0.019323570382396904,0.44598814845085144,-1.342415453200676,1.8568328062640589,-2.090846200982565,-1.5617907683001917,2.4236719608306885,-0.14531876146793365,0.37876859307289124,-0.47593674063682556,0.08130111545324326,0.04083403944969177,-0.1255606710910797,-0.3447650372982025,0.38307225704193115,-8.695740699768066,0.9768803715705872,47.69584274291992,-0.8485263586044312,-1.744760513305664,-3.732710361480713,-0.159482941031456,0.3064623177051544,-0.30878791213035583,28.3125,29.5625,28.6875,32.75,35.1875,36.4375
0.43214080699544866,-1.6664659220589126,-1.2042600405778214,0.02041633389242434,-0.06776591550514109,0.09291222946170392,-0.12299038558805038,-0.42812343866513897,-0.35635898935013294,0.0850756318703988,3.0665713028770236,-0.6267897407548375,-0.00031100312827471444,-0.21087810553326997,-0.028192333831504747,-0.0014744386515556898,-0.0430777439269672,-0.0037898611481524238,-0.020353311056745246,0.4454246163368225,-1.3408786368421097,1.8548439184771937,-2.090485235253805,-1.5616477171527308,2.423168420791626,-0.1446756273508072,0.38447582721710205,-0.4843834638595581,0.08575113117694855,0.040532179176807404,-0.12388374656438828,-0.38307225704193115,0.325611412525177,-8.983044624328613,0.9567419290542603,47.71017074584961,-0.9314115643501282,-1.910940170288086,-3.4552249908447266,-0.21747437119483948,0.3341417908668518,-0.3742237091064453,28.3125,29.5625,28.6875,32.75,35.1875,36.4375
0.436128158995416,-1.7949294841963543,-2.020383137372301,-0.31241047242485487,-0.06429357268830443,0.06133597503368311,-0.12600122467805214,-0.4289543511203562,-0.35645944824798215,0.08502382636092001,3.066418564196336,-0.626961055647481,-8.065603173356041e-05,-0.21040552422611408,-0.030264300053326275,-0.002147248022314795,-0.04446672339198298,-0.004926300789883377,-0.008391739006642557,0.4448257088661194,-1.339270980363228,1.852917496358053,-2.090114255944723,-1.5614665190326136,2.4226973056793213,-0.14142748713493347,0.38744059205055237,-0.4870974123477936,0.08605019748210907,0.042333878576755524,-0.1325899213552475,-0.40222588181495667,0.47884035110473633,-9.117119789123535,0.9500291347503662,47.6895751953125,-1.1201269626617432,-2.0405640602111816,-3.521923065185547,-0.31248152256011963,0.3537673354148865,-0.3315297067165375,28.3125,29.5625,28.6875,32.75,35.1875,36.4375
