Tylouw/Master_Thesis_Code/test_recorded_data/real_test4/insertion_1_2026-02-24_17-52-32.csv
timestamp[s],tcp_force_x[N],tcp_force_y[N],tcp_force_z[N],tcp_force_rx[Nm?],tcp_force_ry[Nm?],tcp_force_rz[Nm?],tcp_pose_x[m],tcp_pose_y[m],tcp_pose_z[m],tcp_pose_rx[rot_vec_x],tcp_pose_ry[rot_vec_y],tcp_pose_rz[rot_vec_z],tcp_velo_x[m/s],tcp_velo_y[m/s],tcp_velo_z[m/s],tcp_velo_rx[rot_vec_x/s],tcp_velo_ry[rot_vec_y/s],tcp_velo_rz[rot_vec_z/s],q1[rad],q2[rad],q3[rad],q4[rad],q5[rad],q6[rad],qd1[rad/s],qd2[rad/s],qd3[rad/s],qd4[rad/s],qd5[rad/s],qd6[rad/s],tool_acc_x,tool_acc_y,tool_acc_z,current_of_whole_robot[A],voltage_of_whole_robot[V],current_J1[A],current_J2[A],current_J3[A],current_J4[A],current_J5[A],current_J6[A],temp_J1[C],temp_J2[C],temp_J3[C],temp_J4[C],temp_J5[C],temp_J6[C]
7.560011e-07,0.6823198,0.51957226,1.4402146,0.020010395,0.0042266008,-0.0049708104,-0.3815087,-0.34955075,0.08492836,-3.0785112,0.6248936,-0.00028991376,-0.0009176266,-0.0004781183,-0.0027139285,-0.002106262,0.0037018897,5.9283764e-05,0.479166,-1.4235611,1.9550132,-2.1004426,-1.5707215,2.4541326,-8.916128e-05,0.003484766,0.0051560225,-0.012897402,0.0001436631,-0.00014820551,0.13407528,-0.019153614,-8.676587,0.76874626,47.691364,-0.069310166,-3.3869762,-2.608913,-0.33624908,0.08858215,-0.21423492,28.3125,29.625,28.625,32.75,35.1875,36.3125
0.010056399,-0.51138157,-1.3738391,-0.10590832,-0.021994391,0.013634171,-0.011661452,-0.3815419,-0.34956148,0.0849083,-3.0784788,0.62486756,-0.00027287088,-0.005872282,0.00018574884,-0.0025835296,0.0013373164,-0.002945683,-0.0005698983,0.47917563,-1.4234494,1.9549359,-2.1004622,-1.5707573,2.4541302,-0.0058649806,0.014515065,-0.010492529,-0.00079340494,0.00014514668,-0.0052876333,0.0,0.19153613,-9.404425,0.679228,47.694946,-0.39698702,-3.1076741,-2.8966208,-0.453434,0.099029124,-0.305305,28.3125,29.625,28.625,32.75,35.1875,36.3125
0.02005593,-1.1270002,-1.5264579,-0.8040969,-0.057235084,0.08488832,-0.07207701,-0.38155952,-0.34955847,0.08485967,-3.0784552,0.6247071,-0.00044318335,-0.009080669,-0.0011611662,-0.0019099833,-0.0034390609,-0.0041747084,0.004834878,0.47913876,-1.423304,1.9548725,-2.1004255,-1.570732,2.4539962,-0.009317949,0.01963641,-0.018219568,0.00068250415,0.0049321977,-0.01415028,-0.57460845,0.6512229,-9.921572,0.67475104,47.64837,-0.5914116,-2.737618,-3.2479901,-0.49980372,0.0731457,-0.26064593,28.3125,29.625,28.625,32.75,35.1875,36.3125
0.030056031,-1.526078,0.029290063,-0.3767095,0.012900546,0.031887874,-0.12619214,-0.3817206,-0.34957954,0.08483431,-3.0784838,0.6247903,-0.00045149348,-0.016375909,-0.0020943573,0.00050047884,-0.008985892,0.001012018,0.0016998284,0.47900447,-1.4229894,1.9545821,-2.1004736,-1.5706948,2.4539104,-0.015914923,0.025927585,-0.030698549,-0.00029742974,0.007433627,-0.017609458,-0.38307226,0.0,-9.730036,0.6926589,47.664497,-0.5922966,-2.6358185,-3.0950813,-0.4840809,0.08441527,-0.2405822,28.3125,29.625,28.625,32.75,35.1875,36.3125
0.040082026,-0.67434597,0.035093877,-0.15150647,0.019150771,0.032385346,-0.11408343,-0.38191804,-0.3496006,0.08486545,-3.0785959,0.62481415,-0.0003796545,-0.021779707,-0.0026463445,0.0012640401,-0.009842061,0.004392948,0.00048724853,0.4788232,-1.4227349,1.9542202,-2.100474,-1.5706352,2.4537299,-0.019441105,0.033168335,-0.04054343,-0.0010831576,0.006614809,-0.019914584,-0.1340753,-0.038307227,-9.576807,0.7597976,47.675243,-0.53834176,-2.5608664,-3.0480137,-0.46533394,0.06599231,-0.22883788,28.3125,29.625,28.625,32.75,35.1875,36.3125
0.050101608,-0.87981766,-1.8290778,-0.17908393,-0.028559217,0.008461254,-0.10622024,-0.38216975,-0.3496108,0.08491257,-3.0786886,0.6248706,-0.00024299357,-0.025879925,-0.0026649877,0.0026411642,-0.011319914,0.007004356,0.0007010236,0.478594,-1.4224334,1.9537624,-2.1004498,-1.5706114,2.4535244,-0.023243276,0.036682896,-0.047908902,-0.00022920562,0.0067138225,-0.023925787,-0.019153614,0.4213795,-9.500193,0.7553206,47.70032,-0.5715036,-2.3667567,-3.1611853,-0.44638515,0.09092346,-0.19845966,28.3125,29.625,28.625,32.75,35.1875,36.3125
0.060098264,-0.41172627,-1.6237359,-0.08732063,-0.013241001,0.00074103486,-0.09799046,-0.38244244,-0.34964603,0.08493356,3.0788202,-0.6248558,0.00019812006,-0.030735195,-0.004514479,0.003504808,-0.014937275,0.008532922,0.004613733,0.4783531,-1.4220222,1.9532446,-2.1004498,-1.570526,2.4532578,-0.025923876,0.044484153,-0.058836546,-0.0001297834,0.009202891,-0.030515663,-0.1340753,0.34476504,-9.289503,0.679228,47.65912,-0.586742,-2.227364,-3.0803776,-0.45392415,0.087309346,-0.1441446,28.3125,29.625,28.625,32.75,35.1875,36.3125
0.07009851,-0.96366864,-0.5241921,0.2725814,0.019177217,0.010401222,-0.10332553,-0.38277006,-0.34970784,0.0849774,3.0786226,-0.6247962,0.00010202176,-0.033749312,-0.005154415,0.0024361943,-0.016494924,0.0062060957,0.004827837,0.478088,-1.4215512,1.9526085,-2.1004617,-1.5704058,2.4529808,-0.02900972,0.052159045,-0.06519864,-9.538011e-05,0.011652277,-0.033813074,-0.11492168,0.19153613,-9.136273,0.80456203,47.678825,-0.6391904,-2.0987566,-3.3025076,-0.44202477,0.062291205,-0.12679009,28.3125,29.625,28.625,32.75,35.1875,36.3125
0.080057554,-1.0503601,-0.9603256,0.011335832,0.014948094,0.025369719,-0.09680264,-0.38311055,-0.34976992,0.08499824,3.078488,-0.6246912,0.00010963419,-0.036656965,-0.005845242,0.0017368858,-0.016541237,0.0054870015,0.004436282,0.4778115,-1.4209841,1.9519013,-2.100414,-1.5702852,2.452656,-0.030654745,0.059236176,-0.07174735,-9.5840605e-08,0.012017104,-0.035061672,-0.3256114,0.17238252,-9.385271,0.7866488,47.62419,-0.7684183,-1.9552579,-3.5399067,-0.4042727,0.049829878,-0.09849692,28.3125,29.625,28.625,32.75,35.1875,36.3125
0.090097055,-1.2530453,-1.0604696,-0.3220468,-0.024608832,0.04508102,-0.106765784,-0.38348705,-0.34982258,0.084992886,3.0783525,-0.62462735,0.0001294581,-0.042253494,-0.006032894,0.0014856296,-0.016301686,0.005540323,-0.00084921665,0.477486,-1.420332,1.951167,-2.1004136,-1.5701655,2.4523082,-0.03528835,0.069277436,-0.082995884,0.0012787144,0.011765256,-0.034401685,-0.34476504,0.3256114,-9.615114,0.7665104,47.652847,-0.71918505,-2.0232916,-3.4528992,-0.413229,0.04428721,-0.18994218,28.3125,29.625,28.625,32.75,35.1875,36.3125
0.10009881,-0.79848826,-1.0009038,-0.36705366,-0.01894227,0.04149816,-0.10581373,-0.38395178,-0.34988183,0.08502078,3.0782053,-0.6245377,2.7780075e-05,-0.047970884,-0.006858155,0.0014304661,-0.016534654,0.0066060154,0.00091200933,0.47711274,-1.4195958,1.9502548,-2.1003897,-1.5700816,2.451898,-0.03885816,0.079667434,-0.094933234,0.0017836879,0.01147023,-0.03972332,-0.3256114,0.3256114,-9.557653,0.7620334,47.660015,-0.6807928,-1.8652532,-3.4195344,-0.396322,0.04061488,-0.24521747,28.3125,29.625,28.625,32.75,35.1875,36.3125
0.11009812,-0.103266634,-0.3363127,-0.18008596,-0.014456266,0.03290366,-0.11324869,-0.38448897,-0.34996626,0.08507489,3.07798,-0.62450904,-0.00013811831,-0.054197237,-0.00845904,0.0023447438,-0.019452607,0.009764102,0.0021416815,0.4767036,-1.4187759,1.9491862,-2.1003654,-1.5699733,2.4515002,-0.042351086,0.08897672,-0.1075626,0.0009668873,0.012601982,-0.044436645,-0.21068975,0.30645782,-9.3661175,0.7239871,47.70032,-0.7207483,-1.8042055,-3.146914,-0.34618825,0.038037017,-0.317815,28.3125,29.625,28.625,32.75,35.1875,36.3125
0.12009831,-1.1435515,-1.4929587,0.17175277,-0.020078253,0.029100202,-0.10214592,-0.3850549,-0.3500698,0.08510804,3.0777729,-0.6243857,-0.00027662452,-0.058381505,-0.010129716,0.001918413,-0.019226383,0.008528493,0.007927978,0.47629544,-1.4178473,1.9480456,-2.100365,-1.5698532,2.451042,-0.04337731,0.09963887,-0.11945188,0.0034103375,0.012969671,-0.051239908,-0.28730422,0.40222588,-9.251195,0.83813137,47.71823,-1.0158888,-1.8112216,-3.1682749,-0.35416943,0.057452776,-0.3664344,28.3125,29.625,28.625,32.75,35.1875,36.3125
0.13009743,-0.28320372,-0.43012935,0.4952134,0.0056487685,-0.0035241405,-0.112284556,-0.38569492,-0.3501917,0.085158035,3.0775359,-0.6240619,-0.000488834,-0.061246626,-0.010201857,-0.0016880741,-0.017737988,0.0030459904,0.0172179,0.4758383,-1.4168342,1.9467772,-2.1004007,-1.5697087,2.4504135,-0.04649526,0.11187937,-0.12514688,0.0024405555,0.014179888,-0.063639805,0.0,0.21068975,-9.078813,0.78888994,47.639416,-1.0923905,-1.8600371,-3.2793121,-0.30750233,0.09277615,-0.25708884,28.3125,29.625,28.625,32.75,35.1875,36.3125
0.14009921,-0.2252345,-0.17389472,0.1755219,0.026161326,-0.001547582,-0.110868424,-0.38631117,-0.35029072,0.08513734,3.0774372,-0.6236331,-0.00044622802,-0.066076435,-0.009605387,-0.0010451218,-0.019337926,0.0025817312,0.023660054,0.47535613,-1.4157032,1.945517,-2.100364,-1.5695518,2.4496768,-0.052829288,0.11778874,-0.13416292,0.0052525396,0.015828567,-0.076410614,-0.038307227,-0.019153614,-9.097966,0.78888994,47.63852,-1.0160131,-1.9195962,-3.4188762,-0.30004448,0.10759418,-0.09851262,28.3125,29.625,28.625,32.75,35.1875,36.3125
0.15009935,-1.0529295,-0.8981174,-0.19170998,-0.018594636,0.07884805,-0.11021014,-0.3869567,-0.3503924,0.08510915,3.077346,-0.6233118,-0.00028880427,-0.070138246,-0.010192158,-0.002484059,-0.018144008,-0.0010606302,0.013000154,0.4748392,-1.414474,1.9441379,-2.1002314,-1.5693716,2.4489715,-0.055725716,0.12919652,-0.14483781,0.008315228,0.016413338,-0.06864094,-0.4213795,0.3256114,-9.404425,0.80679786,47.687782,-1.164146,-1.8732221,-3.3058772,-0.32598782,0.14556187,-0.087054536,28.3125,29.625,28.625,32.75,35.1875,36.3125
0.1600575,-1.4651726,-1.666847,-0.42653576,-0.050698295,0.0759562,-0.12309358,-0.38769048,-0.3504843,0.08510787,3.0772293,-0.6231186,-0.00028150377,-0.076736204,-0.011209618,-0.00014699448,-0.022775037,0.005223954,0.0025199177,0.47426164,-1.4131751,1.9426159,-2.1000998,-1.5692514,2.448289,-0.06051277,0.13454415,-0.15606554,0.006495147,0.017637527,-0.06294028,-0.5554548,0.45968673,-9.730036,0.7351769,47.68062,-1.201919,-1.768616,-3.3793383,-0.3417865,0.1941595,-0.2746781,28.3125,29.625,28.625,32.75,35.1875,36.3125
0.17010053,-0.82112354,-0.2346825,0.01785596,0.007243806,0.035364278,-0.11373911,-0.38852942,-0.35061407,0.08510725,3.0768962,-0.62312853,-0.0003680064,-0.08338096,-0.011983051,-0.0016171371,-0.024991903,0.0052291513,-0.0023087773,0.47359976,-1.411741,1.9409736,-2.100137,-1.5690349,2.4476764,-0.066161305,0.14785361,-0.16760176,0.0037259406,0.019603183,-0.06374801,-0.17238252,0.05746084,-9.461885,0.8784135,47.681515,-1.0883892,-2.0095084,-3.367208,-0.2674483,0.239047,-0.42104316,28.3125,29.625,28.625,32.75,35.1875,36.3125
0.18009794,-0.23427065,-0.32740545,0.42316198,0.0072378563,0.003973618,-0.11195114,-0.38940057,-0.35071447,0.08512122,3.0766678,-0.623017,-0.0004811182,-0.08827885,-0.010988382,-0.0026064739,-0.02585357,0.0024260157,0.00553451,0.4729015,-1.4102844,1.939248,-2.100077,-1.56889,2.4469385,-0.07336004,0.15659697,-0.17606114,0.0055869617,0.021684231,-0.0787808,-0.095768064,0.15322891,-9.136273,0.8493211,47.66539,-0.79937935,-2.0859241,-3.3344903,-0.22958827,0.2534926,-0.42142937,28.3125,29.625,28.625,32.75,35.1875,36.3125
0.19009571,-1.6522695,-1.7942321,0.013570122,-0.047190826,0.040913634,-0.10371091,-0.3903277,-0.3508052,0.08511069,3.0764496,-0.6227698,-0.00044856526,-0.093209505,-0.011218264,-0.0019780823,-0.02775598,0.0013798018,0.022284525,0.4720957,-1.4086969,1.9374164,-2.0999796,-1.5686735,2.446007,-0.07846845,0.1641152,-0.18728852,0.009432626,0.023903677,-0.1006299,-0.34476504,0.4213795,-9.232041,0.8291774,47.677036,-0.6947681,-1.8191289,-3.351727,-0.25939417,0.2988445,-0.140032,28.3125,29.625,28.625,32.75,35.1875,36.3125
0.20005792,-0.9353477,-0.550342,0.24172133,-0.0070800693,0.051197313,-0.11331949,-0.39129958,-0.35093042,0.085090145,3.076206,-0.62249714,-0.00038273341,-0.09907739,-0.013614207,3.6412308e-05,-0.033404976,0.006608161,0.0049750106,0.471291,-1.4069767,1.9354523,-2.0998843,-1.5684203,2.445064,-0.08082486,0.17077607,-0.19945157,0.007713903,0.026527397,-0.08566532,-0.38307226,0.30645782,-9.212888,0.8224646,47.689575,-0.7794641,-1.7787666,-3.388029,-0.25442427,0.29910946,-0.23073646,28.3125,29.625,28.625,32.75,35.1875,36.3125
0.21005778,0.33157104,-0.32045016,-0.03030289,0.01202241,0.011749985,-0.11566387,-0.3922903,-0.35106236,0.085046805,3.075907,-0.6223384,-0.0002905184,-0.101000965,-0.014908734,-0.0030927267,-0.032120854,0.00083828066,0.0047551463,0.47046322,-1.4051949,1.9334797,-2.099848,-1.5681318,2.4441762,-0.08087815,0.18268993,-0.20665184,0.00876674,0.028015107,-0.08548928,0.0,0.05746084,-9.385271,0.8090337,47.71286,-0.9544651,-2.022088,-3.3875716,-0.18366282,0.32204026,-0.34505433,28.3125,29.625,28.625,32.75,35.1875,36.3125
0.22005431,-0.011411681,-1.4703686,-0.42162967,-0.037893858,0.0078791445,-0.1121265,-0.3933327,-0.35119376,0.08498231,3.0757253,-0.6220624,-0.00019863421,-0.10627488,-0.015345006,-0.0025478594,-0.03495535,0.0005351769,0.015537968,0.4696334,-1.4032582,1.9313611,-2.0997632,-1.5679153,2.4431982,-0.086114205,0.19054624,-0.21789952,0.011221855,0.030719189,-0.10149808,0.1340753,0.4213795,-9.442732,0.8560339,47.679718,-0.8603666,-2.2874408,-3.5690365,-0.1994021,0.3559793,-0.25299644,28.3125,29.625,28.625,32.75,35.1875,36.3125
0.23005596,-0.6809184,-1.4666647,-0.49782816,-0.04088391,0.033537194,-0.105919205,-0.39439046,-0.35138544,0.08495469,3.0754404,-0.62155527,1.513911e-06,-0.10933864,-0.01866775,-0.0017196158,-0.04219335,0.00076592376,0.02424073,0.46880537,-1.4012983,1.9291123,-2.0996082,-1.5675405,2.4420907,-0.08646414,0.19674297,-0.22726652,0.010984903,0.037100133,-0.11053611,-0.076614454,0.5746084,-9.634268,0.8918391,47.672558,-1.0747153,-2.073475,-3.4740577,-0.20540655,0.27324387,-0.07633338,28.3125,29.625,28.625,32.75,35.1875,36.3125
0.24005601,-0.7454682,-0.49023268,-0.34080967,-0.0006492784,0.02530863,-0.1096295,-0.3955054,-0.35160744,0.084935315,3.0750415,-0.6212315,7.872341e-05,-0.11456125,-0.020965936,-0.00082766893,-0.048770215,0.003060965,0.005508998,0.46797645,-1.3992659,1.9267787,-2.0995486,-1.5671552,2.4411116,-0.089564174,0.2043703,-0.23812455,0.009202084,0.04190736,-0.09488416,-0.28730422,0.22984336,-9.653421,0.8157518,47.63136,-1.2038889,-2.046137,-3.72753,-0.1331276,0.13010775,-0.30805176,28.3125,29.625,28.625,32.75,35.1875,36.3125
0.25009707,-1.5557563,-0.30631512,-0.09747407,0.020029359,0.057661984,-0.1048912,-0.39665568,-0.35179514,0.08489216,3.0746026,-0.62114215,0.0003162181,-0.12167234,-0.020030085,-0.00035099493,-0.047760855,0.0051175156,0.00056708435,0.46702608,-1.3971604,1.9243964,-2.099428,-1.5667118,2.4401624,-0.09603645,0.21393989,-0.2512969,0.011518141,0.04009916,-0.096404724,-0.4213795,0.095768064,-9.481039,0.8314132,47.693153,-0.8877311,-2.1789598,-3.455968,-0.116284564,0.040734857,-0.48600715,28.3125,29.625,28.625,32.75,35.1875,36.3125
0.26005858,-1.5512816,-0.7407195,-0.3075572,-0.01071447,0.08612057,-0.1171685,-0.3978968,-0.35199523,0.08488556,3.0742579,-0.62069035,0.00040652222,-0.12919536,-0.017379865,0.0022864912,-0.043227196,0.01353748,0.02486058,0.46606424,-1.3949488,1.921789,-2.0992477,-1.5663422,2.4389637,-0.10233811,0.21788053,-0.26290628,0.013937887,0.032384984,-0.1270001,-0.7278373,0.2681506,-9.481039,0.9097417,47.67793,-0.82540953,-1.8929656,-3.4726996,-0.11021094,0.07551816,-0.1963603,28.3125,29.625,28.625,32.75,35.1875,36.3125
0.27005783,-0.3511412,0.07549881,-0.73797107,0.016136393,0.029185006,-0.11462045,-0.3992481,-0.35214806,0.08489855,3.0738697,-0.6204248,0.0002419247,-0.1342758,-0.017332247,0.00033325632,-0.03892405,0.014086124,0.010472621,0.46498376,-1.3926985,1.9191092,-2.0991638,-1.566068,2.4377685,-0.10401739,0.23030296,-0.2733449,0.0134201925,0.028302854,-0.11428296,-0.15322891,0.095768064,-9.481039,0.9164598,47.660015,-0.8458172,-2.1036575,-3.5974913,-0.082932904,0.1569333,-0.27801016,28.3125,29.625,28.625,32.75,35.1875,36.3125
0.28005797,-0.8214673,-1.9287096,-0.52964675,-0.03191058,0.013746957,-0.10295329,-0.40065065,-0.35231498,0.08493638,3.0734735,-0.62030286,-1.2750188e-06,-0.13880165,-0.017601902,0.0012364804,-0.03768535,0.01431512,0.011903517,0.46391505,-1.3903779,1.9162716,-2.0990188,-1.5658406,2.436676,-0.10633578,0.23764631,-0.28575936,0.018920079,0.027166735,-0.11802022,0.038307227,0.57460845,-9.557653,0.8873621,47.68062,-0.90545475,-2.1488166,-3.2998805,-0.082117885,0.24211025,-0.3577476,28.3125,29.625,28.625,32.75,35.1875,36.3125
0.29005432,0.28960988,-0.7465351,-0.3266689,4.7583035e-05,-0.011594217,-0.10175094,-0.40207335,-0.3525108,0.08496858,3.0730696,-0.61980456,-0.00018995607,-0.14445779,-0.019721407,0.003867083,-0.04742014,0.019753529,0.029745717,0.4628335,-1.3879987,1.9133795,-2.0989,-1.5655259,2.4353366,-0.11077235,0.2412703,-0.29590243,0.016385157,0.033592325,-0.14026783,0.076614454,0.36391866,-9.308657,0.95897776,47.67166,-0.8796154,-1.7109375,-3.5087128,-0.026953695,0.2972497,-0.059898794,28.3125,29.625,28.625,32.75,35.1875,36.3125
0.3000527,-0.76693815,-1.5966102,-0.32839796,-0.0518683,0.04099265,-0.10759548,-0.4035093,-0.3527284,0.08499539,3.07271,-0.61935776,-0.00024508592,-0.14746591,-0.021081597,0.0015916704,-0.04748578,0.011906001,0.0073131043,0.46177727,-1.3855073,1.9103287,-2.098634,-1.5652007,2.434049,-0.11252373,0.25426,-0.30793056,0.022375083,0.037124354,-0.11956109,-0.13407528,0.30645782,-9.481039,0.8605109,47.70211,-0.9864539,-1.9265065,-3.5155754,-0.030035537,0.33625242,-0.29161114,28.3125,29.625,28.625,32.75,35.1875,36.3125
0.31005254,-0.9165664,-0.101267405,0.036020268,-0.0025160646,0.06405622,-0.109548815,-0.4050202,-0.3529563,0.08504036,3.0721602,-0.61912113,-0.0003481622,-0.15277253,-0.022653462,0.002668465,-0.053418495,0.015056659,0.015699135,0.46062422,-1.3829712,1.9071959,-2.0984433,-1.5647792,2.4328203,-0.116106555,0.26079613,-0.31830892,0.020907823,0.04115509,-0.13149804,-0.40222588,0.22984336,-9.308657,1.0037369,47.67345,-0.9920501,-1.7838814,-3.5461884,0.01576284,0.35790986,-0.3983237,28.3125,29.625,28.625,32.75,35.1875,36.3125
0.32005188,-1.3561391,-0.8084868,-0.19224846,-0.010708801,0.06726312,-0.1035342,-0.40659428,-0.3531988,0.085055955,3.0716825,-0.6186324,-0.00035124618,-0.15664612,-0.022897003,0.0008138449,-0.054263055,0.0079139955,0.02608795,0.45943457,-1.3802403,1.9038824,-2.0982015,-1.5643338,2.4313884,-0.12071026,0.27259904,-0.33009973,0.027111964,0.04523473,-0.146458,-0.57460845,0.15322891,-9.346964,0.8873621,47.681515,-0.9176865,-1.7926481,-3.4632134,-0.03551669,0.31677634,-0.14498208,28.3125,29.625,28.625,32.75,35.1875,36.3125
0.33005235,0.1733571,-0.3947319,0.52909327,-0.013561903,0.04666544,-0.11153567,-0.40817294,-0.35343513,0.08503995,3.0711908,-0.6183259,-0.00024498475,-0.15914416,-0.025518423,0.0002998743,-0.060823586,0.0027118057,0.01212412,0.45822224,-1.3774389,1.900545,-2.0979369,-1.5638627,2.4300494,-0.122368366,0.28090295,-0.34025612,0.030737795,0.053415176,-0.13410398,-0.24899697,0.36391866,-9.11712,0.9164598,47.666286,-0.96349716,-1.8446391,-3.5304124,-0.072736144,0.19108886,-0.37888572,28.3125,29.625,28.625,32.75,35.1875,36.3125
0.3400526,0.14227927,-0.842621,0.2015687,-0.017206104,0.011027058,-0.09888755,-0.4098101,-0.353669,0.085023254,3.0706959,-0.617901,-8.366225e-05,-0.1639136,-0.025656454,0.0011852038,-0.05878086,0.004127536,0.035831172,0.456938,-1.3745413,1.897077,-2.097624,-1.5633482,2.428565,-0.12417986,0.28844824,-0.3531929,0.036094833,0.051159527,-0.15961641,-0.095768064,0.40222588,-9.040505,0.9545008,47.650166,-1.1484517,-1.9151533,-3.4119797,-0.18014714,0.13844535,-0.08501464,28.3125,29.625,28.625,32.75,35.1875,36.3125
0.3500526,-0.38947454,-1.1889913,0.074588165,0.013264958,0.008229226,-0.093281485,-0.41145617,-0.35388386,0.084937185,3.0703163,-0.61751103,0.000288083,-0.16938822,-0.022636732,-0.0022251103,-0.05049727,0.0007684174,0.0085599255,0.45562807,-1.3714738,1.8935374,-2.0972283,-1.5628461,2.4270616,-0.12977736,0.30198893,-0.36311367,0.039135724,0.045108702,-0.13796124,0.11492168,0.4213795,-9.193734,0.93436235,47.691364,-0.80979383,-2.1160593,-3.5811355,-0.3038867,0.18632968,-0.3353682,28.3125,29.625,28.625,32.75,35.1875,36.3125
0.36005256,-1.3041693,-1.4020319,-0.71174055,-0.017254524,0.04626384,-0.09961203,-0.4131485,-0.35412157,0.08489012,3.0699408,-0.61721104,0.00046001657,-0.17502579,-0.023069438,-0.0013964075,-0.050053164,0.0093760565,0.024159832,0.4543798,-1.3683728,1.8898553,-2.0968106,-1.5624393,2.4256759,-0.13071561,0.30804428,-0.3720881,0.034780886,0.0410511,-0.15450937,-0.095768064,0.36391866,-9.672575,0.9679317,47.70032,-0.9233452,-2.039214,-3.7211456,-0.33150148,0.26651835,-0.35055265,28.3125,29.625,28.625,32.75,35.1875,36.3125
0.37005255,-1.7644047,-2.37423,-1.0015155,-0.02681329,0.044760037,-0.091379866,-0.41494784,-0.3543635,0.08488373,3.0694761,-0.61671203,0.00046942773,-0.18241924,-0.02553326,-0.0010446231,-0.05557516,0.015203992,0.022768734,0.45303506,-1.3652223,1.8860272,-2.0964534,-1.561994,2.424081,-0.13327959,0.3194274,-0.38627088,0.030049305,0.043519888,-0.15565296,-0.51714754,0.38307226,-10.036493,0.8314132,47.682407,-0.885668,-2.3294082,-3.572316,-0.32492644,0.32378554,-0.25365067,28.3125,29.625,28.625,32.75,35.1875,36.3125
0.38005316,-1.5144868,-0.6734831,-0.39910668,-0.009965631,0.06621204,-0.113945514,-0.41681066,-0.3546348,0.08488879,3.0689251,-0.61628515,0.00030225219,-0.1877392,-0.027875504,0.0005990034,-0.063102245,0.021240208,0.026964389,0.45170248,-1.3620017,1.8821048,-2.0962036,-1.5615605,2.4225552,-0.13527745,0.3247482,-0.3964055,0.026313923,0.047788035,-0.16180333,-0.28730422,0.11492168,-9.940725,0.9567419,47.679718,-1.0805613,-2.0243387,-3.7373414,-0.21646298,0.34203804,-0.29599017,28.3125,29.625,28.625,32.75,35.1875,36.3125
0.39005315,-0.6660278,-1.5229409,-0.8234033,-0.013390014,0.021347763,-0.11339864,-0.4187315,-0.35492355,0.0849359,3.0683234,-0.61552525,1.4345346e-05,-0.19292858,-0.028636836,0.00043154112,-0.06601064,0.01968388,0.025708059,0.45033368,-1.3587823,1.8780874,-2.0959861,-1.5610799,2.4207916,-0.13931644,0.33452794,-0.40951434,0.02993606,0.05124075,-0.16453607,-0.15322891,0.34476504,-9.730036,0.97464454,47.689575,-1.1400383,-2.1368701,-3.7445083,-0.10430017,0.3581549,-0.15745926,28.3125,29.625,28.625,32.75,35.1875,36.3125
0.4000529,0.45732504,-0.9701964,-0.60655665,-0.010448094,-0.015100958,-0.12245381,-0.4207235,-0.35521364,0.08501366,3.0675547,-0.615217,-0.00020469513,-0.1963788,-0.032319434,0.0019170732,-0.07628641,0.017009098,0.01062196,0.44886905,-1.3554955,1.8738865,-2.0956619,-1.560512,2.4192367,-0.14083377,0.34122556,-0.42289707,0.034562346,0.061697215,-0.15086706,-0.05746084,0.4405331,-9.557653,0.9455522,47.699425,-1.004249,-1.8572907,-3.6132302,-0.07791356,0.27442735,-0.47383156,28.3125,29.625,28.625,32.75,35.1875,36.3125
0.41005304,-1.2567362,-1.3793944,0.2995583,-0.02917188,0.024838213,-0.111737706,-0.42269778,-0.35557082,0.08506223,3.06682,-0.61447626,-0.00022882322,-0.20094232,-0.03271377,0.0016581742,-0.08103233,0.0118740825,0.030365119,0.4474752,-1.3520883,1.8695863,-2.0952885,-1.5598253,2.4174774,-0.1467555,0.35040492,-0.4359507,0.04145783,0.068546124,-0.1764534,0.038307227,0.36391866,-9.270349,1.0775883,47.689575,-0.8758122,-1.7497145,-3.5886765,-0.028663777,0.076911874,-0.17259447,28.3125,29.625,28.625,32.75,35.1875,36.3125
0.42005235,-1.3603806,0.10897693,0.894518,0.040594716,0.043564353,-0.12152265,-0.42477497,-0.3558967,0.085122325,3.066044,-0.61406714,-0.00034881884,-0.20690387,-0.028420476,0.0010694657,-0.066656604,0.015133927,0.017650196,0.44598627,-1.3485718,1.8651088,-2.094879,-1.5591944,2.4158363,-0.14976619,0.35928792,-0.44810015,0.048139233,0.05423697,-0.16681825,-0.36391866,0.21068975,-8.848969,0.9388393,47.667187,-0.8302796,-1.7485001,-3.6257186,-0.0066017895,0.14158416,-0.37471828,28.3125,29.625,28.625,32.75,35.1875,36.3125
0.43005282,-1.1168393,0.12773539,1.2470727,0.027681444,0.022585802,-0.11929718,-0.42684585,-0.35616603,0.08510147,3.0656352,-0.613356,-0.00034509518,-0.2100316,-0.028985644,0.0023164826,-0.05686588,0.0154219065,0.03789364,0.44452396,-1.3448892,1.8605665,-2.0943234,-1.5587538,2.4139845,-0.1454606,0.36760858,-0.46531257,0.061359253,0.045527082,-0.1828078,-0.45968673,0.21068975,-8.580819,0.9835985,47.66987,-1.2395208,-1.6484559,-3.3659525,-0.16458929,0.29259747,-0.07928307,28.3125,29.625,28.625,32.75,35.1875,36.3125
0.4400522,-0.49571186,-1.4720865,0.5724561,-0.031017765,0.029808668,-0.12043743,-0.42893043,-0.35645542,0.0850332,3.065207,-0.6128941,-0.00010880833,-0.21344765,-0.027846003,-0.0018044335,-0.0563535,0.0063952203,0.012247209,0.44305843,-1.3410361,1.8558878,-2.0936644,-1.5582484,2.4122877,-0.15087903,0.38061592,-0.47402063,0.06532759,0.048818532,-0.16254339,-0.17238252,0.47884032,-9.002198,1.0350704,47.653748,-1.1584533,-1.8946173,-3.7212284,-0.3126381,0.39145276,-0.45412654,28.3125,29.625,28.625,32.75,35.1875,36.3125
0.4500528,-1.5888467,-2.4883354,-0.80671537,-0.056932256,0.026137328,-0.095192455,-0.4311183,-0.3566972,0.08495028,3.064776,-0.61243,8.718089e-05,-0.22144559,-0.029468745,-0.0027409424,-0.067474306,0.0132027315,0.028842956,0.44144818,-1.3370643,1.8510875,-2.0930216,-1.5577539,2.4104452,-0.15746829,0.3912034,-0.48344338,0.053690467,0.05621673,-0.18566184,-0.095768064,0.49799395,-9.576807,1.0037369,47.695843,-0.9134531,-2.15099,-3.8247998,-0.28146026,0.4428916,-0.17430708,28.3125,29.625,28.625,32.75,35.1875,36.3125
0.4600525,-1.1903336,-1.3150142,-1.1968637,-0.03436744,0.026750937,-0.111324936,-0.43335328,-0.35704926,0.08489432,3.0640674,-0.61188054,0.0002488103,-0.22530957,-0.03437375,-0.0044247457,-0.083108746,0.0097712735,0.020502225,0.4398753,-1.3330201,1.8461555,-2.0925086,-1.5570406,2.4086235,-0.1597867,0.40257466,-0.4938004,0.04920169,0.07186201,-0.17948468,-0.076614454,0.38307226,-9.959879,1.0731167,47.674347,-0.8820912,-2.4443064,-3.8795455,-0.13783765,0.25732422,-0.3587203,28.3125,29.625,28.625,32.75,35.1875,36.3125
0.47005272,-0.28271466,-0.6451063,-1.3088404,-0.0084777735,0.036001325,-0.117909156,-0.43566766,-0.3574215,0.084879965,3.0632715,-0.611207,0.0002552174,-0.22949539,-0.037888676,-0.0035620853,-0.08602607,0.011359368,0.03023641,0.43826872,-1.328939,1.8410782,-2.0920289,-1.5562962,2.4067023,-0.15719716,0.41217536,-0.50991446,0.053383406,0.07404129,-0.1865741,-0.114921674,0.28730422,-10.036493,0.95002913,47.67166,-1.1722667,-2.5926898,-3.78273,-0.03501264,0.12135553,-0.1994591,28.3125,29.625,28.625,32.75,35.1875,36.3125
0.48005202,-0.3753533,-0.59242177,-0.8828645,-0.028574618,0.03531712,-0.1222908,-0.43800148,-0.35779718,0.08491703,3.062471,-0.61082864,0.00017265139,-0.23643441,-0.03403378,0.0010309236,-0.07638564,0.021074299,0.023842143,0.43670696,-1.3248746,1.8358568,-2.0914018,-1.5556282,2.405012,-0.1607717,0.4129798,-0.52509725,0.06328204,0.061326586,-0.18383947,0.038307227,0.36391866,-9.768343,0.9992599,47.666286,-0.9847725,-2.0635931,-3.7829895,-0.017206239,0.23808104,-0.4406731,28.3125,29.625,28.625,32.75,35.1875,36.3125
0.49005204,-0.39433852,-0.28638625,-0.4547744,0.027335923,0.010513825,-0.10649977,-0.44039348,-0.35812706,0.08497158,3.0617652,-0.6101012,1.36878225e-05,-0.24002121,-0.030545428,0.0012801994,-0.06983075,0.013653967,0.02436645,0.4350617,-1.3207965,1.8305529,-2.0907257,-1.555005,2.403007,-0.16659607,0.4196311,-0.53940105,0.08075189,0.058777433,-0.19018328,-0.24899697,0.34476504,-9.442732,1.099968,47.66539,-0.91333544,-1.9698529,-3.7823482,-0.16432813,0.349492,-0.27796435,28.3125,29.625,28.625,32.75,35.1875,36.3125
0.5000519,-1.3643966,-0.16887103,0.48693222,0.006952874,0.07330478,-0.115066156,-0.44279858,-0.35846785,0.08502883,3.0610864,-0.60948205,-7.0761074e-05,-0.24132775,-0.033241082,-4.6683355e-05,-0.07414711,0.008781649,0.04357044,0.4334423,-1.316645,1.825106,-2.0899117,-1.5543908,2.4010923,-0.16529135,0.42803973,-0.5493542,0.08538709,0.06510352,-0.20799361,-0.21068975,0.38307226,-8.963891,0.947788,47.672558,-0.7694427,-2.3768167,-3.0461097,-0.3029251,0.35716206,-0.11482935,28.3125,29.625,28.625,32.75,35.1875,36.3125
0.5100521,0.73137325,-0.22083235,1.3400313,-0.026246404,0.021852326,-0.111572355,-0.44522002,-0.35881704,0.08504236,3.060415,-0.60879785,-0.00023462407,-0.238039,-0.038659,0.0030736679,-0.0872279,0.026148995,0.018355347,0.4318503,-1.3124175,1.8196796,-2.0892365,-1.553801,2.3991635,-0.15495293,0.41475648,-0.53641886,0.064088814,0.06941437,-0.17236394,0.2681506,0.076614454,-8.791509,1.0417832,47.67345,-1.0520024,-2.2464767,-3.2611916,-0.104775414,0.30471963,-0.33820355,28.3125,29.625,28.625,32.75,35.1875,36.3125
0.52005213,2.3576202,0.07083594,0.3756989,0.06387285,-0.14521262,-0.10559507,-0.44765636,-0.35918808,0.08501289,3.059518,-0.6084394,-0.0002922968,-0.23398745,-0.035743613,-0.0017845107,-0.0887192,0.013456579,0.03655433,0.430205,-1.3081259,1.8142875,-2.0886967,-1.5530428,2.3974156,-0.15921934,0.41462594,-0.5274396,0.06677115,0.07657871,-0.19472194,1.3024457,-0.019153614,-8.791509,0.87617236,47.66539,-0.491019,-2.7495542,-3.1507058,0.109430015,0.15216033,-0.17307836,28.3125,29.625,28.625,32.75,35.1875,36.3125
0.5300524,1.3524523,0.6820658,-0.6886998,0.033790994,-0.041751586,-0.12087391,-0.44992962,-0.3594785,0.084946156,3.0589194,-0.607956,4.540744e-05,-0.22338982,-0.030092547,-0.006526799,-0.06892274,-0.005359431,0.021011325,0.42859918,-1.3039798,1.8090647,-2.087815,-1.5523504,2.395588,-0.15376319,0.40905032,-0.5159542,0.08611076,0.06630059,-0.17383476,0.9768343,0.2681506,-9.519346,0.92093146,47.677036,-0.43032193,-3.1187317,-3.3846972,-0.07136166,0.14523622,-0.32176217,28.3125,29.625,28.625,32.75,35.1875,36.3125
0.5400524,-0.5065576,-0.31618896,-0.99548477,0.0048211953,-0.0071854177,-0.10672921,-0.4521057,-0.3597898,0.08487778,3.0584717,-0.6072914,0.00043409923,-0.21729748,-0.026935278,-0.0038677338,-0.05698573,-0.0011758434,0.045403488,0.4271499,-1.2999086,1.8038977,-2.0868208,-1.5517305,2.3937826,-0.14671898,0.39415756,-0.5064894,0.093260795,0.054026186,-0.19133876,0.22984336,-0.095768064,-9.959879,0.9410752,47.660015,-0.61818093,-2.8708367,-3.28413,-0.32607815,0.2798707,-0.0013765267,28.3125,29.625,28.625,32.75,35.1875,36.3125
0.55005217,0.3739747,-0.13748354,-0.95565426,0.01786587,-0.012710147,-0.11528417,-0.45429274,-0.36007312,0.084865235,3.0579062,-0.6068416,0.0003879888,-0.21828812,-0.031415034,-0.0012318352,-0.06718813,0.0183518,0.012909529,0.42571282,-1.2960415,1.7989014,-2.0860622,-1.5512141,2.3921413,-0.13956627,0.38744956,-0.50007874,0.070951544,0.05476961,-0.1516621,0.19153613,-0.038307227,-9.940725,0.87393653,47.68062,-0.94424593,-3.0310462,-3.4135623,-0.2061675,0.31691176,-0.38397044,28.3125,29.625,28.625,32.75,35.1875,36.3125
0.5600521,0.46861288,-0.5560882,-1.2441686,-0.010020862,-0.0009646555,-0.13032468,-0.45645615,-0.36036074,0.08491342,3.0572703,-0.60636115,0.00017900554,-0.21361591,-0.031872332,8.939176e-06,-0.07235018,0.020615395,0.041734897,0.42430985,-1.2923421,1.7939748,-2.085333,-1.5506967,2.3905249,-0.13667898,0.37646317,-0.48942152,0.06775501,0.059065744,-0.17753586,0.49799395,0.2681506,-10.113108,1.0462601,47.67793,-0.68915963,-2.9040608,-3.4982986,-0.095384136,0.3859903,-0.13735944,28.3125,29.625,28.625,32.75,35.1875,36.3125
0.57005244,0.7085224,-1.827572,-0.73032653,-0.01920671,-0.03821801,-0.11283097,-0.4585977,-0.36071706,0.08498678,3.0565095,-0.60565525,-6.931984e-05,-0.20829827,-0.033369318,0.0013421844,-0.080832265,0.016544152,0.01743185,0.42297867,-1.288691,1.7890624,-2.084686,-1.5500573,2.388856,-0.13430166,0.36664146,-0.4813843,0.06936744,0.068266965,-0.15069641,0.34476504,0.3256114,-9.691729,0.8537928,47.68599,-0.6196071,-2.6840518,-3.4020548,-0.017074231,0.23281904,-0.32457593,28.3125,29.625,28.625,32.75,35.1875,36.3125
0.5800527,2.2090034,1.5647923,0.69168586,0.0751102,-0.08238495,-0.13901763,-0.4606856,-0.36106947,0.08503137,3.055695,-0.60504335,-0.00018256843,-0.20213683,-0.030594802,0.00061511603,-0.07396914,0.00583161,0.038783334,0.42164758,-1.2850865,1.7842678,-2.0840585,-1.5493382,2.387253,-0.13264255,0.36036795,-0.47627607,0.083745025,0.06688782,-0.17038421,0.8619126,0.11492168,-8.810662,0.9321212,47.677036,-0.60134757,-2.7481942,-3.1693501,-0.102474466,0.10409936,-0.114966035,28.3125,29.625,28.625,32.75,35.1875,36.3125
0.59003407,0.8418429,0.8370861,1.1339442,0.07112883,-0.03122941,-0.13496958,-0.46266183,-0.3613673,0.08501223,3.0551805,-0.60446775,-2.8585837e-06,-0.19841559,-0.027952498,0.0034362054,-0.062055666,0.011669644,0.0145676285,0.42038995,-1.2814838,1.7795442,-2.0831716,-1.548755,2.3857048,-0.12618913,0.34895203,-0.47044632,0.088420205,0.05325676,-0.13989173,0.38307226,0.095768064,-8.6574335,0.9791215,47.721813,-0.6634457,-2.5208232,-2.9041739,-0.25924894,0.18754554,-0.27083206,28.3125,29.625,28.625,32.75,35.1875,36.3125
0.6000531,0.08024269,-0.38585916,0.6708256,0.00094398676,0.0005964162,-0.14376138,-0.46457815,-0.36162853,0.08497274,3.0547295,-0.6041158,0.00012874839,-0.19564527,-0.027421588,0.0011020323,-0.058677964,0.02030303,0.022952039,0.41917992,-1.277974,1.774979,-2.0823147,-1.5482768,2.384336,-0.1208771,0.34412345,-0.4567028,0.07322081,0.04677225,-0.1430589,0.57460845,0.15322891,-9.059659,0.85826975,47.71465,-0.79427594,-2.7823586,-3.1337872,-0.15472686,0.29021633,-0.37999249,28.3125,29.625,28.625,32.75,35.1875,36.3125
0.61005265,0.81016546,0.23995925,-0.07561352,0.027459478,-0.04740081,-0.12774006,-0.46645683,-0.3618775,0.08487289,3.0543013,-0.60354006,0.00028077565,-0.19051182,-0.027048824,-0.00086894346,-0.05977921,0.019384867,0.027855532,0.4179709,-1.2744776,1.770593,-2.0816224,-1.5477723,2.3828244,-0.11784927,0.33731505,-0.44321147,0.06709552,0.048275664,-0.14491327,0.51714754,0.11492168,-9.461885,0.9410752,47.68062,-0.79035664,-2.9711637,-3.364117,-0.03036053,0.35422742,-0.16287392,28.3125,29.625,28.625,32.75,35.1875,36.3125
0.6200341,0.9925148,0.41839078,-0.5664568,0.032554373,-0.036191605,-0.12788412,-0.4683203,-0.36216792,0.08483701,3.053791,-0.603069,0.00030401972,-0.18468173,-0.025729232,-0.0012900751,-0.057890836,0.009204026,0.014389581,0.41684562,-1.2710764,1.7661694,-2.080901,-1.5472673,2.381474,-0.11629565,0.3308845,-0.43742242,0.077571966,0.050552525,-0.12984462,0.45968673,0.0,-9.672575,0.80456203,47.721813,-0.6191243,-3.1972053,-3.0305014,-0.0712523,0.37099397,-0.3621587,28.3125,29.625,28.625,32.75,35.1875,36.3125
0.63003236,1.5279312,0.22691436,-1.2727475,0.0158839,-0.03106634,-0.13531354,-0.47007078,-0.36237037,0.0847983,3.0534241,-0.6025561,0.00065057626,-0.17650802,-0.025638292,-0.0015142378,-0.06092359,-0.0022814542,0.034799818,0.41566044,-1.2678562,1.7619132,-2.0799162,-1.546749,2.3800166,-0.11405168,0.3210319,-0.42729148,0.087111555,0.0583519,-0.1479047,0.49799395,0.11492168,-9.998186,0.9298854,47.68062,-0.39092588,-3.2591403,-3.1079288,-0.3030269,0.22688591,-0.035315793,28.3125,29.625,28.625,32.75,35.1875,36.3125
0.6400528,-0.8073827,-1.8233012,-1.2755094,-0.052634902,0.000833371,-0.10924684,-0.47185507,-0.36265293,0.08489419,3.052736,-0.60214925,0.00060246297,-0.17441326,-0.027321592,0.0009058101,-0.0697719,0.0112951575,0.008083086,0.41453606,-1.2648286,1.7576364,-2.079097,-1.5461363,2.378732,-0.11040312,0.3083666,-0.41289943,0.068785414,0.060546402,-0.1174791,0.47884032,0.3256114,-10.132261,0.9186956,47.713753,-0.41423643,-3.2575963,-3.4517057,-0.27519307,0.08762978,-0.26273033,28.3125,29.625,28.625,32.75,35.1875,36.3125
0.650052,0.062216047,0.6273867,-0.5143003,0.04608783,-0.022084255,-0.12767269,-0.4736259,-0.36297774,0.084966935,3.0519238,-0.6018272,0.0003105122,-0.17202947,-0.026623853,0.0021803686,-0.06310384,0.023368506,0.015481658,0.4134964,-1.2618362,1.7535232,-2.0785968,-1.5455278,2.3776035,-0.10363671,0.299494,-0.40312308,0.059699398,0.049714074,-0.11825825,0.6512228,0.24899697,-9.653421,0.87393653,47.685097,-0.7427099,-3.0538597,-3.3131838,-0.03165992,0.0700979,-0.40502188,28.3125,29.625,28.625,32.75,35.1875,36.3125
0.6600522,1.8689506,0.7634227,0.11547807,0.04756738,-0.09116899,-0.12538604,-0.47537097,-0.36325017,0.085070774,3.051338,-0.60120785,-0.0001780793,-0.16959171,-0.023520738,0.004529391,-0.052024573,0.031023752,0.030149609,0.41250378,-1.2589637,1.7494735,-2.078046,-1.5451244,2.376305,-0.09962781,0.2895277,-0.39673054,0.061127365,0.036828008,-0.12911434,0.6512228,0.21068975,-9.212888,0.85826975,47.728977,-0.72728825,-2.9473019,-3.0069447,0.050531156,0.21483624,-0.1396799,28.3125,29.625,28.625,32.75,35.25,36.3125
0.6700524,0.43497983,0.015145149,0.27632388,0.036571372,-0.04589787,-0.11836238,-0.4770345,-0.3634721,0.08511593,3.050921,-0.6007582,-0.00050553755,-0.1595281,-0.021362118,0.0020149832,-0.044094056,0.013294752,0.0145524,0.41154683,-1.2561146,1.7455548,-2.0774057,-1.5448245,2.3751252,-0.095351435,0.28206643,-0.3858282,0.076661475,0.03644693,-0.10922551,0.6703765,0.17238252,-9.11712,0.7709874,47.693153,-0.6351271,-2.8288486,-3.008521,-0.042398825,0.30446982,-0.2993359,28.3125,29.625,28.625,32.75,35.25,36.3125
0.6800527,0.67652154,0.79968107,1.0578086,0.042751897,-0.038816523,-0.13013585,-0.47856656,-0.3637064,0.08515709,3.0504847,-0.6003692,-0.00042315913,-0.15281437,-0.018263597,-0.00035030965,-0.03967614,0.00097022246,0.021501197,0.41062456,-1.2533847,1.741743,-2.0765417,-1.5443681,2.3740191,-0.09568948,0.27586618,-0.37527677,0.08564635,0.037548587,-0.11649357,0.4405331,-0.11492168,-8.848969,0.79560274,47.674347,-0.5805431,-2.905438,-2.9318867,-0.24983881,0.35229784,-0.24840319,28.3125,29.625,28.625,32.75,35.25,36.3125
0.69005215,0.025334325,-0.38014778,0.753836,0.02292141,-0.006715456,-0.11193576,-0.48002088,-0.36389646,0.08510077,3.0501902,-0.59994185,-0.00011269691,-0.1509783,-0.018877411,0.0018277027,-0.046426445,0.0133556025,0.024290811,0.40970296,-1.2506325,1.7381133,-2.0756848,-1.5439357,2.372869,-0.09368078,0.2639306,-0.36158285,0.06993897,0.038831603,-0.11726132,0.076614454,0.05746084,-8.848969,0.79560274,47.72002,-0.42941523,-2.7729785,-3.0108833,-0.22994292,0.35751766,-0.023205612,28.3125,29.625,28.625,32.75,35.25,36.3125
0.7000526,0.027372994,-0.5605882,-0.3616867,0.0046689557,-0.0033852912,-0.11021216,-0.4814797,-0.36406344,0.085021615,3.0498629,-0.59970695,1.6500753e-05,-0.14655402,-0.02165642,-0.00093993585,-0.050862525,0.014756448,0.004761984,0.40878293,-1.2479137,1.7346143,-2.0750191,-1.5435747,2.3718467,-0.08745419,0.26083583,-0.3488883,0.05664751,0.041896023,-0.091441005,0.21068975,0.28730422,-9.289502,0.7732232,47.71823,-0.57701063,-3.168167,-3.1024146,-0.08595595,0.32928127,-0.2624808,28.3125,29.625,28.625,32.75,35.25,36.3125
0.7100524,2.2390535,0.79747325,-0.48710752,-0.00046047452,-0.055730265,-0.1344619,-0.48292974,-0.36425465,0.08495607,3.049378,-0.5996535,7.8718294e-05,-0.14128947,-0.022774415,-0.0007520183,-0.05483402,0.011572664,0.0074808155,0.4078738,-1.2452561,1.7311867,-2.0744689,-1.5431408,2.3709714,-0.08425283,0.25311634,-0.33974263,0.056611355,0.046865333,-0.09086622,0.9385271,0.28730422,-9.595961,0.7866488,47.711964,-0.5925704,-3.3828006,-3.1009784,-0.013359247,0.24502125,-0.41472504,28.3125,29.625,28.625,32.75,35.25,36.3125
0.7200525,1.6119121,-0.20219196,-0.8627876,-0.007301646,-0.047663033,-0.1268454,-0.48423487,-0.3644834,0.084878825,3.0489826,-0.599175,0.0004396395,-0.13076048,-0.018565021,-0.005461397,-0.045083646,-0.008545666,0.027498389,0.40707165,-1.2427179,1.7279047,-2.0737813,-1.5426015,2.3699222,-0.08306411,0.24650581,-0.32462993,0.07106816,0.0463373,-0.10971581,1.0534487,0.21068975,-9.921572,0.78217715,47.688675,-0.4753877,-3.5915565,-3.3496203,-0.19346157,0.14595397,-0.11375943,28.3125,29.625,28.625,32.75,35.25,36.3125
0.7300336,2.017478,0.6970845,-0.76657957,0.023499377,-0.06826164,-0.123727225,-0.48552722,-0.36465445,0.08484278,3.0486593,-0.5987858,0.00056606607,-0.12785853,-0.018937472,-0.0009686488,-0.04054796,0.00090806733,0.014222276,0.40627185,-1.2403371,1.7247356,-2.0731232,-1.54222,2.3689225,-0.07600711,0.2345047,-0.3194102,0.07048471,0.038076226,-0.089518026,0.80445176,0.30645782,-9.557653,0.8403672,47.695843,-0.6814642,-3.587616,-2.9517746,-0.29303753,0.14870387,-0.19006713,28.3125,29.625,28.625,32.75,35.25,36.3125
0.74005353,-0.46300212,0.01926087,-0.40085822,-0.008542827,0.020250373,-0.11919243,-0.48671946,-0.36486802,0.08482463,3.0483756,-0.598461,0.0007845227,-0.12440506,-0.017535169,0.0019602312,-0.039001398,0.01324543,0.007077925,0.4056142,-1.2380542,1.7216228,-2.0723498,-1.54185,2.3680995,-0.072306655,0.21888302,-0.3033913,0.05913017,0.031602878,-0.07878957,0.2681506,0.095768064,-9.730036,0.8627467,47.705692,-0.67823654,-3.1490037,-3.31566,-0.30202597,0.19505516,-0.3311761,28.3125,29.625,28.625,32.75,35.25,36.3125
0.750053,0.27957225,0.46999696,-0.4066989,0.018470999,0.023039246,-0.122765854,-0.48800555,-0.36504662,0.08486243,3.047906,-0.59821165,0.00052010093,-0.124128446,-0.017426511,0.002953218,-0.039289743,0.024552437,0.01966074,0.40486032,-1.2358875,1.7186116,-2.0719106,-1.5415157,2.3672557,-0.070002265,0.21268387,-0.29507303,0.046874877,0.027659731,-0.08914113,0.15322891,0.05746084,-9.634268,0.7150385,47.696735,-0.5361843,-3.239953,-3.1084085,-0.13390811,0.2580558,-0.237319,28.3125,29.625,28.625,32.75,35.25,36.3125
0.760004,0.16491622,0.87552565,0.035313457,0.017474784,-0.012188516,-0.10971548,-0.48921716,-0.3652337,0.08491326,3.0475562,-0.5976923,0.00024145674,-0.11909146,-0.014807345,0.0016256603,-0.0359817,0.02032031,0.021446705,0.40420178,-1.2338285,1.7156986,-2.0714319,-1.5412401,2.3663208,-0.069798514,0.20500395,-0.28256413,0.047332916,0.026402233,-0.09074232,0.15322891,-0.11492168,-9.32781,0.8224646,47.71823,-0.46604428,-3.2299066,-3.1147728,-0.054401092,0.31396267,-0.04637117,28.3125,29.625,28.625,32.75,35.25,36.3125
0.7700054,1.0827116,0.95941454,-0.127581,0.057154823,-0.05053743,-0.11665105,-0.49042124,-0.365374,0.084975906,3.0471184,-0.5975236,-0.00010935853,-0.113126285,-0.014244121,0.0032027476,-0.0369135,0.01827424,0.004955999,0.40348405,-1.231879,1.7129163,-2.0710247,-1.5409755,2.36556,-0.06712279,0.19261838,-0.27036202,0.048491675,0.027760426,-0.07153105,0.57460845,-0.095768064,-9.346964,0.79560274,47.707485,-0.43335682,-3.1791782,-2.9586306,0.01832572,0.3140757,-0.16544533,28.3125,29.625,28.625,32.75,35.25,36.3125
0.7800522,2.1523178,0.021601379,-0.2326335,0.023400929,-0.050970197,-0.11829719,-0.49149504,-0.3654879,0.084985696,3.0468166,-0.59742,-0.00012861226,-0.105762,-0.013822511,0.001893054,-0.03335775,0.00704864,-0.00018454649,0.40281478,-1.2299995,1.7103022,-2.0704587,-1.5407113,2.3648682,-0.06317839,0.1865303,-0.2618709,0.057566322,0.028775021,-0.062416974,0.8810662,0.21068975,-9.308657,0.7866488,47.689575,-0.30151266,-3.2178962,-2.9558291,-0.05464743,0.36542132,-0.3195998,28.3125,29.625,28.625,32.75,35.25,36.3125
0.79005253,1.5264207,-0.9639127,0.062069602,-0.025162533,-0.062139116,-0.11464459,-0.4925,-0.36559376,0.085015185,3.0465705,-0.5974385,-9.8016804e-05,-0.097976275,-0.012284524,0.00078597467,-0.029860869,-0.00093993614,0.0021791172,0.4022049,-1.2282292,1.7077597,-2.0697868,-1.5404953,2.3643045,-0.060187247,0.17677587,-0.24794129,0.062122874,0.028731525,-0.06178989,0.8619126,0.40222588,-9.308657,0.8112748,47.67614,-0.3982337,-3.178986,-3.0867982,-0.2268579,0.38839015,-0.4365711,28.3125,29.625,28.625,32.75,35.25,36.3125
0.8000527,1.3686875,0.32923675,0.059989255,0.006729599,-0.03112679,-0.12069798,-0.49344915,-0.36574948,0.085025884,3.0462625,-0.5970894,5.7978534e-05,-0.094096206,-0.015396402,0.0025801286,-0.033671804,0.004854251,0.026042115,0.40163234,-1.2264942,1.7053236,-2.0691907,-1.5401233,2.363555,-0.05347403,0.16873962,-0.240122,0.05608036,0.030348284,-0.078921735,0.7661445,0.3256114,-9.270349,0.7665104,47.655537,-0.54984176,-3.1667461,-2.8111706,-0.31654742,0.3464645,-0.21955736,28.3125,29.625,28.625,32.75,35.25,36.3125
0.8100516,0.44291577,-0.36771837,-0.25055277,-0.011367666,-0.008472382,-0.1140784,-0.49433577,-0.36592376,0.08503402,3.0460012,-0.5965746,0.00018185709,-0.08843633,-0.016310418,-0.0007968663,-0.036277488,0.005398622,0.026070874,0.40114278,-1.2248423,1.7030114,-2.0686452,-1.5397748,2.3627777,-0.049264833,0.16270022,-0.22162522,0.042006314,0.03247134,-0.07470017,0.51714754,0.21068975,-9.385271,0.7620334,47.67793,-0.6918625,-3.3510947,-3.134283,-0.24783912,0.24920532,-0.09645962,28.3125,29.625,28.625,32.75,35.25,36.3125
0.8200519,1.0096942,0.23313175,-0.028165696,-0.000105124156,-0.02455595,-0.13253845,-0.49521035,-0.36610344,0.08502135,3.0456483,-0.59625506,9.035788e-05,-0.08574029,-0.017636087,6.5624394e-05,-0.03822727,0.0106558055,0.010695316,0.40068913,-1.2232511,1.7008857,-2.0683725,-1.5394629,2.362173,-0.045005884,0.15575711,-0.2126809,0.03382298,0.03182648,-0.055061124,0.36391866,0.30645782,-9.481039,0.73741806,47.681515,-0.75225437,-3.2898908,-3.013857,-0.10416053,0.15889548,-0.21321982,28.3125,29.625,28.625,32.75,35.25,36.3125
0.83005196,-0.019375935,0.43600088,-0.0009410413,0.017961983,0.0040614917,-0.11566489,-0.49605766,-0.36628076,0.08506478,3.0452924,-0.5960234,-7.690192e-06,-0.08236153,-0.014872916,0.00036914353,-0.032507718,0.009936832,0.0076695597,0.40025812,-1.2217674,1.6987475,-2.0679767,-1.5391654,2.361647,-0.044411417,0.14817652,-0.20404398,0.03559361,0.026810665,-0.051534075,0.2873042,0.15322891,-9.461885,0.8493211,47.681515,-0.7318778,-3.5235639,-2.8612003,-0.07832928,0.10140981,-0.23829699,28.3125,29.625,28.625,32.75,35.25,36.3125
0.84005344,1.2115262,1.234847,0.29446483,0.05930953,-0.050780192,-0.13259289,-0.4968823,-0.36643648,0.08511122,3.0449278,-0.5958835,-0.00024622894,-0.07607129,-0.011722758,0.00023521137,-0.027547989,0.008648173,0.0042564967,0.39983943,-1.2203817,1.6967572,-2.0677016,-1.538927,2.3611927,-0.04297232,0.13546352,-0.18686782,0.03413333,0.022699596,-0.046758454,0.6512229,-0.038307227,-9.270349,0.76874626,47.66987,-0.66859096,-3.316822,-3.0351677,-0.0034710802,0.07045472,-0.3186624,28.3125,29.625,28.625,32.75,35.25,36.3125
0.85005283,0.6555632,0.6671835,0.4011381,0.021770177,-0.03736813,-0.12502207,-0.4976096,-0.36649513,0.085068054,3.0447886,-0.5957734,-0.00016908665,-0.07236438,-0.008602535,0.0010375407,-0.021285344,0.007763626,0.008551388,0.39937246,-1.2190306,1.6949786,-2.0673058,-1.5387605,2.3606758,-0.04259442,0.12664083,-0.17802848,0.037535157,0.017399019,-0.05078856,0.5554548,0.038307227,-9.212888,0.7486078,47.67793,-0.5584624,-3.3381343,-2.7283998,-0.005750807,0.080121405,-0.2630111,28.3125,29.625,28.625,32.75,35.25,36.3125
0.86005247,0.2466403,-0.20962009,0.19687599,-0.004025644,-0.012725855,-0.12458784,-0.498287,-0.36657187,0.085060835,3.044646,-0.59558535,-0.00013087847,-0.06465526,-0.0063765426,-0.0015520225,-0.013916076,-0.0023333933,0.015777536,0.3989663,-1.2177984,1.6932734,-2.0668967,-1.5385936,2.3601713,-0.039550688,0.11985882,-0.16496204,0.043580916,0.014676765,-0.055030208,0.51714754,0.2681506,-9.270349,0.7418897,47.693153,-0.467973,-3.4681678,-2.7729635,-0.13597769,0.11280538,-0.12744921,28.3125,29.625,28.625,32.75,35.25,36.3125
0.87005246,0.6758333,0.17969592,0.16735859,0.040916383,-0.061581,-0.12823114,-0.49890146,-0.36663702,0.08504298,3.0445576,-0.59528255,-2.1729233e-05,-0.059457794,-0.0052353167,-0.0028417099,-0.011575247,-0.0045532645,0.010996367,0.3985839,-1.2166502,1.6916999,-2.066479,-1.5384263,2.3596103,-0.03714025,0.11235425,-0.15161315,0.040476836,0.013247312,-0.04786562,0.6512228,0.19153613,-9.251195,0.78217715,47.721813,-0.44531173,-3.6270194,-2.931003,-0.2006757,0.13422874,-0.040125586,28.3125,29.625,28.625,32.75,35.25,36.3125
0.880053,1.089869,0.48062623,0.33642018,0.04265007,-0.053107653,-0.12669344,-0.49947494,-0.36669657,0.08498497,3.044478,-0.59519184,0.00010753823,-0.05381227,-0.0049905684,-0.004220736,-0.009750838,-0.0066072703,0.0045614135,0.39823785,-1.2155143,1.6902455,-2.0661333,-1.5382947,2.359218,-0.03325455,0.105018124,-0.13808143,0.03655883,0.0121555105,-0.037562992,0.7661445,0.095768064,-9.289502,0.76874626,47.667187,-0.42978448,-3.8026266,-2.9642696,-0.26975155,0.16911918,-0.06620964,28.3125,29.625,28.625,32.75,35.25,36.3125
0.8900087,-0.0041584345,-0.94778794,-0.6613995,-0.011150289,-0.03246713,-0.12275424,-0.4999589,-0.3667256,0.08494887,3.0444784,-0.59515786,0.0002459675,-0.05104582,-0.0052782106,-0.0010574745,-0.01254527,0.0021460261,-0.00074936415,0.39793947,-1.21456,1.6889676,-2.065729,-1.5382351,2.3588974,-0.030483827,0.092485465,-0.12657122,0.028173542,0.011164868,-0.029501349,0.5554548,0.28730422,-9.672575,0.784413,47.693153,-0.42042542,-3.6843438,-2.8877404,-0.30364472,0.18555233,-0.12054586,28.3125,29.625,28.625,32.75,35.25,36.3125
0.9000554,0.47140902,-0.25585464,-0.7270121,-0.009845267,-0.026165104,-0.119137965,-0.5004661,-0.36676407,0.0849537,3.0442839,-0.5951904,0.00023927295,-0.04612349,-0.0050054383,-0.00045122314,-0.013756738,0.0049340734,-0.002246864,0.39759323,-1.2137009,1.6877636,-2.0654805,-1.5380791,2.3585992,-0.0276534,0.08129142,-0.11147357,0.021095894,0.0111292675,-0.025174255,0.4213795,0.30645782,-9.787497,0.8023209,47.642998,-0.3859241,-3.5539536,-3.0163507,-0.26790744,0.20826069,-0.17860547,28.3125,29.625,28.625,32.75,35.25,36.3125
0.9100534,0.59261006,0.19847196,-0.30694148,0.020714298,-0.028402347,-0.13023458,-0.50092655,-0.3668335,0.08495671,3.0441353,-0.59517485,8.772485e-05,-0.044194553,-0.005761146,0.0022648927,-0.016287858,0.011710031,-0.0016576117,0.3973664,-1.212901,1.6866645,-2.0653384,-1.5380071,2.3583844,-0.025058871,0.07229241,-0.104281366,0.015614554,0.010805782,-0.023175793,0.53630114,0.22984336,-9.615114,0.7150385,47.694054,-0.29101777,-3.5515385,-2.7090406,-0.21010889,0.22464097,-0.2126112,28.3125,29.625,28.625,32.75,35.25,36.3125
0.9200525,0.7325211,0.43742964,0.029233774,0.024973454,-0.03929396,-0.1352989,-0.5013354,-0.36688465,0.08495969,3.0439377,-0.59516656,-8.999724e-06,-0.0372198,-0.004688212,0.0002128074,-0.01289195,0.0066137393,-0.00070021715,0.39711604,-1.2122207,1.6857361,-2.0652435,-1.537876,2.3581572,-0.02158872,0.064160734,-0.088692985,0.01409837,0.009628643,-0.02068657,0.47884035,0.095768064,-9.404425,0.779936,47.694054,-0.31852448,-3.6310067,-2.8911114,-0.14902575,0.25176144,-0.25341013,28.3125,29.625,28.625,32.75,35.25,36.3125
0.9300522,1.2095478,0.7635259,0.42486155,0.008934998,-0.034412645,-0.1336716,-0.5016875,-0.3669392,0.0849933,3.0437987,-0.59511465,-0.00015672737,-0.032432407,-0.003578307,0.0007672675,-0.010137759,0.00612809,-0.0014148167,0.39693734,-1.2116606,1.6848897,-2.0651119,-1.537805,2.3579662,-0.018991347,0.054840323,-0.07751386,0.013655779,0.007231827,-0.017423207,0.5554548,0.2681506,-9.212888,0.7463667,47.68599,-0.27376488,-3.67693,-2.8311317,-0.10916385,0.2717701,-0.31134146,28.3125,29.625,28.625,32.75,35.25,36.3125
0.9400523,0.65657973,-0.21362728,0.49737427,0.009302754,-0.040350348,-0.12861969,-0.5019681,-0.36695996,0.08498502,3.0437386,-0.59506154,-0.00015979387,-0.026295578,-0.00284417,8.7852335e-05,-0.0067578154,0.0030321002,0.0007000623,0.39675906,-1.2111602,1.6842111,-2.0649679,-1.5377454,2.357763,-0.015195413,0.046282012,-0.06468644,0.013503102,0.005304266,-0.015783224,0.47884035,0.2681506,-9.097966,0.7553206,47.658226,-0.29852852,-3.6136734,-2.8703156,-0.100778334,0.29652095,-0.3278054,28.3125,29.625,28.625,32.75,35.25,36.3125
0.95005274,0.59350675,-0.19849196,0.17042513,0.029679025,-0.066016644,-0.12008357,-0.50219184,-0.36699957,0.08497117,3.0436554,-0.5951373,-0.000118450305,-0.021681968,-0.0024104004,5.4087348e-05,-0.005536644,0.0024245684,0.0019825029,0.3966402,-1.2107196,1.6836275,-2.0648372,-1.5376738,2.3577034,-0.0124348365,0.038330738,-0.053582046,0.011338509,0.004400159,-0.014325221,0.63206923,0.19153613,-9.155427,0.79560274,47.64837,-0.3206594,-3.7620099,-2.7904682,-0.083698496,0.2984261,-0.34920454,28.3125,29.625,28.625,32.75,35.25,36.3125
0.9600525,0.17444044,0.19365169,-0.21101855,0.019143833,-0.062481128,-0.1317346,-0.5023714,-0.36700922,0.08492092,3.043698,-0.59501255,-5.219253e-05,-0.015241059,-0.0025154692,-0.00071369694,-0.0041228277,-0.0010222112,0.0048246547,0.39653388,-1.2103149,1.6831783,-2.0647423,-1.5376624,2.3575122,-0.008143928,0.029908257,-0.04048759,0.010344036,0.0044215326,-0.012877084,0.61291564,0.21068975,-9.308656,0.7933669,47.695843,-0.2317963,-3.8743262,-2.7906828,-0.1290537,0.28693467,-0.34326893,28.3125,29.625,28.625,32.75,35.25,36.3125
0.9700518,0.40565455,0.009746879,-0.34941977,0.0031371808,-0.038719248,-0.13018638,-0.50244904,-0.36703116,0.084885016,3.0437124,-0.5949219,0.00010252917,-0.00932693,-0.0030902326,-0.0017874166,-0.002624674,-0.0010568263,0.0051451437,0.39648792,-1.210078,1.6829189,-2.0646365,-1.5376028,2.3574064,-0.0027479453,0.021887507,-0.02613712,0.0044621937,0.0029569026,-0.007831906,0.61291564,0.19153613,-9.615114,0.8157518,47.695843,-0.24687785,-3.9098263,-2.8995862,-0.122807994,0.29899848,-0.33172905,28.3125,29.625,28.625,32.75,35.25,36.3125
0.9800562,0.12840866,-0.6991231,-0.50950795,0.013335826,-0.06357382,-0.12076974,-0.5025681,-0.36706203,0.0849235,3.043654,-0.5948905,-7.9228936e-05,-0.00510887,-0.0020131085,-0.0011898787,-0.0014568341,-0.0002945539,0.0012658521,0.39646462,-1.2099373,1.6826476,-2.0646374,-1.5376152,2.3573725,-0.00094778027,0.012471315,-0.014304518,0.0016098458,0.0014787089,-0.002181329,0.6512229,0.36391866,-9.576807,0.7150385,47.64927,-0.13059497,-3.8663583,-2.8401976,-0.12955604,0.29527473,-0.32334644,28.3125,29.625,28.625,32.75,35.25,36.3125
0.9900071,0.95841783,0.6272053,-0.03395821,0.015171085,-0.031832695,-0.13213187,-0.50254905,-0.36710137,0.08490934,3.0436323,-0.59482914,-1.9462474e-05,-0.0008929144,-0.0007598161,0.0005941685,-0.0016505984,0.0009170651,0.000827907,0.39651287,-1.2099054,1.68264,-2.0646493,-1.537567,2.357385,-1.6601972e-07,0.0009834359,-0.002628308,0.00018401908,0.0011812195,-0.0008034977,0.63206923,0.05746084,-9.519346,0.75084364,47.666286,0.12829912,-4.264233,-2.3863072,-0.16891035,0.2757486,-0.28640592,28.3125,29.625,28.625,32.75,35.25,36.3125
1.0000328,0.55463094,0.5309306,-0.093112715,0.041805033,-0.040563546,-0.13078378,-0.50253695,-0.36710453,0.084920935,3.0436249,-0.59482664,-3.6477468e-05,2.4424982e-05,-0.001366775,0.00097468344,-0.002016627,0.0022163333,0.0018431642,0.39652547,-1.209942,1.6826633,-2.0646498,-1.537567,2.357397,0.0015993533,-0.00092558993,-0.00058087177,-0.0013130344,0.0010049458,-0.00022323348,0.2681506,0.24899697,-9.404425,0.80679786,47.68062,-0.064483374,-4.3031473,-2.5309353,-0.13162889,0.28207734,-0.29893494,28.3125,29.625,28.625,32.75,35.25,36.3125
1.0100524,-1.8678609,-1.3190773,-0.041840874,-0.01900786,0.03535002,-0.103730455,-0.5024965,-0.3671226,0.08492939,3.0436513,-0.59468144,5.8540933e-05,0.0018664268,-0.0005164557,0.00019526694,-0.0016076106,-0.0029821922,0.00093574304,0.39656103,-1.2099782,1.6826767,-2.0645769,-1.5375308,2.357337,0.0006749433,-0.0020901829,0.0018551258,0.0023618499,0.002649782,-0.0002048547,-0.40222588,0.49799395,-9.442732,0.7217513,47.723602,-0.031557858,-4.1210847,-2.728746,-0.21445653,0.29241228,-0.3323158,28.3125,29.625,28.625,32.75,35.25,36.3125
1.0200526,0.4060366,-0.055049215,0.48899162,-0.011423049,0.016167281,-0.007929978,-0.50250405,-0.36714143,0.08493192,3.0436084,-0.59468895,3.243924e-05,0.00028177263,-0.0007611088,0.000518359,-0.0016865788,0.00033225748,0.0035190415,0.39657304,-1.209966,1.6826638,-2.0646136,-1.5375069,2.35736,0.0006021014,-0.00072603417,-0.00014042815,4.310566e-09,0.0014922209,-0.0028878928,0.19153613,0.019153614,-9.155427,0.7329411,47.705692,0.007826208,-4.2494187,-2.61934,-0.15412593,0.2836451,-0.3245156,28.3125,29.625,28.625,32.75,35.25,36.3125
1.0300523,0.87169194,-0.43890563,0.052857097,-0.0027101738,-0.034469143,-0.000401167,-0.50249135,-0.36712807,0.08491823,3.0436473,-0.59469914,0.00012402468,0.0002121549,-0.0007510084,0.00041067126,-0.0020572594,-0.00014757502,0.0023172745,0.39656088,-1.2099538,1.6826638,-2.064554,-1.5375069,2.3573482,0.0002916173,-0.00043406765,-0.00031626283,0.00015107443,0.001999153,-0.001985213,0.36391866,0.2681506,-9.155427,0.7709874,47.71017,-0.0058027618,-4.279531,-2.6430001,-0.11937755,0.30060536,-0.333857,28.3125,29.625,28.625,32.75,35.25,36.3125
1.0400523,0.7004231,-1.3899921,-0.68102944,-0.047085207,-0.009541576,-0.0006903121,-0.50249124,-0.3671004,0.08490154,3.0436707,-0.59470516,0.00021000825,0.000648783,-0.0001409978,-2.6210964e-05,-0.00017250254,-0.001639798,0.0030410476,0.39651293,-1.2099417,1.6826762,-2.0645173,-1.537495,2.3573003,0.00020600385,-0.00025800682,-5.94252e-08,0.0017955725,0.0008598663,-0.0028188552,0.22984336,0.7661445,-9.500193,0.7911258,47.70211,-0.0065508843,-4.221758,-2.6815987,-0.16159694,0.31623274,-0.31425214,28.3125,29.625,28.625,32.75,35.25,36.375
1.0500529,1.3955638,-0.42790926,-0.34639087,-0.040035654,0.0044929367,-0.012739883,-0.5024906,-0.36709222,0.08488841,3.043716,-0.5946198,0.00020520827,0.0022627641,0.00052838784,-0.003665867,0.0018854049,-0.0068558655,0.0030541257,0.39651293,-1.2099286,1.68269,-2.0645301,-1.5375193,2.3572402,0.00016017155,0.002836233,0.0042972234,1.1567838e-05,0.0009826772,-0.002875352,0.38307226,0.4405331,-9.576807,0.7553206,47.696735,-0.03375595,-4.065099,-2.5650358,-0.24033004,0.3266531,-0.3124353,28.3125,29.625,28.625,32.75,35.25,36.375
1.0600528,0.43344924,0.07368463,-0.09882438,-0.015678573,-0.0027574084,-0.006028075,-0.5025122,-0.36712113,0.08488764,3.0436594,-0.5945682,8.988931e-05,-0.00025189534,-0.00075424684,-0.0011379466,-0.0022338599,0.0009770491,0.00258837,0.3965369,-1.2099051,1.6826891,-2.0646513,-1.5375069,2.3572402,0.0001310226,0.0015303168,0.0016360071,-0.004855354,0.0017298207,-0.0024239689,0.22984336,0.24899697,-9.442732,0.7329411,47.682407,-0.011305785,-3.7266421,-2.2374218,-0.3057322,0.29203427,-0.312133,28.3125,29.625,28.625,32.75,35.25,36.375
1.0700527,0.19306144,-0.109966874,0.115919925,-0.018674886,0.004928807,-0.007349289,-0.50248617,-0.36714152,0.08488724,3.0436237,-0.5945035,4.7613597e-05,-0.0012241757,-0.0009518472,-0.0022623306,-0.0039045091,0.0064592143,0.0015916375,0.39657286,-1.209953,1.6827744,-2.0647385,-1.5374831,2.3572407,0.00011084994,0.0018496977,0.0061294264,-0.015400219,0.0011162315,-0.0014623894,0.019153614,0.34476504,-9.404425,0.68146914,47.716442,-0.0600918,-3.3858132,-2.1802208,-0.38752407,0.27260417,-0.30916,28.3125,29.625,28.625,32.75,35.25,36.375
1.0800536,0.82097524,-0.13366014,0.38538185,-0.02585032,0.015326176,-0.016636852,-0.5025201,-0.36715555,0.084850244,3.0435488,-0.5944676,-6.7860205e-06,-0.002835493,-0.0014940406,-0.0045802994,-0.0050445558,0.010148546,0.0014343408,0.3965489,-1.2098796,1.6827992,-2.0649097,-1.5374354,2.357205,9.606023e-05,0.005948499,0.0080724945,-0.025288355,0.0007205642,-0.001330124,0.05746084,0.30645782,-9.155427,0.7396539,47.711964,-0.028917752,-3.3033497,-1.9912364,-0.461327,0.27425492,-0.31361827,28.3125,29.625,28.625,32.75,35.25,36.375
1.0900534,0.8487779,-0.7939801,0.47521895,-0.008126701,-0.0003383416,-0.0063433936,-0.5025156,-0.3671577,0.08474845,3.043582,-0.5944561,-3.5758992e-05,-0.0026373107,-0.0013200048,-0.00958334,-0.0037169112,0.007593908,0.00074899127,0.39657286,-1.2097696,1.6829323,-2.065152,-1.5374717,2.357217,8.475277e-05,0.012269198,0.012494767,-0.0331837,0.0004582037,-0.00066232664,0.22984336,0.3256114,-8.944737,0.70608455,47.682407,-0.06995212,-3.2833562,-1.9063426,-0.54597914,0.24879986,-0.28708267,28.3125,29.625,28.625,32.75,35.25,36.375
1.1000528,0.55726343,-1.2845223,0.44285125,-0.028719075,-0.012240396,-0.0054115164,-0.5025315,-0.36715642,0.084641285,3.0435293,-0.59452015,-5.9299164e-05,-0.0020722253,-0.0010372536,-0.01274488,-0.0028501996,0.0058175423,0.00048468917,0.3965489,-1.2096487,1.6830777,-2.0654528,-1.5374478,2.357241,7.5827076e-05,0.015358352,0.016535452,-0.03834827,0.00033596493,-0.0004103332,0.24899697,0.4213795,-9.002198,0.7642693,47.695843,-0.04822457,-3.133624,-1.8787291,-0.67448413,0.26813757,-0.27724493,28.3125,29.625,28.625,32.75,35.25,36.375
1.1100527,0.6605932,-0.08331376,0.5947704,-0.03789026,-0.015103524,-0.0061686733,-0.50257194,-0.36716947,0.08448532,3.0434873,-0.59447294,-0.00014178916,-0.0027452023,-0.0012949144,-0.01698583,-0.0032470415,0.0068983748,0.00036076404,0.39653686,-1.2094312,1.6832355,-2.0658996,-1.5374359,2.3572054,6.860227e-05,0.020875245,0.021151993,-0.049635492,0.0002652245,-0.0002973081,0.1340753,0.40222588,-9.136273,0.6702794,47.695843,-0.008733986,-3.1349301,-1.7974615,-0.7699231,0.25286,-0.27289045,28.3125,29.625,28.625,32.75,35.25,36.375
1.1200527,0.29738545,-0.25855118,0.5226283,-0.03426632,0.019842764,-0.009805495,-0.50258803,-0.36717248,0.08427973,3.0434794,-0.59441316,-0.0002186736,-0.0057192817,-0.0025311932,-0.020217663,-0.006876056,0.015583905,0.00024910254,0.39653686,-1.2092016,1.6835116,-2.0664566,-1.5374478,2.3571692,6.263449e-05,0.02636619,0.025439803,-0.06883069,0.00021909796,-0.00019691368,0.05746084,0.30645782,-9.136273,0.69937176,47.707485,-0.020550948,-3.1713772,-1.7408869,-0.6993606,0.25498682,-0.27251238,28.3125,29.625,28.625,32.75,35.25,36.375
1.1300529,0.28394577,-0.32507804,0.3469558,-0.03054883,0.014328479,-0.009960255,-0.50264734,-0.36720163,0.08405831,3.043366,-0.594443,-0.00049181737,-0.008377118,-0.0035975978,-0.022574056,-0.010553428,0.024690384,0.0001991511,0.3965489,-1.2089247,1.683813,-2.067241,-1.5374597,2.3572173,5.7621874e-05,0.02996533,0.03005164,-0.08686252,5.963729e-05,-0.00015977076,0.0,0.36391866,-9.251195,0.73069996,47.71554,-0.013321359,-3.1474357,-1.6913884,-0.5361634,0.2368872,-0.26069355,28.3125,29.625,28.625,32.75,35.25,36.375
1.1400527,1.4012662,0.48544514,0.40361097,-0.00404915,-0.020142596,-0.021004213,-0.50271213,-0.367229,0.08379633,3.0432773,-0.59442174,-0.0006993331,-0.004717915,-0.0020513886,-0.028020637,-0.0049542934,0.011395781,0.0001455791,0.3965489,-1.2085754,1.6841139,-2.068053,-1.5374597,2.3572173,5.3352123e-05,0.034888946,0.034228314,-0.081538945,5.094469e-05,-0.00010854917,0.2681506,0.2873042,-9.174581,0.6769922,47.711063,0.0029865578,-3.153949,-1.6923609,-0.57852685,0.22633167,-0.22684082,28.3125,29.625,28.625,32.75,35.25,36.375
1.1500527,1.4999295,0.12641829,0.31887963,0.00523037,-0.030166585,-0.008352125,-0.50274336,-0.36723438,0.08352849,3.0432227,-0.59446585,-0.0008008681,-0.001106955,-0.0005121309,-0.028852127,-0.00016219415,0.00014248124,-7.0666256e-06,0.39653686,-1.2082641,1.684461,-2.0687912,-1.5374597,2.3572412,4.9671533e-05,0.033793174,0.03445402,-0.068442844,5.773488e-06,4.2882857e-05,0.28730422,0.3256114,-9.078813,0.6769922,47.67166,-0.028206754,-3.1718118,-1.7953782,-0.7614749,0.19871354,-0.22050844,28.3125,29.625,28.625,32.75,35.25,36.375
1.1600565,0.32157904,-1.0861487,-0.17303635,-0.040847436,0.005179692,0.0056895036,-0.50273216,-0.36721033,0.083200544,3.0433195,-0.5944699,-0.000677827,-0.0017453587,-0.00077737134,-0.029085077,-0.0011215908,0.0024278592,-4.65463e-05,0.39652494,-1.2078924,1.684832,-2.069414,-1.5374955,2.3572173,4.6466026e-05,0.03428394,0.035189793,-0.072149135,6.851198e-12,7.807694e-05,0.13407528,0.47884035,-9.232041,0.6456587,47.70032,-0.042783022,-3.1288092,-1.7963744,-0.79676604,0.19224265,-0.20644556,28.3125,29.625,28.625,32.75,35.25,36.375
1.1700522,0.31661114,-0.67790717,-0.3027758,-0.053922217,0.030502228,-0.010087787,-0.502768,-0.36723727,0.08290004,3.0432587,-0.5944371,-0.0007933874,-0.0047907312,-0.0020593302,-0.028949702,-0.005693094,0.013242176,-0.0004502079,0.39653686,-1.2075206,1.6851925,-2.070245,-1.5374836,2.3572176,4.3649146e-05,0.035156857,0.037159815,-0.08674628,8.1300795e-18,0.00047532772,0.0,0.5363012,-9.557653,0.66803825,47.711063,0.0005626797,-3.1097994,-1.8740978,-0.6541122,0.19135837,-0.19335908,28.3125,29.625,28.625,32.75,35.25,36.375
1.1800526,0.63370275,0.29925472,-0.23282708,-0.009048869,-0.0169337,-0.0059993593,-0.502829,-0.36726695,0.08259096,3.043159,-0.5944134,-0.0009937409,-0.0030222558,-0.0013127971,-0.030386768,-0.0028980176,0.006605172,-0.00042921328,0.39653683,-1.2071247,1.6855634,-2.0711763,-1.5374717,2.3572176,4.115426e-05,0.036395125,0.037321072,-0.08094353,9.6476845e-24,0.00045354717,0.19153613,0.30645782,-9.500193,0.71279734,47.71465,0.03621747,-3.070415,-1.9448336,-0.5651419,0.18227819,-0.18034604,28.3125,29.625,28.625,32.75,35.25,36.375
1.1900522,1.0152221,0.121841945,0.04366992,0.005573708,-0.02472389,-0.0012884142,-0.50285214,-0.36727682,0.08230089,3.0431316,-0.59442604,-0.0010469576,-5.5761924e-05,6.85592e-05,-0.03147405,0.0022005825,-0.0046750978,-0.0006273736,0.39653683,-1.206777,1.685911,-2.071914,-1.5374717,2.3572295,2.0986153e-08,0.037015457,0.035767715,-0.06764027,-0.000321304,0.00060737936,0.24899697,0.19153613,-9.289502,0.6322331,47.67166,0.0469227,-3.132823,-1.8306425,-0.63604045,0.15477698,-0.16859709,28.3125,29.625,28.625,32.75,35.25,36.375
1.2000531,0.7497368,-0.51525366,0.052220758,-0.022003215,-0.007778722,0.0009301176,-0.5028472,-0.3672826,0.08199078,3.0431666,-0.5943587,-0.00093013997,0.002389104,0.0011175269,-0.033579618,0.0063461964,-0.014370777,-0.0006512279,0.39653683,-1.2064046,1.6862458,-2.0725458,-1.5374478,2.3571813,9.122058e-18,0.03911956,0.03557904,-0.059011836,-0.0003806658,0.0006326368,0.21068975,0.38307226,-9.270349,0.75084364,47.693153,0.07920574,-3.1603951,-1.7725835,-0.8075837,0.1434175,-0.15761709,28.3125,29.625,28.625,32.75,35.25,36.375
1.2100532,0.392609,-1.0415518,0.009853775,-0.04863277,0.008967869,0.003572313,-0.5028061,-0.36727342,0.08164373,3.0432703,-0.5944792,-0.00070237054,0.00056012714,0.0004237136,-0.033551577,0.0042781425,-0.008861546,-0.0007216987,0.3965608,-1.2060088,1.6866168,-2.0731227,-1.5374717,2.3572652,3.9650872e-27,0.04026415,0.03566607,-0.06612517,-0.0006190094,0.0006962383,0.17238252,0.5746084,-9.270349,0.6971306,47.677036,0.07931788,-3.2012954,-1.769445,-0.8283504,0.14844464,-0.14685376,28.3125,29.625,28.625,32.75,35.25,36.375
1.2200344,0.72301555,-0.14121,-0.016765453,-0.03176019,0.011943194,-0.0007164115,-0.5028292,-0.3672481,0.081309155,3.0433018,-0.5945633,-0.0006913496,-0.0030771268,-0.0011195799,-0.032466616,-0.0003538308,0.0020386463,-0.00073368836,0.3965249,-1.2056129,1.6869997,-2.073869,-1.5375074,2.3572776,1.7235058e-36,0.04142624,0.034521118,-0.07798615,-0.0005879611,0.0007058092,0.11492168,0.40222588,-9.32781,0.73069996,47.7245,0.04068166,-3.3426967,-1.6186111,-0.66370773,0.14318553,-0.1403865,28.3125,29.625,28.625,32.75,35.25,36.375
1.2300532,1.1313711,-0.24474746,-0.24254054,-0.004537372,0.0108675575,0.007726752,-0.50285167,-0.3673045,0.08097634,3.04324,-0.5944353,-0.0006857914,-0.0016362205,-0.00052849477,-0.033764865,0.0014639857,-0.002418372,-0.0009833181,0.3965608,-1.2051692,1.6873358,-2.0746934,-1.5374359,2.3572414,1e-45,0.042067707,0.035873473,-0.0751754,-0.0005392589,0.00095749006,0.095768064,0.30645782,-9.308657,0.7418897,47.7245,0.048083477,-3.4502702,-1.7453046,-0.5722628,0.115126446,-0.13790064,28.3125,29.625,28.625,32.75,35.25,36.375
1.240033,1.1476383,0.19259146,-0.22640364,-0.0066819172,-0.004574793,0.0060875416,-0.502884,-0.36727917,0.08062783,3.0433228,-0.5944733,-0.0006799284,0.0020888052,0.0012197498,-0.036025167,0.0075806165,-0.01548304,-0.0009978134,0.39653683,-1.2047255,1.687683,-2.075431,-1.5375079,2.3572295,6.895736e-06,0.043265574,0.036231477,-0.062316187,-0.0011039709,0.00097040564,0.28730422,0.24899697,-9.385271,0.7016076,47.71017,0.08830964,-3.4451349,-1.7713044,-0.7107376,0.120552406,-0.13680845,28.3125,29.625,28.625,32.75,35.25,36.375
1.2500523,0.6521041,-0.93814546,-0.5308179,-0.0076272613,-0.009713425,0.022734566,-0.5028285,-0.36724016,0.08025004,3.0434682,-0.5946046,-0.0003562002,0.003764963,0.0018886509,-0.036532935,0.009817007,-0.02112825,-0.0011373514,0.3965249,-1.2043179,1.6881026,-2.0759919,-1.5375322,2.3572779,2.9973714e-15,0.043166835,0.03599744,-0.05591757,-0.000974694,0.0011079686,0.22984336,0.3256114,-9.3661175,0.6859408,47.695843,0.0897466,-3.4724655,-1.7470675,-0.8410873,0.096681595,-0.13020469,28.3125,29.625,28.625,32.75,35.25,36.375
1.260053,0.22597598,-1.3711545,-0.6602911,-0.04534938,0.0024930567,0.028218172,-0.5027863,-0.36723423,0.079915375,3.0435464,-0.59462386,-0.00013411722,0.0012043432,0.0010447617,-0.03142716,0.0046728556,-0.007024359,-0.0010422512,0.39653683,-1.2039491,1.6884865,-2.0765812,-1.5375203,2.3572896,1.3028682e-24,0.03564503,0.036698997,-0.06408713,-0.0016922448,0.0009941506,0.15322891,0.5554548,-9.615114,0.7217513,47.698532,0.04926482,-3.4892483,-1.7357577,-0.83579063,0.10995065,-0.12806803,28.3125,29.625,28.625,32.75,35.25,36.375
1.2700523,0.75351703,-0.46352664,-0.9128232,-0.030727345,0.010916899,0.024456842,-0.50279236,-0.3672488,0.079588115,3.0435898,-0.59453845,-0.0001043724,-0.002770073,-0.0008637221,-0.030105107,-0.0020375012,0.007067183,-0.00060834346,0.3965608,-1.2035416,1.6888336,-2.077305,-1.5375322,2.3572533,5.663182e-34,0.035610307,0.03775046,-0.08068215,-0.00097316306,0.0005704599,0.11492168,0.3256114,-9.730036,0.683705,47.728977,0.07638308,-3.4532013,-1.7906415,-0.62767816,0.089962184,-0.12437179,28.3125,29.625,28.625,32.75,35.25,36.375
1.2800521,0.3916133,-0.48513678,-1.0269307,0.0053329393,-0.018589323,0.03640694,-0.50285155,-0.36725414,0.07930207,3.0434718,-0.59464467,-0.0002886729,-0.0009076638,3.398489e-05,-0.030918827,0.0007934989,0.0012047545,-0.0013219817,0.3965249,-1.203194,1.689205,-2.0781763,-1.5375203,2.3573017,2.47e-43,0.03549466,0.03827897,-0.07461661,-0.0013205106,0.001278763,0.1340753,0.28730422,-9.653421,0.7038487,47.71554,0.075208545,-3.4747472,-1.7510871,-0.5671415,0.09115502,-0.121230215,28.3125,29.625,28.625,32.75,35.25,36.375
1.2900337,0.65458095,-0.11985457,-0.49079823,-0.000728764,-0.007481208,0.025455281,-0.5028112,-0.36726484,0.07900247,3.0435061,-0.59455806,-0.0002119883,0.0013343939,0.00090544607,-0.030583888,0.0031896788,-0.005030522,-0.0009206496,0.3965608,-1.2028952,1.6896237,-2.0788434,-1.5375079,2.3572776,0.0,0.03350849,0.03814122,-0.06580332,-0.0010923911,0.0008841951,0.11492168,0.22984336,-9.461885,0.6859408,47.707485,0.13100347,-3.30515,-1.6703162,-0.6401917,0.07120763,-0.098051995,28.3125,29.625,28.625,32.75,35.25,36.375
1.3000526,0.6740247,-0.6549661,-0.3878614,-0.011502386,-0.010396758,0.033937488,-0.5028076,-0.36724782,0.0787256,3.043548,-0.5946244,-0.00021845182,0.0032753076,0.0019178236,-0.029821191,0.005987009,-0.010097173,-0.0006224283,0.3965608,-1.2025964,1.6899828,-2.0794752,-1.537556,2.3573134,0.0,0.031033095,0.037731666,-0.057151776,-0.0016888244,0.00057509856,0.21068975,0.3256114,-9.32781,0.7016076,47.68599,0.20369577,-3.2358925,-1.76021,-0.81530905,0.07165384,-0.11743403,28.3125,29.625,28.625,32.75,35.25,36.375
1.3100528,0.4182021,-0.86107886,-0.21809062,-0.025936991,-0.0012889782,0.035307117,-0.502809,-0.367225,0.07845514,3.043591,-0.5946348,-0.00018236577,-6.351331e-05,0.00032667993,-0.027425064,0.001041961,0.00016296878,-0.0008542322,0.39653683,-1.202297,1.6903175,-2.0800645,-1.5375799,2.3572896,0.0,0.030423202,0.03522084,-0.06541525,-0.0011213495,0.00081678486,0.17238252,0.4213795,-9.270349,0.75084364,47.7245,0.12536347,-3.057663,-1.7756689,-0.80734086,0.06276739,-0.11967622,28.3125,29.625,28.625,32.75,35.25,36.375
1.3200058,0.09724046,-1.1570761,-0.6600297,-0.053275503,0.030392643,0.038728222,-0.5028096,-0.36721367,0.07813514,3.0436041,-0.594638,-0.00018243495,-0.0030961141,-0.000931117,-0.0274897,-0.0034400178,0.010968439,-0.000564845,0.3965249,-1.2019491,1.6907371,-2.0808241,-1.5375918,2.3572776,0.0,0.031532723,0.0374134,-0.0804053,-0.0011849094,0.0005216348,0.11492168,0.4213795,-9.576807,0.6971306,47.711964,0.13626169,-3.142107,-1.91245,-0.6138932,0.060057584,-0.12750813,28.3125,29.625,28.625,32.75,35.25,36.375
1.3300533,0.86783266,0.18762408,-0.2968016,-0.005493809,-0.019827148,0.035378814,-0.50283366,-0.36725527,0.077867635,3.0434985,-0.594556,-0.00038812277,-0.0018957744,-0.0004921771,-0.029023513,-0.002012695,0.007054707,-0.0004316829,0.3965608,-1.2016491,1.6911324,-2.0816967,-1.537568,2.3572776,0.0,0.032710344,0.038887046,-0.07889168,-0.0009803564,0.00039311,0.28730422,0.28730422,-9.346964,0.69041777,47.721813,0.1767076,-3.1485436,-1.9655588,-0.5287596,0.045903854,-0.12131567,28.3125,29.625,28.625,32.75,35.25,36.375
1.3400521,0.94615865,-0.14262024,-0.21344282,-0.0012124488,-0.014737566,0.03674984,-0.50285554,-0.36722925,0.077593185,3.0434725,-0.5946822,-0.0004895889,0.001744301,0.0011798777,-0.030450603,0.00434276,-0.006487977,-0.0007767236,0.39652494,-1.201361,1.6915258,-2.0824335,-1.5376042,2.3573253,8.950887e-05,0.033490185,0.037287366,-0.06313738,-0.0015875384,0.0008195657,0.28730422,0.21068975,-9.289503,0.7083204,47.74331,0.20206173,-3.1604118,-1.9564756,-0.6590992,0.043114245,-0.13112666,28.3125,29.625,28.625,32.75,35.25,36.375
1.3500525,0.33258078,-0.8824226,-0.18364891,-0.023336798,-0.0011420338,0.04106628,-0.50281554,-0.36724785,0.077312015,3.0435,-0.59459484,-0.00036277468,0.0029191244,0.0015783097,-0.031093976,0.0059965453,-0.011043853,-0.0005561972,0.39656082,-1.2010611,1.6918844,-2.0830185,-1.537568,2.3573015,0.00011334269,0.034106012,0.03678748,-0.058406755,-0.0013382798,0.00062961376,0.21068975,0.47884035,-9.32781,0.7150385,47.703007,0.22269315,-3.1512272,-2.013547,-0.7745852,0.049918447,-0.10776944,28.3125,29.625,28.625,32.75,35.25,36.375
1.3600409,0.29248807,-0.9792118,-0.17274319,-0.04396077,0.009944834,0.044006627,-0.50281906,-0.3672417,0.07701142,3.043565,-0.5946294,-0.0002633697,0.00026002608,0.0004393499,-0.03007128,0.002672399,-0.0033467922,-0.00048339623,0.39656082,-1.2006774,1.6921705,-2.083596,-1.5375918,2.3573134,0.00010453617,0.034846805,0.035354078,-0.06609535,-0.0012648781,0.00054749876,0.11492168,0.40222588,-9.270349,0.679228,47.703007,0.21795994,-3.1174726,-1.8320668,-0.7701061,0.04951976,-0.12853439,28.3125,29.625,28.625,32.75,35.25,36.375
1.3700559,0.55092686,-0.7666368,-0.3702517,-0.030665537,0.0073624374,0.042741567,-0.50283986,-0.3672349,0.07669904,3.0435712,-0.5946497,-0.00030552899,-0.004096131,-0.0013833803,-0.028877834,-0.003196112,0.010710592,-0.00039672668,0.3965489,-1.2003056,1.6925415,-2.0843556,-1.5376161,2.3573134,0.00011041376,0.03579315,0.035236903,-0.08215463,-0.0013183054,0.0004609178,0.095768064,0.38307226,-9.423578,0.65013564,47.71017,0.23912743,-3.2388115,-1.7830175,-0.5708487,0.026505098,-0.11344038,28.3125,29.625,28.625,32.75,35.25,36.375
1.3800099,1.0844158,0.38771123,-0.39379695,-0.016376099,-0.0024658705,0.039692484,-0.5028637,-0.36728048,0.0764124,3.0435114,-0.59455913,-0.0004440885,-0.0020545237,-0.00062683667,-0.030266428,-4.2923457e-05,0.0033233333,-0.00017634877,0.39659688,-1.1999457,1.6928877,-2.085179,-1.5376042,2.3573134,0.0002862727,0.036926664,0.035153825,-0.075171515,-0.0013561455,0.00041757105,0.17238252,0.28730422,-9.461885,0.6389459,47.70838,0.195736,-3.1704311,-1.7681704,-0.5445357,0.018965922,-0.107504,28.3125,29.625,28.625,32.75,35.25,36.375
1.3900529,0.37359747,-0.48466563,-0.5624619,0.00069965754,-0.022020636,0.050234593,-0.50287265,-0.36724502,0.076073036,3.043541,-0.59466213,-0.00033086457,-1.4288587e-05,8.477195e-05,-0.030866917,0.0034195045,-0.0052109146,-0.00013221739,0.39653698,-1.1995499,1.6932706,-2.085869,-1.5376042,2.3573134,0.00045213627,0.037804283,0.032802638,-0.064493425,-0.0012359396,0.00054533174,0.15322891,0.3256114,-9.442732,0.7239871,47.757637,0.21192667,-3.2496538,-1.725483,-0.6372093,0.031228509,-0.098907754,28.3125,29.625,28.625,32.75,35.25,36.375
1.4000533,0.105264716,-0.94121855,-0.42634314,-0.022431012,-0.004314338,0.05242696,-0.50288147,-0.3672529,0.0758043,3.0435708,-0.59466916,-0.00029003512,0.0016544975,0.00078563776,-0.03213303,0.006425259,-0.012530442,-0.00023024873,0.39654902,-1.1992018,1.6935333,-2.0864413,-1.5376161,2.3573253,0.00042127512,0.03943457,0.031683274,-0.05709449,-0.0011675507,0.00061647344,0.15322891,0.38307226,-9.385271,0.7329411,47.685097,0.27012575,-3.2987642,-1.6658647,-0.79991806,0.025517162,-0.09530467,28.3125,29.625,28.625,32.75,35.25,36.375
1.4100529,0.7706021,-0.6712045,-0.352305,-0.036434237,0.011422874,0.046834745,-0.502876,-0.3672508,0.075516805,3.043616,-0.59466094,-0.00025483975,-0.0015473318,-0.0005384974,-0.030768951,0.0021535615,-0.0024217628,-0.00023968144,0.39656094,-1.198866,1.6938666,-2.0870678,-1.53764,2.3573253,0.0003778423,0.039675876,0.030777402,-0.06740286,-0.0011576465,0.00057968055,0.15322891,0.40222588,-9.385271,0.683705,47.681515,0.28950983,-3.3118682,-1.5401433,-0.780609,0.00023460458,-0.10662744,28.3125,29.625,28.625,32.75,35.1875,36.375
1.4200332,0.319538,-0.76615226,-0.35622618,-0.03813201,0.006857592,0.0541834,-0.5029289,-0.36726937,0.0752364,3.0435674,-0.59466815,-0.00039136302,-0.0046633733,-0.0019319787,-0.029309085,-0.0030773839,0.009507164,-0.00022211504,0.39656094,-1.1984829,1.6941551,-2.0878384,-1.5376519,2.3573372,0.0004073776,0.03869972,0.03199193,-0.08066598,-0.0009696682,0.00059144216,0.21068975,0.36391866,-9.404425,0.67475104,47.667187,0.2330179,-3.250862,-1.6387249,-0.6091592,0.01718539,-0.09576157,28.3125,29.625,28.625,32.75,35.1875,36.375
1.4300528,0.6113288,-0.079823665,-0.24870963,-0.0052279546,-0.02327463,0.053229466,-0.5029357,-0.36728835,0.07488849,3.043594,-0.59463584,-0.0004076363,-0.003433746,-0.0015792622,-0.030995112,-0.0012936239,0.004966468,-0.00015365898,0.396597,-1.1980509,1.694537,-2.088651,-1.5376757,2.3573492,0.00060219795,0.040496383,0.03279013,-0.07838827,-0.0008569704,0.00072122423,0.22984336,0.38307226,-9.3661175,0.6971306,47.750473,0.29472178,-3.3056529,-1.5441575,-0.5148958,-0.010724136,-0.089747824,28.3125,29.625,28.625,32.75,35.1875,36.375
1.4400535,1.0890255,0.42864954,0.1473324,-0.010694059,-0.016192047,0.041816555,-0.50295407,-0.36729628,0.07459932,3.0435996,-0.5946184,-0.00040021862,0.0007759168,0.00025900733,-0.03231197,0.0050199605,-0.008160699,0.00015716633,0.3965971,-1.1976796,1.6948365,-2.0893161,-1.5376757,2.3573372,0.0008579761,0.039775603,0.033148468,-0.063473836,-0.0015716425,0.00065513805,0.17238252,0.24899697,-9.251195,0.7553206,47.739727,0.30317116,-3.2788444,-1.6454093,-0.65525365,0.0005316449,-0.10443801,28.3125,29.625,28.625,32.75,35.1875,36.375
1.4500523,1.1535292,-0.32159775,-0.1248383,-0.018674077,0.0048573576,0.054047704,-0.5029272,-0.36728105,0.0742787,3.0436807,-0.5946761,-0.00022204437,0.0025715875,0.0007272789,-0.032284316,0.0062290104,-0.012903651,9.812694e-05,0.39659712,-1.1973085,1.6951836,-2.0898888,-1.5376881,2.357361,0.00093785865,0.0384062,0.033593472,-0.05771552,-0.000843106,0.00081134273,0.22984336,0.2681506,-9.270349,0.69937176,47.71465,0.2863739,-3.2468736,-1.6375995,-0.80905175,-0.014944794,-0.084056504,28.3125,29.625,28.625,32.75,35.1875,36.375
1.460033,0.5756532,-1.0189271,-0.46155235,-0.04396635,0.016469343,0.060657755,-0.5029367,-0.3672852,0.0739898,3.0436769,-0.59475225,-0.0001930999,0.00030389376,4.5338382e-07,-0.03127712,0.0031377103,-0.004221538,-6.097634e-05,0.3965971,-1.1969492,1.695495,-2.0905387,-1.5376881,2.3574092,0.0008486741,0.03763485,0.03462663,-0.06717959,-0.0013673144,0.0008672267,0.11492168,0.38307226,-9.385271,0.7396539,47.691364,0.31638265,-3.2466292,-1.696624,-0.80671084,0.0018201817,-0.08597781,28.3125,29.625,28.625,32.75,35.1875,36.375
1.4700528,0.5145492,-0.7747972,-0.7274674,-0.037871093,0.017809292,0.063247055,-0.5029358,-0.36727333,0.07364422,3.043758,-0.5947146,-0.00012373611,-0.0033633038,-0.0016481386,-0.02992043,-0.0032492285,0.00939351,8.221408e-05,0.39659703,-1.1965301,1.6958655,-2.0912502,-1.5377239,2.3573735,0.00070749066,0.037010945,0.036263235,-0.08321073,-0.00076385716,0.0005905204,0.19153613,0.4405331,-9.634268,0.679228,47.703903,0.3911666,-3.1099682,-1.7985346,-0.5755049,-0.020420866,-0.091793574,28.3125,29.625,28.625,32.75,35.1875,36.375
1.4800526,1.2965542,0.50144786,-0.3992145,0.0063048895,-0.024532039,0.06299363,-0.5029612,-0.36731163,0.073343635,3.0436835,-0.5946014,-0.00024075962,-0.0009886047,-0.00089670566,-0.030243235,-0.00017140302,0.0019885746,0.00048843765,0.39662114,-1.1961586,1.6962365,-2.092108,-1.5376881,2.3573372,0.0010655863,0.03635825,0.035684038,-0.073958404,-0.0007204987,0.00054582837,0.2681506,0.3256114,-9.519346,0.6658024,47.737934,0.33026928,-3.2382684,-1.7875488,-0.54948676,-0.007980313,-0.08732603,28.3125,29.625,28.625,32.75,35.1875,36.375
1.4900326,0.66835713,0.21631236,-0.035655808,-0.0034906515,-0.030219503,0.07099878,-0.5029451,-0.36729327,0.073030464,3.043741,-0.59467316,-0.00017465728,0.0022414133,0.00071438495,-0.03070055,0.003805007,-0.0069786594,-0.00042156177,0.39662102,-1.1958119,1.6966194,-2.0927637,-1.5377239,2.3573737,0.0007805189,0.034204464,0.037121467,-0.06345493,-0.0009096651,0.0011701168,0.34476504,0.24899697,-9.270349,0.7866488,47.71017,0.37628615,-3.105545,-1.8571329,-0.6576615,-0.015800767,-0.072036624,28.3125,29.625,28.625,32.75,35.1875,36.375
1.5000527,0.7802369,-0.5516471,0.018565131,-0.025611382,0.006473676,0.06584431,-0.5029232,-0.3672999,0.07275039,3.0437593,-0.59461987,-8.859119e-05,0.004177647,0.0011301083,-0.031027567,0.005844062,-0.012148871,0.0004703865,0.39663324,-1.1955005,1.6969665,-2.0933716,-1.5377,2.3573492,0.0013208196,0.033498548,0.037392814,-0.05745272,-0.00077003764,0.00082286535,0.11492168,0.40222588,-9.193734,0.68818194,47.694946,0.432311,-3.0214963,-1.9097121,-0.8179847,-0.027459543,-0.075610474,28.3125,29.625,28.625,32.75,35.1875,36.375
1.5100527,0.7847006,-0.6652553,-0.23812222,-0.04348003,0.021195952,0.063981034,-0.50287676,-0.36727268,0.072418876,3.0438693,-0.5947042,0.00013475846,0.001116432,0.00021772637,-0.030757818,0.002977037,-0.0040350775,-4.0476465e-05,0.39663315,-1.1951402,1.6973485,-2.0939257,-1.5377239,2.3573854,0.0010014327,0.03547642,0.036395766,-0.067029044,-0.0012892779,0.0010011344,0.038307227,0.47884035,-9.404425,0.7329411,47.688675,0.36115485,-3.1052217,-1.8847501,-0.7946079,-0.0031987876,-0.085945085,28.3125,29.625,28.625,32.75,35.1875,36.375
1.5200528,0.88802445,-0.6471699,-0.34754938,-0.04718925,0.02392008,0.07226396,-0.50286776,-0.3672967,0.07210221,3.0438592,-0.5946831,0.00014175456,-0.0029920803,-0.002008929,-0.0301332,-0.0030655875,0.008593165,0.00046265742,0.3966691,-1.1947681,1.6977309,-2.0946853,-1.5377115,2.3574092,0.0014278716,0.037683208,0.035731345,-0.082553886,-0.00063177204,0.0009337145,0.15322891,0.5363012,-9.634268,0.7553206,47.693153,0.3647975,-3.1125448,-1.9128051,-0.6471739,-0.023995753,-0.06399491,28.3125,29.625,28.625,32.75,35.1875,36.375
1.5300528,1.3974155,0.2017963,-0.33937618,-0.02043727,0.005756318,0.06748402,-0.5028977,-0.3673172,0.07181762,3.0438108,-0.59469014,-2.7774437e-05,-0.0019550517,-0.0012569969,-0.030703159,-0.0005060091,0.0035868168,0.00018745479,0.39669293,-1.1944201,1.698089,-2.0955088,-1.5377358,2.357445,0.0011535935,0.038480278,0.034497153,-0.07650845,-0.0010467767,0.0009277522,0.19153613,0.30645782,-9.481039,0.7150385,47.7245,0.39877898,-3.281077,-1.9011676,-0.57236403,-0.028230775,-0.06941267,28.3125,29.625,28.625,32.75,35.1875,36.375
1.540053,1.0800966,-0.09346344,-0.3608381,-0.0035232047,-0.009704798,0.08217441,-0.5029221,-0.36731228,0.071529076,3.0438223,-0.59467345,-7.291127e-05,0.0014601585,-0.00019101602,-0.032204982,0.00455825,-0.0094381645,0.0005226062,0.39668113,-1.1940601,1.6984109,-2.0962098,-1.5377592,2.3574212,0.0015284021,0.039875917,0.03253615,-0.061976057,-0.00065594655,0.0009802942,0.17238252,0.2681506,-9.385271,0.75755644,47.7245,0.42560697,-3.368822,-1.8494675,-0.7330429,-0.03288944,-0.073747694,28.3125,29.625,28.625,32.75,35.1875,36.375
1.5500522,0.56785226,-0.9100055,-0.27474377,-0.02270418,0.0065648085,0.095834345,-0.50291514,-0.36729747,0.07120537,3.0439057,-0.59467554,8.449763e-05,0.0004416835,-0.000389259,-0.030456174,0.0035910169,-0.0071410523,5.280846e-05,0.39666897,-1.1936531,1.6987208,-2.0967958,-1.5377716,2.3573976,0.0011780644,0.03868589,0.029957382,-0.060703695,-0.0006566858,0.0011000673,0.11492168,0.4213795,-9.289502,0.7016076,47.72719,0.44083688,-3.2881887,-1.7181509,-0.8249835,-0.02644261,-0.061867744,28.3125,29.625,28.625,32.75,35.1875,36.375
1.5600529,-0.000975316,-1.2981758,-0.42099363,-0.03070671,0.0014926303,0.09331239,-0.50290847,-0.36729464,0.07089788,3.0439274,-0.5947567,0.0001723948,-0.0035502613,-0.001984077,-0.028057855,-0.0018271741,0.006629461,0.00018790251,0.39666897,-1.193282,1.699056,-2.0974352,-1.537772,2.357445,0.0012190181,0.03759412,0.029140629,-0.073584944,-0.0010098902,0.0009943194,0.019153614,0.49799395,-9.346964,0.68818194,47.703903,0.44273907,-3.223554,-1.5830913,-0.7384373,-0.039799992,-0.0830924,28.3125,29.625,28.625,32.75,35.1875,36.375
1.5700527,0.50071055,-0.8067575,-0.5250595,-0.036426414,0.0082686795,0.09244717,-0.50292957,-0.36734313,0.07058513,3.043904,-0.5946557,7.925966e-05,-0.005871502,-0.003038415,-0.028297266,-0.0056033013,0.015219667,0.00039822498,0.39672896,-1.192862,1.6993793,-2.098253,-1.537772,2.357445,0.00126296,0.0385874,0.031313647,-0.08612827,-0.0008683503,0.00082693185,0.15322891,0.40222588,-9.519346,0.76874626,47.728977,0.43189257,-3.3364372,-1.6895623,-0.51522464,-0.037385643,-0.06113123,28.3125,29.625,28.625,32.75,35.1875,36.375
1.5800529,0.88980305,0.097986884,-0.3212924,-0.0076346328,-0.018567558,0.098310396,-0.50302035,-0.36735028,0.070325404,3.0438452,-0.5947176,-0.00015633105,-0.0028470438,-0.0016926236,-0.029733643,-0.0008104158,0.0037431624,8.624762e-05,0.39670494,-1.1924663,1.6996058,-2.099027,-1.5378197,2.3574693,0.0011367236,0.039511446,0.0303089,-0.0736169,-0.000830855,0.0010174596,0.17238252,0.2681506,-9.404425,0.6546126,47.695843,0.43675834,-3.456055,-1.6359324,-0.5555103,-0.0412919,-0.06598065,28.3125,29.625,28.625,32.75,35.1875,36.375
1.5900525,0.8337656,0.02919646,-0.27695507,-0.005341192,-0.022797968,0.09262815,-0.5030008,-0.36736968,0.070015945,3.0438802,-0.59463066,-7.9160316e-05,-0.00030878544,-0.00071946136,-0.029433718,0.0023473068,-0.0036332635,0.0002376132,0.39674088,-1.1920953,1.6999525,-2.0996935,-1.5378078,2.357445,0.0013041211,0.037580743,0.029767366,-0.06312143,-0.000869395,0.0010356547,0.24899697,0.2681506,-9.404425,0.70608455,47.719128,0.4214513,-3.3485434,-1.5776749,-0.65036917,-0.036677424,-0.057712197,28.3125,29.625,28.625,32.75,35.1875,36.375
1.6000522,0.70120454,-0.49654955,-0.23643039,-0.035495553,0.005734148,0.10253479,-0.50302744,-0.3673692,0.06974851,3.0438707,-0.59466696,-4.9916267e-05,0.0014235459,-0.00015509634,-0.030472144,0.0045199217,-0.008846008,0.00058612355,0.396717,-1.1917359,1.7002047,-2.1002905,-1.5377959,2.357445,0.0015437368,0.037908338,0.030574322,-0.058605146,-0.00084410724,0.00092866033,0.17238252,0.34476504,-9.32781,0.7530795,47.733456,0.48730892,-3.3272154,-1.5700428,-0.8227795,-0.041136414,-0.042430118,28.3125,29.625,28.625,32.75,35.1875,36.375
1.6100526,0.5388778,-0.58050334,-0.34562016,-0.04926947,0.018858887,0.10403986,-0.503003,-0.36739448,0.069421306,3.0438929,-0.594655,0.00010067845,-0.001939329,-0.0014801451,-0.029306255,-0.0002724488,0.002380261,0.00041463473,0.39675295,-1.1913283,1.7005385,-2.1009414,-1.5377597,2.3574693,0.0013763813,0.038035646,0.03078753,-0.07115206,-0.0007913921,0.00093002454,0.15322891,0.49799395,-9.423578,0.7172743,47.695843,0.46773884,-3.259704,-1.5118438,-0.7395642,-0.05690126,-0.04761914,28.3125,29.625,28.625,32.75,35.1875,36.375
1.6200521,0.34531656,-0.608281,-0.48429748,-0.02962749,-0.0012460342,0.11410311,-0.50308067,-0.3674077,0.0691665,3.0437918,-0.59472525,-0.00019459221,-0.0052390476,-0.0028790294,-0.028481912,-0.004397516,0.01324803,0.0005429409,0.396741,-1.1909803,1.700838,-2.1017954,-1.5377959,2.3575172,0.0015978379,0.038891125,0.03074019,-0.0835789,-0.0012182589,0.0010102374,0.095768064,0.30645782,-9.461885,0.7217513,47.709274,0.47378325,-3.5235395,-1.5218377,-0.52727604,-0.049372792,-0.043358434,28.3125,29.625,28.625,32.75,35.1875,36.375
1.630052,1.0329878,0.5740775,-0.14027867,-0.0034071736,-0.027576415,0.105525516,-0.5030979,-0.3674545,0.06882951,3.0438092,-0.5945772,-0.00028197723,-0.0010045056,-0.00068201136,-0.031208603,0.0010996695,-0.0007902233,-0.00033146472,0.3968126,-1.1905248,1.7011737,-2.1026404,-1.5378197,2.3574934,0.0007806282,0.039422296,0.03326897,-0.07157046,-0.00083072786,0.0010794911,0.19153614,0.24899697,-9.270349,0.679228,47.695843,0.40161577,-3.475853,-1.5949214,-0.5599397,-0.04905023,-0.054395176,28.3125,29.625,28.625,32.75,35.1875,36.375
1.6400528,1.0486044,0.3573255,0.04611373,0.0006736975,-0.01632009,0.11313751,-0.5030601,-0.36744252,0.06850148,3.0438952,-0.5945798,-5.0527e-05,0.002669013,0.0010522672,-0.03219437,0.006302481,-0.013119028,-0.00075462717,0.3968125,-1.1901416,1.7015198,-2.1031983,-1.5378078,2.3574815,0.00050125195,0.03869929,0.033059396,-0.057261184,-0.00083359744,0.0012278523,0.19153613,0.21068975,-9.289503,0.6926589,47.701214,0.43154883,-3.4095092,-1.6596113,-0.7255702,-0.051175974,-0.04698181,28.3125,29.625,28.625,32.75,35.1875,36.375
1.6500527,0.5848492,-0.13988979,-0.27464148,-0.04236922,-1.194525e-06,0.114160836,-0.5030402,-0.36743808,0.06819745,3.0439224,-0.5946631,8.487387e-05,0.0023476526,0.0010806363,-0.03076977,0.005292677,-0.01024002,-0.0008213006,0.39681244,-1.189783,1.7018555,-2.1037972,-1.5377959,2.3575292,0.00034239562,0.03613659,0.03359213,-0.058272906,-0.001013932,0.001131148,0.19153613,0.4213795,-9.289502,0.7329411,47.70659,0.41980222,-3.3573003,-1.7370852,-0.8334029,-0.059757967,-0.044821467,28.3125,29.625,28.625,32.75,35.1875,36.375
1.6600522,0.14607373,-1.1290306,-0.73146063,-0.053428564,0.0077112145,0.12643896,-0.50304466,-0.36740083,0.067880526,3.0439897,-0.5947176,0.00019513436,-0.0006875633,-8.799097e-05,-0.029651599,0.0007097552,0.0010710347,-0.0010428154,0.3967645,-1.1893997,1.7021898,-2.1044118,-1.5378197,2.3575053,0.000259967,0.035591267,0.034923293,-0.0712659,-0.0011896578,0.0012625447,0.15322891,0.47884035,-9.634268,0.69041777,47.70032,0.42186588,-3.2527866,-1.8171389,-0.7290034,-0.045007363,-0.051351465,28.3125,29.625,28.625,32.75,35.1875,36.375
1.6700532,0.35300434,-0.6484064,-0.65178686,-0.04883265,0.00308655,0.12678915,-0.5030362,-0.3674133,0.06755358,3.0440104,-0.59470314,0.00017427512,-0.0028015445,-0.00093805575,-0.029737758,-0.0023330553,0.008355315,-0.0009374485,0.39680046,-1.1890157,1.7025851,-2.1051934,-1.5378436,2.3575292,0.0002095282,0.03657063,0.03621257,-0.08142334,-0.001216428,0.0011029394,0.17238252,0.4213795,-9.615114,0.6971306,47.666286,0.5002511,-3.3713765,-1.8468869,-0.5610227,-0.04804322,-0.032860436,28.3125,29.625,28.625,32.75,35.1875,36.375
1.680052,0.9500852,0.18008447,-0.44874632,-0.015919603,-0.017116085,0.120038226,-0.5030871,-0.3674388,0.0672875,3.0438979,-0.594676,-5.6817247e-05,-0.00066187,-0.00012133136,-0.030382745,0.00072202703,0.00027614812,-0.00061823573,0.39680046,-1.1886798,1.7029318,-2.106064,-1.5378317,2.357529,0.00017548229,0.036862828,0.035006452,-0.07186706,-0.00088395807,0.00075921434,0.22984336,0.30645782,-9.500193,0.679228,47.711964,0.47923046,-3.437814,-1.8037349,-0.5600064,-0.058800288,-0.045427285,28.3125,29.625,28.625,32.75,35.1875,36.375
1.6900084,0.94446534,-0.22750886,-0.18728162,0.004641591,-0.016132817,0.12068918,-0.50308853,-0.36742774,0.06697222,3.0439434,-0.5947063,2.8846667e-05,0.0016250623,0.00079106755,-0.030042036,0.003441583,-0.0064571956,-0.0005962524,0.39678842,-1.1882852,1.7032541,-2.1067069,-1.5378436,2.357529,0.00019831698,0.03498446,0.03451171,-0.06223336,-0.0007680547,0.0007653127,0.21068975,0.24899697,-9.308657,0.73069996,47.747787,0.4774672,-3.3151326,-1.8399411,-0.6468865,-0.07433532,-0.034663297,28.3125,29.625,28.625,32.75,35.1875,36.375
1.700053,1.1337342,-0.3704147,-0.12237463,-0.022492904,0.0046100817,0.12569518,-0.5030749,-0.3674064,0.06667043,3.0440383,-0.59471005,0.00017894017,0.002322198,0.0012176062,-0.029278131,0.0051262346,-0.009588871,-0.0006952961,0.3967765,-1.187914,1.7035526,-2.1072433,-1.5378679,2.357505,0.00016212629,0.034178603,0.032353032,-0.055730075,-0.0011021472,0.00082325545,0.21068975,0.40222588,-9.232041,0.7978386,47.73614,0.50669247,-3.223583,-1.7692475,-0.82373774,-0.07691304,-0.047015518,28.3125,29.625,28.625,32.75,35.1875,36.375
1.7100524,0.36047524,-0.77857715,-0.09810008,-0.056351412,0.010931429,0.12617595,-0.5030563,-0.36742234,0.06640221,3.0440252,-0.59476453,0.00017873889,-0.00055521546,-0.0002589876,-0.029540548,0.0014609144,-0.0011176936,-0.00050174,0.3968125,-1.1876135,1.7038997,-2.1078942,-1.5378679,2.357577,0.00052378885,0.03677937,0.032205187,-0.06741834,-0.0010272791,0.0009896582,0.13407528,0.53630114,-9.270349,0.6546126,47.70211,0.46356857,-3.3725362,-1.7650938,-0.7567318,-0.06643699,-0.044085003,28.3125,29.625,28.625,32.75,35.1875,36.375
1.7200053,0.6354906,-0.23105809,-0.21188709,-0.06069874,0.023346687,0.12911037,-0.5030854,-0.3674153,0.06608597,3.0440366,-0.5948049,0.00012631225,-0.0048115747,-0.0020731348,-0.028509794,-0.0043336763,0.011827371,-0.00043133934,0.39680055,-1.1872054,1.7042335,-2.1086533,-1.5379037,2.357589,0.0003999983,0.038213998,0.031519428,-0.082340665,-0.000718885,0.0007970494,0.019153614,0.49799395,-9.500193,0.6971306,47.651955,0.5054566,-3.4594016,-1.6949573,-0.56927735,-0.05509086,-0.034653194,28.3125,29.625,28.625,32.75,35.1875,36.375
1.7300527,1.3616337,0.4864796,-0.20276785,-0.01231999,-0.010709561,0.12064998,-0.50311995,-0.3674141,0.065760426,3.043963,-0.5948078,0.00016160366,-0.0027121762,-0.0012372831,-0.030486109,-0.00049709727,0.002374251,-0.00026942877,0.3967406,-1.1867849,1.7045802,-2.10944,-1.5378312,2.3575408,0.00040672018,0.04090327,0.030206714,-0.07351147,-0.00058227096,0.00064779207,0.11492168,0.24899697,-9.423578,0.67475104,47.66539,0.5152658,-3.6029,-1.6379468,-0.55258524,-0.06680733,-0.015702453,28.3125,29.625,28.625,32.75,35.1875,36.375
1.7400529,1.250485,0.48472112,-0.059168,-0.020189999,-0.010110688,0.12663175,-0.5031415,-0.3674511,0.065478705,3.0439987,-0.5947207,4.1556843e-05,0.00054587855,-0.000110884255,-0.031310327,0.004740659,-0.009239346,-0.00018963714,0.39681265,-1.1863894,1.7048424,-2.110153,-1.5378917,2.3575535,0.00094157585,0.041172896,0.02825815,-0.05911082,-0.0009047289,0.0011010986,0.22984336,0.21068975,-9.308656,0.68818194,47.746887,0.48024762,-3.5708187,-1.565157,-0.69822323,-0.091716,-0.032797147,28.3125,29.625,28.625,32.75,35.1875,36.375
1.7500527,1.0027944,-0.028096257,-0.23276573,-0.04465078,0.018048689,0.13199216,-0.50313836,-0.3674459,0.06517591,3.0440636,-0.59471697,0.0002214132,0.00096597755,0.0002588436,-0.03059297,0.0052838284,-0.010395597,-0.00027177387,0.39680064,-1.1859823,1.7050933,-2.110679,-1.5378798,2.357529,0.00067111274,0.039819367,0.027744405,-0.055960793,-0.00094823213,0.00091260404,0.095768064,0.38307226,-9.3661175,0.7486078,47.71017,0.4672913,-3.520587,-1.528413,-0.82759845,-0.07410452,-0.024469007,28.3125,29.625,28.625,32.75,35.1875,36.375
1.7600528,0.48236465,-0.6372016,-0.40688908,-0.051082104,0.007915354,0.13512246,-0.5031309,-0.36746654,0.06487429,3.0440826,-0.5947793,0.00029786662,-0.001968884,-0.00094771537,-0.029947938,0.0009932705,-0.00023634185,-0.00012815803,0.3968366,-1.1855867,1.7053808,-2.111306,-1.5378798,2.357601,0.0006195447,0.040260628,0.028651752,-0.06833088,-0.0009404951,0.00071347156,0.095768064,0.45968673,-9.423578,0.66803825,47.707485,0.4836205,-3.5364604,-1.5184331,-0.7487526,-0.08211527,-0.054859117,28.3125,29.625,28.625,32.75,35.1875,36.375
1.7700529,0.62339854,-0.40636167,-0.40350324,-0.04420524,0.011288019,0.13716407,-0.5031679,-0.36746264,0.06455801,3.0440865,-0.59472287,0.00024900836,-0.005562333,-0.0024968267,-0.028252251,-0.0044283676,0.012530209,-0.00012228727,0.39681256,-1.1851676,1.7057031,-2.112076,-1.5378917,2.3575408,0.0006542689,0.039631225,0.028936654,-0.0818573,-0.00090658496,0.0007384251,0.1340753,0.4213795,-9.3661175,0.7016076,47.691364,0.53662384,-3.587214,-1.5339899,-0.5708538,-0.084793165,-0.0140338475,28.3125,29.625,28.625,32.75,35.1875,36.375
1.7800534,1.7495039,0.6021627,-0.06175433,-0.012621288,-0.007637877,0.1312465,-0.50321555,-0.36751035,0.06430931,3.0439875,-0.59466237,3.5199693e-05,-0.0030012983,-0.0015009206,-0.02936891,-0.0011709831,0.0044472823,-0.0004304283,0.39684844,-1.1848199,1.7059788,-2.1128752,-1.5378798,2.3575535,0.0007167564,0.03958057,0.029588204,-0.073757395,-0.00077466713,0.001114597,0.21068975,0.30645782,-9.3661175,0.7732232,47.686886,0.5414382,-3.6232681,-1.5094862,-0.53503674,-0.07763021,-0.035724834,28.3125,29.625,28.625,32.75,35.1875,36.375
1.7900522,1.1558429,0.12016803,-0.3387968,-0.0031792924,-0.020542072,0.14102092,-0.5032403,-0.3675092,0.06400014,3.0440142,-0.5947249,2.6505837e-05,0.00031797003,-3.692897e-05,-0.029967481,0.0036519035,-0.0060651093,-1.98901e-05,0.39684847,-1.1844009,1.7062658,-2.1135652,-1.5379161,2.357589,0.0007911095,0.038499556,0.029317545,-0.060833536,-0.001121602,0.00077495317,0.2681506,0.24899697,-9.346964,0.69041777,47.709274,0.503727,-3.5413125,-1.4877796,-0.65973765,-0.097925276,-0.022066606,28.3125,29.625,28.625,32.75,35.1875,36.3125
1.8000523,0.94267803,-0.027926136,-0.23297621,-0.036094796,-0.00084377785,0.14286242,-0.50320435,-0.36751,0.06369034,3.0440896,-0.59472454,0.00020077448,0.002974597,0.0007306588,-0.03125291,0.0060791494,-0.012785945,2.124944e-05,0.39687252,-1.1840296,1.7065891,-2.114126,-1.5379161,2.3576012,0.0011447934,0.037979286,0.03165886,-0.05552997,-0.0007510967,0.0010973151,0.24899697,0.30645782,-9.346964,0.7396539,47.694946,0.5577964,-3.516716,-1.6425233,-0.8165058,-0.09614359,-0.011644645,28.3125,29.625,28.625,32.75,35.1875,36.3125
1.8100524,-0.268867,-2.4649346,1.6974477,-0.20009556,0.16558868,0.16313696,-0.50323397,-0.36747566,0.06342333,3.044135,-0.5947916,0.00020143356,0.00084160396,6.024264e-05,-0.029368823,0.002841123,-0.003908825,3.6758996e-05,0.39682472,-1.1836827,1.7068528,-2.114703,-1.5379637,2.357589,0.0010240623,0.035747416,0.032344744,-0.0634161,-0.0012104715,0.0009484641,0.2681506,0.36391866,-9.346964,0.68146914,47.709274,0.5470936,-3.4913495,-1.6693295,-0.82277,-0.095740184,-0.017339481,28.3125,29.625,28.625,32.75,35.1875,36.3125
1.8200529,-6.040131,-4.3407044,6.168767,-0.30812776,0.7712799,0.2272198,-0.5031714,-0.367512,0.063115515,3.0441036,-0.59476864,0.00052516424,-0.000831071,-0.00079909206,-0.027398247,-0.00093769137,0.0033411847,0.00012309948,0.39684853,-1.1833241,1.7071875,-2.1152437,-1.5378193,2.357601,0.00092706387,0.03334033,0.03266603,-0.06947434,-0.0005372043,0.0007766047,0.53630114,0.51714754,-9.749189,0.7217513,47.681515,0.53964454,-3.325651,-1.6187186,-0.7593993,-0.08561946,-0.022202335,28.3125,29.625,28.625,32.75,35.1875,36.3125
1.8300524,-4.1923075,-3.478686,2.6245587,-0.4252817,0.72094625,0.21264955,-0.5031036,-0.36755505,0.062845424,3.0441685,-0.5946111,0.0005422475,0.0024251344,-0.00091013,-0.026834514,0.0010532443,-0.0030555432,0.0022945304,0.396969,-1.1830494,1.70757,-2.115875,-1.5378431,2.3576128,0.0028565705,0.030438006,0.03322458,-0.06045637,0.00012744164,0.0005507266,-0.4213795,0.28730422,-9.021352,0.76874626,47.709274,0.36221373,-3.0310304,-1.7798252,-0.71036154,-0.06023016,-0.025483105,28.3125,29.625,28.625,32.75,35.1875,36.3125
1.8400524,-3.36626,-3.5551367,1.892957,-0.39057353,0.6060709,0.20239729,-0.50311756,-0.36752158,0.062574245,3.0442207,-0.59469974,0.0005673561,0.0042587393,0.00039690148,-0.027631516,0.0049582133,-0.013166856,0.0014819363,0.39693275,-1.1827133,1.707856,-2.1164453,-1.5378913,2.3576248,0.001880523,0.031867683,0.030095153,-0.047917932,0.0004614315,0.00039830589,-0.1340753,0.4213795,-9.3661175,0.64342284,47.729877,0.2871039,-3.007534,-1.769901,-0.7580345,-0.02088747,-0.0340818,28.3125,29.625,28.625,32.75,35.1875,36.3125
1.8500531,-2.6958382,-0.9928719,1.4637427,-0.24373667,0.47830018,0.19168606,-0.50308454,-0.36754712,0.062303253,3.0442855,-0.59458274,0.0007330502,0.0059254374,0.0012132047,-0.030259434,0.008240641,-0.022222372,0.0011654332,0.39698055,-1.1823643,1.7081064,-2.116933,-1.537867,2.3575888,0.0014649833,0.03576366,0.029112542,-0.041209873,0.0009520599,0.00031198442,-0.038307227,0.0,-9.059659,0.67475104,47.707485,0.31361178,-3.0880675,-1.7731241,-0.7891233,-0.0023294014,-0.04179343,28.3125,29.625,28.625,32.75,35.1875,36.3125
1.8600526,-1.089213,-1.521462,0.24012467,-0.19871761,0.3374594,0.17823696,-0.5030442,-0.36748275,0.0619584,3.0444167,-0.5947109,0.0010865254,0.006485723,0.001856168,-0.0310966,0.009322904,-0.025675194,0.00044063246,0.3969084,-1.1819686,1.7084535,-2.1174,-1.537867,2.3575768,0.00067698135,0.036750343,0.029026303,-0.038506895,0.0012946277,0.00025641956,0.3256114,0.5554548,-9.232041,0.7150385,47.70659,0.3897726,-3.153298,-1.9138322,-0.86479753,0.042810082,-0.04827661,28.3125,29.625,28.625,32.75,35.1875,36.3125
1.8700094,0.4380936,-2.3257506,-0.5829074,-0.19131199,0.14380156,0.16387892,-0.50299335,-0.36745745,0.061631743,3.0445862,-0.5947898,0.0014092072,0.0038170645,0.0012470338,-0.031802725,0.0076956064,-0.019966375,6.12069e-05,0.39692017,-1.1815599,1.7087277,-2.1178095,-1.5379032,2.3576126,0.00024869587,0.040191226,0.027870089,-0.046680763,0.00056791,0.00019045388,0.38307226,0.6703765,-9.710882,0.74413085,47.695843,0.35870704,-3.357705,-1.9000367,-0.8897964,0.12497707,-0.07190703,28.3125,29.625,28.625,32.75,35.1875,36.3125
