Tylouw/Master_Thesis_Code/test_recorded_data/devi01_test/insertion_1_2026-01-27_15-48-50.csv
num_insertion,tcp_force_x[N],tcp_force_y[N],tcp_force_z[N],tcp_force_rx[Nm?],tcp_force_ry[Nm?],tcp_force_rz[Nm?],tcp_pose_x[m],tcp_pose_y[m],tcp_pose_z[m],tcp_pose_rx[rot_vec_x],tcp_pose_ry[rot_vec_y],tcp_pose_rz[rot_vec_z],tcp_velo_x[m/s],tcp_velo_y[m/s],tcp_velo_z[m/s],tcp_velo_rx[rot_vec_x/s],tcp_velo_ry[rot_vec_y/s],tcp_velo_rz[rot_vec_z/s],q1[rad],q2[rad],q3[rad],q4[rad],q5[rad],q6[rad],qd1[rad/s],qd2[rad/s],qd3[rad/s],qd4[rad/s],qd5[rad/s],qd6[rad/s],tool_acc_x,tool_acc_y,tool_acc_z,current_of_whole_robot[A],voltage_of_whole_robot[V],current_J1[A],current_J2[A],current_J3[A],current_J4[A],current_J5[A],current_J6[A],temp_J1[C],temp_J2[C],temp_J3[C],temp_J4[C],temp_J5[C],temp_J6[C]
1.0,0.8123173951650947,0.8188694429432801,-0.33006771603827795,0.0450731707319877,-0.02471412879049377,-0.07127317338942464,-0.548009393739524,-0.3480811307603527,0.06002621478551948,-3.0787369039016323,0.6246508287656493,0.00014674473031822823,0.0014428142818177295,-0.00034435766971357246,0.00023714103771791807,-0.0004609121555085074,0.0015561781861928071,0.0003712612194580183,0.35725176334381104,-1.1091604691794892,1.5971644560443323,-2.057289262811178,-1.57147723833193,2.3321750164031982,0.0013585933484137058,-0.0032707008067518473,0.004837334621697664,-0.003185147885233164,-0.0001091577360057272,0.0009863540763035417,0.47884035110473633,-0.49799394607543945,-9.385271072387695,0.8000850081443787,47.68598937988281,-0.3359632194042206,-4.266676902770996,-2.878140449523926,-0.1346251517534256,-0.0031529595144093037,0.06910257041454315,24.75,25.8125,24.625,27.3125,28.3125,28.6875
1.0,1.5805582690796063,1.9500939673362283,-0.5220870785366359,0.07747130782158992,-0.052693580218813166,-0.07736383305369737,-0.5479876710431658,-0.3481090121030529,0.06001056491832951,-3.0787487413943504,0.6246150060800301,0.00012259560192140774,-0.000385018713758796,-0.0006537845361365592,0.0008902175908948527,-0.001018365358668302,0.0030188807128655203,2.7198833418148275e-05,0.3572634756565094,-1.1091476541808625,1.5971630255328577,-2.0573374233641566,-1.5714414755450647,2.332138776779175,0.0008007229189388454,-0.001164710964076221,0.0001469099661335349,-0.002166088204830885,-0.0001065805772668682,0.0007724511087872088,0.24899697303771973,-0.3064578175544739,-9.27034854888916,0.7956027388572693,47.68598937988281,-0.2665870189666748,-4.461408615112305,-2.6523847579956055,-0.124388188123703,0.019437802955508232,0.06213076412677765,24.75,25.8125,24.625,27.3125,28.3125,28.6875
1.0,0.8858117795959127,0.5513978823451462,-0.6468039097426336,0.06659817972768088,-0.027911638408815,-0.0745617852075625,-0.5480055459904536,-0.3480879746153144,0.060043951360840175,-3.078722983292335,0.6246481793498775,0.00018191513019313833,-0.00011507106978107726,-0.00044990408836332766,-0.00021508080088305915,-0.0001905191933622795,0.0007986543554163777,3.754965343616781e-05,0.3572394549846649,-1.109183059339859,1.5971277395831507,-2.05728878597402,-1.57147723833193,2.332138776779175,0.000647805689368397,0.0005519815604202449,1.970984612853499e-06,-0.0013683101860806346,-0.00010410744289401919,0.0006098169833421707,-0.05746084079146385,0.05746084079146385,-9.404424667358398,0.7777001857757568,47.72629165649414,-0.279881089925766,-4.567429542541504,-2.5626230239868164,-0.12896327674388885,0.003389440244063735,0.0694337710738182,24.75,25.8125,24.625,27.3125,28.3125,28.6875
1.0,-0.36193611575129536,-0.6414480846573936,-0.49186316991369716,-0.012843507572477538,0.023863513307145652,-0.0814905333069239,-0.5479945735925782,-0.34808757923597095,0.06004097096143607,-3.078733914610228,0.6246123975833665,0.00015574602553177614,-9.082252574708827e-05,-0.00021915833178691438,5.941769047939069e-05,-0.00014216543971360925,0.0006670818263598951,-0.00021318803841448894,0.35723933577537537,-1.1091951888850708,1.5971515814410608,-2.0572883091368617,-1.571465317402975,2.3321149349212646,0.00032048815046437085,1.455579240428051e-05,2.6443272460596745e-08,-0.0006887922063469887,-0.00010175276111112908,0.0005334857851266861,-0.19153612852096558,0.2298433631658554,-9.519346237182617,0.6747510433197021,47.66986846923828,-0.2815835475921631,-4.091525077819824,-2.3319826126098633,-0.16713500022888184,0.010924720205366611,0.05861866474151611,24.75,25.8125,24.625,27.3125,28.3125,28.6875
1.0,-1.8156964805289997,-2.6085046256786235,-0.6106145233933183,-0.0613449177322339,0.07195239551244238,-0.06976492850432993,-0.5479624884264588,-0.34806747850720215,0.06000732829221456,-3.078663004616834,0.6246742675188331,1.2287917213726588e-05,0.00028420888584215905,-0.00016092974583949921,-5.0282266266771514e-05,0.0002703609878908731,-0.00043619760483495787,-3.489789135703846e-05,0.35722747445106506,-1.1091832679561158,1.5971992651568812,-2.057240148583883,-1.571465317402975,2.33215069770813,0.0004413131973706186,1.9528454231476644e-07,3.5477026871788553e-10,0.0005034596542827785,-9.950278035830706e-05,0.0004766165220644325,-0.325611412525177,0.28730422258377075,-9.557653427124023,0.6523714661598206,47.7218132019043,-0.28491297364234924,-4.0708746910095215,-2.3397598266601562,-0.22148124873638153,0.0015898331766948104,0.06064680963754654,24.75,25.8125,24.625,27.3125,28.3125,28.6875
1.0,-2.264862122549639,-2.8709547516350935,-0.4326926642179336,-0.09726628369195192,0.09909405049250238,-0.06956673988166695,-0.5479756027748331,-0.34807136749213247,0.06004913329536948,-3.0787151852533765,0.6247424800001521,3.3772419655861766e-05,0.004010003065609146,0.0012699352033035468,-0.0037633159727641823,0.003160689798689503,-0.008134006281668967,-3.513195418296201e-05,0.35720351338386536,-1.1092311900905152,1.597165886555807,-2.057204862634176,-1.5714176336871546,2.332162618637085,0.0003937754372600466,2.619991334995575e-09,0.008352918550372124,0.00037324591539800167,-9.735189814819023e-05,0.00043088983511552215,-0.26815059781074524,0.3064578175544739,-9.53849983215332,0.7239871025085449,47.6627082824707,-0.30199092626571655,-3.9901199340820312,-2.8122105598449707,-0.26165249943733215,0.007381729781627655,0.07633707672357559,24.75,25.8125,24.625,27.3125,28.3125,28.6875
1.0,-1.6663887552811725,-2.4035075601422866,0.03345621973987287,-0.07558380919757733,0.09187162001868707,-0.0775954692619402,-0.5479674454816392,-0.34806070002835565,0.060006474501462403,-3.078685469552087,0.6246599681638494,-1.0188239318619397e-05,0.0029106101904917293,0.0008267287626445787,-0.0027235635425504564,0.0022463080306757643,-0.005706696689584091,4.5614158568543794e-05,0.35720351338386536,-1.1091832679561158,1.597201172505514,-2.057240148583883,-1.5714414755450647,2.3321149349212646,0.00043743272544816136,3.5150528321370444e-11,0.006098279729485512,3.4065178624587134e-05,-9.528875671094283e-05,0.0003931898681912571,-0.13407529890537262,0.28730422258377075,-9.404424667358398,0.7239871025085449,47.692256927490234,-0.3691573739051819,-3.890766143798828,-2.652151584625244,-0.27925652265548706,0.0077495332807302475,0.05750022083520889,24.75,25.8125,24.625,27.3125,28.3125,28.6875
1.0,-0.3559821119357297,-0.4351296755146422,0.12037066221920702,-0.01829853608121855,0.04066696791363932,-0.07820355215113517,-0.5479590028919856,-0.3480742381603708,0.060007409953745316,-3.0786724050814525,0.6246961222382489,4.634564828076153e-05,-2.6318507760388092e-05,-0.0002437487356376224,-0.0014602704441364566,-0.0007706648545359227,0.0023081740749369794,2.3576160796786238e-05,0.35723936557769775,-1.1091950100711365,1.597224537526266,-2.057279249230856,-1.571465317402975,2.3321750164031982,0.0003875837428495288,0.000701756333000958,0.0038302894681692123,-0.006963588297367096,-9.331269393442199e-05,0.0003615697496570647,-0.1149216815829277,0.325611412525177,-9.327810287475586,0.7620334029197693,47.7218132019043,-0.2939754128456116,-3.8184189796447754,-2.467099189758301,-0.26093101501464844,-0.0035166405141353607,0.048877835273742676,24.75,25.8125,24.625,27.3125,28.3125,28.6875
1.0,0.8036509943564408,0.7222733365856217,0.19805854464827852,0.03826042536306769,-0.009354141086421243,-0.08116674391785228,-0.5479758748379646,-0.34810017073292027,0.06004456266574701,-3.0787713816110354,0.6246194794488827,0.0001457533877029932,-0.0015107123719877076,-0.0007561573193844561,-0.0012527393244293826,-0.0021894383519949923,0.0060695744602191504,-1.9840704933672497e-05,0.3572514057159424,-1.1092305940440674,1.5972002188311976,-2.0573164425291957,-1.5714295546161097,2.3321266174316406,0.00031930248951539397,0.0016571113374084234,0.002911370014771819,-0.011020118370652199,-9.141696500591934e-05,0.00033465499291196465,-0.24899697303771973,0.3447650372982025,-9.117119789123535,0.7239871025085449,47.68330383300781,-0.2967665195465088,-3.874119758605957,-2.318962812423706,-0.24244286119937897,-0.005535461474210024,0.05235733464360237,24.75,25.8125,24.625,27.3125,28.3125,28.6875
1.0,0.7936439544846763,0.8566542276997249,0.15537144922066318,0.04412868566474221,-0.030635067392162624,-0.07785472323715721,-0.5479968752536475,-0.34809225061264876,0.06004593372700817,-3.078762788046212,0.6246561652342357,0.0002133788250569561,-0.0013957888164954281,-0.0006807117679108071,-0.0012030555832124787,-0.0023568486003785628,0.006513448034589047,-4.5141244671786636e-05,0.35723933577537537,-1.1092187625220795,1.5971882979022425,-2.057352205316061,-1.5714533964740198,2.3321385383605957,0.0002711358538363129,0.0010672726202756166,0.00381644768640399,-0.011809752322733402,-8.959681144915521e-05,0.00031147661502473056,-0.07661445438861847,0.2298433631658554,-9.040505409240723,0.7060845494270325,47.70927429199219,-0.2803349494934082,-3.7782058715820312,-2.2710087299346924,-0.2234770953655243,-0.0062108468264341354,0.04923953860998154,24.75,25.8125,24.625,27.3125,28.3125,28.6875
1.0,0.32305932424633,-0.30620454717178874,0.5586281021637841,-0.004853446115817995,-0.005644996718345062,-0.07858103997495063,-0.5480194421828082,-0.34806521275737085,0.06005608047765845,-3.0787241883144927,0.6246867220899837,0.0003116162038111663,-0.001002125986189318,-0.0004291086469302202,-0.0013608203605166736,-0.002114444783833499,0.005862153039546781,-0.00016121366331419426,0.3572153151035309,-1.1092309814742585,1.5971882979022425,-2.057376047173971,-1.5715134779559534,2.3321385383605957,0.00011696606816258281,0.0006048064096830785,0.0047869253903627396,-0.011622822843492031,-8.616701234132051e-05,0.00027358223451301455,0.24899697303771973,-0.09576806426048279,-9.040505409240723,0.7463666796684265,47.67255783081055,-0.2884419560432434,-3.6052119731903076,-2.255239248275757,-0.25620248913764954,-0.005109650548547506,0.05726836621761322,24.75,25.8125,24.625,27.3125,28.3125,28.6875
1.0,0.6250411851763733,-0.12546739147102715,0.7169476042881514,-0.01005681839029067,0.004974774876732051,-0.08522397866441746,-0.547999549129839,-0.34808940303582253,0.06001041390893416,-3.078757700680116,0.6245979564234636,0.00020677688836641782,-0.0012090546046302358,-0.00043662109377473775,-0.0024530997684831064,-0.001628830679292572,0.00455025250441661,-0.0002507561181500123,0.3572392463684082,-1.1091701549342652,1.5972121397601526,-2.0574122867979945,-1.571465317402975,2.3321027755737305,1.157609403890092e-05,0.002905740402638912,0.003980470821261406,-0.011718436144292355,-8.454667840851471e-05,0.0002578947169240564,0.325611412525177,-0.05746084079146385,-8.96389102935791,0.8023208975791931,47.702110290527344,-0.32589277625083923,-3.6110806465148926,-2.1694586277008057,-0.2948215901851654,0.006913713179528713,0.0437590517103672,24.75,25.8125,24.625,27.3125,28.3125,28.6875
1.0,1.368868535586769,0.44137449946732843,0.5939784971141326,0.019985259600474377,-0.006274778122307343,-0.07788363518687927,-0.5480183021840123,-0.3480878098959212,0.060014341263204735,-3.0787635364042214,0.6247331473125219,0.00021788930685711508,-0.001533145222785745,-0.0005516307045960468,-0.003176671459230484,-0.0016567765986214395,0.00461042555585514,-0.00024867575909885584,0.3572152853012085,-1.1091577273658295,1.5971882979022425,-2.0574242077269496,-1.5714414755450647,2.332162380218506,1.5530807218055998e-07,0.004381627310067415,0.00380675564520061,-0.01308677438646555,-8.299233741126955e-05,0.00024391160695813596,0.26815059781074524,-0.13407529890537262,-9.02135181427002,0.7239871025085449,47.699424743652344,-0.3174820840358734,-3.718846321105957,-2.134885311126709,-0.2922321557998657,0.015024395659565926,0.04770224541425705,24.75,25.8125,24.625,27.3125,28.3125,28.6875
1.0,1.3771493421498056,0.9716741096111741,0.47448963018993506,0.049914492502166063,-0.03870060916969159,-0.08293864912490664,-0.5479976084333256,-0.34806860215982294,0.0599923079729662,-3.078730424757304,0.6246499163777685,0.00020090479766160266,-0.001136798181556652,-0.000400619910901531,-0.0037366452181828423,-0.0015465281331613569,0.004335708902242805,-0.0002024559454127871,0.3572152853012085,-1.1091697078994294,1.5972603003131312,-2.057449003259176,-1.57147723833193,2.3321146965026855,2.0836559144754574e-09,0.004269846715033054,0.005511148367077112,-0.014383436180651188,-8.950743358582258e-05,0.0001972274767467752,0.38307225704193115,-0.038307227194309235,-8.9064302444458,0.7306999564170837,47.731666564941406,-0.32779961824417114,-3.6553781032562256,-2.077683687210083,-0.2697603702545166,0.003318578004837036,0.042791079729795456,24.75,25.8125,24.625,27.3125,28.3125,28.6875
1.0,1.860736667740629,1.283930595693507,0.29467686553753547,0.05302813555090436,-0.05175349709488565,-0.0768282331209973,-0.5479909853703737,-0.34807429989133665,0.0599663679400744,-3.078714236905348,0.6246655495867119,0.0001686656667919947,-0.0003646262446430168,-0.00010849345682166882,-0.004216243613127354,-0.001171370074519865,0.003358332929294027,-0.0001819357002178192,0.3572273254394531,-1.109134094124176,1.5972731749164026,-2.0574733219542445,-1.57147723833193,2.3321385383605957,2.795490401663603e-11,0.003619796596467495,0.007599404081702232,-0.01477475930005312,-9.550910181133077e-05,0.00017683075566310436,0.38307225704193115,0.019153613597154617,-8.848969459533691,0.7306999564170837,47.699424743652344,-0.32369422912597656,-3.551210641860962,-2.148322582244873,-0.25636982917785645,0.003201678628101945,0.05060279369354248,24.75,25.8125,24.625,27.3125,28.3125,28.6875
1.0,1.4821234692066105,0.7225849772211542,0.2809614968439795,0.036251552884919894,-0.059307117392845776,-0.07042976473796272,-0.5480069947583247,-0.3480759492336455,0.05998152860295211,-3.0787522928758535,0.6246544155927966,0.0002214368559525959,0.0001375563646854125,7.977077203308472e-05,-0.004582864674106939,-0.0005944375048785935,0.0018195455608186924,-0.00017233602775498764,0.3572152853012085,-1.109145925646164,1.5972612539874476,-2.0574966869749964,-1.571465317402975,2.3321146965026855,3.7505071205819196e-13,0.0037512951530516148,0.007981568574905396,-0.013645042665302753,-9.433453669771552e-05,0.00016788144421298057,0.4213795065879822,0.019153613597154617,-8.9064302444458,0.7709873914718628,47.685096740722656,-0.3142615556716919,-3.5351531505584717,-2.1926701068878174,-0.28088468313217163,0.0077269370667636395,0.03744363784790039,24.75,25.8125,24.625,27.3125,28.3125,28.6875
1.0,1.2635909566871815,-0.0011638270373034998,0.11762110150714912,0.006931166957520215,-0.044389609610541975,-0.08632719108563748,-0.5480049504732074,-0.3480833637992963,0.059964205969643164,-3.078755543083976,0.624635795649105,0.00021995907601961707,0.0005269101835178798,0.00022506884078282683,-0.005548363965114986,0.0003420118836619058,-0.0006862105091605209,-0.00016389259536013815,0.3572273254394531,-1.109121487741806,1.5972731749164026,-2.0575319729247035,-1.571465317402975,2.3321146965026855,5.031783553054647e-15,0.005323586519807577,0.007568392436951399,-0.01212913729250431,-9.274792682845145e-05,0.000160355179104954,0.3064578175544739,0.05746084079146385,-9.02135181427002,0.7821771502494812,47.74151611328125,-0.35979175567626953,-3.4616150856018066,-2.061326026916504,-0.30136796832084656,0.003930949606001377,0.04210173338651657,24.75,25.8125,24.625,27.3125,28.3125,28.6875
1.0,0.8703841256063659,-0.5734742850609089,0.14220627705041028,-0.02092211570886307,-0.021730710121315285,-0.07147161305646166,-0.5479930895563477,-0.34804669788881687,0.059943773549358564,-3.0786707168417644,0.6247525998742672,0.00014170892646135503,0.0018020109580614107,0.0007065899883764251,-0.007314632017256382,0.0021413434478085823,-0.005456992374224646,-0.0001553696167115864,0.3571913242340088,-1.109120861893036,1.5973098913775843,-2.057495256463522,-1.5714896360980433,2.332162380218506,6.750779135978379e-17,0.007052331697195768,0.008528070524334908,-0.009718726389110088,-0.00010246487363474444,0.00015351279580499977,0.26815056800842285,0.07661445438861847,-9.117119789123535,0.7396538853645325,47.68867492675781,-0.3358672559261322,-3.528465509414673,-2.101426839828491,-0.33076953887939453,0.022202277556061745,0.040962282568216324,24.75,25.8125,24.625,27.3125,28.3125,28.6875
1.0,0.16937383895340843,-0.8757798792392566,0.1259321600118419,-0.0276970867791761,-0.009625730746159123,-0.07037719131967082,-0.5479773783261234,-0.34806522879871676,0.0599428366227793,-3.078695310098104,0.6246616943856389,0.0001568834318187201,0.00269157422893261,0.0010412157233359962,-0.008449786553663829,0.0030291482207034652,-0.007816913365359798,-0.00014852901351809818,0.3572273254394531,-1.1091327232173462,1.5973342100726526,-2.057519098321432,-1.5714896360980433,2.3321385383605957,9.05703110343885e-19,0.0076214647851884365,0.010199991054832935,-0.009438380599021912,-0.00010435940930619836,0.0001472338190069422,0.19153612852096558,0.13407528400421143,-9.174580574035645,0.8135106563568115,47.65374755859375,-0.37371939420700073,-3.477311134338379,-2.1247365474700928,-0.34898725152015686,0.0034184185788035393,0.056407660245895386,24.75,25.8125,24.625,27.3125,28.3125,28.6875
1.0,0.39996578585775366,-0.49619222816323943,0.10607121441788257,-0.02643501100454662,0.007883605586528326,-0.07767442812406608,-0.5479592894446125,-0.3480618619878076,0.059900832329890574,-3.078683033916502,0.6247167851354328,4.670718159456375e-05,0.002843486726348421,0.001097637584045119,-0.008843097915267844,0.0031594522274437293,-0.008170196080176204,-0.00014282183701375687,0.3572152853012085,-1.1090966028026124,1.5973823706256312,-2.0575434170165003,-1.5714533964740198,2.332162380218506,1.2151163644956068e-20,0.007913325913250446,0.010776909999549389,-0.009930629283189774,-0.00010288947669323534,0.00014144708984531462,0.2298433631658554,0.24899697303771973,-9.289502143859863,0.7709873914718628,47.654640197753906,-0.39247995615005493,-3.429539203643799,-2.1373701095581055,-0.3753277063369751,0.008065195754170418,0.03535082936286926,24.75,25.8125,24.625,27.3125,28.3125,28.6875
1.0,0.1251205087085346,-0.7280362252453164,-0.025453811654246664,0.0009339939647563185,0.0021654067025224594,-0.07895125924540401,-0.54795436762052,-0.3480643874492938,0.05987503149991716,-3.0786682521268167,0.6246753570697132,2.4745992920921432e-05,0.002945929697501743,0.0011352664858943976,-0.009610481065453562,0.0033576498912504895,-0.008708249994804473,-0.00013768684581952397,0.3572273254394531,-1.1090602737716218,1.597393814717428,-2.0575672588744105,-1.571465317402975,2.332150459289551,1.630233819656562e-22,0.008828248828649521,0.011413347907364368,-0.01090860366821289,-0.00010125113476533443,0.00013609857705887407,0.2106897532939911,0.24899697303771973,-9.289502143859863,0.7620334029197693,47.64299774169922,-0.3576376438140869,-3.4544718265533447,-2.0991580486297607,-0.3950132429599762,0.007205414120107889,0.0168859101831913,24.75,25.8125,24.625,27.3125,28.3125,28.6875
1.0,0.45227454315131066,-0.7250179625228295,-0.13550382725272003,0.005126039115279905,-0.0013232645704913584,-0.07903488638093763,-0.5479442694778729,-0.34806059812269435,0.059860284448005396,-3.0786568381366077,0.6246348089238928,-2.3596200586062628e-05,0.0030190082733934707,0.0011615678080659818,-0.010878393884883625,0.0035544802518749662,-0.009247336695243493,-0.00010904221012927734,0.3572273254394531,-1.1090478164008637,1.5974066893206995,-2.057556291619772,-1.571465317402975,2.3321266174316406,2.187166557962284e-24,0.010361146181821823,0.012539498507976532,-0.012993784621357918,-9.965062781702727e-05,0.00010688781912904233,0.19153612852096558,0.28730422258377075,-9.366117477416992,0.7956027388572693,47.67613983154297,-0.3493313789367676,-3.468057155609131,-2.144463539123535,-0.3931070566177368,0.007192960008978844,0.03382285311818123,24.75,25.8125,24.625,27.3125,28.3125,28.6875
1.0,0.5880042302709512,-0.2657126017962955,-0.13100179466864215,-0.014236035968042493,-0.0010090493599037133,-0.0868233350545076,-0.5479415608788848,-0.34806386570799647,0.059849580437106004,-3.078658331075126,0.6245777786419117,-1.318384869769283e-05,0.002889868843668705,0.0011126605752827248,-0.010765801459243333,0.0031808425657613975,-0.00825538012741161,-9.817838698831885e-05,0.3572392463684082,-1.109035776262619,1.5974190870868128,-2.0575810871519984,-1.57147723833193,2.3321027755737305,2.93436288700553e-26,0.009981397539377213,0.013106678612530231,-0.014241211116313934,-9.809904440771788e-05,9.545473585603759e-05,0.13407529890537262,0.2106897532939911,-9.308656692504883,0.6680382490158081,47.67524337768555,-0.36831772327423096,-3.423206329345703,-2.1478147506713867,-0.3977314233779907,-0.006872211117297411,0.021765798330307007,24.75,25.8125,24.625,27.3125,28.3125,28.6875
1.0,0.28559558604105595,-0.5564651930815652,-0.06330493254218145,-0.02138437282553878,-0.0013855835392903998,-0.07595319633402185,-0.5479319651366035,-0.3480602703410344,0.05982475113772329,-3.0786284794929166,0.624629029254193,-6.114448845832116e-05,0.003244180004089754,0.0012444453608232056,-0.012546080873655321,0.0038759501471742706,-0.010123953348501283,-9.453362102545152e-05,0.3572392463684082,-1.1090112191489716,1.5974424521075647,-2.0575930080809535,-1.57147723833193,2.3321385383605957,3.9368222882711146e-28,0.012183737941086292,0.014268917962908745,-0.015612124465405941,-9.659494389779866e-05,9.171139390673488e-05,0.1149216815829277,0.2298433631658554,-9.251194953918457,0.7441308498382568,47.7164421081543,-0.4040868580341339,-3.389110565185547,-2.215637445449829,-0.4183334410190582,0.008062934502959251,0.034147366881370544,24.75,25.8125,24.625,27.3125,28.3125,28.6875
1.0,-0.08963780201102317,-1.0759189044901958,-0.1292251490633747,-0.010742688799773574,0.006309795292677016,-0.0708889059032996,-0.5479179913085238,-0.34804297082516705,0.05979720016143536,-3.078601594085717,0.6246426600015507,-8.375410497926114e-05,0.002641449207612879,0.0010175371424549046,-0.012043187330550207,0.0032533240327495437,-0.008471345076212571,-9.209875569330124e-05,0.3572273254394531,-1.109011248951294,1.5975149313556116,-2.057640691796774,-1.5714896360980433,2.3321385383605957,5.2817500250243154e-30,0.01206415519118309,0.013510980643332005,-0.01650061272084713,-9.513628174318e-05,8.866663119988516e-05,0.1149216815829277,0.19153612852096558,-9.174580574035645,0.7709873914718628,47.70121383666992,-0.3668443560600281,-3.4622535705566406,-2.172811508178711,-0.4453355073928833,0.010329089127480984,0.019545534625649452,24.75,25.8125,24.625,27.3125,28.3125,28.6875
1.0,-0.3133394078681291,-0.29268100044298295,-0.03439799355643534,0.0026038406079269246,0.012652102551030213,-0.07156101416998435,-0.547936976851088,-0.34802965798374036,0.05975726148906632,-3.0786056488661417,0.6246821521878911,-9.123641820810773e-05,0.0018949197447732508,0.0007356415257217524,-0.012420007877766159,0.002525283188861639,-0.006550768435640319,-8.802945707618947e-05,0.3571913242340088,-1.1089510482600708,1.5975378195392054,-2.057726045648092,-1.57147723833193,2.3321266174316406,9.506962090843911e-34,0.01308854017406702,0.013606313616037369,-0.019674265757203102,-9.234721801476553e-05,8.319932385347784e-05,0.0,0.17238251864910126,-9.21288776397705,0.7508436441421509,47.73524856567383,-0.3876473903656006,-3.408292293548584,-2.1242594718933105,-0.4435923099517822,-0.0030602640472352505,0.02525569684803486,24.75,25.8125,24.625,27.3125,28.3125,28.6875
1.0,-0.08027660789609557,0.15841194321022364,-0.15461046817510465,0.010747148812188898,0.008803352961699694,-0.07357121833354796,-0.5479155457779606,-0.3480460583981914,0.059718163583330486,-3.07859198875053,0.62462167509755,-0.0001552669424242547,0.0017847501659599848,0.0006936721860081078,-0.012854493958074382,0.0022872524826391687,-0.00592379573272095,-8.625769049162128e-05,0.3572273254394531,-1.1089030069163819,1.597562615071432,-2.0577508411803187,-1.57147723833193,2.3321266174316406,1.2754803907572632e-35,0.013471938669681549,0.014461682178080082,-0.021583665162324905,-9.101308387471363e-05,8.07119213277474e-05,0.0,0.09576806426048279,-9.097966194152832,0.6769921779632568,47.67524337768555,-0.4394840598106384,-3.3703131675720215,-2.1346209049224854,-0.43855324387550354,0.008890417404472828,0.030406182631850243,24.75,25.8125,24.625,27.3125,28.3125,28.6875
1.0,0.42061760172717144,0.4900056437735858,0.1785579559776001,0.005072394010351408,0.01133460648805909,-0.07791518333615499,-0.5479062545528892,-0.34807026545061676,0.05971229727604832,-3.078630795180828,0.6246485878260181,-0.0001523122909088563,0.001310514149382961,0.0005150137269428994,-0.012725328741687589,0.0018597251822745327,-0.004791858746804809,-8.447654150430809e-05,0.35725128650665283,-1.1089028877070923,1.597586456929342,-2.0577994785704554,-1.5714414755450647,2.332162380218506,1.7112196099399596e-37,0.01376317162066698,0.013986630365252495,-0.022609831765294075,-8.971711940830573e-05,7.83692448749207e-05,0.07661445438861847,0.038307227194309235,-9.232041358947754,0.6948947906494141,47.7191276550293,-0.3955252766609192,-3.406595230102539,-2.1326591968536377,-0.44216927886009216,-0.011737403459846973,0.021687693893909454,24.75,25.8125,24.625,27.3125,28.3125,28.6875
1.0,0.4863382996567613,0.20365097338334584,0.17864748314386938,0.0053527087963215645,0.007311819942814657,-0.07938159715409941,-0.5479164455820594,-0.3480502306378578,0.059672807171613884,-3.0786047729962407,0.6246434708383977,-0.00014863666363279632,0.0015641276251604967,0.0006094547353097463,-0.013652414426620813,0.0022019815275857476,-0.005713114043198978,-8.23744009055383e-05,0.3572273254394531,-1.108854518537857,1.5976222197162073,-2.057871480981344,-1.571465317402975,2.3321385383605957,2.2958201416234927e-39,0.014730512164533138,0.014885883778333664,-0.023493655025959015,-8.845727279549465e-05,7.615835056640208e-05,0.038307227194309235,-0.038307227194309235,-9.327810287475586,0.7396538853645325,47.681514739990234,-0.45741409063339233,-3.415492057800293,-2.1375792026519775,-0.4618719816207886,0.0013564506080001593,0.03057796135544777,24.75,25.8125,24.625,27.3125,28.3125,28.6875
1.0,0.3602843071057032,0.11452654295417682,-0.03853416526545528,0.00976242350169093,0.00379765452491673,-0.07776008163376874,-0.5479129570999691,-0.3480326690838961,0.059643943104447095,-3.078582329884271,0.6246582100489512,-0.0001966107197159651,0.0009875495379499332,0.0003923230894106742,-0.013406133394825055,0.001694641405244979,-0.004369126367013249,-8.099625831461562e-05,0.3572033643722534,-1.1088304382613678,1.5976579825030726,-2.0578953228392542,-1.571465317402975,2.3321266174316406,3.0801941544323804e-41,0.015004649758338928,0.014164650812745094,-0.02448311820626259,-8.723250357434154e-05,7.418995664920658e-05,0.0,-0.05746084079146385,-9.21288776397705,0.6725152134895325,47.6367301940918,-0.4223746061325073,-3.449798583984375,-2.0908138751983643,-0.46900659799575806,0.01623365469276905,0.013582848943769932,24.75,25.8125,24.625,27.3125,28.3125,28.6875
1.0,0.1792270172346287,-0.24950330341367657,-0.17478370518275546,0.008935568069710843,0.009103731722434302,-0.0733512956647537,-0.5478913496068112,-0.348060903229339,0.059609961615334245,-3.0785843790549294,0.6246009570000558,-0.0002556842494593971,0.0011667815176526453,0.00045891701284060226,-0.01431343151360515,0.001977634607525706,-0.005131960674516621,3.790529373687983e-05,0.35725128650665283,-1.1087821584990998,1.597670857106344,-2.0579196415343226,-1.5714533964740198,2.3321385383605957,4.13383046975821e-43,0.01602831296622753,0.01496814750134945,-0.025496667250990868,-8.604122558608651e-05,-4.489278944674879e-05,0.019153613597154617,-0.05746084079146385,-9.232041358947754,0.7821771502494812,47.718231201171875,-0.4670410752296448,-3.383430004119873,-2.110628604888916,-0.4797988533973694,0.008843563497066498,0.0211014524102211,24.75,25.8125,24.625,27.3125,28.3125,28.6875
1.0,0.5851123333427896,0.2760555697400833,-0.05743352737106408,0.0015862621582630031,0.025846281453027267,-0.08738148884218155,-0.5479067141974778,-0.34804280108352686,0.05959716927543238,-3.078557360632666,0.6246338279452607,-0.00023533207235861085,0.0006883809968374219,0.0002787752259945978,-0.014024105239772917,0.001428274474266557,-0.0036740359149064036,4.358473562646932e-05,0.3572273254394531,-1.1087581974319,1.597670857106344,-2.057943960229391,-1.57147723833193,2.3321385383605957,5.605193857299268e-45,0.015973597764968872,0.014665271155536175,-0.026697073131799698,-8.488193998346105e-05,-5.1239883759990335e-05,0.038307227194309235,-0.07661445438861847,-9.289502143859863,0.7441308498382568,47.70121383666992,-0.4824472665786743,-3.4560494422912598,-2.0627214908599854,-0.48900362849235535,-0.006626221816986799,0.01504448615014553,24.75,25.8125,24.625,27.3125,28.3125,28.6875
1.0,0.5404133462625468,0.44132981015059075,0.04094512246458192,0.0019783072920681478,0.028510307293924217,-0.09433895111088376,-0.5478760498164491,-0.3480393967601232,0.0595280450685034,-3.0785143319483987,0.6246250916467178,-0.0003457963612234451,0.0011349362422508119,0.0004458542147121263,-0.014969203549180047,0.001958702354522666,-0.0050939924744561405,4.282520245002169e-05,0.3572392463684082,-1.1086981755546113,1.5977538267718714,-2.0580040417113246,-1.57147723833193,2.332150459289551,0.0,0.016808049753308296,0.015670044347643852,-0.02702050656080246,-8.375350444111973e-05,-5.030596366850659e-05,-0.05746084079146385,-0.038307227194309235,-9.251194953918457,0.7754590511322021,47.70748519897461,-0.4383360743522644,-3.4239401817321777,-2.0706722736358643,-0.5196213126182556,0.015179027803242207,0.008967122994363308,24.75,25.8125,24.625,27.3125,28.3125,28.6875
1.0,0.46521762841527153,0.2533748555090555,-0.0013695202860888188,0.00517254102665703,0.0213242938123085,-0.08548588223016863,-0.547880792119498,-0.34804880490288254,0.05952038575744653,-3.0785592412235205,0.6246343286742491,-0.00030144076572513536,0.0007541002315886153,0.00030249650084473084,-0.014608011287325568,0.0014535827044807267,-0.0037516767087461536,4.092299664343604e-05,0.3572392463684082,-1.1086983245662232,1.5977900663958948,-2.0580884418883265,-1.5714533964740198,2.332150459289551,0.0,0.016520828008651733,0.015483953058719635,-0.027981404215097427,-8.265473297797143e-05,-4.896989048575051e-05,0.05746084079146385,0.019153613597154617,-9.193734169006348,0.7016075849533081,47.66001510620117,-0.46946701407432556,-3.386478900909424,-2.06432843208313,-0.5130696892738342,0.0034746930468827486,0.009767618030309677,24.75,25.8125,24.625,27.3125,28.3125,28.6875
1.0,0.24031082558120204,0.16119988897826235,-0.19464598072058784,0.003195724215233008,0.00994157499649037,-0.0814084314343465,-0.547901839568294,-0.3480404676329865,0.05950239161554116,-3.078555125797922,0.6246528040568841,-0.000302693982126374,0.0009946870575557366,0.00039197571916638424,-0.01577250125571747,0.0018526790640815802,-0.0048261270075056605,3.945521950384922e-05,0.3572152853012085,-1.1086497765830536,1.5977667013751429,-2.058112760583395,-1.5714533964740198,2.3321385383605957,0.0,0.017862435430288315,0.01644223928451538,-0.02913512848317623,-8.1584308645688e-05,-4.76747882203199e-05,0.038307227194309235,0.019153613597154617,-9.251194953918457,0.7262282371520996,47.6707649230957,-0.4841746687889099,-3.4630846977233887,-2.113029956817627,-0.5231271982192993,0.0004759563016705215,0.027739258483052254,24.75,25.8125,24.625,27.3125,28.3125,28.6875
1.0,0.39786952442465096,-0.3190884644336216,-0.44808429145152856,0.012577664916551374,0.0066375068945142,-0.0715983008831435,-0.5478896776313632,-0.34803646465452653,0.05945997507645706,-3.078534151731877,0.6245910058116694,-0.00031477548013607515,0.0005532374287366433,0.00022572774724781625,-0.015615962485063747,0.0014091600354686669,-0.003650309109702741,3.764659976744277e-05,0.3572273254394531,-1.1086138647845765,1.5978267828570765,-2.0581847629942835,-1.57147723833193,2.3321146965026855,0.0,0.018029043450951576,0.01609496772289276,-0.030211150646209717,-8.054140926105902e-05,-4.644487125915475e-05,0.038307227194309235,-0.019153613597154617,-9.251194953918457,0.7777001857757568,47.718231201171875,-0.4569586515426636,-3.4085655212402344,-2.021263837814331,-0.5483056306838989,0.0078023700043559074,0.0103983785957098,24.75,25.8125,24.625,27.3125,28.3125,28.6875
1.0,0.4099549760778462,-0.04418876578737771,-0.2813393313567304,0.002981178807821225,0.00210445333256594,-0.07802118858596556,-0.5478816170769107,-0.3480329028272177,0.059424563374767814,-3.0785240475311864,0.624646527788724,-0.0003826907444730729,0.0005473307323106656,0.00022313241615295177,-0.015745484230158986,0.0012872361216712197,-0.0033291823583077727,4.728561365114764e-05,0.3572152853012085,-1.1085778635791321,1.5978630224811,-2.058221002618307,-1.5714533964740198,2.3321385383605957,0.0,0.018012169748544693,0.016594739630818367,-0.03103754296898842,-7.952468149596825e-05,-5.639837763737887e-05,0.019153613597154617,0.05746084079146385,-9.308655738830566,0.7351769208908081,47.685096740722656,-0.5492706298828125,-3.3837790489196777,-2.076878070831299,-0.5442278385162354,0.006873236037790775,0.019653597846627235,24.75,25.8125,24.625,27.3125,28.3125,28.6875
1.0,-0.08613330137662137,-0.023911446830402826,-0.10339149846060625,0.0015199786065780772,-0.009911182660181227,-0.07284081627433871,-0.5478906135219822,-0.3480286689326188,0.05940934963966746,-3.0785233962281655,0.624646390158628,-0.00031396740248318465,0.0007360676800651503,0.00029324485993773833,-0.016708578707867256,0.0017112274201399745,-0.00446863343864736,5.641377850686765e-05,0.3572152853012085,-1.1085654360106965,1.597898308430807,-2.058305402795309,-1.57147723833193,2.3321385383605957,0.0,0.01928282342851162,0.017062105238437653,-0.031559791415929794,-7.85334559623152e-05,-6.549640966113657e-05,0.05746084079146385,0.1149216815829277,-9.308656692504883,0.7530794739723206,47.67255783081055,-0.46971774101257324,-3.4607062339782715,-2.0662693977355957,-0.5727195739746094,0.003487743902951479,0.0077716270461678505,24.75,25.8125,24.625,27.3125,28.3125,28.6875
1.0,0.6090082525053542,-0.19030023548710504,-0.21446134962146618,0.005431329607099019,0.009730276825535197,-0.08490595581008702,-0.5478600233422941,-0.348044891021777,0.05935691766183662,-3.078532986664309,0.6245909243804021,-0.00042415906670222986,0.0005677594428673088,0.00022966897303330186,-0.016668846603909444,0.001584459987855129,-0.004134843986486101,5.537503514304941e-05,0.3572392463684082,-1.1085175734809418,1.5979583899127405,-2.0583530865111292,-1.5714414755450647,2.3321266174316406,0.0,0.019433576613664627,0.01681811921298504,-0.03182360529899597,-7.756651029922068e-05,-6.461263546952978e-05,0.05746084079146385,0.07661445438861847,-9.404424667358398,0.7665104269981384,47.660911560058594,-0.5153615474700928,-3.4203696250915527,-2.054065227508545,-0.5913751721382141,0.005098517052829266,0.0009046671912074089,24.75,25.8125,24.625,27.3125,28.3125,28.6875
1.0,0.6386602575455844,0.12451725039000132,-0.175753257425376,-0.007244909648143609,0.012468758057320492,-0.08335409326758511,-0.5478626926991788,-0.3480339832437626,0.059334840115282395,-3.078502428843057,0.6246611730905545,-0.0004291114808138304,0.0008705088868957153,0.00038856145882875905,-0.017041432239226623,0.001798906264885962,-0.0047084617864012095,-1.3121258994849356e-05,0.35722729563713074,-1.108493523006775,1.5979817549334925,-2.0583893261351527,-1.5714533964740198,2.332162380218506,-6.706424028379843e-05,0.019437532871961594,0.017712725326418877,-0.03210977837443352,-7.662313873879611e-05,-6.314608617685735e-05,0.07661445438861847,0.17238251864910126,-9.423578262329102,0.7486078143119812,47.685096740722656,-0.5284445285797119,-3.4452061653137207,-2.043200731277466,-0.6171481013298035,-0.0020412588492035866,0.018489468842744827,24.75,25.8125,24.625,27.3125,28.3125,28.6875
1.0,0.7883509948951936,-0.12440306904788123,-0.30706731218150113,-0.002266596941760263,0.015330683084805424,-0.08286421073672345,-0.5478627109009682,-0.34803051042646105,0.05930295605844976,-3.078479605208021,0.6246182713276189,-0.00039964820034033217,0.0006865191100662167,0.00031818589046443615,-0.017432722631170346,0.0018607781164876613,-0.004881722779043091,-1.3728081781337373e-05,0.3572392165660858,-1.1084571939757843,1.5980175177203577,-2.058460851708883,-1.5714896360980433,2.332150459289551,-6.611291610170156e-05,0.020376451313495636,0.01733834482729435,-0.03249036520719528,-7.570237357867882e-05,-6.170572305563837e-05,0.038307227194309235,0.17238251864910126,-9.346963882446289,0.8448441624641418,47.730770111083984,-0.529765784740448,-3.463467836380005,-1.997514247894287,-0.6526395082473755,0.008624205365777016,0.006364543456584215,24.75,25.8125,24.625,27.3125,28.3125,28.6875
1.0,0.2941546184692163,-0.44816705672136226,-0.3518591265403755,-0.0009003449999996783,-0.0010581472225137142,-0.07444451096633684,-0.5478960395095689,-0.3480187048088908,0.05927416841518357,-3.078490635431247,0.6246589760604375,-0.00035274564127254284,0.000646343543776297,0.0003201670444704169,-0.017666994093953153,0.0015675998372113892,-0.004107399700582336,-3.360626117471623e-05,0.35720333456993103,-1.1083375674537201,1.5980656782733362,-2.0585934124388636,-1.5714896360980433,2.332150459289551,-9.226406109519303e-05,0.020287400111556053,0.018392039462924004,-0.034282978624105453,-7.392580300802365e-05,-6.868047785246745e-05,0.15322890877723694,0.19153612852096558,-9.346963882446289,0.7329410910606384,47.72897720336914,-0.5702413320541382,-3.3806777000427246,-2.0495994091033936,-0.692048192024231,0.017250973731279373,0.004608514718711376,24.75,25.8125,24.625,27.3125,28.3125,28.6875
1.0,0.1194022935825863,-0.7179687181194965,-0.39562437583010573,-0.005429485953667664,-0.014457394022896976,-0.0690160667883017,-0.5478616291569257,-0.34802169079346346,0.059165067385805015,-3.078456747587516,0.6246139559020573,-0.0005311774293783515,0.0005654301149460781,0.0003065144804308901,-0.01828396948391877,0.0017775179347686186,-0.004675883178847067,-5.164794381487588e-05,0.3572152554988861,-1.108277128343918,1.5981133619891565,-2.058653493920797,-1.571465317402975,2.3321266174316406,-0.00011793064913945273,0.02144456095993519,0.01821102574467659,-0.034653130918741226,-7.30684696463868e-05,-7.634264329681173e-05,0.17238251864910126,0.1149216815829277,-9.327810287475586,0.7844129800796509,47.6895751953125,-0.5213906764984131,-3.4552714824676514,-2.0487234592437744,-0.7239382863044739,0.02425037883222103,0.021242216229438782,24.75,25.8125,24.625,27.3125,28.3125,28.6875
1.0,0.5882301925114249,-0.35897540790907034,-0.32825730229858063,-0.011929427804410012,-0.002563641901846674,-0.07231647982470989,-0.5478642209028739,-0.34801886564448736,0.059140516687683525,-3.0784417241846787,0.624668229475723,-0.000505945804740634,0.00036978848372609023,0.0002306157644940474,-0.018845745664156217,0.0015566960397720743,-0.004096344700250794,-5.078223945573145e-05,0.3572152554988861,-1.1082528692534943,1.5981500784503382,-2.058725973168844,-1.57147723833193,2.332162380218506,-0.00011530405026860535,0.02218789793550968,0.018863147124648094,-0.03666876628994942,-7.223069405881688e-05,-7.534054748248309e-05,0.15322890877723694,0.19153612852096558,-9.327810287475586,0.7195101380348206,47.71554183959961,-0.5292019248008728,-3.42698335647583,-2.0813190937042236,-0.7388663291931152,0.004582549445331097,0.005501162726432085,24.75,25.8125,24.625,27.3125,28.3125,28.6875
1.0,0.567149495755063,-0.8966328205976716,-0.509172122299657,4.6090048379820374e-05,-0.0018161203410054273,-0.07526173837729912,-0.5478846915342771,-0.3480102884028233,0.0591264556340009,-3.0784483295257696,0.6246698345542003,-0.0004892162938027765,-0.0002796751267361825,2.442611149297704e-06,-0.018893333084242056,0.0007204825491071246,-0.0018767179669807379,-7.767102661059953e-05,0.357191264629364,-1.10821686804805,1.5981386343585413,-2.058763166467184,-1.57147723833193,2.3321385383605957,-0.00013928911357652396,0.022450516000390053,0.019276121631264687,-0.03971627727150917,-7.141195965232328e-05,-7.383416232187301e-05,0.19153612852096558,0.19153612852096558,-9.346963882446289,0.8224645853042603,47.711063385009766,-0.5970256924629211,-3.411566972732544,-2.017314910888672,-0.7174389362335205,0.00823417492210865,-0.00636310363188386,24.75,25.8125,24.625,27.3125,28.3125,28.6875
1.0,0.4080483182159914,-0.37203962230516907,-0.2119624266895876,-0.005451068299812372,-0.0025600924475790597,-0.07742947488318465,-0.5478677234459427,-0.3480196082074037,0.05907364174072624,-3.0784519096598757,0.6246898644174924,-0.0005412869566403621,-0.0006662051831305874,0.00016085323970651798,-0.01880487891406975,0.00046171891223413037,-0.0011909105965485559,-0.0005273484618487094,0.3572031259536743,-1.1081689459136506,1.5982101599322718,-2.0588585338988246,-1.5714533964740198,2.332162380218506,-0.0005871354951523244,0.022494057193398476,0.019165465608239174,-0.04038216173648834,-7.061153883114457e-05,-7.235280645545572e-05,0.28730422258377075,0.17238251864910126,-9.366117477416992,0.6881819367408752,47.6976318359375,-0.5502429008483887,-3.411975622177124,-1.9851757287979126,-0.7396402955055237,0.01154550164937973,0.004090786911547184,24.75,25.8125,24.625,27.3125,28.3125,28.6875
1.0,0.5014262700465039,-0.637086331717826,-0.28436338438467257,-0.0027323420577052135,-0.005396042076226969,-0.07639857192579297,-0.5478440999973048,-0.34804656702041686,0.05901066397923119,-3.0784852050404092,0.6245818882554496,-0.0006196025312579574,-0.0002494363980655797,0.0003047014054497924,-0.01945358670608203,0.0010008430451142443,-0.0026311668814495773,-0.00051033009422747,0.3572390377521515,-1.1080969137004395,1.5982702414142054,-2.0589543781676234,-1.5714176336871546,2.3321266174316406,-0.0005691004917025566,0.023094160482287407,0.0196703914552927,-0.039949335157871246,-6.982895138207823e-05,-7.092739542713389e-05,0.28730422258377075,0.13407529890537262,-9.308655738830566,0.7597975730895996,47.70121383666992,-0.5307948589324951,-3.4400317668914795,-2.0443532466888428,-0.7842888832092285,0.0033543449826538563,0.006213325075805187,24.75,25.8125,24.625,27.3125,28.3125,28.6875
1.0,0.18440780327814152,-0.7040778399805367,-0.5701037790441323,0.00013855547633853573,-0.014902465017844762,-0.07129348036266422,-0.5478604782913786,-0.34803369394445766,0.05899685335198929,-3.0784691623899723,0.6245402810095424,-0.0005036202418903585,-0.001059564466281061,-1.7501353575573958e-05,-0.019505440479886147,-8.593920884874384e-06,-0.00012100388542728681,-0.0005158784067888617,0.3572390675544739,-1.1080846649459382,1.5983055273639124,-2.059051652947897,-1.57147723833193,2.3321027755737305,-0.0005715906736440957,0.02357921563088894,0.019848285242915154,-0.043317198753356934,-9.628059160604607e-06,-6.955709250178188e-05,0.24899697303771973,0.2106897532939911,-9.251195907592773,0.7441308498382568,47.67524337768555,-0.4814647436141968,-3.4420461654663086,-1.9810049533843994,-0.7777104377746582,0.019492194056510925,0.003986088093370199,24.75,25.8125,24.625,27.3125,28.3125,28.6875
1.0,0.3144705548979538,-0.7634636297837148,-0.28470281610442516,-0.0011257741457474553,-0.00784495999979241,-0.066616016843339,-0.5478561755370335,-0.3480118909028946,0.05892067885765645,-3.0783971545075186,0.6246213452156174,-0.0006040612755518068,-0.0016670691285902385,-0.00026679643759848124,-0.01961301784411773,-0.0005997151960366767,0.0014212562063883767,-0.0004917898394432077,0.35721510648727417,-1.1079886716655274,1.5983532110797327,-2.0591122112669886,-1.5714896360980433,2.3321385383605957,-0.0005451811593957245,0.024229461327195168,0.019628621637821198,-0.04539941996335983,-6.286434768298932e-07,-6.82384634274058e-05,0.24899697303771973,0.17238251864910126,-9.346963882446289,0.7597975730895996,47.703006744384766,-0.5575600862503052,-3.4579858779907227,-1.9351140260696411,-0.7691210508346558,-0.0015558148734271526,0.018256422132253647,24.75,25.8125,24.625,27.3125,28.3125,28.6875
1.0,0.3452321598312179,-0.34801769018511747,-0.18144551885313442,-0.01932802034339537,0.0018535675602042532,-0.07531712567823477,-0.5478474929636399,-0.34801213122378166,0.058896827133259944,-3.07842606869535,0.6246655684821016,-0.0006182257438968763,-0.002420053173341008,-0.0005839250697882177,-0.019950341901856593,-0.0015281871788491211,0.003883846470070777,-0.00044516938515746395,0.3572031855583191,-1.107988403444626,1.5984252134906214,-2.0591966114439906,-1.5714533964740198,2.332150459289551,-0.000495550746563822,0.02496902458369732,0.020217619836330414,-0.04935978353023529,-4.104592221665371e-08,-6.696909986203536e-05,0.19153612852096558,0.13407529890537262,-9.385271072387695,0.7978386282920837,47.72897720336914,-0.5386359095573425,-3.3191404342651367,-1.9899441003799438,-0.7536770105361938,0.006552387960255146,-0.0032445054966956377,24.75,25.8125,24.625,27.3125,28.3125,28.6875
1.0,0.3735716190857274,-0.2314716165871553,-0.1468536266882608,-0.023329425356525966,0.005435276515680121,-0.07259687181734112,-0.5478537616471482,-0.3480063643646358,0.05884730869721902,-3.0784210075963863,0.6246265047454945,-0.0006506726025388719,-0.0022109957197936157,-0.0005337896665734747,-0.020367837009953992,-0.0013428615212363049,0.003388549843408669,-0.0003966579931307068,0.35719117522239685,-1.107916460638382,1.598450009022848,-2.0592690906920375,-1.5714533964740198,2.3321146965026855,-0.0004538866342045367,0.02527480572462082,0.020799264311790466,-0.049718376249074936,-2.6800053287701076e-09,-7.383558840956539e-05,0.13407528400421143,0.17238251864910126,-9.442731857299805,0.7441308498382568,47.69673538208008,-0.5793783664703369,-3.422016143798828,-1.9271341562271118,-0.7609845995903015,0.0022388040088117123,-0.011080542579293251,24.75,25.8125,24.625,27.3125,28.3125,28.6875
1.0,0.3534799327601475,-0.8695706416433538,-0.10447281318834263,0.001953295041468896,0.006411152036292759,-0.07601880008170386,-0.5478577123546738,-0.3480322829154513,0.05884657543996902,-3.078466430932114,0.6245972084901329,-0.0005537327035702261,-0.002636460584954681,-0.0007177980915926235,-0.020455414003735562,-0.0017792773728385809,0.00454590641455326,-0.000355876338024755,0.3572271764278412,-1.1079163414290925,1.5984728972064417,-2.0593649349608363,-1.5714533964740198,2.3321266174316406,-0.00041868729749694467,0.025711441412568092,0.020733162760734558,-0.05132581666111946,-1.749852207577618e-10,-8.01635833340697e-05,0.13407529890537262,0.05746084079146385,-9.289502143859863,0.7642692923545837,47.71375274658203,-0.5630717277526855,-3.459310293197632,-1.9227828979492188,-0.7785555124282837,0.010068768635392189,0.0002983827143907547,24.75,25.8125,24.625,27.3125,28.3125,28.6875
1.0,0.3763605058169849,-0.3254161367778904,-0.25374322964722845,-0.01034053150544621,0.014158825185685422,-0.08265954927500523,-0.5478637118312841,-0.34801832374942826,0.05879259199308143,-3.0784536334828214,0.6246330157808636,-0.0005677898730504545,-0.0036773861043976294,-0.0011293849669732736,-0.020184979531585982,-0.0031419180459472612,0.008170090224641529,-0.0003286828443547861,0.35720324516296387,-1.1078562897494812,1.5985329786883753,-2.059474607507223,-1.5714533964740198,2.3321266174316406,-0.0003885520272888243,0.025768771767616272,0.020977849140763283,-0.055499717593193054,-1.1425283462374036e-11,-7.925105455797166e-05,0.17238251864910126,0.15322890877723694,-9.232041358947754,0.7329410910606384,47.66718673706055,-0.6490932106971741,-3.406522750854492,-1.9081166982650757,-0.739386796951294,0.007129210513085127,-0.00977470725774765,24.75,25.8125,24.625,27.3125,28.3125,28.6875
1.0,-0.3442810478772952,-0.6209298720007043,-0.04843309684334309,-0.011040252646227221,0.004650998578018621,-0.07475800595861551,-0.5478756114378108,-0.34802329229737816,0.05874382247641205,-3.0784539531273567,0.6245948848749674,-0.0005160431971506448,-0.004145451367868329,-0.0013231084647817334,-0.02021277393504085,-0.003839530145185804,0.01002437767829319,-0.00025483520410016366,0.35721516609191895,-1.107784466152527,1.598569695149557,-2.0596071682372035,-1.57147723833193,2.3321146965026855,-0.0003624653327278793,0.025849757716059685,0.021503765136003494,-0.058087803423404694,-7.459893705367981e-13,-0.00012819175026379526,0.09576806426048279,0.15322890877723694,-9.27034854888916,0.7195101380348206,47.65911865234375,-0.5870361924171448,-3.40728759765625,-1.9282135963439941,-0.7278677225112915,-0.0011134091764688492,-0.017452672123908997,24.75,25.8125,24.625,27.3125,28.3125,28.6875
1.0,-0.2257222569334728,-0.5644293639423925,-0.048379002696008366,-0.013229969837606954,0.011167004345858317,-0.08155178440343691,-0.5479048305945425,-0.3480020936742218,0.05869535007407595,-3.0784319333392545,0.6246672297287931,-0.0004627172257967064,-0.004555546277973979,-0.001493044270130323,-0.021022410115885543,-0.0041503989970038,0.010842641419417412,-0.0001907054449124389,0.3571791648864746,-1.1077121061137696,1.598604981099264,-2.059739728967184,-1.5715015570269983,2.3321266174316406,-0.00033966245246119797,0.02723240852355957,0.02195660024881363,-0.06079861521720886,-4.870777582264771e-14,-0.0001705680915620178,0.1149216815829277,0.2106897532939911,-9.327810287475586,0.7620334029197693,47.66001510620117,-0.6225254535675049,-3.4616737365722656,-1.906554937362671,-0.6989349126815796,0.013961248099803925,0.001855788053944707,24.75,25.8125,24.625,27.3125,28.3125,28.6875
1.0,-0.20072343211297805,-0.8210882460949878,-0.3150151268503058,-0.0005427349761266123,0.014011787237639035,-0.06941949082195002,-0.5478843379080442,-0.34802234465903426,0.058646324916667936,-3.0784496698521178,0.6246705785210205,-0.000524987387634054,-0.005238576830498224,-0.001731950616457078,-0.02123550813482089,-0.004718957136958324,0.012347988675294972,-0.00022177747414205018,0.35720324516296387,-1.1076638263515015,1.5986650625811976,-2.059824129144186,-1.571465317402975,2.332150459289551,-0.0003664590185508132,0.0281451977789402,0.02162361703813076,-0.0629875510931015,-3.180270115519233e-15,-0.00016731276991777122,0.019153613597154617,0.17238251864910126,-9.327810287475586,0.6904177665710449,47.67792892456055,-0.6283636093139648,-3.4692025184631348,-1.8736026287078857,-0.6869673728942871,0.009017962031066418,-0.004163115285336971,24.75,25.8125,24.625,27.3125,28.3125,28.6875
1.0,0.1083939820960142,-0.4168946137925016,-0.18437317038734308,-0.005836650709121156,0.0215280962069766,-0.08144042690604213,-0.5479054890309794,-0.348054658790771,0.058636581587503844,-3.0785148563871267,0.6246073052252575,-0.00039671268030264166,-0.005818770511600337,-0.0019601869791201444,-0.021210085295755333,-0.00538184295173707,0.01410752032314016,-0.0002140677762080908,0.35723912715911865,-1.1076277059367676,1.5986650625811976,-2.0599566898741664,-1.571465317402975,2.3321385383605957,-0.000351899943780154,0.028456348925828934,0.021610526368021965,-0.06516586989164352,-2.0764892264441985e-16,-0.00016150824376381934,0.0,0.15322890877723694,-9.232041358947754,0.7217512726783752,47.690467834472656,-0.6091039180755615,-3.557727336883545,-1.8920260667800903,-0.6453878283500671,0.009451004676520824,-0.009013738483190536,24.75,25.8125,24.625,27.3125,28.3125,28.6875
1.0,0.10493680944294836,-0.2460513467525547,-0.18358163706271502,-0.005246273552734089,0.020789665586339892,-0.08432218301390033,-0.5479195627695052,-0.34804324373242496,0.058585142668248325,-3.078530222225417,0.6246680654082271,-0.00039968692602092005,-0.006251870593383873,-0.0021351397211476337,-0.020933403565491757,-0.006311131818849472,0.01658499334356986,-0.00020251015677168278,0.35720324516296387,-1.1075680714896698,1.5987251440631312,-2.060089250604147,-1.5714414755450647,2.3321385383605957,-0.0003333585918880999,0.027777258306741714,0.0226253941655159,-0.06814766675233841,-1.3557990684014718e-17,-0.00015592518320772797,-0.038307227194309235,0.07661445438861847,-9.327810287475586,0.7262282371520996,47.686885833740234,-0.6424587965011597,-3.4334588050842285,-1.8464961051940918,-0.6055455207824707,-0.0049189617857337,-0.006229815073311329,24.75,25.8125,24.625,27.3125,28.3125,28.6875
1.0,-0.6484100916502806,-0.7099640475993416,-0.2872316382594414,0.0061943912674844535,0.004845415434531014,-0.07178592599875733,-0.5479344234218244,-0.3480451032118868,0.058465508616850626,-3.07854220115942,0.6245941451391498,-0.00037304883219506276,-0.006610194588291509,-0.002292325018068841,-0.022357629495167397,-0.00641227274279028,0.016838085672836615,-0.00015368270129276392,0.35720327496528625,-1.107411579494812,1.5988324324237269,-2.0603658161559046,-1.5714533964740198,2.3320908546447754,-0.00030145287746563554,0.030051229521632195,0.023303324356675148,-0.07137206196784973,-5.779983337585955e-20,-0.00017397980263922364,0.019153613597154617,0.1149216815829277,-9.27034854888916,0.7687462568283081,47.71375274658203,-0.6285159587860107,-3.4935104846954346,-1.8390129804611206,-0.5400810837745667,0.018129413947463036,-0.013260848820209503,24.75,25.8125,24.625,27.3125,28.3125,28.6875
1.0,-0.3110333626899198,-0.41182204821917356,-0.019223561296972266,0.003939301386531863,0.011073531583990763,-0.07176021021409515,-0.5479412136060148,-0.34806439781009096,0.058450048117910436,-3.0785609269977625,0.6245595610868596,-0.00027395357951113684,-0.00650705216829231,-0.0022632275552588914,-0.02255172814644828,-0.006389469368395252,0.016775171939237127,-0.00014459916363111173,0.35723915696144104,-1.1073876482299347,1.5988572279559534,-2.0604740581908167,-1.57147723833193,2.3321027755737305,-0.00028768653282895684,0.03008611686527729,0.023792900145053864,-0.07182961702346802,-3.773916225132289e-21,-0.00016942470392677933,-0.038307227194309235,0.09576806426048279,-9.251194953918457,0.6501356363296509,47.692256927490234,-0.6704872846603394,-3.53002667427063,-1.829808235168457,-0.5323327779769897,0.005015155300498009,-0.005936856847256422,24.75,25.8125,24.625,27.3125,28.3125,28.6875
1.0,0.3356704845133253,-0.24758801224500063,-0.20630981432028156,0.004908964590070937,0.017987602497735507,-0.08358081777497577,-0.5479527017338236,-0.3480524662881246,0.058380575912509974,-3.0785393009967525,0.6247282281741509,-0.0002435579561746671,-0.005812424428821957,-0.0019875051843907384,-0.023637389416929177,-0.005298002096595955,0.013864721902268099,-0.00014698761294416944,0.35721516609191895,-1.1073152285865326,1.598952595387594,-2.060664793054098,-1.57147723833193,2.332186698913574,-0.0003097711596637964,0.031331274658441544,0.024111691862344742,-0.07028518617153168,-2.464097788016367e-22,-0.00018809569883160293,0.019153613597154617,0.0,-9.193734169006348,0.7083203792572021,47.679718017578125,-0.7181695699691772,-3.5163979530334473,-1.8171195983886719,-0.5219449996948242,-0.010754069313406944,-0.003237510332837701,24.75,25.8125,24.625,27.3125,28.3125,28.6875
1.0,0.24775168308243747,0.296421817119042,-0.18009825040878946,0.010482974811798535,-0.0024275597421326484,-0.07391207384800977,-0.5479769643395532,-0.3480817013986223,0.058356364314156806,-3.0786144820808126,0.6246279891386113,-0.00014457745277162361,-0.005175329073356515,-0.0017544028054369406,-0.024499031771665403,-0.004309530152317844,0.011228018653237219,-0.00013967665065990002,0.35723915696144104,-1.1072550874999543,1.5989530722247522,-2.0608073673644007,-1.571465317402975,2.3321385383605957,-0.00030120613519102335,0.03232467919588089,0.024254506453871727,-0.06860550493001938,-1.608879922932081e-23,-0.00018582121992949396,0.038307227194309235,0.038307227194309235,-9.174580574035645,0.7575564384460449,47.671661376953125,-0.6872261762619019,-3.5704102516174316,-1.7455811500549316,-0.5317983031272888,0.002525409683585167,-0.014188040047883987,24.75,25.8125,24.625,27.3125,28.3125,28.6875
1.0,0.6542993524062956,0.5335264669786088,-0.053389685887825875,0.024220221600920768,-0.007615737943235305,-0.08632795327503356,-0.5480014394044395,-0.3480828365904034,0.058310265222211916,-3.0786357693756687,0.6246515147182672,-8.110872611459274e-05,-0.004785723861917423,-0.0016162622088370122,-0.024910457990341445,-0.003671304114146501,0.009527414331877922,-0.00011286481112623853,0.35722723603248596,-1.1071832042983552,1.5989888350116175,-2.060962816277975,-1.571465317402975,2.3321385383605957,-0.0002891677722800523,0.032860759645700455,0.02409183420240879,-0.06716249138116837,-1.0504835676015526e-24,-0.00019982834055554122,0.05746084079146385,0.0,-9.193734169006348,0.7799360156059265,47.68240737915039,-0.6569274067878723,-3.528062105178833,-1.751683235168457,-0.5494837760925293,-0.002400769852101803,-0.0158704686909914,24.75,25.8125,24.625,27.3125,28.3125,28.6875
1.0,0.7398212712619558,0.6171651454713742,-0.010267238637247395,0.01908694366024872,-0.01164989377262625,-0.08728608218790766,-0.5480063778523083,-0.3480646444104612,0.05825252989304153,-3.0786199177819937,0.6246485155851411,-8.67520745262035e-05,-0.004165463457610192,-0.0014178496206849103,-0.024799459794447413,-0.0030960787962758334,0.008002296213093524,-5.982726059750989e-05,0.35720327496528625,-1.1071234208396454,1.5990598837481897,-2.0610820255675257,-1.57147723833193,2.3321146965026855,-0.00023761129705235362,0.03224106878042221,0.024262763559818268,-0.06508374214172363,-6.858906447434803e-26,-0.00020033973851241171,0.09576806426048279,-0.019153613597154617,-9.174580574035645,0.8135106563568115,47.71733474731445,-0.6601015329360962,-3.474519968032837,-1.7203502655029297,-0.5698697566986084,-0.011865315027534962,-0.01449532900005579,24.75,25.8125,24.625,27.3125,28.3125,28.6875
1.0,0.6691169903580393,0.29232927389843477,0.0008523679388556021,0.027518908563428195,-0.017876844502995246,-0.0771727983140109,-0.5479770074579672,-0.34806555294241215,0.05816241369798125,-3.0785800086340087,0.624640068723302,-0.00022495070124704241,-0.003984243215105385,-0.001335029866385195,-0.025475273642922396,-0.002923744096647178,0.007539014191904866,3.972482236360369e-05,0.35721519589424133,-1.107027218942978,1.5991438070880335,-2.0611659489073695,-1.571465317402975,2.3321263790130615,-0.00025983716477639973,0.03283509984612465,0.025156447663903236,-0.06607718020677567,-4.478375684891328e-27,-0.00032235076650977135,0.15322890877723694,-0.09576806426048279,-9.174580574035645,0.7306999564170837,47.72629165649414,-0.7453800439834595,-3.504477024078369,-1.7057068347930908,-0.5658015608787537,0.008290927857160568,-0.016690142452716827,24.75,25.8125,24.625,27.3125,28.3125,28.6875
1.0,1.0594569698090623,0.6309379559749984,0.17797121868169763,0.015172670971710404,-0.0038251306763295075,-0.09048237066650071,-0.5480261746024505,-0.34806818826083064,0.0581340829708738,-3.0786032706738795,0.6247025639048728,-6.526937835746248e-05,-0.002134358497889611,-0.0006198404454616536,-0.026680381796226414,-0.0006810038971685736,0.0015704357649758522,2.946210110360087e-05,0.35720327496528625,-1.1069551271251221,1.5991442839251917,-2.061343332330221,-1.5714896360980433,2.332150459289551,-0.00028965083765797317,0.03331088647246361,0.026068296283483505,-0.061088789254426956,-2.924059026987962e-28,-0.00033914874074980617,0.13407528400421143,-0.019153613597154617,-9.21288776397705,0.7038487195968628,47.702110290527344,-0.6998767256736755,-3.7215585708618164,-1.6934529542922974,-0.6129461526870728,-0.0011553156655281782,-0.023108484223484993,24.75,25.8125,24.625,27.3125,28.3125,28.6875
1.0,1.1089450906177607,0.7428902579264031,0.20178060397851874,0.00669833880941211,-0.0029320084104795994,-0.08947421112935301,-0.5480424501128967,-0.3480738993642756,0.0581146247204255,-3.0786500044827734,0.6246738121290226,-3.7009386692356796e-05,-0.0022547398416341933,-0.0006439153050511078,-0.025769360726700753,-0.0010139161335694041,0.00246483637323379,3.700223978228914e-05,0.35719120502471924,-1.1069196921638031,1.5991562048541468,-2.061427255670065,-1.571465317402975,2.3321144580841064,-0.00032005360117182136,0.03205641359090805,0.02565177157521248,-0.060372136533260345,-1.9092014372609098e-29,-0.0003770196344703436,0.2106897532939911,-0.019153613597154617,-9.117119789123535,0.7239871025085449,47.6313591003418,-0.7356560230255127,-3.6475675106048584,-1.6702709197998047,-0.6392838954925537,-0.0004968664143234491,-0.007497330196201801,24.75,25.8125,24.625,27.3125,28.3125,28.6875
1.0,1.0478080797106306,0.7178331725621249,0.13266830082511952,0.01486536427902536,-0.006849768837236592,-0.08216775353165912,-0.5480199961262481,-0.34806910259791746,0.05804040710860106,-3.0786275510299403,0.6247080146579806,-0.00011084599091299638,-0.0028800598461799602,-0.00032869423366320514,-0.025532585821364584,-0.0015694313639718247,0.0039443611382623985,-0.0007661532659126268,0.35719090700149536,-1.106859878902771,1.5992644468890589,-2.061547418633932,-1.5714533964740198,2.3321382999420166,-0.0011304706567898393,0.031756069511175156,0.025890668854117393,-0.061891064047813416,-1.2465720743577521e-30,-0.0003850484499707818,0.17238251864910126,-0.17238251864910126,-9.193734169006348,0.7530794739723206,47.70121383666992,-0.7170733213424683,-3.5969462394714355,-1.4202964305877686,-0.6549816131591797,-0.004941683262586594,-0.007519568782299757,24.75,25.8125,24.625,27.3125,28.3125,28.6875
1.0,0.7106526922091653,0.6954727612777375,0.02547853102224308,0.017711602885001915,-0.017486572755746343,-0.08389780920507271,-0.5480420768144679,-0.3480774278189146,0.05799822276286054,-3.0786594174143844,0.6246763634491457,-4.888299715224562e-05,-0.0006404320473426747,0.0005857973483074349,-0.02772078706096041,0.0006402147980016662,-0.0019388278108675022,-0.0008694288959714726,0.35719090700149536,-1.1067878168872376,1.599288288746969,-2.0616899929442347,-1.5714533964740198,2.3321144580841064,-0.0012386766029521823,0.03235649690032005,0.029480714350938797,-0.059797074645757675,-8.13922515310204e-32,-0.00038811107515357435,0.19153612852096558,-0.09576806426048279,-9.136273384094238,0.7530794739723206,47.70658874511719,-0.652287483215332,-3.5484092235565186,-1.525132179260254,-0.675139307975769,-0.002353303600102663,-0.0186842679977417,24.75,25.8125,24.625,27.3125,28.3125,28.6875
1.0,1.3464674168738642,1.0444405470883789,0.29766392738072145,0.007942822571888542,-0.0013987789085290175,-0.09664987639478909,-0.5480414036545157,-0.34807718955152506,0.05793339186651178,-3.078638369803293,0.6247103972983221,-8.423792212937995e-05,0.0010049124729834338,0.0013078546424913472,-0.029430623879241197,0.0024839273935879018,-0.006849597201058936,-0.001042261908546638,0.357190877199173,-1.1067036849311371,1.5993378798114222,-2.0617972813048304,-1.5714533964740198,2.3321382999420166,-0.001392330857925117,0.03317912667989731,0.031642843037843704,-0.05753635987639427,-5.314332818250789e-33,-0.00036723483935929835,0.19153612852096558,-0.05746084079146385,-9.174580574035645,0.6322330832481384,47.68240737915039,-0.6558916568756104,-3.5845751762390137,-1.6977424621582031,-0.732161283493042,0.0006565074436366558,-0.00806173775345087,24.75,25.8125,24.625,27.3125,28.3125,28.6875
1.0,1.0082915559334014,0.1664581837027685,0.056201657560044777,0.01790679082693237,-0.014088470665207088,-0.07796699065688077,-0.5480356689468167,-0.3480634503284416,0.057881501819919134,-3.078616421075901,0.6246681387309896,-5.2330643472562007e-05,0.0005036521427718224,0.0011228994261472773,-0.029184085227657895,0.0019819663396448556,-0.0055149639581086535,-0.001068033522428796,0.3571908473968506,-1.10666777313266,1.5994327704059046,-2.0619293651976527,-1.5714896360980433,2.3321146965026855,-0.0013973601162433624,0.03329186514019966,0.0311689805239439,-0.058601152151823044,-3.4698795556436635e-34,-0.0003471086092758924,0.2298433631658554,-0.07661445438861847,-9.136273384094238,0.7284641265869141,47.7164421081543,-0.670742928981781,-3.5421085357666016,-1.6570899486541748,-0.7625446319580078,0.0012965957866981626,-0.012882912531495094,24.75,25.8125,24.625,27.3125,28.3125,28.6875
1.0,0.7716997467497129,0.32840598873893057,0.15311846960906883,0.018100764046328835,-0.022995070644075195,-0.07912654282855851,-0.5480289353195008,-0.34806874677257843,0.05781963980649052,-3.0786315127911266,0.6246326659040204,-0.00010541940150039764,0.0005420303209119348,0.0010680307462788367,-0.029737446256051472,0.002205532240662532,-0.006116118044764827,-0.0009439126487444295,0.357190877199173,-1.106595591907837,1.5994928518878382,-2.0620371303954066,-1.571465317402975,2.3320906162261963,-0.001295797759667039,0.03423639014363289,0.03112354315817356,-0.058858856558799744,-2.2655831251472707e-35,-0.0003696612548083067,0.26815059781074524,-0.07661445438861847,-9.097966194152832,0.7642692923545837,47.70121383666992,-0.6471285820007324,-3.5277581214904785,-1.5651931762695312,-0.783941924571991,-0.004797862842679024,-0.0023315155413001776,24.75,25.8125,24.625,27.3125,28.3125,28.6875
1.0,0.6814699416729108,0.06588572818321095,-0.06533501290649926,0.0194318397575269,-0.020267054012012217,-0.07716023555104964,-0.5480340592046119,-0.34804628382533226,0.057756968005571785,-3.078595170733379,0.624778531779672,-0.00012244415413066893,0.0009397215860122432,0.0011711019287710903,-0.030214000237603428,0.002271902569970402,-0.00629277471660766,-0.0008889168877241689,0.357154905796051,-1.1065356892398377,1.5995777289019983,-2.062169214288229,-1.571465317402975,2.3321502208709717,-0.0012277152854949236,0.03404395282268524,0.032749757170677185,-0.06010391563177109,-1.4792639307036967e-36,-0.00035690460936166346,0.19153612852096558,-0.038307227194309235,-9.155426979064941,0.7486078143119812,47.693153381347656,-0.7251923084259033,-3.5639963150024414,-1.5430381298065186,-0.8040972948074341,0.0043170335702598095,-0.01366063579916954,24.75,25.8125,24.625,27.3125,28.3125,28.6875
1.0,0.9386618999163034,0.23281282509487924,0.15297348137321246,0.00410132341551489,-0.009090122039567043,-0.08507797543719431,-0.5479882345438266,-0.34805354310588804,0.05766439325472689,-3.078573484972031,0.6246014168957971,-0.0002646314785689909,0.0004086711438812927,0.0009453841216300664,-0.030412897144881955,0.0014230117027739676,-0.004035314452257361,-0.0008838932067120638,0.35719090700149536,-1.1064037841609498,1.5996845404254358,-2.062349935571188,-1.5714896360980433,2.3321266174316406,-0.0011892521288245916,0.034256745129823685,0.033695023506879807,-0.06367377191781998,-2.553909439484414e-07,-0.00032504278351552784,0.13407529890537262,0.09576806426048279,-9.21288776397705,0.7016075849533081,47.67524337768555,-0.7068794369697571,-3.516962766647339,-1.6318501234054565,-0.8374209403991699,0.008323553949594498,-0.01219091285020113,24.75,25.8125,24.625,27.3125,28.3125,28.6875
1.0,0.3809620053182481,-0.4302043936220926,0.06000902153698307,-0.013038068817389682,-0.0017959847145213792,-0.0780995079003949,-0.5479751574619894,-0.34804089831628315,0.05756769157843927,-3.078534554103348,0.6246325231225445,-0.00027348100772503405,1.320890646047668e-05,0.0007937666443844584,-0.030934899115081387,0.0010168926270762743,-0.0029621028658572764,-0.0008952490777413459,0.35719090700149536,-1.1063676339438935,1.599828068410055,-2.0624591312804164,-1.5714896360980433,2.3321027755737305,-0.0011855397606268525,0.03514404594898224,0.03416680172085762,-0.06618032604455948,-1.6675205216643008e-08,-0.0003110019606538117,0.2298433631658554,0.17238251864910126,-9.193734169006348,0.7306999564170837,47.67703628540039,-0.6672695279121399,-3.49973201751709,-1.703352928161621,-0.8582687973976135,-0.005023476667702198,-0.00522625632584095,24.75,25.8125,24.625,27.3125,28.3125,28.6875
1.0,0.3208634888276373,-0.6836372397891826,0.14870003362123657,-0.020802307130137337,0.009968806002638227,-0.08243830577938528,-0.5480210423414946,-0.3480451908416189,0.05754413437097211,-3.078583192988954,0.6247387768730797,-0.00020876466653131778,-0.0005779405355738037,0.0009098564197584951,-0.031218383799096854,0.0004531067968133752,-0.0014658626083866174,-0.0013758138830499108,0.3571547269821167,-1.1062956017306824,1.5998051802264612,-2.0625797710814417,-1.5714533964740198,2.3321266174316406,-0.0016840427415445447,0.035573143512010574,0.03478214517235756,-0.0688236877322197,-1.0887717394325591e-09,-0.0003300812968518585,0.13407529890537262,0.26815059781074524,-9.27034854888916,0.7597975730895996,47.6976318359375,-0.6579209566116333,-3.4906387329101562,-1.6470999717712402,-0.8359335660934448,-5.041563417762518e-05,-0.004770873114466667,24.75,25.8125,24.625,27.3125,28.3125,28.6875
1.0,-0.028046372422492583,-0.8299454638845375,-0.07631807413591465,-0.028970681604857072,0.015146178407309835,-0.07871218953582015,-0.5480062135353302,-0.3480200229078299,0.057455212675226686,-3.0785210471112223,0.6247069038664158,-0.0002707644976291277,-0.001961364989252391,0.000327468814194687,-0.031039977193112498,-0.0014371739406427344,0.0035609568183599563,-0.0012800810619446564,0.3571428656578064,-1.106211618786194,1.599912468587057,-2.0627018413939417,-1.5714896360980433,2.3321027755737305,-0.0015920617152005434,0.03578420728445053,0.03549089655280113,-0.07511399686336517,-7.108901661778688e-11,-0.0003368278848938644,0.09576806426048279,0.3064578175544739,-9.346963882446289,0.7195101380348206,47.674346923828125,-0.6693124771118164,-3.5152664184570312,-1.6194777488708496,-0.8211463689804077,-0.0021054567769169807,-0.00715460442006588,24.75,25.8125,24.625,27.3125,28.3125,28.6875
1.0,0.19237515693509266,-0.5774972454710579,-0.039001203651051086,-0.043548594661346585,0.03194340781505676,-0.0921839162459471,-0.5480037099430588,-0.3480311394394586,0.05737483054659187,-3.078524197893339,0.6247459746895736,-0.0002809230485110015,-0.0026458642587163564,0.0001684297377194484,-0.031087143546942697,-0.002228830816454696,0.005664475990487422,-0.001447803513068392,0.3571547269821167,-1.1061155957034607,1.5999963919269007,-2.0628820858397425,-1.57147723833193,2.3321385383605957,-0.0017368955304846168,0.036107439547777176,0.035777442157268524,-0.07797132432460785,-4.64160524252244e-12,-0.0003152781864628196,0.07661445438861847,0.26815059781074524,-9.346963882446289,0.7665104269981384,47.71733474731445,-0.7116596698760986,-3.499497890472412,-1.6308598518371582,-0.7816898226737976,0.006044341716915369,-0.007527799345552921,24.75,25.8125,24.625,27.3125,28.3125,28.6875
1.0,-0.45758162199940644,-1.1146854055376054,-0.15964417206597703,-0.03901084687713825,0.025836151513401837,-0.07538430070837861,-0.5479859611427086,-0.34803214205701577,0.057306581213616314,-3.078534748757782,0.624767309613556,-0.00031528015610892297,-0.003404534154598961,-0.0001533239940725915,-0.031189461113019568,-0.003258102615766451,0.008399841547714127,-0.001416353178986404,0.3571547567844391,-1.106067643766739,1.6001165548907679,-2.0630394421019496,-1.5714533964740198,2.332150459289551,-0.0016831407556310296,0.036465030163526535,0.0363665446639061,-0.08184061199426651,-3.0306367224813835e-13,-0.00029475108021870255,0.05746084079146385,0.28730422258377075,-9.308656692504883,0.7127973437309265,47.69584274291992,-0.6663855314254761,-3.4282028675079346,-1.681847095489502,-0.7516905665397644,0.0024891369976103306,-0.01564522087574005,24.75,25.8125,24.625,27.3125,28.3125,28.6875
1.0,-0.06536036169233417,-1.066563427265698,-0.15396829745916224,-0.0367024924703197,0.030929086818378408,-0.08790702227402199,-0.547999972653635,-0.348033669629494,0.057250253658002126,-3.0785545354727843,0.624655879315593,-0.0002876193455955555,-0.005201911943501727,-0.0009947597367249655,-0.03135099284969189,-0.005314710624359765,0.013861377374333213,-0.0011938625133106659,0.35715481638908386,-1.1059833329967041,1.6001527945147913,-2.0631734333434046,-1.571465317402975,2.332078456878662,-0.0014391016447916627,0.037848100066185,0.03637368604540825,-0.08906674385070801,-1.9787892434645557e-14,-0.00027663103537634015,0.09576806426048279,0.24899697303771973,-9.346963882446289,0.7262282371520996,47.70658874511719,-0.7092522978782654,-3.5193042755126953,-1.602534532546997,-0.6821432709693909,0.00749483797699213,0.003784459549933672,24.75,25.8125,24.625,27.3125,28.3125,28.6875
1.0,-0.4164518309311011,-1.0719180235815458,-0.18266727390311882,-0.029336509907899398,0.02056143589753678,-0.0742391543094764,-0.5480352525312974,-0.34805135778277196,0.05720696653822116,-3.0786032259931715,0.6246854867778795,-0.0001185472869907021,-0.00534809278655004,-0.0011343247847118475,-0.031398958047238905,-0.00572970923104336,0.01496542240656223,-0.001086005652068175,0.35716691613197327,-1.105911300783493,1.6002009550677698,-2.063413282433981,-1.57147723833193,2.3321027755737305,-0.0013144536642357707,0.037729840725660324,0.03703976050019264,-0.09079402685165405,-1.2920079418089541e-15,-0.000260602799244225,0.07661445438861847,0.26815059781074524,-9.404424667358398,0.7217512726783752,47.65911865234375,-0.7177178859710693,-3.598721504211426,-1.59286367893219,-0.6278352737426758,-0.004535418935120106,-0.002775411354377866,24.75,25.8125,24.625,27.3125,28.3125,28.6875
1.0,0.7135801686908847,-0.5042117124187521,-0.19197383310297378,-0.035174829410226593,0.037686873857532374,-0.09117161244468658,-0.5480497413391308,-0.3480486655638783,0.057140305366744804,-3.078617026664128,0.6246885831471864,-8.374551431037804e-05,-0.005842517667741942,-0.001295130270570298,-0.03183384172365461,-0.006341848495259219,0.016589437534419615,-0.001138722849733711,0.35715487599372864,-1.1058274370482941,1.6002715269671839,-2.06359400371694,-1.57147723833193,2.3320908546447754,-0.0013515660539269447,0.038408614695072174,0.037750400602817535,-0.09391898661851883,-8.435888980558746e-17,-0.00024633188149891794,0.13407529890537262,0.26815059781074524,-9.385271072387695,0.7016075849533081,47.6680793762207,-0.7554214596748352,-3.5298638343811035,-1.6641889810562134,-0.6294159293174744,0.007932993583381176,-0.009313840419054031,24.75,25.8125,24.625,27.3125,28.3125,28.6875
1.0,0.35041499326536674,-0.7964514071403513,-0.155077515738629,-0.01729082379777512,0.02160062297924399,-0.07942032387262425,-0.5480478227798022,-0.34805997494741986,0.057056037402906074,-3.078613228440381,0.624725945127497,-0.00011050809385184339,-0.006324384975641383,-0.0015101159592866289,-0.03235084805440868,-0.006594910720442197,0.017253015731997907,-0.0010625954340853228,0.35716691613197327,-1.1057191354087372,1.6003440062152308,-2.0637623272337855,-1.571465317402975,2.3321266174316406,-0.0013023532228544354,0.039741698652505875,0.03738734871149063,-0.0955992043018341,-5.508032330819632e-18,-0.00027397286612540483,0.13407529890537262,0.2298433631658554,-9.251194953918457,0.7687462568283081,47.72092056274414,-0.6512227058410645,-3.564025402069092,-1.5735827684402466,-0.5677685737609863,0.005974522791802883,0.003039838746190071,24.75,25.8125,24.625,27.3125,28.3125,28.6875
1.0,0.4563311413174104,-0.14746155921321275,-0.13566812471982578,-0.01473549498840302,0.01659060285789861,-0.087774679561862,-0.548058866043439,-0.34805635581898375,0.05700296950732431,-3.078634800786171,0.6246731212177244,-1.2316518411321416e-05,-0.005596016787855242,-0.0011734416791391294,-0.033369633862692635,-0.005785350588944542,0.015094575999147982,-0.0011633308234996523,0.3571668863296509,-1.105670915251114,1.6004398504840296,-2.063964983026022,-1.5714896360980433,2.3320908546447754,-0.0013956704642623663,0.04038051888346672,0.038687050342559814,-0.09523246437311172,-3.596351760760581e-19,-0.0002660095924511552,0.13407529890537262,0.17238251864910126,-9.27034854888916,0.7374180555343628,47.692256927490234,-0.7351863384246826,-3.606872797012329,-1.5807703733444214,-0.5371665954589844,-0.009227903559803963,-0.006202991586178541,24.75,25.8125,24.625,27.3125,28.3125,28.6875
1.0,0.7090724460342358,0.020562727858184776,-0.22913291716687698,-0.00017458828421154128,0.012418015903228087,-0.07859293888821804,-0.5480792006492573,-0.34805934768959473,0.056948444352903915,-3.078674680022376,0.6247580291903058,2.0231473337926644e-05,-0.0051234675424883455,-0.0010278300630790424,-0.03366142533722568,-0.0051544469884886954,0.013415710368333122,-0.0011274984902863395,0.35714292526245117,-1.1055990320495148,1.6004999319659632,-2.064144273797506,-1.5714533964740198,2.3321146965026855,-0.001348515972495079,0.04061972349882126,0.03864650800824165,-0.093637615442276,-2.3481607410307546e-20,-0.00025386406923644245,0.07661445438861847,0.17238251864910126,-9.327810287475586,0.7351769208908081,47.6895751953125,-0.7249789237976074,-3.580138683319092,-1.612204670906067,-0.5444402098655701,-0.0007262090221047401,-0.005215638317167759,24.75,25.8125,24.625,27.3125,28.3125,28.6875
1.0,1.0764284582978494,0.6254793354918795,-0.08464995354267044,0.008303112281562722,0.0033371124287494944,-0.0824718879544248,-0.548085655392361,-0.3480780602629681,0.056875905096347046,-3.078704388595288,0.6247067163633747,6.691658711983118e-05,-0.004566328241233025,-0.0006860618318383447,-0.03360323135871466,-0.004481985462326153,0.011629138727197758,-0.00133277113479645,0.3571668565273285,-1.1055031281760712,1.6005714575396937,-2.0643469295897425,-1.5714533964740198,2.3321027755737305,-0.001543517573736608,0.040155161172151566,0.03865087032318115,-0.09126847982406616,-1.5331810829025624e-21,-0.00024248426780104637,0.15322890877723694,-0.019153613597154617,-9.346963882446289,0.7374180555343628,47.68867492675781,-0.753294825553894,-3.523348093032837,-1.5350310802459717,-0.5697696805000305,0.0030740750953555107,0.009853983297944069,24.75,25.8125,24.625,27.3125,28.3125,28.6875
1.0,1.2423688973002593,0.9413774892062765,0.009475822281804464,0.02408059141002899,-0.006295390652356502,-0.07897999126446555,-0.5481108949576609,-0.34804346397568137,0.05679987424644711,-3.0786560885742347,0.6248501724914738,0.00012633691776959817,-0.0030967257856937234,-0.00018345137365462574,-0.03573281764951523,-0.00248947855324676,0.006314896742103591,-0.0012695019659047383,0.3571189343929291,-1.1054188174060364,1.6006673018084925,-2.0645491085448207,-1.5714896360980433,2.332150459289551,-0.0014715709257870913,0.04224101081490517,0.039949607104063034,-0.08897756785154343,-1.0010576729672429e-22,-0.00023206289915833622,0.17238251864910126,-0.09576806426048279,-9.327810287475586,0.7799360156059265,47.686885833740234,-0.7433229088783264,-3.5964555740356445,-1.564987301826477,-0.564329981803894,-0.00372949312441051,-0.008759608492255211,24.75,25.8125,24.625,27.3125,28.3125,28.6875
1.0,1.087220872417088,0.7855243722928518,-0.19649443584866585,0.032630249953104096,-0.015816669996407975,-0.08743266314542532,-0.5480906202280929,-0.34806375127073247,0.056730212418324544,-3.0787157982713205,0.624708608083532,9.475640483305496e-05,-0.0025470124891619796,-2.1013167450302166e-05,-0.03645653107399777,-0.0015136012004193357,0.0037111453610713585,-0.0012136424348601828,0.35714292526245117,-1.1053583484939118,1.6007750670062464,-2.06471647838735,-1.5714533964740198,2.332078456878662,-0.001407281612046063,0.04331083223223686,0.0395878441631794,-0.08690499514341354,-6.5361918327560046e-24,-0.0002224994241259992,0.07661445438861847,-0.19153612852096558,-9.327810287475586,0.7709873914718628,47.699424743652344,-0.7807111740112305,-3.702791929244995,-1.5410847663879395,-0.5645056962966919,-0.0030662401113659143,-0.005580367054790258,24.75,25.8125,24.625,27.3125,28.3125,28.6875
1.0,1.2344490579023022,1.122527265489965,0.09562689594737597,0.02260036629521677,-0.01360015810201241,-0.08290921624316776,-0.5481191452451749,-0.34806718933062125,0.05666215820481357,-3.078679867701942,0.6247785511420542,0.0001829704069272521,-0.00244355411725581,3.538280862054948e-05,-0.03470740602387526,-0.0018891031468653845,0.004729025204204291,-0.0012461853827605727,0.35715481638908386,-1.1052395862391968,1.6007984320269983,-2.064894815484518,-1.5715015570269983,2.3321385383605957,-0.0014315530424937606,0.04056466743350029,0.03909559175372124,-0.08475150913000107,-4.267666006726138e-25,-0.00021369224123191088,0.19153612852096558,-0.2106897532939911,-9.232041358947754,0.7083203792572021,47.685096740722656,-0.702726423740387,-3.5175399780273438,-1.4537298679351807,-0.6070952415466309,0.007513455580919981,-0.0017470247112214565,24.75,25.8125,24.625,27.3125,28.3125,28.6875
1.0,0.9532446947121643,0.6336672780504552,-0.04330530267997453,0.040017335952359484,-0.02049410012110748,-0.0832806605296425,-0.5481069645830601,-0.34806646485400855,0.0565768968473577,-3.0786802643145474,0.6247596278900356,0.00013858853080580516,0.00031768724690123956,0.0010380940457788822,-0.03702344348736266,0.001138780622514593,-0.003333759087198371,-0.001208454027234372,0.35711896419525146,-1.1050715011409302,1.600943390523092,-2.065192838708395,-1.571465317402975,2.3321027755737305,-0.0013813268160447478,0.04149011895060539,0.041889846324920654,-0.07985861599445343,-1.8193728627961566e-27,-0.000198017994989641,0.28730422258377075,-0.2298433631658554,-9.232041358947754,0.7486078143119812,47.69673538208008,-0.7763838768005371,-3.581660032272339,-1.5460822582244873,-0.6821388602256775,0.006433653645217419,-0.008251823484897614,24.75,25.8125,24.625,27.3125,28.3125,28.6875
1.0,1.3479380198422657,0.9836745406689756,0.14744617601096635,0.03630238998285822,-0.01657622069763383,-0.08004485106487183,-0.5481139909943991,-0.3480731172910772,0.05644893833291173,-3.0787113370722783,0.6246889815410821,0.00014185180352280485,6.9607764946397225e-06,0.00100652137421842,-0.03798822484794927,0.0017367688253936365,-0.004940920696200964,-0.0013259627573594783,0.3571547865867615,-1.1049988132766266,1.6010382811175745,-2.065360208550924,-1.57147723833193,2.332078456878662,-0.0015078975120559335,0.04404482617974281,0.04022856801748276,-0.07903724908828735,-1.1879205711940955e-28,-0.00020661012968048453,0.3447650372982025,-0.17238251864910126,-9.155426979064941,0.7217512726783752,47.711063385009766,-0.7723860740661621,-3.5644941329956055,-1.395015001296997,-0.718091607093811,-0.0013231500051915646,-0.019786730408668518,24.75,25.8125,24.625,27.3125,28.3125,28.6875
1.0,1.2990387064182092,0.9534397500771262,0.22561674235421128,0.02710489705426683,-0.01072141712477913,-0.08896472572537108,-0.5480977500426856,-0.34807128219905864,0.056370150137147024,-3.0786799148463,0.6247213808141988,0.00011691449704412817,0.0019591169993291267,0.0017016446173648073,-0.03957939686483615,0.0037879160380168936,-0.010401370086360781,-0.0012603688514588487,0.3571668565273285,-1.1049266320518036,1.6011469999896448,-2.065514703790182,-1.5714896360980433,2.3321146965026855,-0.0014519916148856282,0.04453176632523537,0.04240509495139122,-0.07586773484945297,-7.756272086273641e-30,-0.0002141734294127673,0.2106897532939911,-0.07661445438861847,-9.155426979064941,0.8224645853042603,47.74688720703125,-0.7542043924331665,-3.7011666297912598,-1.473473310470581,-0.7729813456535339,0.005976824089884758,-0.009523561224341393,24.75,25.8125,24.625,27.3125,28.3125,28.6875
1.0,0.5946940172801284,0.9151858896140778,0.060909428506743794,0.013265116291247754,-0.016224233035588058,-0.08233544583966543,-0.548069309545783,-0.3480639894335237,0.05627642212117631,-3.0786711250861076,0.6247009390665883,-2.2724857275931647e-05,0.0016315054811937325,0.0018012958881600816,-0.03849491947283587,0.0027090358466920414,-0.007516626140540019,-0.0015948643730974953,0.3571547269821167,-1.1048436623862763,1.6012662092791956,-2.065634866754049,-1.5714533964740198,2.3320908546447754,-0.0017792019061744213,0.042240601032972336,0.043714988976716995,-0.0779663473367691,-5.064291563483778e-31,-0.00020805292297154665,0.15322890877723694,-0.1149216815829277,-9.174580574035645,0.7127973437309265,47.704795837402344,-0.8003187775611877,-3.532097339630127,-1.501478672027588,-0.8133679032325745,-0.01441587321460247,-0.002930542454123497,24.75,25.8125,24.625,27.3125,28.3125,28.6875
1.0,0.5925481282514254,0.3797161478751788,0.2743932090195763,0.00733397600024571,-0.0023818997348642778,-0.085062840819352,-0.5480949452885271,-0.34804169120709566,0.056223126009748436,-3.078659655440664,0.624717123547664,2.714902037006007e-05,0.00198431603852689,0.0018491722875051374,-0.038901237250679344,0.002752631173161875,-0.0076329731053496,-0.0014772502782705703,0.3571188747882843,-1.1047718685916443,1.6013158003436487,-2.0657788715758265,-1.57147723833193,2.332066535949707,-0.0016546910628676414,0.04208473488688469,0.04510166123509407,-0.07907290756702423,-3.306620352330588e-32,-0.0002014610799960792,0.24899697303771973,0.038307227194309235,-9.251194953918457,0.6680382490158081,47.7191276550293,-0.748389482498169,-3.4090116024017334,-1.5312308073043823,-0.8139597177505493,-0.004277375992387533,-0.0021182927303016186,24.75,25.8125,24.625,27.3125,28.3125,28.6875
1.0,0.891048042412704,0.38830980747473304,0.1599921334439472,-0.010115457474149277,0.02255275795633045,-0.09064523178550138,-0.5480699457607983,-0.34802455336415045,0.056114909004336994,-3.0785800313216956,0.62481640558853,-4.776766807742229e-05,0.0024089758497756082,0.0020402135821769463,-0.040744238060202165,0.003612228294594672,-0.00993659610219343,-0.0015312740754167466,0.3571188449859619,-1.1046751898578187,1.6014588514911097,-2.065947195092672,-1.5715015570269983,2.3321385383605957,-0.001702598761767149,0.04444494470953941,0.04607750102877617,-0.07995018362998962,-2.1589867604591243e-33,-0.00019522216462064534,0.19153614342212677,0.0,-9.155426979064941,0.8067978620529175,47.74778747558594,-0.7325166463851929,-3.4894824028015137,-1.6369681358337402,-0.8566463589668274,-0.01178952120244503,0.003542124293744564,24.75,25.8125,24.625,27.3125,28.3125,28.6875
1.0,-0.27233659395987997,-0.944573531119032,0.020510975274201933,0.005299342716760071,0.0058703535052837316,-0.06463641156082703,-0.5480791531626374,-0.3480314665879825,0.056040311667528625,-3.0786249670951427,0.624787695762975,-5.96249970100858e-05,0.0004887671531144944,0.0013377145951614742,-0.039832768883807844,0.0016718663581634435,-0.004776478783709271,-0.0015673861202186487,0.3571068048477173,-1.104579047565796,1.601529900227682,-2.0661283932127894,-1.571465317402975,2.3321027755737305,-0.0017303986242040992,0.044859908521175385,0.0443856455385685,-0.08418615907430649,-1.4096640753543665e-34,-0.0001893541484605521,0.09576806426048279,0.05746084079146385,-9.21288776397705,0.7396538853645325,47.733455657958984,-0.7757835388183594,-3.5266308784484863,-1.4690114259719849,-0.8464891314506531,-0.006102986633777618,-0.011106286197900772,24.75,25.8125,24.625,27.3125,28.3125,28.6875
1.0,0.15374452243078549,-0.5237812412853486,0.05039092163876109,-0.018710799203236195,0.0273203889627302,-0.08164379125984472,-0.5480985905024607,-0.3480349421334462,0.056000657341353344,-3.07864061773794,0.6247910351731021,1.530595700894347e-05,-0.0001477197933628764,0.0011816601999598518,-0.04031750737749903,0.0005898216259497828,-0.0019004864671000859,-0.0016978427870526758,0.3571067452430725,-1.1045192343047638,1.6015661398517054,-2.066273351708883,-1.57147723833193,2.3321027755737305,-0.0018531116656959057,0.04516425356268883,0.04620867595076561,-0.08938634395599365,-9.204099960458913e-36,-0.0001838282187236473,0.15322890877723694,0.17238251864910126,-9.136273384094238,0.6926589012145996,47.72270965576172,-0.7303932309150696,-3.519873857498169,-1.5838580131530762,-0.8129342198371887,0.000617798650637269,0.006055643316358328,24.75,25.8125,24.625,27.3125,28.3125,28.6875
1.0,-0.30666042076495414,-0.8082354342032614,0.044873234059647805,-0.027406914841924604,0.026602042093315268,-0.08129591780846204,-0.5480851032875619,-0.34802596272093267,0.055896603195676686,-3.078609884668177,0.6247657354456925,-3.696306373445618e-05,-0.0006474089411412816,0.000989362849417497,-0.04080154552541085,-0.0004566082774144991,0.0008815899184208034,-0.0016989211054349229,0.3571067452430725,-1.104411320095398,1.6016867796527308,-2.0664550266661585,-1.5714896360980433,2.3320908546447754,-0.0018467947375029325,0.04532761499285698,0.048224374651908875,-0.09453777223825455,-6.0096193560756165e-37,-0.0001786163484212011,0.019153613597154617,0.24899697303771973,-9.232041358947754,0.7195101380348206,47.70658874511719,-0.7636074423789978,-3.447105884552002,-1.5898125171661377,-0.7857563495635986,-0.01238008588552475,0.0014371760189533234,24.75,25.8125,24.625,27.3125,28.3125,28.6875
1.0,-0.07278691031014006,-1.1467533331884983,-0.006659039987255331,-0.02919193611957277,0.03838957443226449,-0.07573325171632851,-0.5480898601821987,-0.3480239739168266,0.05582775469504181,-3.0786098249723386,0.6247849105052763,7.156007581557604e-06,-0.0020822044734071093,0.00046950703728817177,-0.04027990956558575,-0.0021722697705418965,0.005445719164973273,-0.0017345085540285098,0.3571067452430725,-1.1043393474868317,1.6017821470843714,-2.066648145715231,-1.5715015570269983,2.3321027755737305,-0.0018750125309452415,0.045430779457092285,0.047965213656425476,-0.09925771504640579,-3.9238517803326867e-38,-0.00017369167471770197,0.019153613597154617,0.26815059781074524,-9.308656692504883,0.6478998064994812,47.70390319824219,-0.7201160192489624,-3.509638786315918,-1.6392954587936401,-0.7277742624282837,0.0007416228763759136,-0.015687189996242523,24.75,25.8125,24.625,27.3125,28.3125,28.6875
1.0,-0.43669676256376433,-1.1844349139665586,0.08460792045654789,-0.033024221886288174,0.030659236026448558,-0.07532849369897246,-0.5480786233454968,-0.34804804206328294,0.055751371989321896,-3.078646374469606,0.6246957885912515,1.660845449996049e-05,-0.0037266925290274887,-0.00015820600768873608,-0.04017365799382316,-0.004274096951186696,0.01103285352787985,-0.0017285040174083266,0.35714274644851685,-1.1042553645423432,1.601877514516012,-2.0668422184386195,-1.5714896360980433,2.332078456878662,-0.0018609348917379975,0.045942842960357666,0.048592161387205124,-0.1063661277294159,-2.5619953836235274e-39,-0.00016903084178920835,-0.07661445438861847,0.26815059781074524,-9.27034854888916,0.7150384783744812,47.685096740722656,-0.7462442517280579,-3.3760647773742676,-1.6514347791671753,-0.6520224809646606,-0.010679175145924091,0.013938676565885544,24.75,25.8125,24.625,27.3125,28.3125,28.6875
1.0,0.275957275219326,-0.9064699087688257,0.10491669250601746,-0.03366930499418194,0.041967511441944105,-0.08444784071306097,-0.54809421459085,-0.3480254420420133,0.055655963254711754,-3.0786338001642632,0.6248090165493616,4.662181720368398e-06,-0.003656328471860655,-9.232738625786045e-05,-0.041199275782960246,-0.0041294437719840435,0.010641019388726037,-0.0017920813031859298,0.3570949137210846,-1.1041470629027863,1.6019857565509241,-2.0670577488341273,-1.57147723833193,2.3321027755737305,-0.001919570262543857,0.04712577536702156,0.049614742398262024,-0.10815395414829254,-1.6728000417877504e-40,-0.00016461389895994216,0.0,0.26815059781074524,-9.289502143859863,0.7374180555343628,47.68598937988281,-0.7866131067276001,-3.464885711669922,-1.694000482559204,-0.6257026195526123,-0.006989016197621822,0.00773969292640686,24.75,25.8125,24.625,27.3125,28.3125,28.6875
1.0,0.17070292649952987,-0.8812415166073558,-0.0032304573868595417,-0.027006366751241493,0.03143663914328466,-0.07875979359036918,-0.5481134683439443,-0.3480249633539675,0.05558065823284816,-3.07863259275272,0.6248470191886442,9.186310549672927e-05,-0.005123344454245893,-0.0006521017096308302,-0.040954607719917935,-0.005893472976442851,0.015331496152599006,-0.00178640985494925,0.357094943523407,-1.1040510696223755,1.6020696798907679,-2.0672880611815394,-1.5715015570269983,2.3321266174316406,-0.001906971214339137,0.047576285898685455,0.04965886473655701,-0.1136598140001297,-1.0921720230947624e-41,-0.000160421768669039,0.038307227194309235,0.2298433631658554,-9.289502143859863,0.7597975730895996,47.7164421081543,-0.8054523468017578,-3.5110108852386475,-1.617952585220337,-0.5493259429931641,-0.011322653852403164,-0.0008068839088082314,24.75,25.8125,24.625,27.3125,28.3125,28.6875
1.0,0.15879428941994156,-0.34136390070578404,0.03129769099150447,-0.023191451424169337,0.012266340079303308,-0.08034442894214931,-0.5481293759532433,-0.34803433877672213,0.0554943154262767,-3.078690401186986,0.6248402168423133,0.0001224692768474372,-0.004533820192710418,-0.00025754285221676193,-0.041769360858143645,-0.005058536377545584,0.013105791759507116,-0.0020449459178157347,0.3570828139781952,-1.1039429765990754,1.6021655241595667,-2.067537923852438,-1.571465317402975,2.3321027755737305,-0.0021622844506055117,0.048217929899692535,0.05034425109624863,-0.11260967701673508,-7.132609183413319e-43,-0.00015643826918676496,0.019153613597154617,0.2298433631658554,-9.289502143859863,0.7083203792572021,47.72629165649414,-0.7409703731536865,-3.4781713485717773,-1.6872384548187256,-0.5409772396087646,-0.014879832044243813,0.001999849686399102,24.75,25.8125,24.625,27.3125,28.3125,28.6875
1.0,0.5021335981849511,-0.17951223756311901,0.15814198490054043,-0.013001956533451701,0.006766938291490627,-0.0850319723219358,-0.5481109365008847,-0.34804399360476296,0.05541415978801181,-3.078680776390661,0.624780888621848,0.0001406134598073698,-0.0037029232780576987,0.00025974321616866435,-0.042578525793621064,-0.003872624777477003,0.009945111971637428,-0.0023502221506734515,0.3571186363697052,-1.1038708847812195,1.6022856871234339,-2.067728658715719,-1.5714896360980433,2.3321027755737305,-0.0024651282001286745,0.04878898710012436,0.050834957510232925,-0.1102956086397171,-4.624284932271896e-44,-0.00015264761168509722,0.0,0.2298433631658554,-9.251194953918457,0.7486078143119812,47.71554183959961,-0.7617220878601074,-3.5290942192077637,-1.6773678064346313,-0.5300698280334473,-0.01228057686239481,-0.0008560235146433115,24.75,25.8125,24.625,27.3125,28.3125,28.6875
1.0,0.6212380167035106,0.2926755957451612,0.04706734653831009,0.004270383358409385,-0.013379042156631667,-0.0738428543040793,-0.5481545363927963,-0.3480279660340572,0.05533871670914123,-3.0786995546482636,0.6248805859784786,0.0002356664114860716,-0.0023523137211268162,0.0006908910582862412,-0.0439116810474257,-0.002233139800723928,0.005576905921633351,-0.002224450513315007,0.35707083344459534,-1.1037627023509522,1.6023572126971644,-2.067979951898092,-1.5714896360980433,2.3321146965026855,-0.0023532467894256115,0.049773916602134705,0.051827963441610336,-0.10760779678821564,-2.802596928649634e-45,-0.00016482140927109867,0.15322890877723694,0.19153612852096558,-9.21288776397705,0.7239871025085449,47.6976318359375,-0.7273489236831665,-3.5397472381591797,-1.683983325958252,-0.5507936477661133,-0.006544392555952072,0.0036350353620946407,24.75,25.8125,24.625,27.3125,28.3125,28.6875
1.0,1.2860464610870228,0.7782840835068051,0.15370307271171668,0.01403434687895663,-0.016356818930017464,-0.08145361393392679,-0.5481420832965174,-0.34802245627177586,0.05525606586529583,-3.078718371301014,0.6249229943474381,0.00015998921524237563,-0.0014171951280552827,0.0010482875516379206,-0.044379167963398525,-0.0009551386066973364,0.0024690741031470095,-0.0021820033155769414,0.35704687237739563,-1.1036909085563202,1.6024778524981897,-2.068145891229147,-1.5714414755450647,2.3321146965026855,-0.0023137612733989954,0.04996122792363167,0.05192837491631508,-0.10453660786151886,-0.00010340502194594592,-0.00016603143012616783,0.17238251864910126,0.07661445438861847,-9.078812599182129,0.7597975730895996,47.6895751953125,-0.6990891695022583,-3.4927124977111816,-1.675493597984314,-0.5839889049530029,-0.010139127261936665,-0.0034748283214867115,24.75,25.8125,24.625,27.3125,28.3125,28.6875
1.0,1.7002559559969015,1.3352113273058612,0.4225248621271229,0.024956083360960286,-0.024474364784093896,-0.09380510287455968,-0.5481375850402694,-0.3480132264717424,0.05505649953107106,-3.078684042868569,0.6249544543392278,0.00016020962202555346,0.0010152447460013683,0.00198249556870652,-0.046978968976024445,0.002419616619844528,-0.006473645739110362,-0.002208057242429737,0.35704684257507324,-1.103474275474884,1.6027162710772913,-2.0685864887633265,-1.571465317402975,2.3321385383605957,-0.0023365356028079987,0.05238206312060356,0.05295928940176964,-0.09843003004789352,-0.00012269856233615428,-0.00015903855091892183,0.24899697303771973,-0.07661445438861847,-9.097966194152832,0.7374180555343628,47.71196365356445,-0.6861857175827026,-3.713733196258545,-1.6937944889068604,-0.6411683559417725,-0.017058221623301506,-0.0001228064065799117,24.75,25.8125,24.625,27.3125,28.3125,28.6875
1.0,1.7714066564733162,1.265716488288356,0.5710027731650517,0.030715216368054604,-0.025743732644098773,-0.08861789064831649,-0.548119352229907,-0.34804664530458845,0.054958726727614926,-3.0787275422763627,0.6248100632344278,0.00012364959667747366,0.0019569411449511655,0.002212625675003117,-0.04548753040727313,0.0026921353936305843,-0.007184924234532197,-0.002027748630651017,0.3570948541164398,-1.1033556324294587,1.6028121153460901,-2.0687886677184046,-1.5714414755450647,2.3320908546447754,-0.002154154935851693,0.049168661236763,0.053411275148391724,-0.09490694105625153,-0.0001195411168737337,-0.00015560266911052167,0.26815059781074524,-0.19153612852096558,-9.059659004211426,0.7150384783744812,47.70658874511719,-0.7585602402687073,-3.5389280319213867,-1.7103625535964966,-0.7014074325561523,-0.0016890701372176409,-0.00419214740395546,24.75,25.8125,24.625,27.3125,28.3125,28.6875
1.0,1.5902961733115404,1.3891436009334122,0.44669407265169453,0.031530057916326515,-0.03276591431049061,-0.08930301372813607,-0.5481369457586297,-0.3480293918200508,0.05487619832932242,-3.0786891537388654,0.6248980819270123,0.00014295298896273506,0.0025502758912910573,0.0025317434709826777,-0.0463240606890123,0.003643198528735169,-0.009731277623691916,-0.0021739082685130287,0.3570708632469177,-1.1032475692084809,1.6028836409198206,-2.068967958489889,-1.571465317402975,2.3321266174316406,-0.0022980051580816507,0.05008562654256821,0.0536317303776741,-0.09332620352506638,-0.00011645413178484887,-0.00015231090947054327,0.3447650372982025,-0.2106897532939911,-9.002198219299316,0.7060845494270325,47.68598937988281,-0.8042627573013306,-3.447589874267578,-1.6573268175125122,-0.7708652019500732,-0.002895861864089966,-0.010209202766418457,24.75,25.8125,24.625,27.3125,28.3125,28.6875
1.0,1.737375757399708,1.1604681728165391,0.4842486449784148,0.03684187894584133,-0.024374006596478245,-0.08848496371886912,-0.5481318678871987,-0.34799926525844094,0.054770532922269854,-3.0786437209034703,0.6249084288124737,7.091776077105393e-05,0.0026389025020702346,0.0025706583581111,-0.04766245392018149,0.004204763081976162,-0.011249903224527968,-0.0021881528036486668,0.357034832239151,-1.1031389397433777,1.6030038038836878,-2.0691353283324183,-1.57147723833193,2.3321027755737305,-0.0023091300390660763,0.052234113216400146,0.05371565371751785,-0.09393950551748276,-0.00011351686407579109,-0.0001491556758992374,0.325611412525177,-0.26815059781074524,-9.002198219299316,0.7217512726783752,47.6895751953125,-0.726455569267273,-3.4318175315856934,-1.634345293045044,-0.7921119928359985,-0.01735246181488037,-0.006966332904994488,24.75,25.8125,24.625,27.3125,28.3125,28.6875
1.0,0.813869824986488,0.6287395954181353,0.49573611443351356,0.03169901902199024,-0.032804344121648565,-0.07767368125844931,-0.5481258999473153,-0.34798551430899904,0.054661114919160536,-3.0786025802230386,0.6248610572745937,5.25069107914641e-05,0.00392539865296962,0.0030117606716320126,-0.049934397601779,0.005456331334249071,-0.014569907346437495,-0.002126417340663569,0.3570348620414734,-1.1030186277678986,1.603123966847555,-2.0693394146361292,-1.5715134779559534,2.332078456878662,-0.002244692062959075,0.053826455026865005,0.05681900307536125,-0.09508711099624634,-0.00012160486221546307,-0.0001461282663512975,0.4596867263317108,-0.24899697303771973,-9.040505409240723,0.7933669090270996,47.731666564941406,-0.7803539633750916,-3.5990233421325684,-1.756638526916504,-0.8237663507461548,-0.016037175431847572,0.005798102356493473,24.75,25.8125,24.625,27.3125,28.3125,28.6875
