Tylouw/Master_Thesis_Code/test_recorded_data/devi01_test/insertion_1_2026-01-27_15-50-30.csv
num_insertion,tcp_force_x[N],tcp_force_y[N],tcp_force_z[N],tcp_force_rx[Nm?],tcp_force_ry[Nm?],tcp_force_rz[Nm?],tcp_pose_x[m],tcp_pose_y[m],tcp_pose_z[m],tcp_pose_rx[rot_vec_x],tcp_pose_ry[rot_vec_y],tcp_pose_rz[rot_vec_z],tcp_velo_x[m/s],tcp_velo_y[m/s],tcp_velo_z[m/s],tcp_velo_rx[rot_vec_x/s],tcp_velo_ry[rot_vec_y/s],tcp_velo_rz[rot_vec_z/s],q1[rad],q2[rad],q3[rad],q4[rad],q5[rad],q6[rad],qd1[rad/s],qd2[rad/s],qd3[rad/s],qd4[rad/s],qd5[rad/s],qd6[rad/s],tool_acc_x,tool_acc_y,tool_acc_z,current_of_whole_robot[A],voltage_of_whole_robot[V],current_J1[A],current_J2[A],current_J3[A],current_J4[A],current_J5[A],current_J6[A],temp_J1[C],temp_J2[C],temp_J3[C],temp_J4[C],temp_J5[C],temp_J6[C]
1.0,0.6663556582125387,1.4798805705017013,-0.19798618714188923,0.037214882318268194,-0.04333539895527169,-0.08365096244723397,-0.5476182667586053,-0.3480682970808834,0.06000105980498241,-3.078697292967927,0.6247010748874816,0.00011400765787083034,0.0013420694497242797,-0.0007489337708083653,6.765054340976558e-05,-0.0006428313155392413,0.0019023116421584092,0.001607545310697605,0.35741955041885376,-1.10983099163089,1.5982402006732386,-2.057708879510397,-1.571465317402975,2.33235502243042,0.0018778116209432483,-0.002646044362336397,0.004471101798117161,-0.0038317677099257708,-6.25198008492589e-05,0.0002689224493224174,0.4405331015586853,-0.363918662071228,-9.308656692504883,0.7665104269981384,47.668975830078125,-0.245918869972229,-4.418147087097168,-2.826740264892578,-0.15391071140766144,0.026846494525671005,0.021284319460392,24.875,25.875,24.75,27.5625,28.5625,29.0
1.0,-0.19631292694048563,0.5040143777580963,-0.5246977415302704,0.04212451622004176,-0.04017743812396484,-0.07237220448287919,-0.5476076533775545,-0.3480722989868136,0.06002039499036524,-3.0787202247460743,0.6246478434789228,0.00014412158032001336,0.000550982965673565,-0.0006103359929483562,1.5147513912432077e-05,-0.00017015757074098918,0.0006288357629722865,0.0009898910008152107,0.3574313521385193,-1.109878347521164,1.5982640425311487,-2.0577079258360804,-1.571465317402975,2.3323307037353516,0.0012337517691776156,-0.0006330144824460149,0.0011210415977984667,-0.0011363832745701075,-6.082960680942051e-05,0.00024350787862204015,-0.07661445438861847,0.09576806426048279,-9.423578262329102,0.7418897151947021,47.6627082824707,-0.2038382589817047,-4.514474868774414,-2.5536506175994873,-0.15901026129722595,0.02603132091462612,0.03065488487482071,24.875,25.875,24.75,27.5625,28.5625,29.0
1.0,-1.0921405391893209,-0.5291019364662135,-0.5154916118462705,-0.011819237026121672,0.00885110557641098,-0.08033033359476258,-0.5475946716853606,-0.34808262912748184,0.06001044142939155,-3.07872504848753,0.6246680837887447,2.488642729545381e-05,0.0006917514987379749,-0.0004447543283430846,0.00024879056246126326,0.00012041504902385365,-0.0001436361553978277,0.0008368473718184887,0.3574312925338745,-1.1098545056632538,1.598238770161764,-2.0576468906798304,-1.5714176336871546,2.3323426246643066,0.0010675708763301373,-0.000909145048353821,0.0006356085650622845,0.00045048072934150696,-6.0018279327778146e-05,0.0002310178242623806,-0.15322890877723694,0.17238251864910126,-9.500192642211914,0.7888899445533752,47.71196365356445,-0.22653187811374664,-4.153817176818848,-2.3568689823150635,-0.20391371846199036,0.015639476478099823,0.028779279440641403,24.875,25.875,24.75,27.5625,28.5625,29.0
1.0,-2.5872641944876196,-2.104134592879715,-0.6946016652370374,-0.05691933676309982,0.04635491133229935,-0.06661141446364109,-0.5476028902030688,-0.34807038324331047,0.06002861985875593,-3.0786963613490563,0.6246623418007641,9.27669980522686e-05,0.0024300361964145023,0.00045981715497652636,-0.0016276284423274903,0.0016896179566040835,-0.004319999282543068,0.00047831416988397123,0.35743117332458496,-1.1098783773234864,1.5982292334186,-2.057634492913717,-1.571465317402975,2.3323426246643066,0.0006967587978579104,-0.0006982734776102006,0.00444363197311759,0.0008930296753533185,-5.922832133364864e-05,0.00021973499679006636,-0.2298433631658554,0.28730422258377075,-9.557653427124023,0.7127973437309265,47.711063385009766,-0.17548519372940063,-4.123119354248047,-2.5012664794921875,-0.27175092697143555,0.028140410780906677,0.02972825989127159,24.875,25.875,24.75,27.5625,28.5625,29.0
1.0,-2.528438063361379,-2.478286832301639,-0.4645727032944973,-0.09802877025836243,0.0846180086730588,-0.07138780207058364,-0.547570755078617,-0.34808700482792576,0.06001194811156868,-3.078682230756195,0.6245826245033339,5.3597154594096736e-05,0.003684216221698135,0.0009215635390310873,-0.0032876905729777154,0.002759251956354124,-0.007138709067754487,0.0005078751574757099,0.3574790954589844,-1.1098781687072297,1.5982664267169397,-2.0576349697508753,-1.57147723833193,2.3323426246643066,0.0007156744250096381,-9.331179899163544e-05,0.007434729486703873,0.0003118146560154855,-6.937731814105064e-05,0.00020950293401256204,-0.40222588181495667,0.3064578175544739,-9.500192642211914,0.7620334029197693,47.702110290527344,-0.20892003178596497,-4.031860828399658,-2.695625066757202,-0.2914946377277374,0.03552667051553726,0.03637581318616867,24.875,25.875,24.75,27.5625,28.5625,29.0
1.0,-2.0579585448665743,-2.151997964007226,-0.24708467548939494,-0.07391102866147178,0.0800518058551389,-0.0746451778821428,-0.5475654872020255,-0.34806442990301106,0.05999988963441308,-3.0786541390648865,0.6247117872866887,1.3785133833453583e-05,0.0029092960049071715,0.0006154665827005622,-0.0026174673842497523,0.002136319496978663,-0.005484211196488797,0.0005382974714159192,0.3574431240558624,-1.1098900598338624,1.5983131567584437,-2.0576473675169886,-1.571465317402975,2.332390785217285,0.00073720992077142,-1.2518969469965668e-06,0.005866236053407192,2.0359271729830652e-05,-6.920061423443258e-05,0.00020018046780023724,-0.2106897532939911,0.24899697303771973,-9.404424667358398,0.6747510433197021,47.67613983154297,-0.21300023794174194,-4.04934024810791,-2.531766891479492,-0.3091902732849121,0.03033795952796936,0.033276185393333435,24.875,25.875,24.75,27.5625,28.5625,29.0
1.0,-1.0075884018448527,-0.7468388912982331,-0.13298172495977142,-0.018748065008151883,0.031630398613988274,-0.07253283776338851,-0.5475683457207736,-0.3480616836835184,0.059979674897106705,-3.078664980361563,0.6246177400311802,2.8609997925664585e-05,0.0001787971763741455,-0.00036153995567820733,-0.0011336834642362138,-0.000866207986996433,0.002494579874894397,0.00046960029168856905,0.35744309425354004,-1.1098660987666626,1.5983355681048792,-2.0576974354186,-1.57147723833193,2.3323307037353516,0.0006636522011831403,-1.6795794977042533e-08,0.004033113829791546,-0.0066727930679917336,-6.837094406364486e-05,0.00019165313278790563,-0.2298433631658554,0.24899697303771973,-9.442731857299805,0.7306999564170837,47.67524337768555,-0.2530335783958435,-3.889458179473877,-2.430502414703369,-0.28443747758865356,0.03832326456904411,0.03917849063873291,24.875,25.875,24.75,27.5625,28.5625,29.0
1.0,-0.2058816319620481,0.8394063064083491,-0.10104590965651293,0.016456476662546824,-0.01257925817574326,-0.07411362171743141,-0.5476071626342685,-0.3480963078454826,0.06004219211086484,-3.078765697213743,0.6246190553513136,0.00024168292483844195,-0.0006742409363512137,-0.000642055189656442,-0.0016712417298236004,-0.0014652333524126423,0.004057480204052261,0.0004129493151008325,0.35746702551841736,-1.1099134546569367,1.598276440297262,-2.05775847057485,-1.571465317402975,2.3323426246643066,0.0006004248280078173,0.001583231263794005,0.0036208024248480797,-0.009517469443380833,-6.197204493219033e-05,0.00018382287817075849,-0.28730422258377075,0.15322890877723694,-9.21288776397705,0.7396538853645325,47.645687103271484,-0.2161967009305954,-3.911895275115967,-2.2809693813323975,-0.26896846294403076,0.02549123764038086,0.0323781818151474,24.875,25.875,24.75,27.5625,28.5625,29.0
1.0,0.41390773445609186,1.1972629855224377,0.18387370348978874,0.03130315866320666,-0.030506745695679884,-0.0743264375624151,-0.54760324419796,-0.34807429317875327,0.06001207159036728,-3.078723854100932,0.6246879806650315,0.00013776139794864327,-0.000699165928474684,-0.0006178188402346807,-0.001751403630392392,-0.0018034554049197197,0.0049419158282836845,0.0003672306917847722,0.3574311137199402,-1.1098777216723938,1.5982878843890589,-2.057735105554098,-1.5714533964740198,2.33235502243042,0.0005481606349349022,0.001203141175210476,0.0047119297087192535,-0.011175408028066158,-5.5943884945008904e-05,0.0001766067580319941,-0.1149216741323471,0.13407528400421143,-9.136273384094238,0.7351769208908081,47.71196365356445,-0.19825661182403564,-3.8871700763702393,-2.298738718032837,-0.26034417748451233,0.02752441167831421,0.020855557173490524,24.875,25.875,24.75,27.5625,28.5625,29.0
1.0,0.4092920253840966,0.6062925885862882,0.16999586324121155,0.02031770776737876,-0.020726504374016984,-0.084249477273799,-0.5475944920687773,-0.3480710139213512,0.05998415341487173,-3.078715102627231,0.6246663426385064,0.00010530395491569811,-0.0007757682109017127,-0.0006153726107355269,-0.0016559056614148784,-0.001994041567136767,0.005462567314826218,0.00032974562016431063,0.3574311137199402,-1.1098538500121613,1.5983246008502405,-2.0577713451781214,-1.5714533964740198,2.3323426246643066,0.0005042687407694757,0.0009491045493632555,0.004988351836800575,-0.011752204969525337,-6.032974852132611e-05,0.00016993621829897165,0.038307227194309235,0.038307227194309235,-9.117119789123535,0.7687462568283081,47.690467834472656,-0.18118421733379364,-3.7321529388427734,-2.2716305255889893,-0.2785332500934601,0.029393255710601807,0.029426388442516327,24.875,25.875,24.75,27.5625,28.5625,29.0
1.0,-0.2845832505222685,0.23095632307602057,0.35701750683975503,0.002761451256900355,-0.02384949643594091,-0.07614177556041773,-0.5476143620165049,-0.3480626496675148,0.059999277495181275,-3.0787079135787874,0.6246651192603938,0.00015756455721998262,-0.0007925936796450715,-0.000488085584370392,-0.0016986839327350722,-0.0018854766836072393,0.005186102280402008,0.0001411968764954257,0.3574190139770508,-1.109853820209839,1.5982878843890589,-2.057758947412008,-1.57147723833193,2.3323307037353516,0.0003093845152761787,0.0010340313892811537,0.004895163234323263,-0.011446948163211346,-6.471641972893849e-05,0.00016375181439798325,0.13407528400421143,-0.2106897532939911,-9.136273384094238,0.7284641265869141,47.711063385009766,-0.23314866423606873,-3.7253530025482178,-2.225235939025879,-0.28960368037223816,0.024372009560465813,0.03190350532531738,24.875,25.875,24.75,27.5625,28.5625,29.0
1.0,0.0687321486422248,0.3914126967156828,0.3050093220132561,-0.0024991835156178074,-0.011867033459751314,-0.07446083004733092,-0.5476080967197929,-0.34808412773587105,0.06000820909114121,-3.0787446765657327,0.6247115582007713,0.0002006242772809015,-0.001208509938997035,-0.0005710252573453164,-0.0014231570479103996,-0.002208174440851642,0.006041989246355752,3.819166884142249e-05,0.3574429154396057,-1.1098777514747162,1.5983126799212855,-2.0578071079649867,-1.5714533964740198,2.33237886428833,0.0002009166346397251,0.0011012667091563344,0.004259271081537008,-0.011792995035648346,-6.427972402889282e-05,0.00015800092660356313,0.26815059781074524,-0.2298433631658554,-8.983044624328613,0.7888899445533752,47.68240737915039,-0.22611816227436066,-3.6489832401275635,-2.096736431121826,-0.30585694313049316,0.02824503928422928,0.023687783628702164,24.875,25.875,24.75,27.5625,28.5625,29.0
1.0,0.49729312487246713,0.7593490630372037,0.27848785000602494,0.019832223769738505,-0.025163437112311754,-0.07779747310223235,-0.5476267353080224,-0.34806726663065046,0.05999568762824223,-3.078714994683802,0.6247247743439321,0.00020458022319734615,-0.0012803180325963166,-0.0005850777034198106,-0.0033396208026484353,-0.00149879048065903,0.004132167832554134,2.240945929799957e-05,0.357418954372406,-1.109840528374054,1.5982878843890589,-2.057807584802145,-1.57147723833193,2.332366943359375,0.00017982845020014793,0.004404753912240267,0.0041016205213963985,-0.012901526875793934,-6.354509241646156e-05,0.00015264085959643126,0.26815059781074524,-0.2106897532939911,-8.829815864562988,0.7687462568283081,47.71733474731445,-0.26926106214523315,-3.7414722442626953,-2.0256381034851074,-0.3138583302497864,0.03754463046789169,0.02433115616440773,24.875,25.875,24.75,27.5625,28.5625,29.0
1.0,0.6709669107063942,1.3783121458089784,0.2948324421845344,0.037251498073904495,-0.049497253559059755,-0.08446220125224511,-0.5476080360701991,-0.34807647280142856,0.05998536005382113,-3.0787226369529015,0.6246879864637487,0.00020507577951672432,-0.0011299453027318138,-0.00046501642935842453,-0.004270433367635195,-0.0013082747730379003,0.00361668252507443,-6.758540346920104e-05,0.3574428856372833,-1.1098523300937195,1.5983360449420374,-2.0578443012633265,-1.57147723833193,2.332366943359375,8.519517723470926e-05,0.005307804327458143,0.005235908553004265,-0.014389308169484138,-6.280739034991711e-05,0.0001476325560361147,0.325611412525177,-0.19153612852096558,-8.9064302444458,0.7150384783744812,47.699424743652344,-0.2414756417274475,-3.799220561981201,-2.0142107009887695,-0.29744237661361694,0.026860211044549942,0.012177458964288235,24.875,25.875,24.75,27.5625,28.5625,29.0
1.0,0.7318815830777571,0.5689173150901279,0.4419229498267929,0.021550546172993543,-0.058855841067679854,-0.07506162565274163,-0.5476283893729043,-0.34807207831499765,0.059983442797190395,-3.0787439749247447,0.6246533609444213,0.00027680972246673285,0.000441177732899519,0.0001364393074582954,-0.004782567519690092,-0.0001720358159447455,0.0006002899188671606,-7.325835364093129e-05,0.35743096470832825,-1.109840766792633,1.5983369986163538,-2.0579029522337855,-1.5714896360980433,2.3323307037353516,6.916924030520022e-05,0.004023623187094927,0.00777129502967,-0.012417219579219818,-6.137974560260773e-05,0.00013854168355464935,0.2298433631658554,0.038307227194309235,-9.002198219299316,0.7687462568283081,47.69673538208008,-0.21119171380996704,-3.5806288719177246,-2.138882875442505,-0.3183705508708954,0.024484705179929733,0.022404426708817482,24.875,25.875,24.75,27.5625,28.5625,29.0
1.0,0.4580380086506445,-0.12312125740908414,0.1930268191935778,-0.002484492022664226,-0.04970811521420874,-0.07140622730039889,-0.5476046143076506,-0.348046496441514,0.059943770629570625,-3.0787209552242576,0.6247064356520091,0.00017475574700467645,0.0010451845328256497,0.0003662928411245737,-0.005647411458462642,0.0007629406895113167,-0.0018937823222852906,-7.313310344458125e-05,0.3573949635028839,-1.1098404091647645,1.5984333197223108,-2.0579382381834925,-1.571465317402975,2.3323307037353516,6.423145532608032e-05,0.004999355413019657,0.007994676940143108,-0.010952774435281754,-6.068993388907984e-05,0.00013440375914797187,0.2298433631658554,0.019153613597154617,-9.040505409240723,0.7239871025085449,47.67255783081055,-0.23528370261192322,-3.513131618499756,-2.0628368854522705,-0.35231056809425354,0.046652816236019135,0.03681757301092148,24.875,25.875,24.75,27.5625,28.5625,29.0
1.0,0.2384374959135368,-1.000932515958028,-0.06678472435432464,-0.011882345064883237,-0.03402416711332975,-0.0657859055095335,-0.5475791591509562,-0.34806166722748744,0.059932291026029594,-3.0786791580686885,0.6246791345161541,0.00013034736869977124,0.001559312980916148,0.0005619369768838251,-0.006632049423655146,0.0015762407339993594,-0.004065001355200175,-7.287332925585857e-05,0.3574428856372833,-1.1098280113986512,1.5984333197223108,-2.057901998559469,-1.5714896360980433,2.332366943359375,5.99519262323156e-05,0.006130008492618799,0.008423525840044022,-0.010193726979196072,-6.001543079037219e-05,0.00013050528650637716,0.24899697303771973,0.1149216815829277,-9.174580574035645,0.7284641265869141,47.66718673706055,-0.2539764642715454,-3.575800895690918,-2.05991530418396,-0.37833720445632935,0.031159576028585434,0.015808571130037308,24.875,25.875,24.75,27.5625,28.5625,29.0
1.0,0.009414323807768354,-0.7634066778517288,0.0032908686813420984,-0.03135015476931546,-0.01713364002833258,-0.07094116304886285,-0.5476046006802235,-0.3480790057321872,0.05992309533489637,-3.078711785654664,0.624685886268578,0.00014150982314512737,0.002234358656344082,0.0008412396411867931,-0.007639292697117407,0.002334379026764247,-0.0062127862040680295,-0.00012786234831448833,0.35744285583496094,-1.1097678405097504,1.5983737150775355,-2.0579263172545375,-1.571465317402975,2.332366943359375,8.043315915529092e-07,0.0068748160265386105,0.00952513050287962,-0.009763016365468502,-1.5250675460265484e-05,0.00012682673695962876,0.26815059781074524,0.19153612852096558,-9.155426979064941,0.6702793836593628,47.6976318359375,-0.24273347854614258,-3.5163018703460693,-2.0397915840148926,-0.3912179470062256,0.037400923669338226,0.014558308757841587,24.875,25.875,24.75,27.5625,28.5625,29.0
1.0,-0.002573911343196733,-0.8802627307174338,0.02068930784882044,-0.023206395507730942,-0.012076043445177957,-0.07880248603728925,-0.5475909736633284,-0.3480294677855971,0.05990061651828679,-3.0786593410524876,0.6247321229740519,7.114955266995999e-05,0.0025254795287908867,0.0009459786068429012,-0.008723315440246073,0.002913163487146125,-0.007802957265635213,-0.00012497362625850158,0.35738301277160645,-1.1097913843444367,1.5984576384173792,-2.0579263172545375,-1.57147723833193,2.3323426246643066,1.079113420843214e-08,0.008296758867800236,0.009972133673727512,-0.009939845651388168,-9.957601605492528e-07,0.0001233499642694369,0.19153612852096558,0.24899697303771973,-9.136273384094238,0.7105615139007568,47.643890380859375,-0.24503940343856812,-3.6132450103759766,-1.9810317754745483,-0.41360533237457275,0.024211231619119644,0.0183620136231184,24.875,25.875,24.75,27.5625,28.5625,29.0
1.0,0.05698489240617026,-0.25082980075796935,-0.06464528598265822,-0.022739920421251125,-0.011577736039638726,-0.07752650646823288,-0.5475509665866257,-0.34806265826649735,0.059873332464829565,-3.078662616511062,0.6246567730871426,-2.901877385935372e-05,0.0026768442258018983,0.0010026327272649326,-0.009154494411439043,0.002921523775565314,-0.007827916270349213,-0.00012203111343844115,0.35744285583496094,-1.1097673636725922,1.5984819571124476,-2.0579143963255824,-1.5714533964740198,2.33235502243042,1.4477685716940414e-10,0.008451803587377071,0.010970823466777802,-0.011067281477153301,-6.501602456410183e-08,0.00012005872849840671,0.19153612852096558,0.26815059781074524,-9.174580574035645,0.7777001857757568,47.6895751953125,-0.24080491065979004,-3.4790241718292236,-2.007582187652588,-0.4365859031677246,0.021922413259744644,0.01814827136695385,24.875,25.875,24.75,27.5625,28.5625,29.0
1.0,-0.02801032743116627,-0.5040280103650125,-0.01205661228082126,-0.018996061828188467,-0.015883052451477857,-0.08447529820197261,-0.5475520781995891,-0.3480554651238178,0.059848108507097264,-3.07864345440107,0.6246528576978101,-7.708903671265657e-06,0.0025151729380943158,0.0009415600328516817,-0.009654474308334987,0.002608211830719453,-0.0069989607408801335,-0.00011979846804571572,0.35744285583496094,-1.1097431641868134,1.5985177198993128,-2.0579754314818324,-1.57147723833193,2.33235502243042,1.9423661897638445e-12,0.008910616859793663,0.011961058713495731,-0.013402515091001987,-4.2450816195582775e-09,0.00011693874694174156,0.13407529890537262,0.325611412525177,-9.136273384094238,0.7665104269981384,47.702110290527344,-0.2909305691719055,-3.458481788635254,-2.046321392059326,-0.44533491134643555,0.023876793682575226,0.019346196204423904,24.875,25.875,24.75,27.5625,28.5625,29.0
1.0,-0.00874206120123644,-0.7597590178661827,-0.07483264748326844,-0.01944154655847322,-0.01149512102868183,-0.07671244840511551,-0.5475473199893609,-0.34804505078463477,0.059826636199624694,-3.0786620597694485,0.6245988029234446,-5.957454418498953e-05,0.002270388990081985,0.0008488618533107043,-0.010528674061876641,0.0027276258707117826,-0.007328401714652277,-9.590587600172314e-05,0.35741889476776123,-1.1097306472114106,1.598553482686178,-2.0579997501769007,-1.5714533964740198,2.3322949409484863,2.6059320987984608e-14,0.010600817389786243,0.011773291043937206,-0.014554559253156185,-2.771735063689107e-10,9.270844020647928e-05,0.15322890877723694,0.3064578175544739,-9.232041358947754,0.7262282371520996,47.68598937988281,-0.3227742910385132,-3.5356500148773193,-1.9847232103347778,-0.4358491897583008,0.028881553560495377,0.004469577223062515,24.875,25.875,24.75,27.5625,28.5625,29.0
1.0,-0.2963453193460101,-0.7271404991749673,0.013755157497540754,-0.02286495376496976,-0.019852290837417907,-0.06609357127811245,-0.5475625140973042,-0.34803110034213103,0.05981404560620723,-3.078606965253308,0.6246830589328364,-4.595445370588148e-05,0.0023796543972263227,0.00088947204010629,-0.011417778204565942,0.0029313255225324464,-0.007877640526320576,-9.252130374510812e-05,0.35740697383880615,-1.10969431818042,1.598530117665426,-2.058000227014059,-1.5714896360980433,2.3323426246643066,3.4961904290763926e-16,0.011641277931630611,0.012564229778945446,-0.01580016314983368,-1.809745062142376e-11,8.902858098736033e-05,0.07661445438861847,0.24899697303771973,-9.193734169006348,0.7441308498382568,47.7244987487793,-0.2756849229335785,-3.5134096145629883,-2.0387678146362305,-0.44305849075317383,0.01917397975921631,0.015561948530375957,24.875,25.875,24.75,27.5625,28.5625,29.0
1.0,-0.2944072955337499,-0.06532547800103444,0.06388134136882534,-0.03196447051571425,-0.010477606002173484,-0.07996161158019328,-0.5475259984517469,-0.34803760001268125,0.05977680944037056,-3.078593608432915,0.6246419623320303,-0.00013598475382663397,0.0019681164556323238,0.0007346294433960639,-0.011463945805772134,0.0026501189519363235,-0.0071332153869311235,-0.00010029811393745656,0.35743093490600586,-1.1096821588328858,1.5986016432391565,-2.058024068871969,-1.57147723833193,2.3323426246643066,4.690585566124822e-18,0.012200568802654743,0.012063441798090935,-0.01665443181991577,-1.181634325976566e-12,9.637323819333687e-05,0.09576806426048279,0.2106897532939911,-9.193734169006348,0.7597975730895996,47.679718017578125,-0.264008104801178,-3.4958813190460205,-1.980323076248169,-0.46025484800338745,0.02559208683669567,0.025224611163139343,24.875,25.875,24.75,27.5625,28.5625,29.0
1.0,-0.7831763575855675,-0.23597148744983656,0.044028025686381526,-0.015510492400902576,-0.013759399652330147,-0.07412014048747455,-0.54752450569798,-0.34803649194221337,0.05977556110255269,-3.0786156131798954,0.6246658001277559,-0.00014051563565674528,0.0019331174436407628,0.0007208701105509823,-0.012524976167086694,0.002741629926417621,-0.0073866505927948495,-8.987598931796237e-05,0.35741889476776123,-1.1096937221339722,1.598626438771383,-2.0580488644041957,-1.5714533964740198,2.3323426246643066,6.293018848067242e-20,0.013589496724307537,0.01290393341332674,-0.018614424392580986,-7.715227382746465e-14,8.536806853953749e-05,0.13407529890537262,0.2106897532939911,-9.193734169006348,0.7709873914718628,47.700321197509766,-0.3119989335536957,-3.583529472351074,-1.9727011919021606,-0.46948421001434326,0.04170189052820206,0.002863112837076187,24.875,25.875,24.75,27.5625,28.5625,29.0
1.0,-0.577089721136503,-0.1810712205782976,0.016835697234590913,-0.005664068507985134,-0.007643302125417766,-0.06494942438043502,-0.5475258957131948,-0.3480532975277528,0.05972945561007656,-3.0786128280893776,0.6246849647018746,-0.00013831176263379337,0.0012817596673871969,0.0004762519882185023,-0.011784755993080428,0.0018323561201276704,-0.004964470604927345,-8.829457325446315e-05,0.35744285583496094,-1.1096220475486298,1.5986493269549769,-2.0581451855101527,-1.5714533964740198,2.33237886428833,8.442887715331878e-22,0.012894611805677414,0.012584694661200047,-0.020187528803944588,-5.037492131602667e-15,8.283404167741537e-05,0.09576806426048279,0.17238251864910126,-9.193734169006348,0.6725152134895325,47.65374755859375,-0.2272988259792328,-3.5354764461517334,-1.9623419046401978,-0.46176251769065857,0.012379908934235573,0.006755726877599955,24.875,25.875,24.75,27.5625,28.5625,29.0
1.0,-0.7612370121195894,0.05737827605831164,-0.03333460873541106,0.003528647264666733,-0.01586416341963575,-0.06699215059553801,-0.5475563797680488,-0.3480398798380265,0.05972385930553559,-3.078658486000394,0.624655735048408,-0.00011147884375261374,0.0011006614794947089,0.0004076706999942404,-0.01239650214522329,0.0019418600763892663,-0.005264699193530184,-8.65812043488465e-05,0.3573949337005615,-1.1095976394465943,1.59863788286318,-2.058193346063131,-1.5714295546161097,2.3323068618774414,1.1327210350718721e-23,0.014136914163827896,0.012339096516370773,-0.02086467109620571,-3.289122637208238e-16,8.093452925095335e-05,0.038307227194309235,0.1149216815829277,-9.251194953918457,0.7844129800796509,47.6976318359375,-0.30207061767578125,-3.5037221908569336,-1.9226484298706055,-0.4744868874549866,0.023989949375391006,0.016314858570694923,24.875,25.875,24.75,27.5625,28.5625,29.0
1.0,0.3002493483653015,0.3981201679497917,-0.07019746652871822,0.0025857640448331822,0.003682295887595684,-0.08132052226663992,-0.5475167991597322,-0.34805044224317483,0.05968750086455407,-3.0785932816388333,0.6245844665406934,-0.00016623284460729116,0.001088509802959855,0.00040316607208295885,-0.012485634018364763,0.0017572906259693908,-0.004772506506099425,-8.51996952616018e-05,0.35745489597320557,-1.1095737677863617,1.5986855665790003,-2.0581938229002894,-1.57147723833193,2.3323307037353516,1.5196897509875056e-25,0.013995246961712837,0.012967758812010288,-0.02187732607126236,-2.1475618750765102e-17,7.915242167655379e-05,0.05746084079146385,0.05746084079146385,-9.174580574035645,0.7217512726783752,47.72808074951172,-0.3191350996494293,-3.477813720703125,-1.986246943473816,-0.479779452085495,0.037342242896556854,0.01831645891070366,24.875,25.875,24.75,27.5625,28.5625,29.0
1.0,-0.050037175169072204,-0.09080386039268609,-0.054375885271498885,0.006740140847039772,-0.006926037798004299,-0.07310019351486832,-0.5475492692136467,-0.34804640778771573,0.05968105447759475,-3.07860304327902,0.6246638761832047,-0.0001029688374633134,0.0009061115154682385,0.00033412966453050724,-0.013110884047264196,0.0018297816080959659,-0.00497376144156165,-8.37606235337822e-05,0.35743093490600586,-1.1095374387553711,1.5986617247210901,-2.058253904382223,-1.57147723833193,2.33235502243042,2.0388578096413536e-27,0.015201302245259285,0.012847314588725567,-0.0227490421384573,-1.402204521151156e-18,7.744933827780187e-05,-0.038307227194309235,0.09576806426048279,-9.27034854888916,0.7172743082046509,47.68330383300781,-0.36605992913246155,-3.5517983436584473,-1.873760461807251,-0.49412816762924194,0.02892780676484108,0.01085779070854187,24.875,25.875,24.75,27.5625,28.5625,29.0
1.0,-0.5371757691076248,-0.3647535866510119,-0.060463223075333604,0.013013767534640482,-0.021289243121468175,-0.06585295893477715,-0.5475244112833315,-0.34805278571867954,0.05963979321313481,-3.078615346638472,0.6246083660005218,-0.00017111006096971656,0.0007934192771604856,0.00029186678450476974,-0.01293613909714909,0.0015256577695757446,-0.004162777181475603,-8.253119376602933e-05,0.35744285583496094,-1.1095136565021058,1.5987337271319788,-2.0583135090269984,-1.5714533964740198,2.3323307037353516,2.7353880685103615e-29,0.014817353338003159,0.0131864994764328,-0.023570414632558823,-9.155393993510885e-20,7.581820682389662e-05,-0.038307227194309235,0.038307227194309235,-9.232041358947754,0.6971306204795837,47.70658874511719,-0.33317410945892334,-3.5187387466430664,-1.9092686176300049,-0.5080279111862183,0.02167782373726368,-0.005371624603867531,24.875,25.875,24.75,27.5625,28.5625,29.0
1.0,-0.008541835543222132,0.3971527996128469,0.08525839773235527,-0.0003178029104889328,0.007446579667623626,-0.08101447703751823,-0.5475123463766228,-0.34804400336431296,0.05957735417040502,-3.078584402120304,0.6246212198782739,-0.0002764513731998768,0.0008458921349332122,0.0003110280267366538,-0.013924073066784195,0.0018850400336632228,-0.005128585340355231,-7.953309293451935e-05,0.35743093490600586,-1.1094411474517365,1.5987814108477991,-2.058362146417135,-1.5714414755450647,2.3323307037353516,4.923602169457307e-33,0.01632465422153473,0.013414616696536541,-0.02427533082664013,-3.9030881215290716e-22,7.275362440850586e-05,0.09576806426048279,-0.019153613597154617,-9.289502143859863,0.7127973437309265,47.67792892456055,-0.35835468769073486,-3.4921631813049316,-1.8723347187042236,-0.5455381870269775,0.021604342386126518,0.012542440555989742,24.875,25.875,24.75,27.5625,28.5625,29.0
1.0,0.0293519096954602,0.7784497489338228,0.059372511152052894,3.8960080647933854e-05,0.01267086220454077,-0.08538847658736116,-0.5475186854307199,-0.34805021266405506,0.05955479721683013,-3.07858504831445,0.6246986025268998,-0.00027181077183736864,0.0008311666910940712,0.0003052771082958667,-0.014300705071994753,0.0019517311163707112,-0.005309706002219762,-7.823670746544165e-05,0.35743093490600586,-1.1094049674323578,1.5987938086139124,-2.0584217510619105,-1.5714295546161097,2.33237886428833,6.605640568894809e-35,0.016874145716428757,0.013597672805190086,-0.024814873933792114,-2.548437557966187e-23,7.131246093194932e-05,0.05746084079146385,0.0,-9.289502143859863,0.6792280077934265,47.703006744384766,-0.36021530628204346,-3.6027634143829346,-1.9207552671432495,-0.5643389225006104,0.026571035385131836,0.0040708864107728004,24.875,25.875,24.75,27.5625,28.5625,29.0
1.0,-0.16433384409524956,0.6688044287605543,-0.19617599278556233,0.0003084122322201863,0.008381704086115351,-0.08598601618105947,-0.5475344512249176,-0.34803655440623693,0.05953225499566245,-3.0785608817682775,0.6246357270188544,-0.00025708403823912626,0.0010394536925292536,0.00038332081604292804,-0.014935351302261927,0.0021347512280408343,-0.0058002870226529935,-7.70316585860865e-05,0.35741889476776123,-1.1093569260886689,1.5987814108477991,-2.058446069756979,-1.571465317402975,2.3323307037353516,8.862309229604671e-37,0.0173831544816494,0.014493248425424099,-0.02569584734737873,-1.663947462826301e-24,6.992726412136108e-05,-0.019153613597154617,-0.1149216815829277,-9.308655738830566,0.7665104269981384,47.704795837402344,-0.3674010932445526,-3.4935593605041504,-1.838299036026001,-0.5866749286651611,0.027745064347982407,-0.00298147089779377,24.875,25.875,24.75,27.5625,28.5625,29.0
1.0,-0.9297426650265179,-0.26801505100744427,-0.30897658275998485,0.019043788728660256,-0.011198534982032708,-0.0644315471063783,-0.5475094793907938,-0.3480391504433225,0.05950466356801812,-3.078561728580089,0.624616645819191,-0.0002997760138609995,0.0007996472919168073,0.00029333067239822007,-0.014559730181474665,0.0017146597709225097,-0.004680107676118699,-7.613308687813833e-05,0.35743093490600586,-1.1093571347049256,1.5988543669330042,-2.0584942303099574,-1.5714533964740198,2.3323307037353516,1.1889920780202034e-38,0.01688959077000618,0.014516733586788177,-0.026422131806612015,-1.086438960193008e-25,6.85947816236876e-05,0.05746084079146385,-0.038307227194309235,-9.21288776397705,0.6971306204795837,47.6976318359375,-0.3991278111934662,-3.535457134246826,-1.9447685480117798,-0.6070114374160767,0.018129801377654076,0.0031110430136322975,24.875,25.875,24.75,27.5625,28.5625,29.0
1.0,-0.736874222592851,-0.33233956376275126,-0.38471428116788814,0.010062826984729462,-0.013983245982475405,-0.06232626743908675,-0.5474819350762014,-0.348056971358364,0.05944992740925187,-3.078544397341219,0.6245946300831888,-0.00038893220259888394,0.0009217733590757291,0.00033875296543496884,-0.015591927338250034,0.0020289456294671415,-0.005524328381735985,-7.505199996026559e-05,0.35746681690216064,-1.1092967551997681,1.5989020506488245,-2.058542867700094,-1.5714414755450647,2.33235502243042,1.5951821198487988e-40,0.01822539046406746,0.015175359323620796,-0.02751573733985424,-7.09366991208462e-27,6.731219036737457e-05,0.07661445438861847,0.038307227194309235,-9.251194953918457,0.7306999564170837,47.68240737915039,-0.345840722322464,-3.503903865814209,-1.8718293905258179,-0.6235955953598022,0.03819561004638672,0.0038272638339549303,24.875,25.875,24.75,27.5625,28.5625,29.0
1.0,-0.35608869438873225,-0.008862636537962404,-0.2522631668086244,0.002287540882409347,-0.006655583344617872,-0.07441571772195321,-0.54749896639592,-0.34803088502948576,0.05941807429855514,-3.078525133337666,0.6246285594413422,-0.00041970281707438877,0.000553611747252266,0.0002002882251951883,-0.01539410519055032,0.00159988360872181,-0.004384405583230882,-7.435875740204364e-05,0.35741889476776123,-1.1092489224723359,1.5989134947406214,-2.0585791073241175,-1.5714414755450647,2.3323307037353516,2.1397827550239957e-42,0.018202004954218864,0.014990529976785183,-0.028525518253445625,-4.631659293607142e-28,6.607671093661338e-05,0.05746084079146385,0.05746084079146385,-9.308655738830566,0.7105615139007568,47.68598937988281,-0.36592137813568115,-3.517162322998047,-1.830613374710083,-0.6402862071990967,0.01358873676508665,0.002956623677164316,24.875,25.875,24.75,27.5625,28.5625,29.0
1.0,-0.7913869914439459,-0.24769182503765944,-0.41473411960514767,0.001770100533740042,-0.013064543989168915,-0.067223264460342,-0.5474995579152143,-0.3480354671691642,0.05940869234004573,-3.0785184537450596,0.6247042148118211,-0.0003631650110689644,0.0009695937096126164,0.0003563300094927427,-0.016350929967386244,0.002046700229121359,-0.005577841026854203,-7.315334411181456e-05,0.35743093490600586,-1.109248624449112,1.598950211201803,-2.058651109735006,-1.5714533964740198,2.332390785217285,2.802596928649634e-44,0.01899135671555996,0.016168473288416862,-0.02921847626566887,-3.024142444145786e-29,6.488580402219668e-05,0.05746084079146385,0.1149216815829277,-9.308655738830566,0.6702793836593628,47.702110290527344,-0.37957561016082764,-3.5795702934265137,-1.8819599151611328,-0.6552556753158569,0.02091105654835701,-0.0016658275853842497,24.875,25.875,24.75,27.5625,28.5625,29.0
1.0,-0.29410527874993964,0.1036678202554041,-0.2948343124300149,-0.01049715780149529,0.00792907397821644,-0.07898522887664332,-0.5474701258441093,-0.348025289184481,0.05933537240774098,-3.078446437077143,0.6245356363738914,-0.00048213810026732185,0.0007519471962951791,0.0002742719864221835,-0.01662362987562137,0.0020020276402132795,-0.005463529697024283,-7.222397915816353e-05,0.35745489597320557,-1.109164373283722,1.5989974180804651,-2.0586630306639613,-1.5715015570269983,2.3323187828063965,0.0,0.019718097522854805,0.015869220718741417,-0.029768681153655052,-1.974548954974534e-30,6.373699579853565e-05,0.07661445438861847,0.13407529890537262,-9.346963882446289,0.6948947906494141,47.67613983154297,-0.4192275404930115,-3.5321836471557617,-1.8530492782592773,-0.6813750267028809,0.023967547342181206,-0.0026659222785383463,24.875,25.875,24.75,27.5625,28.5625,29.0
1.0,-0.34825455633535385,-0.45636017789821043,-0.3303510261140823,-0.004208784121202337,0.0046991406667998325,-0.07661725046294524,-0.547470964508001,-0.3480252331043796,0.05929611819532918,-3.078445742162977,0.6246129670906537,-0.0005175559070993133,0.00015598743686555047,5.042781569529996e-05,-0.015999423980741827,0.0009367848486300552,-0.0026263890547776137,-7.245615027553694e-05,0.35744285583496094,-1.109116868381836,1.5990341345416468,-2.0587359867491664,-1.57147723833193,2.33235502243042,0.0,0.018801266327500343,0.01635558344423771,-0.032368745654821396,-1.289239415987515e-31,6.262818351387978e-05,0.07661445438861847,0.17238251864910126,-9.385271072387695,0.7060845494270325,47.704795837402344,-0.4058353900909424,-3.4963831901550293,-1.8402435779571533,-0.710726261138916,0.013383325189352036,0.013850446790456772,24.875,25.875,24.75,27.5625,28.5625,29.0
1.0,-0.5951703236889113,-0.03882926930271202,-0.17872509027620875,-0.021121228557263963,-0.0007603527486401565,-0.0775882289394674,-0.5475014698351097,-0.3480327470519694,0.05929894779124287,-3.078481090318647,0.6245812022514475,-0.0004101674627294923,-0.0003951542593978799,-0.00015713686735733742,-0.016294000262286217,0.0004976504291796596,-0.0014654169916119614,-7.224825415006191e-05,0.35744285583496094,-1.1090925496867676,1.5990093390094202,-2.0588084659972132,-1.5714896360980433,2.3323307037353516,0.0,0.019715268164873123,0.01614968292415142,-0.03431808948516846,-8.417812024522344e-33,6.155723531264812e-05,0.038307227194309235,0.17238251864910126,-9.308655738830566,0.7329410910606384,47.68867492675781,-0.3960476517677307,-3.5302023887634277,-1.8186235427856445,-0.708422064781189,0.019161362200975418,0.0036286076065152884,24.875,25.875,24.75,27.5625,28.5625,29.0
1.0,-0.3962575632554003,-0.5053464524912465,-0.27575575917549605,-0.01333547462879109,-0.002493514143236103,-0.07635035569128616,-0.5474868637106889,-0.34802697580666236,0.05922912129909491,-3.078462479608239,0.6246157183524197,-0.00051107881091673,-2.8851356269168557e-05,-2.0066971795841285e-05,-0.017680854654443138,0.0011291948169512513,-0.003155847008696857,-7.115755486604772e-05,0.35743093490600586,-1.1090201896480103,1.599081818257467,-2.058892866174215,-1.571465317402975,2.3323426246643066,0.0,0.021367009729146957,0.017085136845707893,-0.03510073572397232,-5.49623000795848e-34,6.052232492947951e-05,0.038307227194309235,0.13407529890537262,-9.404424667358398,0.7665104269981384,47.686885833740234,-0.3783014416694641,-3.5369086265563965,-1.8822373151779175,-0.7261384129524231,0.032122351229190826,0.005267816130071878,24.875,25.875,24.75,27.5625,28.5625,29.0
1.0,-0.2853647306886983,-0.045646340097653296,-0.2965549494564219,-0.025222694051549078,-0.00925819728468875,-0.07423792151424523,-0.547482710672768,-0.34801344390403915,0.05920488216290512,-3.0784385663221916,0.6246500153613332,-0.0005175574628557308,6.163122889046337e-05,1.405573737196276e-05,-0.017592006580533438,0.0010739396077286399,-0.0030066661533549727,-7.022106638753282e-05,0.35741889476776123,-1.1090083283237,1.5991299788104456,-2.0589405498900355,-1.57147723833193,2.33235502243042,0.0,0.02098858170211315,0.017460418865084648,-0.03525667265057564,-3.588645351872505e-35,5.952173887635581e-05,0.09576806426048279,0.2106897532939911,-9.404424667358398,0.6658024191856384,47.6976318359375,-0.42297422885894775,-3.51851749420166,-1.8298629522323608,-0.756303608417511,0.025909166783094406,-0.009993769228458405,24.875,25.875,24.75,27.5625,28.5625,29.0
1.0,-0.4732374480094047,-0.5695102547757556,-0.3641050904049978,-0.008879158685888719,-0.018655663562325026,-0.07051903528494434,-0.5474972401583518,-0.34800266824367687,0.059178878692903975,-3.078438152754145,0.6246883746469223,-0.0004997561560568896,-0.0007867820742598723,-0.0003047382444366785,-0.016957514402461658,-0.00017801815306123044,0.00032544139910551805,-7.085922109899441e-05,0.3573949337005615,-1.108972654943802,1.5991538206683558,-2.0590135059752406,-1.57147723833193,2.33235502243042,0.0,0.020349016413092613,0.01764022931456566,-0.03835646063089371,-2.343129053976319e-36,5.8553614508127794e-05,0.13407529890537262,0.2106897532939911,-9.327810287475586,0.7665104269981384,47.68598937988281,-0.43814975023269653,-3.4789469242095947,-1.8048381805419922,-0.7611663341522217,0.04225122556090355,-8.147436892613769e-05,24.875,25.875,24.75,27.5625,28.5625,29.0
1.0,-0.23477384212734181,-0.6206907510510635,-0.49894415782827956,-0.004036256184070938,-0.017055081211252036,-0.06145195626491433,-0.5474977737531554,-0.34802271029393717,0.05914984789766148,-3.078461577986888,0.6246553767552874,-0.0004942716282134175,-0.001461983861569158,0.00014625392630893217,-0.017711458458845607,-0.000450135385205602,0.0010405936434410555,-0.0011106968844725354,0.3574185371398926,-1.1089242559722443,1.599166218434469,-2.0590859852232875,-1.571465317402975,2.33235502243042,-0.0010398182785138488,0.021490447223186493,0.018273992463946342,-0.04089682176709175,-1.5298958486036598e-37,5.7616438425611705e-05,0.19153612852096558,0.15322890877723694,-9.423578262329102,0.6792280077934265,47.66718673706055,-0.3141705095767975,-3.5519959926605225,-1.8364582061767578,-0.753814697265625,0.009143725037574768,-0.0005282596684992313,24.875,25.875,24.75,27.5625,28.5625,29.0
1.0,-0.003194633897888738,0.18027106273067472,-0.18455179422485804,-0.027600850306387068,-0.007167486004538913,-0.0890777674382037,-0.5474883857175028,-0.34799869769762787,0.0590865670549689,-3.0784363597789284,0.6247077780619129,-0.0005657069727819816,-0.002357470299312929,-0.0002548234686654792,-0.017526622051289034,-0.0015336953335078887,0.003919264647862782,-0.0010063193856137097,0.3573826849460602,-1.1088762444308777,1.5992615858661097,-2.059183260003561,-1.5714533964740198,2.33235502243042,-0.0009450006764382124,0.021777350455522537,0.01818261481821537,-0.044168196618556976,-9.989126675671708e-39,4.645627996069379e-05,0.15322890877723694,0.1149216815829277,-9.404424667358398,0.7978386282920837,47.660911560058594,-0.3197372555732727,-3.5659379959106445,-1.735182523727417,-0.7564566135406494,0.022157004103064537,0.00013727101031690836,24.875,25.875,24.75,27.5625,28.5625,29.0
1.0,-0.09678390863084911,-0.26186993858585783,-0.24275066928364472,-0.020041497693055955,-0.009903009010893015,-0.07318557001800785,-0.5474978464468435,-0.34802322807101727,0.059076524429559324,-3.078450529871443,0.6246138482556315,-0.00047082462692747733,-0.00283173518469311,-0.0005280817787684756,-0.017244669175139424,-0.0023034940538857384,0.005966515415044183,-0.0008569401739818747,0.35743066668510437,-1.1088404220393677,1.5992491880999964,-2.0592552624144496,-1.5714896360980433,2.3323426246643066,-0.0008051110780797899,0.02150730974972248,0.018414486199617386,-0.04631722718477249,-6.522189559368785e-40,3.5900178772863e-05,0.2298433631658554,0.09576806426048279,-9.404424667358398,0.8023208975791931,47.70121383666992,-0.44313478469848633,-3.4645957946777344,-1.7632306814193726,-0.7167614698410034,0.022516407072544098,-0.01383835170418024,24.875,25.875,24.75,27.5625,28.5625,29.0
1.0,0.0074928199413334395,-0.44249301214774445,-0.20743636748574043,-0.014510400551745361,-0.011880965885183562,-0.07724179455531277,-0.5474917769136716,-0.3480244125562212,0.05902088948979317,-3.078456383776426,0.6246733946619505,-0.0005343662826080049,-0.0019698044666366776,-0.0002751700950608376,-0.018211629929811957,-0.0014355822649103939,0.0036556852975709376,-0.0007504119860830142,0.35741865634918213,-1.108780251150467,1.5993097464190882,-2.0593511066832484,-1.5714533964740198,2.332366943359375,-0.0007005640072748065,0.022014858201146126,0.019715243950486183,-0.045657090842723846,-4.258546033083119e-41,3.458121500443667e-05,0.2106897532939911,0.19153612852096558,-9.404424667358398,0.7441308498382568,47.731666564941406,-0.3777889609336853,-3.4680395126342773,-1.7975000143051147,-0.750527024269104,0.016234904527664185,-0.00805144477635622,24.875,25.875,24.75,27.5625,28.5625,29.0
1.0,-0.17703212974137886,-0.5223719931944362,-0.2819140827748179,-0.017601985006552776,-0.022229276094262475,-0.07840029626193316,-0.5475059309420356,-0.3480019441868484,0.05895836913937985,-3.0784404607661897,0.6246695461969304,-0.000468760165365682,-0.0036963717292412945,-0.000981786268458129,-0.018321066557715336,-0.0034235974085588296,0.008932712604006205,-0.0006682267330720825,0.3573947250843048,-1.1087201100638886,1.5994051138507288,-2.059533258477682,-1.5714896360980433,2.3323426246643066,-0.0006164546357467771,0.02315371111035347,0.019894415512681007,-0.05261418968439102,-1.821688003622262e-43,3.326011574245058e-05,0.2298433631658554,0.1149216815829277,-9.461885452270508,0.6590895652770996,47.7191276550293,-0.40461722016334534,-3.5031440258026123,-1.7774326801300049,-0.7136186361312866,0.03482505679130554,-0.005404969677329063,24.875,25.875,24.75,27.5625,28.5625,29.0
1.0,-0.40792768954403386,-0.8510292749128032,-0.47642222568544457,-0.016909893274208367,-0.02286758068734269,-0.07101228196694233,-0.5475209651906017,-0.3480360114678099,0.05892462195533743,-3.0784837336283415,0.6246016272343804,-0.00043360266503748743,-0.0039719372486834385,-0.0011050976140446504,-0.018505705774928154,-0.0038842558985267613,0.010154661685449656,-0.0006398762208688148,0.35743072628974915,-1.1086361867240448,1.5993827025042933,-2.059629102746481,-1.57147723833193,2.3323307037353516,-0.0005878019728697836,0.023326897993683815,0.020535634830594063,-0.0547344945371151,-1.1210387714598537e-44,3.26564913848415e-05,0.24899697303771973,0.2298433631658554,-9.404424667358398,0.7127973437309265,47.687782287597656,-0.3598482608795166,-3.3829312324523926,-1.7063815593719482,-0.6919641494750977,0.020426422357559204,-0.015114238485693932,24.875,25.875,24.75,27.5625,28.5625,29.0
1.0,-0.9980341723720946,-0.9743292777504587,-0.42094771914850115,-0.012751623800360082,-0.034045718074958264,-0.05801001615542665,-0.5475205227088594,-0.3480190586652333,0.058886571845822466,-3.0784994386687448,0.6246626392089958,-0.00043530565445914577,-0.004728682206466987,-0.0013892731306722758,-0.018179224603765646,-0.004744575403245191,0.012442403288422343,-0.0006407289778824579,0.3573947250843048,-1.1086241763881226,1.5994780699359339,-2.0597502193846644,-1.5714533964740198,2.3323307037353516,-0.0005880993558093905,0.023397764191031456,0.02018790692090988,-0.05690179020166397,-1.401298464324817e-45,3.207456029485911e-05,0.28730422258377075,0.2106897532939911,-9.366117477416992,0.6792280077934265,47.71196365356445,-0.4450801610946655,-3.460815668106079,-1.6854078769683838,-0.6668795347213745,0.020335031673312187,-0.009400689974427223,24.875,25.875,24.75,27.5625,28.5625,29.0
1.0,-0.31789827638565726,-0.6330942750196401,-0.29288780249787766,-0.010389630155253573,-0.014128558470246378,-0.07305693875195572,-0.5475483422406225,-0.34802573293575734,0.058852842062960986,-3.078522010978948,0.6246290608732337,-0.0003619195183940008,-0.005176702819386146,-0.0015726404178422028,-0.018052264924585643,-0.005385390061250603,0.014146131968588748,-0.0006191314405967344,0.3573947250843048,-1.108552263384201,1.5994780699359339,-2.0598699055113734,-1.571465317402975,2.3323068618774414,-0.0005660973838530481,0.023340342566370964,0.020434075966477394,-0.0589107945561409,-0.0,3.1513038265984505e-05,0.17238251864910126,0.17238251864910126,-9.423578262329102,0.6590895652770996,47.705692291259766,-0.4215180277824402,-3.3731937408447266,-1.642883539199829,-0.6477524042129517,0.016851704567670822,-0.009648246690630913,24.875,25.875,24.75,27.5625,28.5625,29.0
1.0,-0.4112741856739323,-0.5067264581238902,-0.24499839795225556,-0.02020320723847574,-0.012224041129708181,-0.07196049107589829,-0.5475486935826839,-0.3480302550400092,0.05882590937007956,-3.078529146162261,0.6246111930083075,-0.00031825570635244245,-0.0053029518792175115,-0.0016482763558795235,-0.018611067603388758,-0.005604189112070354,0.014722575208912925,-0.0005783848705519085,0.3574067950248718,-1.1085280340961,1.5995257536517542,-2.059967180291647,-1.57147723833193,2.3323068618774414,-0.0005251244874671102,0.023960193619132042,0.02126949653029442,-0.060982633382081985,-0.0,3.097087028436363e-05,0.15322890877723694,0.24899697303771973,-9.346963882446289,0.7195101380348206,47.68330383300781,-0.4057621955871582,-3.42867374420166,-1.7214767932891846,-0.6235374212265015,0.020471904426813126,-0.000514144659973681,24.875,25.875,24.75,27.5625,28.5625,29.0
1.0,-0.5733058547517429,-0.5212514043065359,-0.2747663256992092,-0.014925685934591548,-0.014443481957006763,-0.07154626120115565,-0.5475705969237443,-0.34801792018069594,0.0587871416265639,-3.0785393521460693,0.6247092374419866,-0.00027998741814424047,-0.005228129879058345,-0.0016915103143197788,-0.019237652549013225,-0.005774458326804723,0.015173665959007545,-0.0004735142837518836,0.3573708236217499,-1.1084799629500885,1.5995739142047327,-2.0600997410216273,-1.571465317402975,2.3323307037353516,-0.00041999557288363576,0.024328751489520073,0.022651318460702896,-0.06321516633033752,-0.0,3.044697041332256e-05,0.07661445438861847,0.17238251864910126,-9.232041358947754,0.6456586718559265,47.64031219482422,-0.42339998483657837,-3.504769802093506,-1.701125144958496,-0.6000531315803528,0.03330017998814583,-0.022153500467538834,24.875,25.875,24.75,27.5625,28.5625,29.0
1.0,-0.7212857102668258,-0.3460211553029135,-0.19831191947528584,-0.017085878902055533,-0.019131173689186945,-0.07603817970411508,-0.5475763943917275,-0.34803259579380613,0.058731594026943945,-3.078555745287732,0.6246741849198808,-0.00022249824861101877,-0.005287296193988388,-0.0017399337811007274,-0.019629941288463102,-0.005883610422379381,0.015459409796437869,-0.0004354048802027247,0.357394814491272,-1.1084080201438447,1.599633518849508,-2.0602671108641566,-1.57147723833193,2.3323307037353516,-0.0003819220291916281,0.024774692952632904,0.023185521364212036,-0.06450118869543076,-0.0,2.994048918480985e-05,0.17238251864910126,0.1149216815829277,-9.27034854888916,0.7687462568283081,47.67882537841797,-0.460016667842865,-3.3788959980010986,-1.7220251560211182,-0.570440411567688,0.02689499221742153,-0.021970223635435104,24.875,25.875,24.75,27.5625,28.5625,29.0
1.0,-0.6674190882993835,-0.16280091609823372,-0.08102972400791622,-0.01269884228245814,-0.015911356619072003,-0.07796101703016943,-0.5475669202502398,-0.3480453068751367,0.058696073276538696,-3.0785678131099434,0.6246191707656911,-0.00022055207036892005,-0.00588903229376446,-0.0019868223611756016,-0.0196448174615301,-0.006394478612441198,0.016812071774431385,-0.00040577968515715924,0.3574187755584717,-1.1083718699267884,1.5996807257281702,-2.0603519878783167,-1.57147723833193,2.3323187828063965,-0.0003520037862472236,0.025413699448108673,0.022657165303826332,-0.06605775654315948,-0.0,2.9450669899233617e-05,0.2298433631658554,0.15322890877723694,-9.346963882446289,0.7217512726783752,47.704795837402344,-0.4353586435317993,-3.370267868041992,-1.7311632633209229,-0.5361390709877014,0.015311835333704948,-0.012913692742586136,24.875,25.875,24.75,27.5625,28.5625,29.0
1.0,0.06797405843794505,-0.02581996006435946,-0.22641828171316639,-0.006248752264122775,-0.004711571086262059,-0.07730092973674577,-0.5475994766142364,-0.3480451186863668,0.0586764705428903,-3.078602022353115,0.6247227330108285,-0.00012050167492923075,-0.005983689159904632,-0.0020397491136278046,-0.019905324949844483,-0.006428433255273365,0.016900277916613367,-0.0003799874853460771,0.357394814491272,-1.108335868721344,1.5997055212603968,-2.060495515862936,-1.571465317402975,2.33235502243042,-0.00032645929604768753,0.02588769793510437,0.022705966606736183,-0.06667506694793701,-0.0,2.8976539397262968e-05,0.19153614342212677,0.15322890877723694,-9.232041358947754,0.6702793836593628,47.66539001464844,-0.4953332245349884,-3.3568923473358154,-1.6714662313461304,-0.5076685547828674,0.012556297704577446,-0.014168387278914452,24.875,25.875,24.75,27.5625,28.625,29.0
1.0,-0.25064562509918753,0.21467543180274756,-0.0036601046025077503,-0.0018797471456543716,-0.011802336808130342,-0.07441415464770568,-0.5475940989027429,-0.3480713621406972,0.05862298879809505,-3.0786492745043237,0.6246357763941138,-8.352264566163519e-05,-0.005334931405186535,-0.001811163005321895,-0.02047487296018026,-0.005757803629429387,0.015114230891505308,-0.0003568040227139274,0.3574308156967163,-1.1082758766463776,1.5997775236712855,-2.060662885705465,-1.5714533964740198,2.3323307037353516,-0.0003043731558136642,0.026079701259732246,0.023508522659540176,-0.06576182693243027,-0.0,2.8517442842712626e-05,0.09576806426048279,0.019153613597154617,-9.289502143859863,0.7396538853645325,47.68598937988281,-0.4869307279586792,-3.337895393371582,-1.707589864730835,-0.5070319175720215,0.011554413475096226,-0.011483020149171352,24.875,25.875,24.75,27.5625,28.625,29.0
1.0,-0.12774936628545205,0.3206606702141055,-0.196020672369612,0.008675084846038263,-0.015542195260372663,-0.07840959250766455,-0.54761504023398,-0.34804722806558286,0.058586156062780004,-3.07862432123152,0.6246883589308536,-4.8466325520468165e-05,-0.004585554910985144,-0.0015425243316010279,-0.02123561603725857,-0.004818346031946999,0.012614423637590482,-0.0003361043878380694,0.35739484429359436,-1.108227716093399,1.5998128096209925,-2.0607577762999476,-1.57147723833193,2.3323307037353516,-0.00028508546529337764,0.02664579264819622,0.024063924327492714,-0.06421280652284622,-0.0,2.807270357152447e-05,0.05746084079146385,-0.038307227194309235,-9.404424667358398,0.7441308498382568,47.71733474731445,-0.490387499332428,-3.3403258323669434,-1.7074257135391235,-0.5080965757369995,0.011294476687908173,-0.01749570295214653,24.875,25.875,24.75,27.5625,28.625,29.0
1.0,0.23326717915804562,0.3956902363097249,-0.05513025792441149,0.012878246131523144,-0.010326236004942695,-0.07646168938112036,-0.5476256475057397,-0.34804725812070386,0.05853995725313818,-3.0786226771617224,0.6247072257256857,-6.894070188304535e-06,-0.004228311644520586,-0.0013847860879365684,-0.02126436340160085,-0.0043930410074088195,0.011484995077002633,-0.0003694427746257658,0.357394814491272,-1.1081678134253998,1.5998604933368128,-2.0608889065184535,-1.5714896360980433,2.3323426246643066,-0.0003195081080775708,0.026480525732040405,0.02405652403831482,-0.0628332868218422,-0.0,2.764161763479933e-05,0.05746084079146385,-0.038307227194309235,-9.366117477416992,0.7083203792572021,47.6976318359375,-0.49022358655929565,-3.3418922424316406,-1.6454286575317383,-0.5302329659461975,0.019545897841453552,-0.027423247694969177,24.875,25.875,24.75,27.5625,28.625,29.0
1.0,0.41819187453876183,0.44978476006162904,0.012069702177971063,0.015568175692989232,-0.005255369189735165,-0.09001636051352183,-0.5476231426347201,-0.34808616432049566,0.058505779534662405,-3.0786968323125268,0.6246074328997547,-1.7381103514185984e-05,-0.003676564829567361,-0.0011885166495370506,-0.02183128571478576,-0.0034687874056110526,0.009021987845033988,-0.00034014523576277966,0.3574308156967163,-1.108107791548111,1.599872891102926,-2.060983797112936,-1.5714414755450647,2.3323068618774414,-0.0003035981790162623,0.027246298268437386,0.023753009736537933,-0.060664836317300797,-0.0,1.5390081898658536e-05,0.07661445438861847,-0.019153613597154617,-9.174580574035645,0.6568484306335449,47.645687103271484,-0.4970560073852539,-3.3391098976135254,-1.5900213718414307,-0.5481666326522827,0.020951751619577408,-0.010116728022694588,24.875,25.875,24.75,27.5625,28.625,29.0
1.0,-0.079228644125442,0.5797012043099434,0.12746153062732718,0.007154592679637244,-0.014930447390111727,-0.0755185852662205,-0.5476206778254892,-0.34807329760597167,0.0584575049620919,-3.0786759313787577,0.6246606838187377,-7.218264617359392e-06,-0.0037864800996935608,-0.0012407612591745186,-0.021804474660128324,-0.003610589909680657,0.009399063586949932,-0.00032235779143428454,0.35741880536079407,-1.1080717605403443,1.5999568144427698,-2.061103960076803,-1.5714533964740198,2.3323307037353516,-0.00028746173484250903,0.027272554114460945,0.023753128945827484,-0.06109406799077988,-0.0,1.3525081158149987e-05,0.0,-0.09576806426048279,-9.174580574035645,0.6590895652770996,47.700321197509766,-0.5260807275772095,-3.382512331008911,-1.6035406589508057,-0.570759654045105,0.022900573909282684,-0.01574527472257614,24.875,25.875,24.75,27.5625,28.625,29.0
1.0,-0.012722886821500384,0.6332193754666693,0.19700552942935126,0.011501465341843774,-0.014527749660368416,-0.07837504981347565,-0.5476284531521827,-0.34806816003722246,0.0584056348191368,-3.0786817246877267,0.6246619308072969,7.164826938147204e-06,-0.0031907796740875526,-0.001026781969811247,-0.022389710852505157,-0.0028352722202011713,0.007335096792932297,-0.00030668679071847813,0.357406884431839,-1.108011619453766,1.6000168959247034,-2.061235090295309,-1.5714533964740198,2.3323187828063965,-0.0002729312109295279,0.027745001018047333,0.024080628529191017,-0.0596892274916172,-0.0,1.3219727406976745e-05,0.019153613597154617,-0.1149216815829277,-9.174580574035645,0.7530794739723206,47.6949462890625,-0.49687331914901733,-3.318474292755127,-1.4098708629608154,-0.5560880303382874,0.018428780138492584,-0.016975432634353638,24.875,25.875,24.75,27.5625,28.625,29.0
1.0,0.02975292009270189,0.43745677660418314,0.2946858382160638,0.013317598403604969,-0.011184090147564116,-0.08214877391987083,-0.5476411869362634,-0.3480810823173252,0.058326122303491684,-3.0786921119889348,0.6247031394831534,5.239420520676888e-05,-0.0006068192112754309,-5.476830054334473e-05,-0.02533870036429628,4.160964846802329e-05,-0.0003256339571019448,-0.00030588807633211477,0.35741880536079407,-1.1079031986049195,1.600088898335592,-2.0614496670165003,-1.5714533964740198,2.33235502243042,-0.0002749589621089399,0.029480889439582825,0.027566997334361076,-0.05672837421298027,-0.0,1.2835327652283013e-05,0.038307227194309235,-0.09576806426048279,-9.193734169006348,0.6948947906494141,47.651058197021484,-0.5309276580810547,-3.3397603034973145,-1.5080018043518066,-0.6332017183303833,0.016686752438545227,-0.007985027506947517,24.875,25.875,24.75,27.5625,28.625,29.0
1.0,0.2896797883686901,0.6428919040459711,0.3976657553536077,0.00588703019242709,-0.01061391134916103,-0.08413371787447062,-0.5476481199442897,-0.3480799038654556,0.058278245995279504,-3.0786959870826585,0.6246649879705893,7.76990065978614e-05,-0.0007439118116956238,-0.00010557598327847178,-0.025691727336337802,-0.00029483662437208245,0.0005667463847003926,-0.00030789371978057136,0.35741880536079407,-1.1078432959369202,1.600138012562887,-2.0615703068175257,-1.571465317402975,2.3323307037353516,-0.00027630283148027956,0.02969558723270893,0.028532370924949646,-0.05886214226484299,-0.0,1.2654822967306245e-05,0.1149216741323471,-0.07661445438861847,-9.117119789123535,0.6837049722671509,47.6367301940918,-0.5195598602294922,-3.377162456512451,-1.542345643043518,-0.6370940208435059,0.019005730748176575,-0.019536219537258148,24.875,25.875,24.75,27.5625,28.625,29.0
1.0,-0.22557366897828254,0.4298461351287966,0.28846490149017023,0.015171960069802965,-0.030459916135006298,-0.07285630346517172,-0.5476323591757105,-0.34808646514328434,0.05819735435108167,-3.078664505452542,0.6246393153244567,2.214874820586027e-05,-9.590057624617523e-05,0.0001302282724878782,-0.02607573282755571,0.0005623738295974967,-0.0017133800675286485,-0.0002951642299747445,0.3574427664279938,-1.1077474814704438,1.6002095381366175,-2.06168856243276,-1.57147723833193,2.3323426246643066,-0.00026486528804525733,0.029947271570563316,0.02855338715016842,-0.05669890716671944,-0.0,1.2479339602577966e-05,0.2106897532939911,-0.05746084079146385,-9.117119789123535,0.7553206086158752,47.718231201171875,-0.5451323390007019,-3.367332696914673,-1.4803359508514404,-0.656248927116394,0.018369097262620926,-0.02368459478020668,24.875,25.875,24.75,27.5625,28.625,29.0
1.0,-0.053164976564737315,0.4175726116289037,0.2674652519817188,0.02301750029090044,-0.03645975455324543,-0.07395677210257616,-0.5476524264696621,-0.3480777574270955,0.0581877394133643,-3.0786827096372487,0.624739583651148,0.00011677195349301314,0.0007487465718988354,0.0004643443746833809,-0.027368391633243925,0.0017871650923244236,-0.004978510943612081,-0.00031902671365411966,0.35741880536079407,-1.1077470642379303,1.6002572218524378,-2.061807771722311,-1.57147723833193,2.33237886428833,-0.00028998483321629465,0.0312761627137661,0.029231378808617592,-0.055218495428562164,-0.0,1.2308682016737293e-05,0.15322890877723694,-0.019153613597154617,-9.136273384094238,0.7060845494270325,47.703006744384766,-0.5587671995162964,-3.303281307220459,-1.5006864070892334,-0.7269128561019897,0.006892471574246883,-0.010932298377156258,24.875,25.875,24.75,27.5625,28.625,29.0
1.0,-0.1200170427236385,0.21552074639053026,0.3191073888369259,0.02729057574162053,-0.04232988866709639,-0.07382249469280647,-0.5476310153826733,-0.34809362464521837,0.058112765243219205,-3.078704076786573,0.6246093157294113,3.3195831875906365e-05,0.0006006143816587005,0.0004044278454350264,-0.02814906401631518,0.0018726595153307425,-0.005214608820238197,-0.00031373114378347935,0.3574427664279938,-1.1076626640609284,1.6003297011004847,-2.0619169674315394,-1.5714533964740198,2.3323187828063965,-0.00028448388911783695,0.03261462226510048,0.029347456991672516,-0.056421950459480286,-0.0,1.2142617379140574e-05,0.07661445438861847,0.019153613597154617,-9.040505409240723,0.7239871025085449,47.704795837402344,-0.5779012441635132,-3.4326400756835938,-1.4679510593414307,-0.7467508316040039,0.018913712352514267,-0.02112169936299324,24.875,25.875,24.75,27.5625,28.625,29.0
1.0,0.05763099926658671,0.6905812402900736,0.43537448143995283,0.008080535902324857,-0.03479746777928294,-0.0767677673889394,-0.5476271652651021,-0.34806832385836506,0.058051518007244785,-3.0786485737050366,0.6246555273824542,-1.0020710210282558e-05,0.0009103175055038791,0.0005352677303541858,-0.028166004855916447,0.0018950240371528534,-0.005270478832725811,-0.00033467652114669915,0.35741880536079407,-1.107602910404541,1.600400749837057,-2.062000413934225,-1.57147723833193,2.3323307037353516,-0.00030552729731425643,0.031969375908374786,0.030381061136722565,-0.05675014108419418,-0.0,1.1980973795289174e-05,0.13407529890537262,-0.019153613597154617,-8.983044624328613,0.6993717551231384,47.71554183959961,-0.5789360404014587,-3.354675769805908,-1.499701738357544,-0.7609630823135376,0.01891651749610901,-0.030460337176918983,24.875,25.875,24.75,27.5625,28.625,29.0
1.0,0.104294140071091,0.2795305804012468,0.4501566643809669,0.0029383793221819023,-0.01859481365333279,-0.07954732168247626,-0.547625455987549,-0.3480834836210962,0.0579966445541123,-3.078672557403663,0.6246412657102526,-2.9272109751745385e-05,0.0008177291565237416,0.0005231704713717688,-0.028200124300999056,0.001656118827706047,-0.004634665902094629,-0.0003684386668507397,0.3574308156967163,-1.1075310570052643,1.6004484335528772,-2.062120576898092,-1.5714533964740198,2.3323307037353516,-0.00033899853588081896,0.03184717521071434,0.030866485089063644,-0.057792581617832184,-0.0,1.182358118967386e-05,0.13407529890537262,0.0,-9.002198219299316,0.6769921779632568,47.699424743652344,-0.6085036396980286,-3.2782018184661865,-1.4718276262283325,-0.8017277717590332,0.01503053866326809,-0.021982064470648766,24.875,25.875,24.75,27.5625,28.625,29.0
1.0,-0.2515685589496278,0.1380969947419839,0.46674147681437167,-0.006506586461839359,-0.020138538001269763,-0.07357609207401143,-0.547651751020264,-0.3480655457779467,0.05796547734770782,-3.0786568476352647,0.6246573576595417,4.6967826903560246e-05,0.0007217179706066752,0.0005153701669524528,-0.02905133205413659,0.0017647457242922584,-0.004923790562438049,-0.0004096678286679208,0.3574068546295166,-1.107482687836029,1.600473705922262,-2.0622288189330042,-1.5714896360980433,2.3323187828063965,-0.0003799842670559883,0.03313740715384483,0.031242989003658295,-0.05915044993162155,-3.1619433684682008e-06,1.1670266758301295e-05,0.019153613597154617,0.1149216815829277,-9.097966194152832,0.6993717551231384,47.7191276550293,-0.5688261985778809,-3.349881410598755,-1.4888921976089478,-0.7996214032173157,0.007694542407989502,-0.022447677329182625,24.875,25.875,24.75,27.5625,28.625,29.0
1.0,-0.6118268094453663,-0.39906272778841867,0.35978990458289556,-0.002992732796429612,-0.013847944952610634,-0.07208035650258893,-0.5476514752256355,-0.34806529154570953,0.05790531509402874,-3.078628411878714,0.6247674726878558,3.147800940079465e-05,0.0003935476630857646,0.0008690097068962886,-0.029594707696472034,0.0016548429295935824,-0.004644769439185567,-0.0011149751082891771,0.3574065864086151,-1.1074105960181733,1.6005328337298792,-2.0623485050597132,-1.5714896360980433,2.332390785217285,-0.001084862626157701,0.03378196805715561,0.031905706971883774,-0.060757581144571304,-2.0645231302296452e-07,1.1520874068082776e-05,-0.019153613597154617,0.17238251864910126,-9.040505409240723,0.7262282371520996,47.685096740722656,-0.5299409031867981,-3.3889808654785156,-1.4937494993209839,-0.8305849432945251,0.010130101814866066,-0.027808265760540962,24.875,25.875,24.75,27.5625,28.625,29.0
1.0,-0.7228146326426275,-0.40441168323425764,0.1905390513435523,-0.016724464747829047,-0.010052085069417956,-0.06804826869095892,-0.5476029638005409,-0.3480504881449625,0.057803750347204474,-3.0786051068021307,0.6246858708130547,-0.0001741357976859268,0.00021155736509419716,0.0008527591963656649,-0.030214731610371505,0.0013639546887636068,-0.003877022784655936,-0.0011933706184838156,0.3573945164680481,-1.1073385936072846,1.6006773153888147,-2.0624333820738734,-1.5714533964740198,2.3323307037353516,-0.001162453554570675,0.03441144898533821,0.032967615872621536,-0.0632699728012085,-1.3479860783149888e-08,1.1375254871381912e-05,0.15322890877723694,0.15322890877723694,-9.155426979064941,0.6971306204795837,47.68330383300781,-0.5186358690261841,-3.398799419403076,-1.5267338752746582,-0.8398712873458862,0.014001751318573952,-0.03594353422522545,24.875,25.875,24.75,27.5625,28.625,29.0
1.0,-0.4862092492298521,-0.01633783686951565,0.2665688060834809,-0.02958247874839589,0.0002358746588743063,-0.0809475945140184,-0.5476159421124382,-0.3480636013959647,0.05776687401337263,-3.0786168830383183,0.6247270276406205,-0.0001251539316844945,-8.615513482528671e-05,0.0006909595878980602,-0.031219805883529232,0.001077414079704536,-0.003125487752829163,-0.0011162364572519117,0.3574066162109375,-1.1072782141021271,1.600701157246725,-2.062554498712057,-1.5714533964740198,2.332366943359375,-0.0010898257605731487,0.03584255650639534,0.03389247879385948,-0.0664302408695221,-8.801385176226972e-10,5.696056632586988e-06,0.15322890877723694,0.17238251864910126,-9.117119789123535,0.6904177665710449,47.674346923828125,-0.5180187225341797,-3.407527446746826,-1.4743452072143555,-0.839104175567627,0.018612485378980637,-0.034584805369377136,24.875,25.875,24.75,27.5625,28.625,29.0
1.0,-0.22162340329981214,-0.06552071875271555,0.3935482113014456,-0.028267404258701563,0.004361304395525555,-0.08593969687869564,-0.5476277027007969,-0.3480723586054786,0.05770410187471767,-3.078625151066004,0.6246706287711947,-9.841236985987908e-05,-0.0013811645308559597,0.00013187493174701123,-0.031184769539964203,-0.0005080314343724661,0.0010844530016150009,-0.0010074890946650589,0.35741856694221497,-1.1071822506240387,1.6007378737079065,-2.062699934045309,-1.571465317402975,2.3323426246643066,-0.0009838590631261468,0.03646930307149887,0.03411857411265373,-0.07178166508674622,-5.746675704743076e-11,3.719117955824913e-07,0.15322890877723694,0.19153612852096558,-9.117119789123535,0.7083203792572021,47.68061828613281,-0.6236928701400757,-3.434575080871582,-1.5213284492492676,-0.8117064833641052,0.02248196303844452,-0.028186950832605362,24.875,25.875,24.75,27.5625,28.625,29.0
1.0,-0.32356746310578566,-0.3679010037383811,0.21468173689474918,-0.028089779066367827,0.005679987727821273,-0.07997992608582898,-0.5476224262369859,-0.34804636689796625,0.057639517156251485,-3.078605583628447,0.6246668725151013,-7.674972340228097e-05,-0.002304774224812124,-0.00021806124537296467,-0.030334916464743525,-0.0022078781096131514,0.0056119828561306696,-0.0010049035311299425,0.35739460587501526,-1.107146607046463,1.6008699576007288,-2.062868734399313,-1.5714896360980433,2.3323187828063965,-0.0009793464560061693,0.03511711210012436,0.03515343368053436,-0.07630044966936111,-3.752168714621362e-12,2.4283185240392413e-08,0.13407529890537262,0.24899697303771973,-9.097966194152832,0.6568484306335449,47.70838165283203,-0.5489319562911987,-3.34077787399292,-1.50693678855896,-0.7612185478210449,0.007127854973077774,-0.019792256876826286,24.875,25.875,24.75,27.5625,28.625,29.0
1.0,-0.5755752357000299,-0.5691044910890339,0.06023520792001965,-0.02731410182758825,-0.00270244215506483,-0.07686906766579646,-0.5476280966268525,-0.3480444137266476,0.05756934720242596,-3.0786042452361118,0.6246666860035166,-0.00011750095750280131,-0.002493420268122784,-0.00030832980149138426,-0.03108496343804251,-0.0025763908148363104,0.006586055677087289,-0.0009781000188898604,0.3573826849460602,-1.1070504945567627,1.6009176413165491,-2.0629898510374964,-1.57147723833193,2.3323068618774414,-0.0009513849508948624,0.03587194159626961,0.03645755350589752,-0.07940084487199783,-2.4498981944683085e-13,1.585518383251383e-09,0.05746084079146385,0.2298433631658554,-9.136273384094238,0.7620334029197693,47.69584274291992,-0.5866173505783081,-3.342909812927246,-1.6363306045532227,-0.7412610054016113,0.0063803549855947495,-0.04316233843564987,24.875,25.875,24.75,27.5625,28.625,29.0
1.0,-1.096652632850427,-0.7550556417701902,-0.021505832140142504,-0.028146394822126115,-0.015118196641429126,-0.06729386012551183,-0.547633674439085,-0.3480584712637574,0.05749845442701823,-3.078613963951479,0.6247069453950979,-0.00010953714288425231,-0.003925378877400342,-0.0008743482375442736,-0.032081813456393035,-0.003967393379234751,0.010267376038234006,-0.0009416418660971619,0.35739463567733765,-1.106953964834549,1.6009772459613245,-2.0631596050658167,-1.571465317402975,2.3323426246643066,-0.0009120209724642336,0.038191501051187515,0.03688677400350571,-0.08608496934175491,-1.5996083377691796e-14,1.0352302348692888e-10,0.019153613597154617,0.2298433631658554,-9.21288776397705,0.6837049722671509,47.70390319824219,-0.5966978073120117,-3.416257858276367,-1.5654855966567993,-0.6798430681228638,0.02622448094189167,-0.030879128724336624,24.875,25.875,24.75,27.5625,28.625,29.0
1.0,-0.5352794478979188,-0.861752036334299,-0.18194509153735028,-0.027539050643463493,-0.002499263355760297,-0.07487120948477008,-0.547622915295257,-0.34804254442638627,0.05741221024229615,-3.078584581143498,0.6247400566389427,-0.00013050793405243276,-0.00486911158109508,-0.0012122168064570462,-0.03192926114898307,-0.004719674486848023,0.012262437536883105,-0.0009679140463717509,0.3573826849460602,-1.1068817240050812,1.6011083761798304,-2.0633398495116175,-1.57147723833193,2.33235502243042,-0.0009372594067826867,0.0390191450715065,0.03578205779194832,-0.08794007450342178,-1.0444299522054156e-15,6.759313594950633e-12,0.17238251864910126,0.19153612852096558,-9.308656692504883,0.7127973437309265,47.6895751953125,-0.558731198310852,-3.503265857696533,-1.4516475200653076,-0.627606213092804,0.02191183529794216,-0.045579299330711365,24.875,25.875,24.75,27.5625,28.625,29.0
1.0,-0.6649414604200972,-0.7755513490738115,-0.16260126437675532,-0.02783593044620254,-0.0030396500878099595,-0.07864776216765312,-0.5476364572315917,-0.34805147781375234,0.05736069744503711,-3.078628679020168,0.6246719455756048,-9.197331549352965e-05,-0.004588258306199765,-0.0010964174314982648,-0.03223758365965519,-0.0050100753488190024,0.013038223868747485,-0.0009837221047788202,0.3573826849460602,-1.1068100494197388,1.601157013569967,-2.0634967289366664,-1.571465317402975,2.3323068618774414,-0.0009522178443148732,0.038316961377859116,0.038005005568265915,-0.09028919786214828,-6.819381525516587e-17,4.4133487554602613e-13,0.13407528400421143,0.2298433631658554,-9.289502143859863,0.6971306204795837,47.6976318359375,-0.5537256002426147,-3.477149248123169,-1.5568103790283203,-0.6122313737869263,0.002496915403753519,-0.024536382406949997,24.875,25.875,24.75,27.5625,28.625,29.0
1.0,-0.24927529144883143,0.019074781520821316,-0.1578147074904685,-0.026612479639944883,-0.001752607541065836,-0.08233340087840958,-0.5476600782961166,-0.3480646731374178,0.05722458137541425,-3.07864257178831,0.6247132599268702,-3.3761434875167507e-06,-0.00423796866272589,-0.0008735953162713072,-0.03402835959425358,-0.0044157363224800635,0.011443348830084785,-0.001119691752240396,0.3573945462703705,-1.106629566555359,1.6012886206256312,-2.0638681850829066,-1.57147723833193,2.3323426246643066,-0.0010878525208681822,0.0403268039226532,0.03959106281399727,-0.09218308329582214,-2.907208980878871e-19,1.8814799809016135e-15,0.09576806426048279,0.26815059781074524,-9.327810287475586,0.7150384783744812,47.686885833740234,-0.5886631011962891,-3.4637434482574463,-1.572998285293579,-0.5373727083206177,0.018279731273651123,-0.01885075867176056,24.875,25.875,24.75,27.5625,28.625,29.0
1.0,-0.6669340941211471,-0.11631114395677417,-0.27481964588566765,-0.0068414181441081735,-0.03041450353642182,-0.07344185869581563,-0.5476829446163476,-0.34805257355178576,0.05718324465662372,-3.078677881661561,0.6247785191254668,8.028618717256978e-05,-0.0036309290692585205,-0.0003677450788453218,-0.03487861621676648,-0.0034940153049342823,0.008989478190931599,-0.0015281584148755074,0.3573583960533142,-1.1065936547568818,1.601373020802633,-2.064058919946188,-1.571465317402975,2.3323426246643066,-0.0014971948694437742,0.040961358696222305,0.04031786695122719,-0.09092316776514053,-1.8981996909611963e-20,1.228471868086511e-16,0.17238251864910126,0.13407529890537262,-9.308655738830566,0.7284641265869141,47.72629165649414,-0.6122326254844666,-3.5408663749694824,-1.6440683603286743,-0.5445504188537598,0.01607518643140793,-0.029911836609244347,24.875,25.875,24.75,27.5625,28.625,29.0
1.0,-0.08852503954794445,0.2053507633973159,-0.21825582264760934,0.011804054246994957,-0.031823126508785535,-0.07380679427319788,-0.5476797957956502,-0.3480840742596222,0.057102942364977205,-3.078712503961219,0.624670354898015,0.00011060119370238584,-0.00316354764443888,-0.00026675735648608485,-0.03540454715297553,-0.0026055145130718417,0.006620253943584009,-0.0014175178209716694,0.35740649700164795,-1.1064854723266144,1.6014445463763636,-2.064261575738424,-1.571465317402975,2.3323187828063965,-0.0013876858865842223,0.04190018028020859,0.039658159017562866,-0.08867193758487701,-1.2393887840364964e-21,8.021043841292989e-18,0.17238251864910126,0.07661445438861847,-9.251194953918457,0.6948947906494141,47.679718017578125,-0.5952562093734741,-3.459679126739502,-1.6090991497039795,-0.525813639163971,0.013725138269364834,-0.04135403782129288,24.875,25.875,24.75,27.5625,28.625,29.0
1.0,-0.021380020984524295,0.3772652198614068,-0.22529349121349035,0.023565639247035832,-0.04542298121966896,-0.07478531419675563,-0.5476807275009515,-0.3480682393913199,0.05699788046257656,-3.0786747116961917,0.6247592070429414,6.116705360687453e-05,-0.002413062894940428,-4.463630263755805e-05,-0.03575089029961013,-0.0016359176107512315,0.004041805623835798,-0.0013277098099996939,0.35738256573677063,-1.1063655477813263,1.6015523115741175,-2.0644523106017054,-1.571465317402975,2.33235502243042,-0.0012992089614272118,0.04211306944489479,0.039540261030197144,-0.08601219952106476,-8.092323230196944e-23,5.23716790333608e-19,0.17238251864910126,0.038307227194309235,-9.27034854888916,0.6769921779632568,47.6895751953125,-0.5468590259552002,-3.7056097984313965,-1.5540754795074463,-0.5588811635971069,0.0056649865582585335,-0.02907327003777027,24.875,25.875,24.75,27.5625,28.625,29.0
1.0,0.5480892762185186,0.6233264763049358,-0.20643018099269198,0.02421614652121537,-0.03704256244335118,-0.08065797689321942,-0.5476838236405668,-0.34806511082167063,0.05694537208647721,-3.078692532475852,0.6247821411772104,8.071757652877247e-05,-0.0008897600832782418,0.0004034907639891821,-0.03661154068559484,-0.0002040062482154964,0.0002358229341458684,-0.001142574254834426,0.3573705852031708,-1.106317715053894,1.6016367117511194,-2.0646068058409632,-1.5714533964740198,2.33235502243042,-0.0011156940599903464,0.041924815624952316,0.041155602782964706,-0.08337285369634628,-5.283708696066647e-24,3.419496797634593e-20,0.2106897532939911,-0.019153613597154617,-9.289502143859863,0.6434228420257568,47.718231201171875,-0.5857393741607666,-3.655416965484619,-1.6050403118133545,-0.5637759566307068,0.014541257172822952,-0.038049373775720596,24.875,25.875,24.75,27.5625,28.625,29.0
1.0,0.18127764933575263,0.5471459969990194,-0.14889407921218586,0.0278806725391154,-0.04013794588397265,-0.07537478594892534,-0.5477183659529365,-0.34804651090162714,0.056896371377935684,-3.0786910750756555,0.6247429692474823,0.00019951378637139922,-3.9505406648050745e-05,0.0005860858645211856,-0.036403127037812934,0.0002655241551385752,-0.001004183779770379,-0.0009392052355268244,0.35734668374061584,-1.1062461894801636,1.601684872304098,-2.0647856197752894,-1.5715015570269983,2.3323068618774414,-0.0009131258702836931,0.040649715811014175,0.04214859381318092,-0.0817648246884346,-3.4498842281245597e-25,2.2326868929738488e-21,0.19153612852096558,-0.15322890877723694,-9.251194953918457,0.6568484306335449,47.654640197753906,-0.5650020241737366,-3.5655648708343506,-1.6224262714385986,-0.6057571768760681,-0.0029293345287442207,-0.029648369178175926,24.875,25.875,24.75,27.5625,28.625,29.0
1.0,0.3371868896289074,0.8261849000549164,-0.11501527285715996,0.01329783092329577,-0.030244966141280034,-0.07356964266636988,-0.5477167731141201,-0.3480895934488452,0.056860137161481444,-3.078764620570132,0.6247966855226459,0.0002288293415932857,0.00017050827582021263,0.0007333337731982023,-0.037299033176835174,0.0013115342221787553,-0.0031568156175437595,-0.000933418331312071,0.35738271474838257,-1.106197790508606,1.60173207918276,-2.0649410686888636,-1.5714414755450647,2.332366943359375,-0.0009084779303520918,0.04235759750008583,0.04140911623835564,-0.08034984767436981,-0.00022508867550641298,1.457784913025159e-22,0.19153612852096558,-0.15322890877723694,-9.21288776397705,0.6881819367408752,47.692256927490234,-0.6238529086112976,-3.602426528930664,-1.530598521232605,-0.6113694906234741,0.01569882035255432,-0.024034999310970306,24.875,25.875,24.75,27.5625,28.625,29.0
1.0,0.13235981343605208,0.6969564455185185,-0.13556747688986584,0.0207756653393045,-0.03184242241038673,-0.07225278367877544,-0.5476780697375544,-0.3480755445326725,0.056734376336782494,-3.0786898266113516,0.6247433103431513,8.815003168413156e-05,0.0010588108495396197,0.0011282020601111446,-0.038021143757171263,0.0023730810063382016,-0.005936222280686993,-0.0010148328543868599,0.35739460587501526,-1.1060777765563508,1.6018756071673792,-2.0650841198363246,-1.571465317402975,2.33235502243042,-0.0009910939261317253,0.042666736990213394,0.04216981679201126,-0.0784444734454155,-0.0002408661093795672,9.51829470820086e-24,0.17238251864910126,-0.15322890877723694,-9.193734169006348,0.7150384783744812,47.70121383666992,-0.6012412905693054,-3.618495464324951,-1.6005197763442993,-0.6668665409088135,0.01367504894733429,-0.0357382632791996,24.875,25.875,24.75,27.5625,28.625,29.0
1.0,0.14799966684975932,0.7504519083653697,-0.13152595220198512,0.020050518592935995,-0.03194899557072452,-0.07399953310321165,-0.5476928728266443,-0.3480648715048945,0.05666217068501264,-3.078689336855685,0.6247427659460327,8.59601346023619e-05,0.0017227991760671555,0.001414266889833989,-0.038770473244221004,0.0033214788790751383,-0.008492881111712279,-0.0010729275413153554,0.35737061500549316,-1.1059818726829072,1.6019356886493128,-2.0652386150755824,-1.571465317402975,2.3323307037353516,-0.0010502091608941555,0.04339239001274109,0.04243088886141777,-0.07670434564352036,-0.00023035495541989803,6.214766019581111e-25,0.09576806426048279,-0.2106897532939911,-9.232041358947754,0.6904177665710449,47.679718017578125,-0.6485800743103027,-3.6373682022094727,-1.521432876586914,-0.7025933861732483,0.0074209957383573055,-0.028897415846586227,24.875,25.875,24.75,27.5625,28.625,29.0
1.0,0.04458088420588799,0.20508608945320989,-0.08938308421061018,0.034854747692147386,-0.03570429713756356,-0.0722918098781681,-0.5476874702009475,-0.3480546591314988,0.05656360354179335,-3.078659008045326,0.6247951047508071,3.67486018440972e-05,0.0024067851969941595,0.0017997842733131924,-0.03910408917867142,0.004000301095639685,-0.010327926090745438,-0.001266581390009637,0.35735848546028137,-1.105874018078186,1.6020434538470667,-2.0654174290099085,-1.571465317402975,2.33235502243042,-0.0012446753680706024,0.043117765337228775,0.04326417297124863,-0.0753064751625061,-0.00021924692555330694,4.057798191058239e-26,0.17238251864910126,-0.07661445438861847,-9.193734169006348,0.6590895652770996,47.71733474731445,-0.5544736981391907,-3.634310722351074,-1.5794036388397217,-0.7275389432907104,0.017135586589574814,-0.04044643044471741,24.875,25.875,24.75,27.5625,28.625,29.0
1.0,0.5528461470918642,0.9477252030730661,-0.30705540889857974,0.018614550443070917,-0.02461285644107656,-0.07893666451494447,-0.5476925493223208,-0.348036550817099,0.05650169030332369,-3.0786288679578107,0.6248273596613719,1.352160315475528e-05,0.003163137941533433,0.002051742424142023,-0.03992392040232217,0.004983917732626654,-0.01297797911339708,-0.0012232185537314614,0.35733455419540405,-1.105801985864975,1.6021040121661585,-2.0655251942076625,-1.57147723833193,2.33235502243042,-0.0012023398885503411,0.043845921754837036,0.04369749501347542,-0.07364128530025482,-0.00020906665304210037,2.6494523280939496e-27,0.15322890877723694,-0.019153613597154617,-9.27034854888916,0.7262282371520996,47.679718017578125,-0.6001619100570679,-3.5941872596740723,-1.564309000968933,-0.7988485097885132,0.007387929130345583,-0.03380924090743065,24.875,25.875,24.75,27.5625,28.625,29.0
1.0,-0.20824349957678717,0.14042985654426182,-0.3727363588531272,0.024114198860634352,-0.0349053993797693,-0.06969262899112003,-0.5476583496656356,-0.3480437475601986,0.05640498658946699,-3.0786073241395546,0.6247649145480535,-0.00010647014118740116,0.002663099588734697,0.0020693366411644516,-0.040008355701001745,0.004201989901259509,-0.010924177526920369,-0.0015319955664968763,0.3573584258556366,-1.1057061117938538,1.6022117773639124,-2.065646310845846,-1.571465317402975,2.3323426246643066,-0.0015097198775038123,0.04371240735054016,0.04479053243994713,-0.07679841667413712,-0.00019978234195150435,1.7299028964870483e-28,0.13407529890537262,0.019153613597154617,-9.232041358947754,0.6993717551231384,47.68330383300781,-0.6629378795623779,-3.6035122871398926,-1.6220765113830566,-0.8201861381530762,-0.0022582304663956165,-0.041222989559173584,24.875,25.875,24.75,27.5625,28.625,29.0
1.0,-0.562615819992074,-0.3910251121158764,-0.40553614741138744,0.012777657490780796,-0.022891191248740728,-0.06579925806990496,-0.5476605738811942,-0.34804119814094925,0.056345842346587044,-3.0785848544244545,0.6247219304006527,-7.644179495449926e-05,0.0027845328427197253,0.0020531058261834445,-0.0406032241847521,0.00438282883267816,-0.011433997310844574,-0.0014453206666277842,0.3573704659938812,-1.105634019975998,1.6022713820086878,-2.06577791790151,-1.5715015570269983,2.3323307037353516,-0.0014229161897674203,0.044465262442827225,0.04519364982843399,-0.07741355150938034,-0.00019128795247524977,1.1295029932870434e-29,0.19153612852096558,0.1149216815829277,-9.251194953918457,0.7329410910606384,47.690467834472656,-0.6630151271820068,-3.6119396686553955,-1.5756076574325562,-0.8229023814201355,0.014123253524303436,-0.037048667669296265,24.875,25.875,24.75,27.5625,28.625,29.0
1.0,-0.1290907813273217,-0.14884309849219213,-0.09464598904157207,-0.010447387827736071,0.002594751056400004,-0.07391297478339821,-0.547669958391365,-0.3480357695915229,0.05628007107668778,-3.07864358526915,0.6247343738752171,-6.894653729777385e-05,0.0028897260652299183,0.001997950767554596,-0.04058099287774324,0.0039048340185208912,-0.010181649855730633,-0.0013103026161386043,0.35733452439308167,-1.1055741769126435,1.6023796240436,-2.065982004205221,-1.5714533964740198,2.3322949409484863,-0.0012870000209659338,0.043647170066833496,0.0467914417386055,-0.07953371852636337,-0.00018348710727877915,7.374847491239729e-31,0.2106897532939911,0.07661445438861847,-9.27034854888916,0.7284641265869141,47.67792892456055,-0.6424793601036072,-3.551973819732666,-1.7063469886779785,-0.8438447117805481,0.014743762090802193,-0.044139862060546875,24.875,25.875,24.75,27.5625,28.625,29.0
1.0,-0.9083437266035086,-0.421918164994914,-0.38546650596999155,-0.0227079700302842,0.0024461482111843924,-0.07239135743162355,-0.5476390160700884,-0.3480242284558531,0.056170850910490094,-3.0785778440043905,0.6247782733256995,-0.0002092920933788809,0.00193566012209489,0.0015393328429372144,-0.04047175070441452,0.0025971661803283522,-0.006727120571308576,-0.0011686932430892297,0.35733458399772644,-1.1054665011218567,1.6024988333331507,-2.066103597680563,-1.5714533964740198,2.3323307037353516,-0.0011433223262429237,0.04388977587223053,0.04717208072543144,-0.08385071158409119,-0.00017629741341806948,4.8152483328079734e-32,0.09576806426048279,0.15322890877723694,-9.27034854888916,0.6814691424369812,47.699424743652344,-0.7152704000473022,-3.466034412384033,-1.6860783100128174,-0.840994119644165,0.015377853997051716,-0.027734342962503433,24.875,25.875,24.75,27.5625,28.625,29.0
1.0,-0.9803256871322316,-0.6488299235909174,-0.2223289418060572,-0.029272462931733148,0.011225609268171758,-0.06848963156569522,-0.54763663330781,-0.34805161218975733,0.05609639688956891,-3.0786153992192324,0.6247092313472409,-0.00018745381472364241,-6.300893532514666e-05,0.0007991084801238931,-0.040655832645808826,-0.0002913102439835683,0.0009118984634633991,-0.0011967027925151184,0.35733458399772644,-1.1052866739085694,1.6026905218707483,-2.066465993920797,-1.571465317402975,2.33235502243042,-0.0011663499753922224,0.04438509792089462,0.04930680990219116,-0.09464764595031738,-0.00016348520875908434,2.052816064775107e-34,0.038307227194309235,0.15322890877723694,-9.27034854888916,0.6769921779632568,47.679718017578125,-0.6451315879821777,-3.5467562675476074,-1.728721261024475,-0.7667080163955688,0.011666415259242058,-0.0290817953646183,24.875,25.875,24.75,27.5625,28.625,29.0
1.0,-1.221748303051218,-1.2260568364887114,-0.3789529404830676,-0.023176392828580413,0.0035189927625091863,-0.06693447447623378,-0.5476565731777674,-0.34803528241845294,0.05595291400221625,-3.0786119207499048,0.6247662472828578,-9.82951345098896e-05,-0.001008808666474189,0.0005269344216546184,-0.03975362193396239,-0.0019893422767637307,0.005419559231127412,-0.0013239017844284846,0.3573465943336487,-1.105215237741806,1.6027630011187952,-2.066695352593893,-1.571465317402975,2.3323307037353516,-0.001291273394599557,0.04293501377105713,0.050337404012680054,-0.0990450456738472,-0.00015775351494085044,1.3403422232710622e-35,-0.019153613597154617,0.19153612852096558,-9.385271072387695,0.7127973437309265,47.6680793762207,-0.7085962295532227,-3.3508729934692383,-1.832472324371338,-0.7222722768783569,0.00787586160004139,-0.04710843414068222,24.875,25.875,24.75,27.5625,28.625,29.0
1.0,-0.806708739519357,-0.44169574313649346,-0.2827276439563374,-0.02918077124128792,0.0021495823945560776,-0.07343081164328007,-0.5476442532965424,-0.34802681265948576,0.0558453882998691,-3.0785718638930364,0.624758343093935,-0.00016623809520670762,-0.0027669376691270794,2.3513988886912234e-05,-0.04011773933021339,-0.0037961927227531628,0.010261813023651629,-0.0015520315986803134,0.35734647512435913,-1.1050948959640046,1.6028712431537073,-2.0668655834593714,-1.57147723833193,2.3323307037353516,-0.001516221440397203,0.044449519366025925,0.05054124817252159,-0.10593172907829285,-0.00017496818327344954,8.75147705884103e-37,0.038307227194309235,0.19153612852096558,-9.423578262329102,0.6613254547119141,47.70390319824219,-0.6049714088439941,-3.3453218936920166,-1.8454949855804443,-0.6382060647010803,0.009831201285123825,-0.039298877120018005,24.875,25.875,24.75,27.5625,28.625,29.0
1.0,-0.6349479484356997,-0.3974388686767638,-0.3163740612112321,-0.021770553790183746,0.00020498191936896195,-0.07727015327405774,-0.5476389544462942,-0.34802484227979286,0.05575956677428845,-3.0785726549649146,0.6247586563347715,-0.0001647972510332791,-0.0034611404583751383,-0.00011086668816514926,-0.04053011049110928,-0.004256539737978965,0.011481600798943475,-0.001739589460988565,0.35734644532203674,-1.105010764007904,1.6029899756061,-2.0670696697630824,-1.57147723833193,2.3323307037353516,-0.0017027765279635787,0.045659635215997696,0.050241537392139435,-0.10814589262008667,-0.00017638230929151177,5.71408876096195e-38,0.15322890877723694,0.15322890877723694,-9.346963882446289,0.6792280077934265,47.70390319824219,-0.5845666527748108,-3.4466328620910645,-1.833929181098938,-0.6092623472213745,0.004123320337384939,-0.03819572925567627,24.875,25.875,24.75,27.5625,28.625,29.0
1.0,-1.0586027815820116,-0.650695228189959,-0.49697187957351,-0.014109703009607281,-0.01356447060501542,-0.06353193236283983,-0.5476358530966096,-0.34801591559840045,0.055683689731911706,-3.0785572741589244,0.6247946162160234,-0.00011322884872788919,-0.003296614962021759,-3.879681309531505e-06,-0.04253473802363601,-0.004095699839616678,0.011023912203554472,-0.001811258758282869,0.35734641551971436,-1.1049499374679108,1.6031225363360804,-2.067286630670065,-1.5715015570269983,2.33235502243042,-0.0017732118722051382,0.04776127636432648,0.052662190049886703,-0.11218317598104477,-0.00017125373415183276,3.730891300237002e-39,0.05746084079146385,0.19153614342212677,-9.289502143859863,0.6993717551231384,47.6949462890625,-0.6429589986801147,-3.5730910301208496,-1.8513779640197754,-0.5311352014541626,0.002024014014750719,-0.049300458282232285,24.875,25.875,24.75,27.5625,28.625,29.0
1.0,-0.35728665877562826,-0.543959065066064,-0.36600349949219796,-0.00830272117350768,-0.0010141657593220024,-0.07187290962935511,-0.5476478316852305,-0.3480120216977324,0.05556928324126956,-3.078568616103251,0.6247773560599537,-0.00016705267416633303,-0.0028515570728475086,6.146718437542854e-05,-0.04201436586416997,-0.0039369772436502965,0.010595967435534336,-0.0016621768375790385,0.35732248425483704,-1.1047948461822052,1.6032064596759241,-2.067500730554098,-1.57147723833193,2.3323187828063965,-0.0016246812883764505,0.046561099588871,0.052889030426740646,-0.11075342446565628,-0.00016601895913481712,2.4360032373976187e-40,0.13407528400421143,0.2106897532939911,-9.193734169006348,0.7083203792572021,47.70927429199219,-0.6364421844482422,-3.4955291748046875,-1.9913735389709473,-0.5390201807022095,0.010965241119265556,-0.030304642394185066,24.875,25.875,24.75,27.5625,28.625,29.0
1.0,-0.31658699518932937,-0.2553815145015832,-0.3341198275082484,0.0010830667635771066,-0.006651029488187656,-0.06960891773208355,-0.5476646444133566,-0.34801405199452634,0.055515666744780034,-3.0786191628348973,0.6248070032975961,-6.382269756479334e-05,-0.0033504797021141463,-0.00019517815120033007,-0.04084957363609598,-0.004080445892948249,0.01096723330594035,-0.0015613140307859784,0.3573105037212372,-1.1047469538501282,1.6033123175250452,-2.0677396259703578,-1.571465317402975,2.3323187828063965,-0.001524524763226509,0.04624287784099579,0.050123706459999084,-0.10806789249181747,-0.00016106831026263535,1.5904737570086674e-41,0.15322890877723694,0.13407528400421143,-9.232041358947754,0.6971306204795837,47.70121383666992,-0.6846340894699097,-3.3361401557922363,-1.7402551174163818,-0.5396862030029297,0.008348462171852589,-0.04903823137283325,24.875,25.875,24.75,27.5625,28.625,29.0
1.0,-0.2280138596195373,0.11028979397483828,-0.24717710550756866,0.009154033504319245,-0.03140040031944959,-0.07318037902648583,-0.5476656471533453,-0.34801486726756764,0.05543123996461474,-3.078607227538006,0.6247853326001579,-3.274972420246383e-05,-0.001369583631109531,0.00048494294407729814,-0.04348503208431323,-0.0015478831604402983,0.004202931420160743,-0.001467776280563049,0.3573225438594818,-1.1046502751163025,1.6034095923053187,-2.067941804925436,-1.5714896360980433,2.3323187828063965,-0.0014332334976643324,0.04858437925577164,0.052052710205316544,-0.10511554777622223,-0.0001564034027978778,1.0383621620646894e-42,0.07661445438861847,0.17238251864910126,-9.232041358947754,0.7195101380348206,47.703006744384766,-0.6020044684410095,-3.5234570503234863,-1.8320157527923584,-0.5572928190231323,0.012630416080355644,-0.03795899078249931,24.875,25.875,24.75,27.5625,28.625,29.0
1.0,-0.34294071997492437,0.06809155541937152,-0.40581350160520185,0.01765808586394819,-0.04375393424775665,-0.06987716055108836,-0.5476746601680441,-0.3480025247575416,0.05535095891314565,-3.0785839476738532,0.6248579998783447,1.615423779806943e-05,0.0004476722125170876,0.0011337820752317965,-0.045499046812683346,0.0006744417133321603,-0.00166703380678657,-0.0014078658841712765,0.35731053352355957,-1.1045658451369782,1.6035178343402308,-2.0681563816466273,-1.5715134779559534,2.33235502243042,-0.001375485328026116,0.05007816478610039,0.05376937612891197,-0.10204942524433136,-0.00017399057105649263,6.726232628759122e-44,0.17238251864910126,0.07661445438861847,-9.097966194152832,0.6411817073822021,47.75226593017578,-0.6584829092025757,-3.5560965538024902,-1.8585224151611328,-0.5957866907119751,0.005863754078745842,-0.04428918659687042,24.875,25.875,24.75,27.5625,28.625,29.0
1.0,0.45746878691277515,0.4910750519577457,-0.26076149398188103,0.01046102660897964,-0.035523264214454106,-0.07555679698807656,-0.5476735545354804,-0.3480178832257424,0.055271945086472374,-3.0786247410500613,0.6247892069318258,1.0806778155976993e-05,0.0008749234786944741,0.0014784899496805145,-0.0455234156044416,0.0013697891088428249,-0.003519830902592754,-0.0016787772843400602,0.35732248425483704,-1.1044701498797913,1.6036017576800745,-2.0683471165099085,-1.5714896360980433,2.3323187828063965,-0.0016475204611197114,0.04997299611568451,0.05343577265739441,-0.09963167458772659,-0.00017226011550519615,4.203895392974451e-45,0.19153612852096558,-0.05746084079146385,-9.078812599182129,0.6904177665710449,47.71017074584961,-0.6066842079162598,-3.530020236968994,-1.9581928253173828,-0.6309988498687744,0.0040219505317509174,-0.0503401942551136,24.875,25.875,24.75,27.5625,28.625,29.0
1.0,0.23250666116519503,0.4195856250263128,-0.1813548139231963,0.01589681229469863,-0.03947336500850041,-0.07345742329102743,-0.5476800278681103,-0.34801999558588465,0.05517507093010873,-3.0786298149553124,0.624867739360772,-1.0410262786150916e-05,0.001108698420439894,0.00153440166056666,-0.04537583178017795,0.002169865363356901,-0.005662555751593376,-0.0016322610958981942,0.3573104739189148,-1.1043499869159241,1.6036961714373987,-2.0685612163939417,-1.571465317402975,2.33235502243042,-0.0016025311779230833,0.050504688173532486,0.051524072885513306,-0.0959644541144371,-0.00016786777996458113,0.0,0.2298433631658554,-0.038307227194309235,-9.136273384094238,0.6904177665710449,47.6949462890625,-0.6757481098175049,-3.5917601585388184,-1.7387290000915527,-0.664684534072876,0.0073376428335905075,-0.03886979818344116,24.875,25.875,24.75,27.5625,28.625,29.0
1.0,0.06709751531704505,0.49480082990305685,-0.09228178014895373,0.018778175275903457,-0.04211020080119662,-0.06707414287734954,-0.5476667885695446,-0.3480153457411247,0.05506840622439718,-3.078591252666445,0.6248210438993886,-5.736036977799404e-05,0.0030810395983619644,0.0025636551640224373,-0.04724254212499638,0.0044917173925111365,-0.011854651292499995,-0.002056922196139459,0.3573223352432251,-1.1042300027659913,1.603804890309469,-2.0687395534911097,-1.5714896360980433,2.3323426246643066,-0.002029579831287265,0.05129864066839218,0.05380445346236229,-0.09242569655179977,-0.00016352336388081312,0.0,0.19153612852096558,-0.038307227194309235,-9.155426979064941,0.7374180555343628,47.70121383666992,-0.6404852867126465,-3.5426220893859863,-1.7739167213439941,-0.7199739217758179,0.011320150457322598,-0.03418591991066933,24.875,25.875,24.75,27.5625,28.625,29.0
1.0,0.3973622189520272,0.6263082669545268,-0.1356717108188041,0.018815745800029853,-0.03547703142953877,-0.0729582825752784,-0.5476618302662984,-0.34799777033165347,0.054987262548040566,-3.0785492942696067,0.6248317275482098,-8.520272629158861e-05,0.0033229395473226464,0.0026301817585140195,-0.047408853833173586,0.004936435036179597,-0.013051477404708176,-0.002022517312530556,0.35731035470962524,-1.1041460794261475,1.6038997809039515,-2.0688826046385707,-1.5715134779559534,2.3323426246643066,-0.001995817758142948,0.05164314806461334,0.053388312458992004,-0.0910772979259491,-0.00015938661817926913,0.0,0.2106897532939911,-0.13407529890537262,-9.040505409240723,0.6837049722671509,47.686885833740234,-0.616225004196167,-3.5729122161865234,-1.801673412322998,-0.7630862593650818,0.018020546063780785,-0.04799414798617363,24.875,25.875,24.75,27.5625,28.625,29.0
1.0,0.2981789426462751,0.42322621618981227,-0.26298281737966195,0.02108562460774847,-0.029425522952123542,-0.07540627592526364,-0.547638159149164,-0.34799272940882564,0.05488505358421453,-3.078536812343218,0.6248491809860267,-0.0001430671178128177,0.003325655964180555,0.0025895889471918253,-0.047807514917802184,0.004993244564407618,-0.013217897961864851,-0.0019636647720509687,0.35731035470962524,-1.1040620666793366,1.6040557066546839,-2.0690866909422816,-1.5715015570269983,2.33235502243042,-0.0019367783097550273,0.05224574729800224,0.05356806516647339,-0.09168388694524765,-0.0001554537157062441,0.0,0.2106897532939911,0.09576806426048279,-9.02135181427002,0.6725152134895325,47.6949462890625,-0.6319882869720459,-3.5725574493408203,-1.8571548461914062,-0.8137511610984802,0.009789153933525085,-0.04539606720209122,24.875,25.875,24.75,27.5625,28.625,29.0
1.0,0.4564988068935687,0.7362263329634227,0.03723898014536566,0.002788332971076958,-0.01503631394245848,-0.0830612981157546,-0.5476396860301749,-0.3480011484036403,0.054791743179274544,-3.078575093071773,0.6247990076004952,-0.00014682291528806256,0.003345835961692221,0.0024897034813098078,-0.048030184738503304,0.004880219045428638,-0.012929502169645434,-0.0018075721341098958,0.35731038451194763,-1.1039540630630036,1.6041625181781214,-2.0693141422667445,-1.57147723833193,2.3323187828063965,-0.0017803068039938807,0.05243760719895363,0.05401240289211273,-0.0926298126578331,-0.0001517101190984249,0.0,0.26815059781074524,-0.07661445438861847,-9.136273384094238,0.7127973437309265,47.68419647216797,-0.6354995369911194,-3.6279215812683105,-1.7271056175231934,-0.8452125787734985,0.020380418747663498,-0.038233786821365356,24.875,25.875,24.75,27.5625,28.625,29.0
1.0,0.09661997862546959,-0.122566041922054,-0.14844755052370073,0.002657434285977976,-0.011136735023902333,-0.0745182139814056,-0.5476318176640657,-0.34800642818935573,0.05469872460525613,-3.078556534459937,0.6248340637976916,-0.00017571658213507967,0.0014996671243888652,0.0017447051252456232,-0.0474241970953711,0.002604659490394682,-0.006890027771687761,-0.0017374147605061809,0.35732245445251465,-1.1038462084582825,1.6042588392840784,-2.0694967708983363,-1.57147723833193,2.33235502243042,-0.0017068353481590748,0.05263891816139221,0.05381239205598831,-0.09908506274223328,-0.00014814225141890347,0.0,0.26815059781074524,-0.05746084079146385,-9.097966194152832,0.7799360156059265,47.67524337768555,-0.671225905418396,-3.576639413833618,-1.7748043537139893,-0.8049451112747192,0.004283437971025705,-0.032753802835941315,24.875,25.875,24.75,27.5625,28.625,29.0
1.0,-0.07661129663994397,-0.28603886265645156,-0.12875063177578788,-0.008797018157729125,-0.0003970383063091388,-0.07771843133481128,-0.5476296250272106,-0.34800168451261276,0.05461274462115928,-3.0785435372117482,0.6248116125357261,-0.00018289036911619012,0.0013537313513460054,0.0016900297565226234,-0.04786417682679119,0.0022961549125184817,-0.0060825646903603535,-0.0017405305225661383,0.35732245445251465,-1.1037502151778718,1.6043556372271937,-2.069676538506979,-1.5714896360980433,2.3323426246643066,-0.0017090797191485763,0.053038742393255234,0.05472517013549805,-0.10126204788684845,-0.00014473884948529303,0.0,0.1149216815829277,0.09576806426048279,-9.174580574035645,0.6993717551231384,47.6895751953125,-0.6153829097747803,-3.5838136672973633,-1.7570745944976807,-0.807123064994812,-0.008229324594140053,-0.03082181140780449,24.875,25.875,24.75,27.5625,28.625,29.0
1.0,-0.9090013143422724,-1.2479583525545972,-0.11743162790415415,-0.031222669513452712,0.021568651185990648,-0.07791950918222831,-0.5476160056607485,-0.3479885051541447,0.05439595918671192,-3.0785023060650305,0.6248999381710724,-0.00024183212357612157,-0.0009590710189400222,0.0008389496813851969,-0.048398833699062574,-0.0006690637894466051,0.0017726398758782919,-0.0017769996193878013,0.35731041431427,-1.1035222274116059,1.6046183745013636,-2.070123334924215,-1.5714896360980433,2.332390785217285,-0.0017401985824108124,0.05452617257833481,0.0564119890332222,-0.11283253133296967,-0.00013838036102242768,0.0,0.038307227194309235,0.2106897532939911,-9.251194953918457,0.6881819367408752,47.71196365356445,-0.6460980176925659,-3.554266929626465,-1.8434808254241943,-0.7057068943977356,0.008649666793644428,-0.04441412538290024,24.875,25.875,24.75,27.5625,28.625,29.0
