Tylouw/Master_Thesis_Code/test_recorded_data/devi01_test/insertion_1_2026-01-27_15-49-40.csv
num_insertion,tcp_force_x[N],tcp_force_y[N],tcp_force_z[N],tcp_force_rx[Nm?],tcp_force_ry[Nm?],tcp_force_rz[Nm?],tcp_pose_x[m],tcp_pose_y[m],tcp_pose_z[m],tcp_pose_rx[rot_vec_x],tcp_pose_ry[rot_vec_y],tcp_pose_rz[rot_vec_z],tcp_velo_x[m/s],tcp_velo_y[m/s],tcp_velo_z[m/s],tcp_velo_rx[rot_vec_x/s],tcp_velo_ry[rot_vec_y/s],tcp_velo_rz[rot_vec_z/s],q1[rad],q2[rad],q3[rad],q4[rad],q5[rad],q6[rad],qd1[rad/s],qd2[rad/s],qd3[rad/s],qd4[rad/s],qd5[rad/s],qd6[rad/s],tool_acc_x,tool_acc_y,tool_acc_z,current_of_whole_robot[A],voltage_of_whole_robot[V],current_J1[A],current_J2[A],current_J3[A],current_J4[A],current_J5[A],current_J6[A],temp_J1[C],temp_J2[C],temp_J3[C],temp_J4[C],temp_J5[C],temp_J6[C]
1.0,-0.3266113656935116,0.8021349492085803,-0.26556612819760056,0.04412906142742106,-0.05222306154401795,-0.0734108599024708,-0.5478098571354763,-0.34809859296566403,0.06001883263261318,-3.0787622142866042,0.6246751832352412,0.00011739072679991847,0.0007794683192576162,-9.138229755970742e-05,-9.577745387815103e-05,-0.000426693643251862,0.0013881375369958007,-0.0008036193446987806,0.3573112189769745,-1.1094714564136048,1.5976794401751917,-2.057492872277731,-1.5714533964740198,2.332271099090576,0.0006070237141102552,-0.001918445690535009,0.003658737288787961,-0.0031894526910036802,-8.518621325492859e-05,0.0014096085214987397,0.3064578175544739,-0.3447650372982025,-9.327810287475586,0.7284641265869141,47.733455657958984,-0.25063103437423706,-4.488954544067383,-2.750464916229248,-0.11811432987451553,0.00833341758698225,0.04486537724733353,24.8125,25.8125,24.6875,27.4375,28.4375,28.8125
1.0,0.24359077913147198,1.1736245147365132,-0.5891926771259411,0.07010750059341264,-0.06343317942318175,-0.0709210794443516,-0.5478060679917377,-0.3480768754867228,0.060007572344315724,-3.078722614557787,0.6247251341429397,8.027077501282235e-05,0.0006155809359888248,-0.0001340225455566725,0.00011990946893837399,-0.00018567204689785293,0.000741950546254658,-0.000441542295393929,0.3573111891746521,-1.1094952684691926,1.5977018515216272,-2.0575038395323695,-1.5714295546161097,2.332258462905884,0.0005785857792943716,-0.0014610697980970144,0.002130637178197503,-0.0014291433617472649,-8.419014193350449e-05,0.0010197338415309787,-0.019153613597154617,-0.1149216815829277,-9.385271072387695,0.7665104269981384,47.68240737915039,-0.25453782081604004,-4.477193832397461,-2.7092156410217285,-0.1344897598028183,0.023013025522232056,0.048219405114650726,24.8125,25.8125,24.6875,27.4375,28.4375,28.8125
1.0,-0.6975824399147857,0.07331862547429371,-0.7046329562314436,0.02450953660310036,-0.03043651524708125,-0.07417272776596123,-0.5478214676843879,-0.34809082684410403,0.0600354176661822,-3.078751393338437,0.6247116903493478,0.00014435938172034922,0.0007389358787136531,-5.3275676957524075e-05,0.00017300987278614217,0.0001298744868201361,-0.000100295601591896,-0.00020140149906835796,0.35732322931289673,-1.1095071595958252,1.5976536909686487,-2.0574919186034144,-1.5714295546161097,2.332258462905884,0.0005274967988952994,-0.0013721379218623042,0.0015810375334694982,-6.909952207934111e-05,-8.32170553621836e-05,0.0007290774374268949,-0.15322890877723694,0.09576806426048279,-9.442731857299805,0.7374180555343628,47.69853210449219,-0.2989094853401184,-4.537216663360596,-2.643921375274658,-0.13389672338962555,-0.008206049911677837,0.03850068897008896,24.8125,25.8125,24.6875,27.4375,28.4375,28.8125
1.0,-1.8794350937333713,-1.9003879431786603,-0.7535618636911482,-0.022549982711759488,0.02329203647089567,-0.06632451531996207,-0.5477977999678759,-0.34805848909987824,0.06002446503929798,-3.078666471060933,0.6247335039873952,8.784306107581816e-05,0.0008796573315706836,5.4604437501513344e-05,4.15728638858262e-05,0.00045835737607217156,-0.0010025423679066927,1.719517403922494e-05,0.3573111593723297,-1.1095310312560578,1.597701374684469,-2.0574432812132777,-1.57147723833193,2.332270860671997,0.00044187341700308025,-0.0011116036912426353,0.0012815495720133185,0.0009299496305175126,-7.361004827544093e-05,0.00042532547377049923,-0.1149216815829277,0.2106897532939911,-9.500192642211914,0.7709873914718628,47.681514739990234,-0.2728479504585266,-4.156606674194336,-2.430919885635376,-0.21151889860630035,-0.0036919538397341967,0.03679046034812927,24.8125,25.8125,24.6875,27.4375,28.4375,28.8125
1.0,-2.312433688717385,-2.523007535322578,-0.5248049137720813,-0.08542879324038616,0.07373207247540962,-0.07306774608736316,-0.547787685316055,-0.3480666458414862,0.06002632852384532,-3.078679695092878,0.6247165834997338,7.671112364513053e-05,0.002444916949008651,0.0006818932194391138,-0.00160969009312684,0.0017179637693357987,-0.004380608574283331,0.00018301585934414513,0.35732316970825195,-1.1095430117896576,1.5977142492877405,-2.0574432812132777,-1.571465317402975,2.332270622253418,0.0003796705277636647,-0.0009636366157792509,0.0047827246598899364,0.0008860040106810629,-6.43375315121375e-05,0.00019797853019554168,-0.24899697303771973,0.3064578175544739,-9.53849983215332,0.6702793836593628,47.6734504699707,-0.3031429946422577,-4.091108798980713,-2.4743223190307617,-0.23982885479927063,0.0017582966247573495,0.04663523659110069,24.8125,25.8125,24.6875,27.4375,28.4375,28.8125
1.0,-2.6839787154643817,-2.8799053857399546,-0.34912082500502245,-0.09272854364566085,0.07970842359164194,-0.0692082292567422,-0.5477924182755712,-0.34807223133102905,0.06003841544632396,-3.078701296066245,0.624721004761136,9.679457745464128e-05,0.003718469373010109,0.0011913774708352627,-0.003441073710233653,0.0029151747770477295,-0.007575459051749129,0.0001802271270556747,0.35732316970825195,-1.1095546048930665,1.59770375887026,-2.057443758050436,-1.5714533964740198,2.332270622253418,0.0003328281454741955,-5.8321769756730646e-05,0.007688830606639385,0.0004863729700446129,-6.290129385888577e-05,0.00015443919983226806,-0.26815059781074524,0.28730422258377075,-9.423578262329102,0.7486078143119812,47.7164421081543,-0.2814880609512329,-4.068307876586914,-2.756621837615967,-0.2811720371246338,0.016704024747014046,0.04803420230746269,24.8125,25.8125,24.6875,27.4375,28.4375,28.8125
1.0,-1.815925213058222,-1.621305553486756,-0.19450535404411592,-0.05784061760010528,0.055345396651349285,-0.0688086850050552,-0.5478011839770244,-0.3480593442404769,0.0600066570604712,-3.0786894933357365,0.6247179030644853,6.591220553649227e-05,0.0029449574488045493,0.0009251501117503501,-0.0028020145225831836,0.0022771611911563292,-0.005881805554224254,0.00016642019096116978,0.3572992980480194,-1.109506682758667,1.5977147261248987,-2.057479520837301,-1.5714533964740198,2.3322463035583496,0.0002962778671644628,-7.824610293027945e-07,0.006276060827076435,3.175668098265305e-05,-6.199965719133615e-05,0.00013120294897817075,-0.19153612852096558,0.3064578175544739,-9.423578262329102,0.7127973437309265,47.70390319824219,-0.2889319360256195,-3.9765725135803223,-2.636131525039673,-0.29548823833465576,0.0030781696550548077,0.034384164959192276,24.8125,25.8125,24.6875,27.4375,28.4375,28.8125
1.0,-0.7490061174325366,-0.026380030951842437,-0.1358598069527196,0.00047391628107035406,-0.0042141917996896105,-0.07457091474587421,-0.54777917332617,-0.3480835014475017,0.060016180342633035,-3.0787144051288227,0.6246654707996075,0.00010120773291690923,0.000866470974128817,0.0001636474200213369,-0.0017246725928773347,-6.166509367273255e-05,0.0003352833948005221,0.00015094959324849134,0.3573471009731293,-1.1095426839641114,1.597750488911764,-2.0575057468810023,-1.5714533964740198,2.3322582244873047,0.00026696655550040305,-1.0497714697521587e-08,0.005075838416814804,-0.005411256570369005,-6.115485302871093e-05,0.00011443022231105715,-0.17238251864910126,0.28730422258377075,-9.232041358947754,0.7486078143119812,47.67524337768555,-0.3009428381919861,-3.933976173400879,-2.472749710083008,-0.28724122047424316,0.009091025218367577,0.03732478618621826,24.8125,25.8125,24.6875,27.4375,28.4375,28.8125
1.0,0.22595757797186108,0.2690880420371724,-0.04009714461955129,0.05301045276089203,-0.036969729204434504,-0.08112676900007089,-0.547808650163423,-0.3480501720187785,0.05999693841164752,-3.078694380731284,0.6247191009120028,0.000113747488218003,-0.0008496311970975668,-0.00046590664216404,-0.0018978102125791492,-0.0017362721010350287,0.004775573757381577,0.0002111489633586852,0.3572872579097748,-1.109506056909897,1.5977500120746058,-2.0575438938536585,-1.571465317402975,2.3322343826293945,0.0002429345913697034,0.0015527207870036364,0.004541589878499508,-0.011175327003002167,-6.033472891431302e-05,2.74873964372091e-05,-0.15322890877723694,0.24899697303771973,-9.117119789123535,0.7508436441421509,47.66718673706055,-0.2595232129096985,-3.9138989448547363,-2.383371114730835,-0.24061021208763123,-0.0033914558589458466,0.041665270924568176,24.8125,25.8125,24.6875,27.4375,28.4375,28.8125
1.0,0.0889106045590487,0.32114281988015014,0.06034805859131719,0.05091162970867809,-0.05780644678035025,-0.07117383110221935,-0.5478012224646919,-0.34807172978875706,0.06000210897085445,-3.0787076649697243,0.6246833981001362,0.0001285893389666536,-0.0008987677848751202,-0.00047098145763924576,-0.0017874079440310898,-0.0019153777720805293,0.005250848731557612,0.00021654448711908852,0.35732313990592957,-1.1095062357238312,1.5977385679828089,-2.0575434170165003,-1.571465317402975,2.3322463035583496,0.0002228751254733652,0.001264439313672483,0.0048145875334739685,-0.011667950078845024,-5.953641812084243e-05,1.7947304513654672e-06,-0.038307227194309235,0.19153612852096558,-9.040505409240723,0.7821771502494812,47.668975830078125,-0.2953583300113678,-3.824462652206421,-2.3408331871032715,-0.23649175465106964,0.004571024794131517,0.03857440873980522,24.8125,25.8125,24.6875,27.4375,28.4375,28.8125
1.0,0.19960016256702745,0.5751701479626992,0.32650859064320964,0.014259533089277923,-0.04150617287765517,-0.0778028814532562,-0.5478209129895882,-0.34805094544212556,0.06000812714338577,-3.0787092388351063,0.624722173614854,0.00018712097751573381,-0.0005953965533891021,-0.0003427793541899475,-0.0018600572237105189,-0.0016791528528643726,0.0046475465091572205,0.00020151088736275244,0.3572872281074524,-1.1095183950713654,1.597750488911764,-2.057579656640524,-1.57147723833193,2.3322343826293945,0.0002058754616882652,0.0009878991404548287,0.005265482701361179,-0.011194455437362194,-6.74882103339769e-05,1.1718307035835096e-07,0.17238253355026245,0.019153613597154617,-8.983044624328613,0.7217512726783752,47.704795837402344,-0.31987813115119934,-3.788045883178711,-2.3094863891601562,-0.2512612044811249,0.011318688280880451,0.025858502835035324,24.8125,25.8125,24.6875,27.4375,28.4375,28.8125
1.0,0.12509681198293815,-0.22566769518446828,0.21080504767304326,0.007300867275252706,-0.03142707012720631,-0.07539725575817496,-0.5477907329359265,-0.3480830183713495,0.05998611933437423,-3.0787332209759892,0.6247277277753999,7.231959341258078e-05,-0.000533543866694866,-0.0003090519897366813,-0.0018848982522079371,-0.001535542554573124,0.00427014905585114,0.00018726156035672598,0.3573231101036072,-1.1094944042018433,1.5977628866778772,-2.0575672588744105,-1.5714176336871546,2.332270622253418,0.00019128710846416652,0.0010732152732089162,0.005089016165584326,-0.010699504986405373,-6.940468301763758e-05,7.651217437398827e-09,0.2298433631658554,-0.1149216815829277,-8.9064302444458,0.7553206086158752,47.69584274291992,-0.3430556654930115,-3.7639026641845703,-2.2321715354919434,-0.26986247301101685,0.01265733502805233,0.014984848909080029,24.8125,25.8125,24.6875,27.4375,28.4375,28.8125
1.0,0.3903659953262941,1.0123800374728593,0.303847559459365,0.02339825436121368,-0.047725898677046116,-0.07611128235091157,-0.547801037930606,-0.34807158554829637,0.05998430087051854,-3.078718256745783,0.6247247764392776,0.00017518600306182648,-0.0007964381025446794,-0.0002357579155119362,-0.003897480716230549,-0.001024686734526933,0.002884274374820302,-6.932998497905853e-05,0.35732302069664,-1.1095050138286133,1.5977981726275843,-2.057639261285299,-1.571465317402975,2.332270622253418,-6.485261837951839e-05,0.004438468255102634,0.005273587070405483,-0.012772321701049805,-6.785205187043175e-05,3.2618342055146243e-11,0.4405331015586853,-0.17238251864910126,-9.059659004211426,0.7866488099098206,47.674346923828125,-0.32204732298851013,-3.7037994861602783,-2.1461029052734375,-0.3098539113998413,-0.000264857430011034,0.02595263347029686,24.8125,25.8125,24.6875,27.4375,28.4375,28.8125
1.0,0.994262984096587,0.929940213431747,0.25471338134090254,0.04062381126495173,-0.05098162492022402,-0.08405273829516735,-0.5478027457498925,-0.3480560583649954,0.05996038380571678,-3.0786982957647795,0.6247589406333803,0.00014300391672846438,-0.000496938569782266,-0.00012677607508499814,-0.00493205738625383,-0.0006349864690919169,0.0018381553834506716,-6.520042439163666e-05,0.35729917883872986,-1.1094808739474793,1.5978229681598108,-2.0576640568175257,-1.571465317402975,2.332270622253418,-6.061246313038282e-05,0.005491550546139479,0.006311793811619282,-0.013747268356382847,-6.701090023852885e-05,2.1297447312662587e-12,0.40222588181495667,-0.09576806426048279,-9.059659004211426,0.7441308498382568,47.6895751953125,-0.3299657106399536,-3.7735891342163086,-2.136136054992676,-0.29868218302726746,0.0053895884193480015,0.02107001468539238,24.8125,25.8125,24.6875,27.4375,28.4375,28.8125
1.0,0.49362827901470396,0.5828758315841979,0.2911567497753042,0.03816683954057169,-0.07627978500891157,-0.07512525336954032,-0.5478347546497031,-0.348067535913681,0.05998834474100287,-3.078755540810067,0.6247700770465462,0.00021867029215279227,2.903728709833729e-05,6.833053260113043e-05,-0.0048350758954157245,-0.000459132992510243,0.0013747259750167442,-6.113870288336528e-05,0.35728713870048523,-1.1094811719707032,1.5977633635150355,-2.057675977746481,-1.5714414755450647,2.3322582244873047,-5.678917659679428e-05,0.004472931381314993,0.007463256828486919,-0.013384446501731873,-6.618960469495505e-05,1.390571143476682e-13,0.325611412525177,0.05746084079146385,-9.002198219299316,0.6993717551231384,47.70121383666992,-0.3280404508113861,-3.686314821243286,-2.0999209880828857,-0.2889980971813202,0.01135898008942604,0.01857181265950203,24.8125,25.8125,24.6875,27.4375,28.4375,28.8125
1.0,0.43712199389618395,0.22708601116978944,0.12724183510672665,0.00968290210146266,-0.0614557314906732,-0.08074212004656142,-0.5478022183525613,-0.3480596852212794,0.05993578299254071,-3.07869771880509,0.6247779708067408,0.00011555397401730593,0.0010173458749416532,0.0004373783344315713,-0.0051652873022228745,0.0003935627266175954,-0.0008914597902919363,-5.671486624472456e-05,0.35729917883872986,-1.1094453793815156,1.5978353659259241,-2.0576988659300746,-1.5714533964740198,2.332282543182373,-5.3417850722325966e-05,0.00388718512840569,0.008625621907413006,-0.011539768427610397,-6.538811430800706e-05,9.079436794144202e-15,0.3064578175544739,0.1149216815829277,-9.02135181427002,0.6904177665710449,47.6949462890625,-0.33529722690582275,-3.5785536766052246,-2.222688913345337,-0.2920125424861908,0.0029644626192748547,0.003584669902920723,24.8125,25.8125,24.6875,27.4375,28.4375,28.8125
1.0,0.16035550244487332,-0.9526659757780163,-0.09056804026485812,-0.0021969704949457696,-0.04171377784350272,-0.06897228196260703,-0.5477800151960507,-0.3480761482979012,0.05994706305903491,-3.078701147633059,0.6246247819666002,0.00011831970998974637,0.0023286759248196975,0.0009276780885878057,-0.0066221157927303384,0.0018812304192350848,-0.004855445911390751,-5.240841538849365e-05,0.3573469817638397,-1.109469161634781,1.5978358427630823,-2.057662626306051,-1.57147723833193,2.3322343826293945,-5.042457996751182e-05,0.004755040630698204,0.0102720120921731,-0.0098200598731637,-6.460580334533006e-05,5.92822266157287e-16,0.28730419278144836,0.24899697303771973,-9.059659004211426,0.7016075849533081,47.70390319824219,-0.3186059892177582,-3.5111887454986572,-2.237485885620117,-0.3312644958496094,0.006024043541401625,0.024960031732916832,24.8125,25.8125,24.6875,27.4375,28.4375,28.8125
1.0,-0.08419127067839338,-0.8461013164224636,-0.011694493305063015,-0.0342629086884039,-0.024130454892246925,-0.08083778534508891,-0.5477912847169331,-0.34804740739252865,0.05992269823325533,-3.0786774016526466,0.6247740154690183,6.366645668980878e-05,0.0024095698638972886,0.0009570005903417951,-0.007447071014961012,0.00259280189532304,-0.006747458249789192,-4.9040064060229294e-05,0.35728713870048523,-1.1094445449164887,1.5978606382953089,-2.057685991326803,-1.5714533964740198,2.332270622253418,-4.7749130317242816e-05,0.006523813121020794,0.009338658303022385,-0.008634073659777641,-6.908727664267644e-05,3.8707056496581875e-17,0.24899697303771973,0.17238251864910126,-9.117119789123535,0.7575564384460449,47.681514739990234,-0.3518735468387604,-3.5293068885803223,-2.1771581172943115,-0.380788117647171,0.0045749228447675705,0.02671535685658455,24.8125,25.8125,24.6875,27.4375,28.4375,28.8125
1.0,-0.40056987481864964,-1.0331059527658346,-0.023769193862435006,-0.023780354190624617,-0.01671607081902295,-0.07739917261592356,-0.5477470977156966,-0.3480435802123664,0.05986788319808187,-3.0786067885326327,0.6246821732397966,-4.8622535992145087e-05,0.0029764687041631513,0.0011691718552195361,-0.009041464620820396,0.0034466842039458222,-0.009017757658014035,-4.636561398400886e-05,0.35732302069664,-1.1094080370715638,1.5979316870318812,-2.0576864681639613,-1.5714896360980433,2.3322582244873047,-4.534304025582969e-05,0.008271560072898865,0.01054442673921585,-0.009162009693682194,-7.325982733163983e-05,2.5272942313151567e-18,0.2106897532939911,0.2106897532939911,-9.155426979064941,0.7396538853645325,47.692256927490234,-0.31463804841041565,-3.6125309467315674,-2.161212682723999,-0.3989802896976471,0.012903643772006035,0.01997215487062931,24.8125,25.8125,24.6875,27.4375,28.4375,28.8125
1.0,-0.40730406828377885,-0.669948544599635,-0.0507422901343726,-0.020973446054033784,-0.01319224898804725,-0.07906534826125819,-0.5477712918175307,-0.3480480847010765,0.05990686638328835,-3.0786825774899143,0.6247167562682717,4.7893822539913673e-05,0.0032443809080932137,0.0012681501954289196,-0.009324158472470975,0.003394601198109332,-0.008879604957976012,-4.457168219796593e-05,0.35729920864105225,-1.1094560486129303,1.5979207197772425,-2.0577227077879847,-1.5714533964740198,2.3322463035583496,-4.316798731451854e-05,0.007913658395409584,0.011955450288951397,-0.010362778790295124,-7.273894152604043e-05,1.650142603982035e-19,0.17238251864910126,0.26815059781074524,-9.193734169006348,0.7351769208908081,47.6895751953125,-0.3515724837779999,-3.574564218521118,-2.243424892425537,-0.40091031789779663,0.024847079068422318,0.027031175792217255,24.8125,25.8125,24.6875,27.4375,28.4375,28.8125
1.0,-0.5256705669341712,-0.9641668119748981,-0.24772796569000585,-0.0013104500239026371,-0.01802889061553086,-0.07651877286234349,-0.5477698468174369,-0.348043753640954,0.059863258096158584,-3.078658512365355,0.6246927497951565,1.164581461181713e-05,0.0024627731662799266,0.0009728625061664589,-0.008790169429225102,0.0024832546721520435,-0.006457154245966061,-4.366048166677913e-05,0.35729920864105225,-1.109396145944931,1.5979440847979944,-2.0577713451781214,-1.571465317402975,2.3322343826293945,-4.119210279895924e-05,0.007736983709037304,0.011432019993662834,-0.012250883504748344,-7.192969496827573e-05,1.0774252045114797e-20,0.13407529890537262,0.24899697303771973,-9.232041358947754,0.7374180555343628,47.71017074584961,-0.34009623527526855,-3.4740991592407227,-2.1616926193237305,-0.39719057083129883,0.020925380289554596,0.013782033696770668,24.8125,25.8125,24.6875,27.4375,28.4375,28.8125
1.0,-0.748302165507875,-0.3478185163270404,-0.2177645854084108,-0.0151833944877773,-0.03079609158611811,-0.07272881227081825,-0.5477482033254795,-0.3480356174095638,0.05985217233138446,-3.0786298954771354,0.6247060153056975,-5.195279157235073e-05,0.003014837109231728,0.0011780424405103882,-0.010609914294580376,0.0033236240892824563,-0.008708545323894526,-4.177442515353999e-05,0.35729920864105225,-1.1094074708274384,1.5979798475848597,-2.0577479801573695,-1.571465317402975,2.3322463035583496,-3.9389284211210907e-05,0.009754654951393604,0.012877101078629494,-0.01331051904708147,-7.111907325452194e-05,7.034816185465023e-22,0.2298433631658554,0.24899697303771973,-9.21288776397705,0.7239871025085449,47.71196365356445,-0.42585262656211853,-3.4875590801239014,-2.142122983932495,-0.4074370265007019,0.0026132771745324135,0.030902164056897163,24.8125,25.8125,24.6875,27.4375,28.4375,28.8125
1.0,-0.3364688759460105,-0.7083874832768738,-0.3098893851146737,-0.013825889833013746,-0.021471646639707832,-0.07399412188855078,-0.547757027552375,-0.3480269711516357,0.0598208359887428,-3.078610077638035,0.6247212816453979,-5.811132770028428e-05,0.002746540161747967,0.0010754715240847454,-0.011045139628479396,0.0031580888542313986,-0.008276765339481214,-4.066167698575344e-05,0.3572871685028076,-1.1093591910651703,1.597992245350973,-2.057796617547506,-1.57147723833193,2.3322463035583496,-3.773762364289723e-05,0.010597188957035542,0.012964827939867973,-0.014703193679451942,-7.032529538264498e-05,4.593231919703812e-23,0.19153612852096558,0.2298433631658554,-9.21288776397705,0.7262282371520996,47.64657974243164,-0.3217557966709137,-3.555880546569824,-2.147940158843994,-0.4172382354736328,0.026080485433340073,0.017740750685334206,24.8125,25.8125,24.6875,27.4375,28.4375,28.8125
1.0,-0.40194654342367175,-0.4641520068899852,-0.11357296665480104,-0.020307995070183493,-0.013135612798340017,-0.07989675585144686,-0.5477473354096414,-0.3480514892612636,0.05981857123156298,-3.0786390772094836,0.6246888204389001,-3.832444077783677e-05,0.0027238024342777756,0.0010656720472229661,-0.011239234480406608,0.003060252679697227,-0.008019005987404793,-3.94573154361409e-05,0.3573230504989624,-1.1093591314605256,1.5980051199542444,-2.0578319034972132,-1.571465317402975,2.3322582244873047,-3.6218829336576164e-05,0.010722378268837929,0.01341111958026886,-0.015550374984741211,-6.954895070521161e-05,2.999052143639208e-24,0.1149216815829277,0.24899697303771973,-9.289502143859863,0.7150384783744812,47.65284729003906,-0.34907224774360657,-3.461470603942871,-2.1514511108398438,-0.45241278409957886,0.01831953227519989,0.008371282368898392,24.8125,25.8125,24.6875,27.4375,28.4375,28.8125
1.0,-0.6177646406575196,-0.8293723314678093,-0.21582992242611082,-0.002409079726355249,-0.012612331544929519,-0.07395512541925767,-0.5477210627407196,-0.34805306868913405,0.05976796035259052,-3.078629542400803,0.6246678426854992,-0.00017831013173082497,0.002352365590237958,0.0009037322017586125,-0.01205722400827477,0.002924690143031876,-0.007854460999856571,-3.8777532791721527e-05,0.3573230504989624,-1.109310821895935,1.5980528036700647,-2.057845254937643,-1.5714295546161097,2.3322463035583496,-3.481759631540626e-05,0.012366469949483871,0.01329102460294962,-0.017276188358664513,-4.541049747786019e-06,1.9581664987600596e-25,0.07661445438861847,0.19153612852096558,-9.232041358947754,0.7016075849533081,47.68061828613281,-0.3713519871234894,-3.466555118560791,-2.1641275882720947,-0.4455130100250244,0.00021624029614031315,0.03521203249692917,24.8125,25.8125,24.6875,27.4375,28.4375,28.8125
1.0,-0.2901747566847894,-0.45017208267063347,-0.13329746876518211,0.0023247744116395223,0.005374299809848821,-0.08056317757337099,-0.54772571848984,-0.34803864841157506,0.05974932304449532,-3.078622509241182,0.6247046507616023,-0.00017735213806749847,0.0019563611235126122,0.0007524526168099638,-0.012144420854795845,0.002458014909322923,-0.006628364810697863,-3.828732299790692e-05,0.35729920864105225,-1.1092986923507233,1.5980880896197718,-2.0578934154906214,-1.5714295546161097,2.3322463035583496,-3.352068233652972e-05,0.012673319317400455,0.01344636082649231,-0.019050274044275284,-2.964980581054988e-07,1.2785427684258572e-26,0.09576806426048279,0.09576806426048279,-9.174580574035645,0.7083203792572021,47.703006744384766,-0.37775057554244995,-3.529428482055664,-2.075256824493408,-0.4457772374153137,0.010861773043870926,0.016122817993164062,24.8125,25.8125,24.6875,27.4375,28.4375,28.8125
1.0,-0.7701345782090901,0.04925555133981202,-0.0027101089949187213,0.00531171185554569,-0.00868755740149733,-0.07582169927995028,-0.5477101645345334,-0.348069059590022,0.05973206738797229,-3.0786436904016847,0.6246514899913429,-0.00018723976365820093,0.0016537027080280031,0.0006375899200348986,-0.012510190111935398,0.002261916083124285,-0.006112287540854231,-3.762138007550941e-05,0.3573470115661621,-1.1092744630626221,1.598100487385885,-2.057930131951803,-1.5714176336871546,2.3322582244873047,-3.231710070394911e-05,0.013468596152961254,0.013432206586003304,-0.020383471623063087,-1.9359202241275852e-08,8.347971269930667e-28,0.09576806426048279,0.15322890877723694,-9.174580574035645,0.7239871025085449,47.6734504699707,-0.3763045370578766,-3.5063436031341553,-2.146522283554077,-0.45536381006240845,0.01342269778251648,0.011386402882635593,24.8125,25.8125,24.6875,27.4375,28.4375,28.8125
1.0,-0.753216674999905,-0.2921703380071128,-0.05103906432342769,0.019952026430989818,-0.011321587168867588,-0.06802646208057238,-0.547706686085341,-0.34804435790154253,0.05968514545892767,-3.0785757653761427,0.6246568881653738,-0.000210696544809163,0.0012667702319476798,0.0004912851604979186,-0.012466653796204034,0.0018013150707346399,-0.004888951332206702,-3.720683639825463e-05,0.3573349714279175,-1.109226481323578,1.5981481711017054,-2.0579782925047816,-1.571465317402975,2.3322582244873047,-3.11968797177542e-05,0.013613487593829632,0.013459407724440098,-0.021862737834453583,-1.264017557289776e-09,5.45062910424311e-29,0.07661445438861847,0.17238251864910126,-9.193734169006348,0.7665104269981384,47.67524337768555,-0.4068071246147156,-3.520437717437744,-2.0798563957214355,-0.4748046398162842,0.018172211945056915,0.004105167929083109,24.8125,25.8125,24.6875,27.4375,28.4375,28.8125
1.0,-0.22499637944872206,0.02207658262239845,-0.046024296665830744,0.012831622543351115,-0.004417114460047671,-0.08211043741541357,-0.5477265427748865,-0.3480359530062711,0.05970018557049961,-3.078580348711031,0.6246577889980088,-0.00012700765466714328,0.001136220884054245,0.00044043080326186903,-0.013107216703734912,0.0017463109274101806,-0.004749616757683038,-3.570901967640248e-05,0.3573110103607178,-1.1091782611659546,1.5981481711017054,-2.05802645305776,-1.5714533964740198,2.3322582244873047,-2.9174316296121106e-05,0.014537575654685497,0.013923787511885166,-0.023400980979204178,-5.388705540815275e-12,2.323688785742208e-31,-0.038307227194309235,0.019153613597154617,-9.155426979064941,0.7374180555343628,47.731666564941406,-0.45635899901390076,-3.537968873977661,-2.067479133605957,-0.47384703159332275,0.0033655925653874874,0.007263789884746075,24.8125,25.8125,24.6875,27.4375,28.4375,28.8125
1.0,-0.6563277134199246,-0.33208405644439265,-0.1275367845963983,0.01222887310454632,-0.014195927832476411,-0.07055572355667863,-0.5477132497577895,-0.3480306022543669,0.05961680650999032,-3.0785593589380094,0.6246729066027314,-0.00024364146256533646,0.0010198127794597926,0.0003960058322783302,-0.013159440289072642,0.0015795359339059476,-0.004306780483484652,-3.510489373971488e-05,0.3573110103607178,-1.1091422599605103,1.598208252583639,-2.0580979786314906,-1.571465317402975,2.3322463035583496,-2.825823139573913e-05,0.014614728279411793,0.01409244630485773,-0.024119991809129715,-3.518439337622803e-13,1.5172026240194584e-32,0.038307227194309235,-0.07661445438861847,-9.251194953918457,0.7195101380348206,47.71554183959961,-0.39852267503738403,-3.4793789386749268,-2.112898826599121,-0.4939001798629761,0.008645137771964073,0.008551239967346191,24.8125,25.8125,24.6875,27.4375,28.4375,28.8125
1.0,-0.46933122714999537,0.04955110876614846,-0.05479116535625506,0.0055717704928482,-0.0011954063502372424,-0.07316271256382087,-0.5476938901942568,-0.34804722529977833,0.059578009750789696,-3.0785544869763872,0.6246725472291482,-0.00032660337258559347,0.001002920604816908,0.0003887987117287554,-0.013687198813609353,0.0016856590337900965,-0.004594085241554426,-3.442551574612044e-05,0.3573349714279175,-1.1090940100005646,1.5982320944415491,-2.058122774163717,-1.5714414755450647,2.332270622253418,-2.7397947633289732e-05,0.01539535541087389,0.01432221569120884,-0.02482411451637745,-2.297289555851581e-14,9.906250889524356e-34,0.07661445438861847,-0.1149216815829277,-9.289502143859863,0.6680382490158081,47.733455657958984,-0.4055909812450409,-3.522456645965576,-2.081434726715088,-0.505303680896759,0.0024477585684508085,-0.0009504267945885658,24.8125,25.8125,24.6875,27.4375,28.4375,28.8125
1.0,-0.569001787938715,-0.08067909117939576,0.06785155646809408,0.0140288635895753,-0.004386119834393947,-0.07385731363071114,-0.5476988893244567,-0.34804966442297447,0.059558669293332867,-3.078549916545345,0.6245942015544651,-0.0003066292640612635,0.000847359194129694,0.0003295878003375608,-0.013960233658667904,0.0016052815397014483,-0.004383898130970243,-3.39168705575759e-05,0.3573470115661621,-1.1090578597835083,1.5982320944415491,-2.0581590137877406,-1.571465317402975,2.3322343826293945,-2.65885355474893e-05,0.01592901349067688,0.01435035839676857,-0.025610942393541336,-1.499965753546436e-15,6.468073291537542e-35,0.038307227194309235,0.0,-9.27034854888916,0.7597975730895996,47.67613983154297,-0.47947952151298523,-3.459733009338379,-2.076772928237915,-0.5102290511131287,0.003827714128419757,-0.0014502339763566852,24.8125,25.8125,24.6875,27.4375,28.4375,28.8125
1.0,-0.3227036628364742,0.3501468288236621,-0.02166270205026209,0.004105743706653505,0.005121175145610106,-0.07805276609476312,-0.5476924244489089,-0.3480271730318627,0.05953218278710498,-3.0785064839067773,0.6246619639348949,-0.000344362951941236,0.0005574790570435128,0.00022005118587466405,-0.013901432423359087,0.001243419512090291,-0.0034224799718241584,-3.369493939985353e-05,0.3573230504989624,-1.1090458792499085,1.5982797781573694,-2.0581828556456507,-1.57147723833193,2.3322582244873047,-2.5825649572652765e-05,0.0159838255494833,0.014392102137207985,-0.026734760031104088,-9.79370529432005e-17,4.223189815477801e-36,0.038307227194309235,0.0,-9.327810287475586,0.7172743082046509,47.6976318359375,-0.42899078130722046,-3.5272505283355713,-1.9994232654571533,-0.5244097113609314,0.013868315145373344,0.006276314612478018,24.8125,25.8125,24.6875,27.4375,28.4375,28.8125
1.0,-0.636922340566801,0.49251421702786385,-0.06079302992216381,-0.0019580579098848077,-0.009508949274964129,-0.07811731266447505,-0.5476925521902458,-0.34802288462538156,0.059488540670843665,-3.078502623107702,0.6247004150116071,-0.00037029653749076353,0.0006759372598134832,0.0002636863199965718,-0.014674345095643878,0.0015029765443846143,-0.0041196854666473446,-3.3088193423261924e-05,0.3573110103607178,-1.10899771869693,1.598327938710348,-2.0582672558226527,-1.571465317402975,2.332270622253418,-2.510520425857976e-05,0.016960127279162407,0.014901850372552872,-0.027476858347654343,-6.394589622102941e-18,2.757441262727477e-37,0.038307227194309235,0.0,-9.346963882446289,0.7172743082046509,47.68419647216797,-0.5001866817474365,-3.5512428283691406,-2.0369348526000977,-0.535252034664154,0.0032765530049800873,0.011042216792702675,24.8125,25.8125,24.6875,27.4375,28.4375,28.8125
1.0,-0.5303331167517176,0.10265921705264575,-0.22508921568149778,0.0005098199318241143,-0.01524035668384839,-0.06720839034081888,-0.5476778129716051,-0.34802981085425094,0.05944680629396046,-3.0784890025423617,0.6246202541840732,-0.0004087740271399628,0.0004932413190829286,0.00019466295923918338,-0.014427995124935658,0.0012191472462140707,-0.0033628279963153103,-3.2701481688027306e-05,0.3573349714279175,-1.1089499455741425,1.5983641783343714,-2.058314939538473,-1.57147723833193,2.3322463035583496,-2.4423892682534643e-05,0.016682280227541924,0.014853017404675484,-0.02795850671827793,-4.175210426979717e-19,1.8004120890384185e-38,0.038307227194309235,-0.019153613597154617,-9.308656692504883,0.7262282371520996,47.6949462890625,-0.43510928750038147,-3.45924711227417,-1.9754924774169922,-0.5685039162635803,0.009299036115407944,-0.010499749332666397,24.8125,25.8125,24.6875,27.4375,28.4375,28.8125
1.0,-0.21522119162852577,-0.010120166480787923,-0.28704540702176595,-0.0019381096125745054,-0.009185061006446787,-0.07930096071763801,-0.5476778466928427,-0.3480412686627122,0.0594266890490498,-3.0785137666367928,0.6246834895884491,-0.0004223786585955755,0.0006922936202433151,0.00026856915852453743,-0.015368839553923083,0.0016652465239258788,-0.004557686836275707,-3.196992838515833e-05,0.3573349714279175,-1.1089255076697846,1.5983880201922815,-2.058375497857565,-1.5714414755450647,2.332282543182373,-2.3778613467584364e-05,0.017936378717422485,0.015265041962265968,-0.02834921143949032,-2.7261139416317246e-20,1.1755408739313031e-39,0.07661445438861847,0.038307227194309235,-9.251194953918457,0.7463666796684265,47.699424743652344,-0.4440228044986725,-3.559008836746216,-1.9763004779815674,-0.5878555774688721,0.01045270450413227,-0.00983866024762392,24.8125,25.8125,24.6875,27.4375,28.4375,28.8125
1.0,-0.4771568517714853,-0.3076865659233682,-0.40435753275133046,-0.00035993080771095243,-0.014491085829837403,-0.06586677702036456,-0.5476846868904172,-0.34803195934264686,0.05939175304927674,-3.078505605036677,0.6246428542233728,-0.00042779221938338014,0.0004804972810584125,0.00018870327464282424,-0.015000843730142535,0.0012642760860388912,-0.0034882048768431484,-3.1771914668902404e-05,0.3573230504989624,-1.108877794151642,1.5984118620501917,-2.0584355793394984,-1.5714533964740198,2.3322463035583496,-2.316654718015343e-05,0.01741720177233219,0.015333740040659904,-0.029040910303592682,-1.7799575747400438e-21,7.675472208492753e-41,0.1149216815829277,0.0,-9.289502143859863,0.7418897151947021,47.6734504699707,-0.4923640489578247,-3.523357629776001,-1.9648698568344116,-0.591769814491272,-0.0008318504551425576,-0.007897824980318546,24.8125,25.8125,24.6875,27.4375,28.4375,28.8125
1.0,-0.19904162901565206,-0.30450483475690154,-0.34529601753414196,-0.0007635618935726617,-0.005520019974209759,-0.07983332344283475,-0.5476829237300198,-0.348006971082619,0.05934746563707036,-3.0784706884360595,0.6246550531268693,-0.0005078223870096695,0.000489297940870612,0.00020154457570352273,-0.015258926274769848,0.0012685987795684871,-0.0035020510563578376,-4.62241083973048e-05,0.3572871685028076,-1.1088296634009858,1.5984481016742151,-2.0584598980345667,-1.5714533964740198,2.3322224617004395,-3.743555134860799e-05,0.01768241450190544,0.015665769577026367,-0.029623668640851974,-1.1621851003224037e-22,5.011043308425546e-42,0.09576806426048279,0.05746084079146385,-9.385271072387695,0.7799360156059265,47.69673538208008,-0.47853535413742065,-3.4838218688964844,-1.9751629829406738,-0.6242984533309937,-0.0045966459438204765,-0.0029630253557115793,24.8125,25.8125,24.6875,27.4375,28.4375,28.8125
1.0,-0.4145228601227029,-0.28098443171948195,-0.41473385058405454,-0.0034142646272072993,-0.009137190650891202,-0.07863709646000965,-0.5476886152780622,-0.3479936959658067,0.0593371744139079,-3.0784319587383853,0.6247044636837606,-0.00043590523078309955,0.0008041025432900615,0.00032369811710195083,-0.016478634382447187,0.001845247589114125,-0.005046013556586102,-5.2656390348404945e-05,0.35728713870048523,-1.1088291269591828,1.5984838644610804,-2.0585199795165003,-1.5715015570269983,2.3322582244873047,-4.3960877519566566e-05,0.019173605367541313,0.016409916803240776,-0.03021087311208248,-7.588237640772734e-24,3.279038406520072e-43,0.05746084079146385,0.07661445438861847,-9.327810287475586,0.6613254547119141,47.71554183959961,-0.5097551345825195,-3.5226125717163086,-1.9955822229385376,-0.6422155499458313,0.002772948704659939,-0.015054997056722641,24.8125,25.8125,24.6875,27.4375,28.4375,28.8125
1.0,0.0975841615073557,-0.11215321534411964,-0.2970861363818284,-0.005465378578582494,-0.0037455722088134418,-0.0809516723662073,-0.5476682145871806,-0.34801003368484235,0.05926990263288712,-3.0784287849994225,0.6246656413558315,-0.0005355206741239754,0.000451791005334809,0.0001906250375119582,-0.016338536293651923,0.0014798767446468908,-0.004074719317582021,-5.2180699597064055e-05,0.3573110103607178,-1.108745352630951,1.5985315481769007,-2.058591981927389,-1.57147723833193,2.3322582244873047,-4.301031003706157e-05,0.019274333491921425,0.016148731112480164,-0.03108815848827362,-4.954576993746715e-25,2.1019476964872256e-44,0.13407529890537262,0.15322890877723694,-9.346963882446289,0.8045620322227478,47.7218132019043,-0.4702911972999573,-3.551636219024658,-1.9634487628936768,-0.6754395961761475,0.01697394996881485,-0.017053447663784027,24.8125,25.8125,24.6875,27.4375,28.4375,28.8125
1.0,-0.19685974941769685,-0.7252751411961684,-0.5765906098947691,-0.001699522936665618,-0.010471036465222575,-0.06944154538353103,-0.5476746642588941,-0.34801208005745493,0.0592575357941337,-3.078453550382022,0.6247095551453866,-0.0005234396131841937,0.0006079505943580032,0.0002484728798474779,-0.01675623451680234,0.0015914949474128564,-0.004374163578106377,0.00013136471056984724,0.35729920864105225,-1.1087331932834168,1.5985553900348108,-2.0586520634093226,-1.5714533964740198,2.332270622253418,-4.200786861474626e-05,0.019555792212486267,0.016828738152980804,-0.031730081886053085,-3.23498452758724e-26,-0.0001826826628530398,0.1149216815829277,0.17238251864910126,-9.385271072387695,0.7620334029197693,47.704795837402344,-0.47794073820114136,-3.5293469429016113,-1.9463729858398438,-0.6878902912139893,0.005470627918839455,6.129126995801926e-05,24.8125,25.8125,24.6875,27.4375,28.4375,28.8125
1.0,0.02136760397942164,-0.7411074884143722,-0.550027524813903,-0.010199203389294472,-0.012548386518970278,-0.08336800550967642,-0.5476567516981873,-0.34801390513451635,0.059200346789655134,-3.078421861919947,0.6247039158727136,-0.000533895532283082,-0.0005710806004757436,-0.00018268137189570964,-0.01684884315458446,0.00018195845219938899,-0.0006310021481622777,0.00020539715931839803,0.35732302069664,-1.1086851519397278,1.5986397902118128,-2.0587617359557093,-1.57147723833193,2.3322949409484863,-6.016975385136902e-05,0.02021828666329384,0.01722349226474762,-0.03678710758686066,-1.3791248497722943e-28,-0.0002772083389572799,0.15322890877723694,0.1149216815829277,-9.366117477416992,0.7396538853645325,47.67524337768555,-0.4614309072494507,-3.478641986846924,-1.9589347839355469,-0.7118983268737793,0.012829630635678768,-0.003883881028741598,24.8125,25.8125,24.6875,27.4375,28.4375,28.8125
1.0,-0.15652526560659352,-0.49922570598777416,-0.38558966736559064,-0.016438025651940063,-0.017335013007259873,-0.07926784312630235,-0.5476674797369627,-0.3480055892041768,0.05916980314854192,-3.078434280709375,0.6247248567581584,-0.0005285258730496559,-0.0008652921921702885,-0.0002942100489183204,-0.01685110501158045,-6.705823148710002e-05,2.9202971567858527e-05,0.0001906780306469853,0.35729917883872986,-1.1086490613273163,1.598675552998678,-2.058845182458395,-1.571465317402975,2.332282543182373,-5.888840678380802e-05,0.020515989512205124,0.016973046585917473,-0.03753996267914772,-9.004698996677443e-30,-0.00026158647960983217,0.2106897532939911,0.13407528400421143,-9.366117477416992,0.7016075849533081,47.71733474731445,-0.48933085799217224,-3.455827236175537,-1.8731598854064941,-0.7211406230926514,0.01637716218829155,-0.016567159444093704,24.8125,25.8125,24.6875,27.4375,28.4375,28.8125
1.0,-0.12175750530299526,-0.7277788478422996,-0.40739364635498504,-0.008132564268067494,-0.023196110902583066,-0.082492681110756,-0.5476593671989023,-0.347993931663888,0.05911518575736355,-3.0784232381025682,0.6247221093980752,-0.0006279563921265378,-0.0006887360710926532,-0.00021739328802666998,-0.01728721138311718,0.000289544489045937,-0.0009233228850584565,0.00020370039166924225,0.35727521777153015,-1.1085889500430604,1.5987232367144983,-2.0588933430113734,-1.5714414755450647,2.3322582244873047,-7.459329208359122e-05,0.02111940085887909,0.017008131369948387,-0.037161365151405334,-5.879424955524764e-31,-0.0002900260151363909,0.2298433631658554,0.17238251864910126,-9.385271072387695,0.6478998064994812,47.687782287597656,-0.5414614677429199,-3.524456024169922,-1.8639639616012573,-0.761101484298706,0.000330477487295866,-0.02434798888862133,24.8125,25.8125,24.6875,27.4375,28.4375,28.8125
1.0,-0.11268368085747277,-0.1452564720922657,-0.24832064239495652,-0.022948501989645,-0.01699907474920961,-0.07887386460386238,-0.5476496093586963,-0.3479983766591601,0.059066739764053605,-3.078408022549468,0.6246999338592203,-0.0006767760915927667,-0.0006025683838299424,-0.0001580832924569099,-0.017816346650737832,0.00025807652579535516,-0.0006043316070659625,0.00019342137847474356,0.35728713870048523,-1.1085289877704163,1.59875995317568,-2.058953424493307,-1.5714414755450647,2.3322582244873047,-7.520661893067881e-05,0.021339643746614456,0.018286317586898804,-0.038969334214925766,-8.356446778634563e-05,-0.0002808003919199109,0.3064578175544739,0.2298433631658554,-9.327810287475586,0.6948947906494141,47.671661376953125,-0.5392067432403564,-3.4524407386779785,-1.885189175605774,-0.7725825905799866,0.017811361700296402,-0.017624689266085625,24.8125,25.8125,24.6875,27.4375,28.4375,28.8125
1.0,-0.14278779203993638,-0.6548663011740081,-0.36824782957834434,-0.017365304112182792,-0.012906980465470006,-0.07498096394365007,-0.5476848293664861,-0.3479839334659914,0.05905731938361827,-3.0784168224362563,0.6247018970598345,-0.0005487117601680987,-0.0017090480452302398,-0.0005701798414542829,-0.017310209351316608,-0.001004005600707051,0.002794124870331049,0.00017976146139713815,0.3572631776332855,-1.108505056505539,1.5987713972674769,-2.0590626202025355,-1.57147723833193,2.3322343826293945,-7.369620288955048e-05,0.02137789875268936,0.01780720241367817,-0.04215367138385773,-9.841153223533183e-05,-0.0002672809932846576,0.24899697303771973,0.2298433631658554,-9.327810287475586,0.7709873914718628,47.6734504699707,-0.5127356052398682,-3.4275999069213867,-1.886101245880127,-0.7687257528305054,-0.008584151975810528,-0.03219576179981232,24.8125,25.8125,24.6875,27.4375,28.4375,28.8125
1.0,-0.3467575026681014,-0.6637459701317046,-0.36468655441451614,-0.019971007325277852,-0.014315226612439981,-0.07304670185940763,-0.5476820576824905,-0.3479948870612062,0.05902986698910612,-3.078427179819076,0.62470387248442,-0.0005577943183485587,-0.0021533031623718964,-0.0007384329149984035,-0.017199677682106878,-0.0017423471210885832,0.004755600335040936,0.00018812245051189243,0.35727521777153015,-1.1084690553000947,1.598795239125387,-2.0591231785216273,-1.571465317402975,2.3322463035583496,-7.23191405995749e-05,0.02117239311337471,0.018409008160233498,-0.04464580863714218,-9.737093932926655e-05,-0.00027542197494767606,0.19153612852096558,0.09576806426048279,-9.385271072387695,0.7620334029197693,47.67882537841797,-0.5586296319961548,-3.4242985248565674,-1.8934487104415894,-0.7644912600517273,-0.0014661622699350119,-0.022590218111872673,24.8125,25.8125,24.6875,27.4375,28.4375,28.8125
1.0,0.42492128900764503,-0.4494639244976004,-0.28738832224719973,-0.02913758022460808,0.0039028131854974783,-0.08520581905958986,-0.5476775776101926,-0.3480174999851827,0.05897536697791045,-3.0784325314875454,0.6246476915946172,-0.0005732226066388714,-0.0027976315195365176,-0.0009525607445340724,-0.01759116687048502,-0.0024827946987269543,0.006712707126034271,0.00015063925136848868,0.3573109805583954,-1.1083851021579285,1.5988195578204554,-2.0592199764647425,-1.571465317402975,2.3322463035583496,-0.00011524864385137334,0.021936798468232155,0.01895994506776333,-0.048053640872240067,-9.537827281747013e-05,-0.0002823414106387645,0.17238251864910126,0.09576806426048279,-9.385271072387695,0.6680382490158081,47.73255920410156,-0.5522212982177734,-3.4270083904266357,-1.8073012828826904,-0.7521145343780518,0.008242287673056126,-0.02864006906747818,24.8125,25.8125,24.6875,27.4375,28.4375,28.8125
1.0,-0.08086960885021502,-0.42099375291953794,-0.12031750850925033,-0.01630576118705922,-0.011433333434129146,-0.08358102886874606,-0.5476922983839686,-0.34801503482374535,0.05895821296604553,-3.0784560039842104,0.6246905571014438,-0.0004943759799952535,-0.0026576723484097757,-0.0009023479232385863,-0.0180725245939564,-0.0021853099840677573,0.005911762913786494,0.0001421776760309082,0.35729917883872986,-1.1083728534034272,1.5988672415362757,-2.0593391857542933,-1.571465317402975,2.3322582244873047,-0.00011295724107185379,0.0226016566157341,0.01907804235816002,-0.047982197254896164,-9.34031922952272e-05,-0.00027143434272147715,0.17238251864910126,0.19153612852096558,-9.327810287475586,0.6546126008033752,47.7191276550293,-0.5371941924095154,-3.383512496948242,-1.8253357410430908,-0.7552986145019531,0.007728172931820154,-0.015842583030462265,24.8125,25.8125,24.6875,27.4375,28.4375,28.8125
1.0,0.057767625061360905,-0.4490464738031318,-0.37925634393249547,-0.008068715737720262,-0.013019523844617712,-0.07999246612618308,-0.547675401178196,-0.34802107771813956,0.05890107133659506,-3.0784338816651617,0.6245905141022804,-0.000563797487902578,-0.0030483038843732405,-0.0010518987974137983,-0.01829317708222654,-0.0028177366637035296,0.007585652977740924,0.0001325867521823463,0.35732302069664,-1.1083009105971833,1.5989039579974573,-2.0593882999815882,-1.57147723833193,2.3322224617004395,-0.00011019896192010492,0.022804398089647293,0.019917229190468788,-0.05081350356340408,-9.150410915026441e-05,-0.0002602988388389349,0.15322890877723694,0.2106897532939911,-9.385271072387695,0.6568484306335449,47.70838165283203,-0.5139190554618835,-3.32033634185791,-1.8585004806518555,-0.7561930418014526,0.0035686392802745104,-0.016081001609563828,24.8125,25.8125,24.6875,27.4375,28.4375,28.8125
1.0,-0.13190006586185754,-0.44919212836769346,-0.4195933872340079,-0.004217298866398219,-0.014334672210282135,-0.08089077460120318,-0.5477238816337443,-0.3480187789390814,0.05889259423093676,-3.0784783426379803,0.6247145084059841,-0.00042841319893093,-0.003955762247868688,-0.0013954423916689774,-0.018359530348827657,-0.0039013606967253384,0.01045918612794843,0.0001230924121997121,0.35728713870048523,-1.108264760380127,1.5989039579974573,-2.05953373531484,-1.571465317402975,2.3322582244873047,-0.00010756520350696519,0.023324858397245407,0.020188063383102417,-0.054675858467817307,-8.968049223767594e-05,-0.00024997344007715583,0.1149216815829277,0.13407529890537262,-9.423578262329102,0.7306999564170837,47.68330383300781,-0.509441614151001,-3.416220188140869,-1.8436896800994873,-0.7153875827789307,-0.000243770657107234,-0.025616906583309174,24.8125,25.8125,24.6875,27.4375,28.4375,28.8125
1.0,-0.39953730065719967,-0.6075392322831783,-0.3899851892246888,-0.007337450380956593,-0.011730547243378311,-0.07600356098610486,-0.5477006328889688,-0.3480182348066037,0.05883307199285712,-3.078464857960665,0.6246542888701903,-0.0004918984402160829,-0.004486378030465082,-0.001597350297473105,-0.018410129742362755,-0.004529881669786427,0.01212272560449267,0.00011501721464720488,0.35729917883872986,-1.1082166594317933,1.598987881337301,-2.059618135491842,-1.571465317402975,2.3322343826293945,-0.00010505395039217547,0.0236560869961977,0.020334811881184578,-0.05693214759230614,-8.792829612502828e-05,-0.0002404328843113035,0.1149216815829277,0.09576806426048279,-9.366117477416992,0.7329410910606384,47.661808013916016,-0.5457040667533875,-3.3699145317077637,-1.8268301486968994,-0.7096652388572693,0.006649833172559738,-0.012704509310424328,24.8125,25.8125,24.6875,27.4375,28.4375,28.8125
1.0,0.08306739297759272,-0.08243639111926324,-0.2765862160340132,-0.020717695614450617,0.01118719188191156,-0.08963471833684708,-0.5477125084772345,-0.34802294445425996,0.05880993596065376,-3.0784765819575943,0.6246568861798559,-0.00039011721176000996,-0.005249197326652039,-0.001886393163819997,-0.01819400364614114,-0.005295123564706635,0.014150119621190154,0.00012373006329662067,0.3573109805583954,-1.1081925493529816,1.5990350882159632,-2.0597506962218226,-1.5714896360980433,2.3322463035583496,-0.00010265735181747004,0.02400597743690014,0.019793882966041565,-0.0589081235229969,-8.62430315464735e-05,-0.0002477971138432622,0.09576806426048279,0.1149216815829277,-9.346963882446289,0.6859408020973206,47.71554183959961,-0.5739130973815918,-3.4088289737701416,-1.8164622783660889,-0.6909796595573425,0.0069937920197844505,-0.027787720784544945,24.8125,25.8125,24.6875,27.4375,28.4375,28.8125
1.0,-0.3668792974360687,-0.37355351923547475,-0.16927759425261563,-0.015055372362244794,0.0012351856527322482,-0.08378703428046191,-0.5477267816417066,-0.3480281048348104,0.058764529045283564,-3.0785073009150747,0.6246439511094283,-0.000393593924564179,-0.005180245470874834,-0.0018629183954765017,-0.019099037676152657,-0.005243321307102407,0.014001323393168365,0.00013182734266975766,0.35729917883872986,-1.1081204575351258,1.5990584532367151,-2.0598589382567347,-1.571465317402975,2.3322224617004395,-0.00010036776802735403,0.02494390681385994,0.020913930609822273,-0.060808587819337845,-8.462127152597532e-05,-0.00025419011944904923,0.05746084079146385,0.09576806426048279,-9.366117477416992,0.6904177665710449,47.690467834472656,-0.5671582221984863,-3.4079742431640625,-1.7561569213867188,-0.6623903512954712,0.005109173711389303,-0.025099435821175575,24.8125,25.8125,24.6875,27.4375,28.4375,28.8125
1.0,-0.3859092173560041,0.021813395269274338,-0.10775162748081801,-0.01768387934220503,0.0001320579802647397,-0.09020043872737589,-0.547730844330633,-0.34804583068350026,0.058729635716027295,-3.0785332646974815,0.6246110861217732,-0.00034657432625798986,-0.005804356114020375,-0.0021016678997771874,-0.019735710679185142,-0.006105774717417941,0.016280692305574697,0.00011841346864705158,0.35727521777153015,-1.1080243748477479,1.599142853413717,-2.060087820092672,-1.57147723833193,2.3322582244873047,-9.608179971110076e-05,0.025801224634051323,0.02213185839354992,-0.06532090902328491,-8.155407704180107e-05,-0.00023837995831854641,0.019153613597154617,0.13407529890537262,-9.327810287475586,0.7195101380348206,47.690467834472656,-0.548007607460022,-3.4203591346740723,-1.781433343887329,-0.5942092537879944,0.004968234803527594,-0.03603953868150711,24.8125,25.8125,24.6875,27.4375,28.4375,28.8125
1.0,-0.28557280529600493,-0.11883185985342201,-0.08251630569256124,-0.009517720588285164,0.004856043615758398,-0.07679473018338547,-0.5477658504362253,-0.3480428640677723,0.05863623351322905,-3.0785698700187156,0.6246569189218646,-0.00023479740254634724,-0.006274492083781618,-0.0022804027977406352,-0.019602781326211252,-0.006644127827471083,0.017706149702472765,0.00011200750686879845,0.35729917883872986,-1.1079525214484711,1.599203888569967,-2.060291906396383,-1.571465317402975,2.3322224617004395,-9.407322795595974e-05,0.0259261392056942,0.021995358169078827,-0.06683304905891418,-8.010223973542452e-05,-0.00023074385535437614,0.038307227194309235,0.09576806426048279,-9.366117477416992,0.7508436441421509,47.66986846923828,-0.5765764713287354,-3.3469040393829346,-1.7616171836853027,-0.5777884125709534,0.003062007250264287,-0.02193577215075493,24.8125,25.8125,24.6875,27.4375,28.4375,28.8125
1.0,-0.5449946598594955,-0.20370549385346143,-0.2284508332230924,0.0030666369306992236,-0.0019902674753293353,-0.07600974667681303,-0.5477786317112195,-0.34805149060384916,0.05862003399211674,-3.0786163300396443,0.624609129791562,-0.0001799770598794255,-0.006317603380697319,-0.00229871135697375,-0.020275409751738256,-0.006704452856845129,0.01785698308264468,0.00012507250153566375,0.35729917883872986,-1.10792829216037,1.599227253590719,-2.06038822750234,-1.5714533964740198,2.332186698913574,-9.214699093718082e-05,0.02669009380042553,0.022805839776992798,-0.06856989860534668,-7.870133413234726e-05,-0.00024247431429103017,0.038307227194309235,0.1149216815829277,-9.346963882446289,0.6725152134895325,47.71196365356445,-0.6196807026863098,-3.3679370880126953,-1.729144811630249,-0.5438939929008484,0.013207409530878067,-0.03396571800112724,24.8125,25.8125,24.6875,27.4375,28.4375,28.8125
1.0,-0.6500792023035168,-0.0517366305309937,-0.23417106152967393,0.00284053485330065,-0.011734806429082732,-0.0790086322021036,-0.5477862154354265,-0.3480385750909258,0.05856743493159605,-3.0785707918615186,0.6247338189579538,-0.00015960668962634623,-0.006071933200170021,-0.002208190164616306,-0.0208289866866149,-0.006494410447846559,0.017292244509691097,0.00012067886354629582,0.35728713870048523,-1.1078681510737916,1.5992863813983362,-2.060507913629049,-1.57147723833193,2.3322582244873047,-9.029799548443407e-05,0.02707512117922306,0.02363847941160202,-0.0691850408911705,-7.734859536867589e-05,-0.00023632028023712337,-0.05746084079146385,0.1149216815829277,-9.251194953918457,0.7105615139007568,47.6707649230957,-0.6188197135925293,-3.4242238998413086,-1.7409460544586182,-0.5211705565452576,-0.016443315893411636,-0.029128719121217728,24.8125,25.8125,24.6875,27.4375,28.4375,28.8125
1.0,-0.7728557153629002,-0.09133243022895754,-0.20638361736279504,0.005106681280895779,-0.01591959851094663,-0.07249555728947617,-0.5477726893257977,-0.3480573050225095,0.05853520194477291,-3.0786346575142653,0.6246131795256115,-0.00013353499889586092,-0.005174737985834964,-0.0018729094565802008,-0.021583441762405096,-0.005527624604690495,0.014714440005702626,0.00011205237984080442,0.3573109805583954,-1.1078560215285798,1.5993707815753382,-2.060639043847555,-1.5714533964740198,2.3321986198425293,-8.85217305039987e-05,0.027336783707141876,0.024624910205602646,-0.0676799938082695,-7.604158599860966e-05,-0.00022493420692626387,-0.038307227194309235,0.07661445438861847,-9.289502143859863,0.7016075849533081,47.71464920043945,-0.6005489826202393,-3.414206027984619,-1.762951374053955,-0.5168574452400208,0.008776473812758923,-0.02385024167597294,24.8125,25.8125,24.6875,27.4375,28.4375,28.8125
1.0,-0.2150309799622972,0.357609018189327,-0.007906676860621981,0.0024666863222739003,-0.00853540382234609,-0.08037908408756829,-0.5478010259311825,-0.34807996607915376,0.058500363365196345,-3.0786946225058274,0.6245870928590863,-3.5051551147548167e-05,-0.004867846790746069,-0.0017593152366074552,-0.02184287385046896,-0.004880024300587588,0.012984985765533382,0.00010398460357103869,0.35732302069664,-1.1077840787223359,1.5993836561786097,-2.060805460015768,-1.5714414755450647,2.332186698913574,-8.681398321641609e-05,0.02789393812417984,0.023981595411896706,-0.06574710458517075,-7.47779049561359e-05,-0.00021425042359624058,-0.019153613597154617,0.13407529890537262,-9.136273384094238,0.7486078143119812,47.656429290771484,-0.6421563029289246,-3.4223790168762207,-1.7833073139190674,-0.5236355662345886,0.009891924448311329,-0.032117653638124466,24.8125,25.8125,24.6875,27.4375,28.4375,28.8125
1.0,-0.1803084157347019,0.5879641418483531,0.04625911285948055,0.005935898370151918,-0.017320072248617507,-0.08359585444756538,-0.5478057691398496,-0.34804599985625445,0.05842881986103038,-3.0786005844558395,0.6247400846661051,-8.46107239786356e-05,-0.0045735100621993865,-0.0016504258651621093,-0.022610994827840833,-0.0041165399452264126,0.010943833815809397,0.00011664289982737728,0.35728713870048523,-1.1076997083476563,1.5994427839862269,-2.0608893833556117,-1.57147723833193,2.3322582244873047,-8.517089008819312e-05,0.029215505346655846,0.023529496043920517,-0.06443731486797333,-7.355568959610537e-05,-0.00022449917742051184,0.019153613597154617,0.15322890877723694,-9.155426979064941,0.7105615139007568,47.702110290527344,-0.6203200817108154,-3.3552823066711426,-1.7260355949401855,-0.5516378283500671,-0.00026893196627497673,-0.020088035613298416,24.8125,25.8125,24.6875,27.4375,28.4375,28.8125
1.0,-0.04396356754755834,0.5538092555623987,0.04686847888649088,0.013127347917088377,-0.020596291508600418,-0.08390944337451546,-0.5478397815755591,-0.3480587951134099,0.05841977592593481,-3.078659003565372,0.6247719467609169,7.454345512704253e-05,-0.0036003690826425017,-0.001279069077010611,-0.023755047928428606,-0.0027497177452098214,0.007298233893754204,0.00011751466678294272,0.35728713870048523,-1.1076753300479432,1.5994656721698206,-2.0610562763609828,-1.57147723833193,2.332270622253418,-9.459033753955737e-05,0.03031340055167675,0.024017876014113426,-0.06213018670678139,-7.237268437165767e-05,-0.000233378610573709,0.019153613597154617,-0.019153613597154617,-9.136273384094238,0.6590895652770996,47.704795837402344,-0.6558130979537964,-3.4327917098999023,-1.6648699045181274,-0.5669673681259155,-5.7507073506712914e-05,-0.024600427597761154,24.8125,25.8125,24.6875,27.4375,28.4375,28.8125
1.0,-0.04405260443499254,0.56372495031279,0.15209673817179928,0.01180491804525478,-0.025176059250182906,-0.08525589725797941,-0.5478415948461332,-0.34805521635329195,0.0583803426439054,-3.078685891649623,0.6247194086436925,7.88473211821573e-05,-0.0036207225499990865,-0.001284581619046237,-0.024040509957562222,-0.0028686402132605164,0.007609874567767746,0.00010477381293380996,0.35727521777153015,-1.1076393884471436,1.5995271841632288,-2.061164518395895,-1.571465317402975,2.3322224617004395,-9.840074926614761e-05,0.030507823452353477,0.02464042231440544,-0.06328070908784866,-7.122709939721972e-05,-0.0002248734381282702,0.07661445438861847,-0.019153613597154617,-9.193734169006348,0.6881819367408752,47.686885833740234,-0.6463059186935425,-3.427417278289795,-1.655379295349121,-0.5552171468734741,0.008843614719808102,-0.020724374800920486,24.8125,25.8125,24.6875,27.4375,28.4375,28.8125
1.0,0.07492296816544707,0.2702512718449397,0.09444966356214045,0.017192119390009947,-0.021993223281057805,-0.07819007396402933,-0.5478657734526379,-0.3480843991832419,0.058356383793672695,-3.0787422760025414,0.6247116896060075,0.00017780284837120173,-0.0022165791749651667,-0.000758248964904515,-0.024452655152656426,-0.0014820396132718175,0.0039231054837014214,9.940699357972422e-05,0.35729917883872986,-1.107579694395401,1.599527661000387,-2.0613066158690394,-1.5714533964740198,2.3322343826293945,-9.671253792475909e-05,0.02986888773739338,0.025686660781502724,-0.05974911153316498,-7.011732668615878e-05,-0.00021595798898488283,0.1149216815829277,-0.019153613597154617,-9.097966194152832,0.7195101380348206,47.681514739990234,-0.6867326498031616,-3.3763999938964844,-1.6763420104980469,-0.5872713327407837,0.004310718271881342,-0.02312120608985424,24.8125,25.8125,24.6875,27.4375,28.4375,28.8125
1.0,0.37440710196014637,0.5519546644579716,0.3675386071024259,0.012435854803912372,-0.01901444219226397,-0.08237300671711759,-0.547848122668412,-0.34809398582379547,0.05827856692306216,-3.078719007213044,0.6246687818570068,9.855317689261289e-05,-0.0016749050241039896,-0.0005471365138288851,-0.025436828439241135,-0.000656239166578548,0.0017163349522779667,7.947952246363301e-05,0.35732302069664,-1.1074835819057007,1.5995867888080042,-2.0614024601378382,-1.5714533964740198,2.3322343826293945,-0.00010899681365117431,0.030963750556111336,0.026159871369600296,-0.058960963040590286,-6.904156180098653e-05,-0.0002076576347462833,0.19153612852096558,0.038307227194309235,-9.02135181427002,0.7418897151947021,47.6627082824707,-0.6186405420303345,-3.32822322845459,-1.4825255870819092,-0.6192619800567627,0.0012767573352903128,-0.025239218026399612,24.8125,25.8125,24.6875,27.4375,28.4375,28.8125
1.0,-0.009399391555145048,0.5733256611442709,0.11639834772615519,0.009678218241196787,-0.03441624735072023,-0.0725648858266439,-0.5478445285650048,-0.34809311842415985,0.05824237797944648,-3.0787182377122715,0.6246304263224262,0.0001478555591613595,-0.0008012337360227483,-0.0002160858748268211,-0.0271888775020962,0.0004983942651147024,-0.0013352001044500674,7.249314103823504e-05,0.3573349416255951,-1.1074589651874085,1.5996597448932093,-2.061522146264547,-1.57147723833193,2.3322224617004395,-0.00010890599514823407,0.03264371678233147,0.027687931433320045,-0.05890630558133125,-7.982102397363633e-05,-0.00019996649643871933,0.26815059781074524,-0.05746084079146385,-8.983044624328613,0.7150384783744812,47.694053649902344,-0.6881310343742371,-3.4190800189971924,-1.5538957118988037,-0.6454582810401917,-0.007835399359464645,-0.025352338328957558,24.8125,25.8125,24.6875,27.4375,28.4375,28.8125
1.0,-0.238098708554462,0.05492131758859506,0.14090210968408623,0.019714026973726095,-0.04310824673541751,-0.06969408441923777,-0.5478593673801384,-0.3480828609981904,0.058188337227205095,-3.078704379621625,0.6246276312452229,0.0001838168711239069,-0.00040003630672579585,-5.6428474588548727e-05,-0.028075306232230285,0.0007772377408242042,-0.002079517937472071,6.75622525316776e-05,0.35732302069664,-1.107386903171875,1.5997079054461878,-2.0616542301573695,-1.5715015570269983,2.3322105407714844,-0.0001221937855007127,0.03314261883497238,0.02925192564725876,-0.0601743720471859,-8.026722207432613e-05,-0.0002085695305140689,0.2106897532939911,0.0,-8.983044624328613,0.7083203792572021,47.72808074951172,-0.6348761320114136,-3.4135189056396484,-1.5864579677581787,-0.6429345607757568,0.003880499629303813,-0.02527827024459839,24.8125,25.8125,24.6875,27.4375,28.4375,28.8125
1.0,0.2937236537311186,0.23733151046094414,0.20916281279704033,0.0177961047679158,-0.02970430683668555,-0.08251683324188894,-0.5478261073033056,-0.34808194033168444,0.05810391371172402,-3.0786750227722344,0.6246982897315815,3.917665415725544e-05,0.0011499871636415449,0.0005987983127693435,-0.029617491731338295,0.0028856136597221007,-0.007697507050641004,-3.073507030201434e-05,0.35732296109199524,-1.1073144537261506,1.5998151938067835,-2.0617481670775355,-1.571465317402975,2.3322582244873047,-0.00023039497318677604,0.03441234678030014,0.030020495876669884,-0.05621207505464554,-7.919681229395792e-05,-0.00021613518765661865,0.26815059781074524,0.0,-8.925583839416504,0.6344689130783081,47.685096740722656,-0.6192059516906738,-3.524658679962158,-1.551513433456421,-0.694675087928772,0.003172729630023241,-0.029575815424323082,24.8125,25.8125,24.6875,27.4375,28.4375,28.8125
1.0,0.5116326919586515,0.6411706658698789,0.2354730440385532,0.015992219400821874,-0.03354411423936127,-0.0863137836481744,-0.5478375013763228,-0.3480538221769469,0.05802405604530109,-3.0786415121881316,0.6247681575069302,-9.02439310135323e-06,0.0007297817265384421,0.0004877735353815068,-0.02874170051210393,0.002078093548688728,-0.005548895533463325,-0.0001140707601981956,0.35728707909584045,-1.1071593326381226,1.5999239126788538,-2.0619522533812464,-1.5714414755450647,2.3322343826293945,-0.0003000300785060972,0.0331602469086647,0.03009156510233879,-0.05732639133930206,-7.694704254390672e-05,-0.00020318788301665336,0.2298433631658554,0.038307227194309235,-8.96389102935791,0.6210432648658752,47.68330383300781,-0.6884043216705322,-3.4506876468658447,-1.5101466178894043,-0.7535422444343567,0.00198568869382143,-0.02886943146586418,24.8125,25.8125,24.6875,27.4375,28.4375,28.8125
1.0,0.2240302018152029,0.5430291175039905,0.3388880277784292,0.012310775937439244,-0.03278793270524067,-0.08878771409085784,-0.5478622522454314,-0.34806719410196474,0.057938192297816576,-3.078668592214119,0.6247170737531098,6.630939361272167e-05,0.0005303397981102203,0.001121591103345424,-0.029050285798867155,0.0021292609141409006,-0.005688760593116588,-0.0011411740477101323,0.3572866916656494,-1.1070873898318787,1.5999468008624476,-2.062120100060934,-1.57147723833193,2.3322343826293945,-0.0013450045371428132,0.03322140499949455,0.030847186222672462,-0.057994257658720016,-7.586609717691317e-05,-0.0002212436229456216,0.17238251864910126,0.019153613597154617,-8.9064302444458,0.7486078143119812,47.6895751953125,-0.5760215520858765,-3.349952220916748,-1.4904323816299438,-0.7787690758705139,0.00172014522831887,-0.02383130043745041,24.8125,25.8125,24.6875,27.4375,28.4375,28.8125
1.0,-0.019694892387509773,-0.13602460792100968,0.22520544780352736,0.012861907184940315,-0.030577067976828413,-0.07346200360765034,-0.547824920876328,-0.3480736362982173,0.05787571379588133,-3.0786356087518394,0.6246335922418217,-2.001066237508128e-05,0.00095409498648526,0.0011173965992007087,-0.030776574778723604,0.0027991135341944792,-0.007487498825016888,-0.0009055290691446583,0.35732266306877136,-1.1070386630347748,1.6000312010394495,-2.0621806583800257,-1.5714896360980433,2.3322224617004395,-0.001105914474464953,0.03537697345018387,0.03195301443338394,-0.05933624505996704,-7.481496868422255e-05,-0.00021790475875604898,0.2106897532939911,0.13407528400421143,-8.96389102935791,0.6926589012145996,47.71017074584961,-0.6347453594207764,-3.4656167030334473,-1.5601327419281006,-0.8068181276321411,0.00850311666727066,-0.03621593117713928,24.8125,25.8125,24.6875,27.4375,28.4375,28.8125
1.0,-0.011047812600772762,0.1989107468928398,0.28046683835515906,-0.008969314113252148,-0.01724797097144574,-0.08543093803988261,-0.5478089254619651,-0.3480669250856799,0.05778418772028235,-3.078638422056302,0.6246342188166075,-0.00015595378978756696,0.0006461844531105739,0.0008736217651818795,-0.030856168161805184,0.0024521752031734178,-0.006571323655058281,-0.0007244363282505055,0.357298880815506,-1.1069426101497193,1.6001265684710901,-2.0623003445067347,-1.5714414755450647,2.3321986198425293,-0.0009180345805361867,0.035805538296699524,0.03180539608001709,-0.06059684231877327,-7.379266753559932e-05,-0.00021171547996345907,0.2106897532939911,0.07661445438861847,-9.02135181427002,0.7351769208908081,47.6895751953125,-0.6498081088066101,-3.485024929046631,-1.5072861909866333,-0.8246809840202332,0.007853975519537926,-0.03052973374724388,24.8125,25.8125,24.6875,27.4375,28.4375,28.8125
1.0,-0.39988304438901656,-0.7734006740018322,0.17324179661519945,-0.004612244571692407,-0.015705119533921057,-0.07730252469755872,-0.5478189694749154,-0.348066904455161,0.05775857323964578,-3.0786409203164973,0.6246347493305868,-0.000114572000624999,0.00022125774819859093,0.0007005278361552488,-0.03087685944997029,0.0017947618383651648,-0.004826520089179026,-0.0007124372853818583,0.357298880815506,-1.1069066685489197,1.600151840840475,-2.062385221520895,-1.5714533964740198,2.3321986198425293,-0.0008988855988718569,0.03583806753158569,0.03235328942537308,-0.0630418136715889,-7.279781129909679e-05,-0.00020568164472933859,0.15322890877723694,0.17238251864910126,-8.96389102935791,0.7150384783744812,47.70390319824219,-0.666440486907959,-3.5080270767211914,-1.5119227170944214,-0.8476917147636414,-0.006686959881335497,-0.043436817824840546,24.8125,25.8125,24.6875,27.4375,28.4375,28.8125
1.0,-0.8513586365007322,-1.1191064204551653,-0.0956325890920138,-0.0073260159051308435,-0.021042071998844128,-0.06929634813716744,-0.5478342420283778,-0.3480488286399719,0.05770752253748912,-3.078628367488771,0.624632312324817,-7.657279706469305e-05,-0.0003704090223439433,0.00040976645330164724,-0.030955374772354875,0.0009816361730895732,-0.0026696388632697675,-0.0005817616088196541,0.35727497935295105,-1.1068469148925324,1.600210968648092,-2.0625177822508753,-1.57147723833193,2.332174777984619,-0.0007988233119249344,0.036146003752946854,0.03277009725570679,-0.06607162952423096,-7.182948320405558e-05,-0.00023768919345457107,0.19153612852096558,0.2106897532939911,-9.059659004211426,0.7127973437309265,47.704795837402344,-0.6736360192298889,-3.382117986679077,-1.5535693168640137,-0.8358789682388306,-0.0006745322607457638,-0.03245338052511215,24.8125,25.8125,24.6875,27.4375,28.4375,28.8125
1.0,-0.340194451565598,-0.5926023526275741,0.04267939334674878,-0.02372235786287661,-0.005239877835442387,-0.08430730400927375,-0.5477917518511876,-0.348069160013913,0.05759971359730626,-3.0785950425714526,0.6246254285208149,-0.00019788583417438153,-0.0007219481307042579,0.0002852064131697757,-0.031673541315140434,0.0005913313666293438,-0.001610193540398932,-0.0005965679050040257,0.3573227822780609,-1.1067386132529755,1.6003311316119593,-2.062662740746969,-1.571465317402975,2.3322224617004395,-0.0008059674873948097,0.03715677931904793,0.03361254930496216,-0.06905386596918106,-8.191930101020262e-05,-0.0002311791613465175,0.07661445438861847,0.09576806426048279,-9.097966194152832,0.6971306204795837,47.70121383666992,-0.6895253658294678,-3.428884744644165,-1.5848846435546875,-0.8464285135269165,-0.004790853708982468,-0.03526990860700607,24.8125,25.8125,24.6875,27.4375,28.4375,28.8125
1.0,-0.4225694398058273,-0.8198349306981467,0.061086985948121494,-0.024745404012683787,-0.004455139877384516,-0.07817017785846635,-0.547839159474611,-0.34805786775655756,0.05756711220853297,-3.0786420984941123,0.6247118722789201,-0.0001455651291271836,-0.002035318785686318,-0.0003079338617052534,-0.03174160353217075,-0.0013026624809015638,0.003422303179887552,-0.0004429846871920114,0.3572629988193512,-1.1066665214351197,1.6003316084491175,-2.0627972088255824,-1.5714295546161097,2.3322105407714844,-0.0006597555475309491,0.037518762052059174,0.03479927033185959,-0.07597966492176056,-8.157840056810528e-05,-0.00024174098507501185,0.07661445438861847,0.17238251864910126,-9.251194953918457,0.6971306204795837,47.733455657958984,-0.7003592252731323,-3.479620933532715,-1.54241943359375,-0.7920541763305664,-0.001084052142687142,-0.017273370176553726,24.8125,25.8125,24.6875,27.4375,28.4375,28.8125
1.0,-0.916579433981937,-1.328497077770216,-0.18310817801929605,-0.017116993936465322,-0.011111502943422892,-0.07118111168247339,-0.5477993659653233,-0.3480477370409591,0.0574707631625202,-3.0785729664599697,0.6246785840057711,-0.00022671880247905783,-0.0021484878062034913,-0.00028835859222093506,-0.032291453285612774,-0.001540528377736987,0.004047998259850224,-0.0005275607769313294,0.35728690028190613,-1.1065946382335206,1.6004751364337366,-2.0629292927184046,-1.571465317402975,2.3322224617004395,-0.0007522761006839573,0.03798501193523407,0.035866878926754,-0.07818291336297989,-8.058202365646139e-05,-0.0002505049924366176,0.019153613597154617,0.26815059781074524,-9.366117477416992,0.7396538853645325,47.6976318359375,-0.7282177209854126,-3.4812445640563965,-1.5832492113113403,-0.7792636156082153,-0.004540153779089451,-0.03112773224711418,24.8125,25.8125,24.6875,27.4375,28.4375,28.8125
1.0,-0.8558387998605229,-0.8711690589897334,-0.23207978308283808,-0.02449263114920819,-0.004384716885678977,-0.08207643089836099,-0.5478031600370435,-0.34803294414425967,0.05739118847329669,-3.0785441714518145,0.6247303027818132,-0.0002723756920624255,-0.003394670398409762,-0.0007279005143659438,-0.032399854058975726,-0.0029545140043300824,0.007799967359797663,-0.0005831460161699511,0.3572629392147064,-1.1064984959414979,1.600546662007467,-2.0630628071227015,-1.571465317402975,2.3322343826293945,-0.0007956350455060601,0.03880074620246887,0.036074910312891006,-0.08321624249219894,-7.956734771141782e-05,-0.00024064615718089044,0.07661445438861847,0.3064578175544739,-9.346963882446289,0.6948947906494141,47.6895751953125,-0.6411561965942383,-3.4361047744750977,-1.5751311779022217,-0.7396271228790283,-0.0012023556046187878,-0.03241991996765137,24.8125,25.8125,24.6875,27.4375,28.4375,28.8125
1.0,-1.0242540874911046,-1.10308889464969,-0.385715848514885,-0.02510879376761916,-0.00592232353193896,-0.07365502483981509,-0.5478160739532368,-0.3480582837059006,0.05734660783354653,-3.078593155965489,0.6246639320539487,-0.0001503728020870958,-0.004894233071706094,-0.0008507096393205026,-0.03242994068364493,-0.0045159820242361565,0.0119440283027938,-0.0012465337626055388,0.35729870200157166,-1.1064382952502747,1.6006067434894007,-2.0632673702635707,-1.57147723833193,2.3322224617004395,-0.0014462568797171116,0.03940649703145027,0.03650328144431114,-0.08867884427309036,-7.857513264752924e-05,-0.00023045878333505243,0.07661445438861847,0.26815059781074524,-9.346963882446289,0.7306999564170837,47.694053649902344,-0.703481912612915,-3.5400290489196777,-1.5555453300476074,-0.657628059387207,0.0070555321872234344,-0.02969123050570488,24.8125,25.8125,24.6875,27.4375,28.4375,28.8125
1.0,-0.8605029599702332,-1.1742746579544618,-0.3326962233580295,-0.01721383683630035,0.0012408568383030756,-0.07109886858757676,-0.5478101615453108,-0.34805216043464826,0.05726241243413144,-3.0785607997036197,0.6246764520939809,-0.00018764489698242063,-0.004695067488751656,-0.0008111837437749841,-0.033313851188090285,-0.004412386367172055,0.011660044904753917,-0.0012054708710786159,0.35729873180389404,-1.1063420933536072,1.6006911436664026,-2.0634123287596644,-1.5714896360980433,2.3322343826293945,-0.0013952538138255477,0.04015855863690376,0.037812866270542145,-0.09043821692466736,-7.760729204164818e-05,-0.00022102943330537528,-0.019153613597154617,0.19153612852096558,-9.442731857299805,0.7351769208908081,47.686885833740234,-0.6537348031997681,-3.5393552780151367,-1.6073191165924072,-0.629123330116272,0.01731777936220169,-0.03629191219806671,24.8125,25.8125,24.6875,27.4375,28.4375,28.8125
1.0,-0.6433237795296435,-0.6116755824804545,-0.2764036239945648,-0.027485791412830477,0.0030089763250829623,-0.07991703797130478,-0.5478534473300813,-0.34805224190979517,0.05721792429787567,-3.0786051562289165,0.6246856865843444,-7.475218485874655e-05,-0.00516582549117111,-0.0010756074314615856,-0.033618098324179155,-0.00494932024840326,0.013081087779524428,-0.0010607863336237788,0.3572748303413391,-1.1062582594207306,1.6007145086871546,-2.0636044941344203,-1.5714896360980433,2.3322105407714844,-0.0012669480638578534,0.040874283760786057,0.03802424669265747,-0.09288442134857178,-7.666294550290331e-05,-0.00023850156867410988,0.09576806426048279,0.15322890877723694,-9.327810287475586,0.7239871025085449,47.71464920043945,-0.7095721960067749,-3.6344733238220215,-1.5779705047607422,-0.5898020267486572,-0.01056057307869196,-0.02236326038837433,24.8125,25.8125,24.6875,27.4375,28.4375,28.8125
1.0,-0.7785790211978724,-1.012899659609003,-0.4352090785603614,-0.0080534190659073,-0.004297406748573115,-0.0720768276508431,-0.5478387977814653,-0.34805838502501624,0.05712667460596729,-3.078618330019031,0.6247458176898074,-0.00012025947840768294,-0.005801922012431426,-0.0014133115446794114,-0.03270251751677397,-0.005908705531522395,0.01565114622230257,-0.0009145738247324278,0.3572748601436615,-1.1061744850924988,1.6008456389056605,-2.063808103600973,-1.5714533964740198,2.3322463035583496,-0.0011190467048436403,0.03999107703566551,0.03753872215747833,-0.09425895661115646,-8.107515895972028e-05,-0.0002377496857661754,0.07661445438861847,0.15322890877723694,-9.366117477416992,0.7239871025085449,47.6976318359375,-0.6585400104522705,-3.6155495643615723,-1.5600208044052124,-0.5611281991004944,-0.008153035305440426,-0.017626862972974777,24.8125,25.8125,24.6875,27.4375,28.4375,28.8125
1.0,-0.1982723862540971,-0.165610062159481,-0.4520808982125269,-0.012205917814866692,-0.001753628462029309,-0.08338854574744169,-0.5478534809304754,-0.3480802466467656,0.05706001147805767,-3.078663673696664,0.6246784452669368,-4.319855594959099e-05,-0.004199227894619985,-0.0009120958513904612,-0.034461260498742166,-0.00438958458959244,0.011615976054224339,-0.000771508231747658,0.357298880815506,-1.1060785216144104,1.6009066740619105,-2.0640231571593226,-1.5714533964740198,2.3322224617004395,-0.0009689482394605875,0.04073053598403931,0.040245670825242996,-0.0933937057852745,-8.517489186488092e-05,-0.00022962255752645433,0.07661445438861847,0.13407529890537262,-9.308655738830566,0.6881819367408752,47.72718811035156,-0.6887844204902649,-3.6336350440979004,-1.6101443767547607,-0.5452027320861816,0.0056779105216264725,-0.014972465112805367,24.8125,25.8125,24.6875,27.4375,28.4375,28.8125
1.0,0.03747038273433076,0.5716909682325794,-0.42966746660047517,0.01255344744142139,-0.03292138509651075,-0.08176415317576859,-0.5478631353555509,-0.34806772281210124,0.056923402262742784,-3.078664612898469,0.624736235247762,-1.3211925881599628e-05,-0.0035983969565231643,-0.0008240404476488655,-0.0346356262595958,-0.003082475950692623,0.008130823036809167,-0.0005827929645009091,0.35727497935295105,-1.1059343975833436,1.6010854879962366,-2.06436886409902,-1.5714533964740198,2.3322343826293945,-0.000766792509239167,0.04166960343718529,0.03822697326540947,-0.08859186619520187,-8.354667806997895e-05,-0.00021405315783340484,0.07661445438861847,-0.05746084079146385,-9.327810287475586,0.7642692923545837,47.704795837402344,-0.7866019606590271,-3.654761791229248,-1.5623900890350342,-0.5725319981575012,-0.007113995496183634,-0.023662850260734558,24.8125,25.8125,24.6875,27.4375,28.4375,28.8125
1.0,0.20589671891384506,0.7338278272544994,-0.5747735725899079,0.027958244402058394,-0.0438838504719248,-0.08247385036515532,-0.5478820268886861,-0.3480911243388023,0.056864966829353214,-3.0787060716706223,0.6246872632544426,6.349860915834986e-05,-0.0020893771298963254,-0.00024622921759502147,-0.036213739531410466,-0.0013710074491923177,0.003569690698747833,-0.0006051307472409646,0.35729894042015076,-1.1058381658843537,1.6011222044574183,-2.064559598962301,-1.5714533964740198,2.3322224617004395,-0.0007836923468858004,0.042571134865283966,0.039996132254600525,-0.0863908976316452,-8.258970774477348e-05,-0.00020701836911030114,0.1149216815829277,-0.019153613597154617,-9.327810287475586,0.6769921779632568,47.718231201171875,-0.7362464666366577,-3.686230182647705,-1.4938392639160156,-0.5918093919754028,-0.008919884450733662,-0.030544977635145187,24.8125,25.8125,24.6875,27.4375,28.4375,28.8125
1.0,0.2233919344535258,0.7765205404533848,-0.4099404391142307,0.02683157374638262,-0.03685704492283489,-0.0815695547861269,-0.5478870457023595,-0.34805669023642793,0.056786511655395056,-3.0786644451149554,0.6247748157703192,3.958571937342971e-05,-0.0010850477652922046,0.00015599439517863503,-0.03723201825019711,-0.00016063123836009322,0.0003437120005545433,-0.0006477861245792578,0.35725098848342896,-1.1057661038688202,1.6012304464923304,-2.064714571038717,-1.571465317402975,2.3322343826293945,-0.0008209816878661513,0.0432259775698185,0.04094056785106659,-0.0845446065068245,-8.165321196429431e-05,-0.00020043250697199255,0.07661445438861847,-0.15322890877723694,-9.308656692504883,0.7150384783744812,47.69136428833008,-0.7535937428474426,-3.7064998149871826,-1.6618645191192627,-0.5953555107116699,-0.014115605503320694,-0.02616029977798462,24.8125,25.8125,24.6875,27.4375,28.4375,28.8125
1.0,0.1350205251986864,0.2907602729222067,-0.2612122094357374,0.024268489213961845,-0.022144080991466943,-0.07857685138952558,-0.5478840445551686,-0.348063707580002,0.05668747336739727,-3.0786718250163765,0.6246418810549512,-9.52434441985178e-06,-0.00021642321508226963,0.0005209411663413391,-0.038219634127396374,0.0010177737448107886,-0.0027988559820217207,-0.0006863720804753993,0.35726290941238403,-1.1056340497783204,1.6013019720660608,-2.0648814640440882,-1.571465317402975,2.332162380218506,-0.000878682010807097,0.04408794641494751,0.04149902984499931,-0.08260879665613174,-8.07375690783374e-05,-0.00021833217761013657,0.19153612852096558,-0.19153612852096558,-9.366117477416992,0.7195101380348206,47.70838165283203,-0.7855349779129028,-3.74588680267334,-1.5916049480438232,-0.620671272277832,-0.0027233571745455265,-0.03324881196022034,24.8125,25.8125,24.6875,27.4375,28.4375,28.8125
1.0,0.07584004250317243,0.25918232167820504,-0.2400631906402872,0.02210890439731114,-0.023882315452549208,-0.08327353279741903,-0.5479051835063166,-0.34805624055422824,0.05664396597235083,-3.0786344595135353,0.6247497782482984,9.447773565456813e-05,0.0010358893881427598,0.001103777846777192,-0.0390776090384541,0.0022439065696996064,-0.006061782768939233,-0.0008541196447005269,0.35726284980773926,-1.1055742663196106,1.601349178944723,-2.0650364361205042,-1.5715134779559534,2.3322343826293945,-0.001044503878802061,0.04393133148550987,0.04322411119937897,-0.08069157600402832,-7.984227704582736e-05,-0.00021512083185371011,0.15322890877723694,-0.24899697303771973,-9.385271072387695,0.6971306204795837,47.692256927490234,-0.771239697933197,-3.734342098236084,-1.6443421840667725,-0.65501868724823,-0.005739669315516949,-0.01899462565779686,24.8125,25.8125,24.6875,27.4375,28.4375,28.8125
1.0,-0.11792740732492622,0.49250954470537295,-0.38124715652322266,0.022344296999268484,-0.02901413341289711,-0.0726444727529511,-0.5478780784736517,-0.3480739393900288,0.05656175558454224,-3.0786628358336765,0.6246981886049082,3.0707367450519945e-05,0.0009579929389520009,0.0010677310524138655,-0.03834225586520454,0.002285954393544397,-0.006366766782033569,-0.0008818288368839167,0.35728681087493896,-1.105502502327301,1.601468865071432,-2.065202852288717,-1.57147723833193,2.3322224617004395,-0.0010668233735486865,0.04344681650400162,0.04176327586174011,-0.07844604551792145,-1.0284498785040341e-05,-0.00020908955775666982,0.15322890877723694,-0.15322890877723694,-9.346963882446289,0.7105615139007568,47.68330383300781,-0.7697317600250244,-3.7047266960144043,-1.5581984519958496,-0.7070411443710327,-0.007897979579865932,-0.025155052542686462,24.8125,25.8125,24.6875,27.4375,28.4375,28.8125
1.0,-0.317969120362256,0.4544022135303634,-0.18215147324532086,0.02658268312485849,-0.03859516530796024,-0.0740656815476137,-0.5478738793361387,-0.34805604156068426,0.056472612922636056,-3.0786307436052875,0.6247303719262608,-3.2805047485486526e-05,0.0010171939399643457,0.0013699559447030117,-0.039323929732020486,0.0028486369789158077,-0.007901199339861914,-0.00130539441020905,0.3572627007961273,-1.1054063004306336,1.6015642325030726,-2.0653468571104945,-1.57147723833193,2.3322224617004395,-0.001484767533838749,0.04494215175509453,0.041820503771305084,-0.07836432009935379,-6.715042673022253e-07,-0.0002032025222433731,0.13407529890537262,-0.1149216815829277,-9.327810287475586,0.7127973437309265,47.7191276550293,-0.7321735620498657,-3.6994924545288086,-1.4731428623199463,-0.7338814735412598,0.00695751141756773,-0.020187223330140114,24.75,25.8125,24.6875,27.4375,28.4375,28.8125
1.0,-0.16353415218973952,-0.1406480449340807,-0.4169751539381489,0.041815824408111636,-0.03639836899306227,-0.06961210543450581,-0.5478917474389474,-0.34804256299402464,0.05641500819630535,-3.0786202326474204,0.6247858058563205,5.128026289682558e-06,0.0028971288911204245,0.002029964979644604,-0.04075769209117699,0.004749702042074334,-0.012962265939264002,-0.0012412687834524472,0.3572387397289276,-1.105334149008133,1.6016252676593226,-2.065500875512594,-1.5714896360980433,2.3322343826293945,-0.001417041989043355,0.045201659202575684,0.04401538893580437,-0.07541237771511078,-4.384443030858165e-08,-0.0001976251369342208,0.28730422258377075,-0.038307227194309235,-9.346963882446289,0.6926589012145996,47.694053649902344,-0.7485050559043884,-3.815128803253174,-1.6349105834960938,-0.7898057699203491,0.0026236639823764563,-0.028066733852028847,24.75,25.8125,24.6875,27.4375,28.4375,28.8125
1.0,-0.06624779179385665,0.15249343723798964,-0.15462753041764804,0.022184454689438814,-0.03260774210134215,-0.07325898016289976,-0.5478754922233204,-0.3480489886054674,0.05632774464270651,-3.0785930806607533,0.6247800460365552,-2.9880573418621385e-05,0.002154134673961622,0.0016868026365260938,-0.0389765022546228,0.003016952751729355,-0.008334713793343638,-0.0011526182076896743,0.3572627604007721,-1.1052394670299073,1.6017215887652796,-2.065658231774801,-1.5715015570269983,2.3322582244873047,-0.0013213931815698743,0.04242659732699394,0.044591620564460754,-0.07815487682819366,-2.8627276105197552e-09,-0.00019234536739531904,0.07661445438861847,-0.019153613597154617,-9.308655738830566,0.7508436441421509,47.718231201171875,-0.6818788051605225,-3.5686306953430176,-1.6178419589996338,-0.8246709108352661,-0.01495794765651226,-0.020870130509138107,24.75,25.8125,24.6875,27.4375,28.4375,28.8125
1.0,-0.6224834589855358,0.10350978233979172,-0.3024999253403236,0.008984549538572799,-0.031523560236735554,-0.07599402064197357,-0.5478773920999976,-0.34806898814963466,0.056263477815862106,-3.078660564105291,0.6247365628163978,-6.414773498432075e-05,0.0022345156363016857,0.0016129942762367097,-0.03935838428545396,0.0030060126435166026,-0.008308366782554923,-0.0010049405166233146,0.35726282000541687,-1.105155275469162,1.6017807165728968,-2.0658136806883753,-1.5714414755450647,2.3322224617004395,-0.0011683963239192963,0.04279175400733948,0.04514307156205177,-0.07909998297691345,-1.8691567738038373e-10,-0.0001873405126389116,0.15322890877723694,0.019153613597154617,-9.308656692504883,0.7575564384460449,47.703006744384766,-0.7004817128181458,-3.5489888191223145,-1.5935442447662354,-0.8049368858337402,-0.008669475093483925,-0.027650369331240654,24.75,25.8125,24.6875,27.4375,28.4375,28.8125
1.0,-0.3006170235859828,0.20790700312203786,-0.20578710282344595,-0.010496429757979568,-0.013340649146092294,-0.08084753158088435,-0.5478583239659657,-0.3480580509398925,0.056175464199895886,-3.078612736239611,0.6247650830164339,-0.00013277396058350362,0.0018046343669665067,0.0014125080191297458,-0.03928618354229749,0.0024965057944670403,-0.006954726184960826,-0.0009532741885751843,0.35726282000541687,-1.105071560745575,1.6018889586078089,-2.065946718255514,-1.5714533964740198,2.3322463035583496,-0.0011111967032775283,0.04298640787601471,0.04505494236946106,-0.0806528627872467,-1.220425756981447e-11,-0.0001825893559725955,0.1149216815829277,-0.05746084079146385,-9.327810287475586,0.7441308498382568,47.72629165649414,-0.7687019109725952,-3.5539662837982178,-1.5843307971954346,-0.8510452508926392,-0.013336175121366978,-0.01489119604229927,24.75,25.8125,24.6875,27.4375,28.4375,28.8125
1.0,-0.40474030863383365,-0.5909497303412672,-0.13692524061512606,-0.007405373691182453,0.0024852758788597106,-0.08030587097618622,-0.5478699627289623,-0.348054367965948,0.05611427826061044,-3.0786293496371018,0.6247494462619781,-0.00010033362195639812,0.001257395556121624,0.001189720375264569,-0.040605716401759834,0.002045144499980994,-0.005769274786200901,-0.0009355106462508214,0.3572508990764618,-1.1049987834743042,1.6019604841815394,-2.066115518609518,-1.5714533964740198,2.3322224617004395,-0.0010872548446059227,0.045062970370054245,0.04602719470858574,-0.0849701315164566,-7.96850758121026e-13,-0.000178073241841048,0.05746084079146385,0.07661445438861847,-9.308656692504883,0.7575564384460449,47.72629165649414,-0.8257551789283752,-3.601210594177246,-1.6731350421905518,-0.8360950946807861,-0.006733166053891182,-0.024617958813905716,24.75,25.8125,24.6875,27.4375,28.4375,28.8125
1.0,-0.9406368183088423,-0.7314193511486109,-0.028723253980974767,-0.020749491482300566,0.0014062890140258497,-0.07596132054845477,-0.5478570663372619,-0.348061989784512,0.05603816161365671,-3.0786191491049677,0.6246899523924607,-0.00012041188916604413,-8.543552771748795e-07,0.0008338355066990529,-0.040625465472519905,0.0006109637866913486,-0.0019593873924720344,-0.0011149565501204182,0.3572748303413391,-1.104914830332138,1.602044407521383,-2.06626095394277,-1.571465317402975,2.3322105407714844,-0.0012600327609106898,0.045680854469537735,0.04630549997091293,-0.08993721008300781,-5.2028659971916497e-14,-0.00017377511539962143,0.019153613597154617,0.13407528400421143,-9.251194953918457,0.7866488099098206,47.71554183959961,-0.7886247634887695,-3.5782461166381836,-1.6048951148986816,-0.7996103763580322,-0.012071000412106514,-0.023352107033133507,24.75,25.8125,24.6875,27.4375,28.4375,28.8125
1.0,-0.8720660879845765,-1.067646638973908,-0.07135385694608952,-0.020038264651045426,0.012910964551732313,-0.08314036432280794,-0.5478650886746186,-0.3480333264194415,0.05595277274550994,-3.078561763473453,0.6247741536686615,-7.759474899384096e-05,-0.001551404813834147,0.00038541049174955745,-0.03840344463167202,-0.0021393732059054853,0.0053762847959887995,-0.0013185047811953364,0.35725077986717224,-1.1048320096782227,1.602164093648092,-2.066465517083639,-1.5715134779559534,2.3322463035583496,-0.001456381636671722,0.042502161115407944,0.04706702381372452,-0.095354363322258,-3.3970997503462563e-15,-0.00016967981355264783,0.09576806426048279,0.2106897532939911,-9.308656692504883,0.7127973437309265,47.711063385009766,-0.6978924870491028,-3.4495861530303955,-1.631699562072754,-0.7657338976860046,8.707382949069142e-05,-0.028935592621564865,24.75,25.8125,24.6875,27.4375,28.4375,28.8125
1.0,-0.22161987969456307,-0.6477901506727508,-0.1598970003340011,-0.02838387947491791,0.0225155660862787,-0.08164998380427194,-0.5478739820291441,-0.34804474221739246,0.05579459603633058,-3.078592044089608,0.6247616746933785,-1.083393703324842e-05,-0.0035311539891287103,-3.409373894270296e-05,-0.04037181817544552,-0.004090368263869611,0.010731742344126875,-0.0017740913705311507,0.3572625517845154,-1.1046511989882966,1.6023567358600062,-2.0668894253172816,-1.5715134779559534,2.3322463035583496,-0.0019050113623961806,0.045867618173360825,0.049207840114831924,-0.10655999928712845,-6.732989277224988e-05,-0.0001673440565355122,0.13407528400421143,0.2106897532939911,-9.28950309753418,0.7463666796684265,47.70121383666992,-0.7336591482162476,-3.4903955459594727,-1.710795283317566,-0.6512385606765747,0.004367017187178135,-0.02167622372508049,24.75,25.8125,24.6875,27.4375,28.4375,28.8125
1.0,-0.7919946940298528,-1.0442402965905595,-0.19361664915182508,-0.018693017918600244,0.0036861002124272497,-0.0833631852978143,-0.5478958911070325,-0.3480359157804489,0.055713325724880525,-3.0786159538453677,0.6248824853107008,-3.514278991954059e-05,-0.003670371720030675,-0.00011242266838437672,-0.040833218007439706,-0.0043785156838041525,0.01152226227642809,-0.0017364266562486935,0.35721465945243835,-1.1045431953719635,1.6024282614337366,-2.0670811138548792,-1.571465317402975,2.332270622253418,-0.0018624659860506654,0.04631337895989418,0.05010145157575607,-0.10874070227146149,-7.64824144425802e-05,-0.00016331661026924849,0.038307227194309235,0.24899697303771973,-9.289502143859863,0.6881819367408752,47.72092056274414,-0.7723228335380554,-3.5550503730773926,-1.6835169792175293,-0.613422155380249,-0.00835009478032589,-0.0194291602820158,24.75,25.8125,24.6875,27.4375,28.4375,28.8125
1.0,-0.5725107012231088,-0.7367660144275365,-0.10985165445106439,-0.023268818367973874,0.0009287292115899553,-0.07791855116645596,-0.5478954484820746,-0.34804828154567014,0.05563506176157523,-3.0786407634437496,0.6248101506995134,2.433775121011823e-05,-0.004530654084817165,-0.0005758751486130327,-0.04069095331427788,-0.005622689805276328,0.014827578215918957,-0.0015380424100464177,0.35723868012428284,-1.1044594210437317,1.6025360266314905,-2.0673099956908167,-1.57147723833193,2.3322463035583496,-0.0016565092373639345,0.04643874987959862,0.05052139237523079,-0.11281774193048477,-7.586553692817688e-05,-0.00015772505139466375,0.05746084079146385,0.24899697303771973,-9.232041358947754,0.6904177665710449,47.694053649902344,-0.7867498397827148,-3.4391770362854004,-1.730484962463379,-0.5426938533782959,-0.008034161292016506,-0.02570156380534172,24.75,25.8125,24.6875,27.4375,28.4375,28.8125
1.0,-0.6998368393652126,-0.5297048720001537,0.07351749131259777,-0.011645005461519399,-0.017175105053938877,-0.07877214246535275,-0.5478930439711923,-0.3480512558922267,0.05554296967901584,-3.0786745035445593,0.6247215699794367,2.704541937236457e-05,-0.0036853246170982,-0.000283594962063465,-0.041629885465994304,-0.004674076263158826,0.01229665608833794,-0.0015061596080859613,0.3572387099266052,-1.1043632489493866,1.602656666432516,-2.0675364933409632,-1.571465317402975,2.332186698913574,-0.0016201332909986377,0.04704565554857254,0.051528383046388626,-0.11172877997159958,-7.465092494385317e-05,-0.00015239237109199166,-0.038307227194309235,0.17238251864910126,-9.232041358947754,0.6769921779632568,47.69673538208008,-0.7905229330062866,-3.5925912857055664,-1.7605633735656738,-0.5221015810966492,-0.007275942713022232,-0.03311967849731445,24.75,25.8125,24.6875,27.4375,28.4375,28.8125
1.0,-0.6775588125530865,-0.46277023184214927,-0.04297681066102273,0.0022475790672478258,-0.025767430257509,-0.0757917016541901,-0.5478896507862844,-0.34805002695803516,0.05545083097317366,-3.0786711064874006,0.6247400973313412,2.7195032585245377e-05,-0.002761210142924414,5.4344000005179397e-05,-0.04240824971183751,-0.0034230235790996826,0.008961321343793113,-0.0014968519652921652,0.3572387099266052,-1.104267196064331,1.6027749220477503,-2.0677510700621546,-1.571465317402975,2.3321986198425293,-0.0016073334263637662,0.047715626657009125,0.051722556352615356,-0.10903067886829376,-7.343549077631906e-05,-0.0001474005839554593,0.07661445438861847,0.17238251864910126,-9.251194953918457,0.7329410910606384,47.711063385009766,-0.7712529897689819,-3.493971824645996,-1.7203872203826904,-0.5245265960693359,-0.008313421159982681,-0.025658877566456795,24.75,25.8125,24.6875,27.4375,28.4375,28.8125
1.0,0.16574227407626035,-0.11037761490346765,-0.006276958531815387,0.0073141564643792595,-0.02503624971006122,-0.08246054253154124,-0.5478961775066372,-0.3480444098129444,0.05537080958951973,-3.07866799403587,0.6248160575827857,5.676304096107514e-05,-0.0017746543263846735,0.00046283179347974575,-0.0431961610197949,-0.0021045580324918697,0.0054833277382932534,-0.0015504910604170515,0.35722675919532776,-1.1041832131198426,1.6028831640826624,-2.067965646783346,-1.571465317402975,2.3322343826293945,-0.0016578910872340202,0.04828488826751709,0.05205511674284935,-0.10621298104524612,-8.48184572532773e-05,-0.00014272496628109366,0.13407529890537262,0.13407529890537262,-9.251194953918457,0.6814691424369812,47.71733474731445,-0.7232325077056885,-3.462567090988159,-1.7500574588775635,-0.5524441003799438,-0.003261289559304714,-0.012486971914768219,24.75,25.8125,24.6875,27.4375,28.4375,28.8125
1.0,0.28498694617387316,0.46793268381004577,-0.02796596189190089,0.015924583600960853,-0.04149865656504522,-0.07635447228931581,-0.5479085273733235,-0.34802923232542093,0.05526238699079539,-3.0786325805007095,0.6247711459723628,5.350956680453108e-05,-0.001319111075568756,0.000896110691429565,-0.04388365947665791,-0.0009580031875204718,0.002427610510344885,-0.001914098415356522,0.3572145402431488,-1.104039029484131,1.602966610585348,-2.0681683025755824,-1.5715015570269983,2.3321986198425293,-0.002044372260570526,0.049430567771196365,0.051330357789993286,-0.10337016731500626,-8.521418931195512e-05,-0.0001641404232941568,0.2106897532939911,0.019153613597154617,-9.136273384094238,0.6948947906494141,47.73793411254883,-0.7372380495071411,-3.5650296211242676,-1.6829502582550049,-0.5806872248649597,-0.0012579829199239612,-0.013427982106804848,24.75,25.8125,24.6875,27.4375,28.4375,28.8125
1.0,-0.20527123876778092,0.4328282607041445,-0.0034033174700678097,0.030773566157712057,-0.06133740193984325,-0.06817372135729949,-0.5479168248963479,-0.34802096926655424,0.05519736533121555,-3.0786194331426073,0.6248066866532314,0.0001442359169907928,0.0003697353062001285,0.0015544887581445874,-0.04531665813400623,0.0008060681096944163,-0.0022715593787892984,-0.00196475824480687,0.3572145700454712,-1.1039789778045197,1.6030753294574183,-2.068382879296774,-1.5715373198138636,2.3322224617004395,-0.002080424688756466,0.04984685778617859,0.053397808223962784,-0.10083453357219696,-8.400189108215272e-05,-0.00014775908493902534,0.2106897532939911,-0.019153613597154617,-9.02135181427002,0.6881819367408752,47.699424743652344,-0.8023494482040405,-3.543945789337158,-1.7567503452301025,-0.6106588840484619,-0.014230028726160526,-0.017817724496126175,24.75,25.8125,24.6875,27.4375,28.4375,28.8125
1.0,-0.3200600711564885,0.3293618308890633,0.09520897502218127,0.037133124787307056,-0.06638910326297928,-0.06295889812796793,-0.5479278907188595,-0.34804000983719724,0.055135686292768576,-3.0787094919357068,0.6248254622537623,0.00016127813055497956,0.001536161401363387,0.0021977549447593395,-0.04634893059224996,0.002411176635743759,-0.0065495299726511325,-0.002269646501738564,0.35720252990722656,-1.1039069455913086,1.603159252797262,-2.068596979180807,-1.571465317402975,2.3322105407714844,-0.0023834395688027143,0.05053092539310455,0.054013900458812714,-0.09756550192832947,-8.272247214335948e-05,-0.00014400032523553818,0.24899697303771973,-0.09576806426048279,-9.040505409240723,0.6904177665710449,47.6976318359375,-0.6954606771469116,-3.568575382232666,-1.8565928936004639,-0.6480722427368164,-0.010668850503861904,-0.015532903373241425,24.75,25.8125,24.6875,27.4375,28.4375,28.8125
1.0,0.5517936427886897,0.872728401520943,0.09363064263983827,0.039744934023415814,-0.05404129958215535,-0.07290330314251234,-0.5478920450772614,-0.34803094069456875,0.05500804557094413,-3.0786374090470012,0.6248106846135313,1.1112908207961424e-05,0.001441148299229444,0.002016807190767804,-0.04584897041800027,0.002890579808050639,-0.007830350680666592,-0.002047773895098928,0.3572145402431488,-1.1037749213031312,1.6032899061786097,-2.0687395534911097,-1.57147723833193,2.3322224617004395,-0.002170044695958495,0.051059212535619736,0.05135253071784973,-0.09406482428312302,-8.147492189891636e-05,-0.0001511777372797951,0.3064578175544739,-0.13407529890537262,-8.944737434387207,0.7083203792572021,47.681514739990234,-0.7616955041885376,-3.5920403003692627,-1.5791523456573486,-0.7111009359359741,0.001366036245599389,-0.009495710022747517,24.75,25.8125,24.6875,27.4375,28.4375,28.8125
1.0,0.21079451312388364,0.8477406049787263,0.1543884574781483,0.045580780938873036,-0.06134910392412418,-0.07049553698900643,-0.5479063460555037,-0.348023900443036,0.05493725043556408,-3.0786646321178406,0.6248547786302987,6.41320211487701e-05,0.0029676893855690653,0.002531258371058171,-0.04684667525968252,0.004190000219442607,-0.011289749564682264,-0.0019635285204212096,0.3571905791759491,-1.1037031573108216,1.6033976713763636,-2.0689665279784144,-1.571465317402975,2.3322224617004395,-0.002083678962662816,0.05076904222369194,0.05363789573311806,-0.09236462414264679,-8.026383147807792e-05,-0.00014777253090869635,0.28730422258377075,-0.15322890877723694,-8.944737434387207,0.6993717551231384,47.66539001464844,-0.7282202243804932,-3.635922908782959,-1.7172399759292603,-0.7391940355300903,-0.023373018950223923,-0.019221555441617966,24.75,25.8125,24.6875,27.4375,28.4375,28.8125
1.0,0.49733825188563224,0.5376874379585139,0.11496238617250468,0.04101670432727542,-0.04190740352470539,-0.07644243451642743,-0.5478720386322085,-0.34804699561024005,0.054817825039623264,-3.078656764978434,0.6248528078754864,-6.293544564995206e-05,0.003809265419094597,0.002714976894239183,-0.04788351180927805,0.004852513747989541,-0.013057760192738566,-0.0017727796280306576,0.3572266697883606,-1.1035712224296113,1.603518311177389,-2.069146295587057,-1.5714295546161097,2.3322582244873047,-0.0018893014639616013,0.051211290061473846,0.055423520505428314,-0.09270443022251129,-7.908837142167613e-05,-0.00014388283307198435,0.3064578175544739,-0.15322890877723694,-9.02135181427002,0.6523714661598206,47.725399017333984,-0.7455381155014038,-3.4688796997070312,-1.7622289657592773,-0.7878363728523254,0.00037997099570930004,-0.019601982086896896,24.75,25.8125,24.6875,27.4375,28.4375,28.8125
1.0,0.16336313461963498,0.5857255213230518,0.13011039565759946,0.02131972552433971,-0.03562941363042629,-0.08405873722199868,-0.5479060409625676,-0.34804839566643697,0.05476442150037408,-3.0786745305277408,0.6248373211239685,7.811939508259506e-05,0.0037295520415001238,0.002633091573304494,-0.04915937760040923,0.005232934084666672,-0.014088062250791338,-0.00170186145133159,0.357226699590683,-1.1034865540317078,1.6035659948932093,-2.069362302819723,-1.571465317402975,2.3322463035583496,-0.0018144365167245269,0.053453147411346436,0.055326808243989944,-0.09375130385160446,-7.794673001626506e-05,-0.00014015143096912652,0.3447650372982025,-0.19153612852096558,-9.136273384094238,0.7127973437309265,47.700321197509766,-0.7455804347991943,-3.592534303665161,-1.8202522993087769,-0.8233199715614319,-0.004813645966351032,-0.02018571086227894,24.75,25.8125,24.6875,27.4375,28.4375,28.8125
