Tylouw/Master_Thesis_Code/test_recorded_data/trial2_tight/insertion_1_2026-01-23_13-27-41.csv
num_insertion, tcp_force_x[N]        , tcp_force_y[N]        , tcp_force_z[N]        , tcp_force_rx[Nm?]     , tcp_force_ry[Nm?]     , tcp_force_rz[Nm?]    , tcp_pose_x[m]      , tcp_pose_y[m]       , tcp_pose_z[m]      , tcp_pose_rx[rot_vec_x], tcp_pose_ry[rot_vec_y], tcp_pose_rz[rot_vec_z] , tcp_velo_x[m/s]        , tcp_velo_y[m/s]        , tcp_velo_z[m/s]        , tcp_velo_rx[rot_vec_x/s], tcp_velo_ry[rot_vec_y/s], tcp_velo_rz[rot_vec_z/s], q1[rad]            , q2[rad]            , q3[rad]           , q4[rad]            , q5[rad]            , q6[rad]           , qd1[rad/s]             , qd2[rad/s]             , qd3[rad/s]             , qd4[rad/s]             , qd5[rad/s]             , qd6[rad/s]             , tool_acc_x           , tool_acc_y           , tool_acc_z         , current_of_whole_robot[A], voltage_of_whole_robot[V], current_J1[A]        , current_J2[A]      , current_J3[A]      , current_J4[A]          , current_J5[A]          , current_J6[A]       , temp_J1[C], temp_J2[C], temp_J3[C], temp_J4[C], temp_J5[C], temp_J6[C]
          1.0, 1.4472480590393872    , 1.2392803434487327    , -0.02573489435453504  , 0.06355812395709051   , -0.05880785259665821  , -0.05254932904565757 , -0.5388257478623505, -0.32447807663169564, 0.26002298056907946, -3.078658951334847    , 0.6248012609822667    , 8.779773575551316e-05  , 0.001214485851027004   , -0.0013050167932615769 , 0.0019295297823072096  , -0.0019201899030559665  , 0.005913226180151263    , 0.0013188578759109775   , 0.3265499472618103 , -1.1519627136043091, 1.6624253431903284, -2.0797444782652796, -1.5713813940631312, 2.3015456199645996, 0.0026601357385516167  , -0.0035561530385166407 , 0.0015222638612613082  , -0.0041822572238743305 , -8.470930333714932e-05 , 0.001339309848845005   , 0.4213795065879822   , -0.07661445438861847 , -9.059659004211426 ,        0.8045620322227478,        47.6734504699707  , -0.18055719137191772 , -4.257140159606934 , -2.4921252727508545, -0.40524792671203613   , 0.059960875660181046   , -0.1766151487827301 ,       24.0,    24.625 ,    23.8125,    25.5   ,    25.6875,    26.125
          1.0, 1.4472480590393872    , 1.2392803434487327    , -0.02573489435453504  , 0.06355812395709051   , -0.05880785259665821  , -0.05254932904565757 , -0.5388257478623505, -0.32447807663169564, 0.26002298056907946, -3.078658951334847    , 0.6248012609822667    , 8.779773575551316e-05  , 0.001214485851027004   , -0.0013050167932615769 , 0.0019295297823072096  , -0.0019201899030559665  , 0.005913226180151263    , 0.0013188578759109775   , 0.3265499472618103 , -1.1519627136043091, 1.6624253431903284, -2.0797444782652796, -1.5713813940631312, 2.3015456199645996, 0.0026601357385516167  , -0.0035561530385166407 , 0.0015222638612613082  , -0.0041822572238743305 , -8.470930333714932e-05 , 0.001339309848845005   , 0.4213795065879822   , -0.07661445438861847 , -9.059659004211426 ,        0.8045620322227478,        47.6734504699707  , -0.18055719137191772 , -4.257140159606934 , -2.4921252727508545, -0.40524792671203613   , 0.059960875660181046   , -0.1766151487827301 ,       24.0,    24.625 ,    23.8125,    25.5   ,    25.6875,    26.125
          1.0, 0.7152743521986913    , 0.7497507034451942    , -0.35450467328457796  , 0.05948171143544967   , -0.055174122558474585 , -0.04112182306171878 , -0.5388332727686252, -0.32447516614736316, 0.26001207330290793, -3.0786518268880845   , 0.6248760896409616    , 3.46629860862882e-05   , 0.0005944340404019221  , -0.0010517263363348372 , 0.00193040766481673    , -0.0017571771890840273  , 0.005426790839040397    , 0.0019444304246273012   , 0.3265376687049866 , -1.151938484316208 , 1.6624134222613733, -2.079731603662008 , -1.571357552205221 , 2.3015809059143066, 0.0019445407669991255  , -0.002666472690179944  , 3.1809613574296236e-05 , -0.003068706253543496  , -8.372429147129878e-05 , -1.4181553069647634e-06, 0.17238253355026245  , 0.09576806426048279  , -9.232041358947754 ,        0.7709873914718628,        47.69584274291992 , -0.1448032557964325  , -4.258895397186279 , -2.2780091762542725, -0.39544492959976196   , 0.06918109953403473    , -0.1711166799068451 ,       24.0,    24.625 ,    23.8125,    25.5   ,    25.6875,    26.125
          1.0, 0.7152743521986913    , 0.7497507034451942    , -0.35450467328457796  , 0.05948171143544967   , -0.055174122558474585 , -0.04112182306171878 , -0.5388332727686252, -0.32447516614736316, 0.26001207330290793, -3.0786518268880845   , 0.6248760896409616    , 3.46629860862882e-05   , 0.0005195419436304712  , -0.0009144657488803605 , 0.0012392514803024283  , -0.001099884123102886   , 0.0034905143155633317   , 0.002390342670833164    , 0.32657361030578613, -1.151950166826584 , 1.66240102449526  , -2.079719205895895 , -1.571357552205221 , 2.301532506942749 , 0.001693884376436472   , -0.0016989944269880652 , 4.2676660427787283e-07 , -0.0019601082894951105 , -8.276195148937404e-05 , -0.0006973919225856662 , -0.019153613597154617, 0.19153612852096558  , -9.21288776397705  ,        0.7127973437309265,        47.70121383666992 , -0.11256614327430725 , -4.358860492706299 , -2.3077409267425537, -0.4081699252128601    , 0.05995601415634155    , -0.15775024890899658,       24.0,    24.625 ,    23.8125,    25.5   ,    25.6875,    26.125
          1.0, -0.37579439645275337  , -0.6987806816036761   , -0.30749528329526943  , 0.01816600941357536   , -0.007616556154055901 , -0.037241955038641174, -0.5388227799613147, -0.32449493281929886, 0.2600234947765566 , -3.078683929762794    , 0.6247474276077015    , 5.0525204121361606e-05 , 0.0005195419436304712  , -0.0009144657488803605 , 0.0012392514803024283  , -0.001099884123102886   , 0.0034905143155633317   , 0.002390342670833164    , 0.32657361030578613, -1.151950166826584 , 1.66240102449526  , -2.079719205895895 , -1.571357552205221 , 2.301532506942749 , 0.001693884376436472   , -0.0016989944269880652 , 4.2676660427787283e-07 , -0.0019601082894951105 , -8.276195148937404e-05 , -0.0006973919225856662 , -0.019153613597154617, 0.19153612852096558  , -9.21288776397705  ,        0.7127973437309265,        47.70121383666992 , -0.11256614327430725 , -4.358860492706299 , -2.3077409267425537, -0.4081699252128601    , 0.05995601415634155    , -0.15775024890899658,       24.0,    24.625 ,    23.8125,    25.5   ,    25.6875,    26.125
          1.0, -2.2594065511118924   , -1.8635632086821206   , -0.39791174820042113  , -0.03412013918182595  , 0.03271479499336429   , -0.03321555128224682 , -0.5388109546083355, -0.32448951337061605, 0.2599983566148863 , -3.0786126391180186   , 0.6247721739957968    , -8.690337104494607e-05 , 0.0004899527677747542  , -0.0005534755455690589 , 0.0010458719711981769  , -0.0005399735058030153  , 0.0018469509605950317   , 0.001874357730733379    , 0.3265734016895294 , -1.1519381564906617, 1.6624248663531702, -2.079646726647848 , -1.571369473134176 , 2.3015568256378174, 0.001122394111007452   , -0.0016593086766079068 , 5.725619089957945e-09  , -0.00026307368534617126, -8.182142482837662e-05 , -0.0007522000232711434 , -0.325611412525177   , 0.3064578175544739   , -9.327810287475586 ,        0.8112748265266418,        47.71196365356445 , -0.16559302806854248 , -3.963069438934326 , -2.1121442317962646, -0.4754931330680847    , 0.0636373832821846     , -0.14984847605228424,       24.0,    24.625 ,    23.8125,    25.5   ,    25.6875,    26.125
          1.0, -2.2594065511118924   , -1.8635632086821206   , -0.39791174820042113  , -0.03412013918182595  , 0.03271479499336429   , -0.03321555128224682 , -0.5388109546083355, -0.32448951337061605, 0.2599983566148863 , -3.0786126391180186   , 0.6247721739957968    , -8.690337104494607e-05 , 0.0004899527677747542  , -0.0005534755455690589 , 0.0010458719711981769  , -0.0005399735058030153  , 0.0018469509605950317   , 0.001874357730733379    , 0.3265734016895294 , -1.1519381564906617, 1.6624248663531702, -2.079646726647848 , -1.571369473134176 , 2.3015568256378174, 0.001122394111007452   , -0.0016593086766079068 , 5.725619089957945e-09  , -0.00026307368534617126, -8.182142482837662e-05 , -0.0007522000232711434 , -0.325611412525177   , 0.3064578175544739   , -9.327810287475586 ,        0.8112748265266418,        47.71196365356445 , -0.16559302806854248 , -3.963069438934326 , -2.1121442317962646, -0.4754931330680847    , 0.0636373832821846     , -0.14984847605228424,       24.0,    24.625 ,    23.8125,    25.5   ,    25.6875,    26.125
          1.0, -2.7423302161946728   , -2.8856201282003697   , -0.35999312528962696  , -0.05470810792953054  , 0.08897160561943421   , -0.031522096274557466, -0.5388171719494993, -0.32446051659448977, 0.26002901981172744, -3.078623961656219    , 0.6248325726587924    , -2.4412382508506856e-05, 0.0021598544659091564  , -8.55600957423233e-06  , -0.0018142987294991614 , 0.001574964672789122    , -0.004356467763772469   , 0.0014891085721664588   , 0.32652547955513   , -1.1519979995540162, 1.662438694630758 , -2.079646726647848 , -1.571369473134176 , 2.3015451431274414, 0.0011600024299696088  , -0.0013796964194625616 , 0.0060285963118076324  , -1.7176831534015946e-05, -8.090205665212125e-05 , -0.0003285942948423326 , -0.363918662071228   , 0.24899697303771973  , -9.442731857299805 ,        0.6971306204795837,        47.681514739990234, -0.172130286693573   , -3.9036502838134766, -2.2336325645446777, -0.518385112285614     , 0.0707072839140892     , -0.17255264520645142,       24.0,    24.625 ,    23.8125,    25.5   ,    25.6875,    26.125
          1.0, -2.7423302161946728   , -2.8856201282003697   , -0.35999312528962696  , -0.05470810792953054  , 0.08897160561943421   , -0.031522096274557466, -0.5388171719494993, -0.32446051659448977, 0.26002901981172744, -3.078623961656219    , 0.6248325726587924    , -2.4412382508506856e-05, 0.0021598544659091564  , -8.55600957423233e-06  , -0.0018142987294991614 , 0.001574964672789122    , -0.004356467763772469   , 0.0014891085721664588   , 0.32652547955513   , -1.1519979995540162, 1.662438694630758 , -2.079646726647848 , -1.571369473134176 , 2.3015451431274414, 0.0011600024299696088  , -0.0013796964194625616 , 0.0060285963118076324  , -1.7176831534015946e-05, -8.090205665212125e-05 , -0.0003285942948423326 , -0.363918662071228   , 0.24899697303771973  , -9.442731857299805 ,        0.6971306204795837,        47.681514739990234, -0.172130286693573   , -3.9036502838134766, -2.2336325645446777, -0.518385112285614     , 0.0707072839140892     , -0.17255264520645142,       24.0,    24.625 ,    23.8125,    25.5   ,    25.6875,    26.125
          1.0, -2.169832888441493    , -2.2479020234746385   , 0.019163309474135925  , -0.05468820792592486  , 0.10805375095292645   , -0.042898972242308556, -0.5388139203632911, -0.32450491614680554, 0.26002916292550426, -3.0786675165612736   , 0.6247451415837376    , 8.037116869282085e-05  , 0.002631489250696496   , -9.657815475560682e-05 , -0.0033860967255684164 , 0.002556384019643627    , -0.007243427759413267   , 0.001565832201271846    , 0.3265974819660187 , -1.1519615215114136, 1.6624038855182093, -2.0797187290587367, -1.5713813940631312, 2.3015570640563965, 0.0015434814849868417  , -4.80750750284642e-05  , 0.007730192970484495   , -1.121524405789387e-06 , -8.000310481293127e-05 , -2.1454859961522743e-05, -0.363918662071228   , 0.24899697303771973  , -9.308656692504883 ,        0.8000850081443787,        47.6949462890625  , -0.15558597445487976 , -3.9168193340301514, -2.497262477874756 , -0.559061586856842     , 0.060262203216552734   , -0.16844385862350464,       24.0,    24.625 ,    23.8125,    25.5   ,    25.6875,    26.125
          1.0, -2.169832888441493    , -2.2479020234746385   , 0.019163309474135925  , -0.05468820792592486  , 0.10805375095292645   , -0.042898972242308556, -0.5388139203632911, -0.32450491614680554, 0.26002916292550426, -3.0786675165612736   , 0.6247451415837376    , 8.037116869282085e-05  , 0.0016100611130653191  , -0.0005988237275580318 , -0.0019525077902623387 , 2.6732441321875238e-05  , -1.8163776476462567e-05 , 0.0017706813853060723   , 0.32662156224250793, -1.1519854825786133, 1.6624630133258265, -2.0797091923155726, -1.571369473134176 , 2.3015570640563965, 0.0017709566745907068  , -6.449885177062242e-07 , 0.00569938262924552    , -0.005672883708029985  , -2.0329822291387245e-05, -1.400849100718915e-06 , -0.24899697303771973 , 0.2298433631658554   , -9.155426979064941 ,        0.7665104269981384,        47.687782287597656, -0.24794510006904602 , -3.877523899078369 , -2.3366429805755615, -0.5439539551734924    , 0.06593672931194305    , -0.17692598700523376,       24.0,    24.625 ,    23.8125,    25.5   ,    25.6875,    26.125
          1.0, -1.7953424772744657   , -1.144223354304323    , 0.130382175693997     , -0.0013971066558074764, 0.059704581509164786  , -0.033950104443342746, -0.5387863292180327, -0.3245123982803536 , 0.2600168087172756 , -3.0786629546340243   , 0.624705634943629     , 1.0327458553778722e-05 , 0.0016100611130653191  , -0.0005988237275580318 , -0.0019525077902623387 , 2.6732441321875238e-05  , -1.8163776476462567e-05 , 0.0017706813853060723   , 0.32662156224250793, -1.1519854825786133, 1.6624630133258265, -2.0797091923155726, -1.571369473134176 , 2.3015570640563965, 0.0017709566745907068  , -6.449885177062242e-07 , 0.00569938262924552    , -0.005672883708029985  , -2.0329822291387245e-05, -1.400849100718915e-06 , -0.24899697303771973 , 0.2298433631658554   , -9.155426979064941 ,        0.7665104269981384,        47.687782287597656, -0.24794510006904602 , -3.877523899078369 , -2.3366429805755615, -0.5439539551734924    , 0.06593672931194305    , -0.17692598700523376,       24.0,    24.625 ,    23.8125,    25.5   ,    25.6875,    26.125
          1.0, -0.5010772779435518   , 0.4825354932124256    , 0.02037047881300262   , 0.04835134187296857   , 0.005914492724101408  , -0.042581694490049504, -0.5387890069800205, -0.3245067436187708 , 0.26002455942694563, -3.0786798634809447   , 0.6247092917965021    , 1.9782913953177914e-05 , 0.0007032138384330752  , -0.0009870239773759923 , -0.0006972681156853424 , -0.002186901103676142   , 0.006407287720033109    , 0.0018855699033393442   , 0.3266095221042633 , -1.151997522716858 , 1.6624625364886683, -2.079710622827047 , -1.571357552205221 , 2.3015451431274414, 0.0018894115928560495  , -8.65334381927596e-09  , 0.004009706433862448   , -0.010779916308820248  , -1.3273921695144963e-06, -9.146544499571974e-08 , -0.24899697303771973 , 0.05746084079146385  , -9.136273384094238 ,        0.6948947906494141,        47.685096740722656, -0.2466377466917038  , -3.7384843826293945, -2.1784756183624268, -0.5233404636383057    , 0.06241809204220772    , -0.17982453107833862,       24.0,    24.625 ,    23.8125,    25.5   ,    25.6875,    26.125
          1.0, -0.5010772779435518   , 0.4825354932124256    , 0.02037047881300262   , 0.04835134187296857   , 0.005914492724101408  , -0.042581694490049504, -0.5387890069800205, -0.3245067436187708 , 0.26002455942694563, -3.0786798634809447   , 0.6247092917965021    , 1.9782913953177914e-05 , 0.0007032138384330752  , -0.0009870239773759923 , -0.0006972681156853424 , -0.002186901103676142   , 0.006407287720033109    , 0.0018855699033393442   , 0.3266095221042633 , -1.151997522716858 , 1.6624625364886683, -2.079710622827047 , -1.571357552205221 , 2.3015451431274414, 0.0018894115928560495  , -8.65334381927596e-09  , 0.004009706433862448   , -0.010779916308820248  , -1.3273921695144963e-06, -9.146544499571974e-08 , -0.24899697303771973 , 0.05746084079146385  , -9.136273384094238 ,        0.6948947906494141,        47.685096740722656, -0.2466377466917038  , -3.7384843826293945, -2.1784756183624268, -0.5233404636383057    , 0.06241809204220772    , -0.17982453107833862,       24.0,    24.625 ,    23.8125,    25.5   ,    25.6875,    26.125
          1.0, 0.536384455696467     , 1.2382434220049305    , 0.022978369833433616  , 0.06769223233674776   , -0.02311891534153013  , -0.03635729858275667 , -0.5388145304912465, -0.32449736175117105, 0.26002061979883373, -3.0786903452349605   , 0.6247101217530872    , 0.0001217383632824494  , 0.00024822381489943146 , -0.0010291783083704693 , -0.00018521143363404714, -0.003184067529217165   , 0.009325040775951607    , 0.0017101709300338015   , 0.3265855312347412 , -1.1519615215114136, 1.6624377409564417, -2.079783102075094 , -1.5713813940631312, 2.301520347595215 , 0.00171516218688339    , -1.1609565392367571e-10, 0.003411634126678109   , -0.013265297748148441  , -8.666921758049284e-08 , -5.972039751611646e-09 , -0.24899697303771973 , 0.05746084079146385  , -8.983044624328613 ,        0.8291773796081543,        47.651954650878906, -0.25672322511672974 , -3.6871280670166016, -2.0565710067749023, -0.4977252781391144    , 0.056749314069747925   , -0.1778719127178192 ,       24.0,    24.625 ,    23.8125,    25.5   ,    25.6875,    26.125
          1.0, 0.536384455696467     , 1.2382434220049305    , 0.022978369833433616  , 0.06769223233674776   , -0.02311891534153013  , -0.03635729858275667 , -0.5388145304912465, -0.32449736175117105, 0.26002061979883373, -3.0786903452349605   , 0.6247101217530872    , 0.0001217383632824494  , 0.00024822381489943146 , -0.0010291783083704693 , -0.00018521143363404714, -0.003184067529217165   , 0.009325040775951607    , 0.0017101709300338015   , 0.3265855312347412 , -1.1519615215114136, 1.6624377409564417, -2.079783102075094 , -1.5713813940631312, 2.301520347595215 , 0.00171516218688339    , -1.1609565392367571e-10, 0.003411634126678109   , -0.013265297748148441  , -8.666921758049284e-08 , -5.972039751611646e-09 , -0.24899697303771973 , 0.05746084079146385  , -8.983044624328613 ,        0.8291773796081543,        47.651954650878906, -0.25672322511672974 , -3.6871280670166016, -2.0565710067749023, -0.4977252781391144    , 0.056749314069747925   , -0.1778719127178192 ,       24.0,    24.625 ,    23.8125,    25.5   ,    25.6875,    26.125
          1.0, 0.14818704347506612   , 0.5652598982354893    , 0.09949072381663424   , 0.05638857188418536   , -0.029035962527456084 , -0.04063611942704914 , -0.5388115339812851, -0.3244988017176522 , 0.26001637515646625, -3.078695278986193    , 0.6247892338094594    , 0.00010279415770579289 , 0.0002234860735174616  , -0.0009056226582232258 , -0.0002872247108060267 , -0.0032850442051208925  , 0.009620372010964806    , 0.0015066990990426406   , 0.32658547163009644, -1.1519615215114136, 1.662450138722555 , -2.0797954998412074, -1.571357552205221 , 2.3015689849853516, 0.0015119391027837992  , -1.5575713462057106e-12, 0.003800699720159173   , -0.013966480270028114  , -5.658880031234048e-09 , -3.899315315081253e-10 , -0.17238251864910126 , -0.07661445438861847 , -8.983044624328613 ,        0.7486078143119812,        47.65374755859375 , -0.2172246277332306  , -3.6295461654663086, -1.9934051036834717, -0.5064566731452942    , 0.06931190937757492    , -0.17759108543395996,       24.0,    24.625 ,    23.8125,    25.5   ,    25.6875,    26.125
          1.0, 0.14818704347506612   , 0.5652598982354893    , 0.09949072381663424   , 0.05638857188418536   , -0.029035962527456084 , -0.04063611942704914 , -0.5388115339812851, -0.3244988017176522 , 0.26001637515646625, -3.078695278986193    , 0.6247892338094594    , 0.00010279415770579289 , 0.0002234860735174616  , -0.0009056226582232258 , -0.0002872247108060267 , -0.0032850442051208925  , 0.009620372010964806    , 0.0015066990990426406   , 0.32658547163009644, -1.1519615215114136, 1.662450138722555 , -2.0797954998412074, -1.571357552205221 , 2.3015689849853516, 0.0015119391027837992  , -1.5575713462057106e-12, 0.003800699720159173   , -0.013966480270028114  , -5.658880031234048e-09 , -3.899315315081253e-10 , -0.17238251864910126 , -0.07661445438861847 , -8.983044624328613 ,        0.7486078143119812,        47.65374755859375 , -0.2172246277332306  , -3.6295461654663086, -1.9934051036834717, -0.5064566731452942    , 0.06931190937757492    , -0.17759108543395996,       24.0,    24.625 ,    23.8125,    25.5   ,    25.6875,    26.125
          1.0, 0.012871781833420332  , 0.3278140008605413    , 0.31677753410107246   , 0.025057275353093433  , 0.0025007994791428493 , -0.046052117963850725, -0.5388010229313828, -0.3245082020644916 , 0.2600189716528977 , -3.0786913264261924   , 0.6247310665830362    , 0.00013558447707829943 , 0.0004497663670695901  , -0.0006451070414871618 , -0.0015376682249992947 , -0.002217259139260505   , 0.006483838691180246    , 0.001225333839772375    , 0.3266093134880066 , -1.1519731444171448, 1.6624630133258265, -2.0798069439330042, -1.5713813940631312, 2.3015570640563965, 0.0012298302026465535  , 0.001048617996275425   , 0.0049121687188744545  , -0.012813257984817028  , -3.6948441528572573e-10, -2.54597419535596e-11  , -0.019153613597154617, -0.13407529890537262 , -9.002198219299316 ,        0.7486078143119812,        47.68867492675781 , -0.24203002452850342 , -3.667060613632202 , -1.9797005653381348, -0.515960156917572     , 0.053070202469825745   , -0.1852867305278778 ,       24.0,    24.625 ,    23.8125,    25.5   ,    25.6875,    26.125
          1.0, -1.0034413388028816   , 0.19725082022706492   , 0.24063602860005065   , 0.012949689012277893  , 0.006218856944776605  , -0.038262338223505124, -0.5388028482507664, -0.32450465359926955, 0.25997988053454063, -3.0786879952471096   , 0.6247499955886072    , 2.5278788573665613e-05 , 6.943124919105963e-05  , -0.00025698125445195304, -0.002766220648552889  , -0.0014725467376897367  , 0.00428870569075277     , 0.0004287824573223747   , 0.32659712433815   , -1.1519247454455872, 1.6624868551837366, -2.0798188648619593, -1.571345631276266 , 2.3015570640563965, 0.0004328280920162797  , 0.002940088277682662   , 0.0049815671518445015  , -0.012456107884645462  , -2.4124691827553946e-11, -1.6623391031755919e-12, 0.038307227194309235 , -0.17238251864910126 , -9.117119789123535 ,        0.7754590511322021,        47.702110290527344, -0.13740068674087524 , -3.626427173614502 , -1.971310019493103 , -0.5576854348182678    , 0.06134524196386337    , -0.20243610441684723,       24.0,    24.625 ,    23.8125,    25.5   ,    25.6875,    26.125
          1.0, -1.0034413388028816   , 0.19725082022706492   , 0.24063602860005065   , 0.012949689012277893  , 0.006218856944776605  , -0.038262338223505124, -0.5388028482507664, -0.32450465359926955, 0.25997988053454063, -3.0786879952471096   , 0.6247499955886072    , 2.5278788573665613e-05 , 6.943124919105963e-05  , -0.00025698125445195304, -0.002766220648552889  , -0.0014725467376897367  , 0.00428870569075277     , 0.0004287824573223747   , 0.32659712433815   , -1.1519247454455872, 1.6624868551837366, -2.0798188648619593, -1.571345631276266 , 2.3015570640563965, 0.0004328280920162797  , 0.002940088277682662   , 0.0049815671518445015  , -0.012456107884645462  , -2.4124691827553946e-11, -1.6623391031755919e-12, 0.038307227194309235 , -0.17238251864910126 , -9.117119789123535 ,        0.7754590511322021,        47.702110290527344, -0.13740068674087524 , -3.626427173614502 , -1.971310019493103 , -0.5576854348182678    , 0.06134524196386337    , -0.20243610441684723,       24.0,    24.625 ,    23.8125,    25.5   ,    25.6875,    26.125
          1.0, -0.661941653401061    , 0.21489989427112172   , 0.23395702504199983   , 0.03507937100738508   , 0.011978357787173117  , -0.03922841058016116 , -0.538812491319256 , -0.32449635193312987, 0.2599862937207475 , -3.0786658324835345   , 0.6247647698090444    , 8.610838951745888e-05  , -0.00010143467271856119, -0.00025677866916819225, -0.003256040786320223  , -0.001265733918285067   , 0.0036762273997800947   , 0.0003389880631389409   , 0.326585054397583  , -1.1519243282130738, 1.6624744574176233, -2.0798307857909144, -1.5713813940631312, 2.3015570640563965, 0.0003429525240790099  , 0.0038719947915524244  , 0.004822592716664076   , -0.012582588009536266  , -1.575170007449278e-12 , -1.0853886284753825e-13, 0.13407529890537262  , -0.3064578175544739  , -9.117119789123535 ,        0.7463666796684265,        47.702110290527344, -0.2166009098291397  , -3.6816771030426025, -1.8922145366668701, -0.5747570991516113    , 0.07019292563199997    , -0.19518041610717773,       24.0,    24.625 ,    23.8125,    25.5   ,    25.6875,    26.125
          1.0, -0.661941653401061    , 0.21489989427112172   , 0.23395702504199983   , 0.03507937100738508   , 0.011978357787173117  , -0.03922841058016116 , -0.538812491319256 , -0.32449635193312987, 0.2599862937207475 , -3.0786658324835345   , 0.6247647698090444    , 8.610838951745888e-05  , -0.00010143467271856119, -0.00025677866916819225, -0.003256040786320223  , -0.001265733918285067   , 0.0036762273997800947   , 0.0003389880631389409   , 0.326585054397583  , -1.1519243282130738, 1.6624744574176233, -2.0798307857909144, -1.5713813940631312, 2.3015570640563965, 0.0003429525240790099  , 0.0038719947915524244  , 0.004822592716664076   , -0.012582588009536266  , -1.575170007449278e-12 , -1.0853886284753825e-13, 0.13407529890537262  , -0.3064578175544739  , -9.117119789123535 ,        0.7463666796684265,        47.702110290527344, -0.2166009098291397  , -3.6816771030426025, -1.8922145366668701, -0.5747570991516113    , 0.07019292563199997    , -0.19518041610717773,       24.0,    24.625 ,    23.8125,    25.5   ,    25.6875,    26.125
          1.0, 0.2082248469761857    , 0.8763565286050401    , 0.199901278788752     , 0.057612834997624006  , 0.0006317131031895462 , -0.049507634375216145, -0.5388178003271455, -0.3244993930471235 , 0.2599924206167915 , -3.078698471090067    , 0.6248097291789988    , 0.00015894848387469108 , -8.05041259888654e-06  , -0.00018921804190815997, -0.0031298720699263183 , -0.0017388255271954577  , 0.005065424487325409    , 0.0002832191173710245   , 0.3265850245952606 , -1.1519244772246857, 1.6624744574176233, -2.079891344110006 , -1.571369473134176 , 2.3015809059143066, 0.00028790158103220165 , 0.0033524082973599434  , 0.005663223564624786   , -0.014371177181601524  , -1.0284734354307559e-13, -7.086812961552141e-15 , 0.17238251864910126  , -0.2106897532939911  , -9.117119789123535 ,        0.8224645853042603,        47.70658874511719 , -0.21796193718910217 , -3.6295251846313477, -1.8939677476882935, -0.5878119468688965    , 0.06201592832803726    , -0.20793315768241882,       24.0,    24.625 ,    23.8125,    25.5   ,    25.6875,    26.125
          1.0, 0.2082248469761857    , 0.8763565286050401    , 0.199901278788752     , 0.057612834997624006  , 0.0006317131031895462 , -0.049507634375216145, -0.5388178003271455, -0.3244993930471235 , 0.2599924206167915 , -3.078698471090067    , 0.6248097291789988    , 0.00015894848387469108 , -8.05041259888654e-06  , -0.00018921804190815997, -0.0031298720699263183 , -0.0017388255271954577  , 0.005065424487325409    , 0.0002832191173710245   , 0.3265850245952606 , -1.1519244772246857, 1.6624744574176233, -2.079891344110006 , -1.571369473134176 , 2.3015809059143066, 0.00028790158103220165 , 0.0033524082973599434  , 0.005663223564624786   , -0.014371177181601524  , -1.0284734354307559e-13, -7.086812961552141e-15 , 0.17238251864910126  , -0.2106897532939911  , -9.117119789123535 ,        0.8224645853042603,        47.70658874511719 , -0.21796193718910217 , -3.6295251846313477, -1.8939677476882935, -0.5878119468688965    , 0.06201592832803726    , -0.20793315768241882,       24.0,    24.625 ,    23.8125,    25.5   ,    25.6875,    26.125
          1.0, -0.005322937180849863 , 0.8604257677262874    , -0.2273856995305283   , 0.07175029034674607   , -0.044845726330620825 , -0.0401833303404099  , -0.5388181068886886, -0.3245019982522756 , 0.259993527692222  , -3.0787210516340204   , 0.6248334837216399    , 0.00015689146704314812 , 0.00010584660851524503 , -0.00012456465311859192, -0.0032718988729069326 , -0.002123614555040472   , 0.006193610679661332    , 0.00024271873281651334  , 0.3265850245952606 , -1.1519245368293305, 1.6624749342547815, -2.0799042187132777, -1.571345631276266 , 2.3015928268432617, 0.0002481572737451643  , 0.003133207792416215   , 0.006755382288247347   , -0.0164361372590065    , -6.715196737702104e-15 , -4.627182701568225e-16 , 0.15322890877723694  , -0.13407529890537262 , -9.02135181427002  ,        0.7530794739723206,        47.66360092163086 , -0.19599667191505432 , -3.541090250015259 , -1.8796725273132324, -0.5690540075302124    , 0.06700508296489716    , -0.20800259709358215,       24.0,    24.625 ,    23.8125,    25.5   ,    25.6875,    26.125
          1.0, -0.005322937180849863 , 0.8604257677262874    , -0.2273856995305283   , 0.07175029034674607   , -0.044845726330620825 , -0.0401833303404099  , -0.5388181068886886, -0.3245019982522756 , 0.259993527692222  , -3.0787210516340204   , 0.6248334837216399    , 0.00015689146704314812 , 0.00029170886061283523 , -4.158722501706327e-05 , -0.003791917952827811  , -0.0017888427972959336  , 0.0052100184327097485   , 0.00021273410059941106  , 0.32662102580070496, -1.1519124072841187, 1.662546459828512 , -2.079939981500143 , -1.571357552205221 , 2.301520347595215 , 0.00021806532458867878 , 0.003401451278477907   , 0.007569237146526575   , -0.016479233279824257  , -4.38454349638233e-16  , -3.0212196155793e-17   , 0.2106897532939911   , -0.15322890877723694 , -9.193734169006348 ,        0.7866488099098206,        47.711063385009766, -0.23551908135414124 , -3.4879815578460693, -1.8807485103607178, -0.5482397079467773    , 0.06982751190662384    , -0.19745150208473206,       24.0,    24.625 ,    23.8125,    25.5   ,    25.6875,    26.125
          1.0, 0.9378954815191954    , 1.02568203724845      , -0.25972615623845613  , 0.04837200372894189   , -0.03412412237884948  , -0.04952058871982037 , -0.5387915905144318, -0.3245150844037828 , 0.2599580365451357 , -3.0787212054245425   , 0.6246596227361144    , 0.00010139391318201077 , 0.00029170886061283523 , -4.158722501706327e-05 , -0.003791917952827811  , -0.0017888427972959336  , 0.0052100184327097485   , 0.00021273410059941106  , 0.32662102580070496, -1.1519124072841187, 1.662546459828512 , -2.079939981500143 , -1.571357552205221 , 2.301520347595215 , 0.00021806532458867878 , 0.003401451278477907   , 0.007569237146526575   , -0.016479233279824257  , -4.38454349638233e-16  , -3.0212196155793e-17   , 0.2106897532939911   , -0.15322890877723694 , -9.193734169006348 ,        0.7866488099098206,        47.711063385009766, -0.23551908135414124 , -3.4879815578460693, -1.8807485103607178, -0.5482397079467773    , 0.06982751190662384    , -0.19745150208473206,       24.0,    24.625 ,    23.8125,    25.5   ,    25.6875,    26.125
          1.0, 0.44237891326353806   , -0.22199945251894157  , -0.2619026627836238   , 0.02753057002158293   , -0.03276209036772526  , -0.04569550372284415 , -0.5388047595029665, -0.3244846605376122 , 0.25994338750218543, -3.078642116539726    , 0.6247983241784866    , 7.84732526776812e-05   , 0.00048436352273374775 , 9.50301680207562e-05   , -0.005462956438321835  , -0.0004210462431560129  , 0.0011902862091658108   , 0.00010480931789866206  , 0.32657304406166077, -1.151899830704071 , 1.6625593344317835, -2.0799275837340296, -1.5713933149920862, 2.3015689849853516, 0.00010914904851233587 , 0.005215461831539869   , 0.008486771024763584   , -0.014964703470468521  , -2.862793683323959e-17 , -1.972640472481759e-18 , 0.2106897532939911   , -0.1149216815829277  , -9.193734169006348 ,        0.8000850081443787,        47.692256927490234, -0.19148653745651245 , -3.459580898284912 , -1.8680217266082764, -0.5745284557342529    , 0.06265363097190857    , -0.21439605951309204,       24.0,    24.625 ,    23.8125,    25.5   ,    25.6875,    26.125
          1.0, 0.44237891326353806   , -0.22199945251894157  , -0.2619026627836238   , 0.02753057002158293   , -0.03276209036772526  , -0.04569550372284415 , -0.5388047595029665, -0.3244846605376122 , 0.25994338750218543, -3.078642116539726    , 0.6247983241784866    , 7.84732526776812e-05   , 0.00048436352273374775 , 9.50301680207562e-05   , -0.005462956438321835  , -0.0004210462431560129  , 0.0011902862091658108   , 0.00010480931789866206  , 0.32657304406166077, -1.151899830704071 , 1.6625593344317835, -2.0799275837340296, -1.5713933149920862, 2.3015689849853516, 0.00010914904851233587 , 0.005215461831539869   , 0.008486771024763584   , -0.014964703470468521  , -2.862793683323959e-17 , -1.972640472481759e-18 , 0.2106897532939911   , -0.1149216815829277  , -9.193734169006348 ,        0.8000850081443787,        47.692256927490234, -0.19148653745651245 , -3.459580898284912 , -1.8680217266082764, -0.5745284557342529    , 0.06265363097190857    , -0.21439605951309204,       24.0,    24.625 ,    23.8125,    25.5   ,    25.6875,    26.125
          1.0, 0.5155081857352722    , -0.5272408408756131   , -0.3170369277763465   , -0.004896560958671702 , -0.008735636226196539 , -0.05011797441685474 , -0.5387961701552628, -0.32450878486997947, 0.2599388249013598 , -3.07870577762653     , 0.6246953773849208    , 7.968565504643142e-05  , 0.0011069636454839893  , 0.00032220016060781505 , -0.00694051181758605   , 0.0009710223285115195   , -0.0028657140513389     , 0.0007147343067964073   , 0.32660892605781555, -1.151887373333313 , 1.6625602881061   , -2.0799628696837367, -1.571357552205221 , 2.301532506942749 , 8.791630534688011e-05  , 0.005934984423220158   , 0.010473345406353474   , -0.01338264998048544   , -8.960359082266223e-06 , -0.0006301910616457462 , 0.13407529890537262  , -0.038307227194309235, -9.28950309753418  ,        0.7396538853645325,        47.668975830078125, -0.20539194345474243 , -3.4987239837646484, -1.9389238357543945, -0.6009027361869812    , 0.051260389387607574   , -0.20603567361831665,       24.0,    24.625 ,    23.8125,    25.5   ,    25.6875,    26.125
          1.0, 0.5155081857352722    , -0.5272408408756131   , -0.3170369277763465   , -0.004896560958671702 , -0.008735636226196539 , -0.05011797441685474 , -0.5387961701552628, -0.32450878486997947, 0.2599388249013598 , -3.07870577762653     , 0.6246953773849208    , 7.968565504643142e-05  , 0.0011069636454839893  , 0.00032220016060781505 , -0.00694051181758605   , 0.0009710223285115195   , -0.0028657140513389     , 0.0007147343067964073   , 0.32660892605781555, -1.151887373333313 , 1.6625602881061   , -2.0799628696837367, -1.571357552205221 , 2.301532506942749 , 8.791630534688011e-05  , 0.005934984423220158   , 0.010473345406353474   , -0.01338264998048544   , -8.960359082266223e-06 , -0.0006301910616457462 , 0.13407529890537262  , -0.038307227194309235, -9.28950309753418  ,        0.7396538853645325,        47.668975830078125, -0.20539194345474243 , -3.4987239837646484, -1.9389238357543945, -0.6009027361869812    , 0.051260389387607574   , -0.20603567361831665,       24.0,    24.625 ,    23.8125,    25.5   ,    25.6875,    26.125
          1.0, 0.08559399371742665   , -1.0000697118498456   , -0.21914195864632166  , -0.009856762342427224 , 0.013161369196575763  , -0.045870773409290924, -0.5388049343579829, -0.3245027614607168 , 0.25994346929223583, -3.0787193391683876   , 0.6246974213110076    , 0.0001535679646248874  , 0.0010723509690076878  , 0.00036445742850545535 , -0.007291670923159936  , 0.0014803014218600296   , -0.0043873857792497166  , 0.0009433024509820573   , 0.3265969753265381 , -1.1518871945193787, 1.6625602881061   , -2.080010553399557 , -1.571369473134176 , 2.3015201091766357, 3.3796161460486474e-06 , 0.006500585470348597   , 0.01018112525343895    , -0.012051494792103767  , -5.850474735780153e-07 , -0.0009427117765881121 , 0.19153612852096558  , 0.1149216815829277   , -9.27034854888916  ,        0.8224645853042603,        47.687782287597656, -0.20252247154712677 , -3.48214054107666  , -1.923943042755127 , -0.6308449506759644    , 0.07083534449338913    , -0.2092895805835724 ,       24.0,    24.625 ,    23.8125,    25.5   ,    25.6875,    26.125
          1.0, 0.08559399371742665   , -1.0000697118498456   , -0.21914195864632166  , -0.009856762342427224 , 0.013161369196575763  , -0.045870773409290924, -0.5388049343579829, -0.3245027614607168 , 0.25994346929223583, -3.0787193391683876   , 0.6246974213110076    , 0.0001535679646248874  , 0.0010723509690076878  , 0.00036445742850545535 , -0.007291670923159936  , 0.0014803014218600296   , -0.0043873857792497166  , 0.0009433024509820573   , 0.3265969753265381 , -1.1518871945193787, 1.6625602881061   , -2.080010553399557 , -1.571369473134176 , 2.3015201091766357, 3.3796161460486474e-06 , 0.006500585470348597   , 0.01018112525343895    , -0.012051494792103767  , -5.850474735780153e-07 , -0.0009427117765881121 , 0.19153612852096558  , 0.1149216815829277   , -9.27034854888916  ,        0.8224645853042603,        47.687782287597656, -0.20252247154712677 , -3.48214054107666  , -1.923943042755127 , -0.6308449506759644    , 0.07083534449338913    , -0.2092895805835724 ,       24.0,    24.625 ,    23.8125,    25.5   ,    25.6875,    26.125
          1.0, -0.5979986464345688   , -0.49619345384077496  , -0.2735090913768775   , -0.020395213236012483 , 0.0017129669935719172 , -0.04227247652827338 , -0.5388013763247584, -0.32447816374293686, 0.2599013489832948 , -3.078645695515423    , 0.6248180933943024    , 2.3967553498718412e-05 , 0.0011495688366654241  , 0.00039291936426931684 , -0.007845187779518028  , 0.001702449533972187    , -0.0050448924406411065  , 0.000951037653687232    , 0.32656097412109375, -1.1518631738475342, 1.662619415913717 , -2.0799981556334437, -1.571369473134176 , 2.3015687465667725, 4.5341860044345594e-08 , 0.007032966706901789   , 0.010796419344842434   , -0.012505153194069862  , -3.819941696292517e-08 , -0.0009538180311210454 , 0.19153612852096558  , 0.15322890877723694  , -9.442731857299805 ,        0.6993717551231384,        47.67613983154297 , -0.16240334510803223 , -3.367532730102539 , -1.8934600353240967, -0.6390783786773682    , 0.0561458095908165     , -0.1981937140226364 ,       24.0,    24.625 ,    23.8125,    25.5   ,    25.6875,    26.125
          1.0, -0.4010286217852193   , -1.137508472288104    , -0.38978785649254605  , 0.00040992233126058673, 0.0028327342630418656 , -0.032621371538039776, -0.5387941564359732, -0.3244925078316651 , 0.25986419311605924, -3.0786488669738263   , 0.624761259785646     , -3.550332822756278e-05 , 0.001146693998260642   , 0.00039210778743345356 , -0.008590531168867642  , 0.0017747563440941691   , -0.005263477824135621   , 0.0008410869902953519   , 0.32658493518829346, -1.1518149238875885, 1.6626446882831019, -2.0800348720946253, -1.571357552205221 , 2.3015568256378174, 6.083188952565877e-10  , 0.007921777665615082   , 0.011570872738957405   , -0.01393816340714693   , -2.494148887421943e-09 , -0.0008442701655440032 , 0.13407528400421143  , 0.19153612852096558  , -9.461885452270508 ,        0.7239871025085449,        47.67255783081055 , -0.17347362637519836 , -3.3912265300750732, -1.954697847366333 , -0.660845160484314     , 0.053014762699604034   , -0.20857596397399902,       24.0,    24.625 ,    23.8125,    25.5   ,    25.6875,    26.125
          1.0, -0.4010286217852193   , -1.137508472288104    , -0.38978785649254605  , 0.00040992233126058673, 0.0028327342630418656 , -0.032621371538039776, -0.5387941564359732, -0.3244925078316651 , 0.25986419311605924, -3.0786488669738263   , 0.624761259785646     , -3.550332822756278e-05 , 0.001146693998260642   , 0.00039210778743345356 , -0.008590531168867642  , 0.0017747563440941691   , -0.005263477824135621   , 0.0008410869902953519   , 0.32658493518829346, -1.1518149238875885, 1.6626446882831019, -2.0800348720946253, -1.571357552205221 , 2.3015568256378174, 6.083188952565877e-10  , 0.007921777665615082   , 0.011570872738957405   , -0.01393816340714693   , -2.494148887421943e-09 , -0.0008442701655440032 , 0.13407528400421143  , 0.19153612852096558  , -9.461885452270508 ,        0.7239871025085449,        47.67255783081055 , -0.17347362637519836 , -3.3912265300750732, -1.954697847366333 , -0.660845160484314     , 0.053014762699604034   , -0.20857596397399902,       24.0,    24.625 ,    23.8125,    25.5   ,    25.6875,    26.125
          1.0, 0.033049724875684194  , -1.183445663464902    , -0.5070795058597155   , 0.0011435356097892729 , -0.0020892907193998723, -0.0431300748264425  , -0.5387866836314787, -0.32447971657401437, 0.25984570264796736, -3.078599318895172    , 0.6247511171940757    , -9.717470694520893e-05 , 0.0010225898937059785  , 0.0003498753656547855  , -0.009093569820537734  , 0.0015874015969920296   , -0.004721169278386115   , 0.0007416356600941402   , 0.3265730142593384 , -1.1518145960620423, 1.6626809279071253, -2.0800119839110316, -1.5713813940631312, 2.3015449047088623, 8.161374354109796e-12  , 0.008722185157239437   , 0.012004444375634193   , -0.015745898708701134  , -1.628500806427624e-10 , -0.0007453769794665277 , 0.13407529890537262  , 0.3064578175544739   , -9.308656692504883 ,        0.7687462568283081,        47.690467834472656, -0.26065683364868164 , -3.4237616062164307, -1.7992126941680908, -0.6490728855133057    , 0.06484515219926834    , -0.20351392030715942,       24.0,    24.625 ,    23.8125,    25.5   ,    25.6875,    26.125
          1.0, 0.033049724875684194  , -1.183445663464902    , -0.5070795058597155   , 0.0011435356097892729 , -0.0020892907193998723, -0.0431300748264425  , -0.5387866836314787, -0.32447971657401437, 0.25984570264796736, -3.078599318895172    , 0.6247511171940757    , -9.717470694520893e-05 , 0.0010225898937059785  , 0.0003498753656547855  , -0.009093569820537734  , 0.0015874015969920296   , -0.004721169278386115   , 0.0007416356600941402   , 0.3265730142593384 , -1.1518145960620423, 1.6626809279071253, -2.0800119839110316, -1.5713813940631312, 2.3015449047088623, 8.161374354109796e-12  , 0.008722185157239437   , 0.012004444375634193   , -0.015745898708701134  , -1.628500806427624e-10 , -0.0007453769794665277 , 0.13407529890537262  , 0.3064578175544739   , -9.308656692504883 ,        0.7687462568283081,        47.690467834472656, -0.26065683364868164 , -3.4237616062164307, -1.7992126941680908, -0.6490728855133057    , 0.06484515219926834    , -0.20351392030715942,       24.0,    24.625 ,    23.8125,    25.5   ,    25.6875,    26.125
          1.0, -0.07180095454840002  , -1.376598517136707    , -0.4476293558764903   , -0.004477914617115901 , -0.0074645500333862455, -0.0347033534924087  , -0.5388034643328309, -0.3244543146389107 , 0.25983666800523425, -3.078598208567376    , 0.6247879769020696    , -8.052468611798527e-05 , 0.0011858740512387213  , 0.00040551982638728945 , -0.009481938311239177  , 0.0014910322630285614   , -0.00444057959374585    , 0.0007079885422104874   , 0.32652509212493896, -1.15180258572612  , 1.6626928488360804, -2.080048223535055 , -1.5713813940631312, 2.3015201091766357, 1.0949524436015129e-13 , 0.008789041079580784   , 0.01312562357634306    , -0.017230603843927383  , -1.0632946779998154e-11, -0.0007122040842659771 , 0.1149216815829277   , 0.363918662071228    , -9.423578262329102 ,        0.7284641265869141,        47.703006744384766, -0.2701178789138794  , -3.3077268600463867, -1.858420968055725 , -0.6503015160560608    , 0.0711701437830925     , -0.2101232409477234 ,       24.0,    24.625 ,    23.8125,    25.5   ,    25.6875,    26.125
          1.0, -0.07180095454840002  , -1.376598517136707    , -0.4476293558764903   , -0.004477914617115901 , -0.0074645500333862455, -0.0347033534924087  , -0.5388034643328309, -0.3244543146389107 , 0.25983666800523425, -3.078598208567376    , 0.6247879769020696    , -8.052468611798527e-05 , 0.0011858740512387213  , 0.00040551982638728945 , -0.009481938311239177  , 0.0014910322630285614   , -0.00444057959374585    , 0.0007079885422104874   , 0.32652509212493896, -1.15180258572612  , 1.6626928488360804, -2.080048223535055 , -1.5713813940631312, 2.3015201091766357, 1.0949524436015129e-13 , 0.008789041079580784   , 0.01312562357634306    , -0.017230603843927383  , -1.0632946779998154e-11, -0.0007122040842659771 , 0.1149216815829277   , 0.363918662071228    , -9.423578262329102 ,        0.7284641265869141,        47.703006744384766, -0.2701178789138794  , -3.3077268600463867, -1.858420968055725 , -0.6503015160560608    , 0.0711701437830925     , -0.2101232409477234 ,       24.0,    24.625 ,    23.8125,    25.5   ,    25.6875,    26.125
          1.0, 0.40302251404387357   , -1.07403003395689     , -0.3958545524032275   , -0.020015674284363235 , -0.0028091599550514766, -0.046787991678975814, -0.5387936288738915, -0.3244730118461371 , 0.2598274423603778 , -3.078601497365204    , 0.6247509967727696    , -5.4621566898140794e-05, 0.000748705969571623   , 0.00025675457238074766 , -0.010604078661878855  , 0.0014986504056220356   , -0.004479069513044893   , 0.0006807569137774116   , 0.32656097412109375, -1.1517899197391053, 1.6627042929278772, -2.0800844631590785, -1.5713933149920862, 2.301532506942749 , 1.4690185577855529e-15 , 0.011040766723453999   , 0.013006076216697693   , -0.019323892891407013  , -6.942554170441539e-13 , -0.0006854707025922835 , 0.17238251864910126  , 0.3064578175544739   , -9.308656692504883 ,        0.7665104269981384,        47.649269104003906, -0.1973590850830078  , -3.357429027557373 , -1.7830700874328613, -0.6479557752609253    , 0.05997481942176819    , -0.21423941850662231,       24.0,    24.625 ,    23.8125,    25.5   ,    25.6875,    26.125
          1.0, 0.19037851135044798   , -1.1543100483454773   , -0.3169278347047715   , -0.0168056990723389   , -0.006255319742984232 , -0.04451101380466938 , -0.5387914963494631, -0.3244813473264838 , 0.25978320968600477, -3.078584013789029    , 0.6247671544798923    , -0.00012954377166084766, 0.0007433151456938205  , 0.0002549773157794223  , -0.010934541674602003  , 0.0013932310772843603   , -0.004173145369600887   , 0.000625649068443889    , 0.3265730142593384 , -1.1517298084548493, 1.6627290884601038, -2.08012117962026  , -1.5713813940631312, 2.3015568256378174, 1.9708757653629385e-17 , 0.011407089419662952   , 0.013515522703528404   , -0.02052322030067444   , -4.532991684921481e-14 , -0.0006307376315817237 , 0.13407529890537262  , 0.3447650372982025   , -9.366117477416992 ,        0.6971306204795837,        47.64657974243164 , -0.24484321475028992 , -3.3077826499938965, -1.8073265552520752, -0.633556604385376     , 0.05159313231706619    , -0.22674262523651123,       24.0,    24.625 ,    23.8125,    25.5   ,    25.6875,    26.125
          1.0, 0.19037851135044798   , -1.1543100483454773   , -0.3169278347047715   , -0.0168056990723389   , -0.006255319742984232 , -0.04451101380466938 , -0.5387914963494631, -0.3244813473264838 , 0.25978320968600477, -3.078584013789029    , 0.6247671544798923    , -0.00012954377166084766, 0.0007433151456938205  , 0.0002549773157794223  , -0.010934541674602003  , 0.0013932310772843603   , -0.004173145369600887   , 0.000625649068443889    , 0.3265730142593384 , -1.1517298084548493, 1.6627290884601038, -2.08012117962026  , -1.5713813940631312, 2.3015568256378174, 1.9708757653629385e-17 , 0.011407089419662952   , 0.013515522703528404   , -0.02052322030067444   , -4.532991684921481e-14 , -0.0006307376315817237 , 0.13407529890537262  , 0.3447650372982025   , -9.366117477416992 ,        0.6971306204795837,        47.64657974243164 , -0.24484321475028992 , -3.3077826499938965, -1.8073265552520752, -0.633556604385376     , 0.05159313231706619    , -0.22674262523651123,       24.0,    24.625 ,    23.8125,    25.5   ,    25.6875,    26.125
          1.0, 0.13630703708364772   , -1.061232589268983    , -0.2704533740969775   , -0.008236770162227403 , -0.0023154617736160744, -0.043027369766907235, -0.5388002722033104, -0.32447002974431627, 0.25979157612965836, -3.0786355381270036   , 0.6247190342047391    , -5.666274665588942e-05 , 0.0006002194635965162  , 0.00020616965558218554 , -0.010747501705504377  , 0.0009064987854757386   , -0.0027472114767217943  , 0.0007076068326158246   , 0.32654905319213867, -1.1517419081977387, 1.6627405325519007, -2.0801812611021937, -1.571369473134176 , 2.3014962673187256, 2.644181314217435e-19  , 0.011367328464984894   , 0.013467654585838318   , -0.021942313760519028  , -2.959719676713158e-15 , -0.0007132787723094225 , 0.26815059781074524  , 0.3064578175544739   , -9.385271072387695 ,        0.7306999564170837,        47.700321197509766, -0.1846953183412552  , -3.3314156532287598, -1.7947773933410645, -0.6432511210441589    , 0.0662710964679718     , -0.22575600445270538,       24.0,    24.625 ,    23.8125,    25.5   ,    25.6875,    26.125
          1.0, 0.13630703708364772   , -1.061232589268983    , -0.2704533740969775   , -0.008236770162227403 , -0.0023154617736160744, -0.043027369766907235, -0.5388002722033104, -0.32447002974431627, 0.25979157612965836, -3.0786355381270036   , 0.6247190342047391    , -5.666274665588942e-05 , 0.0006002194635965162  , 0.00020616965558218554 , -0.010747501705504377  , 0.0009064987854757386   , -0.0027472114767217943  , 0.0007076068326158246   , 0.32654905319213867, -1.1517419081977387, 1.6627405325519007, -2.0801812611021937, -1.571369473134176 , 2.3014962673187256, 2.644181314217435e-19  , 0.011367328464984894   , 0.013467654585838318   , -0.021942313760519028  , -2.959719676713158e-15 , -0.0007132787723094225 , 0.26815059781074524  , 0.3064578175544739   , -9.385271072387695 ,        0.7306999564170837,        47.700321197509766, -0.1846953183412552  , -3.3314156532287598, -1.7947773933410645, -0.6432511210441589    , 0.0662710964679718     , -0.22575600445270538,       24.0,    24.625 ,    23.8125,    25.5   ,    25.6875,    26.125
          1.0, -0.06616509053235664  , -0.8781676811409613   , -0.3293845690441712   , -0.0023445113952608684, -0.005456258066022755 , -0.040344494314524366, -0.5387772478840918, -0.32448949520253   , 0.2597495011206855 , -3.0785732784831574   , 0.6246875672817717    , -0.00012485549683896507, 0.0003486655997071585  , 0.00012045870699464477 , -0.010688143447702976  , 0.0003729964167108966   , -0.0011867361673763568  , 0.0007555843689447634   , 0.3265969753265381 , -1.1517056983760376, 1.662788216267721 , -2.080193658868307 , -1.5714057127581995, 2.301532506942749 , 3.547506632498225e-21  , 0.01170039176940918    , 0.013274116441607475   , -0.02373102866113186   , -1.932485552128189e-16 , -0.0007619456737302244 , 0.17238251864910126  , 0.26815059781074524  , -9.21288776397705  ,        0.7665104269981384,        47.68061828613281 , -0.27333730459213257 , -3.3397903442382812, -1.7585777044296265, -0.6507304310798645    , 0.061375707387924194   , -0.22548845410346985,       24.0,    24.625 ,    23.8125,    25.5   ,    25.6875,    26.125
          1.0, -0.06616509053235664  , -0.8781676811409613   , -0.3293845690441712   , -0.0023445113952608684, -0.005456258066022755 , -0.040344494314524366, -0.5387772478840918, -0.32448949520253   , 0.2597495011206855 , -3.0785732784831574   , 0.6246875672817717    , -0.00012485549683896507, 0.0003486655997071585  , 0.00012045870699464477 , -0.010688143447702976  , 0.0003729964167108966   , -0.0011867361673763568  , 0.0007555843689447634   , 0.3265969753265381 , -1.1517056983760376, 1.662788216267721 , -2.080193658868307 , -1.5714057127581995, 2.301532506942749 , 3.547506632498225e-21  , 0.01170039176940918    , 0.013274116441607475   , -0.02373102866113186   , -1.932485552128189e-16 , -0.0007619456737302244 , 0.17238251864910126  , 0.26815059781074524  , -9.21288776397705  ,        0.7665104269981384,        47.68061828613281 , -0.27333730459213257 , -3.3397903442382812, -1.7585777044296265, -0.6507304310798645    , 0.061375707387924194   , -0.22548845410346985,       24.0,    24.625 ,    23.8125,    25.5   ,    25.6875,    26.125
          1.0, -0.5329719668665945   , -0.9608890328067313   , -0.3528365497839072   , 0.01791454316536762   , -0.024706110494766072 , -0.03072350985833212 , -0.5387694468276898, -0.3244868311479371 , 0.25971505865941275, -3.0785748220580027   , 0.6246485525078647    , -0.000141844196365375  , 0.00024787016800337675 , 8.609617674362326e-05  , -0.01060629820892187   , -0.00018716523968401964 , 0.00045368491393682335  , 0.0012216869538933962   , 0.3265969753265381 , -1.1516817671111603, 1.662849251423971 , -2.080266138116354 , -1.5714057127581995, 2.3015079498291016, 4.759432606203758e-23  , 0.011671725660562515   , 0.013583928346633911   , -0.0257456935942173    , -1.2617751025337943e-17, -0.0012288350844755769 , 0.17238251864910126  , 0.2106897532939911   , -9.155426979064941 ,        0.6613254547119141,        47.68598937988281 , -0.257729172706604   , -3.322334051132202 , -1.8036646842956543, -0.6222226619720459    , 0.058713484555482864   , -0.216535747051239  ,       24.0,    24.625 ,    23.8125,    25.5   ,    25.6875,    26.125
          1.0, -0.5329719668665945   , -0.9608890328067313   , -0.3528365497839072   , 0.01791454316536762   , -0.024706110494766072 , -0.03072350985833212 , -0.5387694468276898, -0.3244868311479371 , 0.25971505865941275, -3.0785748220580027   , 0.6246485525078647    , -0.000141844196365375  , 0.00024787016800337675 , 8.609617674362326e-05  , -0.01060629820892187   , -0.00018716523968401964 , 0.00045368491393682335  , 0.0012216869538933962   , 0.3265969753265381 , -1.1516817671111603, 1.662849251423971 , -2.080266138116354 , -1.5714057127581995, 2.3015079498291016, 4.759432606203758e-23  , 0.011671725660562515   , 0.013583928346633911   , -0.0257456935942173    , -1.2617751025337943e-17, -0.0012288350844755769 , 0.17238251864910126  , 0.2106897532939911   , -9.155426979064941 ,        0.6613254547119141,        47.68598937988281 , -0.257729172706604   , -3.322334051132202 , -1.8036646842956543, -0.6222226619720459    , 0.058713484555482864   , -0.216535747051239  ,       24.0,    24.625 ,    23.8125,    25.5   ,    25.6875,    26.125
          1.0, 0.43012124884477393   , -1.0241237152118643   , -0.28908783822152134  , 0.020907770879887305  , -0.00815714355175206  , -0.04626382662001367 , -0.5387808162577356, -0.3244854384800393 , 0.2597171964517373 , -3.0786067012445217   , 0.6246935126323877    , -0.00010967565627152564, 5.476833435144163e-05  , 2.0309814310756637e-05 , -0.010779725436700003  , -0.0005697522994415546  , 0.001570532305007918    , 0.0013551290886239336   , 0.32658493518829346, -1.1516696971705933, 1.6628358999835413, -2.0803028545775355, -1.5713813940631312, 2.3015198707580566, 6.385386279581035e-25  , 0.01218659058213234    , 0.013659845106303692   , -0.027517026290297508  , -8.238489358408172e-19 , -0.0013629026943817735 , 0.19153612852096558  , 0.26815059781074524  , -9.174580574035645 ,        0.8135106563568115,        47.692256927490234, -0.22573639452457428 , -3.3093395233154297, -1.7376471757888794, -0.6118231415748596    , 0.060816168785095215   , -0.20935682952404022,       24.0,    24.625 ,    23.8125,    25.5   ,    25.6875,    26.125
          1.0, 0.33751183578492705   , -0.374929743163604    , -0.23734072581899712  , 0.003727332904831315  , -0.01615786171413822  , -0.04585508710078181 , -0.5388131118485839, -0.32446152287505137, 0.2597094034036956 , -3.0785925445316424   , 0.6247872900922045    , 1.562304891190533e-05  , -8.641583168700077e-05 , -2.770835080235141e-05 , -0.011413276688843187  , -0.0005097069448806672  , 0.0013872102538192053   , 0.0012952528238082774   , 0.32653701305389404, -1.151633159523346 , 1.6628244558917444, -2.0803991756834925, -1.5714176336871546, 2.30153226852417  , 8.566810645058506e-27  , 0.013243899680674076   , 0.01386440172791481    , -0.02858603373169899   , -5.379144860557255e-20 , -0.0013032701099291444 , 0.17238251864910126  , 0.17238251864910126  , -9.21288776397705  ,        0.6881819367408752,        47.67792892456055 , -0.25368887186050415 , -3.318887233734131 , -1.7507812976837158, -0.6160744428634644    , 0.06790082156658173    , -0.21815651655197144,       24.0,    24.625 ,    23.8125,    25.5   ,    25.6875,    26.125
          1.0, 0.33751183578492705   , -0.374929743163604    , -0.23734072581899712  , 0.003727332904831315  , -0.01615786171413822  , -0.04585508710078181 , -0.5388131118485839, -0.32446152287505137, 0.2597094034036956 , -3.0785925445316424   , 0.6247872900922045    , 1.562304891190533e-05  , -8.641583168700077e-05 , -2.770835080235141e-05 , -0.011413276688843187  , -0.0005097069448806672  , 0.0013872102538192053   , 0.0012952528238082774   , 0.32653701305389404, -1.151633159523346 , 1.6628244558917444, -2.0803991756834925, -1.5714176336871546, 2.30153226852417  , 8.566810645058506e-27  , 0.013243899680674076   , 0.01386440172791481    , -0.02858603373169899   , -5.379144860557255e-20 , -0.0013032701099291444 , 0.17238251864910126  , 0.17238251864910126  , -9.21288776397705  ,        0.6881819367408752,        47.67792892456055 , -0.25368887186050415 , -3.318887233734131 , -1.7507812976837158, -0.6160744428634644    , 0.06790082156658173    , -0.21815651655197144,       24.0,    24.625 ,    23.8125,    25.5   ,    25.6875,    26.125
          1.0, 0.11638349299033707   , -0.7861427940034337   , -0.2350828717006106   , 0.018896592757481064  , -0.01467049402552991  , -0.039430712860848774, -0.5387996027814532, -0.3244828422026729 , 0.2596687093459538 , -3.0786104685092943   , 0.6247134258765821    , -5.268806159357095e-05 , -0.00023368928779644385, -7.788429184504303e-05 , -0.011529510735568273  , -0.0008110610093169259  , 0.0022667867174023097   , 0.0013760791121642001   , 0.3265730142593384 , -1.1515851777843018, 1.6628606955157679, -2.080447336236471 , -1.5713933149920862, 2.3015198707580566, 1.1493469629323142e-28 , 0.013617529533803463   , 0.013913321308791637   , -0.029938334599137306  , -3.512197167893435e-21 , -0.0013845799257978797 , 0.15322890877723694  , 0.07661445438861847  , -9.232041358947754 ,        0.6837049722671509,        47.651058197021484, -0.28672197461128235 , -3.301149368286133 , -1.7220616340637207, -0.6106451153755188    , 0.06237243860960007    , -0.22294014692306519,       24.0,    24.625 ,    23.8125,    25.5   ,    25.6875,    26.125
          1.0, 0.11638349299033707   , -0.7861427940034337   , -0.2350828717006106   , 0.018896592757481064  , -0.01467049402552991  , -0.039430712860848774, -0.5387996027814532, -0.3244828422026729 , 0.2596687093459538 , -3.0786104685092943   , 0.6247134258765821    , -5.268806159357095e-05 , -0.00023368928779644385, -7.788429184504303e-05 , -0.011529510735568273  , -0.0008110610093169259  , 0.0022667867174023097   , 0.0013760791121642001   , 0.3265730142593384 , -1.1515851777843018, 1.6628606955157679, -2.080447336236471 , -1.5713933149920862, 2.3015198707580566, 1.1493469629323142e-28 , 0.013617529533803463   , 0.013913321308791637   , -0.029938334599137306  , -3.512197167893435e-21 , -0.0013845799257978797 , 0.15322890877723694  , 0.07661445438861847  , -9.232041358947754 ,        0.6837049722671509,        47.651058197021484, -0.28672197461128235 , -3.301149368286133 , -1.7220616340637207, -0.6106451153755188    , 0.06237243860960007    , -0.22294014692306519,       24.0,    24.625 ,    23.8125,    25.5   ,    25.6875,    26.125
          1.0, -0.04249381362295557  , -0.5068698646312897   , -0.053915705641857284 , 0.011987903109073602  , -0.011039829519764094 , -0.04363247542357078 , -0.5387793560086052, -0.3244681173642672 , 0.25962664987999956, -3.078582700008798    , 0.6247271012529972    , -0.00011852716617204539, -0.00017796751202300585, -5.8772372763365726e-05, -0.012331875939051325  , -0.000602675547508658   , 0.0016493758759760467   , 0.001343666634507402    , 0.32656097412109375, -1.1515847903541108, 1.66296893755068  , -2.0805074177184046, -1.5713933149920862, 2.3015198707580566, 1.5419958099736404e-30 , 0.01448484230786562    , 0.01476559042930603    , -0.031006282195448875  , -2.2932138552031776e-22, -0.0013523742090910673 , 0.19153612852096558  , 0.07661445438861847  , -9.136273384094238 ,        0.7620334029197693,        47.692256927490234, -0.2659997344017029  , -3.379101037979126 , -1.790297031402588 , -0.5843480825424194    , 0.06310360878705978    , -0.2184334546327591 ,       24.0,    24.625 ,    23.8125,    25.5   ,    25.6875,    26.125
          1.0, -0.04249381362295557  , -0.5068698646312897   , -0.053915705641857284 , 0.011987903109073602  , -0.011039829519764094 , -0.04363247542357078 , -0.5387793560086052, -0.3244681173642672 , 0.25962664987999956, -3.078582700008798    , 0.6247271012529972    , -0.00011852716617204539, -0.00017796751202300585, -5.8772372763365726e-05, -0.012331875939051325  , -0.000602675547508658   , 0.0016493758759760467   , 0.001343666634507402    , 0.32656097412109375, -1.1515847903541108, 1.66296893755068  , -2.0805074177184046, -1.5713933149920862, 2.3015198707580566, 1.5419958099736404e-30 , 0.01448484230786562    , 0.01476559042930603    , -0.031006282195448875  , -2.2932138552031776e-22, -0.0013523742090910673 , 0.19153612852096558  , 0.07661445438861847  , -9.136273384094238 ,        0.7620334029197693,        47.692256927490234, -0.2659997344017029  , -3.379101037979126 , -1.790297031402588 , -0.5843480825424194    , 0.06310360878705978    , -0.2184334546327591 ,       24.0,    24.625 ,    23.8125,    25.5   ,    25.6875,    26.125
          1.0, 0.06279576156129987   , -0.5561838798047162   , -0.16360520395886605  , 0.020987406331702322  , 0.003811661358085399  , -0.04131140804199045 , -0.538777461565478 , -0.32446746962762424, 0.25961268275656346, -3.0785946183964237   , 0.6246722206779113    , -0.00011658020013123816, -0.00046879273607593235, -0.0001579592466202264 , -0.011791923649036168  , -0.001325428868458367   , 0.003768352463515499    , 0.0012646713537807141   , 0.32656097412109375, -1.151572899227478 , 1.662992302571432 , -2.0805441341795863, -1.5713933149920862, 2.3014841079711914, 2.068784246359616e-32  , 0.014294029213488102   , 0.014126820489764214   , -0.03241553157567978   , -1.4973046986750695e-23, -0.0012740441597998142 , 0.15322890877723694  , -0.038307227194309235, -9.097966194152832 ,        0.6658024191856384,        47.65374755859375 , -0.2540458142757416  , -3.2953739166259766, -1.7066339254379272, -0.5877244472503662    , 0.07864979654550552    , -0.22356632351875305,       24.0,    24.625 ,    23.8125,    25.5   ,    25.6875,    26.125
          1.0, -0.20349669209127305  , -0.6562614632322137   , -0.29269443645262433  , 0.027762429053520582  , -0.003178111308343643 , -0.04293776436270636 , -0.538780499358014 , -0.3244878109306369 , 0.2595841618200353 , -3.0786109738225447   , 0.6247144217105951    , -0.00016267915822698687, -0.0003697364818167136 , -0.00012409984987098697, -0.012550018600729098  , -0.001077718138133145   , 0.0030366267181419957   , 0.0011419286728662505   , 0.32658493518829346, -1.1515127283385773, 1.6629813353167933, -2.0805803738036097, -1.571357552205221 , 2.30153226852417  , 2.7755380014869777e-34 , 0.01502528041601181    , 0.015017381869256496   , -0.03326476365327835   , -9.776330518652974e-25 , -0.001151439850218594  , 0.13407529890537262  , 0.019153613597154617 , -9.136273384094238 ,        0.7597975730895996,        47.686885833740234, -0.25790321826934814 , -3.3055331707000732, -1.7080892324447632, -0.5648391842842102    , 0.0663893073797226     , -0.20774704217910767,       24.0,    24.625 ,    23.8125,    25.5   ,    25.6875,    26.125
          1.0, -0.20349669209127305  , -0.6562614632322137   , -0.29269443645262433  , 0.027762429053520582  , -0.003178111308343643 , -0.04293776436270636 , -0.538780499358014 , -0.3244878109306369 , 0.2595841618200353 , -3.0786109738225447   , 0.6247144217105951    , -0.00016267915822698687, -0.0003697364818167136 , -0.00012409984987098697, -0.012550018600729098  , -0.001077718138133145   , 0.0030366267181419957   , 0.0011419286728662505   , 0.32658493518829346, -1.1515127283385773, 1.6629813353167933, -2.0805803738036097, -1.571357552205221 , 2.30153226852417  , 2.7755380014869777e-34 , 0.01502528041601181    , 0.015017381869256496   , -0.03326476365327835   , -9.776330518652974e-25 , -0.001151439850218594  , 0.13407529890537262  , 0.019153613597154617 , -9.136273384094238 ,        0.7597975730895996,        47.686885833740234, -0.25790321826934814 , -3.3055331707000732, -1.7080892324447632, -0.5648391842842102    , 0.0663893073797226     , -0.20774704217910767,       24.0,    24.625 ,    23.8125,    25.5   ,    25.6875,    26.125
          1.0, -0.25505948099094394  , -0.3352873956904294   , -0.24453505967165837  , 0.021661332169284016  , -0.0008575942479185526, -0.04203567206608573 , -0.5387748007606744, -0.32447437221773673, 0.25955352314743785, -3.0785733545403042   , 0.6247457121928143    , -0.0001338427102258058 , -0.0005099988893444117 , -0.00017188795084136397, -0.012594836682436081  , -0.001417276024942113   , 0.004029428866961514    , 0.0010831129345224343   , 0.3265730142593384 , -1.1515006583980103, 1.6630528608905237, -2.0806642971434535, -1.5713933149920862, 2.301544666290283 , 3.7237381648336834e-36 , 0.015290720388293266   , 0.015055845491588116   , -0.03461796045303345   , -6.383245508299492e-26 , -0.0010931255528703332 , 0.019153613597154617 , 0.15322890877723694  , -9.136273384094238 ,        0.6993717551231384,        47.66449737548828 , -0.2915903925895691  , -3.3129401206970215, -1.6604913473129272, -0.5639191269874573    , 0.062490083277225494   , -0.2017374336719513 ,       24.0,    24.625 ,    23.8125,    25.5   ,    25.6875,    26.125
          1.0, -0.25505948099094394  , -0.3352873956904294   , -0.24453505967165837  , 0.021661332169284016  , -0.0008575942479185526, -0.04203567206608573 , -0.5387748007606744, -0.32447437221773673, 0.25955352314743785, -3.0785733545403042   , 0.6247457121928143    , -0.0001338427102258058 , -0.0005099988893444117 , -0.00017188795084136397, -0.012594836682436081  , -0.001417276024942113   , 0.004029428866961514    , 0.0010831129345224343   , 0.3265730142593384 , -1.1515006583980103, 1.6630528608905237, -2.0806642971434535, -1.5713933149920862, 2.301544666290283 , 3.7237381648336834e-36 , 0.015290720388293266   , 0.015055845491588116   , -0.03461796045303345   , -6.383245508299492e-26 , -0.0010931255528703332 , 0.019153613597154617 , 0.15322890877723694  , -9.136273384094238 ,        0.6993717551231384,        47.66449737548828 , -0.2915903925895691  , -3.3129401206970215, -1.6604913473129272, -0.5639191269874573    , 0.062490083277225494   , -0.2017374336719513 ,       24.0,    24.625 ,    23.8125,    25.5   ,    25.6875,    26.125
          1.0, -0.2034077580324641   , -0.7203229100749875   , -0.26515960455848664  , 0.0261612525334202    , 0.0006926559321670991 , -0.036035722952489246, -0.5387776778333353, -0.324495909772327  , 0.2595301604302219 , -3.078654292852575    , 0.6247040548853302    , -9.17877718772594e-05  , -0.0005080760650232139 , -0.00017115002663264069, -0.013237487618965005  , -0.0013586431547708685  , 0.0038516116789593484   , 0.0010484964379384265   , 0.3265969753265381 , -1.1514524084380646, 1.6630657354937952, -2.0807844601073207, -1.571345631276266 , 2.30153226852417  , 4.995870048653837e-38  , 0.016048211604356766   , 0.01574045605957508    , -0.03587277978658676   , -4.1678029183613646e-27, -0.0010588279692456126 , -0.038307227194309235, 0.019153613597154617 , -9.174580574035645 ,        0.7060845494270325,        47.68061828613281 , -0.29211652278900146 , -3.32946515083313  , -1.730393886566162 , -0.5669219493865967    , 0.05453760176897049    , -0.2185167372226715 ,       24.0,    24.625 ,    23.8125,    25.5   ,    25.6875,    26.125
          1.0, -0.2034077580324641   , -0.7203229100749875   , -0.26515960455848664  , 0.0261612525334202    , 0.0006926559321670991 , -0.036035722952489246, -0.5387776778333353, -0.324495909772327  , 0.2595301604302219 , -3.078654292852575    , 0.6247040548853302    , -9.17877718772594e-05  , -0.0005080760650232139 , -0.00017115002663264069, -0.013237487618965005  , -0.0013586431547708685  , 0.0038516116789593484   , 0.0010484964379384265   , 0.3265969753265381 , -1.1514524084380646, 1.6630657354937952, -2.0807844601073207, -1.571345631276266 , 2.30153226852417  , 4.995870048653837e-38  , 0.016048211604356766   , 0.01574045605957508    , -0.03587277978658676   , -4.1678029183613646e-27, -0.0010588279692456126 , -0.038307227194309235, 0.019153613597154617 , -9.174580574035645 ,        0.7060845494270325,        47.68061828613281 , -0.29211652278900146 , -3.32946515083313  , -1.730393886566162 , -0.5669219493865967    , 0.05453760176897049    , -0.2185167372226715 ,       24.0,    24.625 ,    23.8125,    25.5   ,    25.6875,    26.125
          1.0, -0.4420180587534299   , -0.474223210358782    , -0.32217583294298774  , 0.01694041251283071   , -0.0006776435345904963, -0.038905899239987926, -0.5387836826042873, -0.32448132847558336, 0.25948137192267057, -3.0785508459612254   , 0.6247021444761273    , -0.00010444544644125798, -0.0008159076326826019 , -0.0002760187216277676 , -0.01349368558409397   , -0.001628848809551287   , 0.004636543953781802    , 0.0010418794985464102   , 0.32658493518829346, -1.1513920587352295, 1.663100544606344 , -2.0808211765685023, -1.5714295546161097, 2.30153226852417  , 6.702592723665962e-40  , 0.01694280095398426    , 0.015385353937745094   , -0.03724248707294464   , -2.721277622402187e-28 , -0.0010526621481403708 , -0.038307227194309235, 0.09576806426048279  , -9.251194953918457 ,        0.7530794739723206,        47.671661376953125, -0.31639957427978516 , -3.271909713745117 , -1.6987299919128418, -0.5446836948394775    , 0.05643676221370697    , -0.22271689772605896,       24.0,    24.625 ,    23.8125,    25.5   ,    25.6875,    26.125
          1.0, -0.4420180587534299   , -0.474223210358782    , -0.32217583294298774  , 0.01694041251283071   , -0.0006776435345904963, -0.038905899239987926, -0.5387836826042873, -0.32448132847558336, 0.25948137192267057, -3.0785508459612254   , 0.6247021444761273    , -0.00010444544644125798, -0.0008159076326826019 , -0.0002760187216277676 , -0.01349368558409397   , -0.001628848809551287   , 0.004636543953781802    , 0.0010418794985464102   , 0.32658493518829346, -1.1513920587352295, 1.663100544606344 , -2.0808211765685023, -1.5714295546161097, 2.30153226852417  , 6.702592723665962e-40  , 0.01694280095398426    , 0.015385353937745094   , -0.03724248707294464   , -2.721277622402187e-28 , -0.0010526621481403708 , -0.038307227194309235, 0.09576806426048279  , -9.251194953918457 ,        0.7530794739723206,        47.671661376953125, -0.31639957427978516 , -3.271909713745117 , -1.6987299919128418, -0.5446836948394775    , 0.05643676221370697    , -0.22271689772605896,       24.0,    24.625 ,    23.8125,    25.5   ,    25.6875,    26.125
          1.0, -0.34456830096951374  , -0.7155293001865943   , -0.2690494561879133   , 0.02216049550197973   , 0.008345197989718778  , -0.04532308351146799 , -0.5387815340303728, -0.3244999590151466 , 0.25949711265474656, -3.0786325005821173   , 0.6247003447666235    , -3.1501793251107637e-06, -0.0008853064789501801 , -0.00029969042838429513, -0.013498499833964568  , -0.0019428913431911062  , 0.005555634512620525    , 0.0011462252119274286   , 0.32660889625549316, -1.1514040690711518, 1.663100544606344 , -2.080905099908346 , -1.5713933149920862, 2.301544666290283 , 8.992132245572351e-42  , 0.017012322321534157   , 0.015578009188175201   , -0.03847590833902359   , -1.7767994711888098e-29, -0.0011574749369174242 , -0.038307227194309235, 0.09576806426048279  , -9.251194953918457 ,        0.7105615139007568,        47.68330383300781 , -0.277107298374176   , -3.32515287399292  , -1.6580790281295776, -0.5355576276779175    , 0.06354673206806183    , -0.21222048997879028,       24.0,    24.625 ,    23.8125,    25.5   ,    25.6875,    26.125
          1.0, -0.43945452928018336  , -0.41289852865103016  , -0.1772001947381676   , 0.011244270504675977  , 0.015315022762942054  , -0.04263735572557731 , -0.5387804525305422, -0.3244930928977801 , 0.25945236328867594, -3.078617947370818    , 0.6246385550416683    , -0.00011193062704034449, -0.0006986531064816313 , -0.00023588186845673062, -0.014726387474388793  , -0.0013918113318028874  , 0.003932089148846799    , 0.0011841300626621544   , 0.3265969753265381 , -1.1513556999019166, 1.6631372610675257, -2.080917020837301 , -1.5713813940631312, 2.3014960289001465, 1.2051166793193427e-43 , 0.018182257190346718   , 0.016908317804336548   , -0.03926162049174309   , -1.1601230224536469e-30, -0.001195377903059125  , -0.038307227194309235, 0.038307227194309235 , -9.251194953918457 ,        0.7709873914718628,        47.686885833740234, -0.30490821599960327 , -3.416144371032715 , -1.7188785076141357, -0.5189892053604126    , 0.07831675559282303    , -0.2027226984500885 ,       24.0,    24.625 ,    23.8125,    25.5   ,    25.6875,    26.125
          1.0, -0.43945452928018336  , -0.41289852865103016  , -0.1772001947381676   , 0.011244270504675977  , 0.015315022762942054  , -0.04263735572557731 , -0.5387804525305422, -0.3244930928977801 , 0.25945236328867594, -3.078617947370818    , 0.6246385550416683    , -0.00011193062704034449, -0.0006986531064816313 , -0.00023588186845673062, -0.014726387474388793  , -0.0013918113318028874  , 0.003932089148846799    , 0.0011841300626621544   , 0.3265969753265381 , -1.1513556999019166, 1.6631372610675257, -2.080917020837301 , -1.5713813940631312, 2.3014960289001465, 1.2051166793193427e-43 , 0.018182257190346718   , 0.016908317804336548   , -0.03926162049174309   , -1.1601230224536469e-30, -0.001195377903059125  , -0.038307227194309235, 0.038307227194309235 , -9.251194953918457 ,        0.7709873914718628,        47.686885833740234, -0.30490821599960327 , -3.416144371032715 , -1.7188785076141357, -0.5189892053604126    , 0.07831675559282303    , -0.2027226984500885 ,       24.0,    24.625 ,    23.8125,    25.5   ,    25.6875,    26.125
          1.0, -0.4782727891832026   , -0.7080033962443304   , -0.3119368592330219   , 0.020528951447386506  , 0.018079792791673377  , -0.04401511904159379 , -0.5387937438702884, -0.32448330786904217, 0.25941749009159887, -3.0786505400694093   , 0.6246836891556017    , -3.9520113652148146e-05, -0.0007129666060953    , -0.0002407622881184463 , -0.01457921504633161   , -0.001645777436601244   , 0.004677958528591488    , 0.0013781988386257684   , 0.3265730142593384 , -1.151307926779129 , 1.663184944783346 , -2.0810729465880335, -1.571369473134176 , 2.3014960289001465, 1.401298464324817e-45  , 0.017975758761167526   , 0.017019454389810562   , -0.03995419666171074   , -7.574774512482668e-32 , -0.001389751210808754  , 0.0                  , 0.05746084079146385  , -9.232041358947754 ,        0.7150384783744812,        47.65553665161133 , -0.29951369762420654 , -3.307577133178711 , -1.7138116359710693, -0.521465539932251     , 0.057596638798713684   , -0.2161681354045868 ,       24.0,    24.625 ,    23.8125,    25.5   ,    25.6875,    26.125
          1.0, -0.4782727891832026   , -0.7080033962443304   , -0.3119368592330219   , 0.020528951447386506  , 0.018079792791673377  , -0.04401511904159379 , -0.5387937438702884, -0.32448330786904217, 0.25941749009159887, -3.0786505400694093   , 0.6246836891556017    , -3.9520113652148146e-05, -0.0007129666060953    , -0.0002407622881184463 , -0.01457921504633161   , -0.001645777436601244   , 0.004677958528591488    , 0.0013781988386257684   , 0.3265730142593384 , -1.151307926779129 , 1.663184944783346 , -2.0810729465880335, -1.571369473134176 , 2.3014960289001465, 1.401298464324817e-45  , 0.017975758761167526   , 0.017019454389810562   , -0.03995419666171074   , -7.574774512482668e-32 , -0.001389751210808754  , 0.0                  , 0.05746084079146385  , -9.232041358947754 ,        0.7150384783744812,        47.65553665161133 , -0.29951369762420654 , -3.307577133178711 , -1.7138116359710693, -0.521465539932251     , 0.057596638798713684   , -0.2161681354045868 ,       24.0,    24.625 ,    23.8125,    25.5   ,    25.6875,    26.125
          1.0, -0.5999100455208354   , -0.40361573448946564  , -0.28066725420914296  , 0.015233618603297437  , 0.016035635903708403  , -0.05040113091166562 , -0.5387800010616792, -0.3245072417154976 , 0.25940784841729747, -3.0786436034554834   , 0.62464364998824      , -5.068580428535425e-06 , -0.000525649178083763  , -0.0001768095234039597 , -0.015541505844897444  , -0.0012752452412504896  , 0.0035853974515023825   , 0.0014442251472056805   , 0.3266209363937378 , -1.1512955290130158, 1.6631978193866175, -2.081109663049215 , -1.5713933149920862, 2.3015198707580566, 0.0                    , 0.018785517662763596   , 0.01827860064804554    , -0.040869466960430145  , -4.9457859519092314e-33, -0.0014558903640136123 , 0.05746084079146385  , 0.09576806426048279  , -9.232041358947754 ,        0.7441308498382568,        47.70658874511719 , -0.3030577600002289  , -3.40848445892334  , -1.7469685077667236, -0.5010513067245483    , 0.07551725208759308    , -0.20504355430603027,       24.0,    24.625 ,    23.8125,    25.5   ,    25.6875,    26.125
          1.0, -0.5999100455208354   , -0.40361573448946564  , -0.28066725420914296  , 0.015233618603297437  , 0.016035635903708403  , -0.05040113091166562 , -0.5387800010616792, -0.3245072417154976 , 0.25940784841729747, -3.0786436034554834   , 0.62464364998824      , -5.068580428535425e-06 , -0.000525649178083763  , -0.0001768095234039597 , -0.015541505844897444  , -0.0012752452412504896  , 0.0035853974515023825   , 0.0014442251472056805   , 0.3266209363937378 , -1.1512955290130158, 1.6631978193866175, -2.081109663049215 , -1.5713933149920862, 2.3015198707580566, 0.0                    , 0.018785517662763596   , 0.01827860064804554    , -0.040869466960430145  , -4.9457859519092314e-33, -0.0014558903640136123 , 0.05746084079146385  , 0.09576806426048279  , -9.232041358947754 ,        0.7441308498382568,        47.70658874511719 , -0.3030577600002289  , -3.40848445892334  , -1.7469685077667236, -0.5010513067245483    , 0.07551725208759308    , -0.20504355430603027,       24.0,    24.625 ,    23.8125,    25.5   ,    25.6875,    26.125
          1.0, -0.4371146388926726   , -0.5728061577940136   , -0.44532777082281705  , 0.016697909272880496  , 0.011464653261880302  , -0.047500757367384745, -0.5387918589252378, -0.3244735860771334 , 0.25934678480939977, -3.078597987037278    , 0.6247702745006968    , -9.508229532569286e-05 , -0.0008556370991094076 , -0.0002891892363967577 , -0.01583075875054413   , -0.0014204463829793437  , 0.004003870193889945    , 0.0014408588142445404   , 0.32656097412109375, -1.1512352687171479, 1.6632683912860315, -2.0811811886229457, -1.5713813940631312, 2.301544666290283 , 0.0                    , 0.019803009927272797   , 0.01772300712764263    , -0.04177428409457207   , -3.2292448417708022e-34, -0.0014527894090861082 , 0.0                  , 0.05746084079146385  , -9.327810287475586 ,        0.7463666796684265,        47.67792892456055 , -0.3276299238204956  , -3.366032838821411 , -1.633615255355835 , -0.5058233141899109    , 0.05817600339651108    , -0.20891916751861572,       24.0,    24.625 ,    23.8125,    25.5   ,    25.6875,    26.125
          1.0, -0.4371146388926726   , -0.5728061577940136   , -0.44532777082281705  , 0.016697909272880496  , 0.011464653261880302  , -0.047500757367384745, -0.5387918589252378, -0.3244735860771334 , 0.25934678480939977, -3.078597987037278    , 0.6247702745006968    , -9.508229532569286e-05 , -0.0008556370991094076 , -0.0002891892363967577 , -0.01583075875054413   , -0.0014204463829793437  , 0.004003870193889945    , 0.0014408588142445404   , 0.32656097412109375, -1.1512352687171479, 1.6632683912860315, -2.0811811886229457, -1.5713813940631312, 2.301544666290283 , 0.0                    , 0.019803009927272797   , 0.01772300712764263    , -0.04177428409457207   , -3.2292448417708022e-34, -0.0014527894090861082 , 0.0                  , 0.05746084079146385  , -9.327810287475586 ,        0.7463666796684265,        47.67792892456055 , -0.3276299238204956  , -3.366032838821411 , -1.633615255355835 , -0.5058233141899109    , 0.05817600339651108    , -0.20891916751861572,       24.0,    24.625 ,    23.8125,    25.5   ,    25.6875,    26.125
          1.0, -0.5966180757856683   , -0.4478366380923811   , -0.3537672128775874   , 0.01283664867459757   , -0.005069027344963178 , -0.03451992971053412 , -0.5387896548730285, -0.3244728308513631 , 0.25932011958509543, -3.0786284367273287   , 0.6246794483982263    , -6.366812393899363e-05 , -0.0008169487727326193 , -0.00027598032202312637, -0.016002369702232108  , -0.0013187522729393092  , 0.003704982169381356    , 0.0012733456169958227   , 0.32656097412109375, -1.1512112778476258, 1.6633170286761683, -2.0812770328917445, -1.5713813940631312, 2.3014841079711914, 0.0                    , 0.019948190078139305   , 0.017915330827236176   , -0.04179604351520538   , -2.1084659360664832e-35, -0.0012852438958361745 , 0.0                  , 0.09576806426048279  , -9.404424667358398 ,        0.6546126008033752,        47.660911560058594, -0.35305893421173096 , -3.329108715057373 , -1.7247014045715332, -0.5073750615119934    , 0.05833040922880173    , -0.2148805558681488 ,       24.0,    24.625 ,    23.8125,    25.5   ,    25.6875,    26.125
          1.0, -0.6984370346420569   , -0.6822133137773407   , -0.30762502170835665  , 0.01914416492808431   , -0.01480281912569176  , -0.037300539747656986, -0.5387811231223044, -0.32451909837062576, 0.25928697823684366, -3.0786747736453797   , 0.6245546191137088    , -8.306568224089046e-05 , -0.0006548941157660444 , -0.0002207086031717838 , -0.01668555928296966   , -0.0008569302812088221  , 0.00234708636321432     , 0.0010944330733912398   , 0.32663285732269287, -1.151139037018158 , 1.6633051077472132, -2.081337114373678 , -1.571357552205221 , 2.3014721870422363, 0.0                    , 0.02051660418510437    , 0.01863924413919449    , -0.041654035449028015  , -1.3766775830443037e-36, -0.0011061130790039897 , -0.05746084079146385 , 0.038307227194309235 , -9.327810287475586 ,        0.7732232213020325,        47.69853210449219 , -0.32539016008377075 , -3.3843650817871094, -1.6897598505020142, -0.49797555804252625   , 0.06651356816291809    , -0.20155836641788483,       24.0,    24.625 ,    23.8125,    25.5   ,    25.6875,    26.125
          1.0, -0.6984370346420569   , -0.6822133137773407   , -0.30762502170835665  , 0.01914416492808431   , -0.01480281912569176  , -0.037300539747656986, -0.5387811231223044, -0.32451909837062576, 0.25928697823684366, -3.0786747736453797   , 0.6245546191137088    , -8.306568224089046e-05 , -0.0006548941157660444 , -0.0002207086031717838 , -0.01668555928296966   , -0.0008569302812088221  , 0.00234708636321432     , 0.0010944330733912398   , 0.32663285732269287, -1.151139037018158 , 1.6633051077472132, -2.081337114373678 , -1.571357552205221 , 2.3014721870422363, 0.0                    , 0.02051660418510437    , 0.01863924413919449    , -0.041654035449028015  , -1.3766775830443037e-36, -0.0011061130790039897 , -0.05746084079146385 , 0.038307227194309235 , -9.327810287475586 ,        0.7732232213020325,        47.69853210449219 , -0.32539016008377075 , -3.3843650817871094, -1.6897598505020142, -0.49797555804252625   , 0.06651356816291809    , -0.20155836641788483,       24.0,    24.625 ,    23.8125,    25.5   ,    25.6875,    26.125
          1.0, -0.31659072521912807  , -0.29132235771113246  , -0.23880046643136627  , 0.009448721403028127  , -0.006991224489818548 , -0.03869885532509537 , -0.5387989159676954, -0.3244797307889594 , 0.2592742677736617 , -3.078676452868554    , 0.624689352637021     , -4.382379137381294e-05 , -0.0009248314435906153 , -0.0003126270134345859 , -0.01683605161282164   , -0.0007812563200954288  , 0.002120658235829165    , 0.0010365026262575392   , 0.32656097412109375, -1.1511387389949341, 1.6633523146258753, -2.0814205608763636, -1.571345631276266 , 2.3014841079711914, 0.0                    , 0.021301187574863434   , 0.017829380929470062   , -0.04138999432325363   , -8.988720924590799e-38 , -0.001048034755513072  , -0.038307227194309235, 0.019153613597154617 , -9.27034854888916  ,        0.7687462568283081,        47.685096740722656, -0.3492889702320099  , -3.378458023071289 , -1.580678105354309 , -0.5155099630355835    , 0.05919666960835457    , -0.1938772052526474 ,       24.0,    24.625 ,    23.8125,    25.5   ,    25.6875,    26.125
          1.0, -0.31659072521912807  , -0.29132235771113246  , -0.23880046643136627  , 0.009448721403028127  , -0.006991224489818548 , -0.03869885532509537 , -0.5387989159676954, -0.3244797307889594 , 0.2592742677736617 , -3.078676452868554    , 0.624689352637021     , -4.382379137381294e-05 , -0.0009248314435906153 , -0.0003126270134345859 , -0.01683605161282164   , -0.0007812563200954288  , 0.002120658235829165    , 0.0010365026262575392   , 0.32656097412109375, -1.1511387389949341, 1.6633523146258753, -2.0814205608763636, -1.571345631276266 , 2.3014841079711914, 0.0                    , 0.021301187574863434   , 0.017829380929470062   , -0.04138999432325363   , -8.988720924590799e-38 , -0.001048034755513072  , -0.038307227194309235, 0.019153613597154617 , -9.27034854888916  ,        0.7687462568283081,        47.685096740722656, -0.3492889702320099  , -3.378458023071289 , -1.580678105354309 , -0.5155099630355835    , 0.05919666960835457    , -0.1938772052526474 ,       24.0,    24.625 ,    23.8125,    25.5   ,    25.6875,    26.125
          1.0, 0.04517482579228201   , 0.019630599068792033  , -0.2931582080277521   , 0.0035024882023508095 , -0.0011569870639522274, -0.04277139788654475 , -0.5387991414764259, -0.3244968754424755 , 0.2592109791317945 , -3.078615746376617    , 0.6246968027826633    , -1.3421470827574071e-05, -0.000651248498176119  , -0.0002192596339821705 , -0.017951232386276644  , -4.736200204235981e-05  , -3.648540578630936e-05  , 0.0008835384676416078   , 0.3265969753265381 , -1.1510426265052338, 1.663389031087057 , -2.081540723840231 , -1.5714057127581995, 2.301532506942749 , 0.0                    , 0.022205376997590065   , 0.01906619966030121    , -0.04125246778130531   , -5.868992497103808e-39 , -0.0008947492460720241 , 0.019153613597154617 , 0.07661445438861847  , -9.308655738830566 ,        0.7597975730895996,        47.70748519897461 , -0.31836390495300293 , -3.3207335472106934, -1.652510404586792 , -0.509391725063324     , 0.05869613215327263    , -0.20893222093582153,       24.0,    24.625 ,    23.8125,    25.5   ,    25.6875,    26.125
          1.0, 0.04517482579228201   , 0.019630599068792033  , -0.2931582080277521   , 0.0035024882023508095 , -0.0011569870639522274, -0.04277139788654475 , -0.5387991414764259, -0.3244968754424755 , 0.2592109791317945 , -3.078615746376617    , 0.6246968027826633    , -1.3421470827574071e-05, -0.000651248498176119  , -0.0002192596339821705 , -0.017951232386276644  , -4.736200204235981e-05  , -3.648540578630936e-05  , 0.0008835384676416078   , 0.3265969753265381 , -1.1510426265052338, 1.663389031087057 , -2.081540723840231 , -1.5714057127581995, 2.301532506942749 , 0.0                    , 0.022205376997590065   , 0.01906619966030121    , -0.04125246778130531   , -5.868992497103808e-39 , -0.0008947492460720241 , 0.019153613597154617 , 0.07661445438861847  , -9.308655738830566 ,        0.7597975730895996,        47.70748519897461 , -0.31836390495300293 , -3.3207335472106934, -1.652510404586792 , -0.509391725063324     , 0.05869613215327263    , -0.20893222093582153,       24.0,    24.625 ,    23.8125,    25.5   ,    25.6875,    26.125
          1.0, 0.011022652481409656  , -0.6973321413595976   , -0.33243860377617934  , 0.02381540677730003   , -0.004472766218904424 , -0.036094054640695705, -0.5387982080015947, -0.32449374553513666, 0.2591746342202318 , -3.078664978170874    , 0.6246300377912173    , -6.964430060625035e-05 , -0.00042147996611613175, -3.8353858904911295e-05, -0.018594108156374974  , 0.0005064720915979359   , -0.0016613257695968543  , 0.0005996526070131037   , 0.3265848755836487 , -1.1510065656951447, 1.6634371916400355, -2.081611772576803 , -1.571357552205221 , 2.3014724254608154, -0.0001578355295350775 , 0.022494995966553688   , 0.02001124992966652    , -0.04077043756842613   , -3.8320328194965745e-40, -0.0007683621370233595 , 0.13407529890537262  , 0.05746084079146385  , -9.289502143859863 ,        0.6948947906494141,        47.686885833740234, -0.3943099081516266  , -3.368795871734619 , -1.652988314628601 , -0.5368697643280029    , 0.05951791629195213    , -0.20748263597488403,       24.0,    24.625 ,    23.8125,    25.5   ,    25.6875,    26.125
          1.0, 0.21672462675143764   , -0.06325890163599185  , -0.22567288336988692  , 0.012062078967220662  , -0.0034303715085454065, -0.03974036706051453 , -0.5387853344769757, -0.3244881039177521 , 0.259149619882809  , -3.078643150285793    , 0.6246829306742727    , -6.179017349187397e-05 , -0.00040614091764416913, -1.4296110784549967e-05, -0.018983192740778122  , 0.0008009794304464637   , -0.0025275895489967745  , 0.0004750751862948136   , 0.3265848755836487 , -1.1510063272765656, 1.6635096708880823, -2.0816832981505335, -1.571369473134176 , 2.3015081882476807, -0.00018675094179343432, 0.022976404055953026   , 0.020159438252449036   , -0.040485069155693054  , -2.502018408051961e-41 , -0.0006724930717609823 , 0.2106897532939911   , 0.05746084079146385  , -9.27034854888916  ,        0.5986637473106384,        47.704795837402344, -0.38699573278427124 , -3.378628730773926 , -1.6720001697540283, -0.5473658442497253    , 0.05226828530430794    , -0.19590015709400177,       24.0,    24.625 ,    23.8125,    25.5   ,    25.6875,    26.125
          1.0, 0.21672462675143764   , -0.06325890163599185  , -0.22567288336988692  , 0.012062078967220662  , -0.0034303715085454065, -0.03974036706051453 , -0.5387853344769757, -0.3244881039177521 , 0.259149619882809  , -3.078643150285793    , 0.6246829306742727    , -6.179017349187397e-05 , -0.00040614091764416913, -1.4296110784549967e-05, -0.018983192740778122  , 0.0008009794304464637   , -0.0025275895489967745  , 0.0004750751862948136   , 0.3265848755836487 , -1.1510063272765656, 1.6635096708880823, -2.0816832981505335, -1.571369473134176 , 2.3015081882476807, -0.00018675094179343432, 0.022976404055953026   , 0.020159438252449036   , -0.040485069155693054  , -2.502018408051961e-41 , -0.0006724930717609823 , 0.2106897532939911   , 0.05746084079146385  , -9.27034854888916  ,        0.5986637473106384,        47.704795837402344, -0.38699573278427124 , -3.378628730773926 , -1.6720001697540283, -0.5473658442497253    , 0.05226828530430794    , -0.19590015709400177,       24.0,    24.625 ,    23.8125,    25.5   ,    25.6875,    26.125
          1.0, 0.309850759168094     , -0.5587679427052628   , -0.15457245409610826  , 0.026833123450814064  , -0.0078108833941872   , -0.0387210437122298  , -0.5388193255530687, -0.3244919272750154 , 0.2591477813918757 , -3.07868126220874     , 0.6247098778361815    , 5.249550562728893e-05  , -0.000614699274888776  , -6.424499091866592e-05 , -0.019170822743105227  , 0.0008670198522288595   , -0.002725663200936963   , 0.0003680528562802895   , 0.3265729248523712 , -1.1509462159923096, 1.6634491125689905, -2.0817672214903773, -1.571369473134176 , 2.3015081882476807, -0.00021922835730947554, 0.02364291623234749    , 0.019641919061541557   , -0.04042525961995125   , -1.6339140094027367e-42, -0.00059787422651425   , 0.15322890877723694  , 0.038307227194309235 , -9.193734169006348 ,        0.7553206086158752,        47.67792892456055 , -0.34343773126602173 , -3.4840497970581055, -1.591943621635437 , -0.5653183460235596    , 0.057289283722639084   , -0.19591546058654785,       24.0,    24.625 ,    23.8125,    25.5   ,    25.6875,    26.125
          1.0, 0.309850759168094     , -0.5587679427052628   , -0.15457245409610826  , 0.026833123450814064  , -0.0078108833941872   , -0.0387210437122298  , -0.5388193255530687, -0.3244919272750154 , 0.2591477813918757 , -3.07868126220874     , 0.6247098778361815    , 5.249550562728893e-05  , -0.000614699274888776  , -6.424499091866592e-05 , -0.019170822743105227  , 0.0008670198522288595   , -0.002725663200936963   , 0.0003680528562802895   , 0.3265729248523712 , -1.1509462159923096, 1.6634491125689905, -2.0817672214903773, -1.571369473134176 , 2.3015081882476807, -0.00021922835730947554, 0.02364291623234749    , 0.019641919061541557   , -0.04042525961995125   , -1.6339140094027367e-42, -0.00059787422651425   , 0.15322890877723694  , 0.038307227194309235 , -9.193734169006348 ,        0.7553206086158752,        47.67792892456055 , -0.34343773126602173 , -3.4840497970581055, -1.591943621635437 , -0.5653183460235596    , 0.057289283722639084   , -0.19591546058654785,       24.0,    24.625 ,    23.8125,    25.5   ,    25.6875,    26.125
          1.0, 0.5769396226671342    , -0.19216772501129462  , -0.07726431442150768  , 0.02117282681348673   , -0.012040398001846909 , -0.04563639476572318 , -0.5388113024041746, -0.3244748704155562 , 0.25906221804251883, -3.0786518423871088   , 0.624723264485305     , -5.5489572314322795e-05, -0.0002836787508448198 , 6.381370939554949e-05  , -0.019578705194550267  , 0.00112074290167135     , -0.0034684682698993747  , 0.00028496691310102285  , 0.3265489637851715 , -1.1508741539767762, 1.663569752370016 , -2.0818873844542445, -1.571357552205221 , 2.3014962673187256, -0.00024261495855171233, 0.023456618189811707   , 0.020889921113848686   , -0.04070200398564339   , -1.064986832886861e-43 , -0.0005381919327192008 , 0.19153612852096558  , 0.019153613597154617 , -9.174580574035645 ,        0.7486078143119812,        47.6707649230957  , -0.3711189925670624  , -3.3803329467773438, -1.6112151145935059, -0.5694735050201416    , 0.05424437299370766    , -0.2040790319442749 ,       24.0,    24.625 ,    23.8125,    25.5   ,    25.6875,    26.125
          1.0, 0.5769396226671342    , -0.19216772501129462  , -0.07726431442150768  , 0.02117282681348673   , -0.012040398001846909 , -0.04563639476572318 , -0.5388113024041746, -0.3244748704155562 , 0.25906221804251883, -3.0786518423871088   , 0.624723264485305     , -5.5489572314322795e-05, -0.0002836787508448198 , 6.381370939554949e-05  , -0.019578705194550267  , 0.00112074290167135     , -0.0034684682698993747  , 0.00028496691310102285  , 0.3265489637851715 , -1.1508741539767762, 1.663569752370016 , -2.0818873844542445, -1.571357552205221 , 2.3014962673187256, -0.00024261495855171233, 0.023456618189811707   , 0.020889921113848686   , -0.04070200398564339   , -1.064986832886861e-43 , -0.0005381919327192008 , 0.19153612852096558  , 0.019153613597154617 , -9.174580574035645 ,        0.7486078143119812,        47.6707649230957  , -0.3711189925670624  , -3.3803329467773438, -1.6112151145935059, -0.5694735050201416    , 0.05424437299370766    , -0.2040790319442749 ,       24.0,    24.625 ,    23.8125,    25.5   ,    25.6875,    26.125
          1.0, 0.5176559604893701    , -0.18645342931002148  , -0.21545791597889716  , 0.01916789764364183   , -0.015351850169899666 , -0.04319112798390206 , -0.5388170230380103, -0.324472986695552  , 0.25902934134166394, -3.0786215391358476   , 0.6247172486238389    , -2.7566672162585225e-05, -0.00039754590243072305, 0.00036922070578132116 , -0.02000412834266152   , 0.0013436101247651057   , -0.004124763173562118   , -0.000223525444698986   , 0.32654884457588196, -1.150826172237732 , 1.663593594227926 , -2.081958910027975 , -1.5713933149920862, 2.3014962673187256, -0.0007725720060989261 , 0.02388790249824524    , 0.021283432841300964   , -0.040833719074726105  , -7.006492321624085e-45 , -0.0005596032133325934 , 0.19153612852096558  , 0.038307227194309235 , -9.136273384094238 ,        0.6881819367408752,        47.694053649902344, -0.3838863968849182  , -3.3427023887634277, -1.5635926723480225, -0.5776780247688293    , 0.06928867101669312    , -0.19849008321762085,       24.0,    24.625 ,    23.8125,    25.5   ,    25.6875,    26.125
          1.0, 0.5891294280854951    , -0.21339040444891766  , -0.06334008844649035  , 0.015372698450664938  , -0.01262269722303239  , -0.04881181645357775 , -0.5388126757734701, -0.3244660852936015 , 0.25899537893465113, -3.078631924685871    , 0.6247389791891694    , -6.301554633474553e-05 , -0.0002750144647002241 , 0.0005811336481417872  , -0.020598228309310792  , 0.00176956680770843     , -0.0053758696621637675  , -0.0005221462190361211  , 0.3265366554260254 , -1.1508021217635651, 1.6636531988727015, -2.0820304356017054, -1.571369473134176 , 2.3014962673187256, -0.0010344799375161529 , 0.02424640767276287    , 0.022097861394286156   , -0.04068500176072121   , -0.0                   , -0.0005226900102570653 , 0.26815059781074524  , 0.038307227194309235 , -9.136273384094238 ,        0.7642692923545837,        47.6949462890625  , -0.3154531717300415  , -3.358304023742676 , -1.6122324466705322, -0.6133605241775513    , 0.060754477977752686   , -0.19960764050483704,       24.0,    24.625 ,    23.8125,    25.5   ,    25.6875,    26.125
          1.0, 0.5891294280854951    , -0.21339040444891766  , -0.06334008844649035  , 0.015372698450664938  , -0.01262269722303239  , -0.04881181645357775 , -0.5388126757734701, -0.3244660852936015 , 0.25899537893465113, -3.078631924685871    , 0.6247389791891694    , -6.301554633474553e-05 , -0.0002750144647002241 , 0.0005811336481417872  , -0.020598228309310792  , 0.00176956680770843     , -0.0053758696621637675  , -0.0005221462190361211  , 0.3265366554260254 , -1.1508021217635651, 1.6636531988727015, -2.0820304356017054, -1.571369473134176 , 2.3014962673187256, -0.0010344799375161529 , 0.02424640767276287    , 0.022097861394286156   , -0.04068500176072121   , -0.0                   , -0.0005226900102570653 , 0.26815059781074524  , 0.038307227194309235 , -9.136273384094238 ,        0.7642692923545837,        47.6949462890625  , -0.3154531717300415  , -3.358304023742676 , -1.6122324466705322, -0.6133605241775513    , 0.060754477977752686   , -0.19960764050483704,       24.0,    24.625 ,    23.8125,    25.5   ,    25.6875,    26.125
          1.0, -0.10213280883208956  , -0.5461662233664744   , -0.1579447962127303   , 0.018774662646753787  , -0.02762223082268333  , -0.042222139127477576, -0.5388216231072531, -0.32446267465246387, 0.25894617985121715, -3.0786132225177782   , 0.6247924477779608    , -0.00012131925015985256, -0.000496074032528159  , 0.00040315624824380247 , -0.02087207324625699   , 0.0012492118279110182   , -0.0038574350226579716  , -0.0004043705289022776  , 0.3265247941017151 , -1.1507299703410645, 1.663677994404928 , -2.0820914707579554, -1.571357552205221 , 2.3015201091766357, -0.0008763282676227391 , 0.02501729130744934    , 0.022206563502550125   , -0.043169692158699036  , -0.0                   , -0.00048319235793314874, 0.24899697303771973  , 0.09576806426048279  , -9.136273384094238 ,        0.7083203792572021,        47.71375274658203 , -0.3163626194000244  , -3.3231258392333984, -1.6759707927703857, -0.6181127429008484    , 0.05623308941721916    , -0.21070881187915802,       24.0,    24.625 ,    23.8125,    25.5   ,    25.6875,    26.125
          1.0, -0.10213280883208956  , -0.5461662233664744   , -0.1579447962127303   , 0.018774662646753787  , -0.02762223082268333  , -0.042222139127477576, -0.5388216231072531, -0.32446267465246387, 0.25894617985121715, -3.0786132225177782   , 0.6247924477779608    , -0.00012131925015985256, -0.000496074032528159  , 0.00040315624824380247 , -0.02087207324625699   , 0.0012492118279110182   , -0.0038574350226579716  , -0.0004043705289022776  , 0.3265247941017151 , -1.1507299703410645, 1.663677994404928 , -2.0820914707579554, -1.571357552205221 , 2.3015201091766357, -0.0008763282676227391 , 0.02501729130744934    , 0.022206563502550125   , -0.043169692158699036  , -0.0                   , -0.00048319235793314874, 0.24899697303771973  , 0.09576806426048279  , -9.136273384094238 ,        0.7083203792572021,        47.71375274658203 , -0.3163626194000244  , -3.3231258392333984, -1.6759707927703857, -0.6181127429008484    , 0.05623308941721916    , -0.21070881187915802,       24.0,    24.625 ,    23.8125,    25.5   ,    25.6875,    26.125
