Tylouw/Master_Thesis_Code/test_recorded_data/trial_zebin_dev08/insertion_2_2026-01-26_10-29-35.csv
num_insertion,tcp_force_x[N],tcp_force_y[N],tcp_force_z[N],tcp_force_rx[Nm?],tcp_force_ry[Nm?],tcp_force_rz[Nm?],tcp_pose_x[m],tcp_pose_y[m],tcp_pose_z[m],tcp_pose_rx[rot_vec_x],tcp_pose_ry[rot_vec_y],tcp_pose_rz[rot_vec_z],tcp_velo_x[m/s],tcp_velo_y[m/s],tcp_velo_z[m/s],tcp_velo_rx[rot_vec_x/s],tcp_velo_ry[rot_vec_y/s],tcp_velo_rz[rot_vec_z/s],q1[rad],q2[rad],q3[rad],q4[rad],q5[rad],q6[rad],qd1[rad/s],qd2[rad/s],qd3[rad/s],qd4[rad/s],qd5[rad/s],qd6[rad/s],tool_acc_x,tool_acc_y,tool_acc_z,current_of_whole_robot[A],voltage_of_whole_robot[V],current_J1[A],current_J2[A],current_J3[A],current_J4[A],current_J5[A],current_J6[A],temp_J1[C],temp_J2[C],temp_J3[C],temp_J4[C],temp_J5[C],temp_J6[C]
1.0,0.4575583940289276,1.2456654686912363,-0.9846973787576397,0.011639884957595579,-0.053249518908163845,-0.07479126128482817,-0.5379966431914587,-0.32447169989986313,0.059916968121143666,-3.0785306913926784,0.6249685389029758,-0.0002629848036357818,-0.00012188576540598997,-0.0015630390342406101,0.0005485003267546003,-0.0018492695855176586,0.005919765354928352,0.002581804760689235,0.32701706886291504,-1.1531971555999299,1.6645219961749476,-2.080367227593893,-1.571345631276266,2.302133083343506,0.002423998201265931,-0.001801644335500896,0.0029101769905537367,-0.007308033294975758,-0.00016137737839017063,-0.00016044832591433078,0.5937620401382446,-0.363918662071228,-9.327810287475586,0.7217512726783752,47.6734504699707,-0.21717733144760132,-4.550680160522461,-2.7363858222961426,-0.3734160363674164,-0.01984267681837082,-0.3365780711174011,24.9375,25.875,24.875,27.625,28.6875,29.25
1.0,0.5745523905703958,1.458422367653754,-1.016890285726539,0.01601473866376706,-0.05148649212727375,-0.07615861260488983,-0.5379686175726219,-0.32447000588306,0.05987885727655606,-3.0784853627824464,0.6249403052431366,-0.00032327245691367133,-0.0013912728152684559,-0.0016073762866232037,0.001570632753590073,-0.0023096282635553297,0.0072466771275713215,0.0019660892894199557,0.32704082131385803,-1.1531730455211182,1.6645801703082483,-2.080391069451803,-1.571369473134176,2.302145004272461,0.001821128185838461,-0.0013490004930645227,-0.00035020930226892233,-0.005904782097786665,-0.0001557896175654605,-0.00014729156100656837,0.24899697303771973,-0.2106897532939911,-9.251194953918457,0.8023208975791931,47.686885833740234,-0.16031816601753235,-4.5361785888671875,-2.6055679321289062,-0.37296462059020996,-0.016855061054229736,-0.3439673185348511,24.9375,25.875,24.875,27.625,28.6875,29.25
1.0,-0.30709449112205284,0.6434443329220901,-1.2836027975949027,-0.007330875834672216,-0.026801101567676726,-0.08046193836193871,-0.5379931505155263,-0.32448577576917575,0.05992945935805252,-3.0785599056706774,0.6249176532965932,-0.0002131738043762017,-0.0015180194805378244,-0.0012384242363468292,0.0018819099045765755,-0.0020111004499418594,0.006404208150800387,0.0013882591559131671,0.3270406126976013,-1.15322099745784,1.6645320097552698,-2.0803901157774867,-1.571345631276266,2.302121162414551,0.0011904927669093013,-0.0014314078725874424,-0.001396049396134913,-0.0038827841635793447,-0.0001653387153055519,-0.00019940166384913027,-0.09576806426048279,0.07661445438861847,-9.385271072387695,0.8560339212417603,47.69584274291992,-0.15561799705028534,-4.521296977996826,-2.4026145935058594,-0.3777722120285034,0.0010239691473543644,-0.34419935941696167,24.9375,25.875,24.875,27.625,28.6875,29.25
1.0,-1.8548675098589296,-1.086640761255984,-1.181505560628004,-0.055726859933833875,0.02753587212091143,-0.0730226065685756,-0.5379653709738548,-0.32448803617616034,0.05992581264111829,-3.078531562100958,0.6248543649238213,-0.0002842905227367173,-0.0007546137576974818,-0.0009134856265205402,0.001438293126164919,-0.0011874129994525267,0.004020471592720821,0.0012846476699574668,0.32706454396247864,-1.1532330375960846,1.6645434538470667,-2.080330034295553,-1.571357552205221,2.3021092414855957,0.0010958800558000803,-0.0013841063482686877,-0.000904866203200072,-0.0018992320401594043,-0.0001738376886351034,-0.0001895285095088184,-0.13407529890537262,0.19153612852096558,-9.385271072387695,0.7306999564170837,47.702110290527344,-0.1982528269290924,-4.1520891189575195,-2.2553551197052,-0.44933241605758667,-0.01020558550953865,-0.3659963607788086,24.9375,25.875,24.875,27.625,28.6875,29.25
1.0,-2.893902525891617,-2.3551339206655157,-1.1913287142823596,-0.10673197794250315,0.08766428477995529,-0.07077880319444507,-0.5379656800345365,-0.32448033289256006,0.0599203955015391,-3.078510964416023,0.6248885655172756,-0.0003202608138100678,0.0019081284670323252,-5.548252588746215e-05,-0.00049800899235994,0.0005277181866128072,-0.0010059693134148672,0.001379894820215084,0.327052503824234,-1.153221295481064,1.6645339171039026,-2.0803057156004847,-1.571357552205221,2.302121162414551,0.0011738789035007358,-0.002222821582108736,0.00447081821039319,-0.0011252094991505146,-0.00016929050616454333,-0.00020607512851711363,-0.4213795065879822,0.2106897532939911,-9.500192642211914,0.7799360156059265,47.65284729003906,-0.18665538728237152,-4.01844596862793,-2.266934871673584,-0.5016206502914429,-0.011987768113613129,-0.3704855442047119,24.9375,25.875,24.875,27.625,28.6875,29.25
1.0,-3.1763143340469577,-2.530333797023485,-0.5628058226911072,-0.13272213915186526,0.12056890829746542,-0.06995166261275673,-0.5379524386980915,-0.3245026932081049,0.05993307861186534,-3.078557630850964,0.6248978686458381,-0.0003035190770240994,0.00364596605132796,0.0004554845578031586,-0.002504266290868249,0.0019828634814393134,-0.005285243543974248,0.0015108795276243523,0.3270765244960785,-1.153256968860962,1.6645601431476038,-2.080329557458395,-1.5713217894183558,2.302145004272461,0.0012986588990315795,-0.0013300772989168763,0.0076782419346272945,-0.0007054618909023702,-0.00016420159954577684,-0.0002116694231517613,-0.26815056800842285,0.15322890877723694,-9.519346237182617,0.8090336918830872,47.66001510620117,-0.1459420770406723,-4.020456314086914,-2.669942617416382,-0.5391748547554016,-0.019225286319851875,-0.3714374899864197,24.9375,25.875,24.875,27.625,28.6875,29.25
1.0,-2.6392377040700365,-1.227056731592543,-0.35433017204500444,-0.10955932637729304,0.09665235685457386,-0.07908133657152605,-0.5379456179986684,-0.3244968765504371,0.05993491733330378,-3.078557176069593,0.6247828305002572,-0.0002548005967650625,0.0016623886318917456,-0.0002971360782431904,-0.0019390987421112043,0.0005076094115691552,-0.0009957115558736314,0.0017208752737744631,0.3270885944366455,-1.1532804828933259,1.6645944754229944,-2.080355306664938,-1.571357552205221,2.3020853996276855,0.0014107981696724892,0.00014025619020685554,0.005136399995535612,-0.004170098342001438,-0.00015935939154587686,-0.0003109387762378901,-0.17238251864910126,0.17238251864910126,-9.404424667358398,0.7888899445533752,47.686885833740234,-0.15515147149562836,-3.9679460525512695,-2.560117244720459,-0.5547640323638916,-0.013734735548496246,-0.37847769260406494,24.9375,25.875,24.875,27.625,28.6875,29.25
1.0,-1.161795797770292,0.20065063036865405,-0.5122338819591244,-0.04658359354064932,0.051907947639987795,-0.07608696912883325,-0.5379717146296751,-0.3245017806869645,0.059935982309225616,-3.07857013307984,0.6248995393272065,-0.00019569047141303162,-0.0015044918204014598,-0.0014824652196204398,-0.0003924781862642444,-0.002507954487686169,0.007805347213373643,0.0029193122742770944,0.32707658410072327,-1.1532562536052247,1.6645696798907679,-2.080405374566549,-1.571345631276266,2.3021445274353027,0.001566983642987907,0.0006914255209267139,0.0024954346008598804,-0.011383801698684692,-0.0001547909778309986,-0.0013562635285779834,-0.3447650372982025,0.2106897532939911,-9.155426979064941,0.7933669090270996,47.658226013183594,-0.18077684938907623,-3.997103214263916,-2.270185947418213,-0.5059198141098022,-0.020776866003870964,-0.3782328963279724,24.9375,25.875,24.875,27.625,28.6875,29.25
1.0,-0.6578642197088834,0.9096969313797746,-0.6443007959801489,-0.00804425713236782,0.0011553229804192365,-0.07030145825820452,-0.5379873109235057,-0.32450335283410264,0.05995183765529288,-3.078604340045911,0.6248674817195198,-8.566798284319984e-05,-0.003104224151317225,-0.0019933590947869926,0.0004221573120726838,-0.004314050384365095,0.01307563731948481,0.004481807297779415,0.32707661390304565,-1.153280333881714,1.6645811239825647,-2.0804668865599574,-1.571357552205221,2.3021202087402344,0.0015097094001248479,0.00039838350494392216,0.002177703194320202,-0.016344474628567696,-0.0001504770916653797,-0.0029781125485897064,-0.38307225704193115,0.19153612852096558,-9.059659004211426,0.7172743082046509,47.705692291259766,-0.2343195527791977,-3.8995001316070557,-2.1530487537384033,-0.46117135882377625,-0.009477270767092705,-0.3689363896846771,24.9375,25.875,24.875,27.625,28.6875,29.25
1.0,-0.3236851698264761,0.860003428925162,-0.4173922691024757,-0.022056837828940638,-0.004016885008860042,-0.0826809521947445,-0.537973741956283,-0.3245066466460703,0.059942077225002416,-3.0785927288203427,0.6247886448463222,-8.415481208202716e-05,-0.0034709759991803173,-0.0019200142764604162,0.0005535660469348858,-0.004652078862723247,0.014050947236233163,0.004244972281398118,0.3271004557609558,-1.153280333881714,1.6646059195147913,-2.0804788074889125,-1.5713813940631312,2.302096366882324,0.001201418461278081,0.000310157221974805,0.002226712880656123,-0.017337562516331673,-0.00014639741857536137,-0.0030499796848744154,-0.26815059781074524,0.1149216815829277,-8.983044624328613,0.7195101380348206,47.64031219482422,-0.19756199419498444,-3.811363458633423,-2.140718698501587,-0.4446781873703003,-0.017663124948740005,-0.3578830063343048,24.9375,25.875,24.875,27.625,28.6875,29.25
1.0,-0.6834741680585292,0.1045613209581708,-0.13262139781993013,-0.041600353785722355,0.011647993898370703,-0.0770930324634004,-0.538003507877407,-0.3245165667917173,0.05995871766836941,-3.0786431816883395,0.6248564573087987,1.0553090148533775e-05,-0.002565543524326435,-0.0014699403045043348,-0.00039938339611242407,-0.003889201578116806,0.011807458669600143,0.0035394300081184097,0.32708844542503357,-1.1532802742770691,1.664581600819723,-2.080538412133688,-1.571357552205221,2.3021202087402344,0.0009826564928516746,0.00047599291428923607,0.0040741427801549435,-0.01698104292154312,-0.00014253307017497718,-0.002562867011874914,-0.19153612852096558,-0.019153613597154617,-8.791508674621582,0.7553206086158752,47.704795837402344,-0.2314695119857788,-3.7160706520080566,-2.134892702102661,-0.4552147090435028,-0.01773933507502079,-0.34593522548675537,24.9375,25.875,24.875,27.625,28.6875,29.25
1.0,-0.9964897133935013,-0.08011540995199756,-0.15396324428643632,-0.06466775800158517,0.03237099863980031,-0.07883694736849724,-0.5379944560633384,-0.32449011444433196,0.059909700312643255,-3.0785803213892744,0.6249208949570987,-0.0001207691164312592,-0.0022184351491466164,-0.001247841691831889,-0.0009356575939451411,-0.0034577576956177007,0.010593989582582602,0.00301766060105395,0.32705241441726685,-1.1532201927951355,1.6646063963519495,-2.0805264912047328,-1.571357552205221,2.3021323680877686,0.000831151963211596,0.000875526515301317,0.0046654799953103065,-0.016684046015143394,-0.0001589635940035805,-0.0021923226304352283,-0.05746083706617355,-0.17238251864910126,-8.848969459533691,0.8000850081443787,47.66718673706055,-0.19642889499664307,-3.6265666484832764,-2.1499829292297363,-0.48247966170310974,-0.02740178257226944,-0.3676503300666809,24.9375,25.875,24.875,27.625,28.6875,29.25
1.0,-1.3380152029398433,0.020309453935262012,-0.050921168081803615,-0.04127881826460386,0.017560466907449654,-0.07572506054998544,-0.5379972820858473,-0.3245145775759547,0.059949771719279066,-3.0786186461022975,0.6248710623441277,2.7945038245691022e-05,-0.002531854617507591,-0.0012841282151881644,-0.0017830531701302154,-0.003235448237708288,0.009925144968496443,0.0025397304779363307,0.3271002769470215,-1.1532795888236542,1.6646063963519495,-2.080562730828756,-1.5713813940631312,2.3021442890167236,0.0007201770204119384,0.002814078703522682,0.004024357069283724,-0.01727665401995182,-0.00015775066276546568,-0.0018253744347020984,0.19153612852096558,-0.17238251864910126,-8.829815864562988,0.7956027388572693,47.67524337768555,-0.18050260841846466,-3.663416862487793,-2.0743863582611084,-0.4807634651660919,-0.030580084770917892,-0.37381047010421753,24.9375,25.875,24.875,27.625,28.6875,29.25
1.0,0.08094136530434753,1.335567265996499,-0.13055084772660427,0.010734005972745857,-0.021398824590392745,-0.07985551855870915,-0.5380171908107438,-0.32451337725516405,0.05991357133460681,-3.0786518381170778,0.6248777681984462,4.419945934475094e-05,-0.003988816105364964,-0.0016859939811977765,-0.001319287428580225,-0.004672654717660507,0.014104160283491742,0.0029816531190209033,0.3270762860774994,-1.1532193583301087,1.6646292845355433,-2.0806719265379847,-1.571357552205221,2.3021202087402344,0.0005684418720193207,0.0031284228898584843,0.0034839545842260122,-0.021469896659255028,-0.0001504068059148267,-0.002420730423182249,0.19153612852096558,-0.1149216815829277,-8.925583839416504,0.7418897151947021,47.671661376953125,-0.1988213062286377,-3.6741833686828613,-1.8874843120574951,-0.43969351053237915,-0.024780258536338806,-0.3757159113883972,24.9375,25.875,24.875,27.625,28.6875,29.25
1.0,0.6280896538989542,1.5285072382190963,-0.28421135872438796,0.002562528241398578,-0.028776314511033137,-0.0770496530692534,-0.538076808121286,-0.32451438654542253,0.05995799464435658,-3.0787157453026235,0.624871580321415,0.00024611624499233415,-0.0029670665111456718,-0.0012428973658906953,-0.002014487269314907,-0.003994390030536592,0.012162687609248692,0.0036167057039216115,0.3270522654056549,-1.15323160708461,1.6645591894732874,-2.08073153118276,-1.571369473134176,2.30208420753479,0.0004298334242776036,0.0026386957615613937,0.005654894281178713,-0.021094761788845062,-0.00016246030281763524,-0.0031941095367074013,0.19153612852096558,-0.17238251864910126,-8.848969459533691,0.7575564384460449,47.69673538208008,-0.20158764719963074,-3.514084815979004,-1.901824712753296,-0.42318612337112427,-0.02839772403240204,-0.3678904175758362,24.9375,25.875,24.875,27.625,28.6875,29.25
1.0,-0.05948916286037319,0.4394305402450669,-0.4888895652944506,-0.01039234004885633,-0.04446861013723963,-0.07487179589550691,-0.5380665492433688,-0.3244953444020939,0.059924125745421886,-3.0786800386984075,0.6248637289771883,0.00014775230749257897,-0.001578298908709334,-0.0007431331018955001,-0.0033758968951421568,-0.002621709654205244,0.008146166545133072,0.004010444876441796,0.3270283043384552,-1.1531953376582642,1.6645825544940394,-2.0807186565794886,-1.571369473134176,2.3020598888397217,0.00039130300865508616,0.0032905079424381256,0.007417773362249136,-0.019264917820692062,-0.00016370600496884435,-0.003625357523560524,0.2298433631658554,0.019153613597154617,-8.983044624328613,0.7620334029197693,47.73255920410156,-0.20141509175300598,-3.4984383583068848,-2.0048327445983887,-0.41635262966156006,-0.030865324661135674,-0.36042988300323486,24.9375,25.875,24.875,27.625,28.6875,29.25
1.0,-0.11009371956709532,-0.5376803470277345,-0.714949419775303,-0.035106746867692655,-0.026611730208243846,-0.06880443160506985,-0.538034555447302,-0.32450371867354416,0.059891593440720814,-3.078650231732041,0.6249347490671224,7.010043187099265e-05,-0.0005918692694002035,-0.0003867508830182452,-0.004818215780589313,-0.0013565223485351697,0.0044286831727229975,0.0036578072653852584,0.3270522356033325,-1.1531827312758942,1.6646440664874476,-2.080742498437399,-1.571357552205221,2.3021318912506104,0.0003599723568186164,0.004759450443089008,0.008282236754894257,-0.01767134852707386,-0.00016216743097174913,-0.003303088713437319,0.09576806426048279,-0.019153613597154617,-8.983044624328613,0.7530794739723206,47.6680793762207,-0.15796422958374023,-3.471963405609131,-1.9758951663970947,-0.4429062008857727,-0.01916387677192688,-0.34573251008987427,24.9375,25.875,24.875,27.625,28.6875,29.25
1.0,-0.4857876790386402,-0.6844601618131789,-0.7603469762737226,-0.05385037455398898,-0.013937952091386676,-0.07392953807058728,-0.5380257539561407,-0.32448164692900594,0.059876021516119315,-3.078628638089642,0.6247961926172154,5.0536503795572424e-05,-0.0001489303332723183,-0.00016896341686903184,-0.006040640736100524,-0.0003428151138125558,0.0015190961539410708,0.0030750091448733283,0.32704028487205505,-1.1531821352294465,1.6646783987628382,-2.0807420216002406,-1.5713933149920862,2.3020362854003906,0.00026760806213133037,0.006685012485831976,0.00806400179862976,-0.016297597438097,-0.0001846718369051814,-0.0028117799665778875,0.2298433631658554,0.05746084079146385,-9.117119789123535,0.7597975730895996,47.71464920043945,-0.2410828173160553,-3.6166138648986816,-1.931868076324463,-0.46334218978881836,-0.016584672033786774,-0.3644579350948334,24.9375,25.875,24.875,27.625,28.6875,29.25
1.0,-0.5005717689545681,-0.5327047048300164,-0.7995444637060308,-0.05843352016733187,0.00014626142659045563,-0.07276616644728581,-0.5380023327925723,-0.3244695884563156,0.059842825628670326,-3.078597212063927,0.6248473857022346,-4.1947207652518177e-05,0.00013056812459180718,-1.9320684657597355e-05,-0.006626362039237231,3.836809234112518e-05,0.0004613565671108095,0.0027755275784455465,0.32702821493148804,-1.153170035486557,1.6647394339190882,-2.0807539425291957,-1.5713813940631312,2.302060127258301,0.0001936449989443645,0.007262455765157938,0.00858144462108612,-0.016268206760287285,-0.000204762167413719,-0.0025860636960715055,0.3447650372982025,0.07661445438861847,-9.174580574035645,0.7978386282920837,47.671661376953125,-0.18982301652431488,-3.5618040561676025,-1.9671640396118164,-0.4627038836479187,-0.006338839884847403,-0.3667798936367035,24.9375,25.875,24.875,27.625,28.6875,29.25
1.0,-0.5056747134079354,-0.2866601647740127,-0.7297580325539093,-0.06148318679291258,0.003485152278285046,-0.08396640898075063,-0.5380066630544712,-0.324498207517814,0.059838590591169305,-3.0786367197080695,0.6247977652235303,-1.7812196314375433e-06,0.0007156406471082812,0.00019346013100471224,-0.00706783294196606,0.00033666844238084385,-0.00040707322161378606,0.0028783225144562575,0.3270642161369324,-1.1531461340240021,1.6647265593158167,-2.080801626245016,-1.571369473134176,2.302060127258301,0.00017427446437068284,0.006946034729480743,0.010080451145768166,-0.016532542183995247,-0.00020544927974697202,-0.0027082443702965975,0.26815059781074524,0.17238251864910126,-9.232041358947754,0.7418897151947021,47.690467834472656,-0.1912374496459961,-3.4933934211730957,-1.956695795059204,-0.4894762635231018,-0.02246870845556259,-0.3617008328437805,24.9375,25.875,24.875,27.625,28.6875,29.25
1.0,-0.013010589703086411,-0.24670610401140083,-0.9366552014902843,-0.06670580717796258,0.017673048022341657,-0.08352214050535454,-0.5379946213876876,-0.3244747751119623,0.05979692079844531,-3.078575774277771,0.6247856310981201,-5.612771773180953e-05,0.0010649885717634122,0.0004916725707996664,-0.008345296541580777,0.0008408004983695723,-0.001828724497425785,0.0026394187959744284,0.3270520865917206,-1.1531096261790772,1.6647756735431116,-2.0808259449400843,-1.5714057127581995,2.3020482063293457,-9.210535063175485e-05,0.008228874765336514,0.011448479257524014,-0.017675191164016724,-0.0002259987813886255,-0.0027357935905456543,0.13407529890537262,0.2298433631658554,-9.27034854888916,0.7597975730895996,47.704795837402344,-0.20206740498542786,-3.4804868698120117,-2.0740432739257812,-0.4731868505477905,-0.01986709237098694,-0.36529964208602905,24.9375,25.875,24.875,27.625,28.6875,29.25
1.0,-0.2892341903513539,-0.7223322047344847,-0.9026228347681702,-0.06479779937783531,0.0026873017166245405,-0.08408074996136614,-0.538013013142461,-0.32447725074583933,0.059795132857259126,-3.0786025002685227,0.6248289581543363,-1.380857284794558e-06,0.0009126484694924558,0.0004544322501742794,-0.009021711387115145,0.0008386946201624057,-0.0018467511361231902,0.0030659589952865855,0.3270401656627655,-1.153097228412964,1.6647761503802698,-2.080886503259176,-1.5713933149920862,2.3020598888397217,-0.00011811291187768802,0.009334427304565907,0.01175945345312357,-0.01907540112733841,-0.00022083119256421924,-0.0031887146178632975,0.09576806426048279,0.3064578175544739,-9.308655738830566,0.7754590511322021,47.674346923828125,-0.2052154839038849,-3.5683481693267822,-1.9931387901306152,-0.48593878746032715,-0.011234018951654434,-0.3566996157169342,24.9375,25.875,24.875,27.625,28.6875,29.25
1.0,-0.2758952663194567,-0.7541020180853357,-0.9003104799848224,-0.08436960607290152,0.002618650653277762,-0.08077052773315331,-0.5379967639904818,-0.3244522286285873,0.059773179628024475,-3.0785669677619945,0.6248601199160776,-3.9580915040521514e-05,0.001261022414407956,0.0005667289688783252,-0.009752869454633826,0.0010410796747590823,-0.002463162442317806,0.0035003447333804088,0.3270162045955658,-1.1531089705279847,1.6648476759540003,-2.0809108219542445,-1.5714057127581995,2.3020598888397217,-0.00011124386946903542,0.009754789993166924,0.013077535666525364,-0.020165247842669487,-0.0002143706806236878,-0.0036164734046906233,0.09576806426048279,0.3064578175544739,-9.308655738830566,0.7239871025085449,47.69136428833008,-0.15541425347328186,-3.510742664337158,-1.9657095670700073,-0.4763975739479065,-0.016487445682287216,-0.3454819619655609,24.9375,25.875,24.875,27.625,28.6875,29.25
1.0,-0.6920173506438891,-1.2315346842006247,-0.9267984029090208,-0.07836577825339823,-0.0030116295587509084,-0.07570934745036646,-0.5379991302489515,-0.32448780109200415,0.05975442862618369,-3.0786235318988755,0.6247377641772266,-6.924593111035152e-05,0.0012028372058542252,0.0005403522486827269,-0.010388811890554139,0.0011744714547012628,-0.002880291391398451,0.0035233790410132554,0.3270520865917206,-1.1530488294414063,1.664811913167135,-2.0809346638121546,-1.571369473134176,2.3020122051239014,-0.00010477303294464946,0.010843494907021523,0.013172322884202003,-0.020910758525133133,-0.00020817962649744004,-0.003633163869380951,0.1149216815829277,0.325611412525177,-9.289502143859863,0.7665104269981384,47.68867492675781,-0.21064867079257965,-3.459746837615967,-2.0028622150421143,-0.47351109981536865,-0.017136573791503906,-0.3449932038784027,24.9375,25.875,24.875,27.625,28.6875,29.25
1.0,-0.35716662757298046,-0.8096110340833416,-0.964455583231829,-0.08019958083829733,0.01483898120334775,-0.08747868462261293,-0.5379923399301346,-0.32446239155028,0.05973807138103793,-3.078578271528249,0.6248242539304742,-6.79184007915545e-05,0.001187359098578474,0.0005791265585893136,-0.011285939215641614,0.0014928340258981688,-0.0033494177870198286,0.0032915838735686326,0.3270281255245209,-1.1530601245215912,1.664872948323385,-2.0809713802733363,-1.5713933149920862,2.3020479679107666,-9.900939039653167e-05,0.01216291356831789,0.013653588481247425,-0.02216438762843609,-0.00036099235876463354,-0.0033955974504351616,0.13407529890537262,0.2298433631658554,-9.346963882446289,0.7217512726783752,47.67613983154297,-0.22893261909484863,-3.5332865715026855,-2.0111770629882812,-0.46991539001464844,-0.018163003027439117,-0.35057538747787476,24.9375,25.875,24.875,27.625,28.6875,29.25
1.0,-0.619161434811298,-0.536960527093016,-0.9233265094773259,-0.07083422307108324,0.013601302841932533,-0.08412452346189703,-0.5379864403547197,-0.32449130215802935,0.05969621435427136,-3.0786079555927457,0.6247539396417378,-0.00010204345091020681,0.0006531076366919068,0.00042747635944086383,-0.010953881331713895,0.0010079867229141582,-0.00159551364960111,0.0026132009824551385,0.3270641267299652,-1.1529884797385712,1.664884392415182,-2.081043382684225,-1.571369473134176,2.3020362854003906,-9.384658187627792e-05,0.012013587169349194,0.013436435721814632,-0.02361399307847023,-0.00046908276272006333,-0.0027124977204948664,0.17238251864910126,0.26815059781074524,-9.327810287475586,0.7396538853645325,47.68240737915039,-0.22935426235198975,-3.4621741771698,-2.0321428775787354,-0.45643705129623413,-0.015371501445770264,-0.3468131422996521,24.9375,25.875,24.875,27.625,28.6875,29.25
1.0,-0.2653483649769062,-0.3508280592151256,-0.9965294751095857,-0.058016232767846135,0.02543433949802564,-0.08070862903081645,-0.5379750940744269,-0.32447584080641945,0.0596804611278485,-3.078584479992441,0.6247879454204928,-0.00010850229454956276,0.0005927972794603524,0.00039230075494291357,-0.011474649011414552,0.0009147747411591047,-0.00143819379922765,0.0023039923608704866,0.3270520865917206,-1.15300007284198,1.6649444738971155,-2.0810800991454066,-1.5713813940631312,2.302048444747925,-8.919576794141904e-05,0.012670014053583145,0.014025488868355751,-0.025038516148924828,-0.00043345190351828933,-0.0023990997578948736,0.13407529890537262,0.24899697303771973,-9.308655738830566,0.7508436441421509,47.654640197753906,-0.2250538468360901,-3.5456790924072266,-1.992928147315979,-0.45220619440078735,-0.003432059660553932,-0.34440651535987854,24.9375,25.875,24.875,27.625,28.6875,29.25
1.0,-0.1893169874545316,-0.018771864322920946,-0.7149476094709225,-0.055689675290371415,0.01996771434754295,-0.08161265674196239,-0.5379528237270155,-0.3244795555356376,0.05963974818937462,-3.078596552361115,0.6247331603656379,-0.00021745681206693807,9.47981524738763e-05,0.0002073860499388962,-0.011419539812442368,0.00042295226492129534,-0.0001185103332661869,0.0021845273356788644,0.3270520865917206,-1.152964101438858,1.6649921576129358,-2.081104417840475,-1.571345631276266,2.3020126819610596,-8.498418173985556e-05,0.012997431680560112,0.013782867230474949,-0.02653108537197113,-0.0003959042951464653,-0.0022760331630706787,0.15322890877723694,0.17238251864910126,-9.289502143859863,0.7172743082046509,47.6895751953125,-0.2244516909122467,-3.479084014892578,-1.9748973846435547,-0.4425610303878784,-0.015446252189576626,-0.3414662778377533,24.9375,25.875,24.875,27.625,28.6875,29.25
1.0,-0.6121303441541833,-0.1541833571021768,-0.6823425338938844,-0.05509816068513293,0.007103393223027818,-0.08699243240358606,-0.5379759654134005,-0.32448775033780575,0.05962391399494185,-3.0786155860908075,0.6247177408280336,-0.00010181520843332861,-0.00013103295726560557,0.00010633110552244447,-0.01204125132567314,0.00021046037819738174,0.0003126723018898452,0.00224434612765649,0.3270641267299652,-1.1529277128032227,1.6650045553790491,-2.081224580804342,-1.571369473134176,2.3020126819610596,-7.76513697928749e-05,0.013988789170980453,0.014249625615775585,-0.028466077521443367,-0.0003366532037034631,-0.0023292177356779575,0.07661445438861847,0.1149216815829277,-9.117119789123535,0.7172743082046509,47.657325744628906,-0.23688390851020813,-3.5148940086364746,-1.9896639585494995,-0.4308311343193054,-0.012123506516218185,-0.35261961817741394,24.9375,25.875,24.875,27.625,28.6875,29.25
1.0,-0.8826693401646076,-0.5793029044334621,-0.799710796702904,-0.0423474695351176,-0.002954218582822101,-0.08263649490211404,-0.5379725550741081,-0.3244828285785788,0.05959460115962281,-3.0786086395090564,0.6246391221829796,-0.0001252556281485727,0.0001793134250641035,0.00020258651395952597,-0.012803127733116667,0.0005475317321982601,-0.0007518751665367203,0.0022410765236736616,0.3270641267299652,-1.1528915625861664,1.6650288740741175,-2.0812608204283656,-1.5713813940631312,2.301964521408081,-7.443978392984718e-05,0.014763995073735714,0.014987407252192497,-0.02886277437210083,-0.00031320462585426867,-0.002322731539607048,0.09576806426048279,0.09576806426048279,-9.232041358947754,0.7553206086158752,47.690467834472656,-0.20796382427215576,-3.542133092880249,-1.9430171251296997,-0.43594861030578613,-0.0004975837655365467,-0.34804767370224,24.9375,25.875,24.875,27.625,28.6875,29.25
1.0,-0.3537075275235723,-0.3249353446908569,-0.7521385107055248,-0.04214066064679861,0.014546851312842505,-0.08164047125820569,-0.5379852203567083,-0.3245021289096278,0.059582664771740235,-3.078658867503478,0.6247651099377256,-0.00015006918095908107,6.635556610314179e-05,0.00015566750167140612,-0.012659409187836127,0.0003716186312275181,-0.00029908842819455195,0.002224986473158674,0.3270520865917206,-1.152855471973755,1.6650164763080042,-2.081308504144186,-1.5713093916522425,2.3020246028900146,-7.148336590034887e-05,0.01460715476423502,0.014944048598408699,-0.029147785156965256,-0.00029281110619194806,-0.0023038708604872227,0.1149216815829277,0.05746084079146385,-9.327810287475586,0.7306999564170837,47.702110290527344,-0.2744549512863159,-3.5640149116516113,-1.9622056484222412,-0.4439091384410858,-0.008772714994847775,-0.3394542634487152,24.9375,25.875,24.875,27.625,28.6875,29.25
1.0,-0.1264107929469837,0.2972309451875563,-0.7275029857522517,-0.04858002469206271,0.01845105501739342,-0.08185757965086303,-0.5379614212301675,-0.3244828279444703,0.05951893137054068,-3.0785894374817713,0.6246933810646785,-0.00018450660248036846,0.0003814375196601988,0.0002555922685437635,-0.013441204515747183,0.0007372845375537981,-0.0014305731106183113,0.0020480629004515994,0.3270641267299652,-1.152807281618454,1.6651127974139612,-2.0813924274840296,-1.571369473134176,2.3020007610321045,-6.875275721540675e-05,0.015432603657245636,0.015644758939743042,-0.02948513627052307,-0.0002749137347564101,-0.002124166116118431,0.13407529890537262,0.038307227194309235,-9.308656692504883,0.7486078143119812,47.67255783081055,-0.2354109138250351,-3.53373122215271,-1.9755980968475342,-0.43332403898239136,-0.013455519452691078,-0.3356388211250305,24.9375,25.875,24.875,27.625,28.6875,29.25
1.0,-0.5672929601734219,0.26083778209184516,-0.6958470076312614,-0.03813844006482907,0.008386197166247448,-0.08351136607096411,-0.5379813660909136,-0.32448183143953346,0.05952803288962702,-3.0786134942635512,0.6246984854153764,-0.00011854481066083555,0.00023533233731268802,0.00019905157581941347,-0.013262603367537172,0.0005884521665141939,-0.0010431127428265853,0.001961540022347212,0.3270520865917206,-1.1528073114207764,1.665100399647848,-2.081428667108053,-1.571369473134176,2.3019888401031494,-6.622321961913258e-05,0.015340554527938366,0.01538133155554533,-0.029544442892074585,-0.00025907825329340994,-0.0020352178253233433,0.1149216815829277,0.019153613597154617,-9.251194953918457,0.7329410910606384,47.693153381347656,-0.22399833798408508,-3.4801979064941406,-1.9632368087768555,-0.4454808235168457,-0.010850107297301292,-0.3421245217323303,24.9375,25.875,24.875,27.625,28.6875,29.25
1.0,-0.05433066003247275,0.6503399921547327,-0.7006388186051249,-0.049539197940034724,0.020351781778307237,-0.09413279507000323,-0.5379723630088601,-0.3244749963375241,0.05949345617155846,-3.078589581311915,0.6247318426089465,-0.0001267650161205781,0.0006948290925772128,0.000349581367219739,-0.014473801574408763,0.0011615418266303903,-0.0027731009468347635,0.0017423770956072166,0.3270520865917206,-1.1527828437140961,1.6651609579669397,-2.0815006695189417,-1.5713813940631312,2.3020126819610596,-6.387321627698839e-05,0.01666426472365856,0.01640358939766884,-0.03006805293262005,-0.0002449689491186291,-0.0018136241706088185,0.07661445438861847,0.019153613597154617,-9.174580574035645,0.7172743082046509,47.67703628540039,-0.24726957082748413,-3.570405960083008,-1.9850714206695557,-0.4532671570777893,-0.009299049153923988,-0.3435443639755249,24.9375,25.875,24.875,27.625,28.6875,29.25
1.0,-0.9256432273001133,-0.12512562403265384,-0.85514908426533,-0.033648642777344834,0.00010594478014046803,-0.06990581560162068,-0.5379426065465939,-0.324480203564138,0.05943379438786228,-3.0785795244666017,0.6246727248590462,-0.0002593218366346104,0.00037521353229375416,0.0002349832844763639,-0.014209355624965201,0.0008175762489560382,-0.0018054581583014325,0.0015768106232021974,0.3270641267299652,-1.1527229708484192,1.6652210394488733,-2.081536909142965,-1.571357552205221,2.3019890785217285,-6.168422260088846e-05,0.01654670014977455,0.016107263043522835,-0.03068099170923233,-0.00023231699015013874,-0.0016461670165881515,0.019153613597154617,0.038307227194309235,-9.193734169006348,0.7933669090270996,47.70390319824219,-0.26083844900131226,-3.5093204975128174,-1.9294650554656982,-0.45717576146125793,-0.004496618639677763,-0.34841278195381165,24.9375,25.875,24.875,27.625,28.6875,29.25
1.0,-0.48630074091796516,0.0691530559792469,-0.6683948351104588,-0.04036498469246019,0.011887197918393093,-0.07606140601838196,-0.537984362239739,-0.324459811785405,0.05943227329594947,-3.0785693696747454,0.6247474353772746,-0.00013519031408047006,0.0007893585822777633,0.0003712602122428566,-0.015024724424755562,0.0012402498673971835,-0.003082584159695851,0.001458688573138997,0.3270281255245209,-1.1526987117579957,1.6652095953570765,-2.0816203556456507,-1.5713933149920862,2.3020009994506836,-5.9640420658979565e-05,0.017268581315875053,0.017014510929584503,-0.030964989215135574,-0.00022090901620686054,-0.0015259464271366596,0.019153613597154617,-0.09576806426048279,-9.232041358947754,0.7642692923545837,47.657325744628906,-0.28870171308517456,-3.549947738647461,-1.9684818983078003,-0.4695991575717926,-0.009522441774606705,-0.3527604341506958,24.9375,25.875,24.875,27.625,28.6875,29.25
1.0,-0.6865218747519395,0.08330272933496452,-0.8454893852204964,-0.043021931863659664,0.009769349936935491,-0.07788490784891836,-0.5379513469205506,-0.32449471592369933,0.05939744639932118,-3.0786169898297593,0.6246613301261449,-0.0002043497030923293,0.0006269237559458888,0.0003047595990923829,-0.014934783644441106,0.0010717952705118776,-0.0026853323786578385,0.0014458458858277404,0.3270760476589203,-1.152674750690796,1.6652687231646937,-2.0816804371275843,-1.571345631276266,2.3019890785217285,-5.7727578678168356e-05,0.017312685027718544,0.016811616718769073,-0.031236544251441956,-0.00018999489839188755,-0.0015113619156181812,0.038307227194309235,-0.07661445438861847,-9.232041358947754,0.7642692923545837,47.68598937988281,-0.257805198431015,-3.536684989929199,-1.9681177139282227,-0.4902991056442261,-0.01881284825503826,-0.3578534722328186,24.9375,25.875,24.875,27.625,28.6875,29.25
1.0,-0.6334234806838932,-0.1000636384833441,-0.9104157122814831,-0.04046464547293318,0.013467474005585409,-0.0749603593270651,-0.5379557315357728,-0.3244654102120718,0.059359158313523286,-3.07856142913963,0.6247074953326447,-0.0002520575215904644,0.0008283920131072137,0.00036351965858982783,-0.015336232275212544,0.001249178333062652,-0.0032930775997630584,0.001478893357000315,0.3270401656627655,-1.1526265901378174,1.6652939955340784,-2.0817047558226527,-1.571369473134176,2.3019890785217285,-5.593385503743775e-05,0.017665976658463478,0.017271051183342934,-0.03141690418124199,-0.00016232917550951242,-0.0015426272293552756,0.05746084079146385,-0.019153613597154617,-9.289502143859863,0.7217512726783752,47.6707649230957,-0.31326937675476074,-3.566878318786621,-1.93436861038208,-0.5189961194992065,-0.015363032929599285,-0.34846949577331543,24.9375,25.875,24.875,27.625,28.6875,29.25
1.0,-0.5200833561771998,-0.23785686240049483,-0.7004022057028638,-0.034151338715292315,0.020348203849497523,-0.08542401312793317,-0.537951434174496,-0.3244639557071233,0.05933007443880059,-3.078549697994692,0.6247047395053706,-0.0002846471575210949,0.0014260623626471249,0.0005376851964705032,-0.01651162040863028,0.0017493504314218238,-0.005043560778883049,0.0017043570222363366,0.3270401656627655,-1.152590201502182,1.6653173605548304,-2.081740518609518,-1.571369473134176,2.3019888401031494,-5.4248124797595665e-05,0.018661262467503548,0.018683666363358498,-0.032006800174713135,-7.200866093626246e-05,-0.0017665009945631027,0.09576806426048279,-0.019153613597154617,-9.251194953918457,0.6948947906494141,47.70390319824219,-0.29661351442337036,-3.5478897094726562,-1.9609192609786987,-0.5206887722015381,-0.0055891238152980804,-0.3420911431312561,24.9375,25.875,24.875,27.625,28.6875,29.25
1.0,-0.7199758472937214,0.17166779474458896,-0.7032477006404934,-0.04285448688596721,0.018107325387852403,-0.08697514456809136,-0.537972580075947,-0.3244826969259046,0.05932218351972285,-3.078609149221033,0.6246783212479791,-0.00017969819276197397,0.000999926828146708,0.00038625657470389214,-0.0160908381542421,0.0012586697409998169,-0.003653368670633273,0.001686252923454066,0.3270520865917206,-1.1525664192489167,1.6653292814837855,-2.081860681573385,-1.571357552205221,2.3019766807556152,-5.266098378342576e-05,0.01836741343140602,0.01832403987646103,-0.03282749652862549,-5.6508939451305196e-05,-0.0017472553299739957,0.05746084079146385,0.0,-9.27034854888916,0.6859408020973206,47.705692291259766,-0.33078905940055847,-3.4685919284820557,-1.9133398532867432,-0.538421094417572,-0.02390040084719658,-0.34978964924812317,24.9375,25.875,24.875,27.625,28.6875,29.25
1.0,-0.38864890371233873,0.3012955475103392,-0.7000793186963952,-0.04834249920620186,0.023171562288956768,-0.08811026197250438,-0.537924366288813,-0.3244586973505859,0.05925343465815677,-3.078519643995189,0.6246799306315076,-0.0003403246279801915,0.001261570038015422,0.0004732070766283329,-0.01669472112293066,0.0014884037821864362,-0.004342326659121188,0.0015154399263671127,0.3270520865917206,-1.1525302988341828,1.6654375235186976,-2.08187260250234,-1.5713813940631312,2.3019890785217285,-5.116401371196844e-05,0.018869327381253242,0.019127117469906807,-0.033406272530555725,-5.2490933740045875e-05,-0.0015750196762382984,0.0,0.1149216815829277,-9.27034854888916,0.7530794739723206,47.711063385009766,-0.3032580316066742,-3.4949612617492676,-1.9982788562774658,-0.5528823733329773,-0.012091763317584991,-0.34092891216278076,24.9375,25.875,24.875,27.625,28.6875,29.25
1.0,-0.8814594257469439,0.0014545537396636332,-0.6659072116464226,-0.04706300328360695,0.008039649132024592,-0.08479286825879509,-0.537934141215469,-0.3244891920189853,0.05922297239468141,-3.0785684460989216,0.6245542599506583,-0.00031666237568816,0.0014997787998416283,0.0005524696290953107,-0.017498583714343985,0.00180997959392718,-0.005298227325576044,0.0013912935702722353,0.3270880877971649,-1.152458058004715,1.6654251257525843,-2.081957002679342,-1.571369473134176,2.301940441131592,-4.974997500539757e-05,0.019792193546891212,0.019796695560216904,-0.033990148454904556,-4.95523345307447e-05,-0.00144948938395828,0.09576806426048279,0.1149216815829277,-9.21288776397705,0.6859408020973206,47.64657974243164,-0.31247633695602417,-3.51328706741333,-1.970677137374878,-0.5539693832397461,-0.02045671083033085,-0.31645357608795166,24.9375,25.875,24.875,27.625,28.6875,29.25
1.0,-0.7832078461390289,-0.18391319803767933,-0.7075948545609675,-0.05524148233167643,0.007415607243758955,-0.07486619333483736,-0.5379703796579036,-0.32446644952924614,0.0592155160118987,-3.0785682962201664,0.6247283544172202,-0.0002614408999432533,0.0013358226894611904,0.0005085865445626339,-0.017358890549235558,0.0015310884407944007,-0.004489354734363597,0.0010896518528221667,0.3270281255245209,-1.152434305553772,1.6654251257525843,-2.0820285282530726,-1.571357552205221,2.3019890785217285,-6.977566226851195e-05,0.019545437768101692,0.020008299499750137,-0.034810539335012436,-4.69625556434039e-05,-0.001168229035101831,0.05746084079146385,0.17238251864910126,-9.251194953918457,0.7284641265869141,47.6734504699707,-0.2906319499015808,-3.502261161804199,-1.9910862445831299,-0.5974453091621399,-0.021034084260463715,-0.3370096683502197,24.9375,25.875,24.875,27.625,28.6875,29.25
1.0,-0.633278346361106,-0.05509434863444623,-0.7193423541120615,-0.05854048388336998,0.005988839496320352,-0.08583900050781773,-0.537942924283417,-0.3244650956370838,0.059153088591823916,-3.0785398487644793,0.624645554746194,-0.00030668605776833176,0.0004348660853593159,0.00020045472635010458,-0.017074863289950355,0.0007031493434296614,-0.0020770983103792773,0.0008808183387906662,0.3270520865917206,-1.1523860555938263,1.6655214468585413,-2.082125803033346,-1.5713813940631312,2.3019649982452393,-7.067769183777273e-05,0.019903847947716713,0.019383350387215614,-0.03709437698125839,-4.463261939235963e-05,-0.0009612262365408242,0.09576806426048279,0.13407529890537262,-9.251194953918457,0.6993717551231384,47.625980377197266,-0.3107129633426666,-3.4381532669067383,-1.935759425163269,-0.575020432472229,-0.009634014219045639,-0.3258850872516632,24.9375,25.875,24.875,27.625,28.6875,29.25
1.0,-0.5366076380325712,-0.23560054443049666,-0.634331869692759,-0.05722820763943422,0.010733642939527121,-0.0870163311137474,-0.5379362509005223,-0.3244626426612374,0.059111889914868265,-3.078526233087176,0.6246619419993353,-0.00040829425743166216,0.0009350706257881065,0.00038341154324954887,-0.018213889573775063,0.0013175544515254352,-0.0038899653387932543,0.000715011745131102,0.3270401656627655,-1.1523256462863465,1.6655333677874964,-2.082137247125143,-1.571357552205221,2.3019649982452393,-9.09576119738631e-05,0.021084874868392944,0.020382344722747803,-0.03736020624637604,-4.252321014064364e-05,-0.0008155223913490772,0.038307227194309235,0.17238251864910126,-9.251194953918457,0.6725152134895325,47.649269104003906,-0.32850173115730286,-3.5322957038879395,-1.919532060623169,-0.6058585047721863,-0.012233838438987732,-0.328667551279068,24.9375,25.875,24.875,27.625,28.6875,29.25
1.0,-0.6221065984625958,-0.3111983966828562,-0.7062288693253745,-0.057806667670032744,0.006579840915547502,-0.08756100543067698,-0.5379370075783663,-0.3244744321699795,0.05905585785056516,-3.0785616353384646,0.6246302739880613,-0.0003696715323046951,0.0017429948424718753,0.0006704796131436348,-0.018659935929962655,0.0018287949682602098,-0.005393435838341091,0.0005071646572795696,0.3270520865917206,-1.1522658628276368,1.6656177679644983,-2.0823170147337855,-1.571345631276266,2.301952600479126,-0.00010948899580398574,0.02063317596912384,0.021906711161136627,-0.036844830960035324,-3.8851037970744073e-05,-0.0006259290967136621,0.19153612852096558,0.13407529890537262,-9.251194953918457,0.6926589012145996,47.6394157409668,-0.28665196895599365,-3.4294333457946777,-2.0259108543395996,-0.6729446649551392,-0.016240332275629044,-0.33106762170791626,24.9375,25.875,24.875,27.625,28.6875,29.25
1.0,-1.030867011075287,-0.38784937393776575,-0.790893498638477,-0.052063618715878286,-0.005460800310906755,-0.07037449245674825,-0.5379370075783663,-0.3244744321699795,0.05905585785056516,-3.0785616353384646,0.6246302739880613,-0.0003696715323046951,0.0011963898418150018,0.0005139454240066148,-0.018993801742757103,0.0015178989009476198,-0.004497146379107706,0.00039346283412078917,0.3270401358604431,-1.152217523460724,1.665713135396139,-2.0824133358397425,-1.571357552205221,2.3019649982452393,-0.00015752790204714984,0.021707048639655113,0.02154681086540222,-0.03850746899843216,-3.7242978578433394e-05,-0.0005608047358691692,0.15322890877723694,0.17238251864910126,-9.232041358947754,0.7508436441421509,47.674346923828125,-0.3497127890586853,-3.444244384765625,-2.037339925765991,-0.6874800324440002,-0.019557539373636246,-0.33290719985961914,24.9375,25.875,24.875,27.625,28.6875,29.25
1.0,-0.5759565730696693,-0.666024791572936,-0.8603005296654289,-0.04367495640666353,-0.0024882157932595694,-0.07518390524982099,-0.5379435740300449,-0.32444965014387517,0.05896084546943878,-3.078517354571788,0.6247377310677897,-0.0003925628982316167,0.0012078526809080766,0.0005335704905022472,-0.019664013724998795,0.0015837316140987882,-0.004701128629539022,0.0003148148610563899,0.3270161747932434,-1.152157263164856,1.6657255331622522,-2.0825096569456996,-1.571357552205221,2.3019893169403076,-0.00018302514217793941,0.0225527286529541,0.022173641249537468,-0.03976565971970558,-3.5762837796937674e-05,-0.0005079694674350321,0.15322890877723694,0.17238251864910126,-9.27034854888916,0.7486078143119812,47.686885833740234,-0.32741522789001465,-3.473984479904175,-1.9334005117416382,-0.6916235685348511,-0.02401070110499859,-0.3285887837409973,24.9375,25.875,24.875,27.625,28.6875,29.25
1.0,-0.5124655077750548,-0.18557113056657382,-0.8808789685579274,-0.051914861117450486,-0.004170534902656727,-0.08098838016204186,-0.5379033204082628,-0.32445540993625005,0.05892054857745693,-3.078500845679467,0.6246768677550306,-0.0004313939546432361,0.0007949367249077166,0.00040686965616885793,-0.019532032929071585,0.0010021582710076052,-0.0030028639013211403,0.00024751261492167914,0.3270520567893982,-1.1521573823741456,1.6658332983600062,-2.0825816593565882,-1.571369473134176,2.3019893169403076,-0.00020580207637976855,0.022387534379959106,0.02256198041141033,-0.0417838916182518,-3.439581269049086e-05,-0.00046424625907093287,0.17238251864910126,0.019153613597154617,-9.27034854888916,0.7329410910606384,47.68598937988281,-0.3741023540496826,-3.4570603370666504,-1.9729398488998413,-0.7131264209747314,-0.02711057849228382,-0.3308974504470825,24.9375,25.875,24.875,27.625,28.6875,29.25
1.0,-0.5912618918972902,-0.2859783627526104,-0.8277429210487174,-0.047102534070991464,-0.006636702900145262,-0.0759896375893954,-0.5379147335559752,-0.3244633732715667,0.05889068005929826,-3.0785116318527823,0.6246009181209587,-0.00040696623990619054,0.0014003559152826364,0.0006098792805631136,-0.01988858782321588,0.0015557269488891254,-0.004625533403385532,0.00021664120351612163,0.3270640969276428,-1.152097449903824,1.6658337751971644,-2.0826531849303187,-1.5713813940631312,2.301952600479126,-0.00020040191884618253,0.022349584847688675,0.023163223639130592,-0.040632691234350204,-3.312943226774223e-05,-0.0004274618695490062,0.2106897532939911,0.07661445438861847,-9.21288776397705,0.7754590511322021,47.67882537841797,-0.3397461473941803,-3.3558146953582764,-1.990157127380371,-0.7226910591125488,-0.02138020470738411,-0.3199039697647095,24.9375,25.875,24.875,27.625,28.6875,29.25
1.0,-0.18222466875256504,0.11299120942280552,-0.8759410453638159,-0.051764315233391645,-0.001377164866062236,-0.07632563311878497,-0.5378969027979011,-0.32445704612218035,0.05880805869543487,-3.07848238264363,0.6246342194845914,-0.0005409186497839312,0.0014039861571371408,0.0006066082965981007,-0.02000565972581158,0.0017078217953310111,-0.005076872864101046,0.00019163062614037385,0.3270520567893982,-1.1520013076118012,1.6659062544452112,-2.0827371082701625,-1.571357552205221,2.3019649982452393,-0.0001942385861184448,0.02272794209420681,0.02279985509812832,-0.040171392261981964,-3.1953004508977756e-05,-0.0003960829053539783,0.19153612852096558,0.1149216815829277,-9.27034854888916,0.7127973437309265,47.68867492675781,-0.4352051913738251,-3.4484810829162598,-2.005464792251587,-0.7823577523231506,-0.017033200711011887,-0.3139410614967346,24.9375,25.875,24.875,27.625,28.6875,29.25
1.0,-0.2828048853748028,0.08330961314079978,-0.944358748496362,-0.0490175107012962,0.0013781640318304457,-0.07217133450631094,-0.5379197386810605,-0.32444551742798033,0.05880269722444406,-3.0785081560520506,0.6246389646901443,-0.0004336649360096028,0.0009947649317236336,0.00047949840400385193,-0.020499863328875483,0.0013211429662573085,-0.003956175097250629,0.00014296628964672619,0.3270280659198761,-1.152000979786255,1.6659424940692347,-2.0828458271422328,-1.571369473134176,2.301940679550171,-0.00021497475972864777,0.023585740476846695,0.02330171689391136,-0.042716577649116516,-3.085741263930686e-05,-0.0003689984150696546,0.2298433631658554,0.13407529890537262,-9.21288776397705,0.6725152134895325,47.65284729003906,-0.3694140315055847,-3.412689685821533,-1.9631047248840332,-0.7816200256347656,-0.02075606770813465,-0.31861990690231323,24.9375,25.875,24.875,27.625,28.6875,29.25
1.0,-0.27923853402630683,-0.2792755566316241,-0.8614701381047842,-0.04920796805355882,0.011755757570541217,-0.08216452299876127,-0.5379153731639204,-0.32444030288393666,0.058745797375714004,-3.0784652312691163,0.6247085271479187,-0.0004728639089081826,0.0005005550436681185,0.0003150581609211656,-0.020652374097612964,0.0008924899920555589,-0.0026237352910425385,0.00012457934475338018,0.3270280957221985,-1.1519289177707215,1.665990177785055,-2.0829297504820765,-1.5713813940631312,2.3019895553588867,-0.0002090882626362145,0.024140987545251846,0.023321647197008133,-0.04469117894768715,-5.765382957179099e-05,-0.0003453825192991644,0.17238251864910126,0.09576806426048279,-9.346963882446289,0.7441308498382568,47.718231201171875,-0.3263714909553528,-3.4892024993896484,-1.913285255432129,-0.7906931042671204,-0.029453320428729057,-0.32456403970718384,24.9375,25.875,24.875,27.625,28.6875,29.25
1.0,-0.5910104747718905,-0.37533301979773026,-0.8680900940157643,-0.05118863385421571,0.011368554968892577,-0.07936707927960208,-0.5379198923187438,-0.3244456366129575,0.058709863345246194,-3.0784889852592365,0.6246740697065869,-0.0004662525705540087,0.0004079692650560724,0.0002794260712007754,-0.020904835236952166,0.000831683902828648,-0.002449139956270268,0.00015625329503614723,0.3270280957221985,-1.1518807870200654,1.6660264174090784,-2.0830260715880335,-1.571369473134176,2.3019649982452393,-0.0002031921612797305,0.024551019072532654,0.023498395457863808,-0.04546283558011055,-5.7622379245003685e-05,-0.00037139226333238184,0.24899697303771973,0.05746084079146385,-9.289502143859863,0.7777001857757568,47.656429290771484,-0.4266665577888489,-3.3312602043151855,-1.9054241180419922,-0.8181231021881104,-0.0218974519520998,-0.3179786801338196,24.9375,25.875,24.875,27.625,28.6875,29.25
1.0,-0.6990314143579328,-0.021301620498056034,-0.9824462564870032,-0.05970594745740218,0.008706747087196189,-0.07673432295865422,-0.5379075037276491,-0.32444897071342454,0.05865485920410121,-3.0784761515581662,0.6246906351285145,-0.0005657766009942518,0.00044943540765701853,0.0002894793150637087,-0.021045476070642923,0.0005993578557978378,-0.001773280250932888,0.0001466487800458162,0.3270280957221985,-1.1518090528300782,1.6660621801959437,-2.083074232141012,-1.571345631276266,2.3019769191741943,-0.00019761545991059393,0.024275630712509155,0.024534305557608604,-0.04693802446126938,-5.594970934907906e-05,-0.0003567493404261768,0.19153612852096558,0.13407529890537262,-9.308655738830566,0.7396538853645325,47.66001510620117,-0.40407663583755493,-3.371232509613037,-1.9392468929290771,-0.806639552116394,-0.01498259138315916,-0.30777618288993835,24.9375,25.875,24.875,27.625,28.6875,29.25
1.0,-0.6686603678548005,-0.19898897563722112,-0.9351182449900041,-0.059443390620002236,0.009875501484255512,-0.0872142261710255,-0.537919399548501,-0.32446477226579246,0.058626919211741624,-3.0785055378555977,0.6246197845218314,-0.0004896607159652401,-0.0001791568062056317,0.00021661471538543365,-0.021064612764614417,-3.2903278176162437e-05,6.882245874627426e-05,-9.278396630085529e-05,0.32705196738243103,-1.1517610114863892,1.6660860220538538,-2.0831953487791957,-1.571357552205221,2.301952838897705,-0.00041739008156582713,0.02453858219087124,0.02476276457309723,-0.04937702417373657,-5.4270378313958645e-05,-0.00033802000689320266,0.19153612852096558,0.09576806426048279,-9.461885452270508,0.7060845494270325,47.6394157409668,-0.36515581607818604,-3.334740400314331,-1.9419240951538086,-0.8389754891395569,-0.028212644159793854,-0.3117879629135132,24.9375,25.875,24.875,27.625,28.6875,29.25
1.0,-0.7746486501334511,-0.7294739424138375,-1.1151309988201374,-0.04812733674468973,0.014972798877601716,-0.0716796871437671,-0.5379253516608,-0.32444374106688656,0.058577829736617876,-3.078478095552748,0.6246526055254005,-0.0004706013870916453,-0.0008275692335767113,-1.1370331740315646e-05,-0.020787688390963597,-0.0007102184041791557,0.002044739829189961,-0.00010168251255022315,0.3270280063152313,-1.1517129999450226,1.6661575476275843,-2.0833150349059046,-1.5713813940631312,2.301952838897705,-0.00040831757360138,0.024593451991677284,0.024480050429701805,-0.05123796686530113,-5.268232780508697e-05,-0.00032082738471217453,0.15322890877723694,0.13407529890537262,-9.27034854888916,0.7351769208908081,47.61882019042969,-0.34243759512901306,-3.3664684295654297,-1.9401700496673584,-0.8514220714569092,-0.02457914501428604,-0.30858248472213745,24.9375,25.875,24.875,27.625,28.6875,29.25
1.0,-0.8983577155654566,-0.6446925268029684,-1.1126279212743835,-0.048196672216397306,0.008892820947837641,-0.07596694238138606,-0.5378973668739302,-0.32444580029466463,0.05851860464136174,-3.078459331247141,0.6246493699961889,-0.0005590645402261211,-0.0019091583989757157,-0.00040360346706234945,-0.02097484697110503,-0.0019484748770951187,0.005656170808140316,-8.551471833291103e-05,0.32704007625579834,-1.1516648095897217,1.666241470967428,-2.083388944665426,-1.571369473134176,2.3019652366638184,-0.0003746965667232871,0.025282656773924828,0.025105519220232964,-0.05637044832110405,-5.118417175253853e-05,-0.00030527860508300364,0.09576806426048279,0.09576806426048279,-9.270349502563477,0.6904177665710449,47.67255783081055,-0.4104767441749573,-3.3570008277893066,-1.8834264278411865,-0.8038724064826965,-0.028345070779323578,-0.31179147958755493,24.9375,25.875,24.875,27.625,28.6875,29.25
1.0,-0.7951454928704386,-0.2640442603351864,-0.946826239245313,-0.06550846085951087,0.024180157209411947,-0.08026878566310572,-0.5379068645299105,-0.3244605614877179,0.05849934047916727,-3.078498635141188,0.6246574508449022,-0.000488696302433467,-0.0017783343431236897,-0.0003784092398226373,-0.021821049868192197,-0.0018855624272024842,0.005460936806673871,-7.13038099632049e-05,0.3270519971847534,-1.151640312080719,1.6662781874286097,-2.0835091076292933,-1.571357552205221,2.3019771575927734,-0.0003458901774138212,0.02610890194773674,0.026281392201781273,-0.0581674724817276,-4.9768859753385186e-05,-0.00029116604127921164,0.019153613597154617,0.09576806426048279,-9.461885452270508,0.7888899445533752,47.66001510620117,-0.4344857633113861,-3.355788230895996,-1.9132081270217896,-0.7947666645050049,-0.016604920849204063,-0.3097960650920868,24.9375,25.875,24.875,27.625,28.6875,29.25
1.0,-1.4020458971872551,-0.6788971751487818,-1.0238432690417478,-0.06397886163066903,0.019341834251480703,-0.07664161304543972,-0.5379079838251756,-0.32444543572990575,0.05842477912298749,-3.0784679094217635,0.6246896468672919,-0.0005530363534737543,-0.0021265758840053758,-0.0005142888352504505,-0.022510499268529452,-0.002099948272682054,0.00607473737412498,-6.01519234235949e-05,0.3270280361175537,-1.1515443486026307,1.6663382689105433,-2.0836178265013636,-1.571357552205221,2.3019771575927734,-0.00032119674142450094,0.02736804261803627,0.026595672592520714,-0.06039103865623474,-4.8429770686198026e-05,-0.0002782998781185597,0.019153613597154617,0.09576806426048279,-9.442731857299805,0.7888899445533752,47.699424743652344,-0.34369856119155884,-3.3683695793151855,-1.9019696712493896,-0.8045265078544617,-0.011782717891037464,-0.3189907670021057,24.9375,25.875,24.875,27.625,28.6875,29.25
1.0,-0.9411477457005761,-0.6602396043734888,-1.1450727623522212,-0.06449598203222617,0.03024587742338656,-0.08014009471001184,-0.5379371129590972,-0.32444409821167425,0.058399547409207775,-3.078463065131182,0.6247467326279375,-0.0004245405992603674,-0.0033975576894881756,-0.0009628873343455711,-0.022007953646138993,-0.003583471506279852,0.010410720271177492,-5.2367851814166615e-05,0.3270280361175537,-1.1514961582473298,1.666361157094137,-2.0837627849974574,-1.5713933149920862,2.302013397216797,-0.0002997933770529926,0.027273382991552353,0.02660367079079151,-0.064887136220932,-4.7160847316263244e-05,-0.0002665238280314952,0.019153613597154617,0.15322890877723694,-9.442731857299805,0.6926589012145996,47.67524337768555,-0.41922909021377563,-3.3785524368286133,-1.9071823358535767,-0.7768622636795044,-0.0331994965672493,-0.308301717042923,24.9375,25.875,24.875,27.625,28.6875,29.25
1.0,-1.2033162584801655,-0.8059423325902044,-1.1197896544934502,-0.06333897301045184,0.0357064176189352,-0.08450717428842638,-0.5379329310179508,-0.32446202062600743,0.05836672655140526,-3.078504385446544,0.6246586804144505,-0.00040025272248915946,-0.0046628034782337955,-0.0014081218849284233,-0.0219676292879611,-0.005063779007236007,0.0147320730821804,-4.6590269307511295e-05,0.3270520269870758,-1.1514600974372406,1.666410271321432,-2.0838729343810023,-1.5713813940631312,2.3019771575927734,-0.00028106450918130577,0.027710607275366783,0.02716103196144104,-0.0704495832324028,-4.595661812345497e-05,-0.0002557038969825953,0.019153613597154617,0.2106897532939911,-9.423578262329102,0.6814691424369812,47.65374755859375,-0.4176425039768219,-3.3901500701904297,-1.87630033493042,-0.6952304840087891,-0.02995578944683075,-0.3152538537979126,24.9375,25.875,24.875,27.625,28.6875,29.25
1.0,-1.5361457830512473,-0.6455405966480284,-1.058275701998466,-0.07299554341229303,0.029543001566167678,-0.07826730273446557,-0.5379370147812456,-0.32443207660986395,0.05830109834393013,-3.0785055573427966,0.6247551559846767,-0.0004202696545594265,-0.004204727948760295,-0.0012626973547556794,-0.0227792327737528,-0.0045414296161635625,0.013197296471179655,-3.980636116706433e-05,0.32699206471443176,-1.1514117282680054,1.6665294806109827,-2.0840398273863734,-1.571357552205221,2.3019771575927734,-0.00026453935424797237,0.028490621596574783,0.027894699946045876,-0.07034202665090561,-4.481245196075179e-05,-0.0002457285299897194,0.019153613597154617,0.28730419278144836,-9.461885452270508,0.7709873914718628,47.693153381347656,-0.4738774001598358,-3.3434934616088867,-1.9157650470733643,-0.6658246517181396,-0.028655167669057846,-0.31759828329086304,24.9375,25.875,24.875,27.625,28.6875,29.25
1.0,-1.250581014029269,-0.7374301196148758,-1.1350409488972237,-0.05813655600972687,0.030851126609257064,-0.07925068290175111,-0.5379389810528736,-0.3244564261196454,0.05821017978784701,-3.078515426616766,0.6247000946375656,-0.00035051373071097073,-0.005992459477399772,-0.0018695512645217096,-0.022767451604921635,-0.006389985377252626,0.018620112016626014,-6.337245852838566e-05,0.3270401060581207,-1.1512915355018158,1.6666258017169397,-2.0842939815916957,-1.5713813940631312,2.3019895553588867,-0.00026771685224957764,0.02950626239180565,0.02800513431429863,-0.07719732075929642,-5.317657269188203e-05,-0.0002279439358972013,-0.09576806426048279,0.1149216815829277,-9.404424667358398,0.7665104269981384,47.67613983154297,-0.4267064929008484,-3.3334805965423584,-1.9597127437591553,-0.5762343406677246,-0.023254912346601486,-0.3159588575363159,24.9375,25.875,24.875,27.625,28.6875,29.25
1.0,-1.2828123182405826,-0.6931143588712063,-0.990259449538554,-0.05755124605486455,0.027473887433592813,-0.08303518686822078,-0.5379456882462795,-0.3244818304562596,0.05816474634866184,-3.0785765030133003,0.6246543791225088,-0.00028893119545334294,-0.006160928764797331,-0.001923446205497379,-0.023059951158678267,-0.00666081773517191,0.019435113135678053,-7.386855623147857e-05,0.32706406712532043,-1.1512318414500733,1.6666863600360315,-2.0844737492003382,-1.571357552205221,2.3019771575927734,-0.0002696315641514957,0.029787838459014893,0.028691638261079788,-0.07902417331933975,-6.183831283124164e-05,-0.00021998322336003184,-0.05746084079146385,0.19153612852096558,-9.461885452270508,0.7172743082046509,47.6627082824707,-0.4354175925254822,-3.3386826515197754,-1.9008231163024902,-0.5698592662811279,-0.017294790595769882,-0.31008049845695496,24.9375,25.875,24.875,27.625,28.6875,29.25
1.0,-1.319509468009164,-0.33370889231999823,-0.9776532238975486,-0.06062407255622593,0.015294603014979001,-0.07457710393578768,-0.5379931554690919,-0.3244709571249265,0.05812099501238477,-3.0785847599576175,0.6247138059529329,-0.00019921542689423473,-0.006169387552020944,-0.001934742617508407,-0.02348493584390508,-0.0066274171728113495,0.019332934111875644,-6.88825101315765e-05,0.3270280659198761,-1.1511352521232148,1.6666863600360315,-2.0846296749510707,-1.571369473134176,2.3019771575927734,-0.00025700341211631894,0.030369728803634644,0.02902991697192192,-0.07983685284852982,-6.108452362241223e-05,-0.00021256026229821146,-0.07661445438861847,0.09576806426048279,-9.461885452270508,0.7060845494270325,47.64299774169922,-0.4146038889884949,-3.315431594848633,-1.90323805809021,-0.5269199013710022,-0.02437080815434456,-0.31287914514541626,24.9375,25.875,24.875,27.625,28.6875,29.25
1.0,-0.8936621977159123,-0.25463819160827983,-0.9355650909804097,-0.04859522170106625,0.01630611830341655,-0.0782909785657444,-0.5380006132844505,-0.32446579228145134,0.05807153339792426,-3.078595067594755,0.6247549602970345,-0.0001505591662155618,-0.005791373999818357,-0.0017900693319748949,-0.023605910710321216,-0.006223273435605118,0.01814799381928436,-9.97033349622139e-05,0.327016144990921,-1.1510877770236512,1.6667702833758753,-2.0847970447936,-1.571369473134176,2.3019895553588867,-0.000281370768789202,0.030305271968245506,0.029119502753019333,-0.07861001789569855,-5.9774331020889804e-05,-0.00020562171994242817,0.0,0.09576806426048279,-9.385271072387695,0.7038487195968628,47.67703628540039,-0.4378255009651184,-3.285989761352539,-1.905590534210205,-0.5151859521865845,-0.024427300319075584,-0.3066282868385315,24.9375,25.875,24.875,27.625,28.6875,29.25
1.0,-0.2960889625965264,0.37223175619387744,-0.8470206655776295,-0.04453864215683776,0.012925302265113457,-0.08283126716852708,-0.5380136830299787,-0.3245086477805957,0.058033740903344455,-3.0787052429943733,0.6246612004608328,-5.9621850273082124e-05,-0.005107075740424046,-0.0015621107059573263,-0.024414011123830924,-0.005341218903087341,0.015555873995477174,-9.775150951197597e-05,0.3270520269870758,-1.1510274869254609,1.6668179670916956,-2.0850001774229945,-1.5713217894183558,2.301952838897705,-0.0002737133763730526,0.031140577048063278,0.02943267859518528,-0.07702040672302246,-5.8482273743720725e-05,-0.0001991217868635431,0.038307227194309235,0.09576806426048279,-9.28950309753418,0.7575564384460449,47.69673538208008,-0.47130948305130005,-3.3226633071899414,-1.8991312980651855,-0.5016117095947266,-0.028120821341872215,-0.3172813951969147,24.9375,25.875,24.875,27.625,28.6875,29.25
1.0,0.12722641262670997,0.24209138098297198,-0.7579977445366507,-0.034199885038064065,0.007138247722078699,-0.08542536718201856,-0.5380236712880757,-0.3244855406079958,0.057986116875324706,-3.07863345034735,0.6247053451722598,3.56735237204876e-05,-0.0037760455796276393,-0.0011155653214875766,-0.025955418295400386,-0.0035811809256441683,0.010392112464116223,-9.085191200986393e-05,0.3270520269870758,-1.1509785217097779,1.6668899695025843,-2.085142274896139,-1.5714057127581995,2.3019895553588867,-0.0002623752225190401,0.032785385847091675,0.02988109551370144,-0.07365817576646805,-5.724254879169166e-05,-0.0001930205908138305,-0.019153613597154617,0.0,-9.251194953918457,0.7799360156059265,47.71464920043945,-0.4836725890636444,-3.410283088684082,-1.8405735492706299,-0.5166287422180176,-0.027673810720443726,-0.29554226994514465,24.9375,25.875,24.875,27.625,28.6875,29.25
1.0,0.13912534617467665,0.5268099820240211,-0.6157487703316936,-0.02913261510677446,-0.0062795096525966165,-0.08576882684665287,-0.5380262450385692,-0.3244864060145239,0.05792194114085589,-3.078660020456796,0.6247101095898596,3.189507862969852e-05,-0.003069933942194379,-0.0008582007611100845,-0.025990935954026458,-0.002929797101360296,0.008487281994375406,-0.00012073270788171494,0.3270401060581207,-1.1509071451476593,1.666973892842428,-2.08530916790151,-1.5713813940631312,2.3019771575927734,-0.0002873652847483754,0.03228926286101341,0.030147850513458252,-0.07141567766666412,-5.605418482446112e-05,-0.00018728195573203266,0.13407528400421143,0.05746084079146385,-9.193734169006348,0.7150384783744812,47.679718017578125,-0.453204482793808,-3.364436626434326,-1.8491456508636475,-0.5542222261428833,-0.022797834128141403,-0.30731654167175293,24.9375,25.875,24.875,27.625,28.6875,29.25
1.0,0.33648454131661437,0.6453703522040201,-0.7085810985198763,-0.026557131580419044,-0.007631990013623207,-0.08492348410537309,-0.5380497454832005,-0.3244751361978522,0.05789296685618167,-3.0786603499392116,0.6247486094954288,8.999850431440507e-05,-0.002726722106554976,-0.0007466576201511695,-0.025585400071220423,-0.002748817577752582,0.007961986416633333,-0.00011678376180425406,0.327016144990921,-1.1508596402457734,1.6669977347003382,-2.085416456262106,-1.5713933149920862,2.3019771575927734,-0.00027843983843922615,0.031358517706394196,0.030200650915503502,-0.0699821412563324,-5.491398769663647e-05,-0.0001818747550714761,0.15322890877723694,-0.05746084079146385,-9.21288776397705,0.7396538853645325,47.70390319824219,-0.49727049469947815,-3.285098075866699,-1.7622888088226318,-0.5656077265739441,-0.020765013992786407,-0.30511510372161865,24.9375,25.875,24.875,27.625,28.6875,29.25
1.0,0.0034853464954350266,0.772788121253246,-0.6904464425894378,-0.03192904581313752,-0.011234356073655066,-0.08323384029177715,-0.5380819632129229,-0.324481852919238,0.057857650428755764,-3.078735270285513,0.6247445151954191,0.00017317173038909535,-0.00210299170826465,-0.0005470670847636076,-0.026391144964190615,-0.0020087270479470314,0.005788488670921948,-0.000101332483898199,0.32699206471443176,-1.1507990223220368,1.6670339743243616,-2.08559574703359,-1.571357552205221,2.30194091796875,-0.00025845004711300135,0.032109685242176056,0.030761336907744408,-0.06899794191122055,-5.38194362889044e-05,-0.00017677123832982033,0.13407529890537262,0.0,-9.174580574035645,0.7530794739723206,47.671661376953125,-0.5118160247802734,-3.252357244491577,-1.7811013460159302,-0.5778716206550598,-0.01829770766198635,-0.3123044967651367,24.9375,25.875,24.875,27.625,28.6875,29.25
1.0,-0.06548545582241447,0.31634767868627073,-0.46984522679674956,-0.03201565270303994,-0.005214442172203987,-0.07849248250209553,-0.5380696712074726,-0.32448199533518535,0.05779689269882832,-3.078702640877486,0.6247183767972676,0.00018412073431862627,-0.0016654515909399628,-0.0003712816985465256,-0.027654076700000953,-0.0011515020075882022,0.0033145741162714983,-0.00013967765189623908,0.327016144990921,-1.150739000444748,1.6671178976642054,-2.085726877252096,-1.5713933149920862,2.301952838897705,-0.0002925386361312121,0.03392081335186958,0.03097151778638363,-0.0684010311961174,-6.918535655131564e-05,-0.00017194596875924617,0.15322890877723694,-0.038307227194309235,-9.136273384094238,0.7262282371520996,47.75405502319336,-0.4767757058143616,-3.30051851272583,-1.7558711767196655,-0.5888783931732178,-0.030194340273737907,-0.30546438694000244,24.9375,25.875,24.875,27.625,28.6875,29.25
1.0,-0.19961270361450717,0.0015834159661222147,-0.5592110624135713,-0.02614032622629967,-0.00980645207930066,-0.07838538292537907,-0.5380688387971936,-0.32449700513276414,0.05772981857637596,-3.0787051229691356,0.6247778821591103,0.00014752353457213167,-0.0013978724616936433,-0.00024013938504118763,-0.028030192198217552,-0.000643225388481228,0.001822611921245544,-0.0002053258610262761,0.3270280361175537,-1.150642679338791,1.6671655813800257,-2.085858007470602,-1.571369473134176,2.302001476287842,-0.00035418267361819744,0.03453012928366661,0.03069653920829296,-0.06715919822454453,-6.893152021802962e-05,-0.00016737764235585928,0.2298433631658554,0.019153613597154617,-9.078812599182129,0.7262282371520996,47.68598937988281,-0.4769967198371887,-3.2438387870788574,-1.731431245803833,-0.6114605665206909,-0.033009275794029236,-0.3140650987625122,24.9375,25.875,24.875,27.625,28.6875,29.25
1.0,-0.12030988459811762,0.192703926779249,-0.611719260110459,-0.029938339318734585,-0.010527629661008134,-0.07295922961980214,-0.538089569409227,-0.3244888287029376,0.05770036664552328,-3.0787216776355915,0.6247422937993664,0.00024590947485615846,-0.0004821798535951145,7.169484412411369e-05,-0.029115373867697653,0.00037093539968588495,-0.0011543089808660667,-0.0002083441648630738,0.32701611518859863,-1.1506059628776093,1.6672137419330042,-2.086001535455221,-1.5713933149920862,2.3019652366638184,-0.00035363135975785553,0.03538302704691887,0.031675104051828384,-0.06584573537111282,-6.7705157562159e-05,-0.00016304566815961152,0.19153612852096558,-0.038307227194309235,-9.117119789123535,0.6859408020973206,47.66449737548828,-0.5546903610229492,-3.3844211101531982,-1.7373791933059692,-0.6592841744422913,-0.03563638776540756,-0.3021955192089081,24.9375,25.875,24.875,27.625,28.6875,29.25
1.0,-0.07968490234285334,0.36794772357249167,-0.3630900510155613,-0.03676166690480496,-0.011394898261338226,-0.0825466868879784,-0.5380869247027702,-0.3244913068355552,0.05765485075058893,-3.0787510236786235,0.6247481392177918,0.00021462027752784348,0.0005670588549990786,0.0008407424617285139,-0.029781665130690187,0.0013762417546068506,-0.004096729141499324,-0.0008446889839194186,0.3270038664340973,-1.1505586367896576,1.6672752539264124,-2.0861083469786585,-1.571357552205221,2.301952838897705,-0.0009867239277809858,0.03499409928917885,0.033308640122413635,-0.06398092210292816,-6.6459717345424e-05,-0.00015893227828200907,0.17238251864910126,0.019153613597154617,-9.002198219299316,0.6904177665710449,47.66449737548828,-0.44787970185279846,-3.304659366607666,-1.659735083580017,-0.6809952259063721,-0.030616451054811478,-0.2966271638870239,24.9375,25.875,24.875,27.625,28.6875,29.25
1.0,0.03413916708783987,0.44303008628252255,-0.3376393756838903,-0.039201097620869145,-0.010849597845833128,-0.0834105245896335,-0.5380597914377993,-0.3244863365045837,0.057561021535190604,-3.078688464635652,0.6246587066462114,0.00011272080926122325,0.0008492416105849565,0.0008705885907482577,-0.03013972548701998,0.0014807680949769418,-0.004406711643808671,-0.0007468600415924529,0.3270278573036194,-1.1504507225802918,1.6673596541034144,-2.0862046680846156,-1.5713933149920862,2.301928997039795,-0.0008848333382047713,0.03504681959748268,0.03418721631169319,-0.06458509713411331,-6.525533535750583e-05,-0.00015502110181842,0.19153612852096558,0.07661445438861847,-8.9064302444458,0.7172743082046509,47.6895751953125,-0.4605224132537842,-3.2885704040527344,-1.5960955619812012,-0.7192610502243042,-0.009207367897033691,-0.30580300092697144,24.9375,25.875,24.875,27.625,28.6875,29.25
1.0,-0.310928042784601,0.21441150616556362,-0.43550492620514425,-0.042426775059632035,-0.009602897284123942,-0.08384348678928226,-0.5380757190419687,-0.32447578642146196,0.05750861457838302,-3.078714710813444,0.6247991116619422,0.00010792144770682892,0.001140267077900679,0.0009612209555610717,-0.030166614690935668,0.0017146141592468574,-0.0050935044706336636,-0.0007372780150785369,0.32697993516921997,-1.150390849714615,1.6674302260028284,-2.0863596401610316,-1.571345631276266,2.3019652366638184,-0.0008718085009604692,0.03482569381594658,0.034390099346637726,-0.0638413354754448,-6.409358320524916e-05,-0.00015129796520341188,0.19153612852096558,0.13407528400421143,-9.097966194152832,0.7575564384460449,47.71733474731445,-0.508819043636322,-3.1870803833007812,-1.6226305961608887,-0.7381583452224731,-0.01654212363064289,-0.3095300793647766,24.9375,25.875,24.875,27.625,28.6875,29.25
1.0,-0.16237417959904346,-0.050385840856723395,-0.3568089855732504,-0.045722269167196274,0.003418596871785317,-0.08783082086544093,-0.5380713603467996,-0.32448263169518243,0.05744702144804931,-3.078686742665656,0.624696645588794,0.0001272971104032223,0.0023182894149817884,0.0013015909661609343,-0.0322650756948425,0.0030214492549034263,-0.00893463900610355,-0.0006461747636343487,0.3270159661769867,-1.1503062409213562,1.6674793402301233,-2.086479803124899,-1.5713933149920862,2.30194091796875,-0.0007777128485031426,0.03681844845414162,0.03635570406913757,-0.06374234706163406,-6.297245272435248e-05,-0.00014774965529795736,0.2298433631658554,0.07661445438861847,-9.040505409240723,0.7262282371520996,47.700321197509766,-0.4598758816719055,-3.2394814491271973,-1.6159276962280273,-0.7863394618034363,-0.02609141170978546,-0.3058016896247864,24.9375,25.875,24.875,27.625,28.6875,29.25
1.0,-0.570959122417438,-0.2850844248757849,-0.32639299611602857,-0.055569423529480605,-0.004829677023145917,-0.07991947153042997,-0.5380609497181913,-0.32447479233413895,0.05737295908622181,-3.078672160876816,0.6247713636496078,1.6958527120012504e-05,0.0019423481559925277,0.0011588320150660014,-0.032560941294440524,0.0025427999970222778,-0.007542222965785249,-0.0006293978719110007,0.32699188590049744,-1.1502216321280976,1.667551342641012,-2.086576124230856,-1.571357552205221,2.3019652366638184,-0.0007566454005427659,0.037272192537784576,0.03697317838668823,-0.06628594547510147,-6.188973202370107e-05,-0.00014436381752602756,0.28730422258377075,0.09576806426048279,-9.02135181427002,0.6546126008033752,47.690467834472656,-0.48612093925476074,-3.282258987426758,-1.6491389274597168,-0.8000694513320923,-0.019728142768144608,-0.3027281165122986,24.9375,25.875,24.875,27.625,28.6875,29.25
1.0,-0.5436998344592582,-0.6673551671814311,-0.40722004709059806,-0.057887751600863846,0.008690733899011368,-0.07735543004366939,-0.5380344409391834,-0.32446204172900567,0.05723400234853543,-3.0786256509445438,0.6248009238610512,-5.3576122661246764e-05,0.001153876478937725,0.0008216940823473075,-0.033125572137940366,0.0017352750833163812,-0.005136682581407914,-0.0005253444544406117,0.3269919157028198,-1.1500898462584992,1.6677430311786097,-2.0868407688536585,-1.571369473134176,2.3019895553588867,-0.0006447702762670815,0.03847678005695343,0.03756292909383774,-0.0706176832318306,-7.890392589615658e-05,-0.00013803724141325802,0.13407529890537262,0.1149216815829277,-9.02135181427002,0.7418897151947021,47.6895751953125,-0.46448856592178345,-3.2550315856933594,-1.605900764465332,-0.8263412714004517,-0.047417543828487396,-0.3024633824825287,24.9375,25.875,24.875,27.625,28.6875,29.25
1.0,-0.7761375880413502,-0.8451838231596278,-0.6279242638401635,-0.053006340524835036,0.0026507158082649147,-0.0729087380453381,-0.5380351436131973,-0.3244972547620637,0.057188555858723955,-3.078673594327334,0.6247138912794263,-1.156690789200355e-05,-1.9219524000780026e-05,0.00044410197604453184,-0.032874631288032106,0.00034578158531213874,-0.0010223390743501002,-0.0005581716259675132,0.3270399570465088,-1.1500177842429657,1.667778793965475,-2.0869866810240687,-1.571357552205221,2.3019771575927734,-0.0006727338768541813,0.03854929283261299,0.03798836097121239,-0.07545821368694305,-9.518043952994049e-05,-0.0001350775855826214,0.17238251864910126,0.19153612852096558,-9.078812599182129,0.8023208975791931,47.70838165283203,-0.5439877510070801,-3.288144588470459,-1.6330583095550537,-0.8130245804786682,-0.02408706769347191,-0.3111245632171631,24.9375,25.875,24.875,27.625,28.6875,29.25
1.0,-0.7737981445410178,-0.6574177246622297,-0.6330300687040601,-0.060083938154907646,0.006037526817998063,-0.07653289357159675,-0.5380141202766783,-0.32445921979842524,0.05706683974633822,-3.0785891387288964,0.6247544269924014,-0.00013884922632587503,-0.001739250412105686,-0.0001277953132746909,-0.03246234396655203,-0.001231306822231171,0.0035824818031085976,-0.0005881698859268338,0.32700395584106445,-1.1498976808837433,1.6679232756244105,-2.0871435604491175,-1.5713813940631312,2.3019771575927734,-0.000698008225299418,0.03937521204352379,0.03696148097515106,-0.08012465387582779,-9.435650281375274e-05,-0.00013224213034845889,0.15322890877723694,0.24899697303771973,-9.155426979064941,0.7105615139007568,47.656429290771484,-0.5375974774360657,-3.2536420822143555,-1.5639395713806152,-0.7663331031799316,-0.019714899361133575,-0.30127477645874023,24.9375,25.875,24.875,27.625,28.6875,29.25
1.0,-0.8186278476499169,-1.417262901904875,-0.7330165165029916,-0.060996432952972274,0.018714402540339042,-0.07311857248646994,-0.5380394197549778,-0.32447542047537076,0.05704560015186816,-3.078665007394024,0.6247310143785685,-2.6277534143622134e-05,-0.0021960278411285233,-0.00026871470685453836,-0.03333093155786477,-0.0017780204761946123,0.005166707177965148,-0.0006172779412133914,0.32700395584106445,-1.1498612624457856,1.6679590384112757,-2.0873128376402796,-1.571357552205221,2.301952838897705,-0.0007230158662423491,0.040536388754844666,0.03825042024254799,-0.08425066620111465,-9.249377762898803e-05,-0.00012952322140336037,0.17238251864910126,0.2298433631658554,-9.174580574035645,0.7665104269981384,47.6895751953125,-0.5257464051246643,-3.3075337409973145,-1.5530494451522827,-0.7474727630615234,-0.016850290820002556,-0.2967183589935303,24.9375,25.875,24.875,27.625,28.6875,29.25
1.0,-0.8420302280058205,-0.7826882648338631,-0.7365005697284677,-0.08174244406845611,0.026716031552237545,-0.08482769719122354,-0.5380511632645768,-0.32446779619714605,0.05696552441980726,-3.0786475613607385,0.6247669291651575,-1.6768876567892134e-05,-0.0024758558384696946,-0.00011245239279651461,-0.03395436195651191,-0.0021002588256577304,0.006098855104389608,-0.0010102819378148247,0.3269917666912079,-1.1497531992248078,1.6680310408221644,-2.0874930820860804,-1.571369473134176,2.3019652366638184,-0.0011124694719910622,0.04112132266163826,0.03948912024497986,-0.08706057071685791,-9.063565084943548e-05,-0.000126913859276101,0.1149216815829277,0.17238251864910126,-9.174580574035645,0.7306999564170837,47.65374755859375,-0.5573375225067139,-3.339993953704834,-1.6556620597839355,-0.7200367450714111,-0.0311881210654974,-0.3099561035633087,24.9375,25.875,24.875,27.625,28.6875,29.25
1.0,-1.5427583107961502,-1.2170817089450205,-0.9679515742326675,-0.07472605245788727,0.02345090761646347,-0.07513962412292678,-0.538020999278593,-0.3244616040918806,0.05687762856353426,-3.0786164972033205,0.6247213807020072,-8.629724759470093e-05,-0.003741491325842415,-0.0006307094118450677,-0.034472062616809504,-0.003361221453302579,0.009817869180774732,-0.0008770200806873473,0.3270038664340973,-1.149680719976761,1.6681626478778284,-2.0876389942564906,-1.5713813940631312,2.301952838897705,-0.000974613765720278,0.04262728616595268,0.03989000245928764,-0.09289435297250748,-0.00010428590758237988,-0.00012440771388355643,0.07661445438861847,0.28730422258377075,-9.21288776397705,0.7262282371520996,47.69673538208008,-0.5329304337501526,-3.3453164100646973,-1.6538457870483398,-0.6564638614654541,-0.03877432644367218,-0.3034875988960266,24.9375,25.875,24.875,27.625,28.6875,29.25
1.0,-1.5352694041634873,-1.1252753504298394,-0.816445711469964,-0.07569253794430465,0.030984425132923498,-0.07825066014754353,-0.5380349109664333,-0.32448552665632435,0.056830266915285615,-3.0786992711003403,0.6246808324353158,-1.9556753590230285e-06,-0.0040481067693101756,-0.0008320545533111309,-0.034738989762954225,-0.0036661639011376867,0.010705120554050911,-0.0007315562354209215,0.3270159363746643,-1.1496204894832154,1.6682351271258753,-2.0878550014891566,-1.571345631276266,2.301928997039795,-0.0008261468028649688,0.04325307533144951,0.04000759497284889,-0.0945759192109108,-0.00010439936158945784,-0.0001219984405906871,0.1149216815829277,0.24899697303771973,-9.21288776397705,0.6658024191856384,47.68240737915039,-0.4967655539512634,-3.406611442565918,-1.594502329826355,-0.6379704475402832,-0.039907559752464294,-0.3035387694835663,24.9375,25.875,24.875,27.625,28.6875,29.25
1.0,-1.094218836789125,-0.9102492814380558,-1.0448149258519,-0.06745235526938652,0.026303852786016976,-0.08258814422060358,-0.5380356112681477,-0.32447047409983587,0.056711507470372124,-3.078646638141412,0.6246894550343919,-6.284837149285841e-05,-0.005384834953799767,-0.0012870776692657444,-0.035291990788775034,-0.004956737204462029,0.014462929264209619,-0.0007405007013389632,0.3270038962364197,-1.1494640570930024,1.668330494557516,-2.088048120538229,-1.571369473134176,2.301928997039795,-0.0008306087111122906,0.044839005917310715,0.0404030866920948,-0.10053058713674545,-0.00010255563393002376,-0.00011968079343205318,0.05746084079146385,0.24899697303771973,-9.251194953918457,0.8112748265266418,47.70390319824219,-0.5650433897972107,-3.5009055137634277,-1.6022088527679443,-0.5743336081504822,-0.021334242075681686,-0.2974544167518616,24.9375,25.875,24.875,27.625,28.6875,29.25
1.0,-1.0522022848325878,-0.6365917736173448,-1.0860946912344667,-0.06351635105845277,0.024226402130935454,-0.07709405687594319,-0.5380833509069811,-0.3244752423448133,0.05668871548574464,-3.0787037573789595,0.6247204155236228,0.0001405675870372917,-0.005128953977696604,-0.0012604549433441138,-0.035474104140333994,-0.00463067274934569,0.013502155674901756,-0.0006495373514014094,0.32699188590049744,-1.149415985946991,1.6683667341815394,-2.0882755718626917,-1.5713813940631312,2.301928997039795,-0.0007377805886790156,0.045075781643390656,0.040286943316459656,-0.09963662922382355,-0.00010065312380902469,-0.00011744971561711282,0.038307227194309235,0.24899697303771973,-9.308655738830566,0.7530794739723206,47.694053649902344,-0.5362915992736816,-3.5138161182403564,-1.6236447095870972,-0.5388190746307373,-0.0286174975335598,-0.30793002247810364,24.9375,25.875,24.875,27.625,28.6875,29.25
1.0,-0.46159602936335603,-0.24871394708662536,-0.8110839825805208,-0.06487103237665792,0.02555772284144967,-0.08571470281626284,-0.5380644568745987,-0.3244807165399443,0.056574693428661615,-3.078669228627285,0.6247130225597828,8.183719733658461e-05,-0.004000963158222259,-0.00092635792065206,-0.036783163184064875,-0.0033982839842923765,0.009882196697747262,-0.0005734172382214491,0.3270159959793091,-1.149283842449524,1.6684873739825647,-2.088478227654928,-1.5713933149920862,2.301952838897705,-0.0006604528171010315,0.046141427010297775,0.04140783101320267,-0.09799917787313461,-9.881202277028933e-05,-0.00011530001211212948,0.038307227194309235,0.15322890877723694,-9.27034854888916,0.7038487195968628,47.69136428833008,-0.5350738167762756,-3.5341639518737793,-1.6064245700836182,-0.5429598093032837,-0.01884184405207634,-0.288191020488739,24.9375,25.875,24.875,27.625,28.6875,29.25
1.0,-0.7819606266766214,-0.4254020632256363,-0.8996018032081161,-0.03776991674548049,-0.002171411403146155,-0.07542326735446732,-0.5380701043293667,-0.3244786578373539,0.056503490976171744,-3.0786768133970153,0.6247537925154922,8.579832858789486e-05,-0.003083127433108497,-0.0006548583958180741,-0.03856244354089965,-0.0017789320125538104,0.005120670790313045,-0.000511335132559646,0.32700398564338684,-1.1491989952376862,1.6685712973224085,-2.0886570415892542,-1.5713813940631312,2.3019652366638184,-0.0005977547261863947,0.04879865050315857,0.04115256294608116,-0.095371775329113,-9.703639807412401e-05,-0.00011322763748466969,0.019153613597154617,0.19153612852096558,-9.308656692504883,0.7306999564170837,47.681514739990234,-0.5249984860420227,-3.6927404403686523,-1.5622045993804932,-0.5366382598876953,-0.043681222945451736,-0.2900102138519287,24.9375,25.875,24.875,27.625,28.6875,29.25
1.0,-0.45531508551846944,0.3572410317746254,-0.7963914369906646,-0.0420380983126164,-0.004739347163730319,-0.0832670097182144,-0.5381092002762687,-0.3244882835727096,0.05645183913059773,-3.0787103176489365,0.6247798014428291,0.0002241274173224215,-0.0022272665028329618,-0.00034622512414266764,-0.03817259668563498,-0.0011207144529740596,0.0031996878037938914,-0.0005372950574668003,0.32700398564338684,-1.1491034489921113,1.6686065832721155,-2.0888830624022425,-1.5713933149920862,2.3019771575927734,-0.0006227808189578354,0.04748840630054474,0.04139360040426254,-0.09227195382118225,-9.532340482110158e-05,-0.00011122866999357939,0.038307227194309235,0.13407529890537262,-9.251194953918457,0.6613254547119141,47.71017074584961,-0.5700464248657227,-3.5638954639434814,-1.5656672716140747,-0.5668938159942627,-0.03462503105401993,-0.28892654180526733,24.9375,25.875,24.875,27.625,28.6875,29.25
1.0,-0.8477403227101248,0.31482572610196347,-0.6679897321333592,-0.02921786087809218,-0.017862402298534467,-0.07650316960100506,-0.5380943771342317,-0.3244792316295564,0.05636349229514859,-3.0787127769846583,0.6247224504122301,0.00016222785725927518,-0.001235991236590299,-7.006159310875122e-05,-0.03917898838488368,0.00014986227422812608,-0.0005301163084060604,-0.00044295820283669007,0.3269919753074646,-1.1490186613849183,1.6687267462359827,-2.0890494785704554,-1.5713813940631312,2.301928997039795,-0.0005277951713651419,0.04856358468532562,0.0415777824819088,-0.08959103375673294,-9.366988524561748e-05,-0.00010929894779110327,0.1149216815829277,0.019153613597154617,-9.174580574035645,0.7821771502494812,47.6895751953125,-0.6198004484176636,-3.4955849647521973,-1.5425686836242676,-0.6111693382263184,-0.028243906795978546,-0.314762681722641,24.9375,25.875,24.875,27.625,28.6875,29.25
1.0,-0.33050023981031473,0.3301902801814002,-0.8681136126745193,-0.016026954060902564,-0.015499464605011597,-0.07875812648507757,-0.5380935297246627,-0.3244865345247347,0.05626467254340117,-3.078720949826395,0.6247242395632706,0.00010951462479718759,-9.718773223174406e-05,0.0003087756804313506,-0.040352488684444306,0.001446829580299751,-0.004336357543887417,-0.00042921570534236203,0.3269919753074646,-1.1488871437362214,1.6688111464129847,-2.089240690270895,-1.571357552205221,2.301928997039795,-0.0005133284721523523,0.049499984830617905,0.04243714362382889,-0.08736564964056015,-9.207282710121945e-05,-0.00010743510210886598,0.1149216815829277,-0.05746084079146385,-9.232041358947754,0.7396538853645325,47.68598937988281,-0.5761525630950928,-3.6609442234039307,-1.5157544612884521,-0.6489076018333435,-0.037586040794849396,-0.3107355833053589,24.9375,25.875,24.875,27.625,28.6875,29.25
1.0,-0.03555575182328713,1.157287179714972,-0.620287885639935,-0.028925942918218362,-0.013776953389479383,-0.08594394316706591,-0.5380729897215933,-0.3244911443707186,0.05616978899689787,-3.07869685499357,0.6247383366973919,1.5748662422093668e-05,0.0006012212845739608,0.0005687892863907143,-0.04171387590028262,0.002667458136340968,-0.007926020420707277,-0.00046471470842829397,0.32700401544570923,-1.1487783950618287,1.6689074675189417,-2.089383741418356,-1.571345631276266,2.301952838897705,-0.0005481016705743968,0.051463328301906586,0.04236556217074394,-0.08546589314937592,-9.052918903762475e-05,-0.00010563358227955177,0.09576806426048279,-0.1149216815829277,-9.289502143859863,0.6680382490158081,47.6734504699707,-0.5691952705383301,-3.7191827297210693,-1.4825589656829834,-0.676145076751709,-0.03697498142719269,-0.28769922256469727,24.9375,25.875,24.875,27.625,28.6875,29.25
1.0,-0.20732937311721839,0.9315659850045188,-0.5540881389810158,-0.0225547958618496,-0.012634001586345735,-0.08373606344141762,-0.5380796107197434,-0.32450520515204473,0.056102842071011155,-3.0787061187496656,0.6247019179866162,5.699799165491593e-05,0.001101898072734034,0.0007589721782779602,-0.041364121153506704,0.0029960369755644353,-0.008883698535131367,-0.0004954271990524053,0.32702794671058655,-1.1486827594092865,1.6689665953265589,-2.089562078515524,-1.571357552205221,2.301952838897705,-0.0005776683101430535,0.05046240985393524,0.04255620390176773,-0.08364314585924149,-8.903668640414253e-05,-0.00010389155067969114,0.2106897532939911,-0.15322890877723694,-9.193734169006348,0.7642692923545837,47.6949462890625,-0.5910364389419556,-3.7493834495544434,-1.4122745990753174,-0.7297934293746948,-0.04165651649236679,-0.29471564292907715,24.9375,25.875,24.875,27.625,28.6875,29.25
1.0,-0.02922049615245559,1.1783910987291386,-0.3227847635617219,-0.01931624513209223,-0.015696588890147467,-0.08694634680377249,-0.5381037445676872,-0.32446709757169095,0.05595712437584788,-3.078638928490363,0.624824207325328,9.388720113325063e-05,0.0018760052825076247,0.0013260823532548027,-0.04244841511826894,0.004017016496133722,-0.011844493249927207,-0.0009595733226621778,0.3269798755645752,-1.14850269377742,1.6691225210772913,-2.0898972950377406,-1.5714057127581995,2.3019895553588867,-0.0010392689146101475,0.05131705477833748,0.043541569262742996,-0.08235126733779907,-0.0001000759657472372,-0.00010057444887934253,0.19153612852096558,-0.325611412525177,-9.193734169006348,0.8000850081443787,47.692256927490234,-0.544823944568634,-3.687196731567383,-1.3973915576934814,-0.7944302558898926,-0.04777468368411064,-0.2935917377471924,24.9375,25.875,24.875,27.625,28.6875,29.25
1.0,-0.331993137970321,0.8880995534870354,-0.7257070663016517,-0.018225713533749143,-0.012229023290692413,-0.0805888596127388,-0.5380745748041121,-0.32448794887555754,0.05586983659176867,-3.07866975250895,0.6247922396396713,7.459753099137869e-06,0.0019499000496308976,0.0013401307366186885,-0.04289812423663803,0.004012916356911207,-0.01183834364482081,-0.0009450220128633707,0.3270038366317749,-1.1484186810306092,1.669241730366842,-2.090065141717428,-1.571357552205221,2.3019895553588867,-0.001022803713567555,0.05171184614300728,0.044275395572185516,-0.08348702639341354,-9.894832328427583e-05,-9.899409633362666e-05,0.17238251864910126,-0.19153612852096558,-9.232041358947754,0.7150384783744812,47.71733474731445,-0.5783692598342896,-3.7016501426696777,-1.4136555194854736,-0.8184480667114258,-0.034102994948625565,-0.28531354665756226,24.9375,25.875,24.875,27.625,28.6875,29.25
1.0,0.014882522291309458,0.5681168636123116,-0.6839629282545991,-0.030699078175392396,0.013772770338725534,-0.08964881820043873,-0.538063093383728,-0.3244762645573181,0.055765053861978386,-3.078636152396905,0.6247459009754996,-0.00010664814027878254,0.001739415328148699,0.0012544436659014649,-0.04254444904769315,0.0033579336626280536,-0.009921006570461311,-0.0009266446983328051,0.3269917964935303,-1.1482870143703003,1.669326130543844,-2.0901972256102503,-1.571357552205221,2.301952838897705,-0.0010019930778071284,0.050779443234205246,0.04524370655417442,-0.08554906398057938,-9.744684211909771e-05,-9.746257273945957e-05,0.19153612852096558,-0.1149216741323471,-9.155426979064941,0.7396538853645325,47.686885833740234,-0.5598616600036621,-3.668069362640381,-1.4867382049560547,-0.846183717250824,-0.04391106963157654,-0.3053520917892456,24.9375,25.875,24.875,27.625,28.6875,29.25
1.0,-0.6939800129024343,-0.10827231548251554,-0.7960914049062242,-0.03647051265177991,0.017376403667520014,-0.07683282488821991,-0.5380757431916853,-0.32448845799012965,0.05569855787263811,-3.078658198327166,0.6247311271037954,-5.730986029574052e-05,0.0005089139356107473,0.00082743380433203,-0.04232452973810292,0.0018504627761019312,-0.005516758175353681,-0.0009209789349641741,0.3270038664340973,-1.1481909912875672,1.669387165700094,-2.090390821496481,-1.571357552205221,2.301952838897705,-0.0009927090723067522,0.05089519917964935,0.04578865319490433,-0.09086485952138901,-9.596440213499591e-05,-9.597790631232783e-05,0.17238251864910126,-0.13407529890537262,-9.174580574035645,0.7888899445533752,47.70838165283203,-0.6254552602767944,-3.602100372314453,-1.4879977703094482,-0.7928041219711304,-0.030179183930158615,-0.2849109172821045,24.9375,25.875,24.875,27.625,28.6875,29.25
1.0,-0.48293707630031174,-0.15685727443355865,-0.7788919808086946,-0.05564206964222293,0.040743406579906806,-0.08064096942715969,-0.5380543458892522,-0.32446564325230115,0.055593121236874654,-3.078596537434381,0.6247960205897984,-0.00018566847205262225,-0.0002950006854598774,0.0005352382654879536,-0.04228336964129691,0.0009383686961572107,-0.002856043279756891,-0.0008977601140191748,0.3269799053668976,-1.1480831068805237,1.6695063749896448,-2.0905233822264613,-1.571357552205221,2.3019771575927734,-0.000966733496170491,0.05123061314225197,0.045991186052560806,-0.0942155122756958,-9.452472295379266e-05,-9.45375650189817e-05,0.038307227194309235,0.038307227194309235,-9.251194953918457,0.8023208975791931,47.711063385009766,-0.5632798075675964,-3.6015939712524414,-1.3922911882400513,-0.7996046543121338,-0.03516516461968422,-0.2959694266319275,24.9375,25.875,24.875,27.625,28.6875,29.25
1.0,-0.8339885038558887,-0.6595711446053572,-0.8613100179369299,-0.07042881910809842,0.05106584341180843,-0.08456221016902236,-0.5380456691644095,-0.32445895379712353,0.055497314524780794,-3.0785778776799115,0.6247532989340636,-0.00022133129497686524,-0.0016700066599115546,5.7779595828476086e-05,-0.04264543381175677,-0.0010426387756147428,0.002930792958500423,-0.0009240865517684421,0.3269799053668976,-1.1479751032641907,1.6696150938617151,-2.0907069645323695,-1.571369473134176,2.301952838897705,-0.0009561071638017893,0.05162622407078743,0.048255324363708496,-0.10299178212881088,-9.312744077760726e-05,-6.091534305596724e-05,0.038307227194309235,0.09576806426048279,-9.308656692504883,0.7262282371520996,47.687782287597656,-0.6098175048828125,-3.6297950744628906,-1.5842055082321167,-0.7540773153305054,-0.045805737376213074,-0.3007512092590332,24.9375,25.875,24.875,27.625,28.6875,29.25
1.0,-1.3709245141907387,-1.0811202029814424,-1.029318455968468,-0.08125498507347821,0.050704414814179165,-0.07011915843132757,-0.5380690932580714,-0.3244594482646524,0.05543976208536189,-3.0786027988065507,0.6247393272161265,-8.973261339393513e-05,-0.0018792790464899432,-1.7260376774536108e-05,-0.04319041227867105,-0.0015465953722328173,0.004417624872338484,-0.0009492164132721515,0.3269799053668976,-1.147902862434723,1.669699494038717,-2.0909468136229457,-1.5713933149920862,2.30194091796875,-0.000948479340877384,0.05196119844913483,0.049816593527793884,-0.10645792633295059,-9.822928404901177e-05,-2.937665703939274e-05,-0.038307227194309235,0.13407529890537262,-9.346963882446289,0.7038487195968628,47.693153381347656,-0.6006280183792114,-3.6179161071777344,-1.5875284671783447,-0.7078711986541748,-0.028917118906974792,-0.29462504386901855,24.9375,25.875,24.875,27.625,28.6875,29.25
1.0,-1.4153564703949835,-1.43391292109356,-1.1077829756084945,-0.08661101182659275,0.05536080756505003,-0.0762711355664256,-0.5380485647206091,-0.32446398572564644,0.05533918700517165,-3.078582897821798,0.6247743593601952,-0.00016127117981098616,-0.0038656858072965592,-0.0006801541846174656,-0.04195331686781939,-0.003676090415287832,0.010665002434326777,-0.0009758494684087772,0.32699182629585266,-1.147795246248581,1.669819180165426,-2.091128488580221,-1.5713813940631312,2.3019771575927734,-0.0009703661780804396,0.05153428390622139,0.04876416176557541,-0.11157891154289246,-0.00010294080129824579,-2.6939658710034564e-05,-0.1149216815829277,0.26815059781074524,-9.385271072387695,0.6635612845420837,47.6707649230957,-0.6492014527320862,-3.5259132385253906,-1.540881872177124,-0.6512397527694702,-0.03753767907619476,-0.29402071237564087,24.9375,25.875,24.875,27.625,28.6875,29.25
1.0,-1.6327584909089823,-1.250006748085121,-1.1600978763366303,-0.08745625164217687,0.04134889063918945,-0.07497491896295352,-0.5380452219475428,-0.3244588906306554,0.05523116610428849,-3.0785911754249646,0.6247563992823376,-0.0001871229798795327,-0.004174268478470165,-0.0006951341578781398,-0.042587862592304966,-0.0043264499071349605,0.012561204324661165,-0.0011181467489089437,0.3269798457622528,-1.1476751130870362,1.6699517408954065,-2.0913692913451136,-1.571369473134176,2.301952838897705,-0.0011106091551482677,0.05188099667429924,0.05070137232542038,-0.11586746573448181,-0.00010188361193286255,-2.6413870727992617e-05,-0.1149216815829277,0.19153612852096558,-9.385271072387695,0.7396538853645325,47.66718673706055,-0.573278546333313,-3.5495526790618896,-1.6229660511016846,-0.5903602242469788,-0.03985247388482094,-0.2996026277542114,24.9375,25.875,24.875,27.625,28.6875,29.25
1.0,-1.0912135297320207,-1.1426668901919794,-1.1959092877992243,-0.08423041821297675,0.046085265582576425,-0.08211735474183249,-0.5380698023015773,-0.32445950085913533,0.05515273663945297,-3.0786241601620272,0.62474435769849,-0.00010768343728908257,-0.003805598458727579,-0.0005325155421242091,-0.04355860193720689,-0.003926811276757749,0.011487837017106815,-0.0011594477799076583,0.3269677758216858,-1.1475669902614136,1.6700361410724085,-2.0916205845274867,-1.571369473134176,2.301928997039795,-0.0011514397338032722,0.052778441458940506,0.05186981335282326,-0.11678837239742279,-0.0001350302336504683,-2.602348649816122e-05,-0.1149216815829277,0.26815059781074524,-9.366117477416992,0.7351769208908081,47.702110290527344,-0.5790220499038696,-3.528120517730713,-1.6592674255371094,-0.5497041940689087,-0.03342602774500847,-0.30012935400009155,24.9375,25.875,24.875,27.625,28.6875,29.25
1.0,-1.1002899824779373,-1.1016761080528792,-1.1983767632124993,-0.06923261736390086,0.029102824868188142,-0.075615576121257,-0.5380820055205149,-0.3244483141258225,0.05505953234677877,-3.078585785105373,0.6247560911786643,-5.354171522216471e-05,-0.0030882340437960428,0.0002108566794540631,-0.04485963810128885,-0.0031009637539212414,0.009151775197623984,-0.0019144105174437286,0.3269675076007843,-1.1474467676929017,1.6701319853412073,-2.0918485126891078,-1.5714176336871546,2.30194091796875,-0.0019062794744968414,0.053473785519599915,0.05392567813396454,-0.11706193536520004,-0.00016286499158013612,-2.5652063413872384e-05,0.019153613597154617,0.3447650372982025,-9.385271072387695,0.7799360156059265,47.71017074584961,-0.5472021102905273,-3.523313045501709,-1.7902109622955322,-0.5176931619644165,-0.03835231065750122,-0.28675684332847595,24.9375,25.875,24.875,27.625,28.6875,29.25
1.0,-1.0400757400988634,-0.9126517155610476,-1.3471136638767787,-0.05262024709416692,0.005887034708564574,-0.06670509074616836,-0.5380882715569801,-0.3244737554152377,0.054983752648061684,-3.078642965546787,0.6247294378100605,6.2274260389103e-06,-0.0023066821474837145,0.000516858175903368,-0.04501446891174853,-0.0018465375865206978,0.005468038312677021,-0.001974855892155822,0.3269914984703064,-1.147350774412491,1.6702268759356897,-2.092097898522848,-1.5713933149920862,2.30194091796875,-0.001968233846127987,0.05386959761381149,0.05264752358198166,-0.11228813230991364,-0.00015924015315249562,-2.5291576093877666e-05,0.019153613597154617,0.3064578175544739,-9.308656692504883,0.7105615139007568,47.70658874511719,-0.5673222541809082,-3.5753517150878906,-1.7140333652496338,-0.572706937789917,-0.03632202744483948,-0.30278676748275757,24.9375,25.875,24.875,27.625,28.6875,29.25
1.0,-0.22460684399986072,-0.31793373843663164,-1.0971347136865524,-0.03595433334481556,-0.007855173850313344,-0.07278136039923566,-0.5380800083858215,-0.3244592033003169,0.05487597246436496,-3.0786170770542745,0.6247817892265177,-7.193247910517685e-05,-0.0013011135110707844,0.0008419244388857131,-0.045899099866299406,-0.0008018281588719326,0.0024382933306870778,-0.0019413498586877288,0.3269675374031067,-1.1472306710532685,1.6703475157367151,-2.092288156548971,-1.5713813940631312,2.301952838897705,-0.001935306703671813,0.054370272904634476,0.053560834378004074,-0.11049731075763702,-0.0001690211647655815,-2.494114960427396e-05,0.07661445438861847,0.26815059781074524,-9.308655738830566,0.7620334029197693,47.674346923828125,-0.5742712020874023,-3.63212251663208,-1.695238471031189,-0.5815343260765076,-0.043575454503297806,-0.2861255407333374,24.9375,25.875,24.875,27.625,28.6875,29.25
1.0,0.19949174450603108,0.40262354774970877,-0.8875841923225012,-0.0324588679595043,-0.016272671606239974,-0.07908633610961674,-0.538104441609213,-0.3244560998571431,0.05481107648454109,-3.078638109728921,0.6248052183489177,3.227036077365742e-05,0.0003247485188453036,0.0012943468057098411,-0.04696836294377009,0.0008302484658650753,-0.002313110211043267,-0.0017772938002385337,0.326955646276474,-1.1471466583064576,1.670431915913717,-2.0925265751280726,-1.5713933149920862,2.301952838897705,-0.001772549469023943,0.054732855409383774,0.05469120293855667,-0.10696636140346527,-0.00017759350885171443,-2.4600290998932905e-05,0.13407528400421143,0.1149216815829277,-9.21288776397705,0.7172743082046509,47.68419647216797,-0.5552396178245544,-3.585177421569824,-1.7209389209747314,-0.6311237812042236,-0.043547920882701874,-0.28677132725715637,24.9375,25.875,24.875,27.625,28.6875,29.25
1.0,0.5455677340009688,0.5576784444035736,-0.9018376030964701,-0.030652923716693075,-0.012949173685999555,-0.08559211314233872,-0.5381050117492117,-0.32446013402192153,0.05471277514293263,-3.078640578832807,0.624844777968385,2.1864333025891883e-05,0.0005910952406482658,0.0013175358223735186,-0.04726356127647482,0.0013139094877350134,-0.003747152400560687,-0.0016751696740623277,0.3269556760787964,-1.147026465540268,1.6705392042743128,-2.0927535496153773,-1.5713813940631312,2.3019771575927734,-0.0016706918831914663,0.05535000190138817,0.054188817739486694,-0.10556773096323013,-0.0001728325878502801,-2.426860919513274e-05,0.2298433631658554,0.05746084079146385,-9.251194953918457,0.7195101380348206,47.693153381347656,-0.601556122303009,-3.6280391216278076,-1.670468807220459,-0.6524630784988403,-0.033576443791389465,-0.2936343848705292,24.9375,25.875,24.875,27.625,28.6875,29.25
