Tylouw/Master_Thesis_Code/test_recorded_data/trial_zebin_dev08/insertion_1_2026-01-26_10-29-23.csv
num_insertion,tcp_force_x[N],tcp_force_y[N],tcp_force_z[N],tcp_force_rx[Nm?],tcp_force_ry[Nm?],tcp_force_rz[Nm?],tcp_pose_x[m],tcp_pose_y[m],tcp_pose_z[m],tcp_pose_rx[rot_vec_x],tcp_pose_ry[rot_vec_y],tcp_pose_rz[rot_vec_z],tcp_velo_x[m/s],tcp_velo_y[m/s],tcp_velo_z[m/s],tcp_velo_rx[rot_vec_x/s],tcp_velo_ry[rot_vec_y/s],tcp_velo_rz[rot_vec_z/s],q1[rad],q2[rad],q3[rad],q4[rad],q5[rad],q6[rad],qd1[rad/s],qd2[rad/s],qd3[rad/s],qd4[rad/s],qd5[rad/s],qd6[rad/s],tool_acc_x,tool_acc_y,tool_acc_z,current_of_whole_robot[A],voltage_of_whole_robot[V],current_J1[A],current_J2[A],current_J3[A],current_J4[A],current_J5[A],current_J6[A],temp_J1[C],temp_J2[C],temp_J3[C],temp_J4[C],temp_J5[C],temp_J6[C]
1.0,1.534678352803572,1.4598738064844594,-0.8077536652268421,0.02192179746313245,-0.04050944839144612,-0.07661685323493304,-0.5379769488074646,-0.3244613590183276,0.05989926258193112,-3.0784731935397693,0.6250152531042206,-0.0003521953548918302,0.0005705648893629254,-0.0013259356491819422,-4.7093456874598895e-05,-0.0011894773878821996,0.004094495424390018,0.0025926564894504225,0.32701706886291504,-1.153197095995285,1.664581600819723,-2.080367227593893,-1.5713813940631312,2.302145004272461,0.0024399771355092525,-0.0016431439435109496,0.0038480297662317753,-0.00646378006786108,-0.00019575429905671626,-0.0001547940046293661,0.6129156351089478,-0.363918662071228,-9.404424667358398,0.7508436441421509,47.69853210449219,-0.15126818418502808,-4.561531066894531,-2.763035297393799,-0.3924294114112854,-0.016551965847611427,-0.3184434175491333,24.9375,25.875,24.8125,27.625,28.6875,29.1875
1.0,1.767684537268757,1.426190178809784,-0.7751812338903077,0.06090548812911721,-0.06194636574938074,-0.07574351582809044,-0.5379735437832119,-0.324475430649342,0.059901211245648456,-3.078510225416761,0.6249263229366461,-0.00030225489204130124,-0.0009923002915511088,-0.0014249845258078966,0.0011249979837321292,-0.0019249685867049264,0.0062276442340924104,0.0019683531693034328,0.32704079151153564,-1.1531969469836731,1.6645572821246546,-2.0803667507567347,-1.571357552205221,2.302133083343506,0.001766962232068181,-0.0012016032123938203,0.00041431342833675444,-0.005727986339479685,-0.00019057272584177554,-0.00020349294936750084,0.28730419278144836,-0.13407528400421143,-9.289502143859863,0.7777001857757568,47.711063385009766,-0.16823923587799072,-4.567562103271484,-2.592238426208496,-0.36297547817230225,-0.008623194880783558,-0.33061477541923523,24.9375,25.875,24.8125,27.625,28.6875,29.1875
1.0,0.5207710421877525,0.7324483449785698,-0.7908079936864575,0.03298190444320558,-0.044007777587660085,-0.07452878157642963,-0.5379581320554445,-0.324473852885042,0.05989992958520096,-3.0785064994063474,0.624906657525006,-0.000359503731112592,-0.0008673601345310573,-0.0011319444732697309,0.0012070123304054367,-0.0015793425495307064,0.005202445099353817,0.0016227213380447991,0.3270406723022461,-1.1532088977149506,1.6645687262164515,-2.0803309879698695,-1.571345631276266,2.302121162414551,0.0013788790674880147,-0.001298879156820476,5.558544216910377e-06,-0.0041400836780667305,-0.00018565855862107128,-0.0002453667693771422,0.0,-0.038307227194309235,-9.385271072387695,0.7351769208908081,47.692256927490234,-0.1455642282962799,-4.551398277282715,-2.528862237930298,-0.3884505033493042,-0.017359590157866478,-0.3341582119464874,24.9375,25.875,24.8125,27.625,28.6875,29.1875
1.0,-0.057641800935296125,-0.25651500171278374,-0.7151835934816881,-0.02818480303058262,0.02908706044230798,-0.07453682169950829,-0.5379802974935365,-0.3244813982978657,0.05993172117256068,-3.0785452012338475,0.6248954825234164,-0.0002635642186137976,-0.00027216178421208176,-0.0008722010369825963,0.0009073868286223241,-0.0008407539505997824,0.003026837657566941,0.001533322168232547,0.3270406424999237,-1.153232918386795,1.664532486592428,-2.08034147838735,-1.571345631276266,2.3021092414855957,0.0012896675616502762,-0.0011573173105716705,7.457495598828245e-08,-0.0019786127377301455,-0.0001809912355383858,-0.000244313501752913,-0.13407528400421143,0.13407529890537262,-9.404424667358398,0.7105615139007568,47.686885833740234,-0.17722295224666595,-4.147648334503174,-2.252192497253418,-0.43267208337783813,-0.021675070747733116,-0.34978872537612915,24.9375,25.875,24.8125,27.625,28.6875,29.1875
1.0,-2.094778199156507,-2.002874252137045,-0.5161382262248303,-0.06862560166420287,0.07421623069369353,-0.07751955652656999,-0.5379234123493,-0.3244733930370552,0.05988630409669879,-3.078472438909286,0.6249381820089793,-0.0004691279936604794,0.00038983078509280275,-0.0004223333654124275,0.0003428449874337385,-6.732408386726905e-05,0.0007492315840139607,0.0012127813771277743,0.32705244421958923,-1.1532208186439057,1.664604965840475,-2.0802813969054164,-1.5713337103473108,2.302156925201416,0.0009428033954463899,-0.000983355799689889,0.0006885959301143885,-0.0004357597790658474,-0.0001765529450494796,-0.00026990650803782046,-0.363918662071228,0.26815059781074524,-9.481039047241211,0.7620334029197693,47.66360092163086,-0.17997311055660248,-4.1191725730896,-2.2675118446350098,-0.5258845686912537,-0.011783475056290627,-0.36318159103393555,24.9375,25.875,24.8125,27.625,28.6875,29.1875
1.0,-2.1894257028239013,-1.812617866283193,-0.09502115236283568,-0.1056680955311419,0.11726313416589973,-0.07261544437518025,-0.5379586135834481,-0.32443899073875004,0.05990724141187989,-3.078461597933177,0.6249742760415041,-0.0004042335283620349,0.003649197230996732,0.0006137732686409337,-0.002911027492255752,0.0021986845212698287,-0.005897858713200255,0.001471012299001099,0.3269925117492676,-1.1532327693751832,1.6645715872394007,-2.0802699528136195,-1.571357552205221,2.3021209239959717,0.0010595802450552583,-0.0007108212448656559,0.007748166099190712,-0.0007451904239133,-0.0001723272434901446,-0.00041076025809161365,-0.3064578175544739,0.2298433631658554,-9.423578262329102,0.7687462568283081,47.6680793762207,-0.1890391707420349,-4.055739402770996,-2.643083095550537,-0.5465303659439087,-0.027889933437108994,-0.3523235321044922,24.9375,25.875,24.8125,27.625,28.6875,29.1875
1.0,-1.9161846327585192,-1.6439134734816407,-0.08130533844403554,-0.06518054580221809,0.09426923649601429,-0.06892048207592646,-0.5379667172299032,-0.32448488357749894,0.05995283322629977,-3.078534554299577,0.6248732437701732,-0.00022894920066250806,0.002099501740186268,-0.0004034250436755992,-0.0019636816659128523,0.0005287549883339325,-0.0010259737178189888,0.0023076047066923986,0.3270648121833801,-1.1532806319049378,1.6645458380328577,-2.080318590203756,-1.571369473134176,2.3021209239959717,0.001809367211535573,-0.00048608958604745567,0.006139347329735756,-0.004511252976953983,-0.00016829901142045856,-0.0004992230096831918,-0.2298433631658554,0.19153614342212677,-9.251194953918457,0.7351769208908081,47.723602294921875,-0.25709494948387146,-4.025040149688721,-2.5538363456726074,-0.5837036371231079,-0.026200078427791595,-0.3708263039588928,24.9375,25.875,24.8125,27.625,28.6875,29.1875
1.0,-0.22103752998544735,0.2123619583945649,0.04857477982111827,-0.010723377285857247,0.046406621049622225,-0.08606277716311213,-0.5379888288944195,-0.3244962079448508,0.059964324226544435,-3.0785970185247162,0.6248665421790405,-0.00010531776692746421,-0.001127223537618357,-0.001554278319667708,-0.0002515842898690922,-0.002722693597084618,0.00847132465205395,0.003297231092109142,0.3270648121833801,-1.1532925230315705,1.6645587126361292,-2.0804177723326625,-1.571357552205221,2.3021087646484375,0.0018815502990037203,-0.00042402721010148525,0.003964464645832777,-0.012437031604349613,-0.00016445433720946312,-0.0014200625009834766,-0.19153612852096558,0.2106897532939911,-9.155426979064941,0.7620334029197693,47.67255783081055,-0.2444622814655304,-3.949070930480957,-2.3648078441619873,-0.518705427646637,-0.015095733106136322,-0.37076321244239807,24.9375,25.875,24.8125,27.625,28.6875,29.1875
1.0,0.5479696783593843,1.430097901983211,0.07060350814319871,0.030003222341230824,-0.014814059422194754,-0.08200852818243591,-0.5380139858950076,-0.32445829032204093,0.05994853486820778,-3.078540581241807,0.6249891401794991,-0.00011441856488743329,-0.0033704493153825705,-0.0021399125588523332,0.0008949444294850802,-0.004864053901053171,0.01472515543612069,0.0037732012542131465,0.32700473070144653,-1.1532566112330933,1.6645448843585413,-2.080419202844137,-1.5713813940631312,2.3021323680877686,0.0016011933330446482,-0.0003792635106947273,0.002470416482537985,-0.017598213627934456,-0.0001607818267075345,-0.0021785972639918327,-0.17238251864910126,0.2106897532939911,-9.078812599182129,0.7754590511322021,47.702110290527344,-0.24154391884803772,-3.8303914070129395,-2.2040421962738037,-0.46248531341552734,-0.023658068850636482,-0.36321139335632324,24.9375,25.875,24.8125,27.625,28.6875,29.1875
1.0,1.219640774106416,1.5899058631118588,0.38959207916392374,0.031184904023092676,-0.02549414993847503,-0.08404151845184736,-0.5380165189375271,-0.3244939566872821,0.05996916124910784,-3.078614427387777,0.6248889598317156,-1.0625616174616083e-05,-0.003612085359905965,-0.00203073916077107,0.0008386270855852823,-0.0050430519112162515,0.01523505118471121,0.0038294086167345084,0.3270525634288788,-1.1532805424979706,1.6645448843585413,-2.0804788074889125,-1.571369473134176,2.3021082878112793,0.0013035485753789544,-0.0002677524462342262,0.0026259776204824448,-0.018405700102448463,-0.00015727008576504886,-0.0025327573530375957,-0.2106897532939911,0.19153612852096558,-8.96389102935791,0.7530794739723206,47.70390319824219,-0.23288658261299133,-3.864895820617676,-2.1360294818878174,-0.4540596902370453,-0.025403207167983055,-0.3424815833568573,24.9375,25.875,24.8125,27.625,28.6875,29.1875
1.0,0.519417806684255,0.7819174868237139,0.30051961325333,0.008391729583128619,-0.015187675282518196,-0.07497169554207463,-0.5380045703164272,-0.32450490585481,0.05994553326888094,-3.0786345952852545,0.624931528190096,-8.330267911689619e-05,-0.002937715877519024,-0.0016120790907974485,-6.96298616822677e-05,-0.00428503068848994,0.013003968920706778,0.003607828638157482,0.3270524740219116,-1.1532563728145142,1.664570156727926,-2.0805026493468226,-1.5713217894183558,2.3021321296691895,0.0010117196943610907,0.00029056932544335723,0.003755375510081649,-0.017736976966261864,-0.00015428874758072197,-0.0026025406550616026,-0.05746084079146385,-0.05746084079146385,-8.868123054504395,0.8537927865982056,47.71464920043945,-0.20546409487724304,-3.688498020172119,-2.0808498859405518,-0.4356647729873657,-0.01215270534157753,-0.3532774746417999,24.9375,25.875,24.8125,27.625,28.6875,29.1875
1.0,0.009841782227248366,0.14404795644865975,0.48231267850114695,-0.008071868036649554,0.02470440994850734,-0.07431384327334663,-0.5380177637868381,-0.32449026186383595,0.05993008787979362,-3.078610035854243,0.6249271474268959,-3.923225318796029e-05,-0.0022816572672991597,-0.0011071597176572237,-0.0018156273760616976,-0.00316600718401257,0.009628551212527573,0.0024172569138734353,0.3270403742790222,-1.1532316964915772,1.664581600819723,-2.080550333062643,-1.571357552205221,2.3021204471588135,0.0005641883471980691,0.002355157630518079,0.004720794502645731,-0.017211075872182846,-0.0001259505661437288,-0.0018589142709970474,0.05746084079146385,-0.2298433631658554,-8.829815864562988,0.7217512726783752,47.67703628540039,-0.202349454164505,-3.6972756385803223,-2.100116729736328,-0.4891525208950043,-0.023313069716095924,-0.3653942346572876,24.9375,25.875,24.8125,27.625,28.6875,29.1875
1.0,0.7613428081707911,1.2538912908035067,0.4848705383115454,0.0070795719755928615,0.013045509286634699,-0.08399977995922636,-0.5380468659496064,-0.3245039683453455,0.059960986670663685,-3.07867718657849,0.6249217625022199,9.756449715081146e-05,-0.003032776558374774,-0.0013123778644386047,-0.0014569439753442665,-0.0038370939073716155,0.011580435902653431,0.0023532872802151726,0.3270403742790222,-1.153255657558777,1.6645587126361292,-2.080611368218893,-1.571345631276266,2.3021085262298584,0.0004831019905395806,0.0024844370782375336,0.004080107435584068,-0.018763678148388863,-0.00012244220124557614,-0.0018767124274745584,0.13407529890537262,-0.2298433631658554,-8.791508674621582,0.7530794739723206,47.660911560058594,-0.16906598210334778,-3.686953544616699,-2.0064592361450195,-0.49408823251724243,-0.010535059496760368,-0.36527279019355774,24.9375,25.875,24.8125,27.625,28.6875,29.1875
1.0,1.07309386469004,1.3166287676509603,0.18025038318288175,0.049797798801334295,-0.025541755727673383,-0.07131548765917567,-0.5380588078325488,-0.32448117971209056,0.05994101016968384,-3.0786402101247576,0.6249526449071959,0.0001278184691804285,-0.0036304968842728845,-0.001480354670597287,-0.001120830746542538,-0.004504201353370172,0.013523813404661437,0.0027062673917578324,0.3270163834095001,-1.153231756096222,1.664581600819723,-2.0806595287718714,-1.5713813940631312,2.3021085262298584,0.00042583196773193777,0.002326948568224907,0.003933116793632507,-0.02051403559744358,-0.00011919383541680872,-0.0022877082228660583,0.2106897532939911,-0.1149216741323471,-8.791508674621582,0.6769921779632568,47.69673538208008,-0.16583791375160217,-3.6195573806762695,-1.9193880558013916,-0.4568300247192383,-0.030741272494196892,-0.3779033422470093,24.9375,25.875,24.8125,27.625,28.6875,29.1875
1.0,1.3005183558395972,1.3139832477972309,0.14653189831255087,0.05875323624530706,-0.05176347535543734,-0.071612075034137,-0.5380189579845422,-0.32449838249591884,0.05989758201069073,-3.0786300667081132,0.6248923888756296,-5.415696827768978e-06,-0.002905387340839852,-0.0012009530077421822,-0.0019791046873565057,-0.003979807505045701,0.012011222454060716,0.003615338958144222,0.3270522356033325,-1.1531956654838105,1.6646297613727015,-2.0806595287718714,-1.571357552205221,2.3021080493927,0.00038076163036748767,0.0025099515914916992,0.005700232926756144,-0.020863335579633713,-0.00012752528709825128,-0.0032417653128504753,0.2298433631658554,-0.07661445438861847,-8.868123054504395,0.7329410910606384,47.7244987487793,-0.20125889778137207,-3.5413711071014404,-1.959411859512329,-0.44179409742355347,-0.02830454334616661,-0.3464307487010956,24.9375,25.875,24.8125,27.625,28.6875,29.1875
1.0,1.100620340307402,0.8931237767763247,0.008029971496737578,0.0321265014112676,-0.05581162726123004,-0.07367984910863354,-0.538021408004645,-0.3244994858193271,0.05990557213113856,-3.0786401508963537,0.6248556315284587,7.57597207106895e-05,-0.0018085744452106132,-0.0008006382153738203,-0.003582455999521624,-0.0027832095703491985,0.008524526183015262,0.004227648623220936,0.32706427574157715,-1.1532191199115296,1.6646550337420862,-2.0807072124876917,-1.5713813940631312,2.302095890045166,0.0003443257010076195,0.0037981602363288403,0.007378069683909416,-0.02014325000345707,-0.00013506412506103516,-0.003889846382662654,0.24899697303771973,0.019153613597154617,-8.925583839416504,0.7195101380348206,47.660911560058594,-0.18936337530612946,-3.5166800022125244,-1.9552147388458252,-0.4198909401893616,-0.025027133524417877,-0.3459111452102661,24.9375,25.875,24.8125,27.625,28.6875,29.1875
1.0,0.9213686216264091,-0.13802070334760114,-0.10153212164680629,0.002640213141711806,-0.04216420599826234,-0.0743994553041259,-0.5380384147339607,-0.3244935356579189,0.0598842226052074,-3.078649138967266,0.6248580692751038,6.327129947541877e-05,-0.0006261582025277163,-0.0003732791285737256,-0.005266159331192369,-0.0012582608773598592,0.004094531642171582,0.003719187968673587,0.32704031467437744,-1.153170720939972,1.6646440664874476,-2.080742498437399,-1.571369473134176,2.302072286605835,0.0003142573987133801,0.005497438367456198,0.008381098508834839,-0.018160302191972733,-0.00014882248069625348,-0.0034102716017514467,0.26815059781074524,0.07661445438861847,-9.059659004211426,0.7262282371520996,47.64031219482422,-0.22817835211753845,-3.577028274536133,-2.0314841270446777,-0.4495212435722351,-0.02165895327925682,-0.3464217782020569,24.9375,25.875,24.8125,27.625,28.6875,29.1875
1.0,0.7972410926638266,-0.6205050798849956,-0.014302728621200567,-0.01947080749009447,-0.012198489274599735,-0.07003930378665045,-0.5380359196020928,-0.3244966217360108,0.059894725716707425,-3.078658162966066,0.6248213405528393,0.00010462910963404359,6.497102854245907e-06,-8.924505089979717e-05,-0.006125841272859774,-0.0003257765571419214,0.0014147484517596624,0.003310797290835933,0.32705220580101013,-1.1531942051700135,1.6646555105792444,-2.0807539425291957,-1.5713813940631312,2.302060127258301,0.0002178180729970336,0.006465567275881767,0.008612525649368763,-0.016522468999028206,-0.0001664869487285614,-0.0030974645633250475,0.19153612852096558,0.15322890877723694,-9.040505409240723,0.7441308498382568,47.705692291259766,-0.2094334363937378,-3.629704475402832,-1.992046594619751,-0.46655935049057007,-0.018082434311509132,-0.35967111587524414,24.9375,25.875,24.8125,27.625,28.6875,29.1875
1.0,0.5599778644934403,-0.5349175458751356,-0.1929356796914258,-0.02752860707119548,0.005582275634011674,-0.0750565612063718,-0.5380105660569838,-0.3245033062012241,0.059853730012418505,-3.0786483930536055,0.6248200263586896,3.831527823170897e-06,0.0006584287423869082,0.0001450937291130152,-0.006720457675359557,0.00022381247714555973,-0.00018969115887739377,0.0030032097212083415,0.3270642161369324,-1.1531582039645691,1.664703671132223,-2.080777784387106,-1.571357552205221,2.302072525024414,0.0002006651775445789,0.006573256105184555,0.009695473127067089,-0.016017023473978043,-0.00016801619494799525,-0.002806692151352763,0.2106897532939911,0.24899697303771973,-9.174580574035645,0.8247004151344299,47.725399017333984,-0.2428264319896698,-3.54815936088562,-1.94632089138031,-0.4834980368614197,-0.03856058046221733,-0.3463980555534363,24.9375,25.875,24.8125,27.625,28.6875,29.1875
1.0,0.15178258187272728,-0.2211255262518525,-0.238263622468157,-0.03199250087055809,0.0019130966041511314,-0.06908943718026606,-0.5380178997580676,-0.32447860403097456,0.059848448530934295,-3.0786249981080145,0.624853266616916,-2.893505074188978e-06,0.0007148555596886017,0.000446701321896668,-0.0071223832004995375,0.0006237785854334044,-0.0007301539364430611,0.002639079788955074,0.3270280957221985,-1.1531581741622468,1.664715592061178,-2.080777784387106,-1.571369473134176,2.302060127258301,-0.00013495306484401226,0.006956709548830986,0.010107646696269512,-0.016171617433428764,-0.00037265761056914926,-0.0027778171934187412,0.2106897532939911,0.24899697303771973,-9.327810287475586,0.6859408020973206,47.703006744384766,-0.1622539758682251,-3.4635472297668457,-2.0023860931396484,-0.4953605532646179,-0.02258688397705555,-0.34659022092819214,24.9375,25.875,24.8125,27.625,28.6875,29.1875
1.0,0.1623330659972586,-0.6147772939167527,-0.4562831471639549,-0.017878445298126062,-0.0056821817043651475,-0.07499891631527104,-0.5380066179696964,-0.32448277477321125,0.059811525774546875,-3.0785944448433953,0.6248086064751575,-3.33026279976214e-05,0.0009536049328076646,0.0005398970264705886,-0.007991798339426507,0.0008028876549641496,-0.0011597481958110474,0.002534615238162765,0.3270520567893982,-1.1531098943999787,1.6647403875934046,-2.0808145008482875,-1.5713933149920862,2.302060127258301,-0.00013747147750109434,0.007668209727853537,0.011445309035480022,-0.01775633543729782,-0.0004051363212056458,-0.002676195465028286,0.13407529890537262,0.28730422258377075,-9.232041358947754,0.7530794739723206,47.702110290527344,-0.18915250897407532,-3.4453237056732178,-2.0194895267486572,-0.48605409264564514,-0.01149303000420332,-0.3596118688583374,24.9375,25.875,24.8125,27.625,28.6875,29.1875
1.0,0.0028967305943909394,-1.0399954840073486,-0.5528300984181516,-0.010548422224079809,-0.021359307230715687,-0.06894233718596282,-0.5379955011267255,-0.32447098942319885,0.05979533828309566,-3.0785967346401373,0.6248092629180735,-0.00010107904044959377,0.0009538658278193643,0.0005237859769102344,-0.009103607569539618,0.0010017423187077038,-0.0018455877662797578,0.0025660554540419397,0.3270281255245209,-1.1531091791442414,1.6647761503802698,-2.0808149776854457,-1.571369473134176,2.3020362854003906,-0.00012787581363227218,0.009325736202299595,0.011997003108263016,-0.019252249971032143,-0.00037563388468697667,-0.0026983548887073994,0.17238251864910126,0.26815059781074524,-9.346963882446289,0.6948947906494141,47.693153381347656,-0.18865308165550232,-3.51664662361145,-1.9675507545471191,-0.47956156730651855,-0.03194834291934967,-0.34245753288269043,24.9375,25.875,24.8125,27.625,28.6875,29.1875
1.0,0.8376886693626964,-0.611991570333002,-0.5083979685829223,-0.03171521042185935,-0.008396987734610362,-0.07529521858544663,-0.5379792864594757,-0.32446952936253703,0.05978831694585149,-3.0785720799803356,0.6248040071848348,-5.588606575863407e-05,0.0009977047577837159,0.0005239527218679509,-0.009701310373550476,0.000969230123502485,-0.0018439519113497497,0.0027655292914640643,0.3270520865917206,-1.153133140211441,1.6648362318622034,-2.080863138238424,-1.5714057127581995,2.302060127258301,-0.0001193936332128942,0.009928563609719276,0.012842766009271145,-0.020713072270154953,-0.0003469335497356951,-0.002889803145080805,0.19153612852096558,0.2106897532939911,-9.366117477416992,0.7060845494270325,47.67882537841797,-0.20945335924625397,-3.502274990081787,-2.0238938331604004,-0.48124969005584717,-0.014392164535820484,-0.34530526399612427,24.9375,25.875,24.8125,27.625,28.6875,29.1875
1.0,0.07690962560947162,-0.8208654841148826,-0.49475783333637713,-0.03658664529753282,-0.023351569842989296,-0.07227891708672049,-0.5379961628027823,-0.3244672709314278,0.05974986690982906,-3.0785995253997105,0.6248477363556977,-0.00011066077407698537,0.0008600550679140018,0.00046400774774466556,-0.010029712220015837,0.0008065727285515036,-0.0014491827697400434,0.003071842597906756,0.3270162045955658,-1.1530610185912629,1.6648367086993616,-2.080923696557516,-1.571357552205221,2.3020479679107666,-0.00011196557898074389,0.010406638495624065,0.013208592310547829,-0.021983085200190544,-0.00032209945493377745,-0.0031891230028122663,0.2106897532939911,0.26815059781074524,-9.327810287475586,0.8157517910003662,47.68867492675781,-0.24576851725578308,-3.4449095726013184,-2.0140562057495117,-0.47514262795448303,-0.020001094788312912,-0.3465898036956787,24.9375,25.875,24.8125,27.625,28.6875,29.1875
1.0,0.11141415312710573,-0.8187357648266149,-0.4656040439021823,-0.03457171032043909,-0.009824838651100122,-0.06816478633658046,-0.5379873680843625,-0.32446851667000326,0.05972059057246054,-3.0785721555342125,0.6247658670251537,-0.0001154104666095674,0.0007779505213160094,0.0004336441579599918,-0.010880895759934747,0.000948419677903883,-0.00185075578304857,0.0029187022248824235,0.3270401656627655,-1.1530246597579499,1.6648605505572718,-2.080959459344381,-1.5713933149920862,2.3020243644714355,-0.00010540831863181666,0.011788549832999706,0.01349634025245905,-0.023226939141750336,-0.0003297816147096455,-0.0030296556651592255,0.15322890877723694,0.26815059781074524,-9.289502143859863,0.7888899445533752,47.68867492675781,-0.18879033625125885,-3.5829315185546875,-1.9792537689208984,-0.4703102111816406,-0.019262854009866714,-0.33511078357696533,24.9375,25.875,24.8125,27.625,28.6875,29.1875
1.0,-0.20055750302701142,-0.6102153690221985,-0.4726354068619362,-0.02527691402103314,-0.011093433357248052,-0.06433072805805248,-0.5379811952524817,-0.32447394611630503,0.059712900869346885,-3.078604559418747,0.6247725407521274,-0.00010070890731009482,0.0006018001000526077,0.0003717202539478885,-0.01073790047259583,0.0006558262547409729,-0.0009733854364972243,0.0024939209968779714,0.3270401656627655,-1.1530366104892273,1.664908234273092,-2.081020017663473,-1.571369473134176,2.3020243644714355,-9.957634756574407e-05,0.01154637336730957,0.013712345622479916,-0.024125462397933006,-0.00033607304794713855,-0.002599417231976986,0.15322890877723694,0.17238251864910126,-9.21288776397705,0.7620334029197693,47.685096740722656,-0.17428526282310486,-3.4948177337646484,-2.0288844108581543,-0.4683757424354553,-0.014362359419465065,-0.3402588367462158,24.9375,25.875,24.8125,27.625,28.6875,29.1875
1.0,0.5138733873864508,0.03642006354566338,-0.28704169571413224,-0.02759826200509972,0.010433182505441226,-0.08126089069416181,-0.537994205779279,-0.32446663039720797,0.05969384849079876,-3.078591383568273,0.6248277751072452,-0.00014328509676748944,0.0003638561539838106,0.00026537821764093124,-0.011163896493047384,0.0004958972212994572,-0.0007206015460135552,0.0022108657649141904,0.3270162045955658,-1.1529884201339264,1.664884392415182,-2.081020017663473,-1.571357552205221,2.3020365238189697,-9.435594256501645e-05,0.012430176138877869,0.013713712804019451,-0.025301579385995865,-0.0002686817024368793,-0.0023115775547921658,0.28730422258377075,0.26815059781074524,-9.327810287475586,0.6747510433197021,47.66449737548828,-0.23794913291931152,-3.465101718902588,-1.9562978744506836,-0.45431452989578247,-0.015082251280546188,-0.3406370282173157,24.9375,25.875,24.8125,27.625,28.6875,29.1875
1.0,0.08886354397921044,-0.08456769159592703,-0.4313719445244229,-0.006022725062245083,-0.00414447238127454,-0.07335242978121681,-0.5379639042997663,-0.3244758090616114,0.05963562601173597,-3.078583897153643,0.6246923183215886,-0.00019857988715250342,0.00019720554319869587,0.0001994133683778401,-0.011574788180614583,0.00036742516550854166,-0.0004059373156940422,0.0019112869318414054,0.3270520865917206,-1.1529402297786255,1.6649683157550257,-2.081104417840475,-1.571369473134176,2.3019888401031494,-8.965605229604989e-05,0.013108916580677032,0.013994955457746983,-0.026600858196616173,-0.0002506075834389776,-0.002007703762501478,0.17238253355026245,0.24899697303771973,-9.308656692504883,0.6702793836593628,47.6895751953125,-0.2277262806892395,-3.553799867630005,-1.9904205799102783,-0.46202439069747925,-0.010817518457770348,-0.3426521122455597,24.9375,25.875,24.8125,27.625,28.6875,29.1875
1.0,0.30404036002019375,0.33580895061302446,-0.18024565337945703,-0.014227020884580518,-0.006358320464211499,-0.07800650082469816,-0.5379876897215183,-0.3244759266300687,0.05964902734120592,-3.0786250031814517,0.6247773843600414,-0.0001191590969040218,5.820452653929831e-05,0.000138363716600814,-0.012114134818958544,0.00013725008917373434,0.00018454218521227856,0.0020011077040335144,0.3270281255245209,-1.1529279512218018,1.6650050322162073,-2.0812488994994105,-1.571357552205221,2.3020246028900146,-8.153314411174506e-05,0.013730863109230995,0.014822261407971382,-0.02868332713842392,-0.00022529729176312685,-0.0020901209209114313,0.1149216815829277,0.13407529890537262,-9.308655738830566,0.7463666796684265,47.725399017333984,-0.21770408749580383,-3.516779661178589,-2.0019443035125732,-0.43894338607788086,-0.02290760912001133,-0.34384870529174805,24.9375,25.875,24.8125,27.625,28.6875,29.1875
1.0,0.3935879407238726,0.2726055735292595,-0.1337868418697137,-0.01251393171261944,-0.008795700680311554,-0.07591639836118413,-0.5379646223859529,-0.32448011366120805,0.05959556772333327,-3.0785839603053953,0.6247303974674984,-0.00014133885995860118,-1.7985143539008216e-05,0.00010656439856453528,-0.012185766153993196,9.598690249326235e-05,0.00027001991425813847,0.002117856479514755,0.3270641267299652,-1.152903990154602,1.6650412718402308,-2.0812488994994105,-1.5713813940631312,2.3020246028900146,-7.799992454238236e-05,0.013938730582594872,0.014747239649295807,-0.028910480439662933,-0.00021455189562402666,-0.0022034074645489454,0.13407528400421143,0.0,-9.27034854888916,0.7172743082046509,47.743309020996094,-0.2811310887336731,-3.4913330078125,-1.9598219394683838,-0.45340216159820557,-0.010990329086780548,-0.34689414501190186,24.9375,25.875,24.8125,27.625,28.6875,29.1875
1.0,0.5581357747006537,0.008740613634639322,-0.11725772271023618,-0.004463459618332043,0.0007725835113705005,-0.07609924426030747,-0.5379795758832356,-0.3244887438194223,0.059565750091985614,-3.0786201333078265,0.624737669450414,-0.00015399008507068867,0.000319637160897202,0.00021649572568677885,-0.012845423451745046,0.0004955602478846637,-0.0009340794336424184,0.0023352689367933353,0.3270520865917206,-1.1528437298587342,1.6650412718402308,-2.081320901910299,-1.571345631276266,2.3020124435424805,-7.476018799934536e-05,0.014609755016863346,0.015297946520149708,-0.028863562270998955,-0.00020478584337979555,-0.002417420968413353,0.0,-0.05746084079146385,-9.289502143859863,0.7083203792572021,47.74509811401367,-0.20353087782859802,-3.576380968093872,-1.9704082012176514,-0.4516223669052124,-0.026049284264445305,-0.3386211395263672,24.9375,25.875,24.8125,27.625,28.6875,29.1875
1.0,0.338398207413455,0.01479266284528867,-0.16360521037806464,0.0025753439270148697,-0.0022803095054888768,-0.07535391152498004,-0.5379745912209292,-0.32445642008477804,0.059532976476354665,-3.078557141501289,0.6247826765797501,-0.0001474815685531148,0.00020113892493107133,0.0001715022707186356,-0.012417168317364528,0.00010785422033714146,0.00017817717459792624,0.0021756401407520094,0.3270281255245209,-1.1528320175460358,1.6651127974139612,-2.0813809833922328,-1.5713933149920862,2.3020246028900146,-7.177865336416289e-05,0.013787290081381798,0.015626680105924606,-0.029547804966568947,-0.00019587013230193406,-0.00225519435480237,0.05746084079146385,-0.05746084079146385,-9.327810287475586,0.7620334029197693,47.6734504699707,-0.23940148949623108,-3.4125516414642334,-1.9921066761016846,-0.4405192732810974,-0.028731785714626312,-0.3387680649757385,24.9375,25.875,24.8125,27.625,28.6875,29.1875
1.0,0.6876902935175075,0.4183106411827505,-0.19883959881967028,0.0014826194687397837,0.006738247538073395,-0.07699414893769436,-0.5379930967547284,-0.3244705613242253,0.05953355246427297,-3.0786071675693,0.6247162769359339,-5.1491053341007215e-05,0.0003367426484503394,0.00021286428898325876,-0.013454492328773809,0.0006586539097837288,-0.0014707010290060073,0.0020913317043045002,0.3270401656627655,-1.1528194111636658,1.6651127974139612,-2.0814644298949183,-1.5713933149920862,2.3019888401031494,-6.902601307956502e-05,0.015569349750876427,0.015474210493266582,-0.029438983649015427,-0.00018769783491734415,-0.0021678488701581955,0.038307227194309235,-0.019153613597154617,-9.27034854888916,0.7150384783744812,47.67882537841797,-0.25689518451690674,-3.5339155197143555,-1.9692251682281494,-0.4602329134941101,-0.0064353737980127335,-0.3395622968673706,24.9375,25.875,24.8125,27.625,28.6875,29.1875
1.0,0.6163490815861782,0.7145041525921637,-0.17971089670422585,-0.0007302225803352373,0.005578380888155797,-0.0806915405933169,-0.5379630329930241,-0.3244675757451253,0.05947865303741859,-3.0785850507509025,0.6247884951230622,-0.00021970744952562351,0.0006348761220857061,0.00031068696375627586,-0.013773764465984774,0.0007612877712970006,-0.0017944265519216375,0.001932931007395968,0.3270281255245209,-1.1527715188315888,1.665173355733053,-2.0814768276610316,-1.571345631276266,2.3020246028900146,-6.647684494964778e-05,0.015467084012925625,0.016464270651340485,-0.029987143352627754,-0.00018018104310613126,-0.0020070336759090424,0.07661445438861847,0.0,-9.308656692504883,0.7821771502494812,47.711063385009766,-0.2871719002723694,-3.4283742904663086,-1.9641809463500977,-0.4681520462036133,-0.017971720546483994,-0.3431670069694519,24.9375,25.875,24.8125,27.625,28.6875,29.1875
1.0,0.522572881574143,0.6516987885626031,-0.163437002347701,-0.008560108884071847,-0.003523582633689439,-0.08263755622720201,-0.5379909860460756,-0.324454321838589,0.059468192587092766,-3.078578268139712,0.6247679540904313,-0.00010047863202743065,0.0004397493744374694,0.00023995389993430814,-0.01417520027750543,0.0007902546337503905,-0.001907160833059388,0.0018470402290259834,0.3270162045955658,-1.1527471405318757,1.66518479982485,-2.0815726719298304,-1.5713933149920862,2.3020007610321045,-6.410907371900976e-05,0.01641925424337387,0.01617278717458248,-0.030531873926520348,-0.0001732543605612591,-0.0019188944716006517,0.07661445438861847,-0.019153613597154617,-9.289502143859863,0.6635612845420837,47.71464920043945,-0.2780594229698181,-3.533980369567871,-1.9057892560958862,-0.4668862819671631,-0.02593087963759899,-0.3466700315475464,24.9375,25.875,24.8125,27.625,28.6875,29.1875
1.0,-0.12586474698017913,0.33247846728158936,-0.2911443386507253,-0.006167755369253024,-0.014263672079345549,-0.07555769157963102,-0.5379717469319406,-0.3244901675940024,0.05943696537708726,-3.078630680814225,0.6246629311054815,-0.00013016484749270096,0.0010268751393568347,0.00043681652759259437,-0.015182209733044807,0.0014086654475156904,-0.0037421977740546264,0.0017312444481820512,0.3270641267299652,-1.1527109903148194,1.6652215162860315,-2.081644674340719,-1.571357552205221,2.301976442337036,-6.190410203998908e-05,0.017283981665968895,0.017254451289772987,-0.030541758984327316,-0.00016682097339071333,-0.0018006644677370787,0.019153613597154617,-0.05746084079146385,-9.232041358947754,0.6814691424369812,47.657325744628906,-0.27465999126434326,-3.4691238403320312,-2.004093647003174,-0.4881246089935303,-0.015546709299087524,-0.3419765830039978,24.9375,25.875,24.8125,27.625,28.6875,29.1875
1.0,0.31785420268877185,0.21202526047149675,-0.43866444343526545,-0.005975730259592236,0.0005549165331802676,-0.07928604826397198,-0.5379652404299103,-0.32448796110426925,0.05940407071478071,-3.0785998659000247,0.6246956412840081,-0.00019407647007848097,0.0006197748189489189,0.0002948027179967673,-0.014339185904419363,0.0008847014585613963,-0.002221667684548568,0.0018477763445329109,0.3270641267299652,-1.1526634258082886,1.6652324835406702,-2.081656118432516,-1.571357552205221,2.3020007610321045,-5.984582821838558e-05,0.016391469165682793,0.016599643975496292,-0.03060273826122284,-0.00016085608513094485,-0.0019153738394379616,0.038307227194309235,-0.038307227194309235,-9.136273384094238,0.6814691424369812,47.65016555786133,-0.2959698736667633,-3.473526954650879,-1.9131019115447998,-0.498115599155426,-0.018722746521234512,-0.3274795114994049,24.9375,25.875,24.8125,27.625,28.6875,29.1875
1.0,0.32448129818629656,0.1761429984016164,-0.32150594645402997,-0.0012694159788668264,0.00485364680133208,-0.08108440656847779,-0.5379300834653278,-0.324479927199741,0.059348015549812755,-3.078551867477466,0.6246667557387878,-0.0002989056032234511,0.00103687721293466,0.00043389139884333623,-0.015450362661940243,0.0013938268271050933,-0.0037373441848816916,0.0017403326278899885,0.3270760476589203,-1.1526268285563965,1.6653168837176722,-2.0816928348936976,-1.571369473134176,2.3020007610321045,-5.7920344261219725e-05,0.017579494044184685,0.01759953983128071,-0.031191788613796234,-0.00015530610107816756,-0.0018059506546705961,0.07661445438861847,0.019153613597154617,-9.21288776397705,0.7799360156059265,47.702110290527344,-0.26274970173835754,-3.482071876525879,-1.9257185459136963,-0.526126503944397,-0.019962530583143234,-0.33888232707977295,24.9375,25.875,24.8125,27.625,28.6875,29.1875
1.0,-0.20495231812055847,0.12121819484674218,-0.07928166599353004,0.0001339499917991495,-0.001518755475500059,-0.07033685097146819,-0.5379549886423062,-0.32449579490193475,0.059339759824945826,-3.0786447214152526,0.6246269525402582,-0.0002244777321322782,0.0012993885335293256,0.0005207485805429,-0.01576752685463798,0.0015006397816175125,-0.004065779400943701,0.0019232500271096121,0.3270641267299652,-1.152602956896164,1.6653292814837855,-2.0818120441832484,-1.5713217894183558,2.3019521236419678,-5.6114567996701226e-05,0.017552269622683525,0.018467813730239868,-0.031687453389167786,-0.00015012203948572278,-0.001987201627343893,0.05746084079146385,-0.019153613597154617,-9.251194953918457,0.6926589012145996,47.690467834472656,-0.2579597532749176,-3.3906631469726562,-1.9611586332321167,-0.531230628490448,-0.02894488349556923,-0.3389740586280823,24.9375,25.875,24.8125,27.625,28.6875,29.1875
1.0,0.29424436289421485,-0.17456514709698373,-0.11699203172639429,0.006012222539266143,0.010064850838065652,-0.0776074627790807,-0.5379590470350215,-0.3244936198589308,0.05931678478931221,-3.078618223921249,0.624602400094282,-0.00019634239114839087,0.001056177967599646,0.00046005980542682996,-0.01620543212346843,0.001471432260612951,-0.003924170615703561,0.0017766773877502208,0.3270760476589203,-1.1525665384582062,1.6653416792498987,-2.081860681573385,-1.571357552205221,2.3019521236419678,-8.125079330056906e-05,0.018496965989470482,0.018369996920228004,-0.032677795737981796,-0.00017048363224603236,-0.0018659891793504357,0.019153613597154617,-0.019153613597154617,-9.27034854888916,0.7508436441421509,47.67792892456055,-0.30048105120658875,-3.4716415405273438,-1.9364173412322998,-0.5470991730690002,-0.010939436964690685,-0.33268529176712036,24.9375,25.875,24.8125,27.625,28.6875,29.1875
1.0,-0.03574999268182778,0.42522816682409115,-0.14054541133081536,-0.012602517520940488,-0.0018026000660842176,-0.07313157540208527,-0.537975268126605,-0.3244603408573593,0.05929527490046968,-3.0786053756674323,0.624695739272446,-0.00018046744115197724,0.0015422674837416437,0.0006238890793825711,-0.017114731067228654,0.0019051800478549923,-0.005204910677126495,0.00172029164549137,0.3270162045955658,-1.1525544387153168,1.6653898398028772,-2.081932683984274,-1.571357552205221,2.3019521236419678,-7.922667282400653e-05,0.019174961373209953,0.019617563113570213,-0.033251166343688965,-0.0001686351461103186,-0.0018075830303132534,0.0,0.038307227194309235,-9.155426979064941,0.7217512726783752,47.6895751953125,-0.30340009927749634,-3.4755444526672363,-2.050062894821167,-0.5668485760688782,-0.01892855577170849,-0.31335246562957764,24.9375,25.875,24.8125,27.625,28.6875,29.1875
1.0,0.5029614304634598,0.14705837475087039,-0.05030804998207104,-0.008889275190079683,0.009913228911834635,-0.07692945474488498,-0.5379319340499316,-0.32447665371047035,0.0592275103001606,-3.078567409058895,0.6246115889996801,-0.000325699682616709,0.0012968210443212527,0.0005372355152121579,-0.016710986558643535,0.001567155286878755,-0.004227433280555209,0.0013327704855721249,0.3270641267299652,-1.1524826747230072,1.6654489676104944,-2.081956525842184,-1.571357552205221,2.301952362060547,-7.697295950492844e-05,0.01873004622757435,0.019408661872148514,-0.03363155946135521,-0.00016374202095903456,-0.0014180464204400778,0.019153613597154617,0.07661445438861847,-9.193734169006348,0.7530794739723206,47.68867492675781,-0.301636278629303,-3.484964370727539,-1.962026834487915,-0.5703437328338623,-0.02078421227633953,-0.32106471061706543,24.9375,25.875,24.8125,27.625,28.6875,29.1875
1.0,0.5304320286247843,0.47480596779824724,0.01656451007922441,-0.01574696883212213,0.0033141267542589857,-0.07981070033131044,-0.537942305162292,-0.3244764346448916,0.05921352132952837,-3.0785733938236146,0.6246518059071214,-0.00025156912361845216,0.001305283425960179,0.0005368996053083082,-0.017315450895774107,0.0016778576680316884,-0.004572190899359707,0.0010423454172633765,0.3270641267299652,-1.1524703067592164,1.6654852072345179,-2.082052846948141,-1.571369473134176,2.3019766807556152,-7.483945955755189e-05,0.019598310813307762,0.019766265526413918,-0.03449536859989166,-0.00015894249372649938,-0.001125678070820868,0.0,0.15322890877723694,-9.21288776397705,0.7888899445533752,47.7244987487793,-0.32277971506118774,-3.4599123001098633,-2.026582717895508,-0.603329598903656,-0.0247054360806942,-0.32791632413864136,24.9375,25.875,24.8125,27.625,28.6875,29.1875
1.0,0.5856122032143208,0.5334987874338376,-0.03181337715955155,-0.02076069962251606,0.0019507644417043335,-0.08469373073707347,-0.5379445239904289,-0.3244729800708182,0.05916791645436126,-3.0785883150719866,0.6246746277301126,-0.0003118120361464223,0.0005490690139845757,0.0002910298102362165,-0.017326307544813953,0.0009357886337542484,-0.002419851719281599,0.0008244852106624593,0.3270401656627655,-1.1524102252772828,1.6655214468585413,-2.082125803033346,-1.5713337103473108,2.3019649982452393,-9.675976616563275e-05,0.020104868337512016,0.019700244069099426,-0.03721250966191292,-0.0001544009573990479,-0.0009307638392783701,0.038307227194309235,0.1149216815829277,-9.289502143859863,0.7038487195968628,47.68240737915039,-0.32582390308380127,-3.46994686126709,-1.9745349884033203,-0.5943093299865723,-0.02307732030749321,-0.33655667304992676,24.9375,25.875,24.8125,27.625,28.6875,29.1875
1.0,0.6841974147217051,0.2609874740991742,-0.020523579882679104,-0.01919600118172974,0.002840456949171761,-0.07967051768754903,-0.5379687347131368,-0.32448522187017415,0.059177313450521934,-3.078617478019544,0.6246614558578044,-0.0002051972874788023,0.0005825037915538889,0.00029973983767231594,-0.017295667057879948,0.0008299678374552598,-0.002121451718604229,0.0006891541723229003,0.3270520865917206,-1.1523984533599396,1.665497128163473,-2.0821849308409632,-1.571345631276266,2.3019649982452393,-9.454021346755326e-05,0.019839834421873093,0.02010096237063408,-0.03766477853059769,-0.00015010865172371268,-0.0007934158784337342,0.07661445438861847,0.17238251864910126,-9.251194953918457,0.6993717551231384,47.71554183959961,-0.3603346049785614,-3.3473782539367676,-1.9257800579071045,-0.6069996953010559,-0.023732036352157593,-0.3164162039756775,24.9375,25.875,24.8125,27.625,28.6875,29.1875
1.0,0.41103233520954086,-0.06891140499809678,-0.17832923789413316,-0.014043205420386177,-0.0074989363778643695,-0.06847666472511524,-0.5379303439483865,-0.3244724163284748,0.05906182831831133,-3.0785591432939263,0.6246303153489118,-0.00030184257657218315,0.001700580450530733,0.0006902573136019321,-0.018935519408282975,0.002133894288808569,-0.005971083044213203,0.0004917271723965785,0.3270641267299652,-1.152301864033081,1.6656649748431605,-2.0823642216124476,-1.571369473134176,2.3019649982452393,-0.00011224688205402344,0.021345220506191254,0.021454617381095886,-0.036459363996982574,-0.00014219437434803694,-0.000612841744441539,0.19153612852096558,0.1149216815829277,-9.21288776397705,0.6881819367408752,47.68240737915039,-0.35766172409057617,-3.423548698425293,-2.0119309425354004,-0.6892419457435608,-0.022494759410619736,-0.31514137983322144,24.9375,25.875,24.8125,27.625,28.6875,29.1875
1.0,0.2484349878363471,-0.13228483852225836,-0.2821841124956035,-0.014447069853863487,-0.01695515498785837,-0.07104943697151117,-0.5379520891823869,-0.324468254502021,0.05905683614824436,-3.0785594983469755,0.6246688376988563,-0.0002434876723355473,0.0011851234124934547,0.000536768583410158,-0.018954896190710304,0.0015478904660934975,-0.004270438065362577,0.0004702744179790273,0.3270520567893982,-1.152277873163559,1.6656540075885218,-2.0824133358397425,-1.5713813940631312,2.3019769191741943,-0.00014915507927071303,0.02156337909400463,0.021706944331526756,-0.038728635758161545,-0.0001385455543641001,-0.0006291629397310317,0.15322890877723694,0.13407528400421143,-9.174580574035645,0.6948947906494141,47.72718811035156,-0.33065974712371826,-3.401710033416748,-1.9818520545959473,-0.6561686992645264,-0.027961060404777527,-0.319126695394516,24.9375,25.875,24.8125,27.625,28.6875,29.1875
1.0,0.2085003186043914,-0.18107223377395495,-0.21512504048261502,-0.008539684569004733,-0.0203101559566362,-0.06666244528005351,-0.5379437638851114,-0.3244616634590543,0.059002427266604485,-3.0785437562243922,0.6246075579266513,-0.00028099319607634266,0.0008937313328723201,0.00045226407896693604,-0.018703168293027383,0.0011401327892462127,-0.003086444851638751,0.00039756884981529756,0.3270520567893982,-1.1522180301002045,1.665713135396139,-2.0824977360167445,-1.5713933149920862,2.301940679550171,-0.00017394738097209483,0.021265922114253044,0.021784378215670586,-0.039760854095220566,-0.00013507962285075337,-0.0005817092605866492,0.13407529890537262,0.038307227194309235,-9.251194953918457,0.7665104269981384,47.70390319824219,-0.3491833806037903,-3.431178092956543,-1.9808499813079834,-0.7008056640625,-0.013945117592811584,-0.31027817726135254,24.9375,25.875,24.8125,27.625,28.6875,29.1875
1.0,1.2166701907279458,0.4613618631349593,-0.16475082850444778,-0.02165112090053436,-0.000989699077677291,-0.08856424049538662,-0.5379383908607829,-0.3244596604720899,0.0589481738136475,-3.078532698343798,0.6246435945200213,-0.0003654969225498514,0.0004198433381664024,0.0003024692974768169,-0.01883072918287683,0.0006764404862096905,-0.0017440348275515832,0.00032764444231205914,0.3270401358604431,-1.1521459382823487,1.6657493750201624,-2.082557817498678,-1.571369473134176,2.301952600479126,-0.00019457805319689214,0.021724198013544083,0.021883027628064156,-0.04173799231648445,-0.00013178985682316124,-0.0005331322900019586,0.15322890877723694,0.1149216815829277,-9.232041358947754,0.7463666796684265,47.74509811401367,-0.3384094834327698,-3.4079880714416504,-1.8858442306518555,-0.696293294429779,-0.010607217438519001,-0.31009384989738464,24.9375,25.875,24.8125,27.625,28.6875,29.1875
1.0,0.7645865814079643,0.2884975888521716,-0.2741960945211961,-0.01460156627505886,-0.011461718923394367,-0.0771986227822936,-0.5379570170079828,-0.3244542587986881,0.0589346821984017,-3.0785599721034793,0.6246493935402346,-0.0003279796518660223,0.0010805476173350807,0.000525106684614366,-0.01984123242434709,0.0014193953856794254,-0.003934054500444908,0.000289202823954954,0.3270161747932434,-1.1521215301803132,1.6657622496234339,-2.0826298199095667,-1.571357552205221,2.301928758621216,-0.00019184831762686372,0.022622406482696533,0.02281538024544716,-0.04125593975186348,-0.00012864898599218577,-0.0004915413446724415,0.1149216815829277,0.17238251864910126,-9.193734169006348,0.6837049722671509,47.69136428833008,-0.34208476543426514,-3.3805384635925293,-1.9617178440093994,-0.7356639504432678,-0.021084126085042953,-0.3129701018333435,24.9375,25.875,24.8125,27.625,28.6875,29.1875
1.0,0.7786642205220118,0.43798208989333787,-0.16435869548569365,-0.0108362636800669,-0.009866980739935024,-0.07911660194988954,-0.5379532314997556,-0.32441832185794234,0.05887338212494192,-3.078469980526128,0.6247857985920785,-0.00038108569454516056,0.0014802067218512467,0.0006790919404102195,-0.020466275545326675,0.001915174985821844,-0.005342576803769867,0.00023403793214599733,0.3269801735877991,-1.1520614486983796,1.6658337751971644,-2.082701345483297,-1.5713933149920862,2.3019893169403076,-0.00021175012807361782,0.02321506291627884,0.023320013657212257,-0.04086005315184593,-0.0001438401232007891,-0.00045594078255817294,0.15322890877723694,0.2298433631658554,-9.21288776397705,0.7441308498382568,47.70748519897461,-0.3748762011528015,-3.344865560531616,-2.0344741344451904,-0.784903883934021,-0.011761060915887356,-0.32485678791999817,24.9375,25.875,24.8125,27.625,28.6875,29.1875
1.0,1.1393866407509567,0.8164021829790742,-0.11644468305757236,-0.01821039998363198,-0.003076528827441488,-0.09019537570228396,-0.537948135439058,-0.3244627644924083,0.058854744232133105,-3.078559296305883,0.6247074529769028,-0.0003364904980386385,0.0009882369854371884,0.0005074888518148327,-0.020428245870686583,0.0012875080531443935,-0.0035087431597527283,0.00020738262550019638,0.3270280957221985,-1.1520374876311799,1.6658700148211878,-2.082822462121481,-1.571345631276266,2.3019769191741943,-0.00020669936202466488,0.02327667362987995,0.02368168532848358,-0.04322158172726631,-0.0001430837291991338,-0.00042515178211033344,0.13407529890537262,0.2298433631658554,-9.251194953918457,0.7933669090270996,47.71196365356445,-0.33757632970809937,-3.36295747756958,-1.8926637172698975,-0.7786851525306702,-0.036463767290115356,-0.3019941747188568,24.9375,25.875,24.8125,27.625,28.6875,29.1875
1.0,0.31334179430430187,-0.282783141628251,-0.3007454778547443,-0.002971029281934375,-0.009155962186779415,-0.07199213088529009,-0.5379024861739752,-0.32443965678985415,0.058759713669851,-3.07847029790201,0.6247091890007139,-0.0004959710594796333,0.00016600207517056446,0.00022181054235421318,-0.020019000750436798,0.00043659354412716155,-0.001029264987419167,0.0001853309368694179,0.3270280957221985,-1.151965544824936,1.6660016218768519,-2.0828944645323695,-1.571369473134176,2.3019893169403076,-0.0002009440795518458,0.02329084277153015,0.023230019956827164,-0.045405518263578415,-0.00014006649143993855,-0.00039826068677939475,0.13407529890537262,0.1149216741323471,-9.289502143859863,0.7396538853645325,47.656429290771484,-0.282861590385437,-3.3423948287963867,-1.8631662130355835,-0.7877504229545593,-0.026146456599235535,-0.29521578550338745,24.9375,25.875,24.8125,27.625,28.6875,29.1875
1.0,0.30566106602967885,-0.19992150818398963,-0.25551037092039874,-0.013137968991659999,-0.003216721230051428,-0.07950545343741232,-0.5379175013744096,-0.3244606217231734,0.0587435810111156,-3.078488762913374,0.6246353567152265,-0.000413067724833056,7.769961035587839e-05,0.00018696880549790704,-0.020295609424109004,0.00040448884476256404,-0.0009481385250438922,0.00016689442862049248,0.3270640969276428,-1.1519174140742798,1.665990177785055,-2.0829783878722132,-1.5713933149920862,2.3019769191741943,-0.00019548849377315491,0.02376667782664299,0.023348646238446236,-0.04608713462948799,-0.00013703189324587584,-0.00037457086727954447,0.19153612852096558,0.05746084079146385,-9.327810287475586,0.7687462568283081,47.68867492675781,-0.35979193449020386,-3.3541007041931152,-1.8694956302642822,-0.8066603541374207,-0.024093404412269592,-0.31386691331863403,24.9375,25.875,24.8125,27.625,28.6875,29.1875
1.0,-0.17429419903206478,0.11267416932006089,-0.3381555591817436,-0.0236454284854301,-0.012225393273816264,-0.06651461070729066,-0.5378905414757094,-0.32444341729680803,0.058688064715447796,-3.0784751905086716,0.6246519773278335,-0.0005142207099654053,0.0003789918775969786,0.0002852749864614269,-0.021245403315610797,0.000649427948705924,-0.0016805735172038742,0.00015074760815787672,0.3270401358604431,-1.151893065576889,1.666098419819967,-2.083050390283102,-1.571369473134176,2.3019649982452393,-0.00019032119598705322,0.024612143635749817,0.024634933099150658,-0.047446589916944504,-0.00013411405961960554,-0.0003535399737302214,0.05746084079146385,0.2106897532939911,-9.346963882446289,0.7284641265869141,47.69673538208008,-0.38605809211730957,-3.3148269653320312,-1.9620425701141357,-0.8283526301383972,-0.014309447258710861,-0.3067612648010254,24.9375,25.875,24.8125,27.625,28.6875,29.1875
1.0,0.4271019978693273,-0.16130229649371405,-0.3479973433428083,-0.014415703743320067,0.003365243326997198,-0.07427781474430316,-0.5379305792330829,-0.32443754754964693,0.05863952880456688,-3.0784982610156106,0.6247148505464692,-0.0004578564396397491,-0.00014581696405264753,0.00010155590328256322,-0.02158608030698727,0.00018136199039605485,-0.0003264596799857493,0.00013600757730080945,0.3270041346549988,-1.1517968338778992,1.666109863911764,-2.0832067928709925,-1.571357552205221,2.3019652366638184,-0.00018541999452281743,0.025441283360123634,0.02480209618806839,-0.04987560957670212,-0.00013131406740285456,-0.00033474815427325666,0.1149216815829277,0.19153612852096558,-9.366117477416992,0.7418897151947021,47.693153381347656,-0.3630898892879486,-3.322848320007324,-1.9289026260375977,-0.8339277505874634,-0.027334831655025482,-0.30784428119659424,24.9375,25.875,24.8125,27.625,28.6875,29.1875
1.0,0.040787856546000444,-0.21087299897539452,-0.44840594449175863,-0.013702821198247356,-0.0008481322239931172,-0.06898977907698,-0.5379203146634811,-0.3244343315996123,0.05859198450725783,-3.0784780572870862,0.6246524464755668,-0.00047054180408029485,-0.0005904005840002905,-5.4434980648130355e-05,-0.021743971575034098,-0.00022700248229735862,0.0008557646633610581,0.00012311856934922399,0.3270161747932434,-1.1517487627318879,1.6661699453936976,-2.0832916698851527,-1.5713813940631312,2.30194091796875,-0.0001807647931855172,0.025974594056606293,0.02482779137790203,-0.051685381680727005,-0.0001286379701923579,-0.0003178530605509877,0.17238251864910126,0.13407529890537262,-9.21288776397705,0.7799360156059265,47.693153381347656,-0.3650486469268799,-3.2903995513916016,-1.883678674697876,-0.839911937713623,-0.01828143000602722,-0.30288946628570557,24.9375,25.875,24.8125,27.625,28.6875,29.1875
1.0,0.2826540030553823,-0.11709360084226024,-0.3857180787867871,-0.014503965287561324,0.010492615823977577,-0.07425268424311578,-0.5379060686462123,-0.32444095075380924,0.05853769951979482,-3.078483343892143,0.6246536988706464,-0.0004934081035830947,-0.001793097051839285,-0.00035087412588214937,-0.021549470402331124,-0.0016483082599275496,0.005004081167441832,-7.21024722054116e-05,0.3270280361175537,-1.151700810795166,1.6662538687335413,-2.0834137401976527,-1.571369473134176,2.301952838897705,-0.00035873649176210165,0.026050643995404243,0.02542446181178093,-0.05674314498901367,-0.00012606415839400142,-0.0003025818441528827,0.17238251864910126,0.2106897532939911,-9.308656692504883,0.7127973437309265,47.6949462890625,-0.3404484987258911,-3.280616521835327,-1.9164760112762451,-0.820515513420105,-0.030323036015033722,-0.30136168003082275,24.9375,25.875,24.8125,27.625,28.6875,29.1875
1.0,0.5711446844260168,0.39721290118951,-0.3571658178177154,-0.033071765698829664,0.02193849745566165,-0.08863927483792342,-0.5379148542837464,-0.32444396727950015,0.05851331741355026,-3.0784873708498446,0.624693533630221,-0.00046184501154404643,-0.0018346612748994435,-0.00036899120952024256,-0.02171007964894787,-0.0019100895343657862,0.005762604430407287,-8.173388403636252e-05,0.3270280361175537,-1.1516650182059784,1.6662781874286097,-2.0834971867003382,-1.571369473134176,2.3019771575927734,-0.00035392475547268987,0.025933178141713142,0.026306603103876114,-0.05831024423241615,-0.0001235911768162623,-0.0002887114242184907,0.019153613597154617,0.1149216815829277,-9.423578262329102,0.7396538853645325,47.703006744384766,-0.37479034066200256,-3.266331672668457,-1.9299131631851196,-0.7722988128662109,-0.02477337419986725,-0.32079455256462097,24.9375,25.875,24.8125,27.625,28.6875,29.1875
1.0,0.3780493259862031,-0.5938607693362178,-0.43563680078816847,-0.019530039435952117,0.028985839573228825,-0.07882499824891682,-0.5379364404368344,-0.32443989638177795,0.05849516045535669,-3.0784919357287466,0.6246363424914156,-0.00036802755817723565,-0.002305767833213464,-0.0005475973485500289,-0.022077459420999344,-0.002331811130301298,0.006982540768630203,-6.966891713153532e-05,0.3270280361175537,-1.151628629570343,1.666290585194723,-2.0835939846434535,-1.5714057127581995,2.30194091796875,-0.0003284048580098897,0.02676020935177803,0.02651425078511238,-0.06063569709658623,-0.00012121324107283726,-0.0002760570787359029,0.05746084079146385,0.15322890877723694,-9.442731857299805,0.7306999564170837,47.66539001464844,-0.3621424436569214,-3.2989883422851562,-1.9183598756790161,-0.806495189666748,-0.015427416190505028,-0.30180856585502625,24.9375,25.875,24.8125,27.625,28.6875,29.1875
1.0,-0.09181961295613458,-0.6398314515973753,-0.6146496452591341,-0.02187766748685533,0.02218622667733717,-0.07075120246278953,-0.5379363183686013,-0.32444380531092243,0.058434266393257994,-3.078496116916889,0.6246762619475728,-0.00037483700478342023,-0.003313795222397525,-0.0009074325527282674,-0.021955791871979945,-0.00346184539641048,0.010278149169314703,-6.047430018686021e-05,0.3270280361175537,-1.151556597357132,1.666361157094137,-2.083738943139547,-1.5713933149920862,2.3019652366638184,-0.00030606816289946437,0.02709081396460533,0.02667817287147045,-0.0646141842007637,-0.00011892124166479334,-0.00026446583797223866,0.07661445438861847,0.13407528400421143,-9.442731857299805,0.7553206086158752,47.66001510620117,-0.3965790867805481,-3.3080644607543945,-1.9217376708984375,-0.7636390924453735,-0.013184688054025173,-0.3066491484642029,24.9375,25.875,24.8125,27.625,28.6875,29.1875
1.0,-0.19824455563978566,-0.359900934792589,-0.3870419826031772,-0.034133361270722674,0.022127183905417486,-0.07552669096011616,-0.5379169827665485,-0.3244639015102623,0.05837965055521227,-3.078541205928497,0.6246853829368284,-0.00043708832282970733,-0.004271045783215532,-0.0012601771395664004,-0.022567052583452787,-0.0046028305793571695,0.013593452146421553,-4.6373103375355176e-05,0.3270280659198761,-1.1514122051051636,1.6664941946612757,-2.0840159855284632,-1.571369473134176,2.3019652366638184,-0.0002694121503736824,0.028170565143227577,0.027869340032339096,-0.07039123773574829,-0.0001145985079347156,-0.00024397845845669508,0.019153613597154617,0.2298433631658554,-9.519346237182617,0.7866488099098206,47.68867492675781,-0.41447556018829346,-3.3326616287231445,-1.890509843826294,-0.6904171705245972,-0.01466396450996399,-0.3126766085624695,24.9375,25.875,24.8125,27.625,28.6875,29.1875
1.0,0.0734735259310041,-0.11474504254015082,-0.305399769850793,-0.037854836604767524,0.03385822429462851,-0.08359165564724887,-0.5379442366834339,-0.32446572365238174,0.05829189150172709,-3.0785643408866714,0.624651188198261,-0.00032138610839258376,-0.005310797600832691,-0.001626402870842325,-0.022676555882930167,-0.005589400769937888,0.01646560599786069,-4.167301818047299e-05,0.3270401060581207,-1.1513879162124177,1.666541878377096,-2.084149023095602,-1.571357552205221,2.301952838897705,-0.0002541911380831152,0.029055392369627953,0.02774558961391449,-0.07418917864561081,-0.00011255108256591484,-0.00023488065926358104,-0.019153613597154617,0.19153612852096558,-9.500192642211914,0.6814691424369812,47.73255920410156,-0.3775123357772827,-3.327183246612549,-1.9361076354980469,-0.6451192498207092,-0.03461320325732231,-0.30530670285224915,24.9375,25.875,24.8125,27.625,28.6875,29.1875
1.0,0.32284868217834883,0.0761971600796102,-0.31565195785976824,-0.03476176095387513,0.03622194437406538,-0.08813487878652247,-0.5379526670668152,-0.3244570550077113,0.05823107811935321,-3.078537475238881,0.6247040238884979,-0.0003274166595183303,-0.0060830421095041335,-0.001899719884002043,-0.02246411339139339,-0.006478065901876689,0.019058785237489585,-3.7685685562621675e-05,0.3270280659198761,-1.1513041120818635,1.6665905157672327,-2.0842701397337855,-1.571369473134176,2.3019771575927734,-0.00024060008581727743,0.02913283370435238,0.027807598933577538,-0.07706985622644424,-0.00011057549272663891,-0.000226437536184676,-0.038307227194309235,0.19153612852096558,-9.404424667358398,0.6725152134895325,47.694053649902344,-0.4449666738510132,-3.2674105167388916,-1.8770564794540405,-0.6157012581825256,-0.029306024312973022,-0.300596684217453,24.9375,25.875,24.8125,27.625,28.6875,29.1875
1.0,0.05633816191110285,0.12008219989968577,-0.18193966126002112,-0.03103232324040039,0.024484205134431912,-0.08921654747124132,-0.5379438507378669,-0.32447339374457757,0.058159178327222505,-3.07855510355104,0.6246693046332911,-0.00033730643864117145,-0.006369606339012629,-0.0019804260904050606,-0.02272273000369644,-0.00676032853723157,0.01987320679037669,-7.41466269763494e-05,0.3270520269870758,-1.1512200099280854,1.6666744391070765,-2.084437986413473,-1.571357552205221,2.3019771575927734,-0.0002686345251277089,0.02961556985974312,0.0280922781676054,-0.07869920879602432,-0.00010866817319765687,-0.00021857998217456043,-0.019153613597154617,0.17238251864910126,-9.385271072387695,0.7239871025085449,47.674346923828125,-0.44592562317848206,-3.2854690551757812,-1.9038231372833252,-0.5693056583404541,-0.02654321677982807,-0.3155093789100647,24.9375,25.875,24.8125,27.625,28.6875,29.1875
1.0,0.6763416351369612,0.5652705570925316,-0.09731572696554759,-0.03732488328714571,0.029643371491466855,-0.08891647810685542,-0.5379958219851048,-0.3244600665918005,0.058154969535581275,-3.0786226025913286,0.6247018571697422,-0.00014264747115511018,-0.006325161586554621,-0.0019709064406425044,-0.023332586821960682,-0.006623801094023073,0.019464928228171217,-7.376945319764462e-05,0.3270041048526764,-1.1512077313712616,1.6667102018939417,-2.0846296749510707,-1.571357552205221,2.30194091796875,-0.0002607526257634163,0.03045465424656868,0.028493331745266914,-0.07950885593891144,-0.00010682566789910197,-0.00021124928025528789,0.019153613597154617,0.07661445438861847,-9.404424667358398,0.7597975730895996,47.703006744384766,-0.4529937505722046,-3.3077569007873535,-1.9168332815170288,-0.5479869842529297,-0.026997003704309464,-0.31528323888778687,24.9375,25.875,24.8125,27.625,28.6875,29.1875
1.0,0.3968757889228459,0.7654749808795034,0.03782724561588828,-0.03102917885116035,0.011941168267240187,-0.09032376520803566,-0.5379949821366349,-0.32447940240631074,0.05809629999071925,-3.078621761775484,0.6246829983733182,-0.00011849574914756107,-0.005816485748842286,-0.0018056863285418696,-0.023661591072049175,-0.006105597374698276,0.017940630609991366,-6.816964932356123e-05,0.3270401060581207,-1.1511237782290955,1.6667588392840784,-2.08477320293569,-1.571369473134176,2.3019652366638184,-0.000248806580202654,0.030553067103028297,0.028840914368629456,-0.07834488153457642,-0.00010504438978387043,-0.00020439499348867685,-0.038307227194309235,0.13407528400421143,-9.346963882446289,0.7060845494270325,47.6895751953125,-0.46742939949035645,-3.307360887527466,-1.815335750579834,-0.5291818976402283,-0.0261246208101511,-0.2865099310874939,24.9375,25.875,24.8125,27.625,28.6875,29.1875
1.0,0.39778110044355314,0.31890121302695573,-0.2283073904893213,-0.006913186766477238,-0.003445763193073632,-0.07310905420813137,-0.5380055381267135,-0.32448303206813245,0.058049004079425814,-3.0786436358993146,0.6247265181319538,-3.8165623995168915e-05,-0.004967601941689722,-0.0015010675647369534,-0.024921322565421043,-0.004994111180881667,0.014674234200311777,-9.772897462430582e-05,0.3270401060581207,-1.1510753494552155,1.6668418089496058,-2.084963937798971,-1.571369473134176,2.3019895553588867,-0.0002727927058003843,0.03189157322049141,0.029512125998735428,-0.07690427452325821,-0.00010332178499083966,-0.00019797128334175795,0.038307227194309235,0.15322890877723694,-9.289502143859863,0.7195101380348206,47.718231201171875,-0.43891364336013794,-3.2599892616271973,-1.8334242105484009,-0.5274326801300049,-0.030550803989171982,-0.2959742844104767,24.9375,25.875,24.8125,27.625,28.6875,29.1875
1.0,0.5719337995895551,0.7685363839060391,-0.1521924390079769,-0.005800949102761681,-0.011384449144213526,-0.07989378778342518,-0.5380057276462993,-0.32447908495069255,0.05798282466226584,-3.0786490711275567,0.6247470149902544,-5.058554955732653e-05,-0.003839893726002357,-0.0011214131631457787,-0.02646441185137328,-0.0033774895104713857,0.009927228195945307,-9.52002969696078e-05,0.3270280659198761,-1.1510027211955567,1.6669257322894495,-2.085118433038229,-1.571357552205221,2.3019895553588867,-0.00026571942726150155,0.03375905752182007,0.029758887365460396,-0.07400378584861755,-0.00010165454295929521,-0.00019193925254512578,0.038307227194309235,0.05746084079146385,-9.308655738830566,0.7351769208908081,47.658226013183594,-0.48946499824523926,-3.3340940475463867,-1.8410923480987549,-0.5325659513473511,-0.02252749726176262,-0.313129723072052,24.9375,25.875,24.8125,27.625,28.6875,29.1875
1.0,1.2900853367465905,0.9208128889908521,-0.041537704701347176,-0.00011293312344391,-0.008905745045093668,-0.08538170262029482,-0.5380509789069902,-0.3244830636525334,0.057965620600587214,-3.0786938324834887,0.6247164202701504,8.740150008888706e-05,-0.003129969377121498,-0.0008614186700423429,-0.02693685935249473,-0.002508132681307943,0.007399081788673482,-0.0001241649420261776,0.327016144990921,-1.150942639713623,1.6669133345233362,-2.0852610073485316,-1.571369473134176,2.301952838897705,-0.00028997164918109775,0.03408733755350113,0.02986818738281727,-0.07176791876554489,-0.00010707836190704256,-0.0001862637436715886,0.0,-0.019153613597154617,-9.251194953918457,0.7172743082046509,47.69853210449219,-0.49031591415405273,-3.4257755279541016,-1.7892606258392334,-0.5546467304229736,-0.031617000699043274,-0.30638590455055237,24.9375,25.875,24.8125,27.625,28.6875,29.1875
1.0,1.1698716994298557,1.0092709120053862,0.17429175222790091,0.0029199274617956504,-0.013489092881558645,-0.08041854137302867,-0.5380457402523856,-0.3244928141205543,0.05789391257175988,-3.0787075855909145,0.6247002068871101,7.718674339232193e-05,-0.002840745588735198,-0.0007540558313534495,-0.02600896101675158,-0.0025641146880292964,0.007591409262000888,-0.0001389607427132764,0.3270280659198761,-1.1508592528155823,1.6669977347003382,-2.085428377191061,-1.571357552205221,2.301952838897705,-0.00029976124642416835,0.032278310507535934,0.029936082661151886,-0.07022687792778015,-0.00011207102215848863,-0.00018091456149704754,0.1149216815829277,-0.038307227194309235,-9.21288776397705,0.7396538853645325,47.69136428833008,-0.487123966217041,-3.2700979709625244,-1.7538827657699585,-0.5639249086380005,-0.024507848545908928,-0.30771681666374207,24.9375,25.875,24.8125,27.625,28.6875,29.1875
1.0,0.8979901004446619,0.36753253688648596,-0.016882818699201167,0.018705748802153803,-0.0213341208709676,-0.0690310375475819,-0.5380279482883058,-0.32447901005107815,0.05781799169832724,-3.078654899942455,0.6248057560787404,-5.609640562416802e-06,-0.002377892825565786,-0.000577625987063958,-0.026390692373237726,-0.0020778458768226865,0.006163813009551115,-0.00017243702353920398,0.32701611518859863,-1.1507873100093384,1.6670940558062952,-2.0855356655516566,-1.571357552205221,2.302013397216797,-0.00032862790976651013,0.03246021643280983,0.030343301594257355,-0.06930786371231079,-0.00011078157695010304,-0.0001758638391038403,0.19153612852096558,0.0,-9.174580574035645,0.8067978620529175,47.70927429199219,-0.527287483215332,-3.233398914337158,-1.7705349922180176,-0.5683034658432007,-0.028104055672883987,-0.31217366456985474,24.9375,25.875,24.8125,27.625,28.6875,29.1875
1.0,0.9861508822599248,0.9620290505606066,0.2704816417061582,-0.0009675697098600186,-0.01599592674969156,-0.08179297987315629,-0.5380622824824357,-0.32447540791205975,0.05779323466478592,-3.0786835716007963,0.6247728279954641,0.00012596074025786753,-0.001812006271494756,-0.00036294951024114285,-0.027733418699889,-0.0011766830335371238,0.003509966234947314,-0.00021123473985968126,0.327004075050354,-1.150738851433136,1.6671178976642054,-2.085691114465231,-1.5713813940631312,2.3019771575927734,-0.00036318658385425806,0.03417717292904854,0.03087397664785385,-0.06875282526016235,-0.00010913079313468188,-0.00017108760948758572,0.15322890877723694,-0.038307227194309235,-9.136273384094238,0.7038487195968628,47.72987747192383,-0.49158504605293274,-3.2594547271728516,-1.7495334148406982,-0.6121740341186523,-0.03914092853665352,-0.2988840341567993,24.9375,25.875,24.8125,27.625,28.6875,29.1875
1.0,0.8857660439136479,0.524935061664445,0.12436390666155023,0.008985788683610038,-0.019454613142847743,-0.07708042950786785,-0.5380562540096122,-0.3244929689026448,0.05773982467144195,-3.0786847898194085,0.624715398381084,0.00013501995062053466,-0.0013616310279114317,-0.00021169158632161272,-0.028132005729339184,-0.000610013001293933,0.001844322879082695,-0.00021219107173662988,0.32704007625579834,-1.1506666404059906,1.6671655813800257,-2.08581080059194,-1.5713933149920862,2.3019771575927734,-0.00036020451807416975,0.034551624208688736,0.03096555918455124,-0.06745946407318115,-0.00010750322690000758,-0.00016656403022352606,0.2298433631658554,-0.05746084079146385,-9.059659004211426,0.6904177665710449,47.6976318359375,-0.4830569624900818,-3.2807300090789795,-1.6885290145874023,-0.6177624464035034,-0.031373750418424606,-0.3115001320838928,24.9375,25.875,24.8125,27.625,28.6875,29.1875
1.0,0.4540964689880932,0.6312787364339849,0.4206292414506339,0.00553187218110393,-0.03204160832816705,-0.0742451819555044,-0.5381002512430786,-0.3245000171187985,0.05771497125622069,-3.0787533772521196,0.6247487821386043,0.000258626578652427,-0.0005421002960313264,8.613033209014934e-05,-0.02923225631739995,0.0004916302204224337,-0.0013917604037653566,-0.0002442955708711963,0.32701611518859863,-1.1506064397147675,1.6671784559832972,-2.0859891376891078,-1.571369473134176,2.3019652366638184,-0.00038896489422768354,0.035746049135923386,0.03139200806617737,-0.06566187739372253,-0.0001059218993759714,-0.00016227344167418778,0.17238253355026245,-0.13407529890537262,-9.040505409240723,0.7016075849533081,47.674346923828125,-0.4786261320114136,-3.248866319656372,-1.5315823554992676,-0.65244460105896,-0.035235799849033356,-0.30275440216064453,24.9375,25.875,24.8125,27.625,28.6875,29.1875
1.0,1.176686039806531,0.8049183863741937,0.3940512554974497,0.0022237674758512262,-0.019044288301770896,-0.08247934882110304,-0.5380637067405203,-0.3244949824066174,0.05763126876776503,-3.0787408196757813,0.6247267362559764,0.00013918029190272547,0.0016891584945629573,0.001136427217342671,-0.03131909560335431,0.0023941267925758998,-0.006964988104732713,-0.0006920379237079586,0.3270159363746643,-1.1505462390235444,1.6673114935504358,-2.0861083469786585,-1.571345631276266,2.301952838897705,-0.0008337431936524808,0.035973794758319855,0.035452064126729965,-0.06406067311763763,-0.00010438619210617617,-0.00015819854161236435,0.28730419278144836,-0.09576806426048279,-9.002198219299316,0.7844129800796509,47.68867492675781,-0.4604607820510864,-3.3280792236328125,-1.6455738544464111,-0.6888218522071838,-0.009725717827677727,-0.3123014271259308,24.9375,25.875,24.8125,27.625,28.6875,29.1875
1.0,0.9757888354040255,0.6022858772747381,0.37184035055051945,0.005113497120750133,-0.019762248859416857,-0.07481384228728942,-0.538059999921894,-0.324509490245194,0.05757506287777747,-3.078741744336731,0.6246503192676828,0.00017440204219416774,0.0015643004162482412,0.001111686134734072,-0.031252996379173545,0.0021809840149479664,-0.006344429880172826,-0.0007244044386484026,0.3270518183708191,-1.15047441542659,1.6673715750323694,-2.086252351800436,-1.571369473134176,2.30194091796875,-0.0008619273430667818,0.03582925722002983,0.03567035123705864,-0.06479056924581528,-0.00010289447527611628,-0.00015432284271810204,0.1149216815829277,-0.07661445438861847,-9.002198219299316,0.7687462568283081,47.6895751953125,-0.4440782070159912,-3.3152987957000732,-1.7323719263076782,-0.7231200933456421,-0.02889997884631157,-0.302991658449173,24.9375,25.875,24.8125,27.625,28.6875,29.1875
1.0,1.232165329592569,1.0045128653044348,0.5184585543550618,-0.009638460354094566,-0.012891308509479154,-0.08404017060958927,-0.5380763437409042,-0.32447621923280023,0.05750245149146713,-3.078694576562392,0.6247949263320606,0.00012678201589119123,0.001179966094186824,0.0008976365284941029,-0.030279489142722944,0.0017809648499632405,-0.0052382843758550035,-0.0006111095431815249,0.32699188590049744,-1.150378869181015,1.6674302260028284,-2.0863715610899867,-1.571369473134176,2.3019771575927734,-0.0007450205157510936,0.03503701835870743,0.03435613214969635,-0.0638602152466774,-8.048347808653489e-05,-0.0001506328844698146,0.19153612852096558,0.019153613597154617,-8.96389102935791,0.7665104269981384,47.69584274291992,-0.4651816487312317,-3.213283061981201,-1.6047029495239258,-0.7970482110977173,-0.05289091169834137,-0.319145143032074,24.9375,25.875,24.8125,27.625,28.6875,29.1875
1.0,0.6737370401778079,0.11329756700672292,0.16764414664749477,-0.0008929461295411143,-0.018344054617746203,-0.07038411747374261,-0.5380575523292945,-0.3244894616142563,0.057389383795340865,-3.0786891632375917,0.6247361589837099,0.00011727352643517676,0.0019331713351898817,0.0011094058512839075,-0.032862115894978075,0.002752313542574414,-0.008131474019383219,-0.000554288846716317,0.32702791690826416,-1.1502577525428315,1.6675751844989222,-2.086623807946676,-1.5713813940631312,2.3019771575927734,-0.0006811381317675114,0.038006268441677094,0.036567170172929764,-0.06598865985870361,-7.091748557286337e-05,-0.00014375807950273156,0.2298433631658554,0.038307227194309235,-8.944737434387207,0.7262282371520996,47.64657974243164,-0.49105745553970337,-3.284799098968506,-1.6553397178649902,-0.8190838098526001,-0.0347139947116375,-0.3071948289871216,24.9375,25.875,24.8125,27.625,28.6875,29.1875
1.0,0.9441156789638437,0.01919871890665853,0.23506558217480816,-0.018486267223801638,0.003040368298896804,-0.08213413078396362,-0.5380457829893078,-0.32446588309726715,0.05730657283218127,-3.078649188874444,0.6248056698368581,1.1511391141713057e-05,0.0008901774643319058,0.0007656150845820778,-0.032356467162958084,0.0015551950634764412,-0.00463274697944707,-0.000578954909125413,0.3269919157028198,-1.1501739782145997,1.667671028767721,-2.0867325268187464,-1.571369473134176,2.3019895553588867,-0.0007011691923253238,0.03783443197607994,0.03642857447266579,-0.06937608867883682,-6.97891809977591e-05,-0.0001405508373863995,0.13407529890537262,0.07661445438861847,-9.059659004211426,0.7553206086158752,47.687782287597656,-0.4532228112220764,-3.257233142852783,-1.6387114524841309,-0.7832016944885254,-0.033836863934993744,-0.29425233602523804,24.9375,25.875,24.8125,27.625,28.6875,29.1875
1.0,0.8336395426251749,0.16932333111851117,0.21409571773696917,-0.030893958420988958,0.0035350930012685786,-0.07826934811305351,-0.5380279804524247,-0.3244716869119432,0.057234420155120064,-3.0786349130043065,0.6247642061070746,-1.1672695355040298e-05,0.0014590588702425259,0.0009313384064903113,-0.03337975640677539,0.0021322344198436175,-0.006299121329097885,-0.0005337873456165625,0.3270159959793091,-1.150101826792099,1.6677668730365198,-2.086876531640524,-1.5713813940631312,2.3019895553588867,-0.0006530924583785236,0.0387188196182251,0.03758537024259567,-0.06965381652116776,-7.892459689173847e-05,-0.00013748342462349683,0.15322890877723694,0.19153612852096558,-9.02135181427002,0.7732232213020325,47.694053649902344,-0.4714159369468689,-3.2131524085998535,-1.6221694946289062,-0.8423960208892822,-0.0204751156270504,-0.3180510997772217,24.9375,25.875,24.8125,27.625,28.6875,29.1875
1.0,0.33365303631532556,0.05043465651145537,0.25375801527512143,-0.03189596217542941,-0.004132684588978825,-0.07835481378263526,-0.5380593954784321,-0.32444360302586434,0.05718721394267698,-3.078623141480426,0.6247799270645876,4.079990083995251e-05,0.0004293474145523269,0.000579102702707064,-0.03336548056697328,0.000927036564926097,-0.0027709157463433574,-0.0005372250744962972,0.3269679844379425,-1.1500295859626313,1.6678035894977015,-2.0870100460448207,-1.5714057127581995,2.301952838897705,-0.0006518251611851156,0.03908700495958328,0.03807966411113739,-0.0742446631193161,-8.099408296402544e-05,-0.00013454702275339514,0.2106897532939911,0.2298433631658554,-8.983044624328613,0.6971306204795837,47.6976318359375,-0.4928737282752991,-3.3262245655059814,-1.6508266925811768,-0.8179625272750854,-0.03606965392827988,-0.31028759479522705,24.9375,25.875,24.8125,27.625,28.6875,29.1875
1.0,0.4432604103395935,-0.26659766612045666,-0.011145032690127041,-0.036114064203773916,0.007708171640312832,-0.07526277287293517,-0.538016300215465,-0.3244753229203639,0.05709742316860658,-3.0786388197662107,0.6247062509180843,-0.0001077728034282914,-0.0014575744907453865,-9.108966964556301e-05,-0.03254815819583294,-0.0009106780507502047,0.0025997573475260052,-0.0005035107451416712,0.32701602578163147,-1.1499335926822205,1.6678984800921839,-2.0871197185912074,-1.571357552205221,2.301952838897705,-0.0006132686394266784,0.03943796455860138,0.03681550547480583,-0.0790078416466713,-8.000654634088278e-05,-0.00013173364277463406,0.07661445438861847,0.19153612852096558,-9.078812599182129,0.6568484306335449,47.635833740234375,-0.5318557024002075,-3.250358819961548,-1.558495044708252,-0.7950303554534912,-0.015949642285704613,-0.3059445917606354,24.9375,25.875,24.8125,27.625,28.6875,29.1875
1.0,0.518602171808706,-0.35625317926762656,-0.03105186577270631,-0.03811223411646218,0.01682634264750961,-0.08105997992551513,-0.5380488243484056,-0.32447897538427783,0.0570430496810084,-3.0786533452176235,0.6246710080085014,6.068357540035025e-05,-0.002209819196921183,-0.0003308269292135533,-0.03352685652748378,-0.0015495465704071579,0.004451054310057526,-0.0005360324734928944,0.32702794671058655,-1.1498490136912842,1.6679585615741175,-2.0873605213561,-1.5714057127581995,2.30194091796875,-0.0006416001124307513,0.041231073439121246,0.03755754977464676,-0.0835014209151268,-7.885207742219791e-05,-0.00012903542665299028,0.07661445438861847,0.2106897532939911,-9.136273384094238,0.7195101380348206,47.658226013183594,-0.5151294469833374,-3.323025703430176,-1.513144612312317,-0.7439117431640625,-0.02754838950932026,-0.3023703694343567,24.9375,25.875,24.8125,27.625,28.6875,29.1875
1.0,-0.1201948448588529,-0.7836930310838555,-0.14398091587743256,-0.039186250283877865,0.01669192511383237,-0.07666325103764852,-0.5380415369794804,-0.3244609610402701,0.056948581779646484,-3.078608659595324,0.6247394073825393,-2.117669752718931e-05,-0.0020247980531330036,-0.0002506694884694436,-0.034396657502343685,-0.0016644676996075253,0.004799599295669009,-0.0005633957319446622,0.32700395584106445,-1.1497410994819184,1.6680553595172327,-2.0875050030150355,-1.5714057127581995,2.3019652366638184,-0.0006655052420683205,0.0416618287563324,0.03957178443670273,-0.08631338179111481,-8.409960719291121e-05,-0.00012644552043639123,0.05746084079146385,0.26815059781074524,-9.136273384094238,0.7530794739723206,47.699424743652344,-0.4419572949409485,-3.3184475898742676,-1.6798455715179443,-0.7342419624328613,-0.01545497216284275,-0.3062725365161896,24.9375,25.875,24.8125,27.625,28.6875,29.1875
1.0,0.21896573297685074,-0.47582735295259254,-0.16691599932919562,-0.05083565827237041,0.032608524080145675,-0.07917398341040913,-0.5380274467206242,-0.3244713713252145,0.05687364120887706,-3.078659256519727,0.6246727744775369,-7.402147585880564e-05,-0.0037010648094561306,-0.0007231973809648007,-0.03465858707615764,-0.003179094465593255,0.009233877903087027,-0.0007211458732484551,0.3270038962364197,-1.149668501024582,1.6681626478778284,-2.0876742802061976,-1.571357552205221,2.30191707611084,-0.0008185128681361675,0.043176792562007904,0.03942945599555969,-0.09237182140350342,-8.895569044398144e-05,-0.00012395756493788213,0.019153613597154617,0.28730422258377075,-9.289502143859863,0.7642692923545837,47.69673538208008,-0.5329684019088745,-3.313544750213623,-1.6182491779327393,-0.6669316291809082,-0.04056283086538315,-0.3073030710220337,24.9375,25.875,24.8125,27.625,28.6875,29.1875
1.0,-0.16206732845789337,-0.49472846134294235,-0.0628407140836066,-0.050482474117680365,0.024334421288125734,-0.07856498839503016,-0.5380545883473424,-0.32446913851730175,0.0568123814133093,-3.078657933804215,0.6247490946760065,-4.5345407177306693e-07,-0.0038878519214546603,-0.0008535686500766216,-0.03493741034339529,-0.0034191531686229527,0.009930364312454944,-0.0006221310524982981,0.3269919157028198,-1.1495723885348816,1.6682112852679651,-2.0878664455809535,-1.571369473134176,2.301952838897705,-0.0007165642455220222,0.04362484812736511,0.03978971019387245,-0.09391682595014572,-8.810641884338111e-05,-0.000121565732115414,0.13407529890537262,0.3064578175544739,-9.308655738830566,0.7150384783744812,47.68867492675781,-0.487040638923645,-3.416252613067627,-1.5420539379119873,-0.6537473201751709,-0.04688674211502075,-0.3123394846916199,24.9375,25.875,24.8125,27.625,28.6875,29.1875
1.0,-0.10062506598041775,-0.29624037299216477,-0.05849611718682551,-0.040464156477172365,0.01827861270528442,-0.08354060898994678,-0.538072116151713,-0.32447541227958787,0.05675441781180021,-3.0786747540697315,0.6247532001246326,0.00011952049614278293,-0.005156588853515942,-0.0012750152259632776,-0.03540304616662261,-0.004745468825605014,0.013796255465950308,-0.0006466835777166593,0.32700392603874207,-1.1495001477054139,1.6682942549334925,-2.0880962810912074,-1.5713933149920862,2.3019652366638184,-0.0007366050267592072,0.044886961579322815,0.04045208543539047,-0.09992839395999908,-8.6916537838988e-05,-0.00011926433944609016,0.038307227194309235,0.24899697303771973,-9.308655738830566,0.7441308498382568,47.6895751953125,-0.5264346599578857,-3.370044708251953,-1.6002657413482666,-0.5676962733268738,-0.024260252714157104,-0.3087180554866791,24.9375,25.875,24.8125,27.625,28.6875,29.1875
1.0,0.23826962524136436,-0.17471117035357092,-0.23105197949043998,-0.0317887796466541,0.01920913652474708,-0.0806797840982042,-0.5380545411752872,-0.3244732370077611,0.05666303145539525,-3.078664441925385,0.6247312700320826,4.2861146149665e-05,-0.004979203204990572,-0.0012696605045383134,-0.03561762030778944,-0.004449303875244385,0.01292342109457026,-0.0005642171442805843,0.32700395584106445,-1.1494040054133912,1.6684029738055628,-2.0882517300047816,-1.5713813940631312,2.301952838897705,-0.0006522590410895646,0.04528756067156792,0.04021201655268669,-0.09916721284389496,-8.573545346735045e-05,-0.00011704836651915684,0.038307227194309235,0.2298433631658554,-9.308656692504883,0.7284641265869141,47.699424743652344,-0.530753493309021,-3.4389915466308594,-1.5883374214172363,-0.5370736718177795,-0.028927069157361984,-0.3100277781486511,24.9375,25.875,24.8125,27.625,28.6875,29.1875
1.0,0.550652585536343,0.4024432169232035,-0.3431582528418587,-0.02979251519898138,0.012951163848540882,-0.0813583431356226,-0.5380824180653571,-0.3244865818900794,0.05661491275663272,-3.0787138251252575,0.6247803808550771,0.00016130060508423108,-0.0041517681030307785,-0.0010334959718845216,-0.03707778015823708,-0.003397850464869756,0.00983191343573843,-0.0004954373953367003,0.32700398564338684,-1.149331585769989,1.6684625784503382,-2.088478227654928,-1.571369473134176,2.3019771575927734,-0.0005819823127239943,0.046890802681446075,0.04112705960869789,-0.09842007607221603,-8.45844333525747e-05,-0.00011491336772451177,0.07661445438861847,0.17238251864910126,-9.232041358947754,0.6792280077934265,47.718231201171875,-0.5534254908561707,-3.4553585052490234,-1.57686448097229,-0.548252522945404,-0.028378421440720558,-0.29888689517974854,24.9375,25.875,24.8125,27.625,28.6875,29.1875
1.0,0.7994399028071811,0.34883482469252514,-0.4058761657852955,-0.005654784848939088,-0.0014129253772795086,-0.0868646433840457,-0.5380770675209325,-0.3244810323595194,0.05651608263337066,-3.0786925506874705,0.6247371241099797,0.00011838156764616276,-0.003313438960748233,-0.0007481643977581712,-0.03894713589373817,-0.0018817550030954806,0.005373353853387419,-0.0004965868996849972,0.32700398564338684,-1.1492106181434174,1.6685588995562952,-2.0886570415892542,-1.5713813940631312,2.301952838897705,-0.0005823055980727077,0.04962592199444771,0.041112352162599564,-0.09643121063709259,-8.346396498382092e-05,-0.0001128549047280103,0.038307227194309235,0.17238251864910126,-9.251194953918457,0.7083203792572021,47.718231201171875,-0.5589011907577515,-3.6783454418182373,-1.524165153503418,-0.5307412147521973,-0.02626696601510048,-0.30483579635620117,24.9375,25.875,24.8125,27.625,28.6875,29.1875
1.0,0.8047584747812064,0.4517798003097943,-0.05075173720595012,0.00401183590676048,-0.008124731676571266,-0.07718685360161127,-0.538085540221163,-0.3244839938653562,0.056430369381833545,-3.078692545433195,0.6247371576520608,0.00011745868689777251,-0.0023822581682887895,-0.0004454780939787294,-0.038468276084607796,-0.00123453914939212,0.0034882250650352287,-0.00047330653014743024,0.32700401544570923,-1.1490913790515442,1.6686304251300257,-2.0888472996153773,-1.5713813940631312,2.301952838897705,-0.0005581194418482482,0.04806848242878914,0.041477665305137634,-0.09324595332145691,-8.237260772148147e-05,-0.00011086875019827858,0.07661445438861847,0.038307227194309235,-9.193734169006348,0.7195101380348206,47.700321197509766,-0.5636179447174072,-3.587343692779541,-1.4959864616394043,-0.5587289333343506,-0.04284338280558586,-0.3037910759449005,24.9375,25.875,24.8125,27.625,28.6875,29.1875
1.0,1.2692794430170669,1.008712433624196,-0.0015449980001322216,-0.0004054542732555446,-0.001653645818855234,-0.09304382517880294,-0.5381037817018041,-0.32447472364660407,0.05634787637941918,-3.07868450109394,0.6247740049033811,0.00011503748654587824,-0.001279799240245351,-9.873147964789124e-05,-0.039562498936454436,0.00015627286417423334,-0.0005916004466062056,-0.0004287486248313638,0.3269800543785095,-1.1489710372737427,1.6686905066119593,-2.0890261135497035,-1.5713813940631312,2.301952838897705,-0.0005130281788296998,0.04915256425738335,0.041795045137405396,-0.09033703804016113,-8.130947389872745e-05,-0.00010895136801991612,0.05746084079146385,0.07661445438861847,-9.232041358947754,0.6814691424369812,47.6949462890625,-0.6036348938941956,-3.5433883666992188,-1.529916524887085,-0.5960285663604736,-0.031334154307842255,-0.30030667781829834,24.9375,25.875,24.8125,27.625,28.6875,29.1875
1.0,1.1136698244486247,1.5904398743153507,0.024886674920851497,0.00341175056019173,-0.014644544154574446,-0.08350596367832375,-0.5380898420734653,-0.32448153897451076,0.05619418602176751,-3.078694833352414,0.6247380672255274,8.460807781726027e-05,0.0004641831225957942,0.0004898602207135625,-0.041697290812497095,0.0024751590297473524,-0.0073988714092626945,-0.00042135983955952916,0.3269919753074646,-1.1488022965243836,1.6688826719867151,-2.0893718204894007,-1.571369473134176,2.30194091796875,-0.0005041451076976955,0.05149107053875923,0.042437732219696045,-0.08612683415412903,-7.926355465315282e-05,-0.0001053088199114427,0.19153612852096558,-0.07661445438861847,-9.193734169006348,0.7597975730895996,47.6976318359375,-0.5754439234733582,-3.763152599334717,-1.4672701358795166,-0.6675485372543335,-0.03304646536707878,-0.30199360847473145,24.9375,25.875,24.8125,27.625,28.6875,29.1875
1.0,1.2514463557751156,1.2910494232028964,-0.02381024958088167,0.015403607659824394,-0.015253330105134523,-0.07942395776450943,-0.5381206014166219,-0.3244999112902129,0.056151984833836044,-3.0787406114613,0.6247862313232803,0.00023015034985441306,0.0008561095876627647,0.0005754506109582833,-0.04079940228719565,0.0025826530572380154,-0.007703409598122356,-0.0003475166598288882,0.3270040452480316,-1.1487309497645875,1.6689303557025355,-2.089598318139547,-1.571369473134176,2.3019771575927734,-0.0004291673831176013,0.04980917647480965,0.042247474193573,-0.08393175154924393,-7.827876834198833e-05,-0.00010357752034906298,0.2106897532939911,-0.24899697303771973,-9.174580574035645,0.7575564384460449,47.72718811035156,-0.5674700140953064,-3.6746058464050293,-1.4700605869293213,-0.717964768409729,-0.049080729484558105,-0.29776519536972046,24.9375,25.875,24.8125,27.625,28.6875,29.1875
1.0,0.9717418918881169,1.514201973448047,0.03566468032530853,0.01676606448352846,-0.026659905479786465,-0.08229630018975469,-0.5381132191123214,-0.32449366059891815,0.056070291067442324,-3.078700947489835,0.6247781795525325,0.00015777234030270142,0.001564821590174936,0.0008410989250772008,-0.04060350002059324,0.003009219245826312,-0.008946131776781175,-0.00038470647743256653,0.3270040452480316,-1.1486235123923798,1.668990437184469,-2.089705606500143,-1.5713813940631312,2.3019771575927734,-0.0004652732750400901,0.04868433624505997,0.0429898239672184,-0.08223537355661392,-7.731800724286586e-05,-0.00010190208558924496,0.2106897532939911,-0.24899697303771973,-9.117119789123535,0.7508436441421509,47.705692291259766,-0.5989621877670288,-3.535923480987549,-1.4296443462371826,-0.7463078498840332,-0.045340780168771744,-0.2957763671875,24.9375,25.875,24.8125,27.625,28.6875,29.1875
1.0,0.9994232011334412,1.1265679823878127,-0.08860086833716058,0.02753226647674791,-0.027321362730716378,-0.06919441861486363,-0.5380875551973484,-0.3244811577181545,0.05594423038196228,-3.078644635018726,0.6247866964305946,5.023358752079498e-05,0.0021778165975261474,0.0010717862282080498,-0.04245314780058789,0.004089864387689496,-0.012129087621121807,-0.0004204405177797555,0.32700401544570923,-1.1484906536391755,1.6691349188434046,-2.0898968182005824,-1.5713933149920862,2.3019895553588867,-0.0004999247612431645,0.051200445741415024,0.043646834790706635,-0.08204709738492966,-7.638065289938822e-05,-0.0001002801363938488,0.15322890877723694,-0.24899697303771973,-9.251194953918457,0.7553206086158752,47.70748519897461,-0.6107255816459656,-3.682589530944824,-1.4040772914886475,-0.7985831499099731,-0.04562941938638687,-0.28824976086616516,24.9375,25.875,24.8125,27.625,28.6875,29.1875
1.0,1.5062103412586754,1.351219133087803,-0.056062734208170165,0.010624312483186363,-0.005738806826952277,-0.08749115291843472,-0.5380770841023403,-0.3244658354428515,0.05586654695116022,-3.0786330486714943,0.6247448522138869,-4.030497463294304e-05,0.0022815541324320795,0.0011258143492870263,-0.0430286498065334,0.004140403290421139,-0.012285049219033634,-0.0004519186403258652,0.3269800543785095,-1.148406670694687,1.6692188421832483,-2.0900050602354945,-1.5713813940631312,2.30194091796875,-0.0005295013543218374,0.05172831937670708,0.0444975271821022,-0.08326173573732376,-7.54656721255742e-05,-9.870890789898112e-05,0.1149216815829277,-0.15322890877723694,-9.136273384094238,0.7866488099098206,47.693153381347656,-0.5880192518234253,-3.6785199642181396,-1.442708969116211,-0.8267302513122559,-0.03462611138820648,-0.28858932852745056,24.9375,25.875,24.8125,27.625,28.6875,29.1875
1.0,0.9342263572108522,1.0128840263141363,0.07791136673337681,0.002248928837694039,0.0053160570406655195,-0.08313399408995076,-0.5380784769616186,-0.3244663076396599,0.0557751259545681,-3.0786142611282656,0.6247030874038673,-3.732111811392103e-05,0.001952461540815977,0.0012572942893848585,-0.04271675261071744,0.003494014140242674,-0.010390319965822086,-0.0008302552573323865,0.32699182629585266,-1.1482870143703003,1.6693032423602503,-2.0901972256102503,-1.5714057127581995,2.301928997039795,-0.0009053911780938506,0.05083354935050011,0.04552401229739189,-0.08539541065692902,-7.457241008523852e-05,-9.718616638565436e-05,0.09576806426048279,-0.13407529890537262,-9.174580574035645,0.7530794739723206,47.74509811401367,-0.5788581371307373,-3.6234986782073975,-1.4958738088607788,-0.8394738435745239,-0.04146210849285126,-0.2763250470161438,24.9375,25.875,24.8125,27.625,28.6875,29.1875
1.0,0.27156100405224204,0.6385243240632316,-0.08693750257137987,-0.018512269683951796,0.013374973484617709,-0.08462531914633606,-0.5380402780639738,-0.3244647581358495,0.055674399018844634,-3.078577468052867,0.6247729105166288,-0.00021022455941545156,0.0009016471038427497,0.0009073326489445903,-0.04278064480611545,0.00216008315387821,-0.006493756416018416,-0.0008485828276472213,0.32699182629585266,-1.1481908720782776,1.6694229284869593,-2.090306898156637,-1.571369473134176,2.3019771575927734,-0.0009201763314194977,0.05114942416548729,0.04644789174199104,-0.09075372666120529,-7.370011735474691e-05,-9.570984548190609e-05,0.13407529890537262,-0.1149216815829277,-9.21288776397705,0.7687462568283081,47.72808074951172,-0.5697899460792542,-3.5998001098632812,-1.4380707740783691,-0.7998976707458496,-0.040430646389722824,-0.29867076873779297,24.9375,25.875,24.8125,27.625,28.6875,29.1875
1.0,0.12485749567477891,-0.010323127795418267,-0.32947032323496733,-0.02560155689741092,0.0321809167870243,-0.08118205518682324,-0.5380560967395859,-0.3244702078817732,0.05559126340478651,-3.0786057054636276,0.6247596644446773,-0.0001439119921530586,-1.3395109376847851e-05,0.0005929017772907958,-0.042526968577372405,0.0011995748673519597,-0.0036601964924855156,-0.0008446345899371208,0.32699182629585266,-1.1480830770782013,1.669518772755758,-2.0905596218504847,-1.571369473134176,2.3019652366638184,-0.0009135595173574984,0.05136825144290924,0.046252354979515076,-0.09376892447471619,-8.18986736703664e-05,-9.427744953427464e-05,0.09576806426048279,0.038307227194309235,-9.193734169006348,0.7262282371520996,47.74688720703125,-0.5080209970474243,-3.605602741241455,-1.4620952606201172,-0.810619592666626,-0.044911861419677734,-0.28748050332069397,24.9375,25.875,24.8125,27.625,28.6875,29.1875
1.0,-0.14077143734153902,-0.4394438112011045,-0.10696494783410353,-0.0331618960349863,0.03958872252688724,-0.07726747455141404,-0.5380499031229281,-0.3244679744506236,0.05550967855716002,-3.0786133141225114,0.624741357655929,-0.00020856114322071297,-0.0014072158618333539,4.422306922487602e-05,-0.042790732070792294,-0.0009050334566565864,0.002494771024289385,-0.0007380894140068241,0.32697996497154236,-1.1479870539954682,1.6696036497699183,-2.0907069645323695,-1.571345631276266,2.30194091796875,-0.00080215057823807,0.05156343802809715,0.04864310100674629,-0.10285969823598862,-8.221444295486435e-05,-9.288743603974581e-05,0.019153613597154617,0.19153612852096558,-9.289502143859863,0.7083203792572021,47.693153381347656,-0.5927234888076782,-3.586766242980957,-1.5385847091674805,-0.7499608993530273,-0.04001656174659729,-0.2859538197517395,24.9375,25.875,24.8125,27.625,28.6875,29.1875
1.0,-0.6758944330754865,-1.1427702778533149,-0.4382253604363984,-0.03518183813379072,0.03932725978672978,-0.07111032146588596,-0.5380498154269491,-0.3244835422364724,0.05541679143971556,-3.0786160566077734,0.6247616982440711,-0.00019142006281252738,-0.0016989046990282214,-4.9531394653823284e-05,-0.04287793812280262,-0.0016560946276473415,0.004691192770152258,-0.0007503017016591371,0.32700392603874207,-1.1478673082641144,1.669699494038717,-2.090935369531149,-1.571345631276266,2.3019771575927734,-0.0008116640383377671,0.051158856600522995,0.05019703879952431,-0.10633034259080887,-8.136707037920132e-05,-9.153784048976377e-05,0.038307227194309235,0.2298433631658554,-9.308656692504883,0.6971306204795837,47.68598937988281,-0.5259355902671814,-3.5278544425964355,-1.6472586393356323,-0.7140591740608215,-0.046496182680130005,-0.2782575190067291,24.9375,25.875,24.8125,27.625,28.6875,29.1875
1.0,-0.2106899782662609,-0.630935785235002,-0.4517287002109816,-0.056675059923054515,0.04923073285117206,-0.08230729308916823,-0.5380599422374343,-0.3244873066070204,0.055356413118339914,-3.0786244330190082,0.6247441500069663,-0.00010522106628838743,-0.0036462718595980186,-0.0007295036849401034,-0.041714569082759535,-0.0036872077514858532,0.010748938450191377,-0.000713206011571503,0.3270159661769867,-1.1477954250625153,1.6697829405414026,-2.091140409509176,-1.571369473134176,2.3019771575927734,-0.0007710671052336693,0.0508701428771019,0.04908917099237442,-0.1113227903842926,-0.00011830942094093189,-9.022683661896735e-05,0.0,0.2298433631658554,-9.366117477416992,0.7642692923545837,47.70748519897461,-0.6239479184150696,-3.4634366035461426,-1.5026878118515015,-0.6609448194503784,-0.0563928559422493,-0.28622376918792725,24.9375,25.875,24.8125,27.625,28.6875,29.1875
1.0,-0.24484330923803155,-1.0157811078909265,-0.5124599010946527,-0.04374933339507271,0.03282834775079375,-0.0760375486900587,-0.5380646683354887,-0.3244580750097377,0.05523717995456795,-3.0785930421073897,0.6247374434323563,-0.00011829286568926464,-0.0038476491804908604,-0.000772532362647398,-0.0425819149777997,-0.004208440772797552,0.012367784388420379,-0.0007405306846368109,0.32697996497154236,-1.1476632815650483,1.66992694536318,-2.091393133203024,-1.5713933149920862,2.30194091796875,-0.0007956436602398753,0.051486533135175705,0.05121476203203201,-0.11576514691114426,-0.0001501282094977796,-8.89529037522152e-05,-0.07661445438861847,0.26815059781074524,-9.404424667358398,0.6993717551231384,47.681514739990234,-0.5735820531845093,-3.4931976795196533,-1.6189255714416504,-0.6074351072311401,-0.037498630583286285,-0.2918010950088501,24.9375,25.875,24.8125,27.625,28.6875,29.1875
1.0,-0.4644871288655338,-0.6954921125468112,-0.5251953692484091,-0.04704448993081136,0.02317430429253755,-0.07751204773034319,-0.5380948944813885,-0.3244606003437753,0.05518469202659981,-3.0786247664115667,0.624821448466416,9.381575762753369e-06,-0.003416457930536181,-0.0005596925918631689,-0.04373767606577671,-0.0037393329260010997,0.0109791522461077,-0.0008447139960376709,0.32696789503097534,-1.14759115994487,1.669999901448385,-2.0916325054564417,-1.5713933149920862,2.3019771575927734,-0.0008984855958260596,0.052585676312446594,0.052528016269207,-0.11671182513237,-0.0001475419703638181,-8.771447028266266e-05,-0.07661445438861847,0.2106897532939911,-9.442731857299805,0.7284641265869141,47.70390319824219,-0.6165376901626587,-3.5157015323638916,-1.6682183742523193,-0.5562630295753479,-0.05351035296916962,-0.298013836145401,24.9375,25.875,24.8125,27.625,28.6875,29.1875
1.0,-0.039579391284697174,-1.1147000801716198,-0.4219285770530915,-0.031471649699431635,0.01713251374577858,-0.06838942272820026,-0.538077163701498,-0.3244699881944769,0.055075248906537866,-3.0786272400587755,0.6247450469613696,-2.5848059313389263e-05,-0.002413120365519486,0.00016124986988801964,-0.045158377996748086,-0.0027863024767968364,0.008214397613373177,-0.0014243354139239308,0.32699161767959595,-1.147470937376358,1.6701324621783655,-2.0918594799437464,-1.5713933149920862,2.301952838897705,-0.0014772176509723067,0.05315544456243515,0.05499684438109398,-0.11682601273059845,-0.00015703299141023308,-8.650990639580414e-05,-0.038307227194309235,0.19153612852096558,-9.500192642211914,0.7038487195968628,47.674346923828125,-0.563338577747345,-3.542095184326172,-1.793351650238037,-0.5241982340812683,-0.03700379282236099,-0.2869632840156555,24.9375,25.875,24.8125,27.625,28.6875,29.1875
1.0,0.2753437183139909,-0.3530883349275302,-0.5544794285343894,-0.011258913783880203,-0.005802751918647106,-0.0705671427555926,-0.5380798022887863,-0.3244825224764355,0.05498263635474124,-3.078647267192663,0.6247299481818931,-1.9246949412007015e-05,-0.0018886396371423952,0.0004273500336064408,-0.04518893961548105,-0.001611024559485655,0.004798369349478401,-0.0015536159232900234,0.3270036578178406,-1.1473508936217804,1.6702268759356897,-2.092085977593893,-1.5713813940631312,2.301952838897705,-0.0016072348225861788,0.053774669766426086,0.05309642106294632,-0.11193225532770157,-0.0001653812505537644,-8.533817890565842e-05,0.019153613597154617,0.2106897532939911,-9.385271072387695,0.6993717551231384,47.67703628540039,-0.5220279693603516,-3.554948568344116,-1.7254250049591064,-0.5592705607414246,-0.04987155646085739,-0.2901337742805481,24.9375,25.875,24.8125,27.625,28.6875,29.1875
1.0,0.8490005639312324,0.28283169181646683,-0.43341562697669406,0.009017056362378071,-0.02090513646524788,-0.07392714763135713,-0.5381042322841647,-0.3244715456248598,0.054885118949732886,-3.078657609455012,0.6247133744476723,3.512589247792501e-05,-0.0009238518785441317,0.0008307759289947344,-0.04607046155517299,-0.0005545965017088374,0.0016914495408213996,-0.001669766233322479,0.3269796073436737,-1.1472187501243134,1.670323673878805,-2.0923482380309046,-1.5713933149920862,2.30191707611084,-0.001723182969726622,0.054295286536216736,0.05394664779305458,-0.11002149432897568,-0.00016130018047988415,-8.419757068622857e-05,0.07661445438861847,0.2298433631658554,-9.346963882446289,0.7665104269981384,47.72987747192383,-0.5444658398628235,-3.5282506942749023,-1.6872615814208984,-0.5876439809799194,-0.04344372823834419,-0.2806611657142639,24.9375,25.875,24.8125,27.625,28.6875,29.1875
1.0,0.9704346235279941,0.8269727322650118,-0.19744598489615398,0.01848003336479377,-0.04139570609182059,-0.0728242781641215,-0.5380867976610719,-0.32446535443699015,0.05479015451263669,-3.0786460428211107,0.6248076536333668,-1.98009166311698e-05,0.000489543466196663,0.0013375748469692543,-0.04720364047289319,0.0009200161725206496,-0.0026413130871717812,-0.0017090226288013872,0.3269675672054291,-1.1471346479705353,1.6704681555377405,-2.0925504169859828,-1.571369473134176,2.3019652366638184,-0.0017627162160351872,0.05483856797218323,0.05512652173638344,-0.10716783255338669,-0.00015667590196244419,-8.308714313898236e-05,0.19153612852096558,0.05746084079146385,-9.21288776397705,0.7799360156059265,47.70838165283203,-0.5293710827827454,-3.5419888496398926,-1.7565585374832153,-0.6223861575126648,-0.03445706516504288,-0.28684937953948975,24.9375,25.875,24.8125,27.625,28.6875,29.1875
1.0,1.6943978434540141,1.3000334910025915,-0.11325996116371555,0.0112237404346639,-0.029607898669786165,-0.08544484540454717,-0.5381085555264113,-0.32444995079350347,0.05458633770795626,-3.078592232603802,0.6248349690684318,8.661816906083322e-07,0.0011917847006965526,0.0015661106153794242,-0.04724502190886477,0.0019011511889524344,-0.00553864249186278,-0.0016963132949871,0.3269556760787964,-1.1468588274768372,1.6706469694720667,-2.092992445031637,-1.5714176336871546,2.3019771575927734,-0.0017493459163233638,0.05493893846869469,0.05421048402786255,-0.10329324752092361,-0.0001480859937146306,-8.095186785794795e-05,0.3064578175544739,-0.07661445438861847,-9.155426979064941,0.6859408020973206,47.700321197509766,-0.5750671625137329,-3.504768133163452,-1.657177448272705,-0.675861120223999,-0.04321368411183357,-0.2698551118373871,24.9375,25.875,24.8125,27.625,28.6875,29.1875
