Tylouw/Master_Thesis_Code/trial5/insertion_5_2026-01-23_15-22-02.csv
num_insertion,tcp_force_x[N],tcp_force_y[N],tcp_force_z[N],tcp_force_rx[Nm?],tcp_force_ry[Nm?],tcp_force_rz[Nm?],tcp_pose_x[m],tcp_pose_y[m],tcp_pose_z[m],tcp_pose_rx[rot_vec_x],tcp_pose_ry[rot_vec_y],tcp_pose_rz[rot_vec_z],tcp_velo_x[m/s],tcp_velo_y[m/s],tcp_velo_z[m/s],tcp_velo_rx[rot_vec_x/s],tcp_velo_ry[rot_vec_y/s],tcp_velo_rz[rot_vec_z/s],q1[rad],q2[rad],q3[rad],q4[rad],q5[rad],q6[rad],qd1[rad/s],qd2[rad/s],qd3[rad/s],qd4[rad/s],qd5[rad/s],qd6[rad/s],tool_acc_x,tool_acc_y,tool_acc_z,current_of_whole_robot[A],voltage_of_whole_robot[V],current_J1[A],current_J2[A],current_J3[A],current_J4[A],current_J5[A],current_J6[A],temp_J1[C],temp_J2[C],temp_J3[C],temp_J4[C],temp_J5[C],temp_J6[C]
1.0,0.44892346904609964,0.33316468846576675,-0.5280139651981527,-0.025225734472909718,-0.019246120475623275,-0.11314417176681472,-0.5387734279559291,-0.3249049873748776,0.2600311985922917,-3.0786332178002005,0.6250092639393511,9.175396041134583e-05,0.0020927908354375735,-0.0011448611509435594,0.0015097762906287847,-0.0012693573006665262,0.003742848011438394,0.0030709153198932968,0.3272327184677124,-1.1516033870032807,1.6618636290179651,-2.079552312890524,-1.571369473134176,2.302361488342285,0.0028617745265364647,-0.0046302261762320995,0.0037074147257953882,-0.003029460087418556,-4.2518684906891525e-17,-0.0002107213658746332,0.5363011360168457,-0.28730419278144836,-9.155426979064941,0.7575564384460449,47.71464920043945,-0.154489666223526,-4.080789089202881,-2.6576104164123535,-0.3585267663002014,0.023989636451005936,-0.324171245098114,28.0625,30.0625,28.5,32.25,34.8125,36.0
1.0,0.9415793350644468,0.9683993701400584,-0.6978487011453095,0.013427560398222143,-0.043824593946709116,-0.11320891121491417,-0.5387655386887839,-0.3249201310746108,0.26003829325381506,-3.0786808732958804,0.6250010727232361,0.00013860277223679915,0.0009613868323793321,-0.0007906069735941937,0.0013599668727296054,-0.0012564234957142745,0.0036922777753717077,0.0020052577165981045,0.32725632190704346,-1.1516147416881104,1.6618741194354456,-2.079599996606344,-1.571345631276266,2.3023738861083984,0.0017218810971826315,-0.0027948166243731976,0.001367985620163381,-0.002473406260833144,-2.776166407852761e-18,-0.0002846796123776585,0.26815056800842285,-0.09576806426048279,-9.232041358947754,0.7933669090270996,47.6734504699707,-0.15187714993953705,-4.177218914031982,-2.433601140975952,-0.3652111887931824,-0.003533198032528162,-0.31344398856163025,28.0625,30.0625,28.5,32.25,34.8125,36.0
1.0,0.7724630303330658,0.43039054874428984,-0.658781801963348,-0.02069499774426931,-0.004546967369545282,-0.11836071994983229,-0.5387571193754078,-0.324910639147031,0.26000273055784123,-3.07863373932117,0.6250104884342956,-1.7473859180020434e-05,0.0001803755193610032,-0.0007456129001670064,0.0007988849652808976,-0.0009072241270030837,0.0026568456061056202,0.0017633175213096542,0.32724422216415405,-1.1515900653651734,1.6619094053851526,-2.0795518360533656,-1.5713337103473108,2.3023736476898193,0.0012422158615663648,-0.0006877575069665909,-0.0004817183071281761,-0.0016380625311285257,-1.8126382286619851e-19,-0.000521921319887042,-0.07661445438861847,0.07661445438861847,-9.308655738830566,0.7665104269981384,47.704795837402344,-0.13200396299362183,-4.383760452270508,-2.310650587081909,-0.36294877529144287,0.008225757628679276,-0.3458588123321533,28.0625,30.0625,28.5,32.25,34.8125,36.0
1.0,-1.3364760803928326,-1.1959016615577043,-0.837297493989892,-0.0812672010299065,0.047951704145827306,-0.11016969749787978,-0.5387472459397444,-0.32492810161012753,0.26002268136959644,-3.0786575111684416,0.6248797567277014,4.952835797656189e-05,0.0003996814890140027,-0.0007006412099583334,0.0005201502389880836,-0.000486698196068712,0.0014274341420218311,0.0019293406191226467,0.3272801339626312,-1.151614026432373,1.6618974844561976,-2.0795513592162074,-1.571357552205221,2.3023250102996826,0.0012883520685136318,-0.0006943565676920116,-3.571362321963534e-05,-0.0007781548774801195,-1.183523154195553e-20,-0.0006414166418835521,-0.19153612852096558,0.13407529890537262,-9.251194953918457,0.7418897151947021,47.736141204833984,-0.21624399721622467,-3.967855215072632,-2.157794952392578,-0.4240841865539551,0.006818954832851887,-0.33375346660614014,28.0625,30.0625,28.5,32.25,34.8125,36.0
1.0,-2.4198943791691754,-2.4511898977870104,-0.9070911360689544,-0.1255314498166603,0.11822428744381731,-0.11095739473200121,-0.538736323588615,-0.32491662631282153,0.2600287503519304,-3.0786199089130584,0.6249691527667082,-1.3333679216335078e-06,0.0018044950148079645,-0.0002064895485036868,-0.0017683757580560391,0.0014521836030904657,-0.004242241554056535,0.002016068095494769,0.32726821303367615,-1.1516498786262055,1.6619227568255823,-2.079503198663229,-1.571357552205221,2.3023736476898193,0.0012668912531808019,-0.0005910975160077214,0.004750851541757584,0.00032403995282948017,-7.72755975363901e-22,-0.0007486557587981224,-0.3447650671005249,0.2106897532939911,-9.461885452270508,0.7777001857757568,47.71733474731445,-0.1479848027229309,-3.936373233795166,-2.2630252838134766,-0.4722813367843628,0.019869456067681313,-0.33556944131851196,28.0625,30.0625,28.5,32.25,34.8125,36.0
1.0,-2.5419038506083664,-2.8421235449435525,-0.5400191018426179,-0.15537071666542596,0.16699556986762162,-0.11591180543336503,-0.5387397287604333,-0.3249320913797623,0.2600537021186671,-3.0786638794672205,0.6248804979152488,0.00010406405582613878,0.002707602861239796,0.0001397648880220843,-0.004147534487522279,0.002994048281739698,-0.008758171772816334,0.0025821702498954138,0.32729214429855347,-1.1516615015319367,1.6618879477130335,-2.079527517358297,-1.571369473134176,2.3023366928100586,0.0012093746336176991,0.0005738046020269394,0.00855968240648508,0.00012209157284814864,-5.0455442523740047e-23,-0.0013717826223000884,-0.47884035110473633,0.2106897532939911,-9.500192642211914,0.7799360156059265,47.71196365356445,-0.17471766471862793,-3.895611524581909,-2.6136045455932617,-0.49926233291625977,0.01151419710367918,-0.3505992889404297,28.0625,30.0625,28.5,32.25,34.8125,36.0
1.0,-2.342968193143124,-2.554928815909792,-0.46375898534837434,-0.1195953097043077,0.15123626148567182,-0.1139803175215178,-0.5387340100022538,-0.32492792152056593,0.2600160117286583,-3.0786050033074903,0.6248876194754744,2.6958529082841908e-05,0.0022071214104148634,-0.0008246459475572927,-0.002858931701022876,0.0018083933785992955,-0.005293248186059825,0.004006811116554581,0.3272925913333893,-1.15162547052417,1.6619232336627405,-2.0795279941954554,-1.5713933149920862,2.302349090576172,0.002430287655442953,0.0007132101454772055,0.0056516677141189575,-0.0007715379470027983,-3.294379775663835e-24,-0.0015761448303237557,-0.325611412525177,0.15322890877723694,-9.442731857299805,0.7777001857757568,47.7164421081543,-0.18243691325187683,-3.910048723220825,-2.385526657104492,-0.5365272164344788,0.02017362043261528,-0.34922149777412415,28.0625,30.0625,28.5,32.25,34.8125,36.0
1.0,-1.2795836992825118,-0.44046962165104486,-0.3771229156816473,-0.06704640424063522,0.08941375038009244,-0.11740986228797629,-0.5387362638409038,-0.32494269412853843,0.260045070728365,-3.078705393989981,0.6248688251973413,9.569569329981264e-05,0.0011862671721879958,-0.0011830528795517773,-0.002020695482785926,-0.00026426094850112394,0.000759771386913514,0.004616277719918242,0.32730451226234436,-1.1516491633704682,1.6618989149676722,-2.0795656643309535,-1.5713337103473108,2.3023364543914795,0.0024449904449284077,0.0014050168683752418,0.004024552181363106,-0.006234252825379372,-2.150994672356152e-25,-0.002173168584704399,-0.26815059781074524,0.2106897532939911,-9.289502143859863,0.7239871025085449,47.68867492675781,-0.26019713282585144,-3.875763416290283,-2.2555081844329834,-0.5190922021865845,0.012791445478796959,-0.33222058415412903,28.0625,30.0625,28.5,32.25,34.8125,36.0
1.0,-0.30143627293832576,0.34898426511866953,-0.412609989630193,-0.010893463656557393,0.026581495259861792,-0.11411623101182555,-0.5387258806175862,-0.3249468893532035,0.2600243211334775,-3.0787053902481154,0.6248111281978003,6.480888101403213e-05,0.0006164815812328668,-0.0012139484097548271,-0.0012318837676309237,-0.0019267620759595174,0.005620044898107926,0.004607366060512633,0.32731643319129944,-1.1516373616508027,1.6619351545916956,-2.0795909367003382,-1.5713337103473108,2.3023123741149902,0.0021928248461335897,0.001096259686164558,0.0036805171985179186,-0.010718240402638912,-1.4044457392711085e-26,-0.0024183159694075584,-0.24899697303771973,0.2106897532939911,-9.251194953918457,0.7754590511322021,47.687782287597656,-0.24989169836044312,-3.730557441711426,-2.1471855640411377,-0.4945640563964844,1.1197756975889206e-05,-0.35228610038757324,28.0625,30.0625,28.5,32.25,34.8125,36.0
1.0,0.23883740174678653,0.4775033070864684,-0.3481220181306274,-0.005176180010006691,0.006729174695012681,-0.11288302314028015,-0.5387351606007277,-0.32491503091501756,0.2599921742658869,-3.0786275748308607,0.6249499666702312,4.5313722761508986e-05,0.0004672377031056923,-0.0008605510895376792,-0.0013416142689568825,-0.00233363671233562,0.006810134066447912,0.003967493119591424,0.3272683024406433,-1.1516134601882477,1.661982838307516,-2.0796271763243617,-1.571369473134176,2.302360773086548,0.0015704836696386337,0.0009945284109562635,0.004520723596215248,-0.012714519165456295,-9.170027503673138e-28,-0.0024015207309275866,-0.19153612852096558,0.038307227194309235,-9.155426979064941,0.7262282371520996,47.687782287597656,-0.26890915632247925,-3.678450584411621,-2.0505287647247314,-0.4665319323539734,0.0015600030310451984,-0.3426615297794342,28.0625,30.0625,28.5,32.25,34.8125,36.0
1.0,0.2750838747004379,0.2806114274564208,-0.28749477500415116,-0.03747811251329982,0.029490495884058547,-0.12112489193578292,-0.5387288750292829,-0.32492712676061314,0.2600121344250901,-3.0786540466575723,0.6248586471085609,0.00010339457509941216,0.000672149780338009,-0.0005599421531694103,-0.0019497249746407562,-0.001900010243002086,0.005541146574577605,0.003672437032586343,0.32729214429855347,-1.1516373616508027,1.6619709173785608,-2.0796271763243617,-1.5713813940631312,2.3023242950439453,0.0012156907469034195,0.0011190712684765458,0.005719679407775402,-0.012697027064859867,-5.987372538975465e-29,-0.002461107913404703,-0.17238251864910126,-0.09576806426048279,-9.174580574035645,0.7172743082046509,47.6707649230957,-0.2268543243408203,-3.6286377906799316,-2.125084638595581,-0.4823552370071411,0.002587381051853299,-0.3494863510131836,28.0625,30.0625,28.5,32.25,34.8125,36.0
1.0,-0.4231484950104776,-0.19575717880235363,-0.19539920017081433,-0.05574210931463881,0.05847655408520467,-0.11614668281237384,-0.5387161926870602,-0.3249395523124833,0.2599949566274471,-3.0786557269585186,0.6248398602466804,6.064548099939074e-05,0.0005929100963704269,-0.0004415205763956664,-0.002137631841295366,-0.0017654068844902074,0.005145175314335554,0.0035467922671350064,0.327316015958786,-1.1516252321055909,1.6619957129107874,-2.079639574090475,-1.571369473134176,2.3023362159729004,0.0009918313007801771,0.0013878277968615294,0.005742598790675402,-0.012570465914905071,-3.909326328122895e-30,-0.002559226704761386,-0.05746084079146385,-0.2106897532939911,-9.078812599182129,0.7262282371520996,47.686885833740234,-0.19146296381950378,-3.5886006355285645,-2.1095850467681885,-0.5193864703178406,0.009100875817239285,-0.34560441970825195,28.0625,30.0625,28.5,32.25,34.8125,36.0
1.0,-1.00502373850084,-0.3232006125796686,-0.2310408721027424,-0.05256562811383188,0.06011696050524945,-0.11072472787784253,-0.5387347550672283,-0.32492778894141017,0.2600188622702222,-3.078660639896356,0.6248602175827753,0.00015860231822991278,0.000167874460072415,-0.00042778899799018205,-0.0035061136069997854,-0.0008670789842769809,0.002501940374667566,0.00325483022786183,0.32729199528694153,-1.1516362887671967,1.661959473286764,-2.0796505413451136,-1.5713933149920862,2.3023242950439453,0.0007475043530575931,0.003970157355070114,0.005042215343564749,-0.011660745367407799,-2.552510986271015e-31,-0.0025108850095421076,0.09576806426048279,-0.26815059781074524,-9.136273384094238,0.7553206086158752,47.68867492675781,-0.1999279260635376,-3.65706205368042,-2.0060641765594482,-0.5524927377700806,0.005461941473186016,-0.3496103882789612,28.0625,30.0625,28.5,32.25,34.8125,36.0
1.0,0.23029913109998895,0.27513277678647774,-0.3953566104378942,0.009953990238941675,0.014489344426277402,-0.11018696080054327,-0.5387262658230977,-0.32493882100694976,0.25996439849117686,-3.0787018255504144,0.6248306742965577,6.53673166151169e-05,-0.00016021403580108244,-0.00040028493853646354,-0.003445047726777949,-0.001732523040301336,0.0050286040985052,0.0032159522941372946,0.32730382680892944,-1.151576356296875,1.6620186010943812,-2.079735895196432,-1.5713337103473108,2.3023123741149902,0.0005326687823981047,0.004223293159157038,0.005261047277599573,-0.014803357422351837,-1.0881754162008425e-33,-0.0026880495715886354,0.17238251864910126,-0.2298433631658554,-9.136273384094238,0.6434228420257568,47.70927429199219,-0.1680087149143219,-3.5714855194091797,-1.898700475692749,-0.5317715406417847,-0.0023529245518147945,-0.3515976369380951,28.0625,30.0625,28.5,32.25,34.8125,36.0
1.0,0.14788618721980268,0.5795203493993603,-0.4480000690641333,0.004535319741060033,-0.02404137785488037,-0.11215226319638391,-0.5387325000696401,-0.32492536131646643,0.2599523248363643,-3.0786803960017757,0.6249029905762351,4.753085179514752e-05,0.00026476962415982944,-0.00021841996896611985,-0.0036449683298480765,-0.0016844840269298713,0.004893073168120399,0.0031590219656410386,0.32727983593940735,-1.1515646439841767,1.662032429371969,-2.0797482929625453,-1.5713337103473108,2.3023362159729004,0.00047625182196497917,0.003501475090160966,0.006889771670103073,-0.015566481277346611,-7.105006984719055e-35,-0.002687792992219329,0.17238251864910126,-0.1149216815829277,-9.155426979064941,0.7597975730895996,47.66986846923828,-0.21437111496925354,-3.4422268867492676,-1.8852554559707642,-0.5174603462219238,0.003403726266697049,-0.3466784358024597,28.0625,30.0625,28.5,32.25,34.8125,36.0
1.0,0.3064435202893504,-0.2180591697538657,-0.5961320267631941,-0.008304854357009638,-0.02250813853032059,-0.112829915138302,-0.5387384792050617,-0.32491590919219354,0.2599701870036262,-3.078682634142982,0.6248842891893414,0.00015475320677690814,0.0008559045267718902,1.3331022671741613e-05,-0.005089390934644787,-0.00021992713886356932,0.0006070062693708231,0.0032527349810989935,0.32726791501045227,-1.1515883964351197,1.6620329062091272,-2.079783102075094,-1.571369473134176,2.3023123741149902,0.00043065365753136575,0.004255063831806183,0.008657372556626797,-0.013558406382799149,-4.639062196307975e-36,-0.0028259928803890944,0.2298433631658554,-0.13407529890537262,-9.193734169006348,0.7597975730895996,47.703006744384766,-0.20476970076560974,-3.3644497394561768,-2.0337586402893066,-0.5329165458679199,-0.010165674611926079,-0.3572806715965271,28.0625,30.0625,28.5,32.25,34.8125,36.0
1.0,0.3029439576219658,-0.6353203473843513,-0.5300821132420132,-0.04386825183144506,0.0010776713012405226,-0.11179279638555857,-0.5387625256111265,-0.3249162808192159,0.2599727852773627,-3.078691309239047,0.6249635072347122,0.00021956111118408704,0.0007454999797405972,3.348216923951703e-05,-0.005928623836551781,0.0004779897204512126,-0.0014422300386405817,0.0031392664893306202,0.32725584506988525,-1.1515518587878724,1.6619842688189905,-2.0798188648619593,-1.571369473134176,2.3023486137390137,0.00034175702603533864,0.005595293361693621,0.00846194475889206,-0.012538379058241844,-3.0289761350419226e-37,-0.002800816437229514,0.24899697303771973,-0.07661445438861847,-9.21288776397705,0.7508436441421509,47.65016555786133,-0.17927329242229462,-3.459604263305664,-1.9343171119689941,-0.5665265917778015,0.007318849675357342,-0.3503084182739258,28.0625,30.0625,28.5,32.25,34.8125,36.0
1.0,-0.17396059690729765,-0.8800578441076733,-0.6564697946105944,-0.07421752168429735,0.019984117288524738,-0.11848021197377934,-0.5387298670323605,-0.32491942069222735,0.25995200353065595,-3.0786731619019823,0.624786890702951,0.00011484844365460984,0.0007480010665948122,6.842929969199743e-05,-0.006802548184699917,0.001155311221805517,-0.003430992564506251,0.003132766199912301,0.3272797763347626,-1.1515753430179139,1.662055794392721,-2.079782625237936,-1.5713813940631312,2.30226469039917,0.00028952269349247217,0.006750759668648243,0.008665520697832108,-0.011796523816883564,-1.97770493126418e-38,-0.0028460463508963585,0.1149216815829277,0.05746084079146385,-9.308656692504883,0.8112748265266418,47.71196365356445,-0.20722255110740662,-3.4521470069885254,-1.873694658279419,-0.5854055881500244,-0.0074468376114964485,-0.3368602991104126,28.0625,30.0625,28.5,32.25,34.8125,36.0
1.0,-0.35483296613695187,-1.4110831069323644,-0.8226470209858122,-0.0736090886531427,0.042274423612990886,-0.10891555138193697,-0.5387195343767797,-0.3249261913327294,0.2599234447564449,-3.078667700005875,0.6248239065046408,4.594946929115247e-05,0.001182574362412952,0.0002738753525389281,-0.007748407888161574,0.001979806655116462,-0.005843716222433604,0.0029659917840742915,0.3272917866706848,-1.1515514117530365,1.6620925108539026,-2.079806467095846,-1.571357552205221,2.302300453186035,0.00020203020540066063,0.0070638456381857395,0.01021619699895382,-0.011110493913292885,-1.2912993374722476e-39,-0.0027662795037031174,0.1149216815829277,0.13407528400421143,-9.27034854888916,0.6568484306335449,47.67524337768555,-0.19203928112983704,-3.445539951324463,-1.9498863220214844,-0.6130498647689819,-0.005889026448130608,-0.3578931391239166,28.0625,30.0625,28.5,32.25,34.8125,36.0
1.0,-0.3352670492206484,-1.1503318206016424,-0.7402192416307284,-0.08464520640924189,0.04620108105536927,-0.11601213077460246,-0.5387332576224,-0.3249049047717744,0.25988851547218017,-3.0786067711666933,0.6248693517944948,-1.6200542468803886e-05,0.0010569052960079676,0.00044967300253319776,-0.00842972512345685,0.00209662696275962,-0.006193046329288204,0.002739675293885519,0.3272556662559509,-1.1515030723861237,1.6621044317828577,-2.0798069439330042,-1.5713813940631312,2.302300453186035,-0.00013453001156449318,0.007919932715594769,0.010811951942741871,-0.012194081209599972,-8.431332600149559e-41,-0.002876763930544257,0.2298433631658554,0.15322890877723694,-9.308655738830566,0.7284641265869141,47.69584274291992,-0.1507701277732849,-3.3642361164093018,-1.891371726989746,-0.6365190744400024,-0.010751938447356224,-0.35200685262680054,28.0625,30.0625,28.5,32.25,34.8125,36.0
1.0,-0.5926718886863915,-1.8899422691734495,-0.8381210273176953,-0.06414388794638064,0.032651507757367165,-0.10427140061260792,-0.5387438796896785,-0.3248942175958697,0.25990211541383323,-3.078630747314584,0.6248935622432281,2.2760620930225743e-05,0.0010052818383744114,0.0004703868429282331,-0.008785426586520229,0.002032468478669659,-0.005997530357496505,0.0024587273182017405,0.3272317051887512,-1.1515149635127564,1.6620929876910608,-2.0798193416991175,-1.571369473134176,2.30228853225708,-0.00019289509509690106,0.008382420986890793,0.011215140111744404,-0.013265437446534634,-3.7994939248164883e-06,-0.0026544928550720215,0.13407529890537262,0.2298433631658554,-9.232041358947754,0.7597975730895996,47.687782287597656,-0.15998278558254242,-3.4277119636535645,-1.8559670448303223,-0.6474493741989136,-0.0018540075980126858,-0.3403792679309845,28.0625,30.0625,28.5,32.25,34.8125,36.0
1.0,-0.2932309653825067,-1.7514968121112555,-0.8760405310525549,-0.07345064400212295,0.026548605669079184,-0.10583074552517126,-0.5386969158983734,-0.32490803328354595,0.259848514509467,-3.078597975069465,0.6247910161009677,-8.10592975363385e-05,0.0010146044694364924,0.000500050830540164,-0.00960021746728403,0.001867797260065047,-0.005533860670588755,0.0022680946004047017,0.32727959752082825,-1.1515148145011445,1.662225071583883,-2.0798679790892542,-1.5713813940631312,2.302276611328125,-0.0002339585917070508,0.009232294745743275,0.012462355196475983,-0.015854544937610626,-2.4807980025798315e-07,-0.0025057122111320496,0.13407529890537262,0.363918662071228,-9.366117477416992,0.7486078143119812,47.69584274291992,-0.21006494760513306,-3.3089799880981445,-1.9455747604370117,-0.6537996530532837,-0.0022035734727978706,-0.36610865592956543,28.0625,30.0625,28.5,32.25,34.8125,36.0
1.0,-0.010168207473269353,-1.3366123413357018,-0.82654163125231,-0.0905297134771013,0.02600660527118549,-0.11311146959429962,-0.538729068381067,-0.3248969547206492,0.2598533528056536,-3.078621751204865,0.6248155633569851,-4.2796188434387575e-05,0.0006701738384834605,0.00037730885682309406,-0.010660692589219012,0.0018357582860505308,-0.005456008467975903,0.002142482562460156,0.32724371552467346,-1.1514780980399628,1.662165943776266,-2.0798808536925257,-1.571369473134176,2.302253007888794,-0.0002259543107356876,0.01120427530258894,0.012617481872439384,-0.018065625801682472,-1.619783773776362e-08,-0.0023726599756628275,0.19153612852096558,0.3447650372982025,-9.366117477416992,0.7978386282920837,47.75315856933594,-0.17147919535636902,-3.368326187133789,-1.9196938276290894,-0.6374192237854004,-0.002982767764478922,-0.3403630554676056,28.0625,30.0625,28.5,32.25,34.8125,36.0
1.0,-0.51329896423635,-1.9170953047017376,-0.6739890667460996,-0.08704166160938936,0.01643258092950961,-0.10745904722165323,-0.5387168908648141,-0.32489405970254187,0.2598148700355437,-3.0785841034643444,0.6249034255654239,-0.0001320956578799787,0.0006438465921891722,0.00035972267433012617,-0.010827508237609855,0.0016443388107123282,-0.004898601987942775,0.0019456095177276533,0.32724374532699585,-1.151454047565796,1.662225071583883,-2.079905172387594,-1.571357552205221,2.3023126125335693,-0.00021269307762850076,0.01141260378062725,0.012964051216840744,-0.01920982077717781,-1.057603005172325e-09,-0.002162919845432043,0.17238251864910126,0.3447650372982025,-9.289502143859863,0.6881819367408752,47.699424743652344,-0.2114335000514984,-3.308716297149658,-1.8552175760269165,-0.6410894393920898,0.0005536210373975337,-0.3585720658302307,28.0625,30.0625,28.5,32.25,34.8125,36.0
1.0,-0.44404969426218144,-1.96088426298939,-0.7725598366463984,-0.07992254100035917,0.02524898347920814,-0.09980102358521059,-0.5387120363228516,-0.3249054635044504,0.25978761338628786,-3.0785784910872387,0.6248256380687425,-0.0001145284216000412,0.0004629516447939516,0.0002902507834949952,-0.010875772163142011,0.0013472520130489703,-0.00403274913352579,0.0020445374216430624,0.32726770639419556,-1.1514177781394501,1.6622498671161097,-2.0799652538695277,-1.5713813940631312,2.302288770675659,-0.00020082641276530921,0.011789812706410885,0.012804385274648666,-0.020342832431197166,-6.905392230249774e-11,-0.0022503959480673075,0.24899697303771973,0.3447650372982025,-9.327810287475586,0.6971306204795837,47.725399017333984,-0.20347464084625244,-3.354949951171875,-1.8549015522003174,-0.653164267539978,-0.002916507190093398,-0.35838794708251953,28.0625,30.0625,28.5,32.25,34.8125,36.0
1.0,-1.0013875224762043,-1.913080175230756,-0.5449784526964566,-0.06697043329468974,0.016239359215295915,-0.10197579841779243,-0.5387121569468227,-0.3249029499369713,0.2597643036100249,-3.0785644552804206,0.6248223832873615,-7.777963669522314e-05,0.00032004825925054494,0.00023463660756201405,-0.011492098290990694,0.0013278090721183394,-0.003983707142669016,0.002232713860970025,0.32726770639419556,-1.1513934594443818,1.6622851530658167,-2.0800377331175746,-1.5714057127581995,2.30228853225708,-0.00019021482148673385,0.012816856615245342,0.01307580154389143,-0.02169407531619072,-4.508727592666961e-12,-0.002428316278383136,0.19153612852096558,0.3447650372982025,-9.21288776397705,0.6948947906494141,47.687782287597656,-0.1993229240179062,-3.398691415786743,-1.8783299922943115,-0.6631519198417664,0.002878913190215826,-0.3460865914821625,28.0625,30.0625,28.5,32.25,34.8125,36.0
1.0,-0.19544287656388354,-1.3575087453529713,-0.5815444760270218,-0.06791188019346403,0.03345298688858857,-0.10978099476092551,-0.5387066905126817,-0.32490488327502076,0.2597563010470838,-3.078591583382996,0.6248474794863175,-0.00010572920575832108,0.00017501063711662673,0.00017880948330029338,-0.010905814182685915,0.0005301275658238208,-0.0016479886534662743,0.002086634540435727,0.32726770639419556,-1.151393638258316,1.6623089949237269,-2.080062051812643,-1.571369473134176,2.3023006916046143,-0.00018066869233734906,0.012241426855325699,0.012947587296366692,-0.023458492010831833,-2.9438769672852916e-13,-0.00227350858040154,0.26815059781074524,0.325611412525177,-9.289502143859863,0.6948947906494141,47.64836883544922,-0.2164493352174759,-3.297852039337158,-1.8404247760772705,-0.6470978260040283,0.0021140105091035366,-0.3563802242279053,28.0625,30.0625,28.5,32.25,34.8125,36.0
1.0,0.03150369040122386,-0.8204010520682633,-0.2992750099933722,-0.07267045387730647,0.03056850511086618,-0.10962221318297219,-0.5387395396732436,-0.3248824638995123,0.25973440516378354,-3.078565989432569,0.6248995636464553,-7.157287599380358e-05,2.1319198073566423e-05,0.00012081243777545531,-0.011646008458987599,0.0005868772172898433,-0.0018232863464920002,0.002240647789855822,0.32721978425979614,-1.1513334077647706,1.662285629902975,-2.0801102123656214,-1.5713933149920862,2.30228853225708,-0.00017203351308126003,0.01345443818718195,0.01323128305375576,-0.02477104589343071,-1.9221410352049037e-14,-0.002419196767732501,0.17238251864910126,0.28730422258377075,-9.097966194152832,0.7844129800796509,47.73883056640625,-0.24425524473190308,-3.37269926071167,-1.744498372077942,-0.6461048126220703,-0.001961455214768648,-0.34975552558898926,28.0625,30.0625,28.5,32.25,34.8125,36.0
1.0,0.03277265347958852,-0.830828506830497,-0.6164714359637696,-0.06386257676064162,0.02975780938394032,-0.11461019229552172,-0.5386989409550322,-0.32490222694450765,0.25969433159353655,-3.0785804544985274,0.6247489402558835,-0.00018801648909169864,-0.00010213501199429645,7.349976778897981e-05,-0.011324132388110291,-7.929703386451975e-05,0.0001256578035095601,0.0019606964826659693,0.32726770639419556,-1.1513334971717377,1.662381951008932,-2.08013453106069,-1.571369473134176,2.3022406101226807,-0.0001641870621824637,0.013174613937735558,0.013313078321516514,-0.02663256786763668,-1.2550208717385558e-15,-0.0021321880631148815,0.2106897532939911,0.2298433631658554,-9.097966194152832,0.6926589012145996,47.70658874511719,-0.2275954633951187,-3.319244861602783,-1.810568928718567,-0.6445443630218506,0.005475054495036602,-0.3487541973590851,28.0625,30.0625,28.5,32.25,34.8125,36.0
1.0,-0.40432791579831834,-1.126744907575215,-0.5067643127912013,-0.054800446926904584,0.016069943297420983,-0.107116886967805,-0.5387256485132745,-0.32490227959454493,0.2597163367006305,-3.078614984358306,0.6248333722401241,-1.5288512154740326e-05,-0.000458734923896562,-5.7116242292818784e-05,-0.011910933581542639,-0.0007778519452710303,0.0021581636129277193,0.001778205064825753,0.32724374532699585,-1.1512610775283356,1.662381951008932,-2.0802561245360316,-1.571369473134176,2.3022406101226807,-0.00015046194312162697,0.014447680674493313,0.013738114386796951,-0.030479831621050835,-5.350351853732324e-18,-0.0019372837850823998,0.07661445438861847,0.15322890877723694,-9.174580574035645,0.7665104269981384,47.723602294921875,-0.25404560565948486,-3.323155403137207,-1.7556533813476562,-0.6226168870925903,0.0069771818816661835,-0.343178391456604,28.0625,30.0625,28.5,32.25,34.8125,36.0
1.0,-0.6537192699475877,-0.9128447391028999,-0.4068869293857149,-0.05312724780087924,0.020987636662222975,-0.10229002641810861,-0.5387130297211351,-0.32488238705702127,0.2596131686910039,-3.078581025168045,0.624730397377172,-0.00016016582586135438,-0.0008315076602030602,-0.00018827291724533244,-0.01243416905451238,-0.0008734659363650294,0.002427326369874919,0.0018137967054249894,0.3272317051887512,-1.151236580019333,1.6624773184405726,-2.0803405247130335,-1.5713813940631312,2.3021929264068604,-0.00014442537212744355,0.015845680609345436,0.013247782364487648,-0.03167314454913139,-3.493397242807051e-19,-0.0019671511836349964,0.07661445438861847,0.0,-9.27034854888916,0.7306999564170837,47.699424743652344,-0.2667081952095032,-3.365341901779175,-1.7464072704315186,-0.6216563582420349,0.00018808574532158673,-0.3458400070667267,28.0625,30.0625,28.5,32.25,34.8125,36.0
1.0,-0.12467656100697219,-0.7242605710387446,-0.2977129865139707,-0.048535710450853566,0.04355909977519484,-0.11993424023058483,-0.5387186949597191,-0.32490897997968626,0.2596032842870345,-3.0785994658775144,0.6247528654931025,-0.0001370865661153157,-0.0006238549190395715,-0.00012646119367190061,-0.012885840150178764,-0.0008708802494651004,0.0024183378361575586,0.002000540130554734,0.32726773619651794,-1.1511886578849335,1.6624410788165491,-2.080376287499899,-1.571369473134176,2.3022406101226807,-0.00013033159484621137,0.015926601365208626,0.014443093910813332,-0.03294004127383232,-2.2809389068876098e-20,-0.0021401795092970133,0.038307227194309235,-0.038307227194309235,-9.366117477416992,0.7530794739723206,47.718231201171875,-0.27040207386016846,-3.3560307025909424,-1.7439309358596802,-0.6183086037635803,0.0026824804954230785,-0.3534556031227112,28.0625,30.0625,28.5,32.25,34.8125,36.0
1.0,-0.4229180836563208,-0.35603258299855783,-0.3714758434143976,-0.05185679216915058,0.041172432447018174,-0.1151171286173723,-0.5387240517472608,-0.3249054842547642,0.25957594431811737,-3.0786116829419052,0.624794597176764,-0.00015710043982345923,-0.0010534898489712495,-0.0002793319011929695,-0.013246724376829595,-0.0012043066812953875,0.003383737713608158,0.002044022925432902,0.3272556960582733,-1.151152179842331,1.6624658743487757,-2.0804368458189906,-1.571345631276266,2.302253007888794,-0.0001208093817695044,0.01719595119357109,0.013884973712265491,-0.0346725732088089,-1.4892902252877095e-21,-0.0021746987476944923,0.038307227194309235,-0.05746084079146385,-9.346963882446289,0.7195101380348206,47.699424743652344,-0.2366202175617218,-3.386439323425293,-1.7517578601837158,-0.6026201248168945,-0.0023637590929865837,-0.34704965353012085,28.0625,30.0625,28.5,32.25,34.8125,36.0
1.0,-0.1481631320286897,-0.7907484717676488,-0.6104365970140931,-0.045567065460109586,0.05086362503657879,-0.1162457958469491,-0.538725033516542,-0.3249242054303831,0.2595621975126811,-3.0786068045507617,0.6247358412811032,-5.334286355047683e-05,-0.000989324948523582,-0.0002624111162488399,-0.013129067761570478,-0.0016625510860137562,0.004725457803842502,0.0020125026994493077,0.32729169726371765,-1.1511163872531434,1.6624663511859339,-2.0805217228331507,-1.5713933149920862,2.302253007888794,-0.00011319947225274518,0.016799669712781906,0.014550830237567425,-0.036360062658786774,-9.724000602201188e-23,-0.002136247931048274,0.038307227194309235,0.0,-9.232041358947754,0.6411817073822021,47.65553665161133,-0.24560639262199402,-3.3393964767456055,-1.7499353885650635,-0.5884764194488525,-0.007777312770485878,-0.36260196566581726,28.0625,30.0625,28.5,32.25,34.8125,36.0
1.0,-0.5314740902977559,-0.5962280966629148,-0.5443267315021031,-0.0550770561800161,0.045168372668313,-0.10738016557120889,-0.5387164922698993,-0.32491595627590136,0.2594944805457522,-3.0785859775603654,0.6247310997514062,-0.00018517193280669924,-0.0011456161072185382,-0.00032008729194145944,-0.013482875154233524,-0.0018280624101348411,0.005203492907731712,0.0019502726462493798,0.327279657125473,-1.151056097154953,1.6625493208514612,-2.0805818043150843,-1.571369473134176,2.3022406101226807,-0.00010650062176864594,0.017512314021587372,0.014660893939435482,-0.03768857941031456,-6.349077575911654e-24,-0.002067736117169261,0.019153613597154617,0.0,-9.308656692504883,0.7463666796684265,47.657325744628906,-0.21904513239860535,-3.3813648223876953,-1.6695046424865723,-0.566551923751831,-0.0018754410557448864,-0.35583728551864624,28.0625,30.0625,28.5,32.25,34.8125,36.0
1.0,-0.7543508184970664,-0.7373258516339443,-0.6132910451964746,-0.04965790303061793,0.04026212697562834,-0.11377839759659943,-0.5387205124203532,-0.3249030097982487,0.2594766019172841,-3.078601245378032,0.6247344501156166,-0.00018043794096105986,-0.0009485173441812216,-0.0002564139977573143,-0.014750526986060173,-0.0013388256284506692,0.0037645901566626537,0.0019483613623538106,0.3272556960582733,-1.1510437291911622,1.6625860373126429,-2.0806414089598597,-1.571357552205221,2.3022167682647705,-0.0001005506856017746,0.018690694123506546,0.016150927171111107,-0.038837164640426636,-4.145493639220363e-25,-0.00205999962054193,-0.019153613597154617,0.019153613597154617,-9.27034854888916,0.6702793836593628,47.64031219482422,-0.30455952882766724,-3.387073040008545,-1.7507894039154053,-0.5558643937110901,-0.0032358348835259676,-0.34514111280441284,28.0625,30.0625,28.5,32.25,34.8125,36.0
1.0,-1.1474521833435032,-0.5748195482311791,-0.6504577130536576,-0.05498077867687172,0.03579402678146517,-0.10610703504831341,-0.5387293721856681,-0.3249191002015094,0.25946131963176,-3.0786131894043542,0.6246984629411818,-9.450433064602327e-05,-0.001122005587581158,-0.0003191831240383304,-0.014552638299377033,-0.001762601809532303,0.005002962034303807,0.001897560367566744,0.327279657125473,-1.1509959262660523,1.6625731627093714,-2.0807258091368617,-1.5713813940631312,2.3022167682647705,-9.52303598751314e-05,0.018727237358689308,0.01589842513203621,-0.03993012011051178,-2.706710880156763e-26,-0.002004344016313553,-0.038307227194309235,0.038307227194309235,-9.251194953918457,0.7530794739723206,47.700321197509766,-0.23180243372917175,-3.358959436416626,-1.688292145729065,-0.5578907132148743,-0.005719652399420738,-0.3479694724082947,28.0625,30.0625,28.5,32.25,34.8125,36.0
1.0,-0.8646533620825156,-0.5793331941609215,-0.6604094023343612,-0.05116130541288992,0.04541786234078535,-0.10451325371320531,-0.5387088983794878,-0.32492367231387415,0.25940457627595787,-3.0786155849176042,0.6247179767519224,-0.00018923592606892944,-0.0011915823255320766,-0.0003459759717921046,-0.015234019588176505,-0.0017478297256758475,0.004951958088396499,0.001889259958776739,0.32729169726371765,-1.1509594780257721,1.6626699606524866,-2.0808102093138636,-1.571345631276266,2.3022406101226807,-9.04445696505718e-05,0.019679034128785133,0.016443897038698196,-0.04137427359819412,-1.7672889763451204e-27,-0.001991637982428074,-0.13407529890537262,0.05746084079146385,-9.346963882446289,0.7284641265869141,47.700321197509766,-0.2832219898700714,-3.4427504539489746,-1.7287840843200684,-0.5479957461357117,0.003053652588278055,-0.3395393490791321,28.0625,30.0625,28.5,32.25,34.8125,36.0
1.0,-0.39327842735373325,-0.2973716072668734,-0.5806347975990239,-0.05567654687912955,0.06386030081303198,-0.118640756386001,-0.5387155284804497,-0.32492867714435925,0.2593864308527949,-3.078602729910683,0.6246962002679125,-8.673704973658796e-05,-0.0013472533209360968,-0.0004019134924876858,-0.015688268746331203,-0.001887868791544077,0.0053550605710550895,0.0017936936478492118,0.32730361819267273,-1.1509232384017487,1.6626823584186,-2.0809065304198207,-1.5713933149920862,2.3022406101226807,-8.611726661911234e-05,0.020509827882051468,0.016645755618810654,-0.042833730578422546,-1.1539134632010779e-28,-0.0018921851878985763,-0.019153613597154617,0.019153613597154617,-9.327810287475586,0.7463666796684265,47.72897720336914,-0.25313428044319153,-3.4273409843444824,-1.7196251153945923,-0.5184756517410278,0.0017987496685236692,-0.34392285346984863,28.0625,30.0625,28.5,32.25,34.8125,36.0
1.0,-0.5214085127722545,-0.328765701328147,-0.6415480999475647,-0.05283903949826903,0.057311203492736065,-0.1166511136324564,-0.5387267148691062,-0.3249116807625623,0.2593474887997752,-3.078607760255028,0.6247169771735185,-0.0001369157250349309,-0.0012876857575294005,-0.0003841220911272587,-0.01531730998881975,-0.0022723641364311617,0.006484212453437959,0.0015500554210346937,0.32726773619651794,-1.1508754950812836,1.662717644368307,-2.0809666119017542,-1.571369473134176,2.3022170066833496,-8.218480070354417e-05,0.019849805161356926,0.016903163865208626,-0.043623849749565125,-7.534230419279021e-30,-0.0016450164839625359,-0.05746084079146385,-0.019153613597154617,-9.308656692504883,0.6501356363296509,47.71017074584961,-0.3086013197898865,-3.351957321166992,-1.7307779788970947,-0.5040999054908752,0.012757338583469391,-0.35583820939064026,28.0625,30.0625,28.5,32.25,34.8125,36.0
1.0,-0.777431641200683,-0.6035219751461507,-0.6927317095217055,-0.05377117032131282,0.04450782933037542,-0.10615449094598409,-0.5387173458871681,-0.32492154163286774,0.25931203904018796,-3.0785983162818917,0.6246575305689943,-0.0001196325252865194,-0.0011008520485586868,-0.00032260903561149776,-0.01569473594050136,-0.0021851662679091685,0.006228010933591506,0.0015005230179293632,0.32729169726371765,-1.1508394938758393,1.6627667585956019,-2.081050535241598,-1.5713933149920862,2.3022050857543945,-7.85963493399322e-05,0.019909437745809555,0.017839284613728523,-0.04434899985790253,-4.919313613417202e-31,-0.0015920858131721616,-0.05746084079146385,-0.038307227194309235,-9.346963882446289,0.7486078143119812,47.70121383666992,-0.3032006025314331,-3.3992772102355957,-1.7078075408935547,-0.5020014047622681,-0.0005692765116691589,-0.3436390161514282,28.0625,30.0625,28.5,32.25,34.8125,36.0
1.0,-1.1471265335777519,-1.1746321485584545,-0.7204550303065502,-0.04652370852226277,0.03235308693543795,-0.10042620868584547,-0.5387507651535627,-0.32489649812629345,0.25930346489924944,-3.0786370827455305,0.6247234019478133,-5.7016866294503164e-05,-0.0013624379461049103,-0.00041390385967746243,-0.016435395659097653,-0.0020605836459445344,0.005854593586482423,0.001425165765714323,0.3272317349910736,-1.150802956228592,1.6627543608294886,-2.0811349354186,-1.571369473134176,2.3021812438964844,-7.530785660492256e-05,0.021374152973294258,0.017684360966086388,-0.04526509344577789,-3.211960143247571e-32,-0.0015135970897972584,-0.09576806426048279,-0.019153613597154617,-9.366117477416992,0.7777001857757568,47.73972702026367,-0.28698426485061646,-3.396825075149536,-1.6899281740188599,-0.4876551628112793,0.00986848957836628,-0.3492354154586792,28.0625,30.0625,28.5,32.25,34.8125,36.0
1.0,-0.5006051405719575,-0.7925986781590371,-0.7896679013838578,-0.057532777443517924,0.03434845302119771,-0.10734842842203511,-0.5387398464519801,-0.32490833095936056,0.25926551057832736,-3.0786354999794376,0.6247611535870657,-4.1328989057136174e-05,-0.001216897218375776,-0.00034535906244086427,-0.017324218208119056,-0.0015381271902667572,0.004320596008083102,0.0012580533718610444,0.3272556960582733,-1.1507668954185029,1.6628144423114222,-2.081242700616354,-1.571369473134176,2.3022289276123047,-0.00010415315045975149,0.022213907912373543,0.01854799874126911,-0.04534793645143509,-2.0971803695188423e-33,-0.0013751431833952665,0.038307227194309235,0.038307227194309235,-9.404424667358398,0.6344689130783081,47.70927429199219,-0.33987176418304443,-3.390578269958496,-1.6884093284606934,-0.4761791527271271,0.008455118164420128,-0.35147595405578613,28.0625,30.0625,28.5,32.25,34.8125,36.0
1.0,-0.45666502741421744,-0.7385031869894332,-0.7045416748049323,-0.05439891446335641,0.03038045987497073,-0.11202193658386254,-0.538744166570336,-0.32490979635476624,0.2591962100802132,-3.078610836515,0.6246988307399515,-0.00014011689539221678,-0.0011419708945287956,-0.0003197278119923663,-0.017491081751679884,-0.0013600553762729757,0.0037991105683208536,0.001272365762844112,0.3272556960582733,-1.1506707829288025,1.6628511587726038,-2.0813027820982875,-1.571369473134176,2.3021931648254395,-0.00010418139572720975,0.0222979374229908,0.018749389797449112,-0.04508230835199356,-1.3693088032776605e-34,-0.0013893484137952328,0.15322890877723694,0.07661445438861847,-9.385271072387695,0.7530794739723206,47.72718811035156,-0.30074840784072876,-3.3584938049316406,-1.652477741241455,-0.4740508794784546,0.0021902439184486866,-0.3505318760871887,28.0625,30.0625,28.5,32.25,34.8125,36.0
1.0,-0.6194296057574231,-0.7615671437101061,-0.8151718259783681,-0.05414296465592698,0.022366822199807974,-0.1061851989688351,-0.5387448865070269,-0.3249087725885235,0.25919990246758484,-3.0786517755605893,0.6246881377461225,-1.1214228296767892e-06,-0.0011134293198111758,-0.0002933064532381648,-0.017371377370078208,-0.001329930471879363,0.0037130933048373066,0.0011598863971770438,0.3272556662559509,-1.150682882671692,1.6628864447223108,-2.08142151455068,-1.5713813940631312,2.3021812438964844,-0.00012986913498025388,0.02208826132118702,0.018689481541514397,-0.044721588492393494,-8.94060742029092e-36,-0.0013024493819102645,0.15322890877723694,0.019153613597154617,-9.289502143859863,0.7486078143119812,47.705692291259766,-0.28265923261642456,-3.4142818450927734,-1.6623154878616333,-0.5052753686904907,0.006548132747411728,-0.33726176619529724,28.0625,30.0625,28.5,32.25,34.8125,36.0
1.0,-0.0817636297026823,-0.5922627205451163,-0.8009298931439154,-0.05197986066386083,0.03145066356132706,-0.1101734166437783,-0.5387364024107958,-0.3249149614079365,0.25916053459548666,-3.0786732982674962,0.6246334926673293,-1.104905510446141e-05,-0.0009697239407167437,-0.0002446495397505689,-0.018552110815596698,-0.0006237898725553258,0.0016394558829358442,0.0010264783052139868,0.32726773619651794,-1.150646374826767,1.6629465262042444,-2.081517835656637,-1.571369473134176,2.302156448364258,-0.00012896963744424284,0.023342423141002655,0.019616691395640373,-0.04471234977245331,-5.837578019974759e-37,-0.0011678447481244802,0.1149216741323471,0.09576806426048279,-9.21288776397705,0.7239871025085449,47.72270965576172,-0.29770591855049133,-3.4284796714782715,-1.712332010269165,-0.49869388341903687,-0.0005569480126723647,-0.33179736137390137,28.0625,30.0625,28.5,32.25,34.8125,36.0
1.0,0.38073474784083355,-0.5934883581838202,-0.5922942536666577,-0.05007432889732749,0.04005279625804316,-0.12010746475473028,-0.5387653886709822,-0.3249054610133742,0.2590823246362845,-3.07863126221102,0.6247417463783344,4.782604765883698e-05,-0.0008651604641274346,-0.0001858959003232755,-0.019737954662657344,0.0004920983936897292,-0.001632614844527998,0.0007092647845756561,0.32724374532699585,-1.1505142313293,1.6629827658282679,-2.0817085705199183,-1.5714057127581995,2.3022053241729736,-0.0001641342241782695,0.024778325110673904,0.01991497352719307,-0.042989399284124374,-2.4886514220007665e-39,-0.0008848448051139712,0.13407529890537262,0.1149216815829277,-9.21288776397705,0.6881819367408752,47.73793411254883,-0.343267560005188,-3.4305620193481445,-1.6198227405548096,-0.531659722328186,0.0004057206679135561,-0.33446604013442993,28.0625,30.0625,28.5,32.25,34.8125,36.0
1.0,-0.10751251999133499,-0.23832389024743875,-0.5782085445905408,-0.06468268951869413,0.015225858939794192,-0.11872214892897547,-0.5387545790485234,-0.32491078665069284,0.2590219965571008,-3.078628989935363,0.6246840658901875,-2.7921084236866305e-05,-0.0006966031280062016,-7.878118745694059e-05,-0.01977632776525553,0.0006403530019792437,-0.0020637203868720064,0.0005361123464392647,0.32725563645362854,-1.150454269056656,1.6630547682391565,-2.081792017022604,-1.5713933149920862,2.3021814823150635,-0.0002403989783488214,0.024448154494166374,0.020393462851643562,-0.04268180578947067,-1.6249176732617714e-40,-0.0007878385367803276,0.17238251864910126,0.13407529890537262,-9.21288776397705,0.7463666796684265,47.72002029418945,-0.3490985035896301,-3.373962640762329,-1.659973382949829,-0.542256236076355,0.005867503583431244,-0.3330003619194031,28.0625,30.0625,28.5,32.25,34.8125,36.0
1.0,0.1735140937578406,-0.6181257102693083,-0.599102225877857,-0.05300031619715396,0.016569368040200715,-0.11204386649429493,-0.5387506864705677,-0.3249237221965858,0.2590051641623248,-3.0786439813449085,0.6246487253256725,3.0974377455875324e-05,-0.000734267667250597,-8.759624394012691e-05,-0.019597150992150404,0.00045005312625911217,-0.0015059195162919086,0.0004518186513253217,0.32727959752082825,-1.1504303973964234,1.6630786100970667,-2.0818759403624476,-1.5714057127581995,2.3021814823150635,-0.00024669861886650324,0.024267416447401047,0.02031395025551319,-0.04301092028617859,-1.060923067340319e-41,-0.0007100168731994927,0.19153612852096558,0.07661445438861847,-9.327810287475586,0.7486078143119812,47.702110290527344,-0.29035821557044983,-3.450991153717041,-1.5625832080841064,-0.5648146867752075,-0.0021931403316557407,-0.3393259346485138,28.0625,30.0625,28.5,32.25,34.8125,36.0
1.0,0.05802682652730781,-0.588213243035687,-0.7088343078491756,-0.05692910423093449,0.015607794528137275,-0.11392720422529692,-0.5387664698390208,-0.324922488637241,0.25896691086393014,-3.0786374506115752,0.6247051961196207,4.858388210006218e-06,-0.0008209024835671135,0.00041323654773891346,-0.01976819783057656,0.0006808191203118324,-0.0021797247637374544,-0.00042811020986081177,0.3272674083709717,-1.150358424787857,1.6630786100970667,-2.081936021844381,-1.5713933149920862,2.3022053241729736,-0.0010629951721057296,0.024143358692526817,0.020793499425053596,-0.042654164135456085,-6.922414413764596e-43,-0.0006462130695581436,0.15322890877723694,0.019153613597154617,-9.289502143859863,0.7127973437309265,47.6734504699707,-0.27816635370254517,-3.411874771118164,-1.5410664081573486,-0.5791386961936951,-0.004411578178405762,-0.32863855361938477,28.0625,30.0625,28.5,32.25,34.8125,36.0
1.0,-0.5052655239602721,-1.0446039135137895,-0.619133061860792,-0.04561420045049171,0.006083386165254395,-0.10835917772196597,-0.5387526292234537,-0.3249202710567495,0.2588958702747485,-3.0786256514955186,0.6246837205895643,-0.00011218929059979593,-0.0006892666353909829,0.0003803120836589247,-0.020840844560860265,0.0012224176097813543,-0.0037720262977794,-0.00036117065642601507,0.32726743817329407,-1.150298075085022,1.6631744543658655,-2.082019945184225,-1.571369473134176,2.3021934032440186,-0.0009429079946130514,0.02534143254160881,0.02163860760629177,-0.043015431612730026,-4.484155085839415e-44,-0.0005929371691308916,0.13407529890537262,0.07661445438861847,-9.21288776397705,0.7486078143119812,47.71375274658203,-0.288292795419693,-3.472659111022949,-1.618303894996643,-0.6035075783729553,-0.0007625344442203641,-0.32796910405158997,28.0625,30.0625,28.5,32.25,34.8125,36.0
1.0,-0.21371774018155337,-0.554483733044866,-0.6627080970524157,-0.061319679446260655,0.010083160931553474,-0.10735642415779977,-0.5387543471654601,-0.3249092688196677,0.25887599145615364,-3.078612146492937,0.6246810420268162,-3.661662853271683e-05,-0.0006668557680570351,0.0002974815344900048,-0.022209069327303287,0.0014921240451839068,-0.004573682485663072,-0.0002671817004953935,0.3272554576396942,-1.1502853792956849,1.6632235685931605,-2.082116266290182,-1.5714057127581995,2.3021814823150635,-0.0008033273625187576,0.027055319398641586,0.02281409502029419,-0.04505901411175728,-2.802596928649634e-45,-0.000547782052308321,0.2106897532939911,0.1149216815829277,-9.251194953918457,0.7105615139007568,47.687782287597656,-0.286664217710495,-3.446429491043091,-1.6812236309051514,-0.5970789790153503,0.008341491222381592,-0.337088942527771,28.0625,30.0625,28.5,32.25,34.8125,36.0
1.0,0.26735971826512694,-0.33551346153189127,-0.5661875790576121,-0.06759320560372158,0.022936667664195196,-0.1141551149221752,-0.5387645298494199,-0.3249063155159949,0.2588370180202047,-3.0786114696413733,0.6247382392930029,-4.687868835155526e-05,-0.0005599242955907024,0.00026637704799264473,-0.02227797043986917,0.0016560828454164351,-0.005052883086056024,-0.000201641886384034,0.3272435665130615,-1.1502255660346528,1.6632474104510706,-2.0821997127928675,-1.5713933149920862,2.3022053241729736,-0.0006992138223722577,0.02702500857412815,0.022914201021194458,-0.04462232068181038,-0.0,-0.0005090284394100308,0.24899697303771973,0.09576806426048279,-9.232041358947754,0.6971306204795837,47.66001510620117,-0.28503188490867615,-3.489999771118164,-1.624060034751892,-0.5992971062660217,-0.005954132881015539,-0.32403498888015747,28.0625,30.0625,28.5,32.25,34.8125,36.0
1.0,-0.12904320202521402,-0.8036914055509148,-0.49183694394547245,-0.054808047110268626,0.009345427666205768,-0.10804435630364594,-0.5387611074549797,-0.32491817665945216,0.25879277748397,-3.0785963219843904,0.6246775812794011,-4.392345953700443e-05,-0.0003748040262701591,0.0002775322102885197,-0.022668947436827576,0.0024041241299783763,-0.0072410599463867895,-0.00015419773622965245,0.3272675573825836,-1.150165395145752,1.6632826964007776,-2.082283159295553,-1.5714176336871546,2.3021934032440186,-0.000619000056758523,0.027342569082975388,0.02290613017976284,-0.042619310319423676,-0.0,-0.0004753971006721258,0.2298433631658554,0.0,-9.193734169006348,0.7418897151947021,47.68330383300781,-0.30943572521209717,-3.4388315677642822,-1.534726858139038,-0.6574181914329529,-0.0031547509133815765,-0.32045525312423706,28.0625,30.0625,28.5,32.25,34.8125,36.0
1.0,0.20903514045537602,-0.6868884261916439,-0.4198145944957008,-0.05771382997554189,0.01477051899858773,-0.11763361876821135,-0.5387772507785965,-0.32489511405522786,0.2587256343614416,-3.078588288576192,0.6247336960034953,-0.00011135600613490363,-0.0007344073463046372,0.00011329148831765534,-0.022265438654429367,0.0017137119186911855,-0.005225024437891539,-0.00012063579443588889,0.3272196650505066,-1.1500814122012635,1.663342301045553,-2.082391401330465,-1.5713933149920862,2.3021814823150635,-0.0005553087103180587,0.027518607676029205,0.022082865238189697,-0.04410304129123688,-0.0,-0.0004459357587620616,0.17238251864910126,0.15322890877723694,-9.193734169006348,0.7150384783744812,47.68867492675781,-0.29279690980911255,-3.4332869052886963,-1.5523717403411865,-0.6859126687049866,-0.009235754609107971,-0.33468925952911377,28.0625,30.0625,28.5,32.25,34.8125,36.0
1.0,-0.2907310554075115,-1.0697687074370463,-0.7350841707594425,-0.05912936214946099,0.01341119122853883,-0.10318032606492647,-0.538767970880634,-0.32491145750609374,0.25873180406859964,-3.078602757172519,0.6247173208746573,3.0644643318813354e-05,-0.0005732199197566686,0.00013476549061903174,-0.022951805878009653,0.001803561167785697,-0.005491234860604333,-9.521268128571215e-05,0.3272555470466614,-1.150093362932541,1.6633666197406214,-2.082487245599264,-1.5714295546161097,2.3022053241729736,-0.0005035027279518545,0.028026176616549492,0.023245329037308693,-0.04549212381243706,-0.0,-0.00041991498437710106,0.15322890877723694,0.19153612852096558,-9.174580574035645,0.7418897151947021,47.702110290527344,-0.33745089173316956,-3.3210291862487793,-1.552659034729004,-0.7011904716491699,0.0049169776029884815,-0.3291177749633789,28.0625,30.0625,28.5,32.25,34.8125,36.0
1.0,0.46419129502038126,-0.7141074433070743,-0.508707278139392,-0.07206127003366046,0.04110189010067587,-0.11638971722776068,-0.5387686675785517,-0.3249258117003701,0.2586649091274799,-3.0786371738699225,0.6246860672857605,-8.302412612885791e-05,-0.00034260382517993515,0.00023491224485839754,-0.023951362926373385,0.0019908142071324215,-0.006044317713394927,-0.00015149547426416773,0.327267587184906,-1.1499972206405182,1.663403336201803,-2.082571645776266,-1.571369473134176,2.3021934032440186,-0.0005361799849197268,0.02871924638748169,0.024956850335001945,-0.047312766313552856,-0.0,-0.00039676629239693284,0.15322890877723694,0.13407529890537262,-9.193734169006348,0.7351769208908081,47.694053649902344,-0.3270638585090637,-3.411623477935791,-1.5956599712371826,-0.7193320989608765,-0.002103072125464678,-0.3266104459762573,28.0625,30.0625,28.5,32.25,34.8125,36.0
1.0,-0.422885292829411,-0.8058212728595304,-0.5223793752186636,-0.0655107636671874,0.03008324965701625,-0.11109984889801951,-0.5387746491732895,-0.3249072279715468,0.2586266988401556,-3.078598084605284,0.6246973650477353,-3.0367934101662918e-05,1.6216955045595886e-05,0.000330817107727064,-0.024453466849308533,0.002818310450250471,-0.008464157007522259,-0.00013026552405131218,0.3272436261177063,-1.1499611300281067,1.6634638945208948,-2.0826789341368617,-1.5714176336871546,2.3021814823150635,-0.000495054351631552,0.028782693669199944,0.025586603209376335,-0.04544856399297714,-0.0,-0.0003760363324545324,0.1149216815829277,0.19153612852096558,-9.21288776397705,0.7172743082046509,47.699424743652344,-0.33984342217445374,-3.405315399169922,-1.608138084411621,-0.7405232787132263,0.002204130170866847,-0.3272753953933716,28.0625,30.0625,28.5,32.25,34.8125,36.0
1.0,-0.3934553933282463,-0.9426408969469162,-0.5078849772465842,-0.05240378485010809,0.028762570128347157,-0.1079325328400546,-0.5387717482839123,-0.3248996764926597,0.2585750556309288,-3.0785812983447496,0.6247705873754597,-7.286743364466917e-05,3.841918630899301e-05,0.0003150154842610038,-0.024850386790243185,0.003117058565481206,-0.009341685717610152,-0.00011136806650654434,0.32723161578178406,-1.1499129992774506,1.6635354200946253,-2.0827743015685023,-1.5714057127581995,2.3022172451019287,-0.0004589894670061767,0.02930893748998642,0.025686848908662796,-0.045148056000471115,-0.0,-0.00035865503014065325,0.09576806426048279,0.13407529890537262,-9.232041358947754,0.7374180555343628,47.70121383666992,-0.3500616252422333,-3.3566083908081055,-1.5819982290267944,-0.8010886311531067,-0.006366817746311426,-0.32025396823883057,28.0625,30.0625,28.5,32.25,34.8125,36.0
1.0,-0.4497640037454691,-0.8601904305175365,-0.6800699210170325,-0.04860552037887318,0.02363025009748143,-0.10227012726986137,-0.5387652710810319,-0.32492214764610305,0.2585157717858751,-3.078600392874343,0.6246407776646337,-0.00013108528578427563,-7.199407234178591e-05,0.0002571412341981357,-0.02544328166402673,0.0025787308810130555,-0.007773754103071847,-0.00018952616747442541,0.3272676169872284,-1.1498288077167054,1.6635716597186487,-2.0828591785826625,-1.5713933149920862,2.3021697998046875,-0.00042781373485922813,0.030118003487586975,0.02668745443224907,-0.0486154742538929,-0.0,-0.00025050592375919223,0.2106897532939911,0.07661445438861847,-9.136273384094238,0.7060845494270325,47.71464920043945,-0.3553006649017334,-3.55435848236084,-1.5143229961395264,-0.7897207736968994,-0.00395353976637125,-0.32570141553878784,28.0625,30.0625,28.5,32.25,34.8125,36.0
1.0,-0.4682766742329683,-0.7433151351807628,-0.5120153720564558,-0.048803094829946075,0.027033710702882612,-0.10920348152940249,-0.5387684768009526,-0.32490891332482913,0.258439300248571,-3.0785763374618083,0.6246934707879739,-0.0002039136278009333,0.0002534942872463057,0.0003507118833334813,-0.02598438489953936,0.002398382974963255,-0.007247424595878352,-0.00018179668914533245,0.3272436559200287,-1.1497450035861512,1.6636555830584925,-2.082980295220846,-1.5713813940631312,2.3021817207336426,-0.00040060802712105215,0.030017178505659103,0.02858881838619709,-0.05097237601876259,-0.0,-0.00023181145661510527,0.15322890877723694,0.07661445438861847,-9.193734169006348,0.7575564384460449,47.7244987487793,-0.35447967052459717,-3.414374828338623,-1.5449782609939575,-0.8001340627670288,-0.001200169324874878,-0.33161094784736633,28.0625,30.0625,28.5,32.25,34.8125,36.0
1.0,-0.546206738058711,-0.9846767159500945,-0.5971970278436235,-0.05178708623236057,0.031111577729082237,-0.11003470400193521,-0.5387520991507863,-0.3249369698663367,0.25839112320942714,-3.0785876654552395,0.6246189837006931,-0.00028838425557640247,0.00025114953454712097,0.00033439605201802665,-0.02622004393931801,0.0021960588018863714,-0.006657120282308531,-0.00017003213028756074,0.3272916078567505,-1.1496848326972504,1.663691822682516,-2.0830284557738246,-1.571357552205221,2.3021817207336426,-0.0003766507434193045,0.030262630432844162,0.029092028737068176,-0.052345048636198044,-0.0,-0.00022009063104633242,0.15322890877723694,0.09576806426048279,-9.155426979064941,0.6344689130783081,47.731666564941406,-0.39387619495391846,-3.4753546714782715,-1.5768897533416748,-0.8085340857505798,-0.007734655402600765,-0.31575340032577515,28.0625,30.0625,28.5,32.25,34.8125,36.0
1.0,-0.3935740790712916,-0.516865322993974,-0.49959737995754633,-0.05699887102243702,0.03477435178358613,-0.11311537628781512,-0.5387691734794255,-0.3249104090417508,0.2583575451857629,-3.078584573874721,0.624733429724479,-0.00019876693888933055,-5.581823542359036e-05,0.00021571218663157506,-0.02610308071940732,0.001537378716520905,-0.004735519600299574,-0.00015990220385217997,0.3272436857223511,-1.1496486526778718,1.663752857838766,-2.083184858361715,-1.571369473134176,2.3022055625915527,-0.0003553997667040676,0.03063398227095604,0.02878415957093239,-0.054439883679151535,-0.0,-0.00020980181579943746,0.09576806426048279,0.038307227194309235,-9.251194953918457,0.7329410910606384,47.71733474731445,-0.389891654253006,-3.4634900093078613,-1.5464324951171875,-0.8162940740585327,-0.0024618026800453663,-0.32615479826927185,28.0625,30.0625,28.5,32.25,34.8125,36.0
1.0,-0.44131702342135115,-0.556257895099336,-0.4339706456101529,-0.05326275047607856,0.04854254700382916,-0.11413971861795248,-0.5387740091970871,-0.3249120478643872,0.2582715090043633,-3.078605019688545,0.6246994778003007,-0.0001640122276200552,-0.00015650862098685013,0.00018757544144485045,-0.027196767678416243,0.0004271955317291063,-0.0015006497471891937,-0.00018959829169631358,0.3272436857223511,-1.1495404702476044,1.663849178944723,-2.0834151707091273,-1.571369473134176,2.3021817207336426,-0.00036476468085311353,0.03182477131485939,0.031192345544695854,-0.06145892292261124,-0.0,-0.00019190179591532797,0.05746084079146385,-0.038307227194309235,-9.232041358947754,0.6568484306335449,47.692256927490234,-0.3924792408943176,-3.5546505451202393,-1.5883688926696777,-0.8055084347724915,-0.003659070236608386,-0.31847065687179565,28.0625,30.0625,28.5,32.25,34.8125,36.0
1.0,-0.8239868268904307,-0.8312583657506839,-0.6882816106745921,-0.053167278670556845,0.04344008973345678,-0.10162978122563995,-0.5387764339985867,-0.32490379456476726,0.25821788418956004,-3.0785796097043283,0.6247136219793664,-0.00018668156323701406,-0.00023692895042462265,0.00014888520512586038,-0.027722897176090312,0.00019045610378154573,-0.0008145594396381443,-0.00018073633386148894,0.32723164558410645,-1.1494801205447693,1.6639083067523401,-2.083511014977926,-1.5713813940631312,2.3021817207336426,-0.0003473726974334568,0.032565854489803314,0.031829338520765305,-0.0635627806186676,-0.0,-0.00018405153241474181,0.13407529890537262,-0.05746084079146385,-9.21288776397705,0.7642692923545837,47.72092056274414,-0.4338902235031128,-3.50515079498291,-1.6731754541397095,-0.769996166229248,-0.00289577292278409,-0.33747684955596924,28.0625,30.0625,28.5,32.25,34.8125,36.0
1.0,-0.8529583383442474,-0.9852312963933596,-0.7198762235018478,-0.053625120877240876,0.042106903381113725,-0.10249511047300756,-0.5387674224030515,-0.3249266007870978,0.25815975603566305,-3.0786179780643517,0.6247211784323443,-0.00015646824417736205,-0.000409847234225701,7.941766864693214e-05,-0.027637704336958502,-0.0005189181636350446,0.0012578969699833778,-0.00017298364842888896,0.3272676467895508,-1.1494082671454926,1.663980786000387,-2.083691736260885,-1.571357552205221,2.302217483520508,-0.00033138637081719935,0.03266824036836624,0.032067373394966125,-0.06609369814395905,-0.0,-0.0001768182555679232,0.0,-0.05746084079146385,-9.21288776397705,0.6389458775520325,47.72002029418945,-0.37340065836906433,-3.559652328491211,-1.6174705028533936,-0.7877798080444336,0.005914149805903435,-0.31361666321754456,28.0625,30.0625,28.5,32.25,34.8125,36.0
1.0,-0.9393576552549969,-1.281433734833735,-0.7394654910227418,-0.050450431923673766,0.039839360785000597,-0.10898652289167557,-0.5387721883528576,-0.32491914627768886,0.2581003677557104,-3.0786011310069954,0.6246988560166806,-0.0001761745651915013,-0.0009945634489979382,-0.00012978827655075846,-0.027445718503920837,-0.002255720513892455,0.006329653669425294,-0.0001674712221023474,0.32725560665130615,-1.1493362945369263,1.6640399138080042,-2.083801408807272,-1.571369473134176,2.3021936416625977,-0.0003168043040204793,0.03325894847512245,0.03218092396855354,-0.07215885072946548,-0.0,-0.00017013208707794547,-0.038307227194309235,0.038307227194309235,-9.27034854888916,0.7127973437309265,47.723602294921875,-0.3784889578819275,-3.419498920440674,-1.6594715118408203,-0.7139954566955566,-0.015336490236222744,-0.3242386281490326,28.0625,30.0625,28.5,32.25,34.8125,36.0
1.0,-0.5977934647207268,-1.0330314134225707,-0.6625854830184145,-0.06768130673626666,0.051114122453314155,-0.10866410432291118,-0.5387724016050356,-0.3249127167516369,0.25805119373824503,-3.0786202025493252,0.6246837137544508,-0.00017159253616227683,-0.0012947787046895592,-0.00024071826848165835,-0.029339851818733196,-0.0020633012569263092,0.005745275817708955,-0.0001610936467765451,0.3272436857223511,-1.149287150507309,1.6641128698932093,-2.0839339695372523,-1.571357552205221,2.3021697998046875,-0.00030345210689119995,0.03618568554520607,0.03313705325126648,-0.07542650401592255,-0.0,-0.00016393320402130485,0.0,0.05746084079146385,-9.251194953918457,0.7060845494270325,47.71017074584961,-0.3794509768486023,-3.669379711151123,-1.6420252323150635,-0.6623334288597107,-0.0194330383092165,-0.3295018672943115,28.0625,30.0625,28.5,32.25,34.8125,36.0
1.0,-1.0899557708409848,-1.3149237141914525,-0.6998626898241351,-0.07019361153989581,0.04569058615544998,-0.10102467906209518,-0.538771261710195,-0.3249150260535893,0.2579549443260184,-3.078550438372305,0.6246694289517607,-0.0002138014891499298,-0.001429098030321715,-0.0002946676059680485,-0.02880607160131211,-0.0027154051579985385,0.007654678591182695,-0.00015523052976926642,0.32725563645362854,-1.1491673451713105,1.664196793233053,-2.084078451196188,-1.5714057127581995,2.3021817207336426,-0.0002911789051722735,0.03569919615983963,0.03289932757616043,-0.0767199844121933,-0.0,-0.00015816991799511015,-0.09576806426048279,0.09576806426048279,-9.327810287475586,0.7575564384460449,47.711063385009766,-0.4541320204734802,-3.6480088233947754,-1.6082981824874878,-0.6569771766662598,-0.003023441880941391,-0.3100604712963104,28.0625,30.0625,28.5,32.25,34.8125,36.0
1.0,-1.2223108400552174,-1.1591696408935581,-0.5941637020192507,-0.06857742939707569,0.04668998846318928,-0.10750114633315219,-0.5387640240667496,-0.3249098727194295,0.2579054231014004,-3.0785869252764955,0.6247342962193104,-0.0002332977762658729,-0.0013470806312804746,-0.0003177225922547239,-0.02829921041700608,-0.003927196536541817,0.011203977648517558,-8.371729286016982e-05,0.32724374532699585,-1.1491317015937348,1.6642921606646937,-2.0842234096922816,-1.571357552205221,2.3022055625915527,-0.00021265639225021005,0.03466309979557991,0.03407652676105499,-0.08061154186725616,-0.0,-0.0001527988788438961,-0.09576806426048279,0.2298433631658554,-9.423578262329102,0.7486078143119812,47.72987747192383,-0.4706987142562866,-3.576129674911499,-1.673804521560669,-0.6096569299697876,-0.025688402354717255,-0.32176673412323,28.0625,30.0625,28.5,32.25,34.8125,36.0
1.0,-0.45654385303575695,-0.8416474133158633,-0.6842572493879594,-0.07942121594175187,0.06905553366227316,-0.11721387171015314,-0.5387693672637967,-0.32491818187500854,0.25783099992895003,-3.0785726228390216,0.6246932004924262,-0.00025657808413991014,-0.0014393981031967972,-0.0003607211620975108,-0.028729362061010927,-0.004271963736031384,0.012206211448166946,-7.181284413724465e-05,0.3272556662559509,-1.1490237575820466,1.6643403212176722,-2.084355493585104,-1.571369473134176,2.3021936416625977,-0.00019493931904435158,0.03529278561472893,0.03469791263341904,-0.08292248845100403,-0.0,-0.00014778017066419125,0.05746084079146385,0.17238251864910126,-9.366117477416992,0.6837049722671509,47.71017074584961,-0.42119795083999634,-3.564434051513672,-1.5808465480804443,-0.5660587549209595,-0.004181212279945612,-0.3263571858406067,28.0625,30.0625,28.5,32.25,34.8125,36.0
1.0,-0.4955474110765714,-0.7443052607515089,-0.7228248950603771,-0.0781771253622899,0.06100354573050989,-0.1159431017220212,-0.5387854773077846,-0.3249068416072733,0.2578060646570541,-3.078604251670613,0.6247572662094236,-0.00010257497582899398,-0.0016717745273789955,-0.0004219061329065856,-0.030083866917020533,-0.0038870350490375336,0.011065765987564884,-0.00010429502133470003,0.32723167538642883,-1.1489869219115754,1.6643889586078089,-2.0845476589598597,-1.5713813940631312,2.3022055625915527,-0.00022256237571127713,0.03746742382645607,0.03503584489226341,-0.0842314064502716,-0.0,-0.00014308076060842723,0.07661445438861847,0.15322890877723694,-9.346963882446289,0.7127973437309265,47.69853210449219,-0.47089192271232605,-3.5545191764831543,-1.644997477531433,-0.5318650007247925,-0.010287528857588768,-0.3252439498901367,28.0625,30.0625,28.5,32.25,34.8125,36.0
1.0,-0.3850741771806677,-0.3141185647145816,-0.5518309825039621,-0.08666584027623964,0.05228256882344197,-0.1183205652080541,-0.5387812949249745,-0.32493529123904014,0.2577425312642595,-3.0786395764419456,0.6245906242234411,-6.230127722947143e-05,-0.0014286645652963267,-0.00032320747430496536,-0.030271762426856266,-0.0035453041166463852,0.010066734883303619,-0.00013259329410341214,0.32727959752082825,-1.1488910478404541,1.6644371191607874,-2.084714551965231,-1.5713933149920862,2.302145004272461,-0.00024675234453752637,0.037243716418743134,0.03561769053339958,-0.08353368937969208,-0.0,-0.00013867122470401227,0.038307227194309235,0.15322890877723694,-9.308655738830566,0.7597975730895996,47.7164421081543,-0.4670661687850952,-3.650114059448242,-1.6982768774032593,-0.5163124799728394,-0.003496603574603796,-0.33668050169944763,28.0625,30.0625,28.5,32.25,34.8125,36.0
1.0,-0.19170060484891777,-0.7665130907150629,-0.5935875257055792,-0.06666831017981699,0.04163940002350871,-0.11155640367672821,-0.5387775725444093,-0.32492344088514014,0.25766100287675425,-3.0786623047650266,0.6247118083026575,-8.674023459916799e-05,-0.0013578874985773,-0.00028083820298141195,-0.03157237345742191,-0.002462443294721497,0.007090467082894506,-0.00015309965740171043,0.32725563645362854,-1.148818628197052,1.6645696798907679,-2.0849296055235804,-1.571345631276266,2.3021936416625977,-0.0002639684535097331,0.03888154402375221,0.03603777661919594,-0.08242495357990265,-6.480610318249092e-05,-0.00013452558778226376,-0.05746084079146385,0.15322890877723694,-9.327810287475586,0.6948947906494141,47.658226013183594,-0.4859086871147156,-3.6474411487579346,-1.6485881805419922,-0.5020490288734436,-0.008763925172388554,-0.3236818015575409,28.0625,30.0625,28.5,32.25,34.8125,36.0
1.0,-0.16594619756463969,-0.3579249508429424,-0.5421744553315426,-0.060896995244923945,0.0325505765555976,-0.11395611374309265,-0.5387875341289926,-0.3249230808939873,0.25758656240693634,-3.0786124284600263,0.6247398570693624,-9.254181585498514e-05,-0.0008783552225495639,-0.00011405119977353032,-0.032481079971357525,-0.0010581039429084307,0.0030207369657985726,-0.00015800715132969646,0.32725563645362854,-1.1487105351737519,1.6646173636065882,-2.085060258904928,-1.5713813940631312,2.302217483520508,-0.0002664054627530277,0.03928636386990547,0.03683432564139366,-0.07932110875844955,-7.715058018220589e-05,-0.00013062018842902035,0.05746084079146385,0.07661445438861847,-9.346963882446289,0.8000850081443787,47.72270965576172,-0.49029046297073364,-3.661637544631958,-1.6673133373260498,-0.5104215741157532,-0.017136037349700928,-0.3154639005661011,28.0625,30.0625,28.5,32.25,34.8125,36.0
1.0,0.371033211191364,-0.17808716052621193,-0.48777673065775307,-0.046953495176424505,0.024025039936734188,-0.11588861186712535,-0.5387982459225584,-0.32491885268057946,0.25755125598392914,-3.0786784648397942,0.6246566576997205,3.623606600402258e-05,-0.00044728625974189257,0.0003856698789388016,-0.03225089540640759,-0.0004755810842829865,0.0013270631967270906,-0.0007034870099804661,0.32724350690841675,-1.1486630600741883,1.6646769682513636,-2.085262437860006,-1.5713813940631312,2.302145004272461,-0.0008089935290627182,0.03786421939730644,0.03778601810336113,-0.07705961167812347,-7.67139281379059e-05,-0.00012693542521446943,0.07661445438861847,0.09576806426048279,-9.289502143859863,0.7038487195968628,47.703006744384766,-0.4702277183532715,-3.5933127403259277,-1.674675464630127,-0.5417662262916565,-0.007266624365001917,-0.33320361375808716,28.0625,30.0625,28.5,32.25,34.8125,36.0
1.0,0.08375272343080067,-0.24256574745460383,-0.567095826048498,-0.026050555587169684,0.002105484483899356,-0.11237590777570017,-0.5388010460387901,-0.3249067307682178,0.257481639073565,-3.078664896028806,0.6248277102860633,1.7125441752525618e-05,-0.0003686723250529711,0.0004306260566017898,-0.0325805503361355,0.00011252389229036435,-0.00039834511961364986,-0.0007342910164821839,0.32721954584121704,-1.1485910576632996,1.6647723356830042,-2.0854298077025355,-1.571357552205221,2.302229404449463,-0.0008369967690669,0.03823019564151764,0.037671271711587906,-0.07548795640468597,-7.548453140771016e-05,-0.0001234528754139319,0.1149216815829277,0.07661445438861847,-9.21288776397705,0.7172743082046509,47.72002029418945,-0.41526085138320923,-3.484863758087158,-1.756767988204956,-0.5594828128814697,-0.011371406726539135,-0.3193356990814209,28.0625,30.0625,28.5,32.25,34.8125,36.0
1.0,0.13478073940709914,-0.26320013233949774,-0.5611533124956841,-0.026265018473977886,-0.0013604633885926243,-0.11036259464217343,-0.5388175364582946,-0.32491235460169243,0.2574267485791184,-3.078700704989633,0.6247395244739576,6.346299404235469e-05,-0.00038917800677725417,0.00042867888889731913,-0.03415234839177263,0.0011377851598690313,-0.003415324726338533,-0.0007445913433386099,0.32721954584121704,-1.1484942597201844,1.6647971312152308,-2.085585733453268,-1.571357552205221,2.3021697998046875,-0.0008446264546364546,0.04039112851023674,0.03808625787496567,-0.07487744837999344,-7.424283103318885e-05,-0.00012015619722660631,0.28730419278144836,-0.07661445438861847,-9.21288776397705,0.6926589012145996,47.699424743652344,-0.44682613015174866,-3.7511253356933594,-1.6714231967926025,-0.5573644042015076,-0.011940146796405315,-0.31360161304473877,28.0625,30.0625,28.5,32.25,34.8125,36.0
1.0,0.4448640182230441,0.03532274975104388,-0.381771456737672,-0.037619197817693364,0.0011185649217033706,-0.11145974348965444,-0.5388121304844794,-0.32490672298809026,0.2573275093842115,-3.0786278315809135,0.62476294864261,-5.281411446729101e-06,4.765198421224047e-05,0.0007148261346957784,-0.03435129485737135,0.0019007354504342188,-0.005648260242477155,-0.0009609741359580146,0.32723140716552734,-1.1483386617949982,1.6649654547320765,-2.08587183574819,-1.5714176336871546,2.3021936416625977,-0.0010557722998782992,0.03975651413202286,0.038945794105529785,-0.07274270057678223,-7.187153823906556e-05,-0.00011406440899008885,0.363918662071228,-0.05746084079146385,-9.117119789123535,0.7799360156059265,47.742408752441406,-0.418145090341568,-3.6514625549316406,-1.6788016557693481,-0.6109360456466675,-0.013726389035582542,-0.31487080454826355,28.0625,30.0625,28.5,32.25,34.8125,36.0
1.0,0.26590656970210635,-0.1604706890438487,-0.35834338115751985,-0.034273231507360835,-0.00407017768504927,-0.10634496113422832,-0.5388098244604731,-0.3249111045817713,0.2572854394712665,-3.0786278085704883,0.62474390329335,5.969418842094577e-05,4.765198421224047e-05,0.0007148261346957784,-0.03435129485737135,0.0019007354504342188,-0.005648260242477155,-0.0009609741359580146,0.32723140716552734,-1.1483386617949982,1.6649654547320765,-2.08587183574819,-1.5714176336871546,2.3021936416625977,-0.0010557722998782992,0.03975651413202286,0.038945794105529785,-0.07274270057678223,-7.187153823906556e-05,-0.00011406440899008885,0.3447650372982025,-0.1149216815829277,-9.155426979064941,0.6792280077934265,47.71375274658203,-0.44399869441986084,-3.6496403217315674,-1.6862058639526367,-0.6364091038703918,-0.009889394044876099,-0.30995750427246094,28.0625,30.0625,28.5,32.25,34.8125,36.0
1.0,0.3936247650246505,-0.08226865669956232,-0.36411125177270254,-0.03338683565473286,-0.013494386660759332,-0.10806771426286929,-0.5387985303819055,-0.32491103018626516,0.25715616616141135,-3.0786399528920416,0.6247465604793686,-2.06699022697792e-05,0.0007060762725067869,0.0009121697662766878,-0.03584092965032031,0.0037572938433158977,-0.011067642751975085,-0.0009213645520626739,0.32723140716552734,-1.148206428890564,1.6651337782489222,-2.0861345730223597,-1.5713813940631312,2.3021936416625977,-0.001012376043945551,0.040621332824230194,0.040341366082429886,-0.06927450746297836,-7.65074000810273e-05,-0.00010856078733922914,0.325611412525177,-0.07661445438861847,-9.078812599182129,0.7239871025085449,47.725399017333984,-0.46622568368911743,-3.6876654624938965,-1.7120065689086914,-0.6663777232170105,-0.005465055350214243,-0.32813677191734314,28.0625,30.0625,28.5,32.25,34.8125,36.0
1.0,-0.014062969772485697,-0.035103362761993176,-0.3760695691361254,-0.0404927385142287,-0.01846326249218938,-0.11001355883225142,-0.5388123386549993,-0.3248951333058888,0.25708242150727145,-3.078591995702905,0.6247751385878799,1.7452312716166833e-05,0.0007253379781585958,0.0008546445357043835,-0.03597291430729591,0.0037639312482207316,-0.011072915943308647,-0.0008244904455543234,0.32720747590065,-1.1481105846217652,1.6652053038226526,-2.086301942864889,-1.5714295546161097,2.3021936416625977,-0.0009128698729909956,0.04081634432077408,0.04043508321046829,-0.0695560947060585,-8.184088073903695e-05,-0.00010600315727060661,0.3447650372982025,-0.1149216815829277,-9.136273384094238,0.7172743082046509,47.71017074584961,-0.4481477737426758,-3.578779458999634,-1.6951279640197754,-0.6953648328781128,-0.00850749108940363,-0.31422215700149536,28.0625,30.0625,28.5,32.25,34.8125,36.0
1.0,0.5046746698599077,-0.5365238448290207,-0.42666808212898677,-0.03282767272292787,-0.0013717028200063795,-0.10433488065745407,-0.5387896346517095,-0.3249014908288095,0.25697879085097297,-3.0785806463195473,0.6247536781066274,-0.0002112969443714399,0.0013757123110605387,0.0011038162338016652,-0.0369555817834179,0.005049776454470509,-0.014834906666453108,-0.0008673789819155973,0.32721951603889465,-1.14801441252742,1.6653249899493616,-2.086384435693258,-1.571369473134176,2.3021936416625977,-0.0009544528438709676,0.04088885337114334,0.042051974684000015,-0.06726981699466705,-8.103673462755978e-05,-0.00010356348502682522,0.3447650372982025,-0.019153613597154617,-9.02135181427002,0.6859408020973206,47.72629165649414,-0.45219606161117554,-3.587132453918457,-1.7956717014312744,-0.7501950263977051,-0.013832565397024155,-0.3135060966014862,28.0625,30.0625,28.5,32.25,34.8125,36.0
1.0,0.20909347673960654,-0.7832708805902625,-0.5008057549008733,-0.0396181737038308,0.004782036678919122,-0.10684243469215603,-0.5387939890765079,-0.3249082166846642,0.25693873124923383,-3.0785891154816634,0.624698090073345,-0.00014507009820749375,0.0017294798340042796,0.0012195777276949329,-0.03789290570425806,0.0055257940791859006,-0.016233569315143293,-0.0008618674448197958,0.32723143696784973,-1.1479544800570984,1.6653621832477015,-2.0865165195860804,-1.5713933149920862,2.3021697998046875,-0.0009466057526879013,0.041358642280101776,0.0436616875231266,-0.06787187606096268,-7.986588752828538e-05,-0.00010123349784407765,0.24899697303771973,0.05746084079146385,-9.059659004211426,0.7665104269981384,47.742408752441406,-0.4356546401977539,-3.6001105308532715,-1.8472362756729126,-0.7890684604644775,-0.00829332321882248,-0.3261989951133728,28.0625,30.0625,28.5,32.25,34.8125,36.0
1.0,0.06525619125450469,-0.793938717158679,-0.44752494811188764,-0.05498901749139851,0.026896629347234528,-0.10972014202776384,-0.5387821534412798,-0.32490666157427034,0.25684136902707505,-3.078570958994741,0.6247136134297281,-0.00025935481060544436,0.0012757493179186763,0.0010785711803544277,-0.03728985021206203,0.003976273097372368,-0.011706907889847304,-0.0008878084189929718,0.32723143696784973,-1.1478585463813324,1.6654823462115687,-2.0866624317564906,-1.571369473134176,2.3021817207336426,-0.000968421169091016,0.04122060537338257,0.043506111949682236,-0.07236278802156448,-7.870366971474141e-05,-9.900634904624894e-05,0.2106897532939911,0.038307227194309235,-9.174580574035645,0.6255202293395996,47.72718811035156,-0.44074133038520813,-3.606214761734009,-1.9201023578643799,-0.802023708820343,-0.007702396251261234,-0.2997148036956787,28.0625,30.0625,28.5,32.25,34.8125,36.0
1.0,-0.5162067041160584,-1.1020264110040303,-0.41404059373847363,-0.06734649517270684,0.031232826210000387,-0.1068677687320827,-0.5387810399965238,-0.32488819833541094,0.2567476092083427,-3.0784912239363353,0.6247931109152158,-0.00035314160837388747,0.0009398524806459461,0.0009960725961967358,-0.03668719419591153,0.003516425695985954,-0.010345977010051256,-0.0009390977607467977,0.32720747590065,-1.1477626127055665,1.6655882040606897,-2.086781164208883,-1.5713933149920862,2.302217483520508,-0.0010173748014494777,0.04109977185726166,0.04234582185745239,-0.07251816987991333,-8.394276665057987e-05,-9.687490091891959e-05,0.19153612852096558,0.038307227194309235,-9.136273384094238,0.6590895652770996,47.67255783081055,-0.4995218813419342,-3.5097856521606445,-1.7100449800491333,-0.8205031156539917,-0.018940864130854607,-0.3311448395252228,28.0625,30.0625,28.5,32.25,34.8125,36.0
1.0,0.038920779392441596,-0.901525978240477,-0.465098626261349,-0.08350446933567796,0.05714557915277799,-0.1234531388271288,-0.5387692285932978,-0.3248944563526276,0.256657558112083,-3.078498395093358,0.6246783577385535,-0.00047034395824356617,0.0012524580434037538,0.0011229187265528726,-0.03814882951908927,0.0036065451025013417,-0.010603089533944763,-0.0009718849046127945,0.32721948623657227,-1.1476664406112214,1.6656859556781214,-2.086902757684225,-1.571369473134176,2.302156925201416,-0.0010471767745912075,0.042148854583501816,0.04497501626610756,-0.07592399418354034,-8.87921269168146e-05,-9.483334724791348e-05,0.15322890877723694,0.13407529890537262,-9.21288776397705,0.7195101380348206,47.699424743652344,-0.41833505034446716,-3.5877442359924316,-1.907799482345581,-0.8289781808853149,-0.013306192122399807,-0.3064761459827423,28.0625,30.0625,28.5,32.25,34.8125,36.0
1.0,-0.5175582221417268,-1.4441976557749676,-0.602164310494199,-0.08493429957234636,0.05657403938207121,-0.12117811051658144,-0.5387712290549442,-0.32488734943287284,0.2566177440200852,-3.078523455618895,0.6247424953227566,-0.00037061939395082095,0.0010064408102852375,0.000938873194756191,-0.037834310656572896,0.002291511419861039,-0.0067616642886714875,-0.0008218989691732762,0.3272075057029724,-1.1476304096034546,1.6657698790179651,-2.0870963535704554,-1.571369473134176,2.3021817207336426,-0.0008934458601288497,0.04207691177725792,0.045352108776569366,-0.08028942346572876,-8.79465151228942e-05,-9.287603461416438e-05,0.13407529890537262,0.13407529890537262,-9.232041358947754,0.6702793836593628,47.70927429199219,-0.5193636417388916,-3.5589356422424316,-1.8776605129241943,-0.8094966411590576,0.006169249303638935,-0.2967871427536011,28.0625,30.0625,28.5,32.25,34.8125,36.0
1.0,-1.0717660258545403,-1.761754141592411,-0.7592889450401945,-0.09022133042355945,0.05811617537075006,-0.10610516165243943,-0.5387612546597792,-0.32489300226885265,0.2565191421100739,-3.078507943843147,0.6247201332230865,-0.0004611798824946656,0.000927376955701282,0.0009022092438585725,-0.038733567322459396,0.0015924354811007431,-0.004730337504441811,-0.000810557976310955,0.32721954584121704,-1.1475221079638978,1.6658781210528772,-2.0872532329955042,-1.571357552205221,2.3021817207336426,-0.0008785536047071218,0.04314098134636879,0.04701715707778931,-0.08516678959131241,-8.676107245264575e-05,-9.099773888010532e-05,0.1149216815829277,0.2106897532939911,-9.385271072387695,0.7418897151947021,47.71464920043945,-0.5081440210342407,-3.5437393188476562,-1.9527099132537842,-0.7700328826904297,-0.00621570460498333,-0.3235539197921753,28.0625,30.0625,28.5,32.25,34.8125,36.0
1.0,-0.8271468994846045,-1.206415805170759,-0.669209283857312,-0.10152902936289318,0.06931742022715406,-0.11307955729722885,-0.5387643595574395,-0.32488249560870536,0.25643514443551396,-3.0784594955750997,0.6247486252901338,-0.00046292606968515154,0.00012283265501420105,0.0005650795618736196,-0.03779578153661062,-0.00016957969422642065,0.00041537244950164734,-0.0007186438275411883,0.3272075355052948,-1.1474260550788422,1.6659730116473597,-2.087422033349508,-1.5713933149920862,2.3021936416625977,-0.0007829734240658581,0.04339548200368881,0.04547536373138428,-0.08931852877140045,-8.558409899706021e-05,-8.919403626350686e-05,0.019153613597154617,0.24899697303771973,-9.442731857299805,0.6881819367408752,47.69853210449219,-0.4502078890800476,-3.6090948581695557,-1.883067011833191,-0.7338871359825134,-0.02708895318210125,-0.3079477548599243,28.0625,30.0625,28.5,32.25,34.8125,36.0
1.0,-0.5971607162745358,-1.2419695374249273,-0.5271805848201376,-0.09231869985763516,0.07614393689816427,-0.11769278972437751,-0.5387768338674491,-0.32488018906460536,0.25633873102530064,-3.078467224081659,0.6247695707427512,-0.0004695273698011958,-0.0005795111120326669,0.00026894598919308756,-0.037673055402208486,-0.0022296516389346648,0.006427265808399708,-0.0006368658538887513,0.32719552516937256,-1.1472939115813752,1.6660569349872034,-2.087640424767965,-1.5713813940631312,2.3021936416625977,-0.0006965363281778991,0.04429804906249046,0.04561372473835945,-0.09671451151371002,-8.443718979833648e-05,-8.746052481001243e-05,-0.038307227194309235,0.19153612852096558,-9.461885452270508,0.6613254547119141,47.70838165283203,-0.425784170627594,-3.600534677505493,-1.8342881202697754,-0.685896635055542,-0.01433856412768364,-0.2998886704444885,28.0625,30.0625,28.5,32.25,34.8125,36.0
1.0,-0.7347990491391019,-1.009378155146174,-0.8152454481759925,-0.0957336085321163,0.06814893596205476,-0.11891021068307113,-0.5387559174963931,-0.3248911841066286,0.25628264720628574,-3.0785123529374636,0.6247403025131485,-0.00044095802604799154,-0.0002507072500192057,0.00037400178293911735,-0.03826445722497109,-0.0022623463677968014,0.0065181029287586225,-0.0006280638761841441,0.3272196054458618,-1.147257999782898,1.6661775747882288,-2.087832113305563,-1.571357552205221,2.3021936416625977,-0.0006854773382656276,0.044290412217378616,0.04739637300372124,-0.0985860526561737,-8.332043216796592e-05,-8.579299174016342e-05,-0.09576806426048279,0.2298433631658554,-9.366117477416992,0.7105615139007568,47.6976318359375,-0.4765915870666504,-3.6469876766204834,-1.9617319107055664,-0.645707368850708,-0.003136914689093828,-0.31788700819015503,28.0625,30.0625,28.5,32.25,34.8125,36.0
1.0,-0.973203901315884,-1.5024936068485073,-0.8235345139104611,-0.07983303009060477,0.061323410400786454,-0.10759854941303705,-0.5387605521181754,-0.3248927560366386,0.25620703656279853,-3.078510603723442,0.6248164685636538,-0.00040567937189550223,-0.0009924943675988856,9.843511400306952e-05,-0.03825670937465916,-0.004093593069867619,0.011859132158350204,-0.0005982392011356491,0.3272196054458618,-1.1471616190722962,1.6662614981280726,-2.088038583795065,-1.571357552205221,2.302241325378418,-0.0006514235865324736,0.04543636366724968,0.047297246754169464,-0.1052791178226471,-8.223288750741631e-05,-8.418794459430501e-05,-0.038307227194309235,0.26815059781074524,-9.385271072387695,0.7239871025085449,47.702110290527344,-0.5023650527000427,-3.625235080718994,-1.9509234428405762,-0.5794060826301575,-0.007765322923660278,-0.29961439967155457,28.0625,30.0625,28.5,32.25,34.8125,36.0
1.0,-0.456737342087476,-0.9468502450223206,-0.7744896370170287,-0.08078715302841485,0.06439714736526422,-0.11743744268073533,-0.53876955688082,-0.3248945879187465,0.256120817469195,-3.078522561142953,0.6247042679204691,-0.0003980242481052735,-0.0009573940671800872,7.69538262780608e-05,-0.03835632640071878,-0.003829435294332378,0.01108259900188742,-0.0005480943523531274,0.3272196352481842,-1.1470417243293305,1.666333023701803,-2.088228841821188,-1.571369473134176,2.3021697998046875,-0.0006000685971230268,0.045600734651088715,0.047105081379413605,-0.10443109273910522,-8.117337711155415e-05,-8.264178177341819e-05,-0.09576806426048279,0.2106897532939911,-9.385271072387695,0.7329410910606384,47.71733474731445,-0.5310213565826416,-3.5829336643218994,-1.918630838394165,-0.5398548245429993,-0.022040246054530144,-0.30420681834220886,28.0625,30.0625,28.5,32.25,34.8125,36.0
1.0,-0.731493820365813,-1.0974510918289464,-0.9353097910488901,-0.06428926131888736,0.05045273261520902,-0.10328447008567616,-0.5387645898383324,-0.3248903985513615,0.2560443199042786,-3.0785166309359613,0.6247795146856273,-0.0002999928272846269,-0.0007895047201910476,6.0864577596464335e-05,-0.03883013156543446,-0.003346584901997885,0.009664769412029673,-0.0004362585372807732,0.3272196650505066,-1.146969513302185,1.6664655844317835,-2.088492055932516,-1.5713933149920862,2.302217483520508,-0.00048713895375840366,0.04602007940411568,0.04743131622672081,-0.1036788821220398,-8.014080231077969e-05,-8.115131640806794e-05,-0.038307227194309235,0.2106897532939911,-9.423578262329102,0.6635612845420837,47.70121383666992,-0.524415910243988,-3.617063522338867,-1.8472744226455688,-0.5349896550178528,-0.005012849345803261,-0.3083820343017578,28.0625,30.0625,28.5,32.25,34.8125,36.0
1.0,-0.3038768418467485,-0.612115710879439,-0.9512621674007649,-0.05245498442844715,0.03771265004871165,-0.11250766525267217,-0.5387677120635902,-0.32489146993968676,0.2559423540884891,-3.078494829268215,0.6247368785099969,-0.0003810374246395798,-0.00025910565477307894,0.0002364730416416617,-0.04005523323471132,-0.00106356424367615,0.002978453582481602,-0.00042803373534622204,0.32719558477401733,-1.146741436128952,1.6666086355792444,-2.088872571984762,-1.571369473134176,2.3021697998046875,-0.0004787123471032828,0.04696006700396538,0.04754767194390297,-0.09766988456249237,-7.815251592546701e-05,-7.832633855286986e-05,0.019153613597154617,0.038307227194309235,-9.366117477416992,0.6747510433197021,47.685096740722656,-0.5091689825057983,-3.604198694229126,-1.866765022277832,-0.5639504194259644,-0.01944298855960369,-0.3050858676433563,28.0625,30.0625,28.5,32.25,34.8125,36.0
1.0,0.13221467100474726,0.11119104990143519,-0.8394265165627827,-0.03323438389180932,0.022276229219855587,-0.11600525655961155,-0.5387712856383942,-0.3249028958143318,0.2557901291417568,-3.0785442446371802,0.6247090026957745,-0.0003416716282558434,-1.4058730224279247e-05,0.000337437908977682,-0.04112848049583678,0.00032767390641363307,-0.001099662751358694,-0.0004544997699808034,0.32723158597946167,-1.1466452044299622,1.6667168776141565,-2.0890513859190882,-1.571369473134176,2.3021817207336426,-0.0005052651395089924,0.04806245118379593,0.047777190804481506,-0.0946928933262825,-7.719484710833058e-05,-7.69863254390657e-05,0.1149216815829277,-0.07661445438861847,-9.423578262329102,0.6881819367408752,47.702110290527344,-0.5357315540313721,-3.6568164825439453,-1.862640142440796,-0.5932259559631348,-0.01806742697954178,-0.3065364956855774,28.0625,30.0625,28.5,32.25,34.8125,36.0
1.0,0.5003155642155114,0.3952329887188083,-0.7337378433004891,-0.025576279357382374,0.017463895595518558,-0.11593841371358804,-0.5387585093303651,-0.32491534191937466,0.25572775242802703,-3.078585529299765,0.6246791237521025,-0.0002866550462294917,0.0004169224079109028,0.0004936667797676081,-0.039829996031943135,0.0002706395837212899,-0.0009173631693662207,-0.00046956697820445904,0.3272555470466614,-1.146586076622345,1.6668246428119105,-2.0892659626402796,-1.571357552205221,2.3021817207336426,-0.0005195839912630618,0.04559123516082764,0.04776338115334511,-0.09239882230758667,-7.626047590747476e-05,-7.569137233076617e-05,0.13407528400421143,-0.13407529890537262,-9.423578262329102,0.7396538853645325,47.73524856567383,-0.5754339694976807,-3.50321364402771,-1.8102965354919434,-0.6267666816711426,-0.01977337896823883,-0.3012779951095581,28.0625,30.0625,28.5,32.25,34.8125,36.0
1.0,0.4912450484309215,0.3872511524951989,-0.9053898415800428,-0.017116565586786505,0.012950414883847305,-0.12250299881309303,-0.5387622826199687,-0.32489854758592174,0.25563049725324527,-3.078522674769812,0.6247620820597245,-0.000334340390044263,0.0007519935309382175,0.0005985025309190376,-0.0406598801013423,0.0014117107942908773,-0.004260130016296326,-0.00045491153254009043,0.32723158597946167,-1.1464779239944,1.6669324080096644,-2.0894328556456507,-1.5713813940631312,2.302217483520508,-0.0005048264865763485,0.04617554694414139,0.048289451748132706,-0.08997704833745956,-7.534838368883356e-05,-7.443940558005124e-05,0.17238251864910126,-0.15322890877723694,-9.404424667358398,0.7239871025085449,47.7164421081543,-0.5426914095878601,-3.435418128967285,-1.8560292720794678,-0.6599434614181519,-0.024744000285863876,-0.31867843866348267,28.0625,30.0625,28.5,32.25,34.8125,36.0
1.0,0.4028767522876987,0.22066588109575752,-0.8529406000097638,-0.009215927776070623,0.009807278110542782,-0.10974888356842759,-0.5387690910698151,-0.32489054745786244,0.2555630001838278,-3.0785094698631466,0.6247212446325923,-0.0003159384529764577,0.0007606339762824759,0.0006897762416893774,-0.040987210340432664,0.002138416250249882,-0.006366174235155993,-0.0005899650002035806,0.3272196352481842,-1.1463939112475892,1.6670034567462366,-2.0895873508849085,-1.5714057127581995,2.3021817207336426,-0.0006396007956936955,0.04665264114737511,0.04788079485297203,-0.08781758695840836,-8.236050780396909e-05,-7.322790042962879e-05,0.24899697303771973,-0.19153612852096558,-9.327810287475586,0.7418897151947021,47.75315856933594,-0.5877354741096497,-3.4764437675476074,-1.7991936206817627,-0.7238436937332153,-0.011184701696038246,-0.29618334770202637,28.0625,30.0625,28.5,32.25,34.8125,36.0
1.0,0.6214187596003885,0.5200534426749991,-0.7892604429067189,-0.026805175410567615,0.019046430287765887,-0.11991179398273594,-0.538777995577829,-0.32488951472065025,0.25546340720522437,-3.078520046464805,0.6247620584445325,-0.0003800141880168405,0.0007154764421108636,0.0007476154686233972,-0.04229675851203169,0.003213555433669485,-0.00951830643278308,-0.0007025244971422663,0.3272075355052948,-1.146261290912964,1.6670878569232386,-2.089778562585348,-1.571369473134176,2.3021936416625977,-0.000751869345549494,0.04851824790239334,0.04793502390384674,-0.08640696853399277,-8.392223389819264e-05,-7.205537986010313e-05,0.3064578175544739,-0.2106897532939911,-9.346963882446289,0.7038487195968628,47.703006744384766,-0.5201879143714905,-3.5292539596557617,-1.7712790966033936,-0.7827936410903931,-0.028052959591150284,-0.3072628378868103,28.0625,30.0625,28.5,32.25,34.8125,36.0
1.0,-0.1879148779490032,-0.1790525297596669,-0.7062209514973811,-0.012076506849983395,0.0006242702815251874,-0.10757580994814064,-0.5387792595060372,-0.3248977589901139,0.25539063090526914,-3.078529944789562,0.6247448552700783,-0.00036392602625241326,0.0006668752610332935,0.0007572482145776945,-0.04169167763499053,0.002726661962423685,-0.00809150286987088,-0.0007446602490264723,0.32721957564353943,-1.1461655360511322,1.6671603361712855,-2.089958807031149,-1.571369473134176,2.3021936416625977,-0.0007924806559458375,0.047767288982868195,0.04773886501789093,-0.08696744590997696,-8.311813871841878e-05,-7.09198066033423e-05,0.28730419278144836,-0.2106897532939911,-9.27034854888916,0.6658024191856384,47.700321197509766,-0.5200421214103699,-3.5197997093200684,-1.733439564704895,-0.7984631657600403,-0.0064859152771532536,-0.3109830915927887,28.0625,30.0625,28.5,32.25,34.8125,36.0
1.0,-0.2927690493523,0.15614864512683868,-0.7637965919713439,-0.03248374980476974,0.011479218404062526,-0.11419944778731916,-0.53876820063853,-0.3248860496964744,0.2552984031156555,-3.0784885804211517,0.6247369177112877,-0.0004775166911773953,0.001328179013937474,0.0012070878044187375,-0.04170243148112424,0.0026189368565429326,-0.007768658262491713,-0.0010912296481597236,0.32720738649368286,-1.1460823279670258,1.6672809759723108,-2.090078969995016,-1.571369473134176,2.3021817207336426,-0.0011374250752851367,0.04609336331486702,0.05041186511516571,-0.08830685913562775,-8.218014409067109e-05,-6.981941987760365e-05,0.28730422258377075,-0.15322890877723694,-9.251194953918457,0.7642692923545837,47.7244987487793,-0.5152233839035034,-3.4025120735168457,-1.7930976152420044,-0.8166639804840088,-0.015002783387899399,-0.3146797716617584,28.0625,30.0625,28.5,32.25,34.8125,36.0
1.0,0.15530113201302062,0.09691804638900267,-0.5772709364914009,-0.05290526325786045,0.03715715172685255,-0.11967899735505065,-0.5387660691015047,-0.32487625709677365,0.2552230614999719,-3.0784876358779627,0.6247560504126322,-0.00043337278246972043,0.0005893395419632281,0.0009527437822965053,-0.04171923289940734,0.0012829487992437772,-0.003875528485902974,-0.0010912129282633215,0.3271953761577606,-1.1460097891143342,1.6674001852618616,-2.0902964077391566,-1.5713813940631312,2.3021817207336426,-0.0011344833765178919,0.04737615957856178,0.04973125830292702,-0.09302502870559692,-8.125344902509823e-05,-6.875271355966106e-05,0.2106897532939911,-0.15322890877723694,-9.327810287475586,0.6613254547119141,47.731666564941406,-0.528878927230835,-3.438788414001465,-1.8485848903656006,-0.8289588093757629,-0.019967755302786827,-0.30035045742988586,28.0625,30.0625,28.5,32.25,34.8125,36.0
1.0,-0.3296383645421581,-0.6660314698640862,-0.7608322420075901,-0.05762777995713164,0.0434145781563073,-0.1079102709048614,-0.5387601134209536,-0.32489633393790207,0.2551521804723843,-3.0784984320578603,0.624622672051433,-0.00043983290782841853,-0.0003131004488497439,0.0006868330127384161,-0.04087837876683033,-0.00011589419017500323,0.0002077137984535029,-0.0011589680679409723,0.32723134756088257,-1.145913766031601,1.667459789906637,-2.090440412560934,-1.5713933149920862,2.302133083343506,-0.0011998639674857259,0.047934915870428085,0.047680437564849854,-0.0958491712808609,-8.034678467083722e-05,-6.771806511096656e-05,0.19153612852096558,-0.05746084079146385,-9.346963882446289,0.7441308498382568,47.71017074584961,-0.5048794746398926,-3.413750171661377,-1.6387964487075806,-0.809761643409729,-0.02509526163339615,-0.31168389320373535,28.0625,30.0625,28.5,32.25,34.8125,36.0
1.0,-1.0359583241912598,-0.8373846001528658,-0.9314290440710857,-0.08597778156160094,0.04949558587105842,-0.11064031561130425,-0.5387411565144817,-0.3248743159578444,0.2550471459976587,-3.078437797088732,0.6247457853627326,-0.0005340843414783836,-0.0002734979018966376,0.0006233422776701359,-0.04108093070439657,-0.0017743502930985106,0.0050531957325009496,-0.0010443862566998773,0.32720744609832764,-1.1458419424346467,1.6676395575152796,-2.0906225643553675,-1.5713933149920862,2.3021936416625977,-0.0010814524721354246,0.04775061085820198,0.050066027790308,-0.10317189991474152,-7.946010737214237e-05,-6.671417213510722e-05,0.1149216741323471,0.17238251864910126,-9.423578262329102,0.7060845494270325,47.703006744384766,-0.5438628196716309,-3.4018397331237793,-1.726696491241455,-0.7798984050750732,-0.030168741941452026,-0.3026083707809448,28.0625,30.0625,28.5,32.25,34.8125,36.0
1.0,-0.8323676359815726,-1.741033465756133,-1.098095344789861,-0.10428336010921233,0.08885202197327084,-0.12000661162273275,-0.5387444617158699,-0.32487791291781887,0.254951064702966,-3.078470350432345,0.6247526270438835,-0.0005199379073760808,-0.0005423558203130105,0.0005714498753019499,-0.04080849629065017,-0.0031403166723240027,0.008817291854827883,-0.0011208261804214025,0.32720741629600525,-1.1457220774940033,1.6677477995501917,-2.090875288049215,-1.571369473134176,2.3021936416625977,-0.0011549405753612518,0.047639720141887665,0.050612375140190125,-0.10761105269193649,-5.188177965465002e-06,-6.573948485311121e-05,0.05746084079146385,0.2298433631658554,-9.461885452270508,0.7038487195968628,47.687782287597656,-0.5570981502532959,-3.3242993354797363,-1.7706081867218018,-0.7158343195915222,-0.032801251858472824,-0.3199829161167145,28.0625,30.0625,28.5,32.25,34.8125,36.0
1.0,-1.7651184423126502,-2.6223607113052587,-1.0252777294450195,-0.10724651650680371,0.08115996195727046,-0.1075005176225299,-0.5387410855697236,-0.32487673232478886,0.25489307001587924,-3.078480918629222,0.624735791056231,-0.0005016489471019731,-0.0007522656540547393,0.0005051591881678435,-0.0404554672458654,-0.004482764701308968,0.01304255791972078,-0.0011163459453057295,0.32720738649368286,-1.1456622344306489,1.6678317228900355,-2.091032644311422,-1.571369473134176,2.3021817207336426,-0.001147687085904181,0.04730689153075218,0.0513821505010128,-0.11248020082712173,-0.0001019424744299613,-6.479294825112447e-05,0.019153613597154617,0.26815059781074524,-9.634267807006836,0.7597975730895996,47.72987747192383,-0.5534150004386902,-3.2485361099243164,-1.8667759895324707,-0.6888974905014038,-0.027335643768310547,-0.31249910593032837,28.0625,30.0625,28.5,32.25,34.8125,36.0
1.0,-1.8825260630568001,-2.4864682561447404,-1.1305422351484502,-0.10697044510796658,0.07104648420030607,-0.10596963166375414,-0.5387490177638617,-0.32486912594279943,0.2548144472736006,-3.0784755349532134,0.6247539983661559,-0.0004327959292972256,-0.001775087591205917,0.0001555597341197513,-0.040310480932966325,-0.006020061701070287,0.017615010060099728,-0.0011140863813622716,0.3271953761577606,-1.1455656749061127,1.6679275671588343,-2.091262002984518,-1.5713933149920862,2.3021817207336426,-0.0011425483971834183,0.048953115940093994,0.04988117888569832,-0.1174493059515953,-0.00013089689309708774,-6.387338362401351e-05,-0.07661445438861847,0.3447650372982025,-9.634267807006836,0.6680382490158081,47.71196365356445,-0.5358046293258667,-3.2721643447875977,-1.7232367992401123,-0.6378369331359863,-0.020876087248325348,-0.3013298213481903,28.0625,30.0625,28.5,32.25,34.8125,36.0
1.0,-1.0196064166682826,-1.9301546199878483,-1.2811144839750308,-0.11628519328517409,0.0851979373838848,-0.11948644874559751,-0.5387603019946742,-0.3248626131412441,0.25472976635089595,-3.0784803548624655,0.6248125271242051,-0.0003142246469512871,-0.001874567692615789,0.0002542257785739327,-0.04014823028192488,-0.006863129183295252,0.020110309097899855,-0.0013189331140059065,0.3271833658218384,-1.145457850103714,1.66803485551943,-2.091550489465231,-1.5714176336871546,2.3022055625915527,-0.001345226657576859,0.04862675815820694,0.05067722499370575,-0.12055283784866333,-0.00013992378080729395,-6.297937216004357e-05,-0.13407529890537262,0.4405331015586853,-9.615114212036133,0.7195101380348206,47.72897720336914,-0.5027167797088623,-3.2890214920043945,-1.6687850952148438,-0.5748310089111328,0.00462298234924674,-0.31802719831466675,28.0625,30.0625,28.5,32.25,34.8125,36.0
1.0,-1.3015268048609543,-2.2574744964044187,-1.2195732514886488,-0.09737224344844381,0.06160782765209365,-0.10658457086046236,-0.5387703100962764,-0.32484648732293936,0.2546355372932315,-3.0785225262699893,0.6248215425209043,-0.00031211703331088844,-0.0017956438601494328,0.0003309343962949077,-0.04066234015151044,-0.006836883871884504,0.020024017481249868,-0.0013970028717108947,0.3271474540233612,-1.1453497272780915,1.6681550184832972,-2.091801782647604,-1.5713813940631312,2.3021697998046875,-0.001422064146026969,0.04903719574213028,0.05154890939593315,-0.12174481898546219,-0.0001371803809888661,-6.211012077983469e-05,-0.05746084079146385,0.4596867263317108,-9.653421401977539,0.7060845494270325,47.7244987487793,-0.519930899143219,-3.310535430908203,-1.7370412349700928,-0.5465737581253052,-0.02100936882197857,-0.3038782775402069,28.0625,30.0625,28.4375,32.25,34.8125,36.0
1.0,-0.38338150073782506,-1.559707097658812,-0.9770007243069649,-0.0981948464364043,0.057624814064270086,-0.11744982371106297,-0.538783608603321,-0.3248549607518777,0.25455912615527176,-3.0785094674007656,0.6248762400876685,-0.00020555188600654986,-0.001499098856834627,0.0006342622185487815,-0.04141123042379393,-0.004929337553067626,0.014496370466952567,-0.001703507634700697,0.3271593749523163,-1.1452298623374482,1.6682150999652308,-2.092039247552389,-1.5714176336871546,2.302217483520508,-0.0017301373882219195,0.04958087205886841,0.051217928528785706,-0.11610998213291168,-0.00015464617172256112,-6.126458902144805e-05,-0.019153613597154617,0.4596867263317108,-9.557653427124023,0.7060845494270325,47.70927429199219,-0.4978727400302887,-3.2155184745788574,-1.7049806118011475,-0.5819090008735657,-0.019734414294362068,-0.29584166407585144,28.0625,30.0625,28.4375,32.25,34.8125,36.0
