Tylouw/Master_Thesis_Code/trial5/insertion_4_2026-01-23_15-21-51.csv
num_insertion,tcp_force_x[N],tcp_force_y[N],tcp_force_z[N],tcp_force_rx[Nm?],tcp_force_ry[Nm?],tcp_force_rz[Nm?],tcp_pose_x[m],tcp_pose_y[m],tcp_pose_z[m],tcp_pose_rx[rot_vec_x],tcp_pose_ry[rot_vec_y],tcp_pose_rz[rot_vec_z],tcp_velo_x[m/s],tcp_velo_y[m/s],tcp_velo_z[m/s],tcp_velo_rx[rot_vec_x/s],tcp_velo_ry[rot_vec_y/s],tcp_velo_rz[rot_vec_z/s],q1[rad],q2[rad],q3[rad],q4[rad],q5[rad],q6[rad],qd1[rad/s],qd2[rad/s],qd3[rad/s],qd4[rad/s],qd5[rad/s],qd6[rad/s],tool_acc_x,tool_acc_y,tool_acc_z,current_of_whole_robot[A],voltage_of_whole_robot[V],current_J1[A],current_J2[A],current_J3[A],current_J4[A],current_J5[A],current_J6[A],temp_J1[C],temp_J2[C],temp_J3[C],temp_J4[C],temp_J5[C],temp_J6[C]
1.0,0.7363151430117302,0.17225498961077734,-0.28689245439190486,-0.027539710338076694,-0.005725847090804402,-0.10918991989580522,-0.5392399641492117,-0.32416659112169743,0.2600234847270073,-3.078675891518481,0.624724785433116,0.00012583419052810018,0.0028618953997735634,-0.0008402843839713812,-0.001301905597597586,0.00022718275133989715,-0.00024112363651390388,-0.00044119198702343657,0.3258551359176636,-1.1515548092177887,1.661816422139303,-2.0795651874937953,-1.5713933149920862,2.3008010387420654,0.0028136821929365396,-0.0027255958411842585,0.007817973382771015,-0.004790103528648615,-0.00013192789629101753,0.003253502305597067,0.6129156351089478,-0.325611412525177,-9.117119789123535,0.7575564384460449,47.68419647216797,-0.30626294016838074,-4.198405742645264,-2.8974146842956543,-0.3759637475013733,-0.007371898740530014,0.0018935775151476264,28.0,30.0625,28.5,32.3125,34.8125,36.0
1.0,0.772153476350317,0.5617024133473032,-0.34494507770755156,-0.00416171550078984,-0.027604757442016407,-0.11101402732702063,-0.539222830849751,-0.3241979881551151,0.26005117055875765,-3.07875768994956,0.6247033287480164,0.0001446138726181474,0.0015023453108107521,-0.000802492600280503,0.00012266105058429775,-0.0009133221978911616,0.003097756445171418,-0.0002122630024316871,0.3259028196334839,-1.1515906018069764,1.6618035475360315,-2.0795651874937953,-1.5713337103473108,2.3008248805999756,0.00204313057474792,-0.0022695164661854506,0.003996677231043577,-0.0049534994177520275,-0.0001295539696002379,0.0022536281030625105,0.5363011956214905,-0.28730422258377075,-9.040505409240723,0.7105615139007568,47.668975830078125,-0.32594603300094604,-4.2427144050598145,-2.630336046218872,-0.34693920612335205,-0.005855150520801544,0.0021690737921744585,28.0,30.0625,28.5,32.3125,34.8125,36.0
1.0,0.9776850796813508,1.005735565852905,-0.5928862828590499,0.014596317719881124,-0.040985523371963865,-0.11254587096643,-0.5392184920770887,-0.3241911987975978,0.260022570624453,-3.078698207305636,0.6246720312589482,0.00011939059205435896,0.00014353156154218321,-0.00039059130130044036,0.0014249107864173925,-0.0015897797203509093,0.0050761932209361805,-0.00023729602632208363,0.3259023427963257,-1.1515665513328095,1.661837402974264,-2.079576631585592,-1.5713813940631312,2.3008124828338623,0.0006967957015149295,-0.0019512263825163245,0.00032159240799956024,-0.0036877181846648455,-0.00012726396380458027,0.00093251490034163,0.24899697303771973,-0.05746084079146385,-9.078812599182129,0.7597975730895996,47.702110290527344,-0.2374388575553894,-4.221175193786621,-2.422044515609741,-0.35231122374534607,-0.035032372921705246,0.014571449719369411,28.0,30.0625,28.5,32.3125,34.8125,36.0
1.0,-1.0120746405431595,-1.307585425632336,-0.7643748701298854,-0.0725082326351813,0.059825428385502144,-0.11293904687233476,-0.5392040550248822,-0.32421991782167636,0.2600551138363734,-3.078751848230588,0.6245667923352863,0.0001305349689798994,0.00016860974333058443,-0.00037735866962861124,0.0005725078576043912,-0.0005214802080914185,0.0019172308297221,0.0004113659251655931,0.3259502649307251,-1.1516020160964509,1.661802117024557,-2.0795279941954554,-1.571357552205221,2.300787925720215,0.0006890369113534689,-0.0007278725388459861,5.788549373164642e-08,-0.0012549515813589096,-0.0001229186455020681,0.0002772287407424301,-0.19153612852096558,0.15322890877723694,-9.327810287475586,0.6837049722671509,47.703006744384766,-0.22644296288490295,-3.8567187786102295,-2.0803518295288086,-0.43974125385284424,-0.027921270579099655,0.020495165139436722,28.0,30.0625,28.5,32.3125,34.8125,36.0
1.0,-2.9015694319857595,-3.0759801148688486,-0.5524769475709282,-0.12634028151521098,0.11719561891789099,-0.09579996861281212,-0.5391918037564706,-0.3242169793425945,0.26003811609099714,-3.0787206220355827,0.6245799768653626,1.8107190159088276e-05,0.0021611877988520567,0.00039689166997005564,-0.003793145108881444,0.002654827887658862,-0.007426975595881671,0.00016678556831458807,0.3259502351284027,-1.1516014498523255,1.6618288199054163,-2.0794793568053187,-1.571345631276266,2.300800085067749,0.0005410278681665659,0.0007520104991272092,0.007654852233827114,-0.0005203168257139623,-0.0001208552930620499,0.0003751193289645016,-0.2298433631658554,0.15322890877723694,-9.366117477416992,0.7105615139007568,47.700321197509766,-0.2919999361038208,-3.850649833679199,-2.5109386444091797,-0.49220705032348633,-0.007265287451446056,0.024690348654985428,28.0,30.0625,28.5,32.3125,34.8125,36.0
1.0,-2.578874999489167,-2.890910402026541,-0.3797487709528184,-0.155876006312341,0.16314721554267314,-0.10722420398999519,-0.5391813201707907,-0.32421748239981946,0.26003308874199293,-3.078703582896941,0.6245380533419599,6.224026658767906e-05,0.002321292298625687,0.0004292834408289867,-0.004038639360573752,0.0028045830551879456,-0.007872712745251574,0.00018652355297531925,0.32596227526664734,-1.1516135197928925,1.6618650595294397,-2.079515119592184,-1.5713813940631312,2.300788164138794,0.0005747833638451993,0.0007529637077823281,0.008233892731368542,-0.0006300786626525223,-0.0001188602764159441,0.0003891471424140036,-0.26815059781074524,0.09576806426048279,-9.289502143859863,0.7530794739723206,47.70658874511719,-0.2590542435646057,-3.8117196559906006,-2.531440258026123,-0.526217520236969,-0.0015814381185919046,0.03409222885966301,28.0,30.0625,28.5,32.3125,34.8125,36.0
1.0,-1.8540533820821323,-1.718495356680298,-0.2874742455400307,-0.1086744453863626,0.1256587497499329,-0.10654177021842247,-0.5392067222635085,-0.32419624820974324,0.2600325210923722,-3.0786862559049717,0.6246499489419421,3.91101312513118e-05,0.001527746894420934,0.00013023928069597112,-0.0025591243184974375,0.0015812729618887413,-0.004285342062002963,0.0002751653554692752,0.3259143531322479,-1.15158964813266,1.6618278662311,-2.079491754571432,-1.571369473134176,2.300812244415283,0.0006188844563439488,0.00046466998173855245,0.0054484643042087555,-0.0013465906959027052,-0.00011692998668877408,0.0003439856809563935,-0.26815059781074524,0.17238251864910126,-9.27034854888916,0.831413209438324,47.733455657958984,-0.2688651978969574,-3.7493932247161865,-2.3217573165893555,-0.5533228516578674,-0.016071056947112083,0.029489440843462944,28.0,30.0625,28.5,32.3125,34.8125,36.0
1.0,-1.0556382163562876,0.2510587054499283,-0.41014232056800626,-0.040797520434173555,0.05288119677083695,-0.10409898645118708,-0.5391973581178429,-0.3242086075785099,0.2600444050622247,-3.078730975213216,0.6246207275531547,0.0001415513506054196,0.0003363098843641035,-0.00022571590549191352,-0.0010848610006784182,-0.001564795505319268,0.0049447725956836205,0.00023395843847909145,0.32593828439712524,-1.151613639002182,1.6618512312518519,-2.07956661800527,-1.571369473134176,2.300812244415283,0.0005425095441751182,0.00042785328696481884,0.00403634225949645,-0.00964921060949564,-0.00011506125156302005,0.00030530575895681977,-0.26815059781074524,0.09576806426048279,-9.21288776397705,0.7306999564170837,47.71196365356445,-0.2527717053890228,-3.6618905067443848,-2.1585474014282227,-0.5071378946304321,-0.015803106129169464,0.012030075304210186,28.0,30.0625,28.5,32.3125,34.8125,36.0
1.0,-0.11476411151365645,0.9252451590448981,-0.3835721130623905,-0.0038675658723528235,0.02156929800609822,-0.11037944601913202,-0.5391893199423062,-0.32422270332693975,0.260034072619331,-3.078756795079262,0.6245485783287783,0.00013380203913623335,-1.2870216660763946e-05,-0.00036571270236762107,-0.0008351385390715594,-0.002978913973154064,0.009088369985111394,0.0002954617523414805,0.32596227526664734,-1.151601569061615,1.6618636290179651,-2.079592367211813,-1.571357552205221,2.300787925720215,0.0005748794064857066,0.0005296255694702268,0.004428821615874767,-0.014521726407110691,-0.00011325145896989852,0.00027425930602476,-0.19153612852096558,0.038307227194309235,-9.193734169006348,0.7418897151947021,47.685096740722656,-0.3107536733150482,-3.6326892375946045,-2.138522148132324,-0.47037220001220703,-0.019336329773068428,0.02099672518670559,28.0,30.0625,28.5,32.3125,34.8125,36.0
1.0,-0.5226029297569963,0.35541789826325004,-0.39543355353972215,-0.014991313240750575,0.004392440000516258,-0.0985011824499008,-0.5391954433707673,-0.324211701598558,0.26001244232995596,-3.07875588708292,0.6246258890756652,9.829313091834161e-05,0.0004753314397119109,-0.00016469092727013467,-0.0019243621381078164,-0.00225135211419656,0.006944376947900415,0.00026710753618065016,0.32593828439712524,-1.1515774589828034,1.661886994038717,-2.07962765316152,-1.5713337103473108,2.300812244415283,0.0005209776572883129,0.000888912589289248,0.006411549635231495,-0.014599678106606007,-0.00011149758211104199,0.0002489380713086575,-0.17238251864910126,0.019153613597154617,-9.155426979064941,0.6702793836593628,47.64657974243164,-0.29361018538475037,-3.5322535037994385,-2.1807334423065186,-0.46365469694137573,-0.018779871985316277,0.012913871556520462,28.0,30.0625,28.5,32.3125,34.8125,36.0
1.0,-0.6817472296155898,-0.27671607590505387,-0.17769622459355047,-0.04797011355560871,0.037119917178227296,-0.10684311358669761,-0.5392039063272132,-0.32421081233894755,0.2600253672661792,-3.0787383952686023,0.6245833187642125,0.00014083276689788466,0.0009008922724697706,1.4997127736842881e-05,-0.0027085738309990293,-0.001286908755965323,0.004106052561548726,0.0002350323746257406,0.32593825459480286,-1.1515773993781586,1.6618521849261683,-2.0796033344664515,-1.571369473134176,2.300787925720215,0.0004670440685003996,0.0010982153471559286,0.007514788303524256,-0.012914511375129223,-0.0001097973799915053,0.00022790215734858066,-0.13407529890537262,-0.09576806426048279,-9.155426979064941,0.6993717551231384,47.64299774169922,-0.3072958290576935,-3.5459136962890625,-2.149381160736084,-0.5060384273529053,-0.023653877899050713,0.019554095342755318,28.0,30.0625,28.5,32.25,34.8125,36.0
1.0,-0.6405827132220667,-0.5075720403093484,-0.15767549885411808,-0.062273900832741286,0.07255074300245194,-0.1047958449266526,-0.5392010875670376,-0.32420328186920605,0.2600110029592098,-3.078748558350481,0.6246437232704316,0.0001627743662973392,0.00047774066833963173,-0.00010045453851339075,-0.003410145100832589,-0.0008270422976213349,0.002738060039552035,0.0002093235212307827,0.3259262144565582,-1.1515767139247437,1.6618998686419886,-2.079674860040182,-1.571357552205221,2.300812244415283,0.000423111894633621,0.0029281124006956816,0.006390898954123259,-0.012177315540611744,-0.00010814813140314072,0.00021014762751292437,0.05746084079146385,-0.2298433631658554,-9.21288776397705,0.7777001857757568,47.68330383300781,-0.3059067726135254,-3.5253219604492188,-2.0859944820404053,-0.5288398861885071,-0.029720470309257507,0.01926562190055847,28.0,30.0625,28.5,32.25,34.8125,36.0
1.0,-0.6555037245756974,0.029324648642259837,-0.16302630159960071,-0.060613628288355176,0.06816852963576972,-0.10514915045077002,-0.5392115593384281,-0.3242055733038506,0.26000823934938405,-3.0787523984939695,0.6246055534016711,0.00018945394982522497,0.00029155790864910416,-0.00014034062768801184,-0.0032402487784257577,-0.0009614967130336043,0.0031270713919086777,0.00018784589911087287,0.32592618465423584,-1.1515527230552216,1.6618755499469202,-2.0796872578062953,-1.571369473134176,2.300787925720215,0.00038673559902235866,0.003074940759688616,0.005793297663331032,-0.012138132005929947,-0.00010658101382432505,0.00019522313959896564,0.07661445438861847,-0.28730422258377075,-9.193734169006348,0.6881819367408752,47.702110290527344,-0.29254651069641113,-3.5103917121887207,-1.9916183948516846,-0.5544686913490295,-0.021782346069812775,0.01864786632359028,28.0,30.0625,28.5,32.25,34.8125,36.0
1.0,-0.5367890630826229,0.15619021842554967,-0.21229173861333,-0.02558528703656371,0.03405969346395511,-0.1078320609339048,-0.5391923821675938,-0.3242314199148186,0.25997376158279617,-3.0787521821771078,0.6245677111962791,0.0001312127063911142,9.248865789379031e-05,-0.00018816682761430077,-0.003071230013508228,-0.0014627102203513083,0.004597420794257027,0.00040740403199327033,0.32597410678863525,-1.1515168112567444,1.6619117895709437,-2.0797234974303187,-1.571357552205221,2.300812244415283,0.0003561202029231936,0.0031527162063866854,0.00563504733145237,-0.013611122034490108,-0.00010666693560779095,-5.554562812903896e-05,0.1149216741323471,-0.19153612852096558,-9.136273384094238,0.6613254547119141,47.68867492675781,-0.35295602679252625,-3.402848243713379,-1.9341710805892944,-0.5554076433181763,-0.023171160370111465,0.010364790447056293,28.0,30.0625,28.5,32.25,34.8125,36.0
1.0,0.8649466264336176,0.8843597710372523,-0.31818414308061527,-0.01429194164290839,0.024836887716133797,-0.11343894118601609,-0.5392007594641485,-0.32421096536821337,0.2599769733133956,-3.078754404871937,0.6245867051911383,0.00014731705194996053,0.0002924125529490823,-0.00010334479068583035,-0.0037720599287043247,-0.0011876206466485395,0.003779550536740948,0.00039241826046077085,0.32593822479248047,-1.1515286725810547,1.6619237104998987,-2.079735418359274,-1.571357552205221,2.300787925720215,0.0003299975651316345,0.0035852957516908646,0.006780711002647877,-0.014326484873890877,-0.00010436370939714834,-6.67897766106762e-05,0.1149216815829277,-0.17238251864910126,-9.232041358947754,0.7262282371520996,47.67792892456055,-0.3040749430656433,-3.40303373336792,-1.9246561527252197,-0.546409010887146,-0.027429232373833656,0.014078455045819283,28.0,30.0625,28.5,32.25,34.8125,36.0
1.0,0.35047517421531976,0.4554588676935514,-0.5220275850440069,-0.008438039296845131,-0.0113837868518463,-0.11149071694411221,-0.5392057705202193,-0.3241892657573632,0.2599554790217997,-3.078719552289656,0.6246954681292894,0.00011349306905243015,0.0007118487273654923,8.907657447113577e-05,-0.005482842992112369,-0.00021178653612497744,0.0008973294873114474,0.000312326714396347,0.32590219378471375,-1.151516155605652,1.6619604269610804,-2.079759737054342,-1.571357552205221,2.3008241653442383,0.0002533298102207482,0.004866023547947407,0.008966443128883839,-0.014750017784535885,-0.00010200897668255493,-6.311097968136892e-05,0.17238251864910126,-0.17238251864910126,-9.27034854888916,0.6837049722671509,47.70748519897461,-0.30150988698005676,-3.3779263496398926,-2.012383222579956,-0.5223368406295776,-0.03200593218207359,0.01928788796067238,28.0,30.0625,28.5,32.25,34.8125,36.0
1.0,0.3938078544404203,0.0021998206748511107,-0.4736463844912133,-0.03378010209271651,-0.0064196704602764755,-0.10226557994728887,-0.5392006945506517,-0.32417979581494455,0.2599419978232928,-3.0786878307059333,0.6247272176550938,4.682851691480176e-05,0.000723114399854654,0.00010779945946528539,-0.006818363374707848,0.0008684026879578257,-0.0022944232535643525,0.00028610199506047795,0.32589027285575867,-1.1515156489661713,1.6619847456561487,-2.079735418359274,-1.571357552205221,2.3008360862731934,0.0002303228247910738,0.006669578142464161,0.00917357299476862,-0.013391123153269291,-9.974840213544667e-05,-5.903502460569143e-05,0.13407528400421143,-0.019153613597154617,-9.232041358947754,0.7217512726783752,47.674346923828125,-0.31282949447631836,-3.425574779510498,-2.022541046142578,-0.5416135191917419,-0.03178659826517105,0.01186363585293293,28.0,30.0625,28.5,32.25,34.8125,36.0
1.0,0.4013037024221183,-0.6286384505858595,-0.4730628140756304,-0.060347433872676895,0.026274260172407308,-0.11462382978468105,-0.539197834565808,-0.3241893168294727,0.25995398061606145,-3.0786800179415974,0.6247063104930981,0.00016516702907719706,0.0011934355039295555,0.0002872684247770168,-0.007995494709401535,0.0020911248086532075,-0.005814399981378948,0.00022891366603616358,0.325914204120636,-1.1514675480178376,1.662020508443014,-2.079794546166891,-1.571357552205221,2.3008241653442383,0.00020443198445718735,0.007320203352719545,0.010549431666731834,-0.011691336520016193,-0.00012384384172037244,-2.6767498638946563e-05,0.13407529890537262,0.038307227194309235,-9.27034854888916,0.7105615139007568,47.68330383300781,-0.34186989068984985,-3.279629707336426,-1.911598563194275,-0.5996434092521667,-0.03133272007107735,0.013155188411474228,28.0,30.0625,28.5,32.25,34.8125,36.0
1.0,-0.7203885431590966,-1.56902934566206,-0.6603054531512792,-0.07786194856056042,0.04474138674383195,-0.10630805954288902,-0.5391815104674403,-0.32420184840579097,0.2598939089089156,-3.0786737295841897,0.6246285112131627,3.073410402390418e-05,0.0013243349183894894,0.00038807648978467555,-0.00809341728764582,0.0021801915048235564,-0.0060540615756048185,0.0001183379752965246,0.3259381353855133,-1.1514674884131928,1.6620453039752405,-2.079818388024801,-1.5713813940631312,2.3008241653442383,0.0001188704336527735,0.007110766135156155,0.011076636612415314,-0.011753509752452374,-0.00013029531692154706,-1.7477264009357896e-06,0.17238251864910126,0.17238251864910126,-9.404424667358398,0.7396538853645325,47.65553665161133,-0.30164265632629395,-3.282815456390381,-1.9176201820373535,-0.6553544998168945,-0.045049168169498444,0.009132680483162403,28.0,30.0625,28.5,32.25,34.8125,36.0
1.0,-0.5070372702790805,-1.4056729046319716,-0.7462812107756605,-0.08079763532339301,0.04629234244453756,-0.10753460864967564,-0.5391927739005401,-0.32418104499312106,0.2598718967748968,-3.07865057307644,0.6246623896116625,2.473812668759025e-05,0.001108067816148121,0.00032124178845304585,-0.009269057285388816,0.002408966988750144,-0.006704898902322728,0.00010814409280382116,0.32590213418006897,-1.1514427822879334,1.6620691458331507,-2.079855581323141,-1.5713933149920862,2.300812244415283,0.00011059401731472462,0.00899474322795868,0.011476268991827965,-0.013347259722650051,-0.00014182600716594607,-1.1411403733063707e-07,0.17238251864910126,0.2106897532939911,-9.366117477416992,0.7418897151947021,47.694053649902344,-0.3731139302253723,-3.3537893295288086,-1.9110373258590698,-0.6250613927841187,-0.02374201826751232,0.03422973304986954,28.0,30.0625,28.5,32.25,34.8125,36.0
1.0,0.015482584362755014,-1.422394566944877,-0.5002173237742349,-0.07641927138981902,0.05084742259050766,-0.11061289542316487,-0.5391767861190121,-0.32418717738053804,0.2598719718737085,-3.0786921388891324,0.624612645454474,-3.5305641163148828e-06,0.0011717765912704124,0.00034734389182655023,-0.009874297515237728,0.002248559017009286,-0.006233364669022971,0.00010095323399267942,0.3259141743183136,-1.1514666837504883,1.662104908620016,-2.079867502252096,-1.571357552205221,2.300787925720215,0.00010417901648906991,0.009505554102361202,0.012621794827282429,-0.015501663088798523,-0.00014336174353957176,-7.450831063238184e-09,0.1149216815829277,0.26815059781074524,-9.28950309753418,0.7060845494270325,47.7639045715332,-0.34312766790390015,-3.2994604110717773,-1.916490077972412,-0.6334130764007568,-0.031221579760313034,0.013990039005875587,28.0,30.0625,28.5,32.25,34.8125,36.0
1.0,-0.22117209532931825,-1.6370643069473925,-0.7228028993194235,-0.07294312288213003,0.028234425760397523,-0.10185866288996778,-0.539168242557742,-0.324193260819693,0.25985338805089664,-3.0786985293126303,0.6246338634892507,-1.2571638233271519e-05,0.0009300894490105597,0.0003001010368236893,-0.009668467483783577,0.0016191051438233977,-0.004393716278594252,4.594224618502273e-05,0.3259260952472687,-1.1514546138099213,1.6621411482440394,-2.0799161396422328,-1.571345631276266,2.300812244415283,4.993806214770302e-05,0.009582354687154293,0.012471499852836132,-0.017372524365782738,-0.00014084228314459324,-4.864860736475407e-10,0.1149216815829277,0.26815059781074524,-9.346963882446289,0.6993717551231384,47.72629165649414,-0.4132537841796875,-3.2329227924346924,-1.9175589084625244,-0.6301224827766418,-0.022744694724678993,0.034009285271167755,28.0,30.0625,28.5,32.25,34.8125,36.0
1.0,-0.34846305133424627,-1.7467355968193115,-0.690161701522564,-0.07498869015119936,0.023647081512396067,-0.10085951985603439,-0.5391600897677404,-0.32419330193162493,0.2598173486213254,-3.078623779833142,0.6245793743151338,-9.052331449552461e-05,0.0008529915530698489,0.00030103000134169985,-0.010881120337519591,0.0020645330105918684,-0.0049786623647904114,4.2710813719503186e-05,0.3259381353855133,-1.151417927151062,1.6621664206134241,-2.079892774621481,-1.5713933149920862,2.30079984664917,4.669406553148292e-05,0.011195396073162556,0.013385208323597908,-0.0192016139626503,-0.00037781576975248754,-3.176406360161366e-11,0.09576806426048279,0.4213795065879822,-9.346963882446289,0.6814691424369812,47.692256927490234,-0.35103943943977356,-3.2822084426879883,-1.9717357158660889,-0.6370430588722229,-0.031173337250947952,0.03136004880070686,28.0,30.0625,28.5,32.25,34.8125,36.0
1.0,-0.4235074410773926,-1.3133914263834545,-0.6443076227272857,-0.09794467099894377,0.027750201824124444,-0.11079788508855996,-0.5391634480255607,-0.3241866214578072,0.25979433778043903,-3.078615419914768,0.6246550919710242,-7.225761653783123e-05,0.0005717417391633677,0.00020703871404059815,-0.010752219393054199,0.001714855305013989,-0.003949386837184617,4.005172698048379e-05,0.3259260952472687,-1.1513937574676056,1.662201229725973,-2.0799652538695277,-1.5713933149920862,2.3008360862731934,4.438271571416408e-05,0.011560734361410141,0.012775671668350697,-0.020044468343257904,-0.0003795740194618702,-2.0739664326197005e-12,0.1149216815829277,0.3447650372982025,-9.27034854888916,0.6792280077934265,47.69673538208008,-0.39087456464767456,-3.342637538909912,-1.8885180950164795,-0.6545820236206055,-0.032693613320589066,0.016149109229445457,28.0,30.0625,28.5,32.25,34.8125,36.0
1.0,-0.49279471138039,-1.469695788333176,-0.4866691819803842,-0.08552105841865616,0.02974407860404553,-0.10801180029601454,-0.5391718827399522,-0.3241817298403138,0.2598008565968368,-3.0786310311551426,0.6246392151014857,-3.960161216535165e-05,0.0005266554616770194,0.00020827180398918382,-0.011384996173287792,0.0017931830521488543,-0.004271305142317224,9.962393499561142e-06,0.3259141445159912,-1.1513935190490265,1.6621888319598597,-2.0799771747984828,-1.5713933149920862,2.300812244415283,1.4566901882062666e-05,0.012399701401591301,0.013266024179756641,-0.021043846383690834,-0.00035206341999582946,-1.354151843825993e-13,0.1149216815829277,0.28730422258377075,-9.27034854888916,0.6590895652770996,47.703006744384766,-0.3942441940307617,-3.2529468536376953,-1.849137544631958,-0.6469326019287109,-0.0206931009888649,0.017896268516778946,28.0,30.0625,28.5,32.25,34.8125,36.0
1.0,-0.5791709334990045,-1.5643468064548698,-0.6433977805197861,-0.06942495500999887,0.0339903726036814,-0.10412805939176623,-0.5391478806343023,-0.3241825510757942,0.2597483675523916,-3.078609439011295,0.6246157576674107,-0.00014641781965209577,0.00019936294543027695,0.00010359942658011374,-0.011095083320925674,0.0011424381465460856,-0.0024409680728413696,-5.086686024890662e-06,0.3259260654449463,-1.1513694685748597,1.6622851530658167,-2.0800258121886195,-1.5713813940631312,2.300812244415283,1.9543357154816476e-07,0.01259751059114933,0.012688162736594677,-0.022606229409575462,-0.00032663479214534163,-8.841644152663818e-15,0.17238251864910126,0.24899697303771973,-9.232041358947754,0.6904177665710449,47.69673538208008,-0.3721371591091156,-3.2911338806152344,-1.8336997032165527,-0.6579475998878479,-0.02204504795372486,0.02000242844223976,28.0,30.0625,28.5,32.25,34.8125,36.0
1.0,-0.833424356063466,-1.3796186861797166,-0.47245881587686517,-0.06824731243960788,0.032185721062019966,-0.10557301682027194,-0.5391616756775833,-0.32419506401806697,0.25976574675000585,-3.0786452920913376,0.6246228796052326,-4.816298948696574e-05,9.413852939374943e-05,6.564671282067941e-05,-0.011229300345190901,0.0007146212119272222,-0.0012558566991861973,-6.020152474950158e-06,0.3259381055831909,-1.1513575178435822,1.6622374693499964,-2.080062528649801,-1.5713813940631312,2.3008241653442383,2.621990846662925e-09,0.012868981808423996,0.013038106262683868,-0.024487430229783058,-0.0003045241755899042,-5.772962581132341e-16,0.19153612852096558,0.2106897532939911,-9.136273384094238,0.7418897151947021,47.68598937988281,-0.31846246123313904,-3.239907741546631,-1.7990481853485107,-0.6538913249969482,-0.026810016483068466,0.012847540900111198,28.0,30.0625,28.5,32.25,34.8125,36.0
1.0,-0.25452284289162164,-1.1059490807655612,-0.505555972044843,-0.0672166693674699,0.03361705253731233,-0.11268447237874742,-0.5391695270646271,-0.3241768461572598,0.25971046530992686,-3.078629026382619,0.6247155730631597,-0.0001162071296552407,-0.00015207596849256636,-2.0022328603020922e-05,-0.011794095282753969,0.0005716317454924787,-0.0009048018906958044,-6.488191376492863e-06,0.3259021043777466,-1.15129707873378,1.66229755083193,-2.080146928826803,-1.571357552205221,2.3008480072021484,3.517735408520295e-11,0.0140274902805686,0.013056215830147266,-0.02604249119758606,-0.00028521212516352534,-3.769331687739609e-17,0.2106897532939911,0.19153612852096558,-9.078812599182129,0.7083203792572021,47.671661376953125,-0.3691798746585846,-3.3292229175567627,-1.7858096361160278,-0.6500648856163025,-0.02464045025408268,0.009207463823258877,28.0,30.0625,28.5,32.25,34.8125,36.0
1.0,-0.6236370486093974,-1.055777996996485,-0.5416628166286401,-0.0677788650690994,0.020789108413764672,-0.10185865116378594,-0.5391693583430446,-0.3241898491027983,0.2597092784443559,-3.0786406931622325,0.6246795220201459,-3.056050484871334e-05,-0.000315726205620717,-7.750093902076516e-05,-0.011510101867439762,-0.0001513819687547295,0.001166110195593605,-7.3940090949872466e-06,0.3259260654449463,-1.151285247211792,1.66229755083193,-2.080207963983053,-1.5713813940631312,2.3008480072021484,4.719490857146846e-13,0.013860348612070084,0.013116704300045967,-0.02812928892672062,-0.000268205301836133,-2.4611044794695822e-18,0.1149216815829277,0.2106897532939911,-9.193734169006348,0.7284641265869141,47.692256927490234,-0.3904532790184021,-3.2951250076293945,-1.7747523784637451,-0.6477015018463135,-0.01792827993631363,0.0065599363297224045,28.0,30.0625,28.5,32.25,34.8125,36.0
1.0,-0.07103614839214784,-0.7898681535375164,-0.4627387854674961,-0.06984383203831612,0.033628832383487614,-0.11464793544987403,-0.539181327444671,-0.32417310899117574,0.2596550618064908,-3.078622801390284,0.6246562463839753,-0.00016501048277768832,-0.0004223961241887106,-0.00011515757896620135,-0.01275973135944278,-1.2938923842028502e-05,0.0006996697383634884,-7.902628198519808e-06,0.3258901834487915,-1.1512125891498108,1.6623218695269983,-2.080219884912008,-1.571357552205221,2.30079984664917,6.33179955610518e-15,0.015583149157464504,0.01403476670384407,-0.030284008011221886,-0.00025311196804977953,-1.6069253896564656e-19,0.1149216815829277,0.2298433631658554,-9.193734169006348,0.7172743082046509,47.72987747192383,-0.4621240198612213,-3.333982467651367,-1.798097848892212,-0.628077507019043,-0.017507359385490417,0.02689921297132969,28.0,30.0625,28.5,32.25,34.8125,36.0
1.0,0.19723560807580065,-0.6854095548651735,-0.43456608261641455,-0.06446030109432584,0.04064353099365413,-0.10876302403035223,-0.5391644783627821,-0.32419724699243563,0.2596310126948218,-3.078624765035431,0.6245997082163631,-0.00015311977977333687,-0.0008122521521978462,-0.00024924016751972955,-0.01233623552470099,-0.0007903848441487636,0.0029390728880768504,-8.689971376259605e-06,0.3259381055831909,-1.1511886578849335,1.6623566786395472,-2.0802804432311,-1.571369473134176,2.300812244415283,8.49491791255951e-17,0.015732262283563614,0.013263382948935032,-0.03203222155570984,-0.00023962896375451237,-1.0492074404102676e-20,0.09576806426048279,0.17238251864910126,-9.136273384094238,0.7463666796684265,47.76032257080078,-0.39781373739242554,-3.3101534843444824,-1.741973876953125,-0.613505482673645,-0.020432353019714355,0.005677633918821812,28.0,30.0625,28.5,32.25,34.8125,36.0
1.0,-0.2700572253176641,-0.5743958352300871,-0.44110161249830027,-0.054605573686646425,0.033310268964644035,-0.10961255627670306,-0.5391693814682517,-0.3241910947490252,0.2596280962010677,-3.0786463644453557,0.6246425506874675,-7.328898050630211e-05,-0.0007253038003592977,-0.00022082943138541098,-0.01301044170846478,-0.0006743707850933641,0.0025559205094630366,-8.990654411420958e-06,0.3259260654449463,-1.151188389664032,1.662381951008932,-2.080364843408102,-1.571369473134176,2.3008241653442383,1.1397015454920201e-18,0.016359511762857437,0.014173949137330055,-0.033169958740472794,-0.0002275096339872107,-6.850574628715908e-22,0.09576806426048279,0.05746084079146385,-9.097966194152832,0.7486078143119812,47.72987747192383,-0.4524211287498474,-3.341022491455078,-1.7327120304107666,-0.6152327060699463,-0.03224712610244751,0.02193306013941765,28.0,30.0625,28.5,32.25,34.8125,36.0
1.0,-0.06346911271318036,-0.11146780201622558,-0.4122653935029055,-0.06061437003662608,0.04890774351584978,-0.10740094570187639,-0.5391762615591785,-0.3241869336304091,0.2595663449730693,-3.078626804303092,0.6246386157210685,-0.00016473707462865016,-0.0009333381416052254,-0.0002926751354913325,-0.01327293857236008,-0.0009022983707516624,0.0031859623869564054,-9.4153790172921e-06,0.3259141445159912,-1.1511042279056092,1.6624181906329554,-2.0804249248900355,-1.571357552205221,2.300812244415283,1.529055156090349e-20,0.017059553414583206,0.014082993380725384,-0.03444894403219223,-0.0002165574987884611,-4.4729356803674014e-23,0.1149216815829277,0.019153613597154617,-9.251194953918457,0.6881819367408752,47.7191276550293,-0.4429447054862976,-3.320734977722168,-1.7279645204544067,-0.6077039241790771,-0.033554717898368835,0.019415350630879402,28.0,30.0625,28.5,32.25,34.8125,36.0
1.0,-0.4987806344250638,-0.3649347617993073,-0.42577173293913434,-0.057990610340378404,0.048619924729413184,-0.11250064616023753,-0.5391767657336797,-0.32416246476712973,0.25949494826089325,-3.0785881761955585,0.624688494293321,-0.00020326973515177434,-0.0012300841465568875,-0.0003953925874932956,-0.01420652231486058,-0.0012597331376207747,0.004164227720278413,-1.0440139716526519e-05,0.3258781433105469,-1.1510436695865174,1.662525478993551,-2.080557485620016,-1.571369473134176,2.300812244415283,2.7522453737424624e-24,0.01869729720056057,0.014651767909526825,-0.037696756422519684,-0.00019754022650886327,-1.9068826513116416e-25,0.07661445438861847,0.05746084079146385,-9.193734169006348,0.6478998064994812,47.69853210449219,-0.4433838725090027,-3.4034156799316406,-1.700068712234497,-0.5719361305236816,-0.03346225991845131,0.016039801761507988,28.0,30.0625,28.5,32.25,34.8125,36.0
1.0,-0.35875525279653764,-0.2363052193391636,-0.38187673132187705,-0.06194223827588512,0.05080821126717717,-0.1141464760434918,-0.5391709940196922,-0.3241981908252158,0.2594850985784319,-3.078616850371693,0.6246173338158117,-0.0001288599370427752,-0.0011238632999430466,-0.0003601620445784695,-0.014590852861780503,-0.001343274178615318,0.004380984872764372,-1.0878495179108284e-05,0.3259381055831909,-1.151007668381073,1.6625140349017542,-2.080629964868063,-1.5713813940631312,2.3008241653442383,3.69248841550445e-26,0.01889110542833805,0.015551112592220306,-0.03902202844619751,-0.0001892312429845333,-1.2450580881895541e-26,-0.019153613597154617,-0.038307227194309235,-9.251194953918457,0.7486078143119812,47.71375274658203,-0.4624578356742859,-3.307147979736328,-1.7579057216644287,-0.5578274726867676,-0.02111086994409561,-0.012201081030070782,28.0,30.0625,28.5,32.25,34.8125,36.0
1.0,-0.6920150123963716,-0.37727602053491543,-0.4874674554067949,-0.05935451993601153,0.048925870023502536,-0.11887405972207553,-0.5391718758408639,-0.32419066857182355,0.25946615402353235,-3.0786309327903054,0.6246395437878772,-7.998016004352973e-05,-0.001208566032278781,-0.00038972196691301183,-0.01479587918079914,-0.001504739430683482,0.004828512452853778,-1.1235084758761518e-05,0.3259260654449463,-1.1509955686381836,1.6625617186175745,-2.0807258091368617,-1.5713813940631312,2.3008241653442383,4.953944410500902e-28,0.019272347912192345,0.01571609638631344,-0.04004395380616188,-0.0001815931173041463,-8.129338739678856e-28,-0.038307227194309235,0.0,-9.251194953918457,0.6725152134895325,47.702110290527344,-0.43914198875427246,-3.4045562744140625,-1.680203914642334,-0.5536643266677856,-0.021096229553222656,0.018795039504766464,28.0,30.0625,28.5,32.25,34.8125,36.0
1.0,-0.7323983364563182,-0.49557222848181715,-0.5461936567273686,-0.05515123409697479,0.04641158630353972,-0.10621260205964483,-0.5391881750895161,-0.3241922126011512,0.25941854536168435,-3.078657748414317,0.6246642184644439,-0.00010813091071178899,-0.0011456682263043861,-0.0003688842109551868,-0.015965805613210593,-0.0011107222780483953,0.003639735907088891,-1.1389229433423622e-05,0.3259141445159912,-1.1509109896472474,1.6625736395465296,-2.080822607079977,-1.571345631276266,2.3008241653442383,6.646348879210278e-30,0.020604019984602928,0.016766810789704323,-0.041174016892910004,-0.00017454799672123045,-5.307877371205805e-29,0.0,-0.05746084079146385,-9.346963882446289,0.7329410910606384,47.71733474731445,-0.4382176101207733,-3.4443719387054443,-1.7114509344100952,-0.5391541719436646,-0.02647268958389759,0.0022451423574239016,28.0,30.0625,28.5,32.25,34.8125,36.0
1.0,-0.4842632018538444,-0.2832293574669315,-0.5305053397959802,-0.05549402394719249,0.05609736443531395,-0.11560539417432295,-0.5391909748932266,-0.3241971533753415,0.2593970791011427,-3.0786334834418687,0.6246592356778663,-6.36369237344957e-05,-0.0012635054072829823,-0.000409727208356579,-0.01546816282670311,-0.0017870236019918227,0.005608423968842886,-1.2096802649645009e-05,0.3259260654449463,-1.1508752268603821,1.6625860373126429,-2.0808826885619105,-1.5713813940631312,2.3008360862731934,8.916925162639961e-32,0.020100655034184456,0.016676530241966248,-0.042661987245082855,-0.00016802996105980128,-3.46566429130899e-30,0.019153613597154617,0.05746084079146385,-9.289502143859863,0.6971306204795837,47.671661376953125,-0.4114956855773926,-3.342094898223877,-1.7237439155578613,-0.521469235420227,-0.023773550987243652,0.04072573408484459,28.0,30.0625,28.5,32.25,34.8125,36.0
1.0,-0.6641814674444261,-0.6684639751074943,-0.5965535652012258,-0.04728339370654774,0.05140269398965215,-0.10700045788785635,-0.5391660965255484,-0.3242015011385026,0.2593246485032204,-3.078657756323717,0.6245678189792956,-0.00019748593699076702,-0.0013166017547675275,-0.00042847141415763206,-0.015231757809376311,-0.002138606845481511,0.006623312254343889,-1.2472773435054344e-05,0.3259381055831909,-1.1508274239352723,1.6627052466021937,-2.0809790096678675,-1.5713337103473108,2.300787925720215,1.1963193352730582e-33,0.019852491095662117,0.01667420007288456,-0.043485548347234726,-0.0001619799731997773,-2.2628313273103067e-31,0.019153613597154617,0.05746084079146385,-9.404424667358398,0.6277561187744141,47.6707649230957,-0.44770902395248413,-3.3592402935028076,-1.705117106437683,-0.5024086833000183,-0.004041861742734909,0.009798838756978512,28.0,30.0625,28.5,32.25,34.8125,36.0
1.0,-0.43598267406245633,-0.2640754219602739,-0.5085640972483388,-0.058528415523160696,0.05385968040605876,-0.11481754886008087,-0.5391895676625099,-0.3242082338244312,0.2593283574470385,-3.0786964629796216,0.6245948252889445,-4.413883824380214e-05,-0.0011395928572742408,-0.000368658455542375,-0.01662148016549134,-0.001434252970798876,0.004527115012200047,-1.2340371764443337e-05,0.3259381055831909,-1.1507909756949921,1.6626704374896448,-2.0810867748656214,-1.571345631276266,2.30079984664917,1.6050151365506105e-35,0.021273551508784294,0.017953021451830864,-0.04397408291697502,-0.0001563510304549709,-1.4774672415418188e-32,0.0,-0.019153613597154617,-9.404424667358398,0.7508436441421509,47.712860107421875,-0.5140227675437927,-3.3516340255737305,-1.701697826385498,-0.4985290765762329,-0.0036833244375884533,0.0029468685388565063,28.0,30.0625,28.5,32.25,34.8125,36.0
1.0,-0.34209995488010486,-0.4320245481686942,-0.6115524004340585,-0.06104537260493524,0.053163616503198716,-0.11323425127194468,-0.5391762983135987,-0.3242167733378676,0.2592681102614875,-3.0786566035024263,0.6245681694489702,-8.968349190621394e-05,-0.0013856130187230816,-0.00045283709410932937,-0.017163285621584038,-0.0014819277147028694,0.004641840511684466,-1.2645532008743886e-05,0.3259620666503906,-1.1507306557944794,1.6627419630633753,-2.0811711750426234,-1.571369473134176,2.300812244415283,2.153332750654631e-37,0.022429635748267174,0.01783379167318344,-0.04513490945100784,-0.0001511010341346264,-9.646804592618492e-34,0.038307227194309235,-0.019153613597154617,-9.366117477416992,0.5807611346244812,47.712860107421875,-0.4679136276245117,-3.45290207862854,-1.6642632484436035,-0.4849432706832886,-0.03119082748889923,0.014736469835042953,28.0,30.0625,28.5,32.25,34.8125,36.0
1.0,-0.30721436027000504,-0.7627519936034952,-0.5353664996122696,-0.05641734901595738,0.04630660237546663,-0.11961569252543051,-0.5391916196441011,-0.3241973508822047,0.2592526245086302,-3.0786297293818823,0.6246777268947075,-6.498748394926995e-05,-0.0012557116024510448,-0.00040906719669865584,-0.017524220246316485,-0.0013053228843501491,0.004107052749094827,-1.2658600199245718e-05,0.3259260654449463,-1.150706635122635,1.6627543608294886,-2.0812188587584437,-1.5713813940631312,2.3008480072021484,2.8889701633936872e-39,0.02261672168970108,0.01844373531639576,-0.045368779450654984,-0.0001461912179365754,-6.298674683268213e-35,0.05746084079146385,0.038307227194309235,-9.308655738830566,0.7217512726783752,47.68598937988281,-0.49679329991340637,-3.3834853172302246,-1.701977252960205,-0.4641149938106537,-0.03952159732580185,0.025178689509630203,28.0,30.0625,28.5,32.25,34.8125,36.0
1.0,-0.19264049159611613,-0.38055672559843107,-0.532918778459379,-0.06837079924021472,0.04688063249439996,-0.11372895576509921,-0.5392003404191932,-0.324197762148873,0.25922345654083945,-3.078642157697105,0.6246030617260329,3.207630745380673e-06,-0.0010993691845368968,-0.00035642198693238493,-0.01725318613358332,-0.0013249748186630447,0.0041552697607652395,-1.2597294679543895e-05,0.3259260654449463,-1.150658832197525,1.6627782026873987,-2.0813266239561976,-1.5714057127581995,2.30079984664917,3.875991552322444e-41,0.021961282938718796,0.01865396462380886,-0.044975556433200836,-0.00014159079000819474,-4.1125843635953e-36,0.0,0.019153613597154617,-9.21288776397705,0.6747510433197021,47.686885833740234,-0.5503311157226562,-3.404268741607666,-1.6898252964019775,-0.4851817190647125,-0.017619512975215912,0.010056788101792336,28.0,30.0625,28.5,32.25,34.8125,36.0
1.0,-0.32249789931136075,-0.2754219311762681,-0.5006153200052752,-0.0646561675037772,0.037768712872416815,-0.11145998815506712,-0.5391993964086095,-0.32420655519119523,0.2591871615841127,-3.0786539625304314,0.6246252106642537,7.181219246754621e-06,-0.001174826424937951,-0.0003824540549180602,-0.0179429717976762,-0.0009139167907169039,0.0029270456533201346,-1.235367427595372e-05,0.3259381055831909,-1.1506104332259675,1.6628144423114222,-2.08142151455068,-1.5713933149920862,2.3008241653442383,5.198817302645071e-43,0.023043004795908928,0.018665187060832977,-0.04477333649992943,-0.00013727163604926318,-2.685223945070033e-37,0.038307227194309235,0.019153613597154617,-9.27034854888916,0.7329410910606384,47.703006744384766,-0.4571017622947693,-3.43900465965271,-1.6437740325927734,-0.4793574810028076,-0.034944288432598114,0.011846760287880898,28.0,30.0625,28.5,32.25,34.8125,36.0
1.0,0.13528719162432515,-0.18701014030302782,-0.46344535248559543,-0.0620091865294443,0.0423968816061398,-0.11479914109072875,-0.5392134562278933,-0.3241879481522063,0.2591394140344496,-3.0786460912702758,0.6246622534302464,5.7583159506976435e-06,-0.0008854215032653708,-0.00028457228171664266,-0.01978234499546724,0.00044197844496985023,-0.0010922209985860774,-1.15123484098428e-05,0.3259141445159912,-1.1505139631083985,1.6628864447223108,-2.0816132030882777,-1.571369473134176,2.3008241653442383,0.0,0.024928923696279526,0.019969288259744644,-0.04372157156467438,-0.00012937748397234827,-1.1447529453716225e-39,0.1149216815829277,0.1149216815829277,-9.28950309753418,0.6322330832481384,47.71733474731445,-0.5366564989089966,-3.485599994659424,-1.652059555053711,-0.5077736377716064,-0.03116641193628311,0.01510860025882721,28.0,30.0625,28.5,32.25,34.8125,36.0
1.0,-0.6644516605790002,-0.6459626243685062,-0.5826229657363451,-0.05140308033153188,0.018510797187344493,-0.105339847048486,-0.5392133871852761,-0.3241982405582997,0.2591151753901635,-3.0786782908868444,0.6246686985483434,1.954835886131731e-05,-0.0008858321999084682,-0.00028253991062022484,-0.02043425456796801,0.0010052923544244642,-0.002691121204875175,-1.102749215106281e-05,0.3259141445159912,-1.1504896444133301,1.6629579702960413,-2.081672807733053,-1.5713933149920862,2.300812244415283,0.0,0.025838663801550865,0.020013226196169853,-0.04298008233308792,-0.00014922399714123458,-7.474385878862142e-41,0.2298433631658554,0.09576806426048279,-9.193734169006348,0.7239871025085449,47.700321197509766,-0.5388827919960022,-3.402120590209961,-1.6716656684875488,-0.5087443590164185,-0.019605766981840134,-0.007412334904074669,28.0,30.0625,28.5,32.25,34.8125,36.0
1.0,-0.10068095381429434,-0.4836195291059607,-0.4040735766003971,-0.05308356631846768,0.02184956986183969,-0.10722609884930479,-0.5392130887571897,-0.32420462546516277,0.2590769590616783,-3.078703799783209,0.6245776215521742,7.483048598181481e-05,-0.0007384030554491621,-0.0002326907758019492,-0.020348839721534628,0.0009973174921192492,-0.0026724758102046075,-1.1064744512325655e-05,0.3259260654449463,-1.15046580255542,1.6629355589496058,-2.0817443333067835,-1.5713813940631312,2.3007760047912598,0.0,0.02541741542518139,0.020403238013386726,-0.04296907037496567,-0.00014670018572360277,-4.880722551243338e-42,0.2298433631658554,0.05746084079146385,-9.289502143859863,0.7150384783744812,47.66449737548828,-0.5200508236885071,-3.466787338256836,-1.7027697563171387,-0.5290746092796326,-0.036653146147727966,0.00023175007663667202,28.0,30.0625,28.5,32.25,34.8125,36.0
1.0,-0.12929307493853198,-0.4437218017586527,-0.5925479566013253,-0.05441400163130308,0.014916872253085422,-0.1079734179216523,-0.5392069226255283,-0.3241957699318158,0.25897585304759174,-3.0786415956465776,0.6246038485656435,-0.00011311886575001462,-0.0009284509623497235,0.0003327352217674652,-0.01999378298162752,0.0008049297104551947,-0.0021142300458983888,-0.0009819991109995872,0.32591375708580017,-1.1503582161716004,1.6630309263812464,-2.081815858880514,-1.571369473134176,2.300787925720215,-0.0009708108264021575,0.024690981954336166,0.020633483305573463,-0.04306335374712944,-0.0001429173571523279,-3.1809475140173348e-43,0.15322890877723694,0.07661445438861847,-9.21288776397705,0.7127973437309265,47.700321197509766,-0.510572612285614,-3.316710948944092,-1.576901912689209,-0.5347878932952881,-0.02999734878540039,0.020735982805490494,28.0,30.0625,28.5,32.25,34.8125,36.0
1.0,0.00023485507165521557,-0.7876099150977461,-0.5640482622630416,-0.045263386359107975,0.023615815041949234,-0.10735796150302496,-0.539221728619989,-0.32417493857157065,0.25894709017898065,-3.0786106700514027,0.6247132965958092,-6.213008610196024e-05,-0.0010757252539835174,0.000333096989403097,-0.020539174299368076,0.0011196139276990395,-0.003057069937208237,-0.0010598866918243091,0.3258777856826782,-1.150321827535965,1.6630671660052698,-2.081912179986471,-1.5713933149920862,2.3008241653442383,-0.0010489014675840735,0.02568001300096512,0.0204498041421175,-0.042874760925769806,-0.00013923828373663127,-2.1019476964872256e-44,0.19153612852096558,0.07661445438861847,-9.193734169006348,0.7195101380348206,47.71017074584961,-0.4711575210094452,-3.4623823165893555,-1.6007328033447266,-0.5669032335281372,-0.04494874179363251,-0.0007923559751361609,28.0,30.0625,28.5,32.25,34.8125,36.0
1.0,0.06531916694978611,-0.36866635075976906,-0.42860695599818677,-0.05805231399697444,0.02868693115211492,-0.10931538307110426,-0.539220056940875,-0.3242080268157037,0.25890952924139804,-3.0786748317348915,0.6245914551425183,-3.2967746247361266e-05,-0.0009513227161061219,0.0002685412089584284,-0.021232836868237185,0.0016291836332645439,-0.004569359703354735,-0.0008954836466098875,0.3259257674217224,-1.1502496165088196,1.6630786100970667,-2.082031389276022,-1.571369473134176,2.300787925720215,-0.000884825480170548,0.026474853977560997,0.020816288888454437,-0.0424402616918087,-0.0001357389846816659,-1.401298464324817e-45,0.15322890877723694,-0.019153613597154617,-9.251194953918457,0.7262282371520996,47.71375274658203,-0.5575612783432007,-3.419088840484619,-1.5700632333755493,-0.5940473079681396,-0.03371831029653549,0.012993374839425087,28.0,30.0625,28.5,32.25,34.8125,36.0
1.0,-0.27823249952337487,-0.7225481780279593,-0.3907158070662383,-0.056975379752535374,0.021819027230729218,-0.10974765612985384,-0.5392336087761913,-0.324186844476977,0.25887103906553066,-3.0786303311839487,0.6246788310617905,-2.9662691342614322e-05,-0.0006962759286206462,0.00027409959039537254,-0.021864294747369024,0.0014971175277856514,-0.004195036454036496,-0.0007715642947538584,0.32588991522789,-1.1502014559558411,1.6631153265582483,-2.082104822198385,-1.5713933149920862,2.300812244415283,-0.0007601931574754417,0.026708578690886497,0.022428488358855247,-0.04468310624361038,-0.00013241017586551607,-0.0,0.15322890877723694,0.038307227194309235,-9.251194953918457,0.7060845494270325,47.71017074584961,-0.5552493333816528,-3.4964475631713867,-1.607431173324585,-0.6009436249732971,-0.02993573062121868,0.015481384471058846,28.0,30.0625,28.5,32.25,34.8125,36.0
1.0,-0.42723045643940116,-0.5196527820140471,-0.4800883442378503,-0.06442106791060212,0.017565085176272126,-0.10648932113088021,-0.5392201274944404,-0.3241925150208477,0.25882531146180876,-3.0786492507891436,0.6246246290187557,-8.335179241028887e-05,-0.0003643481239688532,0.0003257428182428718,-0.022529564736932396,0.0018518983081432141,-0.005248486880791458,-0.0006776713399630622,0.3259018659591675,-1.150165395145752,1.663187328969137,-2.0821873150267542,-1.571369473134176,2.300787925720215,-0.0006663035019300878,0.026928426697850227,0.023721763864159584,-0.04508465155959129,-0.00012924120528623462,-0.0,0.2106897532939911,0.05746084079146385,-9.136273384094238,0.7642692923545837,47.70927429199219,-0.5087556838989258,-3.549126148223877,-1.6693987846374512,-0.5964284539222717,-0.018229622393846512,-0.0025627347640693188,28.0,30.0625,28.5,32.25,34.8125,36.0
1.0,0.697534207446544,-0.5449854527605181,-0.3645167184172637,-0.07051184924535128,0.03655018099699135,-0.11493028354923913,-0.5392331423453935,-0.32417239875648574,0.2587767960156709,-3.0786144058245375,0.6247140019532702,-9.074569204387732e-05,-0.00014368097669010778,0.00035283644219453504,-0.02209656181794397,0.00220043444487342,-0.006275425889727519,-0.0006037009549895235,0.3258660137653351,-1.1501058501056214,1.6632359663592737,-2.082283159295553,-1.5713813940631312,2.300812244415283,-0.0005930743063800037,0.02609994448721409,0.023388277739286423,-0.04283821955323219,-0.0001262199366465211,-0.0,0.19153612852096558,0.09576806426048279,-9.155426979064941,0.7217512726783752,47.70658874511719,-0.5457687973976135,-3.432169198989868,-1.6350570917129517,-0.6592718362808228,-0.027042165398597717,-0.004332773387432098,28.0,30.0625,28.5,32.25,34.8125,36.0
1.0,0.908856375803085,-0.09177776571266838,-0.27726536122801987,-0.06891923279359705,0.03330830800736023,-0.11944088110050563,-0.5392142598277205,-0.3241983627182634,0.2587220401360117,-3.0786296658847903,0.6246013258866604,-0.00014838948896274791,-0.0002671452061166156,0.00027245318319537903,-0.02240540249079348,0.0021750056576211865,-0.006213673222921786,-0.0005451564029100792,0.3259139657020569,-1.1500456196120759,1.663295094166891,-2.082367082635397,-1.571369473134176,2.300787925720215,-0.0005343575030565262,0.02676757052540779,0.023306848481297493,-0.043491069227457047,-0.00012333685299381614,-0.0,0.17238251864910126,0.2106897532939911,-9.155426979064941,0.7284641265869141,47.73883056640625,-0.5220453143119812,-3.5051379203796387,-1.6815131902694702,-0.677550196647644,-0.032966505736112595,-0.0025946362875401974,28.0,30.0625,28.5,32.25,34.8125,36.0
1.0,0.500336132280153,-0.35006708584976254,-0.4401546621143968,-0.05870760124518472,0.02466326663165468,-0.11737364984281534,-0.5392190275356935,-0.32419995983462024,0.25868929283117276,-3.078630179177936,0.6246015089695991,-0.00014731201330357146,-0.0007473767203459351,0.0001279966918539521,-0.022412626439364525,0.0016615045702762555,-0.004721062222327498,-0.0005752354438739333,0.3259139358997345,-1.1499973696521302,1.6633184591876429,-2.0824395618834437,-1.571369473134176,2.300787925720215,-0.0005638249567709863,0.027662085369229317,0.02244047075510025,-0.04509767144918442,-0.00012058280844939873,-0.0,0.17238251864910126,0.19153612852096558,-9.21288776397705,0.6590895652770996,47.700321197509766,-0.5662754774093628,-3.4338033199310303,-1.5840070247650146,-0.6961352825164795,-0.03658761829137802,0.006757575087249279,28.0,30.0625,28.5,32.25,34.8125,36.0
1.0,-0.31241303890951644,-0.7785306877530727,-0.5181491407113953,-0.05636104535588927,0.018306672482475042,-0.09940410632773543,-0.5392226044259515,-0.3241946173362221,0.25863098347518876,-3.078613072366075,0.6246173320267971,-0.000221637411328755,-0.0005111928248987431,0.00017988766199841197,-0.022994481780547117,0.0015706733548707331,-0.004464802525625944,-0.0005323683471278987,0.32590192556381226,-1.1499253374389191,1.6633666197406214,-2.0825120411314906,-1.571357552205221,2.300787925720215,-0.0005203409236855805,0.027835866436362267,0.023962199687957764,-0.047065045684576035,-0.00011794906458817422,-0.0,0.13407529890537262,0.13407529890537262,-9.366117477416992,0.7239871025085449,47.72270965576172,-0.5755321979522705,-3.5598878860473633,-1.5489318370819092,-0.695401668548584,-0.03625916317105293,0.005635353736579418,28.0,30.0625,28.5,32.25,34.8125,36.0
1.0,-0.07425898546660059,-0.440829817576864,-0.4685043184602809,-0.07084009022082152,0.037216512917160105,-0.11055456876897791,-0.5392125957291631,-0.3241874575855948,0.25858929518256757,-3.0785743753335226,0.624648413065422,-0.000195845683163076,-6.429622623136664e-05,0.0003059797438805087,-0.024131482451251553,0.002440205682875352,-0.0070307057158354325,-0.0004922340341614915,0.32590192556381226,-1.1499010485461731,1.6634514967547815,-2.0826193294920863,-1.5713933149920862,2.300812244415283,-0.00048066675662994385,0.028458165004849434,0.02556445822119713,-0.046580374240875244,-0.00011542743595782667,-0.0,0.05746084079146385,0.09576806426048279,-9.289502143859863,0.6523714661598206,47.71733474731445,-0.5722305178642273,-3.432753086090088,-1.6213910579681396,-0.7248449325561523,-0.0313563197851181,-0.012865022756159306,28.0,30.0625,28.5,32.25,34.8125,36.0
1.0,-0.04376416953773682,-0.4373650481588739,-0.3268935129962259,-0.07324100107021854,0.04807899273983823,-0.11699531635628761,-0.539214870698161,-0.3242075366407183,0.2585462818748617,-3.078627552358126,0.6246010809373792,-0.00019292563440356848,8.687907994362e-05,0.00037595312123922357,-0.024912213460830262,0.0032928962892869295,-0.009546771038298806,-0.0005202490610833323,0.32592588663101196,-1.1498288673213501,1.6634753386126917,-2.082738538781637,-1.571357552205221,2.30079984664917,-0.0005094633088447154,0.029256310313940048,0.02587207965552807,-0.04502951726317406,-0.00011301171616651118,-0.0,0.17238251864910126,0.038307227194309235,-9.289502143859863,0.6747510433197021,47.68867492675781,-0.5683048963546753,-3.50518798828125,-1.6240730285644531,-0.7928656339645386,-0.03345390409231186,0.0007320934091694653,28.0,30.0625,28.5,32.25,34.8125,36.0
1.0,-0.14066717826764213,-0.6498109581508764,-0.4089741085922463,-0.0615824472062014,0.043669369671125766,-0.11528027276142516,-0.5392225671198989,-0.3241973743110611,0.25850072623017306,-3.0785567418179243,0.6246828565910114,-0.00018629213983615227,-0.00012964494947912786,0.00028166978007490264,-0.024877181168967984,0.0026402193701953627,-0.007612314994147906,-0.0004882827682120293,0.3259139955043793,-1.1497689348510285,1.6635115782367151,-2.082811494866842,-1.5714057127581995,2.3008480072021484,-0.0004765822959598154,0.029532337561249733,0.02595001645386219,-0.047425057739019394,-0.00011976966925431043,-0.0,0.13407529890537262,0.09576806426048279,-9.346963882446289,0.7150384783744812,47.70927429199219,-0.5786429643630981,-3.5089197158813477,-1.6164426803588867,-0.8054440021514893,-0.02201129123568535,0.010568038560450077,28.0,30.0625,28.5,32.25,34.8125,36.0
1.0,0.18609668104020302,-0.46602887102604085,-0.4277116608818865,-0.07066336313500927,0.05681765353618626,-0.1158746288686617,-0.5392262588182127,-0.32419585164368564,0.2584435771440138,-3.0785912303291756,0.6246321133416595,-0.00027310734286713835,-0.0001794541240699383,0.0002106716817138093,-0.02550124685940347,0.0023639127184523325,-0.006788879215090994,-0.00040471071831933535,0.32590195536613464,-1.1496965152076264,1.6635592619525355,-2.082895895043844,-1.571357552205221,2.30079984664917,-0.00039220659527927637,0.030353112146258354,0.026794299483299255,-0.04995865374803543,-0.00012593792052939534,-0.0,0.15322890877723694,0.15322890877723694,-9.21288776397705,0.5897097587585449,47.73972702026367,-0.6025205850601196,-3.4928879737854004,-1.5521249771118164,-0.7931603789329529,-0.021635552868247032,0.012468974106013775,28.0,30.0625,28.5,32.25,34.8125,36.0
1.0,-0.5383245593222129,-0.5326680113156328,-0.5023255639394921,-0.07109988552692073,0.0414691367696853,-0.11168924573405457,-0.5392130653921945,-0.32419137654941166,0.2583897205877296,-3.0785718028631006,0.624667140723193,-0.0003058836231948131,0.0001792604303311202,0.0002962152176221411,-0.026417920064657364,0.002589843027116095,-0.007461950109851384,-0.0003491002190168493,0.32590198516845703,-1.1496604841998597,1.6636555830584925,-2.083004137078756,-1.571357552205221,2.3008241653442383,-0.0003362150164321065,0.030747784301638603,0.028679151087999344,-0.0515282079577446,-0.00012401794083416462,-0.0,0.09576806426048279,0.07661445438861847,-9.232041358947754,0.7172743082046509,47.70748519897461,-0.5869265794754028,-3.4950647354125977,-1.6443147659301758,-0.8128889799118042,-0.018374286592006683,0.004379837308079004,28.0,30.0625,28.5,32.25,34.8125,36.0
1.0,-0.8150996712898908,-0.6500268861558168,-0.40851571869904996,-0.06376473574112668,0.0379270737635813,-0.103641492146109,-0.5392074929172918,-0.3242050323290672,0.25831479569190585,-3.078559532276489,0.6246071753208396,-0.0003710275220759757,-0.00047471001608791495,7.808571911073607e-05,-0.0257976307104687,0.0008809118748804407,-0.002461009372465953,-0.0003585756600583703,0.32590198516845703,-1.1495165091804047,1.6637275854693812,-2.083233495751852,-1.5713933149920862,2.300812244415283,-0.0003436417900957167,0.030985675752162933,0.028048276901245117,-0.05642009899020195,-0.00011935718794120476,-0.0,0.038307227194309235,0.17238251864910126,-9.251194953918457,0.6322330832481384,47.674346923828125,-0.6399993896484375,-3.563656806945801,-1.6129841804504395,-0.8352540135383606,-0.031350746750831604,-0.0067347995936870575,28.0,30.0625,28.5,32.25,34.8125,36.0
1.0,-0.5489757422648267,-0.8756389514905436,-0.6263714224962383,-0.05703084090556516,0.05583771842458968,-0.1087394232191093,-0.5392223017095527,-0.3241944966255071,0.2582498669044554,-3.078599666220603,0.6245957707875022,-0.00027205875450806973,-0.000777438792894523,-3.4429896838984125e-05,-0.02621318529900678,7.500127067549726e-06,8.900286286570705e-05,-0.000345625115239543,0.32590198516845703,-1.149480180149414,1.6638005415545862,-2.0833546123900355,-1.571357552205221,2.3007760047912598,-0.0003291631583124399,0.0319034643471241,0.02866991050541401,-0.060654960572719574,-0.00011713789717759937,-0.0,0.019153613597154617,0.15322890877723694,-9.251194953918457,0.7530794739723206,47.71017074584961,-0.638386607170105,-3.44303822517395,-1.5939140319824219,-0.8266103863716125,-0.04529241472482681,-0.002131087239831686,28.0,30.0625,28.5,32.25,34.8125,36.0
1.0,-0.6298597526621001,-0.5711451079926013,-0.41204568821567117,-0.0774353215127293,0.06515726561478619,-0.11026329210212116,-0.5392071373671512,-0.32419839705688014,0.2581644350941546,-3.078551907446536,0.6246440080134777,-0.000409896732195386,-0.0007771333722185929,-4.6712593060340254e-05,-0.026759649368956646,-0.0006452201356916314,0.001994178435434906,-0.00032818131761662027,0.32591402530670166,-1.1493961376002808,1.663896385823385,-2.083439966241354,-1.571345631276266,2.3008241653442383,-0.000310331117361784,0.03238271549344063,0.030138375237584114,-0.06461656093597412,-0.00011499952961457893,-0.0,0.019153613597154617,0.09576806426048279,-9.366117477416992,0.6456586718559265,47.693153381347656,-0.6292818784713745,-3.568953514099121,-1.6255583763122559,-0.7874978184700012,-0.029990365728735924,0.005668514408171177,28.0,30.0625,28.5,32.25,34.8125,36.0
1.0,-0.6332861006078441,-1.0503183788096773,-0.48200048563206194,-0.07342472185224669,0.07118744822410708,-0.11318163896492649,-0.5392189295786316,-0.3242064117226671,0.25811658205453036,-3.078550809523572,0.624585636652057,-0.00033328753310335924,-0.0007078599397526689,-3.4248173026375354e-05,-0.02733143681260153,-0.0005746137900819481,0.0017759480445892256,-0.0003116094070753299,0.3259259760379791,-1.14931212485347,1.6639202276812952,-2.083583494225973,-1.5713813940631312,2.30079984664917,-0.00029346515657380223,0.03293539211153984,0.030913209542632103,-0.06571473181247711,-0.00011293787974864244,-0.0,0.019153613597154617,0.05746084079146385,-9.346963882446289,0.6478998064994812,47.703006744384766,-0.6642590165138245,-3.4997358322143555,-1.6561415195465088,-0.7922621965408325,-0.046127431094646454,0.006794668734073639,28.0,30.0625,28.5,32.25,34.8125,36.0
1.0,-1.0200069037272257,-0.877575030945364,-0.39320301087424436,-0.0795588927389127,0.061919306533606985,-0.1108254337938136,-0.5392377127848563,-0.32418291803944466,0.2580699746933241,-3.0785521989988935,0.6246628095268331,-0.000325989012343916,-0.001221991644629723,-0.00021882979224926858,-0.028932414743091783,-0.0009916297043712566,0.002972497125041261,-0.0002979487928797018,0.3258780539035797,-1.1492511493018647,1.6639683882342737,-2.083705087701315,-1.571369473134176,2.30079984664917,-0.000278337683994323,0.03581883758306503,0.03162400424480438,-0.07057607173919678,-0.00011094914225395769,-0.0,0.05746084079146385,0.07661445438861847,-9.327810287475586,0.7262282371520996,47.68867492675781,-0.6269422769546509,-3.5775372982025146,-1.7070075273513794,-0.7569687366485596,-0.049977898597717285,-0.010575794614851475,28.0,30.0625,28.5,32.25,34.8125,36.0
1.0,-0.9781432880843242,-1.0301120236654486,-0.5477475117759385,-0.07184245469045017,0.05731491763231336,-0.10499709373247919,-0.5392337544202781,-0.3241971061436989,0.258012329089813,-3.078582432560526,0.624611578700233,-0.0002742710963173918,-0.0018169030650727464,-0.000402112953855325,-0.027899449450254653,-0.0032808901227391707,0.00969099744937409,-0.0003305452673778328,0.32590198516845703,-1.1491792362979432,1.6640399138080042,-2.08388676265859,-1.571369473134176,2.300787925720215,-0.0003081851464230567,0.03526901826262474,0.031502190977334976,-0.07700225710868835,-0.00010902910435106605,-0.0,-0.019153613597154617,0.13407529890537262,-9.289502143859863,0.6725152134895325,47.6895751953125,-0.6538102626800537,-3.6867151260375977,-1.6398227214813232,-0.6787377595901489,-0.027182813733816147,0.01158062368631363,28.0,30.0625,28.5,32.25,34.8125,36.0
1.0,-0.7495565179826331,-1.1542813492484583,-0.6330646148781992,-0.06793921933938436,0.06332885406346757,-0.11215049865299309,-0.5392319974983248,-0.3241952513511762,0.257963695148197,-3.078596000807004,0.6246143984713426,-0.00020027425751566132,-0.001440722959660257,-0.0002654776252746226,-0.027736659609841726,-0.0033966075743625057,0.010032143649800556,-0.00034456300578319336,0.32590198516845703,-1.1491315227798005,1.6641243139850062,-2.0840665302672328,-1.5713813940631312,2.300787925720215,-0.000321938336128369,0.03422928974032402,0.032702621072530746,-0.07752320170402527,-0.0001071742590283975,-0.0,0.0,0.15322890877723694,-9.27034854888916,0.7038487195968628,47.731666564941406,-0.6891334056854248,-3.5256147384643555,-1.6549550294876099,-0.6541200876235962,-0.043416984379291534,0.0093179726973176,28.0,30.0625,28.5,32.25,34.8125,36.0
1.0,-0.959554025660821,-1.2107901033523696,-0.6478315595834945,-0.05946649882243539,0.050750985963871134,-0.09915543240113169,-0.5392207494519261,-0.3242082313030531,0.25791577980710695,-3.0786088420947015,0.6246367771929873,-0.00019195876335552288,-0.001984267075696426,-0.00045107944554307976,-0.02727548632212143,-0.004816092290293209,0.01419087692344686,-0.0003455801241772282,0.32592594623565674,-1.1490836602500458,1.6641963163958948,-2.0841995678343714,-1.571369473134176,2.3008241653442383,-0.00032121691037900746,0.03449248895049095,0.03224003687500954,-0.08171813189983368,-0.00010538138303672895,-0.0,-0.13407529890537262,0.07661445438861847,-9.327810287475586,0.7105615139007568,47.731666564941406,-0.6690248250961304,-3.5077788829803467,-1.6989479064941406,-0.6073579788208008,-0.023170804604887962,0.010239776223897934,28.0,30.0625,28.5,32.25,34.8125,36.0
1.0,-0.39953000922030446,-0.5592637880849197,-0.4327370716206407,-0.07352042503139737,0.06080621538066984,-0.11809701282624087,-0.5392404621320838,-0.32421240768093645,0.25786171848642603,-3.0786412306374893,0.6245853785147111,-6.0569994000928255e-05,-0.0023060532706866655,-0.0005170407892188593,-0.02863134692080386,-0.004687142176591095,0.013789788984304031,-0.0004130326201401568,0.32592591643333435,-1.1489869517138978,1.6642330328570765,-2.0844160519041957,-1.5713933149920862,2.300787925720215,-0.00038812056300230324,0.036768149584531784,0.032657038420438766,-0.08398954570293427,-0.00010364767513237894,-0.0,-0.019153613597154617,0.19153612852096558,-9.327810287475586,0.7105615139007568,47.71464920043945,-0.6933917999267578,-3.5727970600128174,-1.6843316555023193,-0.5540357828140259,-0.03106861375272274,0.009128700941801071,28.0,30.0625,28.5,32.25,34.8125,36.0
1.0,-0.6873951936828043,-0.9341117530592824,-0.35935918206383494,-0.06929723508866825,0.052207178547410124,-0.11326215909506453,-0.5392511586279589,-0.32420829007381463,0.25777500589097535,-3.078617999361166,0.6245807041865761,-0.00012524464319561287,-0.0023512701260534987,-0.0005041209587225701,-0.028706605105274348,-0.004922305625099906,0.014474575156061514,-0.0004572311829127634,0.3259139955043793,-1.148866967563965,1.6642921606646937,-2.0845476589598597,-1.5713933149920862,2.3007760047912598,-0.00043189755524508655,0.036870189011096954,0.03293684870004654,-0.08509543538093567,-0.00010197002120548859,-0.0,-0.1149216741323471,0.13407529890537262,-9.308655738830566,0.6881819367408752,47.68867492675781,-0.73573237657547,-3.5954432487487793,-1.7172904014587402,-0.5325918793678284,-0.031128358095884323,0.007334887981414795,28.0,30.0625,28.5,32.25,34.8125,36.0
1.0,-0.3385594393295211,-0.6340884341063513,-0.5559956156092832,-0.07157908123320567,0.05239964173518977,-0.11540106582296313,-0.5392492783225714,-0.32420482412938506,0.257732154335642,-3.0786738162751317,0.624630641392933,-0.00010023775614114855,-0.002200495937218065,-0.0004298341648074546,-0.029986277325576734,-0.0039314087071706146,0.011550230182085452,-0.0004919317144616391,0.32590195536613464,-1.1488304001143952,1.6643760840045374,-2.084714551965231,-1.571345631276266,2.300787925720215,-0.00046728100278414786,0.03828880935907364,0.033647321164608,-0.08413686603307724,-0.00010034580918727443,-0.0,0.0,0.13407529890537262,-9.232041358947754,0.7597975730895996,47.702110290527344,-0.7210407257080078,-3.746471643447876,-1.632312297821045,-0.5040550827980042,-0.04119980335235596,-0.0049259839579463005,28.0,30.0625,28.5,32.25,34.8125,36.0
1.0,-0.36647667934741807,-0.12746938639566124,-0.5369943586832612,-0.07333597147089019,0.04227198722998826,-0.11788085435365693,-0.5392533454013572,-0.32420367646471887,0.25765509701590106,-3.0786594723263767,0.6246278083038024,-6.606282649836007e-05,-0.0018575651751228154,-0.0002903103785276164,-0.030890603624412396,-0.0029957183799271176,0.008793887161928525,-0.0005265244200867266,0.32590192556381226,-1.1487344962409516,1.6644604841815394,-2.0849062405028285,-1.571369473134176,2.300787925720215,-0.00050262053264305,0.03884153440594673,0.03461636230349541,-0.08274780213832855,-9.877276897896081e-05,-0.0,0.019153613597154617,0.17238251864910126,-9.385271072387695,0.7105615139007568,47.7164421081543,-0.670143723487854,-3.680860757827759,-1.5312145948410034,-0.5029004812240601,-0.042888037860393524,0.0030435295775532722,28.0,30.0625,28.5,32.25,34.8125,36.0
1.0,0.2319826133000827,-0.542285109509885,-0.5413948982948312,-0.0512766023960651,0.0423243592241727,-0.11874478907348227,-0.539252976509745,-0.32420997848097055,0.25760705640399884,-3.078666169359389,0.6246293611615773,-1.0916989321263724e-05,-0.0012591585526339143,0.00031155516146704013,-0.031230606986330723,-0.0018399311920798834,0.0054027747404769575,-0.0011388163097816363,0.32591375708580017,-1.148674802189209,1.6645210425006312,-2.085060258904928,-1.5713813940631312,2.30079984664917,-0.0011161788133904338,0.03783072531223297,0.03609485551714897,-0.07963282614946365,-9.724794654175639e-05,-0.0,0.09576806426048279,0.15322890877723694,-9.28950309753418,0.6478998064994812,47.703006744384766,-0.6840174198150635,-3.640164375305176,-1.6360702514648438,-0.5089923143386841,-0.05034460127353668,0.006662539206445217,28.0,30.0625,28.5,32.25,34.8125,36.0
1.0,-0.06896123466140386,-0.4907647806678461,-0.36590157359980274,-0.04013085746209269,0.018948515800241,-0.11201642590178706,-0.5392603384230826,-0.3242046520887814,0.2575407276657917,-3.0786685532883555,0.6246492196738711,5.3250307475458235e-06,-0.0009038761261872219,0.00044649645136858005,-0.03140430586601663,-0.0010040616172231989,0.0029785319214784855,-0.0011580577258359626,0.32590171694755554,-1.1485910576632996,1.6645925680743616,-2.0852276287474574,-1.5713813940631312,2.30079984664917,-0.001136477687396109,0.0374833308160305,0.036382269114255905,-0.07700855284929276,-0.00010592818580335006,-0.0,0.019153613597154617,-0.038307227194309235,-9.251194953918457,0.6680382490158081,47.69136428833008,-0.6943943500518799,-3.594987392425537,-1.6368005275726318,-0.5255414843559265,-0.04364475607872009,0.0005386158591136336,28.0,30.0625,28.5,32.25,34.8125,36.0
1.0,0.3301467887023385,0.2481163760477294,-0.3627571784561296,-0.04340271474658092,0.01474216772412813,-0.11338928421212358,-0.5392834129515433,-0.32420067808709546,0.2574926788451936,-3.0787200846038423,0.6247563621820839,8.644470617682341e-05,-0.0006234885752387765,0.0005263469681545851,-0.033240140327430445,0.00046130371224888393,-0.0013334261145323588,-0.0011324664241768286,0.32587775588035583,-1.148506448870041,1.6646292845355433,-2.0854298077025355,-1.571345631276266,2.3008360862731934,-0.0011119191767647862,0.03944125398993492,0.03747846186161041,-0.07550851255655289,-0.0001075820837286301,-0.0,0.2298433631658554,-0.07661445438861847,-9.193734169006348,0.6948947906494141,47.71464920043945,-0.6994781494140625,-3.676955461502075,-1.6975946426391602,-0.5467175245285034,-0.02853834256529808,-0.00010006573575083166,28.0,30.0625,28.5,32.25,34.8125,36.0
1.0,0.22412558173916147,0.16380488605745963,-0.20401318554684747,-0.041953681401539454,0.0016813348898215893,-0.1083025530070736,-0.5392650300682915,-0.32421523804388064,0.2573921601496307,-3.078681449161119,0.6246328571549813,-8.078365671555266e-06,-0.0005748886395361226,0.0007093905550279415,-0.03395888050846022,0.0011268317036559243,-0.003296998958721924,-0.001388411161585124,0.325913667678833,-1.1483981770328064,1.6647360960589808,-2.0855614147581996,-1.571369473134176,2.30079984664917,-0.001368410070426762,0.04019104689359665,0.03785213083028793,-0.07455868273973465,-0.00010620646207826212,-0.0,0.24899697303771973,-0.09576806426048279,-9.193734169006348,0.7351769208908081,47.71017074584961,-0.6735472679138184,-3.6722617149353027,-1.622204303741455,-0.5558574795722961,-0.03332657366991043,0.019074367359280586,28.0,30.0625,28.5,32.25,34.8125,36.0
1.0,0.505361379360583,0.0033474890483990993,-0.10364533668242146,-0.03809367852344778,0.004023311358261866,-0.11545948779348054,-0.5392861444443762,-0.324190043862258,0.25727614490926143,-3.0786657563132507,0.6247455270391339,4.681119942051287e-05,-0.00011652826466740833,0.0008171247134542537,-0.03424403719543622,0.0018427531783049003,-0.005406290101656207,-0.0013139879603256176,0.325865775346756,-1.1482545000365754,1.6648691336261194,-2.08587183574819,-1.5713813940631312,2.3008241653442383,-0.0012947432696819305,0.039796434342861176,0.03863898664712906,-0.07272345572710037,-0.00010317722626496106,-0.0,0.24899697303771973,-0.13407529890537262,-9.040505409240723,0.6389458775520325,47.699424743652344,-0.680106520652771,-3.628584861755371,-1.664273738861084,-0.6067808866500854,-0.034113310277462006,-0.0032629654742777348,28.0,30.0625,28.5,32.25,34.8125,36.0
1.0,0.8243514263716889,0.2368660875359861,-0.07738855380471447,-0.03605129727303464,0.005653974868685914,-0.11618120337352617,-0.5392880410928096,-0.32418807182735165,0.257215435865937,-3.078661922176368,0.6246868249022333,8.047539597232884e-05,0.00022627015484204732,0.0011141615419023951,-0.035302535676907845,0.0029275329324289106,-0.008600831844482331,-0.0015910137967751422,0.3258656859397888,-1.1481822294047852,1.664941136037008,-2.086026807824606,-1.5714057127581995,2.300787925720215,-0.001572630601003766,0.04039926826953888,0.03984956443309784,-0.07116317003965378,-0.00010171954636462033,-0.0,0.3064578175544739,-0.1149216815829277,-9.02135181427002,0.6389458775520325,47.73255920410156,-0.6322512626647949,-3.6327552795410156,-1.5887870788574219,-0.6266661882400513,-0.03461974114179611,-0.00016656331717967987,28.0,30.0625,28.5,32.25,34.8125,36.0
1.0,0.6432010187382703,0.12182610305998232,-0.11842149783694131,-0.03455489699379689,-0.002098583627514283,-0.11554318339460821,-0.5392845945671054,-0.32419968174707475,0.25713898879835445,-3.0786867863058833,0.6247119106535898,8.669832440210287e-06,0.0005775470980629222,0.0011924964847749397,-0.03535199708737769,0.0034998125489999385,-0.010281195505877663,-0.0015271872636454104,0.3258776068687439,-1.1480865639499207,1.665013615285055,-2.086170335809225,-1.571357552205221,2.300812244415283,-0.0015095401322469115,0.03990732878446579,0.040222227573394775,-0.06926875561475754,-0.00010041636414825916,-0.0,0.363918662071228,-0.07661445438861847,-9.059659004211426,0.7665104269981384,47.679718017578125,-0.6669285297393799,-3.6046488285064697,-1.7722768783569336,-0.6657280921936035,-0.05809637904167175,0.0011175142135471106,28.0,30.0625,28.5,32.25,34.8125,36.0
1.0,1.0381024719946965,0.20598208404707907,-0.11956733128398608,-0.03575799909715159,0.004015263440979241,-0.12593081919798899,-0.5392678347135125,-0.3242005054009385,0.25707661491575895,-3.078660558310015,0.6246675165901178,-4.749906762803953e-05,0.0006491097510670992,0.001374327190487068,-0.036132104732581855,0.0038467256437739778,-0.011387811234938242,-0.0017738569190581554,0.32588958740234375,-1.1480382543853302,1.6651094595538538,-2.086266180078024,-1.571369473134176,2.30079984664917,-0.001756196259520948,0.04060393571853638,0.041123587638139725,-0.06970738619565964,-7.367892249021679e-05,-0.0,0.3064578175544739,0.0,-9.02135181427002,0.6747510433197021,47.730770111083984,-0.6389672160148621,-3.5795583724975586,-1.7088663578033447,-0.6917601823806763,-0.04172365367412567,-0.0019398074364289641,28.0,30.0625,28.5,32.25,34.8125,36.0
1.0,0.52542256248103,-0.19953591029651102,-0.16835352177012847,-0.03241457060201899,0.0038115949596531137,-0.10947660142147896,-0.53926222802848,-0.32420381300469003,0.2570123469203611,-3.0786240220871597,0.6246800059203512,-6.343644475250377e-05,0.0009692432534986983,0.0014786465113462782,-0.03640114170048495,0.004586308859981039,-0.013566185003528932,-0.0017663882877022841,0.32590147852897644,-1.1479664009860535,1.6651819388019007,-2.0863849125304164,-1.5713933149920862,2.3008241653442383,-0.0017495990032330155,0.040441107004880905,0.04148972034454346,-0.06761019676923752,-7.087876292644069e-05,-0.0,0.28730422258377075,-0.019153613597154617,-9.040505409240723,0.7217512726783752,47.704795837402344,-0.6515097618103027,-3.6213927268981934,-1.7760690450668335,-0.7150192260742188,-0.025615841150283813,0.004715470131486654,28.0,30.0625,28.5,32.25,34.8125,36.0
1.0,-0.09872146377249308,-0.4783932397052174,-0.28394443775899475,-0.03781303340624641,-0.001357851168299836,-0.10155266405605855,-0.5392748854472144,-0.3241756779299788,0.25691832950267873,-3.0785732163088677,0.6247274060049732,-0.00013426579245412717,0.0009869098888114674,0.001523669839486844,-0.036829747474048845,0.004749532446267499,-0.014055062353103994,-0.0018267257745624042,0.325853556394577,-1.1478584569743653,1.6652773062335413,-2.0865289173521937,-1.5714057127581995,2.300812244415283,-0.0018099044682458043,0.04092198982834816,0.04187454655766487,-0.06796050816774368,-6.96742717991583e-05,-0.0,0.24899697303771973,0.07661445438861847,-9.040505409240723,0.6635612845420837,47.687782287597656,-0.676012396812439,-3.61331844329834,-1.6730035543441772,-0.7656878232955933,-0.04889179393649101,-0.0017328127287328243,28.0,30.0625,28.5,32.25,34.8125,36.0
1.0,-0.05290629627670684,-1.064145135275498,-0.46603518694326923,-0.04286410070014567,0.019345232082667134,-0.10281297092348407,-0.5392814544088385,-0.32415583720010477,0.2568411707067807,-3.0785562703650697,0.6247427103057044,-0.0002100592111935724,0.0013713036041067786,0.0016217099998072318,-0.03764609476198208,0.004388301596375136,-0.013001073028994689,-0.0017778377169446315,0.3258175849914551,-1.1477742058089753,1.6653621832477015,-2.086649557153219,-1.5713933149920862,2.300787925720215,-0.0017597404075786471,0.04099319130182266,0.044492240995168686,-0.07176357507705688,-6.860510620754212e-05,-0.0,0.2298433631658554,0.1149216815829277,-9.078812599182129,0.6859408020973206,47.6707649230957,-0.6649206280708313,-3.4726321697235107,-1.8462698459625244,-0.7850593328475952,-0.04920818656682968,0.0015624098014086485,28.0,30.0625,28.5,32.25,34.8125,36.0
1.0,-0.44633222056870564,-1.3207852531229802,-0.4353566348800009,-0.061348661275638455,0.0295890397711955,-0.11148858121413081,-0.5392566614419346,-0.3241694975558389,0.25675831831144025,-3.078522190503862,0.6247361455276172,-0.0002653512861604861,0.0015062768908879467,0.0015656856701686077,-0.03790831533981367,0.004314383572250076,-0.012786902258031021,-0.0016212977752785927,0.3258536159992218,-1.1477024418166657,1.6654828230487269,-2.0867940388121546,-1.5714057127581995,2.3008241653442383,-0.001602871110662818,0.04111267253756523,0.04515358433127403,-0.07277096807956696,-6.757440860383213e-05,-0.0,0.19153612852096558,0.13407529890537262,-9.059659004211426,0.7351769208908081,47.687782287597656,-0.6782150268554688,-3.5248403549194336,-1.9048914909362793,-0.7876850962638855,-0.04340435191988945,-0.0016467110253870487,28.0,30.0625,28.5,32.25,34.8125,36.0
1.0,-0.4398921758018411,-1.1756856695210751,-0.588923693578295,-0.07241311031680103,0.04736978068720371,-0.10344679172617036,-0.5392633434432116,-0.32417306324234874,0.2567164982826877,-3.0785611021366437,0.6247250561590274,-0.00020781076767363248,0.0006389047414905919,0.0012999618955158074,-0.03672728541979228,0.002863284177642917,-0.008528873981744605,-0.0016678283411407286,0.3258536159992218,-1.1476425391486664,1.6655295530902308,-2.0869504414000453,-1.5713933149920862,2.300812244415283,-0.0016481976490467787,0.04119478538632393,0.04288142919540405,-0.07507942616939545,-6.657470657955855e-05,-0.0,0.13407529890537262,0.19153612852096558,-9.193734169006348,0.7351769208908081,47.687782287597656,-0.6793550252914429,-3.511256217956543,-1.7229995727539062,-0.8181085586547852,-0.031081736087799072,0.0036172480322420597,28.0,30.0625,28.5,32.25,34.8125,36.0
1.0,-1.2255693269408212,-1.5778579823068837,-0.625490853711909,-0.06672328884358403,0.03654255853740616,-0.10880563411699529,-0.5392484714534437,-0.32416801061774114,0.25660635115997904,-3.078499967414313,0.6246927298140972,-0.00038710256314362576,0.0010334800991974125,0.0013444585669601867,-0.03774061085109086,0.0024140908965659628,-0.007196734161302642,-0.0015302456132855768,0.3258536458015442,-1.147534356718399,1.6656506697284144,-2.0870477161803187,-1.5713933149920862,2.30079984664917,-0.0015090801753103733,0.04151703417301178,0.04578578099608421,-0.07971184700727463,-7.206791633507237e-05,-0.0,0.09576806426048279,0.2298433631658554,-9.27034854888916,0.8023208975791931,47.72629165649414,-0.6796250343322754,-3.5221915245056152,-1.8644263744354248,-0.8132598400115967,-0.03098619356751442,0.007226107642054558,28.0,30.0625,28.5,32.25,34.8125,36.0
1.0,-1.2672924271338457,-1.4099351545350487,-0.7357899200462071,-0.08384782662846973,0.046449788095850805,-0.10647062421272831,-0.5392565508506978,-0.3241616280296389,0.25653854176532465,-3.078497252796212,0.6247505217548841,-0.0003254061148838925,0.0005135113153226167,0.001196980345904384,-0.03792189730112668,0.0011561089572289585,-0.0034948605549213253,-0.001576445212367892,0.32584160566329956,-1.1474501651576539,1.6657336393939417,-2.0872532329955042,-1.5714057127581995,2.3008241653442383,-0.0015533483820036054,0.042496323585510254,0.04598516225814819,-0.08480028808116913,-7.715905667282641e-05,-0.0,0.17238251864910126,0.2298433631658554,-9.232041358947754,0.7642692923545837,47.7244987487793,-0.6896167397499084,-3.5504555702209473,-1.8645167350769043,-0.7753324508666992,-0.03197794407606125,-0.006582023575901985,28.0,30.0625,28.5,32.25,34.8125,36.0
1.0,-0.9587752017903722,-1.9202835863508732,-0.7828298471862808,-0.07986041052278822,0.059674287675384,-0.11047228495252087,-0.5392379135725435,-0.32417223505926357,0.2564332651699842,-3.0784852093228148,0.624651427334073,-0.00044961988676743136,0.0007168757498649356,0.0011842771231280488,-0.03854495488100593,0.0005890626339489654,-0.0018346197816253066,-0.001451783872380998,0.3258657157421112,-1.1473421615413208,1.6658547560321253,-2.087398191491598,-1.5713933149920862,2.300787925720215,-0.0014272906119003892,0.04273863881826401,0.04796745255589485,-0.08877930045127869,-7.646623271284625e-05,-0.0,0.07661445438861847,0.19153612852096558,-9.232041358947754,0.7105615139007568,47.71733474731445,-0.686753511428833,-3.500474691390991,-1.9585766792297363,-0.7306393384933472,-0.0375184640288353,-0.0022725355811417103,28.0,30.0625,28.5,32.25,34.8125,36.0
1.0,-1.2839545586680745,-1.2821623307984016,-0.8179855896399415,-0.09544448819822714,0.05929180116015286,-0.10722346029891006,-0.5392458779564874,-0.3241658522272097,0.2563651898647391,-3.0784787020639537,0.624727458173425,-0.0003881633218520799,-0.0003809908615235454,0.0007529872280810232,-0.038078657316848466,-0.001559772585125202,0.004462146928595336,-0.0013654038014936864,0.32585373520851135,-1.1472577911666413,1.6659382025348108,-2.0876041851439417,-1.5714057127581995,2.3008241653442383,-0.001338229514658451,0.044067658483982086,0.04653960093855858,-0.09533379226922989,-7.54242209950462e-05,-0.0,-0.05746084079146385,0.17238251864910126,-9.346963882446289,0.6971306204795837,47.687782287597656,-0.7309197187423706,-3.5331664085388184,-1.9892860651016235,-0.6891170740127563,-0.06526046991348267,0.0006412836955860257,28.0,30.0625,28.5,32.25,34.8125,36.0
1.0,-0.8855885468084812,-1.4805334312324816,-0.9934815139041807,-0.08523643787207225,0.06926743496428824,-0.10302365943422076,-0.5392413034804756,-0.3241655839732193,0.2562754713831029,-3.078501357726176,0.6246741080092951,-0.0003963936472820553,-0.0007133257017965988,0.0006258607420372648,-0.03746117008588874,-0.0026214112293206117,0.007578216447896626,-0.001345130950167324,0.32585373520851135,-1.1471618574908753,1.6660569349872034,-2.0878201923766078,-1.5713933149920862,2.300787925720215,-0.0013167784782126546,0.0438099130988121,0.04608573392033577,-0.09791413694620132,-7.438694592565298e-05,-0.0,-0.09576806426048279,0.24899697303771973,-9.423578262329102,0.6680382490158081,47.68867492675781,-0.7927337884902954,-3.550049304962158,-1.8228518962860107,-0.642988920211792,-0.04678987339138985,-0.002994883107021451,28.0,30.0625,28.5,32.25,34.8125,36.0
1.0,-1.3075753416135698,-1.4681715333746408,-1.084404493809275,-0.07949214533254098,0.06286160331989538,-0.10647924491921856,-0.5392466668276199,-0.3241608281244097,0.2562071266610946,-3.0785114764556694,0.6246764541051515,-0.0004062749333192089,-0.0006943929098358841,0.0006051722545952285,-0.03837577465516268,-0.003359827291945819,0.009736067527282045,-0.0013051089528837375,0.3258416950702667,-1.1470777553370972,1.6661303679095667,-2.087977548638815,-1.5713813940631312,2.3007760047912598,-0.0012749555753543973,0.044684115797281265,0.04812050983309746,-0.10310380905866623,-7.337630813708529e-05,-0.0,-0.1149216815829277,0.24899697303771973,-9.442731857299805,0.7575564384460449,47.71375274658203,-0.7943565845489502,-3.5805819034576416,-1.9147262573242188,-0.5899248719215393,-0.05892506614327431,0.005987765733152628,28.0,30.0625,28.5,32.25,34.8125,36.0
1.0,-0.6963214131792995,-1.5358510143676527,-1.0243950254919425,-0.07122754429828396,0.07195308666301779,-0.10775366716016983,-0.5392415415070336,-0.32416159086945917,0.2561087320052696,-3.0785164751614924,0.624696672871176,-0.0004573914202785946,-0.0008378052363983442,0.0005150018590751554,-0.038204666569795154,-0.0036810043099259424,0.010675607283873116,-0.001241909519730258,0.3258417248725891,-1.1469697815230866,1.6662491003619593,-2.0881806812682093,-1.571357552205221,2.300787925720215,-0.0012114064302295446,0.04477139189839363,0.04778297245502472,-0.1038464680314064,-7.239259866764769e-05,-0.0,-0.05746084079146385,0.2106897532939911,-9.442731857299805,0.6881819367408752,47.71464920043945,-0.7529171705245972,-3.5489752292633057,-1.9203779697418213,-0.5350092053413391,-0.04106216877698898,-0.009744971059262753,28.0,30.0625,28.5,32.25,34.8125,36.0
1.0,-0.9463840990354454,-1.328105217574623,-1.0449236160794941,-0.07011974908509495,0.0556247471626552,-0.11041757835766691,-0.5392377618372494,-0.3241578353432944,0.2560456755511511,-3.0785198243534215,0.6246973076356278,-0.0003744844079306239,-0.00047106887670302024,0.0005270534553791978,-0.0384621356383819,-0.0028951177975518167,0.008362730780178405,-0.0010677957218508734,0.3258538246154785,-1.1467779737761994,1.666382137929098,-2.0885869465269984,-1.571369473134176,2.300812244415283,-0.0010382285108789802,0.044640544801950455,0.04802991822361946,-0.10151982307434082,-7.050229760352522e-05,-0.0,-0.07661445438861847,0.09576806426048279,-9.500192642211914,0.6702793836593628,47.681514739990234,-0.803936243057251,-3.4770689010620117,-1.8539559841156006,-0.5374053716659546,-0.036173537373542786,-0.0021037047263234854,28.0,30.0625,28.5,32.25,34.8125,36.0
1.0,0.2897614139175765,-0.2511264959141858,-0.9941084883761435,-0.05359780832395236,0.05278602005755651,-0.11587838522335613,-0.5392570988697192,-0.32414360076102594,0.2558750629764408,-3.0785318435825593,0.6247964354898041,-0.00036575478170562545,-0.0003551036122481698,0.0005515056047733305,-0.04051771851028327,-0.0008449935305722618,0.002320276925301047,-0.0010425672278217375,0.3258059322834015,-1.146693007355072,1.6665366331683558,-2.0888129673399867,-1.571357552205221,2.300812244415283,-0.0010149285662919283,0.047393620014190674,0.04804341122508049,-0.09790561348199844,-6.959371239645407e-05,-0.0,0.019153613597154617,0.038307227194309235,-9.481039047241211,0.7329410910606384,47.71375274658203,-0.7948566675186157,-3.6613211631774902,-1.8690041303634644,-0.5712021589279175,-0.04449571669101715,0.0027152406983077526,28.0,30.0625,28.5,32.25,34.8125,36.0
1.0,-0.29441558437192045,-0.12707749681076538,-0.9594809444037202,-0.03835879553914167,0.024718122911067675,-0.11113885685227523,-0.5392411499971181,-0.3241692736701751,0.25581360487931276,-3.0785354120314596,0.6247777840476637,-0.0003668498410962884,8.928140968827879e-05,0.0007110563948500866,-0.0401406533126928,-0.000277302650293456,0.0006595502244894073,-0.0010548876758627807,0.3258538246154785,-1.1466217201999207,1.6666091124164026,-2.0889560184874476,-1.571357552205221,2.3008480072021484,-0.0010282064322382212,0.04614388942718506,0.04831695929169655,-0.09517436474561691,-6.870817742310464e-05,-0.0,-0.038307227194309235,-0.019153613597154617,-9.442731857299805,0.7239871025085449,47.7191276550293,-0.7628210186958313,-3.5614705085754395,-1.8667482137680054,-0.6040221452713013,-0.04142887890338898,0.007873446680605412,28.0,30.0625,28.5,32.25,34.8125,36.0
1.0,0.005951355426120123,-0.013275363451853196,-1.1322134771240027,-0.027518203167207267,0.025041110532445884,-0.10856108583926134,-0.5392503447075674,-0.3241607779008814,0.2557178163713799,-3.0785321305287687,0.6247002460860462,-0.000306582569181654,0.0004924884060715266,0.0009655748651134328,-0.03921096505173676,-0.00011982338208586824,0.0002400949898955319,-0.001233826336725414,0.3258417248725891,-1.146502361898758,1.6667168776141565,-2.0892068348326625,-1.5713933149920862,2.300787925720215,-0.0012077869614586234,0.04411015659570694,0.048538051545619965,-0.09291388839483261,-7.767792703816667e-05,-0.0,0.0,-0.13407528400421143,-9.442731857299805,0.6568484306335449,47.70838165283203,-0.7613623142242432,-3.4024996757507324,-1.83642578125,-0.6495668888092041,-0.06444612145423889,-0.0028334574308246374,28.0,30.0625,28.5,32.25,34.8125,36.0
1.0,0.08516129098321672,0.339810729092186,-0.9102662654065906,-0.02727233334384692,0.019271780323374746,-0.108535330467338,-0.5392540276002774,-0.3241386962213475,0.2556423258474562,-3.07852159178204,0.6247175223427284,-0.00032574755649787256,0.00048272037353788857,0.0010470968466435445,-0.04061029081514539,0.001221250022207365,-0.003711380270248034,-0.0013629480451240784,0.32580581307411194,-1.1464297038367768,1.6668246428119105,-2.0893732510008753,-1.5713933149920862,2.3007640838623047,-0.001338154193945229,0.04606127366423607,0.048481009900569916,-0.09063511341810226,-7.80740738264285e-05,-0.0,0.2298433631658554,-0.2298433631658554,-9.404424667358398,0.6501356363296509,47.699424743652344,-0.795568585395813,-3.4756743907928467,-1.8258953094482422,-0.6782480478286743,-0.05429695546627045,-0.003682898823171854,28.0,30.0625,28.5,32.25,34.8125,36.0
1.0,0.3392525578819737,0.19826844829298335,-0.7972392420031051,-0.02293571425411241,0.026466440854195892,-0.11362768145838012,-0.5392556746788038,-0.3241494480692082,0.2555618830738907,-3.0785184908283054,0.6248325246440559,-0.0003474515362368837,0.0007747671789538022,0.0012543937256543742,-0.04172759735503125,0.002521399421820846,-0.007539076302560159,-0.0015279407009555308,0.32581767439842224,-1.1463214618018647,1.6668966452227991,-2.0895515880980433,-1.571369473134176,2.3008480072021484,-0.0015043675666674972,0.046991243958473206,0.04917723685503006,-0.08821883052587509,-7.720606663497165e-05,-0.0,0.15322890877723694,-0.17238251864910126,-9.366117477416992,0.7732232213020325,47.703006744384766,-0.7102020978927612,-3.4807324409484863,-1.875732660293579,-0.7085301876068115,-0.05546993017196655,-0.002477252157405019,28.0,30.0625,28.5,32.25,34.8125,36.0
1.0,0.4310600643821907,0.5307850136899792,-0.8349612788068703,-0.037289728489307825,0.03452356292337566,-0.12102816237805156,-0.539238190624372,-0.3241602608024934,0.2554476743326439,-3.078522630014259,0.6246797520704757,-0.00045636605041461003,0.0007643506013174195,0.0013441275680806438,-0.042682951539323506,0.0035461302771377704,-0.010560188959983419,-0.0016705023712297667,0.3258415758609772,-1.1462011200240632,1.6670287291156214,-2.0897308788695277,-1.571357552205221,2.3007760047912598,-0.0016479498008266091,0.048335008323192596,0.04902428016066551,-0.08621946722269058,-7.62771160225384e-05,-0.0,0.17238251864910126,-0.28730422258377075,-9.366117477416992,0.6747510433197021,47.704795837402344,-0.7698322534561157,-3.5449390411376953,-1.8437793254852295,-0.7646963596343994,-0.05858632177114487,-0.00470970943570137,28.0,30.0625,28.5,32.25,34.8125,36.0
1.0,0.2814809165949812,0.07699313593661798,-0.8737227755799726,-0.028321301692336466,0.02441367428665814,-0.11522776712979975,-0.5392476646751913,-0.3241544988939095,0.2553752606052836,-3.0785038053616347,0.6247531205085308,-0.0004303524273025265,0.0009437117440267159,0.0013315859901683266,-0.041942632474756984,0.003049814646937042,-0.009096466053034423,-0.001558012469060636,0.3258296847343445,-1.1461056929877778,1.66710073152651,-2.0899106464781703,-1.571369473134176,2.300812244415283,-0.0015350624453276396,0.04703599214553833,0.04927165061235428,-0.08671340346336365,-7.536491466453299e-05,-0.0,0.15322890877723694,-0.2298433631658554,-9.404424667358398,0.7239871025085449,47.71554183959961,-0.7263731956481934,-3.4604222774505615,-1.8684053421020508,-0.80812668800354,-0.04957166686654091,-0.0033354696352034807,28.0,30.0625,28.5,32.25,34.8125,36.0
1.0,-0.009264442012621832,-0.1988002746554673,-0.9463452648308672,-0.02931404713222529,0.030425139833991605,-0.10732602692774244,-0.5392442682478475,-0.3241404821832221,0.2552894837014569,-3.0784559036098234,0.6247236180548178,-0.00042310633381609025,0.0007171337048954746,0.0012477744266445794,-0.04128674866285177,0.0022333162293496113,-0.006698154251843197,-0.0015487071993425707,0.32581767439842224,-1.1460219484618683,1.6672194639789026,-2.090090414086813,-1.5714176336871546,2.300787925720215,-0.0015249511925503612,0.04656047746539116,0.04881230741739273,-0.08831203728914261,-7.447409734595567e-05,-0.0,0.13407529890537262,-0.15322890877723694,-9.385271072387695,0.6881819367408752,47.702110290527344,-0.79803067445755,-3.326897621154785,-1.7265586853027344,-0.84365314245224,-0.05491824075579643,0.0008874774212017655,28.0,30.0625,28.5,32.25,34.8125,36.0
1.0,0.11798301859993285,-0.20698768464057182,-0.9323132102567262,-0.05157700571174842,0.044776365472220095,-0.11869917902243189,-0.5392515470627073,-0.3241364348063847,0.255214529677001,-3.078454277927207,0.624781521449044,-0.00043429421858369335,0.0010706548150289333,0.0014129624478023436,-0.04314774952625724,0.0023178122294170945,-0.006961361589826156,-0.001619017363348926,0.3258057236671448,-1.145925448541977,1.6672933737384241,-2.090259691277975,-1.5714057127581995,2.300812244415283,-0.0015940117882564664,0.047975651919841766,0.0520644336938858,-0.0927029401063919,-7.3604031058494e-05,-0.0,0.26815059781074524,-0.07661445438861847,-9.385271072387695,0.7374180555343628,47.702110290527344,-0.7644410133361816,-3.473328113555908,-1.8972960710525513,-0.8366573452949524,-0.04935290664434433,-0.02314118482172489,28.0,30.0625,28.5,32.25,34.8125,36.0
1.0,-0.4816224348676552,-0.7638984605096628,-0.9517995363410021,-0.060742939034327495,0.044982506907499054,-0.1144592774947267,-0.5392411906341711,-0.32413410729958875,0.25514425645468763,-3.0784638137757643,0.6248220324467246,-0.00042659390442580005,0.0002698247293574761,0.0013614902063918755,-0.042188954143171434,0.0007984834685641907,-0.0025014452818576637,-0.001960871741235648,0.32580557465553284,-1.1458655160716553,1.667413059865133,-2.090452333489889,-1.5713933149920862,2.3008360862731934,-0.0019343142630532384,0.04795058071613312,0.05067041516304016,-0.0959954559803009,-7.275403186213225e-05,-0.0,0.15322890877723694,0.019153613597154617,-9.327810287475586,0.7060845494270325,47.70927429199219,-0.7471575736999512,-3.3631184101104736,-1.8944311141967773,-0.8203423619270325,-0.0494973286986351,-0.007807699032127857,28.0,30.0625,28.5,32.25,34.8125,36.0
1.0,-0.9136849781433627,-1.1819787580504517,-1.0199787542077972,-0.07303793149194204,0.0521681226607503,-0.10101493202203714,-0.5392377678342886,-0.3241341854877461,0.2550866257982755,-3.078500133128122,0.6247332236231792,-0.00041602763436115455,-0.0006598802820195729,0.0010876165382052942,-0.04103098452811967,-0.0013681149386527574,0.0038746299265222215,-0.002027750460879626,0.32580557465553284,-1.145805523996689,1.6674960295306605,-2.0906101665892542,-1.5713813940631312,2.3007760047912598,-0.001998813822865486,0.0479845255613327,0.04919162020087242,-0.10128472745418549,-7.698928675381467e-05,-0.0,0.05746084079146385,0.09576806426048279,-9.404424667358398,0.6859408020973206,47.687782287597656,-0.7421535849571228,-3.368795156478882,-1.6843674182891846,-0.8032981753349304,-0.061606574803590775,-0.0020344899967312813,28.0,30.0625,28.5,32.25,34.8125,36.0
1.0,-1.0420441002876357,-1.76746683311818,-1.252691146656621,-0.08428492111168492,0.0738632356542224,-0.11069016539098628,-0.5392391236657652,-0.324148867828138,0.2549990069684492,-3.0785106554463715,0.6246972287547691,-0.0003713467384012219,-0.0008751753122549235,0.0012457575593704609,-0.040963186077025135,-0.003192017386231096,0.00924380789471083,-0.0023861917747874605,0.325829416513443,-1.1456857484630127,1.6675799528705042,-2.090840002099508,-1.5713933149920862,2.3007760047912598,-0.002354356925934553,0.04764910787343979,0.051167167723178864,-0.1085953637957573,-8.093036740319803e-05,-0.0,0.038307227194309235,0.19153612852096558,-9.442731857299805,0.7620334029197693,47.72808074951172,-0.7591275572776794,-3.3408303260803223,-1.8186427354812622,-0.7188278436660767,-0.07589061558246613,-0.0018729828298091888,28.0,30.0625,28.5,32.25,34.8125,36.0
1.0,-1.0670055442798825,-1.8326447219086008,-1.1291890883992277,-0.1073771371463899,0.09197395186205523,-0.11565439622969072,-0.539235344777987,-0.3241100077790463,0.2548538565602809,-3.0784362448967046,0.6248161853749676,-0.0005420516176987992,-0.0009919100613283065,0.001036872620983584,-0.04130538569833602,-0.004226968665889471,0.012278516770144715,-0.0021275431103310377,0.32576966285705566,-1.1455537241748353,1.66777211824526,-2.0910455189146937,-1.5713813940631312,2.30079984664917,-0.0020938748493790627,0.04824007302522659,0.052229177206754684,-0.113454669713974,-8.034113852772862e-05,-0.0,-0.038307227194309235,0.24899697303771973,-9.519346237182617,0.6926589012145996,47.694053649902344,-0.7410115003585815,-3.256502151489258,-1.8859233856201172,-0.6726663708686829,-0.0673493966460228,-0.003621709533035755,28.0,30.0625,28.5,32.25,34.8125,36.0
1.0,-1.5525205493215504,-2.4553929211530967,-1.2085378433155904,-0.1079957428673872,0.08784688312476117,-0.0971826840616541,-0.5392444328498727,-0.32412217957837447,0.2548168851151482,-3.0785290514511203,0.6247776685267725,-0.000355674874159965,-0.0012914924132533321,0.0008813080078033779,-0.04146959289780362,-0.00534943525497787,0.015741326378940188,-0.0020375901645494432,0.3257817327976227,-1.1454936426929017,1.6678321997271937,-2.0913101635374964,-1.571369473134176,2.3007760047912598,-0.0020021230448037386,0.04884013161063194,0.05287428945302963,-0.11833956092596054,-0.00013563981337938458,-0.0,-0.09576806426048279,0.325611412525177,-9.53849983215332,0.6702793836593628,47.69584274291992,-0.7953568696975708,-3.30716609954834,-1.8353590965270996,-0.6043344140052795,-0.059852421283721924,0.007937625050544739,28.0,30.0625,28.5,32.25,34.8125,36.0
1.0,-1.5154169209601167,-2.1801949527337836,-1.0794811064284702,-0.10739856015188512,0.07549327975618633,-0.10723465127023958,-0.5392491482029133,-0.32412252187429946,0.2547415694568089,-3.078531566195266,0.6247782481110757,-0.0003123692185054676,-0.002098515385011561,0.0005579138175649615,-0.04023494562934733,-0.00698194242963855,0.020579315169045476,-0.0019615940103354934,0.3257817327976227,-1.1453976196101685,1.6679156462298792,-2.0915147266783656,-1.5713813940631312,2.3007760047912598,-0.0019246191950514913,0.04876024276018143,0.050864920020103455,-0.12135626375675201,-0.00014917274529580027,-0.0,-0.09576806426048279,0.3447650372982025,-9.615114212036133,0.6747510433197021,47.71017074584961,-0.7428877949714661,-3.2483885288238525,-1.711071491241455,-0.5503346920013428,-0.05514691770076752,-0.003910946659743786,28.0,30.0625,28.5,32.25,34.8125,36.0
1.0,-0.7745440301615634,-1.687331779461347,-0.9195680742073972,-0.10823588556270781,0.07706382741092357,-0.10902775054791995,-0.5392429887999058,-0.3241125969854144,0.25465746278048584,-3.078550038754003,0.6248396580275061,-0.00023143397198556063,-0.0013497102038605312,0.0009647728867191855,-0.04195336198459313,-0.004667163234553737,0.013834497941567004,-0.0021904067531739314,0.3257817029953003,-1.1451935035041352,1.6681316534625452,-2.092015405694479,-1.5714176336871546,2.30079984664917,-0.0021556823048740625,0.04965681955218315,0.05248512700200081,-0.11674206703901291,-0.0001687574986135587,-0.0,-0.038307227194309235,0.4213795065879822,-9.366117477416992,0.7195101380348206,47.742408752441406,-0.7589883804321289,-3.245508909225464,-1.8078937530517578,-0.5617763996124268,-0.056114792823791504,0.0039490689523518085,28.0,30.0625,28.5,32.25,34.8125,36.0
1.0,0.03411390526194069,-1.2535264673750366,-0.8844963771375486,-0.06367392232110483,0.03495784242850989,-0.10260572856655382,-0.5392537647863674,-0.32410461683869435,0.25448743912573757,-3.0785570881768836,0.6248804284303193,-7.979242691499959e-05,-0.0017696163009699752,0.0009737175337629691,-0.043906392426110746,-0.0034875992173980315,0.010331544716899524,-0.002423551701188927,0.3257576525211334,-1.1451201003840943,1.6682871023761194,-2.092314382592672,-1.5714176336871546,2.300812244415283,-0.0023896018974483013,0.05304639786481857,0.052020661532878876,-0.11597097665071487,-0.00016407998919021338,-0.0,-0.07661445438861847,0.3064578175544739,-9.308655738830566,0.7262282371520996,47.71017074584961,-0.7210200428962708,-3.330902099609375,-1.7263083457946777,-0.5630191564559937,-0.049041081219911575,0.0010446138912811875,28.0,30.0625,28.5,32.25,34.8125,36.0
1.0,0.2970940695076033,-0.3802252089181143,-0.6064699312051007,-0.0574256453612132,0.019198363074238847,-0.11128140954155147,-0.5392634161412319,-0.32412060107839225,0.25441243984812284,-3.0786133439184056,0.624873143852694,-8.63132997429465e-05,-0.0015019661969489474,0.0012263913323984639,-0.0429113291396371,-0.0029231789875104604,0.008712507204005706,-0.002670004247253265,0.32576945424079895,-1.1450010699084778,1.6683343092547815,-2.092504163781637,-1.571369473134176,2.300812244415283,-0.002637454541400075,0.05128076672554016,0.05126829072833061,-0.1117384135723114,-0.00017229556397069246,-0.0,0.038307227194309235,0.28730422258377075,-9.327810287475586,0.6926589012145996,47.70121383666992,-0.672156572341919,-3.2472758293151855,-1.6227731704711914,-0.5967534780502319,-0.05881758779287338,0.013428514823317528,28.0,30.0625,28.5,32.25,34.8125,36.0
1.0,0.38555647274526195,-0.28459146052618983,-0.6110692384010437,-0.046703234222240854,0.013465207885954985,-0.11468856708483346,-0.5392719078146381,-0.3241197354889512,0.2543404110512195,-3.0786083708493126,0.624891136840309,2.23428338502247e-05,-0.0014144936652791052,0.00114583908735334,-0.043060761725285196,-0.002464037388836678,0.00738507326263184,-0.002498349387771116,0.3257695436477661,-1.1449051362327118,1.6684182325946253,-2.092743059197897,-1.5714057127581995,2.3008241653442383,-0.002466414123773575,0.051524750888347626,0.05093130096793175,-0.11024081707000732,-0.0001796102587832138,-0.0,0.2106897532939911,0.2106897532939911,-9.232041358947754,0.6881819367408752,47.674346923828125,-0.7177718877792358,-3.1350769996643066,-1.6003568172454834,-0.6385433077812195,-0.056311726570129395,-0.00021303724497556686,28.0,30.0625,28.5,32.25,34.8125,36.0
