Tylouw/Master_Thesis_Code/test_recorded_data/trial1/insertion_4_2026-01-22_16-05-02.csv
num_insertion,tcp_force_x[N],tcp_force_y[N],tcp_force_z[N],tcp_force_rx[Nm?],tcp_force_ry[Nm?],tcp_force_rz[Nm?],tcp_pose_x[m],tcp_pose_y[m],tcp_pose_z[m],tcp_pose_rx[rot_vec_x],tcp_pose_ry[rot_vec_y],tcp_pose_rz[rot_vec_z],tcp_velo_x[m/s],tcp_velo_y[m/s],tcp_velo_z[m/s],tcp_velo_rx[rot_vec_x/s],tcp_velo_ry[rot_vec_y/s],tcp_velo_rz[rot_vec_z/s],q1[rad],q2[rad],q3[rad],q4[rad],q5[rad],q6[rad],qd1[rad/s],qd2[rad/s],qd3[rad/s],qd4[rad/s],qd5[rad/s],qd6[rad/s],tool_acc_x,tool_acc_y,tool_acc_z,current_of_whole_robot[A],voltage_of_whole_robot[V],current_J1[A],current_J2[A],current_J3[A],current_J4[A],current_J5[A],current_J6[A],temp_J1[C],temp_J2[C],temp_J3[C],temp_J4[C],temp_J5[C],temp_J6[C]
1.0,1.467447528438658,0.8950843590036399,-1.2338418291274376,-0.007734314030323318,-0.03999351727168278,-0.10446647964604396,-0.5292822118293885,-0.3013502250120958,0.2600304465070399,-3.0787063636754755,0.6247475492295966,0.0001724789848158235,0.0019557173135033973,-0.0013430702833591402,-0.00040193760515880517,-5.224634250383704e-05,0.0006081033328416836,0.0003895223736202977,0.29498541355133057,-1.193942741756775,1.7246936003314417,-2.100103040734762,-1.5712855497943323,2.269930839538574,0.0031449750531464815,-0.001737984362989664,0.003904572920873761,-0.0027626710943877697,-0.0001247439213329926,0.0027545220218598843,0.8236053586006165,-0.09576806426048279,-9.27034854888916,0.7486078143119812,47.68598937988281,-0.24372081458568573,-3.865332841873169,-2.579617977142334,-0.3503519892692566,-0.043294817209243774,0.08165927231311798,27.75,29.0,28.3125,32.1875,34.75,35.9375
1.0,1.3483667734518665,0.7209616343887211,-1.653230785986861,0.004545742249052525,-0.04992051965314627,-0.09619485541667418,-0.5292531278397616,-0.30138579215764666,0.2600103217010309,-3.078697349022985,0.6246497365751603,9.056359832548578e-05,0.0008393131766459336,-0.0012303053085516956,-0.0011005841849823033,0.00013640973670148434,2.1731840290204164e-05,0.00041217597135578647,0.2950569689273834,-1.1939296585372468,1.7247164885150355,-2.10007967571401,-1.5712855497943323,2.26994252204895,0.0024165830109268427,0.0010806693462654948,0.0016684907022863626,-0.0027294212486594915,-0.00013957834744360298,0.0020039493683725595,0.6129156351089478,0.05746084079146385,-9.366117477416992,0.7687462568283081,47.69584274291992,-0.20194238424301147,-3.989438056945801,-2.4406585693359375,-0.3307548463344574,-0.02884681150317192,0.09084541350603104,27.75,29.0,28.3125,32.1875,34.75,35.9375
1.0,1.3483667734518665,0.7209616343887211,-1.653230785986861,0.004545742249052525,-0.04992051965314627,-0.09619485541667418,-0.5292531278397616,-0.30138579215764666,0.2600103217010309,-3.078697349022985,0.6246497365751603,9.056359832548578e-05,0.0002352881278326691,-0.0003800650441549125,-0.0010661377942907928,0.00030895293665793376,-0.0005452162528971395,-0.0006510698136753106,0.295080304145813,-1.1940015417388459,1.7247288862811487,-2.100091119805807,-1.5712736288653772,2.2699546813964844,0.0007509508286602795,0.001307921833358705,0.0010598499793559313,-0.0017555294325575233,-0.00013893313007429242,0.0014018876245245337,0.17238251864910126,0.24899697303771973,-9.500192642211914,0.7821771502494812,47.6895751953125,-0.15847453474998474,-4.034110069274902,-2.374922752380371,-0.3538166880607605,-0.03358098492026329,0.09208332002162933,27.75,29.0,28.3125,32.1875,34.75,35.9375
1.0,0.40019554284697517,0.009618787553432984,-1.7394682459765913,-0.022863701632536947,-0.031860611521192586,-0.0911327020457834,-0.5292365991468545,-0.30139647972637595,0.26004873726971867,-3.0787441191427756,0.6246413753697524,0.00017963472859423266,0.0002352881278326691,-0.0003800650441549125,-0.0010661377942907928,0.00030895293665793376,-0.0005452162528971395,-0.0006510698136753106,0.295080304145813,-1.1940015417388459,1.7247288862811487,-2.100091119805807,-1.5712736288653772,2.2699546813964844,0.0007509508286602795,0.001307921833358705,0.0010598499793559313,-0.0017555294325575233,-0.00013893313007429242,0.0014018876245245337,0.17238251864910126,0.24899697303771973,-9.500192642211914,0.7821771502494812,47.6895751953125,-0.15847453474998474,-4.034110069274902,-2.374922752380371,-0.3538166880607605,-0.03358098492026329,0.09208332002162933,27.75,29.0,28.3125,32.1875,34.75,35.9375
1.0,-0.9068201538304438,-1.8159947399931622,-1.8593110603665126,-0.06439922180602442,0.018098734819259485,-0.08384676232639375,-0.5292519697929986,-0.30139238225368914,0.25999957007796154,-3.078663294717974,0.624643968999008,-9.426870073706612e-06,0.00023730772827829146,-0.00017188553099087894,-0.0007426778308389426,0.0005442493884668126,-0.0013173190804360263,-0.00045489183604615724,0.2950681447982788,-1.1939058762839814,1.724692169819967,-2.100006719628805,-1.5712855497943323,2.2699544429779053,0.00041638483526185155,0.0007654344663023949,0.0006586537347175181,-4.7691828513052315e-06,-0.0001360906462650746,0.0008716153679415584,-0.07661445438861847,0.3064578175544739,-9.634267807006836,0.7016075849533081,47.68061828613281,-0.09720989316701889,-3.6850900650024414,-2.1788110733032227,-0.39864790439605713,-0.02545156329870224,0.1057077944278717,27.75,29.0,28.3125,32.1875,34.75,35.9375
1.0,-0.9068201538304438,-1.8159947399931622,-1.8593110603665126,-0.06439922180602442,0.018098734819259485,-0.08384676232639375,-0.5292519697929986,-0.30139238225368914,0.25999957007796154,-3.078663294717974,0.624643968999008,-9.426870073706612e-06,0.00023730772827829146,-0.00017188553099087894,-0.0007426778308389426,0.0005442493884668126,-0.0013173190804360263,-0.00045489183604615724,0.2950681447982788,-1.1939058762839814,1.724692169819967,-2.100006719628805,-1.5712855497943323,2.2699544429779053,0.00041638483526185155,0.0007654344663023949,0.0006586537347175181,-4.7691828513052315e-06,-0.0001360906462650746,0.0008716153679415584,-0.07661445438861847,0.3064578175544739,-9.634267807006836,0.7016075849533081,47.68061828613281,-0.09720989316701889,-3.6850900650024414,-2.1788110733032227,-0.39864790439605713,-0.02545156329870224,0.1057077944278717,27.75,29.0,28.3125,32.1875,34.75,35.9375
1.0,-1.2793281415152973,-2.3444622342865453,-1.7944035953537048,-0.11757078422520187,0.10181519152048794,-0.0923616751394088,-0.5292565538323112,-0.30135419585983125,0.2600227371252424,-3.0786382052586942,0.624714299821863,3.881859839577679e-05,0.0015929636283074885,6.390407310994544e-05,-0.0024641132732323495,0.0019599197049255507,-0.0059465475624488305,0.00033161025364866184,0.29500842094421387,-1.1939659279635926,1.72471791902651,-2.0999943218626917,-1.5713093916522425,2.269941806793213,0.0007045672973617911,0.0005216726567596197,0.004677947610616684,0.0010604633716866374,-0.00013322308950591832,0.00037360843271017075,-0.24899697303771973,0.3064578175544739,-9.825803756713867,0.7732232213020325,47.69673538208008,-0.14355571568012238,-3.5767226219177246,-2.3052279949188232,-0.47609788179397583,-0.04705625772476196,0.10068488121032715,27.75,29.0,28.3125,32.1875,34.75,35.9375
1.0,-1.2793281415152973,-2.3444622342865453,-1.7944035953537048,-0.11757078422520187,0.10181519152048794,-0.0923616751394088,-0.5292565538323112,-0.30135419585983125,0.2600227371252424,-3.0786382052586942,0.624714299821863,3.881859839577679e-05,0.0015929636283074885,6.390407310994544e-05,-0.0024641132732323495,0.0019599197049255507,-0.0059465475624488305,0.00033161025364866184,0.29500842094421387,-1.1939659279635926,1.72471791902651,-2.0999943218626917,-1.5713093916522425,2.269941806793213,0.0007045672973617911,0.0005216726567596197,0.004677947610616684,0.0010604633716866374,-0.00013322308950591832,0.00037360843271017075,-0.24899697303771973,0.3064578175544739,-9.825803756713867,0.7732232213020325,47.69673538208008,-0.14355571568012238,-3.5767226219177246,-2.3052279949188232,-0.47609788179397583,-0.04705625772476196,0.10068488121032715,27.75,29.0,28.3125,32.1875,34.75,35.9375
1.0,-2.6008980608277623,-2.608150238940207,-1.844191395830663,-0.137634470322902,0.13844623593279853,-0.09000854812690476,-0.5292175929128979,-0.3013980405466972,0.2599794358469959,-3.0786256731456225,0.6246164979630794,-0.0001708621369742576,0.0027375464385530593,0.00044649480059622595,-0.004452684324344348,0.0032142552122283144,-0.01004968908603051,0.0003602083384768698,0.2950921952724457,-1.193929837351181,1.7247541586505335,-2.099934240380758,-1.5712736288653772,2.2699661254882812,0.0006531148101203144,0.000788093195296824,0.00890419166535139,0.0008583651506341994,-0.00013046481763012707,0.0002935797383543104,-0.3447650372982025,0.24899697303771973,-9.84495735168457,0.7016075849533081,47.6949462890625,-0.1588520109653473,-3.5495996475219727,-2.5313055515289307,-0.499032199382782,-0.03775281831622124,0.11307607591152191,27.75,29.0,28.3125,32.1875,34.75,35.9375
1.0,-2.6008980608277623,-2.608150238940207,-1.844191395830663,-0.137634470322902,0.13844623593279853,-0.09000854812690476,-0.5292175929128979,-0.3013980405466972,0.2599794358469959,-3.0786256731456225,0.6246164979630794,-0.0001708621369742576,0.0027375464385530593,0.00044649480059622595,-0.004452684324344348,0.0032142552122283144,-0.01004968908603051,0.0003602083384768698,0.2950921952724457,-1.193929837351181,1.7247541586505335,-2.099934240380758,-1.5712736288653772,2.2699661254882812,0.0006531148101203144,0.000788093195296824,0.00890419166535139,0.0008583651506341994,-0.00013046481763012707,0.0002935797383543104,-0.3447650372982025,0.24899697303771973,-9.84495735168457,0.7016075849533081,47.6949462890625,-0.1588520109653473,-3.5495996475219727,-2.5313055515289307,-0.499032199382782,-0.03775281831622124,0.11307607591152191,27.75,29.0,28.3125,32.1875,34.75,35.9375
1.0,-2.7756436434215948,-2.3289929567547105,-1.5325352345570982,-0.13272614390018217,0.16681767765951838,-0.08289221792738148,-0.5292065830071562,-0.3014047532837506,0.25999226033891415,-3.078680508275402,0.6246273555520961,-8.900531296529966e-05,0.0019972350817882138,5.301582965370866e-05,-0.0036478923497840223,0.002449441063537486,-0.0075672939534452265,0.0006078240962721581,0.29510435461997986,-1.1939656299403687,1.7247899214373987,-2.100006719628805,-1.5712493101703089,2.2699780464172363,0.000920954451430589,0.0013630634639412165,0.006449490319937468,0.00014055152132641524,-0.00012781804252881557,0.0003136403684038669,-0.19153614342212677,0.19153612852096558,-9.710882186889648,0.7844129800796509,47.718231201171875,-0.2580815851688385,-3.491647481918335,-2.4185147285461426,-0.5308167934417725,-0.02948104217648506,0.11277326941490173,27.75,29.0,28.3125,32.1875,34.75,35.9375
1.0,-1.794621252339226,-1.2403025777667296,-1.346412878638089,-0.08887760402536107,0.13808134365045144,-0.08417221589158438,-0.5292150779928908,-0.30140014872177145,0.2599903436707443,-3.0786816915064255,0.6246274508725161,-8.569865405746501e-05,0.0008963927860294516,-0.0009773218169503964,-0.0033919626051989037,0.000478777445675221,-0.0011656313084572726,0.0016384758145423254,0.29509276151657104,-1.1939527851394196,1.7247775236712855,-2.1000095806517542,-1.5712493101703089,2.2699663639068604,0.002036081627011299,0.003577723866328597,0.004429262597113848,-0.006751983426511288,-0.00012527620128821582,0.00039630327955819666,-0.26815059781074524,0.19153612852096558,-9.557653427124023,0.7597975730895996,47.70658874511719,-0.29611867666244507,-3.5802392959594727,-2.2096621990203857,-0.5114589333534241,-0.030253060162067413,0.1145213320851326,27.75,29.0,28.3125,32.1875,34.75,35.9375
1.0,-1.794621252339226,-1.2403025777667296,-1.346412878638089,-0.08887760402536107,0.13808134365045144,-0.08417221589158438,-0.5292150779928908,-0.30140014872177145,0.2599903436707443,-3.0786816915064255,0.6246274508725161,-8.569865405746501e-05,0.0008963927860294516,-0.0009773218169503964,-0.0033919626051989037,0.000478777445675221,-0.0011656313084572726,0.0016384758145423254,0.29509276151657104,-1.1939527851394196,1.7247775236712855,-2.1000095806517542,-1.5712493101703089,2.2699663639068604,0.002036081627011299,0.003577723866328597,0.004429262597113848,-0.006751983426511288,-0.00012527620128821582,0.00039630327955819666,-0.26815059781074524,0.19153612852096558,-9.557653427124023,0.7597975730895996,47.70658874511719,-0.29611867666244507,-3.5802392959594727,-2.2096621990203857,-0.5114589333534241,-0.030253060162067413,0.1145213320851326,27.75,29.0,28.3125,32.1875,34.75,35.9375
1.0,-0.5915414060388386,0.19999568640663762,-1.4110975077213164,-0.038691562335524204,0.0749310629987449,-0.09409607055690765,-0.5292240257742415,-0.30139289934217706,0.25999522905952654,-3.0786911206960514,0.6245905021081901,-2.1568042929583627e-07,0.00043617384728724453,-0.0010634641521025793,-0.0028845462934826444,-0.0007718704517406725,0.0029057126605187937,0.0015919437144285495,0.2950807511806488,-1.1939528447440644,1.7247775236712855,-2.100058218041891,-1.5712736288653772,2.269930124282837,0.001947465119883418,0.003539592958986759,0.004239875823259354,-0.010783570818603039,-0.00012283357500564307,0.0003529458772391081,-0.38307225704193115,0.2298433631658554,-9.481039047241211,0.7351769208908081,47.71554183959961,-0.30138057470321655,-3.50339412689209,-2.073148488998413,-0.47311997413635254,-0.04976800084114075,0.09663613885641098,27.75,29.0,28.3125,32.1875,34.75,35.9375
1.0,-0.5915414060388386,0.19999568640663762,-1.4110975077213164,-0.038691562335524204,0.0749310629987449,-0.09409607055690765,-0.5292240257742415,-0.30139289934217706,0.25999522905952654,-3.0786911206960514,0.6245905021081901,-2.1568042929583627e-07,0.00043617384728724453,-0.0010634641521025793,-0.0028845462934826444,-0.0007718704517406725,0.0029057126605187937,0.0015919437144285495,0.2950807511806488,-1.1939528447440644,1.7247775236712855,-2.100058218041891,-1.5712736288653772,2.269930124282837,0.001947465119883418,0.003539592958986759,0.004239875823259354,-0.010783570818603039,-0.00012283357500564307,0.0003529458772391081,-0.38307225704193115,0.2298433631658554,-9.481039047241211,0.7351769208908081,47.71554183959961,-0.30138057470321655,-3.50339412689209,-2.073148488998413,-0.47311997413635254,-0.04976800084114075,0.09663613885641098,27.75,29.0,28.3125,32.1875,34.75,35.9375
1.0,0.23425889519408574,0.5534627498341315,-1.3563888297603894,-0.01105738444583522,0.03532964336991307,-0.0847675628332301,-0.5292224959895083,-0.3013997678105721,0.26000735576506917,-3.0787022139842044,0.6245925681446148,3.2511654570370855e-05,0.0006592680896497086,-0.0007741637808453745,-0.002926277390707582,-0.0008955149118258903,0.003305857578751911,0.0012759431704726094,0.29509255290031433,-1.1939650934985657,1.7247665564166468,-2.100058694879049,-1.5712736288653772,2.269941806793213,0.001591494190506637,0.0028453152626752853,0.005501511041074991,-0.011769750155508518,-0.00012048461940139532,0.0003125601797364652,-0.325611412525177,0.09576806426048279,-9.404424667358398,0.6881819367408752,47.686885833740234,-0.3035849928855896,-3.3707940578460693,-2.209958791732788,-0.48042553663253784,-0.0560530424118042,0.10422065854072571,27.75,29.0,28.3125,32.1875,34.75,35.9375
1.0,0.23425889519408574,0.5534627498341315,-1.3563888297603894,-0.01105738444583522,0.03532964336991307,-0.0847675628332301,-0.5292224959895083,-0.3013997678105721,0.26000735576506917,-3.0787022139842044,0.6245925681446148,3.2511654570370855e-05,0.0006592680896497086,-0.0007741637808453745,-0.002926277390707582,-0.0008955149118258903,0.003305857578751911,0.0012759431704726094,0.29509255290031433,-1.1939650934985657,1.7247665564166468,-2.100058694879049,-1.5712736288653772,2.269941806793213,0.001591494190506637,0.0028453152626752853,0.005501511041074991,-0.011769750155508518,-0.00012048461940139532,0.0003125601797364652,-0.325611412525177,0.09576806426048279,-9.404424667358398,0.6881819367408752,47.686885833740234,-0.3035849928855896,-3.3707940578460693,-2.209958791732788,-0.48042553663253784,-0.0560530424118042,0.10422065854072571,27.75,29.0,28.3125,32.1875,34.75,35.9375
1.0,-0.5661411711975788,0.3492258330429615,-1.2921146233101326,-0.017556924939103748,-0.0007974989970690261,-0.07306072566120105,-0.5292176707843,-0.3014131991424756,0.2599998737711751,-3.078717047740059,0.6245774029177333,6.572883333284985e-05,0.0006820638509105508,-0.0005884257607843,-0.0035799913928587215,-0.0006856441773489716,0.002607919323343776,0.0009401825046485992,0.2951165437698364,-1.1939529341510315,1.7247780005084437,-2.1001063785948695,-1.5712736288653772,2.2699544429779053,0.0013036946766078472,0.003459388157352805,0.006321995984762907,-0.012475499883294106,-0.00011822332453448325,0.0003603982331696898,-0.2106897532939911,-0.07661445438861847,-9.404424667358398,0.7508436441421509,47.730770111083984,-0.24869930744171143,-3.3083977699279785,-2.1079416275024414,-0.5017001628875732,-0.02381112426519394,0.12712129950523376,27.75,29.0,28.3125,32.1875,34.75,35.9375
1.0,-0.5661411711975788,0.3492258330429615,-1.2921146233101326,-0.017556924939103748,-0.0007974989970690261,-0.07306072566120105,-0.5292176707843,-0.3014131991424756,0.2599998737711751,-3.078717047740059,0.6245774029177333,6.572883333284985e-05,0.00018026912996944335,-0.0006178123499152537,-0.0040621194844652295,-0.000710581587098542,0.0026696588532670023,0.0007629452887664401,0.29512837529182434,-1.193928287630417,1.7247780005084437,-2.100119253198141,-1.5712493101703089,2.2699780464172363,0.0011035541538149118,0.004983097780495882,0.0055397204123437405,-0.013283280655741692,-0.00011604578321566805,0.000337477948050946,-0.19153612852096558,-0.26815059781074524,-9.251194953918457,0.6478998064994812,47.7164421081543,-0.27811047434806824,-3.3741190433502197,-2.088822603225708,-0.5242493748664856,-0.026499956846237183,0.10978130996227264,27.75,29.0,28.3125,32.1875,34.75,35.9375
1.0,-0.35859460734753773,-0.04576181098735259,-1.0270200671597023,-0.03309081521690527,0.03679106495492237,-0.08076670226080808,-0.5292169149307703,-0.3014228434833519,0.25998651280850593,-3.078728831617743,0.6245987175482262,3.1161747502985246e-05,0.00018026912996944335,-0.0006178123499152537,-0.0040621194844652295,-0.000710581587098542,0.0026696588532670023,0.0007629452887664401,0.29512837529182434,-1.193928287630417,1.7247780005084437,-2.100119253198141,-1.5712493101703089,2.2699780464172363,0.0011035541538149118,0.004983097780495882,0.0055397204123437405,-0.013283280655741692,-0.00011604578321566805,0.000337477948050946,-0.19153612852096558,-0.26815059781074524,-9.251194953918457,0.6478998064994812,47.7164421081543,-0.27811047434806824,-3.3741190433502197,-2.088822603225708,-0.5242493748664856,-0.026499956846237183,0.10978130996227264,27.75,29.0,28.3125,32.1875,34.75,35.9375
1.0,-1.0544172771114197,0.11513122463272546,-0.8356949755474671,-0.03537792312901609,0.05859216500105014,-0.08208180292280395,-0.5292306171260982,-0.3014095858791694,0.25999387595058926,-3.07872458580576,0.6245981012054096,9.87958465529373e-05,-0.0004358297017147003,-0.000715327169686726,-0.004562876596751466,-0.0008284452258801803,0.0030329139282112747,0.0006443614622563472,0.29510435461997986,-1.1939278107932587,1.7247660795794886,-2.1001435718932093,-1.5712736288653772,2.269954204559326,0.0009567571105435491,0.0067823794670403,0.004502595867961645,-0.01442728191614151,-0.0001139467567554675,0.00030918014817871153,-0.2106897532939911,-0.325611412525177,-9.174580574035645,0.7463666796684265,47.718231201171875,-0.24929744005203247,-3.3524208068847656,-1.9732739925384521,-0.5272425413131714,-0.054401300847530365,0.1119225025177002,27.75,29.0,28.3125,32.1875,34.75,35.9375
1.0,-1.0544172771114197,0.11513122463272546,-0.8356949755474671,-0.03537792312901609,0.05859216500105014,-0.08208180292280395,-0.5292306171260982,-0.3014095858791694,0.25999387595058926,-3.07872458580576,0.6245981012054096,9.87958465529373e-05,-0.0004358297017147003,-0.000715327169686726,-0.004562876596751466,-0.0008284452258801803,0.0030329139282112747,0.0006443614622563472,0.29510435461997986,-1.1939278107932587,1.7247660795794886,-2.1001435718932093,-1.5712736288653772,2.269954204559326,0.0009567571105435491,0.0067823794670403,0.004502595867961645,-0.01442728191614151,-0.0001139467567554675,0.00030918014817871153,-0.2106897532939911,-0.325611412525177,-9.174580574035645,0.7463666796684265,47.718231201171875,-0.24929744005203247,-3.3524208068847656,-1.9732739925384521,-0.5272425413131714,-0.054401300847530365,0.1119225025177002,27.75,29.0,28.3125,32.1875,34.75,35.9375
1.0,-1.3223555478948226,0.21321525937751318,-0.7618589068289953,-0.013909104084952198,0.06063275228589754,-0.07547383166728958,-0.5292344449166867,-0.30140325566855697,0.259992441607262,-3.078736255937009,0.6245999645200433,0.00013293269626161162,-0.0006418221246978665,-0.0007088149649279396,-0.0044281150768059685,-0.00097502564962018,0.0035031099470046903,0.0005564531142180534,0.29509228467941284,-1.193927751188614,1.7247775236712855,-2.1001798115172328,-1.5712736288653772,2.269941806793213,0.000844449270516634,0.006948531139642,0.004006522241979837,-0.014589875936508179,-0.00011192238889634609,0.0002847472205758095,0.038307227194309235,-0.325611412525177,-9.174580574035645,0.6837049722671509,47.7218132019043,-0.2780839800834656,-3.372130870819092,-1.8509770631790161,-0.5150313377380371,-0.06375017017126083,0.11891995370388031,27.75,29.0,28.3125,32.1875,34.75,35.9375
1.0,-1.3223555478948226,0.21321525937751318,-0.7618589068289953,-0.013909104084952198,0.06063275228589754,-0.07547383166728958,-0.5292344449166867,-0.30140325566855697,0.259992441607262,-3.078736255937009,0.6245999645200433,0.00013293269626161162,-0.0006418221246978665,-0.0007088149649279396,-0.0044281150768059685,-0.00097502564962018,0.0035031099470046903,0.0005564531142180534,0.29509228467941284,-1.193927751188614,1.7247775236712855,-2.1001798115172328,-1.5712736288653772,2.269941806793213,0.000844449270516634,0.006948531139642,0.004006522241979837,-0.014589875936508179,-0.00011192238889634609,0.0002847472205758095,0.038307227194309235,-0.325611412525177,-9.174580574035645,0.6837049722671509,47.7218132019043,-0.2780839800834656,-3.372130870819092,-1.8509770631790161,-0.5150313377380371,-0.06375017017126083,0.11891995370388031,27.75,29.0,28.3125,32.1875,34.75,35.9375
1.0,-0.6716417157468587,0.7506199416907864,-0.5605403194517339,0.009712484358248891,0.03986637364894328,-0.08284198135703484,-0.5292254691047656,-0.3014240969608614,0.2599666424995823,-3.078761497547128,0.624528375239302,0.00012378467982584085,-0.0006838777853824149,-0.0006668266354172412,-0.004273405370954281,-0.001154552287035531,0.004083144314693264,0.0004884735028594823,0.2951282560825348,-1.1938918989947815,1.7248013655291956,-2.100239416162008,-1.5712617079364222,2.269929885864258,0.0007557548233307898,0.0067447773180902,0.004025990609079599,-0.015012776479125023,-0.00010996883793268353,0.00026386449462734163,0.019153613597154617,-0.38307225704193115,-9.040505409240723,0.6814691424369812,47.725399017333984,-0.23768681287765503,-3.2449090480804443,-1.7256087064743042,-0.5103813409805298,-0.049051035195589066,0.10810181498527527,27.75,29.0,28.3125,32.1875,34.75,35.9375
1.0,-0.6716417157468587,0.7506199416907864,-0.5605403194517339,0.009712484358248891,0.03986637364894328,-0.08284198135703484,-0.5292254691047656,-0.3014240969608614,0.2599666424995823,-3.078761497547128,0.624528375239302,0.00012378467982584085,-0.0006838777853824149,-0.0006668266354172412,-0.004273405370954281,-0.001154552287035531,0.004083144314693264,0.0004884735028594823,0.2951282560825348,-1.1938918989947815,1.7248013655291956,-2.100239416162008,-1.5712617079364222,2.269929885864258,0.0007557548233307898,0.0067447773180902,0.004025990609079599,-0.015012776479125023,-0.00010996883793268353,0.00026386449462734163,0.019153613597154617,-0.38307225704193115,-9.040505409240723,0.6814691424369812,47.725399017333984,-0.23768681287765503,-3.2449090480804443,-1.7256087064743042,-0.5103813409805298,-0.049051035195589066,0.10810181498527527,27.75,29.0,28.3125,32.1875,34.75,35.9375
1.0,0.37769725341913435,1.2449530503046924,-0.4816545708411302,0.01335727085595591,0.012110444406970462,-0.08672938442240996,-0.5292449392401043,-0.30140278233105,0.259982224171706,-3.0787913426293363,0.6246304744726605,0.00018713623246987383,-0.0003534323547271109,-0.0005209112180454014,-0.005828464079895371,-0.00027568971702009626,0.0011985454191656413,0.00043488022959379966,0.295080304145813,-1.1939033430865784,1.7247894446002405,-2.1002751789488734,-1.5712373892413538,2.269941806793213,0.000683927966747433,0.008115708827972412,0.005731027107685804,-0.015073249116539955,-0.00010808213119162247,0.00024583310005255044,-0.019153613597154617,-0.24899697303771973,-8.9064302444458,0.7105615139007568,47.700321197509766,-0.25690409541130066,-3.3019464015960693,-1.78218412399292,-0.5265733003616333,-0.050273165106773376,0.12543249130249023,27.75,29.0,28.3125,32.1875,34.75,35.9375
1.0,0.23339797407521995,0.46745250809284317,-0.7377447592951185,0.020972645033739114,-0.023579930903164792,-0.08249165584118584,-0.529229547545266,-0.301412938462945,0.25995161047962667,-3.0787625868994812,0.6246256307795992,0.00010264239493211801,-7.654238564753433e-05,-0.0003514025690484717,-0.007167940522712724,0.0005024603500215346,-0.0013559365591718738,0.00021626281918366757,0.2951042354106903,-1.1938788753798981,1.7248261610614222,-2.1002751789488734,-1.5712373892413538,2.2699663639068604,0.0005476484075188637,0.009272316470742226,0.007214006967842579,-0.01504245400428772,-0.00010625901632010937,0.00032837814069353044,0.038307227194309235,-0.2106897532939911,-8.925583839416504,0.6680382490158081,47.68419647216797,-0.293715238571167,-3.309406280517578,-1.8240000009536743,-0.5303913950920105,-0.05274897813796997,0.1046954095363617,27.75,29.0,28.3125,32.1875,34.75,35.9375
1.0,0.23339797407521995,0.46745250809284317,-0.7377447592951185,0.020972645033739114,-0.023579930903164792,-0.08249165584118584,-0.529229547545266,-0.301412938462945,0.25995161047962667,-3.0787625868994812,0.6246256307795992,0.00010264239493211801,-7.654238564753433e-05,-0.0003514025690484717,-0.007167940522712724,0.0005024603500215346,-0.0013559365591718738,0.00021626281918366757,0.2951042354106903,-1.1938788753798981,1.7248261610614222,-2.1002751789488734,-1.5712373892413538,2.2699663639068604,0.0005476484075188637,0.009272316470742226,0.007214006967842579,-0.01504245400428772,-0.00010625901632010937,0.00032837814069353044,0.038307227194309235,-0.2106897532939911,-8.925583839416504,0.6680382490158081,47.68419647216797,-0.293715238571167,-3.309406280517578,-1.8240000009536743,-0.5303913950920105,-0.05274897813796997,0.1046954095363617,27.75,29.0,28.3125,32.1875,34.75,35.9375
1.0,0.8147402132664429,0.38580271372526226,-0.8825216611434245,-0.017279079366729514,-0.010804274046693855,-0.08890768158433583,-0.5292430244831452,-0.30139591508743224,0.25994822294415587,-3.0787260781717185,0.6245980874846472,0.00018096881669620187,0.00021622353414135057,-0.00023335962075020597,-0.007290427528373933,0.0009495889453987535,-0.002792583055004594,0.00016573658129224826,0.2950802445411682,-1.1938671630671998,1.7248261610614222,-2.1003109417357386,-1.5712974707232874,2.269929885864258,0.000502876762766391,0.008888387121260166,0.007693937513977289,-0.01363382488489151,-0.00011184721370227635,0.0003345193399582058,0.13407529890537262,-0.2106897532939911,-8.925583839416504,0.6478998064994812,47.66628646850586,-0.24664762616157532,-3.2916760444641113,-1.781288981437683,-0.5410387516021729,-0.054997533559799194,0.11644774675369263,27.75,29.0,28.3125,32.1875,34.75,35.9375
1.0,0.8147402132664429,0.38580271372526226,-0.8825216611434245,-0.017279079366729514,-0.010804274046693855,-0.08890768158433583,-0.5292430244831452,-0.30139591508743224,0.25994822294415587,-3.0787260781717185,0.6245980874846472,0.00018096881669620187,0.00021622353414135057,-0.00023335962075020597,-0.007290427528373933,0.0009495889453987535,-0.002792583055004594,0.00016573658129224826,0.2950802445411682,-1.1938671630671998,1.7248261610614222,-2.1003109417357386,-1.5712974707232874,2.269929885864258,0.000502876762766391,0.008888387121260166,0.007693937513977289,-0.01363382488489151,-0.00011184721370227635,0.0003345193399582058,0.13407529890537262,-0.2106897532939911,-8.925583839416504,0.6478998064994812,47.66628646850586,-0.24664762616157532,-3.2916760444641113,-1.781288981437683,-0.5410387516021729,-0.054997533559799194,0.11644774675369263,27.75,29.0,28.3125,32.1875,34.75,35.9375
1.0,0.21366252898684485,-0.5280367671956716,-0.7691923113813423,-0.03761405756589517,-0.0001649928459362595,-0.08246930244624917,-0.5292364647887988,-0.30141126653395983,0.25990477510446675,-3.0787188627660744,0.6245972410921858,8.108768401268305e-05,0.00013621369685874103,-0.00023412427631350725,-0.007747700145195435,0.0011687268067061042,-0.003495735192326066,0.00014995889385696138,0.2951042056083679,-1.1938069027713318,1.724849049245016,-2.100334783593649,-1.5712736288653772,2.269954204559326,0.00046568422112613916,0.009650050662457943,0.007715706247836351,-0.013680757023394108,-0.00011698132584569976,0.0003132245037704706,0.15322890877723694,-0.07661445438861847,-8.9064302444458,0.7262282371520996,47.72092056274414,-0.2240174561738968,-3.184063673019409,-1.7123782634735107,-0.5754414796829224,-0.052706748247146606,0.11430345475673676,27.75,29.0,28.3125,32.1875,34.75,35.9375
1.0,0.21366252898684485,-0.5280367671956716,-0.7691923113813423,-0.03761405756589517,-0.0001649928459362595,-0.08246930244624917,-0.5292364647887988,-0.30141126653395983,0.25990477510446675,-3.0787188627660744,0.6245972410921858,8.108768401268305e-05,0.00013621369685874103,-0.00023412427631350725,-0.007747700145195435,0.0011687268067061042,-0.003495735192326066,0.00014995889385696138,0.2951042056083679,-1.1938069027713318,1.724849049245016,-2.100334783593649,-1.5712736288653772,2.269954204559326,0.00046568422112613916,0.009650050662457943,0.007715706247836351,-0.013680757023394108,-0.00011698132584569976,0.0003132245037704706,0.15322890877723694,-0.07661445438861847,-8.9064302444458,0.7262282371520996,47.72092056274414,-0.2240174561738968,-3.184063673019409,-1.7123782634735107,-0.5754414796829224,-0.052706748247146606,0.11430345475673676,27.75,29.0,28.3125,32.1875,34.75,35.9375
1.0,-0.02090501744236073,-0.5994811485558142,-0.4855873369441751,-0.06378481103558255,0.025819315556774435,-0.08584936004493043,-0.5292421057005294,-0.30140174183522644,0.2599054505210667,-3.078688980092175,0.6246109226731026,0.00012195097565318389,0.00027286607217431,-5.038841421177089e-05,-0.008847739497876265,0.0020122082715032185,-0.006146651292321746,-0.00010639981488414453,0.29509207606315613,-1.1938065451434632,1.7248495260821741,-2.1003457508482875,-1.5713093916522425,2.2699544429779053,0.0002430529275443405,0.010769938118755817,0.008511343039572239,-0.012814500369131565,-0.00014922552509233356,0.0003474526747595519,0.07661445438861847,-0.038307227194309235,-8.868123054504395,0.7127973437309265,47.68867492675781,-0.24938711524009705,-3.154327630996704,-1.76283597946167,-0.5830948948860168,-0.03384093567728996,0.11715111136436462,27.75,29.0,28.3125,32.1875,34.75,35.9375
1.0,-0.02090501744236073,-0.5994811485558142,-0.4855873369441751,-0.06378481103558255,0.025819315556774435,-0.08584936004493043,-0.5292421057005294,-0.30140174183522644,0.2599054505210667,-3.078688980092175,0.6246109226731026,0.00012195097565318389,0.00027286607217431,-5.038841421177089e-05,-0.008847739497876265,0.0020122082715032185,-0.006146651292321746,-0.00010639981488414453,0.29509207606315613,-1.1938065451434632,1.7248495260821741,-2.1003457508482875,-1.5713093916522425,2.2699544429779053,0.0002430529275443405,0.010769938118755817,0.008511343039572239,-0.012814500369131565,-0.00014922552509233356,0.0003474526747595519,0.07661445438861847,-0.038307227194309235,-8.868123054504395,0.7127973437309265,47.68867492675781,-0.24938711524009705,-3.154327630996704,-1.76283597946167,-0.5830948948860168,-0.03384093567728996,0.11715111136436462,27.75,29.0,28.3125,32.1875,34.75,35.9375
1.0,-0.7503484085549288,-1.1283792878323287,-0.6938404168855091,-0.05389717661454674,0.03222010613299302,-0.07969495924857685,-0.5292307546458452,-0.3013833544868273,0.2598940058131063,-3.0786585966731854,0.6247001511195172,8.731354724811084e-05,0.0005579166758357266,0.00010874119255901526,-0.009341955312132466,0.0023224012190002233,-0.0070713499861616265,-0.00019993258032817936,0.29506808519363403,-1.1938305360129853,1.7249110380755823,-2.1003581486144007,-1.5713093916522425,2.2699899673461914,0.00013186786964070052,0.010762722231447697,0.009696724824607372,-0.013017632998526096,-0.00017507703159935772,0.0003297873481642455,0.19153612852096558,0.09576806426048279,-8.9064302444458,0.7016075849533081,47.68061828613281,-0.29087939858436584,-3.1782054901123047,-1.7466660737991333,-0.6107405424118042,-0.06125578284263611,0.11978811770677567,27.75,29.0,28.3125,32.1875,34.75,35.9375
1.0,-0.21300753773364783,-0.9182606265287401,-0.7613577352574108,-0.05947059347771941,0.04023836270652134,-0.0847306784424482,-0.5292460558013877,-0.30137683839963186,0.25987990420149015,-3.0786929374153305,0.6246883406111253,5.986745051738658e-05,0.0006221493067414825,0.00016803143638888745,-0.0105994666655831,0.0028929014195617597,-0.008951787728096171,-0.00024479201846628023,0.29504409432411194,-1.1937939387610932,1.7248991171466272,-2.100382467309469,-1.5712736288653772,2.269954204559326,6.814698281232268e-05,0.01226495485752821,0.010639672167599201,-0.013497763313353062,-0.00017334052245132625,0.0003110189572907984,0.28730422258377075,0.26815059781074524,-8.983044624328613,0.7016075849533081,47.70927429199219,-0.21499904990196228,-3.1524791717529297,-1.6827208995819092,-0.6058355569839478,-0.049135420471429825,0.10860978066921234,27.75,29.0,28.3125,32.1875,34.75,35.9375
1.0,-0.21300753773364783,-0.9182606265287401,-0.7613577352574108,-0.05947059347771941,0.04023836270652134,-0.0847306784424482,-0.5292460558013877,-0.30137683839963186,0.25987990420149015,-3.0786929374153305,0.6246883406111253,5.986745051738658e-05,0.0006221493067414825,0.00016803143638888745,-0.0105994666655831,0.0028929014195617597,-0.008951787728096171,-0.00024479201846628023,0.29504409432411194,-1.1937939387610932,1.7248991171466272,-2.100382467309469,-1.5712736288653772,2.269954204559326,6.814698281232268e-05,0.01226495485752821,0.010639672167599201,-0.013497763313353062,-0.00017334052245132625,0.0003110189572907984,0.28730422258377075,0.26815059781074524,-8.983044624328613,0.7016075849533081,47.70927429199219,-0.21499904990196228,-3.1524791717529297,-1.6827208995819092,-0.6058355569839478,-0.049135420471429825,0.10860978066921234,27.75,29.0,28.3125,32.1875,34.75,35.9375
1.0,-0.030843504599221028,-0.8931086791391113,-0.9259837366670808,-0.057164223922586396,0.019147357850158427,-0.08060379834022505,-0.5292390251292105,-0.30138216365451725,0.2598481607312299,-3.0786729069327694,0.6246450926022615,-2.205531572131746e-05,0.0006987904675216142,0.0001979281525049011,-0.011024477201699015,0.0027765040715881048,-0.008592217276496806,-0.00023936972155231265,0.29505613446235657,-1.1937579971602936,1.7249229590045374,-2.1003829441466273,-1.5712736288653772,2.269941806793213,5.708137541660108e-05,0.012575706467032433,0.011554025113582611,-0.015100769698619843,-0.00016819457232486457,0.00029408885166049004,0.15322890877723694,0.3064578175544739,-8.96389102935791,0.7217512726783752,47.723602294921875,-0.20013919472694397,-3.1729483604431152,-1.7536914348602295,-0.633124828338623,-0.04335244372487068,0.09260629117488861,27.75,29.0,28.3125,32.1875,34.75,35.9375
1.0,-0.030843504599221028,-0.8931086791391113,-0.9259837366670808,-0.057164223922586396,0.019147357850158427,-0.08060379834022505,-0.5292390251292105,-0.30138216365451725,0.2598481607312299,-3.0786729069327694,0.6246450926022615,-2.205531572131746e-05,0.0006987904675216142,0.0001979281525049011,-0.011024477201699015,0.0027765040715881048,-0.008592217276496806,-0.00023936972155231265,0.29505613446235657,-1.1937579971602936,1.7249229590045374,-2.1003829441466273,-1.5712736288653772,2.269941806793213,5.708137541660108e-05,0.012575706467032433,0.011554025113582611,-0.015100769698619843,-0.00016819457232486457,0.00029408885166049004,0.15322890877723694,0.3064578175544739,-8.96389102935791,0.7217512726783752,47.723602294921875,-0.20013919472694397,-3.1729483604431152,-1.7536914348602295,-0.633124828338623,-0.04335244372487068,0.09260629117488861,27.75,29.0,28.3125,32.1875,34.75,35.9375
1.0,-0.00013793598386868666,-1.4479764643361932,-0.8223839587577041,-0.057745489300231954,-0.0005840835008815715,-0.0761780505982145,-0.5292375820363688,-0.3013780047801,0.2598252671870994,-3.0786267158878133,0.6246555048952824,-2.94833512126195e-05,0.00045853305331884495,0.0001282328277350173,-0.011621872232093563,0.002736791768267859,-0.008421235590109879,-0.00022788985325226005,0.29505613446235657,-1.1937336486629029,1.724947754536764,-2.1004072628416957,-1.5713093916522425,2.269954204559326,5.35910039616283e-05,0.013795080594718456,0.011589850299060345,-0.016531050205230713,-0.0001832637208281085,0.00027889449847862124,0.2106897532939911,0.3064578175544739,-8.9064302444458,0.7016075849533081,47.705692291259766,-0.2805236577987671,-3.147535800933838,-1.705588698387146,-0.6258805394172668,-0.04937616363167763,0.11564141511917114,27.75,29.0,28.3125,32.1875,34.75,35.9375
1.0,-0.00013793598386868666,-1.4479764643361932,-0.8223839587577041,-0.057745489300231954,-0.0005840835008815715,-0.0761780505982145,-0.5292375820363688,-0.3013780047801,0.2598252671870994,-3.0786267158878133,0.6246555048952824,-2.94833512126195e-05,0.00045853305331884495,0.0001282328277350173,-0.011621872232093563,0.002736791768267859,-0.008421235590109879,-0.00022788985325226005,0.29505613446235657,-1.1937336486629029,1.724947754536764,-2.1004072628416957,-1.5713093916522425,2.269954204559326,5.35910039616283e-05,0.013795080594718456,0.011589850299060345,-0.016531050205230713,-0.0001832637208281085,0.00027889449847862124,0.2106897532939911,0.3064578175544739,-8.9064302444458,0.7016075849533081,47.705692291259766,-0.2805236577987671,-3.147535800933838,-1.705588698387146,-0.6258805394172668,-0.04937616363167763,0.11564141511917114,27.75,29.0,28.3125,32.1875,34.75,35.9375
1.0,0.3308557869215633,-1.322968676935075,-1.025549292184422,-0.07747971934729214,-0.0010345709189995694,-0.08305194899739353,-0.5292365652397194,-0.30137768902483825,0.25980257596254747,-3.0786404940175474,0.6246193571898987,-1.1436733019585405e-05,0.0003041591197364084,8.433249487118455e-05,-0.011707148526385543,0.0022605079243608168,-0.006822471070037572,-0.00021784507383384484,0.29505613446235657,-1.1937095683864136,1.7249835173236292,-2.1004802189269007,-1.5713093916522425,2.269929885864258,5.057771340943873e-05,0.014087962917983532,0.011905988678336143,-0.01880820281803608,-0.00019722929573617876,0.0002651939867064357,0.26815059781074524,0.325611412525177,-9.078812599182129,0.7620334029197693,47.72092056274414,-0.2779480516910553,-3.139556884765625,-1.7179338932037354,-0.6354873776435852,-0.04395170509815216,0.11710523813962936,27.75,29.0,28.3125,32.1875,34.75,35.9375
1.0,0.3308557869215633,-1.322968676935075,-1.025549292184422,-0.07747971934729214,-0.0010345709189995694,-0.08305194899739353,-0.5292365652397194,-0.30137768902483825,0.25980257596254747,-3.0786404940175474,0.6246193571898987,-1.1436733019585405e-05,0.0004026175511218092,0.00014646457763759895,-0.012794633551674239,0.0026599873041844055,-0.008110284887414098,-0.0002759709664516178,0.2950321435928345,-1.1936612290195008,1.7250073591815394,-2.1004802189269007,-1.5712855497943323,2.269941806793213,6.78564504141832e-07,0.015270317904651165,0.012996413744986057,-0.019732635468244553,-0.00020490899623837322,0.0002733543224167079,0.2298433631658554,0.28730422258377075,-9.078812599182129,0.7127973437309265,47.7244987487793,-0.2421923279762268,-3.197185754776001,-1.701740026473999,-0.6284471750259399,-0.03160358965396881,0.109856516122818,27.75,29.0,28.3125,32.1875,34.75,35.9375
1.0,0.57439300530746,-1.935285228694789,-1.003995407512637,-0.07301462840566678,0.012344268134148476,-0.07645300794242924,-0.5292408003483993,-0.3013665438292383,0.2597634186844104,-3.07861612189138,0.6246720032048908,-0.00012907097152236249,0.0004026175511218092,0.00014646457763759895,-0.012794633551674239,0.0026599873041844055,-0.008110284887414098,-0.0002759709664516178,0.2950321435928345,-1.1936612290195008,1.7250073591815394,-2.1004802189269007,-1.5712855497943323,2.269941806793213,6.78564504141832e-07,0.015270317904651165,0.012996413744986057,-0.019732635468244553,-0.00020490899623837322,0.0002733543224167079,0.2298433631658554,0.28730422258377075,-9.078812599182129,0.7127973437309265,47.7244987487793,-0.2421923279762268,-3.197185754776001,-1.701740026473999,-0.6284471750259399,-0.03160358965396881,0.109856516122818,27.75,29.0,28.3125,32.1875,34.75,35.9375
1.0,0.03414046993630104,-1.5187338188635315,-0.9185454858718978,-0.07948277126299358,0.012340531904002697,-0.08958432388162496,-0.5292345126991032,-0.3013757397176657,0.25971674748516804,-3.0785589638206945,0.6246799935198644,-0.00016765902539821995,2.800747511426936e-05,6.904052842017282e-05,-0.012387569621552358,0.0023145715695668677,-0.005771266213500787,-0.00028352413845944124,0.2950561046600342,-1.193601207142212,1.7250435988055628,-2.1005288563170375,-1.5713217894183558,2.2699780464172363,9.10380926200105e-09,0.015367338433861732,0.012340175919234753,-0.021510466933250427,-0.0005601135781034827,0.0002803075185511261,0.2298433631658554,0.24899697303771973,-9.117119789123535,0.6769921779632568,47.70658874511719,-0.26713237166404724,-3.1928417682647705,-1.7138363122940063,-0.6447620391845703,-0.01985393464565277,0.12073355913162231,27.75,29.0,28.3125,32.1875,34.75,35.9375
1.0,0.03414046993630104,-1.5187338188635315,-0.9185454858718978,-0.07948277126299358,0.012340531904002697,-0.08958432388162496,-0.5292345126991032,-0.3013757397176657,0.25971674748516804,-3.0785589638206945,0.6246799935198644,-0.00016765902539821995,2.800747511426936e-05,6.904052842017282e-05,-0.012387569621552358,0.0023145715695668677,-0.005771266213500787,-0.00028352413845944124,0.2950561046600342,-1.193601207142212,1.7250435988055628,-2.1005288563170375,-1.5713217894183558,2.2699780464172363,9.10380926200105e-09,0.015367338433861732,0.012340175919234753,-0.021510466933250427,-0.0005601135781034827,0.0002803075185511261,0.2298433631658554,0.24899697303771973,-9.117119789123535,0.6769921779632568,47.70658874511719,-0.26713237166404724,-3.1928417682647705,-1.7138363122940063,-0.6447620391845703,-0.01985393464565277,0.12073355913162231,27.75,29.0,28.3125,32.1875,34.75,35.9375
1.0,-0.0176543214530393,-1.3629176059856856,-1.0716557261800492,-0.06383109700016348,0.019064660842408116,-0.08703561485919327,-0.5292243981106747,-0.3013862958611554,0.25970996069860885,-3.0785581736971475,0.6246605263828624,-0.0001418707737760967,0.0001152185822336347,9.65903596904917e-05,-0.013075133734765192,0.002469770636602478,-0.006259499728194143,-0.0002729961835194965,0.2950800657272339,-1.1936009985259552,1.7250669638263147,-2.1005646191039027,-1.5713337103473108,2.2699899673461914,1.221392292860557e-10,0.01605265960097313,0.013220999389886856,-0.02256430685520172,-0.0005670245736837387,0.0002695618895813823,0.3064578175544739,0.325611412525177,-9.078812599182129,0.6546126008033752,47.71464920043945,-0.2542971968650818,-3.1589550971984863,-1.6915488243103027,-0.6475855112075806,-0.04884468391537666,0.11775143444538116,27.75,29.0,28.3125,32.1875,34.75,35.9375
1.0,-0.0176543214530393,-1.3629176059856856,-1.0716557261800492,-0.06383109700016348,0.019064660842408116,-0.08703561485919327,-0.5292243981106747,-0.3013862958611554,0.25970996069860885,-3.0785581736971475,0.6246605263828624,-0.0001418707737760967,0.0001152185822336347,9.65903596904917e-05,-0.013075133734765192,0.002469770636602478,-0.006259499728194143,-0.0002729961835194965,0.2950800657272339,-1.1936009985259552,1.7250669638263147,-2.1005646191039027,-1.5713337103473108,2.2699899673461914,1.221392292860557e-10,0.01605265960097313,0.013220999389886856,-0.02256430685520172,-0.0005670245736837387,0.0002695618895813823,0.3064578175544739,0.325611412525177,-9.078812599182129,0.6546126008033752,47.71464920043945,-0.2542971968650818,-3.1589550971984863,-1.6915488243103027,-0.6475855112075806,-0.04884468391537666,0.11775143444538116,27.75,29.0,28.3125,32.1875,34.75,35.9375
1.0,-0.17669255931721312,-1.117110756219876,-1.0872502241750917,-0.0563596351717401,0.01238201070498151,-0.07781279682051294,-0.5292279928032835,-0.30138366950394496,0.25967441315220224,-3.078576437810983,0.6246454105729996,-0.00021844154134886305,-9.135055765192565e-05,2.3382111549292807e-05,-0.013083374830842114,0.002083560982729538,-0.005330907134760011,-0.00026245972772272034,0.29506802558898926,-1.193552927379944,1.725091282521383,-2.1006013355650843,-1.5712974707232874,2.2699661254882812,1.638653405675039e-12,0.016430046409368515,0.012988965027034283,-0.023710813373327255,-0.0004708892956841737,0.00025857804575935006,0.3447650372982025,0.28730422258377075,-9.117119789123535,0.7351769208908081,47.723602294921875,-0.3114836812019348,-3.2199759483337402,-1.6836988925933838,-0.6476671099662781,-0.03099171817302704,0.1115429550409317,27.75,29.0,28.3125,32.1875,34.75,35.9375
1.0,-0.17669255931721312,-1.117110756219876,-1.0872502241750917,-0.0563596351717401,0.01238201070498151,-0.07781279682051294,-0.5292279928032835,-0.30138366950394496,0.25967441315220224,-3.078576437810983,0.6246454105729996,-0.00021844154134886305,-9.135055765192565e-05,2.3382111549292807e-05,-0.013083374830842114,0.002083560982729538,-0.005330907134760011,-0.00026245972772272034,0.29506802558898926,-1.193552927379944,1.725091282521383,-2.1006013355650843,-1.5712974707232874,2.2699661254882812,1.638653405675039e-12,0.016430046409368515,0.012988965027034283,-0.023710813373327255,-0.0004708892956841737,0.00025857804575935006,0.3447650372982025,0.28730422258377075,-9.117119789123535,0.7351769208908081,47.723602294921875,-0.3114836812019348,-3.2199759483337402,-1.6836988925933838,-0.6476671099662781,-0.03099171817302704,0.1115429550409317,27.75,29.0,28.3125,32.1875,34.75,35.9375
1.0,-0.14087130865544678,-0.9977300026011682,-1.2739440007293552,-0.053348792139692514,0.009168365534684197,-0.08417186112776852,-0.5292257431147831,-0.3013941702866299,0.2596401583384416,-3.0785925047213074,0.6246676851267172,-0.0002781460807337457,-0.00013388616768066487,5.702795140543426e-06,-0.014224722284625275,0.002282897758236443,-0.006153849380752216,-0.0002525778191501107,0.2950800657272339,-1.1935044091990967,1.725114647542135,-2.100649496118063,-1.5712617079364222,2.2699899673461914,2.1984626643570433e-14,0.017974194139242172,0.013857966288924217,-0.02527880109846592,-0.0004240212438162416,0.0002483859716448933,0.26815059781074524,0.2298433631658554,-9.097966194152832,0.6948947906494141,47.71464920043945,-0.3600597679615021,-3.2877655029296875,-1.6925387382507324,-0.649809718132019,-0.04381568729877472,0.12088540941476822,27.75,29.0,28.3125,32.1875,34.75,35.9375
1.0,-0.0073847137194337775,-1.165484215043081,-1.0849285221514076,-0.05141139969170694,0.0010705101760707866,-0.08039837018636739,-0.529247389715034,-0.30136228925382347,0.25962351213338225,-3.078595507977361,0.6246872187435653,-0.00021944395765391742,-0.00037313796641165735,-7.130579322276033e-05,-0.014258412453974688,0.0017763045358824571,-0.004631125195647762,-0.00024378716375988426,0.29502010345458984,-1.1934804183295746,1.7251394430743616,-2.100734373132223,-1.5712736288653772,2.269941806793213,2.9495182765942234e-16,0.01839756779372692,0.013811720535159111,-0.027260327711701393,-0.0003873207315336913,0.0002389636356383562,0.24899697303771973,0.09576806426048279,-9.136273384094238,0.7016075849533081,47.70927429199219,-0.31591320037841797,-3.2209906578063965,-1.701749563217163,-0.6377335786819458,-0.03458927199244499,0.10735365748405457,27.75,29.0,28.3125,32.1875,34.75,35.9375
1.0,-0.0073847137194337775,-1.165484215043081,-1.0849285221514076,-0.05141139969170694,0.0010705101760707866,-0.08039837018636739,-0.529247389715034,-0.30136228925382347,0.25962351213338225,-3.078595507977361,0.6246872187435653,-0.00021944395765391742,-0.00037313796641165735,-7.130579322276033e-05,-0.014258412453974688,0.0017763045358824571,-0.004631125195647762,-0.00024378716375988426,0.29502010345458984,-1.1934804183295746,1.7251394430743616,-2.100734373132223,-1.5712736288653772,2.269941806793213,2.9495182765942234e-16,0.01839756779372692,0.013811720535159111,-0.027260327711701393,-0.0003873207315336913,0.0002389636356383562,0.24899697303771973,0.09576806426048279,-9.136273384094238,0.7016075849533081,47.70927429199219,-0.31591320037841797,-3.2209906578063965,-1.701749563217163,-0.6377335786819458,-0.03458927199244499,0.10735365748405457,27.75,29.0,28.3125,32.1875,34.75,35.9375
1.0,0.85797407888961,-0.6020916512110432,-0.9851845733679824,-0.06126833250881428,0.02535470349312225,-0.09389505674964199,-0.5292257612596485,-0.3013892121302642,0.25957034315476735,-3.078546405763917,0.6246009264750947,-0.0002909619984915336,-0.0004568467788695515,-0.0001000578409779938,-0.01466072573235036,0.0013507089028367565,-0.003351641692462181,-0.00023582593797168887,0.2950800657272339,-1.1934201580337067,1.7251876036273401,-2.100771566430563,-1.5713093916522425,2.269954204559326,3.957155536247023e-18,0.018955048173666,0.014584734104573727,-0.029938867315649986,-0.0003565905790310353,0.0002302297652931884,0.2298433631658554,0.09576806426048279,-9.251194953918457,0.7754590511322021,47.692256927490234,-0.29840487241744995,-3.4662675857543945,-1.682682752609253,-0.6434664726257324,-0.030223120003938675,0.12479984015226364,27.75,29.0,28.3125,32.1875,34.75,35.9375
1.0,0.85797407888961,-0.6020916512110432,-0.9851845733679824,-0.06126833250881428,0.02535470349312225,-0.09389505674964199,-0.5292257612596485,-0.3013892121302642,0.25957034315476735,-3.078546405763917,0.6246009264750947,-0.0002909619984915336,-0.0004568467788695515,-0.0001000578409779938,-0.01466072573235036,0.0013507089028367565,-0.003351641692462181,-0.00023582593797168887,0.2950800657272339,-1.1934201580337067,1.7251876036273401,-2.100771566430563,-1.5713093916522425,2.269954204559326,3.957155536247023e-18,0.018955048173666,0.014584734104573727,-0.029938867315649986,-0.0003565905790310353,0.0002302297652931884,0.2298433631658554,0.09576806426048279,-9.251194953918457,0.7754590511322021,47.692256927490234,-0.29840487241744995,-3.4662675857543945,-1.682682752609253,-0.6434664726257324,-0.030223120003938675,0.12479984015226364,27.75,29.0,28.3125,32.1875,34.75,35.9375
1.0,0.1504923747222619,-0.693675917732803,-1.1492518141140402,-0.05682342631409171,0.021792777264840878,-0.09030316160580971,-0.5292326646317639,-0.3013887923888338,0.25956720059586474,-3.078584200959555,0.6246853492916034,-0.0002923133373470663,-0.0005032608635051191,-0.00011708819590602616,-0.013993487349387365,0.0007153730786929772,-0.0013615399212172097,-0.0002282589828692718,0.29506802558898926,-1.1934084457210083,1.725187126790182,-2.1008078060545863,-1.5712617079364222,2.2699899673461914,5.3090293482985954e-20,0.018076293170452118,0.014511916786432266,-0.03107626549899578,-0.0003303864796180278,0.00022211106261238456,0.2106897532939911,0.09576806426048279,-9.289502143859863,0.7486078143119812,47.73524856567383,-0.28989946842193604,-3.383101463317871,-1.7218594551086426,-0.6265795826911926,-0.022911394014954567,0.12377317249774933,27.75,29.0,28.3125,32.1875,34.75,35.9375
1.0,0.1504923747222619,-0.693675917732803,-1.1492518141140402,-0.05682342631409171,0.021792777264840878,-0.09030316160580971,-0.5292326646317639,-0.3013887923888338,0.25956720059586474,-3.078584200959555,0.6246853492916034,-0.0002923133373470663,-0.0005032608635051191,-0.00011708819590602616,-0.013993487349387365,0.0007153730786929772,-0.0013615399212172097,-0.0002282589828692718,0.29506802558898926,-1.1934084457210083,1.725187126790182,-2.1008078060545863,-1.5712617079364222,2.2699899673461914,5.3090293482985954e-20,0.018076293170452118,0.014511916786432266,-0.03107626549899578,-0.0003303864796180278,0.00022211106261238456,0.2106897532939911,0.09576806426048279,-9.289502143859863,0.7486078143119812,47.73524856567383,-0.28989946842193604,-3.383101463317871,-1.7218594551086426,-0.6265795826911926,-0.022911394014954567,0.12377317249774933,27.75,29.0,28.3125,32.1875,34.75,35.9375
1.0,-0.07211055366862545,-0.45211951834201086,-1.2559581738947225,-0.05806139944669838,0.03342161106280202,-0.09295038482437187,-0.5292278434887236,-0.3013761819503169,0.25949615428141976,-3.078527373640811,0.6246355279140906,-0.000364908097241205,-0.0003149341254143055,-6.184544381962584e-05,-0.01358066086918934,0.00020399853700911946,0.00023753788051277818,-0.0002213225463763021,0.2950561046600342,-1.1933369499496003,1.7252715269671839,-2.10089172939443,-1.5712974707232874,2.269954204559326,7.122740476259295e-22,0.01703917793929577,0.015304038301110268,-0.03251003473997116,-0.00030777440406382084,0.00021454624948091805,0.17238251864910126,0.05746084079146385,-9.423578262329102,0.7486078143119812,47.734352111816406,-0.29382097721099854,-3.2875804901123047,-1.743574619293213,-0.6116255521774292,-0.026917174458503723,0.11351940035820007,27.75,29.0,28.3125,32.1875,34.75,35.9375
1.0,-0.07211055366862545,-0.45211951834201086,-1.2559581738947225,-0.05806139944669838,0.03342161106280202,-0.09295038482437187,-0.5292278434887236,-0.3013761819503169,0.25949615428141976,-3.078527373640811,0.6246355279140906,-0.000364908097241205,-0.0003149341254143055,-6.184544381962584e-05,-0.01358066086918934,0.00020399853700911946,0.00023753788051277818,-0.0002213225463763021,0.2950561046600342,-1.1933369499496003,1.7252715269671839,-2.10089172939443,-1.5712974707232874,2.269954204559326,7.122740476259295e-22,0.01703917793929577,0.015304038301110268,-0.03251003473997116,-0.00030777440406382084,0.00021454624948091805,0.17238251864910126,0.05746084079146385,-9.423578262329102,0.7486078143119812,47.734352111816406,-0.29382097721099854,-3.2875804901123047,-1.743574619293213,-0.6116255521774292,-0.026917174458503723,0.11351940035820007,27.75,29.0,28.3125,32.1875,34.75,35.9375
1.0,-0.5770752282907385,-0.21428160047774467,-1.3343417136618179,-0.049078501283958006,0.026666263750864498,-0.08662240708028177,-0.529223123082093,-0.3013871392470438,0.2594597508273988,-3.0785468659110005,0.6246396048762228,-0.0004661375658382313,-0.0005571687081986749,-0.00013788921386296744,-0.014452172275975457,0.0003174462552425729,-0.00021301470767475295,-0.00021440873193389958,0.29506802558898926,-1.1932884615710755,1.7252944151507776,-2.1009160480894984,-1.5712493101703089,2.2699661254882812,9.556064579481937e-24,0.018653439357876778,0.015384729951620102,-0.03374100103974342,-0.0002880616229958832,0.00020747954840771854,0.07661445438861847,0.038307227194309235,-9.366117477416992,0.7127973437309265,47.7191276550293,-0.22495824098587036,-3.3708720207214355,-1.7362405061721802,-0.617792546749115,-0.03498980402946472,0.11118225753307343,27.75,29.0,28.3125,32.1875,34.75,35.9375
1.0,-0.3776054678473871,-0.46098975405159637,-1.2908582018749621,-0.03837932063242798,0.04552496773956306,-0.09003435222456771,-0.5292233803651125,-0.3013958722882148,0.2594656724661784,-3.078527012514391,0.6246161588081938,-0.00033821220350603457,-0.0005405649741916267,-0.00013454805677078714,-0.01481918064641129,0.00024294418601239763,-3.270115318801055e-05,-0.0002081362645950112,0.29509198665618896,-1.193288342361786,1.7252944151507776,-2.100976129571432,-1.5713093916522425,2.2699780464172363,1.2820679597811845e-25,0.019045807421207428,0.015953877940773964,-0.03489675372838974,-0.0002707209496293217,0.00020086341828573495,0.05746084079146385,-0.05746084079146385,-9.404424667358398,0.7150384783744812,47.72718811035156,-0.34048813581466675,-3.330944061279297,-1.685232400894165,-0.6144828796386719,-0.029131662100553513,0.10576853156089783,27.75,29.0,28.3125,32.1875,34.75,35.9375
1.0,-0.3776054678473871,-0.46098975405159637,-1.2908582018749621,-0.03837932063242798,0.04552496773956306,-0.09003435222456771,-0.5292233803651125,-0.3013958722882148,0.2594656724661784,-3.078527012514391,0.6246161588081938,-0.00033821220350603457,-0.0005405649741916267,-0.00013454805677078714,-0.01481918064641129,0.00024294418601239763,-3.270115318801055e-05,-0.0002081362645950112,0.29509198665618896,-1.193288342361786,1.7252944151507776,-2.100976129571432,-1.5713093916522425,2.2699780464172363,1.2820679597811845e-25,0.019045807421207428,0.015953877940773964,-0.03489675372838974,-0.0002707209496293217,0.00020086341828573495,0.05746084079146385,-0.05746084079146385,-9.404424667358398,0.7150384783744812,47.72718811035156,-0.34048813581466675,-3.330944061279297,-1.685232400894165,-0.6144828796386719,-0.029131662100553513,0.10576853156089783,27.75,29.0,28.3125,32.1875,34.75,35.9375
1.0,-0.13427620899705234,-0.43693503641393294,-1.5504514238550342,-0.043198669094567085,0.05436035999001508,-0.08669219634012666,-0.5292238727346401,-0.30139725175640414,0.2594183625259051,-3.078535365966871,0.6245988108410134,-0.0003642348211651752,-0.0007814199201982149,-0.00020991591612841133,-0.014538137256680945,-0.00039401599350403983,0.0019925218105655645,-0.00020255923637420165,0.29509198665618896,-1.193228380089142,1.7253430525409144,-2.101072450677389,-1.5712974707232874,2.2699661254882812,1.7200578555749567e-27,0.01904994808137417,0.015743082389235497,-0.03681309521198273,-0.0002553527883719653,0.00019465689547359943,0.038307227194309235,0.0,-9.53849983215332,0.7351769208908081,47.72092056274414,-0.3262006640434265,-3.345555067062378,-1.6565858125686646,-0.6117521524429321,-0.03774283081293106,0.11739467829465866,27.75,29.0,28.3125,32.1875,34.75,35.9375
1.0,-0.13427620899705234,-0.43693503641393294,-1.5504514238550342,-0.043198669094567085,0.05436035999001508,-0.08669219634012666,-0.5292238727346401,-0.30139725175640414,0.2594183625259051,-3.078535365966871,0.6245988108410134,-0.0003642348211651752,-0.0007814199201982149,-0.00020991591612841133,-0.014538137256680945,-0.00039401599350403983,0.0019925218105655645,-0.00020255923637420165,0.29509198665618896,-1.193228380089142,1.7253430525409144,-2.101072450677389,-1.5712974707232874,2.2699661254882812,1.7200578555749567e-27,0.01904994808137417,0.015743082389235497,-0.03681309521198273,-0.0002553527883719653,0.00019465689547359943,0.038307227194309235,0.0,-9.53849983215332,0.7351769208908081,47.72092056274414,-0.3262006640434265,-3.345555067062378,-1.6565858125686646,-0.6117521524429321,-0.03774283081293106,0.11739467829465866,27.75,29.0,28.3125,32.1875,34.75,35.9375
1.0,-0.056808219821324744,-0.02911273646913379,-1.4788091561162469,-0.05716253399350779,0.05951751682874645,-0.09683022578071054,-0.5292266753791097,-0.30138945875490497,0.25939525694455684,-3.078523464096556,0.6246346059486254,-0.0003383765196263144,-0.000528796749642104,-0.00013375209188011146,-0.01587709484015568,2.763856889508083e-05,0.0005596671250229369,-0.000197008678344399,0.2950800657272339,-1.193203942184784,1.7253792921649378,-2.101145406762594,-1.5713093916522425,2.2699780464172363,2.3076770950710135e-29,0.02025282196700573,0.01750558242201805,-0.03828497231006622,-0.00024163535272236913,0.0001888217666419223,-0.038307227194309235,0.0,-9.519346237182617,0.7620334029197693,47.70390319824219,-0.36076605319976807,-3.4527339935302734,-1.6780624389648438,-0.5962327718734741,-0.026308804750442505,0.12273292988538742,27.75,29.0,28.3125,32.1875,34.75,35.9375
1.0,-0.056808219821324744,-0.02911273646913379,-1.4788091561162469,-0.05716253399350779,0.05951751682874645,-0.09683022578071054,-0.5292266753791097,-0.30138945875490497,0.25939525694455684,-3.078523464096556,0.6246346059486254,-0.0003383765196263144,-0.000528796749642104,-0.00013375209188011146,-0.01587709484015568,2.763856889508083e-05,0.0005596671250229369,-0.000197008678344399,0.2950800657272339,-1.193203942184784,1.7253792921649378,-2.101145406762594,-1.5713093916522425,2.2699780464172363,2.3076770950710135e-29,0.02025282196700573,0.01750558242201805,-0.03828497231006622,-0.00024163535272236913,0.0001888217666419223,-0.038307227194309235,0.0,-9.519346237182617,0.7620334029197693,47.70390319824219,-0.36076605319976807,-3.4527339935302734,-1.6780624389648438,-0.5962327718734741,-0.026308804750442505,0.12273292988538742,27.75,29.0,28.3125,32.1875,34.75,35.9375
1.0,-0.5691071713421907,-0.20420625507048915,-1.5757634162822711,-0.052413661036788024,0.0494034493036223,-0.09363920817256889,-0.5292203671085896,-0.30140240948251856,0.25934138774560234,-3.0785029523871263,0.6245920395871758,-0.000421500627244515,-0.0006344376413767347,-0.00016731955648868326,-0.016226888170731563,-0.00011157961701137646,0.000966514570199266,-0.00019183570141408215,0.2951040267944336,-1.1931318801692505,1.7254155317889612,-2.1011935673155726,-1.5713093916522425,2.2699780464172363,3.096043117170329e-31,0.020870491862297058,0.017764374613761902,-0.0395912304520607,-0.00022931651619728655,0.00018332706531509757,0.038307227194309235,-0.05746084079146385,-9.557653427124023,0.7754590511322021,47.725399017333984,-0.3385928273200989,-3.398200273513794,-1.7335255146026611,-0.5729418396949768,-0.03230081871151924,0.11352995038032532,27.75,29.0,28.3125,32.1875,34.75,35.9375
1.0,-0.5691071713421907,-0.20420625507048915,-1.5757634162822711,-0.052413661036788024,0.0494034493036223,-0.09363920817256889,-0.5292203671085896,-0.30140240948251856,0.25934138774560234,-3.0785029523871263,0.6245920395871758,-0.000421500627244515,-0.0006344376413767347,-0.00016731955648868326,-0.016226888170731563,-0.00011157961701137646,0.000966514570199266,-0.00019183570141408215,0.2951040267944336,-1.1931318801692505,1.7254155317889612,-2.1011935673155726,-1.5713093916522425,2.2699780464172363,3.096043117170329e-31,0.020870491862297058,0.017764374613761902,-0.0395912304520607,-0.00022931651619728655,0.00018332706531509757,0.038307227194309235,-0.05746084079146385,-9.557653427124023,0.7754590511322021,47.725399017333984,-0.3385928273200989,-3.398200273513794,-1.7335255146026611,-0.5729418396949768,-0.03230081871151924,0.11352995038032532,27.75,29.0,28.3125,32.1875,34.75,35.9375
1.0,-0.9057648330934539,-0.678233666765908,-1.6736163700551798,-0.04405412384547743,0.04543575150043451,-0.08200800818967237,-0.529238081434988,-0.3013954126764151,0.2593267412017537,-3.078549776950764,0.6246400657464953,-0.0003400048965986577,-0.000723206018726617,-0.00019567986672051196,-0.015886154227233818,-0.0006740989514958971,0.002766476465282851,-0.000187253219411652,0.2950800657272339,-1.1930962067893525,1.7254279295550745,-2.10131373027944,-1.5712855497943323,2.2699780464172363,4.153737123641205e-33,0.020493993535637856,0.01786326989531517,-0.04119943827390671,-0.00021819467656314373,0.00017814247985370457,0.0,0.019153613597154617,-9.59596061706543,0.7597975730895996,47.7164421081543,-0.3337036371231079,-3.3802437782287598,-1.7748247385025024,-0.5794699192047119,-0.0402073971927166,0.1083991527557373,27.75,29.0,28.3125,32.1875,34.75,35.9375
1.0,-0.6261307169360799,-0.24883455959379464,-1.5655322745109612,-0.05755147909305846,0.05777515680296556,-0.08725496843946631,-0.5292300690566727,-0.3014066081687259,0.259295551469564,-3.078545227633986,0.6245816242398079,-0.00034756141765211366,-0.0006300697212144043,-0.00016814009500091935,-0.016356429505858663,-0.0007686894370775083,0.00303698378225119,-0.0001828110479074458,0.2951040267944336,-1.193059967165329,1.7254636923419397,-2.1013738117613734,-1.5712974707232874,2.2699661254882812,5.572767891549584e-35,0.02084159106016159,0.01883157528936863,-0.04280170053243637,-0.00020810149726457894,0.000173243330209516,-0.09576806426048279,0.019153613597154617,-9.557653427124023,0.7016075849533081,47.692256927490234,-0.3615211248397827,-3.3995704650878906,-1.7182960510253906,-0.5621917247772217,-0.029163535684347153,0.12246491014957428,27.75,29.0,28.3125,32.1875,34.75,35.9375
1.0,-0.6261307169360799,-0.24883455959379464,-1.5655322745109612,-0.05755147909305846,0.05777515680296556,-0.08725496843946631,-0.5292300690566727,-0.3014066081687259,0.259295551469564,-3.078545227633986,0.6245816242398079,-0.00034756141765211366,-0.0006300697212144043,-0.00016814009500091935,-0.016356429505858663,-0.0007686894370775083,0.00303698378225119,-0.0001828110479074458,0.2951040267944336,-1.193059967165329,1.7254636923419397,-2.1013738117613734,-1.5712974707232874,2.2699661254882812,5.572767891549584e-35,0.02084159106016159,0.01883157528936863,-0.04280170053243637,-0.00020810149726457894,0.000173243330209516,-0.09576806426048279,0.019153613597154617,-9.557653427124023,0.7016075849533081,47.692256927490234,-0.3615211248397827,-3.3995704650878906,-1.7182960510253906,-0.5621917247772217,-0.029163535684347153,0.12246491014957428,27.75,29.0,28.3125,32.1875,34.75,35.9375
1.0,-0.5560853961468311,0.12608732566809586,-1.541974332871236,-0.0642296954002324,0.06449968308922573,-0.09649419033305419,-0.5292379434161683,-0.3013754582983322,0.25925926552726763,-3.078549918200597,0.6247170198927223,-0.00037434099420074015,-0.0009580091269304307,-0.00026940934840073455,-0.016436668618093956,-0.0011506306225692305,0.004246714706752537,-0.00017857445696588207,0.29504406452178955,-1.1930357676795502,1.7255356947528284,-2.1014701328673304,-1.5712617079364222,2.2699899673461914,7.476580200153397e-37,0.021540191024541855,0.018422558903694153,-0.04435985907912254,-0.00019890096154995263,0.00016860658070072532,-0.05746084079146385,0.019153613597154617,-9.576807022094727,0.6590895652770996,47.67792892456055,-0.355103999376297,-3.36696195602417,-1.711850881576538,-0.5356929898262024,-0.042175378650426865,0.11295890808105469,27.75,29.0,28.3125,32.1875,34.75,35.9375
1.0,-0.5560853961468311,0.12608732566809586,-1.541974332871236,-0.0642296954002324,0.06449968308922573,-0.09649419033305419,-0.5292379434161683,-0.3013754582983322,0.25925926552726763,-3.078549918200597,0.6247170198927223,-0.00037434099420074015,-0.0009580091269304307,-0.00026940934840073455,-0.016436668618093956,-0.0011506306225692305,0.004246714706752537,-0.00017857445696588207,0.29504406452178955,-1.1930357676795502,1.7255356947528284,-2.1014701328673304,-1.5712617079364222,2.2699899673461914,7.476580200153397e-37,0.021540191024541855,0.018422558903694153,-0.04435985907912254,-0.00019890096154995263,0.00016860658070072532,-0.05746084079146385,0.019153613597154617,-9.576807022094727,0.6590895652770996,47.67792892456055,-0.355103999376297,-3.36696195602417,-1.711850881576538,-0.5356929898262024,-0.042175378650426865,0.11295890808105469,27.75,29.0,28.3125,32.1875,34.75,35.9375
1.0,-0.8476604035746569,-0.5306311198643552,-1.5600361634386846,-0.05427588175580195,0.06120264973352636,-0.08978788139736164,-0.5292444996330302,-0.30138863607165994,0.25921967114645483,-3.078551851225644,0.6246407597183443,-0.00029564298020086713,-0.0011688257523932823,-0.0003348038367339629,-0.016619620518096918,-0.0013904194836739006,0.004994843887100522,-0.0001745111284595703,0.29506802558898926,-1.1929637354663392,1.7255585829364222,-2.101602693597311,-1.5712974707232874,2.2699661254882812,1.003078587771762e-38,0.022151906043291092,0.018301017582416534,-0.045635588467121124,-0.00019047962268814445,0.00016421156760770828,0.019153613597154617,-0.038307227194309235,-9.53849983215332,0.7195101380348206,47.6949462890625,-0.4049438238143921,-3.3525819778442383,-1.696109414100647,-0.5445337891578674,-0.034833475947380066,0.1023557037115097,27.75,29.0,28.3125,32.1875,34.75,35.9375
1.0,-0.8476604035746569,-0.5306311198643552,-1.5600361634386846,-0.05427588175580195,0.06120264973352636,-0.08978788139736164,-0.5292444996330302,-0.30138863607165994,0.25921967114645483,-3.078551851225644,0.6246407597183443,-0.00029564298020086713,-0.0011688257523932823,-0.0003348038367339629,-0.016619620518096918,-0.0013904194836739006,0.004994843887100522,-0.0001745111284595703,0.29506802558898926,-1.1929637354663392,1.7255585829364222,-2.101602693597311,-1.5712974707232874,2.2699661254882812,1.003078587771762e-38,0.022151906043291092,0.018301017582416534,-0.045635588467121124,-0.00019047962268814445,0.00016421156760770828,0.019153613597154617,-0.038307227194309235,-9.53849983215332,0.7195101380348206,47.6949462890625,-0.4049438238143921,-3.3525819778442383,-1.696109414100647,-0.5445337891578674,-0.034833475947380066,0.1023557037115097,27.75,29.0,28.3125,32.1875,34.75,35.9375
1.0,-0.9415360376751235,-0.8839410199509183,-1.6282202245295045,-0.049416427858071904,0.056629488218775344,-0.08805472654604503,-0.5292422305551614,-0.3013966544503244,0.2591766954872989,-3.078542949156078,0.6246196842133235,-0.00037265701069808855,-0.0010864510680366779,-0.00031044285400059037,-0.01634596356294964,-0.001855923524854153,0.0064915568770512215,-0.00017091989898966551,0.2950800657272339,-1.1929040116122742,1.725583855305807,-2.101638456384176,-1.5712855497943323,2.2699661254882812,1.3457509931989813e-40,0.021516937762498856,0.018882999196648598,-0.047150034457445145,-0.0001827431988203898,0.00016003991186153144,0.019153613597154617,-0.019153613597154617,-9.557653427124023,0.7083203792572021,47.73255920410156,-0.3447505235671997,-3.405892848968506,-1.5906271934509277,-0.5010687708854675,-0.04563038423657417,0.11077816784381866,27.75,29.0,28.3125,32.1875,34.75,35.9375
1.0,-0.9415360376751235,-0.8839410199509183,-1.6282202245295045,-0.049416427858071904,0.056629488218775344,-0.08805472654604503,-0.5292422305551614,-0.3013966544503244,0.2591766954872989,-3.078542949156078,0.6246196842133235,-0.00037265701069808855,-0.0010435780295437102,-0.0002980481753952727,-0.016448101828388042,-0.001996348741346329,0.0069247355094062026,-0.0001672574369550658,0.29509198665618896,-1.1928919714740296,1.7256429831134241,-2.1017710171141566,-1.5712974707232874,2.2699661254882812,1.8048724220503644e-42,0.02151370979845524,0.019325871020555496,-0.048044998198747635,-0.00017560999549459666,0.00015607471868861467,-0.038307227194309235,0.019153613597154617,-9.461885452270508,0.6881819367408752,47.725399017333984,-0.40635132789611816,-3.350935697555542,-1.6991701126098633,-0.5110692977905273,-0.023463919758796692,0.11927828937768936,27.75,29.0,28.3125,32.1875,34.75,35.9375
1.0,-0.6739832957550366,-0.944561111008398,-1.544490298197197,-0.05115048787315937,0.05136623683258381,-0.08763856109711199,-0.5292358213307617,-0.301400859211487,0.259156885217477,-3.0785651687383906,0.6246051275975187,-0.0002789946401169235,-0.0010435780295437102,-0.0002980481753952727,-0.016448101828388042,-0.001996348741346329,0.0069247355094062026,-0.0001672574369550658,0.29509198665618896,-1.1928919714740296,1.7256429831134241,-2.1017710171141566,-1.5712974707232874,2.2699661254882812,1.8048724220503644e-42,0.02151370979845524,0.019325871020555496,-0.048044998198747635,-0.00017560999549459666,0.00015607471868861467,-0.038307227194309235,0.019153613597154617,-9.461885452270508,0.6881819367408752,47.725399017333984,-0.40635132789611816,-3.350935697555542,-1.6991701126098633,-0.5110692977905273,-0.023463919758796692,0.11927828937768936,27.75,29.0,28.3125,32.1875,34.75,35.9375
1.0,-0.26199601016629076,-0.9199903513655632,-1.4459656715935687,-0.05213745018762847,0.05058068027384275,-0.09176433995560077,-0.5292440522501461,-0.30138848188389816,0.25912935659557207,-3.0785555607578465,0.6246224869958934,-0.00029655175467354044,-0.0008916397318135849,-0.00025195759572549647,-0.017833338160746132,-0.001237282224862071,0.004413380120481322,-0.00016322946517200915,0.29506802558898926,-1.1928554636291047,1.7256673018084925,-2.101819177667135,-1.5712974707232874,2.269954204559326,2.382207389352189e-44,0.02308426797389984,0.02035430632531643,-0.04802045598626137,-0.00016901339404284954,0.00015230145072564483,-0.038307227194309235,0.038307227194309235,-9.481039047241211,0.7530794739723206,47.699424743652344,-0.40436333417892456,-3.4256503582000732,-1.7660942077636719,-0.499820351600647,-0.029003333300352097,0.11497308313846588,27.75,29.0,28.3125,32.1875,34.75,35.9375
1.0,-0.26199601016629076,-0.9199903513655632,-1.4459656715935687,-0.05213745018762847,0.05058068027384275,-0.09176433995560077,-0.5292440522501461,-0.30138848188389816,0.25912935659557207,-3.0785555607578465,0.6246224869958934,-0.00029655175467354044,-0.0008916397318135849,-0.00025195759572549647,-0.017833338160746132,-0.001237282224862071,0.004413380120481322,-0.00016322946517200915,0.29506802558898926,-1.1928554636291047,1.7256673018084925,-2.101819177667135,-1.5712974707232874,2.269954204559326,2.382207389352189e-44,0.02308426797389984,0.02035430632531643,-0.04802045598626137,-0.00016901339404284954,0.00015230145072564483,-0.038307227194309235,0.038307227194309235,-9.481039047241211,0.7530794739723206,47.699424743652344,-0.40436333417892456,-3.4256503582000732,-1.7660942077636719,-0.499820351600647,-0.029003333300352097,0.11497308313846588,27.75,29.0,28.3125,32.1875,34.75,35.9375
1.0,0.12773144446469156,-0.4186152365204291,-1.2157182531699173,-0.05507892891937966,0.040035017811869106,-0.0941812313097227,-0.5292475047387503,-0.3013882964527974,0.2591093363822485,-3.078587988947149,0.6246092503463756,-0.0001732998005455737,-0.000896992666700462,-0.00025422042278787577,-0.017910031079124786,-0.0011584598611718013,0.004134300923447397,-0.0001700155726723637,0.29506802558898926,-1.192831502561905,1.7257159391986292,-2.1019746265807093,-1.5713093916522425,2.269941806793213,0.0,0.023216035217046738,0.02030426822602749,-0.047812264412641525,-0.00016289479390252382,0.00015914704999886453,-0.019153613597154617,0.07661445438861847,-9.404424667358398,0.7127973437309265,47.68598937988281,-0.36036020517349243,-3.3557071685791016,-1.6555193662643433,-0.48631682991981506,-0.042869653552770615,0.11263954639434814,27.75,29.0,28.3125,32.1875,34.75,35.9375
1.0,0.12773144446469156,-0.4186152365204291,-1.2157182531699173,-0.05507892891937966,0.040035017811869106,-0.0941812313097227,-0.5292475047387503,-0.3013882964527974,0.2591093363822485,-3.078587988947149,0.6246092503463756,-0.0001732998005455737,-0.000896992666700462,-0.00025422042278787577,-0.017910031079124786,-0.0011584598611718013,0.004134300923447397,-0.0001700155726723637,0.29506802558898926,-1.192831502561905,1.7257159391986292,-2.1019746265807093,-1.5713093916522425,2.269941806793213,0.0,0.023216035217046738,0.02030426822602749,-0.047812264412641525,-0.00016289479390252382,0.00015914704999886453,-0.019153613597154617,0.07661445438861847,-9.404424667358398,0.7127973437309265,47.68598937988281,-0.36036020517349243,-3.3557071685791016,-1.6555193662643433,-0.48631682991981506,-0.042869653552770615,0.11263954639434814,27.75,29.0,28.3125,32.1875,34.75,35.9375
1.0,-0.3929286367773722,-0.6385918264107892,-1.3333705578031172,-0.035158591415440844,0.015113265574819035,-0.07859803983995743,-0.529244070523334,-0.3013984330310869,0.2590645816306933,-3.078587531293255,0.6246862524009117,-0.000248441592937375,-0.0010139953623404317,-0.00029075215629389837,-0.017270408657075114,-0.0015707755965790038,0.005465123622644594,-0.0001763737038443018,0.2950800657272339,-1.1927718085101624,1.725750748311178,-2.1020342312254847,-1.5712736288653772,2.2700018882751465,0.0,0.022581128403544426,0.01975185237824917,-0.04801817983388901,-0.00015720313240308315,0.0001653256476856768,0.07661445438861847,0.1149216815829277,-9.28950309753418,0.7060845494270325,47.705692291259766,-0.37833279371261597,-3.289119243621826,-1.6567964553833008,-0.48595666885375977,-0.038069501519203186,0.12583458423614502,27.75,29.0,28.3125,32.1875,34.75,35.9375
1.0,-0.3929286367773722,-0.6385918264107892,-1.3333705578031172,-0.035158591415440844,0.015113265574819035,-0.07859803983995743,-0.529244070523334,-0.3013984330310869,0.2590645816306933,-3.078587531293255,0.6246862524009117,-0.000248441592937375,-0.0010139953623404317,-0.00029075215629389837,-0.017270408657075114,-0.0015707755965790038,0.005465123622644594,-0.0001763737038443018,0.2950800657272339,-1.1927718085101624,1.725750748311178,-2.1020342312254847,-1.5712736288653772,2.2700018882751465,0.0,0.022581128403544426,0.01975185237824917,-0.04801817983388901,-0.00015720313240308315,0.0001653256476856768,0.07661445438861847,0.1149216815829277,-9.28950309753418,0.7060845494270325,47.705692291259766,-0.37833279371261597,-3.289119243621826,-1.6567964553833008,-0.48595666885375977,-0.038069501519203186,0.12583458423614502,27.75,29.0,28.3125,32.1875,34.75,35.9375
1.0,0.18269121232406874,-0.3274252060063892,-1.3096860794284515,-0.03568167118861662,0.017899195772821164,-0.09549543107457946,-0.5292478469228817,-0.3014144720375343,0.2590147945137226,-3.078602199258091,0.6246126484742749,-0.0002498699186583915,-0.0008573490483565641,-0.0002433652003521841,-0.017344820810806117,-0.001385232835622918,0.004842773319391489,-0.00017316480492077067,0.2951040267944336,-1.192687914972641,1.7257750670062464,-2.1021415195860804,-1.5712736288653772,2.2699780464172363,0.0,0.022393617779016495,0.020055534318089485,-0.04748495668172836,-0.00015189578698482364,0.00016224244609475136,0.038307227194309235,0.07661445438861847,-9.327810287475586,0.7374180555343628,47.742408752441406,-0.41580232977867126,-3.259312868118286,-1.635277509689331,-0.489160418510437,-0.030878495424985886,0.11483873426914215,27.75,29.0,28.3125,32.1875,34.75,35.9375
1.0,0.1658477409680459,-0.13965817617361426,-1.1516380412104454,-0.03798163210659293,0.011512579113548041,-0.0906986682672154,-0.5292604519757727,-0.30139347830317664,0.25901067770409075,-3.0786167855176796,0.6246351058517132,-0.00011725121848327666,-0.0005696446992719822,-0.00015560276802292354,-0.018360070065552132,-0.0007249592775081272,0.0026654556658238576,-0.00016941463005032384,0.29506802558898926,-1.1926875871470948,1.7258113066302698,-2.1022612057127894,-1.5712974707232874,2.269954204559326,0.0,0.02319626696407795,0.021216047927737236,-0.0471729040145874,-0.00014693575212731957,0.00015870820789132267,0.17238251864910126,0.05746084079146385,-9.251194953918457,0.6523714661598206,47.711063385009766,-0.40185919404029846,-3.3084094524383545,-1.6304810047149658,-0.5077335834503174,-0.03738594055175781,0.12173409014940262,27.75,29.0,28.3125,32.1875,34.75,35.9375
1.0,0.1658477409680459,-0.13965817617361426,-1.1516380412104454,-0.03798163210659293,0.011512579113548041,-0.0906986682672154,-0.5292604519757727,-0.30139347830317664,0.25901067770409075,-3.0786167855176796,0.6246351058517132,-0.00011725121848327666,-0.0005696446992719822,-0.00015560276802292354,-0.018360070065552132,-0.0007249592775081272,0.0026654556658238576,-0.00016941463005032384,0.29506802558898926,-1.1926875871470948,1.7258113066302698,-2.1022612057127894,-1.5712974707232874,2.269954204559326,0.0,0.02319626696407795,0.021216047927737236,-0.0471729040145874,-0.00014693575212731957,0.00015870820789132267,0.17238251864910126,0.05746084079146385,-9.251194953918457,0.6523714661598206,47.711063385009766,-0.40185919404029846,-3.3084094524383545,-1.6304810047149658,-0.5077335834503174,-0.03738594055175781,0.12173409014940262,27.75,29.0,28.3125,32.1875,34.75,35.9375
1.0,0.12477472802250154,-0.3005607686459254,-0.9492438209064438,-0.03937650021694418,0.006947479018534318,-0.08396046739664115,-0.529259086435612,-0.30137563501220566,0.2589660248107534,-3.0785694598324067,0.6247020822789151,-0.00013314315122822323,-0.00035523605246291876,-9.031795633525407e-05,-0.019157034661596777,5.498450611451574e-05,9.921126479497403e-05,-0.00016542258900298249,0.29504406452178955,-1.1926514369300385,1.7258833090411585,-2.102344652215475,-1.5713217894183558,2.2699780464172363,0.0,0.02392878383398056,0.021713759750127792,-0.04572099447250366,-0.0001422891073161736,0.00015528747462667525,0.24899697303771973,0.038307227194309235,-9.193734169006348,0.6904177665710449,47.7191276550293,-0.42112550139427185,-3.303725481033325,-1.6326816082000732,-0.525874674320221,-0.027937591075897217,0.11983612179756165,27.75,29.0,28.3125,32.1875,34.75,35.9375
1.0,0.12477472802250154,-0.3005607686459254,-0.9492438209064438,-0.03937650021694418,0.006947479018534318,-0.08396046739664115,-0.529259086435612,-0.30137563501220566,0.2589660248107534,-3.0785694598324067,0.6247020822789151,-0.00013314315122822323,-0.00035523605246291876,-9.031795633525407e-05,-0.019157034661596777,5.498450611451574e-05,9.921126479497403e-05,-0.00016542258900298249,0.29504406452178955,-1.1926514369300385,1.7258833090411585,-2.102344652215475,-1.5713217894183558,2.2699780464172363,0.0,0.02392878383398056,0.021713759750127792,-0.04572099447250366,-0.0001422891073161736,0.00015528747462667525,0.24899697303771973,0.038307227194309235,-9.193734169006348,0.6904177665710449,47.7191276550293,-0.42112550139427185,-3.303725481033325,-1.6326816082000732,-0.525874674320221,-0.027937591075897217,0.11983612179756165,27.75,29.0,28.3125,32.1875,34.75,35.9375
1.0,0.9200261474659039,-0.17132395352372592,-0.8178407528421633,-0.0511391848218572,0.023504080075923063,-0.09899909966527339,-0.5292583473789461,-0.30139529726752917,0.25894779931911155,-3.078650331621593,0.6246030627086486,-0.0001196850557558759,-0.0006810860390886941,-0.00019058407704566655,-0.01878514573728996,-0.00048180412801183763,0.0018348500245623132,-0.00016252973593537895,0.29506802558898926,-1.1926154655269166,1.7258952299701136,-2.1024285755553187,-1.5712736288653772,2.269929885864258,0.0,0.024028494954109192,0.02100304886698723,-0.04692675173282623,-0.00013792735990136862,0.00015200930647552013,0.2106897532939911,0.0,-9.117119789123535,0.6881819367408752,47.69673538208008,-0.40968888998031616,-3.285856246948242,-1.5842595100402832,-0.5051164627075195,-0.05502564460039139,0.10292191803455353,27.75,29.0,28.3125,32.1875,34.75,35.9375
1.0,0.9200261474659039,-0.17132395352372592,-0.8178407528421633,-0.0511391848218572,0.023504080075923063,-0.09899909966527339,-0.5292583473789461,-0.30139529726752917,0.25894779931911155,-3.078650331621593,0.6246030627086486,-0.0001196850557558759,-0.0006810860390886941,-0.00019058407704566655,-0.01878514573728996,-0.00048180412801183763,0.0018348500245623132,-0.00016252973593537895,0.29506802558898926,-1.1926154655269166,1.7258952299701136,-2.1024285755553187,-1.5712736288653772,2.269929885864258,0.0,0.024028494954109192,0.02100304886698723,-0.04692675173282623,-0.00013792735990136862,0.00015200930647552013,0.2106897532939911,0.0,-9.117119789123535,0.6881819367408752,47.69673538208008,-0.40968888998031616,-3.285856246948242,-1.5842595100402832,-0.5051164627075195,-0.05502564460039139,0.10292191803455353,27.75,29.0,28.3125,32.1875,34.75,35.9375
1.0,0.01811660613127833,-0.41859478068092637,-0.9829554788079505,-0.04802741668564054,-0.0037752164733548896,-0.0794186015175043,-0.5292558731381112,-0.30139452827587915,0.2588856901773749,-3.0786315637335377,0.6246382677514627,-0.0001532169563273165,-0.0004528311442334417,-0.00012111101541700292,-0.019026018194081163,3.483644178811024e-05,0.00013582791622560226,-0.00015890694677290747,0.29506802558898926,-1.1925435823253174,1.725966755543844,-2.1025477848448695,-1.5712736288653772,2.269954204559326,0.0,0.02398434281349182,0.021258661523461342,-0.04536238685250282,-0.00013382524775806814,0.00014886616554576904,0.26815059781074524,0.07661445438861847,-9.040505409240723,0.7418897151947021,47.712860107421875,-0.47104954719543457,-3.251655101776123,-1.5858594179153442,-0.5512452125549316,-0.040964752435684204,0.13041426241397858,27.75,29.0,28.3125,32.1875,34.75,35.9375
1.0,0.01811660613127833,-0.41859478068092637,-0.9829554788079505,-0.04802741668564054,-0.0037752164733548896,-0.0794186015175043,-0.5292558731381112,-0.30139452827587915,0.2588856901773749,-3.0786315637335377,0.6246382677514627,-0.0001532169563273165,-0.0004528311442334417,-0.00012111101541700292,-0.019026018194081163,3.483644178811024e-05,0.00013582791622560226,-0.00015890694677290747,0.29506802558898926,-1.1925435823253174,1.725966755543844,-2.1025477848448695,-1.5712736288653772,2.269954204559326,0.0,0.02398434281349182,0.021258661523461342,-0.04536238685250282,-0.00013382524775806814,0.00014886616554576904,0.26815059781074524,0.07661445438861847,-9.040505409240723,0.7418897151947021,47.712860107421875,-0.47104954719543457,-3.251655101776123,-1.5858594179153442,-0.5512452125549316,-0.040964752435684204,0.13041426241397858,27.75,29.0,28.3125,32.1875,34.75,35.9375
1.0,0.10758892855382729,-0.6750325655318432,-0.9967716981343091,-0.04057397832621376,-0.0064215633564560035,-0.08464020551871611,-0.5292709405947205,-0.3013829868595692,0.2588586882631901,-3.0786187260501405,0.6246741076281725,-0.00013015796539155697,-9.97988980628929e-05,7.264812867708681e-05,-0.01950459072074504,0.000853577006573393,-0.002548375541278149,-0.0002938588513511556,0.29504403471946716,-1.1924956899932404,1.7259796301471155,-2.1026188335814417,-1.5712855497943323,2.269954204559326,-0.00013841032341588289,0.023953286930918694,0.02189338393509388,-0.04315976798534393,-0.0001299597934121266,0.00014609257050324231,0.19153614342212677,0.05746084079146385,-9.136273384094238,0.7553206086158752,47.72092056274414,-0.4030520021915436,-3.201308250427246,-1.5365958213806152,-0.5846928358078003,-0.04034391790628433,0.11790113896131516,27.75,29.0,28.3125,32.1875,34.75,35.9375
1.0,0.6481637094697574,-0.40456432989061486,-0.8238780546550946,-0.04416398468317412,0.008439580740628377,-0.09435650234305024,-0.5292709467676713,-0.30139031852177206,0.2588327381256756,-3.07863257419071,0.6246962644335431,-7.847603341214322e-05,-0.00033809041934525555,0.0003773572208028307,-0.01924607440879654,0.00028868333408196833,-0.0007152767889112549,-0.0008753362793838843,0.2950558364391327,-1.1924597483924408,1.7260149160968226,-2.102727552453512,-1.5712855497943323,2.2699780464172363,-0.0007466876995749772,0.023601779714226723,0.02220955491065979,-0.045042604207992554,-0.00012631200661417097,0.00011863341205753386,0.24899697303771973,0.17238251864910126,-9.059659004211426,0.7262282371520996,47.718231201171875,-0.3926889896392822,-3.2031784057617188,-1.5213303565979004,-0.5935318470001221,-0.020736031234264374,0.12849915027618408,27.75,29.0,28.3125,32.1875,34.75,35.9375
1.0,0.6481637094697574,-0.40456432989061486,-0.8238780546550946,-0.04416398468317412,0.008439580740628377,-0.09435650234305024,-0.5292709467676713,-0.30139031852177206,0.2588327381256756,-3.07863257419071,0.6246962644335431,-7.847603341214322e-05,-0.00033809041934525555,0.0003773572208028307,-0.01924607440879654,0.00028868333408196833,-0.0007152767889112549,-0.0008753362793838843,0.2950558364391327,-1.1924597483924408,1.7260149160968226,-2.102727552453512,-1.5712855497943323,2.2699780464172363,-0.0007466876995749772,0.023601779714226723,0.02220955491065979,-0.045042604207992554,-0.00012631200661417097,0.00011863341205753386,0.24899697303771973,0.17238251864910126,-9.059659004211426,0.7262282371520996,47.718231201171875,-0.3926889896392822,-3.2031784057617188,-1.5213303565979004,-0.5935318470001221,-0.020736031234264374,0.12849915027618408,27.75,29.0,28.3125,32.1875,34.75,35.9375
1.0,0.5508011923704057,-0.6244874287164134,-0.8359478504538802,-0.04663894939962007,0.01538617683440056,-0.09377207817038317,-0.5292845098386012,-0.301386997743601,0.2587916435590182,-3.0786344346345986,0.6246578259139274,-9.589080791926898e-05,-0.00032415499898299263,0.00031987975984082873,-0.019795390333536948,0.0004691583137776362,-0.0013221824347176899,-0.0007718806922325323,0.29504382610321045,-1.1923876267722626,1.7260273138629358,-2.1027995548644007,-1.5712855497943323,2.269941806793213,-0.0006477543502114713,0.024357236921787262,0.022543534636497498,-0.04549889639019966,-0.00012286291166674346,0.00011408253340050578,0.24899697303771973,0.17238251864910126,-9.155426979064941,0.6881819367408752,47.70658874511719,-0.3405734598636627,-3.1695337295532227,-1.5402476787567139,-0.6059318780899048,-0.02991020306944847,0.11541708558797836,27.75,29.0,28.3125,32.1875,34.75,35.9375
1.0,0.5508011923704057,-0.6244874287164134,-0.8359478504538802,-0.04663894939962007,0.01538617683440056,-0.09377207817038317,-0.5292845098386012,-0.301386997743601,0.2587916435590182,-3.0786344346345986,0.6246578259139274,-9.589080791926898e-05,-0.00032415499898299263,0.00031987975984082873,-0.019795390333536948,0.0004691583137776362,-0.0013221824347176899,-0.0007718806922325323,0.29504382610321045,-1.1923876267722626,1.7260273138629358,-2.1027995548644007,-1.5712855497943323,2.269941806793213,-0.0006477543502114713,0.024357236921787262,0.022543534636497498,-0.04549889639019966,-0.00012286291166674346,0.00011408253340050578,0.24899697303771973,0.17238251864910126,-9.155426979064941,0.6881819367408752,47.70658874511719,-0.3405734598636627,-3.1695337295532227,-1.5402476787567139,-0.6059318780899048,-0.02991020306944847,0.11541708558797836,27.75,29.0,28.3125,32.1875,34.75,35.9375
1.0,0.911263541395693,-0.25777682883873,-0.6316563511489457,-0.06555330067846407,0.03388626940928119,-0.10056101123136298,-0.529259202788843,-0.3014065682962049,0.25873285287797587,-3.0786212004264604,0.6245591675486616,-0.00011207766378064138,-0.0003159132670209432,0.0002715546723032508,-0.020640720224961023,0.0007038527188100307,-0.0021081693381422447,-0.0006875955900144894,0.29509177803993225,-1.1923391383937378,1.7261231581317347,-2.1029192409911097,-1.5713093916522425,2.269929885864258,-0.0005662799230776727,0.02549063041806221,0.023147929459810257,-0.046416424214839935,-0.00011959714174736291,0.00011116303357994184,0.3064578175544739,0.07661445438861847,-9.174580574035645,0.7396538853645325,47.70658874511719,-0.44623932242393494,-3.220632553100586,-1.5422592163085938,-0.6019852757453918,-0.030509021133184433,0.11972536146640778,27.75,29.0,28.3125,32.1875,34.75,35.9375
1.0,0.911263541395693,-0.25777682883873,-0.6316563511489457,-0.06555330067846407,0.03388626940928119,-0.10056101123136298,-0.529259202788843,-0.3014065682962049,0.25873285287797587,-3.0786212004264604,0.6245591675486616,-0.00011207766378064138,-0.0003159132670209432,0.0002715546723032508,-0.020640720224961023,0.0007038527188100307,-0.0021081693381422447,-0.0006875955900144894,0.29509177803993225,-1.1923391383937378,1.7261231581317347,-2.1029192409911097,-1.5713093916522425,2.269929885864258,-0.0005662799230776727,0.02549063041806221,0.023147929459810257,-0.046416424214839935,-0.00011959714174736291,0.00011116303357994184,0.3064578175544739,0.07661445438861847,-9.174580574035645,0.7396538853645325,47.70658874511719,-0.44623932242393494,-3.220632553100586,-1.5422592163085938,-0.6019852757453918,-0.030509021133184433,0.11972536146640778,27.75,29.0,28.3125,32.1875,34.75,35.9375
1.0,0.4932633142053672,-0.5690039059275588,-0.7364189098072885,-0.05936320493982082,0.022851366500186505,-0.088761929420492,-0.5292752075846033,-0.3013904180815691,0.2587120012085987,-3.0786217374327167,0.6246358929947554,-0.00010597244944503988,0.00013042032850962195,0.0003687185289628917,-0.021988697085919256,0.001984901804701251,-0.006307390233364187,-0.0006207074852199889,0.29505592584609985,-1.1923028987697144,1.7261350790606897,-2.102978368798727,-1.5712974707232874,2.269941806793213,-0.0005029469029977918,0.026574451476335526,0.024257533252239227,-0.04421957954764366,-0.0001165010326076299,0.00010847676458070055,0.2106897532939911,0.15322890877723694,-9.097966194152832,0.7262282371520996,47.68061828613281,-0.409015953540802,-3.213225841522217,-1.5955334901809692,-0.6428371667861938,-0.0463651567697525,0.12180730700492859,27.75,29.0,28.3125,32.1875,34.75,35.9375
1.0,0.4415100164340805,-0.24057682555809184,-0.7308279960567715,-0.05238720537930203,0.009772472500445415,-0.09456561392070591,-0.5292692560675353,-0.301392317844624,0.2586571291542849,-3.0786146216731023,0.6247116907699499,-0.00020070309870432333,0.00034513540700390247,0.0004027890748196206,-0.022614486904888185,0.0025733916937308236,-0.00824152063607568,-0.0005671662849475773,0.29505595564842224,-1.1922428470901032,1.7261951605426233,-2.103049417535299,-1.5712617079364222,2.2699899673461914,-0.00045235748984850943,0.027078675106167793,0.0247777309268713,-0.0432223342359066,-0.0001135609854827635,0.00010592287435429171,0.17238251864910126,0.0,-8.96389102935791,0.7821771502494812,47.71464920043945,-0.44843918085098267,-3.191009998321533,-1.5728286504745483,-0.701324999332428,-0.03922170400619507,0.11975085735321045,27.75,29.0,28.3125,32.1875,34.75,35.9375
1.0,0.4415100164340805,-0.24057682555809184,-0.7308279960567715,-0.05238720537930203,0.009772472500445415,-0.09456561392070591,-0.5292692560675353,-0.301392317844624,0.2586571291542849,-3.0786146216731023,0.6247116907699499,-0.00020070309870432333,0.00034513540700390247,0.0004027890748196206,-0.022614486904888185,0.0025733916937308236,-0.00824152063607568,-0.0005671662849475773,0.29505595564842224,-1.1922428470901032,1.7261951605426233,-2.103049417535299,-1.5712617079364222,2.2699899673461914,-0.00045235748984850943,0.027078675106167793,0.0247777309268713,-0.0432223342359066,-0.0001135609854827635,0.00010592287435429171,0.17238251864910126,0.0,-8.96389102935791,0.7821771502494812,47.71464920043945,-0.44843918085098267,-3.191009998321533,-1.5728286504745483,-0.701324999332428,-0.03922170400619507,0.11975085735321045,27.75,29.0,28.3125,32.1875,34.75,35.9375
1.0,0.600260656855248,-0.43176745332306815,-0.9186149653961324,-0.04013518070779502,0.005723939959389723,-0.0866160920731701,-0.529276000710922,-0.30137941682307634,0.25862022604645385,-3.0785478129812534,0.6246981648978578,-0.00016127756266537716,0.00025646778834704126,0.00034960819621452207,-0.022219455410941273,0.001852528460112734,-0.005896105552344424,-0.0005241717167201096,0.2950439155101776,-1.1921950739673157,1.7262314001666468,-2.1031228504576625,-1.5713337103473108,2.2699780464172363,-0.000411019689636305,0.02661716751754284,0.025008967146277428,-0.0454457551240921,-0.00011076537339249626,0.00010348669457016513,0.15322890877723694,0.15322890877723694,-9.117119789123535,0.7195101380348206,47.705692291259766,-0.4581455588340759,-3.1269891262054443,-1.5403506755828857,-0.7393075227737427,-0.04382573813199997,0.11499567329883575,27.75,29.0,28.3125,32.1875,34.75,35.9375
1.0,0.600260656855248,-0.43176745332306815,-0.9186149653961324,-0.04013518070779502,0.005723939959389723,-0.0866160920731701,-0.529276000710922,-0.30137941682307634,0.25862022604645385,-3.0785478129812534,0.6246981648978578,-0.00016127756266537716,0.00025646778834704126,0.00034960819621452207,-0.022219455410941273,0.001852528460112734,-0.005896105552344424,-0.0005241717167201096,0.2950439155101776,-1.1921950739673157,1.7262314001666468,-2.1031228504576625,-1.5713337103473108,2.2699780464172363,-0.000411019689636305,0.02661716751754284,0.025008967146277428,-0.0454457551240921,-0.00011076537339249626,0.00010348669457016513,0.15322890877723694,0.15322890877723694,-9.117119789123535,0.7195101380348206,47.705692291259766,-0.4581455588340759,-3.1269891262054443,-1.5403506755828857,-0.7393075227737427,-0.04382573813199997,0.11499567329883575,27.75,29.0,28.3125,32.1875,34.75,35.9375
1.0,0.7004131369005273,-0.4230360895741889,-0.9269824467815452,-0.0456072195882529,0.015613780895229305,-0.08972007313549091,-0.5292661359084303,-0.3013888899803737,0.25857228509827723,-3.078593057099434,0.6246881713203992,-0.0001976925382059411,0.0005092778262061476,0.0004053757961466123,-0.02241872473818772,0.0016656113787468455,-0.00529315528070209,-0.0005055453033620079,0.29505598545074463,-1.1921473008445282,1.7263034025775355,-2.1032425365843714,-1.5712855497943323,2.2699780464172363,-0.0003766069421544671,0.026292385533452034,0.02626357041299343,-0.04700683802366257,-0.00010810440289787948,0.00011873409675899893,0.17238251864910126,0.13407529890537262,-9.136273384094238,0.6993717551231384,47.7218132019043,-0.45858538150787354,-3.1020493507385254,-1.5087013244628906,-0.736567497253418,-0.041407905519008636,0.11582387983798981,27.75,29.0,28.3125,32.1875,34.75,35.9375
1.0,0.7004131369005273,-0.4230360895741889,-0.9269824467815452,-0.0456072195882529,0.015613780895229305,-0.08972007313549091,-0.5292661359084303,-0.3013888899803737,0.25857228509827723,-3.078593057099434,0.6246881713203992,-0.0001976925382059411,0.0005092778262061476,0.0004053757961466123,-0.02241872473818772,0.0016656113787468455,-0.00529315528070209,-0.0005055453033620079,0.29505598545074463,-1.1921473008445282,1.7263034025775355,-2.1032425365843714,-1.5712855497943323,2.2699780464172363,-0.0003766069421544671,0.026292385533452034,0.02626357041299343,-0.04700683802366257,-0.00010810440289787948,0.00011873409675899893,0.17238251864910126,0.13407529890537262,-9.136273384094238,0.6993717551231384,47.7218132019043,-0.45858538150787354,-3.1020493507385254,-1.5087013244628906,-0.736567497253418,-0.041407905519008636,0.11582387983798981,27.75,29.0,28.3125,32.1875,34.75,35.9375
1.0,-0.32560475481935336,-0.22427332565951297,-0.8263415052688907,-0.058691596138481066,0.009613103635480298,-0.08539688224648104,-0.5292533389505241,-0.30140602729566485,0.25852158423576616,-3.078575620245577,0.6246079985906712,-0.00025444342037100914,0.0003752944242239221,0.0003461765588996913,-0.02323161460415183,0.0018625554754438888,-0.005954670463675894,-0.0004763340354676116,0.2950918674468994,-1.1920868915370484,1.7263510862933558,-2.1033030949034632,-1.5712974707232874,2.2699661254882812,-0.00034751478233374655,0.027646375820040703,0.026486240327358246,-0.047893308103084564,-0.00010556820052443072,0.00011854961485369131,0.15322890877723694,0.05746084079146385,-9.136273384094238,0.6344689130783081,47.71464920043945,-0.4545220136642456,-3.053168296813965,-1.6094489097595215,-0.7645773887634277,-0.037384506314992905,0.12243643403053284,27.75,29.0,28.3125,32.1875,34.75,35.9375
1.0,-0.32560475481935336,-0.22427332565951297,-0.8263415052688907,-0.058691596138481066,0.009613103635480298,-0.08539688224648104,-0.5292533389505241,-0.30140602729566485,0.25852158423576616,-3.078575620245577,0.6246079985906712,-0.00025444342037100914,0.0003752944242239221,0.0003461765588996913,-0.02323161460415183,0.0018625554754438888,-0.005954670463675894,-0.0004763340354676116,0.2950918674468994,-1.1920868915370484,1.7263510862933558,-2.1033030949034632,-1.5712974707232874,2.2699661254882812,-0.00034751478233374655,0.027646375820040703,0.026486240327358246,-0.047893308103084564,-0.00010556820052443072,0.00011854961485369131,0.15322890877723694,0.05746084079146385,-9.136273384094238,0.6344689130783081,47.71464920043945,-0.4545220136642456,-3.053168296813965,-1.6094489097595215,-0.7645773887634277,-0.037384506314992905,0.12243643403053284,27.75,29.0,28.3125,32.1875,34.75,35.9375
1.0,-0.0016947385293722833,-0.2872734390704996,-0.6947713660045436,-0.05469414389396679,0.03641937216813602,-0.08703969810830414,-0.5292645572440219,-0.3013920357301062,0.25847677789935075,-3.078549048115142,0.6246600968948997,-0.00022028041129572553,0.0001679489576266358,0.00026705057705979146,-0.02375583948697618,0.0018561548914842116,-0.00595154049647066,-0.0004491914775549721,0.2950679063796997,-1.1920264822295685,1.726398770009176,-2.103422781030172,-1.5713217894183558,2.2699780464172363,-0.0003225975960958749,0.028747476637363434,0.026429254561662674,-0.048942290246486664,-0.00010314809333067387,0.00011615778203122318,0.15322890877723694,0.019153613597154617,-9.078812599182129,0.7396538853645325,47.70390319824219,-0.4891590178012848,-3.168548822402954,-1.4989917278289795,-0.7817547917366028,-0.03203710541129112,0.12344814836978912,27.75,29.0,28.3125,32.1875,34.75,35.9375
1.0,-0.15056373694268887,-0.42468331822034505,-0.8094040227665474,-0.05238486500614728,0.041969726706073913,-0.08771769839855524,-0.5292528104278899,-0.30141335121001084,0.2584368970901851,-3.078585368739091,0.6245907146532137,-0.00023765922834727485,0.0003916676842854157,0.00032199098735007206,-0.02426183070512632,0.0018492383063376894,-0.005938000564086157,-0.0004255965857472197,0.29510393738746643,-1.1919785600951691,1.7264469305621546,-2.1035195789732875,-1.5712974707232874,2.2699661254882812,-0.00030101119773462415,0.028899207711219788,0.027712160721421242,-0.05039190500974655,-0.00010083671804750338,0.00011372186418157071,0.09576806426048279,0.15322890877723694,-9.078812599182129,0.7754590511322021,47.72092056274414,-0.5088527202606201,-3.1371822357177734,-1.5740466117858887,-0.802029013633728,-0.03375553339719772,0.12149912118911743,27.75,29.0,28.3125,32.1875,34.75,35.9375
