Tylouw/Master_Thesis_Code/test_recorded_data/trial1/insertion_8_2026-01-22_16-05-51.csv
num_insertion,tcp_force_x[N],tcp_force_y[N],tcp_force_z[N],tcp_force_rx[Nm?],tcp_force_ry[Nm?],tcp_force_rz[Nm?],tcp_pose_x[m],tcp_pose_y[m],tcp_pose_z[m],tcp_pose_rx[rot_vec_x],tcp_pose_ry[rot_vec_y],tcp_pose_rz[rot_vec_z],tcp_velo_x[m/s],tcp_velo_y[m/s],tcp_velo_z[m/s],tcp_velo_rx[rot_vec_x/s],tcp_velo_ry[rot_vec_y/s],tcp_velo_rz[rot_vec_z/s],q1[rad],q2[rad],q3[rad],q4[rad],q5[rad],q6[rad],qd1[rad/s],qd2[rad/s],qd3[rad/s],qd4[rad/s],qd5[rad/s],qd6[rad/s],tool_acc_x,tool_acc_y,tool_acc_z,current_of_whole_robot[A],voltage_of_whole_robot[V],current_J1[A],current_J2[A],current_J3[A],current_J4[A],current_J5[A],current_J6[A],temp_J1[C],temp_J2[C],temp_J3[C],temp_J4[C],temp_J5[C],temp_J6[C]
1.0,0.6269671649868981,0.32267384409123345,-1.7204410997778274,0.013227026087816635,-0.09071718475638232,-0.08648328532482681,-0.5292669031040544,-0.30138981484264266,0.260066580592255,-3.0787456731630978,0.6246990787543548,0.00025630860240146623,0.0006271745403258332,-0.0007419277502124376,-8.016242318546891e-05,-0.0001779852291778567,0.0012399463004764012,-0.00036098371941110973,0.29505664110183716,-1.1939781469157715,1.7246564070331019,-2.100091119805807,-1.5712855497943323,2.2699668407440186,0.0015348473098129034,-0.0003728036826942116,0.0011465719435364008,-0.0020108437165617943,-0.00019269890617579222,0.0018954190891236067,0.49799394607543945,-0.038307227194309235,-9.366117477416992,0.7575564384460449,47.70838165283203,-0.13007865846157074,-3.958828926086426,-2.356245517730713,-0.35317283868789673,-0.02643711492419243,0.09328047931194305,27.75,29.0,28.25,32.1875,34.75,35.9375
1.0,0.6269671649868981,0.32267384409123345,-1.7204410997778274,0.013227026087816635,-0.09071718475638232,-0.08648328532482681,-0.5292669031040544,-0.30138981484264266,0.260066580592255,-3.0787456731630978,0.6246990787543548,0.00025630860240146623,0.0006271745403258332,-0.0007419277502124376,-8.016242318546891e-05,-0.0001779852291778567,0.0012399463004764012,-0.00036098371941110973,0.29505664110183716,-1.1939781469157715,1.7246564070331019,-2.100091119805807,-1.5712855497943323,2.2699668407440186,0.0015348473098129034,-0.0003728036826942116,0.0011465719435364008,-0.0020108437165617943,-0.00019269890617579222,0.0018954190891236067,0.49799394607543945,-0.038307227194309235,-9.366117477416992,0.7575564384460449,47.70838165283203,-0.13007865846157074,-3.958828926086426,-2.356245517730713,-0.35317283868789673,-0.02643711492419243,0.09328047931194305,27.75,29.0,28.25,32.1875,34.75,35.9375
1.0,0.22294449047150383,-0.3374490033254366,-1.9188327784309163,-0.0037331206371187774,-0.054897747183919425,-0.09485120428401767,-0.5292635382373825,-0.30138125867640186,0.2600309296500228,-3.0786968884395174,0.6247081495444872,0.00012296396964300594,0.0003794194417141701,-0.0007097250793809106,-8.429607585250632e-06,-8.396594856013979e-05,0.0009239700546619226,-5.1849267635521896e-05,0.29504454135894775,-1.1939421457103272,1.7246807257281702,-2.1000548801817835,-1.5712855497943323,2.2699666023254395,0.0013606350403279066,-1.2171082744316664e-05,0.0003102163609582931,-0.0012055523693561554,-0.00019052665447816253,0.0014123901491984725,0.13407529890537262,0.15322890877723694,-9.442731857299805,0.6948947906494141,47.7164421081543,-0.10728463530540466,-3.9122509956359863,-2.3213188648223877,-0.352683961391449,-0.0317976251244545,0.08106479793787003,27.75,29.0,28.25,32.1875,34.75,35.9375
1.0,0.22294449047150383,-0.3374490033254366,-1.9188327784309163,-0.0037331206371187774,-0.054897747183919425,-0.09485120428401767,-0.5292635382373825,-0.30138125867640186,0.2600309296500228,-3.0786968884395174,0.6247081495444872,0.00012296396964300594,0.0003794194417141701,-0.0007097250793809106,-8.429607585250632e-06,-8.396594856013979e-05,0.0009239700546619226,-5.1849267635521896e-05,0.29504454135894775,-1.1939421457103272,1.7246807257281702,-2.1000548801817835,-1.5712855497943323,2.2699666023254395,0.0013606350403279066,-1.2171082744316664e-05,0.0003102163609582931,-0.0012055523693561554,-0.00019052665447816253,0.0014123901491984725,0.13407529890537262,0.15322890877723694,-9.442731857299805,0.6948947906494141,47.7164421081543,-0.10728463530540466,-3.9122509956359863,-2.3213188648223877,-0.352683961391449,-0.0317976251244545,0.08106479793787003,27.75,29.0,28.25,32.1875,34.75,35.9375
1.0,-1.03860851004927,-1.6850710973075804,-1.846707232250917,-0.06642228681861778,0.012350612581593132,-0.09072573258246378,-0.5292615544266247,-0.3013830710186648,0.2600294827567033,-3.078718941264107,0.6246738397395678,8.727175198185733e-05,0.0005789538751599615,-0.00048276127791027423,-0.00037561151206595955,0.0005081643472122301,-0.0010241267817586324,-2.469391167697014e-05,0.2950444519519806,-1.1939421457103272,1.7246812025653284,-2.1000424824156703,-1.5712617079364222,2.269942283630371,0.00109302275814116,-1.6329060770203796e-07,0.0007782151806168258,0.0003504506603349,-0.00018580121104605496,0.0011181076988577843,-0.019153613597154617,0.24899697303771973,-9.634267807006836,0.7441308498382568,47.6976318359375,-0.1737489551305771,-3.9429166316986084,-2.344282627105713,-0.37062424421310425,-0.04006302356719971,0.10293302685022354,27.75,29.0,28.25,32.1875,34.75,35.9375
1.0,-2.642813634155239,-2.952117320854346,-1.9373865235882686,-0.1134850961107258,0.07122836148008765,-0.08324578159775899,-0.529235604860319,-0.30138136998848575,0.26000732000289106,-3.0786525786192933,0.6246608648005243,-6.894076287776315e-05,0.0009005069867145213,-0.0004235343896464444,-0.0007644088579943743,0.0011366815664459555,-0.0030901199019595896,9.971138256763506e-05,0.2950564920902252,-1.1939540666392823,1.7247288862811487,-2.0999585590758265,-1.5712736288653772,2.2699546813964844,0.0011554625816643238,-2.1907518021890837e-09,0.0012911992380395532,0.001996781909838319,-0.00018113887927029282,0.0010566732380539179,-0.26815056800842285,0.325611412525177,-9.749189376831055,0.6926589012145996,47.71464920043945,-0.17080070078372955,-3.5965614318847656,-2.129901885986328,-0.4171745181083679,-0.030772175639867783,0.11051739752292633,27.75,29.0,28.25,32.1875,34.75,35.9375
1.0,-2.642813634155239,-2.952117320854346,-1.9373865235882686,-0.1134850961107258,0.07122836148008765,-0.08324578159775899,-0.529235604860319,-0.30138136998848575,0.26000732000289106,-3.0786525786192933,0.6246608648005243,-6.894076287776315e-05,0.0009005069867145213,-0.0004235343896464444,-0.0007644088579943743,0.0011366815664459555,-0.0030901199019595896,9.971138256763506e-05,0.2950564920902252,-1.1939540666392823,1.7247288862811487,-2.0999585590758265,-1.5712736288653772,2.2699546813964844,0.0011554625816643238,-2.1907518021890837e-09,0.0012911992380395532,0.001996781909838319,-0.00018113887927029282,0.0010566732380539179,-0.26815056800842285,0.325611412525177,-9.749189376831055,0.6926589012145996,47.71464920043945,-0.17080070078372955,-3.5965614318847656,-2.129901885986328,-0.4171745181083679,-0.030772175639867783,0.11051739752292633,27.75,29.0,28.25,32.1875,34.75,35.9375
1.0,-3.1331460746521635,-3.1896030157632285,-2.0154183761863718,-0.1288015917574569,0.11684883976996949,-0.07619688169970042,-0.5292354208064041,-0.3013800434653195,0.2600330460819173,-3.078667479467009,0.6246437176171834,2.933901855518369e-06,0.0026216725296456162,0.00022338577870841493,-0.003484954189172307,0.0030263793932727595,-0.009273081029809033,4.380831473669016e-05,0.29505643248558044,-1.1939900678447266,1.7247188727008265,-2.0999580822386683,-1.5712855497943323,2.269942045211792,0.0009622941724956036,-2.939173210370072e-11,0.007429197430610657,0.0023240516893565655,-0.00017669409862719476,0.0009195355814881623,-0.40222588181495667,0.26815059781074524,-9.768342971801758,0.7777001857757568,47.692256927490234,-0.18351228535175323,-3.4751083850860596,-2.477781057357788,-0.48216742277145386,-0.03178134560585022,0.09782204031944275,27.75,29.0,28.25,32.1875,34.75,35.9375
1.0,-3.1331460746521635,-3.1896030157632285,-2.0154183761863718,-0.1288015917574569,0.11684883976996949,-0.07619688169970042,-0.5292354208064041,-0.3013800434653195,0.2600330460819173,-3.078667479467009,0.6246437176171834,2.933901855518369e-06,0.0026216725296456162,0.00022338577870841493,-0.003484954189172307,0.0030263793932727595,-0.009273081029809033,4.380831473669016e-05,0.29505643248558044,-1.1939900678447266,1.7247188727008265,-2.0999580822386683,-1.5712855497943323,2.269942045211792,0.0009622941724956036,-2.939173210370072e-11,0.007429197430610657,0.0023240516893565655,-0.00017669409862719476,0.0009195355814881623,-0.40222588181495667,0.26815059781074524,-9.768342971801758,0.7777001857757568,47.692256927490234,-0.18351228535175323,-3.4751083850860596,-2.477781057357788,-0.48216742277145386,-0.03178134560585022,0.09782204031944275,27.75,29.0,28.25,32.1875,34.75,35.9375
1.0,-3.4474311985739625,-2.7310446131455732,-1.613536485407876,-0.12297903811341801,0.13086411031707665,-0.08740025225631541,-0.5292302874649496,-0.30139463589155846,0.26001881867607923,-3.078666732101378,0.6246440635994739,-3.8392808049682505e-05,0.002426697899434678,6.89709610992181e-05,-0.0040612882143935625,0.002980561414970398,-0.009147063354551285,0.00031198825185835104,0.2950804531574249,-1.1939656895450135,1.7247183958636683,-2.0999585590758265,-1.5712736288653772,2.2699663639068604,0.0011142833391204476,0.0012006598990410566,0.007417737971991301,0.0010009108809754252,-0.00017246171773876995,0.0008031215984374285,-0.26815056800842285,0.3064578175544739,-9.710882186889648,0.7777001857757568,47.692256927490234,-0.16520720720291138,-3.5283751487731934,-2.4783830642700195,-0.5123312473297119,-0.044842302799224854,0.10683844238519669,27.75,29.0,28.25,32.1875,34.75,35.9375
1.0,-3.4474311985739625,-2.7310446131455732,-1.613536485407876,-0.12297903811341801,0.13086411031707665,-0.08740025225631541,-0.5292302874649496,-0.30139463589155846,0.26001881867607923,-3.078666732101378,0.6246440635994739,-3.8392808049682505e-05,0.002426697899434678,6.89709610992181e-05,-0.0040612882143935625,0.002980561414970398,-0.009147063354551285,0.00031198825185835104,0.2950804531574249,-1.1939656895450135,1.7247183958636683,-2.0999585590758265,-1.5712736288653772,2.2699663639068604,0.0011142833391204476,0.0012006598990410566,0.007417737971991301,0.0010009108809754252,-0.00017246171773876995,0.0008031215984374285,-0.26815056800842285,0.3064578175544739,-9.710882186889648,0.7777001857757568,47.692256927490234,-0.16520720720291138,-3.5283751487731934,-2.4783830642700195,-0.5123312473297119,-0.044842302799224854,0.10683844238519669,27.75,29.0,28.25,32.1875,34.75,35.9375
1.0,-2.3512743074249967,-1.8136104482618007,-1.5039459799079633,-0.07646962720314182,0.10192431800421484,-0.07980216254315377,-0.5292342932634042,-0.3013813083744952,0.26004639108698197,-3.0787025880198664,0.6246698232883989,7.837958415343479e-05,0.0016111546703358468,-0.001129397346932625,-0.004484561488588287,0.0018124643560802718,-0.005441353430968956,0.001924435215802362,0.2950570285320282,-1.1940125685981293,1.7247303167926233,-2.1000081501402796,-1.5712736288653772,2.2699544429779053,0.002636961406096816,0.00412189494818449,0.005543892737478018,-0.003931851591914892,-0.00014878125512041152,0.0007122181123122573,-0.26815059781074524,0.28730422258377075,-9.557653427124023,0.7597975730895996,47.6895751953125,-0.30641070008277893,-3.60833740234375,-2.3334720134735107,-0.5221718549728394,-0.034100160002708435,0.10388238728046417,27.75,29.0,28.25,32.1875,34.75,35.9375
1.0,-2.3512743074249967,-1.8136104482618007,-1.5039459799079633,-0.07646962720314182,0.10192431800421484,-0.07980216254315377,-0.5292342932634042,-0.3013813083744952,0.26004639108698197,-3.0787025880198664,0.6246698232883989,7.837958415343479e-05,0.0009311300376385217,-0.0013446026430890586,-0.003204385521680626,7.64469535321434e-05,0.00021103155410737563,0.0020057462643619057,0.2950809895992279,-1.1939767760089417,1.7247527281390589,-2.1000572643675746,-1.5712736288653772,2.269930124282837,0.0026472185272723436,0.0035506263375282288,0.004336748272180557,-0.008066424168646336,-0.00014409684808924794,0.000639771984424442,-0.363918662071228,0.2298433631658554,-9.385271072387695,0.7217512726783752,47.65911865234375,-0.34118708968162537,-3.5378189086914062,-2.144181728363037,-0.46963632106781006,-0.04512251913547516,0.0935782715678215,27.75,29.0,28.25,32.1875,34.75,35.9375
1.0,-1.85734085427409,-0.7470916182992816,-1.4435686560704852,-0.01123881790551077,0.022641952655075806,-0.07802156758023526,-0.5292286945073862,-0.3013944811413876,0.26002020892299677,-3.0787134886971965,0.6245946699706114,6.576695257467312e-05,0.0009311300376385217,-0.0013446026430890586,-0.003204385521680626,7.64469535321434e-05,0.00021103155410737563,0.0020057462643619057,0.2950809895992279,-1.1939767760089417,1.7247527281390589,-2.1000572643675746,-1.5712736288653772,2.269930124282837,0.0026472185272723436,0.0035506263375282288,0.004336748272180557,-0.008066424168646336,-0.00014409684808924794,0.000639771984424442,-0.363918662071228,0.2298433631658554,-9.385271072387695,0.7217512726783752,47.65911865234375,-0.34118708968162537,-3.5378189086914062,-2.144181728363037,-0.46963632106781006,-0.04512251913547516,0.0935782715678215,27.75,29.0,28.25,32.1875,34.75,35.9375
1.0,-0.3615845340537646,0.12239940396561039,-1.323976363185659,0.006465647135105329,-0.0043512074423300885,-0.07898905140262012,-0.5292366278520485,-0.3014067149264822,0.2600281607157582,-3.0787583111062626,0.6246240540323006,0.00012957763954785163,0.0007651399383670426,-0.0010599825291039734,-0.002593709179484359,-0.0006139268327115147,0.002458865583279724,0.0015236607107439594,0.29509270191192627,-1.1939652127078553,1.7247298399554651,-2.100105424920553,-1.5712493101703089,2.2699544429779053,0.0021067550405859947,0.0026242497842758894,0.00457830261439085,-0.009733092971146107,-0.00014079258835408837,0.000580715830437839,-0.38307225704193115,0.15322890877723694,-9.385271072387695,0.7374180555343628,47.692256927490234,-0.29118937253952026,-3.4234795570373535,-2.124438524246216,-0.480532705783844,-0.04849589988589287,0.09025654196739197,27.75,29.0,28.25,32.1875,34.75,35.9375
1.0,-0.3615845340537646,0.12239940396561039,-1.323976363185659,0.006465647135105329,-0.0043512074423300885,-0.07898905140262012,-0.5292366278520485,-0.3014067149264822,0.2600281607157582,-3.0787583111062626,0.6246240540323006,0.00012957763954785163,0.0007651399383670426,-0.0010599825291039734,-0.002593709179484359,-0.0006139268327115147,0.002458865583279724,0.0015236607107439594,0.29509270191192627,-1.1939652127078553,1.7247298399554651,-2.100105424920553,-1.5712493101703089,2.2699544429779053,0.0021067550405859947,0.0026242497842758894,0.00457830261439085,-0.009733092971146107,-0.00014079258835408837,0.000580715830437839,-0.38307225704193115,0.15322890877723694,-9.385271072387695,0.7374180555343628,47.692256927490234,-0.29118937253952026,-3.4234795570373535,-2.124438524246216,-0.480532705783844,-0.04849589988589287,0.09025654196739197,27.75,29.0,28.25,32.1875,34.75,35.9375
1.0,-0.2263526231800052,0.5230548321483774,-1.036269296969714,-0.00867165303991007,-0.008248673869569068,-0.09917164389205585,-0.5292327928700425,-0.30139307289407813,0.26000745256596847,-3.0786804363096136,0.6246273598872683,6.916916259650482e-05,0.0007779733274003107,-0.0008652405219194485,-0.002240590198826199,-0.0009509341649913816,0.0036035563743314803,0.0012672048506497465,0.29508069157600403,-1.1939534109881897,1.724753204976217,-2.1000706158080042,-1.5712974707232874,2.2699544429779053,0.001801590551622212,0.0018729203147813678,0.004984228406101465,-0.010580853559076786,-0.0001522997481515631,0.0005316535825841129,-0.2298433631658554,0.07661445438861847,-9.346963882446289,0.6702793836593628,47.70121383666992,-0.2978588342666626,-3.2868359088897705,-2.130521535873413,-0.5011757612228394,-0.04256007820367813,0.1071346253156662,27.75,29.0,28.25,32.1875,34.75,35.9375
1.0,-0.2263526231800052,0.5230548321483774,-1.036269296969714,-0.00867165303991007,-0.008248673869569068,-0.09917164389205585,-0.5292327928700425,-0.30139307289407813,0.26000745256596847,-3.0786804363096136,0.6246273598872683,6.916916259650482e-05,0.0007779733274003107,-0.0008652405219194485,-0.002240590198826199,-0.0009509341649913816,0.0036035563743314803,0.0012672048506497465,0.29508069157600403,-1.1939534109881897,1.724753204976217,-2.1000706158080042,-1.5712974707232874,2.2699544429779053,0.001801590551622212,0.0018729203147813678,0.004984228406101465,-0.010580853559076786,-0.0001522997481515631,0.0005316535825841129,-0.2298433631658554,0.07661445438861847,-9.346963882446289,0.6702793836593628,47.70121383666992,-0.2978588342666626,-3.2868359088897705,-2.130521535873413,-0.5011757612228394,-0.04256007820367813,0.1071346253156662,27.75,29.0,28.25,32.1875,34.75,35.9375
1.0,-0.5653872200852025,-0.2026634210655179,-0.8595478323147443,-0.028877450313549623,0.014593603253455115,-0.07635865424565239,-0.5292235288706874,-0.3014075285002503,0.26000242734201395,-3.078720863398537,0.6246165471660492,9.904722146532664e-05,0.000647832793954909,-0.0006845346525230173,-0.00270616005072029,-0.0007997365025782338,0.0031092741998668765,0.0009541171761156825,0.2951045334339142,-1.1939532321742554,1.7247780005084437,-2.1001302204527796,-1.5712736288653772,2.2699663639068604,0.0014471167232841253,0.002527509815990925,0.005251702852547169,-0.01098603941500187,-0.00015368325693998486,0.0004902438959106803,-0.1149216815829277,-0.26815059781074524,-9.251194953918457,0.8090336918830872,47.7164421081543,-0.3045322895050049,-3.246793746948242,-2.046999454498291,-0.5190088152885437,-0.04210539162158966,0.10187511891126633,27.75,29.0,28.25,32.1875,34.75,35.9375
1.0,-0.5653872200852025,-0.2026634210655179,-0.8595478323147443,-0.028877450313549623,0.014593603253455115,-0.07635865424565239,-0.5292235288706874,-0.3014075285002503,0.26000242734201395,-3.078720863398537,0.6246165471660492,9.904722146532664e-05,0.000647832793954909,-0.0006845346525230173,-0.00270616005072029,-0.0007997365025782338,0.0031092741998668765,0.0009541171761156825,0.2951045334339142,-1.1939532321742554,1.7247780005084437,-2.1001302204527796,-1.5712736288653772,2.2699663639068604,0.0014471167232841253,0.002527509815990925,0.005251702852547169,-0.01098603941500187,-0.00015368325693998486,0.0004902438959106803,-0.1149216815829277,-0.26815059781074524,-9.251194953918457,0.8090336918830872,47.7164421081543,-0.3045322895050049,-3.246793746948242,-2.046999454498291,-0.5190088152885437,-0.04210539162158966,0.10187511891126633,27.75,29.0,28.25,32.1875,34.75,35.9375
1.0,-0.8060397424743433,-0.4610001225017887,-0.7551370736021331,-0.03016000603272521,0.04092156787226868,-0.08720144732308951,-0.5292449422517648,-0.30139163436350563,0.25999961900345786,-3.0787227025910973,0.6246358365756196,0.00011516379043450528,0.00014695249377829614,-0.0006268392893925255,-0.004091613749733734,-0.0002921633772119328,0.0014223076785290795,0.0006501059157052159,0.2950684130191803,-1.1939282280257721,1.724753204976217,-2.1001421413817347,-1.5712736288653772,2.269942045211792,0.0011074397480115294,0.005200653802603483,0.004921156447380781,-0.011566996574401855,-0.00015076792624313384,0.000454813678516075,-0.038307227194309235,-0.3064578175544739,-9.21288776397705,0.7441308498382568,47.73255920410156,-0.24952706694602966,-3.3027307987213135,-1.951019525527954,-0.5278443098068237,-0.041580937802791595,0.1082037091255188,27.75,29.0,28.25,32.1875,34.75,35.9375
1.0,-1.3549398208265968,-0.1163262150518164,-0.8525930371694799,-0.012626644431548434,0.029788316510927785,-0.07344403727154465,-0.5292351526343487,-0.30141219608288483,0.2600090319680673,-3.0787648054844365,0.6245677627913243,0.00015620509481120647,-0.00042889115194551166,-0.0006765837616144726,-0.004769977432314214,-0.0003304917720849105,0.0015213431008238645,0.0004767042465850075,0.29510432481765747,-1.1939396423152466,1.7247527281390589,-2.100166460076803,-1.5712617079364222,2.269930124282837,0.0009035068214870989,0.007113815750926733,0.004161435645073652,-0.012826361693441868,-0.00014769507106393576,0.0004241795395500958,0.07661445438861847,-0.3447650372982025,-9.155426979064941,0.7553206086158752,47.70748519897461,-0.2886480391025543,-3.4323604106903076,-1.8481260538101196,-0.5340269804000854,-0.06298978626728058,0.09128119796514511,27.75,29.0,28.25,32.1875,34.75,35.9375
1.0,-1.3549398208265968,-0.1163262150518164,-0.8525930371694799,-0.012626644431548434,0.029788316510927785,-0.07344403727154465,-0.5292351526343487,-0.30141219608288483,0.2600090319680673,-3.0787648054844365,0.6245677627913243,0.00015620509481120647,-0.00042889115194551166,-0.0006765837616144726,-0.004769977432314214,-0.0003304917720849105,0.0015213431008238645,0.0004767042465850075,0.29510432481765747,-1.1939396423152466,1.7247527281390589,-2.100166460076803,-1.5712617079364222,2.269930124282837,0.0009035068214870989,0.007113815750926733,0.004161435645073652,-0.012826361693441868,-0.00014769507106393576,0.0004241795395500958,0.07661445438861847,-0.3447650372982025,-9.155426979064941,0.7553206086158752,47.70748519897461,-0.2886480391025543,-3.4323604106903076,-1.8481260538101196,-0.5340269804000854,-0.06298978626728058,0.09128119796514511,27.75,29.0,28.25,32.1875,34.75,35.9375
1.0,-0.9007128675715516,0.4733858023848981,-0.7758697928323817,0.017314471200934947,0.008581394126176785,-0.0755970691022739,-0.5292250359156276,-0.3014190831261665,0.25998140268745257,-3.078765190177065,0.6245876266483842,8.848056352900594e-05,-0.0006090058995774536,-0.0006612686943348843,-0.0044160243005648865,-0.000853775354267187,0.0032200682702549746,0.00034726924489740665,0.2951163351535797,-1.193915770655014,1.7247889677630823,-2.1001907787718714,-1.5712373892413538,2.2699544429779053,0.000789554207585752,0.006851868238300085,0.004021876957267523,-0.014202361926436424,-0.00014472730981651694,0.0004391909169498831,0.019153613597154617,-0.3447650372982025,-9.136273384094238,0.6702793836593628,47.70390319824219,-0.2599056363105774,-3.383248805999756,-1.8275837898254395,-0.5347772240638733,-0.03601919114589691,0.10785103589296341,27.75,29.0,28.25,32.1875,34.75,35.9375
1.0,-0.9007128675715516,0.4733858023848981,-0.7758697928323817,0.017314471200934947,0.008581394126176785,-0.0755970691022739,-0.5292250359156276,-0.3014190831261665,0.25998140268745257,-3.078765190177065,0.6245876266483842,8.848056352900594e-05,-0.0006090058995774536,-0.0006612686943348843,-0.0044160243005648865,-0.000853775354267187,0.0032200682702549746,0.00034726924489740665,0.2951163351535797,-1.193915770655014,1.7247889677630823,-2.1001907787718714,-1.5712373892413538,2.2699544429779053,0.000789554207585752,0.006851868238300085,0.004021876957267523,-0.014202361926436424,-0.00014472730981651694,0.0004391909169498831,0.019153613597154617,-0.3447650372982025,-9.136273384094238,0.6702793836593628,47.70390319824219,-0.2599056363105774,-3.383248805999756,-1.8275837898254395,-0.5347772240638733,-0.03601919114589691,0.10785103589296341,27.75,29.0,28.25,32.1875,34.75,35.9375
1.0,0.10510769704989081,0.802431999658114,-0.7089088738722031,0.020815126829967476,-0.008172105190499164,-0.0862632899803871,-0.5292286226588399,-0.30140143061263464,0.2599631831496579,-3.0787304564946054,0.6245992871934544,0.00011589626578728713,-0.0002928897477049639,-0.0005100210396461276,-0.004661616194598417,-0.0009553378778420009,0.0035449222875961637,0.0002717261112739133,0.29509222507476807,-1.193903998737671,1.724825684224264,-2.100239416162008,-1.5712736288653772,2.269942045211792,0.0007015569717623293,0.006384209729731083,0.005532227922230959,-0.015585403889417648,-0.00014187538181431592,0.00042623732588253915,0.019153613597154617,-0.3447650372982025,-9.002198219299316,0.7508436441421509,47.705692291259766,-0.27867767214775085,-3.2307333946228027,-1.726316213607788,-0.5348638296127319,-0.05364451929926872,0.1029544472694397,27.75,29.0,28.25,32.1875,34.75,35.9375
1.0,0.10510769704989081,0.802431999658114,-0.7089088738722031,0.020815126829967476,-0.008172105190499164,-0.0862632899803871,-0.5292286226588399,-0.30140143061263464,0.2599631831496579,-3.0787304564946054,0.6245992871934544,0.00011589626578728713,-0.0002928897477049639,-0.0005100210396461276,-0.004661616194598417,-0.0009553378778420009,0.0035449222875961637,0.0002717261112739133,0.29509222507476807,-1.193903998737671,1.724825684224264,-2.100239416162008,-1.5712736288653772,2.269942045211792,0.0007015569717623293,0.006384209729731083,0.005532227922230959,-0.015585403889417648,-0.00014187538181431592,0.00042623732588253915,0.019153613597154617,-0.3447650372982025,-9.002198219299316,0.7508436441421509,47.705692291259766,-0.27867767214775085,-3.2307333946228027,-1.726316213607788,-0.5348638296127319,-0.05364451929926872,0.1029544472694397,27.75,29.0,28.25,32.1875,34.75,35.9375
1.0,0.12569656690789635,0.19953605518394968,-0.8662809994717537,0.0211672536239215,-0.029337009921970032,-0.08636411688951624,-0.529229360106126,-0.30140912313867446,0.2599772792888433,-3.078763537111111,0.624548558148911,0.00018058007479249014,0.0001793462337028186,-0.00032170618183795734,-0.006497152769511134,0.00024426529309027847,-0.0003905240908432655,0.0002248439275317675,0.2951042354106903,-1.1939155620387574,1.7248147169696253,-2.1002637348570765,-1.5712736288653772,2.269918203353882,0.0006312226760201156,0.007882011123001575,0.007557297591120005,-0.014994064345955849,-0.00013913371367380023,0.00040321139385923743,0.05746084079146385,-0.2106897532939911,-8.96389102935791,0.7441308498382568,47.718231201171875,-0.25776517391204834,-3.2296040058135986,-1.8106663227081299,-0.5196874737739563,-0.06417970359325409,0.11191996932029724,27.75,29.0,28.25,32.1875,34.75,35.9375
1.0,0.12569656690789635,0.19953605518394968,-0.8662809994717537,0.0211672536239215,-0.029337009921970032,-0.08636411688951624,-0.529229360106126,-0.30140912313867446,0.2599772792888433,-3.078763537111111,0.624548558148911,0.00018058007479249014,0.0001793462337028186,-0.00032170618183795734,-0.006497152769511134,0.00024426529309027847,-0.0003905240908432655,0.0002248439275317675,0.2951042354106903,-1.1939155620387574,1.7248147169696253,-2.1002637348570765,-1.5712736288653772,2.269918203353882,0.0006312226760201156,0.007882011123001575,0.007557297591120005,-0.014994064345955849,-0.00013913371367380023,0.00040321139385923743,0.05746084079146385,-0.2106897532939911,-8.96389102935791,0.7441308498382568,47.718231201171875,-0.25776517391204834,-3.2296040058135986,-1.8106663227081299,-0.5196874737739563,-0.06417970359325409,0.11191996932029724,27.75,29.0,28.25,32.1875,34.75,35.9375
1.0,0.5216729776270942,0.18060356590891366,-0.8309065456585437,-0.01987669530243138,-0.019307283781482,-0.09732825604919353,-0.529226480604828,-0.3013921033092886,0.25992626211840486,-3.078687360695538,0.6246096567596642,3.8651102876318426e-05,0.0003030305580018845,-0.000248021971947563,-0.007143781131296622,0.0008555259692601951,-0.0023906434920721057,0.00018913793978845374,0.2950802743434906,-1.193867341881134,1.7248628775226038,-2.100250860253805,-1.5712855497943323,2.269942045211792,0.0005737188039347529,0.008535494096577168,0.007898036390542984,-0.013896848075091839,-0.0001388773525832221,0.0003818756085820496,0.038307227194309235,-0.2298433631658554,-8.983044624328613,0.6926589012145996,47.705692291259766,-0.2321946620941162,-3.246412754058838,-1.8661597967147827,-0.524846613407135,-0.05491390824317932,0.1000085324048996,27.75,29.0,28.25,32.1875,34.75,35.9375
1.0,-0.7744758624578834,-1.467310217469013,-0.9323388574683068,-0.026497219145766113,-0.029581189832496656,-0.0802168169788536,-0.5292326283439347,-0.30140385185232926,0.2599321514169645,-3.0787283857925725,0.6245989923659176,7.023793665376452e-05,0.0005154247427915515,-0.00015117609759352649,-0.007960216010191541,0.0017442007015990534,-0.005232378782002583,0.00016116602100005653,0.2950921654701233,-1.1938550633243104,1.7248380819903772,-2.100274225274557,-1.5712617079364222,2.269942045211792,0.0005258090677671134,0.009280964732170105,0.008344518020749092,-0.012111381627619267,-0.00015738177171442658,0.00036263870424591005,0.038307227194309235,-0.05746084079146385,-8.944737434387207,0.7553206086158752,47.71554183959961,-0.25478577613830566,-3.243718147277832,-1.8024506568908691,-0.5713973045349121,-0.05635695159435272,0.10240055620670319,27.75,29.0,28.25,32.1875,34.75,35.9375
1.0,-0.7744758624578834,-1.467310217469013,-0.9323388574683068,-0.026497219145766113,-0.029581189832496656,-0.0802168169788536,-0.5292326283439347,-0.30140385185232926,0.2599321514169645,-3.0787283857925725,0.6245989923659176,7.023793665376452e-05,0.0005154247427915515,-0.00015117609759352649,-0.007960216010191541,0.0017442007015990534,-0.005232378782002583,0.00016116602100005653,0.2950921654701233,-1.1938550633243104,1.7248380819903772,-2.100274225274557,-1.5712617079364222,2.269942045211792,0.0005258090677671134,0.009280964732170105,0.008344518020749092,-0.012111381627619267,-0.00015738177171442658,0.00036263870424591005,0.038307227194309235,-0.05746084079146385,-8.944737434387207,0.7553206086158752,47.71554183959961,-0.25478577613830566,-3.243718147277832,-1.8024506568908691,-0.5713973045349121,-0.05635695159435272,0.10240055620670319,27.75,29.0,28.25,32.1875,34.75,35.9375
1.0,-0.1397846356126775,-0.7142296983545077,-0.7509791893171416,-0.06581701692567586,0.010501809428094897,-0.0938525772845787,-0.5292226483901947,-0.301405726789031,0.2599130087530441,-3.07867762374871,0.624627214647438,2.0970429442774507e-05,0.0004303335843540309,3.078558034804345e-05,-0.00774059869631005,0.0017846746134982517,-0.005287676358849612,-9.739043964669924e-05,0.29510408639907837,-1.1938431125930329,1.7248628775226038,-2.100262304345602,-1.5712855497943323,2.2699780464172363,0.00019468045502435416,0.008989401161670685,0.00810261256992817,-0.01151315402239561,-0.0001790542301023379,0.00029024604009464383,0.0,0.019153613597154617,-9.040505409240723,0.6523714661598206,47.658226013183594,-0.2964443564414978,-3.1370339393615723,-1.6968048810958862,-0.6104460954666138,-0.05737963318824768,0.11158868670463562,27.75,29.0,28.25,32.1875,34.75,35.9375
1.0,-0.1397846356126775,-0.7142296983545077,-0.7509791893171416,-0.06581701692567586,0.010501809428094897,-0.0938525772845787,-0.5292226483901947,-0.301405726789031,0.2599130087530441,-3.07867762374871,0.624627214647438,2.0970429442774507e-05,0.0004303335843540309,3.078558034804345e-05,-0.00774059869631005,0.0017846746134982517,-0.005287676358849612,-9.739043964669924e-05,0.29510408639907837,-1.1938431125930329,1.7248628775226038,-2.100262304345602,-1.5712855497943323,2.2699780464172363,0.00019468045502435416,0.008989401161670685,0.00810261256992817,-0.01151315402239561,-0.0001790542301023379,0.00029024604009464383,0.0,0.019153613597154617,-9.040505409240723,0.6523714661598206,47.658226013183594,-0.2964443564414978,-3.1370339393615723,-1.6968048810958862,-0.6104460954666138,-0.05737963318824768,0.11158868670463562,27.75,29.0,28.25,32.1875,34.75,35.9375
1.0,-1.0564454066874371,-1.5164631235558517,-1.0789257431471206,-0.04875259701585546,0.003922764187432093,-0.07977464133768936,-0.5292241770144797,-0.3014049367318757,0.2599039011446158,-3.0786839874152445,0.6245704596003786,4.549065755753033e-05,0.0005231164986166384,0.00013617747097321016,-0.009190523596198662,0.0024879277418092534,-0.007525009284975758,-0.00015138079499935671,0.295104056596756,-1.1938305658153077,1.7248747984515589,-2.100298067132467,-1.5712974707232874,2.269941806793213,7.468152762157843e-05,0.010656163096427917,0.009262201376259327,-0.011994283646345139,-0.00019975956820417196,0.0002243904600618407,0.038307227194309235,0.13407529890537262,-9.040505409240723,0.7575564384460449,47.734352111816406,-0.27989399433135986,-3.1369242668151855,-1.7551403045654297,-0.6073473691940308,-0.0484757125377655,0.10001347959041595,27.75,29.0,28.25,32.1875,34.75,35.9375
1.0,-1.0564454066874371,-1.5164631235558517,-1.0789257431471206,-0.04875259701585546,0.003922764187432093,-0.07977464133768936,-0.5292241770144797,-0.3014049367318757,0.2599039011446158,-3.0786839874152445,0.6245704596003786,4.549065755753033e-05,0.0005231164986166384,0.00013617747097321016,-0.009190523596198662,0.0024879277418092534,-0.007525009284975758,-0.00015138079499935671,0.295104056596756,-1.1938305658153077,1.7248747984515589,-2.100298067132467,-1.5712974707232874,2.269941806793213,7.468152762157843e-05,0.010656163096427917,0.009262201376259327,-0.011994283646345139,-0.00019975956820417196,0.0002243904600618407,0.038307227194309235,0.13407529890537262,-9.040505409240723,0.7575564384460449,47.734352111816406,-0.27989399433135986,-3.1369242668151855,-1.7551403045654297,-0.6073473691940308,-0.0484757125377655,0.10001347959041595,27.75,29.0,28.25,32.1875,34.75,35.9375
1.0,-0.8355439492275984,-1.1784998542613847,-0.8951846686008628,-0.04852406297271624,0.013229032143136112,-0.0901750117712034,-0.5292318755931875,-0.3014010261482604,0.25988345075986646,-3.0786792118557065,0.6245888575717375,3.0228096902300396e-06,0.0007837394149264315,0.0002576583784908107,-0.009994589292676614,0.00280995209023804,-0.008576946996806261,-0.00020435868503360354,0.29509198665618896,-1.1937944155982514,1.724875275288717,-2.1003104648985804,-1.5712855497943323,2.269941806793213,7.976203050930053e-06,0.01111569069325924,0.010643848218023777,-0.012735338881611824,-0.00020069665333721787,0.00021052091324236244,0.13407529890537262,0.2106897532939911,-9.078812599182129,0.7665104269981384,47.705692291259766,-0.27963900566101074,-3.1181721687316895,-1.8225715160369873,-0.6255472898483276,-0.044519148766994476,0.11185622960329056,27.75,29.0,28.25,32.1875,34.75,35.9375
1.0,-0.8355439492275984,-1.1784998542613847,-0.8951846686008628,-0.04852406297271624,0.013229032143136112,-0.0901750117712034,-0.5292318755931875,-0.3014010261482604,0.25988345075986646,-3.0786792118557065,0.6245888575717375,3.0228096902300396e-06,0.0007837394149264315,0.0002576583784908107,-0.009994589292676614,0.00280995209023804,-0.008576946996806261,-0.00020435868503360354,0.29509198665618896,-1.1937944155982514,1.724875275288717,-2.1003104648985804,-1.5712855497943323,2.269941806793213,7.976203050930053e-06,0.01111569069325924,0.010643848218023777,-0.012735338881611824,-0.00020069665333721787,0.00021052091324236244,0.13407529890537262,0.2106897532939911,-9.078812599182129,0.7665104269981384,47.705692291259766,-0.27963900566101074,-3.1181721687316895,-1.8225715160369873,-0.6255472898483276,-0.044519148766994476,0.11185622960329056,27.75,29.0,28.25,32.1875,34.75,35.9375
1.0,-0.7057320575677825,-1.7496913002319658,-0.9197787285848039,-0.0399874678653232,0.002873168691755716,-0.07789862734808581,-0.5292293000706024,-0.3013977622258959,0.2598848908992659,-3.0786758131065177,0.6245881429221487,7.151368290012225e-05,0.0004182578978141873,0.00018269843392893355,-0.010240327857991135,0.002648610874304078,-0.007007442780667597,-0.00020271493313116364,0.29509198665618896,-1.1938062471202393,1.7248991171466272,-2.100359102288717,-1.5713093916522425,2.269941806793213,1.0701094765863672e-07,0.01204258855432272,0.01047180313616991,-0.015037630684673786,-0.0005087045719847083,0.00020089882309548557,0.2298433631658554,0.24899697303771973,-9.002198219299316,0.6456586718559265,47.699424743652344,-0.23902493715286255,-3.1268982887268066,-1.6965279579162598,-0.6337312459945679,-0.05020719766616821,0.0972512811422348,27.75,29.0,28.25,32.1875,34.75,35.9375
1.0,-0.2534395374021083,-1.2193949934462949,-0.9784482560194147,-0.061033599216398,-0.0056326047309988615,-0.0919806810575689,-0.5292342316387081,-0.3013818649317481,0.2598416935568779,-3.078679175849788,0.6246082200472584,-6.315726028649713e-05,0.0005437626397049069,0.0002419500257033605,-0.011395203371046814,0.0030478824657573286,-0.007645120277467938,-0.00022760151262579573,0.2950561046600342,-1.1937578183463593,1.7249348799334925,-2.1003715000548304,-1.5712621847735804,2.2699179649353027,1.4356884570077e-09,0.01321597769856453,0.011957848444581032,-0.01697012409567833,-0.000706838327459991,0.0002256267034681514,0.19153612852096558,0.325611412525177,-9.059659004211426,0.6837049722671509,47.6895751953125,-0.2644476294517517,-3.179543972015381,-1.7821316719055176,-0.637054443359375,-0.048003390431404114,0.11906449496746063,27.75,29.0,28.25,32.1875,34.75,35.9375
1.0,-0.2534395374021083,-1.2193949934462949,-0.9784482560194147,-0.061033599216398,-0.0056326047309988615,-0.0919806810575689,-0.5292342316387081,-0.3013818649317481,0.2598416935568779,-3.078679175849788,0.6246082200472584,-6.315726028649713e-05,0.0005437626397049069,0.0002419500257033605,-0.011395203371046814,0.0030478824657573286,-0.007645120277467938,-0.00022760151262579573,0.2950561046600342,-1.1937578183463593,1.7249348799334925,-2.1003715000548304,-1.5712621847735804,2.2699179649353027,1.4356884570077e-09,0.01321597769856453,0.011957848444581032,-0.01697012409567833,-0.000706838327459991,0.0002256267034681514,0.19153612852096558,0.325611412525177,-9.059659004211426,0.6837049722671509,47.6895751953125,-0.2644476294517517,-3.179543972015381,-1.7821316719055176,-0.637054443359375,-0.048003390431404114,0.11906449496746063,27.75,29.0,28.25,32.1875,34.75,35.9375
1.0,-0.11936352359353919,-1.4750882465937676,-0.9276778181309452,-0.07112320568520628,-0.014634019427451392,-0.0851383327539561,-0.5292320771837002,-0.3013663584122306,0.25981490120915707,-3.0786529723586002,0.6247376323362817,-6.46909481722389e-05,0.00044328479499760513,0.00020294928256353476,-0.0118750033227143,0.0030219156401488662,-0.007841362806253274,-0.00022318979167581496,0.2950321435928345,-1.1937455397895356,1.7249959150897425,-2.1004439793028773,-1.5712617079364222,2.2699780464172363,1.9261594055852704e-11,0.01403208076953888,0.012131407856941223,-0.017779892310500145,-0.0006266802665777504,0.00022096412430983037,0.15322890877723694,0.24899697303771973,-9.040505409240723,0.7463666796684265,47.685096740722656,-0.241336852312088,-3.147449493408203,-1.7758318185806274,-0.6192701458930969,-0.043093450367450714,0.1036287397146225,27.75,29.0,28.25,32.1875,34.75,35.9375
1.0,-0.11936352359353919,-1.4750882465937676,-0.9276778181309452,-0.07112320568520628,-0.014634019427451392,-0.0851383327539561,-0.5292320771837002,-0.3013663584122306,0.25981490120915707,-3.0786529723586002,0.6247376323362817,-6.46909481722389e-05,0.00044328479499760513,0.00020294928256353476,-0.0118750033227143,0.0030219156401488662,-0.007841362806253274,-0.00022318979167581496,0.2950321435928345,-1.1937455397895356,1.7249959150897425,-2.1004439793028773,-1.5712617079364222,2.2699780464172363,1.9261594055852704e-11,0.01403208076953888,0.012131407856941223,-0.017779892310500145,-0.0006266802665777504,0.00022096412430983037,0.15322890877723694,0.24899697303771973,-9.040505409240723,0.7463666796684265,47.685096740722656,-0.241336852312088,-3.147449493408203,-1.7758318185806274,-0.6192701458930969,-0.043093450367450714,0.1036287397146225,27.75,29.0,28.25,32.1875,34.75,35.9375
1.0,-0.36519468914242226,-1.957181019992928,-1.0229878633684761,-0.0636657140059275,-0.026853960605160244,-0.0868385823737333,-0.5292228657777424,-0.30139084113691494,0.2597862872268701,-3.0786214629603257,0.624673462124667,-0.00011278110538857252,0.0004421493103183359,0.00019488691748242718,-0.012522929399830992,0.003030951286104898,-0.00813469943426839,-0.0002151149435119926,0.2950800657272339,-1.19369728982959,1.7249959150897425,-2.1004444561400355,-1.5712855497943323,2.2699899673461914,2.5841885597545355e-13,0.014845568686723709,0.01277478039264679,-0.01895371824502945,-0.0005509769544005394,0.00021256160107441247,0.24899697303771973,0.28730419278144836,-8.983044624328613,0.7553206086158752,47.66986846923828,-0.29220542311668396,-3.188354015350342,-1.7470654249191284,-0.6345147490501404,-0.04417645186185837,0.11696211993694305,27.75,29.0,28.25,32.1875,34.75,35.9375
1.0,-0.36519468914242226,-1.957181019992928,-1.0229878633684761,-0.0636657140059275,-0.026853960605160244,-0.0868385823737333,-0.5292228657777424,-0.30139084113691494,0.2597862872268701,-3.0786214629603257,0.624673462124667,-0.00011278110538857252,0.0004421493103183359,0.00019488691748242718,-0.012522929399830992,0.003030951286104898,-0.00813469943426839,-0.0002151149435119926,0.2950800657272339,-1.19369728982959,1.7249959150897425,-2.1004444561400355,-1.5712855497943323,2.2699899673461914,2.5841885597545355e-13,0.014845568686723709,0.01277478039264679,-0.01895371824502945,-0.0005509769544005394,0.00021256160107441247,0.24899697303771973,0.28730419278144836,-8.983044624328613,0.7553206086158752,47.66986846923828,-0.29220542311668396,-3.188354015350342,-1.7470654249191284,-0.6345147490501404,-0.04417645186185837,0.11696211993694305,27.75,29.0,28.25,32.1875,34.75,35.9375
1.0,-0.055001584321894115,-1.2913015483048524,-0.9452307787097419,-0.06908983973358587,-0.013213169159028723,-0.0909496006282156,-0.5292181343735373,-0.3013794320867913,0.25977180350712725,-3.078604800641322,0.6245930290634409,-0.00012782486535871886,0.00044436046616805715,0.00018935700775193104,-0.012736275776276148,0.0029104755290763366,-0.0079493702330181,-0.00020737783637471476,0.29506802558898926,-1.1936972600272675,1.7250316778766077,-2.1004563770689906,-1.5713093916522425,2.269929885864258,3.467018720252073e-15,0.015085069462656975,0.013118848204612732,-0.019749870523810387,-0.0004908393602818251,0.00020452924945857376,0.15322890877723694,0.26815059781074524,-9.059659004211426,0.6658024191856384,47.686885833740234,-0.2732279896736145,-3.138417959213257,-1.776656150817871,-0.6508970260620117,-0.03351854160428047,0.11493948101997375,27.75,29.0,28.25,32.1875,34.75,35.9375
1.0,-0.055001584321894115,-1.2913015483048524,-0.9452307787097419,-0.06908983973358587,-0.013213169159028723,-0.0909496006282156,-0.5292181343735373,-0.3013794320867913,0.25977180350712725,-3.078604800641322,0.6245930290634409,-0.00012782486535871886,0.00044436046616805715,0.00018935700775193104,-0.012736275776276148,0.0029104755290763366,-0.0079493702330181,-0.00020737783637471476,0.29506802558898926,-1.1936972600272675,1.7250316778766077,-2.1004563770689906,-1.5713093916522425,2.269929885864258,3.467018720252073e-15,0.015085069462656975,0.013118848204612732,-0.019749870523810387,-0.0004908393602818251,0.00020452924945857376,0.15322890877723694,0.26815059781074524,-9.059659004211426,0.6658024191856384,47.686885833740234,-0.2732279896736145,-3.138417959213257,-1.776656150817871,-0.6508970260620117,-0.03351854160428047,0.11493948101997375,27.75,29.0,28.25,32.1875,34.75,35.9375
1.0,-0.1398206768334404,-1.3862204276264027,-0.8582611704043831,-0.05421390740043978,-0.005773521466683711,-0.08935787803541467,-0.529238544725437,-0.30137950441984673,0.2597498071468795,-3.0786247903677664,0.624635357754178,-8.654641805996845e-05,0.0001554763965817211,9.597699246685374e-05,-0.01306025200583768,0.0024471622865075574,-0.006610651037012104,-0.00023123014944395325,0.2950561046600342,-1.1936369401267548,1.7250192801104944,-2.1005407772459925,-1.5712974707232874,2.269941806793213,4.651448011750243e-17,0.015981335192918777,0.013183405622839928,-0.02212648093700409,-0.0004424980143085122,0.00022768454800825566,0.26815059781074524,0.3064578175544739,-9.136273384094238,0.6680382490158081,47.6895751953125,-0.2688911557197571,-3.195246458053589,-1.764674186706543,-0.6444514989852905,-0.020358268171548843,0.1106584370136261,27.75,29.0,28.25,32.1875,34.75,35.9375
1.0,-0.8845991775140101,-1.5543106738386219,-1.0687737715101957,-0.03566423380403475,-0.01998591945602997,-0.07415183475931429,-0.5292429855409712,-0.3013572421290957,0.2596946959439873,-3.0785593545521697,0.6246797249654563,-0.00020772405767671622,2.0234542076006593e-05,5.046886788987036e-05,-0.013038450296465196,0.0019339998130197252,-0.0050737824172254154,-0.0002258369903601012,0.29502010345458984,-1.193577067261078,1.7250669638263147,-2.100554128686422,-1.5713093916522425,2.269941806793213,6.240510586005112e-19,0.016115037724375725,0.013401774689555168,-0.02409839630126953,-0.0004028362163808197,0.0002216698630945757,0.3064578175544739,0.2298433631658554,-9.174580574035645,0.6635612845420837,47.66986846923828,-0.27674543857574463,-3.1955056190490723,-1.7420023679733276,-0.6520944833755493,-0.03995019197463989,0.10278041660785675,27.75,29.0,28.25,32.1875,34.75,35.9375
1.0,-0.8845991775140101,-1.5543106738386219,-1.0687737715101957,-0.03566423380403475,-0.01998591945602997,-0.07415183475931429,-0.5292429855409712,-0.3013572421290957,0.2596946959439873,-3.0785593545521697,0.6246797249654563,-0.00020772405767671622,2.0234542076006593e-05,5.046886788987036e-05,-0.013038450296465196,0.0019339998130197252,-0.0050737824172254154,-0.0002258369903601012,0.29502010345458984,-1.193577067261078,1.7250669638263147,-2.100554128686422,-1.5713093916522425,2.269941806793213,6.240510586005112e-19,0.016115037724375725,0.013401774689555168,-0.02409839630126953,-0.0004028362163808197,0.0002216698630945757,0.3064578175544739,0.2298433631658554,-9.174580574035645,0.6635612845420837,47.66986846923828,-0.27674543857574463,-3.1955056190490723,-1.7420023679733276,-0.6520944833755493,-0.03995019197463989,0.10278041660785675,27.75,29.0,28.25,32.1875,34.75,35.9375
1.0,-0.6099365278776558,-0.7200441119466334,-0.989587546021348,-0.04967315705630872,-0.016803912628046182,-0.09027586829557982,-0.5292326062233215,-0.3013850841170056,0.25968906605344244,-3.0786102062023177,0.6245942044495931,-0.00015212357862432537,-0.00017970594340318484,-1.4105270324789244e-05,-0.013394905007853621,0.001836633543672895,-0.0048752135151791075,-0.00021866506717083765,0.29506802558898926,-1.1935647290996094,1.725079361592428,-2.1006256542601527,-1.5712974707232874,2.269929885864258,8.372441048100449e-21,0.016958583146333694,0.01328700128942728,-0.02504558302462101,-0.0003697043866850436,0.00021426034800242633,0.28730422258377075,0.2106897532939911,-9.155426979064941,0.7016075849533081,47.70121383666992,-0.2476297914981842,-3.1815590858459473,-1.6649625301361084,-0.6469963192939758,-0.04751287028193474,0.11272379755973816,27.75,29.0,28.25,32.1875,34.75,35.9375
1.0,-0.6099365278776558,-0.7200441119466334,-0.989587546021348,-0.04967315705630872,-0.016803912628046182,-0.09027586829557982,-0.5292326062233215,-0.3013850841170056,0.25968906605344244,-3.0786102062023177,0.6245942044495931,-0.00015212357862432537,-0.00017970594340318484,-1.4105270324789244e-05,-0.013394905007853621,0.001836633543672895,-0.0048752135151791075,-0.00021866506717083765,0.29506802558898926,-1.1935647290996094,1.725079361592428,-2.1006256542601527,-1.5712974707232874,2.269929885864258,8.372441048100449e-21,0.016958583146333694,0.01328700128942728,-0.02504558302462101,-0.0003697043866850436,0.00021426034800242633,0.28730422258377075,0.2106897532939911,-9.155426979064941,0.7016075849533081,47.70121383666992,-0.2476297914981842,-3.1815590858459473,-1.6649625301361084,-0.6469963192939758,-0.04751287028193474,0.11272379755973816,27.75,29.0,28.25,32.1875,34.75,35.9375
1.0,-0.261747948430202,-1.4191609070549656,-1.2675100793513359,-0.04606834365315777,-0.0138615561891904,-0.08297567432986931,-0.529224978366071,-0.30136784885180984,0.25963844323352353,-3.0785559459885135,0.6246605609791793,-0.0002680216305025409,-2.7869802842769465e-05,2.9641849212495022e-05,-0.014425191575406112,0.002206963036350179,-0.006188610217809858,-0.0002117225015245766,0.29504406452178955,-1.193528489475586,1.7251513640033167,-2.100649972955221,-1.5712974707232874,2.269954204559326,1.1232697714525097e-22,0.017995089292526245,0.014417950063943863,-0.02584882266819477,-0.00034161313669756055,0.00020722045155707747,0.24899697303771973,0.26815059781074524,-9.136273384094238,0.7083203792572021,47.6734504699707,-0.29159417748451233,-3.237579345703125,-1.7436728477478027,-0.6600586771965027,-0.04196850210428238,0.111967071890831,27.75,29.0,28.25,32.1875,34.75,35.9375
1.0,-0.261747948430202,-1.4191609070549656,-1.2675100793513359,-0.04606834365315777,-0.0138615561891904,-0.08297567432986931,-0.529224978366071,-0.30136784885180984,0.25963844323352353,-3.0785559459885135,0.6246605609791793,-0.0002680216305025409,-2.7869802842769465e-05,2.9641849212495022e-05,-0.014425191575406112,0.002206963036350179,-0.006188610217809858,-0.0002117225015245766,0.29504406452178955,-1.193528489475586,1.7251513640033167,-2.100649972955221,-1.5712974707232874,2.269954204559326,1.1232697714525097e-22,0.017995089292526245,0.014417950063943863,-0.02584882266819477,-0.00034161313669756055,0.00020722045155707747,0.24899697303771973,0.26815059781074524,-9.136273384094238,0.7083203792572021,47.6734504699707,-0.29159417748451233,-3.237579345703125,-1.7436728477478027,-0.6600586771965027,-0.04196850210428238,0.111967071890831,27.75,29.0,28.25,32.1875,34.75,35.9375
1.0,-0.36133339194242214,-1.030386653147388,-1.2208857896926788,-0.05552476240673719,-0.0218931304477885,-0.09022216251329973,-0.5292159580010505,-0.3013824482884408,0.25960747060625283,-3.078586387213845,0.624589442765718,-0.0003013942155005192,-0.0002495160354951491,-4.076642454830337e-05,-0.014053760822853173,0.0015931798640856562,-0.00426693296267661,-0.0002056814070457341,0.29506802558898926,-1.1934925478747864,1.725187126790182,-2.100710531274313,-1.5712736288653772,2.269929885864258,1.5070096007969831e-24,0.01785716600716114,0.014116180129349232,-0.02742634154856205,-0.0003174927842337638,0.0002006216236623004,0.15322890877723694,0.13407528400421143,-9.27034854888916,0.7105615139007568,47.72002029418945,-0.2577071785926819,-3.235907793045044,-1.719110131263733,-0.6454763412475586,-0.037975750863552094,0.11536858975887299,27.75,29.0,28.25,32.1875,34.75,35.9375
1.0,-0.2648472250291561,-1.1625464703555473,-1.2762972773112768,-0.04198443511755533,-0.006041088891660254,-0.08469700965370894,-0.5292403401643709,-0.3013700162117674,0.2595855267225137,-3.0785299017587096,0.6246552354706698,-0.000265628274097017,-0.0002891168435890584,-5.491272944711515e-05,-0.014783298633229674,0.0014528178456137322,-0.003888939675891047,-0.00022597901476036493,0.29504406452178955,-1.1934322279742737,1.72516376176943,-2.1007472477354945,-1.5713217894183558,2.269954204559326,2.0218458778495867e-26,0.01879117265343666,0.01502632163465023,-0.02967303991317749,-0.0002965560997836292,0.00022033325512893498,0.2106897532939911,0.07661445438861847,-9.21288776397705,0.7418897151947021,47.70927429199219,-0.3147987127304077,-3.394962787628174,-1.715195655822754,-0.646084725856781,-0.028691353276371956,0.1157078668475151,27.75,29.0,28.25,32.1875,34.75,35.9375
1.0,-0.2648472250291561,-1.1625464703555473,-1.2762972773112768,-0.04198443511755533,-0.006041088891660254,-0.08469700965370894,-0.5292403401643709,-0.3013700162117674,0.2595855267225137,-3.0785299017587096,0.6246552354706698,-0.000265628274097017,-0.0002891168435890584,-5.491272944711515e-05,-0.014783298633229674,0.0014528178456137322,-0.003888939675891047,-0.00022597901476036493,0.29504406452178955,-1.1934322279742737,1.72516376176943,-2.1007472477354945,-1.5713217894183558,2.269954204559326,2.0218458778495867e-26,0.01879117265343666,0.01502632163465023,-0.02967303991317749,-0.0002965560997836292,0.00022033325512893498,0.2106897532939911,0.07661445438861847,-9.21288776397705,0.7418897151947021,47.70927429199219,-0.3147987127304077,-3.394962787628174,-1.715195655822754,-0.646084725856781,-0.028691353276371956,0.1157078668475151,27.75,29.0,28.25,32.1875,34.75,35.9375
1.0,-0.6420984527248932,-1.4347899896534109,-1.3750727714442612,-0.033293224254878795,7.722638611889175e-05,-0.08197917981443392,-0.5292322371140631,-0.30137877316733586,0.25954235989258445,-3.078556236749615,0.6246024157382564,-0.0003410022771786025,-0.00044461752563353536,-0.0001045202330979974,-0.014149743141312409,0.0007234617249877325,-0.0015668054404750973,-0.0002216939638638262,0.2950561046600342,-1.1933845442584534,1.7252114454852503,-2.1008078060545863,-1.5712855497943323,2.269929885864258,2.712564233851293e-28,0.018160371109843254,0.014793097041547298,-0.031242970377206802,-0.00027821259573102,0.0002154298563254997,0.17238251864910126,0.019153613597154617,-9.308655738830566,0.7127973437309265,47.6707649230957,-0.2940278649330139,-3.399168014526367,-1.710652232170105,-0.6422721147537231,-0.035019826143980026,0.12213601171970367,27.75,29.0,28.25,32.1875,34.75,35.9375
1.0,-0.6420984527248932,-1.4347899896534109,-1.3750727714442612,-0.033293224254878795,7.722638611889175e-05,-0.08197917981443392,-0.5292322371140631,-0.30137877316733586,0.25954235989258445,-3.078556236749615,0.6246024157382564,-0.0003410022771786025,-0.00044461752563353536,-0.0001045202330979974,-0.014149743141312409,0.0007234617249877325,-0.0015668054404750973,-0.0002216939638638262,0.2950561046600342,-1.1933845442584534,1.7252114454852503,-2.1008078060545863,-1.5712855497943323,2.269929885864258,2.712564233851293e-28,0.018160371109843254,0.014793097041547298,-0.031242970377206802,-0.00027821259573102,0.0002154298563254997,0.17238251864910126,0.019153613597154617,-9.308655738830566,0.7127973437309265,47.6707649230957,-0.2940278649330139,-3.399168014526367,-1.710652232170105,-0.6422721147537231,-0.035019826143980026,0.12213601171970367,27.75,29.0,28.25,32.1875,34.75,35.9375
1.0,-0.6823418035117473,-1.090928222301328,-1.1395773942456378,-0.036240986852343615,0.010507946204827283,-0.08304091076612198,-0.5292191707451933,-0.3013896592641675,0.2595133175797169,-3.0785546322470583,0.6245828161391107,-0.0003569993934391881,-6.751590833262005e-05,9.177056535216592e-06,-0.013810494526418035,0.0003472370122335941,-0.0003845935810531663,-0.00025842429145458436,0.2950800657272339,-1.193361060028412,1.7252596060382288,-2.10086788753652,-1.5712855497943323,2.269941806793213,3.6392511407672346e-30,0.016840828582644463,0.016086209565401077,-0.03245711699128151,-0.00026200516731478274,0.00025155331240966916,0.05746084079146385,0.09576806426048279,-9.346963882446289,0.6971306204795837,47.67524337768555,-0.3127708435058594,-3.304680347442627,-1.7394351959228516,-0.6388639211654663,-0.030279912054538727,0.11511526256799698,27.75,29.0,28.25,32.1875,34.75,35.9375
1.0,-0.6823418035117473,-1.090928222301328,-1.1395773942456378,-0.036240986852343615,0.010507946204827283,-0.08304091076612198,-0.5292191707451933,-0.3013896592641675,0.2595133175797169,-3.0785546322470583,0.6245828161391107,-0.0003569993934391881,-6.751590833262005e-05,9.177056535216592e-06,-0.013810494526418035,0.0003472370122335941,-0.0003845935810531663,-0.00025842429145458436,0.2950800657272339,-1.193361060028412,1.7252596060382288,-2.10086788753652,-1.5712855497943323,2.269941806793213,3.6392511407672346e-30,0.016840828582644463,0.016086209565401077,-0.03245711699128151,-0.00026200516731478274,0.00025155331240966916,0.05746084079146385,0.09576806426048279,-9.346963882446289,0.6971306204795837,47.67524337768555,-0.3127708435058594,-3.304680347442627,-1.7394351959228516,-0.6388639211654663,-0.030279912054538727,0.11511526256799698,27.75,29.0,28.25,32.1875,34.75,35.9375
1.0,-1.0347807274022123,-0.7150131689769261,-1.4066344688964034,-0.03742641477231074,0.012900155693105701,-0.09024680178800731,-0.5292237870298291,-0.3013699277539475,0.25946688412976654,-3.0785178818977834,0.6246720595357956,-0.0004494251028858688,-0.00042254798877938905,-0.0001008736787757758,-0.014436286144096165,0.00031076998575166315,-0.00032702571425453317,-0.00028368387247143604,0.29504406452178955,-1.1933125716498871,1.7253082434283655,-2.1009046039977015,-1.5712736288653772,2.2699661254882812,4.8825204051375943e-32,0.018356598913669586,0.01574072241783142,-0.03369314968585968,-0.0002475849469192326,0.0002766505640465766,0.019153613597154617,0.07661445438861847,-9.461885452270508,0.7441308498382568,47.6421012878418,-0.33002132177352905,-3.340730667114258,-1.6818256378173828,-0.6487311124801636,-0.039873696863651276,0.11256848275661469,27.75,29.0,28.25,32.1875,34.75,35.9375
1.0,-1.0347807274022123,-0.7150131689769261,-1.4066344688964034,-0.03742641477231074,0.012900155693105701,-0.09024680178800731,-0.5292237870298291,-0.3013699277539475,0.25946688412976654,-3.0785178818977834,0.6246720595357956,-0.0004494251028858688,-0.00042254798877938905,-0.0001008736787757758,-0.014436286144096165,0.00031076998575166315,-0.00032702571425453317,-0.00028368387247143604,0.29504406452178955,-1.1933125716498871,1.7253082434283655,-2.1009046039977015,-1.5712736288653772,2.2699661254882812,4.8825204051375943e-32,0.018356598913669586,0.01574072241783142,-0.03369314968585968,-0.0002475849469192326,0.0002766505640465766,0.019153613597154617,0.07661445438861847,-9.461885452270508,0.7441308498382568,47.6421012878418,-0.33002132177352905,-3.340730667114258,-1.6818256378173828,-0.6487311124801636,-0.039873696863651276,0.11256848275661469,27.75,29.0,28.25,32.1875,34.75,35.9375
1.0,-0.715551236885148,-0.6547529711844755,-1.5013735657309304,-0.041437588859280686,0.023905454591936232,-0.08703471761971825,-0.529223038116317,-0.3013883577652289,0.25945989847955764,-3.0785209494518875,0.6246149267727102,-0.00035611056929441215,-0.0004407737226036126,-0.0001077969267125863,-0.014442309032657584,-7.490949848372443e-05,0.0008871513428480173,-0.0002707324121618288,0.2950800657272339,-1.193288729791977,1.7253082434283655,-2.10097660640859,-1.5713093916522425,2.2699661254882812,6.5505244627262585e-34,0.01829787716269493,0.016219979152083397,-0.03538758307695389,-0.00023466828861273825,0.00026312642148695886,0.019153613597154617,0.07661445438861847,-9.385271072387695,0.7105615139007568,47.651058197021484,-0.3163386881351471,-3.30497407913208,-1.748603105545044,-0.6260902881622314,-0.03523269668221474,0.11616062372922897,27.75,29.0,28.25,32.1875,34.75,35.9375
1.0,-0.6424793583474523,-0.2490396605843998,-1.4851053632535443,-0.057113616531776025,0.024070120721281306,-0.10227337994550442,-0.529223564822696,-0.3014083595465092,0.25945268685560485,-3.0785883062980086,0.6246094590326362,-0.0003254842653498915,-0.0004986079564513697,-0.0001266041840296657,-0.01503208371331882,-0.0002653295006796368,0.0014615571732263112,-0.0002569311882358734,0.2951040267944336,-1.193264440899231,1.7253082434283655,-2.101049085656637,-1.5712617079364222,2.2699780464172363,8.788364256675755e-36,0.019085025414824486,0.016991829499602318,-0.03755159676074982,-0.0002230335376225412,0.0002487457823008299,-0.019153613597154617,0.019153613597154617,-9.519346237182617,0.6814691424369812,47.700321197509766,-0.323180615901947,-3.3269519805908203,-1.6572916507720947,-0.6197459697723389,-0.0514126792550087,0.11294887214899063,27.75,29.0,28.25,32.1875,34.75,35.9375
1.0,-0.6424793583474523,-0.2490396605843998,-1.4851053632535443,-0.057113616531776025,0.024070120721281306,-0.10227337994550442,-0.529223564822696,-0.3014083595465092,0.25945268685560485,-3.0785883062980086,0.6246094590326362,-0.0003254842653498915,-0.0004986079564513697,-0.0001266041840296657,-0.01503208371331882,-0.0002653295006796368,0.0014615571732263112,-0.0002569311882358734,0.2951040267944336,-1.193264440899231,1.7253082434283655,-2.101049085656637,-1.5712617079364222,2.2699780464172363,8.788364256675755e-36,0.019085025414824486,0.016991829499602318,-0.03755159676074982,-0.0002230335376225412,0.0002487457823008299,-0.019153613597154617,0.019153613597154617,-9.519346237182617,0.6814691424369812,47.700321197509766,-0.323180615901947,-3.3269519805908203,-1.6572916507720947,-0.6197459697723389,-0.0514126792550087,0.11294887214899063,27.75,29.0,28.25,32.1875,34.75,35.9375
1.0,-1.0682448348463007,-0.656349025149456,-1.6789930440087273,-0.05653758164786909,0.013581335005690549,-0.08578143966983869,-0.5292239195171421,-0.3013823655321984,0.2593689532828249,-3.0785164540543515,0.6245753060520367,-0.0004317553231133276,-0.0006558427459569006,-0.00017566354496842269,-0.015846949276989014,-0.00016535113732839927,0.0010884441745759984,-0.0002440966072853601,0.29506802558898926,-1.1931800109199067,1.7254040876971644,-2.101133008996481,-1.5712974707232874,2.269929885864258,1.1790712492303845e-37,0.02044544368982315,0.017300808802247047,-0.03883497416973114,-0.00021249844576232135,0.000235724714002572,0.038307227194309235,-0.07661445438861847,-9.59596061706543,0.6971306204795837,47.651954650878906,-0.38757386803627014,-3.4279863834381104,-1.758087396621704,-0.6159970760345459,-0.04018942266702652,0.11566703021526337,27.75,29.0,28.25,32.1875,34.75,35.9375
1.0,-1.0682448348463007,-0.656349025149456,-1.6789930440087273,-0.05653758164786909,0.013581335005690549,-0.08578143966983869,-0.5292239195171421,-0.3013823655321984,0.2593689532828249,-3.0785164540543515,0.6245753060520367,-0.0004317553231133276,-0.0006558427459569006,-0.00017566354496842269,-0.015846949276989014,-0.00016535113732839927,0.0010884441745759984,-0.0002440966072853601,0.29506802558898926,-1.1931800109199067,1.7254040876971644,-2.101133008996481,-1.5712974707232874,2.269929885864258,1.1790712492303845e-37,0.02044544368982315,0.017300808802247047,-0.03883497416973114,-0.00021249844576232135,0.000235724714002572,0.038307227194309235,-0.07661445438861847,-9.59596061706543,0.6971306204795837,47.651954650878906,-0.38757386803627014,-3.4279863834381104,-1.758087396621704,-0.6159970760345459,-0.04018942266702652,0.11566703021526337,27.75,29.0,28.25,32.1875,34.75,35.9375
1.0,-1.2785525626025254,-1.3212021918631889,-1.8626110110466099,-0.03965735600536791,0.02105580190819638,-0.07859339893931103,-0.5292187962557955,-0.30138202998857994,0.2593423630072917,-3.0785155853136312,0.6245751703972167,-0.00047370753008279723,-0.00033151834353233793,-7.728451520405696e-05,-0.016334754287049554,-0.00012309046059749573,0.0009178345848940121,-0.00023277062614574686,0.29506802558898926,-1.1931561392596741,1.725440804158346,-2.1011697254576625,-1.5712855497943323,2.269929885864258,1.5818753896315703e-39,0.020356208086013794,0.018823903053998947,-0.04009334743022919,-0.00020291343389544636,0.00022398843429982662,0.0,0.0,-9.615114212036133,0.7486078143119812,47.69136428833008,-0.32824277877807617,-3.350099563598633,-1.7643156051635742,-0.600853681564331,-0.027064789086580276,0.11210153996944427,27.75,29.0,28.25,32.1875,34.75,35.9375
1.0,-1.2785525626025254,-1.3212021918631889,-1.8626110110466099,-0.03965735600536791,0.02105580190819638,-0.07859339893931103,-0.5292187962557955,-0.30138202998857994,0.2593423630072917,-3.0785155853136312,0.6245751703972167,-0.00047370753008279723,-0.00033151834353233793,-7.728451520405696e-05,-0.016334754287049554,-0.00012309046059749573,0.0009178345848940121,-0.00023277062614574686,0.29506802558898926,-1.1931561392596741,1.725440804158346,-2.1011697254576625,-1.5712855497943323,2.269929885864258,1.5818753896315703e-39,0.020356208086013794,0.018823903053998947,-0.04009334743022919,-0.00020291343389544636,0.00022398843429982662,0.0,0.0,-9.615114212036133,0.7486078143119812,47.69136428833008,-0.32824277877807617,-3.350099563598633,-1.7643156051635742,-0.600853681564331,-0.027064789086580276,0.11210153996944427,27.75,29.0,28.25,32.1875,34.75,35.9375
1.0,-0.7565086837839772,-0.8673466421071787,-1.6696515493288575,-0.051042501482079415,0.03922733609369418,-0.0924397520380624,-0.5292310137844817,-0.301383288615546,0.2593115831364408,-3.0784956089452846,0.6246291676674298,-0.0004212944909585356,-0.0006660291099107505,-0.0001806705331347292,-0.01581432379059715,-0.0008906359648652019,0.0033929723454197576,-0.00022278285662993475,0.29506802558898926,-1.193096325998642,1.7254517714129847,-2.1012655697264613,-1.5713093916522425,2.2699661254882812,2.1222665242199355e-41,0.02023143507540226,0.018230687826871872,-0.041966769844293594,-0.0001941568189067766,0.0002133632224285975,-0.019153613597154617,0.038307227194309235,-9.634267807006836,0.7284641265869141,47.718231201171875,-0.33606070280075073,-3.3713579177856445,-1.745460033416748,-0.5883277654647827,-0.0360848605632782,0.11589460074901581,27.75,29.0,28.25,32.1875,34.75,35.9375
1.0,-0.7565086837839772,-0.8673466421071787,-1.6696515493288575,-0.051042501482079415,0.03922733609369418,-0.0924397520380624,-0.5292310137844817,-0.301383288615546,0.2593115831364408,-3.0784956089452846,0.6246291676674298,-0.0004212944909585356,-0.0008651783991299115,-0.0002424162765102516,-0.01617795336755981,-0.0011093466980232997,0.004071952665958878,-0.00021352127889130262,0.29509198665618896,-1.193059967165329,1.7255108992206019,-2.1013628445067347,-1.5713093916522425,2.269941806793213,2.8446358825793787e-43,0.0210423544049263,0.018331896513700485,-0.043592169880867004,-0.00018612427811603993,0.00020370358834043145,-0.05746084079146385,0.038307227194309235,-9.634267807006836,0.7195101380348206,47.681514739990234,-0.35639649629592896,-3.4266624450683594,-1.7853806018829346,-0.5582920908927917,-0.06457620859146118,0.1084120124578476,27.75,29.0,28.25,32.1875,34.75,35.9375
1.0,-1.4380719730424585,-0.9057565067421658,-1.7085663394355584,-0.04643944942553098,0.0270682112062215,-0.08516077750109498,-0.5292195315242141,-0.3013946578278763,0.2592738046938193,-3.0785115986900276,0.6245550770727558,-0.0004188988635483563,-0.0008651783991299115,-0.0002424162765102516,-0.01617795336755981,-0.0011093466980232997,0.004071952665958878,-0.00021352127889130262,0.29509198665618896,-1.193059967165329,1.7255108992206019,-2.1013628445067347,-1.5713093916522425,2.269941806793213,2.8446358825793787e-43,0.0210423544049263,0.018331896513700485,-0.043592169880867004,-0.00018612427811603993,0.00020370358834043145,-0.05746084079146385,0.038307227194309235,-9.634267807006836,0.7195101380348206,47.681514739990234,-0.35639649629592896,-3.4266624450683594,-1.7853806018829346,-0.5582920908927917,-0.06457620859146118,0.1084120124578476,27.75,29.0,28.25,32.1875,34.75,35.9375
1.0,-1.1262074938195812,-0.9576638303108346,-1.649734964723289,-0.041730967608814486,0.03685942267883282,-0.09578014915181673,-0.5292219693953822,-0.301384217092323,0.2592283863183947,-3.078521460111407,0.6246345814305592,-0.0004633138015762176,-0.000879117387535337,-0.0002473863738294806,-0.016366253519632622,-0.0013505545001748112,0.004832025858798201,-0.00020514567513993818,0.29506802558898926,-1.1930120450309296,1.7255714575396937,-2.1014586887755335,-1.5712736288653772,2.2699661254882812,4.203895392974451e-45,0.021237507462501526,0.01884010247886181,-0.04509294033050537,-0.0001787301735021174,0.0001948774588527158,-0.019153613597154617,0.0,-9.615114212036133,0.6859408020973206,47.69673538208008,-0.3731078803539276,-3.3496294021606445,-1.7776459455490112,-0.5648259520530701,-0.051425155252218246,0.1070348471403122,27.75,29.0,28.25,32.1875,34.75,35.9375
1.0,-1.1262074938195812,-0.9576638303108346,-1.649734964723289,-0.041730967608814486,0.03685942267883282,-0.09578014915181673,-0.5292219693953822,-0.301384217092323,0.2592283863183947,-3.078521460111407,0.6246345814305592,-0.0004633138015762176,-0.000879117387535337,-0.0002473863738294806,-0.016366253519632622,-0.0013505545001748112,0.004832025858798201,-0.00020514567513993818,0.29506802558898926,-1.1930120450309296,1.7255714575396937,-2.1014586887755335,-1.5712736288653772,2.2699661254882812,4.203895392974451e-45,0.021237507462501526,0.01884010247886181,-0.04509294033050537,-0.0001787301735021174,0.0001948774588527158,-0.019153613597154617,0.0,-9.615114212036133,0.6859408020973206,47.69673538208008,-0.3731078803539276,-3.3496294021606445,-1.7776459455490112,-0.5648259520530701,-0.051425155252218246,0.1070348471403122,27.75,29.0,28.25,32.1875,34.75,35.9375
1.0,-0.7826671482870969,-0.31827919385562264,-1.7107788366134544,-0.06427124322773967,0.041070775585102165,-0.09670154750011531,-0.5292409135202868,-0.3013875371673323,0.2592094225551845,-3.0785052725712525,0.6246694614012985,-0.00041114722409991235,-0.0011798178814395222,-0.00034017458120426684,-0.016156050507177853,-0.0017628484700744442,0.006151649461757258,-0.0001973661765877278,0.29506802558898926,-1.1929520529559632,1.7255471388446253,-2.1015192470946253,-1.5712974707232874,2.2699899673461914,0.0,0.02151465229690075,0.018219487741589546,-0.04613198712468147,-0.0001719017163850367,0.00018678918422665447,-0.1149216815829277,0.038307227194309235,-9.53849983215332,0.7508436441421509,47.71464920043945,-0.35888850688934326,-3.374723434448242,-1.6752939224243164,-0.5442946553230286,-0.046363383531570435,0.11386694014072418,27.75,29.0,28.25,32.1875,34.75,35.9375
1.0,-0.7826671482870969,-0.31827919385562264,-1.7107788366134544,-0.06427124322773967,0.041070775585102165,-0.09670154750011531,-0.5292409135202868,-0.3013875371673323,0.2592094225551845,-3.0785052725712525,0.6246694614012985,-0.00041114722409991235,-0.0011798178814395222,-0.00034017458120426684,-0.016156050507177853,-0.0017628484700744442,0.006151649461757258,-0.0001973661765877278,0.29506802558898926,-1.1929520529559632,1.7255471388446253,-2.1015192470946253,-1.5712974707232874,2.2699899673461914,0.0,0.02151465229690075,0.018219487741589546,-0.04613198712468147,-0.0001719017163850367,0.00018678918422665447,-0.1149216815829277,0.038307227194309235,-9.53849983215332,0.7508436441421509,47.71464920043945,-0.35888850688934326,-3.374723434448242,-1.6752939224243164,-0.5442946553230286,-0.046363383531570435,0.11386694014072418,27.75,29.0,28.25,32.1875,34.75,35.9375
1.0,-1.1441285164029324,-1.503698844887059,-1.6776164872930912,-0.04381308853813825,0.023129494241841637,-0.0891374016155771,-0.5292435670670051,-0.3013796951982403,0.2591682580212991,-3.0784933541563095,0.6246479340516782,-0.00041849237994066944,-0.000968003760982788,-0.0002759168792364832,-0.01645219265038817,-0.0019311252674736846,0.006679801798600483,-0.00022155642039479084,0.2950561046600342,-1.192904071216919,1.7255952993976038,-2.1016036472716273,-1.5713093916522425,2.2699661254882812,0.0,0.02137579768896103,0.01946374773979187,-0.047791674733161926,-0.00016557564958930016,0.00021043386368546635,-0.038307227194309235,0.07661445438861847,-9.615114212036133,0.7396538853645325,47.72808074951172,-0.4330581724643707,-3.336887836456299,-1.7330074310302734,-0.5261296629905701,-0.05977838858962059,0.11475265026092529,27.75,29.0,28.25,32.1875,34.75,35.9375
1.0,-1.1441285164029324,-1.503698844887059,-1.6776164872930912,-0.04381308853813825,0.023129494241841637,-0.0891374016155771,-0.5292435670670051,-0.3013796951982403,0.2591682580212991,-3.0784933541563095,0.6246479340516782,-0.00041849237994066944,-0.000968003760982788,-0.0002759168792364832,-0.01645219265038817,-0.0019311252674736846,0.006679801798600483,-0.00022155642039479084,0.2950561046600342,-1.192904071216919,1.7255952993976038,-2.1016036472716273,-1.5713093916522425,2.2699661254882812,0.0,0.02137579768896103,0.01946374773979187,-0.047791674733161926,-0.00016557564958930016,0.00021043386368546635,-0.038307227194309235,0.07661445438861847,-9.615114212036133,0.7396538853645325,47.72808074951172,-0.4330581724643707,-3.336887836456299,-1.7330074310302734,-0.5261296629905701,-0.05977838858962059,0.11475265026092529,27.75,29.0,28.25,32.1875,34.75,35.9375
1.0,-1.2371917350027415,-1.3029918576244972,-1.7686806136527653,-0.04853809523529279,0.014192270293863885,-0.08364748355054545,-0.5292503424253341,-0.30139165124333084,0.25916141367290646,-3.0785581726946925,0.6246612230114189,-0.00030586753926983124,-0.0008442938648824429,-0.0002385657071965269,-0.01700560329927845,-0.0018716780069279275,0.006461515965712963,-0.00021808536818800734,0.29506802558898926,-1.1928799611381073,1.7256081740008753,-2.1017352543272914,-1.5712855497943323,2.2699780464172363,0.0,0.02180030569434166,0.02041432447731495,-0.04894064739346504,-0.00015969848027452826,0.00020665014744736254,-0.07661445438861847,0.019153613597154617,-9.615114212036133,0.6658024191856384,47.6895751953125,-0.3942892849445343,-3.353179931640625,-1.7224032878875732,-0.49830514192581177,-0.036081500351428986,0.11056549102067947,27.75,29.0,28.25,32.1875,34.75,35.9375
1.0,-0.6592881681195035,-0.6223812566785965,-1.356277334985757,-0.056722431729822664,0.015087899440648242,-0.09457823188129529,-0.5292513911818555,-0.30137459694307545,0.25911926884491254,-3.078533751283171,0.6246755451956344,-0.0002887271080103259,-0.0009581337050668444,-0.00027388111161141473,-0.01746326728611817,-0.00163629610996305,0.005668465235324454,-0.00021057496787787376,0.29504406452178955,-1.1928436917117615,1.7256796995746058,-2.101842542687887,-1.5713093916522425,2.2699661254882812,0.0,0.02267138473689556,0.02025190368294716,-0.04882209748029709,-0.00015422476280946285,0.00019930122653022408,0.1149216815829277,0.019153613597154617,-9.519346237182617,0.7016075849533081,47.671661376953125,-0.3646979033946991,-3.354888916015625,-1.739827036857605,-0.5062481164932251,-0.033063169568777084,0.11640146374702454,27.75,29.0,28.25,32.1875,34.75,35.9375
1.0,-0.6592881681195035,-0.6223812566785965,-1.356277334985757,-0.056722431729822664,0.015087899440648242,-0.09457823188129529,-0.5292513911818555,-0.30137459694307545,0.25911926884491254,-3.078533751283171,0.6246755451956344,-0.0002887271080103259,-0.0009581337050668444,-0.00027388111161141473,-0.01746326728611817,-0.00163629610996305,0.005668465235324454,-0.00021057496787787376,0.29504406452178955,-1.1928436917117615,1.7256796995746058,-2.101842542687887,-1.5713093916522425,2.2699661254882812,0.0,0.02267138473689556,0.02025190368294716,-0.04882209748029709,-0.00015422476280946285,0.00019930122653022408,0.1149216815829277,0.019153613597154617,-9.519346237182617,0.7016075849533081,47.671661376953125,-0.3646979033946991,-3.354888916015625,-1.739827036857605,-0.5062481164932251,-0.033063169568777084,0.11640146374702454,27.75,29.0,28.25,32.1875,34.75,35.9375
1.0,0.06998730486861646,-0.7023092732255457,-1.36334418438868,-0.042157428512224975,0.017910687022351233,-0.09009447915927472,-0.5292428673275538,-0.3013857014333917,0.25908305726566605,-3.0786069741730095,0.6246132290418507,-0.00031508640431981787,-0.0010625068706542342,-0.00030639420708846094,-0.017375820675393183,-0.0015894668193387924,0.005497151959673824,-0.00020331999779493113,0.2950561046600342,-1.1928077799132843,1.7257383505450647,-2.101950784722799,-1.5712493101703089,2.269929885864258,0.0,0.02280830405652523,0.01974172703921795,-0.04827134311199188,-0.00014911354810465127,0.00019222221453674138,0.1149216815829277,0.05746084079146385,-9.461885452270508,0.6322330832481384,47.694053649902344,-0.43156105279922485,-3.3182740211486816,-1.7102904319763184,-0.4889318645000458,-0.044872183352708817,0.11037780344486237,27.75,29.0,28.25,32.1875,34.75,35.9375
1.0,0.06998730486861646,-0.7023092732255457,-1.36334418438868,-0.042157428512224975,0.017910687022351233,-0.09009447915927472,-0.5292428673275538,-0.3013857014333917,0.25908305726566605,-3.0786069741730095,0.6246132290418507,-0.00031508640431981787,-0.0010625068706542342,-0.00030639420708846094,-0.017375820675393183,-0.0015894668193387924,0.005497151959673824,-0.00020331999779493113,0.2950561046600342,-1.1928077799132843,1.7257383505450647,-2.101950784722799,-1.5712493101703089,2.269929885864258,0.0,0.02280830405652523,0.01974172703921795,-0.04827134311199188,-0.00014911354810465127,0.00019222221453674138,0.1149216815829277,0.05746084079146385,-9.461885452270508,0.6322330832481384,47.694053649902344,-0.43156105279922485,-3.3182740211486816,-1.7102904319763184,-0.4889318645000458,-0.044872183352708817,0.11037780344486237,27.75,29.0,28.25,32.1875,34.75,35.9375
1.0,-0.1871597395748517,-0.269308832905944,-1.2626971532196323,-0.03891013598873236,0.00037071743854640536,-0.09408932386224404,-0.5292491868857289,-0.3014012348338757,0.2590537715221054,-3.078614357393105,0.6246344233569671,-0.00024165866417057304,-0.0008170098357824973,-0.00023174663486423693,-0.017484208540194193,-0.0014975227236984218,0.005183021003056119,-0.00019680616719058267,0.2950800657272339,-1.1927479666522522,1.7257512251483362,-2.10206999401235,-1.5712617079364222,2.2699661254882812,0.0,0.022443216294050217,0.020500758662819862,-0.04833800718188286,-0.00014433058095164597,0.0001856170129030943,0.13407529890537262,0.038307227194309235,-9.346963882446289,0.6792280077934265,47.66539001464844,-0.3395194113254547,-3.32183575630188,-1.6826419830322266,-0.496884822845459,-0.043973155319690704,0.12128064036369324,27.75,29.0,28.25,32.1875,34.75,35.9375
1.0,-0.1871597395748517,-0.269308832905944,-1.2626971532196323,-0.03891013598873236,0.00037071743854640536,-0.09408932386224404,-0.5292491868857289,-0.3014012348338757,0.2590537715221054,-3.078614357393105,0.6246344233569671,-0.00024165866417057304,-0.0008170098357824973,-0.00023174663486423693,-0.017484208540194193,-0.0014975227236984218,0.005183021003056119,-0.00019680616719058267,0.2950800657272339,-1.1927479666522522,1.7257512251483362,-2.10206999401235,-1.5712617079364222,2.2699661254882812,0.0,0.022443216294050217,0.020500758662819862,-0.04833800718188286,-0.00014433058095164597,0.0001856170129030943,0.13407529890537262,0.038307227194309235,-9.346963882446289,0.6792280077934265,47.66539001464844,-0.3395194113254547,-3.32183575630188,-1.6826419830322266,-0.496884822845459,-0.043973155319690704,0.12128064036369324,27.75,29.0,28.25,32.1875,34.75,35.9375
1.0,0.11069511368398342,-0.08153958157702809,-1.1968869941094504,-0.04106751342949623,-0.0014499050592762797,-0.0896218533847209,-0.5292570407353957,-0.3013924005206917,0.25902729697706023,-3.078607668074132,0.6245943358412829,-0.0001663204819320276,-0.0006944249003595702,-8.587814629373753e-05,-0.017620527624516005,-0.0012498712440239576,0.004361015295740364,-0.000365492338319995,0.2950679659843445,-1.1927120846560975,1.7257874647723597,-2.1021772823729457,-1.5712974707232874,2.269929885864258,-0.00017502409173175693,0.02230670116841793,0.020851820707321167,-0.04769406467676163,-0.00013984448742121458,0.0001794479030650109,0.2298433631658554,0.07661445438861847,-9.327810287475586,0.6478998064994812,47.692256927490234,-0.3859286308288574,-3.2992427349090576,-1.6671926975250244,-0.4873003661632538,-0.048214443027973175,0.1213483065366745,27.75,29.0,28.25,32.1875,34.75,35.9375
1.0,0.11069511368398342,-0.08153958157702809,-1.1968869941094504,-0.04106751342949623,-0.0014499050592762797,-0.0896218533847209,-0.5292570407353957,-0.3013924005206917,0.25902729697706023,-3.078607668074132,0.6245943358412829,-0.0001663204819320276,-0.0006944249003595702,-8.587814629373753e-05,-0.017620527624516005,-0.0012498712440239576,0.004361015295740364,-0.000365492338319995,0.2950679659843445,-1.1927120846560975,1.7257874647723597,-2.1021772823729457,-1.5712974707232874,2.269929885864258,-0.00017502409173175693,0.02230670116841793,0.020851820707321167,-0.04769406467676163,-0.00013984448742121458,0.0001794479030650109,0.2298433631658554,0.07661445438861847,-9.327810287475586,0.6478998064994812,47.692256927490234,-0.3859286308288574,-3.2992427349090576,-1.6671926975250244,-0.4873003661632538,-0.048214443027973175,0.1213483065366745,27.75,29.0,28.25,32.1875,34.75,35.9375
1.0,0.3551128164996116,-0.2378191981097556,-1.039924952152439,-0.0386699031026367,-0.0005944170769510825,-0.09791823014188403,-0.5292373307752133,-0.3013950793956468,0.2589824901876623,-3.078584562851029,0.6246475833849281,-0.00024059617776734749,-0.0006319536832901943,-4.9929350411656515e-05,-0.01834731390781812,-0.0007014356146832415,0.0025501361372043917,-0.00038695979687777674,0.2950800061225891,-1.192687676554062,1.725870434437887,-2.1022373638548792,-1.5712855497943323,2.2699780464172363,-0.00020262826001271605,0.023196328431367874,0.021145107224583626,-0.04698488861322403,-0.00013562939420808107,0.00017367572581861168,0.26815059781074524,0.09576806426048279,-9.251194953918457,0.7709873914718628,47.702110290527344,-0.4228423237800598,-3.2925894260406494,-1.6729817390441895,-0.4927482008934021,-0.04874475300312042,0.11375439167022705,27.75,29.0,28.25,32.1875,34.75,36.0
1.0,0.44963853925266395,-0.2529155382995111,-1.0087597891709794,-0.04205670303177254,-0.0038422596269055125,-0.09107856869484622,-0.5292589313561636,-0.3013731210490746,0.2589537824917734,-3.078599583688098,0.6247084533692246,-0.00020268669996136317,-0.0005045948798012085,4.436070280079115e-06,-0.0187187802372211,-8.778932374820398e-05,0.0005322822235472862,-0.0004062299981190866,0.2950320541858673,-1.1926396948150177,1.7258952299701136,-2.1023441753783167,-1.5712736288653772,2.2699661254882812,-0.00022791278024669737,0.023535093292593956,0.02112732268869877,-0.045196786522865295,-0.0001316607085755095,0.00016826331557240337,0.2298433631658554,0.038307227194309235,-9.21288776397705,0.6769921779632568,47.65016555786133,-0.3906206488609314,-3.2375216484069824,-1.6470956802368164,-0.5252379775047302,-0.04116035997867584,0.11798542737960815,27.75,29.0,28.25,32.1875,34.75,36.0
1.0,0.44963853925266395,-0.2529155382995111,-1.0087597891709794,-0.04205670303177254,-0.0038422596269055125,-0.09107856869484622,-0.5292589313561636,-0.3013731210490746,0.2589537824917734,-3.078599583688098,0.6247084533692246,-0.00020268669996136317,-0.0005045948798012085,4.436070280079115e-06,-0.0187187802372211,-8.778932374820398e-05,0.0005322822235472862,-0.0004062299981190866,0.2950320541858673,-1.1926396948150177,1.7258952299701136,-2.1023441753783167,-1.5712736288653772,2.2699661254882812,-0.00022791278024669737,0.023535093292593956,0.02112732268869877,-0.045196786522865295,-0.0001316607085755095,0.00016826331557240337,0.2298433631658554,0.038307227194309235,-9.21288776397705,0.6769921779632568,47.65016555786133,-0.3906206488609314,-3.2375216484069824,-1.6470956802368164,-0.5252379775047302,-0.04116035997867584,0.11798542737960815,27.75,29.0,28.25,32.1875,34.75,36.0
1.0,-0.13163277093949233,-0.9975952191170954,-1.121762218768202,-0.03060680098432953,-0.0144497634865776,-0.08724446165281965,-0.5292681209195065,-0.3013820992120745,0.2589239402282481,-3.078614255209757,0.6246732336452615,-0.00014262595370545384,-0.0003820941387066126,5.656296773085183e-05,-0.018762960165338443,-0.00030851712837034985,0.0012414644371996338,-0.0004257269597133772,0.2950439751148224,-1.1925800007632752,1.7259071508990687,-2.102452894250387,-1.5712855497943323,2.269954204559326,-0.0002520579728297889,0.02325146459043026,0.021892819553613663,-0.046421390026807785,-0.00012791766494046897,0.000163177028298378,0.1149216815829277,0.019153613597154617,-9.136273384094238,0.6747510433197021,47.679718017578125,-0.39220213890075684,-3.1681573390960693,-1.5944294929504395,-0.529258131980896,-0.029688537120819092,0.10738496482372284,27.75,29.0,28.25,32.1875,34.75,36.0
1.0,-0.13163277093949233,-0.9975952191170954,-1.121762218768202,-0.03060680098432953,-0.0144497634865776,-0.08724446165281965,-0.5292681209195065,-0.3013820992120745,0.2589239402282481,-3.078614255209757,0.6246732336452615,-0.00014262595370545384,-0.0003820941387066126,5.656296773085183e-05,-0.018762960165338443,-0.00030851712837034985,0.0012414644371996338,-0.0004257269597133772,0.2950439751148224,-1.1925800007632752,1.7259071508990687,-2.102452894250387,-1.5712855497943323,2.269954204559326,-0.0002520579728297889,0.02325146459043026,0.021892819553613663,-0.046421390026807785,-0.00012791766494046897,0.000163177028298378,0.1149216815829277,0.019153613597154617,-9.136273384094238,0.6747510433197021,47.679718017578125,-0.39220213890075684,-3.1681573390960693,-1.5944294929504395,-0.529258131980896,-0.029688537120819092,0.10738496482372284,27.75,29.0,28.25,32.1875,34.75,36.0
1.0,0.21718993955524338,-0.6813374535253972,-0.9143687160538815,-0.03978651080941237,-0.005086263542480627,-0.09100788813666126,-0.5292596943814002,-0.3013805858973587,0.2588987235844222,-3.078637079048101,0.6246393884547371,-0.00013677053110954697,-0.0006597067751872143,0.0004745298475826748,-0.018781831091042003,3.521225219410151e-05,0.00010674997375034749,-0.0012302658073777074,0.2950437068939209,-1.1925678712180634,1.7259672323810022,-2.1025358639159144,-1.5712736288653772,2.269929885864258,-0.0010618936503306031,0.023448094725608826,0.021312516182661057,-0.04485209658741951,-0.000124381942441687,0.0001583916018716991,0.17238251864910126,0.09576806426048279,-9.117119789123535,0.6971306204795837,47.69136428833008,-0.34586697816848755,-3.231703519821167,-1.558156132698059,-0.5563992261886597,-0.032201025635004044,0.10889231413602829,27.75,29.0,28.25,32.1875,34.75,36.0
1.0,0.21718993955524338,-0.6813374535253972,-0.9143687160538815,-0.03978651080941237,-0.005086263542480627,-0.09100788813666126,-0.5292596943814002,-0.3013805858973587,0.2588987235844222,-3.078637079048101,0.6246393884547371,-0.00013677053110954697,-0.0006597067751872143,0.0004745298475826748,-0.018781831091042003,3.521225219410151e-05,0.00010674997375034749,-0.0012302658073777074,0.2950437068939209,-1.1925678712180634,1.7259672323810022,-2.1025358639159144,-1.5712736288653772,2.269929885864258,-0.0010618936503306031,0.023448094725608826,0.021312516182661057,-0.04485209658741951,-0.000124381942441687,0.0001583916018716991,0.17238251864910126,0.09576806426048279,-9.117119789123535,0.6971306204795837,47.69136428833008,-0.34586697816848755,-3.231703519821167,-1.558156132698059,-0.5563992261886597,-0.032201025635004044,0.10889231413602829,27.75,29.0,28.25,32.1875,34.75,36.0
1.0,0.2524692677517489,-0.8047931486397057,-0.978970178377663,-0.030941576028035385,-0.006800041778607639,-0.09304081681390192,-0.5292595217915055,-0.3013941971273512,0.25885114276109916,-3.0786229083424743,0.6246561491922142,-0.00012863178641466007,-0.00037765420499024624,0.0004883430556823765,-0.01925667538599547,0.0007680606729350414,-0.0022257499761450645,-0.0011053500127794539,0.295067697763443,-1.1924958390048523,1.7260025183307093,-2.102642675439352,-1.5712855497943323,2.2699661254882812,-0.0009421515860594809,0.023701976984739304,0.021626245230436325,-0.04297482222318649,-0.00014205188199412078,0.00015387783059850335,0.15322890877723694,0.07661445438861847,-9.078812599182129,0.7239871025085449,47.68240737915039,-0.37976202368736267,-3.2187376022338867,-1.5936577320098877,-0.569014310836792,-0.0587368905544281,0.11012763530015945,27.75,29.0,28.25,32.1875,34.75,36.0
1.0,0.2524692677517489,-0.8047931486397057,-0.978970178377663,-0.030941576028035385,-0.006800041778607639,-0.09304081681390192,-0.5292595217915055,-0.3013941971273512,0.25885114276109916,-3.0786229083424743,0.6246561491922142,-0.00012863178641466007,-0.00037765420499024624,0.0004883430556823765,-0.01925667538599547,0.0007680606729350414,-0.0022257499761450645,-0.0011053500127794539,0.295067697763443,-1.1924958390048523,1.7260025183307093,-2.102642675439352,-1.5712855497943323,2.2699661254882812,-0.0009421515860594809,0.023701976984739304,0.021626245230436325,-0.04297482222318649,-0.00014205188199412078,0.00015387783059850335,0.15322890877723694,0.07661445438861847,-9.078812599182129,0.7239871025085449,47.68240737915039,-0.37976202368736267,-3.2187376022338867,-1.5936577320098877,-0.569014310836792,-0.0587368905544281,0.11012763530015945,27.75,29.0,28.25,32.1875,34.75,36.0
1.0,0.3394182046436084,-0.5734414810913676,-0.7467232547813629,-0.038519808892448666,-0.006079836335120738,-0.09186838364935578,-0.5292538299771253,-0.30139873136263856,0.25881861203391127,-3.078612952778457,0.6245957437855294,-0.00015264800072685582,-0.0003420163189123006,0.00041263470403971086,-0.019720659445508944,0.0006408268042890191,-0.0018182334636200584,-0.0009621549743152666,0.2950797975063324,-1.192459599380829,1.7260387579547327,-2.1026913128294886,-1.5712974707232874,2.269941806793213,-0.0008027864387258887,0.02424495294690132,0.022332200780510902,-0.04465066269040108,-0.00014123022265266627,0.00014961296983528882,0.13407529890537262,0.17238251864910126,-9.097966194152832,0.7105615139007568,47.651954650878906,-0.3728749454021454,-3.218845844268799,-1.5546000003814697,-0.5975046157836914,-0.049830418080091476,0.10811996459960938,27.75,29.0,28.25,32.1875,34.75,36.0
1.0,0.32721301129118086,-0.6009075844826751,-0.888783701913587,-0.045036968912565964,0.0006730679009991983,-0.09013524057379513,-0.5292601067749041,-0.3013882467935252,0.25877862927726636,-3.0786146504079213,0.6246926182593491,-0.00017098714258175954,-7.481874508899922e-05,0.00042952132321254953,-0.02015050309566726,0.000760883188641945,-0.0022226772206877534,-0.0008543430824736059,0.2950558662414551,-1.1924116772464295,1.7260869185077112,-2.1027871570982875,-1.5712736288653772,2.2699780464172363,-0.0006987970555201173,0.024299120530486107,0.023402683436870575,-0.04535345360636711,-0.0001378148008370772,0.0001455796736991033,0.3064578175544739,0.13407529890537262,-9.059659004211426,0.7351769208908081,47.700321197509766,-0.4151982069015503,-3.102151870727539,-1.6364825963974,-0.5972825288772583,-0.043795473873615265,0.1303793489933014,27.75,29.0,28.25,32.1875,34.75,36.0
1.0,0.32721301129118086,-0.6009075844826751,-0.888783701913587,-0.045036968912565964,0.0006730679009991983,-0.09013524057379513,-0.5292601067749041,-0.3013882467935252,0.25877862927726636,-3.0786146504079213,0.6246926182593491,-0.00017098714258175954,-7.481874508899922e-05,0.00042952132321254953,-0.02015050309566726,0.000760883188641945,-0.0022226772206877534,-0.0008543430824736059,0.2950558662414551,-1.1924116772464295,1.7260869185077112,-2.1027871570982875,-1.5712736288653772,2.2699780464172363,-0.0006987970555201173,0.024299120530486107,0.023402683436870575,-0.04535345360636711,-0.0001378148008370772,0.0001455796736991033,0.3064578175544739,0.13407529890537262,-9.059659004211426,0.7351769208908081,47.700321197509766,-0.4151982069015503,-3.102151870727539,-1.6364825963974,-0.5972825288772583,-0.043795473873615265,0.1303793489933014,27.75,29.0,28.25,32.1875,34.75,36.0
1.0,0.49057668381334074,-0.49612389290072983,-0.7170292130047473,-0.051719201843994894,0.007039911671919228,-0.09418470621879457,-0.529248199473073,-0.301399505180335,0.25874040718250163,-3.078629651234307,0.6246190396902624,-0.00017110014537242903,-0.00018074085844016553,0.0003470537424071261,-0.02072140961044746,0.0007135533536550333,-0.0020878068609837463,-0.0007707114095959596,0.2950798571109772,-1.1923754078200837,1.7261469999896448,-2.1028834782042445,-1.5712736288653772,2.269954204559326,-0.0006186842801980674,0.025261996313929558,0.023727376013994217,-0.04678384214639664,-0.00013439703616313636,0.00014175786054693162,0.2298433631658554,0.07661445438861847,-9.117119789123535,0.6792280077934265,47.685096740722656,-0.38980257511138916,-3.1500253677368164,-1.6011625528335571,-0.6168118715286255,-0.04204942658543587,0.1203187108039856,27.75,29.0,28.25,32.1875,34.75,36.0
1.0,0.49057668381334074,-0.49612389290072983,-0.7170292130047473,-0.051719201843994894,0.007039911671919228,-0.09418470621879457,-0.529248199473073,-0.301399505180335,0.25874040718250163,-3.078629651234307,0.6246190396902624,-0.00017110014537242903,-0.00018074085844016553,0.0003470537424071261,-0.02072140961044746,0.0007135533536550333,-0.0020878068609837463,-0.0007707114095959596,0.2950798571109772,-1.1923754078200837,1.7261469999896448,-2.1028834782042445,-1.5712736288653772,2.269954204559326,-0.0006186842801980674,0.025261996313929558,0.023727376013994217,-0.04678384214639664,-0.00013439703616313636,0.00014175786054693162,0.2298433631658554,0.07661445438861847,-9.117119789123535,0.6792280077934265,47.685096740722656,-0.38980257511138916,-3.1500253677368164,-1.6011625528335571,-0.6168118715286255,-0.04204942658543587,0.1203187108039856,27.75,29.0,28.25,32.1875,34.75,36.0
1.0,-0.4166049261502751,-0.865396463647003,-0.9343609478383397,-0.04628375454506193,-0.019295494630276386,-0.08825528624621116,-0.5292645071589922,-0.30138837892631287,0.2587046183260116,-3.078618724313156,0.6246742934390959,-0.00013156864639913171,0.00012621102715052772,0.0004012879725346772,-0.021739740846277743,0.0017607914357023187,-0.005523183464489654,-0.0007026597983218802,0.29505592584609985,-1.1923151475242157,1.7261713186847132,-2.102990289727682,-1.5712855497943323,2.2699661254882812,-0.0005550499190576375,0.026180796325206757,0.02433849312365055,-0.044722314924001694,-0.0001311340311076492,0.00013813168334309012,0.24899697303771973,0.19153612852096558,-9.097966194152832,0.7038487195968628,47.6707649230957,-0.4139597415924072,-3.133445978164673,-1.5845577716827393,-0.6371356248855591,-0.036504484713077545,0.10922358930110931,27.75,29.0,28.25,32.1875,34.75,36.0
1.0,-0.4166049261502751,-0.865396463647003,-0.9343609478383397,-0.04628375454506193,-0.019295494630276386,-0.08825528624621116,-0.5292645071589922,-0.30138837892631287,0.2587046183260116,-3.078618724313156,0.6246742934390959,-0.00013156864639913171,0.00012621102715052772,0.0004012879725346772,-0.021739740846277743,0.0017607914357023187,-0.005523183464489654,-0.0007026597983218802,0.29505592584609985,-1.1923151475242157,1.7261713186847132,-2.102990289727682,-1.5712855497943323,2.2699661254882812,-0.0005550499190576375,0.026180796325206757,0.02433849312365055,-0.044722314924001694,-0.0001311340311076492,0.00013813168334309012,0.24899697303771973,0.19153612852096558,-9.097966194152832,0.7038487195968628,47.6707649230957,-0.4139597415924072,-3.133445978164673,-1.5845577716827393,-0.6371356248855591,-0.036504484713077545,0.10922358930110931,27.75,29.0,28.25,32.1875,34.75,36.0
1.0,-0.28880922163249884,-1.1021464021479823,-0.7684807884535874,-0.03524068812546193,-0.024211000262151484,-0.08124141147084445,-0.5292491002348314,-0.3013922805490983,0.25864805773138827,-3.078618220061094,0.624616211167778,-0.00020602589957851013,0.00011745633893272903,0.00041745117381329747,-0.021662618506305624,0.0019230137490929338,-0.006062186561595924,-0.0007298133468112006,0.29506781697273254,-1.192267284994461,1.7262547651873987,-2.1030742130675257,-1.5712736288653772,2.269941806793213,-0.0005859319935552776,0.026139162480831146,0.024007393047213554,-0.043786708265542984,-0.00012802486889995635,0.00013468627003021538,0.15322890877723694,0.1149216815829277,-8.983044624328613,0.7239871025085449,47.70390319824219,-0.4149644374847412,-3.1898279190063477,-1.5002310276031494,-0.7002147436141968,-0.05310665816068649,0.12790168821811676,27.75,29.0,28.25,32.1875,34.75,36.0
1.0,-0.28880922163249884,-1.1021464021479823,-0.7684807884535874,-0.03524068812546193,-0.024211000262151484,-0.08124141147084445,-0.5292491002348314,-0.3013922805490983,0.25864805773138827,-3.078618220061094,0.624616211167778,-0.00020602589957851013,0.00024255906755701897,0.00045624515256261926,-0.02198842121907214,0.0016904107307298144,-0.005314658320668653,-0.0007283174507677434,0.29506781697273254,-1.1922072631171723,1.7262781302081507,-2.1031705341734828,-1.5712974707232874,2.2699780464172363,-0.0005871099419891834,0.026203922927379608,0.02510940283536911,-0.04573635384440422,-0.00012505977065302432,0.000131408785819076,0.13407529890537262,0.1149216815829277,-9.002198219299316,0.7329410910606384,47.66986846923828,-0.4505337178707123,-3.1174840927124023,-1.5515464544296265,-0.7162274718284607,-0.03744562342762947,0.1075749546289444,27.75,29.0,28.25,32.1875,34.75,36.0
1.0,0.08111030397162217,-0.6363023284788671,-0.7952849925979609,-0.03548473922982683,-0.012995528139589197,-0.08547186436777697,-0.5292577903217642,-0.3013924584846028,0.2586117841883514,-3.078592567947871,0.6246690608636464,-0.00017035686924160147,0.00024255906755701897,0.00045624515256261926,-0.02198842121907214,0.0016904107307298144,-0.005314658320668653,-0.0007283174507677434,0.29506781697273254,-1.1922072631171723,1.7262781302081507,-2.1031705341734828,-1.5712974707232874,2.2699780464172363,-0.0005871099419891834,0.026203922927379608,0.02510940283536911,-0.04573635384440422,-0.00012505977065302432,0.000131408785819076,0.13407529890537262,0.1149216815829277,-9.002198219299316,0.7329410910606384,47.66986846923828,-0.4505337178707123,-3.1174840927124023,-1.5515464544296265,-0.7162274718284607,-0.03744562342762947,0.1075749546289444,27.75,29.0,28.25,32.1875,34.75,36.0
1.0,-0.3752498355147532,-0.7646850209390077,-0.9142872868987502,-0.037183025845095266,-0.009725917728678821,-0.08579097555768497,-0.5292758450838626,-0.3013731562513668,0.25860042196055016,-3.078582813895063,0.624724571392252,-8.627815672650007e-05,0.00045195547701856764,0.0005064449693265455,-0.021993405782997046,0.0014924440120246889,-0.004675700900726461,-0.0007037457255470032,0.29503193497657776,-1.1921834510615845,1.7262910048114222,-2.1032549343504847,-1.5713217894183558,2.2699780464172363,-0.0005652323015965521,0.025721533223986626,0.02602854184806347,-0.046842027455568314,-0.0001222290884470567,0.0001282865705434233,0.1149216815829277,0.17238251864910126,-9.002198219299316,0.7060845494270325,47.702110290527344,-0.46539849042892456,-3.115184783935547,-1.5996291637420654,-0.7536483407020569,-0.05081211030483246,0.11548704653978348,27.75,29.0,28.25,32.1875,34.75,36.0
1.0,-0.3752498355147532,-0.7646850209390077,-0.9142872868987502,-0.037183025845095266,-0.009725917728678821,-0.08579097555768497,-0.5292758450838626,-0.3013731562513668,0.25860042196055016,-3.078582813895063,0.624724571392252,-8.627815672650007e-05,0.00045195547701856764,0.0005064449693265455,-0.021993405782997046,0.0014924440120246889,-0.004675700900726461,-0.0007037457255470032,0.29503193497657776,-1.1921834510615845,1.7262910048114222,-2.1032549343504847,-1.5713217894183558,2.2699780464172363,-0.0005652323015965521,0.025721533223986626,0.02602854184806347,-0.046842027455568314,-0.0001222290884470567,0.0001282865705434233,0.1149216815829277,0.17238251864910126,-9.002198219299316,0.7060845494270325,47.702110290527344,-0.46539849042892456,-3.115184783935547,-1.5996291637420654,-0.7536483407020569,-0.05081211030483246,0.11548704653978348,27.75,29.0,28.25,32.1875,34.75,36.0
1.0,-0.2883522198637447,-0.6421706342701281,-0.8187480262724621,-0.04677240503458427,0.008254800228089965,-0.09315027524856481,-0.529236547607228,-0.30138354218133345,0.25848122260677864,-3.0785704313064572,0.624645562349213,-0.0004060365320551937,0.000340498006832688,0.0004467406497630424,-0.022527202095212088,0.0016251830068647886,-0.005125353927883408,-0.000659916683254875,0.29505592584609985,-1.1920872193625947,1.7264464537249964,-2.10331453899526,-1.5712493101703089,2.269954204559326,-0.0005243790801614523,0.02668517641723156,0.026065105572342873,-0.04737343266606331,-0.00011952339264098555,0.00012530862295534462,0.2106897532939911,0.05746084079146385,-9.078812599182129,0.6501356363296509,47.71733474731445,-0.5015766620635986,-3.0827853679656982,-1.6469424962997437,-0.7629343271255493,-0.04753673076629639,0.11127585172653198,27.75,29.0,28.25,32.1875,34.75,36.0
1.0,-0.2883522198637447,-0.6421706342701281,-0.8187480262724621,-0.04677240503458427,0.008254800228089965,-0.09315027524856481,-0.529236547607228,-0.30138354218133345,0.25848122260677864,-3.0785704313064572,0.624645562349213,-0.0004060365320551937,0.000340498006832688,0.0004467406497630424,-0.022527202095212088,0.0016251830068647886,-0.005125353927883408,-0.000659916683254875,0.29505592584609985,-1.1920872193625947,1.7264464537249964,-2.10331453899526,-1.5712493101703089,2.269954204559326,-0.0005243790801614523,0.02668517641723156,0.026065105572342873,-0.04737343266606331,-0.00011952339264098555,0.00012530862295534462,0.2106897532939911,0.05746084079146385,-9.078812599182129,0.6501356363296509,47.71733474731445,-0.5015766620635986,-3.0827853679656982,-1.6469424962997437,-0.7629343271255493,-0.04753673076629639,0.11127585172653198,27.75,29.0,28.25,32.1875,34.75,36.0
1.0,-0.46960529379510585,-0.8659649429633463,-0.8144642425168223,-0.041902398473873274,0.011127217137454234,-0.09199027970879636,-0.5292604274361283,-0.3013783662319763,0.2584705455231959,-3.078559986386418,0.6246236760912299,-0.00029017683698849886,0.000425755033521535,0.0004507026893079894,-0.023970658058935102,0.0020704506932969274,-0.00660175495350928,-0.0006216674716017319,0.2950438857078552,-1.192038671379425,1.7264240423785608,-2.103398462335104,-1.5712974707232874,2.269929885864258,-0.0004887771792709827,0.028404783457517624,0.02736658789217472,-0.04885244742035866,-0.00011693527630995959,0.0001224674197146669,0.1149216815829277,0.17238251864910126,-9.155426979064941,0.7262282371520996,47.723602294921875,-0.45915037393569946,-3.205061435699463,-1.596390962600708,-0.7923463582992554,-0.040013931691646576,0.10076532512903214,27.75,29.0,28.25,32.1875,34.75,36.0
