Tylouw/Master_Thesis_Code/training_data/batch_1/rect_rod_t0.1/sample_56_session_2.csv
timestamp[s],tcp_force_x[N],tcp_force_y[N],tcp_force_z[N],tcp_force_rx[Nm?],tcp_force_ry[Nm?],tcp_force_rz[Nm?],tcp_pose_x[m],tcp_pose_y[m],tcp_pose_z[m],tcp_pose_rx[rot_vec_x],tcp_pose_ry[rot_vec_y],tcp_pose_rz[rot_vec_z],tcp_velo_x[m/s],tcp_velo_y[m/s],tcp_velo_z[m/s],tcp_velo_rx[rot_vec_x/s],tcp_velo_ry[rot_vec_y/s],tcp_velo_rz[rot_vec_z/s],q1[rad],q2[rad],q3[rad],q4[rad],q5[rad],q6[rad],qd1[rad/s],qd2[rad/s],qd3[rad/s],qd4[rad/s],qd5[rad/s],qd6[rad/s],tool_acc_x,tool_acc_y,tool_acc_z,current_of_whole_robot[A],voltage_of_whole_robot[V],current_J1[A],current_J2[A],current_J3[A],current_J4[A],current_J5[A],current_J6[A],temp_J1[C],temp_J2[C],temp_J3[C],temp_J4[C],temp_J5[C],temp_J6[C]
1.1309999e-06,0.4504084,0.3352527,0.9921748,-0.017514724,0.008757112,-0.01630972,-0.3893572,-0.36874464,0.060037926,-3.0787683,0.6248837,0.00029291087,0.00053954613,0.0003127995,-0.000517317,0.0005064392,-0.0011348166,1.7135192e-06,0.5050568,-1.3816559,1.9041513,-2.0919273,-1.5708536,2.4800134,-8.918801e-05,-1.5293308e-05,0.0011778108,7.524799e-05,0.00010863295,-9.154247e-05,0.15322891,0.19153613,-8.695741,0.69041777,47.698532,-0.24108922,-3.1092765,-2.313373,-0.21077906,0.11641272,0.029266775,25.5625,26.4375,25.4375,27.8125,28.5625,28.9375
0.002055386,-0.1518495,-0.30373934,0.8491419,0.0013825337,-0.0019300525,-0.0011338498,-0.38934723,-0.3687204,0.060034737,-3.078747,0.6248789,0.000282124,-0.001676502,-0.00091931905,-0.0002709824,-0.0038366206,0.0066803526,2.0226785e-06,0.50503284,-1.3816919,1.9041995,-2.0919201,-1.5708655,2.479989,-8.773881e-05,-2.0517923e-07,0.0030575437,-0.010760432,0.00010701822,-9.001691e-05,0.038307227,0.21068975,-8.504205,0.7083204,47.678825,-0.24989006,-2.9405363,-2.3299391,-0.16288416,0.121016204,0.045504436,25.5625,26.4375,25.4375,27.8125,28.5625,28.9375
0.004055111,0.20450619,0.09695256,0.9523821,-0.011056102,0.010087004,-0.017341426,-0.38934,-0.36871815,0.059998695,-3.0787065,0.6249671,0.00018351513,-0.001954793,-0.001075282,-0.0014753328,-0.003382143,0.005853116,2.5986908e-06,0.50502086,-1.3816308,1.9042119,-2.0919316,-1.5708417,2.4800372,-8.633609e-05,0.0027287183,0.0029555159,-0.012443467,0.000105450905,-8.854097e-05,0.05746084,0.17238252,-8.504205,0.7553206,47.705692,-0.22225721,-3.2840362,-2.5417495,-0.05680687,0.10688095,0.025857253,25.5625,26.4375,25.4375,27.8125,28.5625,28.9375
0.00605443,-0.15205559,0.024140213,0.88635826,0.0074873324,-0.010475284,-0.003019665,-0.38932237,-0.36870834,0.059967786,-3.0786862,0.6249049,0.00012396918,-0.00049912016,-0.0002659712,-0.0012107763,-0.000976345,0.0015337719,1.989223e-06,0.50502086,-1.3816072,1.9042591,-2.0919526,-1.5708417,2.480001,-8.497739e-05,0.0016549411,0.0020522485,-0.005522277,0.00010396891,-8.711257e-05,0.05746084,0.13407528,-8.523358,0.71279734,47.696735,-0.2001594,-3.2746172,-2.5054746,-0.10442978,0.116431594,0.021677246,25.5625,26.4375,25.4375,27.8125,28.5625,28.9375
0.008055004,0.56255245,0.87724227,0.34241775,0.028308397,-0.016717046,-0.007690284,-0.38933194,-0.36871195,0.05998115,-3.0786846,0.62494326,0.00019249723,-0.00035987285,-0.00018627668,0.0001836119,-0.00094699464,0.0015049204,1.8649935e-06,0.5050329,-1.3816198,1.9042462,-2.091964,-1.5708655,2.4800372,-8.366098e-05,-0.00040099703,0.0004755263,-0.0018501393,9.735669e-05,-8.572965e-05,-0.038307227,0.17238252,-8.714894,0.69937176,47.682407,-0.17825805,-3.1451495,-2.4231894,-0.13024586,0.11249417,0.020755848,25.5625,26.4375,25.4375,27.8125,28.5625,28.9375
0.010055113,0.64777035,1.2469151,0.24952848,0.03222635,-0.014783983,-0.01874236,-0.38933745,-0.36871502,0.059993118,-3.0786834,0.624943,0.0001906182,0.0004528922,0.0002659114,0.00028554566,0.00030130037,-0.00073254394,8.35801e-06,0.5050329,-1.3816202,1.9042109,-2.0919268,-1.5708655,2.4800372,-8.2384686e-05,-0.0010582133,0.00023532879,0.0016093974,9.501584e-05,-9.131691e-05,-0.019153614,0.17238252,-8.983045,0.7463667,47.690468,-0.6704644,-2.5728202,-2.9541936,-0.15815747,0.121488705,-0.01725129,25.5625,26.4375,25.4375,27.8125,28.5625,28.9375
0.012054345,-0.0074348995,0.056804482,0.0835343,0.012303089,-0.00331812,-0.008292396,-0.38933066,-0.3687068,0.059968453,-3.0786617,0.6248424,0.00014344459,0.0012180604,0.00075010315,-0.0027604338,0.0036610411,-0.00679999,4.0464103e-05,0.50503284,-1.3815824,1.9042224,-2.0919263,-1.5708774,2.4799771,-0.00018375127,0.0047427653,3.157236e-06,0.0029761172,9.30328e-05,-0.00022391853,-0.019153614,0.1340753,-9.078813,0.8023209,47.731667,-0.83924186,-2.5224361,-3.135662,-0.15080923,0.112478875,-0.084737346,25.5625,26.4375,25.4375,27.8125,28.5625,28.9375
0.014054912,-0.421341,-0.11355334,0.090883546,-0.030126147,0.019153513,-0.018532557,-0.38933706,-0.36869833,0.059973408,-3.0786395,0.6249167,0.00010145712,-0.0045681833,0.0037173335,-0.0047709383,0.004823837,-0.008929098,-0.0053277416,0.5050051,-1.3815789,1.9041961,-2.0918787,-1.5708655,2.4799986,-0.010594276,0.013450125,-0.0055410354,0.0022379966,9.114723e-05,-0.0052625025,-0.05746084,0.15322891,-9.3661175,0.72622824,47.65643,-0.49222654,-3.1604934,-3.0775135,-0.14341387,0.11108536,-0.0823136,25.5625,26.4375,25.4375,27.8125,28.5625,28.9375
0.01605452,-1.3141176,-0.9481861,-0.27859035,-0.03828346,0.028673103,-0.005413933,-0.3892975,-0.36870572,0.059936233,-3.0786474,0.62487596,-4.446035e-05,-0.0061921235,0.0030141235,-0.002981094,0.002778173,-0.0052425237,0.0021445812,0.5050171,-1.3815554,1.9042557,-2.091891,-1.5708054,2.479984,-0.0109295035,0.012500073,-0.008398134,0.0018284933,8.9337555e-05,-0.0130689945,-0.22984336,0.2873042,-9.404425,0.7866488,47.677036,-0.5181241,-3.0208697,-3.0842123,-0.14596711,0.11297898,-0.025462639,25.5625,26.4375,25.4375,27.8125,28.5625,28.9375
0.018054351,-1.5005513,-1.119231,-0.2133579,-0.036144312,0.05727879,-0.02543349,-0.38931516,-0.3686942,0.059909552,-3.0786023,0.6249424,-0.00010159939,-0.0061733685,0.0031286238,-0.0025259533,0.0023431657,-0.004453098,0.0048818653,0.5049811,-1.3814838,1.9042319,-2.091891,-1.5708054,2.4799953,-0.011102281,0.011210397,-0.007881627,0.0017000068,8.7598506e-05,-0.015979461,-0.4405331,0.28730422,-9.481039,0.76874626,47.698532,-0.6936052,-2.7334967,-3.2883377,-0.11686581,0.108906835,0.00795796,25.5625,26.4375,25.4375,27.8125,28.5625,28.9375
0.020054344,-1.4234169,0.2557325,-0.3248772,-0.039301887,0.07406445,-0.04764684,-0.38932523,-0.36868903,0.05991951,-3.0785842,0.62480485,-6.805445e-05,-0.006012196,0.0033586577,-0.0023147396,0.0034643514,-0.006468752,0.0050342707,0.504993,-1.3814716,1.9041837,-2.091842,-1.5708536,2.4799237,-0.011338053,0.011663511,-0.009738699,0.0054096295,8.592572e-05,-0.016367199,-0.4213795,0.30645782,-9.672575,0.7486078,47.691364,-0.80240166,-2.592564,-3.4138503,-0.122841276,0.120845854,-0.016041212,25.5625,26.4375,25.4375,27.8125,28.5625,28.9375
0.02205421,-1.1885446,0.17802936,-0.5245867,-0.008178761,0.07640924,-0.062752195,-0.38933814,-0.3686772,0.05991481,-3.078548,0.62485594,-8.61073e-05,-0.007177482,0.0037299036,-0.003072322,0.0047271815,-0.008755743,0.00335707,0.50496846,-1.3814464,1.904159,-2.0918171,-1.5708655,2.4799356,-0.013054368,0.015425971,-0.01292065,0.007441408,8.431582e-05,-0.016404627,-0.4405331,0.2681506,-9.787497,0.7172743,47.694946,-0.85898995,-2.71072,-3.4012733,-0.15093654,0.09363504,-0.045570098,25.5625,26.4375,25.4375,27.8125,28.5625,28.9375
0.02405459,-1.1399165,0.3275812,-0.6073177,-0.011260146,0.07218876,-0.08937987,-0.38933983,-0.3686672,0.059890512,-3.0785604,0.6248213,-0.00019304043,-0.008526567,0.0041252556,-0.0035361722,0.004580634,-0.008529955,0.0006748426,0.50491995,-1.3814095,1.9041709,-2.0918176,-1.5708174,2.479864,-0.014990733,0.017422466,-0.013942453,0.006199047,9.714991e-05,-0.015657924,-0.6512228,0.19153613,-9.787497,0.68818194,47.66987,-0.884048,-2.697103,-3.3854177,-0.1459,0.118729524,-0.07610271,25.5625,26.4375,25.4375,27.8125,28.5625,28.9375
0.026054686,-1.4961926,-0.10764561,-0.6722275,-0.023339916,0.07588594,-0.092696354,-0.38933572,-0.36865553,0.059867732,-3.0785015,0.6247907,-0.00025180014,-0.010294635,0.0042091142,-0.0032345967,0.003595805,-0.0067662406,-0.00050648046,0.50491935,-1.3813611,1.9041575,-2.0917828,-1.5708417,2.4798517,-0.016787,0.018614419,-0.01571002,0.0047541554,9.738279e-05,-0.016271811,-0.80445176,0.15322891,-9.768343,0.7172743,47.661808,-0.8258294,-2.789112,-3.3893886,-0.10654304,0.10509517,-0.07981016,25.5625,26.4375,25.4375,27.8125,28.5625,28.9375
0.028054219,-1.7495644,-0.3158735,-0.6230599,-0.040335152,0.08417644,-0.11327437,-0.38935503,-0.3686468,0.0598563,-3.0784855,0.6248449,-0.0003197973,-0.011088104,0.0038978301,-0.0030720637,0.0031983745,-0.0060547986,-0.00026711347,0.50487137,-1.3813126,1.9041208,-2.0917585,-1.5708174,2.4798396,-0.01700432,0.019703643,-0.01729552,0.0044358633,9.5785035e-05,-0.016727645,-0.7661445,0.17238252,-9.864111,0.71951014,47.64389,-0.9561664,-2.7482624,-3.4004505,-0.0886776,0.107400656,-0.09520224,25.5625,26.4375,25.4375,27.8125,28.5625,28.9375
0.03005462,-2.0658584,-0.74324906,-0.677091,-0.026393699,0.09121194,-0.11486233,-0.3894185,-0.3686463,0.05987656,-3.0785196,0.624909,-0.00023508065,-0.011673266,0.004293978,-0.002565473,0.0030806647,-0.0058512366,-0.0019054853,0.5048111,-1.3812768,1.9040378,-2.0917823,-1.5708174,2.479815,-0.018219303,0.019278573,-0.018193927,0.0055242814,0.00010184669,-0.016304076,-0.8619126,0.15322891,-9.883265,0.7329411,47.674347,-0.86623126,-2.5946693,-3.4615245,-0.10180576,0.10991149,-0.095439196,25.5625,26.4375,25.4375,27.8125,28.5625,28.9375
0.0320542,-1.5657651,0.19813554,-0.6600779,-0.014600528,0.10029232,-0.12566604,-0.3894382,-0.36862674,0.059845757,-3.0784702,0.62490034,-0.0002686621,-0.012209294,0.004256025,-0.0024235998,0.003517794,-0.0066561853,-0.003545527,0.5047749,-1.3812042,1.9040245,-2.0917928,-1.5708417,2.4797797,-0.018660575,0.020554466,-0.020456864,0.007427048,0.00010741065,-0.015104395,-0.7278373,-0.019153614,-9.902418,0.7351769,47.672558,-0.9701101,-2.7033982,-3.3995514,-0.13092479,0.11130424,-0.11637281,25.5625,26.4375,25.4375,27.8125,28.5625,28.9375
0.03405443,-1.5801201,0.39568394,-0.64841366,0.015485133,0.08970972,-0.12696874,-0.38945368,-0.3686351,0.059856117,-3.078478,0.6248647,-0.00026782785,-0.013327493,0.0042829453,-0.0024395436,0.0033861585,-0.006446136,-0.0057634437,0.5047745,-1.3811797,1.9039639,-2.0917575,-1.5708417,2.479756,-0.019758215,0.022196878,-0.022366477,0.0074468614,0.00011733119,-0.013983098,-0.6512228,-0.019153614,-9.844957,0.76874626,47.635834,-0.9033532,-2.7242072,-3.4570937,-0.110879704,0.0988471,-0.14175221,25.5625,26.4375,25.4375,27.8125,28.5625,28.9375
0.03605477,-0.8530326,0.8163809,-0.69590724,0.027137887,0.08706284,-0.12771639,-0.3895121,-0.3686246,0.059864823,-3.0784674,0.62495923,-0.00025282227,-0.014948761,0.004119127,-0.0018583058,0.0021538183,-0.0042349347,-0.006995768,0.5047022,-1.3811195,1.9038676,-2.0917342,-1.5708417,2.4797442,-0.020997232,0.022890478,-0.02419357,0.0060489513,0.00011920733,-0.01398879,-0.38307226,-0.038307227,-9.634268,0.69937176,47.64121,-0.9354204,-2.6153798,-3.4210339,-0.09395178,0.10950491,-0.16079068,25.5625,26.4375,25.4375,27.8125,28.5625,28.9375
0.03805456,-1.0567391,0.577542,-0.52408296,0.01943802,0.06269151,-0.12168389,-0.3894896,-0.36861622,0.05982391,-3.0784264,0.6249323,-0.0003658335,-0.016010607,0.0044016144,-0.0016459983,0.0014639277,-0.0033140753,-0.007613086,0.5047017,-1.3810713,1.9039038,-2.0917342,-1.5708297,2.479732,-0.022562407,0.023226485,-0.024900466,0.005279672,0.00027288686,-0.014936527,-0.36391866,-0.095768064,-9.710882,0.7620334,47.684196,-0.96593714,-2.6394453,-3.4065669,-0.08066456,0.092512906,-0.17375824,25.5625,26.4375,25.4375,27.8125,28.5625,28.9375
0.04005416,-0.61014336,0.045026995,-0.6037484,0.015589024,0.054044835,-0.12013426,-0.38958034,-0.36863267,0.059864417,-3.0785205,0.6249512,-0.0002482404,-0.01741005,0.004698277,-0.001150907,0.0011346114,-0.002805707,-0.008369325,0.5046293,-1.3810229,1.9037598,-2.091758,-1.5708054,2.4796596,-0.024390643,0.024067594,-0.02722102,0.0061550178,0.00031355256,-0.016007576,-0.36391866,-0.038307227,-9.730036,0.78217715,47.691364,-0.91656023,-2.6627502,-3.3945315,-0.054973766,0.11254607,-0.1824698,25.5625,26.4375,25.4375,27.8125,28.5625,28.9375
0.04205434,-0.18610494,0.3352754,-0.4251877,-0.004701068,0.056861192,-0.11952264,-0.38961032,-0.36860907,0.059861805,-3.0784857,0.62504,-0.00024982163,-0.01856552,0.0047137802,-0.000651416,0.0010161926,-0.00257676,-0.007901193,0.504569,-1.3809986,1.9037341,-2.0917451,-1.5708174,2.479659,-0.025489122,0.025147311,-0.029949691,0.007545984,0.00030298057,-0.017573033,-0.24899697,-0.019153614,-9.653421,0.70608455,47.64927,-0.9165547,-2.6008112,-3.3359995,-0.068108544,0.1026158,-0.17571355,25.5625,26.4375,25.4375,27.8125,28.5625,28.9375
0.044054754,-0.0031987934,0.22899476,-0.5040072,-0.0048009194,0.052038264,-0.12292134,-0.38965464,-0.36858383,0.059865355,-3.0784624,0.6251105,-0.0002662421,-0.018953798,0.004907774,-0.00080374384,0.0015898106,-0.0035849842,-0.0070492923,0.5044851,-1.380962,1.9036745,-2.0917084,-1.5708174,2.4796221,-0.026166474,0.02634157,-0.03131753,0.00887935,0.0002873149,-0.019101655,-0.17238252,0.0,-9.672575,0.82694155,47.693153,-0.92382276,-2.6520438,-3.3462324,-0.08279148,0.11410375,-0.18358482,25.5625,26.4375,25.4375,27.8125,28.5625,28.9375
0.04605502,-0.24628878,-0.1317183,-0.63339996,0.0018632128,0.03951181,-0.11276649,-0.38964915,-0.36857352,0.05981914,-3.078379,0.6250944,-0.00042315162,-0.01914681,0.005144164,-0.0011473815,0.002025909,-0.004349925,-0.0077658244,0.5044728,-1.3808537,1.9036382,-2.0916493,-1.5708174,2.4796104,-0.026736373,0.027228106,-0.031662613,0.0092184115,0.00027282303,-0.018954791,-0.17238252,0.095768064,-9.634268,0.71951014,47.64927,-0.91658795,-2.6625881,-3.3963656,-0.08913766,0.09555341,-0.18679595,25.5625,26.4375,25.4375,27.8125,28.5625,28.9375
0.048054542,-0.075156465,-0.10038013,-0.5790789,-0.0091070775,0.033212814,-0.10747109,-0.38972345,-0.36857697,0.05985832,-3.0784328,0.6251252,-0.0002561283,-0.020323161,0.005452065,-0.0011078599,0.0019298635,-0.004151743,-0.008651422,0.50442433,-1.3808413,1.9035424,-2.091685,-1.5708417,2.4795744,-0.028341645,0.028489096,-0.033272926,0.009347316,0.00025970003,-0.019673565,-0.05746084,0.19153613,-9.595961,0.7083204,47.694054,-0.96658146,-2.626772,-3.4756367,-0.0738587,0.10714468,-0.21481973,25.5625,26.4375,25.4375,27.8125,28.5625,28.9375
0.05005502,0.06564058,-0.31919727,-0.4026494,-0.014059017,0.020666698,-0.11719099,-0.38978946,-0.36854738,0.059862144,-3.0783975,0.6252128,-0.00023045206,-0.02267289,0.005595542,-4.8799913e-05,0.00053706527,-0.0016214615,-0.009525177,0.5043277,-1.3807809,1.903457,-2.0916612,-1.5708655,2.479537,-0.030766284,0.029097373,-0.03629648,0.008873642,0.0002477817,-0.021223051,0.05746084,0.19153613,-9.5385,0.7777002,47.664497,-0.8434015,-2.618994,-3.326236,-0.080248505,0.115789235,-0.2184325,25.5625,26.4375,25.4375,27.8125,28.5625,28.9375
0.05205433,0.35597047,-0.37180564,-0.47289324,-0.019954503,0.019503323,-0.1179093,-0.38980737,-0.36856607,0.05985803,-3.0784075,0.6251762,-0.00028387766,-0.023547236,0.0057097054,0.00016847382,0.0002887526,-0.0011567428,-0.008836732,0.5043275,-1.3807086,1.9033726,-2.091625,-1.5708417,2.4795127,-0.031767193,0.029765105,-0.03760909,0.008991969,0.0002369073,-0.022911767,0.0,0.22984336,-9.461885,0.6926589,47.68062,-0.8046496,-2.5716996,-3.3370857,-0.0634651,0.11252819,-0.23191498,25.5625,26.4375,25.4375,27.8125,28.5625,28.9375
0.054054443,-0.061395984,-0.56935906,-0.4410844,-0.028091347,0.0035101913,-0.10658039,-0.38985997,-0.36853096,0.059864026,-3.0783925,0.6252491,-0.00028443616,-0.024381131,0.006000105,0.00024968458,0.0002493134,-0.0010701044,-0.008190082,0.5042193,-1.3806844,1.903325,-2.0916011,-1.5708417,2.479452,-0.03302415,0.030521195,-0.038755193,0.009286864,0.00022694988,-0.024814801,0.076614454,0.34476504,-9.461885,0.7620334,47.683304,-0.87500113,-2.589195,-3.347846,-0.07287415,0.12243943,-0.24015121,25.5625,26.4375,25.4375,27.8125,28.5625,28.9375
0.056054343,0.02090269,-0.6488345,-0.38466102,-0.036901444,0.013943376,-0.1128957,-0.389913,-0.36850846,0.05985668,-3.078359,0.6252812,-0.00027596537,-0.025629193,0.0066846814,0.00059211854,0.00022152369,-0.0010050526,-0.009020187,0.50414675,-1.380612,1.9032534,-2.0915887,-1.5708655,2.4794037,-0.035331573,0.031032525,-0.040376544,0.010325718,0.00021779428,-0.026291477,0.019153614,0.30645782,-9.461885,0.69937176,47.698532,-0.81990135,-2.5021906,-3.37222,-0.064968094,0.115601204,-0.2465185,25.5625,26.4375,25.4375,27.8125,28.5625,28.9375
0.05805472,-0.08192858,-0.6430379,-0.44244254,-0.03722136,0.025920182,-0.11321119,-0.3899831,-0.36850354,0.05988,-3.0783973,0.6254231,-0.00024133036,-0.025957042,0.006688865,0.0006788369,0.00038535727,-0.001283565,-0.0078084134,0.50405073,-1.3805759,1.9031576,-2.0915887,-1.5708297,2.4793913,-0.03563316,0.031641785,-0.04148057,0.01114429,0.00020934916,-0.02780435,-0.038307227,0.30645782,-9.500193,0.7530795,47.675243,-0.7677204,-2.446565,-3.3477483,-0.06214754,0.12920502,-0.254765,25.5625,26.4375,25.4375,27.8125,28.5625,28.9375
0.06005406,-0.14983866,-0.63274497,-0.19880854,-0.031783972,0.03733482,-0.112853214,-0.39003932,-0.36850205,0.059894767,-3.0784001,0.62536454,-0.00022935306,-0.026206043,0.005981972,0.0009199945,0.00046824344,-0.0014230689,-0.005916876,0.5040031,-1.3805034,1.9030246,-2.0915282,-1.5708417,2.479307,-0.034667876,0.03292366,-0.043824177,0.012367784,0.0002015344,-0.028729562,-0.076614454,0.3256114,-9.404425,0.7866488,47.683304,-0.8456286,-2.4662094,-3.4103694,-0.0741695,0.11118244,-0.26298177,25.5625,26.4375,25.4375,27.8125,28.5625,28.9375
0.06205464,-0.4655674,-0.5335989,-0.34129056,-0.023043785,0.034050368,-0.105353765,-0.39007646,-0.36848682,0.059887204,-3.0783694,0.6254355,-0.00025892543,-0.027205432,0.0064310804,0.0008683772,0.0006438986,-0.0017326107,-0.0065618115,0.5039428,-1.380443,1.902965,-2.0915043,-1.5708417,2.4792948,-0.036348745,0.034127213,-0.045266386,0.0129622165,0.00019428285,-0.029764775,-0.019153614,0.40222588,-9.346964,0.7463667,47.660015,-0.9211606,-2.4415326,-3.334465,-0.08979076,0.113925986,-0.26043308,25.5625,26.4375,25.4375,27.8125,28.5625,28.9375
0.06405453,-0.051444698,-0.1203818,-0.20375854,-0.017445602,0.037807867,-0.11363195,-0.39014253,-0.36848485,0.059875946,-3.078398,0.6253831,-0.00025631525,-0.028652597,0.0067600887,0.0010822298,0.00022402257,-0.0010140894,-0.0072072386,0.5038703,-1.3803345,1.9028677,-2.0915282,-1.5708297,2.479186,-0.038256966,0.03522159,-0.047009233,0.0127788875,0.00021066229,-0.0310267,0.0,0.30645782,-9.461885,0.81351066,47.675243,-0.85692966,-2.4075468,-3.3699684,-0.087132215,0.12355322,-0.26188532,25.5625,26.4375,25.4375,27.8125,28.5625,28.9375
0.0660543,-0.17690554,-0.068012044,-0.29315487,-0.016944105,0.035870813,-0.114537545,-0.39018002,-0.36845294,0.059875455,-3.0783656,0.62551075,-0.0002981248,-0.029908966,0.006657797,0.0015408662,-0.0005236388,0.00032917745,-0.0076413914,0.5037739,-1.3803102,1.9028319,-2.0914924,-1.5708174,2.4791734,-0.039253,0.035961244,-0.04882364,0.012316669,0.00021091536,-0.031587686,-0.05746084,0.22984336,-9.32781,0.8224646,47.666286,-0.843169,-2.4004798,-3.3680243,-0.083826035,0.12618735,-0.28034943,25.5625,26.4375,25.4375,27.8125,28.5625,28.9375
0.06805477,-0.3206111,-0.008025826,-0.06432776,-0.013378421,0.037065495,-0.1109917,-0.39026836,-0.3684618,0.059889533,-3.0783908,0.6254572,-0.00024280537,-0.031095821,0.0063158968,0.0020664004,-0.0015127658,0.0020738202,-0.006748319,0.5037141,-1.3801898,1.9026521,-2.091469,-1.5708297,2.479077,-0.039788675,0.0365979,-0.050574075,0.011424436,0.00022990094,-0.033015564,-0.15322891,0.28730422,-9.32781,0.72622824,47.623295,-0.890694,-2.3643713,-3.3169992,-0.07771839,0.12682748,-0.28910255,25.5625,26.4375,25.4375,27.8125,28.5625,28.9375
0.07005478,-0.26502746,0.49375093,-0.08336101,-0.014833276,0.051690508,-0.112864986,-0.3903021,-0.36846521,0.05987607,-3.078402,0.62545985,-0.00030964953,-0.031978235,0.006537622,0.0018939996,-0.0013062822,0.0016416453,-0.0069100624,0.50366575,-1.3801054,1.9025801,-2.0914567,-1.5707935,2.479029,-0.040996484,0.038173918,-0.052159563,0.011913094,0.00025427062,-0.034060843,-0.21068975,0.22984336,-9.289502,0.7530795,47.664497,-0.939314,-2.2844386,-3.2863026,-0.084795445,0.13592896,-0.29156473,25.5625,26.4375,25.4375,27.8125,28.5625,28.9375
0.07205429,-0.4965407,0.40232652,-0.119939715,-0.003917203,0.0543427,-0.11411173,-0.39037868,-0.3684434,0.059915427,-3.0784438,0.6254872,-0.00022454454,-0.032485023,0.0068286136,0.0014109737,-0.00062528945,0.00024525775,-0.0076127565,0.5035576,-1.3801045,1.9024843,-2.0914328,-1.5707935,2.4789326,-0.042000648,0.04003724,-0.05349574,0.012937334,0.0003336767,-0.034361698,-0.24899697,0.019153614,-9.308657,0.7351769,47.677036,-0.87377435,-2.4033656,-3.35761,-0.08203906,0.14990626,-0.3192429,25.5625,26.4375,25.4375,27.8125,28.5625,28.9375
0.07405473,-1.2144523,0.06441037,-0.07244116,0.012165779,0.043353252,-0.099174336,-0.39046696,-0.3684246,0.059908316,-3.0784001,0.6255152,-0.00017847658,-0.033062037,0.0070162197,0.0012179896,-0.00096195214,-0.0009775523,-0.006606391,0.5034734,-1.379972,1.9023408,-2.09142,-1.5708412,2.4788716,-0.043397,0.041293226,-0.054752406,0.013841479,0.0012172419,-0.03676535,-0.34476504,0.038307227,-9.251195,0.7732232,47.66271,-0.92227614,-2.3809829,-3.3624077,-0.09044588,0.119263165,-0.32613784,25.5625,26.4375,25.4375,27.8125,28.5625,28.9375
0.07605463,-0.9860823,0.68758357,0.03173401,0.0013016093,0.051352307,-0.10831927,-0.3905436,-0.368411,0.05991424,-3.078442,0.6255425,-0.00023850024,-0.034753434,0.005934244,0.002193059,-0.0028413108,0.0008323691,-0.005150925,0.50334156,-1.3798875,1.9022192,-2.0913842,-1.5707811,2.4787514,-0.04362028,0.042908832,-0.058892723,0.01387366,0.0019810789,-0.0384435,-0.36391866,0.019153614,-9.270349,0.75755644,47.70032,-0.91867256,-2.3692224,-3.2166405,-0.076850206,0.108267695,-0.32808182,25.5625,26.4375,25.4375,27.8125,28.5625,28.9375
0.07805479,-0.5384371,0.6157924,-0.02066328,0.00578238,0.06369185,-0.11245461,-0.39057907,-0.3683885,0.05990364,-3.0783615,0.62556624,-0.00029013207,-0.03478399,0.0076238764,0.00074844895,-0.0015539924,-0.0020166365,-0.008134472,0.5032926,-1.3798028,1.9021243,-2.0913007,-1.5708164,2.4787276,-0.046641983,0.04392366,-0.056814563,0.013895122,0.0022293609,-0.03848294,-0.45968673,0.038307227,-9.308657,0.8717007,47.694946,-0.8740865,-2.3440228,-3.339365,-0.07954123,0.1049484,-0.3486723,25.5625,26.4375,25.4375,27.8125,28.5625,28.9375
0.08005491,-1.0413749,0.41142127,-0.026896704,0.0064735804,0.057340633,-0.10955007,-0.39067048,-0.36837918,0.05992389,-3.0784006,0.62561154,-0.00023148854,-0.035482906,0.007761054,0.0004532199,-0.0007766988,-0.0025756252,-0.008057,0.5031846,-1.3797302,1.9019922,-2.0913002,-1.570805,2.478643,-0.04725724,0.04579242,-0.058514424,0.014592891,0.0018178475,-0.03917391,-0.4213795,0.0,-9.32781,0.7418897,47.689575,-0.8081052,-2.3487964,-3.3524156,-0.092012465,0.10629783,-0.36902773,25.5625,26.4375,25.4375,27.8125,28.5625,28.9375
0.08205469,-1.0575812,0.0013334794,-0.066044666,0.020900385,0.06085717,-0.10106897,-0.39073086,-0.36836308,0.05990253,-3.0783858,0.6255666,-0.0002749724,-0.036701642,0.006506343,0.0015450234,-0.0015781014,-0.00047470603,-0.0035832706,0.5031013,-1.3796097,1.9018954,-2.0912879,-1.570805,2.4785335,-0.046075262,0.047105934,-0.06270583,0.015244779,0.0014967573,-0.04246332,-0.4213795,0.05746084,-9.270349,0.75755644,47.6636,-0.9431181,-2.4647431,-3.3002012,-0.1109426,0.08998072,-0.3409028,25.5625,26.4375,25.4375,27.8125,28.5625,28.9375
0.08405421,-0.9222453,0.32091197,0.09121395,0.016781516,0.06280088,-0.11217344,-0.39081216,-0.36835662,0.059920605,-3.0784166,0.62566984,-0.00026869331,-0.03817837,0.007587007,0.001716779,-0.0014853817,-5.7712765e-05,-0.0044006323,0.5029924,-1.3795375,1.9017633,-2.091264,-1.5707692,2.478485,-0.049080037,0.047509182,-0.063620225,0.015437862,0.0012139003,-0.044649776,-0.4405331,-0.038307227,-9.289502,0.7978386,47.686886,-0.8687148,-2.3561323,-3.1650476,-0.11507231,0.11285752,-0.33867756,25.5625,26.4375,25.4375,27.8125,28.5625,28.9375
0.08605436,-1.0041115,0.110747874,-0.154426,0.01602817,0.06159897,-0.103691,-0.39086837,-0.36833423,0.059903268,-3.0783763,0.6255628,-0.0002661121,-0.03800118,0.008599703,0.00015707455,0.00044703044,-0.003162209,-0.0017106921,0.5029321,-1.3794285,1.9016684,-2.0912397,-1.5708169,2.4783633,-0.05049072,0.049753122,-0.06288328,0.016106669,0.0010173083,-0.048750114,-0.4213795,0.095768064,-9.289502,0.7329411,47.705692,-0.8818033,-2.3940768,-3.3612437,-0.13314742,0.11257462,-0.31813365,25.5625,26.4375,25.4375,27.8125,28.5625,28.9375
0.08805432,-1.0945541,0.08269167,-0.12528788,0.0048500714,0.05105183,-0.10189604,-0.39098302,-0.36830717,0.059918944,-3.0783596,0.62563646,-0.0002398445,-0.04006323,0.0088405935,0.0006524153,-0.0003277704,-0.0015966888,-0.0036562525,0.5027876,-1.3793081,1.9014767,-2.09118,-1.5708293,2.478267,-0.052748736,0.051132098,-0.06554214,0.01564125,0.0009350002,-0.049061082,-0.45968673,-0.019153614,-9.3661175,0.82694155,47.704796,-0.7640171,-2.3855817,-3.284211,-0.15256408,0.11086892,-0.30892605,25.5625,26.4375,25.4375,27.8125,28.5625,28.9375
0.09005438,-1.2263237,0.38439083,0.12722419,-0.016495347,0.052106325,-0.10967052,-0.39106774,-0.368311,0.05994332,-3.0784287,0.62562937,-0.00020588603,-0.040457636,0.0076074493,0.0016217286,-0.0015414754,0.0007313909,-0.00025769728,0.5026925,-1.379236,1.9013332,-2.0911682,-1.570793,2.4781587,-0.050991908,0.05095798,-0.067413606,0.015063973,0.00087386975,-0.050701868,-0.4405331,0.11492168,-9.308656,0.7978386,47.683304,-0.9292484,-2.377314,-3.3259692,-0.15341297,0.11535549,-0.3144272,25.5625,26.4375,25.4375,27.8125,28.5625,28.9375
0.0920549,-1.1818537,-0.16756204,0.0152773,-0.010058462,0.062233176,-0.107799314,-0.39113486,-0.36829063,0.05993462,-3.0784173,0.6255675,-0.00024989594,-0.041415293,0.008282811,6.3674546e-05,-0.0003210931,-0.0013114361,0.0019388777,0.50259584,-1.3791264,1.9012126,-2.0911205,-1.570793,2.478025,-0.052953646,0.054803357,-0.068292156,0.014475258,0.00078222866,-0.05485904,-0.34476507,0.22984336,-9.289502,0.779936,47.68599,-0.9480779,-2.4629793,-3.317669,-0.16100869,0.104551405,-0.2869004,25.5625,26.4375,25.4375,27.8125,28.5625,28.9375
0.09405651,-0.9441357,-0.4698456,-0.17150435,-0.010825468,0.07220649,-0.106801875,-0.39119154,-0.36823684,0.059887107,-3.0783036,0.62560105,-0.00035507383,-0.042565584,0.008892714,0.0009554664,-0.00077276054,-1.8131715e-05,0.0031522887,0.5024755,-1.3789828,1.9011396,-2.0910723,-1.5708297,2.47794,-0.054892607,0.053901136,-0.06941302,0.015145932,0.00054641214,-0.05801084,-0.24899697,0.28730422,-9.3661175,0.800085,47.687782,-0.86506397,-2.4803016,-3.3345985,-0.16117579,0.13169843,-0.24683022,25.5625,26.4375,25.4375,27.8125,28.5625,28.9375
0.09605558,-0.7836077,-0.5745787,-0.24237908,-0.012448024,0.06016158,-0.102356456,-0.39129594,-0.36823845,0.0599074,-3.078375,0.6256336,-0.00035964913,-0.04364431,0.008541436,0.001689138,-0.0016781442,0.0016913211,0.005533581,0.50234365,-1.3788744,1.9009598,-2.0910485,-1.5707697,2.4778194,-0.05526792,0.054178268,-0.07135526,0.014880371,0.0005138233,-0.060766514,-0.22984336,0.3256114,-9.385271,0.7284641,47.691364,-0.9356069,-2.3104625,-3.3461125,-0.16357271,0.12898418,-0.21092021,25.5625,26.4375,25.4375,27.8125,28.5625,28.9375
0.098054364,-0.3650719,-0.09973451,-0.10220226,-0.028204245,0.05380052,-0.11423857,-0.39139676,-0.36821947,0.0599089,-3.078374,0.6255733,-0.00026924844,-0.04417743,0.008732409,0.0010937605,-0.0010943605,0.000562482,0.006665373,0.5022477,-1.3787538,1.9008163,-2.0910609,-1.5708174,2.4776862,-0.056092028,0.05622292,-0.07251391,0.015261668,0.0005456513,-0.062721714,-0.34476504,0.21068975,-9.423578,0.779936,47.667187,-0.91713345,-2.3128188,-3.3495555,-0.18380629,0.12172623,-0.17374295,25.5625,26.4375,25.4375,27.8125,28.5625,28.9375
0.10005466,-0.37237105,-0.20427461,-0.25216344,-0.027659448,0.039653596,-0.10558818,-0.39148426,-0.36819366,0.059903976,-3.0783665,0.6255714,-0.00031294048,-0.045026764,0.008964784,-0.00010712767,-0.0001723338,-0.0011142034,0.00735089,0.50211555,-1.3786323,1.9006728,-2.0910127,-1.5708054,2.4775538,-0.057255432,0.05984702,-0.07403696,0.015074782,0.0005384778,-0.06456944,-0.21068975,0.17238252,-9.423578,0.81351066,47.70032,-0.96365386,-2.5449545,-3.404724,-0.1801892,0.12684445,-0.15022196,25.5625,26.4375,25.4375,27.8125,28.5625,28.9375
0.10205431,-0.08905883,-0.1413709,-0.5152024,-0.021199338,0.03350475,-0.10640199,-0.39157805,-0.36816707,0.059899047,-3.078363,0.62551135,-0.00034230543,-0.045913894,0.008605864,0.0012696408,-0.0015138468,0.0012932303,0.008664814,0.5019837,-1.3785007,1.9005173,-2.0909646,-1.5708054,2.477385,-0.057467725,0.058546104,-0.07567835,0.015261062,0.00055071193,-0.06609528,-0.076614454,0.2681506,-9.289502,0.76874626,47.699425,-1.0227149,-2.373257,-3.3813543,-0.19827284,0.1283705,-0.106515765,25.5625,26.4375,25.4375,27.8125,28.5625,28.9375
0.10405413,-0.07662023,-0.59374577,-0.31885976,-0.012781805,0.024076581,-0.10721249,-0.39168575,-0.36815524,0.059923727,-3.0783937,0.62559426,-0.00025668403,-0.046508025,0.008791146,0.0009933921,-0.0012279219,0.0008285523,0.007935493,0.5018638,-1.3784161,1.900361,-2.0909646,-1.5708054,2.477313,-0.05830015,0.059899237,-0.07670626,0.015480948,0.000526787,-0.0661977,-0.038307227,0.30645782,-9.3661175,0.8090337,47.694946,-1.0213189,-2.35993,-3.4176984,-0.20478067,0.12075967,-0.09521002,25.5625,26.4375,25.4375,27.8125,28.5625,28.9375
0.106054425,0.096126124,-0.32951772,-0.13657808,-0.023472777,0.017714376,-0.10582115,-0.39178807,-0.36814305,0.059927747,-3.0784068,0.62548184,-0.00024610793,-0.047726195,0.008597486,0.0007525456,-0.0013221635,0.0007226941,0.0061669103,0.5017557,-1.3782711,1.9001693,-2.0909169,-1.5708174,2.4771333,-0.059170853,0.062480856,-0.07921893,0.015458414,0.0006551424,-0.06529865,-0.019153614,0.24899697,-9.385271,0.7933669,47.684196,-1.047785,-2.4278145,-3.3885722,-0.1977208,0.13084756,-0.07738274,25.5625,26.4375,25.4375,27.8125,28.5625,28.9375
0.10805478,0.20516029,-0.55973494,-0.24882132,-0.018334316,0.016285341,-0.099482425,-0.39189637,-0.36812615,0.059927337,-3.0784326,0.6255261,-0.00024310901,-0.04832786,0.00887708,0.00060947106,-0.0011870523,0.0003905187,0.00473747,0.50161165,-1.3781387,1.9000133,-2.0909169,-1.570793,2.4770136,-0.060207255,0.063417554,-0.08007303,0.015733643,0.0006969962,-0.06490522,0.05746084,0.22984336,-9.385271,0.75755644,47.64121,-1.0376905,-2.402699,-3.3854096,-0.21632439,0.1345985,-0.08575142,25.5625,26.4375,25.4375,27.8125,28.5625,28.9375
0.11005436,0.2587835,-0.10139456,-0.30698603,-0.018303407,0.01380412,-0.10847172,-0.39197105,-0.36810577,0.05991651,-3.078402,0.62548083,-0.00028712288,-0.051093638,0.007951508,0.0025858958,-0.0034677403,0.0044976263,0.002972911,0.5015155,-1.3780062,1.8998674,-2.0908568,-1.570805,2.4768932,-0.0612107,0.06416269,-0.0854435,0.015660534,0.0007077419,-0.06414189,0.11492168,0.2681506,-9.500193,0.78217715,47.65912,-1.1055623,-2.3991947,-3.2026649,-0.22136675,0.15385811,-0.08592885,25.5625,26.4375,25.4375,27.8125,28.5625,28.9375
0.11205461,0.6669336,-0.071164824,-0.43024844,-0.020239186,0.017044365,-0.10387454,-0.39209202,-0.36810112,0.059943307,-3.0784686,0.6254183,-0.00019031101,-0.050641418,0.008839294,0.00044128642,-0.001522224,0.0009258285,0.00069585716,0.50139546,-1.377897,1.8996772,-2.0908568,-1.570805,2.4767258,-0.062277764,0.06708625,-0.08395657,0.015317498,0.0007270887,-0.06293199,0.11492168,0.3256114,-9.346964,0.7620334,47.699425,-1.093502,-2.3745863,-3.3227458,-0.22835718,0.12578389,-0.08517599,25.5625,26.4375,25.4375,27.8125,28.5625,28.9375
0.11405403,0.40603253,-0.21720988,-0.33889067,-0.019026468,0.01696542,-0.10876904,-0.39217854,-0.36808446,0.05991855,-3.0784154,0.62548614,-0.00026247193,-0.052666485,0.008310511,0.001912903,-0.003316658,0.0038396972,-0.0015697214,0.5012872,-1.377717,1.8995093,-2.090809,-1.570805,2.4766667,-0.063351415,0.067362584,-0.087641254,0.015307794,0.0008891667,-0.0617389,0.11492168,0.2681506,-9.289503,0.7777002,47.645687,-1.0967988,-2.503496,-3.3510544,-0.23066813,0.1375525,-0.11103363,25.5625,26.4375,25.4375,27.8125,28.5625,28.9375
0.116054155,-0.0026330112,-0.4583037,-0.71776414,-0.015758438,0.010702331,-0.094790064,-0.39227468,-0.36805442,0.05991361,-3.0784063,0.6254083,-0.00027944954,-0.05381027,0.008590244,0.0026384208,-0.0038536037,0.0044372235,-0.0049988395,0.501155,-1.3775847,1.8993529,-2.090761,-1.5708169,2.4764872,-0.064976975,0.06742213,-0.08963041,0.016454343,0.0010711142,-0.05993502,0.0,0.2681506,-9.32781,0.71951014,47.688675,-1.0551538,-2.3668547,-3.1465874,-0.23752978,0.12967592,-0.14446592,25.5625,26.4375,25.4375,27.8125,28.5625,28.9375
0.11805482,-0.49034747,-0.9468758,-0.81654394,-0.0032091485,0.009134684,-0.092001654,-0.39238232,-0.36804587,0.059921138,-3.0784216,0.6255077,-0.00033169836,-0.05318316,0.008809762,0.000597135,-0.002105321,0.00016369701,-0.0061301263,0.5010112,-1.3774394,1.8991498,-2.0907004,-1.5707692,2.4764035,-0.065071985,0.071160235,-0.089615464,0.017290521,0.001593306,-0.0588992,-0.05746084,0.24899697,-9.481039,0.78888994,47.687782,-1.12894,-2.4406147,-3.2517238,-0.2535749,0.14225574,-0.16412267,25.5625,26.4375,25.4375,27.8125,28.5625,28.9375
0.120055564,-0.1375272,-0.21927488,-0.60855997,-0.03408382,0.037583902,-0.106926724,-0.39247376,-0.36802942,0.05990816,-3.0784311,0.62547076,-0.00035911083,-0.054303065,0.008737849,0.0016014153,-0.0030633525,0.001062573,-0.008022852,0.50089115,-1.3772953,1.8990058,-2.0906885,-1.5707568,2.4762592,-0.066223346,0.07106068,-0.092092626,0.018618235,0.0019993794,-0.058157768,-0.15322891,0.24899697,-9.481039,0.8717007,47.696735,-1.1895492,-2.4916253,-3.2299018,-0.27061486,0.1186069,-0.18481536,25.5625,26.4375,25.4375,27.8125,28.5625,28.9375
0.122054555,-0.53142595,-0.5019257,-0.4315983,-0.030344084,0.050525248,-0.10226013,-0.39257476,-0.368014,0.05991952,-3.078431,0.6255089,-0.00034731594,-0.05456233,0.008616186,0.0015786184,-0.003518115,0.0006651531,-0.0087027475,0.5007714,-1.3771751,1.8988265,-2.0906398,-1.5707563,2.4761634,-0.06660771,0.07167595,-0.09283589,0.018874671,0.00258908,-0.057862934,-0.17238252,0.21068975,-9.576807,0.7642693,47.684196,-1.2602854,-2.33996,-3.3299818,-0.276498,0.120035544,-0.19901732,25.5625,26.4375,25.4375,27.8125,28.5625,28.9375
0.124054275,-0.77317554,-0.7582654,-0.5787464,-0.0138897635,0.062093988,-0.10393887,-0.39269415,-0.36798498,0.059918966,-3.0783896,0.6255394,-0.00035279334,-0.055156164,0.008531927,0.0011784338,-0.003768976,0.00022045817,-0.009306669,0.5006273,-1.3770062,1.8986114,-2.0905688,-1.5707806,2.4760437,-0.067262046,0.07335491,-0.09383362,0.018460583,0.0030183261,-0.057913516,-0.21068975,0.21068975,-9.461885,0.7911258,47.694054,-1.2707927,-2.422389,-3.3509529,-0.28780618,0.12167917,-0.2342673,25.5625,26.4375,25.4375,27.8125,28.5625,28.9375
0.12605473,-0.89026505,-0.31991333,-0.5020857,-0.02231268,0.06447458,-0.09958581,-0.39281437,-0.3679748,0.05990103,-3.0783932,0.62557644,-0.00039290142,-0.055684056,0.008161648,0.0014024698,-0.003915316,0.00044468755,-0.0074305017,0.5004837,-1.3768016,1.8984069,-2.0905564,-1.5707563,2.4759228,-0.06711657,0.07435195,-0.09566975,0.019034455,0.0030353703,-0.059643477,-0.17238252,0.17238252,-9.557653,0.8627467,47.66987,-1.3056797,-2.295439,-3.2990446,-0.30989128,0.11154233,-0.25082576,25.5625,26.4375,25.4375,27.8125,28.5625,28.9375
0.12805401,-0.8484284,-0.08853106,-0.3515833,-0.016949443,0.065130986,-0.10783069,-0.39290723,-0.36792892,0.059915073,-3.0783532,0.6255883,-0.0003445406,-0.05807736,0.009151955,0.0019785569,-0.004593594,0.0021050605,-0.010339038,0.5003507,-1.3767292,1.8982757,-2.0904973,-1.5708045,2.4758024,-0.07084655,0.0750437,-0.0977055,0.018594466,0.0028284776,-0.060463585,-0.2873042,0.17238252,-9.5385,0.8157518,47.679718,-1.2711785,-2.396721,-3.4189878,-0.3174677,0.10157772,-0.25388333,25.5625,26.4375,25.4375,27.8125,28.5625,28.9375
0.13005435,-0.646099,0.35528818,-0.3185625,-0.013835373,0.06338221,-0.10403176,-0.39304087,-0.36795107,0.05993425,-3.0784447,0.625606,-0.00034788737,-0.05770955,0.008246097,0.0020143138,-0.0048375973,0.0022187596,-0.009950674,0.50021964,-1.3765491,1.898013,-2.0904734,-1.5707325,2.4756708,-0.06905992,0.07563933,-0.098502405,0.018583167,0.0029907837,-0.059065063,-0.40222588,0.1340753,-9.442732,0.80679786,47.666286,-1.3724425,-2.273734,-3.278214,-0.33360267,0.1043533,-0.2965847,25.5625,26.4375,25.4375,27.8125,28.5625,28.9375
0.13205488,-0.96240926,0.50607234,-0.49247694,-0.0021330053,0.053205244,-0.10326581,-0.39314198,-0.36790922,0.059895035,-3.0783827,0.6256317,-0.00042220356,-0.059168126,0.00831282,0.0022451733,-0.0053725243,0.003067384,-0.0111449035,0.50006354,-1.3763562,1.897868,-2.090449,-1.5707449,2.4755387,-0.07053249,0.077045515,-0.100651644,0.018324587,0.0030443103,-0.05934265,-0.4213795,0.038307227,-9.557653,0.76874626,47.66808,-1.46122,-2.3033812,-3.4696388,-0.33086866,0.109013006,-0.34508058,25.5625,26.4375,25.4375,27.8125,28.5625,28.9375
0.13405418,-0.91251194,0.056241546,-0.47798833,0.0058458503,0.06251832,-0.10281044,-0.39327508,-0.36790302,0.05991764,-3.0784056,0.62571394,-0.00035084123,-0.06182764,0.009515577,0.0030241865,-0.0063833566,0.0049133217,-0.012943918,0.49993017,-1.376212,1.8976401,-2.0904253,-1.5707449,2.4754539,-0.07498189,0.07737703,-0.102749825,0.01798702,0.0030445755,-0.061991956,-0.34476504,0.076614454,-9.557653,0.7642693,47.679718,-1.272085,-2.2778358,-3.1739225,-0.3125018,0.10529806,-0.34077835,25.5625,26.4375,25.4375,27.8125,28.5625,28.9375
0.1360541,-1.0545835,0.22834104,-0.43045384,0.0076435735,0.05894087,-0.10032179,-0.3934007,-0.36789596,0.059946664,-3.0784461,0.6257222,-0.00033385467,-0.06178837,0.008391931,0.0027918466,-0.0065940493,0.004629006,-0.013609178,0.49978724,-1.3760793,1.8974003,-2.0903533,-1.5707206,2.475311,-0.07323332,0.07935288,-0.10457337,0.017984128,0.0033656866,-0.05957757,-0.40222588,0.019153614,-9.500193,0.82694155,47.66091,-1.3347447,-2.2214904,-3.3349829,-0.32126093,0.08633806,-0.39689374,25.5625,26.4375,25.4375,27.8125,28.5625,28.9375
0.13805428,-0.8010527,0.2600716,-0.20496003,0.004576403,0.07191002,-0.111901574,-0.39353403,-0.36786702,0.05994286,-3.078424,0.6258141,-0.0002822477,-0.0633277,0.009073904,0.0029129942,-0.0067920825,0.0053773606,-0.015667662,0.49963066,-1.3759109,1.897209,-2.0903533,-1.5707449,2.4752147,-0.07565621,0.08028499,-0.105882324,0.017609017,0.0031796277,-0.059940904,-0.4213795,0.038307227,-9.385271,0.85155696,47.667187,-1.414245,-2.21278,-3.3121722,-0.32548892,0.08255917,-0.43704277,25.5625,26.4375,25.4375,27.8125,28.5625,28.9375
0.14005467,-0.93548,0.3085784,-0.49286637,0.0022340084,0.07563566,-0.10124263,-0.39364335,-0.36783063,0.05990879,-3.0783956,0.6258637,-0.0004339845,-0.064027846,0.0094387755,0.0022636682,-0.0062991665,0.004557493,-0.014185752,0.49943873,-1.3757058,1.8970298,-2.0902936,-1.5706967,2.4750574,-0.07685989,0.08224613,-0.10670983,0.017434925,0.0031328178,-0.062626064,-0.34476504,0.019153614,-9.404425,0.8247004,47.66091,-1.4691652,-2.259023,-3.3453808,-0.34622526,0.08463127,-0.44891298,25.5625,26.4375,25.4375,27.8125,28.5625,28.9375
0.14205407,-1.1218362,0.09602847,-0.59115726,0.0062830136,0.06892858,-0.09423613,-0.39376208,-0.36782673,0.059927654,-3.0784352,0.62581295,-0.00035262306,-0.06520354,0.010299272,0.0023904901,-0.006038607,0.0042128707,-0.013555898,0.49933007,-1.3755736,1.8968271,-2.0902812,-1.5707086,2.4749122,-0.07932701,0.08296459,-0.10811188,0.018545687,0.0030721063,-0.065722205,-0.40222588,0.11492168,-9.500193,0.8403672,47.690468,-1.3957841,-2.221136,-3.3702826,-0.35288766,0.08912525,-0.46326542,25.5625,26.4375,25.4375,27.8125,28.5625,28.9375
0.14405587,-0.75958407,0.14070006,-0.4092424,0.00032417546,0.076428495,-0.1021832,-0.3939228,-0.36782137,0.059952453,-3.0784845,0.6258041,-0.00026696204,-0.06719022,0.011736653,0.0021374812,-0.0055222316,0.0038032825,-0.014822179,0.49917293,-1.3753927,1.8965505,-2.0902574,-1.5707086,2.4747434,-0.083378926,0.084740184,-0.10976775,0.019034244,0.0028174596,-0.06850633,-0.38307226,0.05746084,-9.442732,0.8247004,47.691364,-1.2911065,-2.2569418,-3.3566828,-0.33912838,0.08007777,-0.46830028,25.5625,26.4375,25.4375,27.8125,28.5625,28.9375
0.14605466,-0.86385036,0.3049132,-0.28829932,-0.003933205,0.068151325,-0.0957547,-0.39405176,-0.36778268,0.059948113,-3.0784605,0.62588966,-0.00030925008,-0.06755432,0.011129403,0.00242449,-0.005776495,0.004717305,-0.007294446,0.4989817,-1.3752244,1.8963469,-2.0901973,-1.5706967,2.4746087,-0.082527995,0.085427545,-0.1112124,0.018869583,0.0025975704,-0.07518216,-0.53630114,0.038307227,-9.3661175,0.77545905,47.679718,-1.2853174,-2.2703793,-3.3687754,-0.34884447,0.08070652,-0.42959547,25.5625,26.4375,25.4375,27.8125,28.5625,28.9375
0.14805432,-1.3768747,-0.08583014,-0.27967358,0.0013565273,0.068353266,-0.10325234,-0.3941803,-0.36775863,0.0599453,-3.0784426,0.62588495,-0.0002862307,-0.06880548,0.011213265,0.0028344118,-0.0059041614,0.005778864,-0.005379606,0.49883777,-1.3750439,1.8961309,-2.090161,-1.5707206,2.4744642,-0.083544515,0.086343884,-0.11328345,0.019031085,0.0021978933,-0.078111924,-0.4405331,0.15322891,-9.423578,0.8605109,47.681515,-1.3552624,-2.2660623,-3.3515525,-0.36017513,0.076736845,-0.4009813,25.5625,26.4375,25.4375,27.8125,28.5625,28.9375
0.15005459,-1.3733976,-0.12731414,-0.28620696,-0.0020437348,0.07588626,-0.09349629,-0.39432958,-0.36773208,0.05995085,-3.0784636,0.6259272,-0.0002323862,-0.07086369,0.01340874,0.00094304327,-0.004193374,0.0030481701,-0.0060984707,0.4986561,-1.3748741,1.8959168,-2.0901616,-1.570721,2.4743063,-0.08896972,0.090607196,-0.11397934,0.018681103,0.002003009,-0.08281689,-0.53630114,0.11492168,-9.346964,0.8403672,47.688675,-1.0683209,-2.3164477,-3.4195638,-0.3410309,0.08696679,-0.38439405,25.5625,26.4375,25.4375,27.8125,28.5625,28.9375
0.15205394,-0.81210345,0.25746974,-0.37571284,-0.0042670574,0.083872706,-0.09561155,-0.39448458,-0.36771035,0.059964832,-3.0784893,0.6259254,-0.00018694965,-0.072534904,0.011993081,0.003612111,-0.0068263863,0.008246634,0.003001057,0.49847704,-1.3746945,1.8956636,-2.0901263,-1.570721,2.474123,-0.08798108,0.088875815,-0.11798732,0.01859677,0.0018239963,-0.09092613,-0.4405331,0.13407528,-9.308657,0.74413085,47.696735,-1.2754569,-2.2393425,-3.3073342,-0.34748775,0.08616011,-0.29606396,25.5625,26.4375,25.4375,27.8125,28.5625,28.9375
0.15405394,-0.47799343,0.15143646,-0.11490872,-0.0052816602,0.08701147,-0.108610466,-0.3946164,-0.36769885,0.059953514,-3.078539,0.625955,-0.00029137635,-0.07239724,0.013873535,0.001331804,-0.004429571,0.0041257157,0.0014896691,0.4982844,-1.3744895,1.8954376,-2.0900896,-1.5706371,2.4739425,-0.09089544,0.09140885,-0.115852326,0.018702708,0.0016933065,-0.092329405,-0.4405331,0.17238252,-9.308657,0.8493211,47.682407,-1.1696265,-2.1426518,-3.5178502,-0.32950842,0.07478275,-0.2830095,25.5625,26.4375,25.4375,27.8125,28.5625,28.9375
0.15605482,-0.31994548,0.13706023,-0.14641982,-0.010110208,0.082676455,-0.106479034,-0.3947851,-0.36763838,0.05995771,-3.0784802,0.62592185,-0.00020709634,-0.075533964,0.013766846,0.0027903882,-0.006180869,0.0073509375,0.0024541272,0.49807993,-1.374297,1.8951858,-2.09003,-1.570721,2.473725,-0.09355078,0.09278717,-0.120797545,0.018592257,0.0016804569,-0.09594705,-0.4213795,0.038307227,-9.308657,0.8493211,47.684196,-1.0650339,-2.319283,-3.3133075,-0.31610328,0.08520265,-0.22218701,25.5625,26.4375,25.4375,27.8125,28.5625,28.9375
0.15805429,-0.7388532,0.017110653,-0.14003766,0.003676604,0.053672194,-0.10425747,-0.39491892,-0.36762303,0.05996601,-3.078512,0.6258883,-0.00019202092,-0.07568222,0.01476064,0.0017600497,-0.005075747,0.0055561163,0.0030129286,0.49792382,-1.3741282,1.8949584,-2.0899942,-1.5707091,2.4735441,-0.095254056,0.09404907,-0.11997278,0.018612178,0.0015718807,-0.098209076,-0.38307226,0.076614454,-9.270349,0.79560274,47.682407,-1.0197036,-2.2509372,-3.4068165,-0.321164,0.07651797,-0.18183658,25.5625,26.4375,25.4375,27.8125,28.5625,28.9375
0.16005446,-0.47605482,0.33110416,-0.17233409,-0.0047216397,0.043532025,-0.097427525,-0.39507335,-0.36760142,0.059990324,-3.078571,0.6258443,-0.00015904523,-0.07830498,0.015270872,0.002283858,-0.005713373,0.007006309,-0.0003995437,0.497731,-1.3739716,1.8947061,-2.0899465,-1.5706853,2.4733164,-0.09839389,0.0960407,-0.12354399,0.0186163,0.0014381114,-0.09793446,-0.40222588,0.076614454,-9.232041,0.87393653,47.691364,-0.90753436,-2.320743,-3.4034996,-0.3185252,0.08738548,-0.16431198,25.5625,26.4375,25.4375,27.8125,28.5625,28.9375
0.16205482,-0.19464321,0.38240194,-0.20351389,-0.00646275,0.048759215,-0.096874475,-0.39525804,-0.36755228,0.059986863,-3.0785563,0.6259961,-0.00013102683,-0.079657614,0.015486626,0.0025981243,-0.006153996,0.0080292635,-0.0037305614,0.49747908,-1.373755,1.8944539,-2.0899346,-1.5706853,2.4731612,-0.0998844,0.0969425,-0.12528944,0.01835151,0.0013374394,-0.09609296,-0.36391866,0.1340753,-9.174581,0.7463667,47.696735,-0.8450403,-2.2640233,-3.3839211,-0.32250565,0.078622885,-0.15178767,25.5625,26.4375,25.4375,27.8125,28.5625,28.9375
0.16405433,-0.45388147,0.13002741,-0.07397813,-0.00024572245,0.054306872,-0.10115519,-0.39539915,-0.36753115,0.059974402,-3.0785875,0.62588835,-0.00017457006,-0.07960127,0.01620664,0.0007047401,-0.0041134083,0.0047735884,-0.008349244,0.4972991,-1.3735375,1.8942155,-2.0898983,-1.570661,2.4729102,-0.100856334,0.100371614,-0.1251401,0.01861121,0.0010987599,-0.09244545,-0.36391866,0.17238252,-9.308657,0.784413,47.68599,-0.856329,-2.2958412,-3.3994772,-0.30841488,0.08100112,-0.18658939,25.5625,26.4375,25.4375,27.8125,28.5625,28.9375
0.16605492,-0.5096616,0.25711337,-0.17506854,-0.019057635,0.072402716,-0.103509605,-0.39555958,-0.36749008,0.059994277,-3.0785534,0.6260947,-0.0001610223,-0.08150933,0.015840497,0.0026051453,-0.005975533,0.008137877,-0.013440006,0.49708322,-1.3733698,1.8939518,-2.089814,-1.570661,2.4728274,-0.10196288,0.09950127,-0.1285357,0.019032052,0.0011275399,-0.08846015,-0.45968673,0.24899697,-9.232041,0.8157518,47.67166,-0.8736261,-2.2121167,-3.2088666,-0.29448274,0.08729116,-0.23857859,25.5625,26.4375,25.4375,27.8125,28.5625,28.9375
0.16805424,-1.1185541,-0.54362655,0.0031021326,-0.012550184,0.07031312,-0.09953973,-0.39573956,-0.36746415,0.05999215,3.0785666,-0.6260991,0.00014677747,-0.08225597,0.015987258,0.0017058114,-0.0050469153,0.0064202733,-0.017442059,0.49686745,-1.3731285,1.8936642,-2.08979,-1.570649,2.4726129,-0.102847695,0.102758065,-0.13054653,0.01973982,0.0011315427,-0.08534171,-0.4213795,0.22984336,-9.32781,0.8247004,47.688675,-0.8377134,-2.191516,-3.419578,-0.2908964,0.08968137,-0.27572948,25.5625,26.4375,25.4375,27.8125,28.5625,28.9375
0.17005429,-0.8464743,-0.5054471,-0.1650761,-0.015446963,0.07339565,-0.09857919,-0.39591458,-0.36741877,0.060001694,-3.0785377,0.62609214,-4.658195e-05,-0.08284345,0.015693532,0.0025550611,-0.006059007,0.0076319035,-0.017915936,0.4966757,-1.3729246,1.8933891,-2.089742,-1.570721,2.4724207,-0.10304183,0.10219589,-0.13191181,0.020112794,0.0014454225,-0.08506205,-0.34476504,0.30645782,-9.308657,0.80679786,47.689575,-0.931808,-2.2556071,-3.377051,-0.2909744,0.0772458,-0.30699515,25.5625,26.4375,25.4375,27.8125,28.5625,28.9375
0.17205478,-0.088764004,0.18682371,-0.08409833,-0.028218174,0.073638186,-0.10609948,-0.39606133,-0.3673853,0.059987333,-3.0785367,0.6262061,-0.00015354207,-0.08399962,0.015494716,0.0022199582,-0.0059378603,0.0072963666,-0.017386045,0.49644804,-1.3727072,1.8931497,-2.0896819,-1.570661,2.4722643,-0.10375126,0.10501664,-0.13457102,0.020309392,0.0014921929,-0.08630008,-0.2681506,0.21068975,-9.346964,0.78217715,47.690468,-0.9556354,-2.2768996,-3.2760124,-0.28069118,0.09801051,-0.3136648,25.5625,26.4375,25.4375,27.8125,28.5625,28.9375
0.17405438,0.11643024,0.18385117,-0.13562542,-0.018892672,0.051564537,-0.108239956,-0.39627215,-0.36736125,0.060007256,3.078519,-0.6262578,-2.4389486e-05,-0.08516303,0.014446207,0.0027364667,-0.0070421007,0.009081213,-0.015755069,0.49624476,-1.3724785,1.8928379,-2.0897067,-1.5707091,2.4720957,-0.10307874,0.106664844,-0.1375536,0.019544268,0.0016163328,-0.087257124,-0.11492168,0.19153613,-9.289503,0.79560274,47.68062,-1.0519013,-2.3457851,-3.183025,-0.2833005,0.09305349,-0.32035708,25.5625,26.4375,25.4375,27.8125,28.5625,28.9375
0.176055,0.15606438,-0.03319257,-0.16712362,-0.005557506,0.035779163,-0.10995581,-0.39642018,-0.36734155,0.059997562,3.0785236,-0.62620085,-3.5976933e-05,-0.086722866,0.014749106,0.002015659,-0.006740973,0.008720821,-0.017181613,0.4960764,-1.372261,1.8925985,-2.0896947,-1.5707091,2.4718914,-0.10491156,0.10994246,-0.13968092,0.01885496,0.0015195668,-0.08766189,-0.11492168,0.22984336,-9.32781,0.81351066,47.689575,-0.9173828,-2.444824,-3.137189,-0.2552419,0.08750687,-0.33644736,25.5625,26.4375,25.4375,27.8125,28.5625,28.9375
0.17805415,0.18934359,0.04908364,-0.22455405,-0.01374161,0.043571882,-0.09783499,-0.3965896,-0.36730263,0.059993017,3.0785155,-0.6262371,-7.3322863e-06,-0.0875454,0.014389537,0.0023423615,-0.0069387862,0.009359957,-0.017006906,0.495849,-1.3720326,1.8923234,-2.0896347,-1.5706972,2.4716878,-0.10492776,0.1111018,-0.14192377,0.019284168,0.0013868598,-0.08785167,-0.28730422,0.3256114,-9.289502,0.8224646,47.691364,-1.0955484,-2.4702282,-3.1418123,-0.24564031,0.0972992,-0.36860925,25.5625,26.4375,25.4375,27.8125,28.5625,28.9375
0.1800541,-0.16813362,-0.029683074,-0.36566663,-0.017987216,0.044192202,-0.09955587,-0.3967685,-0.3672521,0.06000402,3.078495,-0.6263857,-1.7317572e-05,-0.088843584,0.015372895,0.0025372368,-0.0067859297,0.009269081,-0.018554363,0.4956084,-1.3718282,1.8920358,-2.0895503,-1.5707091,2.4715426,-0.1076527,0.111635946,-0.14323303,0.02021164,0.0012975908,-0.08902857,-0.17238252,0.34476504,-9.308657,0.82022345,47.693153,-0.8554176,-2.4527724,-3.1826267,-0.23752603,0.10280595,-0.3596518,25.5625,26.4375,25.4375,27.8125,28.5625,28.9375
0.18205443,-0.141015,-0.30607855,-0.39757785,-0.025444048,0.047955956,-0.10424177,-0.39693534,-0.36723205,0.060002156,3.0784402,-0.62643147,1.7861936e-05,-0.08931608,0.015487751,0.00233819,-0.0062090675,0.008497154,-0.019161489,0.49539277,-1.3715994,1.8917598,-2.0895145,-1.570661,2.4713626,-0.10814005,0.11308334,-0.14476314,0.021252882,0.0011595847,-0.088907905,-0.076614454,0.3256114,-9.32781,0.8403672,47.698532,-1.0030911,-2.371789,-3.1513386,-0.23689651,0.11771213,-0.40694898,25.5625,26.4375,25.4375,27.8125,28.5625,28.9375
0.18405505,0.072463065,-0.29301095,-0.27573627,-0.045762718,0.051278383,-0.10599113,-0.39711642,-0.3672099,0.059994187,3.078457,-0.626411,-4.564583e-05,-0.090772696,0.015221579,0.0030880617,-0.0069351695,0.0096456725,-0.013054366,0.49521294,-1.3713348,1.8914598,-2.089502,-1.5706972,2.471168,-0.1090281,0.11416669,-0.147955,0.02200267,0.0012517187,-0.09590191,-0.1340753,0.34476504,-9.442732,0.8179876,47.70211,-0.99502724,-2.3623092,-3.1524649,-0.22927523,0.10046371,-0.36601847,25.5625,26.4375,25.4375,27.8125,28.5625,28.9375
0.18605489,-0.4915565,-0.78064704,-0.50541323,-0.035719883,0.04077446,-0.098427735,-0.39731634,-0.3672078,0.06003585,3.0783668,-0.62640923,-9.358444e-05,-0.08913301,0.016048437,0.0010894308,-0.0051735016,0.0055212537,-0.009934461,0.4949974,-1.3711183,1.8910912,-2.0894306,-1.570649,2.470963,-0.10912615,0.11524176,-0.14475945,0.022201926,0.0016788542,-0.099121474,-0.05746084,0.3256114,-9.308656,0.7866488,47.66808,-1.1198347,-2.362481,-3.2757092,-0.21812141,0.101973474,-0.34087837,25.5625,26.4375,25.4375,27.8125,28.5625,28.9375
0.18805437,0.50100577,-0.2926256,-0.6869916,-0.03366272,0.05057689,-0.11158054,-0.3974699,-0.36712614,0.05997993,3.0784695,-0.6265215,-8.417523e-06,-0.09007409,0.015615745,0.002215842,-0.0063325656,0.007352117,-0.0041643255,0.49475783,-1.3708421,1.8908757,-2.0893705,-1.5707091,2.4707806,-0.10929577,0.114803694,-0.14692879,0.022641758,0.0018157626,-0.10506097,0.038307227,0.19153613,-9.5385,0.78217715,47.66539,-0.98695254,-2.310595,-3.2148767,-0.20757142,0.0957523,-0.2862978,25.5625,26.4375,25.4375,27.8125,28.5625,28.9375
0.19005471,0.67363715,-0.096742645,-0.5951593,-0.02344276,0.045809723,-0.1089256,-0.3976421,-0.36710986,0.059974257,3.0784469,-0.6264754,-3.5544297e-05,-0.090587474,0.015939616,0.0005920701,-0.005281146,0.0048720036,-3.2274504e-05,0.49456617,-1.3706003,1.8906006,-2.0893705,-1.5706967,2.4705632,-0.11041419,0.11867867,-0.14781128,0.022332206,0.002070417,-0.11031083,-0.038307227,0.19153613,-9.481039,0.83365434,47.6636,-1.2022424,-2.531217,-3.3034074,-0.19465286,0.10621432,-0.21691418,25.5625,26.4375,25.4375,27.8125,28.5625,28.9375
0.19205497,0.60055274,0.13032287,-0.45510826,-0.0090127755,0.036554284,-0.105187096,-0.3978475,-0.3670824,0.059998035,3.078404,-0.6264429,-9.612425e-05,-0.09122324,0.016135728,0.0015198495,-0.006297176,0.006758819,0.006328845,0.494326,-1.3703731,1.8902649,-2.0893228,-1.5706848,2.4703083,-0.11126204,0.117087156,-0.1479547,0.021926321,0.0020774656,-0.11751991,0.095768064,0.21068975,-9.3661175,0.7239871,47.682407,-1.0960964,-2.2701962,-3.4415398,-0.1769385,0.1041255,-0.13395831,25.5625,26.4375,25.4375,27.8125,28.5625,28.9375
0.19405395,0.02123842,0.4769485,-0.6109615,0.005040393,0.02016171,-0.09925821,-0.3980112,-0.36703873,0.05997691,3.078377,-0.6265141,-3.8769116e-08,-0.09259351,0.015997423,0.001536913,-0.0065568676,0.007257186,0.0045471787,0.49407426,-1.370132,1.8900145,-2.0892746,-1.5706366,2.4701045,-0.11221196,0.11922578,-0.15054603,0.021823391,0.0020614367,-0.11668694,0.15322891,0.1340753,-9.32781,0.8985519,47.677036,-1.1217066,-2.4103148,-3.5451012,-0.15868542,0.09966829,-0.10207093,25.5625,26.4375,25.4375,27.8125,28.5625,28.9375
0.19605485,-0.07788924,0.38231713,-0.47729355,0.015151595,0.01835894,-0.09360803,-0.39822394,-0.3670162,0.06000096,3.0783546,-0.62645096,-0.00012333719,-0.09239586,0.017294442,0.00021350355,-0.005042679,0.004770596,0.0039100116,0.4938583,-1.3698915,1.8896679,-2.0892508,-1.570661,2.4698522,-0.11405829,0.120317005,-0.14890422,0.021995923,0.0019227187,-0.117896296,0.095768064,0.076614454,-9.385271,0.8314132,47.690468,-1.1678352,-2.3309674,-3.5698037,-0.12567274,0.08980094,-0.0825678,25.5625,26.4375,25.4375,27.8125,28.5625,28.9375
0.19805405,0.15649652,0.27504313,-0.7050582,0.007666059,0.022308886,-0.09419195,-0.39840832,-0.3669701,0.059983842,3.078349,-0.6265099,-8.081601e-05,-0.09405498,0.017155766,0.0010847441,-0.0059044827,0.006253025,-0.0017199352,0.49360636,-1.3696268,1.8893803,-2.0892031,-1.570649,2.4696379,-0.11530289,0.12120534,-0.15211013,0.022601215,0.0019718267,-0.11350981,0.076614454,0.11492168,-9.404425,0.8090337,47.668976,-1.1362311,-2.2765946,-3.4426546,-0.114225395,0.09060671,-0.11646427,25.5625,26.4375,25.4375,27.8125,28.5625,28.9375
0.2000544,0.36175936,0.21795669,-0.632156,0.009070202,0.025312135,-0.09914244,-0.3985807,-0.36694893,0.05998245,3.0783494,-0.62651193,-7.810332e-05,-0.094881974,0.017231023,0.0018485351,-0.0060857027,0.0064791953,-0.0069832588,0.4934145,-1.3693746,1.889069,-2.089142,-1.570649,2.4694474,-0.11615827,0.12136057,-0.15450065,0.024551453,0.0020244666,-0.10910123,-0.05746084,0.0,-9.500193,0.84708,47.709274,-1.1718007,-2.2800403,-3.5034056,-0.10599317,0.112893924,-0.15625392,25.5625,26.4375,25.4375,27.8125,28.5625,28.9375
0.20205499,0.11483976,0.42315632,-0.7118647,-0.0029496823,0.029481957,-0.09303973,-0.39878365,-0.36691853,0.060006905,3.0783136,-0.6265065,-0.000172952,-0.0951415,0.017410992,0.00072515465,-0.004970491,0.0033771945,-0.011705473,0.49318668,-1.369157,1.8887457,-2.0891058,-1.5706605,2.4692209,-0.11694033,0.124723285,-0.15638612,0.026331801,0.0025195621,-0.10516051,-0.15322891,0.019153614,-9.519346,0.74413085,47.64658,-1.2040966,-2.3926654,-3.4728923,-0.12567745,0.09293757,-0.22120237,25.5625,26.4375,25.4375,27.8125,28.5625,28.9375
0.20405447,-0.5096273,-0.07670384,-0.710796,0.0012509142,0.032220427,-0.09412599,-0.39897245,-0.366863,0.06000205,3.0783286,-0.62654924,-0.0001279874,-0.09621416,0.017701989,0.001622024,-0.0057060164,0.0041631497,-0.016687118,0.49292266,-1.3689051,1.8884343,-2.0890095,-1.5706605,2.4689817,-0.118504554,0.12433218,-0.15826452,0.027560426,0.002791352,-0.10174306,-0.17238252,0.076614454,-9.5385,0.83589023,47.704796,-1.110179,-2.1826994,-3.4507976,-0.11781446,0.0936268,-0.27000383,25.5625,26.4375,25.4375,27.8125,28.5625,28.9375
0.20605414,-0.25547743,-0.079672776,-0.916652,-0.011170375,0.064035125,-0.09304173,-0.39914048,-0.3668381,0.05999057,3.0783067,-0.62656516,-7.359758e-05,-0.0973607,0.018264312,0.00097193994,-0.0051423977,0.0028081392,-0.02023309,0.4927067,-1.3686519,1.8881472,-2.088961,-1.5706247,2.4687786,-0.12051636,0.12700778,-0.16016603,0.028250448,0.0029327904,-0.100208096,-0.2681506,0.1340753,-9.634268,0.83589023,47.705692,-1.1411065,-2.3609314,-3.5303116,-0.11070815,0.088085115,-0.33097172,25.5625,26.4375,25.4375,27.8125,28.5625,28.9375
0.20805451,-1.2972339,-0.4694986,-0.81459767,-0.019307349,0.06268358,-0.09340149,-0.39937076,-0.36678877,0.060017534,3.0782602,-0.62676716,-0.00014088891,-0.09842778,0.018848753,0.0013186946,-0.0052247746,0.0029094536,-0.023426456,0.49243054,-1.3683996,1.8877634,-2.0888655,-1.5706486,2.4686346,-0.12240367,0.12742177,-0.16170059,0.029241161,0.0029611941,-0.098901466,-0.38307226,0.21068975,-9.710882,0.8179876,47.67345,-1.0949823,-2.2758527,-3.4627275,-0.12301166,0.08444584,-0.3721072,25.5625,26.4375,25.4375,27.8125,28.5625,28.9375
0.21005471,-1.138677,-0.64606994,-0.8326963,-0.033548053,0.09110976,-0.09998825,-0.3995668,-0.36679626,0.06005792,3.0781872,-0.6266935,-0.00024349662,-0.09835305,0.018498005,0.0006031046,-0.0043378137,0.001033445,-0.022964742,0.4922511,-1.3681827,1.8874043,-2.0888288,-1.5706247,2.4684186,-0.12176009,0.12991251,-0.16335204,0.03047689,0.0030766944,-0.09871857,-0.49799395,0.2681506,-9.749189,0.8560339,47.689575,-1.108409,-2.223897,-3.444563,-0.12668516,0.09061055,-0.40068036,25.5625,26.4375,25.4375,27.8125,28.5625,28.9375
0.21205427,-1.3207996,-0.50550014,-0.7115991,-0.048885424,0.104432255,-0.0996127,-0.39973152,-0.3667388,0.06002472,3.0782263,-0.62676036,-0.00011480029,-0.10096042,0.018674394,0.0020048083,-0.0060018767,0.003323604,-0.026721165,0.49199843,-1.367906,1.8871278,-2.088733,-1.5706123,2.4682028,-0.12457917,0.1305474,-0.16748562,0.031171605,0.0034452104,-0.09778045,-0.57460845,0.22984336,-9.691729,0.78217715,47.696735,-0.95345926,-2.1723998,-3.342094,-0.11972749,0.07784241,-0.46894258,25.5625,26.4375,25.4375,27.8125,28.5625,28.9375
0.21405488,-1.163525,-0.8604454,-0.58853024,-0.036032453,0.111204684,-0.09945343,-0.3999308,-0.3666818,0.060004156,3.078239,-0.62689495,-3.8987382e-05,-0.1028251,0.018236533,0.0022190243,-0.006959778,0.0045281374,-0.026098792,0.49172306,-1.3676047,1.886793,-2.088637,-1.5706123,2.46801,-0.12562287,0.1331166,-0.1709336,0.030536583,0.0037075577,-0.09944542,-0.68953013,0.28730422,-9.595961,0.86498255,47.701214,-1.1396974,-2.3446038,-3.3373768,-0.1268103,0.077235326,-0.49288204,25.5625,26.4375,25.4375,27.8125,28.5625,28.9375
0.21605447,-1.632679,-0.5420339,-0.6980666,-0.030906776,0.10037887,-0.09189548,-0.4001604,-0.36667588,0.060050257,3.0781224,-0.6269065,-0.00016009627,-0.103078276,0.018003592,0.0024158296,-0.007222178,0.005283489,-0.022320293,0.4914837,-1.3673767,1.8864106,-2.0886137,-1.5705761,2.4677927,-0.12531523,0.13325524,-0.17148802,0.030168142,0.0035959736,-0.10291547,-0.7278373,0.24899697,-9.576807,0.83589023,47.67614,-1.1732373,-2.1328578,-3.2730262,-0.100124046,0.07931949,-0.50534856,25.5625,26.4375,25.4375,27.8125,28.5625,28.9375
0.21805413,-1.3242657,-0.37127256,-0.5683992,-0.02374538,0.1062705,-0.09980193,-0.4003708,-0.3666587,0.06006097,3.0780528,-0.62692565,-0.00019360034,-0.1043815,0.018181073,0.0016044703,-0.0066406177,0.0047546513,-0.016346956,0.49124345,-1.367111,1.8860635,-2.08859,-1.5705408,2.4675734,-0.12655605,0.13663283,-0.17359328,0.02964338,0.003336912,-0.11012784,-0.7086837,0.21068975,-9.557653,0.80679786,47.675243,-1.1751351,-2.2007568,-3.2739275,-0.092469394,0.061684143,-0.4875272,25.5625,26.4375,25.4375,27.8125,28.5625,28.9375
0.22005473,-1.4600984,-0.24568886,-0.34626764,-0.013032836,0.09782481,-0.093654685,-0.40059176,-0.36660963,0.060061295,3.0780857,-0.6269102,-0.0002544049,-0.10546448,0.018613975,0.0005400872,-0.005840978,0.0032057671,-0.011844157,0.49099165,-1.3668215,1.8857034,-2.0885303,-1.5705885,2.467308,-0.12820017,0.14010598,-0.17537314,0.029689506,0.003363307,-0.11627362,-0.61291564,0.21068975,-9.461885,0.90527004,47.689575,-1.1571612,-2.2878478,-3.2078795,-0.067070484,0.0660675,-0.41419905,25.5625,26.4375,25.4375,27.8125,28.5625,28.9375
0.22205405,-0.44948128,0.6148467,-0.3332801,-0.012684076,0.10597579,-0.11465495,-0.40080425,-0.3665745,0.06007206,3.078037,-0.62699,-0.00025440886,-0.107800454,0.019899316,-0.00043075407,-0.0049670716,0.0019335825,-0.005518601,0.49072692,-1.3665557,1.8853449,-2.0884578,-1.5705646,2.4670994,-0.13227355,0.14415656,-0.17809016,0.029895961,0.003194003,-0.12667073,-0.51714754,0.22984336,-9.423578,0.85155696,47.685097,-1.0859759,-2.5793939,-3.2740135,-0.053201668,0.07153703,-0.33093312,25.5625,26.4375,25.4375,27.8125,28.5625,28.9375
0.22405472,-0.83671904,0.14289878,-0.28639835,-5.9817692e-05,0.07930653,-0.09470887,-0.40102622,-0.36652696,0.06006757,3.078007,-0.62697935,-0.0002835239,-0.10661195,0.019365774,-0.00050441426,-0.0043497602,0.0017136068,0.0017018653,0.4904404,-1.3662802,1.885023,-2.088446,-1.5705527,2.4668102,-0.12996724,0.1435103,-0.1772553,0.030197224,0.002762955,-0.13158484,-0.61291564,0.19153613,-9.346964,0.84484416,47.666286,-1.1066736,-2.2140381,-3.3319874,-0.04591678,0.077833846,-0.25524107,25.5625,26.4375,25.4375,27.8125,28.5625,28.9375
0.2260542,-0.5509538,0.0657804,0.035273604,-0.009670898,0.07636004,-0.10160042,-0.4012479,-0.36649755,0.06007801,3.0780058,-0.6269209,-0.00033609997,-0.10853574,0.020860262,-5.620318e-05,-0.004680632,0.0025980507,0.001216353,0.49019924,-1.3659918,1.884641,-2.0883863,-1.5705646,2.466533,-0.13404417,0.14340563,-0.1782145,0.030325308,0.0026434679,-0.1351758,-0.61291564,0.17238252,-9.193734,0.8291774,47.661808,-0.9473763,-2.2848432,-3.4335897,-0.034697603,0.08365479,-0.19528924,25.5625,26.4375,25.4375,27.8125,28.5625,28.9375
0.22805442,-0.77735233,0.16827837,0.17072006,-0.0065819775,0.076405875,-0.09451166,-0.40147802,-0.36645386,0.060083706,3.0779674,-0.62698805,-0.0003511081,-0.10887191,0.02059149,-0.0005695351,-0.0038606476,0.0014262882,0.0013357578,0.48991218,-1.3657026,1.8842686,-2.0883257,-1.5705527,2.4662929,-0.13371,0.14588818,-0.18028493,0.031336084,0.0024733832,-0.13495979,-0.61291564,0.05746084,-9.136273,0.8090337,47.689575,-1.0827196,-2.2957923,-3.4083576,-0.020897364,0.08060882,-0.16170704,25.5625,26.4375,25.4375,27.8125,28.5625,28.9375
0.23005491,-0.47443268,0.38334194,0.08537527,0.011420596,0.07778551,-0.09085622,-0.40171242,-0.3664095,0.060083687,3.0779161,-0.6270745,-0.00035237445,-0.10889484,0.021068107,-0.00078840693,-0.002956252,-6.92229e-05,-0.001960224,0.4896127,-1.365402,1.8838981,-2.0882776,-1.5705284,2.466054,-0.13438687,0.14655775,-0.18104658,0.03317729,0.0023838126,-0.13234037,-0.4213795,-0.019153614,-9.11712,0.8717007,47.70211,-1.0947822,-2.2605085,-3.4048357,-0.024749404,0.074774496,-0.15662722,25.5625,26.4375,25.4375,27.8125,28.5625,28.9375
0.23205417,-0.12863743,1.1965885,0.4151519,0.013007001,0.07030151,-0.10214893,-0.40193012,-0.36634514,0.060066424,3.0779505,-0.62708414,-0.0003438467,-0.10993708,0.021369655,-0.0013898442,-0.0023626965,-0.0017092564,-0.008486777,0.48932475,-1.3651009,1.8835634,-2.088217,-1.5705527,2.4657679,-0.13589501,0.1495526,-0.18359494,0.034453213,0.0026228377,-0.12732103,-0.24899697,-0.05746084,-8.983045,0.7777002,47.71465,-1.0788485,-2.2549295,-3.386308,-0.011033053,0.066748396,-0.2308273,25.5625,26.4375,25.4375,27.8125,28.5625,28.9375
0.23405433,0.76934123,1.5186224,0.4774879,0.034855485,0.06525024,-0.1033097,-0.40215564,-0.36631283,0.06007973,3.077911,-0.62707764,-0.0003888457,-0.11068155,0.021033779,0.00044803784,-0.0040913355,0.0016245396,-0.012931417,0.48906136,-1.3648256,1.8831929,-2.0881693,-1.5705408,2.4655056,-0.13589254,0.14692524,-0.18464252,0.03437471,0.002583934,-0.12287387,-0.22984336,-0.038307227,-8.810662,0.88289046,47.71823,-1.1065179,-2.2114499,-3.383852,-0.0051673027,0.084613115,-0.2782051,25.5625,26.4375,25.4375,27.8125,28.5625,28.9375
0.23605405,0.5402525,1.6831626,0.34109396,0.05309004,0.028252998,-0.09759067,-0.40239194,-0.36628875,0.06009884,3.0778663,-0.6271447,-0.00044508226,-0.11165806,0.02118725,0.000801899,-0.004148508,0.0019773475,-0.015262936,0.48880956,-1.3645248,1.8827733,-2.0880973,-1.5705408,2.4653015,-0.13687015,0.1477406,-0.18665665,0.035236098,0.0024722258,-0.121519014,-0.11492168,0.0,-8.772355,0.83589023,47.705692,-1.1388328,-2.2595057,-3.3080282,0.008892221,0.07500356,-0.31164598,25.5625,26.4375,25.4375,27.8125,28.5625,28.9375
0.23805454,1.2010257,1.531604,0.20911998,0.052928977,0.01650633,-0.10301213,-0.40261972,-0.36623144,0.060103707,3.0778415,-0.6272351,-0.00045574026,-0.11258468,0.021157427,0.0014732585,-0.0038133694,0.0016511141,-0.015979325,0.48850998,-1.3642484,1.8824147,-2.0880244,-1.5705408,2.4650617,-0.13747711,0.14882246,-0.19016396,0.038108297,0.002330585,-0.121408254,0.038307227,0.019153614,-8.810662,0.75755644,47.693153,-1.1768787,-1.9933901,-3.1410437,-0.0025106133,0.07238665,-0.34584695,25.5625,26.4375,25.4375,27.8125,28.5625,28.9375
0.24005485,1.3672332,1.3959775,-0.038901836,0.03685362,0.010300835,-0.10499913,-0.402848,-0.3661624,0.06009741,3.0778368,-0.6273484,-0.0004512049,-0.113914505,0.021510465,0.001965842,-0.0033065667,0.0013417077,-0.017946785,0.48819813,-1.3639596,1.8820666,-2.0879514,-1.5705532,2.4648213,-0.13898197,0.15028185,-0.19364288,0.040639218,0.0020255186,-0.120944135,0.076614454,0.019153614,-8.868123,0.8717007,47.67345,-1.2139677,-1.9979541,-3.2798226,-0.029409021,0.083919495,-0.36687022,25.5625,26.4375,25.4375,27.8125,28.5625,28.9375
0.24205408,1.1827209,0.41068298,-0.075077124,0.032252785,0.013092818,-0.09580332,-0.4030855,-0.36611962,0.060101993,3.0778577,-0.6273718,-0.00043130876,-0.11462763,0.022852194,0.001985401,-0.0013414342,-0.0014598955,-0.0196859,0.48792183,-1.3636228,1.8816227,-2.0878184,-1.5705651,2.4645572,-0.14151604,0.1515101,-0.19629735,0.045462295,0.0016065578,-0.121738,-0.038307227,0.038307227,-9.002198,0.81351066,47.682407,-1.178387,-1.9830494,-3.0492911,-0.07773414,0.09623793,-0.38138515,25.5625,26.4375,25.4375,27.8125,28.5625,28.9375
0.24405438,1.0253344,0.218524,-0.36578557,0.009882015,0.028574858,-0.10141848,-0.4032848,-0.36607045,0.060070224,3.0778613,-0.6274642,-0.00032919826,-0.113791205,0.022506122,0.0015315311,0.00013727744,-0.0039960206,-0.015232707,0.48764712,-1.3632977,1.8812889,-2.0877454,-1.5705413,2.4643397,-0.14004102,0.15296517,-0.19771372,0.048361465,0.0014854552,-0.12471569,0.095768064,0.1340753,-9.136273,0.87617236,47.687782,-1.2230606,-2.037838,-3.2609048,-0.11988379,0.09779017,-0.3765632,25.5625,26.4375,25.4375,27.8125,28.5625,28.9375
0.24605495,0.7057124,-0.24959928,-0.6866859,-0.009562247,0.0432159,-0.09864783,-0.40351796,-0.36601937,0.060085405,3.0778422,-0.62759256,-0.00028421837,-0.11492872,0.024323573,0.0005121778,0.0012924953,-0.0061548767,-0.01348794,0.48734623,-1.362997,1.8808588,-2.0875895,-1.5705289,2.4641216,-0.14399594,0.15484557,-0.19785613,0.049075335,0.001474937,-0.1304152,0.19153613,0.22984336,-9.193734,0.9186956,47.691364,-0.96061313,-2.0246897,-3.2036877,-0.15065941,0.09607073,-0.35363176,25.5625,26.4375,25.4375,27.8125,28.5625,28.9375
0.24805424,0.07556957,-1.047453,-0.6753179,-0.031498425,0.033977907,-0.095397875,-0.40375346,-0.36596265,0.060078017,3.0778587,-0.62755173,-0.00023844652,-0.115248874,0.025217615,0.00056824356,0.0020935657,-0.008720645,-0.0071721314,0.48703435,-1.3626724,1.8804644,-2.0874922,-1.570517,2.4637823,-0.14598763,0.15546715,-0.19963595,0.052878097,0.0019704602,-0.13872288,0.13407528,0.2681506,-9.385271,0.9567419,47.677036,-1.0031515,-1.9941885,-3.2216573,-0.2064417,0.10873455,-0.27503473,25.5625,26.4375,25.4375,27.8125,28.5625,28.9375
0.2500544,0.089169234,-1.0816933,-0.8719227,-0.049974523,0.03925186,-0.0976543,-0.40396735,-0.36590448,0.060070757,3.0778818,-0.6275905,-0.00017801979,-0.11555677,0.025805905,-0.00067264895,0.0032006537,-0.011809127,6.270231e-05,0.48674643,-1.3623711,1.8800925,-2.0873725,-1.5705165,2.4635158,-0.14744538,0.15845844,-0.20076203,0.05426152,0.0024308916,-0.14741538,0.038307227,0.34476507,-9.5385,0.86498255,47.679718,-0.9629011,-2.220397,-3.3249784,-0.26538527,0.099818505,-0.1818434,25.5625,26.4375,25.4375,27.8125,28.5625,28.9375
0.252054,0.17349316,-1.2280135,-0.8400597,-0.056233168,0.05546054,-0.09554128,-0.4042061,-0.3658506,0.060075182,3.077913,-0.6276136,-0.00016931666,-0.116190486,0.026022775,-0.002060356,0.0042832666,-0.013811023,0.0017046442,0.48645893,-1.3620453,1.8796619,-2.087241,-1.5705408,2.463239,-0.14826389,0.1622458,-0.20217957,0.05416536,0.0023997622,-0.14987484,-0.05746084,0.45968673,-9.576807,0.7642693,47.72002,-1.0773968,-2.2474766,-3.3609123,-0.2965933,0.08887617,-0.083560556,25.5625,26.4375,25.4375,27.8125,28.5625,28.9375
0.25405428,-0.0014251773,-1.3179239,-0.93140316,-0.054912474,0.063823305,-0.0954867,-0.40440482,-0.3657892,0.060059864,3.0779724,-0.6275456,-5.286102e-05,-0.11518961,0.025415078,-0.0032074624,0.0049681305,-0.0152968345,0.0040522916,0.4861721,-1.3617448,1.8793038,-2.087098,-1.5705284,2.4629023,-0.14632614,0.16388986,-0.20141809,0.05339598,0.002471529,-0.1502851,-0.095768064,0.4405331,-9.576807,0.83365434,47.685097,-1.0859437,-2.1992304,-3.434166,-0.32070667,0.110452235,-0.043902203,25.5625,26.4375,25.4375,27.8125,28.5625,28.9375
0.25605407,0.027472455,-1.157384,-0.9769119,-0.04844337,0.07124035,-0.09210008,-0.40465063,-0.36573294,0.060052518,3.0779724,-0.6275877,-3.5010333e-05,-0.116848566,0.025658604,-0.00346932,0.004435669,-0.014665407,-0.003155548,0.4858598,-1.3614076,1.8788971,-2.087014,-1.5705284,2.4626164,-0.14820991,0.16614263,-0.20331417,0.052231535,0.0026324438,-0.14496025,-0.17238253,0.45968673,-9.730036,0.88960326,47.684196,-0.9765692,-2.3235326,-3.6142287,-0.33304477,0.09499789,-0.09104532,25.5625,26.4375,25.4375,27.8125,28.5625,28.9375
0.2580546,-0.4006515,-1.1513563,-1.0173471,-0.048905578,0.06856243,-0.08660579,-0.4048838,-0.36567765,0.060054302,3.0779755,-0.62764883,-4.355827e-06,-0.117635466,0.025483951,-0.0037296135,0.003366928,-0.013616526,-0.010000941,0.48556057,-1.3610948,1.8784908,-2.0868957,-1.5705284,2.4623551,-0.14879546,0.16717705,-0.20349582,0.04995034,0.003073159,-0.13870077,-0.3256114,0.4213795,-9.653421,0.8940802,47.67793,-1.1646212,-2.3629632,-3.634562,-0.3594633,0.09190805,-0.1575494,25.5625,26.4375,25.4375,27.8125,28.5625,28.9375
0.26005438,0.20088261,-0.8243348,-0.966069,-0.054252442,0.084328786,-0.0982582,-0.40512988,-0.36565495,0.060055524,3.07797,-0.62759316,-3.6299834e-06,-0.11869617,0.025501518,-0.0040019522,0.0023330338,-0.014059223,-0.018397463,0.48529682,-1.360734,1.8780359,-2.0868118,-1.570516,2.4620576,-0.15035316,0.16903098,-0.20507582,0.049582794,0.0041863755,-0.13186258,-0.19153613,0.40222588,-9.634268,0.8224646,47.68599,-1.0757419,-2.5070543,-3.6125302,-0.35648218,0.09974249,-0.23751134,25.5625,26.4375,25.4375,27.8125,28.5625,28.9375
0.2620548,-0.040192317,-1.268637,-1.0590761,-0.03976493,0.064155705,-0.08973234,-0.4053422,-0.365602,0.060033903,3.0779839,-0.6276749,5.53859e-05,-0.120573364,0.025867308,-0.004286561,0.001412482,-0.013258755,-0.02498467,0.48502025,-1.3604097,1.8776768,-2.0867288,-1.570516,2.4618304,-0.15280068,0.17124678,-0.20676449,0.047917157,0.0046092607,-0.1277227,-0.15322891,0.34476504,-9.730036,0.7665104,47.677036,-1.1002859,-2.3692923,-3.6629887,-0.37819445,0.09929168,-0.28768516,25.5625,26.4375,25.4375,27.8125,28.5625,28.9375
0.26405412,0.2548542,-1.0050135,-0.54860544,-0.045170266,0.0658166,-0.09671365,-0.40562096,-0.36556038,0.060045633,3.0779452,-0.6277044,2.5328001e-05,-0.12322468,0.025367497,-0.0032137164,-0.0010563574,-0.007906922,-0.026686678,0.48469675,-1.3600501,1.8771995,-2.0866463,-1.5705041,2.4615304,-0.15400162,0.17178354,-0.20894028,0.043674756,0.004285729,-0.12722005,-0.19153613,0.22984336,-9.672575,0.8873621,47.694946,-1.0645776,-2.3078487,-3.727535,-0.36415482,0.08027288,-0.3637724,25.5625,26.4375,25.4375,27.8125,28.5625,28.9375
0.26605502,-0.23722193,-0.50860023,-0.529055,-0.04276682,0.06199267,-0.09565698,-0.40586874,-0.3655164,0.06006524,3.0778909,-0.6277724,-1.9686851e-05,-0.12563422,0.025216036,-0.0031254364,-0.0014276274,-0.0056258943,-0.032896876,0.4843969,-1.3597611,1.8767918,-2.0865748,-1.5704921,2.46128,-0.15532346,0.17480053,-0.21242021,0.04195068,0.0035433534,-0.122328825,-0.4213795,0.19153613,-9.500193,0.82022345,47.672558,-0.94728917,-2.3564756,-3.5812268,-0.31893194,0.08520261,-0.42052343,25.5625,26.4375,25.4375,27.8125,28.5625,28.9375
0.26805463,-0.92613745,-0.4740335,-0.441653,-0.010280211,0.062189754,-0.08154393,-0.40612257,-0.3654658,0.060052853,3.0778525,-0.6278974,1.8135665e-05,-0.12780727,0.024306653,-0.0010232573,-0.004631272,-0.0004349779,-0.033644136,0.48407328,-1.359402,1.8763722,-2.0865037,-1.5704678,2.4610395,-0.15586467,0.17365915,-0.21544246,0.040031623,0.003949223,-0.12212244,-0.51714754,0.21068975,-9.346964,0.8806493,47.691364,-1.0530127,-2.2889762,-3.4707751,-0.31006837,0.080992684,-0.48864955,25.5625,26.4375,25.4375,27.8125,28.5625,28.9375
0.27005395,-0.4513393,0.46812522,-0.4545168,0.014046813,0.08171222,-0.097337835,-0.40639445,-0.36541823,0.06006404,3.0778022,-0.6279604,-8.1058235e-05,-0.12956978,0.023867771,2.1723585e-05,-0.0065161893,0.0017877448,-0.030119093,0.48376152,-1.3590782,1.8759521,-2.0864794,-1.5704802,2.4607737,-0.15696535,0.17426172,-0.2185008,0.039641805,0.004587043,-0.12674753,-0.24899697,0.095768064,-9.346964,0.86498255,47.66271,-0.9187243,-2.1201818,-3.4042299,-0.29384986,0.068921745,-0.49899054,25.5625,26.4375,25.4375,27.8125,28.5625,28.9375
0.27205437,-0.1783674,0.94624674,-0.32448694,0.020635903,0.09911092,-0.10728694,-0.4066304,-0.36539304,0.060048986,3.0777595,-0.62800384,8.600877e-06,-0.13109168,0.02367686,0.0007142181,-0.009319884,0.003496098,-0.02330086,0.48347402,-1.3587065,1.8755206,-2.0863965,-1.5704192,2.4605188,-0.15891328,0.17435288,-0.21990174,0.038141616,0.0062692696,-0.13551539,-0.34476504,0.1340753,-9.442732,0.83589023,47.688675,-1.1945887,-2.1424978,-3.3876195,-0.26906544,0.05444175,-0.45503795,25.5625,26.4375,25.4375,27.8125,28.5625,28.9375
0.2740546,-0.6070488,0.76396227,-0.37192157,0.015824202,0.10105376,-0.09823601,-0.40691388,-0.36534643,0.06006927,3.0777,-0.6280595,-5.0937357e-05,-0.1313924,0.022073504,0.0007580081,-0.010693579,0.0047768685,-0.01089393,0.48313916,-1.3583698,1.8750538,-2.0863254,-1.5704073,2.4602265,-0.15676747,0.17611869,-0.22180915,0.03651598,0.0068964832,-0.14577594,-0.47884035,0.076614454,-9.385271,0.8560339,47.719128,-1.22042,-2.2769995,-3.386139,-0.24339017,0.04001856,-0.3559922,25.5625,26.4375,25.4375,27.8125,28.5625,28.9375
0.27605408,-1.0074279,0.66439766,-0.37399286,0.0010400794,0.09654095,-0.09915992,-0.4071751,-0.36531457,0.060073968,3.0776947,-0.6280913,-7.770475e-05,-0.13325635,0.02195854,0.0015089547,-0.010755699,0.0075692474,-0.0024972435,0.48286358,-1.3579979,1.8745741,-2.08623,-1.5704197,2.4599717,-0.15734799,0.17728907,-0.22483611,0.035878405,0.0056540826,-0.1547505,-0.59376204,0.05746084,-9.461885,0.83365434,47.694054,-1.215549,-2.2026527,-3.3015947,-0.21890992,0.033150405,-0.26623422,25.5625,26.4375,25.4375,27.8125,28.5625,28.9375
0.27805418,-1.0571631,-0.00020579652,-0.62265915,-0.0071853995,0.10492313,-0.09717001,-0.4074521,-0.36525938,0.0600941,3.0776703,-0.6280629,-0.00013376428,-0.1331107,0.022673437,0.0013960772,-0.00912119,0.0068506016,0.002308133,0.4825282,-1.3576745,1.8741201,-2.0861456,-1.5704201,2.459622,-0.157621,0.17720884,-0.22488026,0.0374056,0.0045560794,-0.15982763,-0.5554548,0.038307227,-9.481039,0.84484416,47.695843,-1.3120885,-1.9527249,-3.3239589,-0.20523281,0.053285338,-0.19006541,25.5625,26.4375,25.4375,27.8125,28.5625,28.9375
0.28005472,-1.2747811,-0.3213485,-0.4497766,-0.0024642479,0.097296715,-0.08894968,-0.40770808,-0.3651765,0.060057934,3.0777295,-0.6281319,-5.3410582e-05,-0.13466115,0.024193255,0.0012487603,-0.008150479,0.0065986104,0.0005785965,0.48217964,-1.3572783,1.873701,-2.0860374,-1.570444,2.459309,-0.16094276,0.17829174,-0.22609963,0.038216718,0.003802539,-0.16141896,-0.6703765,0.019153614,-9.557653,0.90750587,47.713753,-1.2248812,-2.0014489,-3.4610677,-0.20666502,0.066857465,-0.1583195,25.5625,26.4375,25.4375,27.8125,28.5625,28.9375
0.2820545,-1.3230927,0.05120926,-0.4386816,-0.010386687,0.088905066,-0.09006495,-0.40798983,-0.3651557,0.060095504,3.0776255,-0.628151,-0.00012209945,-0.13627863,0.024002835,0.0017164699,-0.008843191,0.008573255,-0.004672512,0.48186848,-1.3569542,1.8732094,-2.0859659,-1.5703963,2.4590232,-0.16174264,0.17961021,-0.22859845,0.037334885,0.0035104048,-0.15696605,-0.53630114,0.019153614,-9.557653,0.8090337,47.699425,-1.2803311,-1.9879425,-3.3499422,-0.19634512,0.048982177,-0.18677941,25.5625,26.4375,25.4375,27.8125,28.5625,28.9375
0.28405488,-0.3387016,0.3055994,-0.41869977,-0.0028706677,0.08860058,-0.09104835,-0.4082461,-0.3651037,0.06008288,3.07761,-0.6282271,-0.00012125112,-0.13672109,0.023739805,0.0005394208,-0.008250744,0.0076789735,-0.011569801,0.48155728,-1.3565931,1.8727897,-2.0859067,-1.5703968,2.4587617,-0.16151048,0.18286031,-0.22964555,0.036198013,0.0033953101,-0.14983568,-0.4213795,-0.019153614,-9.576807,0.92093146,47.684196,-1.3013492,-2.1588635,-3.3945775,-0.16741547,0.053698316,-0.25770023,25.5625,26.4375,25.4375,27.8125,28.5625,28.9375
0.28605446,-0.088425,0.59327936,-0.4699513,-0.0013483536,0.07556195,-0.09656797,-0.408544,-0.36505467,0.060095016,3.0775788,-0.6282402,-0.00020180209,-0.13693725,0.023827972,-0.0008123631,-0.0072549647,0.0054797283,-0.014789612,0.48122156,-1.3562204,1.8722996,-2.0858467,-1.5704082,2.4584384,-0.16180737,0.18616973,-0.2306519,0.036303487,0.003539436,-0.146912,-0.38307226,0.038307227,-9.615114,0.9365982,47.675243,-1.3362579,-2.2879148,-3.5152352,-0.13173902,0.03892097,-0.31613356,25.5625,26.4375,25.4375,27.8125,28.5625,28.9375
0.28805497,0.24155301,0.6190151,-0.44339472,-0.0012208547,0.07090446,-0.10564007,-0.40882093,-0.36501,0.06010226,3.077537,-0.62828887,-0.00023182506,-0.1374446,0.023780344,-0.0011167234,-0.0066990824,0.0048832246,-0.015900547,0.48089767,-1.3558605,1.8718332,-2.0857747,-1.5703968,2.4581504,-0.1619212,0.18801136,-0.23239903,0.036998462,0.0033275334,-0.14591384,-0.21068975,0.095768064,-9.385271,0.83589023,47.681515,-1.3485036,-2.1941864,-3.562652,-0.12605959,0.058477256,-0.3431636,25.5625,26.4375,25.4375,27.8125,28.5625,28.9375
0.2900544,0.025112243,0.19529271,-0.6906912,0.00865741,0.051203348,-0.09779418,-0.40907857,-0.36497205,0.060094092,3.0775373,-0.6282504,-0.00024471668,-0.13846007,0.02440327,-0.0013676648,-0.0060261483,0.0041641826,-0.016885165,0.48060912,-1.3554881,1.8713893,-2.085714,-1.5703968,2.457838,-0.16357456,0.18973048,-0.23420063,0.038032018,0.0030657784,-0.14658159,-0.15322891,0.21068975,-9.385271,0.90750587,47.688675,-1.4195411,-2.172405,-3.4931064,-0.11822153,0.05315187,-0.37614816,25.5625,26.4375,25.4375,27.8125,28.5625,28.9375
0.29205418,-0.1726368,-0.34968382,-0.6756948,-0.0012750367,0.025456386,-0.09233653,-0.4093752,-0.36491716,0.060115974,3.0774462,-0.6284059,-0.00026512492,-0.13950783,0.02559533,-0.0022939206,-0.004343792,0.001859445,-0.019762404,0.4802364,-1.3551395,1.8708977,-2.0856178,-1.5703605,2.4575741,-0.16608487,0.19261481,-0.2360415,0.03981794,0.002647653,-0.14621326,-0.11492168,0.21068975,-9.557653,0.8247004,47.67345,-1.3910996,-2.3497372,-3.5293705,-0.09548922,0.05840679,-0.37518322,25.5625,26.4375,25.4375,27.8125,28.5625,28.9375
0.29405475,0.73894805,-0.4453288,-0.50502056,-0.03532906,0.04011931,-0.09909276,-0.40966648,-0.3648471,0.060110606,3.077467,-0.6284067,-0.00031420105,-0.140375,0.026219085,-0.0021326053,-0.003768894,0.0013904277,-0.015079636,0.47988757,-1.3547558,1.8704308,-2.0855458,-1.5703968,2.4572234,-0.16757557,0.1934597,-0.23787141,0.041483544,0.002360385,-0.1523859,-0.095768064,0.30645782,-9.519346,0.900793,47.655537,-1.2881691,-2.2601323,-3.4926622,-0.083417594,0.06412694,-0.35995,25.5625,26.4375,25.4375,27.8125,28.5625,28.9375
0.29605457,0.1364924,-1.1817412,-0.29267204,-0.04527017,0.033064038,-0.096130624,-0.40994132,-0.3647702,0.060089428,3.0774884,-0.6285035,-0.0002642848,-0.14165875,0.026411667,-0.0018096352,-0.0037749799,0.0017476346,-0.008990677,0.47952715,-1.3543589,1.8699754,-2.085437,-1.5704087,2.4569209,-0.16878752,0.19483332,-0.24055737,0.042478565,0.0021944337,-0.15968584,-0.095768064,0.3256114,-9.3661175,0.90527004,47.66091,-1.1738243,-2.4205143,-3.4469614,-0.07559675,0.08121066,-0.29313344,25.5625,26.4375,25.4375,27.8125,28.5625,28.9375
0.29805398,0.61846733,-0.49274415,-0.26629215,-0.046159167,0.044436038,-0.106583,-0.41021836,-0.3647433,0.060083076,3.0774632,-0.62845546,-0.0002683609,-0.14326452,0.02766486,-0.0012070315,-0.004010992,0.002129728,-0.0029621932,0.4792261,-1.3539515,1.8694848,-2.0853775,-1.5703844,2.4565933,-0.17217058,0.19472298,-0.2421492,0.043741,0.0022367649,-0.16909707,0.076614454,0.34476504,-9.32781,0.87617236,47.682407,-1.1450963,-2.2439027,-3.525096,-0.0806342,0.087825075,-0.18300346,25.5625,26.375,25.4375,27.8125,28.5625,28.9375
0.30005455,0.08010048,-0.6000597,-0.19016209,-0.037539177,0.037306566,-0.10212069,-0.4105265,-0.36470687,0.060119353,3.0774026,-0.6283631,-0.00038727708,-0.14388074,0.027696462,-0.00088494335,-0.004632185,0.0024430186,0.0011978972,0.47889006,-1.3536042,1.8689698,-2.0853174,-1.5703725,2.4562075,-0.17287876,0.19499849,-0.24335542,0.04411076,0.002664412,-0.17396517,-0.038307227,0.34476504,-9.385271,0.84708,47.675243,-1.2184134,-2.0727232,-3.4707723,-0.07956592,0.08126914,-0.1036496,25.5625,26.375,25.4375,27.8125,28.5625,28.9375
0.30205542,-0.42138582,-0.6009727,-0.012288015,-0.030239642,0.030834602,-0.08849576,-0.41083464,-0.3646673,0.060143035,3.0773284,-0.62844527,-0.00043385936,-0.14555527,0.027784115,-0.000348093,-0.005829928,0.0028631843,-0.001601099,0.47854155,-1.3532201,1.8684305,-2.0852206,-1.5703481,2.45592,-0.1748695,0.19639324,-0.2465135,0.04495145,0.0035402332,-0.17315634,-0.095768064,0.3256114,-9.308656,0.8784135,47.66091,-1.148716,-2.0298433,-3.4832318,-0.065270126,0.076407835,-0.06732713,25.5625,26.375,25.4375,27.8125,28.5625,28.9375
0.304055,0.014639026,-0.35226494,0.051696207,-0.022671692,0.04310332,-0.095084205,-0.41109353,-0.36456716,0.06010037,3.0773833,-0.6285562,-0.0003150629,-0.1467983,0.02721687,0.0010225797,-0.007482792,0.0046492363,-0.007914818,0.47815728,-1.3528243,1.8680223,-2.0851014,-1.5703601,2.455598,-0.17525467,0.19624916,-0.24975355,0.045984156,0.0041612512,-0.16722783,-0.21068975,0.30645782,-9.251195,0.86945957,47.653748,-1.0815296,-1.9919784,-3.4222646,-0.053793207,0.055726893,-0.099289075,25.5625,26.375,25.4375,27.8125,28.5625,28.9375
0.30605438,-0.52893865,-0.09164632,0.19480592,-0.023652663,0.041292787,-0.09426096,-0.41141605,-0.36452308,0.060132697,3.0773067,-0.6285828,-0.00041867298,-0.14873314,0.027116776,0.002041264,-0.008874603,0.006720461,-0.01524868,0.4777969,-1.352452,1.867483,-2.0850294,-1.5703481,2.4552643,-0.17679094,0.19698489,-0.25302926,0.0460452,0.0044524106,-0.161429,-0.30645782,0.24899697,-9.212888,0.8873621,47.661808,-1.082164,-2.1812732,-3.343196,-0.041363873,0.06184166,-0.16611984,25.5625,26.375,25.4375,27.8125,28.5625,28.9375
0.30805415,0.29085296,0.43895453,0.22578752,-0.023647062,0.06896555,-0.11275214,-0.4116903,-0.36448076,0.060108297,3.0773375,-0.6285929,-0.00038437013,-0.1496251,0.027773377,0.0013261668,-0.00825565,0.005492588,-0.022917962,0.477496,-1.352008,1.86698,-2.084933,-1.5703601,2.454966,-0.17853145,0.19922364,-0.25428286,0.046432294,0.004458309,-0.15549983,-0.30645782,0.24899697,-9.232041,0.88960326,47.661808,-0.9450165,-2.0652685,-3.3521912,-0.019468216,0.042751834,-0.27697963,25.5625,26.375,25.4375,27.8125,28.5625,28.9375
0.31005442,-0.90057695,0.07324082,0.20566122,0.00027324428,0.06223846,-0.100182824,-0.41200438,-0.36443818,0.060129218,3.0772483,-0.62869334,-0.00039322287,-0.15037403,0.027820818,0.0009032254,-0.007971324,0.0042414684,-0.029246107,0.47712398,-1.3516117,1.8664292,-2.0848253,-1.5703119,2.4546683,-0.17930391,0.20165966,-0.25659326,0.04755435,0.004784479,-0.14994325,-0.4213795,0.21068975,-9.232041,0.95002913,47.683304,-1.1547177,-2.0262198,-3.4138877,-0.019486772,0.05540616,-0.33327454,25.5625,26.375,25.4375,27.8125,28.5625,28.9375
0.31205496,-0.60011715,0.6024299,0.26680973,0.000144066,0.07712724,-0.1074965,-0.41231406,-0.36438543,0.060144413,3.0771937,-0.6288186,-0.0004763225,-0.1505944,0.028550338,-0.00012010096,-0.006528146,0.0013681776,-0.034420766,0.47677565,-1.351227,1.8659133,-2.0847528,-1.5703238,2.4544053,-0.18058954,0.2041275,-0.25776133,0.04946801,0.0048312647,-0.14605343,-0.49799395,0.038307227,-9.251195,0.8784135,47.705692,-1.1192968,-2.0303128,-3.3901227,-0.017518291,0.05159192,-0.43505406,25.5625,26.375,25.4375,27.8125,28.5625,28.9375
0.3140543,-0.8660695,0.65367955,0.38598666,0.007500929,0.07249428,-0.10557646,-0.41260126,-0.36432713,0.06014251,3.0771728,-0.6288706,-0.0004339135,-0.15038913,0.028502736,-0.00037271946,-0.0060542347,3.945417e-05,-0.034454007,0.47641584,-1.3508309,1.8654112,-2.0846322,-1.5702995,2.4540808,-0.18030638,0.20502605,-0.25866887,0.0508798,0.00501989,-0.14573702,-0.45968673,-0.076614454,-9.078813,0.9254084,47.66808,-1.19275,-2.0074933,-3.4788299,-0.019768432,0.028411955,-0.47928825,25.5625,26.375,25.4375,27.8125,28.5625,28.9375
0.31605476,-1.2038107,0.85816985,0.5203677,0.01627791,0.062697716,-0.10284033,-0.4129012,-0.36427245,0.060129795,3.0771194,-0.6290284,-0.00038304846,-0.15065062,0.027694177,-0.0007150493,-0.005459033,-0.0013354832,-0.02840247,0.4760443,-1.3503985,1.8648952,-2.0845363,-1.5702637,2.4538147,-0.17910308,0.20798723,-0.26197633,0.05273028,0.005120708,-0.15058407,-0.49799395,0.0,-9.021352,0.9388393,47.691364,-1.2709031,-2.016019,-3.4394572,-0.027924947,0.029913474,-0.4852498,25.5625,26.375,25.4375,27.8125,28.5625,28.9375
0.31805402,-0.67141604,1.3371898,0.6910864,0.014607817,0.07816175,-0.11429492,-0.41319782,-0.36420104,0.060104467,3.0771587,-0.62904894,-0.0003580575,-0.14984204,0.02826819,-0.0014610817,-0.0037310298,-0.004500028,-0.016780604,0.47568431,-1.3499548,1.8643936,-2.084439,-1.5702876,2.4534628,-0.17917106,0.2088874,-0.26210278,0.055565495,0.0050425506,-0.16227418,-0.5363012,0.038307227,-9.002198,0.9298854,47.686886,-1.551167,-1.9321876,-3.4696712,-0.0410558,0.013909663,-0.40035278,25.5625,26.375,25.4375,27.8125,28.5625,28.9375
0.32005402,-0.42541152,1.4129663,0.40823305,0.015755735,0.0738076,-0.11798867,-0.41348368,-0.36413023,0.06008475,3.077166,-0.62911797,-0.00028564868,-0.14913674,0.027766956,-0.0011927075,-0.002944382,-0.005698682,-0.0029577527,0.47531322,-1.349535,1.8639029,-2.0843189,-1.5702757,2.453134,-0.17750077,0.20906559,-0.26363996,0.058360808,0.004893554,-0.17442662,-0.30645782,-0.038307227,-9.174581,0.9612189,47.68062,-1.6527565,-2.023685,-3.5397687,-0.06617756,0.028736707,-0.28672862,25.5625,26.375,25.4375,27.8125,28.5625,28.9375
0.32205403,-0.17815506,0.999249,0.3212289,0.024635084,0.054051,-0.11411007,-0.41381833,-0.36408344,0.060117416,3.0770984,-0.6291403,-0.0003755631,-0.15020253,0.028317485,-0.0014892055,-0.0017685727,-0.0069277575,0.0015065202,0.47494063,-1.3491385,1.8633269,-2.0842226,-1.5702642,2.4527843,-0.17889015,0.21150823,-0.26645616,0.060373873,0.004425697,-0.18027844,-0.19153613,-0.019153614,-9.136273,0.8717007,47.67614,-1.6055357,-2.1320586,-3.5214906,-0.10450116,0.026694562,-0.20512655,25.5625,26.375,25.4375,27.8125,28.5625,28.9375
0.32405448,0.11694585,0.768401,0.350561,0.008182832,0.036856137,-0.106432,-0.41411835,-0.3640346,0.060119312,3.0771012,-0.6290646,-0.0003073843,-0.15142015,0.029776923,-0.0017273884,0.000329147,-0.009565708,-6.0225677e-05,0.47457963,-1.3487065,1.8627638,-2.0840652,-1.570228,2.452376,-0.18181117,0.2137917,-0.2697435,0.06469433,0.0037624093,-0.18163118,-0.3256114,-0.076614454,-9.021352,0.87617236,47.670765,-1.4227436,-2.0831292,-3.3921518,-0.12383059,0.036074657,-0.15745082,25.5625,26.375,25.4375,27.8125,28.5625,28.9375
0.32605484,0.5496331,0.8489666,0.1026706,0.0068962504,0.03219914,-0.10547583,-0.4144154,-0.3639519,0.060093526,3.077121,-0.6291693,-0.00025799684,-0.15201879,0.030952016,-0.0029128117,0.002278968,-0.012026985,-0.00731423,0.47419477,-1.3482732,1.8622726,-2.0839574,-1.5702404,2.452054,-0.18375163,0.21647465,-0.27070135,0.06604823,0.003136861,-0.17631678,-0.24899697,-0.038307227,-9.078813,0.87617236,47.667187,-1.4382571,-2.2680655,-3.3236094,-0.18536049,0.047556106,-0.18637082,25.5625,26.375,25.4375,27.8125,28.5625,28.9375
0.3280541,0.28203455,0.7006562,-0.06796277,0.0031174563,0.025100617,-0.106128,-0.41472164,-0.3638985,0.0600912,3.077146,-0.62917846,-0.00026569018,-0.15425864,0.03193563,-0.0029555815,0.0023427652,-0.011757099,-0.017445756,0.47385815,-1.3478292,1.86171,-2.0838258,-1.5702647,2.4517202,-0.18703952,0.21880816,-0.2735997,0.066396356,0.002940885,-0.16947189,-0.21068975,-0.019153614,-9.174581,0.87393653,47.640312,-1.3977575,-2.3313203,-3.3484616,-0.18945634,0.05360259,-0.24947092,25.5625,26.375,25.4375,27.8125,28.5625,28.9375
0.33005446,0.44913232,0.3072105,0.1876814,-0.012488856,0.036031287,-0.11171424,-0.41502053,-0.36381862,0.060070965,3.0771658,-0.6292619,-0.00016332575,-0.15443678,0.031672847,-0.0028482317,0.0034004278,-0.013275345,-0.021104766,0.47346222,-1.3473855,1.8611821,-2.083668,-1.5702528,2.451374,-0.18644282,0.22055477,-0.27679208,0.069677845,0.002673127,-0.1652151,-0.15322891,0.095768064,-9.174581,0.95226496,47.664497,-1.4066973,-2.2328367,-3.2839146,-0.2511826,0.051014006,-0.34122682,25.5625,26.375,25.4375,27.8125,28.5625,28.9375
0.332055,-0.032401092,-0.42724383,0.047436275,-0.0034363403,0.029613,-0.10016418,-0.41533914,-0.3637451,0.060076702,3.077173,-0.6293617,-0.00019845605,-0.15590796,0.03231375,-0.0020717417,0.003277204,-0.013480837,-0.026058946,0.47308922,-1.3469652,1.8606294,-2.083536,-1.5702885,2.4510627,-0.18872756,0.22126849,-0.28011915,0.07241133,0.0028691564,-0.16254489,-0.21068975,0.15322891,-9.308656,0.83589023,47.66091,-1.3136246,-2.2436104,-3.1983197,-0.3136762,0.06829279,-0.36406416,25.5625,26.375,25.4375,27.8125,28.5625,28.9375
0.33405456,0.0107538905,-0.22764546,-0.0376914,-0.01715152,0.045431573,-0.11142166,-0.41563213,-0.3636848,0.06004024,3.077197,-0.62940395,-4.3035834e-05,-0.15749681,0.03270931,-0.0019484117,0.0016098876,-0.0116693005,-0.026901133,0.4727167,-1.3464736,1.8600806,-2.0833814,-1.5702523,2.4507136,-0.19097228,0.22180508,-0.28060192,0.069991104,0.0035017913,-0.16394825,-0.21068975,0.2681506,-9.251195,0.93436235,47.688675,-1.2092093,-2.1734347,-3.2694764,-0.31139368,0.059387073,-0.4014182,25.5625,26.375,25.4375,27.8125,28.5625,28.9375
0.33605483,-0.47038567,-0.40126708,-0.2773735,-0.02593512,0.041595835,-0.115020104,-0.4159389,-0.36360818,0.060046885,3.0771945,-0.62947816,1.419272e-05,-0.15803264,0.033395644,-0.0022335204,0.0013484205,-0.012254248,-0.025158161,0.47232008,-1.3460653,1.8595294,-2.0832021,-1.5702399,2.4503639,-0.19270563,0.22230144,-0.28062406,0.06992258,0.003991564,-0.16742532,-0.1340753,0.30645782,-9.423578,0.90527004,47.681515,-1.1860566,-2.3180425,-3.533908,-0.3317467,0.032461897,-0.40249068,25.5625,26.375,25.4375,27.8125,28.5625,28.9375
0.33805478,-0.20839582,-1.1126323,-0.09890225,-0.051198278,0.06892002,-0.11486655,-0.41625404,-0.3635337,0.06003894,3.0772123,-0.62959313,6.4298445e-05,-0.15897854,0.034512527,-0.0025435963,0.0011284079,-0.011888866,-0.01876159,0.47193518,-1.34561,1.8589567,-2.0830343,-1.5702523,2.4500487,-0.19521485,0.22248942,-0.27995187,0.06864127,0.004010208,-0.1763317,-0.24899697,0.28730422,-9.423578,0.95226496,47.705692,-1.0608144,-2.1685853,-3.7586036,-0.34049082,0.05249238,-0.34431052,25.5625,26.375,25.4375,27.8125,28.5625,28.9375
0.3400546,-1.4730287,-1.7663947,-0.21343136,-0.053523473,0.06396412,-0.10544567,-0.4165821,-0.36347023,0.060012378,3.0772448,-0.62953717,0.00010698811,-0.16238202,0.034980983,-0.001726899,-0.00087042496,-0.0075327414,-0.012362824,0.47155032,-1.3451061,1.8583807,-2.082928,-1.5702523,2.449625,-0.19858792,0.22387631,-0.28285125,0.06537279,0.0037908223,-0.18610239,-0.4405331,0.3256114,-9.289502,0.95226496,47.689575,-1.0221306,-2.0799615,-3.7284398,-0.35014868,0.06112936,-0.22551763,25.5625,26.375,25.4375,27.8125,28.5625,28.9375
0.3420548,-1.166689,-0.9657665,-0.24451646,-0.046651572,0.08417973,-0.11720929,-0.4169159,-0.3634144,0.060037073,3.0771866,-0.62965626,7.512523e-05,-0.16481353,0.034141153,-0.0011594973,-0.0029676217,-0.0035806478,-0.006929071,0.47116625,-1.3446857,1.8577818,-2.0827858,-1.5702399,2.449323,-0.19912924,0.22598967,-0.28601682,0.061958596,0.0038570284,-0.19207613,-0.34476504,0.2681506,-9.404425,0.86945957,47.685097,-1.031594,-2.0806863,-3.5900106,-0.31809938,0.040554743,-0.110510975,25.5625,26.375,25.4375,27.8125,28.5625,28.9375
0.34405586,-1.6330541,-0.63851494,-0.45806792,-0.03570634,0.08179453,-0.103060715,-0.4172375,-0.36333525,0.059997547,3.0772126,-0.62966007,0.00018916458,-0.16394939,0.032636765,-0.003088533,-0.0026366885,-0.0061296094,-0.004879107,0.47074717,-1.3441808,1.8572305,-2.0826662,-1.5702161,2.448903,-0.1962384,0.23040685,-0.28686413,0.060813494,0.0046984437,-0.19123577,-0.4213795,0.24899697,-9.5385,0.900793,47.68062,-1.1680622,-2.1954832,-3.6769295,-0.3176632,0.048170738,-0.10191223,25.5625,26.375,25.4375,27.8125,28.5625,28.9375
0.34605452,-1.7810328,-0.5397842,-0.39444533,-0.024091974,0.08622672,-0.106108636,-0.41754705,-0.36329296,0.059982244,3.0772135,-0.62962556,0.0002405565,-0.16666795,0.030474136,-0.0012369562,-0.0071278443,0.0018414007,-0.010996161,0.4703995,-1.3437011,1.8566555,-2.0825489,-1.5701917,2.448534,-0.1950154,0.23061246,-0.29000774,0.054611623,0.005059763,-0.18389527,-0.6512229,0.30645782,-9.519346,0.8940802,47.65464,-1.3168895,-2.2738762,-3.6162934,-0.25945568,0.03867033,-0.15389252,25.5625,26.375,25.4375,27.8125,28.5625,28.9375
0.3480551,-1.3806405,-0.39725566,-0.6399365,-0.01804407,0.10103191,-0.10989754,-0.41790852,-0.36323336,0.05998615,3.0771642,-0.62969667,0.00023587755,-0.16873488,0.029461386,-0.0003205587,-0.009383658,0.005805054,-0.019317372,0.46997973,-1.3432091,1.8560213,-2.0824301,-1.5701679,2.4481652,-0.19502115,0.23188004,-0.2931144,0.051896255,0.005266596,-0.17557892,-0.6512228,0.3256114,-9.615114,0.93436235,47.666286,-1.393223,-2.183371,-3.629261,-0.21415398,0.007924547,-0.23251083,25.5625,26.375,25.4375,27.8125,28.5625,28.9375
0.35005447,-1.2232608,-0.47144803,-0.83060384,-0.015801508,0.08803627,-0.108513065,-0.41824034,-0.3631709,0.059974924,3.0771408,-0.62977254,0.00022322134,-0.17042418,0.029868862,-0.0005303312,-0.0095714405,0.005625703,-0.027757274,0.46959513,-1.3427407,1.8554577,-2.0823457,-1.5701679,2.4478312,-0.19709904,0.23445912,-0.2959523,0.052227616,0.0055132885,-0.16921607,-0.47884035,0.40222588,-9.634268,0.9030289,47.68599,-1.4208481,-2.339585,-3.530273,-0.17711516,0.027447112,-0.3284204,25.5625,26.375,25.4375,27.8125,28.5625,28.9375
0.35205424,-0.530339,-1.2405351,-0.89186716,-0.037499133,0.08043314,-0.11356757,-0.4185774,-0.36307928,0.059978236,3.0771496,-0.6299119,0.00017746053,-0.17129274,0.030262569,-0.0010171761,-0.008625625,0.004694031,-0.033590715,0.46918693,-1.3423083,1.854894,-2.082214,-1.5702156,2.447509,-0.19805187,0.23683569,-0.29805633,0.053207077,0.0050908686,-0.16433415,-0.30645782,0.3256114,-9.730036,0.78217715,47.674347,-1.4744618,-2.386207,-3.453469,-0.19604822,0.021428756,-0.42885488,25.5625,26.375,25.4375,27.8125,28.5625,28.9375
0.35405564,0.1481799,-0.80082643,-1.0619165,-0.060847037,0.061690055,-0.11972533,-0.41893905,-0.36304364,0.059982922,3.0770428,-0.6300034,0.0001900878,-0.17293979,0.02924104,-0.0004599493,-0.009501719,0.00877343,-0.03285995,0.46877912,-1.3418036,1.8542475,-2.0821197,-1.570144,2.4471722,-0.19691199,0.23836838,-0.30061746,0.05021825,0.0040275427,-0.16392276,-0.28730422,0.3256114,-9.825804,0.96569055,47.679718,-1.4585909,-2.5849507,-3.5127373,-0.15256067,0.0352461,-0.5006147,25.5625,26.375,25.4375,27.8125,28.5625,28.9375
0.35605463,-0.14392382,-1.2179596,-0.83986557,-0.052113254,0.054488014,-0.119874075,-0.41928554,-0.3629923,0.059978284,3.07699,-0.63006747,0.00014409148,-0.17354456,0.030438716,-0.0005454264,-0.00838922,0.008754573,-0.031213256,0.46839476,-1.3413247,1.853661,-2.0820591,-1.5701326,2.4468348,-0.19863412,0.23833103,-0.30060816,0.050774932,0.0030583565,-0.16729064,-0.34476504,0.36391866,-9.787497,0.95002913,47.661808,-1.4444797,-2.4866366,-3.5549028,-0.12013494,0.038818747,-0.5107833,25.5625,26.375,25.4375,27.8125,28.5625,28.9375
0.3580543,-0.19383675,-0.5999144,-0.9864227,-0.045663834,0.05774487,-0.123074025,-0.41965568,-0.36291206,0.059969135,3.0770235,-0.6301067,7.5486045e-05,-0.17347682,0.031832255,-0.002662097,-0.0058340016,0.004272142,-0.021669345,0.46798608,-1.340808,1.8530277,-2.081951,-1.5701927,2.4464467,-0.20054373,0.24187344,-0.30060986,0.052386586,0.0028144387,-0.17874363,-0.1340753,0.19153614,-9.672575,0.92764956,47.674347,-1.3531404,-2.4928217,-3.6804938,-0.10656147,0.042528916,-0.42477736,25.5625,26.375,25.4375,27.8125,28.5625,28.9375
0.36005488,-0.29266357,-0.38716263,-0.83658564,-0.022596452,0.04792948,-0.11335005,-0.41999644,-0.36286196,0.05998139,3.076977,-0.63012826,5.634832e-05,-0.17429473,0.03194406,-0.0027539434,-0.005889754,0.0040415437,-0.010197046,0.4676019,-1.3403519,1.8524169,-2.0818312,-1.5701689,2.446082,-0.20133089,0.24338065,-0.3024599,0.052922778,0.0029794213,-0.19100259,0.019153614,0.11492168,-9.710882,0.9545008,47.684196,-1.3932145,-2.5833569,-3.794868,-0.08331433,0.051954716,-0.31255352,25.5625,26.375,25.4375,27.8125,28.5625,28.9375
0.36205417,0.21978335,0.017452084,-0.32777864,-0.016982011,0.04782377,-0.12027937,-0.42035043,-0.36280677,0.059953403,3.0769444,-0.6301564,3.933121e-05,-0.17672898,0.03156838,-6.9123744e-05,-0.009518057,0.008618535,-0.004449161,0.4672051,-1.3398249,1.8518294,-2.0817955,-1.570156,2.4457073,-0.20326954,0.24138868,-0.3062388,0.05297754,0.0041599623,-0.19868965,-0.076614454,0.038307227,-9.653421,0.9164598,47.721813,-1.3870628,-2.5737736,-3.622078,-0.05710745,0.053997353,-0.18839087,25.5625,26.375,25.4375,27.8125,28.5625,28.9375
0.36405534,0.1515953,0.2610827,-0.2693388,0.0039247596,0.033390265,-0.10515708,-0.42071834,-0.36272937,0.059940003,3.0769188,-0.63023007,5.289442e-05,-0.1784722,0.03237603,2.5585849e-05,-0.010493713,0.008312143,-0.008545289,0.46676058,-1.3393092,1.8512062,-2.0816872,-1.5701436,2.4453123,-0.20646915,0.2428822,-0.30853233,0.053612538,0.0051702852,-0.19779348,-0.15322891,0.05746084,-9.404425,0.90527004,47.675243,-1.1600075,-2.3232832,-3.5697055,-0.039814368,0.033899542,-0.159908,25.5625,26.375,25.4375,27.8125,28.5625,28.9375
0.36605495,0.7365248,1.634884,-0.38284013,0.02181456,0.035724312,-0.11994349,-0.42107925,-0.36268058,0.059954885,3.076862,-0.6301872,-1.1714803e-05,-0.1815561,0.03334282,0.0013386463,-0.011785587,0.010799747,-0.020340817,0.4663628,-1.3388412,1.8505825,-2.0816033,-1.5701197,2.4448953,-0.21047534,0.24357176,-0.31257123,0.05416087,0.0052128606,-0.19000271,-0.11492168,0.019153614,-9.32781,0.90750587,47.66271,-0.95284027,-2.3965669,-3.5437937,-0.0063843983,0.029008437,-0.20258167,25.5625,26.375,25.4375,27.8125,28.5625,28.9375
0.36805487,0.2162625,1.5329082,-0.62147194,0.04524452,0.013724208,-0.11258548,-0.42146036,-0.3626164,0.059972193,3.0767899,-0.63027185,-8.64071e-05,-0.18270709,0.03399874,0.0018191253,-0.011864877,0.010621384,-0.028264003,0.46593022,-1.3383615,1.8499359,-2.081507,-1.5701078,2.444525,-0.21240602,0.24415742,-0.31489912,0.056027073,0.0053792684,-0.18400946,-0.11492168,-0.038307227,-9.442732,0.8717007,47.68062,-0.9084399,-2.2900338,-3.3860755,0.022586178,0.01962196,-0.2846166,25.5625,26.375,25.4375,27.8125,28.5625,28.9375
0.3700546,0.5014698,1.2159961,-0.6327651,0.046076052,0.03102858,-0.117733315,-0.4218234,-0.3625406,0.05996129,3.0767784,-0.63034743,-1.458239e-05,-0.18291363,0.034097493,0.002743631,-0.0114928605,0.010715785,-0.031760167,0.46548656,-1.3378341,1.8492783,-2.0813382,-1.5700835,2.4441302,-0.21230385,0.24350286,-0.3169375,0.05880875,0.005003871,-0.18041079,-0.19153614,-0.095768064,-9.500193,0.95226496,47.703007,-0.9873838,-2.2127013,-3.4792356,0.012153256,0.027495448,-0.3593886,25.5625,26.375,25.4375,27.8125,28.5625,28.9375
