Tylouw/Master_Thesis_Code/training_data/batch_1/rect_rod_t0.1/sample_45_session_1.csv
timestamp[s],tcp_force_x[N],tcp_force_y[N],tcp_force_z[N],tcp_force_rx[Nm?],tcp_force_ry[Nm?],tcp_force_rz[Nm?],tcp_pose_x[m],tcp_pose_y[m],tcp_pose_z[m],tcp_pose_rx[rot_vec_x],tcp_pose_ry[rot_vec_y],tcp_pose_rz[rot_vec_z],tcp_velo_x[m/s],tcp_velo_y[m/s],tcp_velo_z[m/s],tcp_velo_rx[rot_vec_x/s],tcp_velo_ry[rot_vec_y/s],tcp_velo_rz[rot_vec_z/s],q1[rad],q2[rad],q3[rad],q4[rad],q5[rad],q6[rad],qd1[rad/s],qd2[rad/s],qd3[rad/s],qd4[rad/s],qd5[rad/s],qd6[rad/s],tool_acc_x,tool_acc_y,tool_acc_z,current_of_whole_robot[A],voltage_of_whole_robot[V],current_J1[A],current_J2[A],current_J3[A],current_J4[A],current_J5[A],current_J6[A],temp_J1[C],temp_J2[C],temp_J3[C],temp_J4[C],temp_J5[C],temp_J6[C]
7.420001e-07,-0.0350734,-0.49808955,-0.25588617,-0.028422778,0.025635384,-0.0052893558,-0.38935372,-0.3687053,0.06002417,-3.0787127,0.62494934,0.00027478818,0.0003113684,0.00012503967,-9.881604e-05,0.00038330004,-0.00095608813,0.0001759974,0.5050088,-1.3816799,1.9042109,-2.0919273,-1.5708774,2.4800134,0.0,-6.8925365e-06,-5.2228205e-07,0.0010290963,0.00012953133,-0.00017628874,0.11492168,0.17238252,-8.734048,0.7329411,47.72002,-0.20411244,-3.0657635,-2.2438989,-0.21746333,0.11346669,-0.0024573277,25.0625,25.75,24.875,26.9375,27.375,27.6875
0.002054863,0.44333455,-0.22827199,-0.22953787,-0.029446082,0.041495115,-0.011152043,-0.38935524,-0.3687249,0.06001654,-3.078743,0.62493604,0.00029541453,-0.001714916,-0.0010064942,-0.00021759557,-0.00397235,0.006848765,0.0001712618,0.5050329,-1.3816559,1.9042119,-2.0919797,-1.5708655,2.4800253,0.0,-9.247217e-08,0.002963025,-0.010879234,0.00014384503,-0.00017151576,0.076614454,0.21068975,-8.561666,0.75084364,47.65912,-0.17577295,-2.9341965,-2.3340387,-0.13283709,0.11523947,-0.004454224,25.0625,25.75,24.875,26.9375,27.375,27.6875
0.004054814,0.5559409,-0.26015794,-0.061577868,-0.035253182,0.040699467,-0.018318161,-0.38936386,-0.36872253,0.06003263,-3.0787575,0.62493914,0.0003227738,-0.0015626602,-0.00092226063,-0.0018245204,-0.0028197176,0.0047645685,0.00016716289,0.50502086,-1.3816788,1.9041995,-2.0919673,-1.5708655,2.4800134,0.0,0.0029929643,0.0032980307,-0.011825602,0.00014210981,-0.00016697128,-0.019153614,0.22984336,-8.580819,0.800085,47.678825,-0.17715904,-3.3240218,-2.6027126,-0.07076799,0.12814648,-0.01062231,25.0625,25.75,24.875,26.9375,27.375,27.6875
0.006054396,0.49589202,-0.049383376,-0.20244701,-0.02099536,0.023249373,-0.0160448,-0.38935715,-0.36872324,0.060007647,-3.078731,0.6249529,0.0002512028,-0.0005120236,-0.00033703688,-0.0015278696,-0.0008998248,0.001320037,0.00016260131,0.50502086,-1.381631,1.9041995,-2.0919654,-1.5708536,2.4800253,0.0,0.002301038,0.002122062,-0.0060142563,0.00013942995,-0.00016266004,-0.019153614,0.21068975,-8.561666,0.7642693,47.719128,-0.15739381,-3.2171562,-2.521854,-0.106265694,0.11427769,0.0036217305,25.0625,25.75,24.875,26.9375,27.375,27.6875
0.008053734,1.1630889,0.9509092,-0.66263276,0.0007141064,0.019879263,-0.017004907,-0.38934892,-0.3687258,0.06002439,-3.0787385,0.6249542,0.00026504122,0.00028207162,0.00010615745,-0.000425684,1.2768975e-05,-0.00030502558,0.00015801932,0.5050329,-1.3816679,1.904199,-2.0919397,-1.5708536,2.4800372,0.0,4.2789794e-05,0.0011196999,-0.00088989263,0.00013678541,-0.00015856606,0.019153614,0.21068975,-8.734048,0.73741806,47.696735,-0.17151663,-3.2299862,-2.4612517,-0.14333868,0.11758658,0.007920205,25.0625,25.75,24.875,26.9375,27.375,27.6875
0.010054439,0.83876115,0.54940444,-1.108161,0.01664806,0.013990272,-0.010050396,-0.38934547,-0.3686981,0.05997841,-3.078668,0.6249785,0.00017576372,0.00036477373,0.00015305004,-0.00034260488,0.00023948582,-0.0007073859,0.0001705367,0.5049969,-1.3816078,1.9042352,-2.0919511,-1.5708655,2.4800253,0.0,5.740797e-07,0.0007919611,-5.810363e-05,0.00013423566,-0.00017105213,0.11492168,0.15322891,-8.90643,0.800085,47.70211,-0.6614883,-2.6261466,-3.0144768,-0.15862247,0.120550245,-0.067245565,25.0625,25.75,24.875,26.9375,27.375,27.6875
0.0120539,0.01808523,-0.32870868,-1.3066335,-0.014893102,0.02175595,-0.0017155055,-0.38932785,-0.36871675,0.059987564,-3.078683,0.6249044,0.00017537015,0.00039434017,0.0002910241,-0.0011122206,0.0016405222,-0.003233325,0.00016177987,0.50504476,-1.3816189,1.9042219,-2.0919263,-1.5708655,2.480025,-0.00020464229,0.0023616662,-0.00070528156,0.0019664876,0.00013177884,-0.00036616027,0.11492168,0.15322891,-9.059659,0.7597976,47.690468,-0.7969922,-2.5961657,-3.0785809,-0.12473792,0.10667543,-0.12607485,25.0625,25.75,24.875,26.9375,27.375,27.6875
0.014054363,-0.16285037,-1.1300864,-1.4289025,-0.04005435,0.04448793,-0.016125651,-0.38931552,-0.36868376,0.059939917,-3.0785995,0.6249237,3.3816684e-06,-0.004841192,0.003466768,-0.0041893492,0.0042466186,-0.007969405,0.001474299,0.5049933,-1.3815552,1.9042443,-2.0918787,-1.5708536,2.4799962,-0.010452188,0.012901174,-0.0062456843,0.0023712986,0.00012941021,-0.011922336,-0.11492168,0.11492168,-9.212888,0.6948948,47.66987,-0.38324535,-3.1352706,-3.020043,-0.13863574,0.12998866,-0.063691676,25.0625,25.75,24.875,26.9375,27.375,27.6875
0.01605422,-0.46693167,-1.4963849,-1.5528498,-0.057943333,0.069689594,-0.028586492,-0.38932273,-0.36869207,0.05995576,-3.0786326,0.6248895,2.1528513e-05,-0.0055649765,0.0032905885,-0.0037351826,0.00362811,-0.006853468,0.0070408294,0.50499314,-1.3815672,1.90422,-2.0918677,-1.5708417,2.4799705,-0.010831544,0.0130415745,-0.007381294,0.0020899023,0.00012735662,-0.0178677,-0.17238252,0.24899697,-9.346964,0.7172743,47.69763,-0.4833392,-3.0839696,-3.0863373,-0.12816855,0.12393536,-0.015885156,25.0625,25.75,24.875,26.9375,27.375,27.6875
0.01805392,-1.1977671,-1.4206774,-1.6529158,-0.07007835,0.08300637,-0.028580314,-0.38932085,-0.36867613,0.059936166,-3.078569,0.6248184,2.4904071e-05,-0.005305437,0.003270196,-0.003031239,0.0030365183,-0.005793118,0.008781123,0.50500524,-1.381532,1.90422,-2.0918548,-1.5709013,2.4799464,-0.010556698,0.011077796,-0.006672095,0.002128886,0.00013273714,-0.019333769,-0.38307226,0.21068975,-9.3661175,0.7329411,47.65912,-0.6430334,-2.8423562,-3.322151,-0.118510455,0.12903208,-0.012320262,25.0625,25.75,24.875,26.9375,27.375,27.6875
0.020054137,-1.7008139,-1.1702337,-1.7643011,-0.042051874,0.083560035,-0.039460875,-0.3893557,-0.368682,0.059930503,-3.0786204,0.6248685,-8.491561e-06,-0.0062652887,0.0031229109,-0.002534424,0.0028677213,-0.005532538,0.0070047895,0.5049453,-1.3814836,1.9041837,-2.09189,-1.5708417,2.479911,-0.011218799,0.012057023,-0.009253386,0.003422488,0.00015200398,-0.01821849,-0.36391866,0.2681506,-9.653421,0.75084364,47.698532,-0.83300084,-2.700514,-3.4419928,-0.1305775,0.1202772,-0.03625639,25.0625,25.75,24.875,26.9375,27.375,27.6875
0.022054525,-1.412099,-0.5195634,-1.7180281,-0.028976785,0.09306956,-0.07228947,-0.3893428,-0.36866447,0.059905425,-3.0785635,0.6248782,-0.00013630209,-0.007608807,0.003969143,-0.0032765956,0.0039804564,-0.007620378,0.002467043,0.50492036,-1.3814464,1.9041833,-2.09183,-1.5708297,2.4798994,-0.013922781,0.0152132865,-0.011659721,0.0050384793,0.00018511893,-0.01638348,-0.45968673,0.30645782,-9.653421,0.7620334,47.66271,-0.8583987,-2.7352982,-3.4263515,-0.14533927,0.1268447,-0.09551534,25.0625,25.75,24.875,26.9375,27.375,27.6875
0.024054041,-1.4071031,-0.65503806,-1.8883767,-0.02283228,0.082585886,-0.08729452,-0.38933545,-0.36866212,0.059881557,-3.078548,0.6248945,-0.00021854047,-0.008488864,0.0040834593,-0.0040771426,0.004011991,-0.009304565,0.0016431455,0.5049078,-1.3814093,1.9041938,-2.09183,-1.570805,2.479899,-0.015429286,0.018172871,-0.013394302,0.0053002196,0.000967965,-0.017066313,-0.49799395,0.24899697,-9.634268,0.683705,47.687782,-0.8906968,-2.669635,-3.4364004,-0.14665577,0.12324874,-0.09881511,25.0625,25.75,24.875,26.9375,27.375,27.6875
0.02605388,-1.6396164,-1.5495052,-2.1127372,-0.01824189,0.088369064,-0.09787115,-0.38934705,-0.36865214,0.059857503,-3.0785146,0.624772,-0.0002651533,-0.010090078,0.0040517277,-0.0033420876,0.0025425379,-0.0074887685,0.00070990983,0.50489527,-1.3813372,1.904158,-2.0918067,-1.5708293,2.4798143,-0.017123785,0.018499857,-0.01528782,0.0045647426,0.0013684989,-0.017827455,-0.6512228,0.15322891,-9.844957,0.7329411,47.741516,-0.87221885,-2.7172318,-3.3865657,-0.13736881,0.11995873,-0.10470638,25.0625,25.75,24.875,26.9375,27.375,27.6875
0.02805403,-1.4882258,-0.9570618,-2.0049036,-0.044701535,0.1112471,-0.12643127,-0.38939402,-0.3686704,0.059891246,-3.0785873,0.624865,-0.00018888428,-0.01048544,0.0038532945,-0.0036489172,0.0020815334,-0.008041047,-0.00031866276,0.50485915,-1.3813367,1.904086,-2.0918305,-1.5707926,2.479827,-0.01757671,0.01985378,-0.016133567,0.0043152673,0.0020382525,-0.017252235,-0.82360536,0.17238252,-9.730036,0.72622824,47.734352,-0.8420888,-2.7963336,-3.449234,-0.11202003,0.11895088,-0.0922744,25.0625,25.75,24.875,26.9375,27.375,27.6875
0.03005429,-1.6531141,-1.1960626,-2.0539014,-0.043083213,0.12601241,-0.13237219,-0.3894063,-0.3686254,0.059862375,-3.0784779,0.62492037,-0.00030706997,-0.01126005,0.003897739,-0.0031896066,0.0018497444,-0.0072212177,-0.0024031869,0.5047871,-1.3812766,1.9040617,-2.0917466,-1.5708169,2.4798033,-0.018252276,0.020027166,-0.017456904,0.0046361648,0.0018403744,-0.015842626,-0.80445176,0.15322891,-9.844957,0.6926589,47.6636,-0.8886461,-2.699578,-3.4230309,-0.09368923,0.10558613,-0.12669589,25.0625,25.75,24.875,26.9375,27.375,27.6875
0.032053754,-2.0338566,-0.9891021,-2.0232575,-0.024285637,0.1264088,-0.12539773,-0.38943914,-0.36865503,0.0598637,-3.078551,0.6248022,-0.00024773667,-0.012338174,0.0038404705,-0.002298897,0.0013866297,-0.006067552,-0.0039763963,0.50479877,-1.3812165,1.9040011,-2.0918062,-1.570805,2.479732,-0.019066837,0.02006776,-0.01976877,0.005674506,0.0016864236,-0.015082753,-0.7661445,0.15322891,-9.749189,0.7665104,47.65643,-0.9439414,-2.6744452,-3.4407988,-0.11684967,0.11562431,-0.1468625,25.0625,25.75,24.875,26.9375,27.375,27.6875
0.034053866,-1.8714501,-0.4418893,-1.9698418,-0.003365797,0.12203741,-0.12664032,-0.38947898,-0.3686272,0.05986156,-3.0785322,0.6248938,-0.00024827788,-0.013102079,0.0040041874,-0.0025859345,0.0018061385,-0.006401883,-0.0043605906,0.50471467,-1.3811917,1.9039768,-2.0918062,-1.570805,2.4797075,-0.019925615,0.021734325,-0.021128254,0.005863782,0.0014777163,-0.015556168,-0.6512228,0.05746084,-9.691729,0.77545905,47.64837,-1.0061421,-2.7718258,-3.4299445,-0.12607424,0.12136355,-0.16551882,25.0625,25.75,24.875,26.9375,27.375,27.6875
0.03605366,-1.532044,0.40289,-2.0715072,0.0019108589,0.10832578,-0.1151237,-0.3894766,-0.36863452,0.05985122,-3.0785239,0.624911,-0.00031494437,-0.014334832,0.0038430623,-0.0023295432,0.0012040618,-0.005394133,-0.0042963866,0.5047143,-1.3811555,1.903952,-2.0917823,-1.5707811,2.479719,-0.020828815,0.022973573,-0.023070281,0.005393486,0.0015112085,-0.016522646,-0.63206923,-0.019153614,-9.787497,0.7217513,47.72629,-0.89785016,-2.7105029,-3.4033866,-0.12625156,0.10513872,-0.16414005,25.0625,25.75,24.875,26.9375,27.375,27.6875
0.03805387,-1.1258019,0.04591983,-2.1743715,0.0065738717,0.09537353,-0.11950303,-0.3895181,-0.36863214,0.059856463,-3.078499,0.62481093,-0.00027997728,-0.015733713,0.0043023466,-0.0022670806,0.00044842326,-0.00495213,-0.0050360668,0.5047015,-1.3810831,1.9038438,-2.0917346,-1.5708293,2.479647,-0.023184942,0.023942167,-0.024231449,0.004831159,0.0019542421,-0.018139232,-0.45968673,0.05746084,-9.787497,0.7217513,47.652847,-0.9575112,-2.6832914,-3.3951511,-0.08421332,0.11775817,-0.19142893,25.0625,25.75,24.875,26.9375,27.375,27.6875
0.040054437,-0.49361798,0.15751626,-2.0232882,-0.012778086,0.088999644,-0.11660714,-0.3895677,-0.36861405,0.059846956,-3.0785053,0.62490803,-0.00026370084,-0.017449908,0.004666502,-0.001547709,-0.00054503244,-0.003395273,-0.005875638,0.5046169,-1.381035,1.9038194,-2.0917828,-1.5708169,2.4796221,-0.02546895,0.024186939,-0.026112178,0.0046238042,0.0020661831,-0.019582994,-0.36391866,-0.019153614,-9.730036,0.7351769,47.685097,-0.8756627,-2.6911845,-3.4051237,-0.09618406,0.10387492,-0.17351377,25.0625,25.75,24.875,26.9375,27.375,27.6875
0.042053793,-1.1689171,-0.9045099,-2.035569,-0.007599558,0.066005945,-0.106398515,-0.38959032,-0.36859116,0.0598371,-3.0784485,0.62499255,-0.00033646965,-0.01875779,0.004107163,-0.0007534066,-0.0016196079,-0.0020181765,-0.0061151423,0.50455695,-1.3809865,1.9037708,-2.0917222,-1.5708164,2.4796221,-0.025916558,0.025130702,-0.02911122,0.004953238,0.0023339486,-0.019790383,-0.30645782,-0.05746084,-9.672575,0.78217715,47.664497,-0.8898269,-2.6312983,-3.3422675,-0.07323344,0.10936657,-0.19906513,25.0625,25.75,24.875,26.9375,27.375,27.6875
0.044053853,-0.717965,-0.6253025,-2.0278344,-0.022204792,0.07331266,-0.10756195,-0.38964686,-0.36861143,0.059865095,-3.078552,0.6249755,-0.00027085477,-0.019214,0.0046854503,-0.0008937524,-0.00071430556,-0.0028961757,-0.0063790996,0.50450873,-1.3809623,1.9036864,-2.0917575,-1.5707692,2.4795501,-0.027084416,0.02592095,-0.030029044,0.006289359,0.001968532,-0.020693058,-0.15322891,-0.038307227,-9.672575,0.7866488,47.672558,-0.908476,-2.657037,-3.3058429,-0.07101952,0.10095924,-0.22024597,25.0625,25.75,24.875,26.9375,27.375,27.6875
0.046054643,0.01264526,-0.5225551,-1.8953367,-0.020574562,0.085325636,-0.116962895,-0.38969967,-0.36858463,0.059863057,-3.0785031,0.6250406,-0.00024892186,-0.019545455,0.0049470407,-0.0010241518,-0.00013590418,-0.0036523677,-0.0056524584,0.50443655,-1.3809019,1.9036144,-2.0917337,-1.570805,2.4795249,-0.027743394,0.026789412,-0.030995902,0.0073290872,0.0018271455,-0.02207803,-0.11492168,0.019153614,-9.576807,0.7486078,47.690468,-0.8966296,-2.758951,-3.3365169,-0.06780149,0.10338253,-0.21587396,25.0625,25.75,24.875,26.9375,27.375,27.6875
0.048054002,-0.16730215,-0.51220316,-1.9855932,-0.026840707,0.070243314,-0.11324499,-0.38974792,-0.36857122,0.05985933,-3.0784776,0.62507343,-0.0002541623,-0.019863592,0.0056238966,-0.0016607224,0.0007821548,-0.005134897,-0.005333334,0.5043763,-1.3808293,1.9035314,-2.091709,-1.5708169,2.4794884,-0.029122584,0.02808044,-0.031230265,0.008013974,0.0017399,-0.02377599,0.0,0.1340753,-9.557653,0.6971306,47.70032,-0.8807484,-2.7077098,-3.3970704,-0.09649404,0.11511124,-0.22958067,25.0625,25.75,24.875,26.9375,27.375,27.6875
0.050054293,-0.49449268,-1.0075086,-1.9115176,-0.019782323,0.042514388,-0.10580674,-0.38976517,-0.36855787,0.059833672,-3.0784705,0.6250914,-0.00034749485,-0.021977238,0.006034694,-0.0008897333,-0.0003107679,-0.0034446502,-0.0060853614,0.5043154,-1.380769,1.9035186,-2.091709,-1.5707811,2.4794395,-0.03186916,0.028734263,-0.03372064,0.007842893,0.0018720418,-0.025769727,0.095768064,0.15322891,-9.500193,0.7709874,47.661808,-0.7708032,-2.6462317,-3.390349,-0.07245667,0.117300294,-0.2274844,25.0625,25.75,24.875,26.9375,27.375,27.6875
0.05205449,0.30542222,-0.8822388,-1.8900427,-0.030924961,0.046273235,-0.11314617,-0.3898347,-0.36854777,0.05983771,-3.0784564,0.6251072,-0.0002823578,-0.023542317,0.005595643,0.00010846815,-0.0019076633,-0.0013499656,-0.0055787615,0.5042554,-1.3806849,1.9034098,-2.091709,-1.5708164,2.4793913,-0.032824337,0.029131044,-0.03638739,0.0075049843,0.0022514912,-0.027230967,0.019153614,0.24899697,-9.576807,0.7284641,47.692257,-0.83949006,-2.5976524,-3.3302941,-0.05716046,0.110646814,-0.23559245,25.0625,25.75,24.875,26.9375,27.375,27.6875
0.054053728,0.07573454,-0.86165804,-1.7558174,-0.042566802,0.040433332,-0.1122226,-0.38986143,-0.36853716,0.05984795,-3.0784771,0.6251499,-0.00034465364,-0.024753176,0.005748858,0.00046981784,-0.002521385,-0.0005858045,-0.005550336,0.5041828,-1.3806726,1.9033612,-2.0916612,-1.5707687,2.4793427,-0.034312315,0.029824272,-0.038024843,0.0074843992,0.0024152095,-0.028746914,-0.05746084,0.2681506,-9.615114,0.7418897,47.691364,-0.77940226,-2.5635214,-3.3378937,-0.05049766,0.119820595,-0.23639895,25.0625,25.75,24.875,26.9375,27.375,27.6875
0.056053877,-0.0835964,-1.5383495,-1.9226514,-0.03997526,0.04749709,-0.10214143,-0.3899135,-0.3685027,0.059849083,-3.0784433,0.6251817,-0.0003078182,-0.025125146,0.006270314,-6.388916e-05,-0.002298846,-0.0020602536,-0.0058017788,0.50409853,-1.3806362,1.903313,-2.0916498,-1.5708045,2.4792826,-0.035856333,0.031008117,-0.03832761,0.007998998,0.002932704,-0.030040175,0.0,0.3256114,-9.557653,0.67475104,47.704796,-0.7524848,-2.5947907,-3.3962355,-0.05795504,0.12391095,-0.25581354,25.0625,25.75,24.875,26.9375,27.375,27.6875
0.058053833,-0.28138915,-1.3796225,-1.6482776,-0.048697647,0.04902155,-0.103359915,-0.38999334,-0.36849013,0.059853736,-3.0784507,0.62525785,-0.00026690523,-0.025455704,0.005832695,0.00031002943,-0.0026323672,-0.0020979543,-0.0040624477,0.5040028,-1.3805519,1.9032053,-2.0916607,-1.5708045,2.4792335,-0.035615124,0.031622898,-0.04015306,0.00908061,0.0032420047,-0.031538025,0.019153614,0.3256114,-9.557653,0.7396539,47.65912,-0.7726274,-2.5242662,-3.4189863,-0.06495506,0.1155345,-0.27961573,25.0625,25.75,24.875,26.9375,27.375,27.6875
0.060054157,-0.6528277,-1.5243183,-1.6964362,-0.044006508,0.050641328,-0.097013175,-0.39004645,-0.3685011,0.059872847,-3.0784655,0.62526023,-0.00021229491,-0.025924655,0.005685096,0.00042294114,-0.0027105918,-0.0026511038,-0.0033401444,0.5039788,-1.3804916,1.9030851,-2.091637,-1.5708159,2.4792092,-0.036010206,0.03266571,-0.04190666,0.0102363555,0.0035773173,-0.032655124,-0.05746084,0.3256114,-9.481039,0.7553206,47.672558,-0.8709315,-2.5072865,-3.3785207,-0.076797895,0.10228607,-0.27608484,25.0625,25.75,24.875,26.9375,27.375,27.6875
0.062054414,-0.21615066,-0.9821287,-1.6637443,-0.04403582,0.066435315,-0.109291434,-0.39012796,-0.3684995,0.059894033,-3.078531,0.62531227,-0.00019039016,-0.027607923,0.006111424,0.0008340139,-0.003517821,-0.0017247619,-0.0046616467,0.50387025,-1.3804312,1.9029654,-2.091637,-1.5707682,2.4791248,-0.038450327,0.033495694,-0.04379234,0.0100920275,0.0038340972,-0.033773053,-0.019153614,0.30645782,-9.32781,0.7553206,47.62867,-0.74836516,-2.4843824,-3.3847191,-0.081426986,0.11267871,-0.29049703,25.0625,25.75,24.875,26.9375,27.375,27.6875
0.064054646,0.2509726,-0.924527,-1.6307107,-0.03664878,0.07564915,-0.10311757,-0.39015573,-0.36847296,0.059867892,-3.0784667,0.62526023,-0.00023975478,-0.028424436,0.005931075,0.00084953126,-0.0042112605,-0.0013990245,-0.0039617666,0.50382197,-1.3803465,1.9029168,-2.0916011,-1.570804,2.4790523,-0.039183475,0.034637813,-0.045071136,0.009605863,0.0042773685,-0.035206392,0.019153614,0.36391866,-9.251195,0.80456203,47.66808,-0.7734798,-2.4291162,-3.340279,-0.0691466,0.095615305,-0.30472198,25.0625,25.75,24.875,26.9375,27.375,27.6875
0.066055074,-0.46262604,-0.84119225,-1.4870139,-0.027715532,0.055957247,-0.107375756,-0.39022648,-0.3684755,0.059879478,-3.0785043,0.62528694,-0.00024905664,-0.029555544,0.006024563,0.0011012808,-0.0047756205,-0.0007562644,-0.004556862,0.50373787,-1.3802623,1.9027852,-2.0915768,-1.5707682,2.47898,-0.040501527,0.035504214,-0.046641514,0.009475416,0.0044583147,-0.035928782,-0.05746084,0.30645782,-9.346964,0.8112748,47.707485,-0.7829579,-2.45397,-3.3538868,-0.06515619,0.09933102,-0.30188423,25.0625,25.75,24.875,26.9375,27.375,27.6875
0.06805438,-0.6898562,-1.0577109,-1.5323745,-0.017716544,0.054513194,-0.0964127,-0.3902812,-0.3684665,0.05988873,-3.0785325,0.6253693,-0.000284709,-0.03059254,0.0058232853,0.001769653,-0.005221055,0.00082555576,-0.0037932307,0.50364166,-1.3802141,1.9027017,-2.091553,-1.5707201,2.4789317,-0.0408882,0.03581236,-0.04852261,0.009451511,0.004081132,-0.037077572,-0.15322891,0.2681506,-9.289502,0.7150385,47.642998,-0.7938427,-2.4174342,-3.3289633,-0.07334093,0.09641769,-0.33018523,25.0625,25.75,24.875,26.9375,27.375,27.6875
0.07005388,-0.67319846,-0.41055724,-1.3031836,-0.02529587,0.06366711,-0.11398571,-0.39035213,-0.36843795,0.05989687,-3.078532,0.6253094,-0.0001915278,-0.031560034,0.006131452,0.0016465997,-0.005362904,0.00056393526,-0.00275535,0.5035575,-1.3801657,1.9026288,-2.0915654,-1.5707682,2.4788103,-0.042457808,0.037113626,-0.049817644,0.009603447,0.0043302253,-0.039684616,-0.2681506,0.21068975,-9.270349,0.74413085,47.691364,-0.78556514,-2.4061966,-3.3459916,-0.06670911,0.08879182,-0.320444,25.0625,25.75,24.875,26.9375,27.375,27.6875
0.07205409,-0.09607287,-0.22959468,-1.4850093,-0.023006802,0.084519684,-0.115474604,-0.3903817,-0.3684552,0.05989127,-3.0785758,0.6252426,-0.00028374407,-0.03257785,0.006064799,0.0014305656,-0.005620491,0.00033158466,-0.002818637,0.50352114,-1.3800808,1.9025329,-2.0915291,-1.5707077,2.4787266,-0.043498818,0.039118305,-0.051687714,0.009549396,0.004662615,-0.040661942,-0.19153613,0.17238252,-9.270349,0.7239871,47.67345,-0.779254,-2.466905,-3.3246741,-0.07662755,0.07710681,-0.33434263,25.0625,25.75,24.875,26.9375,27.375,27.6875
0.074053966,-0.7512424,-0.34751776,-1.4080832,-0.015898494,0.07477467,-0.105129525,-0.39046147,-0.3684235,0.059903823,-3.0785594,0.62531567,-0.0002569395,-0.032853253,0.006403637,0.00093257666,-0.0049643577,-0.00077035144,-0.0036853694,0.50340116,-1.3800203,1.9024247,-2.0914934,-1.5707201,2.4786544,-0.04429076,0.040418677,-0.05220855,0.010051852,0.0046203607,-0.04058666,-0.2873042,0.17238252,-9.289503,0.7239871,47.677036,-0.85293126,-2.4934878,-3.3439593,-0.05944975,0.068789385,-0.3617726,25.0625,25.75,24.875,26.9375,27.375,27.6875
0.07605395,-0.86552966,-0.38652664,-1.2489421,-0.009677274,0.07862355,-0.10516967,-0.39052576,-0.3684313,0.059905462,-3.078616,0.6253063,-0.00030441684,-0.03428891,0.0064102635,0.0014270514,-0.0051731304,1.2975173e-05,-0.001992554,0.5033169,-1.3799238,1.902304,-2.091481,-1.57066,2.478557,-0.04550761,0.041706916,-0.05503105,0.010802913,0.004420984,-0.04349467,-0.36391866,0.076614454,-9.270349,0.8717007,47.692257,-0.7977183,-2.438705,-3.3539703,-0.05882374,0.06780913,-0.35973346,25.0625,25.75,24.875,26.9375,27.375,27.6875
0.078054056,-1.3147858,-0.37593755,-1.3644501,-0.003368639,0.07312893,-0.10073538,-0.39058363,-0.36839342,0.05987122,-3.0785205,0.62526774,-0.00031740702,-0.036326863,0.0071054827,0.0018840211,-0.0055785812,0.0007731044,-0.002508525,0.50324404,-1.3797911,1.9022197,-2.0914571,-1.570732,2.4784725,-0.04855791,0.04288786,-0.057590418,0.011317095,0.0044015134,-0.046028126,-0.36391866,0.038307227,-9.32781,0.679228,47.698532,-0.7787349,-2.455748,-3.1130924,-0.05326232,0.07458167,-0.35837826,25.0625,25.75,24.875,26.9375,27.375,27.6875
0.08005448,-0.9774179,-0.065625876,-1.4973584,-0.0049430453,0.076524414,-0.10269847,-0.3906817,-0.36838406,0.059893526,-3.0785496,0.62530804,-0.0002503768,-0.034282185,0.0073651713,5.2640546e-05,-0.002772968,-0.0031265232,0.0033078098,0.50313693,-1.3797067,1.9020661,-2.0914443,-1.570732,2.4783869,-0.04672563,0.04431119,-0.0553644,0.012439369,0.0038333635,-0.05001176,-0.40222588,0.038307227,-9.32781,0.784413,47.657326,-0.8148621,-2.4195461,-3.3771887,-0.080934785,0.07829405,-0.33682168,25.0625,25.75,24.875,26.9375,27.375,27.6875
0.08205467,-0.7328991,0.065772824,-1.410127,-0.010784747,0.08856781,-0.11055383,-0.39073086,-0.3683785,0.059882455,-3.0785778,0.6252362,-0.00034079773,-0.036187522,0.007612888,0.00038444484,-0.0031561987,-0.001685951,0.0033713377,0.5030523,-1.3796101,1.9019688,-2.0914085,-1.5706848,2.4782538,-0.04868071,0.0458443,-0.05781908,0.011918142,0.003465607,-0.05202858,-0.40222588,0.019153614,-9.212888,0.8224646,47.66808,-0.92454815,-2.4884434,-3.3301077,-0.09231048,0.08516485,-0.30578512,25.0625,25.75,24.875,26.9375,27.375,27.6875
0.08405382,-0.61816746,-0.116911694,-1.3609614,-0.00778253,0.09254509,-0.10762781,-0.39080966,-0.36834925,0.059884198,-3.0785613,0.6252327,-0.00031599347,-0.038705334,0.0071254047,0.0020270366,-0.004993619,0.0014826183,0.0026857809,0.5029443,-1.3795258,1.9018596,-2.0913846,-1.5707082,2.4781458,-0.050240535,0.04651313,-0.06241046,0.012177741,0.0035386398,-0.05290104,-0.4405331,-0.095768064,-9.308656,0.82022345,47.684196,-0.8510418,-2.4847784,-3.184948,-0.0934045,0.08859478,-0.31861567,25.0625,25.75,24.875,26.9375,27.375,27.6875
0.08605448,-1.0597761,-0.47182405,-1.5260202,-0.0022542742,0.08073467,-0.10365601,-0.39089644,-0.36835745,0.059910376,-3.0786276,0.6252447,-0.00030861943,-0.039315317,0.008239657,0.0011055988,-0.004687949,-0.00060871965,0.004071608,0.50284725,-1.3794411,1.9016918,-2.091349,-1.57066,2.4780478,-0.05313357,0.047958642,-0.062071975,0.012373871,0.0042817676,-0.05718093,-0.4213795,0.05746084,-9.308656,0.72622824,47.670765,-0.7571212,-2.4158592,-3.196555,-0.09375021,0.06728381,-0.2935987,25.0625,25.75,24.875,26.9375,27.375,27.6875
0.088054724,-1.0698388,-0.5293388,-1.4988309,-0.012166405,0.07861038,-0.09761825,-0.3909657,-0.36831576,0.059904907,-3.0786095,0.6252382,-0.0002855903,-0.039109908,0.008005622,0.0006155412,-0.0039943024,-0.0015829011,0.008628195,0.5027278,-1.3793806,1.9016327,-2.091349,-1.5706843,2.4779267,-0.0524535,0.04930893,-0.0626524,0.0127915805,0.004142288,-0.061056815,-0.40222588,0.11492168,-9.308657,0.784413,47.666286,-0.8054854,-2.5865889,-3.3655252,-0.10083951,0.06801992,-0.2575575,25.0625,25.75,24.875,26.9375,27.375,27.6875
0.090054065,-1.0165448,-0.4246563,-1.333533,-0.025138032,0.087017156,-0.10705363,-0.39104277,-0.3683148,0.059912253,-3.078629,0.6252784,-0.00032270938,-0.040076513,0.0076223984,0.0014936792,-0.0043359688,0.00037550586,0.01172661,0.5026322,-1.3792725,1.9014772,-2.0913012,-1.5706486,2.4778538,-0.052292626,0.04941154,-0.06481902,0.012979945,0.003493333,-0.063992396,-0.4213795,0.17238252,-9.308656,0.76874626,47.67614,-0.9252173,-2.3415427,-3.3039136,-0.114773236,0.074672826,-0.21379259,25.0625,25.75,24.875,26.9375,27.375,27.6875
0.09205426,-1.3839222,-0.48485166,-1.4743539,-0.022636166,0.085520536,-0.09845678,-0.39111337,-0.36827505,0.059881866,-3.0786018,0.6251758,-0.0004099924,-0.04136654,0.0083796475,0.00037432037,-0.0031711333,-0.0010989765,0.012010448,0.50249964,-1.3791393,1.9013804,-2.091265,-1.5706486,2.4776607,-0.054557957,0.052867148,-0.06635402,0.012914334,0.0031740298,-0.06654009,-0.34476504,0.22984336,-9.346964,0.8179876,47.652847,-0.89027727,-2.4856627,-3.2783785,-0.120806694,0.10319806,-0.17666924,25.0625,25.75,24.875,26.9375,27.375,27.6875
0.094054654,-0.8553958,-0.8663137,-1.7174332,-0.0194701,0.09111029,-0.108359374,-0.39119706,-0.36828288,0.059913862,-3.0786667,0.62509155,-0.00035328727,-0.04198668,0.008584229,0.00039619004,-0.0031051335,-0.0011418794,0.013255005,0.5024275,-1.3790668,1.9012135,-2.0912282,-1.5706366,2.4775279,-0.055445313,0.05358666,-0.06733338,0.013244873,0.0031388444,-0.06867129,-0.24899697,0.24899697,-9.346964,0.7777002,47.66808,-0.8919478,-2.5600805,-3.3551464,-0.12565675,0.0702852,-0.14924917,25.0625,25.75,24.875,26.9375,27.375,27.6875
0.09605479,-0.57909596,-0.9175303,-1.5757747,-0.030852359,0.09606538,-0.102110974,-0.39130047,-0.36825454,0.059907597,-3.0786753,0.62505394,-0.0003523375,-0.04299374,0.008281322,0.0018378728,-0.0045544775,0.0014336387,0.014571611,0.5022837,-1.3789353,1.9010695,-2.0912168,-1.5706366,2.4773595,-0.0558722,0.0521971,-0.06899745,0.013343847,0.0031655703,-0.0704144,-0.22984336,0.2681506,-9.3661175,0.7642693,47.719128,-0.91170037,-2.3096728,-3.3468661,-0.11867072,0.0706238,-0.115061745,25.0625,25.75,24.875,26.9375,27.375,27.6875
0.098054014,-0.72775763,-0.64302844,-1.6549705,-0.03875141,0.07118605,-0.09988469,-0.39139047,-0.3681999,0.05989414,-3.0786138,0.625156,-0.00039769564,-0.043700658,0.008706713,0.0012190322,-0.0037965097,0.00030260568,0.013824701,0.5021156,-1.3788264,1.9009603,-2.0911686,-1.5706486,2.477263,-0.05715369,0.05427723,-0.070156306,0.013779,0.0030410509,-0.070948176,-0.28730422,0.24899697,-9.3661175,0.71279734,47.639416,-0.9595153,-2.3970883,-3.3271072,-0.13945854,0.08905804,-0.084727615,25.0625,25.75,24.875,26.9375,27.375,27.6875
0.10005408,-0.57317233,-1.0483845,-1.6648178,-0.034142476,0.062846,-0.1021171,-0.39146042,-0.3682205,0.0598918,-3.0786896,0.6249994,-0.0004342389,-0.0445686,0.00854162,0.00037358326,-0.0032685897,-0.00033057976,0.012674128,0.5020555,-1.3786932,1.9008054,-2.0911572,-1.5706009,2.4770956,-0.057572044,0.057483535,-0.07188527,0.013114872,0.0028787097,-0.07021438,-0.22984336,0.22984336,-9.423578,0.7732232,47.664497,-0.96891737,-2.482899,-3.3837843,-0.13348657,0.09729341,-0.08479718,25.0625,25.75,24.875,26.9375,27.375,27.6875
0.10205454,-0.17209953,-0.7123054,-1.741875,-0.044684667,0.06363703,-0.10236527,-0.39158094,-0.36818555,0.059891835,-3.0786874,0.62499875,-0.00038145922,-0.04533544,0.008780858,0.00045327938,-0.0032872232,-8.287312e-05,0.011043818,0.5018996,-1.3785609,1.9006485,-2.0911567,-1.5706247,2.4769397,-0.058604438,0.058164135,-0.07290504,0.013227071,0.0027759564,-0.06961573,-0.15322891,0.22984336,-9.404425,0.7732232,47.679718,-1.0202143,-2.5327888,-3.3928533,-0.14887425,0.0997456,-0.08687495,25.0625,25.75,24.875,26.9375,27.375,27.6875
0.10405365,-0.48792246,-1.4219564,-1.5581913,-0.028575301,0.04854021,-0.09579981,-0.39166492,-0.36815882,0.05989557,-3.0786653,0.6250133,-0.00035917453,-0.046648733,0.008504327,0.0016969423,-0.0046988283,0.0024313703,0.009578029,0.50179154,-1.3784649,1.9005183,-2.091121,-1.5706486,2.4768436,-0.05935972,0.057517346,-0.07492401,0.013008094,0.002799529,-0.06890455,-0.095768064,0.24899697,-9.461885,0.7665104,47.711964,-1.0287564,-2.3483875,-3.402088,-0.15318874,0.10455996,-0.08798153,25.0625,25.75,24.875,26.9375,27.375,27.6875
0.106054574,0.29080254,-0.9638466,-1.6458493,-0.040176623,0.063886665,-0.10336071,-0.39177772,-0.36815596,0.05989173,-3.078712,0.6249658,-0.0003797574,-0.04711503,0.00869723,0.00071746344,-0.003977667,0.0008725156,0.00747219,0.5016597,-1.3782959,1.9003242,-2.0911095,-1.5706128,2.4766762,-0.060172666,0.06016992,-0.07584215,0.01298957,0.0029166164,-0.067611046,0.0,0.21068975,-9.423578,0.7418897,47.72629,-1.0835552,-2.399743,-3.390583,-0.15127456,0.09929181,-0.0823099,25.0625,25.75,24.875,26.9375,27.375,27.6875
0.10805385,-0.050050512,-1.3205785,-1.7412801,-0.033250447,0.047442544,-0.09544814,-0.3918646,-0.36812794,0.059895582,-3.0787058,0.6249466,-0.0003696244,-0.048567392,0.008720836,0.0011951552,-0.0046969266,0.0020108526,0.004311583,0.5015394,-1.3781996,1.9001931,-2.0910733,-1.5706247,2.4765449,-0.06159478,0.06111903,-0.078035675,0.012889186,0.0029956356,-0.06587166,-0.038307227,0.24899697,-9.481039,0.7150385,47.709274,-1.0611836,-2.453398,-3.4115267,-0.16635397,0.104050495,-0.10629701,25.0625,25.75,24.875,26.9375,27.375,27.6875
0.11005405,0.22776785,-1.0836692,-1.79868,-0.035135873,0.044706255,-0.09922739,-0.39197043,-0.36809185,0.05988216,-3.0786726,0.6249788,-0.00036084902,-0.04933003,0.008902828,0.0009659358,-0.004949034,0.001856142,0.0018722011,0.50139534,-1.3780547,1.9000496,-2.0910618,-1.5706486,2.4764252,-0.06277331,0.062329993,-0.078876115,0.012530914,0.0032884744,-0.06461081,0.038307227,0.24899697,-9.404425,0.7620334,47.647476,-1.1041569,-2.3676767,-3.373913,-0.16630515,0.11598495,-0.13792527,25.0625,25.75,24.875,26.9375,27.375,27.6875
0.112054504,-0.20979992,-1.3066956,-1.8671188,-0.030049918,0.028226268,-0.09052467,-0.39207843,-0.3680916,0.05989364,-3.078709,0.6249294,-0.00034422497,-0.052004457,0.007893579,0.003161231,-0.0075446204,0.0058990517,-0.00017331277,0.5012871,-1.3779107,1.8998445,-2.0910256,-1.5706362,2.4762816,-0.06373939,0.06267569,-0.08436782,0.012884029,0.0036129951,-0.06352964,0.019153614,0.30645782,-9.289502,0.800085,47.704796,-1.0321715,-2.3924499,-3.1790128,-0.1757415,0.10883395,-0.15960066,25.0625,25.75,24.875,26.9375,27.375,27.6875
0.114054196,-0.47741264,-1.0221416,-1.9866836,-0.033601042,0.021898907,-0.09168317,-0.39216515,-0.36807948,0.059887893,-3.078735,0.6248774,-0.0003453717,-0.051239002,0.009035328,5.152667e-05,-0.005068259,9.516514e-05,-0.0023584072,0.50117886,-1.377789,1.8997134,-2.0910256,-1.5706242,2.4761376,-0.06532403,0.067062385,-0.08250511,0.012913378,0.00423553,-0.06293028,0.038307227,0.2681506,-9.404425,0.85155696,47.67793,-1.0523496,-2.4922562,-3.3521473,-0.1830156,0.09199959,-0.21578729,25.0625,25.75,24.875,26.9375,27.375,27.6875
0.11605401,0.012267021,-1.1882981,-1.9577736,-0.023686057,0.038606044,-0.096326284,-0.3922897,-0.36808568,0.0599279,3.0788078,-0.62491095,0.0002401794,-0.05295026,0.00821817,0.0024895354,-0.007650504,0.004191418,-0.002989422,0.50105906,-1.3776937,1.8995093,-2.091025,-1.5706004,2.4760296,-0.065697975,0.06523999,-0.08600796,0.013406444,0.004533346,-0.06267217,0.019153614,0.24899697,-9.442732,0.7732232,47.689575,-1.1337519,-2.3755648,-3.3220062,-0.18294811,0.1027796,-0.22467107,25.0625,25.75,24.875,26.9375,27.375,27.6875
0.1180543,-0.06810662,-0.94604534,-1.9673406,-0.024965547,0.049778227,-0.10380776,-0.39234808,-0.36804646,0.0598779,-3.0787303,0.62487435,-0.00041455278,-0.054014713,0.008277231,0.0029688764,-0.008029374,0.004838876,-0.0021280868,0.50093895,-1.3775132,1.8993901,-2.0909412,-1.5706004,2.4758966,-0.06677721,0.06585566,-0.08797766,0.014011345,0.004543113,-0.06461261,0.019153614,0.2681506,-9.519346,0.7172743,47.642998,-1.1364107,-2.3932207,-3.0733457,-0.2111819,0.10662264,-0.24672347,25.0625,25.75,24.875,26.9375,27.375,27.6875
0.12005451,-0.92652035,-1.016473,-1.9595376,-0.031382944,0.047380716,-0.08967765,-0.39245546,-0.36804155,0.059908055,-3.0787485,0.62489736,-0.00037499343,-0.05349272,0.008681246,0.00021893195,-0.0057595945,-0.00019194913,-0.002094813,0.50083095,-1.3774033,1.899175,-2.0908697,-1.5705999,2.4758008,-0.067224085,0.07090408,-0.087766394,0.014253493,0.004971637,-0.06509266,-0.24899697,0.28730422,-9.500193,0.72622824,47.634937,-1.1784691,-2.5421185,-3.335627,-0.22158301,0.09804866,-0.25366092,25.0625,25.75,24.875,26.9375,27.375,27.6875
0.12205466,-0.61656404,-0.8194589,-1.8312373,-0.044339754,0.077493615,-0.10316806,-0.3925847,-0.3680128,0.05991842,-3.078773,0.6249024,-0.000329449,-0.05508714,0.0082073305,0.0025324654,-0.008797272,0.0035910327,-0.0041749864,0.500663,-1.3772722,1.8989934,-2.0908573,-1.5705999,2.475633,-0.06840394,0.0684619,-0.09015386,0.0143040335,0.0058186324,-0.06419301,-0.24899697,0.30645782,-9.423578,0.7709874,47.686886,-1.224009,-2.438195,-3.2584014,-0.22948122,0.09685466,-0.30483568,25.0625,25.75,24.875,26.9375,27.375,27.6875
0.12405372,-0.9180491,-1.0401182,-1.983508,-0.044549797,0.08117022,-0.101954706,-0.3926942,-0.3679868,0.059891548,-3.0787756,0.6249411,-0.00040067537,-0.055471748,0.007862722,0.0022891648,-0.00903225,0.002666583,-0.0038233872,0.50049514,-1.3770912,1.8988398,-2.0908568,-1.5705632,2.475489,-0.068561696,0.07021072,-0.09182711,0.014927852,0.0064655277,-0.064702764,-0.19153613,0.30645782,-9.595961,0.7866488,47.72002,-1.2729692,-2.3601947,-3.2813044,-0.2536586,0.094866335,-0.33597225,25.0625,25.75,24.875,26.9375,27.375,27.6875
0.12605458,-1.0897585,-1.285298,-1.9321095,-0.032624234,0.08181225,-0.09656988,-0.39279118,-0.3679844,0.059887327,-3.0787826,0.6249219,-0.00045411978,-0.05717205,0.008607369,0.002224532,-0.00938232,0.0033486325,-0.0044765323,0.50038654,-1.3769227,1.8986362,-2.0907977,-1.5705394,2.4753675,-0.07135025,0.07149141,-0.093015574,0.014071968,0.0064395075,-0.06683755,-0.28730422,0.22984336,-9.576807,0.7642693,47.72092,-1.3639739,-2.4322345,-3.3077435,-0.24387532,0.0821795,-0.36392224,25.0625,25.75,24.875,26.9375,27.375,27.6875
0.12805398,-0.65983737,-0.5353946,-1.6689905,-0.04252751,0.10013889,-0.10436416,-0.39291275,-0.36796346,0.059896022,3.0787902,-0.6250019,0.00042492728,-0.05715318,0.008270377,0.0021781377,-0.009239993,0.0036587045,-0.006940756,0.5002312,-1.3767904,1.8984569,-2.0907857,-1.570527,2.4752612,-0.07057443,0.07197846,-0.09343482,0.013802651,0.0061685094,-0.063596584,-0.28730422,0.17238252,-9.500193,0.7486078,47.6421,-1.2736318,-2.3302348,-3.366019,-0.24824525,0.06869559,-0.42060703,25.0625,25.75,24.875,26.9375,27.375,27.6875
0.1300538,-1.0628327,-0.54403895,-1.7885448,-0.02260222,0.091661096,-0.0997957,-0.39302564,-0.36797008,0.05992818,3.0787523,-0.624935,0.00039009517,-0.057911623,0.007977704,0.0019485833,-0.009922393,0.0036524243,-0.0054316735,0.50012314,-1.3766696,1.8982271,-2.0907261,-1.5705031,2.4751163,-0.07113636,0.073659256,-0.09475927,0.013125014,0.0067695165,-0.06566743,-0.36391866,0.19153613,-9.5385,0.7553206,47.66539,-1.4489625,-2.3229842,-3.4211364,-0.2529403,0.07885201,-0.44826648,25.0625,25.75,24.875,26.9375,27.375,27.6875
0.13205379,-1.5020827,-0.55581737,-2.0799549,-0.008788186,0.082579724,-0.08945395,-0.39312148,-0.36794525,0.059896473,3.0787718,-0.6249005,0.0004720133,-0.060748763,0.009116154,0.0029970284,-0.010985031,0.005169026,-0.006741855,0.49997804,-1.3764894,1.8980826,-2.0907142,-1.5704793,2.4749472,-0.0757708,0.0741543,-0.0979353,0.013968212,0.0069673858,-0.06899111,-0.40222588,0.11492168,-9.557653,0.8672237,47.691364,-1.3262146,-2.301326,-3.163407,-0.27222642,0.053888686,-0.47307912,25.0625,25.75,24.875,26.9375,27.375,27.6875
0.13405405,-1.1405149,-0.18842646,-2.0128314,-0.00865813,0.09194599,-0.096871264,-0.39326364,-0.36791673,0.05991468,3.0787256,-0.6249446,0.00040458562,-0.05983584,0.008973315,0.0020518864,-0.009898928,0.003799727,-0.0020448784,0.49979886,-1.376357,1.8978814,-2.0907018,-1.5704793,2.4748015,-0.07447938,0.075124666,-0.096875995,0.013664016,0.0066771177,-0.07239606,-0.40222588,-0.095768064,-9.519346,0.8023209,47.655537,-1.324915,-2.2997894,-3.4192643,-0.2681474,0.055991806,-0.4786856,25.0625,25.75,24.875,26.9375,27.375,27.6875
0.13605385,-1.2507892,-0.28926387,-1.8760165,-0.0039544147,0.09127503,-0.096037105,-0.3934062,-0.3679138,0.0599401,3.0786593,-0.6249471,0.00031585296,-0.062828854,0.008356568,0.0038421685,-0.011515144,0.0076039103,0.0025828548,0.49965462,-1.3762124,1.897652,-2.0907018,-1.5704669,2.4746673,-0.075922444,0.07643114,-0.102569155,0.013942086,0.0062682224,-0.07846325,-0.40222588,-0.038307227,-9.500193,0.7732232,47.713753,-1.4003112,-2.2475255,-3.183214,-0.27871382,0.0656362,-0.46071762,25.0625,25.75,24.875,26.9375,27.375,27.6875
0.13805397,-1.4815059,-0.53629977,-2.0163414,-0.0054309685,0.09054024,-0.09390093,-0.39351282,-0.36789694,0.05993283,3.0786443,-0.62488467,0.0003825768,-0.06279801,0.0092870165,0.0028084016,-0.011013537,0.0054799602,0.0048838146,0.49949828,-1.3760557,1.8974746,-2.090666,-1.5704192,2.474474,-0.07779278,0.07737155,-0.1013286,0.013869678,0.0068481714,-0.0826359,-0.45968673,0.019153614,-9.519346,0.81351066,47.64479,-1.4659817,-2.356335,-3.365272,-0.27168426,0.049331732,-0.4119151,25.0625,25.75,24.875,26.9375,27.375,27.6875
0.14005399,-1.316545,-0.58037865,-1.911699,0.003044821,0.0923549,-0.09177023,-0.39363346,-0.36786547,0.05992815,3.0786572,-0.62486666,0.0003711418,-0.0649183,0.009670693,0.0036800737,-0.012141612,0.007102668,0.0068230378,0.49934152,-1.3758996,1.8972944,-2.0906417,-1.5704311,2.4743044,-0.08049542,0.078004405,-0.10411633,0.014060462,0.0070570377,-0.08727693,-0.59376204,0.019153614,-9.461885,0.7642693,47.675243,-1.3493553,-2.2285843,-3.2243557,-0.27636844,0.057574794,-0.40058988,25.0625,25.75,24.875,26.9375,27.375,27.6875
0.14205399,-1.1463077,-0.035487983,-1.854219,-0.017190607,0.092236415,-0.10123091,-0.39378074,-0.3678431,0.059927065,3.0786536,-0.6248414,0.00038441241,-0.066207714,0.011260059,0.0024789514,-0.010446353,0.005462373,0.012452358,0.499161,-1.3756944,1.8970426,-2.090594,-1.5704197,2.4741087,-0.08388448,0.08061698,-0.10450903,0.014099767,0.006354416,-0.0962937,-0.47884035,-0.038307227,-9.461885,0.83589023,47.695843,-1.2903214,-2.2671103,-3.2952483,-0.29687977,0.06680114,-0.297431,25.0625,25.75,24.875,26.9375,27.375,27.6875
0.14405419,-1.3124965,-0.31054586,-1.813598,-0.012017792,0.08908076,-0.08886459,-0.39391822,-0.3678187,0.059939563,3.0786285,-0.6248151,0.00032969826,-0.06625278,0.011025024,0.0024716433,-0.009943038,0.0051442673,0.015533728,0.4989934,-1.3755499,1.89684,-2.0905817,-1.5704197,2.473928,-0.08332465,0.08142856,-0.10566165,0.014963893,0.0060701678,-0.09881405,-0.47884035,0.019153614,-9.423578,0.82022345,47.699425,-1.2247485,-2.2273555,-3.3876543,-0.31233615,0.05571069,-0.2717995,25.0625,25.75,24.875,26.9375,27.375,27.6875
0.1460542,-1.2026217,-0.7262875,-1.7127004,-0.0013684698,0.10021057,-0.09534796,-0.3940363,-0.36779246,0.059928376,3.0786376,-0.62471753,0.00036899492,-0.06719388,0.0108205695,0.0024782894,-0.010066852,0.0055797626,0.019163437,0.49882576,-1.3753812,1.8966597,-2.0905578,-1.5703958,2.4736984,-0.08375591,0.08304362,-0.10757569,0.014826295,0.005966196,-0.102873944,-0.57460845,0.019153614,-9.3661175,0.7709874,47.688675,-1.3916165,-2.3203318,-3.337871,-0.30670965,0.05275786,-0.20659506,25.0625,25.75,24.875,26.9375,27.375,27.6875
0.14805406,-1.5268599,-0.36585018,-1.6520706,-0.011092071,0.09660258,-0.08404873,-0.39418617,-0.36776215,0.059956484,3.078631,-0.624679,0.00031528715,-0.06945903,0.012749508,0.0025051485,-0.010743353,0.004871603,0.015451941,0.49864396,-1.3752367,1.896408,-2.0904858,-1.5704073,2.4734936,-0.08962629,0.083796114,-0.10868884,0.015482539,0.0069034714,-0.10503353,-0.36391866,0.019153614,-9.385271,0.784413,47.686886,-1.1410589,-2.2123756,-3.3277602,-0.29213476,0.051446375,-0.16678381,25.0625,25.75,24.875,26.9375,27.375,27.6875
0.15005429,-0.6526761,0.13394815,-1.5575773,-0.027392184,0.11149782,-0.104612894,-0.3943329,-0.36774486,0.059952367,3.078597,-0.62463284,0.00029682915,-0.07009541,0.01203076,0.0030941486,-0.011253453,0.006383595,0.016120553,0.49846482,-1.3750446,1.896192,-2.0904982,-1.570383,2.47329,-0.088799626,0.0843598,-0.11068047,0.015343432,0.006629445,-0.104873985,-0.47884035,0.17238252,-9.3661175,0.7709874,47.658226,-1.2516544,-2.1713269,-3.351316,-0.32879612,0.047757912,-0.14844762,25.0625,25.75,24.875,26.9375,27.375,27.6875
0.15205438,-1.0906476,-0.66005665,-1.4873238,-0.018430509,0.104344085,-0.08896386,-0.3944662,-0.36771467,0.059956428,3.078592,-0.62457585,0.0002962794,-0.07141644,0.013295055,0.0015405095,-0.009614429,0.004038798,0.010431496,0.49828413,-1.374887,1.8959874,-2.090462,-1.570371,2.4730744,-0.09190801,0.088227175,-0.11176749,0.015408899,0.006311123,-0.10229178,-0.57460845,0.076614454,-9.289503,0.8112748,47.701214,-1.1559625,-2.289816,-3.3761668,-0.3190427,0.053118322,-0.15463364,25.0625,25.75,24.875,26.9375,27.375,27.6875
0.15405387,-0.7571073,-0.51503587,-1.5890603,-0.023974447,0.1060457,-0.091421574,-0.39462617,-0.36767748,0.059978485,3.0785542,-0.62461054,0.00026866878,-0.07357224,0.014082959,0.0032575077,-0.010903086,0.007547211,0.003383324,0.49806756,-1.3747314,1.895739,-2.090402,-1.5703596,2.4728844,-0.09483199,0.086417794,-0.11349908,0.0152552435,0.0057678246,-0.09816624,-0.47884035,0.11492168,-9.289502,0.8247004,47.667187,-1.0927124,-2.174687,-3.4583607,-0.32045436,0.059390705,-0.19964099,25.0625,25.75,24.875,26.9375,27.375,27.6875
0.15605432,-0.7822234,-0.5616955,-1.5887586,-0.0124188345,0.09407967,-0.096082985,-0.39479277,-0.36764267,0.05997377,3.078539,-0.6246098,0.00021254962,-0.07394487,0.014746206,0.0023915076,-0.009924248,0.005700391,-0.002513812,0.4978635,-1.3745266,1.8955091,-2.0904138,-1.5703715,2.472682,-0.09626466,0.08831391,-0.11394314,0.015891738,0.005795836,-0.09370123,-0.40222588,0.15322891,-9.308657,0.779936,47.686886,-0.9759675,-2.1554697,-3.3955984,-0.32653737,0.056201868,-0.23710826,25.0625,25.75,24.875,26.9375,27.375,27.6875
0.15805455,-0.6767168,-0.54955524,-1.545078,-0.01683409,0.0838251,-0.09541017,-0.39492658,-0.3676216,0.05997672,3.0785117,-0.6245676,0.00023648307,-0.07654989,0.015099978,0.002379311,-0.011245822,0.0064602424,-0.007796741,0.49768272,-1.3743573,1.8952931,-2.090378,-1.5703353,2.4724784,-0.099705435,0.091165714,-0.117089264,0.014888381,0.006587679,-0.091858335,-0.4213795,0.15322891,-9.3661175,0.8157518,47.660015,-0.9141971,-2.371984,-3.4595242,-0.32758832,0.054385684,-0.30470163,25.0625,25.75,24.875,26.9375,27.375,27.6875
0.16005388,-0.65546393,-0.5863605,-1.4010836,-0.018929748,0.074960575,-0.088329054,-0.39507043,-0.36757705,0.059957918,3.07855,-0.6245941,0.00025945008,-0.07691136,0.015764166,0.001807844,-0.01073752,0.005554911,-0.008351746,0.49749067,-1.374141,1.895068,-2.0903304,-1.5703591,2.4722981,-0.10110512,0.09208011,-0.116875015,0.014797404,0.0065719,-0.09270322,-0.40222588,0.17238252,-9.232041,0.8157518,47.698532,-0.90204704,-2.1614254,-3.4428627,-0.3100531,0.047304764,-0.32419875,25.0625,25.75,24.875,26.9375,27.375,27.6875
0.16205433,-0.71707153,-0.31427684,-1.537946,-0.020459294,0.07891522,-0.09240233,-0.3952184,-0.36757264,0.05996597,3.0784714,-0.6246343,0.00027673846,-0.07855024,0.016005524,0.0021283058,-0.010686612,0.0065359487,-0.008948659,0.4973106,-1.3739482,1.8948153,-2.0903065,-1.5702995,2.4721532,-0.10265434,0.09362188,-0.11951171,0.015063472,0.0060592345,-0.09365339,-0.4405331,0.17238252,-9.232041,0.7553206,47.694946,-0.7697486,-2.2425847,-3.423659,-0.3218559,0.050866615,-0.34298822,25.0625,25.75,24.875,26.9375,27.375,27.6875
0.16405438,-0.80911714,-0.45305848,-1.5768253,-0.015000581,0.08261371,-0.08566975,-0.39540857,-0.36751503,0.05998286,3.078423,-0.6247197,0.00019167765,-0.07988027,0.015848858,0.002815737,-0.011321926,0.0076397657,-0.009341067,0.49704698,-1.3737798,1.894574,-2.0902946,-1.5703114,2.471949,-0.10358107,0.09447754,-0.122241296,0.01566487,0.0060954355,-0.094186276,-0.34476504,0.11492168,-9.193734,0.784413,47.666286,-0.88407755,-2.22363,-3.3281217,-0.32975525,0.05454376,-0.35992354,25.0625,25.75,24.875,26.9375,27.375,27.6875
0.16605401,-1.0492698,-0.5748571,-1.6108173,-0.010640328,0.083468,-0.08888765,-0.39552644,-0.36748666,0.05997492,3.0784588,-0.62466943,0.00024034832,-0.08004677,0.016073817,0.0011220088,-0.009923256,0.004240415,-0.010364013,0.49689108,-1.3735983,1.89436,-2.0902221,-1.570311,2.4717574,-0.10432193,0.098553434,-0.12342539,0.016427586,0.006483647,-0.093903944,-0.30645782,0.19153613,-9.232041,0.6971306,47.704796,-0.8210467,-2.195024,-3.344214,-0.32935968,0.054679163,-0.3932252,25.0625,25.75,24.875,26.9375,27.375,27.6875
0.16805415,-0.278025,-0.26822212,-1.5490036,-0.030307291,0.10412296,-0.10223897,-0.39570677,-0.36746803,0.05998431,3.0784068,-0.6246762,0.0001781019,-0.082181364,0.014900187,0.0038622718,-0.0133237885,0.008812176,-0.008767774,0.49668726,-1.3733824,1.894082,-2.0902221,-1.570299,2.4715645,-0.104757875,0.09706397,-0.12799773,0.016850038,0.0072937175,-0.09593529,-0.28730422,0.24899697,-9.270349,0.8157518,47.6636,-0.83747697,-2.2111645,-3.374918,-0.34557354,0.025758913,-0.39196712,25.0625,25.75,24.875,26.9375,27.375,27.6875
0.17005448,-0.67677605,-1.0293462,-1.5244334,-0.030889401,0.084427945,-0.08482253,-0.39588854,-0.36742425,0.059995882,3.07838,-0.62474686,0.00015649784,-0.081018195,0.016105086,0.00130704,-0.010130082,0.0042191534,-0.009243503,0.49644747,-1.3731775,1.8937982,-2.0901616,-1.570299,2.4713724,-0.10528903,0.09984752,-0.12560567,0.017238287,0.0066844863,-0.0959904,-0.17238252,0.24899697,-9.174581,0.83589023,47.682407,-0.97173023,-2.1774688,-3.4187388,-0.33490103,0.047248192,-0.4208718,25.0625,25.75,24.875,26.9375,27.375,27.6875
0.17205453,-0.43685815,-0.7340211,-1.6576917,-0.044214636,0.07119096,-0.09960058,-0.39602807,-0.36738896,0.059960026,3.0784273,-0.6246733,0.00018763023,-0.082984254,0.015447235,0.00257059,-0.011350239,0.007332414,-0.002223284,0.49626797,-1.3729368,1.8935937,-2.090162,-1.570311,2.471141,-0.10568471,0.10067414,-0.12940744,0.016899416,0.006265431,-0.10340441,-0.11492168,0.24899697,-9.289502,0.8403672,47.66808,-1.0327959,-2.3012977,-3.2473793,-0.3516604,0.057090953,-0.37401783,25.0625,25.75,24.875,26.9375,27.375,27.6875
0.17405368,0.14063974,-1.0932121,-1.653502,-0.046516273,0.07619282,-0.09643601,-0.3962146,-0.36735368,0.059992846,3.0783517,-0.6247131,0.00015077884,-0.083416805,0.015176955,0.0019712218,-0.010983804,0.0066729495,0.0015072243,0.49601647,-1.372768,1.8933047,-2.0901024,-1.5702757,2.4709241,-0.10557235,0.10300368,-0.13078734,0.016711086,0.0062636444,-0.107021295,-0.11492168,0.30645782,-9.308656,0.86945957,47.675243,-0.8836452,-2.3077662,-3.3406277,-0.35200018,0.05515869,-0.34929788,25.0625,25.75,24.875,26.9375,27.375,27.6875
0.17605424,-0.7863678,-1.4182888,-1.6843487,-0.034621596,0.044505533,-0.07555206,-0.39637536,-0.36732846,0.059981436,3.078325,-0.624722,0.00016584442,-0.0850079,0.015299917,0.0021072184,-0.0122157615,0.0069793216,0.0062184082,0.4958122,-1.3725392,1.8930558,-2.0900905,-1.5702513,2.4707289,-0.107765615,0.1046138,-0.13297047,0.01643224,0.0072009303,-0.11392576,-0.11492168,0.2873042,-9.212888,0.82694155,47.670765,-1.1043217,-2.3121161,-3.3003216,-0.33110702,0.044049893,-0.28858963,25.0625,25.75,24.875,26.9375,27.375,27.6875
0.17805456,0.038815,-0.8155247,-1.7619689,-0.029304491,0.06007719,-0.099965505,-0.39655465,-0.36728308,0.059995588,3.078315,-0.62469757,0.00013914678,-0.0863743,0.01531284,0.0018134032,-0.0120629575,0.006773455,0.01089242,0.49557236,-1.372346,1.8927802,-2.0900304,-1.5702513,2.4704752,-0.10896138,0.10737538,-0.13564552,0.016604159,0.007165964,-0.11979392,0.019153614,0.24899697,-9.289502,0.8157518,47.661808,-0.8690503,-2.3923702,-3.2000873,-0.32399553,0.05489294,-0.2334956,25.0625,25.75,24.875,26.9375,27.375,27.6875
0.1800544,0.06795132,-0.77139854,-1.8320333,-0.020271052,0.058338176,-0.092104,-0.39671245,-0.36726505,0.059979584,3.0783012,-0.62457657,0.00018754434,-0.08763242,0.015283003,0.0021391723,-0.012244999,0.007536019,0.015131426,0.4953683,-1.3721052,1.8925275,-2.090019,-1.5702032,2.4701974,-0.109885246,0.108700745,-0.1380663,0.016952874,0.006962977,-0.12495549,-0.019153614,0.2681506,-9.3661175,0.7732232,47.666286,-0.9600274,-2.4110765,-3.1595473,-0.31925416,0.05350211,-0.1268161,25.0625,25.75,24.875,26.9375,27.375,27.6875
0.1820547,0.2706116,-0.8543669,-1.6747084,-0.027123133,0.07047512,-0.09742023,-0.39689368,-0.3672217,0.059981298,3.078333,-0.6245239,0.00013954847,-0.08883045,0.015131982,0.0026071363,-0.013153497,0.00881778,0.016052518,0.4951525,-1.371877,1.8922409,-2.0899708,-1.570239,2.469945,-0.11078943,0.109408654,-0.13989511,0.01651158,0.007152751,-0.12678012,-0.095768064,0.21068975,-9.404425,0.8090337,47.647476,-1.0277078,-2.4020627,-3.160003,-0.3311965,0.04777075,-0.11631362,25.0625,25.75,24.875,26.9375,27.375,27.6875
0.18405397,-0.12429031,-1.2153445,-1.9107606,-0.033385552,0.06583097,-0.08611733,-0.39708555,-0.36719012,0.06000255,3.078291,-0.6245357,6.8058405e-05,-0.08958251,0.015630372,0.0023472796,-0.013058604,0.008079496,0.011798683,0.49492463,-1.3716724,1.891941,-2.089935,-1.570239,2.46973,-0.11242432,0.1105932,-0.1408363,0.016962472,0.0074287406,-0.1241606,-0.076614454,0.2681506,-9.308656,0.784413,47.647476,-1.0863385,-2.352808,-3.140946,-0.33310607,0.04395701,-0.1042379,25.0625,25.75,24.875,26.9375,27.375,27.6875
0.18605378,0.024091247,-1.4573393,-2.00841,-0.037056573,0.07573006,-0.08777532,-0.3972506,-0.36716655,0.059998933,3.0782542,-0.6244904,0.00013134515,-0.08889972,0.014805956,0.0020609458,-0.0132874185,0.0070837527,0.009433625,0.4946976,-1.371444,1.8916663,-2.089887,-1.5701789,2.4694793,-0.1107863,0.111431025,-0.14129534,0.017356044,0.008104169,-0.120158084,-0.095768064,0.28730422,-9.3661175,0.87393653,47.703903,-1.0873501,-2.3504233,-3.1882212,-0.31590602,0.053169224,-0.14417809,25.0625,25.75,24.875,26.9375,27.375,27.6875
0.18805419,-0.1299025,-1.4405102,-2.0165067,-0.050960463,0.07570849,-0.08702018,-0.3974258,-0.3671324,0.05998583,3.0782692,-0.62449634,0.0001626096,-0.09090019,0.015944682,0.0021085483,-0.013088891,0.007077959,0.0012298157,0.49448082,-1.3711789,1.8913668,-2.0898268,-1.5701789,2.4692645,-0.11435322,0.1130387,-0.1435049,0.01805726,0.007927144,-0.11552022,-0.1340753,0.3256114,-9.3661175,0.7530795,47.67614,-1.1701024,-2.3703475,-3.084888,-0.31775618,0.05133316,-0.19312479,25.0625,25.75,24.875,26.9375,27.375,27.6875
0.1900549,0.21858326,-0.9234151,-1.84125,-0.05813928,0.08289099,-0.093200654,-0.39762765,-0.36710837,0.060013488,3.078175,-0.62451625,5.5880286e-05,-0.0911325,0.015023774,0.002628185,-0.013140134,0.008865207,-0.0008100734,0.49424222,-1.3709868,1.8910779,-2.0898387,-1.570155,2.4690504,-0.11246841,0.11343047,-0.14507703,0.01764542,0.007133888,-0.11159318,-0.095768064,0.22984336,-9.404425,0.81351066,47.66808,-1.1492357,-2.4004443,-3.374658,-0.31637543,0.05493412,-0.25756752,25.0625,25.75,24.875,26.9375,27.375,27.6875
0.19205384,-0.87185603,-1.1502656,-2.1044188,-0.03796534,0.05445487,-0.081760876,-0.3978101,-0.36706144,0.06001211,3.0781686,-0.6245154,7.505263e-05,-0.091179214,0.015797082,0.00049232086,-0.011999635,0.005334346,-0.004558113,0.49399003,-1.3707573,1.8907942,-2.0897791,-1.5701426,2.4687986,-0.114167064,0.11699068,-0.14434332,0.017000634,0.0078060348,-0.10954427,-0.076614454,0.22984336,-9.500193,0.83813137,47.62867,-1.1930991,-2.3035364,-3.3498435,-0.31223112,0.048643194,-0.30537704,25.0625,25.75,24.875,26.9375,27.375,27.6875
0.1940543,0.12662692,-0.38144806,-2.0274563,-0.03405257,0.072650924,-0.094946034,-0.39800277,-0.3670555,0.06000786,3.0781476,-0.6244539,4.387594e-05,-0.09234343,0.01608849,0.002080558,-0.014066375,0.007624425,-0.0078082765,0.49379766,-1.3704697,1.8904585,-2.0897672,-1.5701307,2.4685707,-0.116109215,0.11467365,-0.1452795,0.017257199,0.008544348,-0.108236834,-0.095768064,0.114921674,-9.481039,0.78888994,47.66987,-1.1255388,-2.3384535,-3.337204,-0.29730585,0.04877425,-0.36853915,25.0625,25.75,24.875,26.9375,27.375,27.6875
0.1960537,-0.6041612,-0.818791,-2.2722309,-0.0067230733,0.049525913,-0.07511477,-0.39815265,-0.36699367,0.059976455,3.0781662,-0.6245154,0.00010199507,-0.092272684,0.01655365,-0.00018306875,-0.012082504,0.004035527,-0.009222306,0.49355793,-1.3702519,1.8902649,-2.0897434,-1.5701307,2.468367,-0.11674739,0.11904588,-0.14531991,0.017027702,0.008494582,-0.10746066,-0.05746084,0.038307227,-9.595961,0.7620334,47.678825,-1.1290929,-2.3834264,-3.4483457,-0.2786447,0.04474509,-0.4089682,25.0625,25.75,24.875,26.9375,27.375,27.6875
0.1980541,0.33116537,-0.35552728,-2.0067844,-0.009715021,0.06524201,-0.09235443,-0.39836606,-0.36697322,0.060010236,3.0781133,-0.6245047,1.4771723e-06,-0.094218306,0.016415069,0.0016033648,-0.013737291,0.007447828,-0.011882858,0.49333003,-1.3700241,1.8899058,-2.0896957,-1.5701307,2.4681394,-0.11811789,0.11812355,-0.1483367,0.01717961,0.008340329,-0.10616882,-0.11492168,0.0,-9.557653,0.8873621,47.682407,-1.208089,-2.3262722,-3.434679,-0.29548657,0.05279437,-0.47467637,25.0625,25.75,24.875,26.9375,27.375,27.6875
0.2000543,-0.10624522,-0.15576959,-1.9802912,-0.008313033,0.06649695,-0.08855268,-0.39853942,-0.36694437,0.059987407,3.0780952,-0.6245383,7.059843e-05,-0.09428418,0.017032763,0.00063818356,-0.013477718,0.0056529683,-0.01187643,0.4931021,-1.3697475,1.8896197,-2.0896595,-1.5700945,2.4679348,-0.11954068,0.11939424,-0.14762835,0.016908953,0.0089629805,-0.10759901,-0.095768064,0.076614454,-9.404425,0.82022345,47.661808,-1.1983048,-2.3180993,-3.6101012,-0.24935925,0.021322396,-0.503289,25.0625,25.75,24.875,26.9375,27.375,27.6875
0.20205462,-0.26614782,-0.2944072,-2.2214668,0.0009838761,0.06885451,-0.086732164,-0.39872685,-0.36691576,0.060003273,3.0780253,-0.6245598,3.8177797e-05,-0.09574536,0.017017849,0.0014369834,-0.014351425,0.0074318466,-0.009755556,0.49286228,-1.3695431,1.8893346,-2.0896356,-1.5700587,2.4677174,-0.12073597,0.11973781,-0.14985333,0.016818363,0.00889649,-0.11091376,-0.076614454,-0.038307227,-9.3661175,0.84484416,47.68062,-1.1776675,-2.2327578,-3.547927,-0.24021888,0.02365601,-0.50504017,25.0625,25.75,24.875,26.9375,27.375,27.6875
0.20405456,-0.4869106,0.25444323,-2.1284223,-0.011201327,0.06962567,-0.08813821,-0.3989068,-0.3668883,0.060001664,3.0780292,-0.6244967,5.207492e-05,-0.0969872,0.017520197,0.00087689864,-0.013818684,0.006204257,-0.0019223063,0.49264595,-1.36929,1.8890227,-2.0895755,-1.5700468,2.4674613,-0.12271597,0.12248625,-0.15207113,0.017630856,0.009012546,-0.12072599,-0.076614454,-0.076614454,-9.442732,0.7351769,47.677036,-1.0929933,-2.1946874,-3.4654355,-0.23385815,0.049288984,-0.45584327,25.0625,25.75,24.875,26.9375,27.375,27.6875
0.20605382,-0.2827883,0.45170596,-2.0174758,-0.019000378,0.08912597,-0.097557224,-0.3990901,-0.36685726,0.059981298,3.0779862,-0.62452334,7.2687166e-05,-0.09864702,0.01809638,0.0024362432,-0.014842616,0.008525092,0.0025148448,0.49240562,-1.3690263,1.8887571,-2.089587,-1.5700105,2.4672432,-0.12500177,0.121037275,-0.1541423,0.018633977,0.008823521,-0.12744825,-0.21068975,-0.038307227,-9.5385,0.76874626,47.668976,-1.1089444,-2.1688206,-3.5176635,-0.23888823,0.042830463,-0.392956,25.0625,25.75,24.875,26.9375,27.375,27.6875
0.20805399,-0.7860111,-0.3342466,-2.1653004,-0.009198715,0.09493479,-0.09699283,-0.39932173,-0.36681944,0.060019225,3.0779114,-0.6245021,-1.299748e-05,-0.09928833,0.018811533,0.00022935573,-0.013331998,0.0038684146,0.009851553,0.49211788,-1.3688083,1.8884,-2.0895393,-1.5699862,2.4669518,-0.12725309,0.12639667,-0.15580161,0.019761316,0.009713193,-0.1370349,-0.40222588,0.038307227,-9.576807,0.9097417,47.684196,-1.1562673,-2.247436,-3.4811106,-0.24835706,0.02792693,-0.2845493,25.0625,25.75,24.875,26.9375,27.375,27.6875
0.21005432,-1.0394188,-0.44398847,-2.0616434,-0.016153237,0.11094013,-0.08991881,-0.39950627,-0.36676463,0.059998244,3.0779605,-0.6244685,3.588167e-05,-0.09936616,0.01811571,0.0012459389,-0.013505599,0.0054814094,0.016980033,0.49186695,-1.368532,1.8881015,-2.0894663,-1.5699986,2.4666739,-0.12571815,0.1256076,-0.15740553,0.020657705,0.009101706,-0.14262804,-0.5554548,0.19153613,-9.557653,0.80456203,47.64837,-1.0870087,-2.1884396,-3.4783516,-0.24352823,0.0178498,-0.23016489,25.0625,25.75,24.875,26.9375,27.375,27.6875
0.21205449,-1.7463703,-1.0966791,-2.3719645,-0.016620101,0.10879667,-0.08723773,-0.39972004,-0.3667305,0.060027793,3.077912,-0.62438136,-2.616243e-05,-0.10146395,0.019299552,0.0016354057,-0.014010184,0.0058462652,0.016143674,0.49160177,-1.3683157,1.8877653,-2.0894182,-1.5699743,2.4663606,-0.129696,0.1264644,-0.15948859,0.021331467,0.009386527,-0.14576831,-0.61291564,0.15322891,-9.576807,0.842603,47.623295,-1.0462613,-2.2188563,-3.4612417,-0.24091569,0.021121662,-0.15622547,25.0625,25.75,24.875,26.9375,27.375,27.6875
0.21405366,-1.2748007,-1.3035061,-2.1451583,-0.04083471,0.14476712,-0.08710125,-0.3999057,-0.36668357,0.060020965,3.077949,-0.6243665,7.2705716e-06,-0.10074823,0.018469838,0.000495173,-0.012387964,0.004211629,0.018596968,0.4913633,-1.3680503,1.8874425,-2.0893228,-1.5699867,2.4661083,-0.12719142,0.12936741,-0.16045916,0.021608626,0.008723263,-0.14571609,-0.7469909,0.22984336,-9.672575,0.85826975,47.637623,-1.183656,-2.0315366,-3.4988508,-0.2378789,0.0325358,-0.1483908,25.0625,25.75,24.875,26.9375,27.375,27.6875
0.2160538,-2.0746584,-1.6932039,-2.0569937,-0.036699865,0.13222304,-0.08490696,-0.40011865,-0.366677,0.06004669,3.0778651,-0.6242393,-4.760924e-05,-0.1033745,0.018708304,0.0008445743,-0.012564195,0.005634496,0.00876993,0.49112317,-1.3678093,1.8870934,-2.0893104,-1.5699266,2.4657996,-0.12956767,0.13224187,-0.16472563,0.021669757,0.008209373,-0.13826208,-0.7661445,0.22984336,-9.595961,0.842603,47.690468,-1.147596,-2.2506628,-3.291727,-0.23605308,0.01713574,-0.21331418,25.0625,25.75,24.875,26.9375,27.375,27.6875
0.21805449,-1.6105018,-1.4807583,-2.078116,-0.049669538,0.13876653,-0.08391108,-0.40035132,-0.36663753,0.06006971,3.077826,-0.62427205,-0.000106388696,-0.10529108,0.017907469,0.0016734691,-0.013914487,0.008010704,0.0036141814,0.4908475,-1.3675443,1.8867086,-2.0892394,-1.5699266,2.4655495,-0.12991458,0.134029,-0.1686338,0.02105696,0.008276299,-0.13345116,-0.7661445,0.30645782,-9.595961,0.83813137,47.701214,-1.1724896,-2.2017813,-3.2069063,-0.22104889,0.03446308,-0.25956476,25.0625,25.75,24.875,26.9375,27.375,27.6875
0.22005454,-1.4486719,-1.2464297,-2.0962276,-0.052688703,0.1256463,-0.09217205,-0.4005385,-0.36660057,0.06005108,3.0778162,-0.6242325,-5.0719897e-05,-0.10646074,0.01893761,0.001303996,-0.013981839,0.0076263156,-0.0010008194,0.490595,-1.3672677,1.8864125,-2.0892036,-1.5698909,2.4652736,-0.1327697,0.13503109,-0.16893919,0.020672213,0.008515189,-0.13169138,-0.6703765,0.28730422,-9.519346,0.88289046,47.66987,-0.9583812,-2.166933,-3.3196225,-0.1985263,0.04900229,-0.31954473,25.0625,25.75,24.875,26.9375,27.375,27.6875
0.22205481,-1.216638,-1.1966838,-1.8536015,-0.04771504,0.109534055,-0.08439377,-0.40075687,-0.3665675,0.060048737,3.0777795,-0.6242244,-0.00012084751,-0.1082982,0.019491322,0.0012424251,-0.0139824515,0.008550682,-0.0035779846,0.49034318,-1.3669907,1.8860897,-2.089216,-1.5698909,2.4650216,-0.13500701,0.13694043,-0.17095466,0.019966187,0.008085076,-0.13134971,-0.63206923,0.24899697,-9.481039,0.7978386,47.65912,-1.2040942,-2.2740197,-3.2396772,-0.1797364,0.044039965,-0.3278719,25.0625,25.75,24.875,26.9375,27.375,27.6875
0.22405426,-1.0355773,-0.9497257,-1.7004763,-0.04274887,0.10442155,-0.09020052,-0.4010018,-0.36652985,0.060075734,3.0777168,-0.6243067,-0.00023571307,-0.10905111,0.019377932,0.0011523534,-0.0136667155,0.008950313,-0.0040164203,0.49006766,-1.366726,1.8857039,-2.0891798,-1.5699033,2.4648056,-0.13512723,0.13847536,-0.17259412,0.019868905,0.0076293256,-0.13102977,-0.68953013,0.2681506,-9.32781,0.7978386,47.66539,-1.055892,-2.1870182,-3.1530538,-0.16957422,0.04746574,-0.3715191,25.0625,25.75,24.875,26.9375,27.375,27.6875
0.22605377,-0.7699617,-0.4295099,-1.7103535,-0.02954632,0.1083724,-0.09645881,-0.40123072,-0.3664655,0.06006254,3.077671,-0.6243923,-0.00019727151,-0.11081287,0.01922934,0.0019815688,-0.014761424,0.010759488,-0.004455437,0.48973176,-1.3664372,1.8853806,-2.089144,-1.5698665,2.464529,-0.13644189,0.13939467,-0.17561089,0.019862756,0.007743104,-0.1319043,-0.5554548,0.24899697,-9.251195,0.7620334,47.687782,-1.0677205,-2.387531,-3.1584291,-0.15053613,0.05618038,-0.39534447,25.0625,25.75,24.875,26.9375,27.375,27.6875
0.22805396,-0.36599758,-0.43467674,-1.5079513,-0.018393803,0.11457117,-0.09760586,-0.40145588,-0.36644888,0.060088586,3.0775917,-0.6243535,-0.00027040395,-0.11040002,0.019913085,-0.00064215314,-0.013063382,0.0059836903,-0.0012016387,0.48947987,-1.3661836,1.885013,-2.0891201,-1.5698308,2.4642632,-0.13760816,0.14371407,-0.17483158,0.0197854,0.008511667,-0.13632376,-0.4405331,0.2681506,-9.270349,0.8090337,47.666286,-1.1480603,-2.354494,-3.2765315,-0.13926746,0.019685127,-0.39868423,25.0625,25.75,24.875,26.9375,27.375,27.6875
0.23005447,-0.378782,-0.44264734,-1.3154374,-0.019568315,0.11374757,-0.09190538,-0.4016899,-0.3663868,0.0600711,3.0776153,-0.6243715,-0.000277376,-0.110572904,0.01974031,7.878257e-05,-0.0134832105,0.0069238385,0.0061604367,0.48918077,-1.3658597,1.8846544,-2.0890715,-1.5698546,2.4639726,-0.13734895,0.14285327,-0.17562641,0.020419763,0.008448484,-0.14342672,-0.36391866,0.15322891,-9.251195,0.9164598,47.675243,-1.1580609,-2.2195933,-3.357416,-0.105542764,0.045836635,-0.32279578,25.0625,25.75,24.875,26.9375,27.375,27.6875
0.23205394,-0.48820153,-0.23454687,-1.3311087,-0.021492325,0.0925264,-0.091941655,-0.40192237,-0.36635083,0.060087256,3.0775747,-0.6242996,-0.00034983564,-0.1114196,0.020015672,-0.00014124151,-0.012646543,0.006158147,0.0137041835,0.48890492,-1.3655947,1.8842953,-2.0890472,-1.5698427,2.4636571,-0.13826238,0.14483781,-0.17782961,0.021720394,0.008089718,-0.1518822,-0.17238252,0.038307227,-9.078813,0.8605109,47.657326,-1.226054,-2.2729902,-3.2924602,-0.09276585,0.0465961,-0.24187383,25.0625,25.75,24.875,26.9375,27.375,27.6875
0.23405407,-0.1884616,-0.5256288,-1.2290543,-0.0032928921,0.07672211,-0.0860203,-0.40215296,-0.36633992,0.06010905,3.0775287,-0.6241306,-0.0004397564,-0.11136954,0.020236444,-0.00031425917,-0.012286967,0.0050852587,0.021358218,0.48866558,-1.3653183,1.8839124,-2.0890348,-1.5698189,2.4633183,-0.13863459,0.14529753,-0.17827508,0.02283454,0.008303451,-0.15990773,-0.11492168,-0.038307227,-9.040505,0.8112748,47.661808,-1.2102833,-2.326951,-3.365521,-0.08203393,0.07407683,-0.12533659,25.0625,25.75,24.875,26.9375,27.375,27.6875
0.236054,0.49390423,0.09516116,-1.117942,-0.0022139214,0.06254073,-0.089659914,-0.40238497,-0.36628464,0.06010554,3.077523,-0.62408924,-0.00046555614,-0.11268626,0.020593965,-0.0008592507,-0.011604519,0.004499807,0.023559367,0.48836553,-1.3650287,1.8835658,-2.088999,-1.5698189,2.4629934,-0.14012608,0.14818814,-0.18059891,0.023112165,0.007981677,-0.16359888,-0.076614454,-0.019153614,-8.983045,0.80679786,47.677036,-1.2274783,-2.4289684,-3.3539438,-0.07664624,0.06678075,-0.066893026,25.0625,25.75,24.875,26.9375,27.375,27.6875
0.23805413,0.6982666,0.15961662,-1.130612,0.020633968,0.03574717,-0.08088315,-0.40263495,-0.36624974,0.06011809,3.0774531,-0.62405634,-0.00048971456,-0.113191426,0.02076865,-0.0003867661,-0.011198692,0.0056501306,0.01915954,0.48805445,-1.364729,1.8831705,-2.0889628,-1.5697712,2.4626708,-0.14022496,0.14792399,-0.18146697,0.023428243,0.007090117,-0.15929708,-0.076614454,0.0,-8.925584,0.8537928,47.689575,-1.2999903,-2.166606,-3.3061223,-0.03734015,0.08401106,-0.07366814,25.0625,25.75,24.875,26.9375,27.375,27.6875
0.24005446,1.682658,1.1543976,-1.113954,0.013560187,0.04538968,-0.09151366,-0.40284812,-0.3661897,0.060097884,3.0774763,-0.62402695,-0.0005156048,-0.115196295,0.020545729,0.0017595307,-0.013750322,0.008897112,0.010893307,0.48777828,-1.3644412,1.8828691,-2.0889509,-1.569795,2.4623735,-0.14200377,0.14650348,-0.18483934,0.024146505,0.0078120413,-0.15280895,0.0,-0.038307227,-8.791509,0.85826975,47.684196,-1.2381841,-2.1146748,-3.221415,-0.037849583,0.0786518,-0.10404903,25.0625,25.75,24.875,26.9375,27.375,27.6875
0.24205378,1.0818508,0.45181003,-1.2809478,0.027255805,0.018761886,-0.08467648,-0.4030985,-0.36614683,0.060111824,3.0774047,-0.6240763,-0.00050875463,-0.11751881,0.02205655,0.0020636865,-0.014744701,0.00837313,-0.0021686014,0.48745304,-1.3641404,1.882461,-2.0888784,-1.5697459,2.4620883,-0.14718962,0.14755407,-0.18709941,0.02535148,0.008934137,-0.14493206,0.17238252,-0.05746084,-8.925584,0.8672237,47.67166,-1.1536047,-2.0906272,-3.2367122,-0.024415297,0.0691858,-0.2077753,25.0625,25.75,24.875,26.9375,27.375,27.6875
0.2440538,1.0386987,0.22202261,-1.6089556,0.02050011,0.019061083,-0.081763715,-0.403333,-0.3661055,0.060110975,3.0774226,-0.6240614,-0.00054101157,-0.11806169,0.021520335,0.0024908914,-0.014737053,0.008372504,-0.0066909967,0.48719,-1.3638157,1.8820575,-2.088806,-1.5697707,2.461814,-0.14668259,0.14877765,-0.18994609,0.026972791,0.00892366,-0.13990155,0.24899697,-0.038307227,-9.002198,0.8224646,47.682407,-1.176558,-2.0457416,-3.1778727,-0.01697422,0.097173125,-0.2787857,25.0625,25.75,24.875,26.9375,27.375,27.6875
0.24605426,0.9132923,-0.48998064,-1.7555531,0.005910481,0.026351152,-0.07709522,-0.40354913,-0.36604702,0.060108215,3.077377,-0.6241481,-0.00050448097,-0.11990721,0.02239138,0.0026351027,-0.013887007,0.007908414,-0.010578179,0.48687777,-1.3635508,1.8817328,-2.0887454,-1.5697349,2.4615617,-0.14936462,0.15095511,-0.19339082,0.02905661,0.0083896965,-0.1386949,0.15322891,0.076614454,-9.097966,0.7978386,47.71286,-0.9785652,-2.0230947,-3.1700964,-0.023142189,0.09784497,-0.3620944,25.0625,25.75,24.875,26.9375,27.375,27.6875
0.24805444,0.45588776,-1.2881703,-1.9894322,-0.014783925,0.04576224,-0.07380314,-0.40377608,-0.36598194,0.060082536,3.077411,-0.6242134,-0.00041571152,-0.11886319,0.022273215,0.0018708495,-0.012380744,0.005251022,-0.013542741,0.48656693,-1.363202,1.8813485,-2.0886366,-1.5697349,2.4612875,-0.14808889,0.15218182,-0.1936497,0.031140937,0.008294217,-0.13445514,0.0,0.19153613,-9.308657,0.86498255,47.67345,-1.0361598,-2.1062856,-3.3250654,-0.047146466,0.09681121,-0.43158603,25.0625,25.75,24.875,26.9375,27.375,27.6875
0.25005448,-0.055516943,-1.6992807,-2.228042,-0.037603837,0.07253016,-0.07999141,-0.40401447,-0.36593664,0.060101304,3.0773916,-0.624171,-0.0004660225,-0.11841962,0.02266119,0.0008814738,-0.011913573,0.0017951204,-0.015137338,0.4862789,-1.3629252,1.880958,-2.0885646,-1.5697345,2.4609756,-0.14899498,0.15381667,-0.19380867,0.032936126,0.009507921,-0.13376652,-0.1340753,0.24899697,-9.423578,0.83589023,47.661808,-1.0580897,-2.0339,-3.2556064,-0.06286064,0.09014619,-0.49185577,25.0625,25.75,24.875,26.9375,27.375,27.6875
0.25205442,-0.65491647,-2.0283234,-2.3571553,-0.04851118,0.09076644,-0.07540267,-0.40423563,-0.3658622,0.060064517,3.0774045,-0.6243231,-0.00032308005,-0.11922171,0.023921324,-0.00030938364,-0.01009313,-0.0011528501,-0.0124794515,0.485943,-1.3625761,1.8805984,-2.0884564,-1.5697101,2.4607332,-0.15157664,0.1568101,-0.19516146,0.03476524,0.009271457,-0.13900617,-0.076614454,0.3256114,-9.691729,0.8784135,47.66539,-1.1538877,-1.9982123,-3.2977765,-0.07981365,0.10129684,-0.51465356,25.0625,25.75,24.875,26.9375,27.375,27.6875
0.25405443,-0.94706297,-2.009591,-2.4371722,-0.06423083,0.10162205,-0.08499792,-0.4044605,-0.3658206,0.060064036,3.0773833,-0.6243102,-0.00024794726,-0.11897873,0.023316475,0.00045068303,-0.010845776,-0.00019104627,-0.0009192012,0.48564425,-1.3622639,1.8802007,-2.0883486,-1.569662,2.4604292,-0.15039556,0.15572126,-0.19573319,0.03524385,0.009497217,-0.14938575,-0.05746084,0.4213795,-9.749189,0.87393653,47.687782,-1.2032815,-2.1284597,-3.3389144,-0.085548446,0.11308033,-0.44507125,25.0625,25.75,24.875,26.9375,27.375,27.6875
0.2560541,-0.8325698,-1.9439617,-2.4068878,-0.07834972,0.106469505,-0.084496625,-0.4046988,-0.3657765,0.060067706,3.077362,-0.6242985,-0.00023087606,-0.12000543,0.023593958,-0.0007868445,-0.011089671,-0.0020939691,0.0087361615,0.48534423,-1.3619503,1.8797973,-2.0882647,-1.5696377,2.4601247,-0.15235795,0.15928423,-0.19710492,0.03463732,0.010611251,-0.16100289,-0.095768064,0.51714754,-9.768343,0.8403672,47.701214,-1.1879864,-2.1630852,-3.3871658,-0.08249134,0.092127666,-0.33942795,25.0625,25.75,24.875,26.9375,27.375,27.6875
0.25805426,-1.0635182,-2.2136734,-2.8471732,-0.06800674,0.09180672,-0.07869542,-0.40492478,-0.36574978,0.060060948,3.077374,-0.6241226,-0.00024643855,-0.12084188,0.024418177,-0.0020188412,-0.009600999,-0.0034209525,0.015897049,0.48509222,-1.3616253,1.8794149,-2.0882294,-1.5696262,2.4597616,-0.15396658,0.16219297,-0.19776528,0.034273963,0.009924919,-0.16977133,-0.1340753,0.57460845,-9.864111,0.80679786,47.684196,-1.1371897,-2.2834544,-3.4102404,-0.09392335,0.10233703,-0.23379776,25.0625,25.75,24.875,26.9375,27.375,27.6875
0.26005456,-0.1728579,-1.7754543,-2.7858214,-0.064050235,0.096728995,-0.08152522,-0.40517354,-0.36568052,0.060060535,3.077363,-0.6242143,-0.00023106112,-0.12119896,0.025803167,-0.0038195052,-0.007581484,-0.006558,0.01777886,0.48475617,-1.3613117,1.8790177,-2.088133,-1.5696262,2.4594843,-0.15629846,0.16519085,-0.19740917,0.03464606,0.009604502,-0.17398483,-0.11492168,0.4405331,-9.883265,0.8179876,47.66091,-1.1022506,-2.330859,-3.5792375,-0.08991867,0.11475262,-0.19215718,25.0625,25.75,24.875,26.9375,27.375,27.6875
0.2620539,-0.45709434,-1.8912195,-2.460591,-0.057559535,0.081421115,-0.0791546,-0.4054258,-0.36562455,0.060067754,3.0773375,-0.6241148,-0.00028700195,-0.12242481,0.02625419,-0.003960749,-0.0077251433,-0.006153582,0.012731188,0.48443216,-1.3610231,1.8786496,-2.0881093,-1.5696143,2.4591017,-0.15799536,0.16654776,-0.19863562,0.034092616,0.009544349,-0.17063291,-0.30645782,0.36391866,-9.749189,0.8179876,47.657326,-1.0186579,-2.3136435,-3.5516038,-0.08905724,0.113764614,-0.17080188,25.0625,25.75,24.875,26.9375,27.375,27.6875
0.2640542,-0.25393254,-1.2427651,-2.3596978,-0.057929546,0.100355506,-0.089860596,-0.4056708,-0.36559543,0.06005788,3.077324,-0.62407655,-0.00023622673,-0.12413813,0.02593944,-0.0029803948,-0.009124006,-0.003238533,0.0058684438,0.4841447,-1.3606511,1.8782066,-2.0880263,-1.569578,2.4587922,-0.15879852,0.16686185,-0.20103386,0.03294817,0.009408122,-0.16457254,-0.49799395,0.30645782,-9.749189,0.87617236,47.678825,-1.0281124,-2.3442738,-3.571187,-0.07948899,0.14299801,-0.22902566,25.0625,25.75,24.875,26.9375,27.375,27.6875
0.26605442,-1.0067594,-0.9379895,-2.1317613,-0.038619336,0.09895042,-0.08142846,-0.40595153,-0.36555403,0.06008707,3.077251,-0.6240445,-0.00035498457,-0.12458578,0.026890254,-0.0040202364,-0.008131736,-0.0056608086,-0.00078007934,0.48382026,-1.3603503,1.8777736,-2.0880015,-1.5695661,2.4584572,-0.16082652,0.16898374,-0.2014792,0.033876248,0.009670004,-0.15995075,-0.4213795,0.28730422,-9.730036,0.87617236,47.698532,-1.0762312,-2.4359832,-3.6669881,-0.07300297,0.13196337,-0.29656726,25.0625,25.75,24.875,26.9375,27.375,27.6875
0.2680544,-0.61100036,-0.49270046,-2.005544,-0.03318038,0.12019313,-0.092680104,-0.40619054,-0.36551672,0.06007787,3.0772152,-0.62403494,-0.00027496315,-0.12391201,0.02601145,-0.0045660394,-0.008552131,-0.00838528,-0.0009035187,0.4835099,-1.3600026,1.8773578,-2.087917,-1.5695056,2.4581456,-0.15966468,0.17089263,-0.20300412,0.03571425,0.011305132,-0.15866539,-0.4213795,0.21068975,-9.576807,0.85826975,47.655537,-1.2139535,-2.3117337,-3.6702323,-0.10071846,0.12237809,-0.3484945,25.0625,25.75,24.875,26.9375,27.375,27.6875
0.27005452,-1.0899252,-0.17967664,-1.5827872,-0.021761231,0.10606347,-0.08167519,-0.40645096,-0.36546347,0.060087387,3.077195,-0.6240286,-0.0003444886,-0.1249452,0.025429431,-0.0040570567,-0.008643116,-0.0074680583,-0.00018970134,0.4831987,-1.35969,1.8769497,-2.087869,-1.5695175,2.4578333,-0.15928762,0.17247482,-0.2063058,0.036582727,0.010961189,-0.15900028,-0.3256114,0.076614454,-9.442732,0.8851263,47.6421,-1.211082,-2.4511733,-3.623343,-0.092983365,0.11595276,-0.39667624,25.0625,25.75,24.875,26.9375,27.375,27.6875
0.2720537,-0.7564713,0.1604846,-1.3709229,0.001349918,0.10377047,-0.094626494,-0.4067431,-0.36541373,0.06011646,3.0771484,-0.6240193,-0.00040510652,-0.1270019,0.02493253,-0.0017931453,-0.010400152,-0.004176434,-0.0019460645,0.48285103,-1.3593545,1.876459,-2.087773,-1.5695056,2.457486,-0.16016407,0.17177095,-0.21103223,0.0382866,0.010990001,-0.15811837,-0.47884035,-0.019153614,-9.289502,0.8784135,47.66987,-1.2356299,-2.2703176,-3.5191228,-0.106786475,0.116217196,-0.40898788,25.0625,25.75,24.875,26.9375,27.375,27.6875
0.2740536,-0.42945328,1.0026358,-1.3299994,0.014822965,0.08962217,-0.09978637,-0.40698606,-0.36537433,0.06010363,3.0770683,-0.6240167,-0.00037770116,-0.12865035,0.024599852,-0.00079235825,-0.011208846,-0.0024023307,0.004520283,0.48252743,-1.3590307,1.876099,-2.087773,-1.5694336,2.457171,-0.1608917,0.17273296,-0.21468301,0.03905348,0.010892873,-0.16531067,-0.34476504,-0.095768064,-9.308656,0.8605109,47.65464,-1.2748811,-2.242343,-3.3210309,-0.1267576,0.11278747,-0.3635804,25.0625,25.75,24.875,26.9375,27.375,27.6875
0.27605358,-0.21593781,0.8646063,-1.492406,0.030401438,0.08310509,-0.102751985,-0.4072329,-0.3653253,0.06007409,3.077125,-0.62398374,-0.00037354295,-0.13095404,0.025704464,4.759889e-05,-0.011737665,0.00031757492,0.010516534,0.48225096,-1.3586353,1.875677,-2.087713,-1.5694703,2.456867,-0.16417219,0.17255273,-0.21622705,0.038134657,0.010102188,-0.17458725,-0.30645782,-0.11492168,-9.212888,0.8403672,47.688675,-1.318825,-2.1128848,-3.3444648,-0.12951514,0.14184579,-0.2921189,25.0625,25.75,24.875,26.9375,27.375,27.6875
0.27805385,-0.48787728,0.5077238,-1.4134375,0.03619223,0.080912806,-0.09276048,-0.40750167,-0.36528525,0.06010931,3.0770533,-0.62390333,-0.00036045606,-0.1314674,0.025384903,0.0005209584,-0.011633694,0.00038779117,0.020354744,0.481904,-1.358335,1.8752087,-2.0875928,-1.5693983,2.456479,-0.16390625,0.1733992,-0.21874642,0.039823085,0.009999523,-0.18415825,-0.36391866,-0.11492168,-9.174581,0.83589023,47.674347,-1.3445481,-2.2502143,-3.3075142,-0.12422796,0.1564014,-0.16630432,25.0625,25.75,24.875,26.9375,27.375,27.6875
0.28005394,0.021795088,0.5893713,-1.4411466,0.013475313,0.094949365,-0.09992202,-0.4077609,-0.3652378,0.060108222,3.0770755,-0.6237703,-0.00039808254,-0.13081881,0.02570667,5.4241274e-05,-0.009921666,-0.0025082172,0.024670092,0.4816046,-1.3579868,1.8747786,-2.0875318,-1.5694102,2.456094,-0.16366725,0.17445347,-0.21976908,0.043158107,0.009840568,-0.18823418,-0.2681506,-0.076614454,-9.232041,0.8784135,47.684196,-1.3614876,-2.1550224,-3.398772,-0.15203911,0.12712502,-0.09155668,25.0625,25.75,24.875,26.9375,27.375,27.6875
0.28205404,-0.7483852,-0.054667823,-1.5855749,-0.002533039,0.08433246,-0.08233675,-0.4080012,-0.36514416,0.060074124,3.0771635,-0.62377053,-0.0002608807,-0.13151425,0.026223525,0.0004982634,-0.00946833,-0.0024992188,0.020593373,0.48124495,-1.3576152,1.8743733,-2.0873754,-1.5694221,2.4557235,-0.16476686,0.17456375,-0.2213485,0.04482818,0.009408903,-0.18525782,-0.45968673,0.019153614,-9.232041,0.800085,47.719128,-1.4180471,-2.0318127,-3.373149,-0.19983253,0.13334206,-0.09276474,25.0625,25.75,24.875,26.9375,27.375,27.6875
0.284054,-0.4320519,-0.81180495,-1.5487905,-0.013724949,0.10425541,-0.09282067,-0.40827003,-0.36512902,0.06009695,3.0770528,-0.6237515,-0.00026771077,-0.13170688,0.026296655,0.0002965846,-0.009120383,-0.0035356774,0.013968038,0.48093292,-1.3572795,1.8739041,-2.0873158,-1.5693382,2.4554138,-0.16504596,0.17568131,-0.22255543,0.046006482,0.009585645,-0.17891052,-0.40222588,0.019153614,-9.308657,0.8605109,47.70659,-1.4407898,-1.8845911,-3.383068,-0.23325586,0.15490869,-0.13788842,25.0625,25.75,24.875,26.9375,27.375,27.6875
0.28605407,-0.7340042,-0.7802553,-1.5578183,-0.03147839,0.100663446,-0.098364435,-0.40853596,-0.36506963,0.060111243,3.0770762,-0.6236846,-0.00027839065,-0.13265772,0.026665416,0.0005599215,-0.008853165,-0.0035483832,0.0038638238,0.48060837,-1.3569435,1.8734373,-2.0871837,-1.5693501,2.4550447,-0.16622819,0.17657857,-0.22456685,0.047244996,0.009341024,-0.16998784,-0.24899697,0.038307227,-9.423578,0.85826975,47.694946,-1.4363396,-1.9376316,-3.461515,-0.26110095,0.17863087,-0.22046873,25.0625,25.75,24.875,26.9375,27.375,27.6875
0.28805423,-0.1346649,-0.7396883,-1.6978477,-0.033663694,0.103180446,-0.10099514,-0.40881085,-0.36499465,0.06009776,3.0770574,-0.62381876,-0.00023207038,-0.13415478,0.027762348,-0.00019737725,-0.0081512155,-0.004556919,-0.0042325235,0.4802357,-1.3565702,1.8729967,-2.0870879,-1.5693382,2.4547584,-0.16913739,0.17916495,-0.22605205,0.047361545,0.009169971,-0.16480014,-0.17238252,0.22984336,-9.500193,0.92764956,47.658226,-1.4624743,-2.0902557,-3.4677303,-0.29310802,0.18680096,-0.3099758,25.0625,25.75,24.875,26.9375,27.375,27.6875
0.29005456,-0.26749063,-1.1221521,-1.732082,-0.026066002,0.069323294,-0.09069735,-0.40906635,-0.3649469,0.060097832,3.0770245,-0.62379587,-0.00021356152,-0.13488664,0.028040009,-0.0020369035,-0.0074351807,-0.0066436264,-0.010254222,0.47991112,-1.3562335,1.8725747,-2.0870163,-1.5693024,2.454424,-0.17031986,0.18346994,-0.2268138,0.046000727,0.009488981,-0.15995993,-0.17238252,0.22984336,-9.461885,0.83365434,47.698532,-1.3340855,-2.183938,-3.454111,-0.31283444,0.18661067,-0.4234928,25.0625,25.75,24.875,26.9375,27.375,27.6875
0.29205373,-0.20132852,-1.0808154,-1.6952022,-0.035258636,0.05640997,-0.094105035,-0.40935552,-0.36489618,0.06011973,3.076995,-0.6237906,-0.00027192736,-0.13614947,0.028286451,-0.0025598456,-0.007445047,-0.00588193,-0.012080143,0.47957447,-1.355885,1.8720835,-2.086921,-1.5693029,2.454088,-0.17149545,0.18558303,-0.22782992,0.044227064,0.00914568,-0.1593085,-0.2681506,0.28730422,-9.481039,0.88289046,47.64658,-1.2770373,-2.2144365,-3.5593467,-0.30120087,0.19212848,-0.48822623,25.0625,25.75,24.875,26.9375,27.375,27.6875
0.29405397,0.20011878,-0.8541411,-1.8333807,-0.039526805,0.057068884,-0.10739195,-0.4096466,-0.36482638,0.060115308,3.076947,-0.62389386,-0.0002615644,-0.13795978,0.029340982,-0.0028774699,-0.0069739483,-0.0061359224,-0.009902473,0.47918954,-1.3555126,1.8716286,-2.0868495,-1.5692786,2.4537737,-0.17451496,0.18781017,-0.22993413,0.044563066,0.008849243,-0.16450465,-0.076614454,0.3256114,-9.32781,0.8873621,47.66808,-1.1497357,-2.134919,-3.5062068,-0.31422028,0.1926445,-0.49324572,25.0625,25.75,24.875,26.9375,27.375,27.6875
0.2960542,0.15214095,-1.1951591,-1.8034594,-0.045922168,0.064649716,-0.10822872,-0.40992406,-0.36476406,0.06009885,3.0770102,-0.623804,-0.00026317296,-0.1386524,0.029491358,-0.0035914087,-0.0074754343,-0.0072161024,0.00020348196,0.4788655,-1.3551046,1.8711523,-2.0867536,-1.5693139,2.4533858,-0.1758249,0.18993865,-0.23084311,0.044081375,0.00979938,-0.17592035,-0.019153614,0.34476504,-9.442732,0.8940802,47.691364,-1.2137535,-2.3409808,-3.5544891,-0.32119566,0.21135099,-0.40586662,25.0625,25.75,24.875,26.9375,27.375,27.6875
0.29805446,-0.036359053,-1.9506348,-1.7010732,-0.06112649,0.08141617,-0.10271815,-0.41019443,-0.36468756,0.060093135,3.076987,-0.62384975,-0.00019854047,-0.14091197,0.029315753,-0.0028307943,-0.010010077,-0.0039766007,0.011062652,0.47848073,-1.3547564,1.8707212,-2.0866468,-1.5692776,2.4530327,-0.17782947,0.19065918,-0.23288375,0.041385293,0.010559013,-0.18878363,-0.038307227,0.34476504,-9.346964,0.9231726,47.704796,-1.1755209,-2.1905766,-3.6027794,-0.31734967,0.2092556,-0.27735108,25.0625,25.75,24.875,26.9375,27.375,27.6875
0.3000544,-0.8031248,-2.0767956,-1.7127874,-0.079373784,0.079292946,-0.09990155,-0.41050294,-0.36463997,0.060097843,3.0769095,-0.62384886,-0.00019555411,-0.14246316,0.029139483,-0.0026149938,-0.010649823,-0.0030154053,0.01666088,0.4780967,-1.3543594,1.8702182,-2.0865867,-1.5692176,2.4526582,-0.17881998,0.1926403,-0.2357853,0.041183226,0.010696187,-0.19537076,-0.1340753,0.38307226,-9.385271,0.91198283,47.661808,-1.1857077,-2.386746,-3.5893862,-0.30781728,0.21392372,-0.20014739,25.0625,25.75,24.875,26.9375,27.375,27.6875
0.3020545,-0.7224954,-2.0449924,-1.5975646,-0.06812682,0.08577342,-0.09853306,-0.41074526,-0.36457875,0.060087617,3.0769653,-0.62370735,-0.00014321196,-0.1436175,0.028896084,-0.001953355,-0.012112492,-0.0011320737,0.015847858,0.47778425,-1.3540119,1.8697952,-2.086468,-1.5692176,2.4522505,-0.17955633,0.19276167,-0.23726998,0.040203393,0.011115632,-0.19529414,-0.28730422,0.4405331,-9.346964,0.8873621,47.684196,-1.0741174,-2.3160384,-3.4797711,-0.32530802,0.2345869,-0.17017882,25.0625,25.75,24.875,26.9375,27.375,27.6875
0.3040538,-0.94421405,-1.7876579,-1.3124235,-0.060078446,0.08915655,-0.089644425,-0.41106966,-0.36451256,0.060091343,3.0769246,-0.6237232,-0.00024245298,-0.14486898,0.029245438,-0.0016984734,-0.013200243,-0.00049343717,0.007690802,0.4773996,-1.3536168,1.8693045,-2.0864441,-1.569229,2.4518812,-0.18148181,0.19337557,-0.23856848,0.039811246,0.011791391,-0.1890614,-0.49799395,0.47884035,-9.308657,0.8627467,47.66987,-1.0317097,-2.0778894,-3.585843,-0.3123129,0.23175186,-0.22047393,25.0625,25.75,24.875,26.9375,27.375,27.6875
0.3060541,-1.1452798,-1.2278991,-1.5513301,-0.04200533,0.07886978,-0.0928366,-0.41135895,-0.36446843,0.060097516,3.0768733,-0.6236773,-0.00020809841,-0.14685741,0.029220905,-0.0014268284,-0.014699539,0.0021510439,-0.00020571164,0.47703913,-1.3532327,1.8688053,-2.0863488,-1.5691694,2.4514987,-0.18308394,0.19469944,-0.2402399,0.037126485,0.011895679,-0.18276605,-0.4405331,0.30645782,-9.289502,0.8985519,47.687782,-1.1312045,-2.0934968,-3.6498003,-0.29474676,0.2287308,-0.29829276,25.0625,25.75,24.875,26.9375,27.375,27.6875
0.30805424,-0.5924132,-0.46243882,-1.5536898,-0.034823854,0.09461913,-0.1064187,-0.41165566,-0.36443233,0.060104966,3.0768301,-0.62366927,-0.00026157845,-0.1498191,0.028189387,0.0006294106,-0.018656367,0.0077200984,-0.0041197,0.47671467,-1.3528371,1.8682975,-2.0862901,-1.569157,2.451175,-0.1843668,0.1946556,-0.2443133,0.034478538,0.012849366,-0.18013293,-0.34476504,0.24899697,-9.3661175,0.90750587,47.64658,-1.086336,-2.0041237,-3.5484738,-0.2535765,0.21605593,-0.32269734,25.0625,25.75,24.875,26.9375,27.375,27.6875
0.31005448,-0.9061773,-0.62810034,-1.3721238,-0.026545847,0.09127747,-0.10022431,-0.41194394,-0.36435452,0.060072392,3.0768092,-0.6236649,-0.0001835551,-0.15125369,0.027383223,0.0014287784,-0.020030893,0.010746198,-0.0039315727,0.47630686,-1.3524284,1.8678669,-2.0862424,-1.5691093,2.4507673,-0.1840102,0.19546886,-0.246814,0.032860883,0.012675461,-0.1799639,-0.49799395,0.22984336,-9.346964,0.8672237,47.675243,-1.1608044,-2.205287,-3.4800756,-0.22998375,0.22683229,-0.38268343,25.0625,25.75,24.875,26.9375,27.375,27.6875
0.31205526,-1.3654653,-0.5233615,-1.196262,-0.016109329,0.0979998,-0.10911058,-0.4122582,-0.36431226,0.060098175,3.0767112,-0.6237006,-0.00023441664,-0.15097366,0.02612929,0.00069956965,-0.020100195,0.009435466,-0.0005294638,0.4759355,-1.3520564,1.8673428,-2.086171,-1.5690607,2.4504309,-0.1819419,0.1983606,-0.24876608,0.033067983,0.013357254,-0.18129572,-0.51714754,0.22984336,-9.289502,0.9321212,47.687782,-1.3143983,-2.0859048,-3.3884904,-0.19623286,0.22894263,-0.39491177,25.0625,25.75,24.875,26.9375,27.375,27.6875
0.31405458,-1.4952188,-0.16899873,-1.485486,-0.0071632043,0.10737282,-0.11114883,-0.41255438,-0.36428136,0.060083553,3.0766597,-0.62364477,-0.00023529286,-0.15103461,0.025849804,4.833469e-05,-0.019234832,0.008340124,0.00861571,0.47559977,-1.3516244,1.8668483,-2.086147,-1.5690135,2.450067,-0.18123704,0.20058125,-0.25019044,0.03367065,0.013114011,-0.189735,-0.51714754,0.21068975,-9.251195,0.92764956,47.687782,-1.3797331,-2.019312,-3.4176733,-0.19059715,0.21647683,-0.35807812,25.0625,25.75,24.875,26.9375,27.375,27.6875
0.3160538,-0.7676984,0.27038202,-1.4830484,-0.005294254,0.13100576,-0.117665246,-0.4128636,-0.36420625,0.06010256,3.076666,-0.62354404,-0.00029029127,-0.15182178,0.0265556,-0.0010991923,-0.01888606,0.006220589,0.017516732,0.47521526,-1.3512636,1.8663448,-2.0860393,-1.5690249,2.449619,-0.18335609,0.2034122,-0.25111344,0.03382667,0.013802802,-0.20075394,-0.24899697,0.076614454,-9.385271,0.84484416,47.70211,-1.5283177,-2.141035,-3.383758,-0.18586056,0.20932105,-0.23575,25.0625,25.75,24.875,26.9375,27.375,27.6875
0.31805426,-1.4118146,0.022886904,-1.3372848,-0.0064409412,0.103963956,-0.1162176,-0.41316777,-0.36416337,0.060077295,3.076647,-0.6234781,-0.0002904392,-0.15252797,0.026339745,-0.0006745848,-0.019030886,0.007249308,0.024304125,0.47486725,-1.3508077,1.8658451,-2.086015,-1.5690006,2.4492326,-0.18325762,0.20397216,-0.25289932,0.034094416,0.013477742,-0.20744222,-0.22984336,-0.038307227,-9.308657,0.8985519,47.68062,-1.5675399,-2.130015,-3.365993,-0.14875038,0.2088518,-0.11632797,25.0625,25.75,24.875,26.9375,27.375,27.6875
0.3200545,-0.56014115,-0.07149071,-1.1764016,-0.016154833,0.09972219,-0.10499848,-0.41347337,-0.3641016,0.060086355,3.0766416,-0.62342155,-0.00029248575,-0.1543098,0.027499631,-0.0012879424,-0.018432539,0.006173936,0.020614814,0.47449443,-1.3504112,1.8653177,-2.0858948,-1.5689887,2.4488254,-0.18654288,0.20678593,-0.25513765,0.034756064,0.013440616,-0.20703705,-0.34476504,-0.019153614,-9.155427,0.83365434,47.65464,-1.450298,-2.0381997,-3.4603558,-0.12310743,0.2390221,-0.08491644,25.0625,25.75,24.875,26.9375,27.375,27.6875
0.32205364,-0.29313323,-0.65354323,-1.2841804,-0.0029121288,0.069091894,-0.106773764,-0.41379791,-0.3640393,0.06008282,3.076613,-0.6233827,-0.0003030625,-0.15563846,0.027780911,-0.00045676067,-0.018495725,0.008018632,0.012157812,0.47409785,-1.3499799,1.8647875,-2.0858228,-1.5689653,2.4484084,-0.18750586,0.20685309,-0.2572738,0.0351548,0.012649293,-0.19954231,-0.40222588,0.095768064,-9.251195,0.93436235,47.667187,-1.3389472,-2.0851607,-3.4087589,-0.10725936,0.23115745,-0.15447116,25.0625,25.75,24.875,26.9375,27.375,27.6875
0.32405385,0.04474985,-0.14353894,-1.6236054,-0.013020737,0.052160725,-0.10471906,-0.41410127,-0.36397156,0.060078587,3.0765848,-0.62338275,-0.00035658712,-0.15681335,0.029118313,-0.00061182794,-0.017632334,0.0077899257,7.093915e-05,0.4737249,-1.3495958,1.864324,-2.0857866,-1.5689653,2.4480393,-0.19017787,0.2075913,-0.2580261,0.035756744,0.011983184,-0.19012691,-0.22984336,0.0,-9.346964,0.9634547,47.67345,-1.2763991,-2.073993,-3.452619,-0.08289401,0.2747463,-0.2688121,25.0625,25.75,24.875,26.9375,27.375,27.6875
0.32605416,0.48533502,-0.22998866,-1.5059899,-0.01711688,0.049757235,-0.11521982,-0.41441578,-0.36392003,0.060055245,3.076566,-0.6233637,-0.00027826612,-0.15774351,0.029958883,-0.0014248226,-0.016748413,0.0059113307,-0.0087865945,0.47334036,-1.3491153,1.8637732,-2.0856907,-1.5689172,2.4476454,-0.19224401,0.21016453,-0.2596489,0.036882512,0.012041133,-0.18333511,-0.19153613,-0.076614454,-9.32781,0.8717007,47.66808,-1.2626104,-2.151985,-3.6635041,-0.0818447,0.25725853,-0.38196963,25.0625,25.75,24.875,26.9375,27.375,27.6875
0.32805455,-0.50381,-1.1491266,-1.6157807,-0.0103670135,0.03217652,-0.09183289,-0.41473252,-0.36385202,0.06006208,3.076525,-0.6233776,-0.00035157808,-0.15928717,0.02997993,-0.00043484216,-0.017150816,0.007140908,-0.0151486145,0.47295615,-1.3487315,1.8632821,-2.0856426,-1.5689172,2.4472754,-0.1933162,0.21090451,-0.263209,0.038420524,0.011841519,-0.17804356,-0.2681506,0.076614454,-9.289502,0.900793,47.675243,-1.319754,-2.1282706,-3.632789,-0.07664429,0.2751672,-0.4847128,25.0625,25.75,24.875,26.9375,27.375,27.6875
0.33005393,0.5629855,-0.51471317,-1.6033696,-0.026336946,0.067668214,-0.115224585,-0.41506776,-0.3637903,0.060075488,3.076476,-0.62342423,-0.00039530185,-0.16062638,0.030491687,-0.001891665,-0.01689397,0.003494865,-0.016334679,0.47255936,-1.3483098,1.8627189,-2.0855463,-1.5689048,2.4469142,-0.19601431,0.21593337,-0.26643866,0.03998935,0.013285314,-0.17955297,-0.19153613,0.17238252,-9.346964,0.8851263,47.647476,-1.1601098,-2.3809853,-3.46161,-0.07756522,0.26694423,-0.512887,25.0625,25.75,24.875,26.9375,27.375,27.6875
0.33205438,-0.12615427,-0.75492823,-1.92102,-0.017316716,0.061269663,-0.11801747,-0.41535252,-0.3637212,0.060038693,3.0764465,-0.62346965,-0.00022409402,-0.16092956,0.03142593,-0.00231256,-0.0157841,0.001778321,-0.007228176,0.4721507,-1.3478659,1.8622397,-2.0854375,-1.5688213,2.4465377,-0.19754711,0.2169041,-0.26716787,0.041823424,0.013089864,-0.19019322,-0.095768064,0.21068975,-9.519346,0.91198283,47.661808,-1.0711229,-2.2981024,-3.4064755,-0.075842634,0.2801506,-0.45370153,25.0625,25.75,24.875,26.9375,27.375,27.6875
0.33405393,-0.51209414,-1.5142763,-1.7541381,-0.030504804,0.07442379,-0.10358575,-0.41569623,-0.36366513,0.06007844,3.076404,-0.6234338,-0.00037847707,-0.16214547,0.031308576,-0.0015303077,-0.017007967,0.0022308235,0.0052411878,0.47177845,-1.3474823,1.8616656,-2.0853536,-1.5688447,2.4461489,-0.19877718,0.21757011,-0.27012658,0.043180507,0.014019812,-0.20389013,-0.019153614,0.24899697,-9.461885,0.9298854,47.672558,-1.0281858,-2.3090746,-3.5211375,-0.074710414,0.28822014,-0.33614492,25.0625,25.75,24.875,26.9375,27.375,27.6875
0.3360544,-0.47086298,-1.6641529,-1.7278237,-0.044588838,0.08870665,-0.108543485,-0.4160279,-0.36360237,0.06006982,3.076377,-0.6233843,-0.00035965565,-0.16370878,0.031153347,-0.00056287175,-0.017819624,0.0037968112,0.014425346,0.47136986,-1.3470262,1.861113,-2.0852697,-1.5688089,2.445713,-0.19969228,0.21833555,-0.2735445,0.04410217,0.014051668,-0.21398824,-0.30645782,0.3256114,-9.308656,0.78888994,47.682407,-0.9047181,-2.2874234,-3.4282112,-0.06670567,0.27552348,-0.21233356,25.0625,25.75,24.875,26.9375,27.375,27.6875
0.33805373,-0.7222398,-1.542772,-1.7034281,-0.03949742,0.09686076,-0.10339993,-0.41634294,-0.36353576,0.06003466,3.0763707,-0.62332565,-0.00027126822,-0.16462748,0.031101972,-0.00031379884,-0.018650668,0.003559262,0.014633622,0.4709616,-1.3465465,1.8605942,-2.0851967,-1.5687603,2.445269,-0.20072699,0.21950632,-0.275848,0.04508529,0.0148969,-0.21523073,-0.47884035,0.30645782,-9.32781,0.8717007,47.645687,-0.94559205,-2.2425017,-3.2855787,-0.0722496,0.27234358,-0.16962397,25.0625,25.75,24.875,26.9375,27.375,27.6875
0.34005386,-1.545564,-1.3595283,-1.7405641,-0.04082736,0.0916581,-0.09971884,-0.41667318,-0.3634815,0.060063116,3.0763516,-0.6232085,-0.00035353506,-0.16405821,0.03007644,-0.0005068863,-0.018509675,0.0030112462,0.009571153,0.4705907,-1.3461493,1.8600234,-2.0850894,-1.5687603,2.4448278,-0.1984453,0.22068308,-0.27704355,0.04564696,0.015023095,-0.20788518,-0.7278373,0.3256114,-9.385271,0.88289046,47.64389,-1.2168483,-2.3211858,-3.3898177,-0.066593826,0.2734577,-0.22806218,25.0625,25.75,24.875,26.9375,27.375,27.6875
0.34205425,-0.855052,-1.1912506,-1.5733083,-0.040976062,0.121439986,-0.109896205,-0.41698134,-0.36341122,0.060017064,3.0763586,-0.6232324,-0.00020882081,-0.16405654,0.029297354,-0.00024432526,-0.019652816,0.0036565422,0.0038892315,0.47018313,-1.3456464,1.8594927,-2.0849817,-1.5687121,2.4444344,-0.19740409,0.2208446,-0.2778303,0.04517893,0.015722664,-0.20116292,-0.68953013,0.2681506,-9.404425,0.9254084,47.675243,-1.3610418,-2.1791873,-3.493239,-0.065337546,0.27371666,-0.31789544,25.0625,25.75,24.875,26.9375,27.375,27.6875
0.34405428,-1.3282973,-1.491163,-1.5117519,-0.03805177,0.12728,-0.10348443,-0.41733614,-0.3633366,0.06005346,3.0762746,-0.6233126,-0.0003092045,-0.1636172,0.029668145,-0.000836301,-0.018702611,0.002567359,0.00019145283,0.46975112,-1.3452629,1.8589228,-2.0848858,-1.5687002,2.4440634,-0.1972549,0.22128388,-0.27716684,0.045480218,0.015386695,-0.19731505,-0.63206923,0.2681506,-9.346964,0.8806493,47.653748,-1.4594128,-2.1812358,-3.6794763,-0.041001827,0.2755602,-0.37224716,25.0625,25.75,24.875,26.9375,27.375,27.6875
0.34605393,-0.83288896,-1.1752295,-1.7334456,-0.037052233,0.12736954,-0.09825625,-0.41764814,-0.36329067,0.060017984,3.076253,-0.62324995,-0.00019348085,-0.16467206,0.029688142,-0.0003409628,-0.019405944,0.0029514066,-0.0015826176,0.46936697,-1.3447591,1.8583721,-2.0848014,-1.5686282,2.443643,-0.19828019,0.22205746,-0.27954897,0.046445224,0.015832536,-0.19656606,-0.38307226,0.22984336,-9.308656,0.97240865,47.677036,-1.3472754,-2.006868,-3.7036037,-0.035394773,0.2789163,-0.40707126,25.0625,25.75,24.875,26.9375,27.375,27.6875
0.3480542,-0.3424748,-0.64216447,-1.6559522,-0.0334183,0.10806189,-0.11230503,-0.41797513,-0.36324868,0.059998605,3.0762432,-0.62314963,-0.00019062714,-0.16632617,0.030490065,-0.0014156195,-0.018037468,0.0016160747,0.0013623866,0.46900612,-1.3442664,1.8578037,-2.0847418,-1.5686044,2.443221,-0.20047301,0.22619066,-0.2823574,0.04695421,0.015227251,-0.20170261,-0.15322891,0.17238253,-9.32781,0.92764956,47.65106,-1.3701626,-2.1191685,-3.5292814,-0.04143443,0.2843011,-0.4084587,25.0625,25.75,24.875,26.9375,27.375,27.6875
0.3500545,-0.16259946,-0.5034861,-1.5499527,-0.019914784,0.07612649,-0.10532586,-0.41835338,-0.36319396,0.06002704,3.0761468,-0.62312293,-0.00029595083,-0.16763654,0.031024538,-0.0017200592,-0.017665042,0.0015849749,0.010779632,0.46857372,-1.3438222,1.8571857,-2.0846817,-1.5685681,2.4427845,-0.20209843,0.2282739,-0.2843157,0.04706485,0.014953906,-0.21274306,-0.24899697,0.038307227,-9.289502,0.9298854,47.66091,-1.398214,-2.1000586,-3.6078372,-0.039884586,0.27797693,-0.29843158,25.0625,25.75,24.875,26.9375,27.375,27.6875
0.352054,0.12900181,-0.46158925,-1.6282886,0.008671737,0.05543922,-0.10578027,-0.41868764,-0.36311334,0.06002961,3.0761812,-0.62302935,-0.00029741338,-0.16927975,0.031222722,-0.0007885011,-0.017951721,0.0030003975,0.019054925,0.46816534,-1.3433782,1.8566073,-2.0845377,-1.5685805,2.4423137,-0.20341127,0.22900155,-0.28769183,0.048346993,0.014587349,-0.2223306,-0.095768064,0.17238252,-9.308657,0.90750587,47.690468,-1.4061248,-2.2290998,-3.5385919,-0.021163598,0.29663098,-0.16661733,25.0625,25.75,24.875,26.9375,27.375,27.6875
0.35405418,0.38454586,0.5550232,-1.9043951,0.0062013674,0.04386437,-0.10805462,-0.41901773,-0.36302048,0.059994746,3.0762053,-0.62303334,-0.00024852145,-0.17026567,0.031491403,-0.00066957116,-0.017749837,0.0016784867,0.018946528,0.46773297,-1.342898,1.8560828,-2.0844529,-1.5685805,2.441881,-0.20475346,0.23089048,-0.29096523,0.05101015,0.015000209,-0.22356373,-0.038307227,0.095768064,-9.442732,0.9298854,47.684196,-1.3391066,-2.3882246,-3.4975882,-0.03503927,0.30316675,-0.10770196,25.0625,25.75,24.875,26.9375,27.375,27.6875
0.35605437,0.23292568,-0.096029334,-1.7665486,-0.0056866966,0.036536597,-0.10285152,-0.4193788,-0.36299795,0.06003131,3.0760925,-0.622996,-0.00029862032,-0.1716127,0.032253917,6.7323645e-06,-0.017378902,0.0013983388,0.011116071,0.46734783,-1.3424419,1.8554205,-2.0843441,-1.568508,2.441487,-0.20683722,0.23161153,-0.2941125,0.053863496,0.014808712,-0.2178149,-0.15322891,0.17238252,-9.3661175,0.8537928,47.711964,-1.2292325,-2.31653,-3.4096775,-0.05272758,0.31556556,-0.15007052,25.0625,25.75,24.875,26.9375,27.375,27.6875
0.35805365,0.26794127,-1.0953279,-1.605556,-0.017488558,0.05824417,-0.0957672,-0.41970506,-0.36291662,0.060008124,3.0761132,-0.62296873,-0.00026865516,-0.17297326,0.034103833,-0.0011017337,-0.015893888,-0.0022283453,-0.0015192392,0.46693859,-1.3419738,1.8548812,-2.0842478,-1.568508,2.4410584,-0.21103878,0.23483959,-0.29627672,0.05669262,0.015098373,-0.20938042,-0.30645782,0.15322891,-9.251195,0.8537928,47.684196,-1.0798311,-2.254891,-3.2886424,-0.08587335,0.3038767,-0.26445657,25.0625,25.75,24.875,26.9375,27.375,27.6875
0.36005372,0.17900372,-0.3030615,-1.82167,-0.037008617,0.06764054,-0.114654325,-0.42005068,-0.36285415,0.060001627,3.0761168,-0.62293607,-0.00021365768,-0.17342573,0.035226736,-0.0014506715,-0.014287165,-0.0049330057,-0.01225993,0.46653026,-1.3414694,1.854246,-2.0840905,-1.5684842,2.4406295,-0.21294358,0.2363463,-0.2982454,0.06028484,0.01486297,-0.20054448,-0.28730422,0.1340753,-9.346964,0.88960326,47.653748,-1.0583608,-2.3635385,-3.3243995,-0.13800398,0.31826183,-0.3699307,25.0625,25.75,24.875,26.9375,27.375,27.6875
0.36205378,-0.4892081,-1.2673279,-1.9681886,-0.018038541,0.068858564,-0.09785301,-0.4204161,-0.36276066,0.060004603,3.07607,-0.62304515,-0.00022990213,-0.17301321,0.036809962,-0.0021374614,-0.013155298,-0.009680893,-0.020369342,0.46606135,-1.3410138,1.8536595,-2.0839818,-1.5684718,2.440235,-0.21568955,0.23687235,-0.2984265,0.064683184,0.015989928,-0.19518027,-0.22984336,0.1340753,-9.346964,0.91198283,47.66808,-0.9399787,-2.4513125,-3.4056988,-0.20743339,0.3242251,-0.47208804,25.0625,25.75,24.875,26.9375,27.375,27.6875
0.36405385,-0.8308978,-1.1218842,-2.085228,-0.027051507,0.06374071,-0.09488356,-0.4207581,-0.36271244,0.059997905,3.0760443,-0.6229988,-0.00017560142,-0.17256157,0.036482736,-0.0029355653,-0.013233915,-0.010424291,-0.017943032,0.4656658,-1.3405097,1.8530306,-2.0838501,-1.5684236,2.4398139,-0.2148198,0.23796418,-0.29782107,0.06363302,0.016393451,-0.196737,-0.1340753,0.15322891,-9.442732,0.95002913,47.68062,-0.9433793,-2.4025917,-3.5073392,-0.22584291,0.32350406,-0.53456545,25.0625,25.75,24.875,26.9375,27.375,27.6875
0.36605385,-0.54183316,-0.8655254,-1.6201811,-0.04345412,0.0782798,-0.111515105,-0.42109823,-0.36263543,0.059988104,3.0759768,-0.6231117,-7.967408e-05,-0.17193751,0.03596041,-0.0035231924,-0.01246232,-0.011827563,-0.005447692,0.4652103,-1.3400415,1.8524522,-2.083718,-1.5683516,2.4394376,-0.2132092,0.23945701,-0.2986322,0.06460017,0.016349448,-0.20762196,-0.15322891,0.076614454,-9.385271,0.88960326,47.689575,-1.0190661,-2.3692513,-3.591731,-0.24854353,0.31582487,-0.4826547,25.0625,25.75,24.875,26.9375,27.375,27.6875
0.36805424,-0.44624797,-0.4723816,-1.3805207,-0.039280403,0.09157823,-0.10703152,-0.42145023,-0.36257264,0.059973504,3.0759616,-0.6230808,-2.8796541e-05,-0.17301847,0.035783276,-0.0020891656,-0.013554317,-0.011605053,0.0066549773,0.4647902,-1.3395258,1.8518289,-2.083597,-1.5683154,2.4390004,-0.21415953,0.23939112,-0.30269676,0.06808589,0.017245777,-0.22067386,-0.1340753,0.076614454,-9.308656,0.9365982,47.670765,-1.0888888,-2.347162,-3.5919461,-0.2904368,0.31210005,-0.34061062,25.0625,25.75,24.875,26.9375,27.375,27.6875
0.37005517,-0.03638184,0.1989,-1.7749661,-0.0013665243,0.08088137,-0.11406554,-0.42180473,-0.362512,0.05999649,3.075949,-0.62295943,-0.00010252718,-0.17489843,0.03511115,-0.0009910926,-0.015645187,-0.0070566796,0.0142538,0.46439412,-1.3390826,1.8512095,-2.0834792,-1.5683159,2.4385304,-0.21432799,0.23948269,-0.30468854,0.06500973,0.017093273,-0.22843982,0.038307227,-0.095768064,-9.481039,0.88960326,47.68062,-1.2640781,-2.2192001,-3.5303915,-0.3195339,0.31492826,-0.21926954,25.0625,25.75,24.875,26.9375,27.375,27.6875
0.37205467,-0.13326146,0.326769,-1.6318082,0.016200602,0.06483817,-0.09954582,-0.42213655,-0.36244124,0.059958104,3.0759137,-0.62297314,4.7214708e-05,-0.177046,0.03454444,0.00034696813,-0.017660597,-0.0034640408,0.0120188305,0.4639499,-1.3385668,1.8506426,-2.0833719,-1.5682319,2.4380994,-0.2150836,0.24002083,-0.30823916,0.063930064,0.017262064,-0.2269604,-0.15322891,0.019153614,-9.385271,0.94331104,47.711964,-1.2363789,-2.122725,-3.4385405,-0.30493942,0.31464493,-0.22325489,25.0625,25.75,24.875,26.9375,27.375,27.6875
0.3740542,-0.046386838,0.034767542,-1.6880041,0.023352344,0.06670584,-0.09565502,-0.4225148,-0.36238104,0.059972357,3.0758646,-0.6228697,3.301039e-05,-0.17853023,0.033066906,0.0012011587,-0.01908103,-0.00020025768,0.0063086785,0.46350634,-1.3380748,1.8499826,-2.0832522,-1.5681838,2.4375978,-0.21353702,0.24172826,-0.3120261,0.062455777,0.01706,-0.21970175,-0.38307226,0.038307227,-9.174581,0.9030289,47.664497,-1.283351,-2.1796134,-3.3378181,-0.32444704,0.31313038,-0.28729224,25.0625,25.75,24.875,26.9375,27.375,27.6875
