Tylouw/Master_Thesis_Code/training_data/batch_1/rect_rod_t0.1/sample_67_session_2.csv
timestamp[s],tcp_force_x[N],tcp_force_y[N],tcp_force_z[N],tcp_force_rx[Nm?],tcp_force_ry[Nm?],tcp_force_rz[Nm?],tcp_pose_x[m],tcp_pose_y[m],tcp_pose_z[m],tcp_pose_rx[rot_vec_x],tcp_pose_ry[rot_vec_y],tcp_pose_rz[rot_vec_z],tcp_velo_x[m/s],tcp_velo_y[m/s],tcp_velo_z[m/s],tcp_velo_rx[rot_vec_x/s],tcp_velo_ry[rot_vec_y/s],tcp_velo_rz[rot_vec_z/s],q1[rad],q2[rad],q3[rad],q4[rad],q5[rad],q6[rad],qd1[rad/s],qd2[rad/s],qd3[rad/s],qd4[rad/s],qd5[rad/s],qd6[rad/s],tool_acc_x,tool_acc_y,tool_acc_z,current_of_whole_robot[A],voltage_of_whole_robot[V],current_J1[A],current_J2[A],current_J3[A],current_J4[A],current_J5[A],current_J6[A],temp_J1[C],temp_J2[C],temp_J3[C],temp_J4[C],temp_J5[C],temp_J6[C]
7.190001e-07,-0.4257371,-0.34633613,0.086159736,-0.04301154,0.023795433,-0.010139057,-0.3893379,-0.36872232,0.06002448,-3.0787172,0.6248927,0.00023345831,0.0010940434,0.0006405508,-0.0010994633,0.00093527604,-0.0019687521,5.6050718e-05,0.50504476,-1.3816679,1.904188,-2.091892,-1.5708655,2.4800134,-0.00014063221,-0.00015613624,0.0027897304,-0.0004586437,0.00013908338,-0.00019799985,0.15322891,0.24899697,-8.714894,0.7642693,47.71554,-0.13934182,-3.039938,-2.343546,-0.21789807,0.18597806,0.0068339603,25.75,26.625,25.625,28.125,28.9375,29.3125
0.002054701,-0.6450096,-0.38910094,0.10049572,-0.0437424,0.020244164,-0.014285646,-0.38932818,-0.36870265,0.060016334,-3.078697,0.624927,0.00020926227,-0.0014422524,-0.0007708815,-0.00040102698,-0.0034857374,0.0059845936,5.4350123e-05,0.5050208,-1.3816919,1.9042357,-2.0918953,-1.5708655,2.4800134,-0.00013793797,-2.094767e-06,0.0032137556,-0.010136214,0.00013845123,-0.00019272619,0.076614454,0.24899697,-8.695741,0.75755644,47.690468,-0.12999238,-2.9669344,-2.329688,-0.17157383,0.20531201,-0.0010478895,25.75,26.625,25.625,28.125,28.9375,29.3125
0.004054415,-1.5470446,-0.94145864,0.11727043,-0.032177567,0.006473133,0.0067541627,-0.38930473,-0.36871547,0.05997439,-3.0786822,0.62480825,0.000110327295,-0.0018351426,-0.000991209,-0.002007593,-0.0029862723,0.0050743036,5.2743497e-05,0.5050568,-1.3816184,1.9042472,-2.0919077,-1.5708536,2.4799771,-0.00013534504,0.0035652053,0.0032327555,-0.012684206,0.00013562878,-0.00018770325,0.05746084,0.21068975,-8.580819,0.73069996,47.690468,-0.16411448,-3.3540206,-2.5718975,-0.07246007,0.19613025,0.01934141,25.75,26.625,25.625,28.125,28.9375,29.3125
0.006054438,-0.9868155,-0.33976468,0.0065391073,-0.025118252,-0.00028321578,-0.0006394066,-0.38932484,-0.3687168,0.059987735,-3.0787096,0.62494856,0.00018234624,-0.0007310944,-0.0003773474,-0.0012853928,-0.0011982063,0.0018716668,5.010068e-05,0.50503284,-1.3816432,1.9042591,-2.0919654,-1.5708417,2.4800372,-0.00013284784,0.002055878,0.0018952318,-0.006169377,0.00013278033,-0.00018293377,0.019153614,0.15322891,-8.542512,0.7553206,47.69763,-0.13816454,-3.359485,-2.5302916,-0.09168555,0.18701741,0.007853393,25.75,26.625,25.625,28.125,28.9375,29.3125
0.008053903,-0.45725265,0.2667137,-0.19511677,0.007116607,-0.012963944,-0.0047349683,-0.3893678,-0.36871046,0.06000815,-3.0787034,0.6250431,0.00026325326,-0.00019246577,-7.7474804e-05,-2.8695786e-05,-0.0008139712,0.0011982718,4.752879e-05,0.50499684,-1.3816319,1.904199,-2.091964,-1.5708655,2.480061,-0.00013044103,-0.00038872455,0.000987592,-0.00204188,0.00013004034,-0.00017840076,0.0,0.19153613,-8.542512,0.68146914,47.690468,-0.13143235,-3.1790557,-2.4091377,-0.121720985,0.19581592,0.00224837,25.75,26.625,25.625,28.125,28.9375,29.3125
0.010054532,-0.42120796,0.55355245,-0.6925552,0.013868014,-0.01716873,0.00069054234,-0.38932693,-0.36871356,0.059995133,-3.0786886,0.62496334,0.00017874932,0.00045845765,0.00028420112,0.00015224608,0.00018256316,-0.0005858333,4.5407236e-05,0.50503284,-1.3816442,1.9042348,-2.0919268,-1.5708536,2.4800491,-0.00012811997,-0.0010424895,0.0006626675,0.0009803588,0.0001274105,-0.0001742544,0.076614454,0.21068975,-8.829816,0.67475104,47.677036,-0.6332343,-2.5763345,-2.9823449,-0.14320312,0.19428681,-0.0796756,25.75,26.625,25.625,28.125,28.9375,29.3125
0.012054031,-0.6166874,0.1701328,-0.89848965,-0.019429175,0.0036090328,-0.0063136006,-0.3893333,-0.36870044,0.05998189,-3.078658,0.6249385,0.00017224015,-0.00085550605,0.0020571947,-0.0025345352,0.0031843951,-0.006010592,-0.0013290888,0.50501966,-1.3816184,1.9042343,-2.0919263,-1.5708774,2.4800243,-0.004343211,0.0052764555,-0.0010499667,0.0025734557,0.00012488457,-0.0030133117,0.11492168,0.15322891,-9.097966,0.71279734,47.70211,-0.82809573,-2.5276496,-3.0902905,-0.15264627,0.18458083,-0.13972124,25.75,26.625,25.625,28.125,28.9375,29.3125
0.014053641,-0.7100357,-0.63695055,-1.0538114,-0.0533726,0.034913857,-0.0125372475,-0.38931668,-0.36871746,0.0599714,-3.0786767,0.62486213,9.1033304e-05,-0.0043135425,0.0030633102,-0.004645154,0.0046528983,-0.008686905,0.002898782,0.50504154,-1.3815911,1.9042205,-2.0919025,-1.5708417,2.4799962,-0.00927562,0.013707129,-0.006141587,0.0022858712,0.00012245719,-0.012170135,0.038307227,0.11492168,-9.212888,0.7665104,47.690468,-0.4979266,-3.1774702,-3.0366142,-0.14123341,0.19318742,-0.068892606,25.75,26.625,25.625,28.125,28.9375,29.3125
0.016055724,-2.0640252,-1.5127279,-1.0583994,-0.06508975,0.039708395,-0.011285914,-0.38931817,-0.3687039,0.059963368,-3.0786629,0.6248186,5.008807e-05,-0.0054274737,0.0029233827,-0.0030156937,0.0029224057,-0.00556117,0.008296225,0.50501734,-1.3815796,1.90422,-2.0918791,-1.5708417,2.4799466,-0.010079675,0.011640306,-0.0073368377,0.0019742534,0.00012012208,-0.01837144,-0.076614454,0.19153613,-9.32781,0.7978386,47.70211,-0.53994805,-2.9711027,-3.093937,-0.12080462,0.18919975,-0.0130418725,25.75,26.625,25.625,28.125,28.9375,29.3125
0.018053599,-1.9989597,-1.1537775,-1.2052914,-0.08149433,0.0737625,-0.039395325,-0.3893244,-0.36869216,0.05994116,-3.0786402,0.62487125,-5.903622e-05,-0.00596078,0.0032187977,-0.0027903446,0.002652834,-0.005099992,0.009886959,0.50496906,-1.3815318,1.9042085,-2.0918553,-1.5708054,2.479934,-0.01108178,0.011461536,-0.007623025,0.0019055245,0.00013037019,-0.020964207,-0.3256114,0.17238252,-9.481039,0.7284641,47.71017,-0.72740614,-2.8135085,-3.337533,-0.12295489,0.19753802,-0.0073536304,25.75,26.625,25.625,28.125,28.9375,29.375
0.020053852,-2.444532,-0.9211659,-1.5163957,-0.048606735,0.07026106,-0.053607006,-0.38933006,-0.36869326,0.059929583,-3.0786147,0.62486744,-4.7767626e-05,-0.0065686624,0.0032383488,-0.0020360297,0.002994778,-0.005719429,0.007861712,0.5049808,-1.3814957,1.9041947,-2.0918663,-1.5708297,2.4799466,-0.011684939,0.011884096,-0.01057221,0.0051393774,0.00013195604,-0.019541193,-0.4213795,0.2681506,-9.481039,0.7709874,47.703903,-0.78421223,-2.6531029,-3.357008,-0.13395365,0.19289479,-0.025071159,25.75,26.625,25.625,28.125,28.9375,29.375
0.022053802,-2.1913133,-0.50804406,-1.8615313,-0.036662936,0.07413735,-0.07973141,-0.38935128,-0.3686995,0.05992699,-3.0786498,0.6248185,-6.154168e-05,-0.0073900213,0.003714949,-0.0030743612,0.0042258273,-0.007974347,0.0047343844,0.5049562,-1.3814583,1.904159,-2.0918772,-1.5708054,2.479887,-0.013264491,0.015250571,-0.012427132,0.0061974684,0.0001440817,-0.017992252,-0.5554548,0.22984336,-9.557653,0.7463667,47.711063,-0.8594894,-2.6519136,-3.3845007,-0.14646308,0.18079163,-0.09354146,25.75,26.625,25.625,28.125,28.9375,29.375
0.024053808,-2.4916868,-0.7489028,-1.9021252,-0.0324407,0.06303406,-0.09090416,-0.3893451,-0.36865386,0.05989797,-3.0785468,0.6248368,-0.00015307534,-0.008981186,0.00383879,-0.0032468685,0.0039412435,-0.0074956263,0.0029171344,0.5049078,-1.3814336,1.9041823,-2.0918176,-1.5708417,2.4798632,-0.014968842,0.01752698,-0.014566258,0.005502868,0.00015296078,-0.017878074,-0.6512229,0.21068975,-9.691729,0.7105615,47.687782,-0.85665244,-2.7536044,-3.383953,-0.13781399,0.1787147,-0.08472476,25.75,26.625,25.625,28.125,28.9375,29.375
0.026053678,-2.3879845,-1.1240733,-1.8501066,-0.045864232,0.07709259,-0.109293245,-0.38935527,-0.36865464,0.05988145,-3.0785224,0.6247949,-0.00018332868,-0.01004949,0.0045231767,-0.003802539,0.004160418,-0.007947587,0.0005736444,0.504907,-1.3813729,1.9041456,-2.0918062,-1.5708536,2.4798393,-0.017135274,0.019181775,-0.015122206,0.0049053337,0.00017656591,-0.01770051,-0.6895301,0.21068975,-9.825804,0.7866488,47.693153,-0.81470835,-2.7504358,-3.345633,-0.11151679,0.1893481,-0.09261084,25.75,26.625,25.625,28.125,28.9375,29.375
0.028053572,-3.1152246,-1.5430855,-1.8614933,-0.057371326,0.08459711,-0.11182254,-0.3893689,-0.3686524,0.059876367,-3.0785203,0.62477475,-0.00022355544,-0.010645119,0.0042286715,-0.003566344,0.0039522066,-0.007569396,-0.0005693384,0.50488305,-1.3813367,1.9041089,-2.0917823,-1.5708417,2.479803,-0.017194616,0.02005468,-0.016769417,0.0052483086,0.00017278505,-0.016616091,-0.7661445,0.17238253,-9.825804,0.7105615,47.71286,-0.8852066,-2.7492929,-3.3909721,-0.10573547,0.19962385,-0.118319765,25.75,26.625,25.625,28.125,28.9375,29.375
0.030053323,-3.3934207,-1.3560207,-1.6994988,-0.06094292,0.09368991,-0.122690134,-0.38941404,-0.36864614,0.059890117,-3.0785213,0.6249311,-0.00019371096,-0.011128296,0.0044007446,-0.0030143408,0.003811325,-0.0073523885,-0.0022201918,0.5048228,-1.3813127,1.9040493,-2.0917819,-1.5708297,2.4798403,-0.017946035,0.019735735,-0.017925387,0.0064654127,0.00019177802,-0.01571639,-0.9002198,0.095768064,-9.787497,0.7486078,47.70032,-0.8994529,-2.6955738,-3.392856,-0.13456987,0.19925764,-0.13239643,25.75,26.625,25.625,28.125,28.9375,29.375
0.032054473,-3.0973144,-1.3952233,-1.9204376,-0.031375416,0.097890496,-0.13190848,-0.38941473,-0.36863413,0.059841,-3.0784745,0.6248629,-0.0003621875,-0.01229192,0.0042830273,-0.0025514027,0.0034691545,-0.0067816693,-0.0032953161,0.50478673,-1.3812041,1.9040245,-2.0917456,-1.5708054,2.4797676,-0.018847873,0.020836448,-0.020454006,0.00722864,0.00020941319,-0.015542036,-0.80445176,0.076614454,-9.787497,0.7530795,47.684196,-0.8525392,-2.6947818,-3.413736,-0.13875346,0.19328545,-0.17241141,25.75,26.625,25.625,28.125,28.9375,29.375
0.034054305,-2.1049078,-0.6374994,-1.8585683,-0.01189918,0.116125174,-0.14658569,-0.3894452,-0.3686385,0.0598475,-3.0785005,0.6248684,-0.0003725766,-0.013519597,0.00403942,-0.0022843212,0.002520619,-0.0058644526,-0.0030353311,0.5047504,-1.3811677,1.9039639,-2.0917337,-1.5707811,2.4797313,-0.019822914,0.022067768,-0.02239191,0.0066725654,0.00059002463,-0.01677672,-0.7086837,0.076614454,-9.749189,0.7642693,47.691364,-0.8999139,-2.708778,-3.4243302,-0.110813215,0.18559563,-0.17103231,25.75,26.625,25.625,28.125,28.9375,29.375
0.03605393,-2.3466725,-0.30010444,-1.9068565,0.0006931923,0.08441465,-0.13561948,-0.38948312,-0.36864346,0.059851088,-3.0785205,0.6247953,-0.00030566927,-0.01472788,0.0038042658,-0.0017416002,0.0015301405,-0.00452796,-0.0026495943,0.5047381,-1.3811195,1.9039043,-2.091758,-1.570805,2.479671,-0.020690585,0.022718547,-0.024310924,0.00629067,0.0008057071,-0.018029572,-0.49799395,-0.019153614,-9.653421,0.7553206,47.703903,-0.93594337,-2.707922,-3.4241598,-0.11957915,0.18503976,-0.18619312,25.75,26.625,25.625,28.125,28.9375,29.375
0.038053785,-2.5327024,-0.2996922,-1.8779639,-0.0009652098,0.057907026,-0.123968795,-0.38949776,-0.368597,0.059823927,-3.078444,0.6248563,-0.00039258314,-0.015782354,0.004336818,-0.0017828579,0.001260082,-0.0039875256,-0.0032202164,0.50465363,-1.3810834,1.9039153,-2.0917222,-1.5708169,2.4796343,-0.022553137,0.023319809,-0.024755934,0.005530584,0.00077560544,-0.019321157,-0.47884035,-0.11492168,-9.691729,0.75755644,47.716442,-0.9376824,-2.6597934,-3.4066548,-0.08985357,0.18195218,-0.18312448,25.75,26.625,25.625,28.125,28.9375,29.375
0.040053755,-1.2492777,-0.06634982,-1.6676137,-0.0151069965,0.07451155,-0.13840365,-0.38955852,-0.36862054,0.059844352,-3.0784798,0.6249221,-0.0003336935,-0.01736303,0.004766892,-0.0012661536,0.00078372244,-0.0031538343,-0.0040723514,0.50462896,-1.3810109,1.9037832,-2.0917222,-1.570805,2.4796462,-0.024758434,0.024021514,-0.026864246,0.0059771677,0.000786508,-0.02067337,-0.47884035,-0.17238252,-9.749189,0.7732232,47.703007,-0.8549853,-2.7001386,-3.407102,-0.07585928,0.19074145,-0.1776469,25.75,26.625,25.625,28.125,28.9375,29.375
0.042053685,-1.9471992,-0.75130194,-1.7804849,-0.016021812,0.047310214,-0.11660826,-0.38959926,-0.36858693,0.059833776,-3.0784292,0.62495005,-0.0003268778,-0.018564995,0.004407698,-0.00081299443,0.00033008528,-0.0021961634,-0.004334135,0.5045569,-1.3809624,1.903747,-2.0917094,-1.5708412,2.479598,-0.025231356,0.02535795,-0.029540092,0.0062584854,0.00071465643,-0.02088312,-0.22984336,-0.076614454,-9.653421,0.75755644,47.696735,-0.8903136,-2.7158499,-3.3611937,-0.07272479,0.18173367,-0.19779325,25.75,26.625,25.625,28.125,28.9375,29.375
0.044053618,-1.2906425,-0.5864519,-1.6994694,-0.028578324,0.057938404,-0.12904517,-0.38964838,-0.36858267,0.059848856,-3.0784647,0.6249765,-0.00028134708,-0.019334504,0.0047179656,-0.0008807481,0.00073098496,-0.0027906059,-0.0043479805,0.5044967,-1.3809378,1.9036864,-2.0917213,-1.5708297,2.47955,-0.026430102,0.026637234,-0.03113111,0.007284751,0.0006504249,-0.022067126,-0.22984336,0.0,-9.576807,0.75755644,47.690468,-0.8613325,-2.6829965,-3.3005962,-0.0795092,0.17699535,-0.21501295,25.75,26.625,25.625,28.125,28.9375,29.375
0.046054356,-1.0594354,-0.6892801,-1.5256411,-0.02772954,0.05556233,-0.12829536,-0.3896654,-0.36857975,0.059823837,-3.0784452,0.6249704,-0.00037807928,-0.019194515,0.0051006386,-0.0014125664,0.0017913715,-0.0045991354,-0.0029323811,0.50446063,-1.3808535,1.9036382,-2.0916975,-1.5708054,2.4795125,-0.02690885,0.02770346,-0.03150006,0.008683804,0.0005965078,-0.023961242,-0.15322891,0.05746084,-9.595961,0.76874626,47.689575,-0.8772109,-2.6925879,-3.3732018,-0.076415055,0.19924521,-0.22242394,25.75,26.625,25.625,28.125,28.9375,29.375
0.048053887,-1.0002664,-0.67450833,-1.5832793,-0.028339937,0.04544484,-0.12680654,-0.38972217,-0.3685663,0.059834577,-3.0784388,0.6249883,-0.00032465925,-0.020538805,0.005321587,-0.0011636548,0.0013123347,-0.0036469963,-0.0024982707,0.50440013,-1.3808051,1.9035538,-2.0916855,-1.5708297,2.479464,-0.028505076,0.02862765,-0.033063814,0.008257645,0.0005508323,-0.025990652,0.0,0.19153613,-9.519346,0.6926589,47.703007,-0.9032514,-2.6653247,-3.4023128,-0.07306928,0.18112385,-0.24779677,25.75,26.625,25.625,28.125,28.9375,29.375
0.050053403,-0.9347177,-0.80986214,-1.6670203,-0.03200154,0.030914342,-0.118960924,-0.38975558,-0.36856052,0.059831608,-3.0784404,0.62495065,-0.00036550045,-0.022827936,0.00541556,-7.257648e-05,-1.2710822e-05,-0.0011837861,-0.0031213588,0.5043514,-1.3807449,1.9034814,-2.0916498,-1.5708174,2.4793916,-0.030774957,0.029228672,-0.03619994,0.007996212,0.0005116574,-0.027635986,0.038307227,0.21068975,-9.5385,0.7396539,47.667187,-0.7817041,-2.628769,-3.329665,-0.06923836,0.19201556,-0.2396019,25.75,26.625,25.625,28.125,28.9375,29.375
0.052054103,-0.89476633,-1.0918206,-1.6130881,-0.03645858,0.019581113,-0.12181915,-0.38980988,-0.3685495,0.05984935,-3.0784547,0.62508726,-0.00034784863,-0.02367471,0.0056599583,4.481287e-05,-0.00010675679,-0.0009472401,-0.00209359,0.5042672,-1.3807205,1.9034094,-2.0916374,-1.5707935,2.4793909,-0.031951617,0.029943485,-0.03735546,0.008184997,0.00047768955,-0.02983977,0.038307227,0.24899697,-9.442732,0.7620334,47.687782,-0.81377,-2.6830502,-3.2605374,-0.061590362,0.19512746,-0.251481,25.75,26.625,25.625,28.125,28.9375,29.375
0.054053746,-1.1961843,-1.3625469,-1.7309834,-0.042102236,0.0123730125,-0.116468735,-0.3898702,-0.3685336,0.059856527,-3.0784662,0.6250892,-0.00023908858,-0.024386302,0.006101239,8.462946e-05,7.143619e-05,-0.0012067562,-0.0025648158,0.5042068,-1.3806844,1.9033612,-2.0916855,-1.5708297,2.4793303,-0.033336002,0.030559365,-0.038326442,0.008852353,0.00044795344,-0.030752426,-0.05746084,0.30645782,-9.3661175,0.7620334,47.694946,-0.7227428,-2.5967214,-3.3243392,-0.07453689,0.20567836,-0.25334686,25.75,26.625,25.625,28.125,28.9375,29.375
0.056054167,-1.2717991,-1.8129562,-1.5519886,-0.050988954,0.01830871,-0.11268124,-0.3899293,-0.36850747,0.05984565,-3.0784137,0.6250589,-0.0002875013,-0.0259215,0.006331763,0.0005919141,-0.0006039414,5.7174006e-05,-0.003083503,0.50412244,-1.380576,1.9032415,-2.0916135,-1.5708536,2.4792337,-0.035136346,0.031243367,-0.04024837,0.008656554,0.0004217031,-0.032033157,0.019153614,0.3256114,-9.442732,0.70608455,47.691364,-0.7706714,-2.5503435,-3.358798,-0.054580837,0.18374231,-0.25539094,25.75,26.625,25.625,28.125,28.9375,29.375
0.058053814,-0.7480482,-1.3447894,-1.5375673,-0.066697896,0.04221053,-0.11809367,-0.38998094,-0.3685021,0.059858985,-3.078431,0.6251005,-0.00029912285,-0.026087424,0.006614185,0.00030224866,0.00014064483,-0.0012425709,-0.0019992304,0.50405025,-1.3805276,1.9031457,-2.0915768,-1.5708297,2.4791853,-0.035747636,0.03231049,-0.041155316,0.009994758,0.00039836092,-0.033728275,0.05746084,0.30645782,-9.385271,0.72622824,47.679718,-0.6837981,-2.5346854,-3.385703,-0.051324733,0.19719881,-0.26545027,25.75,26.625,25.625,28.125,28.9375,29.375
0.060053676,-1.6195132,-1.672923,-1.4944528,-0.05545334,0.03090835,-0.11266373,-0.390022,-0.3684994,0.059870664,-3.0784564,0.62500805,-0.0002584526,-0.026382182,0.005888896,0.0009124181,-3.9260995e-05,-0.0008764466,0.00013739734,0.5040148,-1.3804915,1.9030737,-2.091565,-1.5708417,2.479089,-0.034786787,0.032909647,-0.043572955,0.011405282,0.0003774696,-0.034903076,-0.038307227,0.4213795,-9.3661175,0.6971306,47.698532,-0.8876027,-2.4924884,-3.3176904,-0.07833334,0.19769184,-0.2784579,25.75,26.625,25.625,28.125,28.9375,29.375
0.062053606,-1.2852594,-1.4568058,-1.4083538,-0.042195026,0.04415375,-0.114560544,-0.390108,-0.3684825,0.05989103,-3.078472,0.6250886,-0.00020153489,-0.027548494,0.0065540886,0.00088861125,4.350786e-05,-0.00091023045,-0.00088875386,0.50390613,-1.380431,1.902953,-2.0915525,-1.5708417,2.4790287,-0.03695137,0.03386633,-0.04470776,0.011653052,0.00032065975,-0.036040805,0.0,0.38307226,-9.346964,0.6859408,47.64927,-0.85670763,-2.493867,-3.3251243,-0.07205077,0.21561244,-0.29666805,25.75,26.625,25.625,28.125,28.9375,29.375
0.064053446,-1.5714432,-1.2422184,-1.4400939,-0.04103629,0.03579894,-0.10852782,-0.39015865,-0.3684792,0.05987549,-3.0784576,0.6251239,-0.00024400627,-0.028641848,0.0067820684,0.000830626,-2.3994045e-05,-0.000849448,-0.0014360548,0.50384575,-1.3803225,1.9028572,-2.09154,-1.5708297,2.4789922,-0.03836657,0.03530757,-0.046298064,0.011716546,0.00034587635,-0.036907896,-0.019153614,0.30645782,-9.251195,0.7105615,47.687782,-0.795758,-2.4866126,-3.3340158,-0.0768622,0.19562076,-0.31621736,25.75,26.625,25.625,28.125,28.9375,29.375
0.06605431,-1.1126431,-1.1099463,-1.3320684,-0.033725295,0.04342834,-0.120115116,-0.3902224,-0.36844417,0.059885833,-3.0784311,0.62515587,-0.00019357305,-0.029508604,0.006866833,0.0009838291,-0.00031293803,-0.0004919493,-0.00077479635,0.50374967,-1.3802861,1.9027852,-2.0915163,-1.5708655,2.4789195,-0.03936052,0.036121715,-0.047623444,0.011773374,0.00042346562,-0.038562577,-0.076614454,0.2681506,-9.32781,0.81351066,47.67614,-0.81035686,-2.4566455,-3.3532677,-0.07967827,0.21909493,-0.3424198,25.75,26.625,25.625,28.125,28.9375,29.375
0.06805429,-1.5195316,-1.0861852,-1.2290812,-0.0332973,0.03417879,-0.11267745,-0.39024073,-0.36844376,0.059861593,-3.0784383,0.62511724,-0.00031305378,-0.030584415,0.0064128814,0.0018103501,-0.0020938932,0.00076330086,0.0013419528,0.5037015,-1.380202,1.9027356,-2.0914924,-1.5708169,2.4788463,-0.040187478,0.03623235,-0.049621977,0.01170038,0.001369501,-0.041507214,-0.17238252,0.21068975,-9.289502,0.7463667,47.716442,-0.78145784,-2.4307086,-3.3277507,-0.05905786,0.2055349,-0.33175862,25.75,26.625,25.625,28.125,28.9375,29.375
0.07005428,-0.95553476,-0.2776657,-1.3031884,-0.039420515,0.053896468,-0.12379887,-0.3903082,-0.36844546,0.059872855,-3.078468,0.62504697,-0.00028670148,-0.031604037,0.006220921,0.0018961782,-0.0030741554,0.00071949686,0.0014070596,0.50364107,-1.3801174,1.9026045,-2.0914686,-1.5708164,2.4787383,-0.041355878,0.037665028,-0.051521055,0.011728802,0.0022457396,-0.042741287,-0.2681506,0.19153613,-9.3661175,0.7978386,47.690468,-0.84866524,-2.3643456,-3.3450294,-0.06377226,0.20085883,-0.32945308,25.75,26.625,25.625,28.125,28.9375,29.375
0.07205407,-1.552803,-0.46993753,-1.3223838,-0.024517957,0.048958708,-0.117003225,-0.39039934,-0.36843628,0.05989365,-3.0785,0.62505203,-0.00025658053,-0.0323533,0.0061802273,0.001311299,-0.0031102202,-3.0524505e-05,0.0005042952,0.5035332,-1.3800324,1.9024485,-2.0914333,-1.5708045,2.4786296,-0.04222148,0.039971363,-0.052842263,0.01138254,0.0026373025,-0.042703807,-0.21068975,0.095768064,-9.32781,0.7642693,47.689575,-0.8159844,-2.3786874,-3.3529224,-0.06955725,0.17785779,-0.35419884,25.75,26.625,25.625,28.125,28.9375,29.375
0.0740541,-1.4629936,-0.31996846,-1.3906375,-0.031129202,0.0683541,-0.11815958,-0.39047083,-0.36839804,0.059895806,-3.0784798,0.62508583,-0.00019318372,-0.032898776,0.0067083347,0.00087264477,-0.0025863275,-0.001224721,0.002374164,0.5034248,-1.379984,1.9023889,-2.0914443,-1.5708407,2.478545,-0.04368443,0.041325692,-0.0536085,0.012091075,0.002754676,-0.046036325,-0.22984336,0.019153614,-9.32781,0.7911258,47.661808,-0.853704,-2.4961357,-3.4055445,-0.07019161,0.18063363,-0.35023212,25.75,26.625,25.625,28.125,28.9375,29.375
0.07605359,-1.3851866,-0.41821733,-1.1628042,-0.016501773,0.07808144,-0.11629621,-0.39051998,-0.36841464,0.059896976,-3.0785124,0.6250337,-0.0002707986,-0.03490697,0.0058867866,0.0020786047,-0.0037442204,0.001170286,0.0042974805,0.50337684,-1.3798755,1.9022444,-2.0913846,-1.5707926,2.4784603,-0.04407402,0.04283471,-0.058250163,0.012569932,0.0026028266,-0.048346963,-0.2873042,0.076614454,-9.289502,0.7284641,47.677036,-0.8463413,-2.4435143,-3.2180743,-0.06853364,0.18931453,-0.35074657,25.75,26.625,25.625,28.125,28.9375,29.375
0.07805424,-1.663032,0.085765354,-1.3111212,-0.023724882,0.06403233,-0.12333478,-0.39057747,-0.36838612,0.05988841,-3.0785058,0.6250297,-0.0003135041,-0.03519796,0.007725463,0.0009168169,-0.0021501994,-0.0015132563,0.0060249474,0.5032678,-1.379803,1.9021724,-2.0913599,-1.5707806,2.4783497,-0.047368124,0.043760773,-0.0568952,0.013409336,0.0025030174,-0.053368915,-0.36391866,0.038307227,-9.270349,0.7620334,47.7245,-0.7602526,-2.5015821,-3.2831354,-0.07785022,0.16460049,-0.33082652,25.75,26.625,25.625,28.125,28.9375,29.375
0.08005391,-1.49552,-0.48826274,-1.2832144,-0.011563119,0.06640821,-0.11473653,-0.3906667,-0.36837697,0.05990661,-3.078526,0.62499547,-0.00023198557,-0.035583675,0.0072311056,0.00061563455,-0.0021443856,-0.0021509756,0.0067917868,0.50318414,-1.3797184,1.9020284,-2.0913484,-1.5708045,2.4782422,-0.047075324,0.045789488,-0.058686227,0.013730926,0.0028046996,-0.053842355,-0.4213795,0.05746084,-9.481039,0.77545905,47.67614,-0.76492524,-2.3583148,-3.3342128,-0.089824975,0.16789141,-0.32260633,25.75,26.625,25.625,28.125,28.9375,29.375
0.0820533,-1.6205325,-0.5974162,-1.2694986,-0.014109025,0.06314429,-0.11240174,-0.39073268,-0.36837456,0.059900757,-3.0785627,0.6249619,-0.00029557233,-0.036262795,0.00652265,0.000978155,-0.0026994168,-0.001593428,0.0098686665,0.5030886,-1.3796098,1.9019078,-2.0913246,-1.5707563,2.478121,-0.04663992,0.04705314,-0.061100744,0.0141276745,0.0030163007,-0.05648311,-0.4213795,-0.076614454,-9.3661175,0.71279734,47.653748,-0.9374012,-2.5179944,-3.3073318,-0.09298955,0.1828498,-0.32637888,25.75,26.625,25.625,28.125,28.9375,29.375
0.08405411,-2.1974657,-0.5158386,-1.2904805,-0.01828778,0.05212288,-0.105998114,-0.39079228,-0.36832964,0.059878893,-3.0784905,0.6249844,-0.00033168588,-0.03811957,0.0069375457,0.0017577161,-0.0036679965,-0.0005449922,0.011413942,0.50297976,-1.3795135,1.9018353,-2.0912879,-1.5707921,2.4780354,-0.049267128,0.047606833,-0.06367834,0.0147628,0.003350493,-0.06065533,-0.45968673,-0.1340753,-9.32781,0.75084364,47.698532,-0.8454845,-2.3836367,-3.164098,-0.09184441,0.16731466,-0.2888428,25.75,26.625,25.625,28.125,28.9375,29.375
0.08605402,-2.0547638,-0.5110943,-1.2302475,-0.018897992,0.061119486,-0.11320916,-0.39086407,-0.36834857,0.059885535,-3.0785604,0.62490153,-0.00038220437,-0.03784067,0.008271329,2.6862988e-05,-0.001916699,-0.0043674735,0.01303185,0.5029073,-1.3793926,1.9016689,-2.0912516,-1.570732,2.4779024,-0.051436197,0.049631275,-0.06232631,0.015582257,0.0036625597,-0.06444316,-0.4405331,0.019153614,-9.289503,0.78888994,47.694946,-0.8492038,-2.446602,-3.3332388,-0.10631439,0.15804794,-0.23705207,25.75,26.625,25.625,28.125,28.9375,29.375
0.08805348,-1.9991081,-0.7195554,-1.2642628,-0.023921963,0.07000086,-0.11139502,-0.39095792,-0.3683271,0.059913903,-3.0785923,0.6248102,-0.0003002753,-0.03984329,0.008421072,0.00067648885,-0.0028671466,-0.0029130136,0.014295564,0.5027987,-1.3793322,1.9015249,-2.0912163,-1.5707558,2.477733,-0.053619247,0.050829116,-0.06521464,0.015538515,0.0037898787,-0.06788862,-0.34476504,0.11492168,-9.32781,0.7172743,47.701214,-0.69836485,-2.4676967,-3.3099737,-0.11341061,0.12956126,-0.18434161,25.75,26.625,25.625,28.125,28.9375,29.375
0.090054266,-1.7926322,-0.7215543,-1.3326918,-0.027244812,0.07369476,-0.11427632,-0.39106467,-0.36829937,0.05992413,-3.0785832,0.62484324,-0.000246668,-0.039538756,0.00732556,0.0011108345,-0.0030205643,-0.0022414322,0.019120088,0.50266784,-1.379224,1.901368,-2.091192,-1.5707802,2.477624,-0.051361572,0.051131614,-0.06667883,0.016037157,0.003599542,-0.07045446,-0.3256114,0.11492168,-9.289503,0.784413,47.684196,-0.90069693,-2.426618,-3.3430898,-0.14674895,0.14537762,-0.15656239,25.75,26.625,25.625,28.125,28.9375,29.375
0.09205341,-2.3414786,-1.1533569,-1.4724417,-0.023145035,0.065544866,-0.10660373,-0.39112905,-0.3682844,0.059918057,-3.0786,0.6247122,-0.0002636426,-0.040597744,0.008240712,-0.0004004416,-0.0015438825,-0.003926059,0.018965904,0.5025831,-1.3791267,1.9012612,-2.0911682,-1.5707806,2.4774554,-0.053574596,0.054678604,-0.06726953,0.015270389,0.0031121988,-0.07251163,-0.40222588,0.15322891,-9.346964,0.7284641,47.682407,-0.87376726,-2.4819746,-3.3107033,-0.14272748,0.13431504,-0.115917504,25.75,26.625,25.625,28.125,28.9375,29.375
0.094054066,-2.223951,-1.0774151,-1.3392584,-0.032444373,0.06828932,-0.10064642,-0.39122856,-0.36824936,0.059915382,-3.0785878,0.6246903,-0.00026582062,-0.042073198,0.008463913,0.0006892833,-0.0024853593,-0.0017167005,0.018497756,0.50243896,-1.3790066,1.9011172,-2.0911324,-1.5707926,2.4772992,-0.055154517,0.05405576,-0.06901225,0.0152466735,0.0028679417,-0.07362241,-0.28730422,0.22984336,-9.385271,0.7486078,47.684196,-0.8468949,-2.5661922,-3.3475504,-0.16659282,0.123504266,-0.09998002,25.75,26.625,25.625,28.125,28.9375,29.375
0.09605334,-1.1053499,-0.95163846,-1.4437866,-0.0464754,0.086571224,-0.11358214,-0.3912953,-0.36824268,0.059894968,-3.0785964,0.6246333,-0.00035965772,-0.043209217,0.008164288,0.001375802,-0.0033035746,0.00056702876,0.01810685,0.50234306,-1.3788626,1.9009851,-2.091097,-1.5707563,2.4771667,-0.055451788,0.05419919,-0.0705184,0.014218259,0.0024763234,-0.073527485,-0.3256114,0.24899697,-9.404425,0.7866488,47.67345,-0.86674905,-2.3992982,-3.3337026,-0.14755593,0.13898851,-0.08131371,25.75,26.625,25.625,28.125,28.9375,29.375
0.09805418,-1.8450011,-1.2996262,-1.340089,-0.047552206,0.0583302,-0.10870817,-0.3913657,-0.36823776,0.059890337,-3.0786216,0.6245626,-0.00042744318,-0.044022694,0.008328311,0.00095526903,-0.0026459761,-4.7118043e-05,0.016817126,0.50224704,-1.3787417,1.9008416,-2.0910485,-1.5707206,2.4770234,-0.056295868,0.056339525,-0.0721901,0.01460844,0.0021912956,-0.07308042,-0.30645782,0.24899697,-9.346964,0.74413085,47.68599,-0.9187614,-2.38868,-3.4018707,-0.16673124,0.1467958,-0.07135692,25.75,26.625,25.625,28.125,28.9375,29.375
0.10005391,-1.6563286,-1.3269486,-1.5472492,-0.039825194,0.04917776,-0.10109428,-0.39148915,-0.36818367,0.059895333,-3.0785983,0.6245192,-0.00033940453,-0.044473313,0.008602904,-0.00034492547,-0.0011976205,-0.001845029,0.015036252,0.50207907,-1.3786324,1.9006981,-2.0910366,-1.5707811,2.4768314,-0.056908622,0.05965869,-0.07314692,0.014516696,0.0017868865,-0.071910605,-0.22984336,0.30645782,-9.32781,0.7642693,47.678825,-0.9079771,-2.5618174,-3.3530145,-0.17421326,0.1512146,-0.075038314,25.75,26.625,25.625,28.125,28.9375,29.375
0.10205377,-1.0414749,-1.1993347,-1.6214561,-0.040111467,0.054218605,-0.109834805,-0.39158222,-0.36818236,0.05989578,-3.078627,0.62450624,-0.000321658,-0.04576526,0.008537144,0.0010555083,-0.0024276332,0.00095951254,0.012890217,0.501983,-1.3785008,1.9005412,-2.0910366,-1.5707692,2.4767237,-0.05781256,0.058417182,-0.07484571,0.0144087635,0.0015138618,-0.07066749,-0.11492168,0.2681506,-9.423578,0.7732232,47.684196,-0.9506711,-2.4570696,-3.3852668,-0.18088949,0.16636102,-0.103240475,25.75,26.625,25.625,28.125,28.9375,29.375
0.10405347,-1.5538743,-1.5536485,-1.6183368,-0.03240083,0.03188294,-0.10135809,-0.39165285,-0.36817056,0.05988281,-3.0786457,0.6244726,-0.00038921193,-0.046456512,0.008794779,0.0006487356,-0.0021367606,0.00071352004,0.010253924,0.5018749,-1.3783802,1.9004225,-2.0910132,-1.570733,2.4765923,-0.05878865,0.059887234,-0.075583324,0.014035234,0.0013737138,-0.06900652,-0.038307227,0.22984336,-9.404425,0.83589023,47.687782,-0.9701621,-2.3732283,-3.4234748,-0.18091044,0.15165132,-0.1322774,25.75,26.625,25.625,28.125,28.9375,29.375
0.106054306,-0.5654586,-0.93862367,-1.6456538,-0.051770788,0.0400142,-0.10399895,-0.39175296,-0.36816165,0.05991285,-3.0786939,0.62438697,-0.00033394966,-0.047152143,0.008711411,0.00024592568,-0.0016617639,3.067011e-05,0.008389332,0.50176704,-1.3782953,1.9002427,-2.0909646,-1.570733,2.476425,-0.05922567,0.06214418,-0.07744128,0.014463934,0.0012864616,-0.067577675,0.0,0.2681506,-9.385271,0.800085,47.684196,-1.0158675,-2.4939384,-3.412016,-0.19551803,0.16678888,-0.14817382,25.75,26.625,25.625,28.125,28.9375,29.375
0.1080542,-1.1531107,-1.0556648,-1.6530766,-0.051446643,0.020076452,-0.09443078,-0.391876,-0.3681322,0.059912674,-3.0786629,0.6244964,-0.0003207248,-0.048194624,0.0089302445,0.0003697947,-0.0015647742,0.00029672676,0.0061637335,0.501611,-1.3781388,1.9000496,-2.0909288,-1.5707453,2.4763412,-0.060407486,0.063291825,-0.07918411,0.014872711,0.0010711419,-0.06653269,0.038307227,0.22984336,-9.3661175,0.7709874,47.694946,-1.0363694,-2.4705698,-3.408886,-0.1856691,0.16994482,-0.1707412,25.75,26.625,25.625,28.125,28.9375,29.375
0.11005414,-0.5263375,-0.99730164,-1.7673632,-0.043556567,0.024352206,-0.10744893,-0.39194995,-0.36810693,0.059905384,-3.0786297,0.62449026,-0.00032569168,-0.050443158,0.008309234,0.0018443847,-0.0031136898,0.0030339388,0.004146506,0.50151473,-1.3780302,1.8999294,-2.090893,-1.5707692,2.4762454,-0.061457247,0.06424697,-0.08379149,0.015378643,0.0011033324,-0.065563366,0.038307227,0.22984336,-9.481039,0.7777002,47.67345,-1.0368645,-2.4793234,-3.3899233,-0.1921218,0.15933664,-0.19616435,25.75,26.625,25.625,28.125,28.9375,29.375
0.1120539,-0.36962572,-0.88607395,-1.8076872,-0.043470696,0.028913498,-0.11373819,-0.3920459,-0.36809212,0.059878822,-3.0786495,0.6243786,-0.00044907662,-0.050280526,0.008913985,0.00039081866,-0.0018763033,0.0007158146,0.0030171569,0.50137085,-1.3778374,1.8997506,-2.0908453,-1.570721,2.4760294,-0.062323023,0.06638186,-0.08294703,0.0150301065,0.0011300594,-0.065299906,0.076614454,0.21068975,-9.404425,0.75755644,47.655537,-1.0729584,-2.4389877,-3.3524237,-0.20586815,0.17566219,-0.22600317,25.75,26.625,25.625,28.125,28.9375,29.375
0.114054054,-1.0325521,-1.2213153,-1.6133999,-0.040918093,0.010621798,-0.107252374,-0.39215222,-0.36807317,0.059900165,-3.0786493,0.624397,-0.0003564221,-0.05101041,0.009007068,0.00047608762,-0.002082789,0.0004842257,0.0037927618,0.50126266,-1.3777411,1.8995823,-2.0908206,-1.5707568,2.4759328,-0.06332217,0.06733661,-0.08441753,0.015646376,0.0014233061,-0.06707447,0.038307227,0.22984336,-9.423578,0.76874626,47.67614,-1.0880002,-2.5721145,-3.4417195,-0.2236279,0.16637419,-0.2537264,25.75,26.625,25.625,28.125,28.9375,29.375
0.11605363,-0.9002152,-1.1109605,-1.6833167,-0.040382296,0.021302802,-0.10929774,-0.39225975,-0.36804667,0.0598786,-3.0786355,0.6243562,-0.00039736205,-0.05413322,0.008124485,0.0029105933,-0.0050759623,0.0056822873,0.0030642669,0.5011184,-1.3775609,1.8994125,-2.0907972,-1.5707568,2.475765,-0.06478198,0.0672665,-0.08975015,0.015052009,0.0015359113,-0.06780388,0.019153614,0.3256114,-9.423578,0.7978386,47.657326,-1.0421313,-2.4361823,-3.152063,-0.21765876,0.17560495,-0.2549911,25.75,26.625,25.625,28.125,28.9375,29.375
0.118053466,-1.0114725,-0.81517375,-1.7723622,-0.045143824,0.026448427,-0.106562294,-0.39234716,-0.36804837,0.059882656,-3.0786731,0.6243445,-0.00045120914,-0.053453367,0.008888627,0.0010067577,-0.0033893224,0.0017216655,0.0013099691,0.5010103,-1.3774279,1.8992347,-2.0907485,-1.5707086,2.4756448,-0.065687664,0.06975915,-0.0885056,0.015600687,0.0019637498,-0.066956244,-0.038307227,0.30645782,-9.481039,0.78888994,47.716442,-1.0965772,-2.458387,-3.3253174,-0.24299473,0.15859161,-0.32496107,25.75,26.625,25.625,28.125,28.9375,29.375
0.12005412,-1.4080017,-1.3805774,-1.7917535,-0.04210706,0.037869256,-0.099161744,-0.39246908,-0.3680092,0.05989114,-3.078646,0.6244144,-0.00038633368,-0.054479294,0.008799272,0.0011069492,-0.0032819838,0.0016676614,0.0020090532,0.50085443,-1.3773072,1.8990668,-2.0907247,-1.5707453,2.475536,-0.06642323,0.07152035,-0.091021724,0.016452612,0.0018935644,-0.068389535,-0.11492168,0.24899697,-9.481039,0.7709874,47.694946,-1.1509283,-2.603488,-3.3245053,-0.24029666,0.15645362,-0.35893542,25.75,26.625,25.625,28.125,28.9375,29.375
0.12205391,-1.4352982,-1.1738645,-1.686197,-0.05311037,0.057161126,-0.10858723,-0.39258325,-0.3680029,0.05989386,-3.07868,0.62434345,-0.00041191516,-0.055138074,0.008493269,0.0022914333,-0.004359213,0.0032484569,0.0024819751,0.50072265,-1.3771393,1.8988508,-2.0906765,-1.5707206,2.4753559,-0.06661147,0.070471026,-0.09266143,0.017239084,0.0020780903,-0.06905065,-0.1340753,0.24899697,-9.519346,0.78217715,47.690468,-1.1839738,-2.3931556,-3.3248425,-0.2523113,0.17171,-0.36743438,25.75,26.625,25.625,28.125,28.9375,29.375
0.124053866,-1.3646733,-1.2105349,-1.8480872,-0.042717032,0.07582315,-0.11201532,-0.39267963,-0.36797726,0.05986555,-3.0786483,0.62433875,-0.00047092815,-0.055423323,0.009127816,0.001184016,-0.002965388,0.0009740717,-0.0011470434,0.5005906,-1.3769585,1.8986953,-2.0906527,-1.570721,2.475225,-0.06784251,0.07290781,-0.09322261,0.018028563,0.0019457019,-0.06665202,-0.22984336,0.22984336,-9.519346,0.784413,47.688675,-1.1993103,-2.4596767,-3.3715262,-0.26625627,0.17191066,-0.44384515,25.75,26.625,25.625,28.125,28.9375,29.375
0.12605396,-2.035721,-1.1787589,-1.6986487,-0.04028318,0.061208077,-0.10156443,-0.39278868,-0.36797774,0.0598979,-3.078707,0.624252,-0.00042723276,-0.056089155,0.008735479,0.001969845,-0.0040311594,0.0021824718,0.0012389346,0.5004828,-1.3768502,1.8984798,-2.0905926,-1.5707086,2.4750557,-0.067999594,0.07265651,-0.09477014,0.018255554,0.002300537,-0.0691951,-0.21068975,0.24899697,-9.615114,0.8179876,47.672558,-1.2998321,-2.4182172,-3.291563,-0.29006937,0.15306284,-0.46692577,25.75,26.625,25.625,28.125,28.9375,29.375
0.128055,-1.9508157,-0.99567896,-1.8068712,-0.04491409,0.067887716,-0.10836092,-0.39291528,-0.36796543,0.059904486,-3.0787385,0.62425774,-0.00039801066,-0.057760816,0.0099064605,0.0016053882,-0.004391887,0.0018518985,0.0011538928,0.50033766,-1.3766938,1.8982767,-2.0905807,-1.5706967,2.4749103,-0.07178297,0.07403793,-0.09545919,0.01767969,0.0027745431,-0.07289368,-0.28730422,0.19153613,-9.5385,0.8023209,47.694946,-1.1407316,-2.3551288,-3.3576758,-0.28367946,0.16067067,-0.4673519,25.75,26.625,25.625,28.125,28.9375,29.375
0.13005438,-1.7911737,-0.8635354,-1.6611608,-0.031776622,0.06919123,-0.10268741,-0.39299336,-0.36794847,0.059866425,-3.078734,0.62423366,-0.00053303223,-0.058579635,0.008058306,0.0029931604,-0.006150049,0.0046818308,0.006829572,0.50020695,-1.3765132,1.8981436,-2.0905569,-1.5706486,2.474765,-0.069524,0.074521,-0.09918404,0.017598499,0.002945638,-0.07630937,-0.34476504,0.17238252,-9.519346,0.7777002,47.66271,-1.3754249,-2.3687687,-3.2595944,-0.2844318,0.13854079,-0.47686505,25.75,26.625,25.625,28.125,28.9375,29.375
0.13205363,-1.8588203,-0.45382115,-1.5855738,-0.029186862,0.06978967,-0.10697927,-0.3931487,-0.36790588,0.059889168,-3.0787446,0.6242316,-0.00042710462,-0.058965694,0.009084242,0.0021407183,-0.005218247,0.0031763897,0.0125920065,0.5000144,-1.3763809,1.8979295,-2.090533,-1.5706848,2.47457,-0.07151803,0.07570074,-0.09866877,0.017669734,0.002854126,-0.08406554,-0.3256114,0.05746084,-9.5385,0.78217715,47.67793,-1.3762432,-2.3537028,-3.3823757,-0.3017372,0.15620546,-0.43193123,25.75,26.625,25.625,28.125,28.9375,29.375
0.13405347,-1.7627821,-0.68532455,-1.6950526,-0.017538007,0.07256463,-0.09833687,-0.3932565,-0.36790276,0.059900343,-3.0787811,0.62408614,-0.00038620614,-0.06254728,0.009991088,0.0035595684,-0.006395242,0.0057883207,0.011211873,0.499917,-1.3762364,1.8977245,-2.0904968,-1.5706967,2.4743774,-0.07618684,0.07678945,-0.10336819,0.018424133,0.0026280791,-0.08735181,-0.28730422,0.019153614,-9.423578,0.8157518,47.667187,-1.1774588,-2.2961287,-3.261272,-0.3128975,0.15389052,-0.41417396,25.75,26.625,25.625,28.125,28.9375,29.375
0.13605392,-2.0959032,-0.5028223,-1.4745073,-0.015959516,0.06917463,-0.10371431,-0.39338994,-0.36786705,0.059911866,-3.0788026,0.6241028,-0.00037074802,-0.061656307,0.008973425,0.0029833831,-0.005732311,0.005366687,0.02147073,0.4997264,-1.3761038,1.8975328,-2.090461,-1.5706848,2.4741945,-0.07339156,0.07808759,-0.10349856,0.01794727,0.0022482607,-0.09481437,-0.3256114,-0.038307227,-9.519346,0.86498255,47.684196,-1.3758576,-2.266943,-3.3669508,-0.31948698,0.142099,-0.37278524,25.75,26.625,25.625,28.125,28.9375,29.375
0.1380537,-1.8167788,-0.16644023,-1.4685316,-0.021948248,0.0790883,-0.11079937,-0.39349723,-0.3678605,0.059891213,-3.0788074,0.62410223,-0.00045183534,-0.06328097,0.009738147,0.0032639771,-0.0062413663,0.006264494,0.02366882,0.49959376,-1.3758994,1.8973292,-2.0904253,-1.5706486,2.474061,-0.076156825,0.07863423,-0.104721,0.017595166,0.0022573774,-0.09977726,-0.4405331,0.019153614,-9.481039,0.7597976,47.704796,-1.3581713,-2.195687,-3.3233454,-0.31702664,0.15103766,-0.29192945,25.75,26.625,25.625,28.125,28.9375,29.375
0.14005369,-2.1257951,-0.29114106,-1.5890765,-0.023329092,0.07558918,-0.11608379,-0.39362332,-0.36781886,0.059901886,-3.078786,0.6239805,-0.00041961618,-0.06436792,0.0103643825,0.002803812,-0.0055839866,0.0052883294,0.025941944,0.49943745,-1.3757546,1.8971142,-2.0903413,-1.5706967,2.4738317,-0.07811611,0.08073099,-0.106326,0.018271238,0.0021444254,-0.104008615,-0.4213795,0.019153614,-9.423578,0.8157518,47.689575,-1.3227084,-2.2115178,-3.3431296,-0.2993199,0.14523473,-0.24858332,25.75,26.625,25.625,28.125,28.9375,29.375
0.1420533,-1.7039151,-0.58995724,-1.4685322,-0.020949546,0.08491067,-0.105943866,-0.39377615,-0.36783388,0.059932284,-3.0789475,0.62385666,-0.0003761249,-0.065305986,0.010203545,0.0029106769,-0.0060504843,0.0061378735,0.028893221,0.4992696,-1.3755981,1.8968619,-2.0903533,-1.5706128,2.473566,-0.07868256,0.081830695,-0.10773775,0.017623566,0.0021541964,-0.107525356,-0.40222588,0.038307227,-9.481039,0.8806493,47.698532,-1.2823477,-2.2825558,-3.32479,-0.3213579,0.16277164,-0.20910177,25.75,26.625,25.625,28.125,28.9375,29.375
0.14405587,-1.5921242,-0.58268875,-1.4679066,-0.031595305,0.08153783,-0.102896474,-0.3939042,-0.36779368,0.059923388,-3.0788984,0.6237319,-0.00030822156,-0.067479104,0.011760175,0.0024114675,-0.0058360132,0.0053886194,0.02515722,0.49913618,-1.3754171,1.8966593,-2.0903175,-1.5706967,2.4733613,-0.083377175,0.0840382,-0.10924955,0.01767909,0.0023207474,-0.10848338,-0.51714754,0.05746084,-9.385271,0.86945957,47.682407,-1.2437655,-2.277576,-3.3898335,-0.31625885,0.13635257,-0.16903655,25.75,26.5625,25.625,28.125,28.9375,29.375
0.14605404,-2.1873026,-0.4669006,-1.4391987,-0.036407858,0.071164295,-0.1045227,-0.3940574,-0.36778882,0.05994789,-3.0789838,0.6236916,-0.0002860079,-0.06762111,0.010995968,0.002669864,-0.005969457,0.0060032783,0.025428936,0.498957,-1.3752488,1.8963956,-2.0902817,-1.5706486,2.4731462,-0.082083106,0.084816724,-0.110816695,0.017870437,0.0021488029,-0.10745991,-0.61291564,0.095768064,-9.461885,0.82694155,47.651955,-1.3348413,-2.2720833,-3.378517,-0.32768273,0.14564282,-0.16664244,25.75,26.5625,25.625,28.125,28.9375,29.375
0.14805433,-2.135865,-0.6830118,-1.4393784,-0.027449723,0.07730497,-0.10080971,-0.39416793,-0.36776945,0.0599478,-3.0790243,0.6236259,-0.0003239931,-0.06936813,0.011710358,0.0029930011,-0.0064062364,0.006728956,0.019194065,0.4988005,-1.3751041,1.8962158,-2.0902455,-1.5706128,2.4729435,-0.08488474,0.08569849,-0.112629816,0.017959375,0.0021832488,-0.104025915,-0.59376204,0.11492168,-9.385271,0.80679786,47.67614,-1.3414402,-2.2269602,-3.3752596,-0.3383864,0.14364132,-0.19431973,25.75,26.5625,25.625,28.125,28.9375,29.375
0.15005413,-1.871262,-0.49828017,-1.2242603,-0.03549287,0.091260955,-0.098016664,-0.3943298,-0.36772293,0.05995755,-3.0789995,0.6236436,-0.0002769166,-0.0703689,0.012966041,0.0015055528,-0.004875106,0.0037916317,0.011145691,0.4985956,-1.3749228,1.8959645,-2.090185,-1.5706486,2.472753,-0.08791759,0.089180514,-0.113569975,0.018725688,0.0022465861,-0.099009655,-0.5554548,0.05746084,-9.385271,0.7978386,47.68062,-1.0600022,-2.2151313,-3.3986936,-0.3539183,0.14152773,-0.23106594,25.75,26.5625,25.625,28.125,28.9375,29.375
0.15205367,-1.5532484,-0.19717573,-1.2001467,-0.040806953,0.095564306,-0.10988572,-0.3945044,-0.36771768,0.05996747,3.0790737,-0.6236006,0.0002265394,-0.0718464,0.012469673,0.0033953213,-0.0068989843,0.007462957,0.007944927,0.498404,-1.3747072,1.8956889,-2.0901973,-1.5706128,2.4725254,-0.08841551,0.08760841,-0.115967155,0.018506525,0.0022720613,-0.09630602,-0.5554548,0.11492168,-9.3661175,0.842603,47.68062,-1.221137,-2.2368913,-3.4628122,-0.35692918,0.15183908,-0.29521018,25.75,26.5625,25.625,28.125,28.9375,29.375
0.1540541,-1.8467509,-0.70757586,-1.289803,-0.033001877,0.08874313,-0.0970982,-0.39463058,-0.36767757,0.059953548,-3.0790462,0.62361515,-0.00023330556,-0.072995216,0.01354874,0.002917824,-0.006886555,0.006987198,0.0048121274,0.4982354,-1.3745269,1.8954982,-2.0901616,-1.5706366,2.4723694,-0.091385074,0.08865717,-0.116009854,0.01792168,0.0024862697,-0.096142985,-0.49799395,0.11492168,-9.3661175,0.8247004,47.66987,-1.1014826,-2.135857,-3.3734612,-0.33912477,0.14364387,-0.3279293,25.75,26.5625,25.625,28.125,28.9375,29.375
0.15605363,-1.6902733,-0.35388193,-1.2095867,-0.038056046,0.08778986,-0.10625775,-0.39478883,-0.3676466,0.05996455,-3.079062,0.6236568,-0.0002189965,-0.07543302,0.014247869,0.0023215658,-0.0063936943,0.0065271473,0.002911427,0.49803057,-1.3743451,1.8952464,-2.0901139,-1.5706247,2.4721887,-0.09462486,0.09273383,-0.119531415,0.018008832,0.0022694734,-0.097479686,-0.4213795,0.11492168,-9.308656,0.800085,47.691364,-1.05315,-2.3775363,-3.3981175,-0.33744448,0.14077477,-0.35065126,25.75,26.5625,25.625,28.125,28.9375,29.375
0.15805344,-1.8423024,-0.96017504,-1.4304115,-0.022069843,0.074273765,-0.09846815,-0.394915,-0.3675941,0.059947014,-3.079051,0.62359667,-0.00026253005,-0.075868495,0.015026318,0.002309006,-0.0063444567,0.006524521,0.0021681827,0.49782655,-1.3741771,1.8950785,-2.090078,-1.5706247,2.4719486,-0.09627014,0.09232775,-0.11901678,0.01792687,0.002226547,-0.098382026,-0.30645782,0.095768064,-9.289502,0.8403672,47.71554,-0.9785628,-2.1569314,-3.4995728,-0.33427602,0.12044333,-0.36358047,25.75,26.5625,25.625,28.125,28.9375,29.375
0.16005433,-1.930634,-0.81521064,-1.3324819,-0.020579033,0.055341456,-0.09995344,-0.39507267,-0.36758414,0.059948657,3.0790784,-0.6235844,0.0002321182,-0.07781524,0.015552604,0.0024786917,-0.0064490396,0.0070861797,-0.0009225951,0.497658,-1.3739601,1.8948144,-2.0900662,-1.5706133,2.471769,-0.09879067,0.09423071,-0.12174704,0.018212892,0.0020500356,-0.09781012,-0.40222588,0.17238252,-9.136273,0.8179876,47.689575,-0.834019,-2.2484448,-3.364029,-0.32931063,0.1376799,-0.38733345,25.75,26.5625,25.625,28.125,28.9375,29.375
0.16205435,-1.1393329,-0.36303878,-1.3228842,-0.02991772,0.06996298,-0.10664097,-0.39525616,-0.36756006,0.05999828,3.0789955,-0.6236425,0.00013195192,-0.07936783,0.015706861,0.002634544,-0.0067266417,0.007706327,-0.00014283015,0.4974419,-1.3738154,1.8945159,-2.090006,-1.5706013,2.4715998,-0.100396946,0.09598668,-0.12420472,0.018239284,0.0020038853,-0.10019469,-0.4405331,0.13407528,-9.232041,0.8112748,47.666286,-0.7615065,-2.2470763,-3.3779778,-0.31618133,0.15139738,-0.38180763,25.75,26.5625,25.625,28.125,28.9375,29.375
0.16405325,-1.2241158,-0.49656337,-1.4001585,-0.01911978,0.072430715,-0.10200451,-0.39539027,-0.3675049,0.05995683,3.0790508,-0.62367356,0.00024711466,-0.0806552,0.015630413,0.0028748957,-0.00728032,0.00851449,-0.001707531,0.497226,-1.373575,1.8943108,-2.0899465,-1.5706009,2.4713964,-0.1014661,0.097349204,-0.12635069,0.0180485,0.0020925822,-0.099698454,-0.38307226,0.17238252,-9.251195,0.83365434,47.67614,-0.8000312,-2.1487155,-3.2953043,-0.3139323,0.15355703,-0.43974674,25.75,26.5625,25.625,28.125,28.9375,29.375
0.16605403,-1.6538359,-0.7456814,-1.3720498,-0.020847395,0.07001851,-0.10294562,-0.39557043,-0.36748633,0.059988853,3.07899,-0.6236168,0.00014573906,-0.082845576,0.015206309,0.0043215635,-0.008754447,0.0112476805,0.0046022614,0.4970221,-1.3734063,1.8940347,-2.089934,-1.5705885,2.471165,-0.10270939,0.098019205,-0.13054474,0.018469892,0.0020885314,-0.10724966,-0.36391866,0.15322891,-9.232041,0.7463667,47.68062,-0.80070555,-2.314725,-3.2648335,-0.31605104,0.14907649,-0.40061447,25.75,26.5625,25.625,28.125,28.9375,29.375
0.16805357,-1.4375532,-0.81817496,-1.2055235,-0.037024498,0.087362245,-0.10474781,-0.3957292,-0.3674427,0.059980083,3.0790222,-0.6236009,0.00014064909,-0.081335485,0.015858067,0.002175356,-0.0067875194,0.0067941435,0.0090007875,0.49681848,-1.3731897,1.8937863,-2.0898864,-1.5706128,2.4709475,-0.102627374,0.099974394,-0.12811632,0.018935788,0.0024895018,-0.11156754,-0.2873042,0.17238252,-9.193734,0.800085,47.675243,-0.85322237,-2.152498,-3.4059076,-0.31496614,0.13453293,-0.37982857,25.75,26.5625,25.625,28.125,28.9375,29.375
0.17005341,-1.8575492,-1.3007393,-1.4877946,-0.030329823,0.07220279,-0.100654535,-0.39590287,-0.36742753,0.059991013,3.0790029,-0.6234957,9.651235e-05,-0.08267941,0.015417699,0.0025720515,-0.007581853,0.007728137,0.016193394,0.4966267,-1.3729726,1.8934978,-2.089862,-1.5706009,2.4706926,-0.10322937,0.10163307,-0.131021,0.018984,0.0027437476,-0.11936106,-0.19153613,0.19153613,-9.251195,0.84708,47.698532,-0.85211825,-2.4421492,-3.21467,-0.30451468,0.15952663,-0.30290085,25.75,26.5625,25.625,28.125,28.9375,29.375
0.17205429,-1.3835994,-1.1614118,-1.5343146,-0.03977575,0.069648474,-0.10302957,-0.39606747,-0.36740285,0.05999978,3.0789847,-0.62343043,4.0131097e-05,-0.084125824,0.0153828915,0.0028937021,-0.007973625,0.008582386,0.021379648,0.4964347,-1.37278,1.893246,-2.0898502,-1.5706009,2.4704623,-0.10441182,0.10314586,-0.13359793,0.019111983,0.0026840349,-0.12572835,-0.17238252,0.19153613,-9.270349,0.78217715,47.666286,-0.9022187,-2.1909866,-3.2960792,-0.3084555,0.15484741,-0.23475145,25.75,26.5625,25.625,28.125,28.9375,29.375
0.17405389,-1.0472994,-1.3146954,-1.6157684,-0.03943933,0.057034083,-0.09741137,-0.39620382,-0.36735582,0.05997584,3.079057,-0.6233462,0.00014250551,-0.08506882,0.015164161,0.0023000035,-0.00767634,0.0077147065,0.02511889,0.49623114,-1.3725508,1.8930062,-2.0897548,-1.5706009,2.4701972,-0.10495427,0.10626616,-0.13603358,0.019332504,0.0028224634,-0.13000911,-0.076614454,0.21068975,-9.251195,0.76874626,47.70211,-1.0129195,-2.355269,-3.2783637,-0.28258348,0.14955625,-0.13999039,25.75,26.5625,25.625,28.125,28.9375,29.375
0.17605357,-0.61612815,-0.67139745,-1.6182513,-0.04324386,0.0449184,-0.10459423,-0.39637858,-0.36730394,0.05996959,3.079078,-0.6232895,0.00013223878,-0.08580866,0.01447804,0.002724764,-0.008110255,0.009185551,0.02865481,0.49599174,-1.3723341,1.8927544,-2.0897186,-1.5706128,2.46992,-0.10423033,0.10721331,-0.13804999,0.01890237,0.0025009732,-0.1328197,-0.19153613,0.3256114,-9.3661175,0.8179876,47.704796,-0.95530796,-2.3223777,-3.1732168,-0.2663004,0.14711156,-0.12739798,25.75,26.5625,25.625,28.125,28.9375,29.375
0.17805336,-0.8344244,-1.3203336,-1.5046921,-0.033583835,0.040981572,-0.09190745,-0.39655724,-0.36729258,0.059979018,3.079039,-0.62319,0.00011334949,-0.08779144,0.015355405,0.0024551167,-0.00787417,0.009214857,0.021592807,0.49578705,-1.3721051,1.892455,-2.0896947,-1.5705765,2.4696581,-0.107325375,0.10957295,-0.14025243,0.018837407,0.0022829124,-0.12885113,-0.21068975,0.28730422,-9.385271,0.8157518,47.709274,-1.0386076,-2.403167,-3.1533523,-0.2543658,0.14532028,-0.11882797,25.75,26.5625,25.625,28.125,28.9375,29.375
0.18005352,-0.6996847,-0.90345204,-1.5635312,-0.0433019,0.05182262,-0.10176744,-0.39675716,-0.36723983,0.05998858,3.0790222,-0.6232065,5.926113e-05,-0.088434584,0.015012817,0.0025928037,-0.007853468,0.009677609,0.017020365,0.49552387,-1.3718886,1.8921674,-2.0896585,-1.570589,2.4694076,-0.10713433,0.11082361,-0.14212628,0.019062743,0.0020484305,-0.12408638,0.0,0.2681506,-9.289502,0.7486078,47.66271,-0.9128689,-2.4229517,-3.104286,-0.25963733,0.1629281,-0.15187278,25.75,26.5625,25.625,28.125,28.9375,29.375
0.18205345,-0.6486815,-1.0134226,-1.6090828,-0.049955696,0.056904707,-0.10053356,-0.39691725,-0.36723122,0.060006652,3.0790138,-0.6230912,3.2277283e-05,-0.08932142,0.015324126,0.002787595,-0.007935171,0.009749596,0.011060783,0.4953557,-1.3716843,1.8918694,-2.089598,-1.5705765,2.4691687,-0.10844461,0.11152158,-0.1435646,0.019702105,0.0020901833,-0.11943651,-0.15322891,0.38307226,-9.3661175,0.78217715,47.666286,-0.9931967,-2.354178,-3.1973593,-0.2557469,0.17828254,-0.2201034,25.75,26.5625,25.625,28.125,28.9375,29.375
0.18405399,-0.90490717,-1.3141812,-1.6897203,-0.058177106,0.06031061,-0.10092887,-0.39710313,-0.3671847,0.05999281,3.0790079,-0.62316895,2.2383925e-05,-0.0897823,0.01563394,0.002641815,-0.00803646,0.00878846,0.005984196,0.49511558,-1.3714317,1.8915948,-2.0895746,-1.5705885,2.468978,-0.109668165,0.11238226,-0.14447609,0.020547196,0.0026384154,-0.11558389,-0.15322891,0.3256114,-9.32781,0.8672237,47.682407,-1.0103278,-2.3652701,-3.2201314,-0.26727033,0.17003313,-0.28253075,25.75,26.5625,25.625,28.125,28.9375,29.375
0.18605421,-1.0666546,-1.5422539,-1.7989846,-0.05938048,0.06156649,-0.09598195,-0.39729574,-0.36717647,0.060001645,3.0789673,-0.623084,-2.3765939e-05,-0.09040474,0.016370948,0.002186038,-0.008001834,0.0074317926,0.0019427091,0.49491155,-1.371179,1.891271,-2.0895622,-1.5705646,2.4687262,-0.111799166,0.11346682,-0.14487693,0.021074649,0.003261497,-0.11367386,-0.17238252,0.28730422,-9.3661175,0.7732232,47.652847,-1.0502446,-2.3594735,-3.192309,-0.2540217,0.15036198,-0.33203375,25.75,26.5625,25.625,28.125,28.9375,29.375
0.18805633,-0.9130325,-1.2587607,-1.7808881,-0.05828012,0.0584396,-0.10538804,-0.39744967,-0.36713025,0.059998937,3.079034,-0.62300026,1.0554963e-05,-0.090919994,0.0146121485,0.003232841,-0.009215354,0.009655412,0.0036374542,0.49470863,-1.3709625,1.8909949,-2.0894544,-1.5705885,2.4684627,-0.10927557,0.114241496,-0.14820558,0.021093374,0.0032631159,-0.11284382,-0.076614454,0.34476504,-9.461885,0.784413,47.64927,-1.1289508,-2.2598193,-3.1606743,-0.24599525,0.15979189,-0.37259492,25.75,26.5625,25.625,28.125,28.9375,29.375
0.19005463,-1.2276658,-1.51531,-1.8310189,-0.04780507,0.04706651,-0.09820099,-0.39763835,-0.36711678,0.06000094,3.0789824,-0.6229727,-5.1298484e-06,-0.09159978,0.016547417,0.0010331862,-0.007479753,0.005924052,-0.0016960795,0.49449196,-1.3707092,1.8906859,-2.0894425,-1.5705522,2.4682355,-0.11323714,0.11749655,-0.1470418,0.02078638,0.0035155949,-0.111472026,-0.076614454,0.22984336,-9.423578,0.800085,47.65464,-1.1048955,-2.273186,-3.2990484,-0.22549447,0.16711769,-0.42133912,25.75,26.5625,25.625,28.125,28.9375,29.375
0.19205387,-1.1034428,-1.0043017,-1.7492354,-0.046277616,0.045206137,-0.09688001,-0.39785114,-0.36708817,0.060026933,3.0789402,-0.62299967,-0.00013025278,-0.09082922,0.015586734,0.001849268,-0.008391365,0.007135549,0.0004833273,0.49426526,-1.3704816,1.8903502,-2.0894186,-1.5705761,2.4680312,-0.11101231,0.11581853,-0.14693594,0.02085697,0.0037551434,-0.11142698,-0.05746084,0.2681506,-9.404425,0.7463667,47.691364,-1.1900548,-2.335641,-3.3483887,-0.20520893,0.1639117,-0.47761172,25.75,26.5625,25.625,28.125,28.9375,29.375
0.19405404,-0.39862433,-0.4351948,-1.7563237,-0.038984735,0.052834865,-0.10529671,-0.39802542,-0.36702237,0.05999749,3.078952,-0.62301946,-7.042164e-05,-0.09089295,0.016671577,-0.0006674318,-0.0060467026,0.0025840858,0.0011640685,0.49398923,-1.3702396,1.8901232,-2.0893943,-1.5705642,2.467766,-0.11289261,0.12035435,-0.1467385,0.021245282,0.0038490805,-0.113987744,-0.019153614,0.11492168,-9.442732,0.77545905,47.683304,-1.1632881,-2.3338606,-3.5179634,-0.19435985,0.16940446,-0.5105196,25.75,26.5625,25.625,28.125,28.9375,29.375
0.19605419,-0.332917,-0.23663668,-1.7731034,-0.030994384,0.050877865,-0.101272844,-0.39820018,-0.3669968,0.059985936,3.078939,-0.6230308,-3.0813295e-05,-0.09254804,0.01670844,0.0006852559,-0.007915108,0.00495082,0.0065599605,0.49377292,-1.3699758,1.8898243,-2.0893466,-1.5705403,2.4675586,-0.114722334,0.11956861,-0.14890078,0.021226784,0.0043687494,-0.12121344,0.11492168,0.15322891,-9.461885,0.87393653,47.675243,-1.1297784,-2.3314264,-3.4732985,-0.17731203,0.1504335,-0.49502876,25.75,26.5625,25.625,28.125,28.9375,29.375
0.19805415,-0.86832434,-0.3417575,-1.7599949,-0.02008596,0.029288983,-0.10519545,-0.39839667,-0.366979,0.059991207,3.078919,-0.62296593,-5.989926e-05,-0.09406116,0.01610643,0.0012499319,-0.008890592,0.006114632,0.0134863,0.49355707,-1.3697108,1.8894881,-2.0893104,-1.5705279,2.467305,-0.11521724,0.121375084,-0.15241769,0.02145303,0.004676801,-0.12863338,0.05746084,0.0,-9.442732,0.83589023,47.695843,-1.1420465,-2.3226097,-3.518187,-0.16107816,0.14464961,-0.4322816,25.75,26.5625,25.625,28.125,28.9375,29.375
0.20005405,-0.6565911,0.0118693635,-1.6925296,-0.020749891,0.0351309,-0.10563416,-0.39857364,-0.3669298,0.059983976,3.0789611,-0.6228511,-8.3796316e-05,-0.09477921,0.016586328,0.0015046858,-0.008856829,0.0063587464,0.023331406,0.49332917,-1.3694826,1.8892244,-2.0892746,-1.5705522,2.4670002,-0.11652939,0.12146167,-0.1532494,0.021999603,0.0045354213,-0.13979024,-0.019153614,0.05746084,-9.481039,0.83589023,47.652847,-1.2261676,-2.321849,-3.4945774,-0.1647986,0.14725739,-0.32017303,25.75,26.5625,25.625,28.125,28.9375,29.375
0.20205389,-0.83006954,-0.2084366,-1.8162107,-0.01673638,0.041560035,-0.0929589,-0.39873976,-0.36692733,0.059992243,3.0789287,-0.6227449,-3.4757766e-05,-0.09604747,0.0166152,0.0011501937,-0.008693977,0.005977397,0.028150246,0.49313733,-1.3692417,1.8889021,-2.0892031,-1.5704921,2.4667463,-0.117696375,0.12418913,-0.15577333,0.0222197,0.004572025,-0.14577475,-0.095768064,0.076614454,-9.481039,0.79560274,47.639416,-1.1711956,-2.223817,-3.4186435,-0.13074428,0.13936439,-0.25000224,25.75,26.5625,25.625,28.125,28.9375,29.375
0.20405388,-0.7783395,0.027992014,-1.7723334,-0.030659463,0.059735544,-0.10264801,-0.39897072,-0.36687458,0.060011335,3.0789073,-0.6227574,-0.00015494144,-0.09754367,0.016652364,0.0028849526,-0.010312447,0.008613148,0.031448994,0.49286154,-1.3690017,1.8885669,-2.0891783,-1.5705274,2.4664812,-0.11915649,0.122686006,-0.15811919,0.02297737,0.004761656,-0.15053299,-0.1340753,0.17238252,-9.500193,0.7911258,47.642998,-1.1756464,-2.2234218,-3.4417076,-0.12004081,0.13398914,-0.19329864,25.75,26.5625,25.625,28.125,28.9375,29.375
0.20605406,-1.8333825,-0.762791,-1.6339482,-0.031391483,0.05646317,-0.09380707,-0.39914206,-0.36687264,0.060023528,3.078894,-0.6225424,-0.00017140077,-0.09736747,0.0178903,-0.00016907307,-0.007253765,0.0018744667,0.030515477,0.4926811,-1.3687713,1.888256,-2.0891416,-1.5704917,2.4661684,-0.12133028,0.1284811,-0.15858911,0.025040966,0.0052671013,-0.15177277,-0.26815057,0.11492168,-9.500193,0.7732232,47.66808,-1.0762382,-2.3503647,-3.4984612,-0.120316595,0.14562806,-0.16167578,25.75,26.5625,25.625,28.125,28.9375,29.375
0.20805398,-1.6346734,-0.83648026,-1.8861125,-0.036762264,0.07762687,-0.095567174,-0.39934883,-0.36683,0.060044225,3.0788634,-0.6225031,-0.00012305354,-0.09865466,0.018130882,0.0016864509,-0.008732407,0.003611647,0.021208294,0.49239293,-1.368532,1.887896,-2.0890214,-1.5704435,2.4658597,-0.12312049,0.12662773,-0.16110541,0.027185922,0.0057473527,-0.1442559,-0.47884035,0.114921674,-9.557653,0.83365434,47.651955,-1.0278821,-2.2236965,-3.490385,-0.14200854,0.1395994,-0.20290947,25.75,26.5625,25.625,28.125,28.9375,29.375
0.21005376,-1.7747959,-1.1003224,-1.8542261,-0.046393227,0.0939452,-0.09318261,-0.39952323,-0.36676326,0.06000657,3.07896,-0.6224858,-6.796184e-05,-0.09955123,0.018547935,0.0016147768,-0.00816719,0.0028881165,0.015417628,0.4921532,-1.3682433,1.8876208,-2.0889494,-1.5704917,2.4655972,-0.12446832,0.12814064,-0.16309583,0.028562307,0.005578308,-0.13981254,-0.63206923,0.22984336,-9.615114,0.8179876,47.684196,-1.1379367,-2.1572099,-3.4325109,-0.1471185,0.11412356,-0.24339676,25.75,26.5625,25.625,28.125,28.9375,29.375
0.21205388,-2.074286,-0.6957089,-1.7357554,-0.06792313,0.10993615,-0.101061255,-0.39976317,-0.36673704,0.060062584,3.0788639,-0.622447,-0.00019985178,-0.101172894,0.017943522,0.0021390377,-0.008443999,0.0044898484,0.013031022,0.4918776,-1.3680383,1.8872379,-2.0889013,-1.5704674,2.4653096,-0.12453221,0.13031368,-0.16693051,0.028687721,0.00507673,-0.13748683,-0.63206923,0.22984336,-9.595961,0.8806493,47.687782,-1.0451372,-2.2875314,-3.4593258,-0.13468513,0.10751683,-0.32500583,25.75,26.5625,25.625,28.125,28.9375,29.375
0.2140537,-2.3833063,-1.3800213,-1.8577381,-0.05383359,0.11879073,-0.10624525,-0.3999491,-0.36670077,0.06004255,3.0788875,-0.6224136,-0.000167225,-0.102382734,0.019219887,0.0009859107,-0.007320434,0.00281963,0.00965017,0.49164903,-1.367749,1.886927,-2.0888531,-1.5704674,2.4650574,-0.12757173,0.13301949,-0.16756234,0.028618496,0.00487119,-0.13714482,-0.6703765,0.24899697,-9.615114,0.83813137,47.696735,-1.1175344,-2.133551,-3.3703623,-0.13857952,0.10021058,-0.34704608,25.75,26.5625,25.625,28.125,28.9375,29.375
0.21605365,-2.4481256,-0.968008,-1.5863899,-0.05766559,0.1263884,-0.103741854,-0.40012643,-0.3666827,0.060047828,3.0788617,-0.622349,-9.166321e-05,-0.10268859,0.018085347,0.000847275,-0.0075204256,0.0028866113,0.010986166,0.49142203,-1.367496,1.8865913,-2.0887578,-1.5704077,2.4647934,-0.12597235,0.13531768,-0.17002776,0.02864111,0.005010049,-0.13688043,-0.7852981,0.19153613,-9.595961,0.7620334,47.670765,-1.1650931,-2.2635875,-3.2839632,-0.13071606,0.1155236,-0.36929184,25.75,26.5625,25.625,28.125,28.9375,29.375
0.21805371,-2.0194104,-0.95352685,-1.6525284,-0.051622845,0.1353748,-0.1055687,-0.40034327,-0.36662745,0.060042858,3.0788555,-0.6223073,-0.00011770347,-0.10412866,0.018430859,0.00046156973,-0.007216728,0.002599166,0.010685362,0.4911341,-1.3672308,1.8862804,-2.088734,-1.5704077,2.4644804,-0.12769248,0.13793147,-0.17232634,0.02872514,0.0048782206,-0.1382983,-0.7852981,0.28730422,-9.500193,0.80456203,47.717335,-1.182734,-2.2880054,-3.2338886,-0.12915188,0.096578225,-0.39598095,25.75,26.5625,25.625,28.125,28.9375,29.375
0.22005415,-2.277758,-1.1443963,-1.5360143,-0.0403055,0.11548674,-0.10064965,-0.4005733,-0.36661956,0.060078062,3.0787952,-0.6222533,-0.00021925668,-0.10569441,0.017965978,0.0007793518,-0.007976448,0.0039824266,0.014526207,0.49090633,-1.366966,1.8858732,-2.0886858,-1.5703958,2.4642267,-0.12826405,0.13993455,-0.17534706,0.028168995,0.004904522,-0.14270888,-0.59376204,0.24899697,-9.481039,0.8224646,47.689575,-1.165477,-2.2692883,-3.2979605,-0.095521316,0.10769155,-0.3903038,25.75,26.5625,25.625,28.125,28.9375,29.375
0.2220539,-1.8457993,-0.87806076,-1.4813933,-0.04033601,0.09996873,-0.10278582,-0.40079665,-0.36657682,0.060078308,3.0787833,-0.6222095,-0.00028566335,-0.10689272,0.019968083,-0.00072572235,-0.006444842,0.0013920057,0.017449973,0.49064112,-1.366689,1.8855389,-2.0886738,-1.5704077,2.4639359,-0.13254274,0.1425447,-0.1751244,0.028345212,0.004787065,-0.14991078,-0.5554548,0.17238252,-9.32781,0.800085,47.703903,-0.99950576,-2.2755637,-3.3691578,-0.08998751,0.10906547,-0.32114744,25.75,26.5625,25.625,28.125,28.9375,29.375
0.22405383,-1.4095782,-0.58487564,-1.3233733,-0.04346104,0.09245738,-0.10115637,-0.40102848,-0.36652994,0.060084414,3.078781,-0.6221446,-0.00031476843,-0.10744783,0.019705461,0.0007291635,-0.00711907,0.0041283183,0.026499655,0.49035448,-1.3664011,1.8851675,-2.0886142,-1.5704082,2.4636092,-0.13209604,0.14067154,-0.1762996,0.028668921,0.0041006957,-0.15851296,-0.68953013,0.24899697,-9.346964,0.8224646,47.691364,-1.134704,-2.2480793,-3.3263474,-0.07604761,0.10725911,-0.23497996,25.75,26.5625,25.625,28.125,28.9375,29.375
0.22605403,-1.655897,-0.69519734,-1.0728374,-0.039141875,0.08375367,-0.099658325,-0.40122584,-0.3664666,0.06006392,3.078837,-0.6220359,-0.00027957448,-0.10821595,0.020302087,-0.00055879896,-0.005481998,0.0023449643,0.032508902,0.4900785,-1.3661234,1.8848685,-2.0885541,-1.5704201,2.4632585,-0.13333973,0.14412051,-0.17757516,0.02884337,0.0034926408,-0.16576454,-0.68953013,0.2681506,-9.270349,0.8717007,47.682407,-1.001493,-2.4534378,-3.338234,-0.051218003,0.110096216,-0.13129714,25.75,26.5625,25.625,28.125,28.9375,29.375
0.22805397,-1.6905968,-0.41121992,-1.0149096,-0.03359702,0.08494907,-0.0995847,-0.4015001,-0.36645752,0.060113914,3.0787375,-0.62197626,-0.0004269239,-0.10942214,0.020823054,-4.5452376e-05,-0.005855207,0.0031000115,0.0334201,0.48980236,-1.3658352,1.8844022,-2.088518,-1.5703963,2.4629579,-0.13519607,0.14426617,-0.17906633,0.029353099,0.0034911898,-0.16853115,-0.49799395,0.076614454,-9.193734,0.784413,47.704796,-1.0993688,-2.2335308,-3.387767,-0.037767038,0.117204964,-0.061765704,25.75,26.5625,25.625,28.125,28.9375,29.375
0.230054,-1.289557,-0.13370962,-0.88667625,-0.026694039,0.085872196,-0.1008584,-0.4017019,-0.36641598,0.060095135,3.0787303,-0.6218219,-0.0003493558,-0.10956801,0.020998234,-0.0007585601,-0.0052391374,0.0013773631,0.028128274,0.4895148,-1.3655465,1.8840913,-2.0884817,-1.5703362,2.462575,-0.13570438,0.14616254,-0.17993356,0.03014242,0.0037536232,-0.16374743,-0.40222588,0.038307227,-9.097966,0.80456203,47.68062,-1.0724926,-2.2938836,-3.393313,-0.023321934,0.11254096,-0.09839136,25.75,26.5625,25.625,28.125,28.9375,29.375
0.2320539,-1.1609023,0.25013703,-0.49131915,-0.02244646,0.08115466,-0.09973313,-0.40196776,-0.3663834,0.06011799,3.078721,-0.62174624,-0.00051148067,-0.11067871,0.020516507,0.00020147314,-0.0065283026,0.0029995374,0.020868775,0.48925132,-1.365234,1.8836602,-2.0884578,-1.5703839,2.4622657,-0.1360382,0.14634015,-0.1824271,0.030410176,0.004135946,-0.15682085,-0.30645782,0.038307227,-8.963891,0.8560339,47.691364,-1.0543361,-2.2212205,-3.3935318,-0.009999134,0.1056321,-0.15493518,25.75,26.5625,25.625,28.125,28.9375,29.375
0.23405349,-0.690252,0.38810068,-0.6579237,0.0070376517,0.058511812,-0.096179254,-0.40216982,-0.366314,0.060087416,3.0787258,-0.62178814,-0.0004269922,-0.111392885,0.020631414,-0.00039822492,-0.0063437186,0.0018603691,0.014073091,0.48893958,-1.3649448,1.8833727,-2.0884097,-1.5703601,2.4619796,-0.13701303,0.1486913,-0.18398838,0.030714385,0.0044954466,-0.15099965,-0.28730422,-0.038307227,-8.829816,0.8493211,47.675243,-1.1409693,-2.4075415,-3.4012828,0.009473136,0.107692346,-0.25616956,25.75,26.5625,25.625,28.125,28.9375,29.375
0.23605375,0.013349054,0.8893591,-0.77056575,0.019022068,0.044579554,-0.09654362,-0.4024039,-0.36628705,0.060108185,3.078722,-0.6217137,-0.00051978155,-0.11262152,0.02046422,-0.0002852269,-0.005852357,0.001368602,0.00664394,0.4886997,-1.3646559,1.8829659,-2.088349,-1.5703839,2.461694,-0.13762741,0.15128148,-0.1878136,0.032610316,0.0042934045,-0.14418286,-0.1340753,-0.1340753,-8.772355,0.8806493,47.709274,-1.1110746,-2.3335433,-3.2847157,0.01715678,0.098762475,-0.3255186,25.75,26.5625,25.625,28.125,28.9375,29.375
0.2380533,0.16949338,1.0798846,-0.6338616,0.018459234,0.019558048,-0.100161575,-0.40264112,-0.36623216,0.0601076,3.0786986,-0.62174636,-0.0005206077,-0.11362335,0.020676821,0.0020008155,-0.0070430143,0.004417733,0.0034129675,0.48838842,-1.3643566,1.8825954,-2.0882885,-1.570372,2.4614062,-0.1385535,0.14806934,-0.18959375,0.03435507,0.0039154748,-0.14187773,0.0,-0.1340753,-8.791509,0.8985519,47.703903,-1.2242906,-2.0682757,-3.3677123,0.025637992,0.10819885,-0.39322653,25.75,26.5625,25.625,28.125,28.9375,29.375
0.24005339,0.46373,0.3971392,-0.7515867,0.026789634,0.013614036,-0.09625088,-0.402865,-0.36621004,0.0601204,3.0786657,-0.62174,-0.00052569597,-0.11348478,0.020671701,0.001698734,-0.006083938,0.003635892,0.0011895975,0.48813704,-1.3640562,1.8821877,-2.088205,-1.5703486,2.4611552,-0.13804565,0.1490108,-0.19027653,0.03524186,0.0034387643,-0.13914584,0.038307227,-0.05746084,-8.868123,0.8851263,47.684196,-1.2390299,-2.0966046,-3.2978675,0.01140747,0.11588384,-0.47793052,25.75,26.5625,25.625,28.125,28.9375,29.375
0.24205412,0.098047815,-0.01349537,-1.190577,0.010980685,0.016801879,-0.09746008,-0.40309316,-0.36612907,0.060107864,3.07869,-0.6218006,-0.00051521644,-0.11497316,0.021475364,0.0016883143,-0.005398413,0.0028997138,0.0014124514,0.48781264,-1.3637673,1.8818535,-2.0881317,-1.5703725,2.4608657,-0.1404691,0.15093474,-0.19299847,0.037011348,0.0031763816,-0.14179094,0.15322891,-0.019153614,-9.021352,0.8493211,47.698532,-1.1038959,-2.0566509,-3.218029,0.0053268094,0.121824585,-0.521773,25.75,26.5625,25.625,28.125,28.9375,29.375
0.24405411,-0.25392237,-0.26837134,-1.3428111,-0.014316854,0.029792158,-0.10381836,-0.40330988,-0.36609113,0.060094777,3.0787325,-0.6217458,-0.00042591846,-0.11488973,0.023424273,0.00047087763,-0.0026542507,-0.0022960685,0.007396463,0.48754847,-1.3634181,1.8814348,-2.0879986,-1.5703605,2.4605622,-0.14358029,0.15280992,-0.19356827,0.041587934,0.0031937591,-0.15088627,0.22984336,0.13407528,-9.155427,0.8247004,47.670765,-1.209816,-2.062286,-3.3034515,-0.038051993,0.11970584,-0.4858719,25.75,26.5625,25.625,28.125,28.9375,29.375
0.24605414,-0.42656213,-1.0392196,-1.4966161,-0.03222331,0.0464671,-0.09654547,-0.40352148,-0.3660337,0.060074784,3.078769,-0.62170774,-0.0003106732,-0.11479779,0.02373123,0.00035601607,-0.0017391029,-0.0049293977,0.018486636,0.4872489,-1.3630936,1.8810638,-2.0878775,-1.5703362,2.4602344,-0.14418843,0.15391068,-0.19548345,0.04516558,0.003617505,-0.16258466,0.15322891,0.21068975,-9.212888,0.8627467,47.65912,-1.0687546,-2.1225426,-3.2791014,-0.05977671,0.11626193,-0.39956987,25.75,26.5625,25.625,28.125,28.9375,29.375
0.24805418,-0.53851783,-1.6417524,-1.8901378,-0.056441903,0.049329754,-0.09412693,-0.40374675,-0.36596254,0.060082193,3.0788066,-0.6216126,-0.0003046115,-0.11509408,0.025087474,-0.0005209929,0.00060142454,-0.009495828,0.026692478,0.48693663,-1.3628286,1.8807048,-2.0877688,-1.5703481,2.4598582,-0.14667976,0.15645313,-0.19765729,0.049931053,0.0036947415,-0.17328115,0.019153614,0.28730422,-9.385271,0.8157518,47.693153,-0.9929303,-2.070191,-3.322228,-0.1299065,0.12036684,-0.28116024,25.75,26.5625,25.625,28.125,28.9375,29.375
0.25005412,-0.65350574,-1.8984115,-1.9707651,-0.078846686,0.057819195,-0.094685644,-0.4039625,-0.365916,0.06006139,3.0788136,-0.6215915,-0.00017920788,-0.11500847,0.02531606,-0.0021594567,0.0023790505,-0.012561718,0.03196674,0.48663726,-1.3624905,1.8803223,-2.087661,-1.5703,2.459545,-0.14681013,0.16009563,-0.19853261,0.050717693,0.003546284,-0.17868513,0.019153614,0.2873042,-9.595961,0.8224646,47.650166,-1.0049297,-2.1901631,-3.275916,-0.18976375,0.13281631,-0.20546886,25.75,26.5625,25.625,28.125,28.9375,29.375
0.25205395,-1.0471758,-2.1269026,-1.9126911,-0.09211986,0.06531159,-0.09677012,-0.40421262,-0.36586177,0.06008076,3.0788996,-0.6214364,-0.00022404693,-0.11622835,0.025862906,-0.001519592,0.0011308253,-0.010934577,0.030301891,0.48636103,-1.3621669,1.879855,-2.087505,-1.5703601,2.4591613,-0.1489207,0.15934424,-0.19892989,0.049833827,0.0038809576,-0.17913124,-0.038307227,0.51714754,-9.615114,0.89631605,47.684196,-0.9997423,-2.0689058,-3.356079,-0.20380831,0.13257483,-0.15004359,25.75,26.5625,25.625,28.125,28.9375,29.375
0.2540539,-0.8136321,-1.9759042,-2.0237486,-0.091472514,0.08242575,-0.10170575,-0.40443927,-0.3658079,0.060082722,3.0788996,-0.6213979,-0.00020798843,-0.115725756,0.02534216,-0.0022613497,0.0022110299,-0.013678398,0.026177466,0.48606232,-1.3618777,1.8794845,-2.0874207,-1.5703481,2.4588387,-0.14771494,0.16188686,-0.20086473,0.052156907,0.004202595,-0.17380051,-0.095768064,0.40222588,-9.710882,0.842603,47.687782,-1.2455149,-2.2090511,-3.323112,-0.25516966,0.12714756,-0.19932382,25.75,26.5625,25.625,28.125,28.9375,29.375
0.2560539,-1.089541,-1.9025568,-2.0497775,-0.08450056,0.073952414,-0.10141654,-0.40466294,-0.36576617,0.06007267,3.0789282,-0.62132967,-0.00014900205,-0.115625635,0.025600681,-0.004121981,0.0033430615,-0.016551636,0.019394686,0.4857867,-1.3615403,1.8790783,-2.0873134,-1.5703362,2.458517,-0.14817344,0.16537026,-0.20075224,0.05163005,0.0045288843,-0.16747628,-0.15322891,0.4213795,-9.80665,0.8784135,47.675243,-1.1702652,-2.3446698,-3.5404122,-0.28380293,0.12403035,-0.29528278,25.75,26.5625,25.625,28.125,28.9375,29.375
0.25805402,-1.2430421,-1.6383097,-1.9854829,-0.07046165,0.062264133,-0.09765884,-0.40490472,-0.36572567,0.060075928,3.0788918,-0.6213224,-9.841477e-05,-0.11750511,0.025647169,-0.0042175315,0.0022150876,-0.015522771,0.015406022,0.48547468,-1.3612151,1.8786591,-2.087218,-1.5702876,2.4582052,-0.15012993,0.1676556,-0.2029932,0.0501563,0.0050318125,-0.16544347,-0.076614454,0.4405331,-9.80665,0.8605109,47.71823,-1.1149378,-2.3612905,-3.4276848,-0.3045999,0.10597722,-0.3434909,25.75,26.5625,25.625,28.125,28.9375,29.375
0.26005402,-1.0419378,-0.825162,-1.9972178,-0.068978764,0.059524998,-0.09947694,-0.4051444,-0.36567047,0.06005998,3.0788915,-0.62132215,-6.824664e-05,-0.11844443,0.025823466,-0.005811865,0.0026627437,-0.017250605,0.014338663,0.48516276,-1.3608776,1.8782767,-2.0871584,-1.5702757,2.4578934,-0.15140668,0.17187364,-0.20420392,0.048888545,0.0054289917,-0.16565226,-0.15322891,0.36391866,-9.710882,0.8493211,47.68062,-1.07654,-2.38346,-3.474403,-0.31478298,0.10888409,-0.37509266,25.75,26.5625,25.625,28.125,28.9375,29.375
0.2620539,-0.8386147,-1.3706654,-2.000671,-0.052592855,0.05901943,-0.10629776,-0.40537125,-0.36564133,0.06005777,3.07891,-0.6211718,-2.9502773e-05,-0.11981713,0.026633386,-0.0041152416,0.0007646185,-0.013986605,0.011478634,0.48489854,-1.3605428,1.877858,-2.0870626,-1.5702518,2.4575331,-0.15397286,0.16872159,-0.20417623,0.0482453,0.0055789347,-0.16535923,-0.21068975,0.30645782,-9.691729,0.8090337,47.69763,-1.0529963,-2.2925425,-3.6639895,-0.3226505,0.09391815,-0.40743524,25.75,26.5625,25.625,28.125,28.9375,29.375
0.26405346,-1.4180306,-1.4612637,-1.7332375,-0.057585478,0.051761333,-0.098686755,-0.40562874,-0.36559403,0.060071576,3.07892,-0.62109184,-6.9579415e-05,-0.121338226,0.026540074,-0.0043940903,0.0005211153,-0.012938586,0.017520988,0.484599,-1.3602182,1.8774155,-2.0869682,-1.5702637,2.4571826,-0.15489209,0.17121997,-0.2062672,0.046801325,0.0053013703,-0.17231926,-0.21068975,0.15322891,-9.615114,0.90527004,47.677036,-1.0175114,-2.405706,-3.5733857,-0.3330307,0.114673965,-0.37738216,25.75,26.5625,25.625,28.125,28.9375,29.375
0.26605427,-1.2875091,-0.8050762,-1.4788109,-0.06139131,0.06684491,-0.115713514,-0.40586483,-0.36553222,0.060060315,3.0789437,-0.6210518,-3.8623963e-05,-0.1229766,0.026251614,-0.0043511903,-0.0005070146,-0.012027703,0.025913661,0.48428705,-1.3598936,1.8770322,-2.0868843,-1.5702637,2.456843,-0.1560528,0.17353539,-0.20900247,0.045941032,0.005775194,-0.18187198,-0.30645782,0.1340753,-9.461885,0.88289046,47.699425,-1.0114291,-2.3589673,-3.5844457,-0.3294431,0.1019517,-0.3009079,25.75,26.5625,25.625,28.125,28.9375,29.375
0.2680541,-1.814614,-0.8122391,-1.3257401,-0.03912362,0.07653347,-0.10942075,-0.40614235,-0.3655033,0.060079787,3.0788941,-0.6209182,-6.184941e-05,-0.1245231,0.02548188,-0.0029168571,-0.0018387646,-0.00907766,0.036035787,0.48396417,-1.3595462,1.8765544,-2.0868127,-1.5702156,2.456443,-0.15590303,0.17372419,-0.21257763,0.046113312,0.005586011,-0.19184263,-0.3256114,0.17238252,-9.404425,0.7978386,47.69763,-1.1576978,-2.3701308,-3.5129852,-0.3394724,0.089438416,-0.17760637,25.75,26.5625,25.625,28.125,28.9375,29.375
0.27005365,-1.7668093,-0.15090284,-1.2753903,-0.027400037,0.08821368,-0.11286862,-0.4063697,-0.36545143,0.060046308,3.0789735,-0.62077737,3.7251553e-05,-0.12719512,0.023764895,-0.00088435307,-0.0060280943,-0.0030258226,0.040058047,0.4836766,-1.3591622,1.8761448,-2.0867064,-1.5702151,2.4560578,-0.15582737,0.17389305,-0.2166935,0.04275529,0.0064475574,-0.19578904,-0.4405331,0.038307227,-9.385271,0.8717007,47.690468,-1.1581393,-2.2769709,-3.4000025,-0.33271772,0.07751936,-0.09612803,25.75,26.5625,25.625,28.125,28.9375,29.375
0.27205366,-1.9624048,-0.0011442835,-1.2298942,-0.020351926,0.09121076,-0.1066504,-0.40663132,-0.36541277,0.060058117,3.0789227,-0.62069225,2.8867351e-05,-0.12910867,0.024283988,-0.0005250269,-0.0072731236,-0.0010370115,0.034708507,0.4833522,-1.3588383,1.8757151,-2.0866468,-1.5701674,2.4556868,-0.15837611,0.17453608,-0.21794204,0.04103059,0.0066266404,-0.1929876,-0.45968673,0.05746084,-9.289502,0.9410752,47.68062,-1.1048253,-2.2682393,-3.4176373,-0.3021778,0.08782246,-0.08088384,25.75,26.5625,25.625,28.125,28.9375,29.375
0.274054,-1.8839177,0.16742595,-1.2528639,-0.013288858,0.09725633,-0.10202317,-0.4068899,-0.3653487,0.06005921,3.078941,-0.62063944,4.470247e-05,-0.1298595,0.02334948,-0.0010210515,-0.007786312,-0.0012011551,0.029064598,0.4830175,-1.3585018,1.8752836,-2.086539,-1.5701674,2.455317,-0.15768671,0.17768584,-0.220503,0.040345665,0.0071457317,-0.18665358,-0.4405331,0.11492168,-9.289503,0.90527004,47.69763,-1.2013994,-2.1665154,-3.384953,-0.30463588,0.070378475,-0.14112404,25.75,26.5625,25.625,28.125,28.9375,29.375
0.27605414,-2.086738,-0.034449887,-1.4985176,-0.019975314,0.09450382,-0.1066498,-0.40713635,-0.36530367,0.060055844,3.0789597,-0.6205309,7.079044e-05,-0.13038903,0.023813184,-0.00015807732,-0.007948159,0.00036090089,0.02077374,0.48271784,-1.3581545,1.8748521,-2.0864437,-1.570155,2.4549475,-0.15846077,0.17615284,-0.22074561,0.04066497,0.006559712,-0.17913656,-0.49799395,0.038307227,-9.481039,0.9254084,47.675243,-1.2602298,-2.0799372,-3.3722334,-0.3016277,0.06437834,-0.25844842,25.75,26.5625,25.625,28.125,28.9375,29.375
0.27805454,-2.2074058,-0.5404491,-1.3797573,-0.03323441,0.09585239,-0.10164004,-0.40741614,-0.36525294,0.060056634,3.0789433,-0.62051004,1.352973e-06,-0.1309656,0.023078447,0.0005932068,-0.008072364,0.0025904926,0.014805231,0.48239502,-1.3577946,1.8744091,-2.0864074,-1.5701679,2.454614,-0.1570609,0.17633976,-0.22266477,0.04036363,0.0056367186,-0.17176637,-0.7086837,0.076614454,-9.404425,0.8224646,47.684196,-1.3672292,-2.0835452,-3.443737,-0.29575545,0.07109856,-0.3430066,25.75,26.5625,25.625,28.125,28.9375,29.375
0.2800538,-2.7152386,-0.7829985,-1.4875709,-0.034531392,0.08397917,-0.1001817,-0.4076961,-0.36520034,0.06007478,3.0788898,-0.62055993,-1.8561637e-05,-0.13364606,0.023979919,0.0011795555,-0.008817061,0.005530379,0.0070550316,0.48204654,-1.3574587,1.8739423,-2.086313,-1.5701436,2.4543035,-0.16036339,0.17722306,-0.22470659,0.03857832,0.004931044,-0.16731694,-0.59376204,0.095768064,-9.500193,0.91198283,47.688675,-1.303923,-2.0248966,-3.5201044,-0.2722648,0.0765492,-0.45180872,25.75,26.5625,25.625,28.125,28.9375,29.375
0.28205407,-2.1832993,-0.63224953,-1.4614916,-0.044982746,0.09808667,-0.11539638,-0.4079474,-0.3651638,0.060068782,3.0788994,-0.6205032,7.789855e-06,-0.13600634,0.024867326,0.0013399707,-0.009423934,0.0074560577,0.0049377214,0.481758,-1.3570868,1.8734864,-2.0862172,-1.5701321,2.4539785,-0.16358313,0.17859608,-0.22640982,0.0369264,0.0045700795,-0.16841832,-0.45968673,-0.05746084,-9.5385,0.85155696,47.67166,-1.1300857,-2.013503,-3.4779387,-0.24877,0.075753435,-0.49735945,25.75,26.5625,25.625,28.125,28.9375,29.375
0.28405422,-2.2370193,-0.96905607,-1.5209037,-0.035425685,0.08695458,-0.11164839,-0.4082083,-0.36510023,0.0600451,3.0789282,-0.6204034,2.576891e-05,-0.13608317,0.024393415,-0.000316513,-0.008278329,0.0051575582,0.016334392,0.48142317,-1.3567137,1.8730801,-2.0861695,-1.5701321,2.453578,-0.1627778,0.1829793,-0.22792779,0.036636967,0.004621247,-0.17900868,-0.45968673,-0.038307227,-9.5385,0.8873621,47.64479,-1.3879476,-2.0261595,-3.5024285,-0.23250073,0.077320516,-0.46967322,25.75,26.5625,25.625,28.125,28.9375,29.375
0.28605416,-1.5025889,-0.41364446,-1.4587704,-0.035461817,0.08998467,-0.11913021,-0.40850064,-0.3650641,0.060089655,3.078868,-0.6203831,-6.38776e-05,-0.13675322,0.024343932,-9.98462e-05,-0.008869385,0.0060897204,0.0286866,0.48109928,-1.3563899,1.8725647,-2.0860617,-1.5701197,2.4532492,-0.163224,0.18333264,-0.22875766,0.036025267,0.004735484,-0.19180657,-0.30645782,0.0,-9.442732,0.94331104,47.687782,-1.3756601,-2.0033638,-3.548202,-0.2155329,0.08581795,-0.35719034,25.75,26.5625,25.625,28.125,28.9375,29.375
0.28805417,-1.3243022,-0.33973143,-1.7363205,-0.024151826,0.07804351,-0.11905674,-0.40878275,-0.36499596,0.06008378,3.078888,-0.62028736,-6.2111816e-05,-0.13745058,0.024430241,-0.0011442603,-0.00834709,0.00518985,0.03726906,0.4807391,-1.3560172,1.8721102,-2.0859783,-1.5701202,2.452827,-0.16382618,0.1863164,-0.22985749,0.035188556,0.0046923687,-0.20099044,-0.24899697,0.15322891,-9.519346,0.88960326,47.691364,-1.4190106,-2.1564333,-3.5580168,-0.19408679,0.08172039,-0.22398654,25.75,26.5625,25.625,28.125,28.9375,29.375
0.2900549,-0.7870976,-0.02480489,-1.8796283,-0.034052297,0.069363125,-0.11796338,-0.40906292,-0.36496985,0.060087316,3.078903,-0.6200196,-0.00013449568,-0.13934366,0.024958322,-0.0013665379,-0.008362226,0.005757751,0.038421243,0.48045057,-1.3556324,1.8716305,-2.085943,-1.5701202,2.4523697,-0.16609377,0.18875039,-0.232222,0.034613155,0.004453287,-0.20440865,-0.05746084,0.21068975,-9.5385,0.90527004,47.68599,-1.3660026,-2.2521641,-3.6249332,-0.16740522,0.07783966,-0.15779805,25.75,26.5625,25.625,28.125,28.9375,29.375
0.2920603,-1.1456778,-1.193259,-1.6970351,-0.038681768,0.03683125,-0.110229045,-0.40934202,-0.36487657,0.060080625,3.0789137,-0.6200644,-0.00015528944,-0.14047958,0.025823358,-0.0021311874,-0.007365694,0.0045417394,0.031697303,0.4800659,-1.355296,1.8712238,-2.0858705,-1.570144,2.4520118,-0.16820064,0.19131076,-0.23374622,0.035111267,0.0041289646,-0.19979054,-0.15322891,0.19153613,-9.557653,0.88960326,47.699425,-1.2752554,-2.2543654,-3.6324859,-0.13314551,0.099410936,-0.17935807,25.75,26.5625,25.625,28.125,28.9375,29.375
0.29405564,-0.6959908,-1.4536015,-1.5048995,-0.07156727,0.033678193,-0.11125789,-0.40965107,-0.364852,0.06011031,3.078858,-0.61990446,-0.00026146957,-0.14237927,0.027181562,-0.0019728628,-0.007106569,0.004726307,0.021386212,0.47974077,-1.354924,1.8706969,-2.0858223,-1.5701202,2.451594,-0.17179823,0.1923672,-0.23561808,0.035885826,0.0038304077,-0.19307576,-0.21068975,0.24899697,-9.461885,0.8873621,47.687782,-1.2506008,-2.3106399,-3.6297898,-0.12098848,0.098665975,-0.27215612,25.75,26.5625,25.625,28.125,28.9375,29.375
0.2960544,-0.9561815,-1.7998073,-1.5130345,-0.08493864,0.03766393,-0.11172152,-0.4099343,-0.3647912,0.060110994,3.0788581,-0.61994237,-0.00024667656,-0.14307769,0.026833896,-0.001979825,-0.0065167653,0.004321301,0.018775504,0.4793929,-1.3545398,1.8702048,-2.0857022,-1.5701207,2.45127,-0.17148973,0.19454566,-0.23862952,0.037351094,0.0034888466,-0.19015518,-0.095768064,0.30645782,-9.346964,0.88289046,47.67614,-1.3381305,-2.1943436,-3.5944467,-0.093310654,0.1072736,-0.34656435,25.75,26.5625,25.625,28.125,28.9375,29.375
0.29805392,-1.3607793,-1.8884288,-1.3976488,-0.06798637,0.027952196,-0.10645758,-0.41021764,-0.36473596,0.06010981,3.0788674,-0.61986864,-0.00031377721,-0.1439886,0.027215684,-0.00067802885,-0.0070722755,0.005543947,0.015096048,0.47906837,-1.3541688,1.869749,-2.0856535,-1.570144,2.4508986,-0.17274986,0.19323175,-0.24047165,0.039161768,0.0034257332,-0.1877355,0.0,0.30645782,-9.270349,0.8806493,47.739727,-1.194109,-2.204118,-3.528129,-0.1009929,0.11332109,-0.40417564,25.75,26.5625,25.625,28.125,28.9375,29.375
0.3000544,-1.3484263,-1.7261307,-1.2472395,-0.057587292,0.029952297,-0.11632649,-0.4104795,-0.36468828,0.06010504,3.078846,-0.61978793,-0.000264379,-0.14471607,0.027762802,-0.0011340968,-0.0068819555,0.004202323,0.013893982,0.4787318,-1.3538084,1.869306,-2.0855696,-1.5700959,2.4505146,-0.17444196,0.19492155,-0.24173601,0.040023893,0.003876901,-0.18822536,-0.019153614,0.34476504,-9.404425,0.900793,47.683304,-1.1653771,-2.1293225,-3.5818524,-0.10603875,0.11156066,-0.41485375,25.75,26.5625,25.625,28.125,28.9375,29.375
0.302054,-0.63621724,-1.0798099,-1.0625333,-0.055687346,0.04787117,-0.12392171,-0.41079637,-0.3646228,0.06009426,3.0788279,-0.61976165,-0.00030621138,-0.14629759,0.027697444,-4.532951e-05,-0.009190718,0.0056020375,0.019426433,0.47834703,-1.3533884,1.8688153,-2.0855339,-1.5700954,2.450116,-0.17641865,0.19483842,-0.24424353,0.04031082,0.005292447,-0.19573468,-0.095768064,0.28730422,-9.289502,0.87617236,47.683304,-1.1754756,-2.1862535,-3.642713,-0.09284568,0.10300154,-0.37297451,25.75,26.5625,25.625,28.125,28.9375,29.375
0.30405396,-0.88554907,-0.8202276,-1.1755173,-0.0420785,0.044379782,-0.12713492,-0.41109484,-0.36456868,0.06011325,3.0788326,-0.6196987,-0.00031980887,-0.14865826,0.028909838,0.0004567026,-0.009714386,0.0062647113,0.026985839,0.47799784,-1.3530045,1.868276,-2.0853899,-1.5700954,2.449727,-0.18044643,0.19594629,-0.24696614,0.041105423,0.005463068,-0.20732102,-0.05746084,0.40222588,-9.232041,0.9545008,47.674347,-1.0297184,-2.0572128,-3.5463228,-0.07595478,0.098176375,-0.2695313,25.75,26.5625,25.625,28.125,28.9375,29.375
0.3060537,-1.0843781,-0.53777504,-0.9735544,-0.043563627,0.047730792,-0.13000011,-0.411388,-0.3645095,0.060115147,3.0788393,-0.6195038,-0.00035105107,-0.14960457,0.028580355,-0.0004481334,-0.009105925,0.0044821757,0.034879558,0.47763783,-1.3526316,1.8678077,-2.0853298,-1.5700835,2.4492447,-0.18075566,0.20020491,-0.25035208,0.042104673,0.005754701,-0.21552233,-0.11492168,0.2681506,-9.212888,0.9186956,47.67345,-1.1109915,-2.079317,-3.421148,-0.054917697,0.096541785,-0.14059074,25.75,26.5625,25.625,28.125,28.9375,29.375
0.30805376,-1.4881581,-0.6922594,-0.9494519,-0.032621786,0.056936856,-0.11819634,-0.41169065,-0.36446142,0.060091678,3.07881,-0.6194206,-0.00031672537,-0.14990333,0.02801811,0.0003347354,-0.009348043,0.005651406,0.035994582,0.47726628,-1.3521881,1.8673171,-2.0852935,-1.5700353,2.4488251,-0.17973539,0.20006333,-0.25223997,0.04299842,0.005436038,-0.21561645,-0.34476507,0.21068975,-9.232041,0.9455522,47.716442,-1.0596323,-2.008695,-3.3927402,-0.043139286,0.09220309,-0.08199282,25.75,26.5625,25.625,28.125,28.9375,29.375
0.31005374,-1.533736,-0.9646284,-1.1693733,-0.013360797,0.066817895,-0.114633314,-0.41198137,-0.36442897,0.060128354,3.0788121,-0.61921483,-0.00036207165,-0.15042543,0.028494595,0.000556356,-0.009684482,0.005153181,0.027064636,0.4769537,-1.3518282,1.8667663,-2.085149,-1.5700239,2.448384,-0.18116562,0.20012122,-0.25312746,0.044113122,0.005970554,-0.2081167,-0.51714754,0.15322891,-9.289502,0.83589023,47.689575,-1.1133341,-1.9932313,-3.448522,-0.03284282,0.08262664,-0.14881289,25.75,26.5625,25.625,28.125,28.9375,29.375
0.31205422,-1.8480837,-0.5118088,-1.1430539,-0.011687376,0.06975862,-0.11325038,-0.41228625,-0.36437103,0.060122713,3.078808,-0.6191996,-0.00037326023,-0.14989607,0.028839655,-0.00081915443,-0.008860223,0.0013277712,0.017094087,0.4765934,-1.3514079,1.8662518,-2.0850646,-1.5700234,2.448015,-0.18175721,0.20248523,-0.25330347,0.04569422,0.006993245,-0.19873808,-0.45968673,0.05746084,-9.251195,0.9254084,47.698532,-1.0205178,-2.0765567,-3.3756847,-0.029400963,0.07237828,-0.2768514,25.75,26.5625,25.625,28.125,28.9375,29.375
0.3140543,-1.8621545,-0.43910557,-0.8266053,-0.024392026,0.08557512,-0.118532725,-0.41259146,-0.36431482,0.06012845,3.0787704,-0.6191369,-0.0004070408,-0.15123327,0.0280487,-0.0001205124,-0.009554962,0.0029717004,0.010374692,0.47622156,-1.3510237,1.8657607,-2.085005,-1.5699991,2.447609,-0.18136264,0.20410801,-0.2569829,0.045974154,0.006854226,-0.19162239,-0.49799395,-0.038307227,-9.155427,0.9612189,47.672558,-1.2080344,-2.1386833,-3.4697678,-0.020180302,0.07035648,-0.3613758,25.75,26.5625,25.625,28.125,28.9375,29.375
0.31605425,-1.5250722,-0.10048828,-0.6473483,-0.024430597,0.09924844,-0.1280875,-0.41289207,-0.36424056,0.060108896,3.0787735,-0.6191573,-0.00039201637,-0.1505707,0.026618209,0.0007320677,-0.0100070005,0.0044348915,0.00918851,0.47583872,-1.3506043,1.8652815,-2.084933,-1.5699991,2.4472387,-0.17809913,0.2033481,-0.25817534,0.046419308,0.006580391,-0.18717255,-0.51714754,-0.076614454,-9.021352,0.91421866,47.685097,-1.3495104,-1.9338725,-3.4702086,-0.019308945,0.06433788,-0.47940284,25.75,26.5625,25.625,28.125,28.9375,29.375
0.31805393,-1.8731556,0.347115,-0.6568992,-0.015748734,0.09340719,-0.12597466,-0.41318938,-0.3641871,0.06008443,3.0788012,-0.61908215,-0.00030647227,-0.1498443,0.02648578,5.25564e-06,-0.008670528,0.0023245825,0.012433033,0.47547907,-1.3501362,1.8647431,-2.0848124,-1.5699753,2.4468288,-0.17697322,0.20477283,-0.25870353,0.048020374,0.00635622,-0.18929124,-0.59376204,0.0,-9.097966,0.8940802,47.68062,-1.4601524,-2.04863,-3.4323804,0.0014535133,0.07330196,-0.5220108,25.75,26.5625,25.625,28.125,28.9375,29.375
0.3200538,-1.3263036,0.119517975,-0.9212217,-0.0028444056,0.09444546,-0.12975587,-0.41349778,-0.36412814,0.06010603,3.078757,-0.6190487,-0.00031327776,-0.15158291,0.027663067,-0.00019688751,-0.007667413,0.0012513946,0.02162818,0.47509387,-1.3497638,1.8642162,-2.0846922,-1.5699395,2.4464285,-0.18004128,0.20716634,-0.26166418,0.050021723,0.0059732776,-0.2015529,-0.26815057,-0.05746084,-9.136273,0.9701675,47.67345,-1.3725867,-2.0373745,-3.5516462,0.0036288532,0.06588147,-0.45593882,25.75,26.5625,25.625,28.125,28.9375,29.375
0.3220539,-1.3880569,-0.09376599,-1.0771105,-0.0031890336,0.06032583,-0.11883363,-0.41381145,-0.3640794,0.060096182,3.0787668,-0.6189844,-0.00037876208,-0.15222487,0.02859669,-0.0014251868,-0.005961672,-0.0016328275,0.033821303,0.4747578,-1.3493191,1.8636893,-2.084644,-1.5699638,2.4460514,-0.18189064,0.2103951,-0.26326782,0.051750902,0.0057969,-0.2155943,-0.1340753,-0.15322891,-9.193734,0.9186956,47.67614,-1.468421,-2.0345068,-3.5465562,-0.014345018,0.07786277,-0.31759334,25.75,26.5625,25.625,28.125,28.9375,29.375
0.324054,-0.3690587,0.25775203,-0.9003537,-0.024038997,0.050454695,-0.13614336,-0.41411203,-0.36399877,0.060090777,3.0788097,-0.6188554,-0.00037488237,-0.1536691,0.029685356,-0.0010316862,-0.0049586934,-0.0018030273,0.04024831,0.47437286,-1.3489231,1.8631972,-2.0845354,-1.5699757,2.4455807,-0.18429942,0.21132223,-0.26588088,0.054056294,0.0049880827,-0.22442898,-0.2681506,0.11492168,-9.212888,1.005978,47.68062,-1.3754224,-2.064811,-3.5381548,-0.020277463,0.08346763,-0.18882886,25.75,26.5625,25.625,28.125,28.9375,29.375
0.32605428,-0.567033,-0.35050115,-0.9483357,-0.026705459,0.03498033,-0.11446125,-0.41440338,-0.363941,0.06006409,3.0788689,-0.61869484,-0.00026156966,-0.1537676,0.03029761,-0.0021895356,-0.0024995175,-0.004965542,0.039130207,0.47401235,-1.3484546,1.8626574,-2.0843909,-1.5699519,2.4451127,-0.18479629,0.21447149,-0.26777497,0.05674719,0.004228994,-0.22380681,-0.24899697,0.076614454,-9.155427,0.9164598,47.67345,-1.3523178,-2.0901372,-3.4718275,-0.051187146,0.098480105,-0.15522079,25.75,26.5625,25.625,28.125,28.9375,29.375
0.328054,-0.17656177,-0.12497561,-1.238784,-0.040090177,0.037582934,-0.124227166,-0.41472182,-0.36387387,0.060063593,3.0788877,-0.61860716,-0.00025789352,-0.15473956,0.030894173,-0.0021342728,-0.0014623115,-0.0062174182,0.03015701,0.47362787,-1.3480226,1.8621076,-2.0842702,-1.5699519,2.4446714,-0.18624413,0.21622024,-0.27073804,0.05954577,0.003868624,-0.21628027,-0.19153613,0.05746084,-9.251195,0.87617236,47.683304,-1.2977669,-2.1386793,-3.53062,-0.08728066,0.109543994,-0.22340277,25.75,26.5625,25.625,28.125,28.9375,29.375
0.33005416,-0.251004,-0.7831291,-1.358254,-0.039561164,0.04195392,-0.11972894,-0.41503924,-0.36381465,0.060064595,3.078892,-0.61855066,-0.00027007415,-0.15651342,0.031687617,-0.0023344741,-0.0011938979,-0.0076247575,0.019918319,0.47325766,-1.3475897,1.8615559,-2.0841615,-1.5699519,2.4442656,-0.18916132,0.2190661,-0.2742902,0.06162137,0.0042622127,-0.20895758,-0.21068975,0.17238252,-9.232041,0.8873621,47.666286,-1.2160515,-2.3623617,-3.4821532,-0.110827364,0.107806906,-0.31132272,25.75,26.5625,25.625,28.125,28.9375,29.375
0.3320543,-0.7530565,-1.3196189,-1.0931427,-0.042237904,0.046220448,-0.117171064,-0.4153611,-0.36375758,0.060055222,3.0788836,-0.61847854,-0.00019243598,-0.15700167,0.03277445,-0.0021878723,8.834017e-05,-0.011033295,0.014180312,0.47285867,-1.3471217,1.8609794,-2.084028,-1.5699042,2.4438229,-0.1914631,0.22022934,-0.27738458,0.067178495,0.0046686255,-0.2055209,-0.24899697,0.2681506,-9.212888,0.91421866,47.652847,-1.1604869,-2.2493052,-3.3905616,-0.17002037,0.12421187,-0.36977154,25.75,26.5625,25.625,28.125,28.9375,29.375
0.33405393,-0.72920007,-0.71363205,-1.1844038,-0.044549104,0.05646659,-0.12737755,-0.41567156,-0.36368564,0.060070835,3.0789244,-0.61836565,-0.00021503527,-0.1597008,0.03258048,-0.00041972753,-0.0027808433,-0.007384413,0.0144770425,0.47248816,-1.3467262,1.8604292,-2.083873,-1.5699276,2.443377,-0.19382273,0.22020079,-0.28129098,0.06655474,0.005551319,-0.20817667,-0.38307226,0.34476504,-9.270349,0.8560339,47.642998,-1.1057525,-2.2031198,-3.320921,-0.18803921,0.10845387,-0.4106242,25.75,26.5625,25.625,28.125,28.9375,29.375
0.33605403,-1.5516772,-1.4006107,-1.4551768,-0.038741216,0.05388096,-0.119740725,-0.41599736,-0.3636288,0.060049377,3.078922,-0.61828566,-0.00018894498,-0.15953565,0.03379989,-0.002551875,-0.0009129325,-0.011929116,0.023321599,0.4721013,-1.3462454,1.859878,-2.0838006,-1.5699037,2.4429407,-0.19578844,0.22357419,-0.2809177,0.067720406,0.0059646084,-0.21898708,-0.21068975,0.3256114,-9.3661175,0.9410752,47.681515,-1.0898796,-2.1218302,-3.3368566,-0.23960277,0.08789511,-0.33759263,25.75,26.5625,25.625,28.125,28.9375,29.375
0.33805424,-1.3593851,-1.4474207,-1.2876583,-0.057278484,0.070866875,-0.11656069,-0.41628012,-0.3635378,0.06003535,3.0790136,-0.6182225,-6.504098e-05,-0.15890993,0.035141613,-0.0027187003,0.0009591353,-0.015311024,0.033034243,0.4717164,-1.3458261,1.8593515,-2.083583,-1.5699157,2.4425051,-0.19724753,0.22314326,-0.2811214,0.07222834,0.005824023,-0.23015969,-0.22984336,0.38307226,-9.32781,0.88960326,47.70659,-1.0180706,-2.1126328,-3.5099564,-0.30569223,0.10315068,-0.21193683,25.75,26.5625,25.625,28.125,28.9375,29.375
0.34005424,-2.030371,-1.5825404,-1.45475,-0.052847646,0.07077993,-0.1101438,-0.41659653,-0.36347783,0.060010955,3.0790343,-0.6180668,6.7963e-05,-0.15912715,0.035104636,-0.0025389455,0.0005065674,-0.013960436,0.037543874,0.4713111,-1.3453345,1.8587774,-2.0834405,-1.5698556,2.4420002,-0.19706374,0.2226875,-0.28078902,0.070964225,0.0055950126,-0.23448607,-0.38307226,0.24899697,-9.423578,0.9925471,47.681515,-0.9744065,-2.0775142,-3.6744761,-0.35929635,0.11464582,-0.11200508,25.75,26.5625,25.625,28.125,28.9375,29.375
0.34205395,-2.1160777,-1.5179825,-1.4747951,-0.058454867,0.09470238,-0.11023304,-0.41692656,-0.36340976,0.060017463,3.0790608,-0.61798114,5.7643207e-05,-0.16015421,0.0351362,-0.002604908,0.00010032097,-0.01269504,0.032882106,0.47092465,-1.3448906,1.8581909,-2.083297,-1.5698675,2.4415572,-0.19768472,0.22382529,-0.28178084,0.069503136,0.0053694313,-0.23044476,-0.51714754,0.22984336,-9.3661175,0.92764956,47.655537,-0.9776106,-2.149712,-3.6436641,-0.34191418,0.116021134,-0.12093967,25.75,26.5625,25.625,28.125,28.9375,29.375
0.34405363,-2.2907543,-1.1020614,-1.2843664,-0.054657754,0.101624094,-0.11752549,-0.41724756,-0.36333442,0.060000166,3.079072,-0.6179462,9.905923e-05,-0.16115424,0.03371303,-0.0020228904,-0.0019206716,-0.010498032,0.024089905,0.47051942,-1.3444345,1.8576516,-2.0831902,-1.5698551,2.441129,-0.19647677,0.22517028,-0.28448173,0.06797782,0.0061486918,-0.22044444,-0.5746084,0.15322891,-9.32781,0.8672237,47.6636,-1.2353122,-2.090771,-3.6561863,-0.35296643,0.10509616,-0.20632234,25.75,26.5625,25.625,28.125,28.9375,29.375
0.34605336,-2.0422595,-0.49910486,-1.3664712,-0.03702802,0.10846104,-0.11361962,-0.41757193,-0.36328945,0.059991386,3.0790837,-0.61781806,0.00016400084,-0.16318883,0.03205659,-0.00077840046,-0.004940219,-0.0060587674,0.015157877,0.4701479,-1.3439425,1.8570412,-2.0830476,-1.5698193,2.4406762,-0.19568045,0.22638242,-0.28824663,0.06520383,0.006800134,-0.21071553,-0.5746084,0.19153613,-9.270349,0.93436235,47.66271,-1.3054516,-2.1924343,-3.6257768,-0.35154897,0.08710405,-0.34069806,25.75,26.5625,25.625,28.125,28.9375,29.375
0.348054,-1.681575,-0.37826163,-1.6010703,-0.024739178,0.10407174,-0.11675195,-0.41790164,-0.36320776,0.059986774,3.079068,-0.61784106,0.0001753278,-0.16572265,0.031045318,-0.00086677674,-0.006679986,-0.002662918,0.008907826,0.46972555,-1.3435099,1.8565015,-2.0829413,-1.5698069,2.4402704,-0.19597077,0.23009333,-0.29173592,0.061166707,0.0067922366,-0.20475417,-0.49799395,0.1340753,-9.32781,1.0328293,47.694054,-1.4415429,-2.2408698,-3.4960077,-0.3321731,0.086795904,-0.46139193,25.75,26.5625,25.625,28.125,28.9375,29.375
0.35005382,-1.5548991,-0.46184742,-1.8185595,-0.023064097,0.08201654,-0.12110648,-0.41823238,-0.36315778,0.059978586,3.0790746,-0.6177982,0.00020280546,-0.16706282,0.030831905,-0.0015256981,-0.0067693465,-0.0015479723,0.009252485,0.4693557,-1.3430172,1.8558911,-2.0828106,-1.5697955,2.4398732,-0.196316,0.23300956,-0.29337415,0.058861393,0.0063565355,-0.20544298,-0.24899697,0.17238252,-9.385271,0.9254084,47.67166,-1.3643069,-2.2844536,-3.4977224,-0.29750085,0.086724654,-0.538921,25.75,26.5625,25.625,28.125,28.9375,29.375
0.35205352,-1.2618281,-0.83463347,-1.9000294,-0.0549891,0.06579638,-0.1235003,-0.41858912,-0.36308014,0.059978537,3.0791068,-0.6177409,0.00015343599,-0.16986054,0.030885719,-0.0009282062,-0.0076572346,0.001204633,0.018034002,0.4689472,-1.3425367,1.8552793,-2.082691,-1.5698317,2.4394252,-0.19830953,0.2354328,-0.29752487,0.057739552,0.005902505,-0.21621606,-0.15322891,0.19153613,-9.442732,0.94331104,47.67614,-1.3415266,-2.5252578,-3.4101388,-0.2883019,0.11357275,-0.4914547,25.75,26.5625,25.625,28.125,28.9375,29.375
0.35405487,-1.5658838,-1.9733353,-1.8284202,-0.06379097,0.056880366,-0.1189455,-0.41894132,-0.36301035,0.05997507,3.0790975,-0.61769205,0.00014804107,-0.17235702,0.0307163,0.00025671555,-0.009871536,0.006950881,0.03035436,0.46852687,-1.3420576,1.85468,-2.0825846,-1.5698198,2.4389758,-0.19957003,0.23513435,-0.29895756,0.053364556,0.00528338,-0.22979608,-0.24899697,0.21068975,-9.481039,0.9097417,47.687782,-1.337481,-2.291957,-3.4284892,-0.23343056,0.12559713,-0.34678212,25.75,26.5625,25.625,28.125,28.9375,29.375
0.35605395,-1.4630767,-1.6962963,-2.0337205,-0.07555851,0.055528123,-0.11673096,-0.4192761,-0.36294112,0.059957538,3.0791419,-0.61754423,0.0001778154,-0.17377678,0.03156185,-0.00031260203,-0.009263034,0.007547527,0.03740086,0.46813002,-1.3415655,1.8540934,-2.082466,-1.5698203,2.4384813,-0.20149487,0.23707452,-0.2998452,0.052068125,0.0044701807,-0.2387665,-0.28730422,0.38307226,-9.634268,0.9768804,47.677036,-1.3108605,-2.3646488,-3.319246,-0.20904891,0.13526663,-0.22371286,25.75,26.5625,25.625,28.125,28.9375,29.375
0.35805386,-1.5911905,-1.6954772,-2.166928,-0.061964974,0.059330087,-0.1142448,-0.4196417,-0.36289248,0.05997708,3.0791268,-0.6173897,0.00012130881,-0.17319958,0.03238612,-0.0019489427,-0.007719533,0.0038511234,0.034794237,0.46773392,-1.3410848,1.8534364,-2.0823452,-1.5698079,2.437991,-0.20236406,0.23925158,-0.29914925,0.053192742,0.004779648,-0.23702924,-0.1340753,0.22984336,-9.595961,0.8940802,47.705692,-1.3372066,-2.453298,-3.554309,-0.19466369,0.13829955,-0.21268943,25.75,26.5625,25.625,28.125,28.9375,29.375
0.36005345,-1.3767072,-1.8214169,-2.1400104,-0.062075682,0.064102836,-0.10171313,-0.4199652,-0.36282155,0.059967183,3.0791225,-0.6173404,0.00018698945,-0.17438772,0.03313724,-0.0020795164,-0.008173167,0.0036747693,0.024918646,0.46732238,-1.3406289,1.8528732,-2.0822136,-1.5697716,2.4375494,-0.2047092,0.24031457,-0.3002459,0.053181052,0.0052537606,-0.22949903,-0.2873042,0.28730422,-9.691729,0.9634547,47.694946,-1.153904,-2.50512,-3.7501888,-0.17908585,0.14434406,-0.29387403,25.75,26.5625,25.625,28.125,28.9375,29.375
0.36205423,-2.1961303,-2.0063775,-1.8398302,-0.0672624,0.05194023,-0.10562633,-0.42033416,-0.3627486,0.059955288,3.0791132,-0.61733973,0.00017068684,-0.17773272,0.033529498,-0.0016274073,-0.010816212,0.0072331675,0.015386782,0.46689147,-1.3401129,1.85225,-2.0821197,-1.5697716,2.4371195,-0.20841244,0.24227472,-0.30295226,0.04955405,0.005999939,-0.22366998,-0.22984336,0.2681506,-9.595961,0.92093146,47.690468,-1.0163194,-2.4145956,-3.704818,-0.14026886,0.13301389,-0.36671332,25.75,26.5625,25.625,28.125,28.9375,29.375
0.36405405,-1.5088432,-1.0845283,-1.6781871,-0.06647949,0.06351174,-0.10974421,-0.42069522,-0.36269405,0.059941236,3.0790832,-0.61727697,0.00015240569,-0.17878821,0.033869557,-0.0010153386,-0.012129491,0.00758491,0.013000704,0.46648318,-1.3395973,1.8516392,-2.0820591,-1.5697469,2.436676,-0.21027352,0.24224,-0.30458143,0.05031723,0.007024844,-0.22314537,-0.21068975,0.17238252,-9.519346,0.93436235,47.67614,-1.0570072,-2.37095,-3.6147804,-0.105155796,0.12313786,-0.41080266,25.75,26.5625,25.625,28.125,28.9375,29.375
0.36605397,-1.179951,-0.590723,-1.921382,-0.03207754,0.05472864,-0.11843602,-0.42105937,-0.36265182,0.059976857,3.0790133,-0.61718154,7.080928e-05,-0.18139422,0.034723286,0.0011669003,-0.013502799,0.011097401,0.017768852,0.46608648,-1.3391542,1.8509935,-2.081951,-1.5697111,2.4362288,-0.21346653,0.24078721,-0.30812764,0.051582195,0.0067004245,-0.23110504,-0.1340753,0.11492168,-9.442732,0.9410752,47.685097,-0.84944487,-2.2439287,-3.5555627,-0.091193184,0.11068304,-0.39503115,25.75,26.5625,25.625,28.125,28.9375,29.375
0.36805353,-0.6039924,0.4216352,-1.8206989,-0.009027427,0.047038652,-0.124783464,-0.4214338,-0.36253822,0.05993273,3.0790632,-0.6171835,8.065965e-05,-0.18217817,0.033954833,0.0010100759,-0.013433074,0.011417004,0.032040637,0.4656065,-1.3386137,1.8504175,-2.0818794,-1.5697469,2.435744,-0.21251422,0.24342456,-0.31114447,0.0517174,0.006497604,-0.24442355,-0.11492168,-0.095768064,-9.519346,0.87617236,47.70211,-0.8480357,-2.2824264,-3.4350877,-0.059797518,0.11961639,-0.2666238,25.75,26.5625,25.625,28.125,28.9375,29.375
0.3700535,-0.87790126,0.9853583,-1.7523222,-0.0021094098,0.032773662,-0.11751049,-0.42177087,-0.36250156,0.05995273,3.0790355,-0.61694115,5.361078e-05,-0.182356,0.032784257,0.0020550876,-0.0142357,0.012829842,0.042886935,0.46523535,-1.3381705,1.8498067,-2.0817711,-1.5696992,2.4352252,-0.21059848,0.24333055,-0.313735,0.052803002,0.006605605,-0.2533533,-0.17238252,0.038307227,-9.500193,0.8717007,47.66987,-0.95956683,-2.2087522,-3.5728765,-0.029864583,0.12935254,-0.14723697,25.75,26.5625,25.625,28.125,28.9375,29.375
0.37205562,-1.2914728,0.41123062,-1.7775494,0.008298206,0.050058976,-0.10351521,-0.42217076,-0.3624537,0.059979636,3.0789974,-0.61682105,-3.600975e-05,-0.18273723,0.033150062,0.0005584634,-0.012691589,0.009537279,0.040834956,0.46481505,-1.3376536,1.8490871,-2.0816505,-1.5696872,2.434735,-0.21137258,0.2474368,-0.31584778,0.054449335,0.006727527,-0.25207397,-0.36391866,0.11492168,-9.461885,0.85155696,47.698532,-1.0244052,-2.239671,-3.4861822,-0.0179951,0.13511787,-0.09791047,25.75,26.5625,25.625,28.125,28.9375,29.375
0.37405342,-1.664829,-0.4511936,-2.3903964,0.010595655,0.05920568,-0.10591952,-0.42251846,-0.36237705,0.05995043,3.079011,-0.61673164,2.0461022e-05,-0.1828375,0.032856874,0.0010361066,-0.0135812145,0.008589795,0.03220272,0.46438336,-1.3371377,1.8485011,-2.0815542,-1.5696625,2.434246,-0.21149562,0.24762551,-0.31776786,0.05662488,0.0079403,-0.24356537,-0.19153613,0.17238252,-9.557653,0.9791215,47.687782,-1.1958778,-2.3601513,-3.5189724,-0.010357869,0.1167077,-0.18382432,25.75,26.5625,25.625,28.125,28.9375,29.375
0.3760542,-1.7495,-1.037343,-2.0295234,-0.041237626,0.0805473,-0.10310685,-0.4228695,-0.36228353,0.05994512,3.0790744,-0.6166738,6.0764844e-05,-0.18187238,0.033979174,-0.00029388026,-0.010456819,0.0043152147,0.021456692,0.46395123,-1.3366456,1.8478678,-2.081361,-1.5696872,2.4337702,-0.21181305,0.24927226,-0.3176657,0.060086343,0.0070521478,-0.23313665,-0.24899697,0.1340753,-9.595961,0.96569055,47.67345,-1.1946172,-2.4172323,-3.5281153,-0.034159612,0.12669067,-0.3014894,25.75,26.5625,25.625,28.125,28.9375,29.375
