Tylouw/Master_Thesis_Code/training_data/batch_1/rect_rod_t0.1/sample_19_session_1.csv
timestamp[s],tcp_force_x[N],tcp_force_y[N],tcp_force_z[N],tcp_force_rx[Nm?],tcp_force_ry[Nm?],tcp_force_rz[Nm?],tcp_pose_x[m],tcp_pose_y[m],tcp_pose_z[m],tcp_pose_rx[rot_vec_x],tcp_pose_ry[rot_vec_y],tcp_pose_rz[rot_vec_z],tcp_velo_x[m/s],tcp_velo_y[m/s],tcp_velo_z[m/s],tcp_velo_rx[rot_vec_x/s],tcp_velo_ry[rot_vec_y/s],tcp_velo_rz[rot_vec_z/s],q1[rad],q2[rad],q3[rad],q4[rad],q5[rad],q6[rad],qd1[rad/s],qd2[rad/s],qd3[rad/s],qd4[rad/s],qd5[rad/s],qd6[rad/s],tool_acc_x,tool_acc_y,tool_acc_z,current_of_whole_robot[A],voltage_of_whole_robot[V],current_J1[A],current_J2[A],current_J3[A],current_J4[A],current_J5[A],current_J6[A],temp_J1[C],temp_J2[C],temp_J3[C],temp_J4[C],temp_J5[C],temp_J6[C]
3.6400002e-07,0.036496364,0.22160155,1.3482699,-0.0017284441,0.0051971152,-0.019087095,-0.3893193,-0.36873704,0.060004734,-3.078719,0.62491196,0.00012687076,0.00043185576,0.000218177,-0.00043088506,0.00028408977,-0.0007522443,7.8392215e-05,0.50505686,-1.3816319,1.9041876,-2.0918796,-1.5708174,2.4800372,-3.6048335e-05,-5.9846716e-05,0.0011084221,-0.00025323423,0.00011718373,-0.00011504945,0.17238252,0.17238252,-8.542512,0.7642693,47.747787,-0.1832738,-3.009799,-2.3092365,-0.2230179,0.09759857,0.035063468,24.5625,25.0625,24.375,26.0,26.125,26.4375
0.002052997,0.18648253,0.3633234,1.3783137,-0.00598482,0.014223801,-0.030568052,-0.38935354,-0.3687124,0.060017187,-3.0787039,0.62496644,0.00026491703,-0.0017118189,-0.00097344664,-0.00026228497,-0.0039518354,0.006871275,7.8067256e-05,0.50502086,-1.3816559,1.9041995,-2.0919316,-1.5708774,2.4800372,-3.4660083e-05,-8.0292006e-07,0.0030979507,-0.011023108,0.00011504382,-0.00011298605,0.19153613,0.095768064,-8.504205,0.7105615,47.704796,-0.19742842,-2.9323246,-2.2419245,-0.15631676,0.089547634,0.04184895,24.5625,25.0625,24.375,26.0,26.125,26.4375
0.004052038,-0.4909344,0.07034345,1.3566027,-0.0066505885,-0.00077203877,-0.01574668,-0.3893619,-0.36872587,0.060032416,-3.0787663,0.624941,0.0003104769,-0.0017932563,-0.0010198475,-0.001825101,-0.0031456966,0.005410354,7.793522e-05,0.50502086,-1.3816787,1.9042,-2.0919678,-1.5708536,2.4800134,-3.3374723e-05,0.0031049487,0.0033736012,-0.012735927,0.00011298057,-0.00011099541,0.019153614,0.13407528,-8.63828,0.7418897,47.72002,-0.1772705,-3.328051,-2.6038966,-0.048499834,0.09741347,0.044783566,24.5625,25.0625,24.375,26.0,26.125,26.4375
0.006052455,-0.3906152,0.3796852,1.2689853,0.009027357,-0.010849317,-0.013558196,-0.3893292,-0.36872366,0.06001688,-3.0787528,0.62493813,0.00022751102,-0.0007512063,-0.0004398312,-0.0009019266,-0.001771316,0.0029523384,8.430762e-05,0.5050329,-1.3816916,1.9042472,-2.091953,-1.5708297,2.4800253,-3.218125e-05,0.0010071106,0.0024203258,-0.0068686632,0.000110990135,-0.00011674442,0.038307227,0.22984336,-8.599973,0.7620334,47.716442,-0.20348006,-3.2491207,-2.521263,-0.092585616,0.08764848,0.04090245,24.5625,25.0625,24.375,26.0,26.125,26.4375
0.008051945,0.42615673,1.0388404,0.83300185,0.038346343,-0.019360177,-0.018472215,-0.3893614,-0.368714,0.060030077,-3.0787492,0.6249759,0.0003213961,-0.00051445724,-0.0003079072,-9.92795e-05,-0.0012712305,0.0020620676,9.076264e-05,0.5050088,-1.3816919,1.9042228,-2.0919764,-1.5708655,2.4800253,-3.1070213e-05,1.35116725e-05,0.0009855246,-0.003419165,0.000109068635,-0.000122017635,0.0,0.22984336,-8.6574335,0.72622824,47.719128,-0.15032357,-3.10319,-2.5047088,-0.11661097,0.08577494,0.021684442,24.5625,25.0625,24.375,26.0,26.125,26.4375
0.010052536,0.35534286,1.4790494,0.55188817,0.038891878,-0.023220062,-0.023110813,-0.38934493,-0.36873242,0.06001595,-3.0787368,0.62497306,0.00021143524,4.915622e-05,1.7148344e-05,-8.794856e-05,-8.0336766e-05,-7.620745e-05,7.0460395e-05,0.5050329,-1.3816439,1.9041871,-2.0919273,-1.5708297,2.4800491,-4.9759623e-05,1.8127635e-07,0.00025047988,-0.00022324704,0.00010721244,-0.00012044994,0.019153614,0.24899697,-8.925584,0.7642693,47.703903,-0.6728332,-2.645238,-2.9961004,-0.14123705,0.083730265,-0.021895992,24.5625,25.0625,24.375,26.0,26.125,26.4375
0.012051698,-0.0519792,0.46791083,0.31291112,0.01717046,-0.008343805,-0.015370565,-0.3893226,-0.36868703,0.059969075,-3.078643,0.6249929,7.830197e-05,0.0012150795,0.00078947126,-0.0014174511,0.002774738,-0.0052184258,-7.6604934e-05,0.5049848,-1.381619,1.9042586,-2.091902,-1.5708417,2.4800253,-0.0002589237,0.0019722842,3.360508e-06,0.003933426,0.00010541841,-0.00018258583,0.038307227,0.095768064,-9.059659,0.7597976,47.694946,-0.8084374,-2.5197613,-3.1837125,-0.1384476,0.070323,-0.078167826,24.5625,25.0625,24.375,26.0,26.125,26.4375
0.014052132,-0.107759744,-0.105032325,0.2903102,-0.021261474,0.02504391,-0.025239944,-0.38934126,-0.36869362,0.059990942,-3.0786471,0.62495667,0.00013035744,-0.004562033,0.0031640935,-0.0043047997,0.0047728517,-0.008863742,-0.0032044011,0.5049933,-1.3816149,1.9041961,-2.0918667,-1.5708655,2.4800107,-0.009665772,0.013658481,-0.0071455864,0.003552078,0.00010368345,-0.0064568054,-0.019153614,0.095768064,-9.193734,0.7396539,47.70211,-0.42240906,-3.0898674,-3.0646675,-0.11742456,0.06657018,-0.067117944,24.5625,25.0625,24.375,26.0,26.125,26.4375
0.01605238,-1.3859193,-1.1249903,-0.006172916,-0.03785093,0.03090316,-0.021370117,-0.38932714,-0.3686857,0.05995324,-3.0785942,0.62494314,2.9842704e-05,-0.0055830074,0.0033145586,-0.0040690443,0.0042537805,-0.007931126,0.0012279345,0.50499314,-1.3815547,1.9042081,-2.0918548,-1.5708655,2.4800088,-0.010873734,0.014171525,-0.008159394,0.0029845485,0.000102004735,-0.012096552,-0.21068975,0.24899697,-9.3661175,0.7351769,47.71017,-0.33637303,-3.0778005,-3.1576314,-0.11931189,0.05546695,-0.024792455,24.5625,25.0625,24.375,26.0,26.125,26.4375
0.018052613,-1.2788064,-0.5708967,0.0827387,-0.059392206,0.061279908,-0.044141196,-0.3893348,-0.36869192,0.059948135,-3.0786135,0.62494504,7.5409457e-06,-0.0054411115,0.00265739,-0.002447094,0.0031470084,-0.005825361,0.0044599506,0.5049816,-1.3815317,1.9041952,-2.0918667,-1.5708417,2.479996,-0.009602374,0.011571962,-0.009025967,0.0040724915,5.2216234e-05,-0.014057304,-0.36391866,0.2873042,-9.385271,0.7105615,47.719128,-0.66857004,-2.728877,-3.2940936,-0.0949965,0.06258262,-0.013066818,24.5625,25.0625,24.375,26.0,26.125,26.4375
0.020051628,-2.0638087,-0.80773675,-0.27666163,-0.025300685,0.05796609,-0.031907126,-0.38933423,-0.3686747,0.059929393,-3.078579,0.6249188,-9.3484436e-05,-0.005595075,0.0028602076,-0.0029006163,0.0044277324,-0.008108012,0.0044143163,0.50494564,-1.381495,1.9041833,-2.0918171,-1.5708297,2.479948,-0.010079085,0.0135849845,-0.010944006,0.0065950225,3.592036e-05,-0.014487519,-0.45968673,0.30645782,-9.481039,0.7486078,47.709274,-0.8495928,-2.5630405,-3.4435425,-0.120126575,0.04680378,-0.046791926,24.5625,25.0625,24.375,26.0,26.125,26.4375
0.022051856,-1.9979837,-0.07190586,-0.45973414,-0.005360751,0.053036902,-0.049347933,-0.38933158,-0.3686941,0.059906762,-3.078582,0.62486273,-0.0001088818,-0.006869468,0.0032432326,-0.0031099406,0.004955202,-0.009064115,0.0034479452,0.50498074,-1.3814341,1.9041709,-2.091853,-1.5708297,2.4799478,-0.011916503,0.015947707,-0.013566133,0.007946262,3.4240016e-05,-0.015357259,-0.49799395,0.34476504,-9.595961,0.78217715,47.70838,-0.8457463,-2.5984092,-3.3722587,-0.12754254,0.051293112,-0.050745197,24.5625,25.0625,24.375,26.0,26.125,26.4375
0.024052147,-1.4939723,-0.4333598,-0.5452052,-0.00307373,0.05930069,-0.0648451,-0.38937348,-0.3686583,0.05990141,-3.078523,0.6249866,-0.000112634356,-0.008776492,0.00377496,-0.0037225604,0.0051146094,-0.009366598,0.00026183273,0.50489616,-1.3813968,1.9041337,-2.0918295,-1.5708536,2.479948,-0.014595813,0.019176833,-0.015851062,0.0073436284,3.3536937e-05,-0.014848944,-0.45968673,0.24899697,-9.595961,0.7038487,47.666286,-0.8354925,-2.7561913,-3.354528,-0.11824987,0.038899504,-0.096805185,24.5625,25.0625,24.375,26.0,26.125,26.4375
0.026051886,-1.411863,-0.105019085,-0.39677504,-0.023546819,0.06074929,-0.08166695,-0.38938293,-0.36866876,0.059920676,-3.078531,0.62485325,-8.883354e-05,-0.009445121,0.003979849,-0.0035457623,0.004854527,-0.0088983355,0.0004655622,0.50491977,-1.3813848,1.9040622,-2.0917695,-1.5708774,2.4798875,-0.01556557,0.019415485,-0.016509218,0.0072269235,3.2919335e-05,-0.01602211,-0.6512228,0.28730422,-9.710882,0.7620334,47.73525,-0.8312248,-2.6680984,-3.4421253,-0.094046816,0.023442678,-0.10407959,24.5625,25.0625,24.375,26.0,26.125,26.4375
0.028052123,-1.7723819,-0.6232649,-0.6149546,-0.025742115,0.06793592,-0.089252934,-0.38938951,-0.36865252,0.059877023,-3.078484,0.6249018,-0.00021415211,-0.010192128,0.004333334,-0.0032894602,0.0049562007,-0.009086121,-0.00018250184,0.50487137,-1.3813004,1.9040617,-2.091769,-1.5708536,2.4798753,-0.016858796,0.019887792,-0.017910415,0.008369634,3.2327833e-05,-0.016666748,-0.7278373,0.21068975,-9.768343,0.7083204,47.704796,-0.82220995,-2.7142854,-3.4516225,-0.0921462,0.019726675,-0.098593876,24.5625,25.0625,24.375,26.0,26.125,26.4375
0.030052494,-1.8319414,-0.1798389,-0.32066885,-0.030650267,0.08914885,-0.10121488,-0.38938957,-0.3686453,0.059852906,-3.0784454,0.6248566,-0.00030016128,-0.011040861,0.004240625,-0.0031401261,0.005104453,-0.0093301805,-0.0010691343,0.50485915,-1.38124,1.9040369,-2.0917327,-1.5708536,2.4798398,-0.017488195,0.021383822,-0.020281732,0.009530334,1.6934098e-05,-0.016408404,-0.63206923,0.22984336,-9.825804,0.73069996,47.684196,-0.8907029,-2.6500912,-3.404758,-0.106627904,0.020545552,-0.10940766,24.5625,25.0625,24.375,26.0,26.125,26.4375
0.032051783,-1.8470016,-0.04509223,-0.35850573,-0.0049391603,0.088616036,-0.08974227,-0.38943648,-0.36862424,0.059855133,-3.0784328,0.62491083,-0.00027458396,-0.011626607,0.0042670444,-0.0030362215,0.0051983204,-0.009485023,-0.0025331052,0.5047872,-1.3812037,1.9039887,-2.0917323,-1.5708655,2.4798033,-0.018073762,0.022268862,-0.021734597,0.010279076,7.990819e-06,-0.015529329,-0.63206923,0.05746084,-9.768343,0.73741806,47.690468,-0.8785211,-2.680262,-3.4519527,-0.11068708,0.014150627,-0.119920954,24.5625,25.0625,24.375,26.0,26.125,26.4375
0.034052312,-2.0406861,0.8472021,-0.31810546,0.003674561,0.08168522,-0.08351875,-0.38946548,-0.36862585,0.059847444,-3.078418,0.62490904,-0.00030241834,-0.012956772,0.0043282383,-0.0025735535,0.0046544396,-0.008494713,-0.0045733326,0.50476277,-1.3811314,1.9039153,-2.091708,-1.5708655,2.4797797,-0.019415336,0.023102092,-0.023796037,0.010377603,5.2174335e-07,-0.014829699,-0.63206923,-0.095768064,-9.768343,0.69937176,47.695843,-0.91838473,-2.6595364,-3.4288254,-0.105154105,0.0018173691,-0.13299753,24.5625,25.0625,24.375,26.0,26.125,26.4375
0.036051966,-1.6034191,0.9938106,-0.38446945,0.019483887,0.07360758,-0.08528136,-0.3894814,-0.36863548,0.059855692,-3.078478,0.6248835,-0.00034892996,-0.013938613,0.004062356,-0.0021355345,0.0039015992,-0.0071406276,-0.005528862,0.5047266,-1.3811191,1.9038795,-2.091697,-1.5708054,2.4797199,-0.019884916,0.023660688,-0.025321782,0.009796404,3.406611e-08,-0.014342976,-0.51714754,-0.05746084,-9.691729,0.71951014,47.711964,-0.92462575,-2.6194367,-3.4129343,-0.08801137,-0.012489274,-0.1386627,24.5625,25.0625,24.375,26.0,26.125,26.4375
0.038052097,-0.7176168,1.0253164,-0.3133635,0.017209154,0.07244871,-0.094278045,-0.38951224,-0.36861965,0.059840392,-3.0784466,0.6249155,-0.00036532793,-0.015284016,0.0039640944,-0.0019219943,0.0034166488,-0.0062758424,-0.0061590946,0.5046785,-1.3810586,1.9038428,-2.091697,-1.5708174,2.4796958,-0.020976974,0.025151255,-0.027502362,0.009494728,2.2242737e-09,-0.014803643,-0.38307226,-0.076614454,-9.653421,0.779936,47.705692,-0.91231465,-2.7190309,-3.3907914,-0.068332314,-0.006106787,-0.1626233,24.5625,25.0625,24.375,26.0,26.125,26.4375
0.040052295,-0.7545539,1.0740292,-0.27195865,0.0047011115,0.054832794,-0.09470079,-0.38955754,-0.36863273,0.0598433,-3.0784492,0.6248976,-0.00033760365,-0.017172819,0.003986061,-0.001126468,0.0025344682,-0.0046916367,-0.00733029,0.50466585,-1.380974,1.9037336,-2.091685,-1.5708297,2.4796717,-0.02277829,0.026139129,-0.030535098,0.00972606,1.4522916e-10,-0.015432396,-0.36391866,-0.038307227,-9.653421,0.784413,47.69763,-0.91769886,-2.628327,-3.2968476,-0.06235572,0.0005176277,-0.16610959,24.5625,25.0625,24.375,26.0,26.125,26.4375
0.04205265,-0.7893571,0.5002075,-0.2725142,0.001106331,0.047520343,-0.09308261,-0.3896046,-0.36862025,0.05985323,-3.0784388,0.6250304,-0.0003383257,-0.018074341,0.004706008,-0.0014040258,0.0031055347,-0.0057277232,-0.008115254,0.5045931,-1.3809375,1.9036621,-2.0916603,-1.5708174,2.4796832,-0.024830207,0.02752404,-0.031776834,0.010765971,9.482427e-12,-0.016698733,-0.24899697,0.0,-9.634268,0.7016076,47.71286,-0.74932325,-2.659531,-3.3406909,-0.053473536,-0.02054685,-0.17330009,24.5625,25.0625,24.375,26.0,26.125,26.4375
0.044051882,-0.4817716,0.18643054,-0.36005563,-0.0020869481,0.048978087,-0.089779146,-0.38960984,-0.36856702,0.059826277,-3.078324,0.62506455,-0.0004447356,-0.018297011,0.005068248,-0.0016212654,0.0039795088,-0.0067638797,-0.008213853,0.5045212,-1.3809013,1.9036616,-2.0915759,-1.5708536,2.4796472,-0.025482213,0.028416041,-0.032629382,0.012056327,-0.00026581634,-0.017251262,-0.30645782,0.038307227,-9.634268,0.7284641,47.67793,-0.88274896,-2.629915,-3.3711348,-0.06600154,-0.04249635,-0.17954858,24.5625,25.0625,24.375,26.0,26.125,26.4375
0.046051808,-0.6202377,0.15615536,-0.34228626,-0.0055699004,0.046343204,-0.09117214,-0.3896882,-0.36857706,0.05985991,-3.0783672,0.62511116,-0.000319225,-0.018757027,0.0060058744,-0.001805983,0.006454675,-0.0075285435,-0.008498133,0.5044729,-1.3808529,1.9035305,-2.0915873,-1.5708665,2.4796226,-0.026366288,0.029355759,-0.03379661,0.014155865,-0.0020597104,-0.0178473,-0.21068975,0.095768064,-9.576807,0.784413,47.719128,-0.84578466,-2.6105962,-3.439827,-0.07017105,-0.0134802945,-0.19965744,24.5625,25.0625,24.375,26.0,26.125,26.4375
0.048051957,-0.6138799,0.37318674,-0.20080069,-0.013808491,0.037057918,-0.08981973,-0.38967574,-0.36855727,0.059816584,-3.0783172,0.6251015,-0.0004699107,-0.020731641,0.006002226,-0.00061183324,0.006511208,-0.00474265,-0.008631933,0.5044366,-1.3807926,1.9035524,-2.0915635,-1.5708431,2.4795866,-0.027329147,0.029935941,-0.03732385,0.014696716,-0.0034647768,-0.018671874,-0.076614454,0.076614454,-9.519346,0.6769922,47.73256,-0.9053347,-2.5954204,-3.3697436,-0.079839125,-0.016228817,-0.21282706,24.5625,25.0625,24.375,26.0,26.125,26.4375
0.050051857,-0.14673619,0.22186099,-0.107097,-0.017335638,0.02955461,-0.09392796,-0.38976726,-0.3685584,0.05984601,-3.0783439,0.6252024,-0.00038630408,-0.021468166,0.0057848496,-0.00037588947,0.005695233,-0.0047163675,-0.008423834,0.5043527,-1.3807201,1.903397,-2.091551,-1.5708426,2.4795623,-0.028082257,0.030803842,-0.03897046,0.015055119,-0.002765573,-0.0196339,0.0,0.19153614,-9.461885,0.7709874,47.70032,-0.86395305,-2.5756922,-3.2786865,-0.066679,-0.018519873,-0.23237757,24.5625,25.0625,24.375,26.0,26.125,26.4375
0.052052032,-0.046068408,-0.6628619,-0.43340674,-0.015508612,0.017345142,-0.08929195,-0.3898081,-0.3685459,0.059859466,-3.0783288,0.625141,-0.00034944,-0.022814559,0.006390353,-0.00028024046,0.0050678835,-0.00489542,-0.009219094,0.5043158,-1.3806838,1.9033126,-2.0915034,-1.5708784,2.479489,-0.030751208,0.031740464,-0.04036663,0.015364824,-0.0021332027,-0.021508122,0.019153614,0.2681506,-9.576807,0.8112748,47.719128,-0.7339064,-2.6110888,-3.3081546,-0.07560669,-0.019005401,-0.2248981,24.5625,25.0625,24.375,26.0,26.125,26.4375
0.054052364,-0.27301437,-0.9495169,-0.41282478,-0.031857602,-0.0010620602,-0.07268135,-0.38985232,-0.36853045,0.059874974,-3.0783126,0.6252138,-0.00032341483,-0.023580179,0.0062179146,0.00022380696,0.0043109856,-0.004205239,-0.008237074,0.5042559,-1.3806597,1.9032406,-2.0914671,-1.5708903,2.4794767,-0.031376243,0.032002196,-0.041889433,0.015654027,-0.0018074707,-0.023115192,-0.019153614,0.3256114,-9.404425,0.8090337,47.752266,-0.83082247,-2.4572861,-3.3673594,-0.0653028,-0.040580675,-0.2325204,24.5625,25.0625,24.375,26.0,26.125,26.4375
0.056051876,-0.38350448,-1.2271307,-0.42154154,-0.033404656,0.0076303403,-0.07819483,-0.3899116,-0.368506,0.059857205,-3.078267,0.6252815,-0.00038143157,-0.024437977,0.006352465,0.00027442214,0.0039578737,-0.004399976,-0.008292917,0.5041594,-1.3805512,1.9031447,-2.0914314,-1.5708903,2.4794283,-0.032648105,0.033052865,-0.043340407,0.016052395,-0.0014087136,-0.024331193,-0.05746084,0.36391866,-9.461885,0.74413085,47.737934,-0.7591395,-2.509789,-3.3647466,-0.08466872,-0.050682046,-0.2457113,24.5625,25.0625,24.375,26.0,26.125,26.4375
0.058052134,-0.7640006,-1.138873,-0.35001537,-0.027632566,0.01798206,-0.07931934,-0.38995472,-0.3685058,0.059875213,-3.078292,0.62532437,-0.00035139194,-0.02591966,0.006496408,0.00075264944,0.0035369494,-0.0036442077,-0.007803077,0.504111,-1.380527,1.9030722,-2.091419,-1.5708779,2.4794035,-0.034269925,0.034140494,-0.045839146,0.016598288,-0.0014097348,-0.02644177,-0.019153614,0.36391866,-9.519346,0.75755644,47.690468,-0.7194832,-2.4430976,-3.3353105,-0.10596703,-0.06151661,-0.24144593,24.5625,25.0625,24.375,26.0,26.125,26.4375
0.06005229,-0.54598224,-0.38917163,-0.123806864,-0.03000138,0.038412407,-0.08821541,-0.39002883,-0.36851296,0.059892446,-3.078325,0.62536854,-0.00033225378,-0.026704509,0.0061025904,0.001040382,0.0034581753,-0.0024340774,-0.0063777915,0.5040392,-1.3804426,1.9029278,-2.0913951,-1.5708545,2.479355,-0.034009706,0.03512053,-0.047579236,0.01626291,-0.0019296661,-0.027605014,0.038307227,0.34476504,-9.423578,0.7239871,47.691364,-0.7523552,-2.4480557,-3.3397467,-0.09682833,-0.08479794,-0.24048558,24.5625,25.0625,24.375,26.0,26.125,26.4375
0.062051702,-0.74715763,-0.3831285,0.16006269,-0.021374429,0.039512023,-0.088042624,-0.39006004,-0.36848426,0.05986173,-3.0782475,0.62525594,-0.00039873584,-0.02753338,0.005719278,0.001184527,0.003256198,-0.0011643873,-0.0059252577,0.5039915,-1.380334,1.9028558,-2.0913355,-1.5709022,2.479247,-0.033859488,0.03625343,-0.0490539,0.015395472,-0.002374197,-0.027905403,0.019153614,0.38307226,-9.404425,0.80456203,47.737934,-0.8451953,-2.3832526,-3.311071,-0.10234977,-0.04961939,-0.25947967,24.5625,25.0625,24.375,26.0,26.125,26.4375
0.06405193,-0.43450958,-0.33935794,-0.035746317,-0.016046196,0.036528025,-0.086823374,-0.39014116,-0.3684781,0.059879843,-3.078271,0.62539476,-0.0003924855,-0.029112386,0.0061459434,0.0015206905,0.002740042,-0.00015156345,-0.00674693,0.50388306,-1.3802617,1.9027237,-2.0913117,-1.5708665,2.4792223,-0.036017116,0.037097827,-0.050757162,0.015118854,-0.0024154834,-0.029240513,-0.05746084,0.36391866,-9.270349,0.7172743,47.705692,-0.7849736,-2.4117606,-3.371026,-0.10513557,-0.066829965,-0.26600665,24.5625,25.0625,24.375,26.0,26.125,26.4375
0.06605208,-0.4090425,-0.64909554,0.022805722,-0.0036798678,0.03393834,-0.084178835,-0.39017865,-0.3684702,0.05987986,-3.0782635,0.6254316,-0.0003925451,-0.030220311,0.006060004,0.0016489773,0.0023233572,0.0004503848,-0.006387689,0.5038348,-1.3802131,1.9026636,-2.0913002,-1.5708665,2.479198,-0.036946345,0.03843317,-0.052574005,0.014871446,-0.0023464041,-0.030528145,-0.019153614,0.22984336,-9.270349,0.7665104,47.723602,-0.8015292,-2.3597295,-3.3094463,-0.1078447,-0.07469779,-0.26836976,24.5625,25.0625,24.375,26.0,26.125,26.4375
0.068052195,-0.066948414,-0.13229865,0.194154,-0.012016116,0.033823624,-0.09333777,-0.39026055,-0.36846653,0.05989776,-3.0782814,0.62535864,-0.00030107622,-0.03108984,0.0060843173,0.0018556222,0.0021841251,0.0005494721,-0.006711874,0.50377446,-1.3801286,1.9025201,-2.0912874,-1.5709022,2.47909,-0.03783716,0.03944935,-0.054396164,0.015521834,-0.002273627,-0.031094192,-0.11492168,0.24899697,-9.270349,0.8090337,47.73256,-0.76868623,-2.3244176,-3.3145618,-0.11297896,-0.07410617,-0.289951,24.5625,25.0625,24.375,26.0,26.125,26.4375
0.07005246,-0.6602866,0.3475903,0.29903084,-0.008817508,0.029989367,-0.09062175,-0.39032888,-0.36845165,0.059908222,-3.0782754,0.6254331,-0.00031269883,-0.03149991,0.006365284,0.0010753493,0.0031041051,-0.0006256974,-0.0061425306,0.50367856,-1.3800559,1.9023994,-2.0912397,-1.5708908,2.4790413,-0.038536098,0.041549813,-0.05513211,0.015631361,-0.002514102,-0.032361403,-0.22984336,0.19153613,-9.308657,0.6926589,47.723602,-0.8378819,-2.3801098,-3.297256,-0.11167675,-0.09734696,-0.29438108,24.5625,25.0625,24.375,26.0,26.125,26.4375
0.07205176,-1.1436931,0.14779308,0.11524342,0.010965182,0.033578403,-0.07648184,-0.39038426,-0.36845833,0.059907634,-3.0782886,0.62549347,-0.0002976168,-0.033025354,0.006441412,0.0012508457,0.0034027328,-0.00012226905,-0.006545891,0.50363034,-1.3799711,1.9023031,-2.0912516,-1.5708784,2.4790292,-0.03976444,0.043607906,-0.058110896,0.016257262,-0.0030233217,-0.033184025,-0.19153613,0.1340753,-9.251195,0.7239871,47.737934,-0.7932672,-2.3455358,-3.3202896,-0.116759025,-0.07968911,-0.29834837,24.5625,25.0625,24.375,26.0,26.125,26.4375
0.07405208,-0.89399487,0.5864182,0.26095262,0.0060059745,0.053554453,-0.08889397,-0.3904438,-0.3684251,0.059889678,-3.078225,0.6254421,-0.00037317546,-0.034078166,0.0065191127,0.0016131047,0.0033480132,0.00063106517,-0.0071469857,0.5035341,-1.3798506,1.9021825,-2.0911677,-1.5709027,2.478909,-0.040669683,0.04441118,-0.05997519,0.016632074,-0.003345182,-0.033486456,-0.22984336,0.15322891,-9.174581,0.7284641,47.699425,-0.8562615,-2.3725195,-3.163215,-0.109760016,-0.08254468,-0.32422817,24.5625,25.0625,24.375,26.0,26.125,26.4375
0.076052524,-0.5506804,0.9942256,0.3353136,-0.0007304042,0.062627956,-0.09539172,-0.39052403,-0.36841252,0.059909053,-3.0782397,0.62552017,-0.00031943124,-0.034061503,0.007454443,0.0007621969,0.004524623,-0.0014216527,-0.0058530574,0.5034378,-1.3797903,1.9020642,-2.0911553,-1.5709022,2.4788597,-0.042195782,0.045387518,-0.059374563,0.017420065,-0.0033821685,-0.03630674,-0.24899697,0.15322891,-9.270349,0.7463667,47.696735,-0.84050274,-2.4083748,-3.398889,-0.12775275,-0.09258938,-0.32656017,24.5625,25.0625,24.375,26.0,26.125,26.4375
0.078051865,-1.0357599,0.7853806,0.39289555,0.008478259,0.04858096,-0.09005332,-0.3905794,-0.3684029,0.05990984,-3.0782113,0.62549406,-0.0003493289,-0.035042293,0.006975064,0.0008134055,0.004596374,-0.0011780551,-0.0043992163,0.503378,-1.3796935,1.9019316,-2.0910838,-1.5709151,2.4787872,-0.04218193,0.047578093,-0.062186874,0.017862743,-0.003569817,-0.03774481,-0.30645782,0.076614454,-9.232041,0.75755644,47.73883,-0.8568467,-2.3630958,-3.3130217,-0.15101162,-0.117304265,-0.32062656,24.5625,25.0625,24.375,26.0,26.125,26.4375
0.08005208,-1.1980636,0.71994746,0.16246791,0.010311355,0.038779557,-0.08569712,-0.39064658,-0.36839437,0.059906904,-3.0782251,0.6254793,-0.0003606068,-0.038314253,0.0070408154,0.0026606293,0.0030014992,0.0030674385,-0.007139155,0.5032933,-1.3795971,1.9018215,-2.0910714,-1.5709027,2.4786916,-0.044919826,0.048021976,-0.06686215,0.01760846,-0.0042313808,-0.0377395,-0.38307226,0.095768064,-9.193734,0.74413085,47.705692,-0.8837676,-2.42768,-3.1660726,-0.15749052,-0.101614416,-0.33308998,24.5625,25.0625,24.375,26.0,26.125,26.4375
0.08205187,-1.1702639,0.5761985,0.06810433,0.009145221,0.044669714,-0.0830257,-0.39071113,-0.36838514,0.05989711,-3.078209,0.62545586,-0.00033888247,-0.037621148,0.008270269,0.000859175,0.0057260515,-0.00027076955,-0.0074737845,0.503233,-1.3794885,1.9017152,-2.091071,-1.5709275,2.4786189,-0.04585457,0.049841627,-0.06506075,0.018227242,-0.00500323,-0.038338613,-0.40222588,0.076614454,-9.289502,0.73741806,47.672558,-0.74364114,-2.3419652,-3.2968352,-0.1517804,-0.10139994,-0.35268965,24.5625,25.0625,24.375,26.0,26.125,26.4375
0.084051885,-0.9407403,0.8715728,0.26819542,-0.004585266,0.05758588,-0.08962152,-0.39078447,-0.36834598,0.059901893,-3.078143,0.6255361,-0.00037143013,-0.03788889,0.007691748,0.00089708314,0.0065259887,-0.0002016891,-0.003169309,0.5031137,-1.379404,1.9015826,-2.0909755,-1.5709513,2.478558,-0.04466141,0.05143982,-0.06724889,0.019142795,-0.005743795,-0.041447178,-0.47884035,0.038307227,-9.232041,0.7329411,47.723602,-0.9584164,-2.3297067,-3.2868905,-0.17708665,-0.09624437,-0.34963864,24.5625,25.0625,24.375,26.0,26.125,26.4375
0.08605246,-1.6267433,0.07381997,0.093329154,0.011818873,0.055337258,-0.085807525,-0.39087856,-0.36834398,0.059912413,-3.0781927,0.6255846,-0.00037994742,-0.03980991,0.0086652655,0.0016626819,0.0070805796,0.0013138967,-0.0030747028,0.5029929,-1.3792957,1.9014276,-2.0909626,-1.5709037,2.4784613,-0.04731379,0.051732015,-0.0695599,0.020106308,-0.006963439,-0.044191092,-0.45968673,0.05746084,-9.308656,0.8090337,47.691364,-0.8020668,-2.3971462,-3.30119,-0.17973119,-0.084147975,-0.32944143,24.5625,25.0625,24.375,26.0,26.125,26.4375
0.0880525,-1.0000904,0.287605,0.11871713,0.0039058097,0.07522726,-0.09037205,-0.39093155,-0.36833996,0.059907824,-3.0781794,0.62548196,-0.0004112444,-0.04021762,0.009412693,0.0006803684,0.008942919,-0.00073717016,-0.00024652033,0.5029448,-1.3791867,1.9012955,-2.0909026,-1.5709165,2.4783509,-0.048542548,0.05414108,-0.07044634,0.021279024,-0.007609612,-0.048245873,-0.36391866,0.1340753,-9.308656,0.75755644,47.687782,-0.8394704,-2.3255296,-3.3061497,-0.19989473,-0.07041788,-0.3074149,24.5625,25.0625,24.375,26.0,26.125,26.4375
0.09005176,-1.0556428,0.072355166,0.19653432,-0.0010638593,0.0714688,-0.08484145,-0.3910246,-0.36830452,0.059906863,-3.0781226,0.62553024,-0.00035104065,-0.041742988,0.010428294,0.00022033339,0.009875359,-0.0014328402,-0.0031245688,0.50283605,-1.3790778,1.9011635,-2.0908787,-1.5709766,2.4782796,-0.051357344,0.05633801,-0.07212752,0.02182028,-0.008094316,-0.048180684,-0.38307226,0.1340753,-9.212888,0.7642693,47.731667,-0.7474516,-2.4310496,-3.334874,-0.22954836,-0.074325405,-0.2937482,24.5625,25.0625,24.375,26.0,26.125,26.4375
0.092051834,-1.424705,-0.4378353,0.21320629,-0.0031691268,0.05927556,-0.08596059,-0.39109758,-0.36829466,0.059899196,-3.0781472,0.62547576,-0.00041653245,-0.042171147,0.009228729,0.0019508888,0.0075990846,0.0017688043,-0.000530146,0.50272864,-1.3789583,1.9010314,-2.090843,-1.5709399,2.478135,-0.05000395,0.054394335,-0.073678665,0.021411825,-0.0076490813,-0.04942208,-0.49799395,0.19153613,-9.32781,0.83589023,47.719128,-0.78351045,-2.365625,-3.3017464,-0.23304364,-0.08037437,-0.31317973,24.5625,25.0625,24.375,26.0,26.125,26.4375
0.09405204,-1.3404238,-0.37489265,0.02304547,-0.007108984,0.051870003,-0.084126875,-0.3911939,-0.36826596,0.059904587,-3.078086,0.6255561,-0.0003816507,-0.043032713,0.008797098,0.0017296947,0.0069676144,0.0016420884,0.0031589246,0.50262076,-1.3788376,1.9008626,-2.0907834,-1.570988,2.4780853,-0.050446138,0.05651003,-0.07559579,0.0210135,-0.0070428965,-0.05355335,-0.38307226,0.19153613,-9.308657,0.7732232,47.754055,-0.97956,-2.2921195,-3.3822122,-0.23471749,-0.08410953,-0.26153743,24.5625,25.0625,24.375,26.0,26.125,26.4375
0.09605243,-1.3903168,-0.70936316,-0.1824683,0.0044878647,0.039757557,-0.07504352,-0.3912782,-0.3682481,0.059907444,-3.0780768,0.6255148,-0.00041416544,-0.043774623,0.009747777,0.00020026331,0.00848896,-0.0016260851,0.003630771,0.5025123,-1.3787162,1.9006962,-2.0907114,-1.570988,2.4779522,-0.05287228,0.060195044,-0.07671863,0.022045754,-0.006805517,-0.05645072,-0.2681506,0.15322891,-9.346964,0.80456203,47.704796,-0.8026738,-2.3809917,-3.3840153,-0.23127759,-0.08557138,-0.23345822,24.5625,25.0625,24.375,26.0,26.125,26.4375
0.09805206,-0.6083292,-0.010117636,-0.037354194,-0.014925761,0.051979665,-0.082230434,-0.39135945,-0.3682359,0.059893224,-3.0780616,0.6255109,-0.00044390635,-0.044449873,0.009782343,0.00023861283,0.008524802,-0.0021137532,0.0048892824,0.50241613,-1.3785715,1.9005517,-2.090687,-1.570988,2.4778557,-0.053670894,0.061414942,-0.07848201,0.02303195,-0.0066068186,-0.058507305,-0.22984336,0.24899697,-9.3661175,0.75755644,47.71554,-0.7941871,-2.4717917,-3.3758774,-0.25598523,-0.07914637,-0.21700355,24.5625,25.0625,24.375,26.0,26.125,26.4375
0.10005223,-0.6990511,-0.060031235,-0.014524548,-0.014826239,0.035375524,-0.083781116,-0.39147747,-0.3682212,0.05992801,-3.0780938,0.6254574,-0.0003496484,-0.04518255,0.009286265,0.0013444808,0.0068050176,-0.00042436743,0.0071974252,0.5022963,-1.3784758,1.9003481,-2.0906384,-1.5710114,2.4776986,-0.05393191,0.060544617,-0.079986535,0.023092652,-0.005914609,-0.061077807,-0.19153613,0.28730422,-9.3661175,0.77545905,47.72002,-0.8895823,-2.280035,-3.4204974,-0.2733175,-0.08124307,-0.18370992,24.5625,25.0625,24.375,26.0,26.125,26.4375
0.102052405,-0.6098452,-0.0025309157,0.12070564,-0.013364499,0.03223071,-0.08744873,-0.39156342,-0.36819187,0.059890047,-3.0780542,0.62542963,-0.0004903926,-0.046314236,0.009337868,0.00068465964,0.0067346985,-0.001087478,0.008054491,0.5021522,-1.3782825,1.9001921,-2.0905788,-1.5709876,2.4775422,-0.055286173,0.063374445,-0.08172486,0.0225472,-0.005546766,-0.06328817,-0.11492168,0.24899697,-9.442732,0.7530795,47.71017,-0.8236377,-2.352064,-3.3434753,-0.27314347,-0.10131639,-0.15428363,24.5625,25.0625,24.375,26.0,26.125,26.4375
0.10405238,-0.24872775,-0.057943907,-0.20766859,-0.017010618,0.03388045,-0.08488278,-0.39164224,-0.36816955,0.059887696,-3.0780363,0.6253854,-0.000482016,-0.046623457,0.009483094,0.0004175197,0.0075614946,-0.0015963408,0.009254698,0.5020563,-1.3781742,1.900061,-2.090543,-1.5710114,2.477421,-0.055506103,0.0645655,-0.082668796,0.023143344,-0.0060294904,-0.064706706,-0.19153613,0.2681506,-9.404425,0.7284641,47.71017,-0.9069446,-2.423594,-3.3654838,-0.28364897,-0.12599605,-0.1238072,24.5625,25.0625,24.375,26.0,26.125,26.4375
0.10605213,-0.71220225,-0.7439118,-0.16696692,-0.005045768,0.012986471,-0.08060646,-0.39176753,-0.36815298,0.059896834,-3.078049,0.6254458,-0.00043660737,-0.049297072,0.00895509,0.002016789,0.006862518,0.0016826667,0.008701625,0.50191236,-1.3780295,1.899866,-2.0905306,-1.5710119,2.4773133,-0.05647565,0.066059306,-0.08829501,0.024067475,-0.007002916,-0.065118976,-0.019153614,0.28730422,-9.3661175,0.7642693,47.677036,-0.9648222,-2.2882707,-3.2140253,-0.3175811,-0.10392086,-0.09694533,24.5625,25.0625,24.375,26.0,26.125,26.4375
0.108052246,0.20659351,0.357053,0.0941328,-0.02385849,0.028171025,-0.09239246,-0.39185992,-0.36813784,0.0599064,-3.078045,0.6253676,-0.0004147387,-0.04903923,0.0097162565,0.0008879549,0.008405228,0.00012028497,0.0073634973,0.5018163,-1.3779091,1.8996881,-2.090471,-1.5710362,2.477169,-0.057129875,0.067213535,-0.08703136,0.023761626,-0.007601736,-0.06443411,0.038307227,0.2873042,-9.385271,0.7642693,47.677036,-0.9608155,-2.3372858,-3.3515077,-0.31850195,-0.09889121,-0.07535222,24.5625,25.0625,24.375,26.0,26.125,26.4375
0.11005252,-0.17529303,-0.35108966,-0.2564404,-0.0068728547,0.012259216,-0.07701537,-0.39196092,-0.36810717,0.05992182,-3.078007,0.6253219,-0.00035490058,-0.051110595,0.008910653,0.0017341195,0.0076687187,0.0023734807,0.0063002342,0.5017084,-1.3778,1.8995074,-2.0903986,-1.5710963,2.4770377,-0.057405133,0.0694992,-0.091677025,0.023789193,-0.00804965,-0.06364295,-0.038307227,0.24899697,-9.423578,0.8179876,47.719128,-0.9920789,-2.4709282,-3.2831078,-0.30040658,-0.10810873,-0.08618197,24.5625,25.0625,24.375,26.0,26.125,26.4375
0.11205265,-0.24703959,-0.39584482,-0.17560633,-0.01167799,0.01248083,-0.08410695,-0.39209142,-0.3680843,0.059931308,-3.0779998,0.62533945,-0.00030242378,-0.052313127,0.009708677,0.002008593,0.0086078085,0.0040770783,0.004088695,0.5015643,-1.3776438,1.8992928,-2.0903633,-1.5711211,2.4769056,-0.05881758,0.06960279,-0.09232012,0.023290131,-0.009693013,-0.06284033,0.05746084,0.30645782,-9.346964,0.6658024,47.709274,-1.0070413,-2.2712407,-3.1451068,-0.32081896,-0.07549982,-0.07539594,24.5625,25.0625,24.375,26.0,26.125,26.4375
0.11405217,-0.1255105,-0.18097849,-0.07311661,-0.023180967,0.014546372,-0.08216072,-0.39214376,-0.36808088,0.059901565,-3.077993,0.62528133,-0.0004528701,-0.052737635,0.0100209145,0.0013087121,0.009664895,0.0032843119,0.0024314083,0.5014803,-1.3774872,1.8991612,-2.0903037,-1.5710734,2.4767861,-0.059383035,0.071478985,-0.09295424,0.023256013,-0.010244943,-0.06174595,0.0,0.24899697,-9.461885,0.7911258,47.711063,-1.0871929,-2.3718977,-3.3578315,-0.32265127,-0.04465944,-0.09851238,24.5625,25.0625,24.375,26.0,26.125,26.4375
0.116052486,-0.04320935,-0.4306818,-0.20416589,-0.02841071,0.030911593,-0.08799605,-0.39225486,-0.36807978,0.059892412,-3.0779953,0.6253212,-0.0004942518,-0.053665113,0.009870774,0.0010459162,0.009724555,0.002320029,0.00041403365,0.50136024,-1.377294,1.8989447,-2.090267,-1.5710491,2.4766908,-0.06022646,0.073976204,-0.095549576,0.024227638,-0.009837422,-0.060571436,-0.076614454,0.2681506,-9.461885,0.80679786,47.672558,-1.0404474,-2.4941578,-3.2700887,-0.33080047,-0.05359537,-0.098097146,24.5625,25.0625,24.375,26.0,26.125,26.4375
0.11805183,-0.5654209,-0.5245463,-0.12494662,-0.027518643,0.026517356,-0.07892987,-0.39236838,-0.3680319,0.059888523,-3.0779445,0.62534976,-0.00046109842,-0.05444177,0.009995517,0.0021112745,0.008710813,0.003410809,-0.002333699,0.5012042,-1.3771622,1.8987893,-2.0902307,-1.5710968,2.4765592,-0.061362177,0.07284433,-0.0968671,0.025228254,-0.009473005,-0.058959868,-0.019153614,0.30645782,-9.481039,0.7911258,47.677036,-1.0616806,-2.3045979,-3.2666578,-0.3340341,-0.07481742,-0.1199818,24.5625,25.0625,24.375,26.0,26.125,26.4375
0.12005214,-0.25636265,-0.71352065,-0.37002268,-0.022055143,0.040428013,-0.07989543,-0.39248568,-0.36802155,0.059922453,-3.0779347,0.6253288,-0.00037048507,-0.054907627,0.010056533,0.0012518152,0.008982768,0.0019695284,-0.004450136,0.5011081,-1.3770413,1.8985499,-2.0901473,-1.5711449,2.4764514,-0.06216219,0.075304985,-0.0978063,0.025096716,-0.009018632,-0.057643995,0.038307227,0.30645782,-9.423578,0.8023209,47.703903,-1.0128038,-2.301352,-3.3080168,-0.3635538,-0.06397999,-0.13781312,24.5625,25.0625,24.375,26.0,26.125,26.4375
0.1220527,-0.18373843,-0.2097574,-0.14036007,-0.036177248,0.042534437,-0.08322433,-0.39255986,-0.36801276,0.059878655,-3.0778933,0.625225,-0.00048741463,-0.056107413,0.00939334,0.0019801357,0.006636247,0.0033036305,-0.006236861,0.50102395,-1.3768249,1.8983821,-2.0900996,-1.571144,2.4763079,-0.06302028,0.07578563,-0.09989225,0.024399372,-0.0076125464,-0.056716718,-0.019153614,0.30645782,-9.519346,0.7463667,47.7245,-1.0710626,-2.278147,-3.2794914,-0.36178696,-0.06927455,-0.16589269,24.5625,25.0625,24.375,26.0,26.125,26.4375
0.12405177,-0.21886496,-0.7170546,-0.29668397,-0.022815479,0.041548092,-0.087331615,-0.39268842,-0.36800072,0.059905007,-3.0779033,0.6252847,-0.00041906466,-0.05779962,0.008496027,0.0030259627,0.0044728015,0.005328609,-0.0073155332,0.50089204,-1.3766924,1.8981541,-2.0900514,-1.5711559,2.476212,-0.06362898,0.07682892,-0.10344858,0.024092479,-0.006692762,-0.056247536,-0.11492168,0.24899697,-9.423578,0.7777002,47.672558,-1.1108749,-2.2980032,-3.3278701,-0.3346758,-0.0909808,-0.20464563,24.5625,25.0625,24.375,26.0,26.125,26.4375
0.12605247,-0.46656802,-0.14366618,-0.4320208,-0.021911858,0.043483987,-0.078590356,-0.3927903,-0.36797556,0.059896458,-3.0778823,0.62531835,-0.0004749589,-0.05777747,0.008820089,0.002418358,0.0051097968,0.004703109,-0.0075038727,0.5007481,-1.3765361,1.8979748,-2.0899923,-1.571144,2.4760919,-0.06397155,0.07760349,-0.102887146,0.023611631,-0.006952955,-0.056401026,-0.19153613,0.24899697,-9.461885,0.784413,47.666286,-1.2572285,-2.261222,-3.2748423,-0.33948767,-0.10245994,-0.20822465,24.5625,25.0625,24.375,26.0,26.125,26.4375
0.12805255,-1.04401,-0.37921703,-0.42123404,-0.0015759772,0.0462787,-0.07975465,-0.39290845,-0.36795315,0.05988243,-3.077842,0.62534785,-0.00047915283,-0.05985885,0.008761541,0.0030753163,0.005023922,0.007066351,-0.008809787,0.5006162,-1.3763431,1.8977698,-2.0899565,-1.5711683,2.4759836,-0.06511319,0.07924183,-0.10625144,0.023224883,-0.008021133,-0.056232564,-0.19153613,0.15322891,-9.461885,0.7351769,47.694054,-1.2208585,-2.2451777,-3.3249803,-0.34273964,-0.09321819,-0.24013513,24.5625,25.0625,24.375,26.0,26.125,26.4375
0.1300521,-0.99520135,0.09603271,-0.28695548,-0.0019344727,0.05532289,-0.08398445,-0.39305687,-0.36795375,0.059915934,-3.0779147,0.6253421,-0.00037936555,-0.06001514,0.008749438,0.0031228943,0.004958839,0.007357755,-0.006397609,0.50047255,-1.3761991,1.89752,-2.0899446,-1.5711564,2.4758272,-0.06516073,0.079320766,-0.1064171,0.023023466,-0.0081005925,-0.05869279,-0.28730422,0.15322891,-9.442732,0.8291774,47.690468,-1.278634,-2.2608562,-3.4050512,-0.32695502,-0.07834993,-0.24821846,24.5625,25.0625,24.375,26.0,26.125,26.4375
0.13205253,-0.8403292,0.48096073,-0.24199976,-0.0015460447,0.06162195,-0.0854052,-0.39314246,-0.36793402,0.059902687,-3.0778553,0.62539005,-0.00041141993,-0.062390026,0.0094390875,0.003345486,0.0040252088,0.00792134,-0.010841272,0.50037533,-1.3760424,1.8973507,-2.089885,-1.5711807,2.4757676,-0.06883406,0.081220455,-0.10916809,0.022928558,-0.0075598187,-0.0579219,-0.2681506,0.11492168,-9.481039,0.8112748,47.67614,-1.2127767,-2.245386,-3.2733088,-0.3191226,-0.08964348,-0.26593837,24.5625,25.0625,24.375,26.0,26.125,26.4375
0.13405201,-0.7694877,0.24411611,-0.18567401,0.003707535,0.061628472,-0.07910172,-0.39328572,-0.36791182,0.059934296,-3.077856,0.62540656,-0.0003470439,-0.062066186,0.008418728,0.0032992756,0.003858719,0.008279612,-0.009377431,0.5002205,-1.375898,1.8970884,-2.089801,-1.5712045,2.4756231,-0.066779286,0.08209864,-0.11001855,0.0225045,-0.007585248,-0.05733068,-0.34476504,0.17238252,-9.557653,0.7978386,47.664497,-1.2868874,-2.1637201,-3.3204188,-0.3179077,-0.09994574,-0.3112465,24.5625,25.0625,24.375,26.0,26.125,26.4375
0.1360524,-1.1137122,0.445798,-0.05835308,-0.006270759,0.05505042,-0.07896565,-0.3934065,-0.36788365,0.05992261,-3.0778232,0.6253607,-0.00036734983,-0.06292329,0.009051893,0.0024623717,0.0050815484,0.007391775,-0.009754115,0.5000764,-1.3757049,1.8968724,-2.0897415,-1.5712284,2.4754548,-0.06820669,0.08447945,-0.110931404,0.022401433,-0.008236974,-0.058378965,-0.47884035,0.076614454,-9.519346,0.8247004,47.694054,-1.431946,-2.19415,-3.359295,-0.30367604,-0.0947524,-0.34327647,24.5625,25.0625,24.375,26.0,26.125,26.4375
0.13805166,-0.9978503,0.47733128,-0.21800567,-0.0075803455,0.06631624,-0.0865535,-0.39352378,-0.3678618,0.059909966,-3.0778034,0.6254156,-0.00038494167,-0.06527354,0.010269484,0.0025624717,0.004343231,0.007465931,-0.013030134,0.49993107,-1.3755242,1.8966812,-2.0897171,-1.5712279,2.4753463,-0.07277324,0.0859859,-0.1129917,0.022532254,-0.007629955,-0.05966973,-0.45968673,0.11492168,-9.481039,0.8224646,47.678825,-1.2605903,-2.1858706,-3.394001,-0.3078072,-0.10486683,-0.3518994,24.5625,25.0625,24.375,26.0,26.125,26.4375
0.14005198,-0.923313,0.15103915,-0.112969376,-0.003800375,0.07308352,-0.08062759,-0.39365697,-0.36787108,0.059928134,-3.0778294,0.62544066,-0.00032852226,-0.06514013,0.009428961,0.0022967183,0.004939022,0.0072133634,-0.014020127,0.499824,-1.3753434,1.896417,-2.089681,-1.5712284,2.4752517,-0.07096691,0.08775069,-0.11456835,0.02285347,-0.008029228,-0.056872047,-0.57460845,0.15322891,-9.404425,0.78217715,47.728977,-1.2929399,-2.166936,-3.4375882,-0.2904195,-0.10820946,-0.40427017,24.5625,25.0625,24.375,26.0,26.125,26.4375
0.14205244,-1.2511507,0.3969559,0.16672504,-0.011996459,0.07344186,-0.08375021,-0.39381284,-0.36783072,0.059942525,-3.077813,0.62558925,-0.0002757875,-0.066615455,0.0097145755,0.0027481616,0.0045125037,0.008300428,-0.0137259485,0.49961984,-1.375187,1.8961905,-2.0896451,-1.5712403,2.4751425,-0.07268101,0.08853785,-0.116549134,0.02288579,-0.008178502,-0.05887941,-0.53630114,0.15322891,-9.346964,0.7642693,47.66539,-1.3406479,-2.1796186,-3.427,-0.2611224,-0.104120836,-0.44260037,24.5625,25.0625,24.375,26.0,26.125,26.4375
0.14405167,-1.3872845,0.51995456,0.04000213,-0.004478611,0.07601242,-0.080386594,-0.39394176,-0.36782083,0.059955783,-3.0778143,0.6255694,-0.00022234782,-0.06784779,0.010173302,0.003087697,0.0041522607,0.00896693,-0.01274077,0.49949947,-1.3750187,1.8959497,-2.089597,-1.5712646,2.4750097,-0.07455783,0.089002684,-0.11791885,0.02302911,-0.008183994,-0.06174103,-0.49799395,0.095768064,-9.385271,0.80456203,47.66271,-1.4195453,-2.178173,-3.409307,-0.26217043,-0.10320902,-0.4632318,24.5625,25.0625,24.375,26.0,26.125,26.4375
0.14605273,-1.33764,0.46358612,0.0094348565,-0.0014723178,0.07520591,-0.081885464,-0.3940868,-0.36779383,0.059982866,-3.0778182,0.62560797,-0.00011540736,-0.06972307,0.010612559,0.002671443,0.003913511,0.008228625,-0.01278385,0.49934265,-1.3748854,1.8957218,-2.0895617,-1.5713004,2.4748766,-0.07734198,0.09212419,-0.120740466,0.023255939,-0.0076235286,-0.06448218,-0.53630114,0.019153614,-9.404425,0.8179876,47.694054,-1.3203645,-2.3462052,-3.4834766,-0.24684629,-0.12989536,-0.45823723,24.5625,25.0625,24.375,26.0,26.125,26.4375
0.14805204,-0.97307354,0.42620787,0.011235675,-0.007253927,0.07238312,-0.07522609,-0.39423582,-0.36776558,0.059960045,-3.077797,0.62567794,-0.0001586233,-0.07026792,0.011792352,0.0029614011,0.003928891,0.008470992,-0.012011265,0.4991505,-1.3746455,1.8954834,-2.0895379,-1.5712885,2.474731,-0.0797077,0.09078612,-0.11989651,0.023542654,-0.0077531044,-0.06762064,-0.47884035,0.019153614,-9.442732,0.8247004,47.72002,-1.2862585,-2.1478677,-3.430206,-0.24018632,-0.12945998,-0.45697916,24.5625,25.0625,24.375,26.0,26.125,26.4375
0.15005234,-0.8937194,0.09161115,0.026708672,0.0068751276,0.07127521,-0.08024955,-0.39435327,-0.36775136,0.05996224,-3.077785,0.62565315,-0.00019059418,-0.072109595,0.011589042,0.0023160572,0.0051986463,0.008402829,-0.0055505806,0.49901846,-1.3744639,1.8952435,-2.0894535,-1.5712885,2.474585,-0.08035727,0.09547678,-0.12404329,0.023665225,-0.008849812,-0.074726045,-0.5363012,0.11492168,-9.32781,0.8627467,47.73077,-1.1806228,-2.1662164,-3.4467063,-0.22308677,-0.106462315,-0.4143953,24.5625,25.0625,24.375,26.0,26.125,26.4375
0.15205239,-1.8666885,0.07613595,0.042631034,0.0073237354,0.04411508,-0.070170194,-0.39452568,-0.36774147,0.059990097,-3.0778291,0.625621,-9.303547e-05,-0.072470374,0.011755718,0.002836607,0.005094887,0.009379806,-0.0034747752,0.49885085,-1.3742721,1.8949441,-2.0894172,-1.5713009,2.474392,-0.080699846,0.09473468,-0.124404624,0.023858707,-0.00922168,-0.07714433,-0.4405331,0.05746084,-9.308657,0.8918391,47.694946,-1.2890891,-2.151637,-3.5271468,-0.18646222,-0.1073387,-0.3913992,24.5625,25.0625,24.375,26.0,26.125,26.4375
0.15405232,-0.6844497,0.41030326,0.11034858,-0.0013168561,0.07753663,-0.084612645,-0.3946558,-0.36770973,0.05997617,-3.0777988,0.6256327,-8.596714e-05,-0.07532828,0.013743917,0.0028362067,0.0052522616,0.008939282,-0.0038736283,0.49869293,-1.3740791,1.8947409,-2.089393,-1.5713252,2.4742453,-0.086674504,0.096638754,-0.1269263,0.024931518,-0.009155657,-0.08271899,-0.30645782,0.15322891,-9.232041,0.85826975,47.72808,-1.1189096,-2.152566,-3.4306889,-0.18421528,-0.11693345,-0.3529618,24.5625,25.0625,24.375,26.0,26.125,26.4375
0.15605259,-0.72387314,0.40433076,0.16771732,0.0029393747,0.06566537,-0.0839357,-0.39482254,-0.36767247,0.059982624,-3.0777671,0.62556404,-2.5562204e-05,-0.07544169,0.012633634,0.002689334,0.0051431996,0.008800828,0.003850927,0.49851406,-1.3738621,1.8944525,-2.0893219,-1.5713848,2.4740279,-0.08497616,0.09871918,-0.12912315,0.02510628,-0.009000597,-0.0887444,-0.34476504,0.11492168,-9.289503,0.8605109,47.68062,-1.1534858,-2.1845179,-3.4287698,-0.16953829,-0.12103057,-0.26895294,24.5625,25.0625,24.375,26.0,26.125,26.4375
0.15805194,-0.55594635,0.39417574,0.1432208,-0.00072508515,0.06250604,-0.08501217,-0.39495152,-0.36765417,0.059975002,-3.0777605,0.6255618,-6.914726e-05,-0.07702138,0.013796388,0.0031676483,0.005179118,0.0098137,0.0029486911,0.4983574,-1.3736582,1.8942136,-2.0892613,-1.5713729,2.4738708,-0.08802272,0.09854564,-0.1300819,0.025366282,-0.009520558,-0.09088713,-0.47884035,0.19153613,-9.270349,0.8112748,47.689575,-1.1108143,-2.112113,-3.367321,-0.14547178,-0.12196001,-0.2558113,24.5625,25.0625,24.375,26.0,26.125,26.4375
0.16005208,-0.72234863,-0.2956074,0.014376165,-0.00041758345,0.06231391,-0.07933115,-0.39512813,-0.3676212,0.0600016,-3.0777452,0.62559587,5.9720136e-05,-0.078546174,0.014115938,0.0023435943,0.0053318446,0.0076607736,0.003829226,0.49817684,-1.3734763,1.893926,-2.0892131,-1.5714325,2.4737136,-0.09047482,0.10255475,-0.13323864,0.026465397,-0.00862582,-0.0942204,-0.4213795,0.19153613,-9.270349,0.779936,47.65643,-1.0386262,-2.3371518,-3.263485,-0.12147398,-0.12897708,-0.19792731,24.5625,25.0625,24.375,26.0,26.125,26.4375
0.1620526,-0.6498304,0.11019117,0.02787788,-0.009237749,0.057028025,-0.079916805,-0.39528322,-0.3675844,0.059988063,-3.0777144,0.6256655,2.9419656e-05,-0.07984709,0.014613815,0.0037072687,0.0051008775,0.009432089,0.0038749464,0.49797297,-1.3732486,1.8936752,-2.089165,-1.571433,2.4735572,-0.09206154,0.1014164,-0.13537002,0.028068103,-0.009272342,-0.09585084,-0.34476504,0.19153613,-9.270349,0.7866488,47.689575,-0.9760589,-2.1560445,-3.420744,-0.12717375,-0.1262421,-0.17017889,24.5625,25.0625,24.375,26.0,26.125,26.4375
0.16405162,-0.7613332,-0.044838004,0.06371407,-0.010953493,0.04524631,-0.073151276,-0.3954572,-0.36754784,0.059999656,-3.077733,0.62565035,2.7263784e-05,-0.0802756,0.01567573,0.0012081395,0.008050943,0.0045547322,0.001334858,0.49774456,-1.3730425,1.8933872,-2.089092,-1.571421,2.4733171,-0.09403134,0.106946334,-0.13659745,0.029460147,-0.009532705,-0.09527891,-0.30645782,0.24899697,-9.289502,0.83365434,47.67614,-0.8997631,-2.413367,-3.3804884,-0.113752216,-0.12873435,-0.14815503,24.5625,25.0625,24.375,26.0,26.125,26.4375
0.166052,-0.41751394,0.52917874,0.17579092,-0.021779157,0.050575886,-0.07729603,-0.39558893,-0.36753818,0.05998641,-3.077738,0.62559575,-1.46415805e-05,-0.08247639,0.015974458,0.0031176724,0.006497276,0.007512455,-0.002956874,0.4976001,-1.3728147,1.8931354,-2.0890439,-1.5714091,2.473138,-0.096481584,0.10582524,-0.13986653,0.030511,-0.00958511,-0.09343613,-0.38307226,0.13407528,-9.251195,0.84708,47.685097,-0.80044127,-2.1505265,-3.342283,-0.11569485,-0.13406709,-0.14912117,24.5625,25.125,24.375,26.0,26.1875,26.4375
0.16805233,-0.9872042,0.05936162,-0.069900416,-0.0002439268,0.0379243,-0.06957828,-0.39577532,-0.36750522,0.059994698,-3.0777369,0.6255778,6.244661e-05,-0.08392493,0.015861446,0.0029071805,0.006899269,0.0074598943,-0.0074463775,0.49739614,-1.3725852,1.8928355,-2.089008,-1.5714449,2.4729233,-0.09736968,0.10883992,-0.14309871,0.03096515,-0.009913334,-0.08983274,-0.38307226,0.21068975,-9.136273,0.74413085,47.72002,-0.78294635,-2.2740164,-3.1968951,-0.10145247,-0.12253219,-0.1804989,24.5625,25.125,24.375,26.0,26.1875,26.4375
0.17005268,-0.4727413,0.54601526,0.17764613,0.005160039,0.056098063,-0.08355769,-0.39595363,-0.3674678,0.06002074,-3.0777326,0.62561685,0.00015488344,-0.084959015,0.01605385,0.0027739243,0.007120889,0.007303285,-0.012353621,0.49719223,-1.3724046,1.892548,-2.0889485,-1.5714806,2.4727445,-0.098521054,0.11059242,-0.14498174,0.031337213,-0.010029814,-0.08607617,-0.49799395,0.21068975,-9.11712,0.8023209,47.685097,-0.7449807,-2.2771816,-3.2043238,-0.08988109,-0.11520138,-0.24032417,24.5625,25.125,24.375,26.0,26.1875,26.4375
0.17205186,-1.4758112,0.007788423,0.018586576,0.0068229036,0.047773547,-0.06875738,-0.3961162,-0.36743328,0.060023006,-3.0776758,0.6257216,0.0001467637,-0.08580178,0.015973337,0.0026056783,0.0066322065,0.006058087,-0.016411224,0.49700025,-1.3721757,1.8922485,-2.0888517,-1.5715045,2.4726253,-0.099746846,0.112635866,-0.14731367,0.03248184,-0.009009118,-0.083245076,-0.40222588,0.24899697,-9.212888,0.80456203,47.704796,-0.82076806,-2.3560894,-3.212304,-0.06608599,-0.14933468,-0.28417444,24.5625,25.125,24.375,26.0,26.1875,26.4375
0.1740521,-0.8676284,0.29306802,0.053509478,-0.010599975,0.07387926,-0.084237255,-0.39629385,-0.36739653,0.060014512,-3.0776787,0.62579787,0.000119834855,-0.08556665,0.015761275,0.0023523471,0.0072601805,0.004671175,-0.016714156,0.49676102,-1.3719351,1.8919734,-2.088816,-1.5714802,2.4724333,-0.099194765,0.11377294,-0.14846295,0.034012835,-0.008898283,-0.08238984,-0.3256114,0.22984336,-9.251195,0.7709874,47.70032,-0.9040298,-2.3406215,-3.1790128,-0.078559905,-0.15515062,-0.32692915,24.5625,25.125,24.375,26.0,26.1875,26.4375
0.17605235,-0.9367329,-0.03696515,0.005972154,-0.009702576,0.06700188,-0.08349739,-0.396436,-0.36737207,0.059998374,-3.0776258,0.62584376,9.8829216e-05,-0.085852146,0.016345767,0.0021222602,0.008755484,0.004219435,-0.016406754,0.49660528,-1.3716947,1.8917102,-2.0887554,-1.571505,2.4723132,-0.09971601,0.11449483,-0.14904274,0.03498039,-0.010000244,-0.08321569,-0.28730422,0.22984336,-9.289502,0.77545905,47.696735,-0.8728891,-2.2979212,-3.1649156,-0.073167,-0.13926047,-0.33296502,24.5625,25.125,24.375,26.0,26.1875,26.4375
0.1780518,-1.2532991,-0.0019011477,-0.08643015,-0.023237916,0.048949387,-0.07792909,-0.3966097,-0.3673391,0.060013846,-3.0775828,0.6258721,0.00011672467,-0.08664428,0.016114037,0.0024619321,0.0083483085,0.0041102134,-0.015829803,0.49641338,-1.3714659,1.8913754,-2.0886347,-1.5715407,2.4721446,-0.10025685,0.11561716,-0.15143904,0.036149252,-0.009594662,-0.08433323,-0.30645782,0.19153613,-9.461885,0.7620334,47.66271,-0.87663436,-2.2497282,-3.0922985,-0.08032678,-0.12325295,-0.33318245,24.5625,25.125,24.375,26.0,26.1875,26.4375
0.18005201,-0.26551458,-0.29023132,-0.11115627,-0.020938406,0.052240286,-0.07648603,-0.39679977,-0.3672932,0.059990946,-3.077537,0.6258815,0.00012327745,-0.088366605,0.016787685,0.0026588493,0.008572264,0.004727889,-0.017420461,0.4961852,-1.3711771,1.8910755,-2.0885994,-1.571577,2.4719284,-0.10259855,0.117032215,-0.15369305,0.036547694,-0.010092263,-0.08508201,-0.21068975,0.22984336,-9.481039,0.800085,47.677036,-0.9938512,-2.2964156,-3.367025,-0.05448748,-0.13634531,-0.34926087,24.5625,25.125,24.375,26.0,26.1875,26.4375
0.1820524,-0.31779906,-0.3479205,-0.20058642,-0.015887309,0.03662524,-0.07228355,-0.39700457,-0.3672766,0.060022082,-3.0775707,0.62602097,0.00023512886,-0.08686896,0.016135355,0.0017607228,0.009736112,0.0030512654,-0.014948766,0.49597046,-1.3709608,1.8907417,-2.0885756,-1.571577,2.4717965,-0.099950954,0.117923886,-0.15278754,0.036777873,-0.0103074135,-0.084906906,-0.19153613,0.17238252,-9.385271,0.8157518,47.693153,-0.9588417,-2.2420177,-3.28937,-0.058127187,-0.11713811,-0.38598692,24.5625,25.125,24.375,26.0,26.1875,26.4375
0.18405256,-0.36601463,0.15871164,-0.22754647,-0.011425193,0.031309117,-0.07482931,-0.39718083,-0.36722547,0.060021434,-3.0775185,0.62597036,0.00023556585,-0.08836609,0.018079875,-0.00015923892,0.011632934,-0.00020021644,-0.016845126,0.4957534,-1.3707191,1.8904308,-2.0884674,-1.5716246,2.4715548,-0.10444865,0.122015074,-0.1533809,0.037034318,-0.010435066,-0.087506786,-0.095768064,0.11492168,-9.404425,0.79560274,47.66271,-0.94981,-2.271475,-3.3829904,-0.029598609,-0.14195888,-0.38735247,24.5625,25.125,24.375,26.0,26.1875,26.4375
0.18605198,0.026282432,0.67715025,-0.32250965,-0.0035008257,0.024204252,-0.07849993,-0.39735046,-0.36719903,0.060030747,-3.0774906,0.62606037,0.000247994,-0.08788194,0.017458552,0.0010717865,0.010559092,0.0016485637,-0.016014347,0.4955624,-1.3704917,1.8901199,-2.088384,-1.5716375,2.4714236,-0.102958724,0.119436406,-0.15318675,0.03727917,-0.010369268,-0.08684834,0.0,0.17238252,-9.3661175,0.7911258,47.66271,-0.9139899,-2.2222369,-3.4752145,-0.018236067,-0.1302266,-0.4282549,24.5625,25.125,24.375,26.0,26.1875,26.4375
0.18805209,0.032806095,0.3653209,-0.3217606,0.01151357,0.021363888,-0.06902213,-0.39754358,-0.36716917,0.06002106,-3.077459,0.6260691,0.00027785235,-0.08866877,0.017858779,-0.00057676656,0.011921659,-0.0017898424,-0.011644256,0.49535814,-1.3702016,1.8897852,-2.0883353,-1.5716728,2.471229,-0.104561515,0.124206886,-0.15540941,0.038391795,-0.009940341,-0.092820615,0.076614454,0.0,-9.308656,0.7911258,47.660015,-1.0011708,-2.3760545,-3.435295,0.0016866325,-0.13668841,-0.40764683,24.5625,25.125,24.375,26.0,26.1875,26.4375
0.19005229,0.14906524,0.7137335,-0.3457343,0.0068812533,0.01434137,-0.07780713,-0.39770186,-0.36711472,0.05999927,-3.0774052,0.6260947,0.00021641224,-0.08964006,0.018013483,0.00086733256,0.011070903,-0.00091130694,-0.010009238,0.49513015,-1.369962,1.8895324,-2.0882618,-1.5716847,2.471024,-0.105856225,0.12307642,-0.15793009,0.0408584,-0.0096180225,-0.0957499,0.019153614,-0.05746084,-9.308656,0.8291774,47.66987,-0.97082484,-2.196035,-3.600021,-0.024129182,-0.16223747,-0.35622963,24.5625,25.125,24.375,26.0,26.1875,26.4375
0.19205247,0.067051366,0.61297786,-0.41119924,0.013749178,0.011047416,-0.07625427,-0.39788845,-0.36710435,0.060028307,-3.0774293,0.6260757,0.0002823697,-0.089820616,0.018355431,5.708159e-05,0.012145679,-0.0034683298,-0.005296068,0.4949506,-1.3697329,1.8891743,-2.088178,-1.5716971,2.4708297,-0.10671007,0.12542105,-0.15931411,0.042649217,-0.009348113,-0.101317205,0.13407528,0.038307227,-9.289502,0.8179876,47.67793,-1.0536643,-2.3007984,-3.522995,-0.025326077,-0.14685299,-0.31890684,24.5625,25.125,24.375,26.0,26.1875,26.4375
0.19405161,0.805224,0.5452137,-0.48253942,0.008273738,0.020665735,-0.08517197,-0.3980522,-0.36705586,0.060030725,-3.0773861,0.6260814,0.0002619103,-0.09042625,0.01741434,0.0012444315,0.0113783255,-0.0012324749,0.0024193896,0.49473512,-1.3695168,1.8888868,-2.0880702,-1.571721,2.4706235,-0.105389796,0.12512368,-0.16177681,0.04306792,-0.009748296,-0.10771041,0.038307227,0.11492168,-9.404425,0.8537928,47.711063,-1.012464,-2.2531621,-3.4299307,-0.025167275,-0.13629755,-0.26096877,24.5625,25.125,24.375,26.0,26.1875,26.4375
0.19605203,0.081446156,0.062168673,-0.5559254,-0.0010627095,0.008517129,-0.07188006,-0.3982418,-0.36702257,0.06001041,-3.077351,0.62608993,0.00019894763,-0.0913178,0.018426567,0.00019093127,0.012905388,-0.005053294,0.0055826963,0.49450698,-1.3692031,1.8885397,-2.0879853,-1.571721,2.4704053,-0.10812546,0.12864897,-0.16432537,0.046169348,-0.009288364,-0.11360867,0.05746084,0.17238252,-9.442732,0.8717007,47.686886,-1.1602336,-2.3162403,-3.434421,-0.0384496,-0.14490938,-0.188996,24.5625,25.125,24.375,26.0,26.1875,26.4375
0.19805217,-0.2559024,-0.6443517,-0.60473603,0.0045819418,0.009999895,-0.06346633,-0.39844525,-0.36699137,0.06003202,-3.0773432,0.62606615,0.0002610702,-0.090764545,0.018116293,0.0009186703,0.013605697,-0.0056260023,0.007995874,0.49429196,-1.3689513,1.8881682,-2.087888,-1.5717567,2.4701767,-0.10683585,0.12789658,-0.16580184,0.04922877,-0.009629673,-0.11473159,0.019153614,0.24899697,-9.442732,0.80679786,47.689575,-1.0575364,-2.162316,-3.4778156,-0.071185194,-0.12875162,-0.13500491,24.5625,25.125,24.375,26.0,26.1875,26.4375
0.20005234,-0.10498602,-0.576772,-0.92199093,-0.0025403192,0.02629375,-0.07256062,-0.39858413,-0.36695623,0.06000383,-3.0772977,0.62594116,9.981522e-05,-0.09066302,0.019134821,0.0002472563,0.016269274,-0.0099399,0.008264736,0.4940996,-1.3686743,1.8878688,-2.0877426,-1.5717448,2.4699123,-0.10821696,0.13001738,-0.1679996,0.054365903,-0.009939246,-0.11637899,-0.05746084,0.24899697,-9.5385,0.8672237,47.71286,-1.1671615,-2.3740044,-3.4399958,-0.13056861,-0.14066273,-0.09352122,24.5625,25.125,24.375,26.0,26.1875,26.4375
0.20205261,-0.21148844,-0.47406593,-0.6957117,-0.021733632,0.03619581,-0.07422979,-0.3987563,-0.36690286,0.060002685,-3.0772226,0.6258905,5.8739195e-05,-0.0917448,0.019528067,-0.0002774847,0.0164704,-0.010979531,0.0017647903,0.49388367,-1.3684213,1.8875345,-2.0875876,-1.571793,2.4696746,-0.10999631,0.13240074,-0.16976936,0.054759357,-0.009634583,-0.11165742,-0.076614454,0.2681506,-9.672575,0.8403672,47.698532,-1.069124,-2.2825565,-3.4168324,-0.1749858,-0.14905374,-0.11063306,24.5625,25.125,24.375,26.0,26.1875,26.4375
0.20405242,-0.69390744,-1.1063138,-0.8936441,-0.02406962,0.04698333,-0.06497596,-0.3989529,-0.36688027,0.060037896,-3.0772557,0.6258788,0.000114981245,-0.093788415,0.019203424,0.0009576087,0.015970679,-0.008796716,-0.0030437454,0.4936678,-1.3682047,1.887174,-2.0874908,-1.5717934,2.4694474,-0.11087966,0.13361157,-0.17431316,0.05593773,-0.010231449,-0.10772955,-0.11492168,0.3256114,-9.615114,0.85826975,47.682407,-1.1076565,-2.2444465,-3.333334,-0.19689737,-0.14563309,-0.14860633,24.5625,25.125,24.375,26.0,26.1875,26.4375
0.2060518,-1.016089,-0.9200314,-0.6800206,-0.041189272,0.04864175,-0.069560856,-0.3991747,-0.3668386,0.060031157,-3.0772045,0.62600446,9.3464805e-05,-0.09433692,0.0194633,0.00087047723,0.016684635,-0.010291995,-0.008228066,0.4934041,-1.3678797,1.8867797,-2.087395,-1.5718049,2.4692688,-0.111793034,0.13520649,-0.17658658,0.05827189,-0.0101549355,-0.10345765,-0.17238252,0.3256114,-9.557653,0.82694155,47.690468,-1.1478895,-2.3027139,-3.3484254,-0.24549949,-0.15671204,-0.20277777,24.5625,25.125,24.375,26.0,26.1875,26.4375
0.20805201,-0.9117814,-1.3621082,-0.73511815,-0.03169041,0.05845192,-0.060888615,-0.39933854,-0.3668023,0.060037076,-3.077156,0.625977,0.00010947256,-0.09442252,0.019422946,-0.00022492978,0.017202992,-0.012364025,-0.011858569,0.49322435,-1.3676506,1.8864683,-2.0872867,-1.5718526,2.4690783,-0.11207846,0.13788253,-0.17735676,0.058431733,-0.009634659,-0.10011288,-0.36391866,0.36391866,-9.519346,0.83813137,47.716442,-1.1894143,-2.2570755,-3.3117132,-0.27104986,-0.17329803,-0.23850247,24.5625,25.125,24.375,26.0,26.1875,26.4375
0.21005253,-1.1737285,-1.0934986,-0.6355986,-0.025221787,0.053786766,-0.06514101,-0.39954412,-0.36676106,0.060044277,-3.077115,0.62604624,0.000117355354,-0.09623866,0.019646723,0.00041213376,0.016457511,-0.01051805,-0.015811173,0.49298424,-1.3673741,1.8860973,-2.0871794,-1.5718769,2.4688869,-0.11389398,0.13867418,-0.17968367,0.057986703,-0.009861728,-0.09797417,-0.24899697,0.3256114,-9.595961,0.79560274,47.695843,-1.1503844,-2.1999123,-3.2388167,-0.30764502,-0.15769553,-0.2875449,24.5625,25.125,24.375,26.0,26.1875,26.4375
0.21205254,-0.7556228,-0.023905575,-0.4668812,-0.027874492,0.061915133,-0.07405849,-0.39973402,-0.36672905,0.06003592,-3.077099,0.62610084,4.8235157e-05,-0.09800557,0.019957365,0.00012477669,0.016781341,-0.009875068,-0.01849782,0.49274415,-1.3670849,1.8857492,-2.087084,-1.571853,2.468683,-0.11557949,0.14135389,-0.18212113,0.0573346,-0.01046485,-0.09696993,-0.24899697,0.30645782,-9.5385,0.86498255,47.678825,-1.1381011,-2.3081398,-3.1903572,-0.3115863,-0.16167262,-0.31600353,24.5625,25.125,24.375,26.0,26.1875,26.4375
0.21405184,-0.8263406,-0.37962618,-0.35500523,-0.013137841,0.06307009,-0.07017107,-0.39990443,-0.36670902,0.060041804,-3.0770786,0.62603945,1.467558e-05,-0.09995497,0.019631313,0.0011139235,0.014056141,-0.0072259307,-0.020927826,0.49256387,-1.3668205,1.8853902,-2.0869524,-1.571865,2.4684672,-0.117441386,0.14155877,-0.18426695,0.055646155,-0.009331059,-0.09640327,-0.38307226,0.30645782,-9.500193,0.8493211,47.67614,-1.1193305,-2.2793813,-3.3131437,-0.30552864,-0.17010377,-0.3695979,24.5625,25.125,24.375,26.0,26.1875,26.4375
0.21605209,-1.3040785,-0.6331641,-0.3683952,0.0003644164,0.05902616,-0.06500614,-0.400093,-0.36665478,0.060017068,-3.0769713,0.62615174,-5.6586672e-05,-0.09889634,0.02046936,-0.0017158404,0.016452873,-0.012820311,-0.023036921,0.49232444,-1.3665068,1.8850445,-2.0868328,-1.5719002,2.4683118,-0.11815481,0.1454771,-0.18268633,0.05620425,-0.008804201,-0.09500821,-0.51714754,0.28730422,-9.346964,0.83365434,47.678825,-1.0948731,-2.3503895,-3.32251,-0.3097936,-0.17367378,-0.42822924,24.5625,25.125,24.375,26.0,26.1875,26.4375
0.21805221,-1.0008132,-0.15373237,-0.20735751,-0.017519046,0.08552474,-0.07780482,-0.40033814,-0.36661714,0.060056124,-3.0769649,0.6263244,2.3703802e-05,-0.10064904,0.022043187,-0.0034307986,0.017647915,-0.014796773,-0.027312623,0.49204755,-1.3662415,1.8846143,-2.0867255,-1.5719122,2.4681437,-0.12221667,0.14948855,-0.18339378,0.05520411,-0.008927238,-0.09479367,-0.5363012,0.17238253,-9.289502,0.78217715,47.690468,-1.0091963,-2.2783966,-3.4386635,-0.34912834,-0.19139567,-0.47112173,24.5625,25.125,24.375,26.0,26.1875,26.4375
0.22005229,-1.8625748,-0.5910126,-0.022212427,-0.010666991,0.0854093,-0.0704436,-0.40054917,-0.36659372,0.06004808,-3.0769591,0.6262611,4.660486e-05,-0.101409554,0.01974907,-0.0017088474,0.014262617,-0.009633618,-0.02145337,0.4918329,-1.3659174,1.8842319,-2.0866668,-1.5719365,2.4678905,-0.11932405,0.1484554,-0.18541567,0.0520997,-0.008400647,-0.09776086,-0.53630114,0.038307227,-9.251195,0.8627467,47.698532,-1.119288,-2.184471,-3.4674032,-0.31381086,-0.19661137,-0.49296817,24.5625,25.125,24.375,26.0,26.1875,26.4375
0.22205262,-1.8835092,-0.04353336,0.27264243,-0.01149339,0.08717523,-0.07534252,-0.40076056,-0.36654148,0.060063496,-3.0768874,0.6264172,0.000119517645,-0.10364309,0.020679034,-0.0017199212,0.013956152,-0.007947621,-0.021125479,0.49159232,-1.3656645,1.8838729,-2.0865715,-1.571997,2.4677567,-0.1224931,0.14992899,-0.186794,0.05036317,-0.008939351,-0.1012558,-0.63206923,-0.05746084,-9.270349,0.8247004,47.683304,-1.0043297,-2.3262975,-3.490652,-0.30667052,-0.21242447,-0.48171914,24.5625,25.125,24.375,26.0,26.1875,26.4375
0.22405174,-1.1666373,0.2911666,0.45708206,0.0017616581,0.10595489,-0.07680592,-0.40096062,-0.3665154,0.06004761,-3.0768807,0.62642705,4.9153572e-05,-0.10415255,0.019835515,-0.0010468183,0.01364777,-0.006240616,-0.010704412,0.49135345,-1.36534,1.8835019,-2.086488,-1.5719727,2.467525,-0.121133104,0.15037857,-0.18890679,0.050367057,-0.009493476,-0.110314414,-0.5554548,-0.05746084,-9.097966,0.86945957,47.672558,-1.1583713,-2.2453303,-3.4558086,-0.2914673,-0.20402274,-0.4285488,24.5625,25.125,24.375,26.0,26.1875,26.4375
0.22605203,-1.1698513,1.0403899,0.47188917,0.024691643,0.08382275,-0.086587,-0.40120763,-0.3664815,0.0600793,-3.0769083,0.62642986,0.00015867541,-0.106134064,0.019773744,-0.0017250447,0.012787693,-0.0053225188,-0.0072579384,0.49108937,-1.3650625,1.8830818,-2.086417,-1.571997,2.4672594,-0.12292759,0.15383352,-0.19093984,0.047717143,-0.009178755,-0.1155554,-0.47884035,-0.11492168,-8.963891,0.8784135,47.691364,-1.1342491,-2.279531,-3.5029514,-0.26876193,-0.20911533,-0.39175725,24.5625,25.125,24.375,26.0,26.1875,26.4375
0.22805226,-0.71267456,1.7957456,0.44187903,0.041847948,0.06358727,-0.07617464,-0.4013908,-0.36644828,0.060045037,-3.0768857,0.6263994,7.403829e-05,-0.10834614,0.019121394,-0.00048029015,0.009906541,-0.00015148892,0.0018091905,0.49086168,-1.3647387,1.882759,-2.0863588,-1.5719851,2.4670157,-0.12380526,0.15351152,-0.1925197,0.043687064,-0.009107285,-0.12549913,-0.36391866,-0.095768064,-9.059659,0.800085,47.690468,-1.1504512,-2.1108942,-3.4300253,-0.2148591,-0.22627059,-0.2838479,24.5625,25.125,24.375,26.0,26.1875,26.4375
0.2300519,-0.44405532,1.3813095,0.3900507,0.051578674,0.046345476,-0.077443294,-0.40162867,-0.36637995,0.06004819,-3.076797,0.626437,0.00012759186,-0.11133447,0.019219903,0.0018261918,0.0077142417,0.0053765546,0.004119489,0.49058527,-1.3644267,1.8823513,-2.0862386,-1.572069,2.4667745,-0.12614913,0.15220195,-0.19597197,0.04252342,-0.009797384,-0.13015033,-0.40222588,-0.15322891,-9.059659,0.88960326,47.703007,-1.0058517,-2.09651,-3.3417091,-0.16652972,-0.23237197,-0.22180703,24.5625,25.125,24.375,26.0,26.1875,26.4375
0.23205233,-0.3089891,1.1104349,0.26230013,0.038409293,0.046589937,-0.08195524,-0.40185487,-0.3663552,0.060040314,-3.076798,0.6264353,9.729992e-05,-0.11339744,0.019946044,0.0025620232,0.007967047,0.0070025176,0.00442586,0.49033335,-1.3640779,1.8819326,-2.0861547,-1.5720571,2.4665215,-0.1285207,0.15305667,-0.19888227,0.043263085,-0.010795043,-0.1328246,-0.45968673,-0.019153614,-9.040505,0.842603,47.71465,-1.1474366,-2.0029173,-3.288599,-0.14391768,-0.21131867,-0.17249155,24.5625,25.125,24.375,26.0,26.1875,26.4375
0.2340525,-0.8149832,0.42406857,0.0878608,0.038218986,0.04651565,-0.06878856,-0.40207914,-0.3662929,0.060059674,-3.0767837,0.62635547,0.00015702158,-0.113910526,0.020297498,0.0022699065,0.008981688,0.0061095036,0.0029446085,0.49005756,-1.3638252,1.8815616,-2.086047,-1.5721053,2.466198,-0.12919897,0.15459843,-0.20037088,0.04446909,-0.011267505,-0.13201994,-0.40222588,-0.038307227,-9.040505,0.82022345,47.696735,-1.056149,-1.9764452,-3.200707,-0.14251056,-0.21298191,-0.15771273,24.5625,25.125,24.375,26.0,26.1875,26.4375
0.2360517,-1.3281834,0.28463325,-0.24514297,0.018861106,0.058551714,-0.06428871,-0.40232196,-0.3662439,0.060057465,-3.0767338,0.62648124,0.000109490706,-0.11451109,0.020568185,0.0020633242,0.009800169,0.005120275,-0.0022253217,0.4897579,-1.3634762,1.8811187,-2.0859149,-1.5721053,2.4659834,-0.12994322,0.15625955,-0.20228195,0.04598089,-0.011525157,-0.12759243,-0.40222588,0.0,-9.193734,0.8314132,47.704796,-1.0383676,-2.024299,-3.2114248,-0.13652946,-0.20172116,-0.16596222,24.5625,25.125,24.375,26.0,26.1875,26.4375
0.23805192,-1.2241626,0.000500769,-0.4220453,-0.007418362,0.083795495,-0.064863116,-0.4025512,-0.36621,0.060064502,-3.0767045,0.6264756,0.00013991262,-0.11561691,0.020593455,0.002104126,0.009577857,0.0043044346,-0.0069838893,0.48951808,-1.3631514,1.880689,-2.0858061,-1.5721415,2.465744,-0.13125351,0.1582842,-0.20518316,0.047468483,-0.010945105,-0.12414439,-0.4405331,0.11492168,-9.423578,0.8560339,47.70032,-1.0977588,-1.9732722,-3.2657914,-0.14279309,-0.22833738,-0.24242869,24.5625,25.125,24.375,26.0,26.1875,26.4375
0.24005207,-1.6449417,-0.7994779,-0.61512554,-0.015267257,0.083738014,-0.06801082,-0.40276605,-0.36614153,0.06006727,-3.0766454,0.6265616,9.085158e-05,-0.11597639,0.020614758,0.0016314477,0.010896713,0.0033243445,-0.01226405,0.48921892,-1.3628742,1.880318,-2.0856626,-1.5721539,2.4655063,-0.13109735,0.16046041,-0.20701535,0.04861508,-0.011650442,-0.118704855,-0.38307226,0.21068975,-9.461885,0.842603,47.705692,-1.1177462,-2.0328212,-3.280773,-0.12888058,-0.21579236,-0.27638137,24.5625,25.125,24.375,26.0,26.1875,26.4375
0.24205221,-1.5265555,-1.1420681,-0.89544165,-0.014260926,0.07726183,-0.061639357,-0.40295798,-0.3661208,0.060027946,-3.0766,0.6264177,7.3933265e-06,-0.115983985,0.021306084,-0.00058522157,0.013036943,-0.0009425244,-0.014349742,0.4890268,-1.3624885,1.8799232,-2.0855663,-1.5721773,2.4652305,-0.13225952,0.16490753,-0.20756677,0.049487643,-0.011544244,-0.117779896,-0.38307226,0.24899697,-9.576807,0.8560339,47.687782,-1.1126018,-2.0846162,-3.3712368,-0.14069198,-0.21268415,-0.30718738,24.5625,25.125,24.375,26.0,26.1875,26.4375
0.24405256,-0.7648039,-1.3274515,-1.2093338,-0.020280804,0.072749145,-0.068217956,-0.40323138,-0.3660691,0.060060225,-3.0765834,0.6266442,8.909579e-05,-0.11658106,0.020732107,0.0007568558,0.011180029,0.0009058769,-0.014337539,0.48870337,-1.3621887,1.8794688,-2.0854704,-1.5721892,2.4650507,-0.13220878,0.16359225,-0.20917629,0.049900934,-0.010770328,-0.1177438,-0.17238252,0.28730422,-9.80665,0.85826975,47.703903,-1.1596234,-2.0435977,-3.4358032,-0.13412353,-0.2272925,-0.3358609,24.5625,25.125,24.375,26.0,26.1875,26.4375
0.24605212,-0.47843423,-1.3225226,-1.2202585,-0.02632234,0.045593306,-0.0643907,-0.40346736,-0.36600816,0.060056027,-3.0765333,0.62665224,0.00014444056,-0.11636396,0.021724533,-0.0011534613,0.013709973,-0.0022158227,-0.01603826,0.48842773,-1.3618754,1.8790864,-2.0853984,-1.5722493,2.4647868,-0.1331179,0.16655147,-0.20850083,0.05020429,-0.0115381135,-0.11695008,-0.19153613,0.2681506,-9.825804,0.9410752,47.67345,-1.1606367,-2.176193,-3.5220509,-0.10968821,-0.22696675,-0.35135192,24.5625,25.125,24.375,26.0,26.1875,26.4375
0.24805227,0.0771875,-1.295822,-1.0982424,-0.030202392,0.034693953,-0.06580264,-0.40370527,-0.3659586,0.060052,-3.0764792,0.6267932,0.00012546727,-0.11757184,0.021723215,-0.0017737228,0.014273001,-0.0028663035,-0.016204147,0.4881402,-1.3615378,1.8786663,-2.0852911,-1.5722617,2.4645944,-0.133982,0.16986232,-0.21115611,0.050382417,-0.011741853,-0.11764611,-0.1340753,0.34476504,-9.787497,0.7911258,47.70211,-1.1830802,-2.3052688,-3.4603295,-0.09138101,-0.2166305,-0.3806124,24.5625,25.125,24.375,26.0,26.1875,26.4375
0.2500525,-0.009333559,-0.8687874,-1.1066632,-0.028130278,0.029946653,-0.07163586,-0.4039479,-0.36592653,0.0600514,-3.076453,0.62672836,0.00016771612,-0.1189533,0.022715034,-0.002637777,0.015644798,-0.0033803177,-0.015371226,0.48789975,-1.3611765,1.8782123,-2.0851948,-1.5723099,2.464317,-0.13618295,0.172556,-0.21239945,0.050019726,-0.012722386,-0.12067659,-0.095768064,0.36391866,-9.80665,0.9254084,47.691364,-1.1400645,-2.3411703,-3.543908,-0.07392129,-0.2287165,-0.38895813,24.5625,25.125,24.375,26.0,26.1875,26.4375
0.25205174,0.22003242,-0.877294,-1.1753285,-0.028899997,0.037889745,-0.060783602,-0.40418974,-0.3658721,0.060060907,-3.076428,0.6268323,0.00018767022,-0.11826695,0.023230636,-0.0049290727,0.018087214,-0.007921841,-0.009593967,0.48760068,-1.3608749,1.877807,-2.085099,-1.5723218,2.4640863,-0.13632116,0.17648628,-0.21218623,0.051018506,-0.012758574,-0.1265917,0.095768064,0.34476504,-9.768343,0.8717007,47.67614,-1.1967165,-2.432681,-3.6690402,-0.062799096,-0.2249859,-0.34869337,24.5625,25.125,24.375,26.0,26.1875,26.4375
0.25405213,-0.033915766,-0.8593607,-0.8892873,-0.038209412,0.035197698,-0.072376385,-0.40444884,-0.3658171,0.060063016,-3.0763984,0.62684095,0.00022253378,-0.119965196,0.023671718,-0.0032596895,0.01586735,-0.005454328,-0.004421632,0.48730037,-1.3605279,1.877364,-2.0850031,-1.572358,2.4637954,-0.1389549,0.17464304,-0.21388987,0.051321916,-0.011969117,-0.13439968,0.15322891,0.30645782,-9.710882,0.83589023,47.666286,-0.9957515,-2.252425,-3.6478798,-0.066956386,-0.22392529,-0.27157852,24.5625,25.125,24.375,26.0,26.1875,26.4375
0.25605235,0.3889655,-0.92439044,-0.6932622,-0.03259176,0.034309,-0.07242027,-0.4047065,-0.3657731,0.060069144,-3.0763729,0.62690884,0.00025611714,-0.12211396,0.023935081,-0.0028199996,0.014878211,-0.004551868,0.0006819282,0.48701203,-1.3601795,1.8769101,-2.0849073,-1.5723814,2.463553,-0.1414747,0.17649171,-0.21720782,0.051510286,-0.011535071,-0.14202295,0.19153613,0.30645782,-9.557653,0.9186956,47.67793,-1.020915,-2.3234253,-3.5868735,-0.028710261,-0.23776376,-0.18626577,24.5625,25.125,24.375,26.0,26.1875,26.4375
0.25805226,0.26437423,-0.29156324,-0.50610805,-0.030073855,0.015849844,-0.072705135,-0.4049415,-0.3657156,0.06004906,-3.0763044,0.62691164,0.00024451033,-0.124213725,0.023060052,-0.0020622655,0.013118076,-0.003785205,0.0030223923,0.48673636,-1.359819,1.876501,-2.084811,-1.5724291,2.463288,-0.1425121,0.17929043,-0.22259197,0.052575037,-0.010361052,-0.14540122,0.05746084,0.22984336,-9.442732,0.8179876,47.691364,-0.9669572,-2.4154506,-3.540787,-0.010990199,-0.23932435,-0.08338864,24.5625,25.125,24.375,26.0,26.1875,26.4375
0.26005223,0.32603672,-0.10929756,-0.15372317,-0.017165063,0.015762057,-0.06845333,-0.4051814,-0.36570853,0.060085807,-3.0763912,0.6267731,0.00029229955,-0.12553917,0.022829222,-0.00052494754,0.012434774,-0.0013380946,0.0047341906,0.48649687,-1.3595195,1.8760332,-2.0847032,-1.5724052,2.4629512,-0.14287986,0.17865556,-0.2256376,0.053772632,-0.010900855,-0.14747918,-0.019153614,0.36391866,-9.308657,0.88960326,47.701214,-1.1088907,-2.3739245,-3.3590212,-0.0012809122,-0.24736054,-0.04604355,24.5625,25.125,24.375,26.0,26.1875,26.4375
0.26205257,0.38746166,0.32128206,-0.19493793,0.0025654507,0.023402227,-0.06523775,-0.40546763,-0.36564404,0.060094904,-3.0763757,0.6268665,0.00035610935,-0.12524125,0.021877587,0.00018969539,0.012436919,-0.0011782161,0.0017741334,0.48615023,-1.3591716,1.8755778,-2.0846298,-1.5724295,2.462665,-0.14087431,0.17871597,-0.22784156,0.055777412,-0.010969569,-0.1425132,0.0,0.3256114,-9.32781,0.86945957,47.67614,-1.1802588,-2.2378273,-3.3825865,-0.0012048199,-0.2499567,-0.060815018,24.5625,25.125,24.375,26.0,26.1875,26.4375
0.264052,0.2265125,0.5332455,-0.2890536,0.014832026,0.031929404,-0.06581293,-0.40570146,-0.36563158,0.060088944,-3.0763566,0.6267703,0.00028000807,-0.12561314,0.02257871,0.00018875745,0.012535438,-0.0036020996,-0.0065524634,0.4859217,-1.3587639,1.8750633,-2.084462,-1.5724291,2.4623792,-0.14292422,0.17941555,-0.22944747,0.058877595,-0.009923965,-0.13623823,-0.11492168,0.2873042,-9.308657,0.8537928,47.696735,-1.0692687,-2.183433,-3.3513396,-0.022471601,-0.2685449,-0.110067114,24.5625,25.125,24.375,26.0,26.1875,26.4375
0.26605228,0.083314836,0.29554683,-0.21343076,0.004310999,0.047505744,-0.0613609,-0.4059666,-0.3655729,0.060076457,-3.0763025,0.6268188,0.0002828065,-0.1260098,0.022309072,0.00051950576,0.0136091905,-0.0052901846,-0.013535247,0.4856108,-1.3583791,1.874607,-2.0843647,-1.5724648,2.4621058,-0.14262682,0.18130799,-0.23346877,0.063006006,-0.010082534,-0.128956,-0.17238252,0.30645782,-9.270349,0.8851263,47.678825,-1.2175198,-2.279757,-3.3719862,-0.045365058,-0.27583817,-0.20226872,24.5625,25.125,24.375,26.0,26.1875,26.4375
0.26805234,-0.41434768,-0.1873358,-0.15087749,-0.00027162675,0.052783053,-0.061874192,-0.4061936,-0.36553505,0.060087632,-3.0762823,0.62687373,0.0002634995,-0.125974,0.023799064,-8.71245e-05,0.015635366,-0.008513897,-0.018836288,0.48534673,-1.3580673,1.8741764,-2.0842311,-1.5724648,2.4618788,-0.14481589,0.18207705,-0.23383218,0.066400975,-0.0103647495,-0.12584318,-0.19153613,0.22984336,-9.270349,0.8537928,47.690468,-1.2196991,-2.1586452,-3.3619003,-0.09002574,-0.28618956,-0.25761506,24.5625,25.125,24.375,26.0,26.1875,26.4375
0.2700525,-0.5241423,-0.34453413,-0.17946684,0.0008747072,0.055407032,-0.06320703,-0.40644923,-0.3654656,0.06007479,-3.0761743,0.6269871,0.0002221149,-0.12603244,0.025145534,0.00045305185,0.017113417,-0.010439649,-0.024131108,0.48503464,-1.3576841,1.8737091,-2.0840743,-1.5725135,2.4616516,-0.14675862,0.18104322,-0.23488632,0.07088005,-0.010775808,-0.12248939,-0.19153613,0.15322891,-9.346964,0.8493211,47.71554,-1.1412299,-2.011832,-3.4234276,-0.14804347,-0.30405486,-0.34343562,24.5625,25.125,24.375,26.0,26.1875,26.4375
0.27205256,-0.15333946,-0.12619635,-0.22611064,-5.5845107e-05,0.06345074,-0.06346788,-0.40668646,-0.36542252,0.060081065,-3.0761194,0.6269574,0.0002243585,-0.12684822,0.02580691,0.0005853441,0.018036565,-0.012466247,-0.028108286,0.4847826,-1.3573363,1.8732408,-2.0839174,-1.5725616,2.4613883,-0.14856675,0.182562,-0.23791029,0.07460362,-0.010652027,-0.12031932,-0.28730422,0.05746084,-9.32781,0.8605109,47.675243,-1.0936868,-1.933799,-3.302439,-0.2115112,-0.29825416,-0.3745249,24.5625,25.125,24.375,26.0,26.1875,26.4375
0.27405164,-0.5956412,0.1569301,-0.018106475,0.005542473,0.0542769,-0.064262345,-0.40695342,-0.36537427,0.06010017,-3.0761094,0.6270895,0.00022293477,-0.12816678,0.026376946,0.00072859426,0.018256363,-0.011160973,-0.0315635,0.48445886,-1.357,1.872763,-2.0837862,-1.5725492,2.4611485,-0.15007612,0.18332687,-0.23906083,0.07394137,-0.011461072,-0.11837089,-0.3256114,0.019153614,-9.174581,0.9254084,47.711964,-1.0273656,-1.9199803,-3.3227568,-0.22570282,-0.30088288,-0.45620674,24.5625,25.125,24.375,26.0,26.1875,26.4375
0.2760517,-0.4083218,0.8931224,0.06969672,0.023743026,0.064540476,-0.07323803,-0.40721565,-0.36532167,0.06008442,-3.076054,0.627192,0.00018597225,-0.1274067,0.027183685,-0.0013014935,0.021104127,-0.016554883,-0.030531647,0.48414746,-1.3566027,1.8722957,-2.083677,-1.5725616,2.4609084,-0.15063615,0.18692689,-0.2395191,0.07689152,-0.011477515,-0.11996186,-0.34476504,-0.038307227,-9.193734,0.8291774,47.686886,-1.0675627,-2.1387777,-3.4053278,-0.23588955,-0.325348,-0.51619995,24.5625,25.125,24.375,26.0,26.1875,26.4375
0.278052,0.026865764,1.3880394,-0.04013499,0.04251156,0.082018875,-0.07957148,-0.4074559,-0.3652947,0.060096372,-3.0760486,0.6271479,0.00012541613,-0.1286186,0.027886463,-0.0021251582,0.021768162,-0.018320553,-0.025585363,0.48388317,-1.3562421,1.8717936,-2.0834973,-1.5725492,2.4606175,-0.15290697,0.1899751,-0.2415771,0.077758074,-0.011267345,-0.1271781,-0.30645782,-0.076614454,-9.32781,0.9097417,47.67614,-1.1369826,-2.1797678,-3.4551096,-0.3069122,-0.30799273,-0.48764724,24.5625,25.125,24.375,26.0,26.1875,26.4375
0.28005213,-0.63091534,1.3709682,-0.008579575,0.04087167,0.06874663,-0.07207894,-0.40773523,-0.36525625,0.060119547,-3.076037,0.6272899,0.00015385287,-0.12837026,0.025866166,-0.0022867217,0.020272754,-0.017926065,-0.012658237,0.4835728,-1.355882,1.8712777,-2.0833666,-1.5725487,2.4603975,-0.14989445,0.192006,-0.24344295,0.07652332,-0.010152127,-0.13709524,-0.22984336,-0.15322891,-9.251195,0.90527004,47.691364,-1.1887743,-2.0877812,-3.4561558,-0.3001322,-0.33386853,-0.40971655,24.5625,25.125,24.375,26.0,26.1875,26.4375
0.2820524,-0.9767618,0.9285843,0.037144,0.030441068,0.06864834,-0.06468949,-0.40798807,-0.36517888,0.06011376,-3.0759223,0.6272598,0.00013306666,-0.12937947,0.02657587,-0.0029661066,0.02123657,-0.018321201,-0.0044101654,0.483273,-1.3555096,1.870799,-2.0831754,-1.5726331,2.460094,-0.151434,0.19408397,-0.24438435,0.07615428,-0.0108580915,-0.14687948,-0.40222588,-0.1340753,-9.251195,0.8940802,47.684196,-1.1504091,-2.210307,-3.5245426,-0.31920242,-0.32567447,-0.31060952,24.5625,25.125,24.375,26.0,26.1875,26.4375
0.2840517,-1.0894812,0.37362704,-0.06646992,0.0150331175,0.076083615,-0.07178496,-0.40825608,-0.36513576,0.060121246,-3.0758915,0.6272869,0.00011487967,-0.13160513,0.02640282,-0.002629505,0.021117643,-0.01518685,0.0021894698,0.4829734,-1.3551251,1.8702835,-2.0830204,-1.572646,2.4598155,-0.152149,0.1962669,-0.24739037,0.07413266,-0.012241751,-0.15418847,-0.45968673,-0.1340753,-9.404425,0.8717007,47.687782,-1.2495979,-2.2807539,-3.3735476,-0.3227063,-0.34887555,-0.21662685,24.5625,25.125,24.375,26.0,26.1875,26.4375
0.28605205,-0.9295027,-0.195051,0.07706775,-0.010152915,0.08222941,-0.06938678,-0.40848032,-0.3650767,0.060094275,-3.0758243,0.6272712,9.847323e-06,-0.13397738,0.026237583,-0.0017113118,0.019595888,-0.0105852205,0.003722426,0.48268563,-1.3547535,1.8698643,-2.0828779,-1.5726584,2.4595268,-0.15335716,0.19675207,-0.2493867,0.07085421,-0.013067461,-0.15692516,-0.30645782,0.0,-9.404425,0.90750587,47.65912,-1.2544165,-2.1696165,-3.5410533,-0.30935454,-0.3490293,-0.17304337,24.5625,25.125,24.375,26.0,26.1875,26.4375
0.2880523,-1.0361427,-0.8230187,0.13067685,-0.031063622,0.09092265,-0.058904134,-0.4087864,-0.36500207,0.060089875,-3.0757632,0.62735367,1.2164778e-05,-0.1342657,0.026555737,-0.0020789786,0.02071488,-0.010586604,0.0016741091,0.48231465,-1.354333,1.8693374,-2.0827458,-1.5726942,2.4592154,-0.15340216,0.19776386,-0.24983612,0.07080958,-0.014066989,-0.15491831,-0.49799395,0.21068975,-9.212888,0.97464454,47.681515,-1.3247349,-2.350356,-3.4797783,-0.3034529,-0.342503,-0.14521606,24.5625,25.125,24.3125,26.0,26.1875,26.4375
0.29005262,-1.113001,-0.954883,-0.12782568,-0.025125274,0.08296902,-0.067249864,-0.40902042,-0.36493906,0.06007579,-3.0756705,0.6272986,-9.686593e-05,-0.13710329,0.025716955,-0.0011396162,0.017608916,-0.0047932025,-0.0041015153,0.4820266,-1.3539492,1.8688582,-2.0825326,-1.5727304,2.4589052,-0.154414,0.19881374,-0.25209656,0.06544691,-0.014033842,-0.15015194,-0.53630114,0.3256114,-9.212888,0.88960326,47.66987,-1.1837696,-2.1636925,-3.6272008,-0.26927167,-0.35650566,-0.18967505,24.5625,25.125,24.3125,26.0,26.1875,26.4375
0.2920521,-1.2878765,-1.2907726,-0.15991981,-0.024276923,0.07974803,-0.05954839,-0.4093242,-0.3648978,0.06010247,-3.0756917,0.6272877,2.6566246e-05,-0.14093167,0.025689544,0.0003171627,0.015052705,0.0011022614,-0.013939072,0.48171422,-1.3535775,1.8683304,-2.0824497,-1.5727671,2.4585836,-0.15730993,0.19987755,-0.25593734,0.061821163,-0.014498494,-0.14320835,-0.5554548,0.2681506,-9.289502,0.900793,47.664497,-1.112359,-2.046356,-3.4514055,-0.21465439,-0.34344587,-0.28274828,24.5625,25.125,24.3125,26.0,26.1875,26.4375
0.29405257,-0.8892208,-0.44278985,-0.03494458,-0.055185366,0.08249739,-0.07382391,-0.40958527,-0.3648557,0.060074534,-3.0756402,0.62731355,-6.4996355e-05,-0.14155784,0.024823522,0.00051386486,0.014284878,0.0015221575,-0.014884605,0.48141536,-1.3531333,1.8678278,-2.082318,-1.5727667,2.4583077,-0.15659112,0.201506,-0.2584734,0.061998717,-0.01402701,-0.14154351,-0.4213795,0.30645782,-9.404425,0.8940802,47.694946,-1.301686,-2.063413,-3.4709399,-0.186567,-0.37633651,-0.3353146,24.5625,25.125,24.3125,26.0,26.1875,26.4375
0.29605177,-0.76808614,-0.7983273,-0.25382182,-0.03764237,0.0806705,-0.06530887,-0.4098533,-0.3647959,0.060072202,-3.075576,0.62737614,-7.5175565e-05,-0.14266409,0.024642562,0.0007462715,0.013820363,0.0034874855,-0.015349003,0.4811036,-1.3527493,1.8673371,-2.082175,-1.5728029,2.4580436,-0.15682957,0.20235021,-0.25974378,0.060460854,-0.014537516,-0.14131495,-0.4405331,0.3256114,-9.461885,0.90527004,47.690468,-1.3558698,-1.949413,-3.4630113,-0.18382823,-0.3754685,-0.35370255,24.5625,25.125,24.3125,26.0,26.1875,26.4375
0.29805228,-1.2044523,-0.98344886,-0.36677718,-0.020688152,0.07197518,-0.059866358,-0.4101528,-0.36475408,0.060082212,-3.0755653,0.6274686,-3.4848126e-05,-0.14393733,0.024087247,0.0011745467,0.011728766,0.0064301174,-0.014062701,0.48077938,-1.3523419,1.8667983,-2.0820692,-1.5728143,2.4577787,-0.15718217,0.20268026,-0.2604724,0.05727192,-0.014053291,-0.14295551,-0.47884035,0.45968673,-9.461885,0.95226496,47.681515,-1.3507798,-1.9515765,-3.5493345,-0.12789305,-0.36761755,-0.3742417,24.5625,25.125,24.3125,26.0,26.1875,26.4375
0.3000525,-0.85599685,-0.6229574,-0.3455259,-0.03425986,0.074445166,-0.079985775,-0.41043696,-0.3646944,0.06007033,-3.0754912,0.6274163,4.0740433e-05,-0.14453575,0.025459558,-6.744939e-05,0.0138278995,0.0034619204,-0.016965443,0.48049074,-1.3519214,1.8662952,-2.081972,-1.5729107,2.4574673,-0.15957128,0.20538303,-0.26140633,0.05909086,-0.014541704,-0.14243965,-0.22984336,0.28730422,-9.5385,0.84708,47.691364,-1.3775547,-1.9322083,-3.5256243,-0.09870102,-0.36171782,-0.39894786,24.5625,25.125,24.3125,26.0,26.1875,26.4375
0.3020521,0.07192957,-0.6656883,-0.32332972,-0.03955184,0.079701744,-0.083658114,-0.41074228,-0.3646201,0.060071986,-3.0754256,0.6275146,6.967961e-05,-0.1460893,0.025857795,-7.0894553e-06,0.013638091,0.0031085913,-0.012149726,0.48013002,-1.3515128,1.8657678,-2.0818398,-1.5729584,2.4571767,-0.16164212,0.20744301,-0.26435503,0.060177293,-0.014229081,-0.14932595,-0.05746084,0.34476504,-9.442732,0.8717007,47.661808,-1.2767475,-2.0584562,-3.610817,-0.08342773,-0.37062666,-0.35159826,24.5625,25.125,24.3125,26.0,26.1875,26.4375
0.3040525,-0.0776457,-0.49855843,-0.21686146,-0.041601636,0.054505136,-0.07215671,-0.41105577,-0.36458597,0.060086437,-3.0754573,0.62755454,0.00011324407,-0.14739828,0.027074672,-0.00093031244,0.015095118,0.0017535627,-0.0060975854,0.47979328,-1.3510921,1.8652047,-2.0817444,-1.5729469,2.456861,-0.16425176,0.21020608,-0.26580092,0.060715545,-0.014906817,-0.15798555,-0.21068975,0.3256114,-9.289502,0.88289046,47.657326,-1.3028181,-2.1088548,-3.5848293,-0.06975766,-0.3695367,-0.28680453,24.5625,25.125,24.3125,26.0,26.1875,26.4375
0.30605277,-0.16602501,-0.24568813,-0.10144746,-0.033732146,0.04413248,-0.08223412,-0.4113617,-0.3645499,0.06009047,-3.0754623,0.6275497,0.00017634449,-0.1479504,0.02605779,2.0857451e-05,0.014136704,0.0033242197,0.0034166458,0.4794817,-1.3506604,1.8646544,-2.08166,-1.5729707,2.456546,-0.16297568,0.21044673,-0.26845792,0.061269533,-0.014795457,-0.16622387,-0.11492168,0.2681506,-9.3661175,0.92764956,47.690468,-1.2375159,-2.009675,-3.7696924,-0.041307278,-0.37984592,-0.17192656,24.5625,25.125,24.3125,26.0,26.1875,26.4375
0.3080524,0.17336252,-0.29032746,-0.3260991,-0.005934158,0.03531321,-0.07495058,-0.41167575,-0.36449382,0.060123693,-3.0754485,0.6275457,0.00026515784,-0.15013136,0.02679287,0.0010280883,0.013783758,0.005383905,0.0037105842,0.47914478,-1.3502765,1.8640794,-2.0815046,-1.5730189,2.4562087,-0.1655612,0.21081018,-0.2713762,0.061817154,-0.015436874,-0.16910103,-0.038307227,0.2681506,-9.442732,0.90527004,47.690468,-1.1314646,-2.1110995,-3.7120621,-0.008450748,-0.37801903,-0.09152708,24.5625,25.125,24.3125,26.0,26.1875,26.4375
0.31005272,-0.060293056,0.1449161,0.020228531,-0.0111332545,0.028522132,-0.07295268,-0.41192278,-0.36443344,0.060066056,-3.0753746,0.6274738,0.00015277525,-0.1511671,0.027237458,0.00048172334,0.014260372,0.0033777629,-4.252316e-05,0.4788444,-1.34982,1.8636359,-2.0814078,-1.5730428,2.4558733,-0.16737868,0.21365912,-0.27409726,0.06368371,-0.014952854,-0.16716419,-0.076614454,0.17238252,-9.32781,0.86945957,47.683304,-1.1814752,-2.0996957,-3.616733,0.0055405977,-0.39821565,-0.07012789,24.5625,25.125,24.3125,26.0,26.1875,26.4375
0.31205243,-0.058058195,0.28232393,0.085628696,-0.00442835,0.02338923,-0.07731783,-0.41226548,-0.36436602,0.06008693,-3.0753243,0.6276032,0.0002534053,-0.15273431,0.027453903,0.00083198596,0.014524742,0.0032559908,-0.007678216,0.47847167,-1.349388,1.8630356,-2.0812752,-1.5731028,2.455588,-0.16884057,0.21577771,-0.27799058,0.06568817,-0.01512026,-0.160989,-0.15322891,0.19153613,-9.270349,0.8985519,47.668976,-1.1322054,-1.9884248,-3.571839,0.010651951,-0.38549262,-0.11665258,24.5625,25.125,24.3125,26.0,26.1875,26.4375
0.31405216,-0.20314234,0.44133684,-0.18286611,0.025628442,0.010457561,-0.06819162,-0.4125589,-0.36431384,0.060073834,-3.075302,0.62764037,0.00019184971,-0.1535394,0.027837986,0.0007070734,0.015494367,0.0011436513,-0.015195634,0.4781235,-1.3489434,1.8624967,-2.0811422,-1.5730909,2.4552662,-0.17010596,0.21810487,-0.2813779,0.06908114,-0.015005522,-0.15473555,-0.076614454,0.05746084,-9.346964,0.9097417,47.703903,-1.1011446,-2.0866356,-3.5181308,0.009671498,-0.39433378,-0.18407205,24.5625,25.125,24.3125,26.0,26.1875,26.4375
0.31605235,0.15957123,0.78094125,0.17738754,0.017066386,0.02862061,-0.08035923,-0.41285658,-0.36425802,0.060063142,-3.075242,0.6276875,0.000152492,-0.15261342,0.0285217,-0.00010851327,0.018227382,-0.0036707416,-0.01999911,0.47778755,-1.3484874,1.8619331,-2.0809848,-1.5731148,2.4549677,-0.17017758,0.2198662,-0.28295535,0.07443274,-0.015210992,-0.15000187,-0.15322891,-0.05746084,-9.308657,0.9612189,47.677036,-1.0514036,-2.0677361,-3.415204,-0.042637937,-0.40162188,-0.29496711,24.5625,25.125,24.3125,26.0,26.1875,26.4375
0.31805244,-0.5018541,0.2025867,0.30820963,0.028584616,0.020665253,-0.07172533,-0.41317633,-0.36420125,0.060070284,-3.0751946,0.6277777,0.00018364668,-0.15301862,0.029257098,-0.0006510499,0.019718993,-0.0074031525,-0.026988719,0.47743875,-1.3480431,1.8613456,-2.0808399,-1.573151,2.4546816,-0.17184453,0.22244652,-0.28592962,0.07882803,-0.014811834,-0.14467941,-0.19153613,-0.11492168,-9.270349,0.87393653,47.672558,-1.013959,-2.131246,-3.3916368,-0.08022097,-0.4100101,-0.3522904,24.5625,25.125,24.3125,26.0,26.1875,26.4375
0.3200528,-0.46275052,0.9503723,0.20066606,0.026644545,0.030356625,-0.08052017,-0.4134649,-0.36412564,0.06006441,-3.075116,0.6278402,0.000114556555,-0.15409175,0.02990611,-0.0005081524,0.02121126,-0.009801643,-0.032252207,0.4770784,-1.3476224,1.8608054,-2.0806463,-1.5731748,2.4543707,-0.17356962,0.2248589,-0.29034683,0.08364974,-0.015044293,-0.14113764,-0.2681506,-0.076614454,-9.193734,0.9298854,47.677036,-1.1130042,-2.2759295,-3.3814511,-0.11128195,-0.40123713,-0.4324576,24.5625,25.125,24.3125,26.0,26.1875,26.4375
0.3220526,-0.3948046,1.181433,0.18418589,0.02624387,0.049464002,-0.07767379,-0.4137599,-0.36409232,0.06006462,-3.0750575,0.62786615,9.891004e-05,-0.15366824,0.030762702,-0.0012193441,0.02368936,-0.013152023,-0.03293917,0.4767902,-1.3471543,1.8601965,-2.0804656,-1.5732106,2.4541066,-0.17408738,0.2263247,-0.29144523,0.08739016,-0.015712697,-0.14096534,-0.4405331,-0.05746084,-9.136273,0.92093146,47.668976,-1.0963924,-2.2454567,-3.2715385,-0.17237166,-0.40136853,-0.4880699,24.5625,25.125,24.3125,26.0,26.1875,26.4375
0.3240527,-0.95624435,0.92333806,0.17780796,0.01740832,0.055472393,-0.088344164,-0.41407263,-0.36402187,0.060075954,-3.074999,0.6279844,9.052191e-05,-0.1523994,0.031337004,-0.0016048774,0.02508957,-0.016024375,-0.028288553,0.4764184,-1.3467349,1.8596214,-2.0802853,-1.5732349,2.4538164,-0.17383556,0.22577378,-0.29064324,0.09031377,-0.015651371,-0.14536464,-0.34476504,-0.05746084,-9.251195,0.95002913,47.68599,-1.1687262,-2.199703,-3.4181666,-0.22303928,-0.41092062,-0.49686813,24.5625,25.125,24.3125,26.0,26.1875,26.4375
0.32605207,-1.3529861,0.42238244,0.41978422,0.0032635005,0.0678991,-0.08595548,-0.41434535,-0.36396098,0.060038336,-3.0749025,0.6279945,-9.193296e-05,-0.15140271,0.031863704,-0.0038283411,0.028817149,-0.020496946,-0.015807588,0.47608274,-1.346242,1.8590597,-2.0800688,-1.5732354,2.4534998,-0.1729279,0.22959188,-0.29077357,0.09228087,-0.01696434,-0.15693071,-0.4405331,0.13407528,-9.2703495,0.9298854,47.692257,-1.2314979,-2.0891566,-3.5804472,-0.27362937,-0.41101128,-0.4154954,24.5625,25.125,24.3125,26.0,26.1875,26.4375
0.32805243,-1.494637,0.011702881,0.56284404,-0.011853807,0.094302155,-0.09059051,-0.41467842,-0.36389506,0.060058348,-3.0748372,0.6280106,-6.440829e-05,-0.15218438,0.030917931,-0.0028396538,0.027304713,-0.017919004,-0.0025982962,0.4757232,-1.3457866,1.8584131,-2.0798538,-1.5732955,2.453159,-0.17195152,0.22941379,-0.29267994,0.09133448,-0.016847469,-0.1691633,-0.6703765,0.038307227,-9.193734,0.9164598,47.66091,-1.5051622,-2.110023,-3.634882,-0.29566962,-0.42036027,-0.32292628,24.5625,25.125,24.3125,26.0,26.1875,26.4375
0.33005255,-2.1369364,-0.16434748,0.36189255,-0.016424688,0.09901933,-0.082703345,-0.41499236,-0.36382657,0.060050603,-3.0747676,0.6279725,-6.589965e-05,-0.15294138,0.02966435,-0.0007054834,0.026459571,-0.014075205,0.0054159323,0.4753762,-1.3453194,1.8578256,-2.079686,-1.5733556,2.4527977,-0.16974851,0.22799315,-0.29612043,0.09236446,-0.017890684,-0.17496936,-0.40222588,0.019153614,-9.251195,1.0015011,47.681515,-1.6203594,-1.995758,-3.607799,-0.33713692,-0.41651228,-0.2169985,24.5625,25.125,24.3125,26.0,26.1875,26.4375
0.33205193,-2.031223,-0.34185597,0.1450659,0.0006121425,0.080483735,-0.07926827,-0.41531354,-0.36377516,0.06006212,-3.0747397,0.6280439,-9.56729e-05,-0.15566441,0.02963702,-0.00058368384,0.024114534,-0.009189168,0.005778729,0.47501516,-1.3448634,1.8572029,-2.079497,-1.5733556,2.452485,-0.17177722,0.22940394,-0.29682612,0.08623023,-0.018073875,-0.1773594,-0.40222588,0.038307227,-9.289502,0.88960326,47.698532,-1.5001293,-1.9991472,-3.559545,-0.3047894,-0.42788363,-0.1561094,24.5625,25.125,24.3125,26.0,26.1875,26.4375
0.3340523,-0.8648126,0.30886877,0.22664173,-0.018320229,0.08826419,-0.09223165,-0.4156083,-0.3636996,0.060022246,-3.074629,0.62802374,-0.0001986998,-0.15856007,0.030117905,-0.0001687984,0.022728218,-0.006570283,-0.0014058723,0.4746662,-1.3443592,1.8566402,-2.0793178,-1.5734037,2.4521382,-0.17491937,0.23138772,-0.29985228,0.08430587,-0.018067902,-0.1733137,-0.36391866,0.15322891,-9.32781,0.8985519,47.66091,-1.4470139,-1.9852607,-3.6105835,-0.26656336,-0.4308679,-0.16271894,24.5625,25.125,24.3125,26.0,26.1875,26.4375
0.3360519,-0.7251292,-0.26329482,0.047307383,-0.009242532,0.06991465,-0.084235206,-0.4159278,-0.3636412,0.06002265,-3.0745955,0.62802094,-0.00017767781,-0.16261137,0.029884418,0.00055686117,0.020944241,0.00047120464,-0.009702818,0.47431758,-1.3439031,1.8560532,-2.0791771,-1.57344,2.4517925,-0.17685461,0.23388445,-0.30324018,0.07812903,-0.019711768,-0.16694418,-0.45968673,0.21068975,-9.308657,0.9791215,47.64389,-1.363158,-2.0342884,-3.5465624,-0.23235276,-0.4127947,-0.24197286,24.5625,25.125,24.3125,26.0,26.1875,26.4375
0.33805248,-1.0603935,-0.5793503,-0.27848014,-0.01600539,0.053726293,-0.07925539,-0.41626695,-0.3635769,0.060021456,-3.0745382,0.6280696,-0.000120961435,-0.16509922,0.029630063,0.0008105118,0.020008208,0.0045898203,-0.015505808,0.4739574,-1.3434224,1.8554419,-2.0790465,-1.5735005,2.4514704,-0.17776228,0.23600692,-0.30564094,0.07431602,-0.020765092,-0.16204391,-0.40222588,0.2681506,-9.442732,0.9567419,47.674347,-1.3837502,-2.1121888,-3.4940805,-0.1817233,-0.40555084,-0.31437662,24.5625,25.125,24.3125,26.0,26.1875,26.4375
0.3400517,-0.54661494,-0.9264318,-0.29360366,-0.038273603,0.06684826,-0.08942994,-0.41661927,-0.36351308,0.060018227,-3.0744693,0.62819016,-0.00011856097,-0.16669182,0.030057749,0.00046197095,0.020839393,0.005822778,-0.01896942,0.4735727,-1.3429061,1.8547834,-2.078879,-1.5735372,2.4511702,-0.17886743,0.23836793,-0.30757308,0.0731669,-0.02207468,-0.1596792,-0.1340753,0.3256114,-9.576807,0.94331104,47.661808,-1.3065016,-2.1275964,-3.4410286,-0.13685502,-0.37159896,-0.3608815,24.5625,25.125,24.3125,26.0,26.1875,26.4375
0.3420521,-0.7740051,-1.2867295,-0.27284563,-0.05765088,0.06317219,-0.08742582,-0.41690916,-0.36342865,0.06000056,-3.0743394,0.6281646,-0.00017108567,-0.16923274,0.030610058,0.0009091817,0.020323975,0.007888234,-0.021369124,0.473236,-1.3424498,1.8542198,-2.0786636,-1.5736212,2.4508348,-0.18149862,0.24023202,-0.31078696,0.072424136,-0.022585392,-0.15990527,-0.3256114,0.34476504,-9.500193,0.91198283,47.68062,-1.1963923,-2.2496805,-3.4393687,-0.1029427,-0.34151575,-0.4029054,24.5625,25.125,24.3125,26.0,26.1875,26.4375
0.34405228,-1.3848915,-1.6232653,-0.44022453,-0.05702165,0.055734318,-0.07600612,-0.41726372,-0.36338308,0.06001017,-3.0743198,0.62821805,-7.054548e-05,-0.16842373,0.032695744,-0.0025615639,0.024243498,0.0016918986,-0.02334835,0.47288743,-1.341957,1.8535737,-2.0785558,-1.5736698,2.4505224,-0.18369606,0.24444884,-0.30828282,0.07299134,-0.023239806,-0.16012241,-0.2681506,0.38307226,-9.442732,0.9701675,47.661808,-1.1903467,-2.2692533,-3.4758031,-0.08545169,-0.34206855,-0.417997,24.5625,25.125,24.3125,26.0,26.1875,26.4375
0.34605262,-0.49280632,-1.5904977,-0.5471448,-0.045046225,0.066165745,-0.095029145,-0.41759923,-0.363313,0.06000112,-3.0742426,0.6282553,-8.810143e-05,-0.16912137,0.034081012,-0.0020571935,0.024825737,0.0013387486,-0.018324973,0.47251454,-1.3414534,1.8529404,-2.0783756,-1.573718,2.4501832,-0.18618152,0.24349043,-0.30882785,0.07503767,-0.023623755,-0.16762894,-0.11492168,0.47884035,-9.730036,1.0238806,47.698532,-1.0853306,-2.3843114,-3.6907408,-0.11197634,-0.31478444,-0.36545444,24.5625,25.125,24.3125,26.0,26.1875,26.4375
0.3480528,0.08177964,-0.9087048,-0.20991977,-0.057796296,0.06768968,-0.10161496,-0.41797218,-0.3632422,0.060012333,-3.0742407,0.6283252,-1.0728015e-05,-0.17108029,0.034070507,-0.0018702075,0.023320751,0.002851961,-0.009669527,0.47209415,-1.3409733,1.8523058,-2.0782683,-1.5737413,2.449807,-0.18801486,0.2453611,-0.31131,0.07357037,-0.023001723,-0.17812045,-0.11492168,0.3256114,-9.730036,0.9164598,47.68599,-1.080126,-2.3446548,-3.7997842,-0.049423326,-0.3111481,-0.27542025,24.5625,25.125,24.3125,26.0,26.1875,26.4375
0.3500523,-0.26533186,-0.588735,0.048959974,-0.054122034,0.04442241,-0.09225429,-0.41833964,-0.36318836,0.060013298,-3.0742,0.62829304,0.00016403386,-0.17171091,0.034359258,-0.0019159422,0.023186097,0.0012767497,-0.0021597922,0.47175762,-1.3404576,1.8516587,-2.0781958,-1.5738491,2.449456,-0.189349,0.24675886,-0.31349036,0.07563833,-0.022178542,-0.18696828,-0.17238252,0.22984336,-9.423578,0.99702406,47.690468,-0.96257937,-2.3638663,-3.70465,-0.038196657,-0.31321627,-0.17226546,24.5625,25.125,24.3125,26.0,26.1875,26.4375
0.3520516,0.41170612,0.06214633,-0.00063298555,-0.021908985,0.03735267,-0.09771603,-0.4186511,-0.3631275,0.060004752,-3.0741582,0.62824667,3.102045e-05,-0.17364012,0.033720624,-0.0010388443,0.022018194,0.003346151,-0.0025803505,0.47138533,-1.3399645,1.8510231,-2.077957,-1.5738372,2.4490604,-0.18980668,0.2485591,-0.31781858,0.075786345,-0.022108601,-0.18700218,-0.2681506,0.076614454,-9.385271,0.90750587,47.685097,-0.9096137,-2.4385998,-3.6455953,-0.031117488,-0.2867875,-0.12078495,24.5625,25.125,24.3125,26.0,26.1875,26.4375
0.3540523,0.21314144,1.1700821,-0.058486808,-0.00027120012,0.025819272,-0.09113298,-0.41903657,-0.36303753,0.05998011,-3.0740888,0.6283891,0.00012893234,-0.17591015,0.032947186,0.0016311648,0.01851195,0.00887277,-0.008108291,0.47095302,-1.3394264,1.8504118,-2.0779088,-1.5739092,2.4487264,-0.19062407,0.2465256,-0.32128507,0.07476052,-0.021488836,-0.18229407,-0.17238252,0.095768064,-9.32781,0.900793,47.66271,-0.83145785,-2.314816,-3.5437474,0.039954692,-0.31609306,-0.13045269,24.5625,25.125,24.3125,26.0,26.1875,26.4375
0.35605267,0.2602547,1.0999444,-0.14087841,0.03761198,0.03288322,-0.09765262,-0.41937417,-0.36300537,0.059987765,-3.0741053,0.6283551,0.00011121106,-0.17529681,0.031981897,0.0010457588,0.019604703,0.006205875,-0.01388961,0.47060636,-1.3389219,1.8497409,-2.0777404,-1.5738968,2.4483566,-0.18848906,0.2493185,-0.32414263,0.07771674,-0.021234531,-0.17437759,-0.19153613,-0.095768064,-9.3661175,0.88289046,47.66987,-1.1595623,-2.2825854,-3.5349703,0.046969466,-0.30207223,-0.19344842,24.5625,25.125,24.3125,26.0,26.1875,26.4375
0.3580521,0.13175182,1.66624,0.0101295905,0.036577225,0.045536656,-0.098430604,-0.4197171,-0.36293572,0.059976876,-3.0740545,0.6283862,0.00011089634,-0.17472187,0.03158501,0.0011699377,0.020589849,0.0040109917,-0.020124257,0.47022262,-1.338418,1.8491176,-2.077595,-1.5739325,2.4479992,-0.18724923,0.250265,-0.32656604,0.08160589,-0.021102272,-0.16690245,-0.4405331,-0.095768064,-9.32781,0.93436235,47.693153,-1.2952352,-2.1660151,-3.4210482,0.04085727,-0.2824209,-0.29025972,24.5625,25.125,24.3125,26.0,26.1875,26.4375
0.36005265,-0.18622999,1.9367629,-0.057577293,0.026179431,0.060913954,-0.10080909,-0.42007136,-0.36288127,0.059995074,-3.073997,0.6285111,0.0001668756,-0.17435858,0.032372445,0.0013688838,0.02257158,0.00078258384,-0.025551528,0.4698625,-1.337926,1.8484348,-2.0774133,-1.5739812,2.4477248,-0.18789291,0.2506295,-0.3288467,0.087299004,-0.021388171,-0.1621175,-0.36391866,-0.1340753,-9.308657,0.90527004,47.70032,-1.3752117,-2.2328072,-3.4519138,-0.0028022658,-0.27365732,-0.37871554,24.5625,25.125,24.3125,26.0,26.1875,26.4375
0.36205268,-0.19656046,1.5158474,-0.04254186,0.020738252,0.06970982,-0.09792351,-0.42040756,-0.36280534,0.05997651,-3.073886,0.62851065,9.899092e-05,-0.17308466,0.03397824,-0.0003519526,0.026635546,-0.006600279,-0.031190764,0.46948937,-1.3373858,1.8477653,-2.0771835,-1.5740412,2.4473662,-0.18913257,0.25326237,-0.32979327,0.09403359,-0.021667225,-0.15771434,-0.17238252,-0.22984336,-9.442732,0.95897776,47.675243,-1.21209,-2.3572323,-3.4704611,-0.057413638,-0.27415043,-0.46145722,24.5625,25.125,24.3125,26.0,26.1875,26.4375
0.364052,-0.49301696,0.8122844,0.003875178,0.01449039,0.048771486,-0.10017756,-0.420779,-0.3627302,0.059994377,-3.0738256,0.6286502,0.00015371326,-0.17255293,0.036002524,-0.0018932954,0.030375663,-0.013081829,-0.03180434,0.46908104,-1.336894,1.847083,-2.0770018,-1.5740894,2.4470532,-0.19159521,0.25579888,-0.33084732,0.10000286,-0.02207205,-0.1595616,-0.05746084,-0.2681506,-9.500193,0.9455522,47.66987,-1.2916335,-2.345252,-3.5715594,-0.13476545,-0.2514968,-0.49864176,24.5625,25.125,24.3125,26.0,26.1875,26.4375
0.36605293,0.034458578,0.9533337,0.038120035,0.004594542,0.039598748,-0.099064186,-0.42112193,-0.36266556,0.05998566,-3.0737498,0.628628,0.00014498954,-0.17084268,0.036435008,-0.0030465736,0.03336882,-0.018428423,-0.022026552,0.46872157,-1.3363655,1.846413,-2.0768082,-1.5741495,2.44669,-0.19052881,0.25736353,-0.3314018,0.10506951,-0.022356033,-0.16827072,-0.17238252,-0.15322891,-9.423578,0.9612189,47.664497,-1.4014288,-2.4188128,-3.693935,-0.20427299,-0.23417142,-0.49957508,24.5625,25.125,24.3125,26.0,26.1875,26.4375
0.3680529,0.12429023,0.52962387,-0.0037259138,0.01658822,0.03363988,-0.09748462,-0.4214643,-0.36260155,0.059991762,-3.073679,0.6286826,0.000116025934,-0.17055652,0.03745515,-0.004835892,0.03615423,-0.022774715,-0.012256635,0.46834964,-1.3358598,1.8457297,-2.0765808,-1.5741857,2.4463618,-0.19145979,0.26069796,-0.33208498,0.10750574,-0.022923203,-0.17896786,-0.038307227,-0.1340753,-9.442732,0.9365982,47.65464,-1.3708994,-2.45147,-3.7385902,-0.24600835,-0.21749052,-0.37712365,24.5625,25.125,24.3125,26.0,26.1875,26.4375
0.37005237,0.28623086,1.0990928,-0.28650823,0.013074183,0.027376056,-0.1031493,-0.42179292,-0.3625096,0.059970878,-3.0735557,0.62866986,4.9023573e-05,-0.17271888,0.03764708,-0.003485363,0.035608675,-0.02034595,-0.0031674479,0.46796498,-1.3353446,1.8450955,-2.0763528,-1.5742577,2.4459856,-0.19301695,0.26123014,-0.33615327,0.10857251,-0.023600725,-0.189608,0.076614454,0.0,-9.346964,0.9791215,47.693153,-1.318737,-2.5474157,-3.7093668,-0.3035096,-0.19187742,-0.26448905,24.5625,25.125,24.3125,26.0,26.1875,26.4375
0.3720518,0.39411178,0.8348944,-0.12224984,0.009534316,0.026364826,-0.10256429,-0.42215285,-0.36244228,0.059979975,-3.073503,0.62859935,3.5056066e-05,-0.17537418,0.03760205,-0.0019457946,0.033906564,-0.016127216,-7.882133e-05,0.4675807,-1.3348173,1.844376,-2.076114,-1.5743059,2.4455645,-0.1947278,0.2614572,-0.3397797,0.10740588,-0.024028772,-0.19440377,-0.019153614,0.076614454,-9.289503,0.900793,47.67345,-1.3752309,-2.3972316,-3.5846467,-0.31780392,-0.1788424,-0.15754193,24.5625,25.125,24.3125,26.0,26.1875,26.4375
0.37405232,0.23960508,-0.0025281024,0.018627584,-0.008458978,0.040421754,-0.08986255,-0.42250144,-0.36235,0.05995774,-3.0733886,0.628635,-2.753102e-05,-0.17774862,0.037286784,-0.0015160568,0.031667802,-0.012656671,-0.0035698775,0.467172,-1.3342772,1.843717,-2.0758998,-1.5743655,2.4451933,-0.1962514,0.26304504,-0.34205726,0.10397343,-0.023631085,-0.19243515,-0.095768064,0.19153613,-9.270349,0.93436235,47.67793,-1.2487205,-2.3610492,-3.3953767,-0.310874,-0.17621824,-0.16831446,24.5625,25.125,24.3125,26.0,26.1875,26.4375
