Tylouw/Master_Thesis_Code/training_data/batch_1/rect_rod_t0.1/sample_31_session_1.csv
timestamp[s],tcp_force_x[N],tcp_force_y[N],tcp_force_z[N],tcp_force_rx[Nm?],tcp_force_ry[Nm?],tcp_force_rz[Nm?],tcp_pose_x[m],tcp_pose_y[m],tcp_pose_z[m],tcp_pose_rx[rot_vec_x],tcp_pose_ry[rot_vec_y],tcp_pose_rz[rot_vec_z],tcp_velo_x[m/s],tcp_velo_y[m/s],tcp_velo_z[m/s],tcp_velo_rx[rot_vec_x/s],tcp_velo_ry[rot_vec_y/s],tcp_velo_rz[rot_vec_z/s],q1[rad],q2[rad],q3[rad],q4[rad],q5[rad],q6[rad],qd1[rad/s],qd2[rad/s],qd3[rad/s],qd4[rad/s],qd5[rad/s],qd6[rad/s],tool_acc_x,tool_acc_y,tool_acc_z,current_of_whole_robot[A],voltage_of_whole_robot[V],current_J1[A],current_J2[A],current_J3[A],current_J4[A],current_J5[A],current_J6[A],temp_J1[C],temp_J2[C],temp_J3[C],temp_J4[C],temp_J5[C],temp_J6[C]
1.05e-06,-0.47343424,-0.28090054,0.869728,-0.0012587312,-0.010696268,0.011640905,-0.38933313,-0.3687285,0.060020372,-3.0787475,0.624918,0.0002393577,0.00025479408,0.00018504966,-8.715581e-05,0.00038348127,-0.000935044,-4.7901838e-05,0.50504476,-1.3816799,1.9042224,-2.0919397,-1.5708417,2.4800253,-0.00014742627,-3.0476629e-05,-3.508836e-07,0.0010342307,0.00011923402,-9.9805635e-05,0.076614454,0.15322891,-8.6574335,0.7530795,47.66539,-0.16876498,-3.0484488,-2.2555315,-0.20096233,0.0977691,0.012637552,24.8125,25.4375,24.625,26.5,26.75,27.0
0.002055292,0.074074194,-0.112089224,0.8047289,-0.0016043816,0.0068988,0.0022186693,-0.38935804,-0.36872095,0.06001331,-3.0787416,0.62495536,0.00024240388,-0.001889019,-0.0010076534,-0.00018449155,-0.0041573006,0.0072370637,-4.2544845e-05,0.50500876,-1.3816439,1.9041995,-2.0919554,-1.5708417,2.4800134,-0.00014405524,-4.088829e-07,0.0029917576,-0.011336844,0.00011701938,-0.00010169379,0.05746084,0.21068975,-8.580819,0.7396539,47.678825,-0.23369211,-2.9683058,-2.2768137,-0.1477767,0.100793764,0.024518952,24.8125,25.4375,24.625,26.5,26.75,27.0
0.00405452,0.033807624,-0.15116104,0.78523374,-0.009975412,0.010893209,0.004736079,-0.38934216,-0.36871213,0.060003605,-3.07871,0.624949,0.00018332699,-0.0015312114,-0.0008112059,-0.0021460603,-0.002398102,0.0040591112,-4.0196508e-05,0.50500876,-1.3816426,1.9042119,-2.0919197,-1.5708417,2.4800134,-0.00014083511,0.0036494688,0.0031923372,-0.011554917,0.00011488527,-0.00010030322,0.019153614,0.17238252,-8.485051,0.7396539,47.72002,-0.2411564,-3.3694725,-2.5541644,-0.05687449,0.09166165,0.01248995,24.8125,25.4375,24.625,26.5,26.75,27.0
0.006054576,0.11913669,-0.138756,0.8821633,0.009196743,0.0036098456,0.00010874325,-0.38933483,-0.3687268,0.059996136,-3.0787299,0.62493354,0.00018413032,-0.0005604684,-0.00027223965,-0.0015159857,-0.0008530783,0.0012906693,-3.902717e-05,0.50503284,-1.381631,1.9042228,-2.091953,-1.5708297,2.4800253,-0.00013775528,0.0022980792,0.0020765571,-0.005917365,0.00011282781,-9.8745884e-05,0.0,0.17238252,-8.599973,0.7083204,47.686886,-0.26625037,-3.3070576,-2.5224547,-0.09737205,0.091686204,0.027338061,24.8125,25.4375,24.625,26.5,26.75,27.0
0.008054447,0.3174174,0.6934607,0.32629073,0.03815527,-0.016479488,0.0069699236,-0.38932595,-0.36872008,0.05999602,-3.0786963,0.6249649,0.00019312194,0.00010544136,9.767142e-05,-0.00039400288,-0.00012731092,1.2855037e-08,-3.8022463e-05,0.50504476,-1.3816439,1.9042352,-2.0919397,-1.5708536,2.480061,-0.00013480775,0.00011399975,0.0010368,-0.0012128329,0.00011084267,-9.722315e-05,-0.05746084,0.17238252,-8.714894,0.7463667,47.70659,-0.1858992,-3.2031431,-2.4352834,-0.1371772,0.087464556,0.010062157,24.8125,25.4375,24.625,26.5,26.75,27.0
0.010054055,0.87449485,1.055165,0.10837451,0.037293337,0.0026267297,-0.004663083,-0.38932455,-0.36871663,0.05999745,-3.0787208,0.6248927,0.00018223365,0.00024008082,0.00017893124,-0.00028148928,0.00018605433,-0.0005590817,-3.8902792e-05,0.50503284,-1.3816559,1.9042462,-2.0919397,-1.5708417,2.480001,-0.00014438672,1.5294522e-06,0.0006565509,-7.918932e-05,0.00010892629,-0.000105901556,0.0,0.11492168,-9.021352,0.83813137,47.719128,-0.6893479,-2.6161358,-2.9832983,-0.13871557,0.07066236,-0.04311231,24.8125,25.4375,24.625,26.5,26.75,27.0625
0.012054163,-0.13393213,0.23679662,0.06926698,0.010853983,3.0825453e-05,0.0021377986,-0.38934088,-0.36871144,0.059971184,-3.0786703,0.6250173,0.00013624756,0.0005609865,0.00036167246,-0.0010657364,0.0019250318,-0.0036939564,7.656905e-05,0.50500876,-1.3815827,1.9042219,-2.0919502,-1.5708417,2.480061,-0.00015219531,0.002242254,-0.00085332384,0.0027748488,0.000107074855,-0.00022851156,0.15322891,0.1340753,-9.097966,0.71951014,47.691364,-0.8367735,-2.5992217,-3.1296926,-0.13233611,0.07553846,-0.10296209,24.8125,25.4375,24.625,26.5,26.75,27.0625
0.014053807,-0.76467824,-0.8050095,-0.38696468,-0.011352401,0.014906926,0.0018904794,-0.38931182,-0.36869597,0.059944715,-3.07861,0.62490875,1.651453e-05,-0.004568862,0.0032749726,-0.004564385,0.0046641044,-0.008673242,-0.00033027245,0.50501734,-1.3815547,1.9042329,-2.0918787,-1.5708536,2.4800096,-0.0098601505,0.013695854,-0.0063632415,0.002512606,0.00010528533,-0.009525528,0.019153614,0.19153613,-9.232041,0.74413085,47.677036,-0.5319222,-3.1450706,-3.0736232,-0.1425106,0.06630902,-0.080165565,24.8125,25.4375,24.625,26.5,26.75,27.0625
0.01605437,-1.3143584,-1.062482,-0.38473332,-0.034010928,0.03448248,-0.0053237826,-0.3893328,-0.36870915,0.059962083,-3.0786743,0.6248423,5.075471e-05,-0.0052795974,0.0034567772,-0.0043796194,0.004279726,-0.00797914,0.005055952,0.505005,-1.3815547,1.9041961,-2.091891,-1.5708297,2.4799476,-0.01082951,0.013879567,-0.006901489,0.0020730905,0.00010355468,-0.015880808,-0.19153614,0.19153613,-9.3661175,0.7396539,47.71465,-0.5028058,-3.022751,-3.1369467,-0.10673405,0.07232043,-0.02816296,24.8125,25.4375,24.625,26.5,26.75,27.0625
0.018054115,-1.5097674,-1.1346015,-0.64210427,-0.039128635,0.05581757,-0.017827408,-0.38932666,-0.36868453,0.059919905,-3.078611,0.6248476,-6.21491e-05,-0.005787077,0.0028657336,-0.002763314,0.0026422967,-0.005023187,0.0076773902,0.5049693,-1.3814956,1.9042195,-2.0918791,-1.5708297,2.4799232,-0.0103076,0.011651388,-0.007916032,0.0019363606,0.00010188014,-0.017980268,-0.34476504,0.19153613,-9.32781,0.7463667,47.686886,-0.7286577,-2.8055878,-3.4098282,-0.1033681,0.06402682,-0.017215667,24.8125,25.4375,24.625,26.5,26.75,27.0625
0.020054331,-1.5418634,-0.7018212,-0.59580564,-0.017504219,0.065126754,-0.03017347,-0.3893156,-0.36867216,0.059903774,-3.0785527,0.6247981,-9.844025e-05,-0.005900492,0.0030357803,-0.0031152088,0.004032485,-0.007531846,0.0070163226,0.5049811,-1.3814708,1.9042186,-2.091842,-1.5708655,2.4799116,-0.010700819,0.013663818,-0.010205627,0.0050810324,0.00010025874,-0.0177115,-0.5363012,0.21068975,-9.481039,0.81351066,47.666286,-0.89004076,-2.700538,-3.384069,-0.10636982,0.07711622,-0.040018603,24.8125,25.4375,24.625,26.5,26.75,27.0625
0.022053655,-1.3807831,-0.07493149,-0.7830555,-0.0017143633,0.068498164,-0.055718902,-0.38935092,-0.3686647,0.05991665,-3.0785618,0.6249163,-9.654489e-05,-0.007156308,0.003501134,-0.0031772358,0.0045545883,-0.008476767,0.004102081,0.50492066,-1.381458,1.9041713,-2.0918295,-1.5708417,2.4799237,-0.012658335,0.01568182,-0.012831729,0.0067692753,9.868823e-05,-0.016753552,-0.61291564,0.21068975,-9.576807,0.7172743,47.694946,-0.8806367,-2.6776958,-3.3881454,-0.12836957,0.08542301,-0.08497012,24.8125,25.4375,24.625,26.5,26.75,27.0625
0.02405374,-1.2673317,-0.2792441,-0.8986528,0.0019710395,0.069753796,-0.06501975,-0.38934138,-0.3686822,0.059895035,-3.078565,0.6248405,-0.00017802473,-0.008955631,0.0038373438,-0.0036087602,0.0045042676,-0.008397641,0.0023723275,0.5049438,-1.3813969,1.9041456,-2.0918176,-1.5708174,2.4798992,-0.014908376,0.018558495,-0.015087122,0.0060547395,9.716612e-05,-0.017272387,-0.5363012,0.24899697,-9.768343,0.7172743,47.67614,-0.8963294,-2.7317548,-3.3809612,-0.1376416,0.083380565,-0.109026864,24.8125,25.4375,24.625,26.5,26.75,27.0625
0.026054,-1.9204402,-0.8994185,-1.0141784,-0.008033527,0.060693786,-0.07927479,-0.38936624,-0.36866447,0.059876267,-3.078558,0.6248403,-0.00021943249,-0.01004371,0.0043027923,-0.0036560239,0.0041322345,-0.007730579,0.0011630354,0.5048832,-1.3813487,1.9041342,-2.09183,-1.5708054,2.4798393,-0.016707942,0.019225448,-0.015548578,0.005085605,9.5690346e-05,-0.017862264,-0.6895301,0.2873042,-9.787497,0.66132545,47.70659,-0.8669148,-2.7401142,-3.4113023,-0.10197011,0.06809469,-0.09942203,24.8125,25.4375,24.625,26.5,26.75,27.0625
0.02805427,-1.6375797,-0.5186607,-0.87323415,-0.038557254,0.07922883,-0.088297695,-0.38938305,-0.36863178,0.059875034,-3.0784938,0.6248649,-0.00023859524,-0.010731321,0.004236031,-0.0033468946,0.003966408,-0.0074339407,4.2213036e-05,0.5048351,-1.3813365,1.9041089,-2.09177,-1.5708417,2.4798148,-0.017237991,0.01986099,-0.017143255,0.0057043484,9.425858e-05,-0.017270805,-0.7661445,0.21068975,-9.787497,0.7642693,47.69763,-0.8743987,-2.7629807,-3.456777,-0.101828784,0.068208635,-0.1250054,24.8125,25.4375,24.625,26.5,26.75,27.0625
0.030053785,-1.8217633,-0.951435,-0.8544673,-0.023043185,0.096031904,-0.08928599,-0.38941658,-0.36863613,0.05986351,-3.0784814,0.6248062,-0.00028269534,-0.010996704,0.0046363138,-0.0035605591,0.0046834415,-0.008726723,-0.0019350547,0.504811,-1.3812401,1.904013,-2.0917337,-1.5708417,2.4797556,-0.018158322,0.020795137,-0.018103333,0.0072087627,9.2869166e-05,-0.01621349,-0.80445176,0.05746084,-9.864111,0.7978386,47.694054,-0.9649151,-2.7220066,-3.4471207,-0.10115504,0.07563642,-0.12413436,24.8125,25.4375,24.625,26.5,26.75,27.0625
0.03205411,-1.7678789,-0.16456288,-0.86347115,-0.009038974,0.09669498,-0.08809997,-0.38941887,-0.36863732,0.05985006,-3.078466,0.6248037,-0.00031189818,-0.01192514,0.0043855025,-0.002929998,0.0043513346,-0.00815422,-0.003131571,0.5048108,-1.3812038,1.9040006,-2.0917332,-1.5708417,2.4797559,-0.018611938,0.021513442,-0.020652909,0.008378387,0.00010372802,-0.015469579,-0.7278373,0.019153614,-9.883265,0.7777002,47.703903,-0.9758872,-2.6647801,-3.4027004,-0.11601327,0.07088257,-0.14887054,24.8125,25.4375,24.625,26.5,26.75,27.0625
0.034054343,-2.045326,0.47617728,-0.74846905,0.010078442,0.07879148,-0.083282255,-0.38946587,-0.368632,0.05986102,-3.0784867,0.62490433,-0.00026664295,-0.013508158,0.004130079,-0.0022905557,0.0031770382,-0.0060417713,-0.00395555,0.50475043,-1.3811795,1.9039525,-2.0917575,-1.5708297,2.4797556,-0.01966041,0.02227876,-0.022772778,0.0073162047,0.00010304011,-0.015692966,-0.6703765,-0.05746084,-9.768343,0.77545905,47.71823,-0.94848096,-2.6883245,-3.404716,-0.09877743,0.077799916,-0.14490564,24.8125,25.4375,24.625,26.5,26.75,27.0625
0.036054052,-0.9397308,0.9323218,-0.7272404,0.020974576,0.089436896,-0.09542901,-0.3894935,-0.36863035,0.05985982,-3.078492,0.62488645,-0.00029417325,-0.014935861,0.004193714,-0.0021347995,0.0025816236,-0.0049738972,-0.005104535,0.5047141,-1.3811309,1.9038924,-2.0917337,-1.5708174,2.4797075,-0.021100936,0.023593266,-0.024497688,0.0065041324,0.00010163755,-0.015983509,-0.5554548,-0.05746084,-9.710882,0.7665104,47.690468,-0.96141386,-2.747374,-3.3794856,-0.066338554,0.07045303,-0.17388704,24.8125,25.4375,24.625,26.5,26.75,27.0625
0.038054623,-0.84483266,0.59049904,-0.8760529,0.021654397,0.06937897,-0.086352035,-0.389529,-0.36859536,0.059838098,-3.07843,0.6249891,-0.00033855563,-0.015683051,0.0046277246,-0.0024674428,0.0028236613,-0.005415908,-0.0055710073,0.50462973,-1.3810704,1.9038676,-2.0917218,-1.5708297,2.479695,-0.022527754,0.024843495,-0.025212038,0.0064718784,0.000100226185,-0.016943365,-0.4405331,-0.095768064,-9.653421,0.7665104,47.679718,-0.9739645,-2.7000926,-3.4470553,-0.053078182,0.054540347,-0.17354661,24.8125,25.4375,24.625,26.5,26.75,27.0625
0.040054083,-0.42731574,0.37441608,-0.8392072,0.009569125,0.06663771,-0.08359041,-0.3895533,-0.36862206,0.059833635,-3.0784721,0.6249599,-0.00036119678,-0.016915942,0.0049064537,-0.0019923204,0.0025470965,-0.004917929,-0.0062099975,0.50462925,-1.3809981,1.9037951,-2.0917337,-1.5707935,2.479671,-0.024147388,0.025491856,-0.027246678,0.007289059,9.88503e-05,-0.01792316,-0.32561144,-0.038307227,-9.500193,0.7642693,47.70032,-0.95538044,-2.7451828,-3.4139225,-0.06288363,0.07645999,-0.19193715,24.8125,25.4375,24.625,26.5,26.75,27.0625
0.042054176,-0.6134404,-0.11235315,-0.9417266,0.0024561032,0.04701363,-0.08060117,-0.38958833,-0.3685949,0.059848014,-3.0784328,0.6249322,-0.0003257352,-0.018430889,0.0048413263,-0.0012698278,0.0019851078,-0.003908997,-0.006200027,0.50458086,-1.3809857,1.9037341,-2.0916736,-1.5708417,2.4796104,-0.02545209,0.026480703,-0.030255938,0.008153539,9.751167e-05,-0.019236537,-0.2681506,-0.05746084,-9.634268,0.7016076,47.698532,-0.83989024,-2.6762981,-3.3067636,-0.064784914,0.067304686,-0.18791553,24.8125,25.4375,24.625,26.5,26.75,27.0625
0.044054333,-0.42765284,-0.14613968,-0.7867396,-0.0025008852,0.043374203,-0.08544609,-0.38964054,-0.36859265,0.059838332,-3.0784268,0.6250464,-0.00032413847,-0.019209387,0.004718271,-0.0008799794,0.0016210645,-0.0032530155,-0.006437475,0.5045208,-1.3809016,1.9036621,-2.0916975,-1.5708297,2.4796224,-0.025968792,0.027013415,-0.03184435,0.0084592225,9.6208685e-05,-0.01951509,-0.24899697,0.05746084,-9.595961,0.7709874,47.71823,-0.88628894,-2.6531658,-3.3341856,-0.053153895,0.074511856,-0.21685725,24.8125,25.4375,24.625,26.5,26.75,27.0625
0.04605416,-0.29242402,-0.13802657,-0.6526468,-0.008740818,0.043703433,-0.07883898,-0.38967958,-0.36858127,0.059837226,-3.0784395,0.6250108,-0.00028557752,-0.019274445,0.0052196807,-0.0013920686,0.0024445516,-0.0047387513,-0.0059405435,0.50447255,-1.3808651,1.9036268,-2.0917208,-1.5708417,2.4795504,-0.026870614,0.027968142,-0.032015704,0.009374114,9.494001e-05,-0.020913715,-0.17238252,0.17238252,-9.653421,0.784413,47.703903,-0.9503152,-2.5951304,-3.4480417,-0.07479154,0.06553149,-0.21219212,24.8125,25.4375,24.625,26.5,26.75,27.0625
0.048054423,-0.09225257,0.14060766,-0.65419865,-0.019693026,0.04337981,-0.08874678,-0.38971996,-0.36854747,0.0598284,-3.0783565,0.62504965,-0.00033499624,-0.020497283,0.0053843292,-0.0010577234,0.0020639033,-0.004059598,-0.005480381,0.50440025,-1.3807929,1.9035424,-2.091637,-1.5708774,2.479513,-0.028287448,0.028833011,-0.03384187,0.009555799,9.37044e-05,-0.022789856,-0.05746084,0.19153613,-9.595961,0.65684843,47.694946,-0.84727585,-2.6797776,-3.4251022,-0.06407319,0.06140247,-0.22186579,24.8125,25.4375,24.625,26.5,26.75,27.0625
0.0500544,-0.5597043,-0.5805362,-0.9053209,-0.008345627,0.011040279,-0.07701863,-0.38975242,-0.3685569,0.059827067,-3.0783908,0.62509584,-0.0003427527,-0.022450069,0.0056312717,-0.00034234385,0.0011432978,-0.0024019985,-0.006200201,0.5043634,-1.3807446,1.9034938,-2.0916607,-1.5708417,2.4795005,-0.030524287,0.02963413,-0.03638343,0.009400761,9.250058e-05,-0.024305694,0.038307227,0.19153613,-9.5385,0.7463667,47.66808,-0.8606485,-2.600688,-3.3622837,-0.05766446,0.06008631,-0.22632268,24.8125,25.4375,24.625,26.5,26.75,27.0625
0.052054748,-0.121565074,-0.74612147,-0.82545227,-0.0112046385,0.017581675,-0.074898146,-0.38982522,-0.3685537,0.059861332,-3.078437,0.62516207,-0.00032329257,-0.023035888,0.005943595,-0.0003851215,0.0015961505,-0.0031974036,-0.0060214703,0.5042674,-1.380708,1.9033617,-2.0916126,-1.5708054,2.47944,-0.031584233,0.030691313,-0.037833218,0.010709375,8.0666294e-05,-0.025543723,-0.038307227,0.21068975,-9.5385,0.71951014,47.64121,-0.83179456,-2.5667696,-3.3224235,-0.045079984,0.06345677,-0.2414175,24.8125,25.4375,24.625,26.5,26.75,27.0625
0.05405455,-0.23545173,-0.98751646,-0.810076,-0.021193366,0.005787798,-0.07310175,-0.38985014,-0.3685263,0.059834395,-3.0783606,0.6251075,-0.00030738584,-0.023837361,0.006281398,-0.000485255,0.001880135,-0.0037161272,-0.0047554597,0.50424296,-1.3806356,1.9033374,-2.0916126,-1.5708774,2.4793913,-0.032899693,0.031936973,-0.039253112,0.011472681,7.895974e-05,-0.028124502,-0.019153614,0.30645782,-9.519346,0.7642693,47.7254,-0.8190007,-2.5948148,-3.367904,-0.05643723,0.06329869,-0.2446865,24.8125,25.4375,24.625,26.5,26.75,27.0625
0.05605452,-0.22844942,-1.1802701,-0.96583825,-0.02547726,0.0066417227,-0.07356756,-0.38994548,-0.36850673,0.059849348,-3.0783908,0.6252484,-0.00028817175,-0.02503166,0.0068925815,-0.00023062665,0.0016894874,-0.003371514,-0.0057771397,0.5040986,-1.3805633,1.9032177,-2.091612,-1.5708417,2.479331,-0.03503407,0.0323986,-0.040460538,0.0118255215,7.79375e-05,-0.02923667,0.019153614,0.34476504,-9.500193,0.7284641,47.64658,-0.7855166,-2.5908933,-3.3924685,-0.060867626,0.0625568,-0.2632426,24.8125,25.4375,24.625,26.5,26.75,27.0625
0.058054365,-0.4883592,-1.5230861,-0.7544022,-0.023642676,0.014064838,-0.06682227,-0.38998574,-0.3685281,0.059872676,-3.078449,0.62518287,-0.0002954874,-0.025771298,0.006878749,0.000396446,0.0013867435,-0.002823035,-0.0052881716,0.50407434,-1.3805152,1.903097,-2.0915644,-1.5708054,2.4792585,-0.03569703,0.032478575,-0.042222925,0.012882393,7.69822e-05,-0.030387977,-0.019153614,0.40222588,-9.3661175,0.8023209,47.64837,-0.74274564,-2.4944673,-3.3251748,-0.0818131,0.06893777,-0.2535935,24.8125,25.4375,24.625,26.5,26.75,27.0625
0.06005427,-0.8110791,-1.3716074,-0.7349542,-0.018495958,0.020477502,-0.06889831,-0.3900694,-0.36849546,0.05988114,-3.078408,0.62523043,-0.00020698583,-0.02640449,0.006028124,0.0009424114,0.0006881113,-0.0015644627,-0.0032619121,0.5039788,-1.3804427,1.9029893,-2.091552,-1.5708655,2.479198,-0.034850452,0.033301994,-0.044427466,0.012822038,7.6052675e-05,-0.031566624,0.0,0.38307226,-9.346964,0.7933669,47.698532,-0.9114098,-2.4770486,-3.3266852,-0.08015264,0.07133498,-0.2734264,24.8125,25.4375,24.625,26.5,26.75,27.0625
0.06205458,-0.7879639,-0.8090417,-0.43134522,-0.01411162,0.032017715,-0.07501282,-0.3901059,-0.36846295,0.059857972,-3.0783489,0.6252947,-0.00031949466,-0.027610002,0.006368724,0.0011687493,0.0005061258,-0.0012450545,-0.003817424,0.5038825,-1.3803585,1.9029287,-2.091492,-1.5708536,2.4791493,-0.036544282,0.03424305,-0.04615245,0.0132385995,7.514555e-05,-0.032704145,-0.019153614,0.3256114,-9.32781,0.842603,47.703903,-0.85398436,-2.4715133,-3.3037612,-0.07574939,0.05840171,-0.29046872,24.8125,25.4375,24.625,26.5,26.75,27.0625
0.06405392,-0.9325746,-0.3369626,-0.45084655,-0.013744454,0.027024893,-0.07671746,-0.3901285,-0.36847243,0.059848774,-3.0783684,0.625242,-0.00033257273,-0.028626967,0.0068166857,0.00084025715,0.000753029,-0.0016969355,-0.0047416133,0.50386995,-1.3802978,1.9028805,-2.0915039,-1.5708417,2.4791014,-0.03824502,0.03590876,-0.047398336,0.013333993,7.425974e-05,-0.033479933,-0.019153614,0.30645782,-9.308657,0.80456203,47.686886,-0.8168349,-2.4592915,-3.3339329,-0.085809395,0.07066191,-0.29014796,24.8125,25.4375,24.625,26.5,26.75,27.0625
0.066054136,-0.60218626,-0.6092744,-0.51241904,0.0038161199,0.031452026,-0.071912035,-0.3902014,-0.36846006,0.05986784,-3.0783749,0.6252623,-0.0003429906,-0.029853998,0.0066516087,0.0013329909,2.2438035e-05,-0.00038162418,-0.004033257,0.5037736,-1.3802255,1.9027356,-2.0914328,-1.5708297,2.479017,-0.039104406,0.036674406,-0.04935665,0.013022281,7.339469e-05,-0.03504673,-0.019153614,0.30645782,-9.346964,0.7620334,47.66091,-0.8014435,-2.3893507,-3.3462715,-0.07263636,0.07144797,-0.31698793,24.8125,25.4375,24.625,26.5,26.75,27.0625
0.06805414,-0.7827602,-0.35843825,-0.48190948,-0.0026848475,0.029947571,-0.06859671,-0.39026242,-0.36845118,0.059867997,-3.0783966,0.6252275,-0.00031684944,-0.030655183,0.0064838985,0.001680138,-0.00036565383,0.00031884245,-0.003917588,0.50370175,-1.3801532,1.9026521,-2.0914438,-1.5708297,2.4789207,-0.03956322,0.03733928,-0.050968613,0.013168521,7.254952e-05,-0.03562047,-0.17238252,0.22984336,-9.32781,0.74413085,47.695843,-0.8303336,-2.4348028,-3.3171868,-0.08720066,0.06701437,-0.32533124,24.8125,25.4375,24.625,26.5,26.75,27.0625
0.07005373,-1.1326084,-0.704209,-0.54038304,0.015122555,0.02525378,-0.068056926,-0.39031592,-0.36843982,0.059863064,-3.0783777,0.625338,-0.000369898,-0.03175603,0.006738728,0.0017783542,-0.0004839888,0.0005259331,-0.0034508752,0.5036175,-1.3800687,1.9025553,-2.091408,-1.5708054,2.4789078,-0.041012302,0.03847674,-0.052598003,0.013422644,7.172353e-05,-0.037535455,-0.19153613,0.15322891,-9.232041,0.78217715,47.688675,-0.89187515,-2.2989948,-3.3161745,-0.08296616,0.054980263,-0.33034253,24.8125,25.4375,24.625,26.5,26.75,27.0625
0.0720543,-0.42916715,0.15221184,-0.3481587,0.00069944136,0.053609066,-0.07565846,-0.3903755,-0.36843258,0.05986994,-3.0783908,0.625263,-0.00034534046,-0.032128718,0.007136034,0.00077410584,0.00060929626,-0.0014685985,-0.0029311352,0.5035572,-1.3799957,1.902448,-2.0913842,-1.5708174,2.478799,-0.042026225,0.04103285,-0.05347285,0.014015261,7.591135e-05,-0.03906843,-0.21068975,0.11492168,-9.32781,0.79560274,47.67345,-0.8768573,-2.4381776,-3.3081074,-0.07620747,0.053253148,-0.32074696,24.8125,25.4375,24.625,26.5,26.75,27.0625
0.07405435,-1.6101933,-0.37332678,-0.32910904,0.016803674,0.03569001,-0.06865739,-0.39043942,-0.36841086,0.05986814,-3.0783947,0.6252444,-0.00034562597,-0.03349354,0.0071401508,0.0013283327,3.6421694e-05,-0.00044705736,-0.0028265356,0.503461,-1.3799232,1.9023637,-2.0913723,-1.5708174,2.4786909,-0.043300882,0.041878186,-0.05580927,0.014335009,7.980961e-05,-0.04044665,-0.3256114,0.15322891,-9.251195,0.7665104,47.704796,-0.8858298,-2.4418304,-3.380608,-0.06858719,0.060415294,-0.33750397,24.8125,25.4375,24.625,26.5,26.75,27.0625
0.07605407,-1.0313264,0.052677922,-0.25920045,0.010257239,0.053398643,-0.07905251,-0.39049682,-0.368407,0.059876215,-3.0783827,0.62526083,-0.00036136262,-0.03472616,0.0065883636,0.0018643013,-0.0004102016,0.00043337294,-0.002947425,0.50340104,-1.3798387,1.9022316,-2.0913117,-1.5708174,2.4786427,-0.043491438,0.043493964,-0.059099272,0.0150227165,4.015592e-05,-0.04051473,-0.36391866,0.05746084,-9.251195,0.70608455,47.716442,-0.9064573,-2.3982897,-3.18755,-0.08348786,0.06302508,-0.35838515,24.8125,25.4375,24.625,26.5,26.75,27.0625
0.07805422,-0.7334503,0.57910335,-0.372691,0.004399235,0.062408444,-0.08225996,-0.3905834,-0.36840457,0.05990035,-3.078417,0.6252859,-0.00029067948,-0.034725472,0.008326458,0.00075970223,0.0009434576,-0.0019337536,-0.0021083253,0.5033162,-1.3797663,1.9020885,-2.0913002,-1.5708174,2.4785693,-0.046380807,0.043793235,-0.057021357,0.015371743,2.6218947e-06,-0.044243965,-0.34476504,0.076614454,-9.308657,0.80456203,47.71286,-0.8462175,-2.4690182,-3.33538,-0.08842842,0.075177185,-0.34917295,24.8125,25.4375,24.625,26.5,26.75,27.0625
0.08005455,-0.7955679,0.18905185,-0.3291661,0.007379435,0.063919924,-0.07771936,-0.39066815,-0.36838463,0.05990156,-3.0784295,0.62530684,-0.00029007654,-0.035686012,0.00830363,0.00026574507,0.0013027211,-0.002590971,-0.00065900624,0.50319624,-1.3796695,1.9019684,-2.0912879,-1.5708054,2.4784608,-0.047226693,0.046435762,-0.059060946,0.015518113,1.7119098e-07,-0.046537943,-0.38307226,0.0,-9.346964,0.7463667,47.690468,-0.8512505,-2.388309,-3.3569355,-0.11248218,0.049781486,-0.34468552,24.8125,25.4375,24.625,26.5,26.75,27.0625
0.082054645,-0.64282155,0.32543182,-0.28291932,0.0015589634,0.0643317,-0.08202605,-0.39074323,-0.3683721,0.059913285,-3.078437,0.6251888,-0.0002913174,-0.037170604,0.006802967,0.0019347557,-0.0005421064,0.00073749886,0.005019196,0.5031127,-1.3795732,1.9018115,-2.0912163,-1.5708174,2.4783027,-0.04607679,0.046873994,-0.06340309,0.015615423,1.1177548e-08,-0.05106443,-0.45968673,-0.019153614,-9.3661175,0.7530795,47.687782,-0.9415144,-2.4607565,-3.2231548,-0.10751373,0.06727877,-0.31831536,24.8125,25.4375,24.625,26.5,26.75,27.0625
0.08405386,-1.1407505,0.15749235,-0.43593618,0.0042854887,0.05653503,-0.0689652,-0.3907923,-0.36833462,0.059891704,-3.078383,0.6252559,-0.00036524245,-0.037992474,0.008192694,0.0011067055,0.0002787972,-0.00075900025,0.0024007184,0.50300384,-1.3794887,1.9017524,-2.09118,-1.5708174,2.4782426,-0.04917253,0.048099935,-0.062988535,0.01568175,7.2981404e-10,-0.051541686,-0.51714754,0.038307227,-9.308656,0.7665104,47.71465,-0.8954581,-2.415266,-3.2273223,-0.12979276,0.067658275,-0.30096903,24.8125,25.4375,24.625,26.5,26.75,27.0625
0.08605372,-1.111354,-0.45806253,-0.57177395,0.01402608,0.059546433,-0.064790554,-0.3908867,-0.36832717,0.05988671,-3.0784025,0.62527794,-0.00035121082,-0.038316682,0.008486639,0.00030167607,0.0010535223,-0.0021684922,0.0035204422,0.50289595,-1.3793559,1.9016093,-2.091192,-1.5708054,2.478146,-0.049957626,0.050108556,-0.063584164,0.015877573,4.7651643e-11,-0.053445976,-0.51714754,0.038307227,-9.32781,0.800085,47.71465,-0.85338926,-2.447479,-3.393754,-0.16298144,0.06393843,-0.30822253,24.8125,25.4375,24.625,26.5,26.75,27.0625
0.0880538,-1.0829892,-0.34778365,-0.42156434,0.00018115652,0.062325116,-0.07493937,-0.39093637,-0.36830422,0.05989105,-3.078392,0.6252168,-0.00039299155,-0.040770967,0.008712476,0.0015523502,-0.0006428472,0.00089195615,0.004778508,0.50281113,-1.3792958,1.901512,-2.09112,-1.5708054,2.4780245,-0.05261373,0.05017818,-0.066328146,0.01505239,3.1113118e-12,-0.05735895,-0.45968673,0.076614454,-9.308657,0.7016076,47.709274,-0.73754996,-2.409028,-3.3622293,-0.14323834,0.04941978,-0.2754328,24.8125,25.4375,24.625,26.5,26.75,27.0625
0.09005396,-1.5254606,-0.6103449,-0.34106907,-0.0020604446,0.05169166,-0.0756467,-0.3910399,-0.36827204,0.05988684,-3.0783648,0.62526584,-0.0003960713,-0.04060325,0.0077915923,0.0008893318,-0.00023638389,0.00014087843,0.0101226345,0.502668,-1.3791628,1.9013561,-2.0910847,-1.5708174,2.4779155,-0.05089659,0.05263584,-0.06767652,0.014796014,2.0314642e-13,-0.060984988,-0.4213795,0.095768064,-9.308657,0.83589023,47.65464,-0.84374726,-2.3655233,-3.3108053,-0.1418306,0.049365096,-0.2427218,24.8125,25.4375,24.625,26.5,26.75,27.0625
0.09205543,-0.93384033,-0.39328462,-0.32059872,-0.012128522,0.06970488,-0.07959406,-0.39110163,-0.36828172,0.059898384,-3.0784116,0.62515897,-0.00038046535,-0.041616444,0.0083699785,0.00019298504,0.00039797273,-0.0010173572,0.01114137,0.50261945,-1.3790779,1.901224,-2.0910609,-1.5708054,2.4777944,-0.052804615,0.05502295,-0.068974,0.015027394,1.3264009e-14,-0.06391088,-0.38307226,0.17238252,-9.346964,0.8247004,47.68062,-0.94249177,-2.5259736,-3.338992,-0.16929284,0.054794986,-0.20091437,24.8125,25.4375,24.625,26.5,26.75,27.0625
0.09405365,-1.1516949,-0.2979923,-0.38038027,-0.013420013,0.058071893,-0.08043007,-0.39121556,-0.3682455,0.059906133,-3.0783885,0.6251725,-0.00033001503,-0.042985365,0.008651653,0.0018449764,-0.0010394616,0.0015934207,0.011613286,0.50247514,-1.3789583,1.9010566,-2.0910246,-1.5708417,2.4776616,-0.054533888,0.05305748,-0.070535265,0.015571202,8.660451e-16,-0.06611182,-0.22984336,0.21068975,-9.308656,0.7911258,47.693153,-0.8589562,-2.3566513,-3.398416,-0.17943718,0.059488617,-0.16840087,24.8125,25.4375,24.625,26.5,26.75,27.0625
0.09605426,-0.9106252,-0.78075874,-0.50346226,0.0011176341,0.048865773,-0.077782035,-0.39128205,-0.36822522,0.059897352,-3.0783768,0.625111,-0.00037439566,-0.043587133,0.008692976,0.0013477873,-0.0007160229,0.0009923357,0.013221084,0.5023792,-1.3788495,1.900937,-2.090977,-1.5708417,2.4775288,-0.05515388,0.05498565,-0.07166616,0.015456186,5.654655e-17,-0.06833885,-0.3256114,0.21068975,-9.385271,0.7105615,47.651955,-0.903619,-2.350303,-3.3574538,-0.18077284,0.06401341,-0.14339045,24.8125,25.4375,24.625,26.5,26.75,27.0625
0.09805364,-0.66407806,-0.22101352,-0.5282901,-0.021057347,0.043948483,-0.07736534,-0.39139774,-0.36821076,0.05990562,-3.0784187,0.62509876,-0.00030397758,-0.044166926,0.008716452,0.0004621818,0.00016149606,-0.00060341076,0.014287266,0.50224733,-1.3787284,1.9007801,-2.0910003,-1.5708417,2.477384,-0.055717204,0.058047082,-0.0733919,0.015941419,3.6920855e-18,-0.06996723,-0.36391866,0.2681506,-9.308656,0.83365434,47.690468,-0.9201336,-2.4227653,-3.4099977,-0.17372742,0.056716576,-0.10120801,24.8125,25.4375,24.625,26.5,26.75,27.0625
0.100053854,-0.6668119,-0.9025216,-0.6937616,-0.0065296576,0.03637722,-0.058399115,-0.39150083,-0.3681678,0.05989001,-3.078372,0.6251278,-0.00037899835,-0.044568583,0.009069094,-9.626358e-05,0.0008428514,-0.0018549645,0.013800725,0.5020792,-1.3785716,1.9006137,-2.0909283,-1.5708417,2.47724,-0.05666793,0.059685588,-0.074206114,0.016542094,2.410668e-19,-0.07043091,-0.2873042,0.24899697,-9.3661175,0.7329411,47.686886,-0.9691659,-2.5092216,-3.3822155,-0.2054393,0.0600544,-0.08606936,24.8125,25.4375,24.625,26.5,26.75,27.0625
0.10205448,-0.9237677,-1.3206563,-0.72035754,0.0058975006,0.023005215,-0.060581498,-0.39154747,-0.3681535,0.059866354,-3.0783405,0.62504417,-0.00043832156,-0.045829795,0.00873099,0.0013964819,-0.0007124478,0.00096096436,0.012267846,0.5020193,-1.3784521,1.9005178,-2.0908926,-1.5708536,2.477132,-0.057262793,0.058544725,-0.07625145,0.016510723,1.573994e-20,-0.069492266,-0.11492168,0.22984336,-9.3661175,0.8179876,47.645687,-0.919839,-2.4091766,-3.4406757,-0.21124908,0.06554648,-0.074900106,24.8125,25.4375,24.625,26.5,26.75,27.0625
0.104054146,0.18048015,-0.701945,-0.6825035,-0.008562898,0.041410673,-0.07155613,-0.3916758,-0.36814323,0.05988843,-3.0784106,0.6249822,-0.00036402192,-0.04674814,0.008632348,0.00094134145,-0.00044669193,0.00047897984,0.011046977,0.50187534,-1.3783311,1.9003242,-2.0908926,-1.5708417,2.4769406,-0.057931162,0.06107827,-0.078219496,0.016496576,1.0277056e-21,-0.06893858,-0.076614454,0.19153613,-9.404425,0.7105615,47.72092,-1.0369791,-2.351494,-3.416268,-0.21915148,0.079285175,-0.076000914,24.8125,25.4375,24.625,26.5,26.75,27.0625
0.10605406,-0.40121797,-0.9669463,-0.6393072,-0.008804344,0.020790948,-0.065782934,-0.3917722,-0.3681341,0.059893254,-3.0784283,0.6249862,-0.0003904213,-0.047819898,0.008477706,0.00096802076,-0.000809947,0.0011318062,0.009070744,0.50175536,-1.3781984,1.9001454,-2.0908453,-1.5708174,2.476821,-0.058650754,0.06259813,-0.07997169,0.015983695,6.710183e-23,-0.06768096,-0.019153614,0.2681506,-9.385271,0.7866488,47.705692,-1.0026524,-2.4516854,-3.3441386,-0.23427638,0.07367976,-0.078130335,24.8125,25.4375,24.625,26.5,26.75,27.0625
0.10805375,-0.44029346,-0.97038484,-0.7789318,-0.0021364242,0.009973279,-0.06912284,-0.39185327,-0.36811185,0.059876405,-3.0784023,0.62500095,-0.00046191,-0.04842547,0.008792092,0.00075556565,-0.0007019979,0.000926718,0.006523864,0.50163525,-1.3780538,1.9000014,-2.0907967,-1.5708054,2.4767134,-0.059727635,0.06350649,-0.0805513,0.015887659,4.38127e-24,-0.0662106,-0.05746084,0.2681506,-9.308656,0.71279734,47.675243,-1.0020525,-2.409039,-3.4430065,-0.23102194,0.0722236,-0.09315549,24.8125,25.4375,24.625,26.5,26.75,27.0625
0.110053465,0.3022255,-0.45628563,-0.7946205,-0.010199173,0.01538321,-0.07231923,-0.3919493,-0.36810848,0.059901405,-3.0784626,0.6248024,-0.0003381457,-0.05103418,0.007936019,0.0027025137,-0.0029758725,0.0050619007,0.003801005,0.501563,-1.3779696,1.899845,-2.0907972,-1.5708417,2.4765098,-0.06069394,0.06391807,-0.0854111,0.015614623,2.8606562e-25,-0.06445201,0.019153614,0.24899697,-9.3661175,0.7329411,47.63404,-1.0888782,-2.3808107,-3.2092443,-0.2176615,0.07427536,-0.11586192,24.8125,25.4375,24.625,26.5,26.75,27.0625
0.11205346,0.31838876,-0.18987611,-0.6448717,-0.014234212,0.009696272,-0.08054479,-0.39206886,-0.36808163,0.05988155,-3.078426,0.62489206,-0.00037277304,-0.05039713,0.008944279,-0.00010920579,6.975054e-05,-0.00048679256,0.001236366,0.50140697,-1.3777757,1.8996547,-2.0907724,-1.5708417,2.4764144,-0.06178063,0.06849052,-0.084675185,0.016636115,1.867804e-26,-0.06297376,0.038307227,0.28730422,-9.385271,0.79560274,47.67345,-1.0571486,-2.5813303,-3.3464456,-0.22737496,0.07438216,-0.15040568,24.8125,25.4375,24.625,26.5,26.75,27.0625
0.11405367,0.26902565,-0.70588547,-0.7583032,-0.008236537,0.013078681,-0.066442646,-0.39214194,-0.36808342,0.0598994,-3.0784404,0.62487686,-0.00038166074,-0.053052183,0.00816382,0.0028992423,-0.0028652865,0.0048502474,-0.000777427,0.5013348,-1.3776804,1.899485,-2.0907009,-1.5708297,2.476331,-0.062915765,0.06675725,-0.089600146,0.017204383,1.2195425e-27,-0.06209347,-0.038307227,0.30645782,-9.308656,0.8179876,47.719128,-1.0869629,-2.3276854,-3.2022314,-0.25959885,0.065814145,-0.18314645,24.8125,25.4375,24.625,26.5,26.75,27.0625
0.11605384,-0.48748294,-0.8522326,-1.0278523,0.00045724076,0.0064563253,-0.068673015,-0.39227512,-0.3680568,0.059904616,-3.0784583,0.6248614,-0.00035576595,-0.05283121,0.009150819,0.0022480625,-0.0017951501,0.0029117905,-0.0032692486,0.5011666,-1.377524,1.8992823,-2.0906765,-1.5708297,2.476151,-0.064346336,0.066994704,-0.08863968,0.018220868,7.962741e-29,-0.06103269,0.1340753,0.28730422,-9.442732,0.800085,47.682407,-1.0534698,-2.3198175,-3.2443132,-0.25609043,0.076170355,-0.21304953,24.8125,25.4375,24.625,26.5,26.75,27.0625
0.11805569,-0.09511448,-0.54480225,-0.9467654,-0.017989391,0.03489856,-0.07412874,-0.3923592,-0.3680274,0.059905197,-3.0784063,0.6249084,-0.00040451396,-0.053487804,0.00911955,0.00037737805,-6.0633607e-05,-0.00026923014,-0.003985294,0.50104666,-1.377402,1.8991145,-2.0905802,-1.5708417,2.476067,-0.0648903,0.07252095,-0.09105775,0.01873519,5.199101e-30,-0.060858835,0.038307227,0.36391866,-9.481039,0.77545905,47.701214,-1.1270622,-2.5212119,-3.2773275,-0.27093765,0.06675449,-0.24368668,24.8125,25.4375,24.625,26.5,26.75,27.0625
0.12005405,-0.8324444,-1.1305033,-0.8992237,-0.014431569,0.031285178,-0.06383258,-0.39246896,-0.36802092,0.059906036,-3.078455,0.62483954,-0.00037150664,-0.055137306,0.008581036,0.002921775,-0.0026343449,0.004422719,-0.00269009,0.5009267,-1.3772588,1.8989457,-2.0905926,-1.5708297,2.475898,-0.06549082,0.06979489,-0.093607314,0.018659856,3.394641e-31,-0.06275398,-0.05746084,0.2873042,-9.461885,0.8179876,47.704796,-1.1473509,-2.373725,-3.252779,-0.26699698,0.06609452,-0.2621922,24.8125,25.4375,24.625,26.5,26.75,27.0625
0.122054,-0.9075074,-1.1438298,-0.93972635,-0.020430656,0.051807813,-0.06156374,-0.39259258,-0.36801246,0.059903547,-3.0784607,0.6249363,-0.00038577334,-0.055027362,0.009069336,0.0015157557,-0.0009940023,0.0014307984,-0.0025740773,0.5007828,-1.3770776,1.8987311,-2.0905683,-1.5708054,2.4758139,-0.06618852,0.07259246,-0.09395535,0.01962391,2.2164581e-32,-0.063567236,-0.17238252,0.30645782,-9.404425,0.82022345,47.71286,-1.2562209,-2.360235,-3.2760715,-0.28739306,0.074563205,-0.26623467,24.8125,25.4375,24.625,26.5,26.75,27.0625
0.1240541,-0.8717703,-0.7198793,-1.0888958,-0.013366437,0.06581833,-0.06313856,-0.39269727,-0.36798006,0.059905797,-3.078459,0.6248978,-0.00037470274,-0.05538304,0.009230783,0.0015359751,-0.00080020796,0.0010773588,-0.0040663793,0.5006389,-1.3769573,1.8985752,-2.090532,-1.5708174,2.4756463,-0.06676974,0.07314524,-0.09482839,0.020346636,1.4471888e-33,-0.06265581,-0.22984336,0.2681506,-9.519346,0.7620334,47.711964,-1.2749751,-2.466778,-3.3983808,-0.2955404,0.0812679,-0.3142687,24.8125,25.4375,24.625,26.5,26.75,27.0625
0.12605418,-1.1814564,-0.6496805,-1.0357826,-0.0022045574,0.060035788,-0.06634892,-0.3928059,-0.3679569,0.059897196,-3.0784304,0.62490994,-0.00039309246,-0.056127127,0.008803321,0.0015780886,-0.0010205449,0.0014675233,-0.003406345,0.5005072,-1.3767887,1.898384,-2.090484,-1.5708297,2.4755259,-0.0667208,0.074704,-0.09676895,0.020279586,9.4491086e-35,-0.0632659,-0.21068975,0.15322891,-9.615114,0.784413,47.66271,-1.2799959,-2.3193438,-3.2681265,-0.3187932,0.07035507,-0.35564184,24.8125,25.4375,24.625,26.5,26.75,27.0625
0.1280545,-0.75060135,-0.35570943,-0.8551685,-0.0066577485,0.06121935,-0.06797302,-0.39291856,-0.3679504,0.05989874,-3.078456,0.6249348,-0.00045552154,-0.059410572,0.009151519,0.0030887641,-0.0030639146,0.005179667,-0.00458446,0.5003621,-1.37662,1.898167,-2.0904248,-1.5707816,2.475393,-0.070317484,0.07520723,-0.1006111,0.019384034,6.1695926e-36,-0.0656828,-0.30645782,0.13407528,-9.481039,0.78888994,47.661808,-1.2674024,-2.3804908,-3.3273847,-0.32510775,0.07803129,-0.36266133,24.8125,25.4375,24.625,26.5,26.75,27.0625
0.13005361,-1.1686505,-0.68520415,-0.95955825,0.0043083425,0.04973088,-0.07098772,-0.39302626,-0.36794412,0.059917185,-3.0784783,0.62488216,-0.00037702423,-0.058485053,0.009166245,0.0017640922,-0.0018309649,0.0029384927,-0.0068309424,0.50026673,-1.3764997,1.8979768,-2.0904005,-1.5708054,2.4752622,-0.06946904,0.07680686,-0.099458456,0.019188482,4.028303e-37,-0.06258808,-0.4213795,0.15322891,-9.500193,0.83589023,47.699425,-1.2518804,-2.3416798,-3.3419216,-0.32811028,0.06859855,-0.41460776,24.8125,25.4375,24.625,26.5,26.75,27.0625
0.13205394,-1.0113404,-0.1950356,-1.038867,-0.0024051012,0.05116291,-0.0696072,-0.3931625,-0.3679119,0.059911255,-3.0784569,0.6249147,-0.00040507104,-0.060571406,0.008448176,0.0029504243,-0.003560487,0.0060794377,-0.00574042,0.5000867,-1.376307,1.8977484,-2.0903418,-1.5708054,2.4751053,-0.07016292,0.07776926,-0.10310928,0.018291157,2.6301943e-38,-0.064370826,-0.36391866,0.095768064,-9.442732,0.7933669,47.64479,-1.3662655,-2.3096018,-3.3929439,-0.32713982,0.07116136,-0.44378075,24.8125,25.4375,24.625,26.5,26.75,27.0625
0.13405441,-1.3813189,-0.53011405,-1.1784121,0.013925601,0.04880373,-0.051894702,-0.3932909,-0.36788732,0.059916444,-3.0784457,0.62495023,-0.00035427263,-0.062230267,0.010159457,0.002842135,-0.0034589898,0.005864259,-0.0071366164,0.4999419,-1.3761507,1.8975457,-2.0903175,-1.5708297,2.4749842,-0.07455276,0.07814722,-0.10334294,0.018382423,1.5024987e-05,-0.06736438,-0.3256114,0.095768064,-9.557653,0.779936,47.703903,-1.2985888,-2.3156374,-3.2858553,-0.33721787,0.06999603,-0.4713028,24.8125,25.4375,24.625,26.4375,26.75,27.0625
0.13605429,-0.84581417,-0.11966141,-0.83395445,0.013752132,0.065073766,-0.06617307,-0.39341345,-0.36786395,0.059903555,-3.078464,0.62499005,-0.00036624912,-0.06259281,0.009294885,0.0029997267,-0.0036450925,0.0062275627,-0.0032656288,0.49977437,-1.3759819,1.8973774,-2.090329,-1.5708054,2.4748392,-0.073401056,0.079637624,-0.105553314,0.018695813,9.810243e-07,-0.07008258,-0.36391866,-0.019153614,-9.481039,0.8314132,47.689575,-1.2491418,-2.329897,-3.314305,-0.3297347,0.06050939,-0.4744776,24.8125,25.4375,24.625,26.4375,26.75,27.0625
0.13805416,-0.84287953,0.07716503,-0.8020982,0.011060463,0.07839955,-0.07264235,-0.3935546,-0.36787,0.059940696,-3.078533,0.62492424,-0.00026623678,-0.06382692,0.009481903,0.0032363806,-0.0039582495,0.00680599,0.00067884265,0.49965426,-1.3758378,1.8971137,-2.0902932,-1.5708054,2.4746695,-0.07482592,0.080703355,-0.107391104,0.018809646,6.405388e-08,-0.07545105,-0.40222588,0.05746084,-9.423578,0.7866488,47.683304,-1.4274023,-2.2115605,-3.2569475,-0.34788904,0.0856003,-0.46231306,24.8125,25.4375,24.625,26.4375,26.75,27.0625
0.14005436,-1.1380938,-0.1167354,-0.92673516,0.012967151,0.071609676,-0.066178374,-0.39368007,-0.36784488,0.05993502,-3.0785482,0.624905,-0.00033370953,-0.06443714,0.01011445,0.0025376882,-0.0031193274,0.005263257,0.0043909205,0.49947408,-1.3756567,1.8968982,-2.090233,-1.5707697,2.4744754,-0.076423295,0.082627684,-0.10825839,0.01951111,4.1822608e-09,-0.08075996,-0.3256114,0.095768064,-9.461885,0.7620334,47.637623,-1.3510163,-2.2559016,-3.332326,-0.3487872,0.07920502,-0.40327534,24.8125,25.4375,24.625,26.4375,26.75,27.0625
0.14205445,-0.92372185,-0.1713912,-0.82007074,0.0055549885,0.07335531,-0.07771995,-0.39380047,-0.3678099,0.059934292,-3.0784912,0.62487274,-0.00030403273,-0.06538694,0.010768573,0.0020308334,-0.002705423,0.004495158,0.0063222437,0.49934158,-1.3754879,1.8966831,-2.090161,-1.5708297,2.4743302,-0.078374095,0.08432133,-0.10914174,0.019568047,2.7307173e-10,-0.0846415,-0.34476504,0.05746084,-9.461885,0.8403672,47.664497,-1.273341,-2.35596,-3.4148278,-0.33957842,0.09978933,-0.40239894,24.8125,25.4375,24.625,26.4375,26.75,27.0625
0.1440547,-0.9713412,-0.66409236,-0.76404935,-0.002937134,0.070180245,-0.062383503,-0.39393786,-0.367804,0.059951447,-3.0785582,0.6247849,-0.0002457338,-0.0671205,0.011129213,0.0024491139,-0.0034265094,0.005813074,0.012999482,0.49919736,-1.3753314,1.8964556,-2.0901496,-1.5708174,2.4741228,-0.080547184,0.085226454,-0.11107071,0.01908975,1.7829634e-11,-0.093490906,-0.4213795,0.019153614,-9.385271,0.7911258,47.681515,-1.2960302,-2.2867723,-3.3527224,-0.32663235,0.073463455,-0.3333922,24.8125,25.4375,24.625,26.4375,26.75,27.0625
0.1460538,-1.3817155,-0.7759347,-0.84951323,0.0074155866,0.05996767,-0.06312011,-0.39407128,-0.36776286,0.059941944,-3.0785356,0.6248173,-0.00027627454,-0.06800708,0.011122427,0.002547366,-0.0035945137,0.006110924,0.014343031,0.49900535,-1.3751508,1.896252,-2.0901015,-1.5708174,2.473954,-0.08132182,0.0863801,-0.11271114,0.019234443,1.1641477e-12,-0.09560831,-0.5746084,0.19153613,-9.3661175,0.77545905,47.67614,-1.2313063,-2.248538,-3.4205744,-0.3347799,0.07761772,-0.28048995,24.8125,25.4375,24.625,26.4375,26.75,27.0625
0.14805377,-1.1826115,-0.5425451,-0.8156281,0.008151691,0.07016337,-0.06138307,-0.39420244,-0.36773747,0.059939053,-3.078538,0.62475806,-0.00026462626,-0.06868539,0.011150682,0.0024399355,-0.0035619105,0.006045411,0.017465854,0.4988496,-1.3749702,1.896036,-2.0900657,-1.5708297,2.473761,-0.08196512,0.08763208,-0.1139903,0.019333178,7.601053e-14,-0.09937377,-0.45968673,0.095768064,-9.442732,0.75084364,47.661808,-1.2741363,-2.234221,-3.3684826,-0.33983576,0.088854805,-0.22085918,24.8125,25.4375,24.625,26.4375,26.75,27.0625
0.15005429,-1.1236953,-0.84930575,-0.644723,0.014187086,0.0775025,-0.065842666,-0.39434752,-0.36772475,0.059962407,-3.0785887,0.6247503,-0.0002349175,-0.071142286,0.013525175,0.0015941573,-0.0029205498,0.004874165,0.013598776,0.4986796,-1.3748132,1.8957857,-2.090018,-1.5708054,2.47358,-0.08817772,0.08986279,-0.11468247,0.019132258,4.9629448e-15,-0.10171868,-0.47884035,0.11492168,-9.289502,0.8314132,47.67793,-1.1093439,-2.3630404,-3.4303627,-0.33809227,0.09485892,-0.18457487,24.8125,25.4375,24.625,26.4375,26.75,27.0625
0.15205367,-1.0850011,-0.5876128,-0.8164305,0.010417657,0.06684612,-0.05643609,-0.39448172,-0.36767575,0.05993513,-3.0785606,0.6246074,-0.00028138544,-0.071725614,0.012158377,0.0034185487,-0.004778545,0.008265645,0.016064212,0.49848896,-1.3745975,1.8955806,-2.0899699,-1.5708297,2.4733038,-0.08638693,0.08842319,-0.11714818,0.019168025,3.2404484e-16,-0.10239263,-0.38307226,0.095768064,-9.270349,0.7642693,47.66271,-1.2847098,-2.122367,-3.3174906,-0.32822645,0.072450474,-0.15655364,24.8125,25.4375,24.625,26.4375,26.75,27.0625
0.15405421,-1.1648728,-0.1446412,-0.64877766,0.00015848373,0.058556885,-0.059372153,-0.39462006,-0.367674,0.059961367,-3.0786405,0.62453043,-0.00022404037,-0.073146835,0.013523686,0.0011525843,-0.0029021157,0.004829319,0.010840368,0.49834368,-1.3744516,1.8953422,-2.089946,-1.5708054,2.4731004,-0.08995458,0.09373916,-0.11825554,0.018877408,2.1157814e-17,-0.10073516,-0.38307226,0.076614454,-9.289502,0.8179876,47.698532,-1.2089614,-2.2306898,-3.5085404,-0.34692723,0.08126771,-0.14907855,24.8125,25.4375,24.625,26.4375,26.75,27.0625
0.15605392,-0.75374424,-0.3635655,-0.6881923,0.0008976363,0.06168275,-0.058279783,-0.39478764,-0.3676384,0.059959035,-3.0786436,0.6246874,-0.00021980613,-0.074951425,0.014361661,0.0024824105,-0.004310944,0.0074231685,0.004421019,0.49811515,-1.3742483,1.8951033,-2.0899346,-1.5707816,2.4729695,-0.09297407,0.092093535,-0.119278066,0.01859655,1.3814542e-18,-0.097335175,-0.4213795,0.095768064,-9.3661175,0.74413085,47.689575,-1.0810239,-2.208692,-3.3956718,-0.31988826,0.07931721,-0.19064166,24.8125,25.4375,24.625,26.4375,26.75,27.0625
0.158054,-0.8977041,-0.24580999,-0.6990829,0.0071205813,0.0457183,-0.061443806,-0.39496946,-0.3675914,0.05998325,-3.078637,0.6247262,-0.000101107726,-0.07661662,0.014466046,0.0024106924,-0.0043517356,0.0075033316,-0.0013739279,0.49789914,-1.3740789,1.8948387,-2.0898979,-1.5708297,2.4727788,-0.094635256,0.09471331,-0.12231443,0.018919129,9.0199076e-20,-0.09319987,-0.28730422,0.1340753,-9.270349,0.84484416,47.6636,-0.9468279,-2.2350965,-3.4365892,-0.32112002,0.09395891,-0.2423619,24.8125,25.4375,24.625,26.4375,26.75,27.0625
0.1600542,-0.47870198,-0.14048198,-0.5863321,0.00046114868,0.05498571,-0.064667046,-0.39513335,-0.3675993,0.060012046,-3.0787134,0.624668,-1.404209e-05,-0.0787144,0.015057675,0.0026044047,-0.004810346,0.008354361,-0.0073371567,0.4977543,-1.3738861,1.8945388,-2.089874,-1.5708174,2.472588,-0.09751278,0.096458495,-0.124791525,0.018685875,5.889355e-21,-0.09011294,-0.28730422,0.17238252,-9.251195,0.82022345,47.63852,-0.9241641,-2.2988656,-3.3949838,-0.30101594,0.08904049,-0.30493605,24.8125,25.4375,24.625,26.4375,26.75,27.0625
0.16205369,-0.5452367,-0.12585892,-0.5630051,-0.0036366216,0.058340404,-0.07018352,-0.39525846,-0.3675631,0.05998768,-3.0786624,0.6246756,-7.541381e-05,-0.07997124,0.015129894,0.003511791,-0.005665127,0.009912671,-0.008458908,0.49758634,-1.37367,1.8943237,-2.089814,-1.5708297,2.4724314,-0.098753005,0.09627172,-0.12673159,0.01903431,3.8453276e-22,-0.09023076,-0.4405331,0.24899697,-9.232041,0.80679786,47.661808,-0.8425959,-2.1167102,-3.3447144,-0.27674282,0.08705071,-0.3188002,24.8125,25.4375,24.625,26.4375,26.75,27.0625
0.16405408,-0.5615509,-0.3832233,-0.8307964,0.005167509,0.06910533,-0.06692898,-0.39543536,-0.3675115,0.05998385,-3.0786464,0.6248065,-0.00011658592,-0.0812152,0.015318439,0.0025626048,-0.00468019,0.008092335,-0.00853837,0.4973225,-1.3734522,1.89406,-2.0897548,-1.5708054,2.4722514,-0.100161836,0.100409366,-0.12972149,0.019958453,2.5107243e-23,-0.091558434,-0.4213795,0.19153614,-9.289502,0.779936,47.70032,-0.81998,-2.4143455,-3.4408677,-0.30004245,0.09111746,-0.3421476,24.8125,25.4375,24.625,26.4375,26.75,27.0625
0.16605364,-1.506712,-0.8672862,-0.6257956,0.001838963,0.059093263,-0.062817365,-0.39557412,-0.36748528,0.0599858,-3.0786662,0.6247327,-4.946154e-05,-0.08111665,0.01593235,0.0028197186,-0.0047254744,0.0081916265,-0.008534101,0.4971664,-1.3732847,1.8938564,-2.0897543,-1.5708297,2.4720469,-0.10106439,0.09896524,-0.12866727,0.020237232,1.6393237e-24,-0.09246597,-0.45968673,0.17238252,-9.251195,0.7530795,47.68062,-0.8178463,-2.194536,-3.3956847,-0.28001547,0.115649566,-0.33982104,24.8125,25.4375,24.625,26.4375,26.75,27.0625
0.1680537,-1.0707043,-0.7756173,-0.5349755,-0.011581952,0.07590405,-0.060279783,-0.395747,-0.367451,0.059995536,-3.0786622,0.62475055,-5.138566e-05,-0.08307769,0.01563145,0.0020146808,-0.004365462,0.0075118775,-0.00962756,0.4969505,-1.3730667,1.893556,-2.089671,-1.5708297,2.4718428,-0.10231075,0.10407935,-0.13291684,0.020141926,1.0703611e-25,-0.09261643,-0.36391866,0.24899697,-9.212888,0.7732232,47.681515,-0.80883574,-2.4027157,-3.2713392,-0.26927105,0.088096604,-0.36293405,24.8125,25.4375,24.625,26.4375,26.75,27.0625
0.17005374,-1.0775924,-0.95035833,-0.66400474,-0.0075449585,0.07702239,-0.051900137,-0.39592442,-0.36744267,0.06000016,-3.0787027,0.6247958,-2.1361053e-05,-0.083786346,0.015325969,0.0033340692,-0.00562792,0.009847692,-0.008812481,0.49675894,-1.3728269,1.8932575,-2.089658,-1.5708054,2.4716744,-0.10239693,0.10256889,-0.13416623,0.020248901,6.988694e-27,-0.09351751,-0.34476504,0.24899697,-9.289502,0.7866488,47.67345,-0.8930553,-2.1146107,-3.3233004,-0.2469538,0.09419077,-0.3864007,24.8125,25.4375,24.625,26.4375,26.75,27.0625
0.1720537,-0.9896951,-1.0025989,-0.72405714,-0.00093126716,0.058324903,-0.06186091,-0.3960583,-0.36738878,0.05998353,-3.0786858,0.6248108,-0.00010590496,-0.08449757,0.014987389,0.0023173655,-0.004961144,0.0081650065,-0.009437353,0.49653134,-1.3726455,1.8930658,-2.089598,-1.5707816,2.4714584,-0.10257024,0.10651907,-0.13664675,0.020577932,0.00020865594,-0.09306477,-0.28730422,0.24899697,-9.289502,0.8179876,47.682407,-0.9092655,-2.3482974,-3.304559,-0.24626902,0.08755972,-0.39026132,24.8125,25.4375,24.625,26.4375,26.75,27.0625
0.1740538,-0.36591023,-0.26368836,-0.76552266,-0.0051691206,0.051568188,-0.063175306,-0.39624348,-0.36735258,0.05999091,-3.0786648,0.6248989,-5.435539e-05,-0.08528864,0.014210288,0.0029356075,-0.0057739303,0.009632944,-0.004580242,0.496316,-1.372417,1.8927664,-2.0895503,-1.5708054,2.4713008,-0.10194857,0.107283704,-0.13895224,0.020438423,0.00022269454,-0.09729925,-0.24899697,0.21068975,-9.289502,0.7777002,47.703903,-0.9647982,-2.308516,-3.1612742,-0.24368154,0.09288621,-0.42251492,24.8125,25.4375,24.625,26.4375,26.75,27.0625
0.17605366,-0.31711486,-0.36693692,-0.7631627,0.0033709563,0.03867863,-0.064558014,-0.39641163,-0.36732197,0.05997516,-3.0786755,0.6248806,-4.287361e-05,-0.08770215,0.015540164,0.002607724,-0.0056496365,0.009417631,-0.0043981653,0.49611095,-1.3721757,1.8925151,-2.0895503,-1.5708054,2.4710832,-0.106330566,0.1097843,-0.14120783,0.020441707,0.00021371082,-0.101862095,-0.28730422,0.28730422,-9.32781,0.82022345,47.677036,-0.84983605,-2.4177024,-3.1688066,-0.21223329,0.08692449,-0.37971285,24.8125,25.4375,24.625,26.4375,26.75,27.0625
0.17805423,-0.5123592,-0.4834312,-0.64983696,0.0013912794,0.029703347,-0.060851857,-0.39659372,-0.36730036,0.060005497,-3.0787296,0.6248082,2.8154593e-05,-0.08725627,0.014035886,0.0029344647,-0.0059316037,0.009969206,0.004590075,0.49590844,-1.3719833,1.8922037,-2.0894907,-1.5708054,2.4708288,-0.103344694,0.11060571,-0.14303301,0.020825826,0.0002041185,-0.10786368,-0.2681506,0.34476504,-9.232041,0.84708,47.711964,-1.0625457,-2.4142344,-3.1418343,-0.19973299,0.087304726,-0.34482425,24.8125,25.4375,24.625,26.4375,26.75,27.0625
0.18005425,-0.34791875,-0.5630028,-0.9235432,-0.0016189622,0.04564768,-0.064078145,-0.39677563,-0.3672653,0.059990846,-3.078705,0.6248787,3.710893e-05,-0.089124486,0.016097786,0.0024140566,-0.0051224637,0.008496254,0.006393322,0.49569094,-1.3717185,1.8919162,-2.0894659,-1.5708174,2.4706585,-0.10844864,0.112179935,-0.1439928,0.021890122,0.00019526627,-0.1147704,-0.11492168,0.30645782,-9.3661175,0.82022345,47.704796,-0.82736444,-2.3687038,-3.153663,-0.1909259,0.09847249,-0.2915202,24.8125,25.4375,24.625,26.4375,26.75,27.0625
0.18205445,-0.2313022,-0.64550596,-0.82311934,-0.010654156,0.04868026,-0.06724098,-0.39696807,-0.3672374,0.060010184,-3.078734,0.62487715,0.00011841298,-0.088440344,0.015631294,0.0020104416,-0.004429648,0.0071842456,0.014735578,0.49547625,-1.3715019,1.8916062,-2.08943,-1.5708297,2.4704394,-0.10700382,0.11315124,-0.14447904,0.022886565,0.00021958248,-0.12166766,-0.05746084,0.28730422,-9.346964,0.8112748,47.694946,-1.0563416,-2.4087472,-3.2122586,-0.18370003,0.09950934,-0.21270937,24.8125,25.4375,24.625,26.4375,26.75,27.0625
0.18405366,-0.060319725,-0.7450309,-0.79012537,-0.021752099,0.057357606,-0.064937584,-0.3971279,-0.36722583,0.06002839,-3.0787857,0.6247147,9.256725e-05,-0.08940509,0.015769467,0.0020539872,-0.004379757,0.0070981863,0.0154849645,0.49529606,-1.3712852,1.8912824,-2.0893223,-1.5708054,2.4701514,-0.10806554,0.11454933,-0.14640814,0.02351996,0.0002152793,-0.1234779,-0.076614454,0.22984336,-9.404425,0.7866488,47.681515,-1.0002178,-2.3404586,-3.1176174,-0.18886217,0.096497394,-0.13919163,24.8125,25.4375,24.625,26.4375,26.75,27.0625
0.18605438,-0.37154144,-0.9337752,-0.88406044,-0.024535842,0.048434135,-0.060840156,-0.39732146,-0.36716962,0.0600171,-3.0787883,0.6246921,0.000116940384,-0.09032813,0.0149403345,0.0028973424,-0.005235648,0.0086607495,0.018685179,0.49503285,-1.3710446,1.8910187,-2.08931,-1.5708174,2.469874,-0.10746424,0.11527811,-0.14930582,0.023905702,0.00022422054,-0.12607569,-0.095768064,0.17238252,-9.385271,0.84708,47.68062,-1.040596,-2.3493443,-3.255835,-0.18842965,0.094952986,-0.091317,24.8125,25.4375,24.625,26.4375,26.75,27.0625
0.18805452,-0.5135197,-0.84692985,-0.9595465,-0.017217575,0.03515657,-0.06197693,-0.39748636,-0.36713955,0.06000188,-3.0787885,0.6246006,0.00011204207,-0.09095081,0.016635612,0.0016646965,-0.004107668,0.0065594525,0.011087438,0.4948399,-1.3707923,1.8907446,-2.0892742,-1.5708297,2.469624,-0.11082874,0.11665662,-0.14813723,0.02374255,0.00023178154,-0.12184275,-0.038307227,0.19153613,-9.423578,0.85826975,47.72002,-0.85826105,-2.2742293,-3.3339334,-0.17452747,0.09919481,-0.10376568,24.8125,25.4375,24.625,26.4375,26.75,27.0625
0.19005387,-0.13129835,-0.5150518,-0.90780634,-0.012197253,0.031196356,-0.055865556,-0.39766544,-0.36710793,0.06000191,-3.0787888,0.6246585,4.392616e-05,-0.09043067,0.015490075,0.0017481787,-0.004392018,0.007094374,0.008804297,0.4946015,-1.3705395,1.8904217,-2.0891783,-1.5707935,2.4694219,-0.10837626,0.11712097,-0.14882089,0.023361046,0.00022455279,-0.11710682,-0.05746084,0.11492168,-9.385271,0.78888994,47.683304,-1.1153902,-2.43431,-3.423011,-0.14830294,0.091198444,-0.14818908,24.8125,25.4375,24.625,26.4375,26.75,27.0625
0.19205397,-0.36188754,-0.19763365,-0.79232967,-0.01223202,0.017724432,-0.059510656,-0.39788398,-0.36708978,0.060032245,3.078852,-0.62467456,-0.00019929199,-0.091529734,0.017659383,-0.0005221866,-0.0022641579,0.0032001615,-0.0005884001,0.49437237,-1.3703223,1.8900994,-2.0892026,-1.5707935,2.469195,-0.11294337,0.12103738,-0.14836669,0.023428593,0.00021688858,-0.112280816,-0.019153614,0.17238252,-9.461885,0.8605109,47.677036,-0.98906994,-2.2655346,-3.4845552,-0.123585835,0.10577947,-0.22384873,24.8125,25.4375,24.625,26.4375,26.75,27.0625
0.19405435,0.2601696,0.14444208,-0.90126944,0.0040584197,0.02616194,-0.06544358,-0.39804375,-0.367049,0.060012527,-3.0788167,0.6246104,0.00016368939,-0.09195291,0.016679173,0.0010779309,-0.0035564108,0.0055483184,-0.0030480954,0.49418122,-1.3700583,1.8898104,-2.0891182,-1.5708297,2.4689684,-0.11164728,0.11971795,-0.15067343,0.024371047,0.00023184349,-0.10852453,0.038307227,0.17238252,-9.404425,0.8224646,47.709274,-1.1433756,-2.359805,-3.3862016,-0.094021514,0.10161193,-0.2851055,24.8125,25.4375,24.625,26.4375,26.75,27.0625
0.19605368,0.07893019,0.205807,-1.0532043,0.015453171,0.01603428,-0.057857733,-0.3982328,-0.36701378,0.060017955,-3.0788162,0.62459093,0.00021247675,-0.0931395,0.01685125,0.0011575125,-0.0033922677,0.0052455314,-0.0064047724,0.4939652,-1.3698175,1.8895,-2.0890696,-1.5708536,2.4687405,-0.11295743,0.121531144,-0.15330519,0.025531873,0.0002314004,-0.106476866,0.019153614,0.095768064,-9.404425,0.7709874,47.705692,-1.1406412,-2.3164537,-3.5523763,-0.10470255,0.111564785,-0.33323735,24.8125,25.4375,24.625,26.4375,26.75,27.0625
0.19805402,0.22107127,-0.13764794,-1.0057315,0.017714199,0.02247266,-0.061434288,-0.39843538,-0.36697942,0.060022324,-3.0788543,0.62469584,0.0002319097,-0.09409885,0.01726527,0.0016560776,-0.0037057993,0.0056606224,-0.00913136,0.49370134,-1.3695773,1.889201,-2.0890577,-1.5708174,2.4685373,-0.11450865,0.121594265,-0.15473348,0.0263868,0.00031614126,-0.10530118,0.019153614,0.15322891,-9.461885,0.79560274,47.6636,-1.0592226,-2.2767062,-3.528006,-0.09525469,0.12139103,-0.37136334,24.8125,25.4375,24.625,26.4375,26.75,27.0625
0.20005473,0.71317756,0.2384276,-1.0333794,0.011871353,0.031365756,-0.072154514,-0.39859736,-0.36694556,0.060001012,-3.078801,0.6246845,0.00012792197,-0.09484681,0.017258283,0.001542155,-0.0034793683,0.0051228977,-0.010828285,0.49349764,-1.3692884,1.8888777,-2.0889375,-1.5708174,2.4683335,-0.115153275,0.123321,-0.15676878,0.027276294,0.00036138383,-0.10424807,-0.076614454,0.17238252,-9.500193,0.78217715,47.634937,-1.1337805,-2.1444364,-3.4514136,-0.07766292,0.11846752,-0.41823813,24.8125,25.4375,24.625,26.4375,26.75,27.0625
0.20205428,-0.11666907,-0.52100277,-1.101602,0.009992747,0.029836725,-0.057586037,-0.39878204,-0.36691824,0.060011256,-3.078852,0.62467563,0.00015921317,-0.09594007,0.01725363,0.0020305112,-0.0037104583,0.0055014133,-0.012718145,0.49326968,-1.3690715,1.8885902,-2.0889132,-1.5707935,2.4680936,-0.11609447,0.12429198,-0.1593186,0.028414963,0.00038892622,-0.10329845,-0.1340753,0.11492168,-9.557653,0.84484416,47.63136,-1.1154441,-2.3381479,-3.4156175,-0.07890758,0.11062592,-0.46926937,24.8125,25.4375,24.625,26.4375,26.75,27.0625
0.20405445,-0.19616455,-0.49232802,-1.0918889,-0.006655913,0.050645813,-0.06792156,-0.39897916,-0.36688587,0.060024973,3.0788274,-0.6247653,-0.00017370081,-0.096240945,0.01823859,9.887766e-05,-0.0015858319,0.0014942196,-0.012111158,0.49302953,-1.3688302,1.888255,-2.0888417,-1.5707816,2.4679127,-0.11797457,0.1283224,-0.1600451,0.029647775,0.00041934146,-0.10578482,-0.15322891,0.15322891,-9.576807,0.84708,47.72002,-1.1045843,-2.2467513,-3.4415464,-0.085759014,0.10794684,-0.49428266,24.8125,25.4375,24.625,26.4375,26.75,27.0625
0.20605388,-1.120039,-1.327092,-1.2131362,0.0033602905,0.047894705,-0.056967746,-0.39915225,-0.36683643,0.060016826,-3.078842,0.62472713,0.00012712806,-0.09757579,0.018095322,0.0017333288,-0.0030795322,0.003411925,-0.009608255,0.4927897,-1.3685902,1.887968,-2.0887568,-1.5707811,2.4676473,-0.1191334,0.12729862,-0.16290091,0.031129738,0.00082199805,-0.10944639,-0.21068975,0.19153613,-9.557653,0.8179876,47.67166,-1.1347487,-2.2270038,-3.4299502,-0.09777498,0.10853849,-0.4924419,24.8125,25.4375,24.625,26.4375,26.75,27.0625
0.2080541,-1.1169316,-0.51973456,-1.0701927,-0.024169285,0.07085406,-0.070535384,-0.39933497,-0.36680442,0.060010552,-3.0787983,0.6247694,0.00011966839,-0.0987794,0.018600935,0.0014271967,-0.0029030365,0.0027846706,-0.001701148,0.49258548,-1.3683134,1.8876327,-2.0886729,-1.570805,2.4674752,-0.121096395,0.12925701,-0.16467766,0.03158062,0.0009586994,-0.11931584,-0.24899697,0.30645782,-9.615114,0.8627467,47.688675,-1.0407823,-2.3241358,-3.4513466,-0.07663161,0.09925148,-0.4244299,24.8125,25.4375,24.625,26.4375,26.75,27.0625
0.2100541,-0.7745062,-0.9384671,-1.1910107,-0.02976485,0.096601665,-0.07170937,-0.39954132,-0.36677697,0.060022023,-3.0788376,0.6247738,0.00016337736,-0.10070364,0.018304357,0.002413952,-0.0037539017,0.004373429,0.0042819367,0.49234554,-1.3680606,1.8872966,-2.0886362,-1.570793,2.4672332,-0.12227122,0.13064042,-0.16881646,0.032535054,0.00095771253,-0.12647206,-0.34476504,0.19153613,-9.557653,0.87393653,47.689575,-1.0434558,-2.2083797,-3.3976216,-0.07508618,0.10913201,-0.38924712,24.8125,25.4375,24.625,26.4375,26.75,27.0625
0.2120542,-0.92222077,-0.88051254,-0.99017346,-0.027410163,0.10105778,-0.070181794,-0.3997429,-0.36673638,0.060015913,-3.0788267,0.6247675,8.0759484e-05,-0.10207324,0.019861817,0.0016320457,-0.0029529608,0.002884858,0.009491477,0.4920807,-1.3677613,1.886926,-2.088517,-1.5707692,2.466966,-0.12604174,0.13252181,-0.169416,0.0329466,0.00095039833,-0.13545175,-0.4405331,0.24899697,-9.5385,0.82694155,47.675243,-1.0013828,-2.3893366,-3.308147,-0.074520275,0.11426064,-0.28719893,24.8125,25.4375,24.625,26.4375,26.75,27.0625
0.21405442,-1.2767484,-1.0452856,-1.0837024,-0.02066044,0.10230901,-0.061073463,-0.39997315,-0.36669955,0.060051877,3.0788226,-0.6246451,-0.00021978866,-0.10191614,0.017946444,0.0020681308,-0.0036668617,0.004124395,0.017929468,0.49181852,-1.3675431,1.8865784,-2.088493,-1.5707811,2.466628,-0.12265294,0.13382223,-0.17193674,0.03273549,0.0010043462,-0.1404998,-0.57460845,0.24899697,-9.519346,0.7933669,47.703903,-1.104247,-2.2015886,-3.2476754,-0.077285886,0.09027694,-0.23322195,24.8125,25.4375,24.625,26.4375,26.75,27.0625
0.21605374,-2.0481343,-1.2561173,-1.1436752,-0.0036619427,0.079777196,-0.052243162,-0.40019318,-0.36666268,0.060059845,3.0788133,-0.62462366,-0.00027303785,-0.104013324,0.019023137,0.0022479298,-0.0039961664,0.004747773,0.016760102,0.49156564,-1.3672664,1.8862189,-2.088445,-1.570793,2.4663632,-0.12627186,0.13505858,-0.17384845,0.032704435,0.0010027955,-0.14294848,-0.7086837,0.24899697,-9.500193,0.84484416,47.678825,-0.9919493,-2.048903,-3.306992,-0.05777537,0.09702188,-0.17296888,24.8125,25.4375,24.625,26.4375,26.75,27.0625
0.21805398,-1.9266603,-1.0417548,-0.9765561,-0.004511109,0.08541402,-0.057071496,-0.40039048,-0.36664507,0.06006832,3.0788136,-0.62454456,-0.0002716431,-0.10453517,0.017880838,0.0011180122,-0.0033975104,0.0035077496,0.01743886,0.49135092,-1.3669881,1.8858484,-2.088362,-1.5707811,2.4660993,-0.12479959,0.13982935,-0.17695037,0.03241327,0.001055019,-0.14215316,-0.7278373,0.22984336,-9.500193,0.80679786,47.67166,-1.1710417,-2.265366,-3.2886367,-0.04881139,0.101867154,-0.14657526,24.8125,25.4375,24.625,26.4375,26.75,27.0625
0.22005428,-1.2346562,-0.42881593,-0.6960157,-0.007914588,0.10110396,-0.059027027,-0.40061665,-0.36658874,0.06006111,3.0788298,-0.62453324,-0.000332416,-0.104932256,0.018751271,3.6255406e-05,-0.0025000265,0.0017485047,0.008132381,0.49107492,-1.3666997,1.8855146,-2.0883377,-1.5708169,2.4658144,-0.12656341,0.14168014,-0.1767171,0.03229971,0.0010962209,-0.13461041,-0.7852981,0.28730422,-9.289503,0.8560339,47.68062,-1.1914433,-2.244296,-3.339932,-0.05218603,0.10376606,-0.21332888,24.8125,25.4375,24.625,26.4375,26.75,27.0625
0.22205481,-1.2014211,0.029803593,-0.6880279,-0.008472926,0.090329185,-0.06308981,-0.40083262,-0.36657742,0.060079206,3.078771,-0.6245435,-0.0003773376,-0.10556084,0.01947549,0.0001452628,-0.0021963709,0.0011302272,0.002326231,0.49084684,-1.3664229,1.8851317,-2.088289,-1.570793,2.4656003,-0.12828653,0.14192553,-0.17759289,0.033622287,0.0011283146,-0.13052717,-0.6512228,0.2681506,-9.289502,0.91198283,47.65912,-1.1352303,-2.418346,-3.3691268,-0.021234803,0.09100283,-0.25193307,24.8125,25.4375,24.625,26.4375,26.75,27.0625
0.22405365,-1.37935,-0.30247492,-0.6026685,-0.0031157706,0.07611153,-0.06069462,-0.40105048,-0.36651906,0.06009406,3.07882,-0.6244568,-0.00043640737,-0.10552067,0.020151101,-0.0018214802,8.926202e-05,-0.0031111795,-0.0003842513,0.49058288,-1.3661689,1.8847727,-2.0881932,-1.5708412,2.4652762,-0.12930043,0.14608325,-0.17847928,0.035163388,0.0011135121,-0.12882976,-0.5363012,0.21068975,-9.3661175,0.80456203,47.689575,-1.0775157,-2.431473,-3.377652,-0.05045625,0.095018186,-0.3222301,24.8125,25.4375,24.625,26.4375,26.75,27.0625
0.22605433,-1.2470769,-0.60906756,-0.47304928,-0.0020300983,0.064896606,-0.054458607,-0.40127334,-0.3664811,0.06009331,3.0787625,-0.6245033,-0.0003764735,-0.1078076,0.021701977,-0.0006548351,-0.0008739078,-0.0012461079,-0.004481497,0.49028206,-1.3658713,1.8844022,-2.0881212,-1.5707811,2.4650118,-0.13384542,0.1449319,-0.17990075,0.035645638,0.0010823685,-0.12927724,-0.61291564,0.05746084,-9.270349,0.83365434,47.668976,-1.0782335,-2.358086,-3.4196086,-0.026063442,0.089068174,-0.34325325,24.8125,25.4375,24.625,26.4375,26.75,27.0625
0.22805364,-1.5059727,-0.14726608,-0.239769,0.0060797497,0.05644274,-0.044535093,-0.40148178,-0.3664377,0.0600614,3.0787387,-0.62461203,-0.00031844885,-0.10755645,0.020994216,-0.0011323638,-0.00047427826,-0.0019721983,-0.0034089384,0.49000722,-1.3655446,1.8840784,-2.0880969,-1.5707568,2.464808,-0.13235126,0.14668955,-0.18100385,0.03582349,0.0010656395,-0.12885508,-0.45968673,-0.019153614,-9.136273,0.83589023,47.66539,-1.0639553,-2.3181121,-3.4698787,-0.012946818,0.09425902,-0.36788487,24.8125,25.4375,24.625,26.4375,26.75,27.0625
0.23005374,-0.8253512,0.42525285,-0.10463478,0.023922341,0.06408781,-0.0543449,-0.4017078,-0.36639404,0.060078226,3.0787172,-0.6246063,-0.00035911278,-0.10857864,0.021135652,-0.00012955157,-0.0007848321,-0.0013581712,-0.0037705263,0.48973134,-1.3652802,1.8837074,-2.0880244,-1.5707568,2.4645314,-0.13341698,0.1465848,-0.1836603,0.037897233,0.0010540502,-0.12955841,-0.36391866,-0.1340753,-9.002198,0.8493211,47.666286,-1.0097439,-2.2449489,-3.4314182,-0.032163773,0.10007075,-0.3845508,24.8125,25.4375,24.625,26.4375,26.75,27.0625
0.23205431,-0.40948376,1.0319657,0.2618234,0.046450246,0.053815518,-0.06323382,-0.40194523,-0.36634025,0.060095776,3.0786998,-0.6246382,-0.00043797572,-0.10946259,0.021770382,-0.0006583045,8.640706e-05,-0.0029286786,-0.0016696488,0.48944345,-1.3650151,1.8833369,-2.0879643,-1.5707811,2.4642658,-0.13517256,0.14882688,-0.18549067,0.03927845,0.0010295558,-0.13341394,-0.22984336,-0.095768064,-8.887277,0.9254084,47.674347,-1.077724,-2.3879783,-3.3512712,-0.027893644,0.096794136,-0.39174914,24.8125,25.4375,24.625,26.4375,26.75,27.0625
0.23405369,-0.39710888,1.4704938,0.14265776,0.06254358,0.021471852,-0.056134712,-0.40220305,-0.36631233,0.060112275,3.0786731,-0.62462723,-0.00054904394,-0.11020925,0.021157475,-0.00035063442,0.0004438474,-0.003542584,0.005015927,0.48918036,-1.3646924,1.8829049,-2.0879276,-1.570805,2.4639995,-0.13471782,0.15105163,-0.18944846,0.041718256,0.001010995,-0.13964313,-0.05746084,-0.15322891,-8.7532015,0.88960326,47.716442,-1.1279856,-2.1646364,-3.2948158,-0.049528755,0.09638804,-0.33651218,24.8125,25.4375,24.625,26.4375,26.75,27.0625
0.23605372,0.67611337,1.6897479,0.1661584,0.061961364,0.024333626,-0.064474456,-0.40242296,-0.3662694,0.060112525,3.0786586,-0.6246188,-0.00054875447,-0.11130994,0.021279855,0.0014912684,-0.0005762376,-0.0016117907,0.012390819,0.4889044,-1.3644044,1.8825458,-2.0878665,-1.570793,2.4637203,-0.13582335,0.1492171,-0.1919647,0.043886937,0.001008216,-0.14812315,-0.019153614,-0.1340753,-8.734048,0.8224646,47.711063,-1.071235,-2.0669158,-3.309455,-0.06626712,0.10159063,-0.26508537,24.8125,25.4375,24.625,26.4375,26.75,27.0625
0.23805378,1.0614009,1.2259469,-0.05846576,0.06379761,0.014185391,-0.07056006,-0.40262586,-0.3662319,0.06010445,3.0787148,-0.6244513,-0.0004766283,-0.11179901,0.021463536,0.0014968573,-0.00056666683,-0.001622131,0.020322258,0.4886528,-1.364092,1.8821629,-2.0877469,-1.5707811,2.4633572,-0.13648702,0.1497948,-0.19276595,0.044125896,0.0009988508,-0.15671802,0.038307227,-0.15322891,-8.772355,0.82694155,47.668976,-1.1528454,-2.065558,-3.1974783,-0.04772851,0.09385292,-0.13847597,24.8125,25.4375,24.625,26.4375,26.75,27.0625
0.24005418,0.9827817,1.2247176,-0.29306924,0.039087772,0.005424386,-0.06248576,-0.40283462,-0.36616144,0.060086343,3.0787718,-0.6244418,-0.00034312732,-0.113027446,0.021439344,0.0025335683,-0.0006329398,-0.0014802176,0.02187134,0.48834103,-1.3637775,1.881792,-2.0875905,-1.5707692,2.4630325,-0.13744836,0.15054797,-0.19676514,0.047217835,0.0009738751,-0.1592272,0.095768064,-0.076614454,-8.944737,0.9186956,47.70211,-1.1800067,-2.0140393,-3.214472,-0.07481718,0.106747374,-0.08767368,24.8125,25.4375,24.625,26.4375,26.75,27.0625
0.24205375,0.5219811,-0.016331919,-0.5238866,0.03172354,0.0030907686,-0.05747833,-0.40307745,-0.36611077,0.06009785,3.0787845,-0.62440634,-0.00039029348,-0.11148967,0.022160133,0.000689021,0.002608558,-0.0073139844,0.019501584,0.48805413,-1.3634763,1.8813857,-2.087505,-1.570793,2.462722,-0.13712288,0.15312353,-0.19659245,0.051139474,0.00085800554,-0.15653184,-0.019153614,0.076614454,-9.097966,0.81351066,47.690468,-1.2083219,-2.0011632,-3.2622187,-0.14616567,0.10166092,-0.05967462,24.8125,25.4375,24.625,26.4375,26.75,27.0625
0.2440537,0.6576731,-0.1628463,-0.5859579,0.0012205968,0.026244143,-0.059956178,-0.40328667,-0.36605275,0.06008747,3.07883,-0.6243803,-0.0003434285,-0.11225429,0.022826413,0.0005431888,0.003476277,-0.0087533165,0.01238989,0.48777768,-1.3631774,1.8810266,-2.0873969,-1.570805,2.4624238,-0.13877864,0.15459892,-0.19856319,0.053312246,0.0007559316,-0.1510751,0.019153614,0.21068975,-9.155427,0.8493211,47.716442,-1.1159188,-2.0300946,-3.3014572,-0.19056898,0.118708745,-0.10499364,24.8125,25.4375,24.625,26.4375,26.75,27.0625
0.24605408,0.02776227,-1.2236148,-0.99219346,-0.011351102,0.041755076,-0.0481958,-0.40352985,-0.3659861,0.060094073,3.0788677,-0.6244509,-0.0003061411,-0.11447244,0.025078487,0.00021195128,0.004323469,-0.010203429,-0.0006000327,0.48746467,-1.3628525,1.8805841,-2.0872285,-1.5708297,2.4621503,-0.14437793,0.15633425,-0.20032042,0.05500983,0.0006748684,-0.14368369,0.038307227,0.30645782,-9.385271,0.8090337,47.677036,-1.0331535,-2.0478973,-3.2072601,-0.25326762,0.108091176,-0.16553468,24.8125,25.4375,24.625,26.4375,26.75,27.0625
0.24805427,0.06549236,-1.7611024,-1.2195761,-0.037890345,0.05724002,-0.050260533,-0.4037426,-0.3659412,0.06009138,3.0788534,-0.6245053,-0.00022141697,-0.11342937,0.024864482,-0.0021509335,0.0068392195,-0.014964821,-0.0033906584,0.48717776,-1.3625507,1.8802012,-2.087108,-1.5707935,2.4618993,-0.14301054,0.16098106,-0.20086126,0.056294817,0.0006731641,-0.13952494,0.038307227,0.38307226,-9.615114,0.81351066,47.67793,-1.093316,-2.0514078,-3.304764,-0.29028726,0.12666178,-0.2438529,24.8125,25.4375,24.625,26.4375,26.75,27.0625
0.25005442,-0.120845355,-1.8631656,-1.2557648,-0.06414225,0.051004227,-0.055103246,-0.40396014,-0.36587298,0.060080156,-3.0788646,0.6245874,0.00014368513,-0.115359195,0.025656603,-0.00028338243,0.0049291956,-0.011312458,-0.011003713,0.48687738,-1.3622375,1.8798188,-2.0869653,-1.5708054,2.461649,-0.14594093,0.15838805,-0.2019331,0.055837236,0.000633509,-0.13484235,-0.019153614,0.5554548,-9.672575,0.9097417,47.677036,-0.9827547,-2.0320272,-3.3583903,-0.32565832,0.12732868,-0.32582992,24.8125,25.4375,24.625,26.4375,26.75,27.0625
0.2520546,-0.5218614,-2.1793752,-1.3269182,-0.075545266,0.04397464,-0.053715024,-0.40417677,-0.36583954,0.06005552,-3.078849,0.62460357,5.9919406e-05,-0.11551663,0.02524209,-0.0018494254,0.005710961,-0.012616672,-0.0135710025,0.4866141,-1.3618778,1.8794245,-2.0868819,-1.5707816,2.461398,-0.14524849,0.16211413,-0.20253864,0.054239143,0.00053741457,-0.13158171,-0.05746084,0.53630114,-9.710882,0.8985519,47.675243,-0.96841455,-2.1870856,-3.340642,-0.34622347,0.128028,-0.3997651,24.8125,25.4375,24.625,26.4375,26.75,27.0625
0.2540538,-0.80077624,-2.2557204,-1.5523026,-0.060948357,0.05080334,-0.05037056,-0.4044204,-0.36579677,0.06009252,3.0788794,-0.6245716,-0.000113201946,-0.11548796,0.026093503,-0.0039014681,0.0074359844,-0.015874358,-0.016028645,0.4863261,-1.3616123,1.8789948,-2.0867622,-1.5707816,2.4610863,-0.1465544,0.16549183,-0.20189591,0.05390531,0.0005373794,-0.13042971,-0.05746084,0.4213795,-9.844957,0.7933669,47.707485,-0.9248135,-2.239193,-3.5458493,-0.37185413,0.12656263,-0.4777043,24.8125,25.4375,24.625,26.4375,26.75,27.0625
0.25605386,-0.46317714,-1.4335804,-1.3515215,-0.06038444,0.069674805,-0.06373985,-0.40464818,-0.36575043,0.0600768,-3.0788538,0.62462014,4.26766e-05,-0.11745105,0.02568591,-0.0043357443,0.005978249,-0.013258676,-0.014389452,0.48603895,-1.3612627,1.8785871,-2.0866563,-1.5707697,2.4608328,-0.14755541,0.16817826,-0.20319664,0.049527537,0.0005800636,-0.13306895,-0.11492168,0.45968673,-9.902418,0.8717007,47.698532,-1.1818092,-2.3494587,-3.4999762,-0.36671335,0.12264382,-0.5085567,24.8125,25.4375,24.625,26.4375,26.75,27.0625
0.25805408,-1.2447275,-1.6610568,-1.2491381,-0.043643266,0.06246233,-0.05388742,-0.4048872,-0.36568817,0.06006045,-3.0787838,0.6246558,3.991587e-05,-0.118529364,0.024530023,-0.005345443,0.005277837,-0.012691924,-0.0043564714,0.48575178,-1.3609113,1.8781809,-2.086561,-1.5708169,2.460577,-0.146699,0.1724179,-0.20539862,0.046653796,0.0009134425,-0.1422445,-0.11492168,0.45968673,-9.902418,0.842603,47.690468,-1.1752689,-2.3752291,-3.523749,-0.34564564,0.12102178,-0.48108786,24.8125,25.4375,24.625,26.4375,26.75,27.0625
0.2600543,-0.7832268,-1.2448037,-1.201424,-0.05017433,0.07802425,-0.06711237,-0.40514925,-0.3656464,0.0600619,-3.0788221,0.62469554,3.6665657e-05,-0.120202735,0.024503393,-0.003452884,0.0020820901,-0.0075241136,0.0056397934,0.4854277,-1.3605667,1.8777508,-2.0865028,-1.5707811,2.460273,-0.14828031,0.16940972,-0.20546149,0.043666564,0.0013210027,-0.15382305,-0.17238252,0.4405331,-9.653421,0.86945957,47.704796,-1.1252934,-2.2672596,-3.6627667,-0.312622,0.11373152,-0.37709022,24.8125,25.4375,24.625,26.4375,26.75,27.0625
0.26205426,-0.65303093,-1.4750302,-1.0028368,-0.035671722,0.073199056,-0.05825779,-0.40538317,-0.3655824,0.060044285,-3.0787942,0.62462586,1.3910136e-05,-0.1212532,0.024731955,-0.0041117575,0.0015832839,-0.00811458,0.014086731,0.4851279,-1.3602304,1.8773679,-2.0864189,-1.5708045,2.4599335,-0.14993171,0.17170283,-0.20656915,0.04276461,0.002024605,-0.1639218,-0.15322891,0.36391866,-9.615114,0.8157518,47.67345,-1.1106039,-2.327722,-3.6481843,-0.30801213,0.11755648,-0.27230334,24.8125,25.4375,24.625,26.4375,26.75,27.0625
0.2640537,-0.16761383,-0.31436983,-0.85818285,-0.03890787,0.057293773,-0.071686365,-0.4056313,-0.36556444,0.06007304,-3.0788648,0.62459916,7.548568e-05,-0.12430045,0.024263252,-0.003324305,-0.00041398214,-0.004523442,0.017434869,0.48486364,-1.3599293,1.8769249,-2.0863478,-1.5707806,2.4596438,-0.1518022,0.17412855,-0.21079643,0.04046218,0.002112858,-0.16913846,-0.17238252,0.24899697,-9.557653,0.8493211,47.704796,-1.0402539,-2.2957845,-3.628836,-0.28394428,0.10046628,-0.17997462,24.8125,25.4375,24.625,26.4375,26.75,27.0625
0.26605424,-0.59932715,-0.3797355,-0.467911,-0.025333948,0.04493599,-0.059910774,-0.4059056,-0.36553177,0.06005873,3.07889,-0.6244491,-6.767582e-05,-0.12808245,0.023336966,-0.0011013133,-0.003944526,0.002680721,0.016702777,0.48455185,-1.3595217,1.8764571,-2.0863016,-1.5707568,2.4592354,-0.1533342,0.17450824,-0.21553719,0.03680967,0.0018633796,-0.16993615,-0.4405331,0.21068975,-9.481039,0.81351066,47.67345,-1.0371532,-2.377427,-3.5640802,-0.23391438,0.10063955,-0.13650781,24.8125,25.4375,24.625,26.4375,26.75,27.0625
0.2680544,-0.713646,0.035522517,-0.5051435,-0.0028294306,0.053329326,-0.057352554,-0.4061511,-0.36548215,0.060062293,3.0788848,-0.6243925,-9.715742e-05,-0.13024835,0.02310176,0.00019749367,-0.005913723,0.006656647,0.011733548,0.48425207,-1.3592104,1.8760613,-2.086242,-1.5707568,2.4589012,-0.15468201,0.17437407,-0.21794473,0.034917086,0.001750669,-0.1663137,-0.49799395,0.095768064,-9.3661175,0.78888994,47.678825,-1.0272073,-2.179212,-3.3736775,-0.20204243,0.094891444,-0.17209366,24.8125,25.4375,24.625,26.4375,26.75,27.0625
0.27005363,-0.68471956,0.70068616,-0.63023466,0.014347375,0.07245366,-0.05802348,-0.40642354,-0.36543426,0.060079355,3.078828,-0.624422,-0.00013210137,-0.13105898,0.022774238,0.00059284345,-0.006261115,0.00749077,0.00346594,0.48391706,-1.3588864,1.8756169,-2.0861704,-1.570733,2.458592,-0.15468897,0.17528498,-0.2200569,0.03522338,0.001676198,-0.1580521,-0.5363012,0.095768064,-9.423578,0.92764956,47.717335,-1.1427441,-2.2002914,-3.4365978,-0.1591369,0.09735344,-0.2561661,24.8125,25.4375,24.625,26.4375,26.75,27.0625
0.27205372,-0.9965687,0.78408086,-0.43500894,0.015883645,0.087009735,-0.06793802,-0.4066757,-0.36538363,0.060075313,3.078839,-0.62442446,-0.00013911376,-0.1314927,0.022247523,-0.00015217187,-0.0056700516,0.005834051,0.0011267075,0.48361772,-1.3585373,1.8751873,-2.086086,-1.5707453,2.458293,-0.15423925,0.17870726,-0.2227718,0.03625542,0.0019216547,-0.15526217,-0.5554548,-0.019153614,-9.423578,0.8985519,47.67614,-1.1420956,-2.0876167,-3.3597102,-0.1454527,0.09647988,-0.32325593,24.8125,25.4375,24.625,26.4375,26.75,27.0625
0.27405393,-1.2410387,0.40000796,-0.41571134,0.009354857,0.10457566,-0.06904084,-0.40694323,-0.36536562,0.06009459,3.0787551,-0.62442714,-0.00020361393,-0.13301803,0.022141425,0.0016628437,-0.0081217205,0.008007646,-0.001867795,0.48332942,-1.3582019,1.8747319,-2.0860498,-1.5707086,2.458017,-0.15600803,0.177267,-0.22545014,0.037312187,0.0030939302,-0.15403725,-0.63206923,0.0,-9.3661175,0.8537928,47.71286,-1.04826,-2.1343837,-3.4200165,-0.1503951,0.08594015,-0.3623313,24.8125,25.4375,24.625,26.4375,26.75,27.0625
0.27605402,-1.6092801,0.42912844,-0.38626185,0.0010231414,0.096440904,-0.062273145,-0.40717146,-0.3653025,0.06006814,3.0788388,-0.6243635,-9.8061326e-05,-0.13324933,0.021794533,0.0021392512,-0.008619699,0.008150866,-0.0005536905,0.48303044,-1.3578303,1.8743123,-2.0859058,-1.5707206,2.457668,-0.1557552,0.17737284,-0.2269555,0.03835156,0.0034561018,-0.15509897,-0.61291564,-0.038307227,-9.442732,0.8403672,47.696735,-1.1774218,-2.0390048,-3.438817,-0.1280662,0.06425498,-0.364587,24.8125,25.4375,24.625,26.4375,26.75,27.0625
0.2780543,-1.6067572,0.14216329,-0.5786035,-0.002301515,0.090600535,-0.07607262,-0.40745634,-0.36524984,0.060070813,3.0788207,-0.6244329,-0.00016390944,-0.13320833,0.022584522,0.001583246,-0.0074852654,0.0064803683,0.0028583251,0.48270682,-1.3574585,1.873845,-2.0858452,-1.5707449,2.4573903,-0.15678404,0.17808215,-0.2268847,0.03957607,0.0032393455,-0.15953955,-0.47884035,0.019153614,-9.385271,0.9030289,47.672558,-1.2921948,-1.9806769,-3.396699,-0.12872243,0.051256415,-0.3849882,24.8125,25.4375,24.625,26.4375,26.75,27.0625
0.28005436,-1.7626826,-0.22614507,-0.503816,0.00447912,0.079746485,-0.05907981,-0.40773237,-0.3652177,0.060101807,3.07877,-0.62435955,-0.00022590469,-0.13468342,0.021347322,0.002691464,-0.008301693,0.009107151,0.010197137,0.48239574,-1.3571345,1.8733658,-2.0857613,-1.5707206,2.45704,-0.15560135,0.17959748,-0.23132437,0.03980175,0.002750316,-0.16569315,-0.45968673,-0.038307227,-9.442732,0.90750587,47.667187,-1.3048539,-2.0085473,-3.382974,-0.10101119,0.068621695,-0.32193223,24.8125,25.4375,24.625,26.4375,26.75,27.0625
0.28205445,-0.985057,0.22102083,-0.5095115,0.012225275,0.08049749,-0.07568367,-0.40799916,-0.36516786,0.06008056,3.0787733,-0.6243357,-0.00019711263,-0.1359671,0.023055168,0.0006429575,-0.0059545734,0.005823399,0.016345829,0.4820711,-1.3567374,1.8729223,-2.0857017,-1.5707086,2.4567003,-0.15912014,0.18414737,-0.23232572,0.040256448,0.0021954486,-0.17535907,-0.47884035,-0.1340753,-9.461885,0.9679317,47.64927,-1.1905863,-1.962415,-3.405007,-0.08752686,0.065929845,-0.2419643,24.8125,25.4375,24.625,26.4375,26.75,27.0625
0.28405377,-0.35787287,1.0509527,-0.5853163,0.02436968,0.06991106,-0.07268485,-0.40830234,-0.36511812,0.060123842,3.0787117,-0.62430066,-0.00032641407,-0.13657153,0.02456722,-0.00018911286,-0.004835108,0.00422706,0.020914635,0.48172256,-1.356425,1.8724316,-2.0856297,-1.5707091,2.456338,-0.16189905,0.18516816,-0.23180757,0.040652953,0.001968621,-0.18270646,-0.28730422,-0.1340753,-9.423578,0.842603,47.694946,-1.0972353,-2.036549,-3.444846,-0.0654536,0.07321128,-0.12456007,24.8125,25.4375,24.625,26.4375,26.75,27.0625
0.28605464,0.025061475,1.0142621,-0.5316071,0.021782624,0.057664365,-0.071373664,-0.4085554,-0.36505622,0.060096942,3.0787644,-0.6242514,-0.00030304413,-0.13671537,0.024337145,-0.0009311595,-0.0038070723,0.0028971883,0.022601683,0.4814121,-1.3560407,1.8720134,-2.0855577,-1.570733,2.4559903,-0.16134827,0.18771598,-0.23342396,0.041373894,0.0016665282,-0.18384166,-0.28730422,-0.05746084,-9.481039,0.8493211,47.67614,-1.2559296,-2.1577432,-3.5562618,-0.04891307,0.04910878,-0.07179961,24.8125,25.4375,24.625,26.4375,26.75,27.0625
0.28805405,-0.6528552,-0.21242586,-0.58313876,0.032131113,0.030287191,-0.05760297,-0.40883747,-0.36501735,0.06009637,3.078768,-0.62423444,-0.0003007918,-0.13729253,0.024217363,-0.0012901735,-0.0031437394,0.0018001045,0.018106502,0.48110035,-1.3556318,1.8714975,-2.0854495,-1.570733,2.4556677,-0.16148265,0.19010057,-0.2358539,0.042699765,0.0015839083,-0.17947976,-0.2681506,0.095768064,-9.3661175,0.8403672,47.655537,-1.3032393,-2.2584584,-3.4857135,-0.055096865,0.06921902,-0.08711025,24.8125,25.4375,24.625,26.4375,26.75,27.0625
0.29005456,-0.36913073,-0.41860765,-0.55226845,0.011502953,0.034217376,-0.056023803,-0.40912113,-0.3649688,0.060106732,3.0787375,-0.624154,-0.00035827124,-0.13742681,0.024593234,-0.0020125336,-0.0018516296,-0.00015640976,0.01149596,0.48076406,-1.3552835,1.8710431,-2.0854008,-1.570721,2.4552853,-0.16196093,0.19210653,-0.23703633,0.044212125,0.0013533686,-0.17334664,-0.24899697,0.17238252,-9.308657,0.90750587,47.690468,-1.3462903,-2.2746263,-3.5413501,-0.03382455,0.08221766,-0.15344948,24.8125,25.4375,24.625,26.4375,26.75,27.0625
0.2920537,-0.06645784,-0.36009496,-0.50093687,-0.022289634,0.04421148,-0.07045214,-0.40942672,-0.3649342,0.060143694,3.0786843,-0.6241478,-0.00045921607,-0.13939033,0.025084745,-0.0013176728,-0.002088412,0.0005027443,0.0022050664,0.48043936,-1.3549234,1.8705033,-2.0853045,-1.570721,2.4549637,-0.16430895,0.19347844,-0.24068655,0.04579729,0.001266283,-0.1664023,-0.1340753,0.24899697,-9.3661175,0.842603,47.66987,-1.3613377,-2.2334921,-3.4697924,-0.043216478,0.06607558,-0.26739365,24.8125,25.4375,24.625,26.4375,26.75,27.0625
0.29405424,-0.029601209,-1.0443454,-0.5778822,-0.043740653,0.040782947,-0.07171711,-0.40969938,-0.36485332,0.060109403,3.0787048,-0.6243099,-0.00035640353,-0.14058991,0.025991248,-0.0020595393,-0.0009255209,-0.001374111,-0.006214525,0.48006663,-1.354503,1.870047,-2.0851848,-1.570721,2.4546897,-0.16662902,0.1964022,-0.24295792,0.047347847,0.0010849137,-0.16030166,-0.019153614,0.24899697,-9.423578,0.88960326,47.716442,-1.2671518,-2.1638672,-3.3801389,-0.044923224,0.07036636,-0.3206988,24.8125,25.4375,24.625,26.4375,26.75,27.0625
0.29605433,-0.20298629,-1.3494323,-0.22231701,-0.05085813,0.02212045,-0.061569326,-0.40995857,-0.36479193,0.06011528,3.0787377,-0.6242438,-0.00037839197,-0.14184135,0.027819978,-0.0012744942,-0.0011281727,-0.0006754051,-0.014496216,0.4797532,-1.3541679,1.869605,-2.0850766,-1.5707453,2.4543312,-0.17055866,0.19452335,-0.24274586,0.04829844,0.0009430426,-0.15595001,-0.05746084,0.47884035,-9.251195,0.8403672,47.682407,-1.2076886,-2.0665407,-3.503539,-0.04570686,0.0730545,-0.42494607,24.8125,25.4375,24.625,26.4375,26.75,27.0625
0.29805386,-0.039599936,-1.1029817,-0.3150013,-0.044903006,0.018720202,-0.06880446,-0.4102515,-0.3647527,0.060119547,3.0786781,-0.62432605,-0.00039718114,-0.14312312,0.026722368,-0.00014119309,-0.0024360307,0.0020717036,-0.013358889,0.4794178,-1.3537723,1.8691014,-2.0850046,-1.570721,2.4540548,-0.16964756,0.19523233,-0.2461683,0.047976002,0.00083363504,-0.15617493,-0.095768064,0.4213795,-9.270349,0.85826975,47.668976,-1.2382895,-2.0713155,-3.4868574,-0.0072238185,0.074598834,-0.4840103,24.8125,25.4375,24.625,26.4375,26.75,27.0625
0.3000542,0.086667724,-0.6384347,-0.32780486,-0.03416311,0.028609881,-0.074725665,-0.4105329,-0.3647031,0.0601283,3.0786946,-0.62426734,-0.00044883558,-0.14415209,0.027412565,-0.00020505892,-0.0022881783,0.0021198362,-0.0079122465,0.47910532,-1.3534001,1.8686107,-2.0849087,-1.5707458,2.4537039,-0.17147468,0.19611697,-0.2471943,0.04814007,0.0006855626,-0.16344818,0.038307227,0.38307226,-9.346964,0.9298854,47.65106,-1.1708608,-2.0657685,-3.486309,-0.0020715168,0.09400247,-0.48959482,24.8125,25.4375,24.625,26.4375,26.75,27.0625
0.30205464,-0.2735137,-0.63325894,-0.24004933,-0.023586841,0.028017888,-0.073754996,-0.41084307,-0.3646616,0.060127713,3.078653,-0.62425387,-0.00044029282,-0.14572239,0.027878948,9.1868395e-05,-0.002141374,0.0021377043,0.0010076516,0.47874445,-1.3529679,1.868071,-2.0848243,-1.5707096,2.45334,-0.17338966,0.19780907,-0.25032777,0.049640667,0.0005527676,-0.1742818,0.038307227,0.28730422,-9.308656,0.91198283,47.666286,-1.1291019,-1.9796135,-3.409059,0.004880293,0.0990329,-0.38963062,24.8125,25.4375,24.625,26.4375,26.75,27.0625
0.3040538,-0.44116187,-0.3293066,-0.12348206,-0.016260037,0.031654734,-0.071522355,-0.4111218,-0.36458892,0.06011766,3.0786772,-0.62431026,-0.00043088125,-0.14724283,0.028156398,-0.0005469706,-0.0014683258,0.0007715308,0.010861297,0.4783959,-1.3525827,1.8676041,-2.084716,-1.5707334,2.453024,-0.17505884,0.20164286,-0.25385508,0.050853312,0.000579967,-0.18580307,-0.076614454,0.28730422,-9.193734,0.82022345,47.698532,-1.0801767,-2.0838985,-3.3407087,-0.0023684534,0.07715777,-0.25179037,24.8125,25.4375,24.625,26.4375,26.75,27.0625
0.30605417,-0.10708875,0.4908408,0.02613175,-0.01637864,0.05112017,-0.07955968,-0.41142046,-0.36453357,0.06013485,3.0786388,-0.6242817,-0.00042380826,-0.14822188,0.029745234,-0.00058146066,-0.00083151663,-0.0005942902,0.013528259,0.4780229,-1.3522111,1.8670892,-2.0845964,-1.5706977,2.4526381,-0.17844936,0.20192704,-0.25464395,0.05287093,0.00065311743,-0.19186056,-0.3256114,0.30645782,-9.212888,0.8314132,47.67345,-1.0598437,-1.8841796,-3.4109507,-0.005922879,0.08154129,-0.17178878,24.8125,25.4375,24.625,26.4375,26.75,27.0625
0.30805415,-0.99796283,-0.06690355,-0.23901536,0.0050946563,0.0364865,-0.06951094,-0.4117146,-0.36449543,0.060152914,3.0786452,-0.6241473,-0.00049033074,-0.14729713,0.02919271,-0.00042848682,-0.00038096687,-0.0023607917,0.014600864,0.47771132,-1.3518273,1.8665622,-2.0844991,-1.5707091,2.4522421,-0.1768522,0.20205264,-0.25585997,0.05573394,0.001077688,-0.19133626,-0.24899697,0.28730422,-9.174581,0.8224646,47.67614,-1.113221,-1.9926809,-3.5646656,-0.022315271,0.07205336,-0.14584562,24.8125,25.4375,24.625,26.4375,26.75,27.0625
0.31005433,-0.23874462,0.27709544,0.06736244,-0.010034201,0.072788335,-0.084694564,-0.4119879,-0.36442277,0.060105566,3.0787003,-0.62416255,-0.00031770964,-0.14757836,0.029451171,-0.0008729116,0.0006244424,-0.00498041,0.0071948264,0.47733927,-1.3513592,1.8660711,-2.0843546,-1.5706853,2.4518728,-0.17756589,0.20431198,-0.2583584,0.058765393,0.001363671,-0.18464348,-0.40222588,0.13407528,-9.289502,0.8985519,47.70032,-1.0826137,-2.017102,-3.4840727,-0.06724294,0.08050852,-0.20210415,24.8125,25.4375,24.625,26.4375,26.75,27.0625
0.3120545,-1.4764862,-0.33401734,0.13146302,0.005192858,0.050431635,-0.072067715,-0.4123144,-0.36437583,0.060148247,3.0786488,-0.6241552,-0.00041603917,-0.14789659,0.03048228,-0.0017550184,0.0015485096,-0.008112433,-0.0011540771,0.47697848,-1.3509867,1.8654965,-2.084234,-1.5706848,2.4515142,-0.17978634,0.20623113,-0.2592371,0.060929745,0.001994642,-0.17851524,-0.59376204,0.11492168,-9.270349,0.90527004,47.66539,-1.079648,-2.021967,-3.4366908,-0.07341854,0.053990453,-0.29696807,24.8125,25.4375,24.625,26.4375,26.75,27.0625
0.314054,-0.920277,0.53932196,0.10777292,0.012561984,0.061712533,-0.07827223,-0.41259623,-0.36431432,0.060126413,3.078652,-0.6241573,-0.00034757704,-0.14891633,0.030435188,-0.0005239451,0.0011488047,-0.0072661475,-0.0044175396,0.4766181,-1.3505677,1.8650173,-2.0841377,-1.570661,2.451155,-0.18042354,0.20605782,-0.26245347,0.06338922,0.0019499457,-0.17588821,-0.36391866,0.0,-9.212888,0.84484416,47.68062,-1.0623181,-1.8675911,-3.4474525,-0.11121629,0.057862565,-0.35737818,24.8125,25.4375,24.625,26.4375,26.75,27.0625
0.31605378,-0.9614577,0.59635806,0.21875101,0.034887496,0.0550151,-0.07740035,-0.41289294,-0.36425334,0.060122993,3.0786986,-0.6241076,-0.00036634598,-0.14841922,0.03048684,-0.00034260744,0.0024248962,-0.009103453,-0.0034927505,0.47628257,-1.3501481,1.8644899,-2.0840166,-1.5706972,2.4507828,-0.17976554,0.2063528,-0.2641082,0.06696252,0.0016584012,-0.1761544,-0.47884035,-0.095768064,-9.059659,0.9791215,47.695843,-1.1377662,-1.9813342,-3.3982687,-0.17170036,0.0775048,-0.39943755,24.8125,25.4375,24.625,26.4375,26.75,27.0625
0.318054,-0.49638706,1.2777582,0.23005186,0.030224621,0.062084842,-0.08213792,-0.41317415,-0.36418924,0.060096215,3.078701,-0.62414473,-0.0002546436,-0.14799537,0.029281273,-0.0012078576,0.002852949,-0.009088946,-0.00033773133,0.47591144,-1.3497151,1.8639997,-2.0838978,-1.570661,2.4504347,-0.17701353,0.20872243,-0.26475102,0.06542772,0.0012520545,-0.17655657,-0.5363012,-0.076614454,-9.059659,0.8985519,47.709274,-1.2580814,-1.948143,-3.5283308,-0.17190495,0.064857185,-0.399198,24.8125,25.4375,24.625,26.4375,26.75,27.0625
0.3200543,-1.0089076,0.9189836,0.34189293,0.03787596,0.06056833,-0.07936868,-0.41349962,-0.36412513,0.060123496,3.0787032,-0.6241199,-0.00031918247,-0.1482051,0.029040875,-0.0024114375,0.0042099077,-0.011516394,0.008735162,0.47553927,-1.3493183,1.8634247,-2.0837533,-1.5706853,2.450047,-0.17658977,0.21258694,-0.26705155,0.06664059,0.0011600251,-0.18520439,-0.40222588,-0.21068975,-9.021352,0.8940802,47.681515,-1.3742473,-2.0659182,-3.5306783,-0.18517864,0.065464705,-0.3456915,24.8125,25.4375,24.625,26.4375,26.75,27.0625
0.32205373,-0.77541924,0.7036335,0.11106733,0.041481752,0.051889583,-0.08609785,-0.41376346,-0.36405364,0.060070977,3.0787702,-0.62410897,-0.0001323095,-0.14897655,0.030247746,-0.0018993898,0.005412924,-0.013796244,0.017220384,0.4751786,-1.3488506,1.8629445,-2.0836084,-1.570661,2.4496713,-0.1790979,0.21305592,-0.27002168,0.071725905,0.0011118932,-0.19619714,-0.21068975,-0.15322891,-9.136273,0.97240865,47.635834,-1.4458668,-2.0594332,-3.4214745,-0.2539726,0.05764567,-0.22566146,24.8125,25.4375,24.625,26.4375,26.75,27.0625
0.32405397,-0.4309405,0.6073883,-0.07361487,0.03025821,0.0435075,-0.08090839,-0.41408366,-0.36398953,0.060087718,3.0787914,-0.62407005,-0.00019556737,-0.15101376,0.029430902,-0.002788611,0.0049380185,-0.012770672,0.024457159,0.47481877,-1.3484412,1.8623809,-2.0834773,-1.5706972,2.4492848,-0.17930874,0.2181522,-0.27367905,0.0691521,0.0010521186,-0.2036427,-0.17238252,-0.076614454,-9.193734,0.87617236,47.71286,-1.5167205,-2.1308417,-3.4011903,-0.2692287,0.058600362,-0.10686541,24.8125,25.4375,24.625,26.4375,26.75,27.0625
0.3260536,-0.089030586,0.21119179,-0.0034558563,0.00893127,0.04141359,-0.08902492,-0.41437367,-0.36393976,0.060070604,3.078811,-0.62397933,-7.0440365e-05,-0.15139216,0.031019248,-0.0038212321,0.0061627435,-0.014951432,0.021233985,0.4744578,-1.3479851,1.8618315,-2.0833213,-1.570649,2.448865,-0.18206124,0.21925716,-0.27291363,0.069791965,0.0009443136,-0.20317225,-0.2873042,0.076614454,-9.097966,0.8940802,47.66271,-1.3887967,-2.0920484,-3.442132,-0.28606275,0.07019481,-0.078718424,24.8125,25.4375,24.625,26.4375,26.75,27.0625
0.32805374,-0.55281323,-0.44555435,-0.08135019,-0.011493034,0.026132885,-0.078729264,-0.41469875,-0.36385146,0.060066175,3.078879,-0.6239409,-7.2973235e-05,-0.15367892,0.030668007,-0.0028298348,0.0047483225,-0.012012913,0.012144736,0.47406143,-1.347541,1.8612679,-2.083166,-1.5706972,2.4484363,-0.18321729,0.22061303,-0.2767042,0.06895725,0.0008363886,-0.19523762,-0.34476504,0.17238252,-9.232041,0.8627467,47.693153,-1.3373278,-2.253997,-3.4254827,-0.31402653,0.060026884,-0.16506973,24.8125,25.4375,24.625,26.4375,26.75,27.0625
0.3300541,-0.45697007,-1.1150469,-0.08243112,-0.020545183,0.04080237,-0.081583075,-0.41499415,-0.3637966,0.060061336,3.078918,-0.6239349,-2.8262362e-05,-0.1573373,0.030443097,-0.0011465432,0.002271519,-0.007054594,0.0009871493,0.47372434,-1.3470974,1.8607033,-2.0829995,-1.5707091,2.4480908,-0.18578014,0.22189704,-0.28176564,0.06719053,0.00074931723,-0.18664105,-0.2681506,0.22984336,-9.270349,0.92093146,47.689575,-1.1693114,-2.2722592,-3.2553442,-0.3166506,0.05447624,-0.25108865,24.8125,25.4375,24.625,26.4375,26.75,27.0625
0.3320545,-1.0245448,-1.3632156,-0.31193197,-0.025846325,0.0459504,-0.077574015,-0.41530252,-0.36372092,0.06005655,3.0789294,-0.623979,4.166164e-05,-0.15904135,0.03097559,-0.0008531289,0.00071788847,-0.0039092647,-0.0070442106,0.4733278,-1.3466655,1.8601526,-2.0828335,-1.5706977,2.4477205,-0.18791926,0.22170292,-0.28146598,0.06357983,0.00067859713,-0.18074897,-0.2681506,0.4405331,-9.308656,0.9254084,47.690468,-1.2516637,-2.133276,-3.1928997,-0.29570317,0.054226264,-0.34195632,24.8125,25.4375,24.625,26.4375,26.75,27.0625
0.334054,-1.0379884,-1.9418999,-0.3518179,-0.03384623,0.072179094,-0.078226216,-0.41560364,-0.36366346,0.060034093,3.0789325,-0.6240016,8.886784e-05,-0.15881367,0.031505883,-0.0031293186,0.0026180944,-0.0075084264,-0.013475245,0.47296765,-1.3462086,1.8596271,-2.0827367,-1.5706857,2.4473743,-0.18841821,0.22573726,-0.28126097,0.06341257,0.00062008406,-0.17481646,-0.38307226,0.4213795,-9.385271,0.8493211,47.707485,-1.3039429,-2.2157612,-3.4739509,-0.29496777,0.066142105,-0.42745167,24.8125,25.4375,24.625,26.4375,26.75,27.0625
0.3360543,-0.87546045,-1.8875505,-0.22968042,-0.05729402,0.09146252,-0.08532879,-0.4159398,-0.36358145,0.06002418,3.0789487,-0.62408155,9.3885465e-05,-0.1605966,0.03215786,-0.0029588721,0.00092963414,-0.0041317143,-0.014998985,0.4725588,-1.3457413,1.859053,-2.0826075,-1.5707096,2.4470136,-0.19082063,0.22549926,-0.2804781,0.059089188,0.00057087577,-0.17569548,-0.34476504,0.49799395,-9.500193,0.9365982,47.683304,-1.1135023,-2.233697,-3.671299,-0.27867696,0.076478764,-0.48822725,24.8125,25.4375,24.625,26.4375,26.75,27.0625
0.3380545,-1.7270229,-2.360914,-0.62578684,-0.060804233,0.07438873,-0.085792616,-0.41626027,-0.36352617,0.060034167,3.0789466,-0.6240758,0.000120057164,-0.16349144,0.031835396,-0.0009788797,-0.0023370404,0.002313259,-0.0077927574,0.4721864,-1.3452977,1.8584541,-2.082441,-1.5706977,2.446638,-0.19256352,0.2243548,-0.28282082,0.05535429,0.00053089473,-0.18464406,-0.2681506,0.51714754,-9.461885,0.91421866,47.688675,-1.1291606,-2.073372,-3.785376,-0.2133522,0.06792287,-0.45949954,24.8125,25.4375,24.625,26.4375,26.75,27.0625
0.34005362,-1.4168787,-2.0556858,-0.6047965,-0.06147427,0.07644326,-0.087430544,-0.41657823,-0.36346057,0.06002253,3.0789711,-0.6240356,0.000123904,-0.16665669,0.03177106,0.0004059466,-0.004421571,0.0066839335,0.0021855733,0.47181374,-1.3448424,1.8579029,-2.0823333,-1.5707096,2.4462376,-0.19490007,0.2253872,-0.28690177,0.05356193,0.00038631525,-0.1969574,-0.30645782,0.40222588,-9.557653,0.9791215,47.666286,-1.0300674,-2.0397086,-3.71071,-0.19481324,0.07880464,-0.3602043,24.8125,25.4375,24.625,26.4375,26.75,27.0625
0.342054,-0.60232383,-0.83439165,-0.64719146,-0.047557503,0.07987798,-0.09262563,-0.41691026,-0.36340585,0.060000397,3.0789685,-0.62401265,0.000112850634,-0.1671512,0.03281969,-0.0011094568,-0.0029672862,0.0038478184,0.010946456,0.4714403,-1.3443496,1.8573407,-2.0822737,-1.5707096,2.4458504,-0.19688562,0.22844659,-0.2874407,0.054229952,0.00038356785,-0.20770343,-0.4213795,0.4405331,-9.576807,0.947788,47.691364,-0.80560917,-2.077527,-3.6495397,-0.17788613,0.0619651,-0.23929867,24.8125,25.4375,24.625,26.4375,26.75,27.0625
0.34405455,-0.9554815,-0.6714233,-0.7149777,-0.016108712,0.06767401,-0.08521356,-0.41725945,-0.363339,0.06001494,3.0789495,-0.62398666,6.84405e-05,-0.1693796,0.032306433,-0.0011285545,-0.0044861115,0.0068143443,0.01304661,0.47103253,-1.3439054,1.8567408,-2.082155,-1.5707096,2.445429,-0.19774595,0.23112375,-0.2899548,0.050734945,0.0003865583,-0.2106628,-0.4405331,0.40222588,-9.653421,0.8940802,47.705692,-0.84888965,-2.1525996,-3.6649556,-0.13023287,0.07219574,-0.17456236,24.8125,25.4375,24.625,26.4375,26.75,27.0625
0.34605408,-0.8301933,-0.783716,-0.8349582,-0.00061508757,0.0790529,-0.07300083,-0.41757843,-0.36328626,0.059976906,3.0789359,-0.62396544,0.00018773542,-0.16971229,0.030165458,-0.0005482065,-0.005635293,0.008902344,0.010925286,0.47063783,-1.3433889,1.8561772,-2.0820596,-1.5706495,2.445023,-0.19434255,0.23280072,-0.29325134,0.049984686,0.0004481775,-0.2051371,-0.57460845,0.38307226,-9.500193,0.9321212,47.687782,-1.1416849,-2.2004962,-3.7375169,-0.09263396,0.068006426,-0.16923513,24.8125,25.4375,24.625,26.4375,26.75,27.0625
0.34805456,-1.379552,-0.45815235,-0.8231309,-0.0077905897,0.07422414,-0.07794367,-0.4179411,-0.3632406,0.06000869,3.078892,-0.6238828,7.433909e-05,-0.17012805,0.029510967,-0.0006534419,-0.005344096,0.007438872,0.005228109,0.4702542,-1.3429444,1.8555425,-2.0819628,-1.570649,2.4445937,-0.19367939,0.23543261,-0.2968493,0.05238566,0.0008723205,-0.19877604,-0.47884032,0.24899697,-9.691729,0.9365982,47.684196,-1.2969956,-2.3961482,-3.5253053,-0.09009017,0.067598216,-0.26177016,24.8125,25.4375,24.625,26.4375,26.75,27.0625
0.35005367,-1.4802573,-0.8995736,-0.63301927,-0.016540585,0.0783894,-0.075305074,-0.41828638,-0.36316645,0.059981115,3.078915,-0.6238891,9.4354895e-05,-0.17148572,0.029245218,-0.00017621146,-0.005771258,0.007729352,-0.00017158168,0.46984592,-1.3424283,1.8549551,-2.0818665,-1.570661,2.4441867,-0.19435188,0.23730846,-0.3006603,0.053865366,0.0011153904,-0.19404799,-0.28730422,0.2681506,-9.710882,0.95226496,47.70838,-1.3110026,-2.437995,-3.364946,-0.067760065,0.07470676,-0.33527145,24.8125,25.4375,24.625,26.4375,26.75,27.0625
0.35205412,-0.4035364,-0.96424913,-0.833326,-0.017972948,0.085103944,-0.082425,-0.41862002,-0.36310878,0.05996111,3.0789626,-0.6238433,4.939647e-05,-0.17242904,0.029422997,-0.0005004429,-0.00579475,0.00668479,-0.0036059062,0.46949703,-1.3419243,1.8543676,-2.081782,-1.5707091,2.4438035,-0.19557098,0.23954949,-0.30299097,0.05486536,0.0016092422,-0.19183266,-0.3256114,0.1340753,-9.576807,0.9545008,47.66539,-1.2432334,-2.422988,-3.4053967,-0.057333365,0.043520242,-0.3895359,24.8125,25.4375,24.625,26.4375,26.75,27.0625
0.35405445,-0.36944818,-0.7147469,-0.97714657,-0.010465058,0.050842717,-0.08349131,-0.41897884,-0.36305574,0.05998045,3.0789077,-0.6238103,5.4194374e-05,-0.17324409,0.030150544,-0.0011244599,-0.005064007,0.005322827,-0.0024908448,0.46907678,-1.3414559,1.853721,-2.081639,-1.570661,2.4433699,-0.19725183,0.2416232,-0.30440682,0.05576348,0.0015825364,-0.19462797,-0.15322891,0.11492168,-9.730036,0.8940802,47.687782,-1.234979,-2.5305517,-3.3962078,-0.048475735,0.063520186,-0.40354353,24.8125,25.4375,24.625,26.4375,26.75,27.0625
0.3560545,0.42163238,-0.20555958,-0.83932674,-0.0113453055,0.04058443,-0.08740099,-0.4193537,-0.36298317,0.059982736,3.078907,-0.6238217,-6.149547e-05,-0.1721634,0.030913938,-0.0022223482,-0.0035990123,0.0032213996,0.008247742,0.4686692,-1.3409641,1.8531002,-2.0815666,-1.5707091,2.4429698,-0.19720396,0.2416797,-0.30214494,0.055975422,0.0012451981,-0.20531914,-0.21068975,0.11492168,-9.691729,0.9254084,47.686886,-1.3516576,-2.5393233,-3.5310283,-0.01617225,0.06929209,-0.33228338,24.8125,25.4375,24.625,26.4375,26.75,27.0625
0.35805407,0.47879818,-0.28043562,-0.5876103,-0.003637671,0.03893768,-0.08305801,-0.4196905,-0.36293858,0.05997623,3.0788794,-0.6237523,-7.9828955e-05,-0.17259914,0.031423524,-0.0027552864,-0.002738908,0.002059563,0.017773896,0.468297,-1.3404841,1.8525137,-2.0814946,-1.5706853,2.442558,-0.1980939,0.24327587,-0.30318862,0.05685557,0.0010120748,-0.21573457,-0.05746084,0.076614454,-9.5385,0.9164598,47.67793,-1.378181,-2.5587327,-3.6724072,-0.0041579446,0.071013846,-0.2101832,24.8125,25.4375,24.625,26.4375,26.75,27.0625
0.36005372,0.2885807,0.31586564,-0.7437857,0.009591612,0.03597958,-0.08728042,-0.42005014,-0.36287344,0.05997045,3.0788646,-0.623691,-3.816407e-05,-0.1742612,0.031820755,-0.0024436077,-0.0025941462,0.0018535657,0.019687332,0.46786442,-1.3399763,1.8518776,-2.081362,-1.570649,2.4420893,-0.19992855,0.24537228,-0.30701187,0.058840908,0.00097287004,-0.21948136,0.076614454,0.019153614,-9.404425,0.947788,47.716442,-1.31073,-2.5732036,-3.6322184,0.0060309456,0.071598604,-0.11444209,24.8125,25.4375,24.625,26.4375,26.75,27.0625
0.3620542,0.08989073,0.43988025,-0.76389045,0.029175838,0.02165081,-0.07204592,-0.42040434,-0.36280638,0.05998241,3.0788622,-0.6236159,-7.020953e-05,-0.17622414,0.03274776,-0.00028380088,-0.0038243667,0.004430985,0.013508746,0.46745554,-1.3395128,1.8512553,-2.08123,-1.570649,2.4416342,-0.20288157,0.24321872,-0.30986196,0.060989898,0.0009149111,-0.21625543,-0.076614454,-0.05746084,-9.423578,0.9321212,47.68062,-1.262242,-2.427748,-3.5968802,0.022918357,0.06608275,-0.11946527,24.8125,25.4375,24.625,26.4375,26.75,27.0625
0.36405426,0.68180746,1.1403995,-0.4912671,0.027270177,0.022177288,-0.08530871,-0.42077306,-0.3627566,0.059979524,3.0788405,-0.62365645,-0.00012371801,-0.17829475,0.033773072,0.00018261917,-0.0032717998,0.0036383101,0.0018722262,0.46707055,-1.338985,1.8505958,-2.0811331,-1.570661,2.4412775,-0.2060392,0.24532306,-0.31435814,0.064335965,0.0007844123,-0.20777492,-0.1340753,-0.05746084,-9.270349,0.9030289,47.687782,-1.2060256,-2.3824453,-3.4635763,0.018255085,0.07498382,-0.18798968,24.8125,25.4375,24.625,26.4375,26.75,27.0625
0.36605445,0.11143072,1.3813664,-0.50281507,0.034871735,0.0121706,-0.07520207,-0.42111793,-0.36268905,0.05996213,3.0788376,-0.6236602,-9.5412324e-05,-0.17906839,0.033783726,0.001784577,-0.003441576,0.004139394,-0.0070005236,0.46666226,-1.3384815,1.849996,-2.081024,-1.570649,2.4408722,-0.20646578,0.24451216,-0.31799364,0.068260804,0.0007094771,-0.19932798,-0.17238252,-0.11492168,-9.251195,0.9186956,47.690468,-1.1292577,-2.3544087,-3.309922,-0.015739067,0.075173125,-0.2833714,24.8125,25.4375,24.625,26.4375,26.75,27.0625
0.36805382,-0.02449623,1.2866151,-0.52846795,0.056517847,0.010675372,-0.079045035,-0.4214512,-0.36259884,0.059949,3.0788836,-0.62367463,-2.7507049e-05,-0.17883238,0.0361813,0.00046099155,-0.00063037773,-0.0016471127,-0.017547455,0.46624088,-1.3380014,1.8493985,-2.0808427,-1.570661,2.4404542,-0.21009673,0.2460641,-0.31813163,0.07327656,0.0007996755,-0.1924122,-0.1340753,-0.076614454,-9.404425,0.9791215,47.703903,-0.8726502,-2.2793677,-3.3721514,-0.054759234,0.085362,-0.40732872,24.8125,25.4375,24.625,26.4375,26.75,27.0625
0.37005416,0.31827024,0.87164193,-0.67042017,0.047573473,0.041131124,-0.08138944,-0.421822,-0.36255112,0.059982296,3.078833,-0.6237429,-6.66378e-05,-0.17853867,0.03716598,0.00048414286,0.00069136074,-0.00523837,-0.02229858,0.46584445,-1.3375179,1.8486913,-2.080661,-1.570649,2.440107,-0.21154246,0.24637216,-0.3198395,0.078479566,0.001247395,-0.18910709,-0.095768064,0.0,-9.423578,0.8403672,47.703007,-0.8923668,-2.3796935,-3.3553786,-0.103640884,0.0686018,-0.4931298,24.8125,25.4375,24.625,26.4375,26.75,27.0625
0.37205434,-1.0245125,-0.1234625,-0.8067424,0.031090664,0.033869788,-0.07623386,-0.42217827,-0.36246705,0.05999363,3.0788233,-0.6237745,-4.0382114e-05,-0.17751653,0.037652362,-0.00040284588,0.0028136165,-0.009599269,-0.016410224,0.46540052,-1.3370537,1.8480576,-2.0804803,-1.5706371,2.4396844,-0.21132916,0.2479446,-0.3208166,0.082737595,0.0013123226,-0.19478199,-0.24899697,-0.038307227,-9.461885,0.9365982,47.675243,-0.8953817,-2.315926,-3.5251822,-0.1690585,0.0577235,-0.508435,24.8125,25.4375,24.625,26.4375,26.75,27.0625
