Tylouw/Master_Thesis_Code/training_data/batch_1/rect_rod_t0.1/sample_27_session_1.csv
timestamp[s],tcp_force_x[N],tcp_force_y[N],tcp_force_z[N],tcp_force_rx[Nm?],tcp_force_ry[Nm?],tcp_force_rz[Nm?],tcp_pose_x[m],tcp_pose_y[m],tcp_pose_z[m],tcp_pose_rx[rot_vec_x],tcp_pose_ry[rot_vec_y],tcp_pose_rz[rot_vec_z],tcp_velo_x[m/s],tcp_velo_y[m/s],tcp_velo_z[m/s],tcp_velo_rx[rot_vec_x/s],tcp_velo_ry[rot_vec_y/s],tcp_velo_rz[rot_vec_z/s],q1[rad],q2[rad],q3[rad],q4[rad],q5[rad],q6[rad],qd1[rad/s],qd2[rad/s],qd3[rad/s],qd4[rad/s],qd5[rad/s],qd6[rad/s],tool_acc_x,tool_acc_y,tool_acc_z,current_of_whole_robot[A],voltage_of_whole_robot[V],current_J1[A],current_J2[A],current_J3[A],current_J4[A],current_J5[A],current_J6[A],temp_J1[C],temp_J2[C],temp_J3[C],temp_J4[C],temp_J5[C],temp_J6[C]
6.7899987e-07,-0.22993861,-0.8859865,-0.05682202,-0.017334064,0.021689551,-0.0023542093,-0.38936839,-0.3687322,0.06003823,-3.0787492,0.62493724,0.00030680813,-0.0004713408,-0.00028309063,0.00017145979,-0.00095516175,0.0013829002,6.427319e-05,0.5050329,-1.3816559,1.9041508,-2.0919282,-1.5708655,2.4800253,-6.6300985e-05,-9.957727e-06,-1.3971002e-06,-0.0016616688,0.00016295626,-0.00013062001,0.076614454,0.1340753,-8.580819,0.78888994,47.741516,-0.2921121,-2.9843268,-2.2039223,-0.20226333,0.13542843,0.010014517,24.75,25.3125,24.5,26.3125,26.5625,26.875
0.002054753,-0.124497294,-0.4860255,-0.05536943,-0.032056052,0.03269318,-0.0072815684,-0.38935438,-0.36875018,0.060043342,-3.0787692,0.62492204,0.0003088926,-0.00071066833,-0.0004157947,-0.0027702944,-0.0013339437,0.0020562354,6.2648134e-05,0.5050688,-1.3816664,1.9041523,-2.091931,-1.5708536,2.4800491,-6.510206e-05,0.0037906899,0.0041895923,-0.010425846,0.00015726071,-0.00012796678,0.076614454,0.21068975,-8.561666,0.7351769,47.699425,-0.24098414,-3.0311775,-2.3226287,-0.17795242,0.11938806,0.024573652,24.75,25.3125,24.5,26.3125,26.5625,26.875
0.004054875,-0.39128205,-0.6118888,0.24702239,-0.02747165,0.0306422,0.0005391296,-0.38933733,-0.36873803,0.06000877,-3.0787287,0.624933,0.00021096619,-0.001112741,-0.0006380704,-0.0026873618,-0.002011259,0.0032851272,6.140255e-05,0.50505686,-1.3816304,1.9041885,-2.0919316,-1.5708417,2.4800491,-6.3945605e-05,0.003871382,0.004257589,-0.0119777005,0.00015195001,-0.00012541913,0.05746084,0.21068975,-8.465898,0.779936,47.70838,-0.2500493,-3.362557,-2.5785737,-0.073627144,0.13320103,0.015368914,24.75,25.3125,24.5,26.3125,26.5625,26.875
0.006054783,0.25355062,0.083897464,0.12555787,-0.01519164,0.021892393,-0.0057647508,-0.38934675,-0.36872187,0.059992194,-3.0787249,0.62495166,0.00021059229,-0.00040556956,-0.00024308164,-0.0013981002,-0.0009651791,0.0014245727,5.9835016e-05,0.50502086,-1.3816192,1.9042233,-2.0919774,-1.5708417,2.4800253,-6.28296e-05,0.0017516806,0.0024544995,-0.0059204614,0.00014698603,-0.00012297106,0.0,0.19153613,-8.42759,0.7709874,47.693153,-0.27306113,-3.2317588,-2.4918046,-0.10225648,0.12516442,0.031450614,24.75,25.3125,24.5,26.3125,26.5625,26.875
0.008054963,0.42538872,1.0574833,-0.30334604,0.015989197,-0.000993543,-0.00904197,-0.38935614,-0.36872983,0.06000952,-3.0787354,0.6249727,0.00026618424,-0.00022002654,-0.00013804244,7.764212e-05,-0.0011087707,0.0017046763,5.830965e-05,0.5050329,-1.3816321,1.904199,-2.0919764,-1.5708536,2.4800491,-6.175192e-05,-0.0007231056,0.0012593628,-0.002565128,0.0001423363,-0.00012061679,0.038307227,0.1340753,-8.580819,0.7083204,47.701214,-0.26708585,-3.1491482,-2.374295,-0.13952774,0.11125569,0.033840995,24.75,25.3125,24.5,26.3125,26.5625,26.875
0.010054947,1.0993606,0.8301254,-0.60051537,0.023070086,0.01861284,-0.017159017,-0.38933375,-0.36872447,0.059996545,-3.0787191,0.62489295,0.00020760634,0.00022774615,9.444779e-05,0.00021215517,-0.00031135723,0.00028082766,9.477488e-05,0.5050448,-1.3816322,1.9042228,-2.0919511,-1.5708536,2.4800134,-3.1235642e-05,-0.0010296693,0.0007631671,-0.00013043894,0.00013797209,-0.00012667077,0.076614454,0.095768064,-8.944737,0.7665104,47.690468,-0.746812,-2.5568905,-2.8697252,-0.13398844,0.11097604,-0.055312037,24.75,25.3125,24.5,26.3125,26.5625,26.875
0.01205406,-0.20745723,-0.043172427,-0.90851796,-0.015741654,0.014085714,-0.0074617965,-0.38934126,-0.36871654,0.05998472,-3.0786705,0.6249611,0.00017360628,-0.00075939985,0.0017788422,-0.003426865,0.0034480575,-0.0065385117,-0.0036008721,0.5050319,-1.3815931,1.904198,-2.0919268,-1.5708655,2.4800491,-0.0037996494,0.0069916565,-0.00071494054,0.0011132419,0.00014700425,-0.00019770689,0.1340753,0.11492168,-9.097966,0.7329411,47.690468,-0.9341755,-2.8140626,-2.9639068,-0.16333419,0.10609555,-0.12809668,24.75,25.3125,24.5,26.3125,26.5625,26.875
0.01405454,-0.6515369,-1.5020921,-0.9568055,-0.041039605,0.041510876,-0.010377192,-0.3893218,-0.3687015,0.059965935,-3.0786524,0.6248968,8.87587e-05,-0.0040308703,0.0036515926,-0.004863042,0.004742936,-0.008912681,0.00079502695,0.5050173,-1.3815913,1.9042333,-2.091903,-1.5708536,2.4799967,-0.010020601,0.012753605,-0.004393865,0.0017327837,0.00015510886,-0.010812221,0.05746084,0.17238252,-9.251195,0.7463667,47.667187,-0.52131546,-3.1869247,-2.9406745,-0.16437286,0.131964,-0.08944592,24.75,25.3125,24.5,26.3125,26.5625,26.875
0.016054206,-1.1018722,-1.8727541,-1.208823,-0.071018144,0.066607445,-0.015441105,-0.3893357,-0.3686949,0.059965707,-3.0786505,0.6249117,9.064899e-05,-0.0052985987,0.0033218588,-0.0033947648,0.0031838848,-0.006134575,0.007879128,0.5049932,-1.3815796,1.90422,-2.091903,-1.5708536,2.4799821,-0.010660498,0.01164587,-0.0064125545,0.0016723172,0.00017028127,-0.018535586,-0.21068975,0.28730422,-9.404425,0.7351769,47.696735,-0.65712106,-3.0953946,-2.999371,-0.15974563,0.1511721,-0.029598873,24.75,25.3125,24.5,26.3125,26.5625,26.875
0.018054841,-1.4153702,-1.421056,-1.0959146,-0.08124487,0.08530833,-0.032161914,-0.38931483,-0.36869746,0.05993251,-3.078609,0.6248448,-8.810521e-06,-0.0057391515,0.0032475349,-0.00238501,0.0021878297,-0.004385949,0.0100680925,0.50501704,-1.3815203,1.90422,-2.0918791,-1.5708536,2.4799695,-0.010961428,0.010053785,-0.0068284273,0.0016675373,0.000193321,-0.021025615,-0.38307226,0.28730422,-9.404425,0.7777002,47.704796,-0.7718123,-2.7316542,-3.1619415,-0.14287378,0.15347207,-0.0109885065,24.75,25.3125,24.5,26.3125,26.5625,26.875
0.020054057,-1.566885,-1.2147022,-1.6352583,-0.04957878,0.09192189,-0.052244898,-0.3893304,-0.36868626,0.059919074,-3.078595,0.62484413,-9.222526e-05,-0.0062456885,0.003722213,-0.003351836,0.002899135,-0.006142945,0.0074295644,0.5049687,-1.3814714,1.9041847,-2.0918434,-1.5708297,2.4799225,-0.012375946,0.012391539,-0.0074216328,0.0018046558,0.0004187814,-0.01980139,-0.36391866,0.28730422,-9.595961,0.80456203,47.694946,-0.8929082,-2.7040443,-3.3574898,-0.15991503,0.16415595,-0.05309064,24.75,25.3125,24.5,26.3125,26.5625,26.875
0.02205442,-1.6876321,-1.0949323,-1.8871896,-0.025185628,0.08260307,-0.069851555,-0.38935673,-0.368675,0.059929494,-3.078609,0.62481,-5.2994186e-05,-0.007122082,0.0037698974,-0.0038342678,0.0013667609,-0.008751438,0.0038539034,0.5049319,-1.3814706,1.9041599,-2.091843,-1.5708407,2.4798627,-0.014901357,0.0147536695,-0.009368725,0.0029217114,0.0030205573,-0.01875434,-0.40222588,0.24899697,-9.672575,0.71279734,47.691364,-0.941195,-2.8275783,-3.4023452,-0.16183856,0.12908162,-0.0938604,24.75,25.3125,24.5,26.3125,26.5625,26.875
0.024054412,-0.9852329,-0.9429656,-1.8359941,-0.02381548,0.09568884,-0.09085166,-0.3893573,-0.36866033,0.059895214,-3.0785832,0.6248826,-0.0001626564,-0.008661324,0.0030867532,-0.0037762276,-0.0004956792,-0.009215242,0.0021517565,0.50488347,-1.3814216,1.9041828,-2.0918548,-1.5708035,2.4798627,-0.016345883,0.01759905,-0.01290663,0.00311339,0.00486625,-0.018498158,-0.59376204,0.15322891,-9.730036,0.73741806,47.694946,-0.8733224,-2.8013487,-3.3271546,-0.16826901,0.11728205,-0.08823933,24.75,25.3125,24.5,26.3125,26.5625,26.875
0.026054978,-1.6386409,-0.9399504,-1.8594669,-0.029938834,0.08823041,-0.10869975,-0.389362,-0.36866266,0.059877645,-3.0785682,0.62480235,-0.00021945663,-0.009803483,0.0034445361,-0.0035748181,-0.000989498,-0.00830744,0.00046284398,0.50488293,-1.3813612,1.9041461,-2.091831,-1.5708035,2.479814,-0.018009441,0.01805451,-0.013759767,0.0024777106,0.0048551294,-0.018472528,-0.7278373,0.11492168,-9.864111,0.800085,47.703903,-0.8881761,-2.760303,-3.3087134,-0.16958986,0.11915423,-0.10597709,24.75,25.3125,24.5,26.3125,26.5625,26.875
0.028053911,-1.5332109,-1.1698474,-1.7237834,-0.042430826,0.120618775,-0.116124935,-0.38940454,-0.36866647,0.059884116,-3.0785894,0.62486523,-0.00021491136,-0.010255554,0.0032947965,-0.0038917914,-0.0008199879,-0.008365727,-0.0005885663,0.50483495,-1.3813127,1.9040741,-2.0918314,-1.5707802,2.4798026,-0.018102843,0.019508353,-0.014662712,0.002061012,0.004732371,-0.017513549,-0.7852981,0.21068975,-9.844957,0.7597976,47.67614,-1.0061667,-2.806279,-3.3428073,-0.15310371,0.12338134,-0.12547067,24.75,25.3125,24.5,26.3125,26.5625,26.875
0.030054085,-2.1851854,-1.7311503,-1.8573662,-0.040532432,0.12504561,-0.10207338,-0.38940972,-0.36865336,0.059865605,-3.078553,0.6248401,-0.00023359415,-0.011215726,0.003200605,-0.0034185762,-0.0016296421,-0.007142536,-0.0024414363,0.5048226,-1.3812766,1.9040736,-2.0918314,-1.5708035,2.4797792,-0.018912923,0.019754754,-0.015931556,0.0016205967,0.0048452313,-0.016470522,-0.842759,0.17238252,-9.787497,0.8112748,47.672558,-0.99945986,-2.7498915,-3.3494287,-0.15460299,0.09968911,-0.13184126,24.75,25.3125,24.5,26.3125,26.5625,26.875
0.03205498,-1.9479551,-0.9385301,-1.7394842,-0.036348857,0.1315185,-0.100246616,-0.3894308,-0.36865526,0.059860617,-3.0785658,0.6247849,-0.00026097972,-0.012379712,0.0027159003,-0.0023768342,-0.004090624,-0.0058605922,-0.0035019366,0.50479835,-1.3812287,1.9040254,-2.091819,-1.5707911,2.479719,-0.020139406,0.019476602,-0.017976122,0.0016257496,0.006374457,-0.016638482,-0.7852981,0.076614454,-9.902418,0.7597976,47.70838,-1.0551234,-2.7208695,-3.354613,-0.14928845,0.1043257,-0.15854649,24.75,25.3125,24.5,26.3125,26.5625,26.875
0.034054216,-1.56299,-0.091834605,-1.7417446,-0.022298558,0.121874295,-0.102726,-0.38943717,-0.36865264,0.05983055,-3.0785728,0.6248251,-0.00038057702,-0.012684795,0.0024924534,-0.0026803992,-0.005170835,-0.0073854374,-0.0034982408,0.50475013,-1.381168,1.904025,-2.091831,-1.5707306,2.4796948,-0.021097869,0.020854559,-0.019022482,0.0021015794,0.008054909,-0.01760341,-0.7278373,-0.076614454,-9.787497,0.842603,47.693153,-1.0308444,-2.795568,-3.3680809,-0.13580135,0.070886664,-0.16920751,24.75,25.3125,24.5,26.3125,26.5625,26.875
0.036054645,-0.96011126,0.37403452,-1.8465073,-0.005559602,0.106238395,-0.1020338,-0.38949928,-0.3686559,0.059868712,-3.0786357,0.62487566,-0.00027756166,-0.013841833,0.0021995658,-0.002243416,-0.0060202894,-0.0063581956,-0.0025976275,0.50469005,-1.3811678,1.9039406,-2.0918434,-1.5707186,2.4796584,-0.021836007,0.021834262,-0.021134827,0.001924075,0.00829778,-0.019240765,-0.6512228,-0.11492168,-9.653421,0.784413,47.698532,-1.0513017,-2.7728329,-3.275316,-0.14712161,0.07030326,-0.17616796,24.75,25.3125,24.5,26.3125,26.5625,26.875
0.03805409,-1.3421507,0.26249236,-1.7680192,0.006008326,0.08316617,-0.100434296,-0.38951573,-0.36863858,0.0598498,-3.0785885,0.6248658,-0.00033637736,-0.015612616,0.0029631597,-0.0019048108,-0.0058814576,-0.0049289456,-0.003336186,0.5046533,-1.3811076,1.9039043,-2.0918076,-1.570731,2.4796214,-0.024264945,0.022574907,-0.022701329,0.001568981,0.007479185,-0.020929389,-0.57460845,-0.05746084,-9.710882,0.7530795,47.687782,-0.98310643,-2.697209,-3.3120751,-0.12841329,0.06326077,-0.1827617,24.75,25.3125,24.5,26.3125,26.5625,26.875
0.040054344,-0.8176834,0.22674155,-1.7769822,-0.008928275,0.09110399,-0.10251399,-0.38955766,-0.36861876,0.059833206,-3.0785577,0.624938,-0.00036595002,-0.017137686,0.003636072,-0.0015893999,-0.0057074334,-0.0036395171,-0.0054719113,0.5045807,-1.3810352,1.9038566,-2.0918076,-1.570731,2.4795978,-0.026333753,0.02316067,-0.024049748,0.0012904402,0.006699292,-0.020860577,-0.47884035,-0.076614454,-9.634268,0.78888994,47.704796,-0.9675894,-2.700481,-3.3628657,-0.12162536,0.07681023,-0.20097701,24.75,25.3125,24.5,26.3125,26.5625,26.875
0.04205412,-1.1281788,0.017769225,-1.502219,-0.02140885,0.089868434,-0.10146745,-0.3895985,-0.36863396,0.05984009,-3.0785801,0.62494236,-0.00032321864,-0.018237531,0.003809323,-0.0012687831,-0.005646733,-0.0024729946,-0.0054145744,0.50456834,-1.3809749,1.9037722,-2.091819,-1.5707315,2.4795854,-0.027264103,0.023817036,-0.025515642,0.0011104725,0.0060790423,-0.021846209,-0.24899697,-0.038307227,-9.615114,0.7642693,47.70838,-0.9670731,-2.734415,-3.3009462,-0.11991042,0.07566217,-0.22833717,24.75,25.3125,24.5,26.3125,26.5625,26.875
0.044053946,-1.0992868,-0.51048553,-1.6081605,-0.021818781,0.081253536,-0.096972905,-0.38963223,-0.36860004,0.059831757,-3.0785594,0.6250135,-0.0003634001,-0.019743646,0.0038850321,-0.00075722125,-0.005434794,-0.0006406832,-0.0046818657,0.50447226,-1.3809506,1.9037598,-2.0918076,-1.5707196,2.4795363,-0.028124394,0.024834238,-0.027839411,0.0009201808,0.005001375,-0.023436287,-0.21068975,0.095768064,-9.615114,0.7239871,47.698532,-0.97314113,-2.7148438,-3.2475934,-0.09912956,0.09707368,-0.24532619,24.75,25.3125,24.5,26.3125,26.5625,26.875
0.046053924,-1.0202845,-0.7557746,-1.6952261,-0.021859055,0.069891855,-0.09825928,-0.38968372,-0.36858994,0.05982616,-3.0785646,0.6250333,-0.00037472878,-0.02079829,0.0043965983,-0.00076945516,-0.005015272,-0.00032804697,-0.0037902808,0.50439996,-1.3808781,1.9036869,-2.0918076,-1.5707082,2.4794757,-0.029641999,0.025828402,-0.029013554,0.001031723,0.004480083,-0.025843918,-0.17238252,0.1340753,-9.519346,0.79560274,47.690468,-0.9236189,-2.739594,-3.2963176,-0.09054606,0.08499344,-0.2399627,24.75,25.3125,24.5,26.3125,26.5625,26.875
0.048053905,-0.23207013,-0.42539525,-1.6910548,-0.030913506,0.068280675,-0.09936825,-0.38974494,-0.3685995,0.05985428,-3.0786183,0.625044,-0.00030316718,-0.021282917,0.0053221444,-0.0010293263,-0.004308646,-0.0013955316,-0.0041454914,0.50435144,-1.380842,1.9035801,-2.0918071,-1.5706962,2.479427,-0.031585746,0.026274918,-0.029175509,0.002024104,0.0043807663,-0.027431937,-0.095768064,0.076614454,-9.557653,0.78217715,47.698532,-0.9400029,-2.6543522,-3.2974973,-0.11393285,0.10177347,-0.24897939,24.75,25.3125,24.5,26.3125,26.5625,26.875
0.050054286,-0.18099521,-0.89444727,-1.6706835,-0.022183478,0.042772107,-0.098577954,-0.38979596,-0.36858046,0.059848946,-3.078614,0.6251,-0.00026210176,-0.021879956,0.005793783,-0.001066777,-0.0041058296,-0.0020208175,-0.003271164,0.50427914,-1.3807937,1.9035434,-2.091843,-1.5707082,2.4793904,-0.033011448,0.026918128,-0.03005066,0.0029010056,0.0045056613,-0.029731708,-0.038307227,0.11492168,-9.461885,0.7642693,47.658226,-0.91893697,-2.6247938,-3.4007244,-0.09655885,0.103559524,-0.26030302,24.75,25.3125,24.5,26.3125,26.5625,26.875
0.05204323,0.2996577,-0.83769035,-1.5990442,-0.036601897,0.045607917,-0.101181075,-0.38983285,-0.36856952,0.059856467,-3.0786345,0.6250847,-0.00025961324,-0.023576867,0.0055129183,-0.00022283693,-0.0053157927,-0.00014817307,-0.0027632343,0.5042188,-1.3807694,1.9034947,-2.091831,-1.5706962,2.479318,-0.034213345,0.027739465,-0.032897737,0.0027026678,0.0046536694,-0.03144042,0.05746084,0.24899697,-9.442732,0.779936,47.647476,-0.8883334,-2.575786,-3.2969966,-0.1153329,0.10413882,-0.24034083,24.75,25.3125,24.5,26.3125,26.5625,26.875
0.054055694,-0.34034303,-1.5610982,-1.7281344,-0.032930147,0.03714935,-0.08290131,-0.38987276,-0.36854878,0.059827607,-3.0785894,0.62515277,-0.00031781805,-0.025145717,0.005902678,0.00021868458,-0.0064392723,0.0007328584,-0.00413561,0.5041463,-1.380673,1.9034466,-2.091831,-1.5706958,2.4792936,-0.036675338,0.028278822,-0.03448152,0.0024312974,0.0052060755,-0.032530464,0.0,0.2873042,-9.461885,0.80456203,47.696735,-0.82228214,-2.5874927,-3.2965295,-0.09265636,0.1212786,-0.270624,24.75,25.3125,24.5,26.3125,26.5625,26.875
0.05605449,-0.46819508,-1.4336631,-1.6077136,-0.049421016,0.04782282,-0.09225081,-0.3899274,-0.36853963,0.05986373,-3.078656,0.6251267,-0.00032387068,-0.026043776,0.0060388804,0.0004650526,-0.007162585,0.001350752,-0.0041243457,0.5040499,-1.3806729,1.9033507,-2.0917714,-1.5706476,2.4791725,-0.037945274,0.028650524,-0.03540442,0.0020930183,0.0055394443,-0.033811573,-0.038307227,0.28730422,-9.423578,0.74413085,47.69763,-0.7348621,-2.5237064,-3.2631664,-0.09534912,0.1305094,-0.28218147,24.75,25.3125,24.5,26.3125,26.5625,26.875
0.058054637,-0.32693666,-1.7756739,-1.5263224,-0.050284494,0.060869418,-0.082753666,-0.38996598,-0.3685291,0.05984149,-3.0786126,0.62507904,-0.00030337696,-0.026112638,0.0053115427,0.00060228875,-0.007794596,0.0013917233,-0.00216226,0.5040261,-1.3805766,1.9032902,-2.0917833,-1.5706958,2.4791245,-0.037114535,0.029412137,-0.036652457,0.002234894,0.0060697123,-0.034943357,0.0,0.3256114,-9.442732,0.683705,47.70211,-0.91891766,-2.5367146,-3.2718947,-0.084855035,0.11291182,-0.28162828,24.75,25.3125,24.5,26.3125,26.5625,26.875
0.060055166,-0.13874185,-1.3849742,-1.3073997,-0.05057755,0.06719406,-0.099346265,-0.39003694,-0.3685266,0.059855632,-3.0786846,0.6251507,-0.00029435052,-0.027011424,0.0058380864,0.00069957745,-0.00784281,0.0009599595,-0.0024749797,0.5039179,-1.3805283,1.9032062,-2.0918071,-1.5706352,2.4790518,-0.03898943,0.03010568,-0.037901413,0.0031470798,0.006322129,-0.03650507,-0.095768064,0.3256114,-9.423578,0.75084364,47.651955,-0.8732966,-2.5039706,-3.260764,-0.10495734,0.11723526,-0.3013784,24.75,25.3125,24.5,26.3125,26.5625,26.875
0.06205485,-0.2977806,-0.96675,-1.4650598,-0.044417154,0.058126688,-0.09154912,-0.39009988,-0.36853006,0.059891474,-3.0787506,0.625145,-0.00020734075,-0.02803236,0.0060020294,0.00058648206,-0.009011658,3.358938e-05,-0.0030349172,0.50385725,-1.3805159,1.9031099,-2.0918067,-1.5706228,2.4789793,-0.041130368,0.03152937,-0.03939899,0.0034634485,0.0077936146,-0.038087066,-0.05746084,0.24899697,-9.404425,0.7150385,47.6636,-0.8619194,-2.508829,-3.311626,-0.09333794,0.11463779,-0.30104563,24.75,25.3125,24.5,26.3125,26.5625,26.875
0.06405473,-0.7232811,-1.1794057,-1.3591598,-0.030830115,0.040001366,-0.088474415,-0.3901582,-0.36849827,0.05987698,-3.0787094,0.62523216,-0.00025015458,-0.028983619,0.0056933165,0.0011602611,-0.010329176,0.0010679887,-0.0031198133,0.50374925,-1.3804317,1.9030379,-2.0917833,-1.5706228,2.478931,-0.041897424,0.03182856,-0.04100823,0.0032301284,0.008443118,-0.038769834,-0.05746084,0.17238252,-9.3661175,0.7597976,47.65912,-0.83695805,-2.4305577,-3.2279274,-0.08814329,0.11276428,-0.3370365,24.75,25.3125,24.5,26.3125,26.5625,26.875
0.066055015,-0.6050667,-1.0315728,-1.2594928,-0.023317277,0.049865328,-0.09028051,-0.39020735,-0.36848897,0.059858248,-3.0787172,0.62525123,-0.00031726257,-0.029986415,0.0058383807,0.001133987,-0.010261766,0.0017909958,-0.0008427966,0.50366515,-1.3803351,1.9029664,-2.0917833,-1.5705866,2.4788578,-0.042813867,0.032995168,-0.042201646,0.0026602393,0.008030169,-0.041962106,-0.095768064,0.22984336,-9.404425,0.800085,47.674347,-0.89522946,-2.4644656,-3.3016424,-0.09131346,0.10401998,-0.32610452,24.75,25.3125,24.5,26.3125,26.5625,26.875
0.06805456,-0.4049251,-0.21754344,-1.1882699,-0.04290405,0.073188595,-0.09945355,-0.39028132,-0.36847427,0.059863392,3.0787354,-0.625255,0.0003115072,-0.031069469,0.0062381937,0.0011920475,-0.010164862,0.0024727262,-0.0007643184,0.50355685,-1.3802627,1.9028691,-2.0917833,-1.5705632,2.4787495,-0.044229113,0.033830106,-0.04324669,0.0023235881,0.0076147895,-0.04345437,-0.17238252,0.21068975,-9.251195,0.73069996,47.683304,-0.8656158,-2.4892585,-3.263835,-0.07111868,0.10729593,-0.33610845,24.75,25.3125,24.5,26.3125,26.5625,26.875
0.07005532,-0.4386242,-0.30966094,-1.0851227,-0.034338497,0.09024314,-0.09653385,-0.39033505,-0.36846694,0.05987805,3.0787525,-0.6251816,0.00026033213,-0.03215077,0.0057957424,0.0018710414,-0.012094988,0.0033116755,-0.0022787373,0.5035086,-1.3802146,1.9027733,-2.091759,-1.5705861,2.4786534,-0.045287527,0.034226414,-0.04524636,0.002255448,0.00889749,-0.042999353,-0.19153613,0.038307227,-9.308657,0.77545905,47.693153,-0.85747373,-2.4772377,-3.302733,-0.06368067,0.087450296,-0.37321776,24.75,25.3125,24.5,26.3125,26.5625,26.875
0.07205438,-0.5754523,-0.23873448,-1.0919513,-0.024878757,0.09315692,-0.09739764,-0.39040005,-0.36847332,0.059885126,3.078692,-0.625186,0.00023953734,-0.0327221,0.0056712683,0.002175129,-0.012807646,0.003255286,0.0006247563,0.50343645,-1.3801425,1.9026774,-2.0917833,-1.5705503,2.4785917,-0.046009794,0.034682333,-0.046620745,0.0028798315,0.009549818,-0.046625134,-0.24899697,0.05746084,-9.346964,0.7396539,47.690468,-0.94450414,-2.3442302,-3.2534957,-0.07667583,0.07401027,-0.37764886,24.75,25.3125,24.5,26.3125,26.5625,26.875
0.07405484,-0.9153918,-0.36910382,-1.1708322,-0.0051924926,0.080176786,-0.093584344,-0.39047578,-0.36844108,0.059889935,3.078684,-0.6252221,0.00026779016,-0.03364384,0.0062224064,0.0015907871,-0.012056316,0.0019792146,0.0017544351,0.5033042,-1.3800695,1.9025692,-2.0917346,-1.5705384,2.478483,-0.04776014,0.036927294,-0.048114516,0.0036113115,0.009505902,-0.049504336,-0.38307226,0.05746084,-9.308657,0.80456203,47.71286,-0.9000105,-2.4548974,-3.24539,-0.08566296,0.07875945,-0.36338282,24.75,25.3125,24.5,26.3125,26.5625,26.875
0.07605491,-0.9669044,-0.045139328,-1.1995733,-0.0055522467,0.080755346,-0.092712596,-0.39051217,-0.3684288,0.059860386,3.0786872,-0.62518275,0.00037638127,-0.034894228,0.006987681,0.0013282382,-0.0121199945,0.0013466467,0.004428142,0.50321954,-1.3799727,1.902522,-2.0917346,-1.5704902,2.4783733,-0.050429475,0.03835039,-0.04926055,0.0038606958,0.009862267,-0.054847766,-0.32561144,-0.038307227,-9.346964,0.75084364,47.70211,-0.8306622,-2.4539728,-3.2872033,-0.07867562,0.08620394,-0.32206824,24.75,25.3125,24.5,26.3125,26.5625,26.875
0.07805457,-0.8587481,-0.1943135,-1.1483524,-0.011265973,0.08923922,-0.094455555,-0.39059728,-0.36842114,0.059881948,3.078631,-0.62516904,0.00032904814,-0.034466643,0.00628116,0.0010366287,-0.012300655,0.0009947692,0.006682769,0.5031122,-1.3799125,1.9024018,-2.0917351,-1.5704659,2.4782646,-0.04903853,0.03917616,-0.0494907,0.0034876503,0.010192825,-0.055711105,-0.40222588,-0.05746084,-9.289502,0.7911258,47.65643,-0.9412025,-2.4309912,-3.334377,-0.08901648,0.06265073,-0.31436837,24.75,25.3125,24.5,26.3125,26.5625,26.875
0.080055274,-1.514617,-0.28340262,-1.2500001,-0.014498182,0.07989885,-0.09355768,-0.3906931,-0.36840963,0.059906464,3.0785892,-0.62517935,0.00025760883,-0.03706214,0.0061533055,0.0018865265,-0.013301769,0.003395809,0.006741672,0.5030036,-1.3798399,1.9022573,-2.0917232,-1.5704659,2.4781678,-0.05105073,0.04109121,-0.053604458,0.0031027675,0.009906664,-0.057779167,-0.36391866,-0.11492168,-9.32781,0.77545905,47.686886,-0.97804797,-2.3623435,-3.132812,-0.0740023,0.06631623,-0.32494223,24.75,25.3125,24.5,26.3125,26.5625,26.875
0.082054235,-1.0726789,-0.44446132,-1.2798843,-0.0118216975,0.091972895,-0.0878535,-0.39075777,-0.36841306,0.059918046,3.0785432,-0.62507117,0.00025064984,-0.03719689,0.00701834,0.0013642658,-0.012692717,0.0023170665,0.009963319,0.5029194,-1.3797796,1.9021624,-2.0917351,-1.5704182,2.4780219,-0.052616723,0.041359577,-0.05276646,0.0032401185,0.009898717,-0.06256665,-0.38307226,0.05746084,-9.289502,0.75084364,47.66808,-0.92371136,-2.39795,-3.18922,-0.064847015,0.06841439,-0.29090458,24.75,25.3125,24.5,26.3125,26.5625,26.875
0.08405517,-0.9068617,-0.41002935,-1.3454703,-0.01382144,0.09593031,-0.08811935,-0.39080405,-0.36838385,0.05988052,3.078617,-0.6249889,0.00032579343,-0.038045283,0.008302711,0.00013915858,-0.011312496,2.3698432e-05,0.0114049995,0.50283456,-1.3796587,1.9021019,-2.0917227,-1.5704302,2.4778764,-0.055494342,0.043857135,-0.053042945,0.0036953497,0.009790944,-0.06688606,-0.28730422,0.05746084,-9.32781,0.779936,47.711063,-0.7680377,-2.486635,-3.4171119,-0.071106926,0.06717316,-0.24612272,24.75,25.3125,24.5,26.3125,26.5625,26.875
0.0860545,-1.4070427,-0.49227718,-1.2429103,-0.017742118,0.07964754,-0.08358629,-0.3909054,-0.36838058,0.05991394,3.078555,-0.6249346,0.00022291113,-0.038368303,0.007367574,0.0010163414,-0.011842362,0.0014460655,0.016170653,0.50272727,-1.3795985,1.9019574,-2.0917346,-1.5704182,2.4777431,-0.054073274,0.04390492,-0.055245608,0.0043521654,0.009573854,-0.07022857,-0.3256114,0.11492168,-9.308656,0.784413,47.67614,-0.8336813,-2.37323,-3.320221,-0.07470426,0.06342606,-0.19346493,24.75,25.3125,24.5,26.375,26.5625,26.875
0.08805486,-0.7616722,-0.25783017,-1.2229993,-0.017633848,0.089291796,-0.09604268,-0.39097282,-0.36835727,0.05989964,3.0785418,-0.6248925,0.0003014462,-0.04024772,0.006716244,0.0018036609,-0.0138018215,0.002621624,0.017582873,0.502595,-1.3795019,1.901873,-2.0917227,-1.5703696,2.4775863,-0.055427708,0.045633845,-0.059127048,0.0045320387,0.010715992,-0.07299528,-0.38307226,0.11492168,-9.308656,0.75755644,47.694054,-0.98339236,-2.4660788,-3.1779845,-0.08835053,0.07739556,-0.1638647,24.75,25.3125,24.5,26.375,26.5625,26.875
0.09005445,-1.0379179,-0.6368685,-1.4082887,-0.01406196,0.07860335,-0.085051894,-0.39106047,-0.36835283,0.05990889,3.0785296,-0.62483203,0.00028685047,-0.040617105,0.007851477,0.0008138842,-0.012746343,0.0013097358,0.017021492,0.50249857,-1.3793933,1.901718,-2.091699,-1.5703577,2.4774537,-0.057487827,0.04674361,-0.058080778,0.004037567,0.010426516,-0.07449358,-0.3256114,0.095768064,-9.308656,0.81351066,47.689575,-0.90090466,-2.396801,-3.1967497,-0.08272222,0.06805847,-0.13050435,24.75,25.3125,24.5,26.375,26.5625,26.875
0.092054725,-1.2823546,-0.6986204,-1.2945966,-0.028336614,0.06896658,-0.0820672,-0.39115986,-0.3683177,0.059913326,3.0785131,-0.62484694,0.00023317094,-0.041396208,0.008008438,0.0008923644,-0.012441718,0.0020362763,0.017712599,0.5023548,-1.379309,1.9016107,-2.0917103,-1.5703701,2.4773214,-0.05807817,0.04751023,-0.05912198,0.003825338,0.0098106535,-0.07577326,-0.2873042,0.1340753,-9.308656,0.75755644,47.66808,-0.9500214,-2.491603,-3.369555,-0.07294973,0.0725341,-0.10038258,24.75,25.3125,24.5,26.375,26.5625,26.875
0.09405431,-0.5958631,-1.075255,-1.1175687,-0.03400576,0.08806543,-0.09471718,-0.39125773,-0.3683092,0.059909217,3.0784984,-0.6247479,0.00022834117,-0.042603005,0.007751928,0.0013968246,-0.01342185,0.0029226532,0.016290586,0.50223464,-1.3791766,1.9014663,-2.0917227,-1.5703462,2.4771414,-0.059021875,0.048444673,-0.061403614,0.0039250567,0.01024105,-0.075294256,-0.24899697,0.21068975,-9.270349,0.7418897,47.690468,-0.97142816,-2.4461317,-3.2633195,-0.07771905,0.062408064,-0.08830574,24.75,25.3125,24.5,26.375,26.5625,26.875
0.09605496,-1.0445766,-1.4045922,-1.3576229,-0.029454302,0.07426308,-0.08441415,-0.39132145,-0.3682802,0.05990892,3.0785286,-0.6246771,0.00025727932,-0.043171644,0.007946197,0.00023341012,-0.012336734,0.0011036058,0.015361668,0.50212663,-1.3791034,1.9013695,-2.091675,-1.5703462,2.4769855,-0.059819464,0.05175433,-0.06270225,0.00403217,0.0101619335,-0.07516203,-0.38307226,0.24899697,-9.308657,0.7911258,47.690468,-0.9970056,-2.5115895,-3.2583103,-0.07671575,0.06602488,-0.076598346,24.75,25.3125,24.5,26.375,26.5625,26.875
0.09805499,-1.2136307,-1.3950034,-1.4830782,-0.026331726,0.06415903,-0.07815833,-0.39140105,-0.36825913,0.059905075,3.078509,-0.6246356,0.00029524512,-0.044038236,0.008082209,0.001413813,-0.01323389,0.0034027898,0.013480163,0.50199467,-1.3790078,1.9012622,-2.0916626,-1.57031,2.47683,-0.060638353,0.050147302,-0.063475356,0.003969945,0.009841011,-0.07409893,-0.19153613,0.24899697,-9.404425,0.75755644,47.681515,-1.0204896,-2.454287,-3.325992,-0.07337965,0.07983093,-0.07949034,24.75,25.3125,24.5,26.375,26.5625,26.875
0.100055024,-0.6508526,-1.431672,-1.5714024,-0.026915742,0.06953508,-0.084904306,-0.39150056,-0.36825156,0.059904646,3.0784762,-0.6246294,0.0002917713,-0.04468562,0.008014235,0.0014567248,-0.013617608,0.00314091,0.011078722,0.5018746,-1.3788753,1.9011062,-2.0916626,-1.5702862,2.4767103,-0.06139808,0.051199812,-0.0649252,0.0044128746,0.010303936,-0.072456926,-0.11492168,0.19153613,-9.461885,0.87393653,47.704796,-1.0869855,-2.3549495,-3.286778,-0.064087376,0.07740292,-0.10363032,24.75,25.3125,24.5,26.375,26.5625,26.875
0.10205473,-0.5551597,-1.3735112,-1.5257912,-0.029476142,0.060143884,-0.08035438,-0.39157835,-0.36821455,0.05990729,3.0785165,-0.6245996,0.00029741853,-0.045224823,0.008051495,0.00091957994,-0.013334022,0.0021910707,0.00876855,0.5017547,-1.3787906,1.9009866,-2.091603,-1.5703095,2.4765668,-0.06207795,0.053213913,-0.066127375,0.0045682765,0.010509094,-0.07082638,-0.17238252,0.22984336,-9.385271,0.7620334,47.699425,-1.117525,-2.5049791,-3.30237,-0.06469809,0.060610212,-0.1289173,24.75,25.3125,24.5,26.375,26.5625,26.875
0.10405449,-0.5116993,-1.4499185,-1.6802412,-0.0267688,0.04729052,-0.0777546,-0.39168844,-0.36819652,0.05989206,3.0785098,-0.62456095,0.00027092695,-0.046601616,0.008319564,0.00021983808,-0.013025919,0.0018512723,0.005818875,0.50162244,-1.3786333,1.900843,-2.0916388,-1.57031,2.4764113,-0.063721634,0.056192186,-0.06789754,0.0038075447,0.010399217,-0.06951877,-0.1340753,0.2873042,-9.423578,0.7463667,47.666286,-1.0800729,-2.5714421,-3.333782,-0.09026003,0.074002646,-0.1591064,24.75,25.3125,24.5,26.375,26.5625,26.875
0.10605432,-0.09473361,-1.2894284,-1.7125008,-0.036136113,0.04787775,-0.08095309,-0.39179736,-0.36820033,0.05991368,3.0784142,-0.6245224,0.00022976016,-0.04754609,0.008061999,0.0012723167,-0.014849774,0.0039271154,0.003722447,0.50149035,-1.3785377,1.9006861,-2.0916631,-1.5702499,2.4762673,-0.064520724,0.05516365,-0.06893448,0.003178773,0.011003568,-0.06822101,0.0,0.30645782,-9.481039,0.7105615,47.698532,-1.1212833,-2.434353,-3.294493,-0.08932131,0.04885765,-0.20111278,24.75,25.3125,24.5,26.375,26.5625,26.875
0.10805442,0.17266417,-0.9492856,-1.5974938,-0.047149777,0.048947692,-0.08299833,-0.39188987,-0.36818624,0.059915565,3.078395,-0.6244814,0.00026823196,-0.048986703,0.008280522,0.0016650821,-0.015161225,0.0054364484,0.0016336867,0.5013583,-1.3784173,1.9005312,-2.0916274,-1.5702137,2.4761121,-0.06592321,0.05592583,-0.07061058,0.0026247217,0.010547498,-0.06753333,-0.05746084,0.24899697,-9.442732,0.8314132,47.683304,-1.1186426,-2.422371,-3.3497689,-0.06447882,0.06283669,-0.21850365,24.75,25.3125,24.5,26.375,26.5625,26.875
0.1100551,-0.27848324,-1.4535979,-1.4834327,-0.034227923,0.038915005,-0.082644805,-0.39199033,-0.3681424,0.059883416,3.0784266,-0.6245458,0.0002619947,-0.049830906,0.008825236,0.00089100515,-0.0146526825,0.0044513615,-0.00041659828,0.50121397,-1.3782603,1.9004239,-2.0916517,-1.5702499,2.4760041,-0.06762112,0.058069494,-0.07132502,0.0023026257,0.010572492,-0.06718062,0.038307227,0.24899697,-9.385271,0.800085,47.689575,-1.1163375,-2.413495,-3.3909473,-0.062111203,0.059634387,-0.25126517,24.75,25.3125,24.5,26.375,26.5625,26.875
0.11205505,-0.08415722,-1.1588196,-1.6857061,-0.02936982,0.043258447,-0.07933557,-0.392089,-0.36814776,0.059915032,3.0783668,-0.6244159,0.00025205524,-0.050623685,0.008552812,0.0012016319,-0.01518672,0.0050209835,0.0022565853,0.5010941,-1.3781762,1.9002441,-2.0916154,-1.5701898,2.4758108,-0.06800222,0.058929104,-0.0730874,0.0024554406,0.010769715,-0.0702337,0.076614454,0.24899697,-9.270349,0.7642693,47.71286,-1.1690669,-2.4804103,-3.327407,-0.07934504,0.0767281,-0.25035468,24.75,25.3125,24.5,26.375,26.5625,26.875
0.11405493,0.09762288,-1.0316399,-1.5084827,-0.023319349,0.048433293,-0.08459022,-0.39220148,-0.36813012,0.059911862,3.0783095,-0.6244438,0.00024586322,-0.051808115,0.0090218885,0.001302826,-0.014797341,0.0054314905,-0.0007508226,0.500938,-1.3780435,1.9000996,-2.0916393,-1.5701541,2.4756794,-0.06953237,0.060022496,-0.0746992,0.002806176,0.010232268,-0.06875465,0.095768064,0.19153613,-9.32781,0.7933669,47.687782,-1.1746504,-2.4457977,-3.313058,-0.0657082,0.059315696,-0.2818987,24.75,25.3125,24.5,26.375,26.5625,26.875
0.11605512,-0.37508515,-0.85459024,-1.5865742,-0.020968743,0.04598861,-0.07204916,-0.39228493,-0.36810958,0.05991627,3.0783036,-0.6244226,0.0002588899,-0.052197207,0.0084496355,0.0017348083,-0.01647102,0.005237068,-0.0014142906,0.50081813,-1.3779473,1.8999676,-2.0916035,-1.5701412,2.475547,-0.069886304,0.060356338,-0.07620279,0.0033390953,0.011793076,-0.06844641,-0.019153614,0.22984336,-9.385271,0.75755644,47.690468,-1.2102408,-2.3556774,-3.3839583,-0.05310967,0.06277878,-0.32485464,24.75,25.3125,24.5,26.375,26.5625,26.875
0.118054815,-0.69814503,-0.64657253,-1.6610725,-0.020903593,0.056449953,-0.07245672,-0.39239615,-0.36809653,0.05990279,3.0782928,-0.62439924,0.00025933163,-0.053510908,0.00842879,0.0008907669,-0.015748912,0.0041079945,0.00063045253,0.50068605,-1.3777776,1.8997997,-2.091615,-1.5701298,2.4754019,-0.07099028,0.0643646,-0.07909265,0.0035623459,0.011698947,-0.07159316,-0.095768064,0.24899697,-9.32781,0.83589023,47.674347,-1.2202055,-2.5804396,-3.1893244,-0.06563938,0.044227563,-0.35211128,24.75,25.3125,24.5,26.375,26.5625,26.875
0.12005505,-0.6727949,-1.1165018,-1.5540862,-0.009162348,0.067410216,-0.074403286,-0.39247692,-0.3680618,0.059890635,3.0782762,-0.6244562,0.0003396952,-0.053505037,0.008685137,0.001616622,-0.016398523,0.0049772225,-0.0027532252,0.5005301,-1.3776703,1.8996919,-2.0915787,-1.570093,2.4752836,-0.0714924,0.062433444,-0.078528464,0.0038571365,0.011852149,-0.068712786,-0.21068975,0.19153613,-9.461885,0.82694155,47.68062,-1.2345822,-2.3990593,-3.3386016,-0.0833402,0.046138607,-0.39655995,24.75,25.3125,24.5,26.375,26.5625,26.875
0.12205484,-0.4416955,-0.84571546,-1.669819,-0.023139223,0.08089914,-0.08487984,-0.39259577,-0.36804998,0.05991257,3.0782197,-0.6244439,0.0002908645,-0.05669891,0.008685995,0.0032996016,-0.018704912,0.008110929,-0.004977706,0.5003854,-1.377562,1.8995112,-2.0915673,-1.5700692,2.4751384,-0.07474528,0.063235156,-0.08334783,0.004020903,0.012368459,-0.06973905,-0.17238252,0.17238252,-9.385271,0.779936,47.655537,-1.3045475,-2.3504634,-3.2044847,-0.07077988,0.036621347,-0.46482265,24.75,25.3125,24.5,26.375,26.5625,26.875
0.12405448,-0.89340365,-1.0029008,-1.7084657,-0.020892275,0.07342418,-0.07989526,-0.3927172,-0.3680313,0.05990608,3.0782068,-0.62440044,0.00025114833,-0.05569657,0.0088995695,0.0007665996,-0.01558284,0.003925768,-0.0009240995,0.500242,-1.3774042,1.8993443,-2.0915911,-1.5700697,2.4749696,-0.07370644,0.06754292,-0.08276797,0.004309454,0.011643818,-0.072752185,-0.2681506,0.24899697,-9.519346,0.84708,47.696735,-1.2420572,-2.5018659,-3.1934812,-0.063938424,0.046025425,-0.48331445,24.75,25.3125,24.5,26.375,26.5625,26.875
0.1260547,-1.3034837,-0.9588385,-1.6168768,-0.025381133,0.077581234,-0.07970514,-0.3928459,-0.36798534,0.059914168,3.0781713,-0.6244868,0.00024881063,-0.056870237,0.00897669,0.0020605172,-0.01685357,0.006085079,0.0012024557,0.5000381,-1.3772846,1.899176,-2.0915549,-1.5700573,2.4748242,-0.07494347,0.06629595,-0.084303685,0.00459314,0.011725243,-0.07611535,-0.38307226,0.15322891,-9.461885,0.7709874,47.687782,-1.4102318,-2.4898448,-3.3413877,-0.06334025,0.05002699,-0.47485995,24.75,25.3125,24.5,26.375,26.5625,26.875
0.12805498,-0.9434266,-0.9218291,-1.7365208,-0.03357863,0.10093062,-0.08932545,-0.39294407,-0.36799818,0.059923146,3.0781088,-0.6243564,0.0002918022,-0.059311215,0.010129379,0.002471623,-0.017552836,0.0068072337,0.0036321175,0.49991676,-1.3771521,1.8989958,-2.0915425,-1.5699733,2.4746294,-0.07928091,0.06740749,-0.08661875,0.004839507,0.011995115,-0.08288129,-0.40222588,0.21068975,-9.557653,0.7978386,47.67614,-1.2252489,-2.3417072,-3.2625475,-0.09532174,0.050116893,-0.46337962,24.75,25.3125,24.5,26.375,26.5625,26.875
0.13005444,-1.3144283,-0.4922871,-1.7276495,-0.03876951,0.09550784,-0.095503055,-0.39304283,-0.36797473,0.059904967,3.0781405,-0.62432045,0.0003371578,-0.058633108,0.0091172345,0.0020885286,-0.017242664,0.0060604177,0.010149579,0.49978605,-1.3769833,1.8988289,-2.0915067,-1.5699733,2.4744723,-0.076987416,0.06878153,-0.08744758,0.0051028007,0.012079763,-0.087105304,-0.34476504,0.17238252,-9.576807,0.85826975,47.694946,-1.364331,-2.4441576,-3.2194152,-0.09284632,0.053399183,-0.43261015,24.75,25.3125,24.5,26.375,26.5625,26.875
0.13205485,-1.0349197,-0.72543395,-1.6252872,-0.035330072,0.11038199,-0.080096975,-0.3931817,-0.3679551,0.05991303,3.0781207,-0.62421745,0.0002925925,-0.060008314,0.009961121,0.0021999402,-0.017483918,0.006379731,0.013072847,0.49961737,-1.3768271,1.8986253,-2.0915067,-1.5699614,2.474242,-0.07968624,0.06937715,-0.088411726,0.005082548,0.012144954,-0.09272645,-0.51714754,0.22984336,-9.5385,0.80456203,47.687782,-1.3853679,-2.3816276,-3.3296366,-0.09221898,0.044318028,-0.39263293,24.75,25.3125,24.5,26.375,26.5625,26.875
0.13405427,-1.3857865,-0.5211525,-1.4924685,-0.03569254,0.108596124,-0.08457136,-0.39330122,-0.367934,0.059911355,3.0780947,-0.62413096,0.00030188268,-0.060983967,0.010513779,0.0020802058,-0.01741479,0.006453828,0.019406874,0.49944913,-1.3766826,1.8984579,-2.0915067,-1.5699252,2.474023,-0.08143222,0.070291266,-0.08919896,0.0049358304,0.012054466,-0.10080564,-0.47884035,0.21068975,-9.500193,0.85826975,47.690468,-1.380857,-2.3634005,-3.371428,-0.10569256,0.047215655,-0.2993368,24.75,25.3125,24.5,26.375,26.5625,26.875
0.13605514,-1.1941059,-0.30633163,-1.6063162,-0.025118737,0.110188104,-0.086918026,-0.3934241,-0.3679218,0.05991822,3.0780346,-0.6240971,0.00026751464,-0.061523817,0.010696019,0.002044344,-0.018050708,0.0067261974,0.022197811,0.4992931,-1.3765504,1.898291,-2.091531,-1.5698894,2.4738536,-0.08247974,0.070566565,-0.089287065,0.004212118,0.012490356,-0.1046437,-0.4405331,0.076614454,-9.557653,0.8179876,47.707485,-1.3382461,-2.26143,-3.3994098,-0.08215541,0.03300066,-0.2804905,24.75,25.3125,24.5,26.375,26.5625,26.875
0.13805485,-1.4725819,-0.53585786,-1.5665245,-0.017595088,0.092170306,-0.074003704,-0.39354473,-0.36788002,0.05991362,3.078057,-0.6240235,0.00028047262,-0.06495495,0.011667707,0.0029997088,-0.018841837,0.009442999,0.022232719,0.49911192,-1.3764057,1.8981217,-2.0914953,-1.5698899,2.4736238,-0.08686726,0.07202438,-0.0931092,0.003820505,0.011878792,-0.109063886,-0.59376204,0.038307227,-9.557653,0.800085,47.70032,-1.2263362,-2.3575926,-3.1660705,-0.08424827,0.050920993,-0.21562362,24.75,25.3125,24.5,26.375,26.5625,26.875
0.14005467,-0.9343519,0.02264102,-1.379572,-0.02330126,0.101825826,-0.08844451,-0.39368746,-0.36787394,0.0599215,3.077975,-0.6240051,0.0002713891,-0.06406843,0.011321083,0.0022293837,-0.01809191,0.008176717,0.025252644,0.49893278,-1.3762373,1.8979067,-2.0915072,-1.5698298,2.4734435,-0.085409775,0.07294273,-0.09243088,0.0037048736,0.011837643,-0.11062575,-0.53630114,-0.038307227,-9.519346,0.8247004,47.703007,-1.3712709,-2.2793858,-3.3893766,-0.10041683,0.067240916,-0.17061955,24.75,25.3125,24.5,26.375,26.5625,26.875
0.14205498,-1.2708532,-0.1605865,-1.4867914,-0.010990164,0.0961927,-0.073219605,-0.3938032,-0.36784875,0.059936427,3.0779612,-0.62390727,0.00024063213,-0.06747116,0.010963442,0.0041414043,-0.020854257,0.012147834,0.022050556,0.4987762,-1.3761288,1.8977388,-2.0914838,-1.5698174,2.4732277,-0.088238016,0.07380968,-0.09772597,0.0033253462,0.012357676,-0.1102497,-0.59376204,-0.05746084,-9.481039,0.8112748,47.679718,-1.3738525,-2.219958,-3.2812653,-0.068558596,0.054232568,-0.14945266,24.75,25.3125,24.5,26.375,26.5625,26.875
0.14405502,-1.1280286,0.19884914,-1.3765385,-0.013174464,0.09486738,-0.08548626,-0.3939526,-0.36780882,0.059919022,3.0779731,-0.62385386,0.00024195679,-0.06749308,0.012499526,0.002733755,-0.018980147,0.00984907,0.01713176,0.49857178,-1.3759242,1.8975357,-2.0914838,-1.5698179,2.4729886,-0.0904678,0.075053684,-0.096006036,0.0032786278,0.011817133,-0.10756073,-0.51714754,-0.076614454,-9.423578,0.8627467,47.728977,-1.0806568,-2.2456422,-3.3198109,-0.09099066,0.062276796,-0.16465843,24.75,25.3125,24.5,26.375,26.5625,26.875
0.14605486,-0.88051295,-0.35338914,-1.4694532,-0.002673536,0.09547338,-0.07943005,-0.39409384,-0.36778802,0.059954226,3.0779123,-0.6238242,0.00017982342,-0.069342226,0.012377197,0.0036436354,-0.020296404,0.011626641,0.011432282,0.4983918,-1.3758157,1.8973187,-2.0914476,-1.5697936,2.4727979,-0.09212062,0.07582964,-0.09900857,0.003314645,0.0121255405,-0.10351219,-0.49799395,0.0,-9.3661175,0.8112748,47.66091,-1.2785807,-2.275179,-3.2080832,-0.08635651,0.059973903,-0.2338942,24.75,25.3125,24.5,26.375,26.5625,26.875
0.14805448,-0.86309224,0.09785699,-1.3511773,-0.022532811,0.09890177,-0.08152522,-0.3942068,-0.36775583,0.059932426,3.0779119,-0.623693,0.00021885238,-0.07031732,0.01341348,0.0030378418,-0.01957042,0.010576697,0.0047323247,0.49821132,-1.3756593,1.8971881,-2.0914714,-1.5697573,2.4725356,-0.09464434,0.07736659,-0.09952352,0.0035643985,0.0119897835,-0.09933547,-0.51714754,0.095768064,-9.32781,0.86498255,47.689575,-1.2100306,-2.1852672,-3.3062668,-0.07931727,0.07304136,-0.29501957,24.75,25.3125,24.5,26.375,26.5625,26.875
0.15005559,-1.0703993,-0.53052163,-1.4256558,-0.00882775,0.09065564,-0.08421519,-0.3943959,-0.36774215,0.05997062,3.0778198,-0.6237129,8.926212e-05,-0.071372926,0.014064005,0.0024576746,-0.019489883,0.008936773,0.0018126377,0.49800682,-1.3754902,1.8969005,-2.0914714,-1.569745,2.4723554,-0.09711294,0.079567775,-0.10099757,0.004317131,0.012716154,-0.098882675,-0.45968673,0.019153614,-9.3661175,0.85155696,47.690468,-1.0680729,-2.2425866,-3.2886634,-0.08786385,0.08113127,-0.32097372,24.75,25.3125,24.5,26.375,26.5625,26.875
0.1520553,-0.9190669,-0.53251284,-1.4231294,-0.015675774,0.08784633,-0.07847896,-0.39453447,-0.36770943,0.059974343,3.0777595,-0.6237577,8.292149e-05,-0.07257439,0.01512009,0.0023629172,-0.019316623,0.00881963,0.00035280353,0.49780235,-1.3753458,1.8967208,-2.0914714,-1.5697092,2.4721866,-0.099897675,0.080191,-0.10156252,0.0044523706,0.01262695,-0.10020679,-0.3256114,-0.038307227,-9.404425,0.8090337,47.690468,-0.9757968,-2.2678912,-3.3795996,-0.07354342,0.06650306,-0.3326076,24.75,25.3125,24.5,26.375,26.5625,26.875
0.1540549,-1.0143698,-0.7071228,-1.308108,-0.017318688,0.08180982,-0.07364557,-0.39468136,-0.3676885,0.05997479,3.0777104,-0.62374777,7.744273e-05,-0.07413027,0.015427192,0.0029162066,-0.020055456,0.010006257,-0.00020267114,0.4976101,-1.3751656,1.8965057,-2.0914714,-1.5696734,2.4719944,-0.10185615,0.08078322,-0.103533365,0.0044428264,0.012713298,-0.10160858,-0.38307226,-0.019153614,-9.423578,0.82694155,47.683304,-0.86788505,-2.2010386,-3.3474627,-0.07998571,0.0917737,-0.3462567,24.75,25.3125,24.5,26.375,26.5625,26.875
0.15605581,-0.79728436,-0.49954414,-1.3182468,-0.023232488,0.0840067,-0.08776443,-0.39484006,-0.36765397,0.059996955,3.077684,-0.6236854,7.3391047e-06,-0.07485286,0.015804255,0.0026740353,-0.020423543,0.0093897795,-0.002697273,0.49740615,-1.3750211,1.8962783,-2.091447,-1.569673,2.471755,-0.10349912,0.08181806,-0.10422616,0.00446645,0.013338438,-0.10075618,-0.4405331,0.076614454,-9.346964,0.7396539,47.674347,-0.86977684,-2.2003846,-3.339911,-0.06738611,0.09806177,-0.39484072,24.75,25.3125,24.5,26.375,26.5625,26.875
0.15805462,-0.63689345,-0.61990935,-1.3679136,-0.028055914,0.09912919,-0.08085603,-0.39498335,-0.36759835,0.05996959,3.0776746,-0.6237195,6.311057e-05,-0.07586612,0.016098993,0.001836436,-0.019671487,0.008139151,-0.0020484247,0.49716622,-1.3748277,1.8961109,-2.091447,-1.5696486,2.4715376,-0.10484445,0.08493857,-0.10609163,0.004677392,0.013273671,-0.1027495,-0.38307226,0.15322891,-9.289502,0.7642693,47.707485,-0.8671621,-2.383253,-3.275958,-0.081632845,0.10680641,-0.4058868,24.75,25.3125,24.5,26.375,26.5625,26.875
0.16005537,-0.5128178,-0.61411834,-1.2177598,-0.023195833,0.11013786,-0.09527618,-0.39510202,-0.36756912,0.059978813,3.0776484,-0.62371385,0.00010021046,-0.07638853,0.016235135,0.002859606,-0.020957582,0.009321825,-0.0034577772,0.4969861,-1.3746963,1.8959202,-2.091387,-1.5696129,2.4713573,-0.10587,0.08329355,-0.10658303,0.005164634,0.013842926,-0.10236621,-0.40222588,0.17238252,-9.385271,0.85826975,47.703903,-0.90122294,-2.1360445,-3.402813,-0.078910895,0.1126773,-0.42905074,24.75,25.3125,24.5,26.375,26.5625,26.875
0.16205436,-0.5528247,-0.4542402,-1.3296515,-0.029956661,0.10849818,-0.08595739,-0.39531744,-0.3675494,0.060008638,3.0775762,-0.6236942,-9.649785e-05,-0.077927284,0.015996492,0.0024430864,-0.020783009,0.008978624,0.0033847555,0.49677038,-1.3744907,1.8956193,-2.0914352,-1.5696367,2.4711387,-0.10684358,0.08693299,-0.11001553,0.0053515504,0.01387224,-0.1101785,-0.30645782,0.24899697,-9.251195,0.7709874,47.635834,-0.8902664,-2.1607091,-3.318777,-0.07713938,0.11476065,-0.38540363,24.75,25.3125,24.5,26.375,26.5625,26.875
0.16405497,-0.29683155,-0.40111926,-1.2216249,-0.0266835,0.1070071,-0.08673701,-0.39542606,-0.36751404,0.059975773,3.0775583,-0.62366825,3.6916237e-05,-0.07687542,0.016203213,0.00158342,-0.020430835,0.0071221837,0.008353093,0.49656686,-1.3743106,1.8954772,-2.0914228,-1.5695647,2.4709213,-0.10655422,0.08693106,-0.108037956,0.005189968,0.014453344,-0.1148593,-0.13407528,0.21068975,-9.212888,0.83589023,47.64479,-0.97009826,-2.3102016,-3.4315012,-0.09576677,0.1256384,-0.37012124,24.75,25.3125,24.5,26.375,26.5625,26.875
0.16605467,-0.22122408,-1.0789119,-1.4081938,-0.01482234,0.09028432,-0.07806453,-0.3956187,-0.36748526,0.060007755,3.0774653,-0.62364304,-8.4165e-05,-0.07880869,0.015178708,0.002377408,-0.02132671,0.009420217,0.016079122,0.4963275,-1.3741536,1.8952235,-2.0914466,-1.5695409,2.470678,-0.10637081,0.08933891,-0.11266489,0.0049778805,0.014161773,-0.12239789,-0.1340753,0.19153613,-9.174581,0.85826975,47.65912,-1.0450947,-2.210175,-3.3170238,-0.068709366,0.13588656,-0.31288207,24.75,25.3125,24.5,26.375,26.5625,26.875
0.16805515,-0.21766588,-0.78897166,-1.5046842,-0.02172404,0.06542299,-0.07626103,-0.39575672,-0.3674385,0.059988327,3.0774965,-0.6235694,-5.2667037e-05,-0.079789005,0.01698563,0.0012230313,-0.020766176,0.0072073825,0.01954985,0.49612242,-1.3739609,1.8950332,-2.0914233,-1.5695404,2.4704232,-0.110614926,0.09083331,-0.111804225,0.0048456737,0.014732245,-0.1301135,-0.05746084,0.2681506,-9.174581,0.81351066,47.64837,-0.91510355,-2.252714,-3.420608,-0.07373622,0.12802026,-0.22929442,24.75,25.3125,24.5,26.375,26.5625,26.875
0.17005482,-0.1894072,-1.0472823,-1.3509852,-0.023930853,0.055045858,-0.07745859,-0.39592645,-0.3673949,0.059969027,3.0774858,-0.62348646,-1.527432e-05,-0.0801008,0.015771827,0.001757566,-0.020518096,0.008763827,0.024987454,0.4958719,-1.3737322,1.8948053,-2.0914228,-1.5695046,2.4701223,-0.10822081,0.09200738,-0.1144988,0.005130854,0.013775259,-0.13315542,-0.076614454,0.2681506,-9.136273,0.89631605,47.657326,-1.0866166,-2.2929447,-3.4191532,-0.08263154,0.1559324,-0.14866938,24.75,25.3125,24.5,26.375,26.5625,26.875
0.17200798,0.21153541,-0.80133307,-1.4591438,-0.026049811,0.06056633,-0.08140475,-0.3960751,-0.36735064,0.059967365,3.0774891,-0.62339115,-1.52175635e-05,-0.082669035,0.017453192,0.0007771751,-0.019764876,0.007214997,0.022521185,0.4956544,-1.3735627,1.8946022,-2.091399,-1.5694927,2.469845,-0.11339442,0.095871404,-0.11695031,0.0054466943,0.013852581,-0.13586116,-0.05746084,0.2681506,-9.212888,0.8023209,47.66987,-0.8429696,-2.327941,-3.312904,-0.05922632,0.16859129,-0.08146565,24.75,25.3125,24.5,26.375,26.5625,26.875
0.17405473,0.09867644,-0.9029567,-1.7005074,-0.020917533,0.06108349,-0.08009589,-0.39625958,-0.36733335,0.059997916,3.0774071,-0.6233373,-6.892689e-05,-0.08267777,0.016625702,0.002136421,-0.02103409,0.008844825,0.019253815,0.4954274,-1.373383,1.8943137,-2.0913746,-1.569445,2.469595,-0.11217565,0.09426245,-0.11836327,0.006434076,0.014203591,-0.13137382,-0.05746084,0.28730422,-9.232041,0.8940802,47.677036,-1.063174,-2.2516685,-3.3530335,-0.09462464,0.1889312,-0.12445352,24.75,25.3125,24.5,26.375,26.5625,26.875
0.17605393,-0.31046057,-1.2581278,-1.5318694,-0.029680585,0.05472217,-0.06376866,-0.3964118,-0.36729243,0.059978798,3.0774312,-0.6232872,-1.1426641e-05,-0.084450185,0.015835887,0.0028272492,-0.02290341,0.009642278,0.01306257,0.49521178,-1.3731543,1.8940743,-2.091327,-1.5694321,2.469345,-0.11319753,0.096380666,-0.12258647,0.0069426564,0.015454721,-0.12620357,-0.15322891,0.3256114,-9.289502,0.83589023,47.703903,-1.0352572,-2.2193105,-3.2938313,-0.09077355,0.1797683,-0.18177137,24.75,25.3125,24.5,26.375,26.5625,26.875
0.17805414,-0.06943418,-1.0853637,-1.4999112,-0.04957743,0.06959118,-0.074344106,-0.3965909,-0.36726016,0.05999627,3.0773606,-0.62323606,-7.245745e-05,-0.08314866,0.01654435,0.00087637646,-0.02098052,0.0059312447,0.008353156,0.49497214,-1.3729854,1.8938364,-2.0913384,-1.5693964,2.4690826,-0.11320008,0.098023154,-0.12014277,0.0070372946,0.015540243,-0.121496245,-0.17238252,0.3256114,-9.232041,0.842603,47.694946,-1.100281,-2.418601,-3.3833036,-0.085867375,0.19060037,-0.23227961,24.75,25.3125,24.5,26.375,26.5625,26.875
0.18005407,-0.13743456,-1.5357598,-1.7816147,-0.035806492,0.071372055,-0.0683618,-0.3967826,-0.36722142,0.06001217,3.0773177,-0.62320906,-0.00015958556,-0.08554134,0.015661482,0.0023429391,-0.023403022,0.008798689,0.0043506664,0.4947321,-1.3727927,1.8935713,-2.0913384,-1.5693959,2.4688313,-0.11431874,0.09923699,-0.1249037,0.0069078007,0.016309021,-0.11860946,-0.05746084,0.28730422,-9.270349,0.85155696,47.678825,-0.993513,-2.2941358,-3.204193,-0.08942142,0.18575986,-0.278703,24.75,25.3125,24.5,26.375,26.5625,26.875
0.18205406,-0.05355584,-1.2575237,-1.646089,-0.04702483,0.06858145,-0.0724181,-0.3969345,-0.36718595,0.059989426,3.0772982,-0.6232054,-7.855065e-05,-0.085446864,0.01672428,0.000518138,-0.02152836,0.004966198,0.0006591236,0.4945044,-1.3725635,1.8933448,-2.091314,-1.5693477,2.4686038,-0.11607494,0.10218265,-0.1244913,0.0078190435,0.016479567,-0.11667443,-0.038307227,0.3256114,-9.346964,0.8247004,47.682407,-1.201644,-2.3894389,-3.3565035,-0.10617274,0.21207982,-0.32612658,24.75,25.3125,24.5,26.375,26.5625,26.875
0.18405402,-0.29187232,-1.5407351,-1.8550044,-0.034468897,0.05149273,-0.06868857,-0.39709532,-0.3671705,0.06000286,3.0772622,-0.62317944,-0.00012509109,-0.08678676,0.015934229,0.0016776264,-0.022690916,0.0073935553,-0.00081451767,0.4943247,-1.3723712,1.8930801,-2.0912902,-1.5693358,2.4684126,-0.11584144,0.102637455,-0.12769818,0.007885323,0.016350597,-0.1149652,-0.076614454,0.34476504,-9.385271,0.8985519,47.698532,-1.09762,-2.4033442,-3.2492287,-0.11940559,0.21425444,-0.40352017,24.75,25.3125,24.5,26.375,26.5625,26.875
0.18605426,0.070767365,-0.8733977,-1.7676274,-0.039530452,0.060011394,-0.07130833,-0.39727423,-0.36713076,0.059989244,3.0772243,-0.62315226,-0.00011591905,-0.08768667,0.015811335,0.00093172735,-0.02324723,0.006187053,-0.0030750805,0.49407282,-1.372142,1.8928412,-2.091303,-1.5692996,2.4681487,-0.117056385,0.10551855,-0.12935735,0.007464779,0.017413495,-0.11391834,-0.095768064,0.3256114,-9.404425,0.85155696,47.678825,-1.2338159,-2.473262,-3.158561,-0.11604538,0.23464695,-0.46188724,24.75,25.3125,24.5,26.375,26.5625,26.875
0.18805414,-0.49460956,-1.0777191,-1.762349,-0.03248375,0.0497674,-0.06689155,-0.39746642,-0.36710238,0.060004335,3.0771544,-0.6231561,-0.0001246764,-0.089231536,0.016125519,0.0014738463,-0.024301214,0.0072084963,-0.003574716,0.49382067,-1.3719256,1.8925413,-2.0912669,-1.5692514,2.467908,-0.119205214,0.106058255,-0.1312395,0.0074189575,0.017864877,-0.11556603,-0.076614454,0.24899697,-9.385271,0.83589023,47.655537,-1.1562037,-2.4690402,-3.1516242,-0.10859129,0.24255636,-0.50182164,24.75,25.3125,24.5,26.375,26.5625,26.875
0.19005468,-0.043662082,-0.72576123,-1.8627642,-0.039799668,0.06614938,-0.0821294,-0.39762628,-0.36707097,0.06000002,3.0771008,-0.62320054,-8.868268e-05,-0.090051636,0.015922295,0.0019107444,-0.025375856,0.0076973657,-0.0013544145,0.49359292,-1.3717213,1.8923024,-2.0912426,-1.5692033,2.4677148,-0.12000252,0.10653609,-0.13287023,0.007643805,0.01858583,-0.118582934,-0.05746084,0.2681506,-9.385271,0.88289046,47.690468,-1.1735826,-2.3724816,-3.109119,-0.12805316,0.2355701,-0.49776727,24.75,25.3125,24.5,26.375,26.5625,26.875
0.19205461,-0.058548834,-0.85973305,-1.6967549,-0.040317312,0.074859016,-0.08160515,-0.39778036,-0.36701587,0.059962355,3.0771232,-0.6231984,-1.7072198e-05,-0.091000974,0.01623722,0.0015902921,-0.02553206,0.006855395,0.006855885,0.4933529,-1.3714803,1.8920983,-2.0912302,-1.5691909,2.4674706,-0.1216797,0.10833669,-0.134407,0.008066686,0.019131133,-0.12847066,-0.15322891,0.34476504,-9.519346,0.8717007,47.705692,-1.1762698,-2.4627614,-3.174981,-0.119790204,0.2473037,-0.43055344,24.75,25.3125,24.5,26.375,26.5625,26.875
0.1940541,-0.4420252,-0.82711333,-1.7236325,-0.048881244,0.07973376,-0.08154999,-0.39797378,-0.36701122,0.059996795,3.0770147,-0.62311226,-7.268511e-05,-0.09189278,0.016595408,0.0015504123,-0.025410071,0.0069449074,0.015032464,0.49312502,-1.3712878,1.8917884,-2.0912187,-1.5691189,2.467203,-0.122951165,0.10936602,-0.1355964,0.008234932,0.019009927,-0.13791616,-0.17238252,0.24899697,-9.500193,0.8806493,47.690468,-1.2017624,-2.416935,-3.2228549,-0.123014785,0.23170638,-0.40290684,24.75,25.3125,24.5,26.375,26.5625,26.875
0.19605398,-0.86971694,-1.0668113,-1.8793004,-0.037902866,0.08336421,-0.06900869,-0.39814988,-0.36696947,0.059982993,3.0770028,-0.62298995,-5.1322513e-05,-0.093193874,0.016347649,0.0025055844,-0.027212698,0.008403308,0.022910856,0.4928729,-1.3710597,1.891548,-2.0912187,-1.5690826,2.466876,-0.12421953,0.109347016,-0.1377854,0.008326709,0.019922422,-0.147062,-0.22984336,0.22984336,-9.385271,0.8179876,47.67614,-1.1456296,-2.3932734,-3.2114787,-0.12445636,0.25526047,-0.2979771,24.75,25.3125,24.5,26.375,26.5625,26.875
0.19805428,-0.4338111,-0.43386042,-1.7027415,-0.04281194,0.10681789,-0.08621701,-0.39832878,-0.36694524,0.059974544,3.0769823,-0.6229056,2.7171292e-05,-0.09241928,0.01761446,0.0013146757,-0.0265685,0.005379903,0.026851721,0.492633,-1.3707956,1.891239,-2.0911586,-1.5690225,2.466586,-0.12612471,0.109240666,-0.13506491,0.00870155,0.020802248,-0.15290962,-0.21068975,0.15322891,-9.595961,0.78888994,47.677036,-1.2112347,-2.2575915,-3.2816772,-0.14228308,0.25439286,-0.22000894,24.75,25.3125,24.5,26.375,26.5625,26.875
0.2000543,-0.7179332,-0.45519316,-1.7822089,-0.033297833,0.10846068,-0.08077503,-0.39852384,-0.3669178,0.059992775,3.0769124,-0.62283343,-1.0957986e-05,-0.094745345,0.017891575,0.0016353412,-0.027294913,0.0063510505,0.025649585,0.49238053,-1.3705903,1.8909506,-2.0911467,-1.5689744,2.4662976,-0.12874779,0.11155528,-0.13857023,0.008707569,0.020992948,-0.15432745,-0.36391866,0.095768064,-9.634268,0.85826975,47.682407,-1.0577339,-2.4937217,-3.1512518,-0.13911462,0.25686455,-0.16898558,24.75,25.3125,24.5,26.375,26.5625,26.875
0.2020543,-1.0122542,0.013085924,-1.6890439,-0.025510218,0.10492758,-0.0727983,-0.39869148,-0.36686417,0.05997084,3.0769148,-0.6227591,5.5076427e-05,-0.09561349,0.018872166,0.0013535597,-0.027165256,0.0062015327,0.02018057,0.49211654,-1.3703623,1.8907231,-2.0911224,-1.5689381,2.465987,-0.13108823,0.11200885,-0.13839762,0.008280231,0.020945214,-0.15119942,-0.57460845,-0.076614454,-9.557653,0.8090337,47.672558,-1.1228175,-2.2618606,-3.362836,-0.157803,0.26075935,-0.16315733,24.75,25.3125,24.5,26.375,26.5625,26.875
0.20405415,-0.73137397,0.3569224,-1.5325999,-0.015523505,0.122591734,-0.083134204,-0.39890012,-0.36683917,0.05998305,3.0768206,-0.62268245,2.9069537e-05,-0.09494477,0.018451707,0.0006524998,-0.027011435,0.0047094366,0.017246483,0.49184144,-1.3701334,1.8904256,-2.0911348,-1.5688661,2.465676,-0.13006563,0.113155834,-0.13820642,0.008337201,0.021526068,-0.147241,-0.5363012,-0.15322891,-9.557653,0.80456203,47.661808,-1.1070396,-2.3692064,-3.4813232,-0.1612302,0.25049466,-0.22639003,24.75,25.3125,24.5,26.375,26.5625,26.875
0.20605457,-0.9965222,0.34369513,-1.6634088,-0.0042173364,0.11651623,-0.07099316,-0.39908138,-0.36681208,0.059978604,3.0768297,-0.62255335,2.8176084e-05,-0.0957673,0.019761125,-0.00024227925,-0.027020004,0.003111223,0.008687487,0.49162453,-1.3698809,1.8901266,-2.091099,-1.5688537,2.4653776,-0.13341232,0.11434095,-0.1375012,0.00784579,0.022285745,-0.14202851,-0.59376204,-0.11492168,-9.595961,0.83589023,47.66987,-1.0934258,-2.2941349,-3.5201821,-0.14099485,0.25144935,-0.29437786,24.75,25.3125,24.5,26.375,26.5625,26.875
0.20805451,-0.8468783,0.30918106,-1.5467677,-0.00025074117,0.12707761,-0.08070114,-0.39929697,-0.36677453,0.059997056,3.0767298,-0.6225902,-2.5639163e-05,-0.09669372,0.0188836,0.0005053231,-0.028316867,0.004834946,0.008738267,0.49133742,-1.3696643,1.8898267,-2.0910995,-1.568806,2.4651263,-0.13291262,0.11502541,-0.13995475,0.007494366,0.022625333,-0.14157669,-0.53630114,-0.22984336,-9.557653,0.8023209,47.612545,-1.2437462,-2.2450676,-3.4406257,-0.14894804,0.25631905,-0.3245195,24.75,25.3125,24.5,26.375,26.5625,26.875
0.21005473,-0.74870384,0.7917629,-1.4344168,-0.00384568,0.1273691,-0.07554485,-0.39947104,-0.36673,0.059984285,3.0766947,-0.6225251,6.194025e-05,-0.098910764,0.019136664,0.0018185549,-0.02975978,0.00718183,0.005839101,0.49106124,-1.369436,1.8895754,-2.0910633,-1.568734,2.464814,-0.13537113,0.11509571,-0.1431263,0.00786067,0.022787208,-0.1411352,-0.7086837,-0.24899697,-9.5385,0.9097417,47.684196,-1.1624352,-2.2004755,-3.5636396,-0.16344126,0.26501426,-0.35458028,24.75,25.3125,24.5,26.375,26.5625,26.875
0.21205488,-1.0863142,0.62126756,-1.5815032,0.0075983237,0.10497291,-0.075833924,-0.39969307,-0.36671078,0.060003094,3.0766275,-0.6224334,-6.7737514e-05,-0.099346705,0.019770144,-6.660233e-05,-0.027907,0.0038921572,0.0045567034,0.49082145,-1.3691944,1.8892525,-2.091099,-1.5687221,2.4645257,-0.13671371,0.11940667,-0.1441173,0.00832295,0.022724109,-0.14119181,-0.57460845,-0.21068975,-9.519346,0.7978386,47.655537,-1.1925967,-2.3816943,-3.4814315,-0.1590705,0.28009036,-0.38917208,24.75,25.3125,24.5,26.375,26.5625,26.875
0.21405405,-0.5921703,0.3590893,-1.6007217,0.004122963,0.11573994,-0.08212668,-0.39991018,-0.36664087,0.05999217,3.0765996,-0.6224624,-1.8051016e-05,-0.10062171,0.01933313,0.0018859706,-0.029913472,0.0069804336,0.007585759,0.490486,-1.3689308,1.8889521,-2.0910509,-1.5686854,2.464212,-0.13724676,0.11764974,-0.14662056,0.008932784,0.023045223,-0.14475356,-0.53630114,-0.21068975,-9.461885,0.9186956,47.683304,-1.1327341,-2.2108083,-3.4157996,-0.16457558,0.2648183,-0.3973187,24.75,25.3125,24.5,26.375,26.5625,26.875
0.21605417,-0.57363147,0.13466354,-1.6772596,-0.014595724,0.11590299,-0.07876151,-0.4000886,-0.36658,0.0599857,3.0765796,-0.6224761,8.368305e-06,-0.10274678,0.021067485,0.00035627309,-0.028779965,0.0051762005,0.010096475,0.4902087,-1.3687251,1.8887132,-2.091015,-1.5686616,2.4639459,-0.1419158,0.12171396,-0.1478681,0.008266774,0.022907753,-0.15193233,-0.6512229,-0.05746084,-9.557653,0.8851263,47.696735,-0.9849191,-2.4522817,-3.439653,-0.17423463,0.27840215,-0.33771145,24.75,25.3125,24.5,26.375,26.5625,26.875
0.21805388,-0.76179415,-0.4219839,-1.6828454,-0.022840444,0.12188847,-0.08588444,-0.40030307,-0.3665618,0.0599993,3.0764964,-0.6223365,6.872209e-06,-0.10299686,0.020635808,0.0010131287,-0.029016579,0.0061753313,0.019645328,0.48993376,-1.368473,1.888379,-2.0910027,-1.5685781,2.4635944,-0.1411936,0.12150324,-0.14928718,0.008942543,0.022675967,-0.16075715,-0.63206923,0.076614454,-9.442732,0.8627467,47.688675,-1.1394645,-2.0566416,-3.431745,-0.18546033,0.27972922,-0.2546004,24.75,25.3125,24.5,26.375,26.5625,26.875
0.22005409,-1.068311,-0.71415293,-1.6246337,-0.033791777,0.13037336,-0.07647612,-0.40054893,-0.3665077,0.060029667,3.0764306,-0.62235487,-0.00010862999,-0.103825934,0.020793313,7.860543e-05,-0.027918834,0.0043357224,0.026954517,0.48962212,-1.3682437,1.8880309,-2.0909789,-1.5685781,2.4633029,-0.14207295,0.1250916,-0.1516972,0.009928982,0.02260581,-0.16894229,-0.5554548,0.24899697,-9.481039,0.87617236,47.688675,-1.0833944,-2.1009593,-3.450522,-0.19183739,0.2846675,-0.12640557,24.75,25.3125,24.5,26.375,26.5625,26.875
0.2220544,-1.465732,-1.2626721,-1.4939983,-0.040074702,0.12542957,-0.07063116,-0.40071806,-0.36648208,0.060014028,3.076426,-0.62214047,-1.8301862e-05,-0.104836404,0.02095859,-0.00043721567,-0.027958065,0.0032162804,0.029737456,0.48938224,-1.3679903,1.8877558,-2.0909421,-1.5685052,2.4629297,-0.14354192,0.12763958,-0.15369782,0.010376415,0.023172671,-0.1731933,-0.61291564,0.2681506,-9.519346,0.85826975,47.681515,-1.111819,-2.272727,-3.4158156,-0.18250799,0.29744598,-0.08586255,24.75,25.3125,24.5,26.375,26.5625,26.875
0.22405426,-1.2380782,-1.6951562,-1.6231298,-0.056139767,0.121922076,-0.06646063,-0.40097722,-0.36641794,0.060057227,3.0763345,-0.62216157,-0.0001516439,-0.10499618,0.021049075,-0.0007324369,-0.027697735,0.0023127578,0.02515351,0.48903486,-1.3677858,1.8874081,-2.0909183,-1.5684932,2.4626074,-0.1438723,0.12869206,-0.15444566,0.010991622,0.023384925,-0.16893657,-0.6512229,0.3256114,-9.404425,0.87393653,47.677036,-1.1661551,-2.2199779,-3.351653,-0.22230479,0.30879086,-0.07892822,24.75,25.3125,24.5,26.375,26.5625,26.875
0.22605397,-0.9279059,-1.6095623,-1.4820364,-0.063586526,0.1089926,-0.06919803,-0.40117937,-0.36636326,0.060027346,3.0763266,-0.62214345,-0.00011413874,-0.10748679,0.020324051,0.0008523273,-0.029482739,0.006027487,0.017950602,0.48874727,-1.3674973,1.8871316,-2.0909183,-1.5684694,2.4623096,-0.14469713,0.12962547,-0.15910022,0.010591969,0.023195513,-0.16255698,-0.51714754,0.36391866,-9.461885,0.80679786,47.65643,-1.2155489,-2.2030814,-3.2356968,-0.22081113,0.32118323,-0.13146958,24.75,25.3125,24.5,26.375,26.5625,26.875
0.22805455,-0.3286065,-1.5690665,-1.4900943,-0.06197308,0.09822984,-0.06588633,-0.40140864,-0.366339,0.060046904,3.0762496,-0.62203455,-0.00018030072,-0.10935254,0.019891996,0.0014810278,-0.030312171,0.007989139,0.011094952,0.4884715,-1.3672445,1.8867854,-2.0909188,-1.5684212,2.4619758,-0.14544185,0.13142528,-0.16261072,0.010182106,0.023006713,-0.15644243,-0.34476504,0.4405331,-9.442732,0.85826975,47.690468,-1.2520996,-2.2673466,-3.231783,-0.21988505,0.32903808,-0.23372674,24.75,25.3125,24.5,26.375,26.5625,26.875
0.23005371,-0.027773496,-1.3347086,-1.3016912,-0.06560896,0.08695393,-0.07578443,-0.40162367,-0.3662774,0.0600231,3.0761714,-0.6221748,-6.627181e-05,-0.10961433,0.020080261,0.0004130443,-0.029722966,0.006583816,0.0035319813,0.4881241,-1.3669553,1.8864859,-2.090883,-1.5683373,2.461726,-0.14598118,0.1337917,-0.16292949,0.009655903,0.023132578,-0.14941886,-0.24899697,0.49799395,-9.251195,0.87617236,47.71823,-1.1818925,-2.1958127,-3.1577733,-0.22457953,0.3452776,-0.3135537,24.75,25.3125,24.5,26.375,26.5625,26.875
0.23205447,0.3559512,-1.1790874,-1.2176015,-0.06138897,0.08004719,-0.07231997,-0.40186423,-0.36622056,0.060022984,3.0761828,-0.62210244,-0.00016002457,-0.111271404,0.020265428,0.0004934716,-0.031098241,0.0070343763,-0.0018800946,0.48783576,-1.3666667,1.8861388,-2.0908716,-1.5683731,2.4613912,-0.14830236,0.13541323,-0.1649304,0.008983117,0.024136633,-0.14632529,-0.19153613,0.4213795,-9.212888,0.8985519,47.689575,-1.085334,-2.2324018,-3.1687827,-0.21506228,0.34037185,-0.37854087,24.75,25.3125,24.5,26.375,26.5625,26.875
0.23405485,0.5317058,-1.0804583,-1.2687769,-0.05465273,0.07219107,-0.07198889,-0.40209195,-0.36620095,0.060045402,3.0760562,-0.6220585,-0.00020635789,-0.113744676,0.02063157,0.0018947164,-0.03315335,0.0102539845,-0.0075331083,0.48754773,-1.3664263,1.8858036,-2.0908835,-1.5682892,2.461092,-0.15122575,0.1350237,-0.1674724,0.008118942,0.024452057,-0.14359203,-0.076614454,0.47884035,-9.193734,0.8224646,47.66987,-1.2499161,-2.3247848,-3.0847125,-0.19121946,0.35413033,-0.4674225,24.75,25.3125,24.5,26.375,26.5625,26.875
0.23605475,0.46533212,-0.9750026,-0.9930097,-0.050256934,0.061962284,-0.06967046,-0.40233868,-0.36615434,0.060051426,3.0759616,-0.6220736,-0.00022912922,-0.11373234,0.021025829,-0.0002662409,-0.031387303,0.006158287,-0.005300737,0.48721236,-1.3661481,1.8854574,-2.090883,-1.5682291,2.4607782,-0.15201114,0.13962781,-0.16825315,0.008764594,0.024833413,-0.14660703,0.076614454,0.38307226,-9.136273,0.842603,47.703007,-1.069638,-2.4572868,-3.2496295,-0.21165527,0.3696664,-0.5291064,24.75,25.3125,24.5,26.375,26.5625,26.875
0.238054,1.0050288,-0.71637595,-1.14508,-0.042289946,0.063226536,-0.074669875,-0.4025782,-0.36610878,0.060066637,3.075875,-0.6220889,-0.00029478341,-0.11441837,0.022113983,5.8697566e-05,-0.032581475,0.0056300764,0.0010401361,0.48689976,-1.3658966,1.8851222,-2.090883,-1.5681924,2.4604864,-0.1551738,0.13852628,-0.1678456,0.00939913,0.026178945,-0.15610787,0.11492168,0.4405331,-9.078813,0.8403672,47.686886,-1.0311599,-2.2963462,-3.244445,-0.21582863,0.3621968,-0.4604333,24.75,25.3125,24.5,26.375,26.5625,26.875
0.24005377,0.9882399,-0.5852455,-1.0319769,-0.043868735,0.056719396,-0.08431405,-0.402803,-0.36606914,0.06007281,3.0758193,-0.62201196,-0.00024983872,-0.11438323,0.021389075,-0.00037362863,-0.03375128,0.004637128,0.013280109,0.48658845,-1.3656197,1.8847636,-2.090823,-1.5681199,2.4601343,-0.1547787,0.14008524,-0.16868083,0.009050957,0.027712062,-0.16795045,0.15322891,0.30645782,-9.097966,0.86498255,47.688675,-0.9845625,-2.236585,-3.298089,-0.18694848,0.3483889,-0.37735683,24.75,25.3125,24.5,26.375,26.5625,26.875
0.24205397,0.41857105,-0.5156236,-0.5787864,-0.048814937,0.04588043,-0.07837678,-0.4030359,-0.36603698,0.06008384,3.0757735,-0.6219193,-0.0003118248,-0.11524794,0.02184294,-0.0003827021,-0.033978336,0.0046509807,0.022443226,0.48631248,-1.3653435,1.8844055,-2.090811,-1.568096,2.4598064,-0.15636012,0.1408098,-0.16958286,0.009149296,0.027947728,-0.17869258,0.095768064,0.24899697,-9.021352,0.88960326,47.695843,-1.0049627,-2.2988997,-3.3817272,-0.20491087,0.35418177,-0.26701576,24.75,25.3125,24.5,26.375,26.5625,26.875
0.24405447,1.1333865,-0.122519635,-0.718726,-0.039453097,0.06962845,-0.084665,-0.4032794,-0.36597025,0.06007103,3.0757592,-0.6218749,-0.0003261597,-0.115525246,0.022760741,-0.0020087194,-0.032354258,0.0011163322,0.025903478,0.48597676,-1.3650416,1.8840708,-2.0907986,-1.5680841,2.459445,-0.15819213,0.14415707,-0.17020969,0.010337591,0.028187284,-0.1839835,0.15322891,0.17238252,-8.983045,0.83589023,47.661808,-1.1258188,-2.3491254,-3.3968773,-0.21758401,0.34787685,-0.18675001,24.75,25.3125,24.5,26.375,26.5625,26.875
0.24605383,0.7720945,0.27377367,-0.7355798,-0.021476848,0.060725484,-0.076521136,-0.40350842,-0.3659577,0.06007123,3.0756228,-0.6218066,-0.00030961548,-0.11615194,0.021453891,-0.00015953137,-0.034895506,0.0043798154,0.025454713,0.48567793,-1.3647543,1.8837351,-2.0908349,-1.5679635,2.459121,-0.15691438,0.14246793,-0.17236917,0.010137066,0.028921967,-0.18225347,0.19153613,0.038307227,-9.021352,0.8672237,47.66539,-1.1523569,-2.2219796,-3.3650548,-0.21327627,0.3712567,-0.16701758,24.75,25.3125,24.5,26.375,26.5625,26.875
0.24805418,0.90147597,0.4747817,-0.66807455,-0.0069598136,0.05993361,-0.07540809,-0.403747,-0.3659129,0.060080193,3.0755577,-0.6217398,-0.0003075996,-0.117257915,0.0214887,0.00054564973,-0.037302006,0.005014495,0.017375845,0.48535386,-1.364478,1.883376,-2.090799,-1.5679029,2.4587636,-0.1589766,0.1421451,-0.17357627,0.009979631,0.03075102,-0.17623313,0.05746084,-0.076614454,-9.040505,0.8560339,47.704796,-1.1409049,-2.2255092,-3.3609948,-0.18665716,0.358154,-0.21210971,24.75,25.3125,24.5,26.375,26.5625,26.875
0.2500543,1.1017523,0.7461358,-0.8119343,0.011276817,0.048173048,-0.08489049,-0.4039818,-0.36584297,0.06006094,3.07552,-0.6217925,-0.00026792215,-0.11879958,0.021506641,0.0009953444,-0.039127983,0.004873058,0.009999126,0.48500583,-1.3641773,1.8830541,-2.0907743,-1.5678662,2.4584534,-0.16129994,0.14345543,-0.17637286,0.01073629,0.032421958,-0.17117691,0.1340753,-0.095768064,-9.040505,0.83365434,47.71017,-1.0026475,-2.1191835,-3.3620791,-0.20313057,0.33297408,-0.29750997,24.75,25.3125,24.5,26.375,26.5625,26.875
0.25205404,0.98508036,0.7389587,-1.0750538,0.011578976,0.04076317,-0.0797496,-0.40421128,-0.3658295,0.060076155,3.0754187,-0.62159854,-0.00023523472,-0.11890619,0.02237775,0.00020800698,-0.03857472,0.003149709,0.007229377,0.484706,-1.3639005,1.8826832,-2.0907505,-1.567746,2.4580455,-0.16295332,0.1443348,-0.17573974,0.011032265,0.032753266,-0.17005816,0.05746084,-0.05746084,-9.078813,0.91421866,47.694946,-1.0145266,-2.0991406,-3.4484062,-0.21706975,0.3183455,-0.3573724,24.75,25.3125,24.5,26.375,26.5625,26.875
0.25405434,0.28014755,-0.010598937,-1.2344137,0.015480796,0.032428622,-0.07439581,-0.4044179,-0.3657775,0.060044937,3.0754082,-0.6215758,-0.00014350002,-0.12014648,0.022099596,0.00060980633,-0.040284388,0.0026859688,0.0071401326,0.484406,-1.3635879,1.8823713,-2.0907147,-1.5676974,2.4577327,-0.16455775,0.14583363,-0.1787427,0.012167031,0.034482155,-0.17157145,-0.095768064,-0.095768064,-9.270349,0.900793,47.66539,-1.0269424,-2.109837,-3.3281198,-0.2434315,0.29277605,-0.37753916,24.75,25.3125,24.5,26.375,26.5625,26.875
0.2560548,-0.20699386,0.076707624,-1.2543346,-0.009591998,0.050148394,-0.07268012,-0.4046828,-0.36573192,0.06005795,3.0753195,-0.6215546,-0.00017084317,-0.12112667,0.021754196,0.000866477,-0.04066683,0.002693324,0.008951737,0.4840587,-1.363287,1.881976,-2.0906904,-1.5676378,2.4573836,-0.1649521,0.14756335,-0.18167065,0.013208583,0.03483845,-0.17377345,-0.24899697,-0.076614454,-9.251195,0.88960326,47.70211,-0.99637914,-2.1520443,-3.3188763,-0.26114315,0.2676939,-0.40316498,24.75,25.3125,24.5,26.375,26.5625,26.875
0.2580543,-0.6664275,-0.3208547,-1.6874179,-0.0153073305,0.08673393,-0.083143555,-0.4048804,-0.36569688,0.06004177,3.0752695,-0.62146324,-3.2478194e-05,-0.12162705,0.022044357,0.00068557926,-0.04009935,0.0017087063,0.014428388,0.48375887,-1.3629982,1.8816532,-2.0906298,-1.5675296,2.4570332,-0.1657724,0.14891075,-0.183231,0.014606752,0.034812223,-0.18007086,-0.2873042,0.038307227,-9.461885,0.90527004,47.687782,-0.9472712,-2.048851,-3.1664844,-0.27603123,0.25208926,-0.35492796,24.75,25.3125,24.5,26.375,26.5625,26.875
0.26005426,-1.4349892,-0.688638,-1.7693466,-0.030596262,0.115960255,-0.07926764,-0.40510398,-0.36563188,0.06001837,3.0752757,-0.6213617,5.925906e-05,-0.122819394,0.02261198,0.000973535,-0.041045964,0.0014268713,0.022665385,0.48342296,-1.3626856,1.881318,-2.0905697,-1.5674814,2.456633,-0.16828465,0.14948684,-0.1848123,0.01547332,0.035807874,-0.19081989,-0.38307226,0.11492168,-9.595961,0.8672237,47.674347,-1.1392319,-2.1116228,-3.3180308,-0.29219782,0.25307173,-0.25884295,24.75,25.3125,24.5,26.375,26.5625,26.875
0.26205432,-1.7787163,-1.2256532,-1.9872196,-0.04526591,0.13812566,-0.07421321,-0.4053568,-0.36559466,0.06002716,3.0752137,-0.62128514,6.340635e-05,-0.12119594,0.021660795,-0.00038330737,-0.04084377,-0.0023288503,0.032899696,0.48310032,-1.3623723,1.8809117,-2.0905216,-1.5674208,2.4562707,-0.16613626,0.15166031,-0.18463214,0.01658367,0.037412908,-0.19890234,-0.45968673,0.17238252,-9.730036,0.8717007,47.679718,-1.1743592,-2.3452275,-3.4180944,-0.33048975,0.2052833,-0.14265312,24.75,25.3125,24.5,26.375,26.5625,26.875
0.26405433,-1.9194676,-1.1763959,-2.0721045,-0.06874931,0.13627405,-0.080484085,-0.4055915,-0.3655535,0.060032047,3.0751379,-0.6212096,0.00013105162,-0.12141423,0.021697473,-0.002188114,-0.03994587,-0.00569055,0.033246998,0.48276508,-1.362083,1.8805403,-2.0904615,-1.567324,2.455898,-0.16676152,0.1560636,-0.18592969,0.01690459,0.038188685,-0.19987217,-0.6703764,0.3256114,-9.710882,0.88289046,47.694946,-1.2208521,-2.1487741,-3.3885179,-0.36200768,0.17514443,-0.09385633,24.75,25.3125,24.5,26.375,26.5625,26.875
0.2660542,-2.0085175,-2.1376522,-2.1334834,-0.070051916,0.13789983,-0.07163753,-0.405809,-0.36551538,0.06001793,3.0751178,-0.6209971,0.00018893246,-0.12178242,0.021159615,-0.0020049268,-0.040130783,-0.0050348234,0.027655227,0.4824658,-1.3617823,1.8802065,-2.0904377,-1.5672525,2.4554687,-0.16599512,0.15694489,-0.1874351,0.016866226,0.038033657,-0.19351324,-0.7661445,0.36391866,-9.825804,0.842603,47.657326,-1.2705512,-2.261539,-3.447363,-0.38499528,0.15414439,-0.12740502,24.75,25.3125,24.5,26.375,26.5625,26.875
0.268054,-1.6866921,-2.154813,-2.2678134,-0.07538285,0.1338692,-0.07987986,-0.40609527,-0.3654588,0.060038436,3.0749526,-0.6211214,0.00022089088,-0.123524964,0.022065725,-0.0025341841,-0.03969552,-0.0041880356,0.01713526,0.48204577,-1.3614811,1.8797883,-2.0903904,-1.5671328,2.4551475,-0.16842991,0.15903054,-0.18840112,0.015210977,0.037246548,-0.18542579,-0.7278373,0.30645782,-10.01734,0.85155696,47.711063,-1.1468688,-2.3284261,-3.4783216,-0.38730243,0.13826331,-0.20853442,24.75,25.3125,24.5,26.375,26.5625,26.875
0.2700543,-1.7643596,-1.7900698,-2.2417662,-0.07171053,0.12124247,-0.07454116,-0.40634155,-0.36540297,0.060032617,3.074927,-0.6210821,0.0002164723,-0.12548904,0.023270868,-0.0032413513,-0.039029635,-0.003922072,0.008349188,0.4817212,-1.361168,1.8794178,-2.0903547,-1.567109,2.4548018,-0.17161876,0.16157933,-0.18961616,0.01394895,0.03652083,-0.17982787,-0.59376204,0.3256114,-9.9790325,0.95226496,47.661808,-1.1361585,-2.3406997,-3.5424685,-0.39330775,0.13193378,-0.31041598,24.75,25.3125,24.5,26.375,26.5625,26.875
0.27205402,-1.3309278,-1.6506953,-2.0188906,-0.06813834,0.114249445,-0.07902024,-0.40657473,-0.36536774,0.060005017,3.0748732,-0.6209744,0.00031137932,-0.12543069,0.02282473,-0.0045725442,-0.038402066,-0.0048515145,0.003590546,0.48139864,-1.3608186,1.8790587,-2.0903437,-1.5670131,2.454419,-0.1706287,0.16449575,-0.18977873,0.012317648,0.03637921,-0.17407891,-0.59376204,0.28730422,-9.902418,0.87393653,47.684196,-1.3309648,-2.536011,-3.5730157,-0.38061887,0.13281442,-0.41034585,24.75,25.3125,24.5,26.375,26.5625,26.875
0.27405414,-0.89276636,-1.1467232,-1.8049957,-0.05343584,0.117453225,-0.07810814,-0.40689608,-0.36533904,0.06006589,3.0747025,-0.620978,0.00010836681,-0.12690574,0.022176418,-0.0027209362,-0.040683012,-0.00024212495,0.0016496148,0.48103902,-1.3605319,1.8785795,-2.0903556,-1.566965,2.4540837,-0.17064716,0.16278812,-0.1915984,0.010717872,0.03629545,-0.17214887,-0.5554548,0.3256114,-9.768343,0.93436235,47.695843,-1.3466223,-2.221295,-3.460853,-0.3787622,0.10806741,-0.4964546,24.75,25.3125,24.5,26.375,26.5625,26.875
0.27605408,-0.9718779,-1.1355777,-1.7188406,-0.036185488,0.10888627,-0.08165167,-0.4071188,-0.3652985,0.060047112,3.0746677,-0.62087184,0.0001521136,-0.1287398,0.021657804,-0.0022658275,-0.04200013,0.0021642263,0.0061344192,0.48073885,-1.3602195,1.8782448,-2.0903451,-1.5669044,2.4537218,-0.1713286,0.16451909,-0.19437613,0.009062943,0.036363494,-0.17731343,-0.40222588,0.2681506,-9.691729,0.9231726,47.682407,-1.4307554,-2.321528,-3.5160265,-0.36508805,0.100681365,-0.51057523,24.75,25.3125,24.5,26.375,26.5625,26.875
0.27805442,-0.823895,-0.68021953,-1.7417367,-0.027732972,0.09125734,-0.08787658,-0.4074245,-0.3652491,0.06005103,3.0745158,-0.6209109,0.0001154228,-0.13021559,0.022595305,-0.0030500416,-0.041215494,0.0020460922,0.01577491,0.48033008,-1.3598709,1.8778256,-2.0903804,-1.566809,2.453357,-0.17368947,0.16702367,-0.19545893,0.008189788,0.03578227,-0.18931146,-0.076614454,0.28730422,-9.615114,0.89631605,47.691364,-1.364573,-2.3705878,-3.561777,-0.33547467,0.07187836,-0.41198483,24.75,25.3125,24.5,26.375,26.5625,26.875
0.2800543,-0.10125126,-0.70451385,-1.3535353,-0.024850586,0.07827936,-0.089837745,-0.40769517,-0.36518627,0.060051303,3.0744975,-0.6208035,6.6842236e-05,-0.13227893,0.023256753,-0.0019144284,-0.041859247,0.004825436,0.02688601,0.47998118,-1.3595473,1.8774308,-2.0903566,-1.5667976,2.4529436,-0.17607243,0.16671456,-0.19767204,0.008019939,0.03512314,-0.20280452,-0.019153614,0.17238252,-9.500193,0.8985519,47.71465,-1.3360949,-2.4407408,-3.4832788,-0.31536296,0.06732698,-0.28448656,24.75,25.3125,24.5,26.375,26.5625,26.875
0.2820542,0.079435445,-0.6243786,-1.1121147,-0.019636149,0.050304804,-0.086149484,-0.4079402,-0.36515668,0.06002883,3.0744243,-0.620652,0.00016840306,-0.13462348,0.023853865,-0.0007688747,-0.042588662,0.0078453915,0.031296574,0.4796439,-1.3591877,1.8770474,-2.0903451,-1.5666775,2.452521,-0.17855677,0.16680013,-0.20034121,0.0076548,0.034401987,-0.20969956,-0.076614454,0.05746084,-9.251195,0.8873621,47.72002,-1.1507249,-2.3132164,-3.4091797,-0.32161838,0.07741685,-0.19984591,24.75,25.3125,24.5,26.375,26.5625,26.875
0.28405386,0.6381058,0.009181872,-1.2310303,-0.0032565282,0.04178286,-0.09432002,-0.4082415,-0.36509547,0.060058653,3.0743678,-0.6205072,3.25848e-05,-0.13747743,0.024640854,0.0002508473,-0.042900257,0.010566094,0.026564013,0.4792715,-1.3588876,1.8766164,-2.0903327,-1.566666,2.4520657,-0.18163785,0.1679058,-0.20403448,0.0076966146,0.033445187,-0.20804442,0.0,0.038307227,-9.11712,0.8090337,47.691364,-1.1971185,-2.2575278,-3.3314939,-0.3261801,0.08069971,-0.17693101,24.75,25.3125,24.5,26.375,26.5625,26.875
0.2860539,0.7646879,0.940988,-1.0650512,-0.004151608,0.044035807,-0.100627124,-0.4085185,-0.36507297,0.060076255,3.0742073,-0.6204782,4.360521e-05,-0.13886924,0.023972148,0.0006672554,-0.042312883,0.012447629,0.0206526,0.4789118,-1.3585632,1.8761843,-2.0903208,-1.5665344,2.4517086,-0.18075003,0.17020707,-0.20781396,0.007791565,0.03205621,-0.20124313,0.076614454,-0.05746084,-9.155427,0.8717007,47.688675,-1.2470376,-2.193221,-3.2618866,-0.3034888,0.09173615,-0.24961267,24.75,25.3125,24.5,26.375,26.5625,26.875
0.28805465,0.55408216,0.41659167,-0.8219811,0.005645248,0.054143198,-0.09114852,-0.40877232,-0.36503148,0.06007689,3.0741754,-0.62034106,1.8199296e-05,-0.14008649,0.025100885,0.0019613998,-0.042201538,0.014369579,0.012928956,0.4785993,-1.3582401,1.875789,-2.0902965,-1.5664986,2.4513147,-0.18297094,0.16827105,-0.20874384,0.009000247,0.031073408,-0.19574095,-0.076614454,0.019153614,-9.136273,0.7978386,47.667187,-1.12543,-2.1142075,-3.2730021,-0.29825187,0.077513956,-0.32458916,24.75,25.3125,24.5,26.375,26.5625,26.875
0.2900547,-0.101080045,0.13132384,-1.0747957,0.0005829689,0.068509325,-0.09940436,-0.4090567,-0.3649456,0.06006518,3.074106,-0.6204241,3.550803e-05,-0.14040045,0.025515795,0.002261372,-0.041614793,0.014323563,0.008617759,0.47817913,-1.3579043,1.8754061,-2.0902717,-1.566451,2.4509554,-0.1834923,0.16817872,-0.20966926,0.010336805,0.030579567,-0.1919513,-0.19153613,0.038307227,-9.11712,0.9164598,47.72002,-1.0976958,-2.0867162,-3.2845595,-0.3040566,0.08065936,-0.39835706,24.75,25.3125,24.5,26.375,26.5625,26.875
0.29205376,-0.49278226,-0.2663541,-1.2413207,-0.006791527,0.08632063,-0.098286934,-0.40932477,-0.36491105,0.06006939,3.0740035,-0.6203657,5.6092333e-05,-0.14126906,0.026517088,0.002154479,-0.040593103,0.013268596,0.008037702,0.4778297,-1.3575681,1.874987,-2.0902474,-1.5663551,2.4505827,-0.1855439,0.16924246,-0.21119025,0.012237783,0.030185994,-0.19342153,-0.1340753,0.076614454,-9.251195,0.78888994,47.66539,-1.0815378,-1.941753,-3.25238,-0.323529,0.08196315,-0.44087642,24.75,25.3125,24.5,26.375,26.5625,26.875
0.29405466,-0.90742165,-0.79098606,-1.1826421,-0.020664405,0.10433924,-0.097367704,-0.40961078,-0.3648663,0.060089428,3.0739298,-0.6202303,1.1609111e-05,-0.1418883,0.027375208,0.0019022478,-0.039719485,0.011883519,0.013357633,0.47746974,-1.3572441,1.8745435,-2.0902107,-1.566295,2.4501479,-0.18732044,0.1703798,-0.21244642,0.01404276,0.03010028,-0.20051552,-0.21068975,0.1340753,-9.404425,0.87617236,47.677036,-0.9650439,-1.9906814,-3.2108264,-0.3340432,0.07249668,-0.4004661,24.75,25.3125,24.5,26.375,26.5625,26.875
0.2960544,-1.1209351,-0.6994695,-1.2490067,-0.04314084,0.11337265,-0.098095156,-0.4099146,-0.36477825,0.060083434,3.073897,-0.6201779,1.61567e-05,-0.14260377,0.028540002,0.0012455411,-0.038156014,0.010558069,0.023239013,0.47703722,-1.3568838,1.8741125,-2.0901625,-1.5662593,2.449687,-0.1892936,0.1720079,-0.21323545,0.015175233,0.029380385,-0.21237084,-0.2681506,0.21068975,-9.32781,0.89631605,47.731667,-1.0676554,-1.940196,-3.3043814,-0.35859433,0.091861755,-0.31123826,24.75,25.3125,24.5,26.375,26.5625,26.875
0.29805458,-0.9808544,-0.54312146,-1.3686191,-0.051674183,0.11934983,-0.101079166,-0.41017595,-0.3647458,0.060062695,3.0738626,-0.61999243,5.6811707e-05,-0.14358181,0.028947605,0.0010187029,-0.0369175,0.011036169,0.031697344,0.47671273,-1.3564998,1.8736948,-2.090151,-1.5661877,2.4492512,-0.18991287,0.17371778,-0.21487781,0.015322216,0.028103508,-0.22145012,-0.38307226,0.22984336,-9.500193,0.90527004,47.72002,-1.0401502,-2.0057383,-3.3935976,-0.36753255,0.11636757,-0.16323236,24.75,25.3125,24.5,26.375,26.5625,26.875
0.3000543,-0.8688219,-0.70298064,-1.2328528,-0.04325326,0.12080409,-0.099796504,-0.4104866,-0.3646858,0.060086638,3.0738,-0.61990356,-3.882827e-05,-0.14434147,0.02908148,-0.00022028865,-0.03546291,0.010184146,0.032046985,0.47632894,-1.3561623,1.873226,-2.0901148,-1.5661639,2.44882,-0.19011122,0.17736723,-0.21635622,0.01459717,0.027229842,-0.22199653,-0.38307226,0.15322891,-9.595961,0.9545008,47.7245,-1.1100852,-2.2772155,-3.3062203,-0.36674732,0.12730317,-0.104438536,24.75,25.3125,24.5,26.375,26.5625,26.875
0.3020545,-0.7387922,-0.84584725,-1.414889,-0.026021594,0.11826522,-0.090675294,-0.4107566,-0.36461943,0.06008287,3.0737257,-0.61979485,-1.6464768e-05,-0.14429492,0.028082555,-0.00091481407,-0.03480864,0.009939238,0.027212467,0.47593373,-1.35585,1.872856,-2.0901034,-1.5660805,2.4483666,-0.18797402,0.18007301,-0.21795999,0.014011056,0.026749564,-0.21502377,-0.5554548,0.17238252,-9.519346,0.9455522,47.678825,-1.2282474,-2.1503768,-3.3814688,-0.35382852,0.1406226,-0.16368659,24.75,25.3125,24.5,26.375,26.5625,26.875
0.30405462,-1.4938956,-0.84696007,-1.5729847,-0.014516958,0.09568368,-0.087327294,-0.41107988,-0.3645586,0.060114056,3.0736465,-0.6197832,-0.000112122296,-0.14408726,0.027805297,-0.0018224261,-0.034581546,0.008830524,0.018447097,0.47553766,-1.3555018,1.8723525,-2.0900438,-1.5660557,2.4479737,-0.18735678,0.18190265,-0.21799643,0.013278261,0.027047645,-0.20563763,-0.6512228,0.19153613,-9.461885,0.98807013,47.684196,-1.409927,-2.2152667,-3.5311406,-0.34924853,0.13992277,-0.27807128,24.75,25.3125,24.5,26.375,26.5625,26.875
0.30605376,-0.9298455,-0.48816165,-1.4524888,-0.012126879,0.104930595,-0.0878958,-0.41135517,-0.3644966,0.060084082,3.0736105,-0.6197233,-2.6834043e-05,-0.14560542,0.028154531,-0.0021315978,-0.03484266,0.008516873,0.009290255,0.47515288,-1.3551052,1.8719343,-2.0900075,-1.5659841,2.4475563,-0.18932147,0.18438698,-0.22036342,0.0133098615,0.02739659,-0.19844392,-0.45968673,0.19153613,-9.519346,0.9701675,47.689575,-1.4933913,-2.2786608,-3.5065017,-0.34082964,0.16215017,-0.3892884,24.75,25.3125,24.5,26.375,26.5625,26.875
0.30805397,-0.83820003,-0.8274968,-1.4120027,-0.015838595,0.09262792,-0.09222135,-0.411653,-0.3644567,0.060113903,3.0734868,-0.6196799,-0.00013178695,-0.14682384,0.027714547,-0.0016604748,-0.035667922,0.010011803,0.004892788,0.4747929,-1.3547931,1.8714908,-2.090008,-1.565924,2.4471853,-0.18952784,0.18558344,-0.22281794,0.012862406,0.027458606,-0.1942482,-0.24899697,0.24899697,-9.500193,0.8112748,47.652847,-1.4934554,-2.2268233,-3.4357042,-0.3478491,0.17508799,-0.49762392,24.75,25.3125,24.5,26.375,26.5625,26.875
0.31005415,-1.1003696,-1.1438695,-1.3033824,-0.03816028,0.07500529,-0.090597905,-0.41196665,-0.36439988,0.060115483,3.0734231,-0.6196843,-0.00022302194,-0.1479874,0.028983861,-0.0024331638,-0.034767967,0.00884149,0.004516779,0.47442028,-1.3544085,1.8710235,-2.0900075,-1.5659117,2.4468238,-0.19235015,0.18757261,-0.2235936,0.013126495,0.02722682,-0.19669257,-0.30645782,0.19153613,-9.385271,1.0417832,47.687782,-1.4058809,-2.3477275,-3.5073986,-0.33259517,0.17881876,-0.54928625,24.75,25.3125,24.5,26.375,26.5625,26.875
0.31205407,-0.79425746,-1.4659472,-1.2082185,-0.041341662,0.07318858,-0.08970192,-0.41227916,-0.3643437,0.06012295,3.0733683,-0.61954933,-0.00029522178,-0.15019564,0.028930293,-0.001115282,-0.034783635,0.0125410445,0.016938107,0.47403646,-1.3540368,1.8705558,-2.0899956,-1.5658768,2.446363,-0.19302802,0.18824704,-0.22744861,0.013095604,0.025623232,-0.20979287,-0.22984336,0.2681506,-9.251195,0.91421866,47.666286,-1.4057026,-2.2561276,-3.5064082,-0.3241986,0.22116858,-0.4629201,24.75,25.3125,24.5,26.375,26.5625,26.875
0.31405377,-0.49680102,-1.3774707,-1.0816996,-0.047800913,0.07489683,-0.091487214,-0.41258982,-0.3642785,0.060136914,3.073305,-0.6194525,-0.0003673668,-0.1519172,0.029492602,0.00014652211,-0.035479333,0.014953338,0.028743826,0.47363892,-1.3536896,1.8700999,-2.0899718,-1.5658411,2.4459133,-0.1950415,0.18756048,-0.22964974,0.01360645,0.025225187,-0.22361092,-0.1340753,0.30645782,-9.3661175,0.95226496,47.687782,-1.2921442,-2.0985444,-3.444234,-0.32890978,0.25775388,-0.3261846,24.75,25.3125,24.5,26.375,26.5625,26.875
0.3160545,0.07520589,-1.2078375,-1.086595,-0.041382786,0.06976142,-0.10133019,-0.41288358,-0.36422,0.060130466,3.0732207,-0.6193762,-0.0003181537,-0.15282023,0.030377826,-0.00041574822,-0.036406994,0.013741918,0.03269564,0.4732303,-1.3533173,1.8696574,-2.089936,-1.5657443,2.445468,-0.19799846,0.18870842,-0.22974288,0.013268514,0.02665104,-0.23051508,-0.05746084,0.30645782,-9.193734,0.90750587,47.674347,-1.2967901,-2.1199524,-3.3726678,-0.33050838,0.2703161,-0.21437675,24.75,25.3125,24.5,26.375,26.5625,26.875
0.31805462,0.31603715,-0.99442655,-1.0266026,-0.03160059,0.06645175,-0.08978156,-0.41317835,-0.3641356,0.060093567,3.0732307,-0.61930317,-0.00026722564,-0.15473226,0.03047234,0.00047159597,-0.0389801,0.014770853,0.026205426,0.47282165,-1.3528978,1.8692263,-2.0898998,-1.5657195,2.4450126,-0.20073587,0.18925321,-0.23250228,0.013386242,0.028457636,-0.22675699,-0.076614454,0.28730422,-9.155427,0.8806493,47.70211,-1.3231555,-2.0687776,-3.4274473,-0.31122485,0.2656003,-0.19982977,24.75,25.3125,24.5,26.375,26.5625,26.875
0.32005474,0.13935323,-0.6368605,-1.0797793,-0.023309385,0.059919838,-0.10217399,-0.4134968,-0.36409622,0.06010369,3.0731015,-0.6191859,-0.0003219503,-0.15591227,0.03146375,-0.0010073757,-0.038042545,0.012443226,0.016596701,0.47242466,-1.3525244,1.8687586,-2.089924,-1.5656232,2.444559,-0.20336689,0.19304691,-0.23379701,0.013382996,0.028687822,-0.21977444,-0.15322891,0.17238252,-9.193734,0.9567419,47.684196,-1.162591,-2.1941407,-3.5554037,-0.29432952,0.29122892,-0.2742592,24.75,25.3125,24.5,26.375,26.5625,26.875
0.32205385,0.20265001,-0.17657042,-1.279086,-0.028127896,0.06970352,-0.09705665,-0.41380024,-0.36402443,0.060093053,3.0730748,-0.6190888,-0.00029291262,-0.15769102,0.031249987,0.00011424748,-0.04043669,0.01399744,0.009529569,0.4720161,-1.3521284,1.8682908,-2.089864,-1.565575,2.4440935,-0.20522381,0.19339216,-0.23687083,0.013628725,0.030098693,-0.21455882,-0.17238252,0.15322891,-9.212888,0.8806493,47.66987,-1.131706,-2.1117234,-3.41368,-0.28298718,0.29754925,-0.370682,24.75,25.3125,24.5,26.375,26.5625,26.875
0.3240538,-0.18118337,-0.3873738,-1.1623447,-0.013860968,0.0718211,-0.092674844,-0.41411015,-0.363963,0.060101815,3.0730042,-0.61905646,-0.00032158956,-0.15946144,0.031829543,0.0009054621,-0.042041842,0.014767458,0.0042754803,0.4716193,-1.3517572,1.8678116,-2.0898154,-1.5655264,2.4436858,-0.20819426,0.19364095,-0.23916505,0.014265304,0.031190032,-0.21226959,-0.21068975,0.11492168,-9.308657,0.88960326,47.681515,-1.0463407,-2.0377555,-3.375784,-0.2834832,0.2899215,-0.42942983,24.75,25.3125,24.5,26.375,26.5625,26.875
0.32605383,-0.9442305,-0.4148293,-1.293485,-0.0065108207,0.06934497,-0.090281785,-0.41443497,-0.3638964,0.060096905,3.072932,-0.61898065,-0.00031186026,-0.15964104,0.03205247,-0.00011980935,-0.041247763,0.012634487,0.008049952,0.47118732,-1.3513485,1.8673209,-2.0897796,-1.5654544,2.4432158,-0.20872284,0.19624087,-0.24023713,0.015048981,0.03149308,-0.21656998,-0.36391866,0.1340753,-9.251195,0.88960326,47.68599,-1.0991113,-2.0901427,-3.3495464,-0.28302622,0.32085785,-0.4351656,24.75,25.3125,24.5,26.375,26.5625,26.875
0.3280546,-0.7852436,-0.15654092,-1.3423799,-0.014759101,0.0936909,-0.10167624,-0.41473377,-0.36383373,0.06008898,3.0728848,-0.61886674,-0.00029882466,-0.1592972,0.03142751,-0.0004790494,-0.040684476,0.011655032,0.021411566,0.47079167,-1.3509644,1.8668665,-2.0897434,-1.5653943,2.4427552,-0.20723365,0.1978139,-0.2416314,0.016087886,0.031507295,-0.22844118,-0.32561144,0.095768064,-9.32781,0.85826975,47.705692,-1.0904447,-2.09239,-3.2938874,-0.28724155,0.318068,-0.32863206,24.75,25.3125,24.5,26.375,26.5625,26.875
0.33005503,-1.0642852,-0.5295238,-1.407701,-0.012803732,0.11165771,-0.09206469,-0.4150578,-0.36377382,0.060094774,3.0727758,-0.6188563,-0.00033463936,-0.1585047,0.03080349,-0.0002501685,-0.041140612,0.011173387,0.033922046,0.4703722,-1.350581,1.8663872,-2.089731,-1.5653223,2.4423435,-0.205771,0.19729857,-0.24182095,0.017102612,0.03221583,-0.23948486,-0.30645782,0.15322891,-9.270349,0.9321212,47.71823,-1.2995737,-2.0225701,-3.3336804,-0.2800534,0.3192808,-0.18964426,24.75,25.3125,24.5,26.375,26.5625,26.875
0.3320546,-1.3299284,-0.66179985,-1.0942514,-0.02769971,0.119129285,-0.091970004,-0.4153656,-0.3637315,0.060085706,3.0727408,-0.6186169,-0.00028509667,-0.15913601,0.03009767,0.0002599715,-0.04278462,0.011880239,0.03557069,0.46998835,-1.3501489,1.8658718,-2.0896714,-1.5652374,2.4418147,-0.20567048,0.19788797,-0.24376155,0.01711601,0.033380903,-0.24102817,-0.47884035,0.19153613,-9.251195,0.86498255,47.70211,-1.3855745,-2.0531557,-3.4600215,-0.2888841,0.3219534,-0.14329812,24.75,25.3125,24.5,26.375,26.5625,26.875
0.33405465,-1.3413258,-0.9983974,-1.2262245,-0.029330252,0.11315817,-0.08952584,-0.4157068,-0.36366746,0.06010107,3.0726366,-0.6185622,-0.0003607423,-0.16024023,0.030612186,-0.00017511992,-0.04303882,0.010759063,0.026608711,0.46955562,-1.3497648,1.8653697,-2.089659,-1.5651778,2.4413614,-0.20772451,0.19999358,-0.24550499,0.017626023,0.034118038,-0.2341136,-0.4022259,0.19153613,-9.308657,0.91421866,47.711063,-1.3741399,-2.093968,-3.4253054,-0.2781071,0.3186803,-0.17811549,24.75,25.3125,24.5,26.375,26.5625,26.875
0.3360546,-0.76712555,-0.8704037,-1.4352101,-0.018642697,0.09282156,-0.090867154,-0.41600987,-0.36358526,0.060072757,3.072646,-0.61845535,-0.00032603668,-0.16250138,0.030806832,-0.0003377819,-0.043293975,0.011405184,0.014994853,0.46914685,-1.3493438,1.8649133,-2.0896113,-1.5651535,2.4408848,-0.20973402,0.20337608,-0.24921998,0.01723283,0.034008197,-0.2245082,-0.34476504,0.24899697,-9.308656,0.8940802,47.691364,-1.3943679,-2.1456137,-3.379748,-0.2568903,0.33751974,-0.2954697,24.75,25.3125,24.5,26.3125,26.5625,26.875
0.3380546,-0.24842843,-0.6754275,-1.5741409,-0.016914483,0.06886642,-0.085758634,-0.4163295,-0.36353377,0.060072817,3.0725448,-0.61843747,-0.00032002226,-0.1618812,0.030601809,-0.0015639296,-0.042429484,0.0096179,0.0068402127,0.46873927,-1.3489355,1.8644112,-2.089576,-1.5650696,2.4404793,-0.2086994,0.2053549,-0.24882337,0.016822638,0.034025725,-0.21531682,-0.34476504,0.17238252,-9.385271,0.900793,47.70211,-1.4460788,-2.2467113,-3.4507718,-0.26544628,0.3651163,-0.42894113,24.75,25.3125,24.5,26.3125,26.5625,26.875
0.34005472,0.008417987,-0.6311308,-1.277585,-0.036910057,0.064558975,-0.09157867,-0.41667107,-0.36345372,0.06007013,3.0724728,-0.61842597,-0.00037589975,-0.16293548,0.031099625,-0.0018283896,-0.042522002,0.009381139,0.0007687204,0.46829492,-1.3485274,1.8639206,-2.089564,-1.5650333,2.4400373,-0.21034692,0.2068918,-0.25015128,0.016779914,0.034218237,-0.2108893,-0.3256114,0.17238252,-9.308657,0.947788,47.705692,-1.479935,-2.137651,-3.5329142,-0.23772568,0.38539982,-0.5397494,24.75,25.3125,24.5,26.3125,26.5625,26.875
0.3420544,0.07730053,-0.6829741,-1.5294119,-0.028226418,0.058802623,-0.10052101,-0.41698924,-0.36341652,0.060076267,3.0723689,-0.6182845,-0.00036292753,-0.16435516,0.03106325,-0.0015674965,-0.043744706,0.010141164,0.006326325,0.4678984,-1.3481195,1.8634046,-2.0895278,-1.5649251,2.439566,-0.21179165,0.2082961,-0.25245267,0.016521612,0.03502129,-0.21788602,-0.19153613,0.15322891,-9.308656,0.98807013,47.661808,-1.420789,-2.211929,-3.4964762,-0.23245908,0.38605326,-0.54990053,24.75,25.3125,24.5,26.3125,26.5625,26.875
0.34405383,-0.52105504,-1.0390478,-1.7963696,-0.011648428,0.051800746,-0.086365834,-0.41732833,-0.363343,0.060070835,3.072292,-0.6182419,-0.00038003764,-0.16653349,0.031787444,-0.0016078261,-0.04454146,0.009994425,0.0175527,0.46745336,-1.3476989,1.862902,-2.0895035,-1.564865,2.4391043,-0.21516763,0.2108256,-0.25562075,0.017043928,0.035890613,-0.23248264,0.0,0.24899697,-9.461885,0.95897776,47.675243,-1.3315213,-2.277752,-3.4870353,-0.21058007,0.37834072,-0.4426145,24.75,25.3125,24.5,26.3125,26.5625,26.875
0.34605458,-0.7554998,-1.1794844,-1.6140925,-0.017685816,0.05454832,-0.083317615,-0.41767192,-0.36328015,0.06007497,3.0722036,-0.6181224,-0.00038934895,-0.16889994,0.03264953,-0.0016234926,-0.04568526,0.00961282,0.025417881,0.46700794,-1.3472781,1.8623747,-2.0894673,-1.5647806,2.4385958,-0.21916793,0.21339707,-0.25892612,0.017705625,0.037166793,-0.24434033,-0.15322891,0.21068975,-9.442732,0.93436235,47.68599,-1.2540241,-2.2984831,-3.4664474,-0.2071656,0.3859457,-0.28942978,24.75,25.3125,24.5,26.3125,26.5625,26.875
0.3480543,-0.9134515,-1.3544956,-1.4540365,-0.035629228,0.07770631,-0.08491875,-0.4179928,-0.36320904,0.060054168,3.0721545,-0.6180753,-0.00032460663,-0.16937535,0.032896943,-0.0011021387,-0.046362113,0.009811045,0.025578402,0.46657574,-1.3468348,1.8618706,-2.0894072,-1.5647086,2.4381406,-0.22011173,0.21297236,-0.259888,0.018649012,0.037700407,-0.24544287,-0.24899697,0.2681506,-9.308657,0.9612189,47.66987,-1.1355797,-2.3102481,-3.421998,-0.20542717,0.39345458,-0.23874508,24.75,25.3125,24.5,26.3125,26.5625,26.875
0.35005388,-0.8816867,-1.6508689,-1.4829831,-0.02897562,0.09439765,-0.074222445,-0.41833827,-0.3631484,0.060063787,3.0720801,-0.6179873,-0.00038451108,-0.17132816,0.03328422,-0.0005439505,-0.047897723,0.010173798,0.017059494,0.46615478,-1.346415,1.8613318,-2.0893714,-1.56466,2.4376745,-0.22292751,0.21432254,-0.26303664,0.019421583,0.038907688,-0.23973116,-0.40222588,0.36391866,-9.289502,0.9947882,47.705692,-0.9556886,-2.2512891,-3.4303977,-0.2000863,0.3879894,-0.31319672,24.75,25.3125,24.5,26.3125,26.5625,26.875
0.35205427,-1.1234609,-1.1334283,-1.6370274,-0.04094648,0.09285188,-0.08145671,-0.41867962,-0.36306578,0.06005206,3.0720155,-0.61797786,-0.0003341881,-0.17314604,0.03211091,0.001626164,-0.050963413,0.013704095,0.011682811,0.4656868,-1.3459715,1.860804,-2.0892994,-1.5645875,2.4372091,-0.22298543,0.21377537,-0.2674533,0.019852752,0.040042896,-0.23440658,-0.40222588,0.3256114,-9.32781,0.91198283,47.690468,-0.9590902,-2.2375011,-3.4146833,-0.20679244,0.38739267,-0.38568962,24.75,25.3125,24.5,26.3125,26.5625,26.875
0.35403228,-0.83291143,-1.0205995,-1.4945894,-0.059180327,0.09382076,-0.08940907,-0.41902125,-0.3630138,0.060054753,3.071894,-0.6178953,-0.00036249976,-0.17282091,0.030991849,0.0018335783,-0.05264764,0.013297054,0.010575823,0.46525523,-1.3455517,1.860289,-2.0892994,-1.5644907,2.4367418,-0.22168209,0.21421693,-0.26860344,0.020187855,0.041753758,-0.23198594,-0.47884035,0.30645782,-9.500193,0.93436235,47.684196,-1.0295482,-2.1356862,-3.3098903,-0.19984956,0.3865016,-0.439151,24.75,25.3125,24.5,26.3125,26.5625,26.875
0.3560545,-1.4429996,-1.6691848,-1.4667541,-0.055158637,0.09212701,-0.08316341,-0.41934702,-0.36294436,0.06002609,3.0718622,-0.61784697,-0.00026410457,-0.1720014,0.031205218,0.00062442094,-0.052783195,0.010539356,0.015944505,0.46482325,-1.3450718,1.859752,-2.0892155,-1.5644187,2.4362838,-0.2219982,0.21528837,-0.26727703,0.020260036,0.043152638,-0.23766743,-0.6512228,0.36391866,-9.385271,0.9410752,47.67345,-1.1336141,-2.0303183,-3.444026,-0.18289165,0.35192603,-0.415088,24.75,25.3125,24.5,26.3125,26.5625,26.875
0.35805464,-0.7138138,-0.64914185,-1.790904,-0.052765373,0.105974,-0.09834659,-0.41966668,-0.36287934,0.060015667,3.0717542,-0.6177393,-0.00018435766,-0.17191838,0.030942388,-7.9094796e-05,-0.053759597,0.008714663,0.028585602,0.46436727,-1.3446634,1.8592719,-2.0891793,-1.5642856,2.4357746,-0.22236818,0.2169475,-0.26781777,0.020464987,0.044933457,-0.25067073,-0.32561144,0.2681506,-9.481039,0.97240865,47.67614,-1.2412093,-2.085526,-3.533269,-0.1793362,0.33256003,-0.3190812,24.75,25.3125,24.5,26.3125,26.5625,26.875
0.3600544,-0.8746315,-0.9961875,-1.7721969,-0.03904203,0.09391001,-0.09063824,-0.4200458,-0.36282048,0.06000972,3.071687,-0.6175865,-0.00025645347,-0.17167562,0.030770246,-0.002433808,-0.053720094,0.004132337,0.03765399,0.4639231,-1.3441701,1.8586863,-2.0891793,-1.564237,2.4352438,-0.22292955,0.22179793,-0.26848266,0.020482475,0.04703548,-0.26028803,-0.17238252,0.30645782,-9.481039,0.9567419,47.678825,-1.2671714,-2.2505662,-3.6683621,-0.16246343,0.3129934,-0.19423833,24.75,25.3125,24.5,26.3125,26.5625,26.875
0.3620542,-0.8222427,-1.136832,-1.3599463,-0.046309307,0.0873556,-0.079986475,-0.42038336,-0.3627651,0.060029116,3.0715845,-0.6174507,-0.0002705812,-0.17143446,0.030220216,-0.002651227,-0.054781403,0.003320498,0.03786092,0.46349123,-1.3437741,1.858148,-2.0891197,-1.5641407,2.4347405,-0.22242269,0.2225091,-0.2689302,0.020508818,0.04837856,-0.25997913,-0.40222588,0.22984336,-9.289503,0.95226496,47.660015,-1.3338027,-2.2782614,-3.632728,-0.1410816,0.27953538,-0.1514695,24.75,25.3125,24.5,26.3125,26.5625,26.875
0.36405516,-0.47074044,-0.6393266,-1.7026937,-0.01611784,0.0671782,-0.07728964,-0.42075986,-0.36271957,0.06003136,3.0714488,-0.61735034,-0.00030408203,-0.1732413,0.028945776,-0.0012254611,-0.057347987,0.0064046625,0.02982855,0.46303603,-1.3432945,1.8575605,-2.0891197,-1.564032,2.4342403,-0.22213502,0.22337814,-0.27316788,0.019962229,0.04928125,-0.25164896,-0.28730422,0.19153613,-9.32781,0.88289046,47.657326,-1.3668463,-2.2106113,-3.5937428,-0.13294521,0.26941088,-0.2230984,24.75,25.3125,24.5,26.3125,26.5625,26.875
0.36605436,0.03220846,0.14429276,-1.8177658,-0.010602714,0.052221447,-0.07604437,-0.4211032,-0.3626472,0.05999156,3.0713995,-0.6173296,-0.00019685108,-0.17508592,0.029057294,-0.0011749509,-0.05986743,0.0063975034,0.01670422,0.4625788,-1.3427782,1.8570093,-2.08906,-1.5639471,2.4337766,-0.22497283,0.22531974,-0.2755815,0.019281505,0.051483773,-0.24135366,-0.11492168,0.19153613,-9.3661175,0.85826975,47.66091,-1.3967109,-2.3938148,-3.5850103,-0.10064386,0.23579499,-0.33420184,24.75,25.3125,24.5,26.3125,26.5625,26.875
0.36805478,0.27158764,-0.06313874,-1.7987845,-0.022400117,0.046597626,-0.0804367,-0.42144737,-0.36258763,0.060002122,3.0712516,-0.61732376,-0.00019034989,-0.17686768,0.02995212,-0.0007316697,-0.059306208,0.007108445,0.006306168,0.46212187,-1.3423703,1.8564814,-2.0890238,-1.5638279,2.4333353,-0.22722356,0.22652265,-0.27841043,0.020519884,0.050650652,-0.2332046,-0.11492168,0.21068975,-9.404425,0.94331104,47.65464,-1.3723521,-2.3055449,-3.4783814,-0.08784754,0.21438435,-0.467205,24.75,25.3125,24.5,26.3125,26.5625,26.875
0.37005395,0.18221244,-0.758722,-1.9205048,-0.020716028,0.037534706,-0.0771187,-0.4217854,-0.36253837,0.05998333,3.0711796,-0.61719257,-0.00014413855,-0.17775531,0.031107534,-0.002045172,-0.05754603,0.0040782257,0.006472571,0.4617016,-1.3418894,1.8559307,-2.088987,-1.563732,2.4328425,-0.22955634,0.23010042,-0.2803331,0.02242376,0.050460257,-0.23570232,-0.019153614,0.22984336,-9.3661175,0.95002913,47.672558,-1.2288482,-2.448805,-3.5032349,-0.08621712,0.21451452,-0.5406245,24.75,25.3125,24.5,26.3125,26.5625,26.875
0.37205407,0.60397416,-1.2684904,-1.97275,-0.04048822,0.061325908,-0.092645064,-0.42217055,-0.36245534,0.059993498,3.0710945,-0.6171874,-0.00016531796,-0.1795207,0.031219576,-0.00040280595,-0.05871368,0.006094639,0.01803015,0.46120816,-1.3414217,1.8553194,-2.0889027,-1.563672,2.432357,-0.23111823,0.22976777,-0.28418353,0.024412924,0.05070725,-0.24881761,-0.038307227,0.30645782,-9.519346,0.900793,47.66987,-1.0552504,-2.4957669,-3.3742833,-0.098725185,0.18172792,-0.43664277,24.75,25.3125,24.5,26.3125,26.5625,26.875
0.37405515,0.17082252,-1.4051532,-1.7660617,-0.07172926,0.068721786,-0.091663845,-0.42253098,-0.36236888,0.05998802,3.0710018,-0.6171624,-0.00014739267,-0.18066037,0.032279048,-0.000551925,-0.059287142,0.004755963,0.027569892,0.46071547,-1.3409779,1.8547806,-2.088854,-1.5635875,2.431861,-0.23431665,0.23088399,-0.28560627,0.025796717,0.0519158,-0.26154867,0.019153614,0.21068975,-9.615114,0.92764956,47.67614,-0.963117,-2.4229631,-3.3729062,-0.09693789,0.15905917,-0.27307355,24.75,25.3125,24.5,26.3125,26.5625,26.875
0.37605512,-0.25296876,-1.4868314,-1.9115062,-0.06533425,0.07943973,-0.07724065,-0.42286748,-0.3623444,0.059995223,3.0708878,-0.6168685,-6.548241e-05,-0.18195887,0.03254365,-3.6378995e-05,-0.0585646,0.006122553,0.0311056,0.46029553,-1.3405218,1.8541931,-2.088782,-1.5634197,2.431272,-0.23488878,0.23191613,-0.28832304,0.026678326,0.050709337,-0.26565847,-0.05746084,0.3256114,-9.634268,0.8784135,47.678825,-1.1160634,-2.4495125,-3.363263,-0.1062859,0.12962893,-0.18832552,24.75,25.3125,24.5,26.3125,26.5625,26.875
0.37805447,-0.5056848,-0.8350601,-1.6203368,-0.061307583,0.10428592,-0.07722439,-0.42325234,-0.36228243,0.059991926,3.0707457,-0.61684376,-5.769637e-05,-0.18073049,0.034175817,-0.002394332,-0.054653533,0.002337026,0.02382515,0.4598034,-1.3400297,1.8535961,-2.0887582,-1.563301,2.430783,-0.23524271,0.23374093,-0.2854306,0.02710027,0.048888158,-0.25873682,-0.38307226,0.28730422,-9.557653,0.89631605,47.66091,-1.175831,-2.4113905,-3.434876,-0.10043208,0.13970354,-0.25091738,24.75,25.3125,24.5,26.3125,26.5625,26.875
