Tylouw/Master_Thesis_Code/training_data/batch_1/rect_rod_t0.1/sample_15_session_1.csv
timestamp[s],tcp_force_x[N],tcp_force_y[N],tcp_force_z[N],tcp_force_rx[Nm?],tcp_force_ry[Nm?],tcp_force_rz[Nm?],tcp_pose_x[m],tcp_pose_y[m],tcp_pose_z[m],tcp_pose_rx[rot_vec_x],tcp_pose_ry[rot_vec_y],tcp_pose_rz[rot_vec_z],tcp_velo_x[m/s],tcp_velo_y[m/s],tcp_velo_z[m/s],tcp_velo_rx[rot_vec_x/s],tcp_velo_ry[rot_vec_y/s],tcp_velo_rz[rot_vec_z/s],q1[rad],q2[rad],q3[rad],q4[rad],q5[rad],q6[rad],qd1[rad/s],qd2[rad/s],qd3[rad/s],qd4[rad/s],qd5[rad/s],qd6[rad/s],tool_acc_x,tool_acc_y,tool_acc_z,current_of_whole_robot[A],voltage_of_whole_robot[V],current_J1[A],current_J2[A],current_J3[A],current_J4[A],current_J5[A],current_J6[A],temp_J1[C],temp_J2[C],temp_J3[C],temp_J4[C],temp_J5[C],temp_J6[C]
7.1500017e-07,-0.6247171,-0.41141385,0.837654,0.005868186,-0.016925994,0.0028730023,-0.3893581,-0.36872375,0.060038324,-3.078738,0.62499255,0.00027830718,0.0011823821,0.0006417959,-0.0010321249,0.0012343917,-0.0025400924,6.406939e-05,0.50502086,-1.3816799,1.9041761,-2.0919158,-1.5708536,2.4800491,-7.0234906e-05,-1.6224834e-05,0.002229604,0.0006062669,0.00015495301,-0.00013549796,0.15322891,0.095768064,-8.676587,0.71951014,47.71286,-0.14122356,-3.0965774,-2.2328203,-0.22468269,0.14924678,0.020623405,24.5,25.0,24.25,25.8125,25.9375,26.25
0.002052668,-0.43882146,-0.26378107,0.94546807,0.0022858558,-0.008027485,0.002402647,-0.38933253,-0.36872298,0.060015332,-3.0787365,0.6249541,0.00017390662,-0.0014993827,-0.0008483772,-0.0005298318,-0.003806901,0.0065349056,6.382283e-05,0.50502086,-1.3816679,1.9042124,-2.0919077,-1.5708174,2.4800253,-6.915561e-05,-2.1767686e-07,0.0037773936,-0.011338764,0.00015168832,-0.00013353695,0.095768064,0.15322891,-8.6574335,0.75084364,47.71465,-0.18742707,-2.932191,-2.2961574,-0.15237212,0.14800714,0.024198338,24.5,25.0,24.25,25.8125,25.9375,26.25
0.004052256,-0.23311774,0.19101205,1.0201027,-0.005419075,-0.00053951406,-0.010043558,-0.38937265,-0.36873016,0.06004046,-3.0787592,0.6249202,0.00034781912,-0.0014339536,-0.000812678,-0.0020688875,-0.0026061535,0.004365969,6.237186e-05,0.5050329,-1.3816667,1.9041647,-2.0919554,-1.5708774,2.4800134,-6.810883e-05,0.003179732,0.0036537636,-0.011915955,0.00014855848,-0.0001304028,0.038307227,0.22984336,-8.561666,0.75084364,47.693153,-0.14116046,-3.3532872,-2.587449,-0.07009059,0.15111955,0.018529061,24.5,25.0,24.25,25.8125,25.9375,26.25
0.006052519,-0.18838573,0.009359996,1.0770584,0.025907127,-0.015040993,-0.0022416285,-0.38932848,-0.3687073,0.05999251,-3.0787003,0.6249467,0.00019349578,-0.00040199395,-0.00023821944,-0.0016730685,-0.00080039015,0.0011285346,6.0016366e-05,0.50502086,-1.3816551,1.9042596,-2.091953,-1.5708536,2.4800253,-6.709347e-05,0.0022754858,0.002517673,-0.0061686262,0.00014555514,-0.00012733374,0.019153614,0.21068975,-8.504205,0.7978386,47.685097,-0.13065954,-3.296659,-2.4811947,-0.085870504,0.15289387,0.022073068,24.5,25.0,24.25,25.8125,25.9375,26.25
0.008051681,0.2453761,0.89347315,0.47597784,0.047414973,-0.027334211,-0.008367534,-0.38935617,-0.36871552,0.060011335,-3.0787349,0.624973,0.00026557647,-9.535358e-05,-6.6572546e-05,-0.00026727116,-0.0005643104,0.00072103116,5.789921e-05,0.5050088,-1.3816559,1.9042228,-2.091976,-1.5708536,2.4800253,-6.610779e-05,4.178843e-05,0.0010002089,-0.0019465904,0.00014267095,-0.00012440063,-0.038307227,0.24899697,-8.714894,0.80456203,47.711964,-0.12640879,-3.131822,-2.4789898,-0.13815373,0.14268894,0.039594725,24.5,25.0,24.25,25.8125,25.9375,26.25
0.010052014,0.49367562,0.93137825,0.07879247,0.041786127,-0.01571091,-0.0057645696,-0.38935113,-0.36869502,0.060003582,-3.0786796,0.62494254,0.00026993547,0.0005941823,0.0003133761,-0.0002828586,0.0008181883,-0.0017599106,6.232508e-05,0.5050088,-1.3816559,1.9042348,-2.0919507,-1.5709013,2.4800134,-5.8789545e-05,5.606451e-07,0.00026375157,0.0016712277,0.00013989868,-0.00012159921,0.0,0.2681506,-8.963891,0.7642693,47.684196,-0.65137255,-2.5649257,-2.9705298,-0.1465402,0.13349938,-0.025264826,24.5,25.0,24.25,25.8125,25.9375,26.25
0.01205206,-0.64920837,-0.37993282,-0.044592876,0.015300198,-0.011306096,-0.00043934764,-0.38933045,-0.3687061,0.059976865,-3.0786457,0.6249178,0.00014191357,4.454723e-05,0.0022457256,-0.0042202445,0.004850619,-0.009044676,-0.0036742867,0.5050319,-1.3815935,1.9042109,-2.0919025,-1.5708774,2.4800253,-0.0038274701,0.0076187365,3.5385642e-06,0.0026396317,0.0001372322,-0.00015246049,0.019153614,0.21068975,-9.136273,0.75084364,47.683304,-0.71970177,-2.597341,-3.1196113,-0.14298606,0.120460704,-0.07696501,24.5,25.0,24.25,25.8125,25.9375,26.25
0.014052231,-0.7332357,-0.866542,-0.13312192,-0.025841152,0.019359434,-0.013961313,-0.38933724,-0.36871892,0.059977163,-3.0786896,0.6249258,0.0001084858,-0.0044337353,0.0033057402,-0.0042823493,0.0043646027,-0.008188518,-0.0023285043,0.5050173,-1.3815792,1.9041961,-2.091915,-1.5708297,2.48001,-0.009802553,0.012746159,-0.0058547263,0.0023850643,0.00013466546,-0.007470078,-0.095768064,0.19153613,-9.308657,0.8403672,47.707485,-0.2858612,-3.0435753,-3.0588737,-0.12683398,0.13996883,-0.08666946,24.5,25.0,24.25,25.8125,25.9375,26.25
0.016052373,-0.9098768,-1.4994613,-0.43869442,-0.02920325,0.044277005,-0.016237669,-0.38933066,-0.36869675,0.059955288,-3.0786436,0.6249517,6.425524e-05,-0.005744672,0.0024498373,-0.0030843415,0.0029213133,-0.0055891112,0.0037140434,0.5049936,-1.3815672,1.9042319,-2.0919154,-1.5708417,2.4800084,-0.009587924,0.012975897,-0.008791054,0.002117505,0.00013219292,-0.013296732,-0.24899697,0.21068975,-9.404425,0.679228,47.675243,-0.42623726,-3.016673,-3.033133,-0.108499944,0.13743773,-0.019890305,24.5,25.0,24.25,25.8125,25.9375,26.25
0.018052228,-1.9262497,-1.5302616,-0.5061428,-0.023635304,0.040447924,-0.012510693,-0.38936102,-0.36869043,0.059975855,-3.0786333,0.62494856,0.000102076556,-0.005505181,0.00310223,-0.0028302548,0.0033709332,-0.0063878912,0.004890176,0.5049694,-1.3815557,1.9041604,-2.0918667,-1.5708655,2.4799836,-0.010458821,0.011802288,-0.008358886,0.0037749,0.00012980969,-0.015344297,-0.4405331,0.22984336,-9.481039,0.83365434,47.679718,-0.6498103,-2.7884912,-3.2629704,-0.10300154,0.1283161,-0.015289547,24.5,25.0,24.25,25.8125,25.9375,26.25
0.02005245,-1.3298086,-0.5393495,-0.77395,-0.017677339,0.06279175,-0.03506712,-0.3893543,-0.36868814,0.05994877,-3.078638,0.6248931,3.2668628e-05,-0.0055772164,0.003645257,-0.0035313566,0.0049880245,-0.009303541,0.0041601188,0.50495696,-1.381519,1.9041837,-2.0918891,-1.5708417,2.479936,-0.0114401365,0.013879505,-0.009838175,0.0065113776,0.00012751069,-0.01559491,-0.40222588,0.2681506,-9.404425,0.83589023,47.70032,-0.7784351,-2.6203442,-3.441186,-0.1243661,0.14228682,-0.016964406,24.5,25.0,24.25,25.8125,25.9375,26.25
0.022052543,-1.0125306,-0.63615835,-0.76296896,-0.00053557823,0.0722608,-0.05103586,-0.3893465,-0.36866942,0.059916735,-3.078547,0.62498957,-9.6335054e-05,-0.006814654,0.0037108124,-0.0034669037,0.0049983137,-0.009329628,0.0031440398,0.5049327,-1.3814582,1.9041713,-2.0918295,-1.5708417,2.4799833,-0.012708275,0.015717003,-0.012304501,0.007167982,0.00012529177,-0.015845748,-0.40222588,0.30645782,-9.691729,0.7284641,47.66987,-0.85931814,-2.6364903,-3.4270644,-0.1466957,0.13244037,-0.0475814,24.5,25.0,24.25,25.8125,25.9375,26.25
0.02405164,-1.7214637,-0.7444148,-0.8800965,-0.009014758,0.060282663,-0.056646913,-0.38936427,-0.36865744,0.05988393,-3.078513,0.62496597,-0.00016678913,-0.009336253,0.0038750623,-0.0034500614,0.0042206394,-0.007940966,-0.00034736586,0.50489587,-1.3813732,1.9041456,-2.09183,-1.5708417,2.4799361,-0.015343534,0.018606167,-0.015456006,0.0058388864,0.0001231487,-0.014987716,-0.5554548,0.28730422,-9.710882,0.84708,47.709274,-0.82631814,-2.7153592,-3.318266,-0.12465912,0.13283825,-0.095175356,24.5,25.0,24.25,25.8125,25.9375,26.25
0.026052296,-2.077987,-1.0181807,-0.8585345,-0.014978177,0.06080625,-0.065810814,-0.38938713,-0.36868146,0.059914064,-3.0785747,0.62490106,-0.00010853642,-0.010024629,0.0041323924,-0.003484754,0.003994482,-0.007530335,-0.00055426586,0.5049074,-1.381373,1.9040741,-2.0918176,-1.5708297,2.4798994,-0.016418537,0.019098118,-0.015824592,0.0052467985,0.00012107778,-0.015855517,-0.7278373,0.22984336,-9.787497,0.77545905,47.687782,-0.8045848,-2.7174525,-3.360272,-0.096485466,0.12022563,-0.1053569,24.5,25.0,24.25,25.8125,25.9375,26.25
0.028052278,-1.5833405,-0.8624109,-0.8760983,-0.023794439,0.08325675,-0.08493439,-0.38939503,-0.3686528,0.05988069,-3.0785015,0.624944,-0.00019605832,-0.010883956,0.0041356413,-0.0033268468,0.0038999128,-0.0073647327,-0.00051414873,0.5048592,-1.3813125,1.9040731,-2.0917938,-1.5708417,2.4798872,-0.0172271,0.020177973,-0.017567394,0.005718759,0.00011907548,-0.016703371,-0.7469909,0.17238252,-9.921572,0.7284641,47.67166,-0.83568805,-2.7197733,-3.4072604,-0.09671569,0.1291307,-0.109136365,24.5,25.0,24.25,25.8125,25.9375,26.25
0.030052355,-2.3451939,-0.6786932,-0.78639066,-0.014389726,0.07823966,-0.08674222,-0.38942105,-0.36864576,0.059886817,-3.0785046,0.62492615,-0.00019712409,-0.010909194,0.0044597904,-0.0033973241,0.0048731877,-0.009116512,-0.0008982594,0.504823,-1.3812883,1.904025,-2.091769,-1.5708417,2.4798396,-0.017794652,0.020965524,-0.018920438,0.008288232,0.00011713823,-0.016886402,-0.7661445,0.15322891,-9.80665,0.76874626,47.661808,-0.8111216,-2.7081962,-3.4380555,-0.102091976,0.10961172,-0.10120657,24.5,25.0,24.25,25.8125,25.9375,26.25
0.032052293,-1.9588392,-0.0028505952,-0.6401258,0.0038198025,0.08409748,-0.082729734,-0.38947022,-0.36866078,0.059885684,-3.0785494,0.62495387,-0.00016554106,-0.011677443,0.004345067,-0.0030202854,0.0045795776,-0.008585036,-0.0026499925,0.5047871,-1.381216,1.903953,-2.0918167,-1.5708174,2.4798152,-0.018317264,0.02156594,-0.020595992,0.008756759,0.000115262934,-0.015656542,-0.6895301,0.0,-9.80665,0.7530795,47.65912,-0.90050054,-2.6555557,-3.3787415,-0.1100065,0.10606794,-0.109254085,24.5,25.0,24.25,25.8125,25.9375,26.25
0.034052078,-1.6809628,0.40612343,-0.7765569,0.02411004,0.077379055,-0.076387934,-0.3894607,-0.3686506,0.05986175,-3.0784912,0.6249242,-0.00025110116,-0.0135405045,0.004168278,-0.0022162162,0.0032432305,-0.0061805747,-0.005096181,0.50478655,-1.3811677,1.9039396,-2.0917695,-1.5708297,2.4798036,-0.019761782,0.022265788,-0.02302095,0.007730949,0.00011344682,-0.01465367,-0.59376204,-0.076614454,-9.768343,0.7978386,47.677036,-0.885075,-2.6864445,-3.3724818,-0.102457166,0.119361356,-0.13701126,24.5,25.0,24.25,25.8125,25.9375,26.25
0.036051832,-1.2809507,0.7649792,-0.7392003,0.023335762,0.074804276,-0.07804488,-0.3895132,-0.36863956,0.0598764,-3.0785089,0.62494767,-0.00018240395,-0.014838138,0.003931442,-0.0019795313,0.0025311233,-0.0049002706,-0.0058484357,0.50472635,-1.3811431,1.90388,-2.0917819,-1.5708417,2.4797559,-0.020573933,0.023590695,-0.02492535,0.0068452586,0.0001116871,-0.014712475,-0.49799395,-0.05746084,-9.595961,0.7911258,47.687782,-0.92553663,-2.732673,-3.3481612,-0.06174984,0.11262636,-0.14158076,24.5,25.0,24.25,25.8125,25.9375,26.25
0.03805207,-1.0870094,0.7169907,-0.6866989,0.01587704,0.06422239,-0.079752445,-0.38951564,-0.36863813,0.059841983,-3.0784676,0.6249585,-0.00028186655,-0.015431555,0.004272344,-0.0022204062,0.0030250603,-0.005794543,-0.0066126054,0.50471413,-1.3810587,1.9038557,-2.091769,-1.5708297,2.4797556,-0.021701956,0.024916323,-0.026155338,0.0077713686,0.00010998099,-0.015075722,-0.47884035,-0.019153614,-9.615114,0.80679786,47.66539,-0.9728091,-2.7021961,-3.4521565,-0.067053,0.102838136,-0.15328467,24.5,25.0,24.25,25.8125,25.9375,26.25
0.04005205,-1.4751645,-0.39844003,-0.8943072,0.025853865,0.036235634,-0.06482661,-0.3895601,-0.36861262,0.05983083,-3.0784376,0.62502974,-0.00031024768,-0.01726378,0.004280659,-0.0014237732,0.0021679027,-0.004253662,-0.007773975,0.5046296,-1.3809984,1.903807,-2.091757,-1.5708297,2.4797194,-0.023425862,0.025863463,-0.029154763,0.008060355,0.00010832625,-0.015636915,-0.34476504,-0.1340753,-9.653421,0.7486078,47.694946,-0.8513063,-2.710046,-3.3551683,-0.067516655,0.10327311,-0.15967315,24.5,25.0,24.25,25.8125,25.9375,26.25
0.042052448,-0.86817116,-0.0077719395,-0.7017127,0.005850496,0.044105582,-0.07830375,-0.38961908,-0.3686219,0.05986897,-3.0784736,0.6249993,-0.0001990138,-0.018551579,0.0047248243,-0.001213606,0.0021301238,-0.0041855387,-0.008665119,0.50460494,-1.3809739,1.9036859,-2.0917332,-1.5708536,2.4796712,-0.025373558,0.026962219,-0.031108417,0.008836826,0.00010672073,-0.016692566,-0.28730422,-0.019153614,-9.672575,0.7709874,47.72271,-0.7816336,-2.6479876,-3.3215983,-0.07521987,0.10101787,-0.17476794,24.5,25.0,24.25,25.8125,25.9375,26.25
0.044052437,-0.20290166,-0.032796312,-0.6272818,0.0026428732,0.053069476,-0.08259718,-0.38962337,-0.3685886,0.05983815,-3.0784197,0.6250261,-0.00028641007,-0.019142563,0.0047251545,-0.001093218,0.0021675415,-0.0042571034,-0.00837938,0.5045449,-1.3809375,1.9037102,-2.0917208,-1.5708536,2.4796348,-0.025925498,0.027816059,-0.032542095,0.009497279,0.00010516192,-0.017529601,-0.26815057,-0.05746084,-9.576807,0.7777002,47.690468,-0.8218088,-2.671413,-3.246644,-0.07215348,0.10328696,-0.18647389,24.5,25.0,24.25,25.8125,25.9375,26.25
0.046051905,-0.9435619,-0.67297256,-0.6079115,0.007831834,0.02943201,-0.07448333,-0.38966683,-0.36856544,0.05983826,-3.0783534,0.6251087,-0.00034738367,-0.019060904,0.005335759,-0.0015249038,0.0029362708,-0.005643879,-0.008938614,0.50447273,-1.3808655,1.903603,-2.0916245,-1.5708655,2.4796226,-0.026873026,0.028202472,-0.03221558,0.010369684,0.000103648126,-0.017918065,-0.15322891,0.076614454,-9.461885,0.7777002,47.66539,-0.82699823,-2.6234612,-3.3727179,-0.05613513,0.10331465,-0.20633551,24.5,25.0,24.25,25.8125,25.9375,26.25
0.04805197,-0.38647756,-0.67488396,-0.69381547,0.0013974527,0.0303636,-0.07118851,-0.3897268,-0.3685691,0.059840355,-3.0783885,0.62519264,-0.00034021307,-0.02004402,0.005578662,-0.0013894256,0.002984879,-0.00570931,-0.008858478,0.5044005,-1.380793,1.9035181,-2.0916488,-1.5708297,2.4795983,-0.028188337,0.0293038,-0.034001432,0.011135498,9.025105e-05,-0.019312663,-0.114921674,0.15322891,-9.557653,0.7642693,47.71823,-0.82512224,-2.60005,-3.3458023,-0.07225432,0.10683989,-0.20668778,24.5,25.0,24.25,25.8125,25.9375,26.25
0.050052274,-0.083450556,-0.51065314,-0.74450964,-0.0059370063,0.025901161,-0.07775994,-0.38979673,-0.36855325,0.059862442,-3.0784097,0.62519675,-0.000272084,-0.021579022,0.00591614,-0.000890526,0.0028120496,-0.0053980965,-0.010114172,0.5043159,-1.3807565,1.9034218,-2.091636,-1.5708417,2.4795136,-0.030184736,0.030449929,-0.03678263,0.012414267,8.8209265e-05,-0.02005218,0.038307227,0.24899697,-9.5385,0.7642693,47.645687,-0.7619361,-2.6095467,-3.3250475,-0.07690508,0.116625994,-0.22157598,24.5,25.0,24.25,25.8125,25.9375,26.25
0.052052327,0.31158674,-0.5221045,-0.7691455,-0.014630805,0.023633478,-0.08304047,-0.38981122,-0.36857262,0.059852134,-3.0784109,0.62512034,-0.00032714626,-0.022803921,0.0059654433,-0.0005827558,0.002379489,-0.004622692,-0.010054606,0.5043275,-1.3806721,1.9033374,-2.0916002,-1.5708297,2.4794774,-0.03141061,0.031461235,-0.038680732,0.012413243,8.694116e-05,-0.021336688,0.0,0.2681506,-9.461885,0.7284641,47.688675,-0.7519881,-2.5403893,-3.3066306,-0.07934662,0.08418648,-0.22894019,24.5,25.0,24.25,25.8125,25.9375,26.25
0.054052465,-0.028421417,-1.386349,-0.7788421,-0.016754858,0.009963121,-0.06986443,-0.38987505,-0.36851636,0.059848856,-3.078328,0.6252756,-0.00033363778,-0.023363814,0.0061607203,-0.0005107703,0.0023865595,-0.0045588478,-0.0098124845,0.50419545,-1.3806238,1.9032768,-2.091552,-1.5708655,2.4794528,-0.03223228,0.03196195,-0.03949731,0.012675842,4.6840287e-05,-0.022400027,-0.05746084,0.3256114,-9.615114,0.88289046,47.709274,-0.7437991,-2.5608006,-3.3378248,-0.074974746,0.09140058,-0.24107763,24.5,25.0,24.25,25.8125,25.9375,26.25
0.05605195,-0.28119025,-1.3900918,-0.7245711,-0.027754607,0.011182492,-0.06783899,-0.38989657,-0.36851376,0.059846383,-3.0783086,0.6252902,-0.00036345384,-0.02440373,0.0065990277,-0.00017288308,0.0022795103,-0.004343676,-0.009485719,0.50417095,-1.3805755,1.9032172,-2.0915158,-1.5708655,2.47944,-0.033931047,0.032419246,-0.04098798,0.013468814,3.36356e-05,-0.02442494,0.019153614,0.34476504,-9.461885,0.77545905,47.698532,-0.70683926,-2.5030553,-3.3564508,-0.07220814,0.097539425,-0.23758732,24.5,25.0,24.25,25.8125,25.9375,26.25
0.05805203,-0.4903089,-1.3188306,-0.6074501,-0.026615694,0.023166873,-0.06875397,-0.38994634,-0.3685029,0.05985178,-3.0783176,0.62533057,-0.00036161108,-0.025782874,0.0066552693,0.000508353,0.0015754544,-0.0030498658,-0.009359316,0.5040988,-1.3805274,1.9031452,-2.0915039,-1.5708536,2.4793918,-0.035300747,0.03287573,-0.043127146,0.01367866,2.0289743e-05,-0.025920099,0.0,0.3256114,-9.461885,0.7866488,47.689575,-0.7292895,-2.5082955,-3.3337393,-0.083362,0.0992673,-0.25080577,24.5,25.0,24.25,25.8125,25.9375,26.25
0.06005214,-0.71452904,-1.3552898,-0.55249053,-0.017377159,0.024679141,-0.07152446,-0.3900307,-0.3684947,0.0598768,-3.0783634,0.6253577,-0.00032704932,-0.026373519,0.005947906,0.0009167779,0.0010179733,-0.0020385748,-0.007459491,0.5039913,-1.3804672,1.9030117,-2.09148,-1.5708297,2.4792955,-0.03465223,0.033747252,-0.045070007,0.013595709,1.6077198e-05,-0.027170463,0.038307227,0.3256114,-9.385271,0.7933669,47.71286,-0.7644784,-2.465116,-3.3293357,-0.0855211,0.09123778,-0.2546866,24.5,25.0,24.25,25.8125,25.9375,26.25
0.062051903,-0.8035663,-1.085721,-0.43934917,-0.015530102,0.029562874,-0.07171024,-0.39008895,-0.3684823,0.059865113,-3.0783226,0.62538755,-0.0003327025,-0.027246691,0.005893875,0.0010741485,0.0006020867,-0.0012935112,-0.00711919,0.5039309,-1.3803588,1.9029049,-2.0914567,-1.5708536,2.479259,-0.035371445,0.034558494,-0.046290025,0.0131504135,1.55479e-05,-0.028229315,-0.05746084,0.2681506,-9.385271,0.76874626,47.711964,-0.85131127,-2.415931,-3.3110147,-0.08902876,0.07879037,-0.2564879,24.5,25.0,24.25,25.8125,25.9375,26.25
0.06405197,-0.99808663,-1.1349283,-0.5274513,0.0009349017,0.017990861,-0.060371827,-0.39011666,-0.3684662,0.059857503,-3.078297,0.62543947,-0.00038899304,-0.028504811,0.0063888547,0.0007708195,0.0008827851,-0.0018115,-0.008192943,0.5038705,-1.38031,1.9028562,-2.09142,-1.5708417,2.4792342,-0.037376024,0.036556352,-0.04804156,0.013493435,1.526773e-05,-0.02915915,-0.038307227,0.3256114,-9.251195,0.8112748,47.716442,-0.71732545,-2.4900045,-3.299736,-0.07386157,0.06966053,-0.25958595,24.5,25.0,24.25,25.8125,25.9375,26.25
0.066052,-0.6674006,-0.63102436,-0.29890972,-0.0008901779,0.023080474,-0.06447621,-0.3901987,-0.36845282,0.059866656,-3.0782912,0.62549627,-0.00032157666,-0.029609738,0.006448965,0.0012604693,0.00038593193,-0.0009151993,-0.008615547,0.50378627,-1.3802257,1.9027356,-2.09142,-1.5708655,2.4791863,-0.0385005,0.037059505,-0.04980749,0.0137306135,1.50119895e-05,-0.029860253,-0.05746084,0.2681506,-9.3661175,0.7463667,47.711964,-0.7755197,-2.380228,-3.2949219,-0.07345494,0.07411909,-0.2761011,24.5,25.0,24.25,25.875,25.9375,26.1875
0.06805199,-0.47173023,-0.42528862,-0.2768309,0.0010900245,0.028838199,-0.07396987,-0.39024788,-0.3684443,0.05986767,-3.078291,0.6254579,-0.00033630332,-0.030524647,0.0065406538,0.001598853,0.00017935726,-0.00054641155,-0.008632412,0.503726,-1.3801534,1.9026397,-2.0913842,-1.5708655,2.4791021,-0.03950337,0.037739795,-0.051523384,0.014343368,1.4765619e-05,-0.030845521,-0.17238252,0.22984336,-9.32781,0.7933669,47.72719,-0.7831267,-2.3715951,-3.3110437,-0.0909378,0.09081657,-0.27702934,24.5,25.0,24.25,25.875,26.0,26.1875
0.07005183,-0.9039583,-0.47768643,-0.116467014,0.011538614,0.027269227,-0.06934213,-0.39031857,-0.3684444,0.05987459,-3.0783224,0.625559,-0.0003593818,-0.031112785,0.0063798423,0.0011264561,0.000471085,-0.0010820874,-0.0075970353,0.5036302,-1.3800687,1.902521,-2.0913723,-1.5708174,2.4790654,-0.039774407,0.03988045,-0.052962724,0.01425335,1.45272925e-05,-0.032151006,-0.24899697,0.21068975,-9.346964,0.7418897,47.678825,-0.8148715,-2.3581448,-3.266086,-0.092152566,0.0777918,-0.29422703,24.5,25.0,24.25,25.875,26.0,26.1875
0.07205182,-0.99483323,-0.38709834,-0.20146488,0.017297858,0.036177054,-0.07638495,-0.3903606,-0.36842987,0.059873268,-3.0783,0.6254589,-0.0003784204,-0.031895246,0.0070756692,0.0005912519,0.0011953737,-0.0024002814,-0.008693011,0.5035817,-1.3799958,1.9024242,-2.0913117,-1.5708417,2.4789574,-0.041671176,0.041617412,-0.0539792,0.015036045,1.4296535e-05,-0.0329512,-0.28730422,0.076614454,-9.289502,0.7530795,47.696735,-0.80921537,-2.42731,-3.2972555,-0.105265714,0.072314054,-0.28369176,24.5,25.0,24.25,25.875,26.0,26.1875
0.07405178,-1.1152626,-0.16991076,-0.20768048,0.015007208,0.045936808,-0.074509814,-0.3904428,-0.36843446,0.05990972,-3.0783648,0.62547123,-0.0003157623,-0.033828806,0.0063805194,0.0017176847,-0.00025413884,0.00021711182,-0.00861757,0.5034976,-1.3799477,1.9022788,-2.0912879,-1.5708174,2.4788728,-0.0422956,0.042694446,-0.057750743,0.014739327,1.4072953e-05,-0.033649333,-0.30645782,0.05746084,-9.289502,0.78217715,47.65643,-0.7907543,-2.496008,-3.259655,-0.10573807,0.06878952,-0.32054892,24.5,25.0,24.25,25.875,26.0,26.1875
0.076052025,-1.5380455,-0.24003881,-0.20357731,0.015265727,0.044511646,-0.06585786,-0.39050427,-0.36840245,0.059893493,-3.0783045,0.62555385,-0.00033619712,-0.034044646,0.0066725337,0.0011897354,0.0003274466,-0.00084328064,-0.006776009,0.5034016,-1.3798509,1.9021958,-2.091264,-1.5708417,2.478836,-0.04298157,0.043954633,-0.058114868,0.015051507,1.38563155e-05,-0.036176555,-0.38307226,0.05746084,-9.3661175,0.74413085,47.688675,-0.85144585,-2.3802402,-3.1635401,-0.10967625,0.07900438,-0.31600046,24.5,25.0,24.25,25.875,26.0,26.1875
0.078052126,-1.1987193,-0.036427252,-0.21109435,0.014067369,0.04899157,-0.07002582,-0.39056578,-0.36840504,0.059888393,-3.0783205,0.6255186,-0.0003498404,-0.034390394,0.0074109444,0.00031895778,0.0010503007,-0.0021561545,-0.007343418,0.50334114,-1.3797425,1.9020766,-2.091252,-1.5708297,2.4787517,-0.0445392,0.04533384,-0.057703435,0.014759904,1.3646205e-05,-0.037166703,-0.4405331,0.0,-9.270349,0.8112748,47.716442,-0.84062517,-2.3981855,-3.4039097,-0.12618187,0.061236415,-0.33161688,24.5,25.0,24.25,25.875,26.0,26.1875
0.08005228,-1.4701314,-0.4855222,-0.22209468,0.024895592,0.042735554,-0.06776878,-0.39063746,-0.3683802,0.05988844,-3.0783014,0.6255738,-0.0003644115,-0.03635502,0.007903813,0.00064455124,0.0008314656,-0.0017453594,-0.009899182,0.5032325,-1.3796576,1.9019679,-2.0912163,-1.5708297,2.47868,-0.047182895,0.047098983,-0.060712744,0.015538711,1.7559437e-06,-0.0372532,-0.4213795,0.0,-9.270349,0.80456203,47.690468,-0.67690086,-2.514658,-3.3462453,-0.12446655,0.058299236,-0.3430022,24.5,25.0,24.25,25.875,26.0,26.1875
0.082052715,-1.563198,-0.26059338,-0.114588745,0.02249989,0.037964433,-0.0677876,-0.39070937,-0.36837962,0.05989453,-3.0783174,0.6256312,-0.0003738966,-0.03747021,0.006205034,0.0020234731,-0.0007610969,0.0011324649,-0.0065961233,0.50314933,-1.3795614,1.9018348,-2.0911925,-1.5708054,2.4786305,-0.045354933,0.04789858,-0.06480079,0.0155388415,1.1465059e-07,-0.03872652,-0.51714754,0.038307227,-9.251195,0.7530795,47.653748,-0.8644534,-2.339441,-3.144474,-0.14070612,0.05844923,-0.37648806,24.5,25.0,24.25,25.875,26.0,26.1875
0.084051855,-1.079103,-0.0061937002,-0.37390268,0.017379558,0.05632482,-0.066764556,-0.39078426,-0.36834753,0.059892174,-3.07826,0.62565774,-0.00040958056,-0.037250087,0.007623101,0.00049386616,0.00082972884,-0.0017560152,-0.0055447593,0.50304073,-1.3794528,1.9016927,-2.0911086,-1.5708297,2.478546,-0.047526076,0.049181566,-0.062859245,0.015610548,7.485864e-09,-0.04194963,-0.49799395,0.095768064,-9.308657,0.800085,47.694946,-0.837057,-2.491824,-3.317181,-0.1354355,0.04895127,-0.33713496,24.5,25.0,24.25,25.875,26.0,26.1875
0.086052425,-0.959057,0.039301243,-0.42962807,0.009855723,0.063267015,-0.08228056,-0.39087078,-0.36835074,0.059915036,-3.0783072,0.6256083,-0.00028531635,-0.03885674,0.0076326258,0.00091145973,0.00016770473,-0.0005593523,-0.0049502593,0.5029804,-1.3793802,1.9015602,-2.0911324,-1.5708536,2.4784489,-0.049028385,0.050468687,-0.06528322,0.0153785115,4.8877347e-10,-0.044045236,-0.5554548,0.15322891,-9.308657,0.83589023,47.684196,-0.853774,-2.3983943,-3.29728,-0.15211904,0.05862817,-0.335342,24.5,25.0,24.25,25.875,26.0,26.1875
0.08805161,-1.7893926,-0.5866646,-0.40010208,0.008880958,0.050641548,-0.068146646,-0.39093578,-0.36831495,0.05988813,-3.0782547,0.6255961,-0.00038545186,-0.040583912,0.008329961,0.0015594834,-0.00046156827,0.0005666283,-0.0037685386,0.5028597,-1.3792481,1.9014515,-2.0910723,-1.5708536,2.4783273,-0.051798712,0.05066148,-0.06705864,0.015670685,3.1913413e-11,-0.04799658,-0.47884035,0.095768064,-9.308656,0.83365434,47.685097,-0.77209485,-2.3522046,-3.2985694,-0.15328713,0.048861172,-0.31525034,24.5,25.0,24.25,25.875,26.0,26.1875
0.090051614,-1.8286817,-0.7337316,-0.3625717,0.0010321335,0.04842581,-0.06267979,-0.39102626,-0.36830094,0.059886575,-3.0782685,0.6255607,-0.00037435832,-0.04063735,0.008282094,3.8842754e-05,0.0010945529,-0.0022652647,-0.003520755,0.5027519,-1.3791265,1.9013084,-2.0910604,-1.5708536,2.4781957,-0.051758256,0.05457597,-0.06838267,0.016311498,2.0837175e-12,-0.048202828,-0.51714754,0.15322891,-9.32781,0.800085,47.67614,-0.75031185,-2.4962773,-3.316876,-0.18310499,0.034090307,-0.32010597,24.5,25.0,24.25,25.875,26.0,26.1875
0.09205168,-1.095736,-0.6558888,-0.4533171,-0.008560788,0.06473193,-0.0742282,-0.391099,-0.36827654,0.05988771,-3.0782235,0.62572193,-0.0004848834,-0.040864434,0.0077092894,0.00065923884,0.0004849993,-0.0011696069,-0.0009994549,0.5026205,-1.3790185,1.9011534,-2.0909522,-1.5708174,2.4781706,-0.05099477,0.054335147,-0.069549814,0.016467232,1.3605187e-13,-0.049960237,-0.45968673,0.19153613,-9.308656,0.73069996,47.687782,-0.92947805,-2.4459715,-3.3699918,-0.1912762,0.040461686,-0.30553696,24.5,25.0,24.25,25.875,26.0,26.1875
0.09405256,-1.1847309,-0.80394405,-0.65887344,-0.0024769537,0.060077325,-0.064870715,-0.39120537,-0.36825734,0.059912037,-3.078236,0.6257226,-0.00037458094,-0.04269367,0.008287604,0.0017134278,-0.00043855916,0.0005065118,9.350138e-05,0.5025119,-1.3789346,1.9009961,-2.0909402,-1.5708536,2.478061,-0.05365366,0.054016784,-0.07170083,0.017020525,8.883215e-15,-0.053711332,-0.34476504,0.17238252,-9.346964,0.90527004,47.685097,-0.8580468,-2.3297622,-3.3271494,-0.19577396,0.025372613,-0.2909327,24.5,25.0,24.25,25.875,26.0,26.1875
0.09605205,-1.3413478,-0.656532,-0.70920175,0.00040790718,0.039998826,-0.066380166,-0.39127815,-0.36825904,0.059900932,-3.0782595,0.6256498,-0.00038853742,-0.043342985,0.008607364,0.0012558193,0.00010683873,-0.000491425,0.0016995393,0.5024396,-1.3788018,1.900864,-2.0909398,-1.5708417,2.4779403,-0.054785535,0.055807944,-0.07291374,0.017579805,5.8001047e-16,-0.05644854,-0.24899697,0.17238252,-9.461885,0.76874626,47.694946,-0.8119103,-2.3755703,-3.343447,-0.21405548,0.029404607,-0.24812293,24.5,25.0,24.25,25.875,26.0,26.1875
0.09805252,-0.91675466,-0.59353244,-0.43701485,-0.007991904,0.036354564,-0.07312442,-0.39136705,-0.36822549,0.05990118,-3.0782351,0.6256425,-0.00040710345,-0.043874025,0.008659413,-1.8161074e-05,0.001665977,-0.0021925678,0.004058996,0.50230795,-1.3786925,1.9007205,-2.0908802,-1.5708536,2.4778073,-0.055010866,0.05956916,-0.07448598,0.017633466,-0.00055354956,-0.059031043,-0.21068975,0.17238252,-9.385271,0.79560274,47.707485,-0.8773538,-2.4568102,-3.379421,-0.22872545,0.03690476,-0.20529541,24.5,25.0,24.25,25.875,26.0,26.1875
0.1000517,-0.7941457,-0.84695846,-0.44153053,-0.008701555,0.03129428,-0.061541144,-0.39147776,-0.3682105,0.059906065,-3.0782566,0.62560767,-0.00035202788,-0.045210153,0.008960249,0.00065822,0.0010798317,-0.0003728229,0.0047504883,0.50218755,-1.3785604,1.9005531,-2.0908806,-1.570866,2.4776626,-0.056514084,0.059431557,-0.07576492,0.01717302,-0.0009187335,-0.061224554,-0.28730422,0.24899697,-9.385271,0.78888994,47.696735,-0.8800645,-2.5347502,-3.3312767,-0.23121226,0.033027373,-0.16832826,24.5,25.0,24.25,25.875,26.0,26.1875
0.10205162,-0.72824675,-1.1596826,-0.5498807,0.0023251486,0.025046656,-0.06865241,-0.391564,-0.36817372,0.059885044,-3.0781844,0.6256685,-0.00037447203,-0.045976464,0.008606643,0.0011568228,0.00037052346,0.0009393238,0.0063577457,0.5020678,-1.3784162,1.900422,-2.0908449,-1.5709018,2.47759,-0.056607656,0.059746448,-0.077194676,0.016793776,-0.0009363354,-0.06292466,-0.11492168,0.19153613,-9.423578,0.7329411,47.69763,-0.90122306,-2.3298855,-3.411716,-0.22086276,0.019616645,-0.1421479,24.5,25.0,24.25,25.875,26.0,26.1875
0.10405181,-0.7388719,-0.70048046,-0.49700966,-0.013354683,0.016975477,-0.06832401,-0.3916439,-0.36817393,0.059878,-3.0782294,0.62557995,-0.00041303757,-0.04701411,0.008617989,0.00075405976,0.0006599369,0.00021235898,0.0068751196,0.50197166,-1.3782831,1.9002775,-2.090832,-1.570866,2.477433,-0.057635505,0.062347688,-0.07946897,0.017244969,-0.0008449576,-0.06446879,-0.05746084,0.24899697,-9.385271,0.8179876,47.695843,-0.8958205,-2.4377778,-3.3763387,-0.21643221,0.020064887,-0.11219524,24.5,25.0,24.25,25.875,26.0,26.1875
0.106052324,-0.60950917,-1.3779778,-0.4700018,-0.004937692,0.013653322,-0.06324982,-0.39178494,-0.36814746,0.059907664,-3.0782254,0.6256755,-0.00035704637,-0.048139967,0.008531257,0.0010585072,3.0433093e-05,0.001256674,0.0065769264,0.50180364,-1.3781508,1.9000372,-2.090761,-1.5708779,2.4773252,-0.058542203,0.063233465,-0.08111363,0.016784338,-0.0007979594,-0.06507659,-0.05746084,0.2681506,-9.3661175,0.8179876,47.71823,-0.9523247,-2.4272084,-3.3527164,-0.23216559,0.01795407,-0.07028532,24.5,25.0,24.25,25.875,26.0,26.1875
0.10805228,-0.6520568,-0.5864654,-0.5464353,-0.0120333955,0.004795621,-0.06991642,-0.39186063,-0.3681323,0.059888173,-3.0782251,0.62555945,-0.00040106938,-0.049392525,0.0079437625,0.0017692846,-0.0006013682,0.0023129852,0.0057349186,0.50170785,-1.3780061,1.8999046,-2.0907366,-1.5708779,2.477157,-0.058729183,0.06456902,-0.08451007,0.01761517,-0.0007594466,-0.064420134,0.0,0.24899697,-9.3661175,0.8291774,47.691364,-0.980484,-2.383326,-3.3639522,-0.24718568,0.020885602,-0.0754589,24.5,25.0,24.25,25.875,26.0,26.1875
0.110052355,0.10645412,-0.6283361,-0.5840547,0.00067342777,0.00952935,-0.07290597,-0.39193282,-0.36811215,0.059880346,-3.0782177,0.6255591,-0.00044434244,-0.04973443,0.008718228,0.00090004347,0.00035730112,0.00047125123,0.0034663929,0.50159955,-1.3778974,1.8997854,-2.0907004,-1.570866,2.4770496,-0.06036427,0.06621686,-0.08461126,0.018144982,-0.00071453827,-0.06378653,0.095768064,0.28730422,-9.3661175,0.7866488,47.683304,-0.9628555,-2.4278955,-3.233645,-0.24577281,0.0180009,-0.07702291,24.5,25.0,24.25,25.875,26.0,26.1875
0.112052396,-0.16897938,-0.84213936,-0.6533979,0.0018878254,-0.0020481374,-0.061881173,-0.39203858,-0.36809218,0.059891675,-3.0782328,0.62552327,-0.00043220614,-0.05024672,0.008816798,0.0005332115,0.0008291409,-0.00042044194,0.001974545,0.5014676,-1.3777766,1.8996056,-2.0906522,-1.5708655,2.4768934,-0.060997434,0.0679424,-0.085974835,0.018791806,-0.0006999508,-0.06292714,0.11492168,0.2681506,-9.404425,0.78217715,47.690468,-1.0148404,-2.478065,-3.3923583,-0.256788,0.0039108563,-0.067413256,24.5,25.0,24.25,25.875,26.0,26.1875
0.11405249,-0.2320285,-0.9862016,-0.5327832,-0.0044958587,-0.0031209413,-0.066724755,-0.3921478,-0.3680668,0.05989084,-3.078226,0.6256001,-0.0004170971,-0.053018097,0.007877135,0.0027581397,-0.0016260059,0.0039733965,-0.00054513034,0.5013236,-1.3776447,1.8994483,-2.0906398,-1.5708655,2.4767983,-0.061987065,0.068219185,-0.091399305,0.018906485,-0.00066865643,-0.06139498,0.05746084,0.28730422,-9.289502,0.85826975,47.688675,-1.0167783,-2.4397354,-3.134991,-0.27190378,0.020166703,-0.08834945,24.5,25.0,24.25,25.875,26.0,26.1875
0.11605198,-0.025004134,-0.770655,-0.7593831,-0.0074623623,0.0125691695,-0.07228928,-0.39226103,-0.36804163,0.05989188,-3.0781949,0.62561375,-0.00041038296,-0.052777868,0.008675801,0.0013916648,-0.00015556434,0.0013407456,-0.0027001044,0.5011915,-1.3774878,1.8992466,-2.0905802,-1.5708898,2.4766788,-0.0630752,0.070059285,-0.09055574,0.019236935,-0.00069053343,-0.06032819,0.038307227,0.2681506,-9.385271,0.7463667,47.65643,-1.0509561,-2.367647,-3.310788,-0.26485103,0.01157338,-0.10676454,24.5,25.0,24.25,25.875,26.0,26.1875
0.1180519,-0.73761046,-1.3072618,-0.73396456,-0.007106438,0.007937453,-0.053620607,-0.39235622,-0.36803705,0.059899412,-3.0782065,0.6255199,-0.0004248436,-0.053840373,0.008493462,0.0015217985,-0.00018252977,0.0013418961,-0.004956935,0.50109553,-1.377343,1.8990415,-2.0905082,-1.5708898,2.476523,-0.06374985,0.071896404,-0.09322344,0.020053737,-0.0006711295,-0.05874478,-0.05746084,0.24899697,-9.5385,0.8537928,47.716442,-1.080207,-2.532606,-3.2257724,-0.29987574,0.0040475996,-0.13168746,24.5,25.0,24.25,25.875,26.0,26.1875
0.120052114,-0.62984747,-1.4253371,-0.5082005,-0.01038837,0.035848085,-0.06423047,-0.39245152,-0.36801898,0.059889052,-3.0782168,0.6256196,-0.00051628466,-0.05437413,0.008742436,0.0025039755,-0.00061204913,0.0020828773,-0.00702006,0.5009395,-1.3771993,1.8988866,-2.090472,-1.5708297,2.4764278,-0.064655215,0.07068336,-0.09437123,0.021561896,-0.0006498853,-0.05758695,-0.076614454,0.24899697,-9.442732,0.7642693,47.689575,-1.0896835,-2.3665376,-3.2180219,-0.32271814,0.012408669,-0.1589854,24.5,25.0,24.25,25.875,26.0,26.1875
0.122052066,-0.8623762,-0.7579439,-0.64549214,-0.014756321,0.0382731,-0.07167912,-0.3925603,-0.36800253,0.05988095,-3.0781634,0.6255694,-0.00045889372,-0.054896068,0.008653037,0.0014742021,9.986926e-05,0.00066744006,-0.007961889,0.50085557,-1.3770181,1.898682,-2.0904362,-1.5709013,2.4763196,-0.06500554,0.07385117,-0.09574822,0.021350298,-0.0005984066,-0.056994498,-0.1340753,0.22984336,-9.461885,0.80679786,47.67614,-1.1040996,-2.3405335,-3.3412747,-0.31905425,0.0007462224,-0.17110528,24.5,25.0,24.25,25.875,26.0,26.1875
0.12405203,-1.4364055,-0.9472419,-0.74590856,-0.0034174405,0.037420902,-0.060199365,-0.3926974,-0.36799136,0.05990798,-3.078212,0.6256569,-0.00042619527,-0.056176323,0.008459408,0.002393433,-0.0011446484,0.0028434873,-0.009508848,0.50068766,-1.3768858,1.8984555,-2.0904,-1.5708655,2.4762,-0.06586679,0.07365137,-0.097481556,0.020779008,-0.00055260863,-0.056308217,-0.24899697,0.22984336,-9.519346,0.83365434,47.703903,-1.1776736,-2.3640025,-3.2972202,-0.33760217,-0.004931948,-0.19947922,24.5,25.0,24.25,25.875,26.0,26.1875
0.12605259,-1.210476,-0.7468719,-0.69913703,-0.003854817,0.050245423,-0.06808498,-0.39278418,-0.36797044,0.05987628,-3.0781608,0.625627,-0.0005022888,-0.056586873,0.0089592235,0.0016598578,-0.0006723296,0.0018885661,-0.010970985,0.50057954,-1.3766934,1.8982886,-2.0903523,-1.5708774,2.47608,-0.067095466,0.075078726,-0.09742384,0.020357573,-0.0005132044,-0.056074586,-0.24899697,0.2681506,-9.481039,0.8717007,47.691364,-1.2408657,-2.3408837,-3.3154526,-0.3529204,-0.0028974095,-0.23360205,24.5,25.0,24.25,25.875,26.0,26.1875
0.12805188,-1.100508,-0.6393715,-0.79786366,0.00091265293,0.052444257,-0.07188204,-0.39289585,-0.36797214,0.059880618,-3.078179,0.62562996,-0.00049825077,-0.058550853,0.008042788,0.003274645,-0.0026421174,0.00540944,-0.010736713,0.50047165,-1.376525,1.8980712,-2.090317,-1.5708655,2.4759717,-0.06736973,0.075341955,-0.10133362,0.019970337,-0.00048318398,-0.05658158,-0.28730422,0.17238252,-9.519346,0.8403672,47.686886,-1.3246002,-2.301774,-3.1783214,-0.33890456,-0.00064147636,-0.24987057,24.5,25.0,24.25,25.875,26.0,26.1875
0.13005209,-1.1645904,-0.662314,-0.74571985,0.004624636,0.04305251,-0.06369304,-0.39300728,-0.36795604,0.059896335,-3.0781991,0.6256916,-0.00049774256,-0.059199966,0.0098409075,0.0020765206,-0.0015269935,0.003287203,-0.011827527,0.50032675,-1.3764044,1.8978814,-2.0902689,-1.5708417,2.4758627,-0.070994616,0.07653382,-0.10000078,0.019843502,-0.0004402436,-0.0591161,-0.36391866,0.095768064,-9.519346,0.8224646,47.687782,-1.1335174,-2.263363,-3.3987126,-0.32388836,-0.009680338,-0.24609742,24.5,25.0,24.25,25.875,26.0,26.1875
0.13205212,-0.769883,-0.16483073,-0.6836633,0.0038127208,0.048165273,-0.069073774,-0.39313334,-0.36794746,0.059891917,-3.078227,0.6257159,-0.0004390391,-0.06084423,0.007644369,0.0038135876,-0.0036237095,0.007024739,-0.011112181,0.5001958,-1.3762358,1.8976997,-2.090305,-1.5708417,2.4757435,-0.06882522,0.077928945,-0.105601415,0.019763825,-0.0004012312,-0.05765972,-0.40222588,0.095768064,-9.519346,0.8023209,47.666286,-1.3463013,-2.2837594,-3.1960733,-0.33237782,-0.027627695,-0.2649776,24.5,25.0,24.25,25.875,26.0,26.1875
0.13405204,-0.85712,-0.17507216,-0.66818655,0.010517764,0.051080823,-0.0704642,-0.39327794,-0.36792225,0.05992803,-3.0782437,0.6257771,-0.00035803835,-0.061069008,0.009009429,0.0027425385,-0.0022769533,0.004621019,-0.013870328,0.5000273,-1.3761153,1.8974608,-2.0902445,-1.5708536,2.4756112,-0.07128451,0.07915711,-0.104791716,0.020480527,-0.0004224136,-0.05736106,-0.3256114,0.0,-9.634268,0.85826975,47.688675,-1.3551993,-2.266672,-3.3811152,-0.33986318,-0.027190562,-0.3152988,24.5,25.0,24.25,25.875,26.0,26.1875
0.13605219,-1.2141443,0.083071165,-0.56678116,0.008779144,0.050731022,-0.07306877,-0.39339808,-0.3678949,0.05991932,-3.078198,0.62584525,-0.00041707343,-0.06304343,0.0098740375,0.0033389034,-0.0029556083,0.0059224856,-0.015497079,0.4998704,-1.3759229,1.8972334,-2.0901606,-1.5708536,2.4755027,-0.07451189,0.07948865,-0.106545664,0.02043529,-0.00045729466,-0.058960885,-0.38307226,0.038307227,-9.500193,0.83813137,47.70032,-1.1241105,-2.2156963,-3.3434408,-0.33281535,-0.034337703,-0.34523073,24.5,25.0,24.25,25.875,26.0,26.1875
0.13805231,-1.1458715,0.017170155,-0.57626563,0.012841226,0.06918461,-0.076208726,-0.39350992,-0.36788288,0.059921686,-3.0782301,0.62581074,-0.00040136694,-0.06287382,0.008851378,0.0027643081,-0.0025996063,0.005331291,-0.012696086,0.49973953,-1.3757782,1.8970536,-2.0901492,-1.5708417,2.4753463,-0.07259723,0.0818929,-0.10805629,0.020231841,-0.00048838556,-0.05984619,-0.34476504,0.038307227,-9.461885,0.8157518,47.694946,-1.4035563,-2.2123399,-3.3612275,-0.3350216,-0.04165973,-0.34096992,24.5,25.0,24.25,25.875,26.0,26.1875
0.14005253,-1.2521815,-0.083060004,-0.587261,0.004153387,0.070615314,-0.069634855,-0.3936469,-0.36786926,0.059922643,-3.0782337,0.62587255,-0.00040186034,-0.06405301,0.009735071,0.0025882982,-0.0024023775,0.0051714615,-0.018090986,0.49958283,-1.3755857,1.8968147,-2.090113,-1.5708297,2.4752278,-0.075081095,0.08285325,-0.10881889,0.020270271,-0.0005837188,-0.056934565,-0.4213795,0.095768064,-9.423578,0.8627467,47.71465,-1.2900805,-2.2611651,-3.4150403,-0.36107305,-0.046974044,-0.4137116,24.5,25.0,24.25,25.875,26.0,26.1875
0.14205241,-1.2137195,-0.45118248,-0.56891054,0.005847845,0.0664082,-0.06952454,-0.39375216,-0.36784643,0.059916865,-3.0781891,0.6258811,-0.0004217897,-0.06539084,0.010373845,0.00211219,-0.0018664596,0.0044257627,-0.0182258,0.4994625,-1.3754166,1.8966111,-2.0900414,-1.5708541,2.4751186,-0.07729279,0.085203595,-0.110620946,0.020631982,-0.0007025061,-0.059010174,-0.53630114,0.095768064,-9.3661175,0.80456203,47.683304,-1.3854122,-2.2566679,-3.3925023,-0.34356797,-0.043805055,-0.4547488,24.5,25.0,24.25,25.875,26.0,26.1875
0.14405243,-1.6935229,-0.27222237,-0.590096,-0.004046817,0.049141705,-0.05985938,-0.39392257,-0.36782113,0.05996006,-3.0782185,0.6259999,-0.0002961597,-0.06675697,0.010526511,0.0025498248,-0.0024348984,0.0055601145,-0.016290555,0.49927035,-1.3752842,1.8963474,-2.0900052,-1.570866,2.474997,-0.07874501,0.08595457,-0.11248027,0.020471137,-0.0007457662,-0.062396776,-0.4213795,0.15322891,-9.481039,0.8247004,47.667187,-1.3474159,-2.1766775,-3.4140005,-0.33059818,-0.053986333,-0.45794404,24.5,25.0,24.25,25.875,26.0,26.1875
0.14605209,-1.7482464,-0.45680526,-0.6400864,0.0028709986,0.048278555,-0.057371646,-0.39404774,-0.36779886,0.059936307,-3.078176,0.6260109,-0.0003418809,-0.06948795,0.011978451,0.0029975618,-0.0031270285,0.0068560466,-0.018227642,0.49912494,-1.3750558,1.8961195,-2.089958,-1.5708779,2.474864,-0.083656654,0.08680786,-0.11445068,0.020117901,-0.00076688884,-0.06537036,-0.38307226,0.19153613,-9.481039,0.83365434,47.647476,-1.1881721,-2.15161,-3.3574834,-0.3236636,-0.049982183,-0.46569568,24.5,25.0,24.25,25.875,26.0,26.1875
0.14805208,-1.5474542,-0.82437545,-0.72956574,0.0130518945,0.057596877,-0.05298657,-0.39418432,-0.36776888,0.059934486,-3.0781932,0.6260493,-0.00035561036,-0.068850674,0.011214647,0.001625896,-0.0016012668,0.0050402046,-0.012715796,0.49893406,-1.3748866,1.8959173,-2.089934,-1.5708541,2.474695,-0.08146424,0.090070136,-0.11516981,0.019902028,-0.0012392367,-0.06868812,-0.4213795,0.19153613,-9.346964,0.8627467,47.690468,-1.2954669,-2.254532,-3.427736,-0.32614598,-0.044959277,-0.44960773,24.5,25.0,24.25,25.875,26.0,26.1875
0.15005217,-1.708009,-0.42576724,-0.37782568,0.006869058,0.061154336,-0.057860192,-0.39433792,-0.3677687,0.059967183,-3.078266,0.6260603,-0.00027813765,-0.071793795,0.011296468,0.0042979466,-0.0042385138,0.010047623,-0.008902921,0.49877754,-1.374731,1.8956527,-2.0899103,-1.5708302,2.4745362,-0.0842211,0.08820722,-0.119068936,0.020006197,-0.0013224123,-0.07525661,-0.4405331,0.19153613,-9.3661175,0.83589023,47.690468,-1.3375285,-2.1830444,-3.3930902,-0.30051953,-0.07309736,-0.4109015,24.5,25.0,24.25,25.875,26.0,26.1875
0.15205225,-1.5622908,-0.003162643,-0.4502171,0.0005670658,0.06616798,-0.06437392,-0.39448276,-0.36773005,0.05996252,-3.0782213,0.6260895,-0.00023362895,-0.07167653,0.01289621,0.0027264445,-0.0026776511,0.0069553107,-0.009004308,0.49860898,-1.3745383,1.8954262,-2.0898736,-1.5708779,2.4743917,-0.08683663,0.08952745,-0.1171225,0.020197188,-0.0012090129,-0.07777157,-0.45968673,0.095768064,-9.289502,0.80456203,47.658226,-1.0644302,-2.0778263,-3.4602847,-0.31140497,-0.0665573,-0.41812682,24.5,25.0,24.25,25.875,26.0,26.1875
0.15405232,-2.0760741,-0.4970859,-0.59905833,0.012304294,0.04899421,-0.052720003,-0.39460155,-0.36770576,0.059951972,-3.0782313,0.62610626,-0.00032606375,-0.0736419,0.012059207,0.0030158209,-0.0031596022,0.0080669345,-0.003711305,0.4984293,-1.3743565,1.8952206,-2.0898135,-1.5708302,2.4742212,-0.08713363,0.09297935,-0.12193189,0.020351224,-0.0013308458,-0.08335891,-0.2681506,0.13407528,-9.32781,0.90750587,47.690468,-1.2246575,-2.3800902,-3.40374,-0.2936582,-0.066443846,-0.35660934,24.5,25.0,24.25,25.875,26.0,26.1875
0.15605238,-1.582067,-0.3340948,-0.2628546,0.005937986,0.05252175,-0.05677699,-0.39480957,-0.36768278,0.05998941,-3.0782623,0.62614894,-0.00010849668,-0.0742326,0.013513518,0.0019958594,-0.0020925615,0.0063338457,-0.0010719935,0.49823686,-1.3741642,1.8949097,-2.0898259,-1.5708903,2.4740517,-0.09001117,0.09421406,-0.12108105,0.020292183,-0.0014269975,-0.08887595,-0.38307226,0.17238252,-9.270349,0.842603,47.68599,-1.0926465,-2.1704683,-3.4853702,-0.30235976,-0.07867542,-0.27585405,24.5,25.0,24.25,25.875,26.0,26.1875
0.15805168,-1.252406,-0.24810085,-0.3386054,0.008721951,0.044150475,-0.05889418,-0.39490953,-0.36765045,0.05996118,-3.0782213,0.6261395,-0.00027621,-0.076853655,0.014020826,0.002748751,-0.0027533795,0.008444732,-0.0016208686,0.4980682,-1.3739597,1.8947066,-2.0897186,-1.5708541,2.4738824,-0.092965335,0.09562616,-0.12444051,0.020073747,-0.0018721607,-0.091278754,-0.4213795,0.17238252,-9.212888,0.8179876,47.67345,-1.0147047,-2.18485,-3.3928924,-0.28336844,-0.075656235,-0.27580458,24.5,25.0,24.25,25.875,26.0,26.1875
0.16005188,-0.64731175,-0.32146913,-0.65539205,0.009357222,0.05099112,-0.05693002,-0.39509273,-0.36762872,0.059999295,-3.0782852,0.6261703,-0.00014821382,-0.078738876,0.014568194,0.0032452068,-0.0027878871,0.00987432,-0.00089153036,0.49786386,-1.373803,1.894431,-2.0897062,-1.5708545,2.4736893,-0.09516698,0.0966674,-0.12683797,0.02015907,-0.002518789,-0.09420776,-0.34476504,0.15322891,-9.232041,0.8112748,47.691364,-0.94858,-2.2285872,-3.2867618,-0.25784203,-0.0711029,-0.21827352,24.5,25.0,24.25,25.875,26.0,26.1875
0.16205202,-0.8432897,-0.47401872,-0.49622205,0.0096923085,0.037702326,-0.06756508,-0.39525023,-0.36757553,0.059962183,-3.0782108,0.62615514,-0.00017489339,-0.07900111,0.01582046,0.0010302935,-7.977459e-05,0.0061517097,-0.0008549503,0.49765956,-1.3735375,1.8941916,-2.0896704,-1.5709022,2.4734852,-0.09709535,0.100691445,-0.12670112,0.020558951,-0.0031245123,-0.09617099,-0.30645782,0.13407528,-9.32781,0.81351066,47.683304,-0.85115623,-2.260314,-3.4314995,-0.2634249,-0.057263143,-0.16587062,24.5,25.0,24.25,25.875,26.0,26.1875
0.16405213,-1.0707787,-0.75936204,-0.48443517,0.008257197,0.039832298,-0.056608614,-0.39537743,-0.36755344,0.059973575,-3.0782394,0.6261034,-0.00019991421,-0.081593834,0.01582397,0.0035400526,-0.0020524473,0.010897043,-0.0035673755,0.49749133,-1.3733817,1.8939642,-2.089598,-1.5708789,2.4732811,-0.099108495,0.09898639,-0.13047917,0.020934425,-0.0036618744,-0.09546962,-0.3256114,0.22984336,-9.32781,0.81351066,47.693153,-0.76603377,-2.1627457,-3.1925998,-0.24976493,-0.055569045,-0.1528606,24.5,25.0,24.25,25.875,26.0,26.1875
0.16605219,-1.472055,-0.39136943,-0.54029965,0.00140864,0.038997393,-0.058300283,-0.3955601,-0.3675112,0.059981387,-3.0782113,0.62617534,-0.00013736196,-0.082301356,0.016145015,0.0021109115,-0.00011707402,0.008797983,-0.0066350535,0.49727553,-1.3731644,1.8936771,-2.0895503,-1.5709151,2.473114,-0.099817835,0.103165984,-0.13231488,0.021357499,-0.004359504,-0.09310884,-0.36391866,0.24899697,-9.232041,0.85826975,47.67614,-0.80402267,-2.195935,-3.4646325,-0.23455721,-0.038939238,-0.15362729,24.5,25.0,24.25,25.875,26.0,26.1875
0.16805236,-1.5466948,-0.37258714,-0.41556814,0.0007672762,0.05520273,-0.05682752,-0.39572737,-0.36748242,0.05998719,-3.0782287,0.6262583,-0.00013309176,-0.083298385,0.016531399,0.0032645094,-0.00044541623,0.010678902,-0.011678954,0.49705946,-1.3729607,1.8934134,-2.089514,-1.5708917,2.4729476,-0.100956574,0.101881035,-0.13360165,0.022123605,-0.0049639316,-0.08920255,-0.45968673,0.22984336,-9.289503,0.7866488,47.66539,-0.7940607,-2.2748885,-3.3409982,-0.21741149,-0.036098175,-0.20189852,24.5,25.0,24.25,25.875,26.0,26.1875
0.1700523,-1.2412187,-0.18648438,-0.317187,-0.0028212445,0.065571524,-0.06617824,-0.39589992,-0.36746076,0.059993513,-3.0782328,0.6262983,-5.373709e-05,-0.08450546,0.016229618,0.0026725258,0.00043844845,0.010299808,-0.015836462,0.49687988,-1.3727429,1.8931373,-2.089502,-1.5709156,2.4727926,-0.101142965,0.10560067,-0.13673922,0.022296188,-0.0055599497,-0.08522891,-0.38307226,0.21068975,-9.308656,0.82022345,47.681515,-0.80050915,-2.2457526,-3.3150725,-0.22460812,-0.028371688,-0.24188326,24.5,25.0,24.25,25.875,26.0,26.1875
0.17205228,-1.6458366,-0.6170006,-0.42045522,0.0057165218,0.055611875,-0.060153794,-0.39607605,-0.36742094,0.05998703,-3.0782316,0.6263372,-4.1605188e-05,-0.085862584,0.016324261,0.0029434673,0.000913884,0.011237254,-0.018804083,0.49665222,-1.3725141,1.8928746,-2.0894783,-1.570916,2.4725895,-0.10195781,0.107177,-0.13935274,0.02273814,-0.0064259963,-0.08307357,-0.24899697,0.19153613,-9.232041,0.7911258,47.67166,-0.83763075,-2.3191082,-3.271333,-0.20253605,-0.005256703,-0.2750821,24.5,25.0,24.25,25.875,26.0,26.1875
0.1740523,-0.81002563,-0.6101281,-0.5039744,0.011591154,0.055466965,-0.062544554,-0.39623594,-0.3674038,0.060007505,-3.078223,0.62637234,-1.6497035e-05,-0.08625136,0.016290331,0.0025014302,0.0017978346,0.010428769,-0.018961964,0.49648455,-1.3723094,1.8925627,-2.0893824,-1.570928,2.472445,-0.101972155,0.10915501,-0.14087324,0.023412043,-0.006817318,-0.08292866,-0.24899697,0.21068975,-9.270349,0.84484416,47.703007,-0.9821865,-2.2926757,-3.1780396,-0.20019335,0.010676705,-0.3061012,24.5,25.0,24.25,25.875,26.0,26.1875
0.17605238,-0.76752174,-0.69920444,-0.49070755,0.0008966928,0.034858312,-0.06236823,-0.39639774,-0.36737058,0.06000526,-3.078219,0.6263897,-1.8471761e-05,-0.0871566,0.015944887,0.0025502567,0.0013630639,0.010667401,-0.018064115,0.4962809,-1.3720927,1.892299,-2.0893342,-1.570928,2.4722528,-0.1023394,0.11083272,-0.14301229,0.023453968,-0.0065518604,-0.08419315,-0.17238252,0.30645782,-9.270349,0.8157518,47.68062,-1.0426602,-2.3734355,-3.1685367,-0.19041875,-0.0022014799,-0.32619506,24.5,25.0,24.25,25.875,26.0,26.1875
0.1780526,-0.8995466,-0.7381254,-0.6166364,-0.00989942,0.018984081,-0.057656057,-0.396606,-0.36732808,0.06000245,-3.0781927,0.62649804,5.8358626e-05,-0.08767324,0.015677279,0.0026378399,0.0007467849,0.010570619,-0.017526118,0.4960412,-1.371828,1.8919877,-2.0893223,-1.5709633,2.4720843,-0.102671266,0.11178137,-0.14442368,0.023701701,-0.0059614195,-0.08506359,-0.34476504,0.24899697,-9.270349,0.800085,47.704796,-0.8755028,-2.3205342,-3.1311498,-0.17205003,0.0043574087,-0.34816402,24.5,25.0,24.25,25.875,26.0,26.1875
0.18005157,-0.8426077,-0.9088453,-0.58089274,-0.017632894,0.02449448,-0.05905318,-0.39676595,-0.36728644,0.06001296,-3.0781732,0.62655085,4.1121966e-05,-0.088498265,0.01579924,0.0024058998,0.00031156317,0.009977941,-0.01865879,0.49582538,-1.3716353,1.8917125,-2.089226,-1.5709633,2.471904,-0.103992626,0.11332315,-0.14577994,0.023826746,-0.0052986015,-0.085252576,-0.2681506,0.24899697,-9.308657,0.84708,47.682407,-1.0829523,-2.3237824,-3.2044048,-0.15274993,0.0050563784,-0.35581425,24.5,25.0,24.25,25.875,26.0,26.1875
0.18205246,-0.35198054,-0.85672134,-0.71933484,-0.025074752,0.049235877,-0.061929744,-0.3969374,-0.3672481,0.060005788,-3.0781636,0.6266458,2.7482965e-05,-0.09020036,0.015707102,0.0035111767,-0.0014103813,0.011241909,-0.02085838,0.49559698,-1.3714069,1.8914489,-2.0891902,-1.5709509,2.4717362,-0.1059026,0.11363413,-0.14888053,0.024682246,-0.004387719,-0.08496334,-0.095768064,0.17238252,-9.442732,0.78888994,47.691364,-0.82931435,-2.271122,-3.1439424,-0.1434646,-0.0079998765,-0.36399412,24.5,25.0,24.25,25.875,26.0,26.1875
0.18405236,-0.60960996,-1.3768771,-0.87157995,-0.011602465,0.042688772,-0.056340363,-0.3971423,-0.36722213,0.06001842,-3.0781558,0.6266991,8.989032e-05,-0.089087546,0.016344763,0.0019263361,-0.00016880821,0.0070574535,-0.019463852,0.49538133,-1.3711423,1.8910912,-2.0891297,-1.5709747,2.471555,-0.10646246,0.11514244,-0.14738837,0.025946723,-0.0034799175,-0.086919844,-0.038307227,0.30645782,-9.442732,0.86498255,47.67345,-1.0060425,-2.2961068,-3.3778381,-0.13329604,-0.006370707,-0.38132903,24.5,25.0,24.25,25.875,26.0,26.1875
0.18605189,-0.9674203,-1.3423113,-0.9127936,-0.00034673634,0.029090436,-0.054020796,-0.39731416,-0.36720106,0.060018633,-3.0781665,0.62675995,0.00013083137,-0.0897503,0.016490586,0.0024810266,-0.00083461753,0.0069537545,-0.020801263,0.49518937,-1.370914,1.8908161,-2.0891173,-1.5709747,2.4713998,-0.10765616,0.115106605,-0.148938,0.027304165,-0.0028408046,-0.086776845,-0.076614454,0.2681506,-9.289502,0.8493211,47.698532,-1.0321815,-2.2780519,-3.242959,-0.13472801,-0.022921773,-0.41830438,24.5,25.0,24.25,25.875,26.0,26.1875
0.18805216,-0.6583382,-0.7072266,-0.9662795,-0.001241755,0.026360508,-0.05923941,-0.39751214,-0.36715257,0.060020994,-3.078125,0.6268225,0.00016425902,-0.08988302,0.016576577,0.00068893074,0.0005249358,0.0038162235,-0.014412629,0.49494988,-1.3706601,1.8904918,-2.0890453,-1.5710105,2.4712048,-0.108047865,0.11934371,-0.1499887,0.027517796,-0.0025480348,-0.09355665,-0.038307227,0.22984336,-9.32781,0.784413,47.70211,-1.0693622,-2.4053917,-3.329146,-0.1275668,-0.019765418,-0.39596477,24.5,25.0,24.25,25.875,26.0,26.1875
0.1900521,0.15757138,-0.1954595,-0.9758985,0.0020653608,0.026423171,-0.062930375,-0.3976825,-0.3671296,0.060013875,-3.078156,0.6268456,0.00014097038,-0.09002157,0.016642915,0.0016711105,-0.00034387017,0.0053690244,-0.012111184,0.49473423,-1.3704209,1.8902177,-2.0890214,-1.5709747,2.4709997,-0.108249925,0.11726453,-0.14979395,0.027625272,-0.0025185435,-0.09606071,0.11492168,0.11492168,-9.404425,0.8314132,47.70211,-0.9866737,-2.2290041,-3.4346533,-0.09531236,-0.03361182,-0.35192135,24.5,25.0,24.25,25.875,26.0,26.1875
0.19205226,0.3758078,-0.16451915,-0.8285873,0.008813465,0.016599309,-0.06859397,-0.3978613,-0.36710793,0.060028717,-3.0781586,0.6268611,0.00017948015,-0.09140738,0.016505407,0.00100677,9.6865224e-05,0.0044610905,-0.007067754,0.4945426,-1.3701911,1.8898939,-2.08895,-1.5709866,2.4708176,-0.109254666,0.12115229,-0.15301985,0.027968451,-0.0024791525,-0.10210723,0.076614454,0.038307227,-9.461885,0.87617236,47.672558,-1.1514723,-2.3839152,-3.452757,-0.08919524,-0.0100508975,-0.30836493,24.5,25.0,24.25,25.875,26.0,26.1875
0.19405243,0.27260333,-0.44909877,-0.9598321,0.015281529,0.012643312,-0.06572822,-0.3980402,-0.36707786,0.060022403,-3.0781794,0.6268428,0.0001499604,-0.09120894,0.017144248,0.00066139427,0.00088142254,0.0034831676,-0.0018595031,0.49431452,-1.3699391,1.8895968,-2.0889013,-1.5709623,2.4705756,-0.109951265,0.12107559,-0.15230744,0.028567243,-0.0027028495,-0.108012125,0.0,0.11492168,-9.404425,0.82022345,47.655537,-1.0160487,-2.2706351,-3.638681,-0.06720349,-0.017080355,-0.25750083,24.5,25.0,24.25,25.875,26.0,26.1875
0.19605158,0.33376393,-0.27407208,-0.98381543,0.023858182,0.015281777,-0.06596508,-0.39823312,-0.36704642,0.060032915,-3.0781844,0.62689674,0.00017830546,-0.09241494,0.017225496,0.0011618552,0.00043292268,0.00397574,0.003751662,0.4940866,-1.3696985,1.8892726,-2.0888417,-1.5709623,2.4703808,-0.111224435,0.121941425,-0.15470277,0.029447637,-0.0025419407,-0.11489585,0.17238252,0.095768064,-9.308657,0.83589023,47.709274,-1.1935185,-2.2476122,-3.4835794,-0.05994848,-0.03237219,-0.18232623,24.5,25.0,24.25,25.875,26.0,26.1875
0.1980524,0.11402102,-0.13939947,-0.85812443,0.020246664,0.016426738,-0.06361347,-0.39840144,-0.36699966,0.059991144,-3.0781467,0.6268321,0.00014265679,-0.09410025,0.017256651,0.0023663237,-0.0007276255,0.0056526028,0.0019129652,0.4938704,-1.3694102,1.8890208,-2.0888288,-1.5709866,2.4701293,-0.112888984,0.12198784,-0.1577484,0.030416243,-0.00232431,-0.1147209,0.095768064,0.038307227,-9.404425,0.8179876,47.67614,-1.1243949,-2.1539764,-3.4918141,-0.04868175,-0.024124287,-0.12612933,24.5,25.0,24.25,25.875,26.0,26.1875
0.20005244,-0.11828232,-0.17914993,-1.0451524,0.012494113,0.018675802,-0.059881106,-0.39859208,-0.3669609,0.060024086,-3.078127,0.62686443,0.00020468555,-0.094692156,0.017620252,0.00069651223,0.00092171563,0.002413748,0.0030403407,0.4936546,-1.3692042,1.8886732,-2.088709,-1.5710224,2.4699364,-0.11403254,0.12657455,-0.1596633,0.031372655,-0.0022404704,-0.116990685,-0.05746084,0.19153613,-9.404425,0.8224646,47.675243,-1.0818532,-2.3945785,-3.4442787,-0.04221393,-0.029231694,-0.08111623,24.5,25.0,24.25,25.875,26.0,26.1875
0.20205244,0.089538015,-0.29174915,-1.0711774,0.004869167,0.031838756,-0.06269266,-0.39876524,-0.36692482,0.06000466,-3.078116,0.6268269,8.014073e-05,-0.09550658,0.01777887,0.0021933091,-0.00014291928,0.0039926884,-0.0031590231,0.49341476,-1.3689167,1.8883499,-2.0886009,-1.5709862,2.4696746,-0.11509084,0.12474042,-0.16125876,0.03291189,-0.00205786,-0.11184964,-0.019153614,0.15322891,-9.461885,0.83589023,47.696735,-1.1441697,-2.08563,-3.397924,-0.042815745,-0.030237455,-0.10615884,24.5,25.0,24.25,25.875,26.0,26.1875
0.20405243,-0.8486187,-0.722291,-1.0141379,-0.007477754,0.02527852,-0.052793615,-0.3989858,-0.36690205,0.060039483,-3.0781548,0.62683505,0.00024213298,-0.09597982,0.017844632,0.0015014656,0.00083026633,0.002451142,-0.0075438977,0.4931991,-1.3686875,1.8879918,-2.0885766,-1.5710224,2.4694593,-0.11549441,0.1273735,-0.16308108,0.03391698,-0.0021741905,-0.107867405,-0.095768064,0.24899697,-9.557653,0.88289046,47.681515,-1.1699502,-2.3251393,-3.4472058,-0.05835527,-0.031604834,-0.15358898,24.5,25.0,24.25,25.875,26.0,26.1875
0.2060526,-0.7095292,-0.52770996,-1.0734733,-0.026758807,0.047452413,-0.056176417,-0.39914644,-0.36686257,0.06003386,-3.0781255,0.62677443,0.00019333354,-0.09710659,0.01840287,0.0012587667,0.0014031599,0.0017059162,-0.013960232,0.49299484,-1.3684468,1.8876928,-2.0884683,-1.5710343,2.469221,-0.117301166,0.12926888,-0.16504565,0.03491417,-0.0023327186,-0.10325657,-0.095768064,0.24899697,-9.576807,0.900793,47.672558,-1.1782029,-2.2014241,-3.4454274,-0.04877031,-0.048164204,-0.21038568,24.5,25.0,24.25,25.875,26.0,26.1875
0.20805168,-1.5815943,-1.1217393,-1.1313461,-0.024666805,0.045886118,-0.05444257,-0.39934286,-0.3668199,0.06003841,-3.0781124,0.62696606,0.00018131647,-0.098077394,0.018997725,0.001035938,0.0017836591,0.0009875516,-0.01961161,0.49273092,-1.368206,1.8873814,-2.0884082,-1.5710105,2.4690785,-0.1191137,0.13074772,-0.16651587,0.035721518,-0.0023278487,-0.09941709,-0.21068975,0.24899697,-9.557653,0.9612189,47.690468,-1.1031168,-2.1926382,-3.5419436,-0.053437788,-0.04393594,-0.25364193,24.5,25.0,24.25,25.875,26.0,26.1875
0.21005173,-1.932572,-1.9610988,-1.1387495,-0.015748875,0.05288754,-0.05081076,-0.39956385,-0.36679587,0.060055748,-3.078142,0.6269726,0.00023674373,-0.09972918,0.019411804,0.0013308283,0.0015979331,0.0013953353,-0.023818228,0.4924908,-1.3679293,1.886998,-2.0883482,-1.5710105,2.468839,-0.12121264,0.13225487,-0.16917816,0.036429804,-0.0023564615,-0.09730836,-0.3256114,0.2681506,-9.576807,0.8403672,47.679718,-1.0731665,-2.0888827,-3.3367,-0.05759281,-0.041021936,-0.2944114,24.5,25.0,24.25,25.875,26.0,26.1875
0.21205185,-1.7429438,-1.4419112,-0.87268573,-0.018125715,0.072382115,-0.054305628,-0.3997255,-0.36674887,0.060029708,-3.0780687,0.62711066,9.4032664e-05,-0.100349516,0.019035112,0.00030182765,0.0024430747,-0.0006508545,-0.024186429,0.49225128,-1.3676517,1.8866986,-2.0882285,-1.5709866,2.468695,-0.12121773,0.13636163,-0.17198373,0.037332475,-0.0021476136,-0.09694379,-0.59376204,0.22984336,-9.634268,0.7642693,47.677036,-1.0601262,-2.0892746,-3.234743,-0.053571902,-0.033087566,-0.34354538,24.5,25.0,24.25,25.875,26.0,26.1875
0.2140518,-1.8063792,-1.2743406,-0.8699818,-0.013047621,0.084774904,-0.051464148,-0.39995334,-0.36673075,0.06006867,-3.0780995,0.62717634,0.0002033082,-0.10173752,0.019938542,0.00048447365,0.0026410262,-0.0010470614,-0.027646797,0.49202254,-1.3673991,1.8862919,-2.0881555,-1.5709985,2.4685035,-0.1239223,0.13734913,-0.17392401,0.038726605,-0.0021283834,-0.09618749,-0.59376204,0.24899697,-9.653421,0.8717007,47.71465,-0.9101651,-2.193701,-3.3446636,-0.07534368,-0.050141588,-0.3782835,24.5,25.0,24.25,25.875,26.0,26.1875
0.21605192,-1.8389611,-1.0153207,-0.84067315,-0.012342868,0.08325219,-0.052390616,-0.40016145,-0.3666979,0.060067132,-3.0781205,0.62719744,0.00021805483,-0.10163416,0.019140858,-0.000282296,0.0032017683,-0.0023880475,-0.027304426,0.4917721,-1.3671218,1.8859562,-2.0881202,-1.5709862,2.4682636,-0.12251159,0.14016683,-0.17566857,0.03910087,-0.0019907171,-0.0951184,-0.6703765,0.30645782,-9.557653,0.8247004,47.683304,-1.1783775,-2.2561595,-3.269061,-0.080782466,-0.04728904,-0.43723792,24.5,25.0,24.25,25.875,26.0,26.1875
0.218052,-1.5628299,-0.8776227,-0.73555905,-0.00836854,0.09203983,-0.06135263,-0.4003746,-0.36664307,0.060063235,-3.078065,0.6273395,0.00019753256,-0.10268557,0.019744657,-0.00032345828,0.0029650824,-0.0016847486,-0.028872704,0.4914957,-1.3668332,1.8855985,-2.0880244,-1.5709985,2.4680831,-0.12431773,0.14068279,-0.1760271,0.03821052,-0.0021204152,-0.095355816,-0.6895301,0.24899697,-9.461885,0.900793,47.67166,-1.0024908,-2.28144,-3.353566,-0.064885795,-0.050713602,-0.47711056,24.5,25.0,24.25,25.875,26.0,26.1875
0.22005197,-2.0268326,-0.7628217,-0.56255096,0.0031728602,0.07441535,-0.053638685,-0.4005852,-0.36662075,0.060074773,-3.0780754,0.6273967,0.0002372607,-0.10263087,0.019742573,-0.001214835,0.00448453,-0.004153523,-0.02625125,0.49126855,-1.3665558,1.8852271,-2.0879638,-1.5709985,2.4678905,-0.12409178,0.1434247,-0.1777364,0.04007113,-0.0022924661,-0.09775028,-0.6895301,0.21068975,-9.3661175,0.90750587,47.661808,-1.1977537,-2.42908,-3.3156857,-0.054498672,-0.060588267,-0.49166924,24.5,25.0,24.25,25.875,26.0,26.1875
0.2220521,-1.3821951,-0.20730627,-0.39225292,0.0003797996,0.085782446,-0.060874466,-0.40080303,-0.36657423,0.060069025,-3.0780303,0.62748075,0.00027147372,-0.10333972,0.02038175,-0.0013198516,0.0051522525,-0.0054329243,-0.023917666,0.49101654,-1.3662555,1.8848675,-2.0879037,-1.5710343,2.467697,-0.12573667,0.14462753,-0.17940706,0.041976854,-0.002278891,-0.10172818,-0.6512228,0.1340753,-9.270349,0.85826975,47.664497,-1.1842926,-2.1665816,-3.4400215,-0.07840282,-0.04939927,-0.48190737,24.5,25.0,24.25,25.875,26.0,26.1875
0.22405213,-1.520085,0.069803156,-0.25511995,0.0072591794,0.06475201,-0.06514648,-0.4010109,-0.36652806,0.060080267,-3.0780184,0.6275685,0.00028147205,-0.10385963,0.021727437,-0.0011327585,0.006119146,-0.0069149723,-0.017064994,0.49075225,-1.3660035,1.8845214,-2.0878184,-1.5710343,2.467489,-0.12829052,0.14432436,-0.1801341,0.044767097,-0.0024294753,-0.11113455,-0.47884035,0.076614454,-9.097966,0.86498255,47.65464,-1.2270052,-2.2424126,-3.47962,-0.120691836,-0.049516305,-0.43305355,24.5,25.0,24.25,25.875,26.0,26.1875
0.22605237,-1.2469136,0.008814048,-0.24274172,0.024627583,0.053563304,-0.059327684,-0.40122917,-0.36648616,0.060077492,-3.0780153,0.6275635,0.00033173614,-0.10398713,0.021595724,-0.0018837139,0.0070993844,-0.009012891,-0.011244662,0.4905008,-1.3657141,1.8841733,-2.0877817,-1.5710586,2.467235,-0.12818986,0.14700185,-0.18201053,0.046272863,-0.0023062755,-0.11685353,-0.45968673,-0.095768064,-9.059659,0.88289046,47.687782,-1.1238179,-2.2004166,-3.4073062,-0.13673031,-0.06804518,-0.38447523,24.5,25.0,24.25,25.875,26.0,26.1875
0.22805248,-0.96203333,0.45118436,0.09621771,0.03226284,0.04463955,-0.059661515,-0.4014616,-0.36644244,0.060069624,-3.0780025,0.62759554,0.00028888937,-0.10742239,0.02288441,-0.0010883681,0.00566438,-0.0060618264,-0.0075051594,0.4902115,-1.3653773,1.883767,-2.0876873,-1.5710467,2.4669676,-0.13326192,0.14791326,-0.18458685,0.04465722,-0.0024454976,-0.1256637,-0.49799395,-0.22984336,-8.944737,0.83813137,47.666286,-0.9637607,-2.27677,-3.47889,-0.11596879,-0.07578859,-0.27492237,24.5,25.0,24.25,25.875,26.0,26.1875
0.23005253,-0.6549043,0.86045706,0.04351636,0.056974627,0.051369127,-0.06479739,-0.40168488,-0.36641344,0.060098603,-3.0780232,0.6275765,0.0004068031,-0.107090674,0.022605572,-0.002654493,0.00806117,-0.009237492,-0.0018293617,0.4899845,-1.3651239,1.8833841,-2.0876262,-1.5710825,2.4667263,-0.13204896,0.15211876,-0.18645579,0.046246428,-0.0030591728,-0.13012466,-0.34476504,-0.3256114,-8.810662,0.842603,47.660015,-1.1082883,-2.2487373,-3.4043517,-0.13124764,-0.059600614,-0.20977539,24.5,25.0,24.25,25.875,26.0,26.1875
0.23205245,-0.64417267,1.3182621,0.273718,0.08017174,0.03334062,-0.062263742,-0.40192908,-0.36636126,0.060100157,-3.0780332,0.62771124,0.00035758707,-0.10903279,0.02244104,0.00010899087,0.0065978803,-0.0052774753,-0.0003469763,0.48964888,-1.364812,1.8829883,-2.0875418,-1.5710348,2.4664736,-0.13306703,0.14992134,-0.19064452,0.04845639,-0.0036382687,-0.13262331,-0.22984336,-0.3256114,-8.810662,0.842603,47.691364,-1.024352,-2.1643426,-3.418819,-0.15396775,-0.046130445,-0.18405795,24.5,25.0,24.25,25.875,26.0,26.1875
0.23405237,0.09700962,1.9024832,0.3651874,0.076204024,0.035280395,-0.06489535,-0.402109,-0.36632887,0.060083423,-3.0780299,0.6276137,0.00031166978,-0.10945557,0.022907527,0.00049467327,0.0062661236,-0.005100497,-0.0020410446,0.48943305,-1.3645242,1.8826655,-2.0874698,-1.5710343,2.4661975,-0.13428617,0.14926882,-0.1909178,0.04906884,-0.003434432,-0.13214868,-0.2681506,-0.22984336,-8.714894,0.94331104,47.668976,-1.0397594,-2.1903348,-3.3737602,-0.16086352,-0.057707727,-0.15465163,24.5,25.0,24.25,25.875,26.0,26.1875
0.23605268,-0.101789854,1.4699225,0.18575984,0.07717856,0.018230164,-0.061008,-0.402351,-0.3662676,0.060096722,-3.0779738,0.6277202,0.00027790794,-0.1102547,0.022455947,0.0010516336,0.0061137686,-0.0045938822,-0.007642681,0.4891218,-1.3642116,1.882223,-2.087302,-1.5710472,2.46596,-0.13409033,0.150355,-0.19381736,0.050363068,-0.0035484633,-0.12634985,-0.22984336,-0.19153613,-8.7532015,0.8112748,47.66091,-1.1061565,-2.0520983,-3.3315141,-0.18169674,-0.077672526,-0.17459044,24.5,25.0,24.25,25.875,26.0,26.1875
0.23805177,0.84950596,0.8586783,-0.16777427,0.0645699,0.030037917,-0.06192541,-0.40256494,-0.36623603,0.060089715,-3.0779634,0.62773716,0.00023289381,-0.111257166,0.02291128,0.0012570019,0.0067763366,-0.0052039335,-0.011533318,0.48886985,-1.3638868,1.8818282,-2.0872056,-1.5710348,2.4657202,-0.13548447,0.15165696,-0.19636162,0.05245782,-0.003852535,-0.12385189,-0.15322891,-0.038307227,-8.829816,0.8403672,47.67166,-1.0836325,-1.9448876,-3.191578,-0.22247861,-0.056946687,-0.23337728,24.5,25.0,24.25,25.875,26.0,26.1875
0.24005194,-0.061081633,-0.08711223,-0.53338134,0.040329035,0.0118675465,-0.051574744,-0.4027916,-0.3661704,0.060097985,-3.077898,0.627745,0.00026071156,-0.110850744,0.023657769,5.6427843e-06,0.009051785,-0.008213954,-0.016926521,0.48859438,-1.3635978,1.8814334,-2.0870736,-1.5710949,2.4654582,-0.1359233,0.1537143,-0.19641158,0.05417198,-0.004449954,-0.11889634,-0.076614454,0.019153614,-9.078813,0.88289046,47.66808,-1.1685281,-1.9802244,-3.2341254,-0.2556728,-0.0440403,-0.29435572,24.5,25.0,24.25,25.875,26.0,26.1875
0.24205205,-0.024530126,-0.6526769,-0.6870375,0.0064535104,0.026414968,-0.05700895,-0.4030178,-0.3661119,0.06008818,-3.0778322,0.62790436,0.00019839873,-0.11177639,0.023762876,0.00019425717,0.009301881,-0.007745734,-0.018234152,0.4882947,-1.3632729,1.881039,-2.086953,-1.5710953,2.4652665,-0.1365645,0.1548112,-0.1983151,0.054683097,-0.0049029184,-0.11822821,-0.17238252,0.17238252,-9.174581,0.83813137,47.660015,-1.2294608,-2.0428216,-3.2708178,-0.28049904,-0.042253673,-0.31693187,24.5,25.0,24.25,25.875,26.0,26.1875
0.24405216,-0.5792826,-1.7698597,-1.127978,-0.012640999,0.040588092,-0.04786933,-0.40321225,-0.36603642,0.06005415,-3.0777304,0.6279781,3.651834e-05,-0.11240945,0.024378948,-0.00020047251,0.011200751,-0.009214776,-0.01919624,0.4879952,-1.3629482,1.8806919,-2.086797,-1.5710958,2.4650261,-0.13746692,0.15690318,-0.20048454,0.05695078,-0.005909959,-0.11816527,-0.095768064,0.28730422,-9.346964,0.8985519,47.675243,-1.2688133,-2.005495,-3.3236332,-0.3345257,-0.04427599,-0.34152967,24.5,25.0,24.25,25.875,26.0,26.1875
0.24605213,-0.7712888,-1.8986688,-1.2946076,-0.045237366,0.06440862,-0.05145509,-0.4034355,-0.36597732,0.060053825,-3.0776656,0.6280038,1.1925267e-05,-0.113774255,0.024479602,-0.00031422748,0.010816704,-0.0076779025,-0.020827388,0.48771915,-1.3626353,1.8802851,-2.086654,-1.5711316,2.4647746,-0.13852812,0.1583723,-0.20160355,0.055058997,-0.0063071214,-0.11759365,0.019153614,0.4405331,-9.481039,0.8537928,47.657326,-1.1888313,-1.9666021,-3.3688574,-0.36318254,-0.00097366126,-0.36174193,24.5,25.0,24.25,25.875,26.0,26.1875
0.24805218,-1.1723098,-2.816875,-1.4545034,-0.05326669,0.06546276,-0.047238402,-0.40365532,-0.36593467,0.0600476,-3.0776658,0.62806255,-5.5424025e-05,-0.11656399,0.026657311,-0.00069604215,0.011115695,-0.006497148,-0.02577948,0.4874299,-1.3623223,1.8799027,-2.086559,-1.5710958,2.4645221,-0.144057,0.15985905,-0.20214856,0.053219445,-0.007136458,-0.118168324,-0.019153614,0.53630114,-9.749189,0.8493211,47.666286,-0.9834982,-2.1385565,-3.415837,-0.36331296,-0.002183387,-0.38683313,24.5,25.0,24.25,25.875,26.0,26.1875
0.2500522,-1.1139009,-2.7782497,-1.4601287,-0.068544626,0.06377218,-0.05498046,-0.40390623,-0.3658764,0.060048606,-3.077617,0.628125,-3.6425947e-05,-0.117602564,0.025733717,-0.0012625406,0.010252152,-0.005247911,-0.022113075,0.487131,-1.361985,1.8794717,-2.0864522,-1.5711316,2.4642687,-0.14344698,0.16279383,-0.20379816,0.050418135,-0.0069742226,-0.12122377,-0.038307227,0.59376204,-9.864111,0.8560339,47.690468,-1.0894388,-2.2425191,-3.4436579,-0.3675298,0.01340638,-0.39821032,24.5,25.0,24.25,25.875,26.0,26.1875
0.25205237,-0.57895947,-2.5514066,-1.4843473,-0.07416424,0.050283123,-0.05537274,-0.40410915,-0.3658132,0.060031667,-3.0775414,0.62816244,-7.52811e-05,-0.11831309,0.026541794,-0.0028307468,0.010503941,-0.007116882,-0.018199138,0.48686698,-1.3616837,1.8791245,-2.086345,-1.5711678,2.464038,-0.14574341,0.16562997,-0.20333745,0.048879787,-0.006337462,-0.12743464,-0.038307227,0.5554548,-9.902418,0.8560339,47.65464,-0.93202835,-2.2394733,-3.5457482,-0.36565706,0.024923395,-0.34235376,24.5,25.0,24.25,25.875,26.0,26.1875
0.254052,-0.39758974,-2.2528484,-1.672225,-0.06534015,0.03940758,-0.06808079,-0.40436202,-0.36577326,0.06002123,-3.0775259,0.62824917,-0.00010304148,-0.119928345,0.02490771,-0.002843546,0.008654264,-0.0033547445,-0.008769774,0.48656797,-1.3613106,1.878682,-2.0862634,-1.5711559,2.4637952,-0.14426343,0.16839738,-0.20563206,0.044213615,-0.0064859297,-0.13538222,-0.076614454,0.63206923,-9.883265,0.9097417,47.67345,-1.0236406,-2.319559,-3.4639387,-0.3208148,0.034240022,-0.27610296,24.5,25.0,24.25,25.875,26.0,26.1875
0.25605214,-0.65805185,-2.1167252,-1.6823411,-0.046200924,0.037030693,-0.04789818,-0.40462947,-0.36573017,0.060054075,-3.0775561,0.6281923,1.6777762e-05,-0.12198273,0.024330473,-0.002506972,0.0061259517,0.00022828262,-0.0019320817,0.48627993,-1.3610102,1.8782281,-2.0861804,-1.5711912,2.463468,-0.14536285,0.16968195,-0.20702185,0.039957512,-0.0059335455,-0.14331993,-0.05746084,0.57460845,-9.940725,0.83589023,47.658226,-0.9913447,-2.2825043,-3.595325,-0.2822066,0.042249322,-0.17626436,24.5,25.0,24.25,25.875,26.0,26.1875
0.25805202,-0.7432568,-1.941758,-1.3985815,-0.034460127,0.045742564,-0.0567376,-0.40486974,-0.36569422,0.060039837,-3.077566,0.6282713,4.3221303e-06,-0.12309286,0.025086705,-0.002751144,0.0052245026,0.00065189996,-0.0024295414,0.48599193,-1.3606617,1.8778342,-2.0861452,-1.5711673,2.4632282,-0.14787936,0.17017557,-0.20676617,0.038411476,-0.0053374465,-0.14534017,-0.13407528,0.49799395,-9.940725,0.8918391,47.65643,-1.1264594,-2.2689793,-3.7110906,-0.24021217,0.02463139,-0.115076795,24.5,25.0,24.25,25.875,26.0,26.1875
0.26005214,-0.6038644,-1.3430308,-1.0368527,-0.041674092,0.065188035,-0.060430698,-0.40513068,-0.3656496,0.060045924,-3.077599,0.62817824,5.802375e-05,-0.122655354,0.023769347,-0.0033454304,0.0042621107,-0.00011763985,0.0004889222,0.48569325,-1.3603252,1.8774027,-2.0860856,-1.5711793,2.4628675,-0.14593424,0.17211825,-0.20760414,0.037530065,-0.0041267625,-0.14631532,-0.1340753,0.40222588,-9.768343,0.8672237,47.64479,-1.1659065,-2.3815908,-3.6704886,-0.21534047,0.016141785,-0.055691883,24.5,25.0,24.25,25.875,26.0,26.1875
0.26205203,-1.0541681,-1.4561176,-1.144787,-0.021571252,0.057483524,-0.050379068,-0.4053606,-0.3655993,0.060026687,-3.0775604,0.62825,9.879373e-06,-0.12497928,0.023474785,-0.0030655551,0.0027913353,0.0010082239,-0.0066624847,0.48540515,-1.3599766,1.8770088,-2.0860016,-1.5711788,2.4626293,-0.1478765,0.17498703,-0.21162117,0.036994845,-0.0033656624,-0.14110559,-0.19153613,0.30645782,-9.576807,0.9254084,47.691364,-1.135721,-2.3621218,-3.6665673,-0.20190899,0.011529154,-0.08793031,24.5,25.0,24.25,25.875,26.0,26.1875
0.26405233,-0.79302865,-0.88724184,-0.7955855,-0.016800774,0.05232225,-0.048028495,-0.40563163,-0.36555633,0.060026858,-3.077568,0.6283314,5.3043572e-05,-0.12782502,0.022827901,-0.0017449425,0.00016145717,0.004496676,-0.014145428,0.48509336,-1.3596164,1.8765649,-2.0859544,-1.5711788,2.4623675,-0.14963211,0.1764777,-0.21618955,0.03575942,-0.0026719386,-0.1353778,-0.2681506,0.24899697,-9.461885,0.9186956,47.664497,-1.1260351,-2.4331775,-3.6626048,-0.16370252,0.0061345464,-0.13115072,24.5,25.0,24.25,25.875,26.0,26.1875
0.26605248,-0.33005318,-0.39090264,-0.77404004,-0.0007365642,0.04257948,-0.055637743,-0.40589386,-0.3655084,0.060039133,-3.0775836,0.6283773,9.7877346e-05,-0.13021472,0.022725407,0.00014338747,-0.0020626546,0.007823269,-0.023520838,0.48478135,-1.3592932,1.8761324,-2.085883,-1.5711788,2.4620824,-0.15172124,0.17596687,-0.21998872,0.036090694,-0.002253563,-0.1280912,-0.21068975,0.095768064,-9.500193,0.80456203,47.65643,-1.05672,-2.2113833,-3.4221268,-0.11698456,0.010005555,-0.22668618,24.5,25.0,24.25,25.875,26.0,26.1875
0.26805255,-0.34860745,-0.15827645,-0.6865121,0.018189391,0.025475683,-0.046101272,-0.40617025,-0.36548537,0.060069486,-3.0776303,0.6284453,0.00023649682,-0.13110356,0.02312211,0.00019308523,-0.0021436894,0.007373383,-0.028246453,0.4845053,-1.3589691,1.8756655,-2.0858462,-1.5711898,2.461843,-0.15323873,0.17700422,-0.2216131,0.037036642,-0.0019573716,-0.124883235,-0.30645782,0.15322891,-9.481039,0.9254084,47.690468,-1.098023,-2.2663655,-3.5061944,-0.09832769,0.013430481,-0.28520587,24.5,25.0,24.25,25.875,26.0,26.1875
0.2700527,-0.15898386,0.34218678,-0.5493682,0.026725493,0.04594861,-0.062780954,-0.4064007,-0.36544648,0.060063187,-3.0776055,0.62849826,0.00017984053,-0.1317175,0.023114678,0.00021829508,-0.0019309543,0.0065575335,-0.031012787,0.48422977,-1.3586212,1.8752345,-2.0857265,-1.5711783,2.4616039,-0.15378654,0.17849202,-0.22387785,0.038636036,-0.0017691195,-0.12266414,-0.51714754,0.11492168,-9.385271,0.85826975,47.685097,-0.9892319,-2.0728798,-3.429697,-0.07464647,0.005043418,-0.3641082,24.5,25.0,24.25,25.875,26.0,26.1875
0.27205175,-0.790241,-0.14487422,-0.6595405,0.042561494,0.060649358,-0.0462451,-0.4066884,-0.36540473,0.060077693,-3.0776124,0.6286541,0.0002504483,-0.1332386,0.023267623,0.0016934187,-0.003072598,0.008193415,-0.036213078,0.48390627,-1.3582615,1.8747553,-2.085666,-1.5711783,2.461377,-0.15541878,0.17786661,-0.22691077,0.040315457,-0.0015124336,-0.11909586,-0.40222588,0.038307227,-9.442732,0.87617236,47.675243,-1.1222798,-2.197133,-3.4688478,-0.07393425,0.013993143,-0.4179261,24.5,25.0,24.25,25.875,26.0,26.1875
0.27405187,-1.531379,0.07376184,-0.38992178,0.031602174,0.0687763,-0.047316786,-0.40695295,-0.36537132,0.06007837,-3.0776327,0.6287334,0.00022712033,-0.13254438,0.022628555,0.001915813,-0.002566526,0.006925088,-0.03558353,0.48359507,-1.3578895,1.874287,-2.085581,-1.5711421,2.4611127,-0.15371887,0.17822196,-0.22848745,0.042898934,-0.0013639785,-0.11802543,-0.49799395,-0.038307227,-9.481039,0.92764956,47.684196,-1.1324761,-2.0906386,-3.450447,-0.06814484,-0.01930968,-0.49113575,24.5,25.0,24.25,25.875,26.0,26.1875
0.27605206,-1.6340189,0.32635427,-0.26954904,0.016629642,0.09468424,-0.060530145,-0.4071901,-0.3653152,0.060052007,-3.0775547,0.6288695,0.00018983957,-0.13272013,0.02327167,0.0015903866,-0.0017838865,0.0051969043,-0.0337893,0.4833071,-1.3575177,1.8738803,-2.0854967,-1.5711659,2.4609199,-0.1549121,0.17908612,-0.22925675,0.044693362,-0.001255662,-0.12101284,-0.51714754,-0.095768064,-9.385271,0.84708,47.675243,-1.0021181,-2.0336847,-3.4122663,-0.08236887,-0.041105226,-0.50905657,24.5,25.0,24.25,25.875,26.0,26.1875
0.27805215,-1.1782439,0.40699813,-0.3036816,0.009591838,0.10420402,-0.06726906,-0.40746465,-0.3652574,0.060060512,-3.0775344,0.62887776,0.0002122718,-0.13436604,0.023108013,0.0023548363,-0.0022765605,0.0060408204,-0.027015064,0.48298368,-1.3571573,1.8734001,-2.0853765,-1.5711898,2.4606044,-0.15599598,0.18061256,-0.23321477,0.04614205,-0.0012163225,-0.1288696,-0.4213795,-0.17238252,-9.3661175,0.86945957,47.677036,-1.2206697,-1.995061,-3.406323,-0.07016671,-0.017235024,-0.48524302,24.5,25.0,24.25,25.875,26.0,26.1875
0.28005204,-1.1672707,0.010405511,-0.4518882,0.02662569,0.087757036,-0.055760715,-0.40774283,-0.36523062,0.060088795,-3.0775986,0.62899905,0.00028876355,-0.13481092,0.023338981,0.0014894753,-0.0012049882,0.004435561,-0.017377393,0.4826726,-1.3568332,1.8729347,-2.0853283,-1.571154,2.460361,-0.15653573,0.18326695,-0.23466,0.04685319,-0.0014089157,-0.13904606,-0.3256114,-0.22984336,-9.3661175,0.87617236,47.667187,-1.2038897,-1.9638054,-3.4376926,-0.066526935,-0.036670983,-0.40077734,24.5,25.0,24.25,25.875,26.0,26.1875
0.2820521,-0.22361678,0.9071176,-0.38608792,0.021060161,0.08195112,-0.06822932,-0.4080119,-0.3651838,0.06009834,-3.0775852,0.6290083,0.0003264466,-0.13448177,0.023904396,0.00080160185,0.00056459237,0.0034604121,-0.007282736,0.4823733,-1.3564732,1.872455,-2.08522,-1.5711788,2.4600694,-0.15639775,0.18395954,-0.23408629,0.047267828,-0.002519911,-0.14900129,-0.3256114,-0.19153613,-9.404425,0.83365434,47.666286,-1.3292191,-2.020462,-3.4497585,-0.061755367,-0.028461529,-0.30594382,24.5,25.0,24.25,25.875,26.0,26.1875
0.284052,-0.59998524,0.6916777,-0.5420327,0.03809148,0.050520647,-0.05822647,-0.40829864,-0.3651242,0.060079582,-3.077545,0.6289962,0.00030410354,-0.13556416,0.024760341,-0.00042480748,0.0027212754,0.0019343016,-0.0022007462,0.4820371,-1.3560405,1.8719519,-2.0851123,-1.5712031,2.459731,-0.15791321,0.18760613,-0.23588377,0.047768015,-0.003731585,-0.1555957,-0.2681506,-0.11492168,-9.385271,0.88960326,47.661808,-1.2281137,-2.128849,-3.5383034,-0.043447867,-0.013610385,-0.21722528,24.5,25.0,24.25,25.875,26.0,26.1875
0.28605196,-0.6653001,0.1023926,-0.6385914,0.04708895,0.035903934,-0.04999436,-0.4085733,-0.36509177,0.06009878,-3.07763,0.6290306,0.0003560784,-0.13739632,0.025715046,-0.0009977429,0.0033202274,0.0017104301,-0.0024351403,0.48171288,-1.3557153,1.8715085,-2.085077,-1.571155,2.4594176,-0.16073215,0.19033886,-0.23787376,0.04750821,-0.0041507347,-0.15817891,-0.22984336,-0.076614454,-9.308656,0.90750587,47.677036,-1.0389614,-2.1452289,-3.4833438,-0.0066757044,0.007026932,-0.1689082,24.5,25.0,24.25,25.875,26.0,26.1875
0.2880522,-0.55947375,-0.17687349,-0.6350465,0.022744736,0.03457179,-0.05201133,-0.40885267,-0.36502284,0.06011305,-3.0775568,0.62911385,0.00039749814,-0.13712405,0.025525391,-0.0015453958,0.00378604,-0.00010182478,-0.006491187,0.48138997,-1.3553551,1.8710068,-2.0849211,-1.571215,2.4591563,-0.16031967,0.19188634,-0.23883605,0.048734915,-0.0037257895,-0.1537106,-0.28730422,0.095768064,-9.3661175,0.86498255,47.684196,-1.2729585,-2.248177,-3.562481,0.00026417756,-0.0019316417,-0.16612709,24.5,25.0,24.25,25.875,26.0,26.1875
0.29005253,-0.79426503,-0.68171227,-0.46973285,-0.010590399,0.03720388,-0.050784755,-0.40914235,-0.3649651,0.060123213,-3.0775354,0.62912923,0.00041913587,-0.13776104,0.025256611,-0.0012959612,0.0039908835,-0.0011750819,-0.012041472,0.48105454,-1.3549708,1.8704904,-2.0847886,-1.5712384,2.4588335,-0.16049653,0.19365606,-0.24219865,0.051370908,-0.00341239,-0.14833649,-0.34476504,0.22984336,-9.270349,0.8717007,47.67793,-1.3710608,-2.1987684,-3.5325232,-0.025784662,0.003396802,-0.21326408,24.5,25.0,24.25,25.875,26.0,26.1875
0.29205182,-0.50251853,-1.5071244,-0.25624794,-0.029917296,0.06188487,-0.05029954,-0.40938148,-0.36490282,0.060095437,-3.0774817,0.62919974,0.00034307688,-0.13811304,0.025602294,-0.001346966,0.0045553977,-0.0028845076,-0.01854357,0.48074174,-1.3545992,1.8700832,-2.0846913,-1.5712384,2.4585717,-0.16144472,0.19482954,-0.24414107,0.053917393,-0.003130153,-0.14278223,-0.22984336,0.30645782,-9.3661175,0.90750587,47.67345,-1.4129882,-2.1139479,-3.3967977,-0.034127824,-0.012373066,-0.29419836,24.5,25.0,24.25,25.875,26.0,26.1875
0.29405177,-0.46002668,-1.3708727,-0.44153854,-0.036624122,0.057325043,-0.049372796,-0.40966928,-0.36483973,0.060096744,-3.0774527,0.629291,0.00035189898,-0.13866208,0.026912183,-0.00088930456,0.0051481985,-0.0032384186,-0.021652125,0.4803928,-1.3542157,1.869593,-2.0845826,-1.5712508,2.4582837,-0.16375667,0.19373985,-0.2443607,0.055813648,-0.003490186,-0.14198539,-0.11492168,0.36391866,-9.289502,0.95897776,47.678825,-1.3529389,-2.1103349,-3.6153874,-0.049195692,-0.0060601165,-0.3477749,24.5,25.0,24.25,25.875,26.0,26.1875
0.29605237,-0.094281934,-1.1941836,-0.45748132,-0.027491227,0.035416175,-0.06166879,-0.40994102,-0.36477852,0.060085773,-3.0773938,0.6293753,0.00033164915,-0.14047524,0.02769622,-0.00045615927,0.0061114114,-0.003112061,-0.024403833,0.48006853,-1.3538196,1.8691128,-2.084463,-1.5712751,2.4580197,-0.1659618,0.19548242,-0.24802548,0.058067974,-0.0044123284,-0.1414359,-0.11492168,0.36391866,-9.289503,0.84708,47.67614,-1.2654644,-2.0151463,-3.4483118,-0.06947524,0.007793893,-0.36415678,24.5,25.0,24.25,25.875,26.0,26.1875
0.29805252,0.17410965,-1.0466245,-0.13853396,-0.03486201,0.029635742,-0.061010607,-0.4102268,-0.3647491,0.060112104,-3.0774302,0.62940216,0.00034856537,-0.14187643,0.02903081,-0.0004711118,0.0065443576,-0.0042975224,-0.026469223,0.4797556,-1.3534474,1.868574,-2.0843308,-1.5712508,2.457719,-0.16937687,0.19662382,-0.24987836,0.060031958,-0.004245739,-0.14278542,-0.15322891,0.4213795,-9.174581,0.8851263,47.677036,-1.1372774,-2.0803976,-3.5417309,-0.08773507,0.0049782004,-0.3714924,24.5,25.0,24.25,25.875,26.0,26.1875
0.3000518,-0.06765469,-1.0653306,-0.21503769,-0.01152106,0.013496738,-0.056338437,-0.41051847,-0.36469275,0.06010924,-3.0774148,0.6295129,0.00035968906,-0.14210097,0.02862168,-0.0005555862,0.007018958,-0.005029184,-0.023702579,0.47940776,-1.3530512,1.8680829,-2.084246,-1.5712508,2.4574425,-0.16870779,0.19829491,-0.25209507,0.061443746,-0.004332107,-0.14488208,-0.095768064,0.38307226,-9.059659,0.8940802,47.689575,-1.259652,-2.0264106,-3.452677,-0.10278179,0.0091422815,-0.41004372,24.5,25.0,24.25,25.875,26.0,26.1875
0.3020518,0.08762476,-0.4074264,-0.43676433,0.0038678187,0.006531219,-0.05442317,-0.41080955,-0.36462536,0.06010567,-3.0773602,0.6295164,0.00037547603,-0.14306124,0.028790765,-0.0014422883,0.008262616,-0.0077616135,-0.018767988,0.47907165,-1.3526424,1.8675674,-2.0841138,-1.571299,2.457116,-0.16978668,0.20248291,-0.25577766,0.06392445,-0.004185546,-0.15089403,-0.019153614,0.3256114,-9.193734,0.89631605,47.655537,-1.1700051,-1.9828204,-3.3386872,-0.12834692,0.010449352,-0.35635096,24.5,25.0,24.25,25.875,26.0,26.1875
0.30405185,0.098524176,-0.11409213,-0.061635952,-0.0027619537,0.023938539,-0.0674632,-0.41109577,-0.36457953,0.0601229,-3.0773602,0.6295896,0.0004016318,-0.14326508,0.02967481,-0.0012093576,0.0087855905,-0.010113844,-0.011824417,0.47874656,-1.3522708,1.867052,-2.0839922,-1.571299,2.4568367,-0.17168364,0.202552,-0.25731292,0.06771114,-0.0035616998,-0.15973543,-0.05746084,0.28730422,-9.11712,0.86498255,47.683304,-1.1221989,-1.8529935,-3.3612394,-0.18373558,0.0045017456,-0.2605556,24.5,25.0,24.25,25.875,26.0,26.1875
0.3060519,-0.35238656,-0.28661206,-0.17091285,0.011650861,0.032178525,-0.060051206,-0.41141504,-0.3645053,0.060121555,-3.07733,0.6297124,0.00035878082,-0.14482914,0.029693447,-0.00028502612,0.0069738636,-0.00813247,-0.0056289393,0.4783383,-1.3518391,1.8665007,-2.0838487,-1.5712866,2.456509,-0.17333513,0.2024817,-0.25927565,0.06714541,-0.0028812434,-0.1675829,-0.095768064,0.21068975,-9.155427,0.8918391,47.66271,-1.156068,-1.9519913,-3.4318979,-0.19629803,0.0027000671,-0.16929361,24.5,25.0,24.25,25.875,26.0,26.1875
0.30805215,-0.4097306,-0.16406175,-0.0033598752,0.012414849,0.04998109,-0.065607086,-0.41166094,-0.36445695,0.060108207,-3.0773168,0.6296334,0.0002710768,-0.14633091,0.031032711,-0.00063768687,0.007718933,-0.010098338,-0.0064926827,0.4780373,-1.3514544,1.8660334,-2.0837047,-1.5712746,2.4561608,-0.17688768,0.20466131,-0.2617118,0.06948936,-0.0026522398,-0.17027098,-0.11492168,0.17238252,-9.174581,0.8985519,47.65912,-1.0718955,-1.9886088,-3.4007142,-0.23070219,0.00083073846,-0.09959308,24.5,25.0,24.25,25.875,26.0,26.1875
0.31005225,-1.0721822,-0.50557256,-0.02156788,0.010461526,0.051293712,-0.055155743,-0.4119614,-0.36440617,0.060119286,-3.077315,0.62965316,0.00021262853,-0.1446491,0.031177763,-0.0016314352,0.009981128,-0.01505428,-0.008198066,0.47767767,-1.3510343,1.8654593,-2.0835235,-1.5712503,2.455814,-0.17569605,0.20604402,-0.2622462,0.07408613,-0.0023817809,-0.16737431,-0.21068975,0.11492168,-9.136273,0.9567419,47.68062,-1.1567783,-2.0171866,-3.4143186,-0.2920988,-0.006224146,-0.07728735,24.5,25.0,24.25,25.875,26.0,26.1875
0.31205225,-1.0507361,-0.088117205,0.13354394,0.011181041,0.052561842,-0.05283619,-0.4122456,-0.36435026,0.060097583,-3.077275,0.62968695,0.00020793978,-0.14726406,0.030209474,0.00045339085,0.0066882316,-0.008896309,-0.015658436,0.47735342,-1.350603,1.8649682,-2.083441,-1.5712746,2.455516,-0.17626266,0.20532015,-0.2655005,0.07108054,-0.0023083037,-0.1604797,-0.28730422,0.05746084,-8.983045,0.86945957,47.653748,-1.0995554,-1.9013028,-3.4433222,-0.2952324,-0.0019792551,-0.1168841,24.5,25.0,24.25,25.875,26.0,26.1875
0.3140525,-0.6742992,0.6057821,0.014351476,0.018089034,0.059462298,-0.06801904,-0.41252854,-0.36426172,0.060077347,-3.077191,0.6297513,0.00010091343,-0.14820983,0.031077323,-0.00014202725,0.0071746544,-0.009399653,-0.023959316,0.47696874,-1.3501828,1.8644651,-2.0832617,-1.5712866,2.4551826,-0.17825174,0.20685767,-0.26600873,0.07072336,-0.0025288893,-0.15416703,-0.3256114,-0.038307227,-9.097966,0.9186956,47.6636,-1.0601993,-2.0690546,-3.472208,-0.3092113,-0.019032113,-0.19008638,24.5,25.0,24.25,25.875,26.0,26.1875
0.3160526,-0.9546267,0.4459856,-0.03710649,0.021988476,0.047537263,-0.07316562,-0.41283715,-0.36423886,0.060081597,-3.0772111,0.6297747,0.00011553578,-0.1492907,0.031007271,-0.00083757046,0.0070256735,-0.009103631,-0.027780892,0.47665676,-1.3497263,1.8638786,-2.0831544,-1.5712746,2.4548829,-0.17892136,0.20948206,-0.26732552,0.06908737,-0.0025382536,-0.15101437,-0.34476504,-0.05746084,-9.193734,0.8627467,47.666286,-1.1046468,-2.0285156,-3.488446,-0.32023495,-0.017875468,-0.27912086,24.5,25.0,24.25,25.875,26.0,26.1875
0.3180518,-1.149657,0.25314695,-0.08833541,0.022848811,0.0399262,-0.057014335,-0.41313344,-0.36416465,0.06008275,-3.0771415,0.6299952,9.6275944e-05,-0.15052469,0.030171992,-0.0013004604,0.0062300977,-0.0074798376,-0.033849884,0.47628498,-1.3493298,1.8633636,-2.0830114,-1.5712866,2.4546578,-0.17842443,0.2123723,-0.2692183,0.06628325,-0.0025921438,-0.14444727,-0.45968673,0.0,-9.11712,0.9097417,47.675243,-1.1606761,-2.01253,-3.5403922,-0.30219358,-0.013966896,-0.35268056,24.5,25.0,24.25,25.875,26.0,26.1875
0.320052,-0.9372852,0.23685811,-0.113249436,0.017702695,0.055094276,-0.063779056,-0.4134267,-0.36411095,0.06007141,-3.0771306,0.63012785,4.499059e-06,-0.1515792,0.028148452,-0.00068960956,0.0042588124,-0.0035723846,-0.034573678,0.47591364,-1.3488975,1.8628362,-2.0828812,-1.5712384,2.4543707,-0.17579205,0.21392015,-0.27181235,0.06296117,-0.0026510376,-0.14108984,-0.6703765,0.019153614,-9.155427,0.8717007,47.647476,-1.2638905,-2.0629346,-3.4705591,-0.28041005,-0.02287506,-0.4499637,24.5,25.0,24.25,25.875,26.0,26.1875
0.32205206,-1.1826663,-0.1890479,-0.26213974,0.008015366,0.080857225,-0.06899181,-0.41371432,-0.36402428,0.06006599,-3.0770464,0.63010955,1.4591929e-05,-0.15187469,0.027883336,-0.0018887774,0.0051495368,-0.005744529,-0.033824965,0.4755656,-1.3485008,1.8623327,-2.0827253,-1.5713104,2.4540224,-0.17558923,0.21764313,-0.27382058,0.06357353,-0.0024603365,-0.14163491,-0.6512229,0.038307227,-9.308657,0.8985519,47.693153,-1.4120924,-2.0362544,-3.41503,-0.2923673,-0.029886939,-0.51523876,24.5,25.0,24.25,25.875,26.0,26.1875
0.32405224,-1.5722755,-0.5135639,-0.44776598,-0.00039243817,0.0845196,-0.07618736,-0.41403353,-0.36396697,0.060056463,-3.0770023,0.63026977,-6.973634e-05,-0.15396155,0.028192762,-0.0023302916,0.003938975,-0.0033451535,-0.030099753,0.47518128,-1.3480207,1.8617347,-2.0825589,-1.5712866,2.453744,-0.17771432,0.21973948,-0.27453884,0.05950793,-0.0025053513,-0.14748451,-0.24899697,0.076614454,-9.423578,0.8851263,47.65464,-1.5415133,-2.1599274,-3.5856047,-0.25141013,-0.033166375,-0.5022297,24.5,25.0,24.25,25.875,26.0,26.1875
0.32605225,-1.6061823,-1.0532182,-0.4151622,-0.025402136,0.08447566,-0.076793,-0.41430694,-0.36392492,0.060018923,-3.0769737,0.63027585,-0.00015456372,-0.15686248,0.026933402,-0.0005374785,0.0012837959,0.002190909,-0.01953802,0.47486913,-1.3475524,1.8612307,-2.0824645,-1.5712746,2.4534395,-0.17785993,0.22079284,-0.27946475,0.057239518,-0.0027072565,-0.15818964,-0.30645782,0.19153613,-9.423578,0.9410752,47.672558,-1.5514469,-2.1941319,-3.5127912,-0.21529144,-0.03422392,-0.38885975,24.5,25.0,24.25,25.875,26.0,26.1875
0.3280522,-1.822663,-1.8046234,-0.30901664,-0.03977263,0.0729878,-0.074438535,-0.41463265,-0.36386442,0.060053147,-3.0769846,0.6303296,-8.539337e-05,-0.15986453,0.027318481,2.254666e-05,0.00068091106,0.0042209704,-0.010443492,0.47449628,-1.3471678,1.8606542,-2.0823205,-1.5712866,2.453099,-0.18067381,0.22350812,-0.2840545,0.05702549,-0.003106813,-0.17009561,-0.47884035,0.28730422,-9.461885,0.93436235,47.703007,-1.4058919,-2.270563,-3.2661843,-0.19362909,-0.037821427,-0.28603622,24.5,25.0,24.25,25.875,26.0,26.1875
0.33005258,-1.4063977,-1.3674086,-0.5891106,-0.043808103,0.0685282,-0.07266169,-0.4149663,-0.36381096,0.06004232,-3.076985,0.63030744,-3.5541332e-05,-0.16036497,0.028038507,0.00022382375,0.0011619489,0.005015775,-0.0051732254,0.47413602,-1.3466885,1.8600811,-2.082249,-1.5713109,2.4527252,-0.18165626,0.22299938,-0.28397712,0.05696402,-0.0038955542,-0.17634721,-0.45968673,0.4213795,-9.557653,0.8605109,47.658226,-1.3877511,-2.1541164,-3.3475847,-0.20413691,-0.010281768,-0.21163937,24.5,25.0,24.25,25.875,26.0,26.1875
0.33205187,-0.97479886,-1.6583759,-0.6767052,-0.04418417,0.06955443,-0.07569162,-0.41528064,-0.36372638,0.060020514,-3.076888,0.63036525,-5.0600738e-05,-0.16251147,0.029017968,-0.0010714927,0.0013047545,0.0059598167,-0.007117558,0.4737627,-1.3462198,1.8595294,-2.0821064,-1.571371,2.4524007,-0.1846147,0.22644757,-0.28448159,0.053235218,-0.004472829,-0.17735936,-0.45968673,0.51714754,-9.595961,1.005978,47.661808,-1.3003526,-2.130455,-3.5433574,-0.13217968,-0.028525203,-0.16842046,24.5,25.0,24.25,25.875,26.0,26.1875
0.33405197,-1.9462785,-2.109951,-0.7168769,-0.049598467,0.04633297,-0.060574736,-0.41562143,-0.36367926,0.060039464,-3.0769227,0.6304338,-2.0132868e-05,-0.16242144,0.030186541,-0.0017846492,0.0020865204,0.0040625944,-0.0146459695,0.47337845,-1.3457762,1.8589209,-2.0819867,-1.5713471,2.452055,-0.18641463,0.22671494,-0.2834495,0.053986304,-0.0042871376,-0.17163198,-0.45968673,0.51714754,-9.595961,0.9835985,47.688675,-1.377913,-2.1294537,-3.733832,-0.11827326,-0.024841169,-0.16353086,24.5,25.0,24.25,25.875,26.0,26.1875
0.33605206,-1.1228322,-1.8882027,-0.49698597,-0.06217624,0.06596517,-0.06808906,-0.415912,-0.36360756,0.059991002,-3.0768504,0.630519,-9.8262884e-05,-0.16341993,0.029988965,-0.00045595816,0.00089948036,0.005740277,-0.021570656,0.47301826,-1.3452967,1.8584293,-2.0819023,-1.571359,2.4517574,-0.18695994,0.22593133,-0.2858765,0.055162143,-0.0040052948,-0.16525246,-0.45968673,0.45968673,-9.500193,0.9298854,47.666286,-1.2729441,-2.0620794,-3.7487051,-0.116790205,-0.008725553,-0.24601239,24.5,25.0,24.25,25.875,26.0,26.1875
0.33805203,-1.0049037,-1.5584307,-0.5798498,-0.03950577,0.0641521,-0.068893,-0.41627428,-0.36357516,0.06002218,-3.0769284,0.630577,-1.9775023e-05,-0.1653605,0.030744405,-0.00010746367,-5.0224528e-05,0.0064557134,-0.029105248,0.47263324,-1.3448409,1.8577832,-2.0818064,-1.5713228,2.4513988,-0.1900067,0.22704564,-0.288129,0.055236343,-0.0034707666,-0.16076535,-0.38307226,0.38307226,-9.461885,0.9164598,47.640312,-1.1700519,-2.0971603,-3.662118,-0.08573733,-0.008735534,-0.3411807,24.5,25.0,24.25,25.875,26.0,26.1875
0.34005228,-0.68506306,-0.3877108,-0.7096947,-0.020537078,0.04879762,-0.0790516,-0.41661176,-0.3634995,0.06002388,-3.0768738,0.63066256,2.6058631e-05,-0.16666022,0.030961182,1.4535847e-05,-0.00046049533,0.0068193646,-0.032186963,0.4722488,-1.3443848,1.8571953,-2.0816748,-1.5713705,2.451075,-0.19142249,0.22852616,-0.29034874,0.05545672,-0.0032721958,-0.15909909,-0.21068975,0.30645782,-9.576807,0.9612189,47.66539,-1.0960433,-2.0560758,-3.6528602,-0.06486998,-0.027695755,-0.36778912,24.5,25.0,24.25,25.875,26.0,26.1875
0.34205228,-0.67457205,-0.10031609,-0.38999012,-0.006519603,0.041058093,-0.06904401,-0.41696727,-0.36344567,0.060043734,-3.076883,0.6307609,0.00010936234,-0.16919044,0.0315367,0.0005219964,-0.00097566465,0.008084436,-0.034061756,0.47186387,-1.3439288,1.8565716,-2.0815666,-1.5713824,2.4507506,-0.19427991,0.2306369,-0.29425582,0.05588913,-0.0033844667,-0.16008033,-0.28730422,0.21068975,-9.481039,0.8873621,47.666286,-0.9581976,-2.0660279,-3.6115868,-0.040384725,-0.028054643,-0.37852943,24.5,25.0,24.25,25.875,26.0,26.1875
0.3440524,-0.23957169,-0.05069972,-0.45444703,0.014176025,0.047302056,-0.07904124,-0.4173004,-0.36339027,0.06001826,-3.0768614,0.6309685,5.660774e-05,-0.17084913,0.03195739,0.00027659963,-0.0009150854,0.007923599,-0.034176826,0.47146696,-1.3434241,1.8559965,-2.0814831,-1.5713466,2.4504862,-0.19621642,0.23327985,-0.29710937,0.056274205,-0.0033706469,-0.16190067,-0.2873042,0.15322891,-9.461885,0.9791215,47.67614,-0.8609146,-2.1860678,-3.595738,-0.012920542,-0.013026133,-0.39878055,24.5,25.0,24.25,25.875,26.0,26.1875
0.34605178,-0.35538304,0.39165333,-0.6643771,0.017584678,0.042927764,-0.07985956,-0.41763705,-0.36332673,0.05999938,-3.0768573,0.63094187,6.515665e-05,-0.1723794,0.03214457,0.00029924142,-0.00062949344,0.0069269077,-0.027956037,0.47108272,-1.3429316,1.855421,-2.0813987,-1.5713586,2.450086,-0.19776528,0.23617963,-0.3013183,0.05859303,-0.003177164,-0.16966917,-0.21068975,0.095768064,-9.500193,0.8806493,47.66987,-0.91933656,-2.2528238,-3.4700756,-0.011184545,-0.023666384,-0.35481924,24.5,25.0,24.25,25.875,26.0,26.1875
0.34805188,-0.9588529,-0.266362,-0.3322513,0.015784992,0.041846603,-0.07919521,-0.41797495,-0.36326617,0.05998485,-3.0768452,0.6309693,1.954971e-05,-0.17057812,0.030602744,-0.00017292876,0.000920484,0.0041658306,-0.013225484,0.4706883,-1.3424274,1.8548101,-2.0812657,-1.5713466,2.4497106,-0.19342388,0.2379272,-0.3032357,0.061922397,-0.0033093572,-0.18005744,-0.30645782,0.076614454,-9.461885,0.9231726,47.65643,-1.0949817,-2.4911926,-3.3375494,-0.011171105,-0.017354794,-0.25141218,24.5,25.0,24.25,25.875,26.0,26.1875
0.3500521,-0.84146917,0.09212648,-0.3119729,0.010937163,0.05109638,-0.071468644,-0.41831574,-0.363228,0.06000687,-3.0768807,0.6309896,6.300606e-05,-0.17056523,0.030094184,-7.433068e-05,0.0017422688,0.0022732266,-0.0047822874,0.47032896,-1.3419714,1.854175,-2.0811327,-1.5713347,2.4493597,-0.19247453,0.23978624,-0.30662975,0.06551363,-0.0031767248,-0.1875506,-0.2873042,-0.038307227,-9.346964,0.9365982,47.687782,-1.2542859,-2.2889965,-3.3704848,-0.013328506,-0.018645452,-0.13262856,24.5,25.0,24.25,25.875,26.0,26.1875
0.35205227,-0.20965023,0.5649366,-0.52324694,0.025858104,0.05924981,-0.08174035,-0.41866648,-0.3631681,0.060019232,-3.076848,0.6309833,0.00014475566,-0.1684017,0.031976435,-0.0022099316,0.005632243,-0.0046712067,-0.005508792,0.4699686,-1.3414912,1.8535293,-2.0809872,-1.5713943,2.449,-0.19340032,0.2407621,-0.30407983,0.06993011,-0.0034799753,-0.18775041,-0.15322891,0.076614454,-9.423578,0.87393653,47.647476,-1.3405931,-2.3160377,-3.3761144,-0.044333342,-0.027582113,-0.09285451,24.5,25.0,24.25,25.875,26.0,26.1875
0.35405245,-0.58345526,0.37063852,-0.47231898,0.03148332,0.03593025,-0.07106592,-0.41900724,-0.36307332,0.060006145,-3.0767968,0.6311129,9.520946e-05,-0.16809273,0.033219494,-0.0032736026,0.008014353,-0.008756869,-0.014538797,0.46952376,-1.341023,1.8529557,-2.0808423,-1.5713948,2.4486427,-0.19484684,0.24261652,-0.3048552,0.07357687,-0.0037561643,-0.18016604,-0.15322891,-0.076614454,-9.423578,0.9567419,47.661808,-1.250705,-2.4835453,-3.6234837,-0.09378047,-0.043190345,-0.12018563,24.5,25.0,24.25,25.875,26.0,26.1875
0.35605165,0.29089916,0.50030625,-0.46771777,0.015118111,0.026950562,-0.08299769,-0.4193562,-0.36301935,0.060005937,-3.0767994,0.6310991,9.0669746e-05,-0.16874766,0.03422489,-0.0030217166,0.008766483,-0.010892891,-0.024495853,0.46913925,-1.3405192,1.8523096,-2.0806978,-1.5713943,2.4482496,-0.1970609,0.24330585,-0.3072739,0.07755423,-0.0034588675,-0.17242303,0.0,-0.17238252,-9.423578,0.90750587,47.668976,-1.316423,-2.3754983,-3.6793847,-0.12887633,-0.034489796,-0.21721187,24.5,25.0,24.25,25.875,26.0,26.1875
0.35805163,0.326446,0.465085,-0.06604153,0.007319967,0.0028525766,-0.07936771,-0.4197025,-0.36297143,0.060003042,-3.0767796,0.63123155,0.000102771744,-0.16818058,0.034013964,-0.003628601,0.010683015,-0.013249524,-0.029212212,0.46876794,-1.3400149,1.851674,-2.0805771,-1.5713948,2.4479637,-0.19566847,0.245316,-0.3090884,0.080332026,-0.0041022436,-0.16631249,-0.076614454,-0.1340753,-9.232041,0.9254084,47.66808,-1.4088805,-2.447002,-3.566621,-0.16186698,-0.031706788,-0.31066072,24.5,25.0,24.25,25.875,26.0,26.1875
0.36005187,0.25537038,0.07500954,-0.07623718,0.020709787,-0.010608752,-0.07921544,-0.4200259,-0.3628802,0.059991226,-3.0767045,0.6312778,3.5668254e-05,-0.17027153,0.034352954,-0.0010003148,0.0098202005,-0.009524315,-0.03612024,0.46835938,-1.3395478,1.8510875,-2.0803845,-1.5714196,2.447594,-0.19725539,0.2433086,-0.31324813,0.08278699,-0.005033855,-0.16098854,-0.15322891,-0.095768064,-9.11712,0.9410752,47.653748,-1.3736541,-2.3403554,-3.481088,-0.2139623,-0.026423248,-0.39167476,24.5,25.0,24.25,25.875,26.0,26.1875
0.36205184,0.77906626,0.66760284,-0.36137268,0.03805301,0.0028392784,-0.08317505,-0.42037442,-0.36280805,0.059975345,-3.076644,0.6314404,-5.1043604e-05,-0.17214313,0.034154814,0.00027964584,0.008512178,-0.007521888,-0.041696254,0.46793905,-1.3390205,1.8504394,-2.0802042,-1.5714072,2.447283,-0.19846147,0.24389124,-0.31719813,0.0837793,-0.004788715,-0.15661775,-0.095768064,0.019153614,-9.155427,0.947788,47.67614,-1.3144376,-2.127029,-3.4014945,-0.23110494,-0.004156241,-0.47228682,24.5,25.0,24.25,25.875,26.0,26.1875
0.3640519,0.76190025,1.1562631,-0.24534245,0.036461018,0.0120576285,-0.083352506,-0.42071718,-0.36272687,0.05998275,-3.0765893,0.63158065,-4.4080694e-05,-0.17303525,0.03466382,0.00043925428,0.0083170375,-0.007856884,-0.04064029,0.46753094,-1.3385644,1.8498281,-2.0800369,-1.571431,2.4469697,-0.20005918,0.244646,-0.31882212,0.084851444,-0.00447228,-0.15927161,0.095768064,-0.05746084,-9.212888,0.9768804,47.67793,-1.3120356,-2.1765175,-3.308614,-0.25699675,-0.013617425,-0.48845708,24.5,25.0,24.25,25.875,26.0,26.1875
0.36605197,-0.59714085,-0.07368492,-0.433714,0.037327938,0.004758008,-0.07240919,-0.42104423,-0.36265746,0.05997335,-3.0765212,0.631695,-0.00016349855,-0.17413051,0.035219345,0.000577555,0.0078387,-0.008235801,-0.032647472,0.46713427,-1.3380607,1.849183,-2.079809,-1.5714191,2.4466534,-0.20206104,0.24559309,-0.32062048,0.085817695,-0.0039006507,-0.16926669,-0.019153614,0.11492168,-9.212888,0.95002913,47.66987,-1.2338393,-2.1015358,-3.3087897,-0.29176944,-0.017488612,-0.4582057,24.5,25.0,24.25,25.875,26.0,26.1875
0.3680521,-0.46254066,-0.59954184,-0.4378003,-0.003705212,0.051277168,-0.08170878,-0.42138618,-0.3625955,0.05996882,-3.0765102,0.63168705,-0.00022251521,-0.17617068,0.03573527,0.0006142907,0.0066457335,-0.0068698437,-0.023932105,0.46673748,-1.3375556,1.8485359,-2.0796301,-1.5714067,2.4462533,-0.20469204,0.24724355,-0.32248217,0.08426462,-0.0034759038,-0.18061322,-0.1340753,0.22984336,-9.232041,0.9612189,47.689575,-1.1380687,-2.2794375,-3.3596492,-0.32289353,-0.031224914,-0.3603363,24.5,25.0,24.25,25.875,26.0,26.1875
0.3700522,-1.6822085,-1.5862612,-0.8159115,-0.020568106,0.069406494,-0.07277827,-0.4217579,-0.36251894,0.05999906,-3.0764754,0.631753,-0.00014683585,-0.1781261,0.036992673,0.00017967555,0.0055766418,-0.0053712483,-0.017703693,0.4663281,-1.3370885,1.8478535,-2.0794399,-1.5714544,2.44589,-0.20836787,0.24826494,-0.32212335,0.08104798,-0.0032071997,-0.19051829,-0.22984336,0.24899697,-9.461885,0.9298854,47.6636,-1.0205538,-2.2222862,-3.4493513,-0.2896872,-0.038279586,-0.24676153,24.5,25.0,24.25,25.875,26.0,26.1875
0.3720522,-2.2813733,-2.1495233,-0.618839,-0.051662203,0.0863372,-0.08115647,-0.42208987,-0.36245146,0.059988767,-3.0764337,0.6317432,-0.00026484454,-0.17861229,0.037536815,-0.00037273558,0.00626158,-0.0066731167,-0.015251387,0.46593165,-1.3365728,1.847195,-2.079212,-1.5714425,2.445493,-0.20945777,0.24992888,-0.32322684,0.08195764,-0.003256301,-0.1940598,-0.22984336,0.28730422,-9.634268,0.89631605,47.66271,-0.90004903,-2.125953,-3.6111646,-0.32871446,-0.038631506,-0.15404281,24.5,25.0,24.25,25.875,26.0,26.1875
0.37405202,-1.8823451,-2.4968643,-0.57662565,-0.065035865,0.09986614,-0.068411015,-0.42245573,-0.3623663,0.05997103,-3.0763757,0.6317892,-0.00030122028,-0.18104997,0.03730011,-0.0008937891,0.004974081,-0.0023721699,-0.01990448,0.46549967,-1.3360323,1.846537,-2.079047,-1.5714668,2.4450974,-0.21041502,0.25269216,-0.32413635,0.075682454,-0.004063346,-0.19036151,-0.4405331,0.28730422,-9.653421,0.95002913,47.690468,-0.98795426,-2.111242,-3.6290936,-0.2934677,-0.040077176,-0.16506785,24.5,25.0,24.25,25.875,26.0,26.1875
0.37605193,-2.3850818,-2.3688645,-0.48148283,-0.070259914,0.09182903,-0.0695404,-0.42281434,-0.36230382,0.05997937,-3.0763612,0.6319242,-0.00024879718,-0.18219747,0.035992146,-0.0020593968,0.0043562716,-0.00047470428,-0.025781123,0.4651043,-1.3355511,1.8459028,-2.0789282,-1.5714787,2.4447885,-0.20883374,0.25691944,-0.32574633,0.07109498,-0.0043662586,-0.18290211,-0.6703765,0.34476504,-9.615114,0.90527004,47.65912,-1.1250088,-2.2262292,-3.7093897,-0.22790101,-0.036001164,-0.26261705,24.5,25.0,24.25,25.875,26.0,26.1875
