Tylouw/Master_Thesis_Code/training_data/batch_1/rect_rod_t0.1/sample_93_session_4.csv
timestamp[s],tcp_force_x[N],tcp_force_y[N],tcp_force_z[N],tcp_force_rx[Nm?],tcp_force_ry[Nm?],tcp_force_rz[Nm?],tcp_pose_x[m],tcp_pose_y[m],tcp_pose_z[m],tcp_pose_rx[rot_vec_x],tcp_pose_ry[rot_vec_y],tcp_pose_rz[rot_vec_z],tcp_velo_x[m/s],tcp_velo_y[m/s],tcp_velo_z[m/s],tcp_velo_rx[rot_vec_x/s],tcp_velo_ry[rot_vec_y/s],tcp_velo_rz[rot_vec_z/s],q1[rad],q2[rad],q3[rad],q4[rad],q5[rad],q6[rad],qd1[rad/s],qd2[rad/s],qd3[rad/s],qd4[rad/s],qd5[rad/s],qd6[rad/s],tool_acc_x,tool_acc_y,tool_acc_z,current_of_whole_robot[A],voltage_of_whole_robot[V],current_J1[A],current_J2[A],current_J3[A],current_J4[A],current_J5[A],current_J6[A],temp_J1[C],temp_J2[C],temp_J3[C],temp_J4[C],temp_J5[C],temp_J6[C]
9.0699996e-07,-0.24075054,-0.6839829,0.72041494,0.0030178144,-0.0033105793,-0.019168573,-0.38932803,-0.36872843,0.060023222,-3.0787108,0.6249293,0.0002064196,0.0013052297,0.00072525936,-0.0010854863,0.0014720239,-0.0028801481,1.8060062e-05,0.50505686,-1.3816679,1.904188,-2.0918796,-1.5708536,2.4800491,-6.920418e-05,-3.0920273e-05,0.0022838921,0.0009794113,0.00011260856,-8.847073e-05,0.19153613,0.095768064,-8.676587,0.6725152,47.72002,-0.21647155,-2.9957523,-2.3703542,-0.19351998,0.18466648,0.0145350415,26.25,27.3125,26.1875,29.0625,30.1875,30.6875
0.002054656,-0.14959548,-0.8657074,0.8186524,0.006954391,0.0038860543,-0.018822486,-0.38935113,-0.36873686,0.06003126,-3.0787425,0.6248975,0.00028051625,-0.0018127436,-0.0010086524,-0.0011992013,-0.0032727662,0.005649494,3.592218e-05,0.50505686,-1.3816553,1.9041642,-2.0919201,-1.5708655,2.4800253,-6.815608e-05,0.0021861144,0.0027452433,-0.011459492,0.000109855086,-0.00010378828,0.076614454,0.17238252,-8.6574335,0.78888994,47.694946,-0.20171553,-2.8825023,-2.2625136,-0.122861885,0.18715718,0.0021029378,26.25,27.3125,26.1875,29.0625,30.1875,30.6875
0.004054219,-0.5238132,-0.94993526,0.7532669,0.0036031667,0.00027622655,-0.01239058,-0.38934058,-0.3687256,0.060012855,-3.0787175,0.62495,0.00019701238,-0.001669703,-0.0009292988,-0.0018945987,-0.0024318323,0.004135323,3.6020043e-05,0.5050329,-1.3816426,1.904188,-2.0919073,-1.5708417,2.4800372,-6.713924e-05,0.0036952293,0.00242024,-0.010911574,0.000107236796,-0.000102556376,0.0,0.19153613,-8.6574335,0.7866488,47.66271,-0.1785336,-3.371076,-2.508285,-0.054917805,0.19101146,0.0031087683,26.25,27.3125,26.1875,29.0625,30.1875,30.6875
0.006053726,-0.32092538,-0.42134237,0.77412254,0.0103111705,-0.007883033,-0.015438583,-0.3893409,-0.36874712,0.060026523,-3.0787854,0.6248482,0.00028212715,-0.0005105297,-0.00028406252,-0.0013861086,-0.00071785785,0.0010644498,3.425894e-05,0.5050688,-1.381667,1.904199,-2.091965,-1.5708417,2.480001,-6.615225e-05,0.0022270612,0.0017048303,-0.0052111926,0.00010474071,-0.000100343605,-0.038307227,0.22984336,-8.542512,0.7463667,47.705692,-0.2545132,-3.3081954,-2.4679785,-0.09873058,0.19899435,0.0054583983,26.25,27.3125,26.1875,29.0625,30.1875,30.6875
0.008053554,0.104040466,0.5228562,0.3200355,0.035334248,-0.024973927,-0.023766609,-0.38933468,-0.36873382,0.06000389,-3.078745,0.6249365,0.00021256796,5.3149863e-05,3.038798e-05,-0.0003990111,-0.00028760056,0.00030579226,3.254303e-05,0.5050448,-1.3816439,1.9042228,-2.091964,-1.5708297,2.4800372,-6.5193904e-05,0.00011054747,0.001157049,-0.0016747565,0.000102357975,-9.815948e-05,-0.05746084,0.19153613,-8.695741,0.7172743,47.694946,-0.17334992,-3.1284113,-2.4217882,-0.118178785,0.18791297,0.021014553,26.25,27.3125,26.1875,29.0625,30.1875,30.6875
0.01005361,0.76555556,0.63147897,-0.051876556,0.04338936,-0.008744257,-0.024101904,-0.3893255,-0.36870396,0.059972193,-3.078648,0.62495494,0.00016006915,0.0006683098,0.00037770622,-0.00045187524,0.0008546449,-0.001743625,2.275355e-05,0.5050329,-1.3816078,1.9042467,-2.0919392,-1.5708774,2.4800491,-7.27254e-05,1.4831355e-06,0.00075908774,0.001178506,0.00010008151,-9.60643e-05,0.05746084,0.15322891,-8.944737,0.7396539,47.66808,-0.62445575,-2.606176,-3.0466144,-0.11338789,0.15573189,-0.040881675,26.25,27.3125,26.1875,29.0625,30.1875,30.6875
0.012053645,-0.039581712,-0.08348485,-0.24143675,0.023260493,-0.0077554756,-0.02667046,-0.3893259,-0.36872447,0.059983183,-3.078685,0.62490535,0.00012178433,0.0007109623,0.00054267957,-0.0011992101,0.0022793685,-0.004312477,-0.00017568895,0.5050447,-1.3815949,1.904198,-2.091902,-1.5708417,2.4800253,-0.00031070728,0.002300596,-0.0007415935,0.0033175668,9.790391e-05,-0.00013484733,0.019153614,0.11492168,-9.097966,0.7038487,47.693153,-0.72217375,-2.5277734,-3.228805,-0.14203086,0.16484159,-0.091000564,26.25,27.3125,26.1875,29.0625,30.1875,30.6875
0.014053367,-0.3351982,-0.62648815,-0.34274942,-0.00469775,0.015581142,-0.026074914,-0.38933298,-0.36871514,0.059975535,-3.078671,0.6248828,0.00011724657,-0.0047769845,0.0026714737,-0.0049602147,0.005071798,-0.0093951365,-0.002604796,0.5050298,-1.3815781,1.9041957,-2.0919025,-1.5708536,2.479998,-0.009034663,0.015926868,-0.008196605,0.0029445083,9.581919e-05,-0.006424434,-0.076614454,0.19153613,-9.251196,0.7530795,47.703903,-0.4702168,-3.146915,-2.9907908,-0.11230193,0.13933101,-0.08487328,26.25,27.3125,26.1875,29.0625,30.1875,30.6875
0.016054252,-0.98789215,-1.518379,-0.5359338,-0.02011806,0.031332422,-0.026685176,-0.3893078,-0.36868826,0.059950497,-3.0786142,0.62494636,-1.9338808e-05,-0.005877995,0.0028846748,-0.0034046024,0.0036686955,-0.006860154,0.0032765977,0.50499326,-1.3815789,1.9042429,-2.0918548,-1.5708297,2.4800084,-0.010421436,0.013779627,-0.009272526,0.0032694659,9.382127e-05,-0.013692542,-0.19153614,0.24899697,-9.404425,0.679228,47.674347,-0.38239303,-3.0074449,-3.1745968,-0.08604289,0.1456352,-0.025768194,26.25,27.3125,26.1875,29.0625,30.1875,30.6875
0.018054089,-1.606727,-1.9870926,-0.5361234,-0.030119054,0.042496767,-0.035252787,-0.38932443,-0.36869058,0.05993045,-3.078602,0.6248457,-7.8717705e-05,-0.005095611,0.0028853298,-0.003481116,0.004527155,-0.008402613,0.0070952456,0.5049815,-1.381495,1.9041837,-2.09183,-1.5708297,2.4799354,-0.009689054,0.013625768,-0.009375784,0.0052914303,9.190512e-05,-0.016779007,-0.40222588,0.2681506,-9.423578,0.78888994,47.668976,-0.6143532,-2.7790337,-3.3678565,-0.082826585,0.12557079,-0.0057441574,26.25,27.3125,26.1875,29.0625,30.1875,30.6875
0.020053808,-1.6879954,-0.94985604,-0.77633405,-0.026597861,0.0569446,-0.052901234,-0.38933134,-0.3686809,0.059936967,-3.078579,0.62486035,-2.8352035e-05,-0.0057417974,0.003325851,-0.0026264538,0.0049398155,-0.009139507,0.0070235874,0.5049811,-1.381507,1.9041828,-2.0918286,-1.5708655,2.479947,-0.011033866,0.013420497,-0.011884657,0.008849326,9.006572e-05,-0.018051539,-0.47884035,0.24899697,-9.5385,0.7418897,47.661808,-0.7117677,-2.55508,-3.4002724,-0.11010827,0.12236314,-0.018329158,26.25,27.3125,26.1875,29.0625,30.1875,30.6875
0.022053674,-1.3975679,-0.77257264,-0.8374875,-0.005160822,0.06430824,-0.07897539,-0.3893506,-0.3686861,0.05994079,-3.0786,0.62480736,-6.7801346e-05,-0.0066133435,0.0030858952,-0.0033592794,0.0056967456,-0.010514865,0.0060023433,0.50495696,-1.3814697,1.9041218,-2.0917923,-1.5708417,2.4798872,-0.011446352,0.01701257,-0.014623989,0.009566997,8.829826e-05,-0.017441163,-0.5554548,0.2681506,-9.672575,0.779936,47.67345,-0.84110147,-2.6151848,-3.403809,-0.105284095,0.11258769,-0.024511166,26.25,27.3125,26.1875,29.0625,30.1875,30.6875
0.024053322,-2.0444198,-1.0461571,-0.8358278,-0.004841799,0.057371665,-0.09441445,-0.3893167,-0.3686528,0.059853278,-3.0784655,0.6248009,-0.00031263186,-0.007600643,0.0035006637,-0.0041227913,0.0061781225,-0.011378219,0.0027870773,0.5049325,-1.3813487,1.9041699,-2.0917566,-1.5708417,2.4798758,-0.013064083,0.019495398,-0.01573248,0.009181408,7.807658e-05,-0.01584274,-0.6895301,0.2681506,-9.787497,0.7463667,47.613445,-0.82299304,-2.6031303,-3.41876,-0.09715523,0.106485516,-0.064526886,26.25,27.3125,26.1875,29.0625,30.1875,30.6875
0.026053684,-1.7150816,-0.94334465,-0.9059826,-0.01975948,0.058297172,-0.10621062,-0.38937372,-0.36867532,0.059910636,-3.0785286,0.62487257,-0.000115096234,-0.008712295,0.0038719764,-0.003751409,0.005984272,-0.011007091,0.0011020963,0.504932,-1.3813727,1.9040731,-2.091781,-1.5708655,2.479912,-0.014721672,0.020022443,-0.017354822,0.009857779,6.854566e-05,-0.015814643,-0.68953013,0.21068975,-9.787497,0.7239871,47.67614,-0.8884927,-2.780158,-3.471139,-0.08156698,0.08469971,-0.09228996,26.25,27.3125,26.1875,29.0625,30.1875,30.6875
0.0280534,-1.7958978,-1.1431131,-0.8217824,-0.018213417,0.060131613,-0.11928571,-0.3893831,-0.36866766,0.059893668,-3.0785227,0.62483376,-0.00019807208,-0.009651338,0.0045838733,-0.003972411,0.006451117,-0.011821971,-0.00064804393,0.5048954,-1.3813242,1.9040488,-2.091756,-1.5708417,2.479852,-0.016788192,0.021270137,-0.018521015,0.010715695,5.2255753e-05,-0.016130414,-0.80445176,0.28730422,-9.883265,0.7217513,47.67614,-0.8565289,-2.7321882,-3.54613,-0.08659519,0.0690315,-0.09531524,26.25,27.3125,26.1875,29.0625,30.1875,30.6875
0.030053986,-1.4968464,-0.5259286,-0.81957525,-0.021311034,0.079811335,-0.14096144,-0.3893798,-0.36864,0.059840523,-3.0784304,0.6248139,-0.0003431002,-0.010529774,0.00428653,-0.0033056815,0.0061364924,-0.011031615,-0.0010599337,0.5048593,-1.381228,1.9040478,-2.0917199,-1.5708536,2.4798152,-0.017040145,0.02185231,-0.02095558,0.011724398,-6.0145496e-05,-0.015969291,-0.68953013,0.038307227,-9.825804,0.7105615,47.703903,-0.8263612,-2.6283839,-3.481497,-0.09785998,0.07216527,-0.10215,26.25,27.3125,26.1875,29.0625,30.1875,30.6875
0.032053526,-1.6782606,-0.687719,-0.80448043,0.0054031573,0.07831225,-0.14579849,-0.38943988,-0.36864737,0.0598807,-3.078471,0.6248429,-0.00023058774,-0.0118263485,0.0041079773,-0.0024129034,0.0055901003,-0.009821944,-0.0030037744,0.50482297,-1.3812157,1.9039391,-2.0917075,-1.5708655,2.4797919,-0.01788232,0.022370959,-0.023837114,0.01276464,-0.00016956599,-0.014866281,-0.6512228,0.05746084,-9.730036,0.75084364,47.67614,-0.83636534,-2.6273584,-3.4146752,-0.088314906,0.05448122,-0.124316305,26.25,27.3125,26.1875,29.0625,30.1875,30.6875
0.034053713,-1.5617853,-0.64908576,-0.8682463,0.036523234,0.0809191,-0.15151648,-0.38946718,-0.36865428,0.05987234,-3.078482,0.6248459,-0.00029537367,-0.01315259,0.0040935464,-0.0021060219,0.0056552747,-0.008335121,-0.0045459936,0.50478697,-1.3811431,1.9038671,-2.091684,-1.5708302,2.4797564,-0.01860955,0.02356651,-0.025847176,0.012312783,-0.0009515798,-0.014048798,-0.6703765,-0.019153614,-9.672575,0.77545905,47.703007,-0.823447,-2.657084,-3.3999367,-0.08887241,0.039313678,-0.14392821,26.25,27.3125,26.1875,29.0625,30.1875,30.6875
0.036054723,-1.4644535,0.19252849,-1.003597,0.029505553,0.068233676,-0.15961674,-0.38948646,-0.36861333,0.059844922,-3.0784073,0.62488765,-0.00035756198,-0.013883763,0.0042451574,-0.0023047575,0.0062986184,-0.00810347,-0.0048454055,0.5047149,-1.3810946,1.9038666,-2.0916598,-1.5708541,2.4797199,-0.019124046,0.02495069,-0.027004775,0.012196585,-0.0016313544,-0.014261815,-0.5746084,0.0,-9.710882,0.71279734,47.694054,-0.88152623,-2.6813884,-3.457715,-0.079743594,0.042646937,-0.14330938,26.25,27.3125,26.1875,29.0625,30.1875,30.6875
0.038053934,-1.2911499,-0.23895502,-0.7705399,0.03367984,0.062055722,-0.16336618,-0.38950047,-0.36862716,0.059837513,-3.078411,0.62492806,-0.0004237375,-0.0152021265,0.004285513,-0.0021250888,0.0060137617,-0.00765134,-0.0054383334,0.5047024,-1.381034,1.9038066,-2.091636,-1.5708178,2.479732,-0.02044064,0.026485397,-0.029274667,0.012398582,-0.0016059224,-0.014984342,-0.5554548,0.0,-9.749189,0.8090337,47.696735,-0.85792506,-2.7118802,-3.3995085,-0.04751668,0.04008711,-0.16011697,26.25,27.3125,26.1875,29.0625,30.1875,30.6875
0.040053558,-0.977708,-0.308818,-0.894848,0.023987258,0.04464642,-0.15217619,-0.3895321,-0.3686151,0.059842955,-3.0783668,0.62491804,-0.00036215587,-0.016651269,0.004368399,-0.001693245,0.005806942,-0.007357579,-0.0056162057,0.50469,-1.3809975,1.9037455,-2.0916116,-1.5708779,2.4797192,-0.021956487,0.027953848,-0.03225546,0.013552489,-0.0015714599,-0.016321056,-0.34476504,-0.038307227,-9.672575,0.73069996,47.691364,-0.84339976,-2.692487,-3.3698843,-0.051134404,0.019512262,-0.1811407,26.25,27.3125,26.1875,29.0625,30.1875,30.6875
0.042054087,-0.37338564,-0.3326989,-0.8847773,0.016233046,0.03941958,-0.1620737,-0.38958323,-0.36860928,0.059850417,-3.0783842,0.62492234,-0.00038718406,-0.01731363,0.0050642416,-0.0017488465,0.006561987,-0.00859171,-0.006161013,0.5046175,-1.3809371,1.9036487,-2.091575,-1.5708541,2.4796472,-0.023704045,0.028875457,-0.03365573,0.0154768275,-0.001635519,-0.017523168,-0.3256114,0.019153614,-9.749189,0.7486078,47.688675,-0.86937034,-2.6540275,-3.3324566,-0.048685126,0.012349648,-0.1829682,26.25,27.3125,26.1875,29.0625,30.1875,30.6875
0.044053543,-0.34254017,-0.20985433,-0.8658671,0.0093392385,0.032700337,-0.15964183,-0.3896142,-0.36858347,0.059847306,-3.0783415,0.62500846,-0.00043184738,-0.017269306,0.0057999496,-0.002423748,0.008240269,-0.010463265,-0.005346604,0.50454545,-1.3809007,1.903602,-2.0915267,-1.5708545,2.4796343,-0.02454756,0.030031838,-0.03381676,0.016932808,-0.0021991618,-0.019179827,-0.24899697,0.038307227,-9.710882,0.71951014,47.647476,-0.75708497,-2.7097354,-3.4194188,-0.081290334,0.010760475,-0.1770418,26.25,27.3125,26.1875,29.0625,30.1875,30.6875
0.046053298,-0.8027756,-1.1097851,-0.98168206,0.017938659,0.017888697,-0.14449354,-0.38967305,-0.36858594,0.05985111,-3.0783465,0.6249716,-0.00037896592,-0.018540634,0.005544419,-0.0020006553,0.008087603,-0.009130988,-0.0054938924,0.5045094,-1.3808161,1.9034933,-2.0915267,-1.5708784,2.4795747,-0.02498141,0.03133304,-0.03630965,0.016885715,-0.0027152034,-0.019464212,-0.095768064,0.095768064,-9.768343,0.7642693,47.694946,-0.8472593,-2.6979413,-3.4232635,-0.07621562,0.008445732,-0.18854925,26.25,27.3125,26.1875,29.0625,30.1875,30.6875
0.048053924,-0.21589413,-0.49870446,-0.9073793,-0.0016613196,0.031812053,-0.1554493,-0.3897209,-0.368575,0.05987234,-3.0783412,0.6249885,-0.0003247845,-0.02019898,0.005105132,-0.00090418005,0.0068182843,-0.0066878176,-0.0054518566,0.50446117,-1.380792,1.9034084,-2.091491,-1.5709022,2.4795377,-0.025741344,0.031755697,-0.03925295,0.016653536,-0.002792268,-0.020264812,-0.095768064,0.19153613,-9.615114,0.7709874,47.698532,-0.8020794,-2.6995778,-3.3536358,-0.0906191,-0.011999806,-0.2078557,26.25,27.3125,26.1875,29.0625,30.1875,30.6875
0.05005333,-0.1663996,-0.86233646,-1.0912368,-0.008750393,0.023116384,-0.14997604,-0.38973597,-0.36855635,0.059837807,-3.0782723,0.6250702,-0.0004773482,-0.021705573,0.005320619,-0.0003024472,0.0060858116,-0.004935639,-0.005831476,0.50440073,-1.3806958,1.9033598,-2.0914314,-1.5708784,2.479537,-0.02737654,0.032067474,-0.040859334,0.016061047,-0.0030061216,-0.021518895,-0.038307227,0.30645782,-9.5385,0.7239871,47.677036,-0.7819382,-2.6166818,-3.3384895,-0.08518143,-0.02694241,-0.22115788,26.25,27.3125,26.1875,29.0625,30.1875,30.6875
0.052053746,0.046537697,-1.3642594,-0.92918795,-0.018356653,0.026483444,-0.14900143,-0.38978964,-0.36854112,0.059862215,-3.0782762,0.6250328,-0.00042542908,-0.02268771,0.0060444293,-0.0005712607,0.006933953,-0.0054578003,-0.0060771015,0.5043401,-1.3806714,1.9032644,-2.0913832,-1.5709027,2.4794526,-0.029201992,0.033474408,-0.042061333,0.016723886,-0.0034982048,-0.023097161,0.095768064,0.34476504,-9.557653,0.7396539,47.709274,-0.787503,-2.5801916,-3.4365792,-0.10092959,-0.032437176,-0.21721008,26.25,27.3125,26.1875,29.0625,30.1875,30.6875
0.054053415,-0.22767046,-1.5763788,-0.95482934,-0.030591656,0.012405212,-0.14576519,-0.38981652,-0.36854345,0.059850816,-3.0782485,0.6251041,-0.00050704886,-0.023684243,0.0062943376,-0.00052881194,0.0076807067,-0.0050298385,-0.0052168593,0.504304,-1.3805869,1.9031795,-2.091335,-1.5708789,2.4794645,-0.030011566,0.0348004,-0.04382452,0.017150525,-0.004364007,-0.024764156,-0.019153614,0.38307226,-9.557653,0.7329411,47.71465,-0.7245936,-2.54505,-3.3890765,-0.10211633,-0.03439217,-0.23103009,26.25,27.3125,26.1875,29.0625,30.1875,30.6875
0.056053936,-0.20796299,-1.622565,-0.91988635,-0.030945366,0.014208134,-0.14109024,-0.38988975,-0.36854362,0.059862662,-3.0782766,0.62510896,-0.00042409933,-0.024886852,0.0063985423,-0.00029493976,0.008094694,-0.0037987165,-0.004385598,0.5042439,-1.3805144,1.9030722,-2.091359,-1.5708917,2.479404,-0.030705392,0.03596642,-0.04570029,0.016985051,-0.0053255926,-0.02628662,0.0,0.40222588,-9.481039,0.70608455,47.687782,-0.75620496,-2.525281,-3.4370472,-0.101368956,-0.036356926,-0.22378589,26.25,27.3125,26.1875,29.0625,30.1875,30.6875
0.058053672,-0.4606363,-1.5917424,-0.856181,-0.023941696,0.01861536,-0.14286315,-0.38993534,-0.36852595,0.059848752,-3.0782506,0.62512255,-0.00046626237,-0.026246695,0.0065936493,0.0004631015,0.0075731263,-0.0024017994,-0.004596938,0.50417155,-1.3804301,1.9029988,-2.0913346,-1.5708917,2.4793434,-0.03215984,0.03611971,-0.04769191,0.017348513,-0.0055493787,-0.027528295,0.019153614,0.4213795,-9.461885,0.7351769,47.677036,-0.6940814,-2.5249941,-3.4063947,-0.11965075,-0.03344418,-0.24627213,26.25,27.3125,26.1875,29.0625,30.1875,30.6875
0.06005336,-0.5394835,-1.4427266,-0.79712194,-0.016390355,0.030369375,-0.13569954,-0.389984,-0.3685038,0.059862617,-3.0782046,0.6251326,-0.0004583145,-0.027538681,0.006715078,0.0011841146,0.007317236,-0.0006852154,-0.0046323375,0.5041114,-1.3803821,1.9028915,-2.0912511,-1.570928,2.4792955,-0.033185594,0.036305696,-0.04956843,0.017413078,-0.006160009,-0.02851648,-0.05746084,0.4405331,-9.461885,0.75755644,47.698532,-0.71210337,-2.4097447,-3.3906608,-0.11159846,-0.047601342,-0.2502337,26.25,27.3125,26.1875,29.0625,30.1875,30.6875
0.062053982,-0.9083879,-1.4319947,-0.75811046,-0.004222619,0.031939484,-0.13743988,-0.39004418,-0.36848286,0.05985443,-3.0781767,0.6251831,-0.00046066614,-0.02800399,0.0067120753,0.0007166902,0.009000616,-0.000908594,-0.0031143893,0.50402766,-1.3802972,1.9028071,-2.0912392,-1.5709404,2.4792469,-0.032756343,0.038475264,-0.051174216,0.017861798,-0.0075299763,-0.02960133,-0.095768064,0.2681506,-9.461885,0.7530795,47.651955,-0.74075437,-2.429532,-3.3948097,-0.12715305,-0.028013885,-0.26334906,26.25,27.3125,26.1875,29.0625,30.1875,30.6875
0.06405366,-0.45771235,-0.7819265,-0.5939276,-0.008561121,0.04679145,-0.14264436,-0.39011106,-0.36845562,0.059855554,-3.0781465,0.625291,-0.00047504736,-0.029307868,0.007095788,0.0011880131,0.010171102,0.0008397813,-0.0026315872,0.5039197,-1.3802248,1.9027108,-2.091203,-1.5709409,2.4792101,-0.033443306,0.039200205,-0.053178422,0.018180978,-0.009404454,-0.030766219,-0.1340753,0.2681506,-9.346964,0.7978386,47.66271,-0.8175071,-2.4276073,-3.3859062,-0.12467538,-0.021409472,-0.2508179,26.25,27.3125,26.1875,29.0625,30.1875,30.6875
0.0660541,-0.6842525,-0.6496978,-0.3899454,-0.003484466,0.043654125,-0.14328815,-0.3901873,-0.368476,0.059874337,-3.0781922,0.62526214,-0.0004026925,-0.031017965,0.007468584,0.0015835364,0.010212305,0.0021390812,-0.0033898368,0.5038831,-1.3801284,1.9025539,-2.091203,-1.5709413,2.4791498,-0.03524403,0.04038548,-0.05548479,0.018185994,-0.01007176,-0.031806797,-0.17238252,0.24899697,-9.3661175,0.7530795,47.704796,-0.8149562,-2.4089758,-3.3365877,-0.13422054,-0.0061857905,-0.27076435,26.25,27.3125,26.1875,29.0625,30.1875,30.6875
0.06805378,-1.1325431,-0.5412001,-0.5177953,-0.0007552778,0.024196168,-0.139395,-0.3902451,-0.36845645,0.059872665,-3.0781622,0.62523603,-0.00040915483,-0.03135475,0.0077740196,0.0008422831,0.011551729,0.00068263995,-0.0028946474,0.5038111,-1.3800436,1.9024466,-2.0911548,-1.5709652,2.4790654,-0.035773646,0.042580005,-0.056583215,0.019011986,-0.0105437245,-0.03282968,-0.19153613,0.22984336,-9.385271,0.7239871,47.696735,-0.74771416,-2.3666172,-3.359027,-0.121067196,-0.0045165634,-0.2944613,26.25,27.3125,26.1875,29.0625,30.1875,30.6875
0.07005331,-0.86624044,-0.7415445,-0.38596457,0.006037873,0.025684759,-0.13798936,-0.39028937,-0.36844778,0.05987123,-3.078119,0.6252085,-0.0004676825,-0.032537095,0.0075822817,0.0012855881,0.010927992,0.0012488245,-0.0029935096,0.5037629,-1.3799471,1.9023141,-2.0910594,-1.5709776,2.4790056,-0.036716375,0.043731444,-0.059081823,0.019560087,-0.01027767,-0.033672348,-0.19153613,0.24899697,-9.308657,0.7642693,47.70211,-0.773083,-2.4710827,-3.416442,-0.1214187,-0.011618643,-0.2905743,26.25,27.3125,26.1875,29.0625,30.1875,30.6875
0.07205385,-0.72837913,-0.6956821,-0.33759454,0.0021076894,0.02909854,-0.13851446,-0.39035866,-0.3684438,0.05988969,-3.0781617,0.6251972,-0.00039746953,-0.033878844,0.006724157,0.0019728935,0.008871479,0.0018804066,-0.003506016,0.50369096,-1.3798985,1.9022173,-2.091071,-1.5709766,2.4789212,-0.037448235,0.045206368,-0.062476564,0.019927926,-0.008786344,-0.033893786,-0.19153613,0.15322891,-9.346964,0.77545905,47.71286,-0.80268556,-2.3095162,-3.1571276,-0.1391307,-0.016643772,-0.33132398,26.25,27.3125,26.1875,29.0625,30.1875,30.6875
0.07405359,-0.51047194,-0.627041,-0.6024391,0.016997952,0.035624754,-0.13453378,-0.39042312,-0.36842054,0.059882812,-3.0781314,0.625171,-0.00040450503,-0.033113535,0.0076160547,0.00054916245,0.010217597,-0.0016327574,-0.0018763385,0.50360656,-1.379802,1.9021105,-2.0910347,-1.5710005,2.4788244,-0.0385527,0.046429407,-0.06089512,0.020845795,-0.008267067,-0.036629327,-0.21068975,0.11492168,-9.270349,0.784413,47.682407,-0.8151838,-2.4620519,-3.4063349,-0.14060976,-0.041496158,-0.31449756,26.25,27.3125,26.1875,29.0625,30.1875,30.6875
0.07605412,-0.7774137,-0.34402448,-0.48985735,0.020246055,0.036263954,-0.14023374,-0.39050326,-0.36841944,0.059891384,-3.0781443,0.625192,-0.00040336518,-0.034106556,0.007404623,0.00054788945,0.010172335,-0.002091806,-0.0011025668,0.5035225,-1.3796933,1.901954,-2.0909984,-1.5709885,2.478752,-0.03927555,0.04853865,-0.06361693,0.02183698,-0.008010537,-0.03812524,-0.17238252,0.095768064,-9.32781,0.6926589,47.70211,-0.7907858,-2.3792822,-3.4214687,-0.16718985,-0.06497432,-0.31139678,26.25,27.3125,26.1875,29.0625,30.1875,30.6875
0.07805378,-0.6636535,0.012897158,-0.32873908,0.020327201,0.04347058,-0.14023642,-0.39056316,-0.36840528,0.059900884,-3.0781205,0.62522566,-0.00040568478,-0.036620595,0.006777657,0.0022369267,0.00836101,0.0006066578,-0.002540174,0.5034503,-1.3796207,1.9018329,-2.0909379,-1.5710005,2.4787037,-0.04072926,0.049560346,-0.068905294,0.022864083,-0.00773591,-0.03813962,-0.15322891,0.05746084,-9.32781,0.7866488,47.684196,-0.80499184,-2.4551394,-3.2288065,-0.19886294,-0.053724416,-0.32378876,26.25,27.3125,26.1875,29.0625,30.1875,30.6875
0.08005417,-1.0901327,0.007497959,-0.20422153,0.017722873,0.03800039,-0.13005391,-0.39063722,-0.36838764,0.05988993,-3.078083,0.6251976,-0.00042659813,-0.0356237,0.0074433074,0.00079595356,0.009980678,-0.0023852591,-0.0019798088,0.50336635,-1.3794882,1.9016904,-2.0908902,-1.5710243,2.4786072,-0.04092955,0.05067714,-0.06705033,0.023292543,-0.007708612,-0.038900673,-0.36391866,0.15322891,-9.232041,0.7709874,47.684196,-0.8519654,-2.319715,-3.336285,-0.19057743,-0.06646073,-0.36192197,26.25,27.3125,26.1875,29.0625,30.1875,30.6875
0.082053326,-0.7159634,0.15979987,-0.21033882,0.017234946,0.05042704,-0.14432824,-0.39070034,-0.36837712,0.059895035,-3.0780602,0.6252115,-0.00040209398,-0.037835393,0.008809013,0.0007720987,0.011978664,-0.0013736563,-0.001393425,0.50330555,-1.3794035,1.9015702,-2.090854,-1.5710496,2.478558,-0.043881226,0.05265513,-0.06945494,0.023802238,-0.009953519,-0.042432774,-0.38307226,0.11492168,-9.212888,0.79560274,47.66271,-0.81300783,-2.4141116,-3.341443,-0.20891708,-0.07057674,-0.33478388,26.25,27.3125,26.1875,29.0625,30.1875,30.6875
0.08405393,-0.67397726,-0.18256713,-0.27770588,0.014086165,0.059290823,-0.13855049,-0.3907947,-0.36837476,0.05989891,-3.0780704,0.62519395,-0.0003608001,-0.039377827,0.009131886,0.0012074343,0.012918679,0.0005533735,-0.000252508,0.5032214,-1.3792709,1.9014019,-2.0908425,-1.571062,2.4784617,-0.044754263,0.053730316,-0.071713045,0.02375472,-0.011712146,-0.044442233,-0.36391866,0.11492168,-9.270349,0.7530795,47.693153,-0.7398598,-2.4196692,-3.2847214,-0.20280048,-0.031801198,-0.32624054,26.25,27.3125,26.1875,29.0625,30.1875,30.6875
0.0860534,-0.87142897,-0.5839349,-0.26226923,0.012784139,0.06401912,-0.13997425,-0.3908437,-0.3683379,0.059876796,-3.0779939,0.6251735,-0.0005059266,-0.039172176,0.009076155,0.0006602947,0.01484444,-0.00039108607,0.0048167645,0.503114,-1.3791503,1.9012822,-2.0907218,-1.5710624,2.4783514,-0.043690223,0.05540088,-0.07269146,0.024820352,-0.012952506,-0.048442774,-0.49799395,0.05746084,-9.289502,0.72622824,47.681515,-0.8722349,-2.3866272,-3.3192587,-0.20599407,-0.019307842,-0.3141216,26.25,27.3125,26.1875,29.0625,30.1875,30.6875
0.08805391,-1.1115993,0.03653365,-0.13289583,-0.002052436,0.06634102,-0.14050975,-0.39094052,-0.36832952,0.059891034,-3.0779984,0.6252152,-0.00045430905,-0.040228255,0.010397668,-0.00043968562,0.017212993,-0.0030554754,0.002322925,0.5030172,-1.3790411,1.9011148,-2.090697,-1.5710744,2.47828,-0.046394035,0.05861034,-0.074451305,0.02684792,-0.013741613,-0.04865046,-0.47884035,0.1340753,-9.308656,0.8112748,47.703903,-0.7859489,-2.5586326,-3.365621,-0.23588079,-0.027256154,-0.31134078,26.25,27.3125,26.1875,29.0625,30.1875,30.6875
0.09005349,-1.3936965,-0.6154253,-0.3435626,0.016620846,0.05902334,-0.13606328,-0.39104107,-0.36831045,0.05991281,-3.0779872,0.6251346,-0.0003894106,-0.041015208,0.009989631,0.0014375551,0.014662448,-0.0010568012,0.0030730534,0.50292116,-1.3789338,1.9009222,-2.0906255,-1.571122,2.4781353,-0.04721777,0.05624201,-0.07617473,0.027950207,-0.012472837,-0.050227053,-0.4213795,0.095768064,-9.289502,0.779936,47.72629,-0.8192363,-2.3576508,-3.4036088,-0.28429765,-0.014619943,-0.3146132,26.25,27.3125,26.1875,29.0625,30.1875,30.6875
0.09205336,-1.2208145,-0.7337688,-0.44338322,0.010040286,0.052251764,-0.13169283,-0.3911271,-0.3682846,0.05991489,-3.0779548,0.625164,-0.00038040752,-0.04254626,0.010745639,0.001084339,0.014619311,-0.0014869618,0.004620262,0.5028125,-1.378825,1.9007777,-2.0905774,-1.5711459,2.4780493,-0.050050605,0.05817593,-0.07763904,0.02783138,-0.012235762,-0.054606557,-0.4405331,0.095768064,-9.212888,0.7732232,47.687782,-0.7357713,-2.4304442,-3.4131153,-0.26732913,-0.031891216,-0.27560848,26.25,27.3125,26.1875,29.0625,30.1875,30.6875
0.094054095,-1.2758794,-0.65870893,-0.40078682,-0.0039718556,0.046496384,-0.13125272,-0.39116052,-0.36824447,0.059863273,-3.0778632,0.6250479,-0.00053161103,-0.04245677,0.010480126,-0.00029894983,0.016434733,-0.0039441814,0.008606425,0.5027287,-1.3786795,1.9007066,-2.0905054,-1.5711697,2.4779048,-0.04925703,0.06197274,-0.07916459,0.028585728,-0.012655584,-0.05779526,-0.4405331,0.22984336,-9.251196,0.7866488,47.675243,-0.7027104,-2.404983,-3.4082503,-0.28840286,-0.037023507,-0.24700433,26.25,27.3125,26.1875,29.0625,30.1875,30.6875
0.09605333,-1.2684412,-1.014046,-0.4777515,0.006850789,0.04870803,-0.13151072,-0.3912676,-0.3682403,0.05990733,-3.077882,0.6250108,-0.00042264163,-0.043300923,0.0103017,8.439483e-05,0.016574293,-0.0034680867,0.0110696135,0.50264496,-1.3785951,1.9004902,-2.0904334,-1.5712065,2.4777956,-0.04950922,0.06300707,-0.08147449,0.029508097,-0.01300972,-0.060509607,-0.4213795,0.2681506,-9.308656,0.76874626,47.707485,-0.8442451,-2.541313,-3.4669013,-0.31296927,-0.016025543,-0.20624438,26.25,27.3125,26.1875,29.0625,30.1875,30.6875
0.09805334,-0.6411865,-0.70426047,-0.60565263,-0.00015576667,0.06201284,-0.14268348,-0.3913894,-0.36822724,0.059907787,-3.0778682,0.62506425,-0.00037163665,-0.0449161,0.010912694,0.0010428618,0.016151248,-0.0012620556,0.011242385,0.50252455,-1.3784271,1.9002875,-2.0904214,-1.5712303,2.4777105,-0.05158705,0.062406693,-0.08293678,0.029432109,-0.0137065165,-0.06275847,-0.30645782,0.28730422,-9.270349,0.78217715,47.691364,-0.8093587,-2.3078637,-3.3894358,-0.33525062,-0.03975283,-0.15160131,26.25,27.3125,26.1875,29.0625,30.1875,30.6875
0.10005383,-1.0836787,-0.83153677,-0.7055647,0.0011171094,0.042562082,-0.13255334,-0.39144066,-0.3682002,0.059866834,-3.0778253,0.6249784,-0.0005394265,-0.04620874,0.01063819,0.0005622746,0.015726937,-0.0010080975,0.012326912,0.5024165,-1.3782699,1.9001783,-2.09035,-1.5712065,2.4775543,-0.05246403,0.06523168,-0.08490857,0.028150195,-0.013474424,-0.06471754,-0.2681506,0.24899697,-9.346964,0.76874626,47.68599,-0.77763623,-2.487899,-3.4142694,-0.32988644,-0.028833097,-0.1327029,26.25,27.3125,26.1875,29.0625,30.1875,30.6875
0.102053754,-1.078107,-0.9434958,-0.517344,-0.011221436,0.032862928,-0.13319854,-0.39155775,-0.36818558,0.05989586,-3.0778482,0.62482744,-0.00040880806,-0.046977725,0.010395708,0.0005656588,0.015749073,-0.00035492037,0.013997403,0.5023205,-1.3781614,1.8999757,-2.0903141,-1.5712665,2.4773614,-0.0525471,0.066588685,-0.086440645,0.027758537,-0.013811022,-0.06647026,-0.2681506,0.2681506,-9.3661175,0.784413,47.64837,-0.83210194,-2.4363708,-3.474123,-0.31512022,-0.014381042,-0.10851569,26.25,27.3125,26.1875,29.0625,30.1875,30.6875
0.104054935,-0.62284905,-0.88509387,-0.65233034,-0.006089441,0.029408898,-0.13216548,-0.39165503,-0.36815915,0.059884135,-3.0778008,0.6248556,-0.0004273828,-0.04876147,0.009795961,0.001673678,0.014152331,0.0011972709,0.013396884,0.5022005,-1.3780049,1.8998059,-2.0902655,-1.5712904,2.4772651,-0.053581625,0.0676861,-0.090447396,0.028532911,-0.01316919,-0.06690358,-0.11492168,0.24899697,-9.346964,0.8157518,47.64837,-0.807683,-2.4262543,-3.2615216,-0.3271196,-0.0414211,-0.09522709,26.25,27.3125,26.1875,29.0625,30.1875,30.6875
0.10605356,-0.36805713,-0.9711594,-0.813442,0.0007142589,0.014128838,-0.12934375,-0.39174327,-0.36813495,0.05986139,-3.0777478,0.62478745,-0.00049180986,-0.048576955,0.01041019,0.0002880924,0.016136006,-0.0010707047,0.011998995,0.5020926,-1.377824,1.8996271,-2.090194,-1.5713142,2.4771216,-0.054025963,0.069987305,-0.09009726,0.028824296,-0.013819773,-0.06594733,-0.05746084,0.22984336,-9.404425,0.76874626,47.690468,-0.8186964,-2.388867,-3.4244409,-0.34908885,-0.032232396,-0.06180109,26.25,27.3125,26.1875,29.0625,30.1875,30.6875
0.10805403,-0.3939389,-1.3019303,-0.90185994,-0.006334014,-0.0056821755,-0.13294646,-0.3918528,-0.3681061,0.0598826,-3.0777202,0.62478197,-0.00042678564,-0.051474757,0.009272799,0.0022778348,0.013748416,0.0035858024,0.010909456,0.5019727,-1.3777156,1.8994344,-2.090123,-1.5713629,2.477002,-0.0546883,0.07097818,-0.09565459,0.028155925,-0.01398068,-0.06551749,-0.019153614,0.3256114,-9.423578,0.7978386,47.67166,-0.9116462,-2.508937,-3.1817164,-0.33775383,-0.026808534,-0.07357326,26.25,27.3125,26.1875,29.0625,30.1875,30.6875
0.1100535,0.22594124,-1.2506082,-0.8278373,-0.01828552,0.010007457,-0.14177045,-0.39196247,-0.36808103,0.059867553,-3.0776925,0.6247952,-0.00047305922,-0.051256094,0.009984282,0.0017905721,0.014785905,0.0030648615,0.009278657,0.50182873,-1.3775353,1.8992442,-2.0900748,-1.5713629,2.4768698,-0.05525297,0.070823826,-0.094324775,0.027937401,-0.014639269,-0.064449795,-0.038307227,0.3256114,-9.404425,0.75084364,47.683304,-0.9273106,-2.4101186,-3.3759174,-0.34000617,-0.005468267,-0.07409613,26.25,27.3125,26.1875,29.0625,30.1875,30.6875
0.11205331,0.6140177,-0.92560726,-0.80372435,-0.029911315,0.026401294,-0.14487341,-0.39207765,-0.36806998,0.059890922,-3.07768,0.62483126,-0.00036743467,-0.05214912,0.009145375,0.0007206225,0.01454185,0.0010621714,0.008079789,0.50173295,-1.3774136,1.8990387,-2.090039,-1.5714105,2.4767983,-0.05538898,0.075616166,-0.097604774,0.028055545,-0.013465334,-0.063388385,-0.11492168,0.3256114,-9.461885,0.78217715,47.66987,-0.9576451,-2.4572275,-3.3735228,-0.34556592,-0.011199342,-0.09896709,26.25,27.3125,26.1875,29.0625,30.1875,30.6875
0.11405413,-0.5286779,-1.5310907,-0.8691755,-0.024591364,0.012921793,-0.12970252,-0.39217514,-0.36805344,0.059885304,-3.0776522,0.62471104,-0.00037679874,-0.05319326,0.009114002,0.0018311313,0.013218305,0.0026095407,0.0055327364,0.50163686,-1.3772457,1.898836,-2.0899665,-1.5714463,2.476631,-0.056545615,0.07476726,-0.09924944,0.028551938,-0.01305301,-0.06199801,0.0,0.30645782,-9.519346,0.7866488,47.668976,-0.95554125,-2.5506597,-3.3151057,-0.34982413,-0.0075766942,-0.093076594,26.25,27.3125,26.1875,29.0625,30.1875,30.6875
0.11605399,-0.12080251,-1.2156571,-0.9144028,-0.03576839,0.031166855,-0.13302597,-0.39225864,-0.36802652,0.05987575,-3.0776012,0.62468153,-0.0004243292,-0.054237597,0.008748615,0.0021154413,0.011919417,0.0032035045,0.0033825822,0.50152874,-1.3771012,1.8986677,-2.0898836,-1.5714697,2.476511,-0.05741252,0.07586143,-0.10111929,0.028177388,-0.012207409,-0.06071515,-0.019153614,0.28730422,-9.557653,0.74413085,47.690468,-1.004205,-2.3710785,-3.3710775,-0.3477784,-0.021592192,-0.1153958,26.25,27.3125,26.1875,29.0625,30.1875,30.6875
0.11805348,-0.05732886,-1.1072183,-0.8675071,-0.033067975,0.034467656,-0.14133394,-0.39235303,-0.36802414,0.059868235,-3.0775948,0.6246239,-0.0004292915,-0.054875642,0.008617477,0.0015560436,0.011452374,0.002497957,0.0012201287,0.5014446,-1.3769324,1.8984765,-2.0898473,-1.5714816,2.4763918,-0.058233432,0.07788771,-0.10211703,0.027539631,-0.011462098,-0.05937454,-0.019153614,0.3256114,-9.595961,0.7866488,47.683304,-1.0424808,-2.394705,-3.4316459,-0.3407957,-0.024714468,-0.14131966,26.25,27.3125,26.1875,29.0625,30.1875,30.6875
0.120054014,-0.54910946,-1.0751414,-0.9409387,-0.022253502,0.01889774,-0.13049084,-0.39247626,-0.3679782,0.059855424,-3.0775425,0.6246896,-0.0005025758,-0.05614096,0.008176606,0.0022914314,0.010054726,0.004266696,-0.00048236654,0.50125283,-1.376752,1.8982729,-2.0897639,-1.5714811,2.4762478,-0.05886991,0.07836921,-0.10424384,0.026959546,-0.011095373,-0.05830782,-0.076614454,0.30645782,-9.576807,0.7709874,47.661808,-1.0291041,-2.4233208,-3.4590445,-0.30569428,-0.032038026,-0.17748699,26.25,27.3125,26.1875,29.0625,30.1875,30.6875
0.12205358,-0.08419841,-0.54655164,-0.9963039,-0.02845147,0.027262643,-0.14501263,-0.3925816,-0.36797264,0.05986939,-3.0775309,0.6246499,-0.0004512487,-0.05719214,0.008339136,0.0024439765,0.009386747,0.0045902035,-0.0026363656,0.50116843,-1.3766077,1.8980564,-2.0897043,-1.5715173,2.4761403,-0.060366772,0.079221934,-0.10558524,0.026839515,-0.010666835,-0.05765125,-0.095768064,0.30645782,-9.595961,0.8023209,47.677036,-1.0301154,-2.431282,-3.2932901,-0.29246914,-0.034152173,-0.20751491,26.25,27.3125,26.1875,29.0625,30.1875,30.6875
0.1240541,-0.4963103,-1.3940878,-1.0876917,-0.005324952,0.021286473,-0.12687352,-0.39271706,-0.36796626,0.059889123,-3.077551,0.6247494,-0.0004083792,-0.058107536,0.0080603035,0.002338128,0.0096258465,0.005145865,-0.00301776,0.50102484,-1.3764509,1.8978175,-2.0896685,-1.5715054,2.4760563,-0.060425125,0.08114747,-0.10756804,0.026525488,-0.01114558,-0.05732641,-0.095768064,0.22984336,-9.710882,0.842603,47.687782,-1.1152256,-2.2957401,-3.4999251,-0.2842643,-0.028596014,-0.22604872,26.25,27.3125,26.1875,29.0625,30.1875,30.6875
0.12605356,-0.7335635,-0.68274266,-0.8888245,-0.016269652,0.024807818,-0.132565,-0.3928094,-0.36795107,0.059875667,-3.077533,0.62462884,-0.00042846723,-0.059496053,0.0077720038,0.0028876006,0.008435541,0.006595984,-0.0020600283,0.50092864,-1.3762823,1.8976372,-2.0896204,-1.5715293,2.4758873,-0.06141988,0.08204184,-0.10977014,0.025984379,-0.010808154,-0.059278306,-0.1340753,0.22984336,-9.672575,0.7777002,47.70032,-1.0851698,-2.3984218,-3.2601464,-0.25153872,-0.039320342,-0.24279326,26.25,27.3125,26.1875,29.0625,30.1875,30.6875
0.12805417,-0.37943438,-0.57660073,-0.95106053,-0.009626739,0.04596426,-0.13847753,-0.39291763,-0.3679403,0.059857007,-3.0774798,0.6245977,-0.00045004263,-0.060493704,0.007344766,0.003329558,0.00809954,0.0076413373,-0.0010995866,0.50083286,-1.3760657,1.8974093,-2.0895607,-1.5715655,2.475779,-0.061473597,0.08318629,-0.1121953,0.02618356,-0.011023994,-0.060290307,-0.095768064,0.21068975,-9.595961,0.7709874,47.64927,-1.1475465,-2.3059435,-3.354272,-0.23781176,-0.06338238,-0.25331435,26.25,27.3125,26.1875,29.0625,30.1875,30.6875
0.13005364,-0.37896675,-0.14514014,-0.740706,-0.016315844,0.0572587,-0.14136139,-0.39306808,-0.36793298,0.059895884,-3.0775158,0.6246821,-0.0003254264,-0.061040733,0.007531779,0.0032523735,0.008080215,0.007003993,-0.003206206,0.5006888,-1.3759332,1.897158,-2.0895364,-1.5715774,2.4756832,-0.062471986,0.08416109,-0.11334973,0.026910545,-0.010694702,-0.059183408,-0.21068975,0.17238253,-9.595961,0.84708,47.703007,-1.1942291,-2.292528,-3.3713388,-0.23713866,-0.06840794,-0.2996626,26.25,27.3125,26.1875,29.0625,30.1875,30.6875
0.13205412,-0.6614036,-0.8420625,-0.9597803,-0.0041734255,0.057826564,-0.13629402,-0.39317337,-0.36793387,0.059895452,-3.077515,0.62464416,-0.00034249522,-0.06168198,0.0076061226,0.0029873168,0.008061402,0.006387805,-0.004051125,0.5005928,-1.3757526,1.896931,-2.0894763,-1.5715774,2.4755638,-0.06336383,0.08567536,-0.11462318,0.027199117,-0.010385213,-0.05923027,-0.28730422,0.21068975,-9.500193,0.83589023,47.70659,-1.1999741,-2.3374054,-3.392807,-0.22261536,-0.051875345,-0.3306587,26.25,27.3125,26.1875,29.0625,30.1875,30.6875
0.13405369,-1.2690431,-0.5807118,-1.0026451,-0.0107049355,0.048841763,-0.13016506,-0.39328995,-0.36790782,0.059906848,-3.0775065,0.6246012,-0.00034539445,-0.06259342,0.007995409,0.0029659027,0.0087230615,0.006515785,-0.0021639767,0.5004487,-1.375608,1.8967146,-2.0893924,-1.5715894,2.475394,-0.06443514,0.086837664,-0.11607581,0.027692242,-0.011032684,-0.0621863,-0.34476504,0.15322891,-9.595961,0.79560274,47.63136,-1.290613,-2.2623982,-3.5004222,-0.22175938,-0.07610611,-0.3325965,26.25,27.3125,26.1875,29.0625,30.1875,30.6875
0.13605472,-1.0630987,-0.95499235,-0.8923327,0.0008358299,0.050903708,-0.13247627,-0.39343473,-0.36791268,0.059923567,-3.0775368,0.62464947,-0.00030203836,-0.06445217,0.008983906,0.0027703585,0.009619099,0.0066371937,-0.0077563752,0.50031596,-1.3754151,1.8964394,-2.0893567,-1.5715779,2.4752877,-0.0672615,0.0889485,-0.11823643,0.02807015,-0.01187516,-0.05941758,-0.45968673,0.17238252,-9.557653,0.7284641,47.698532,-1.1317488,-2.3168619,-3.4151235,-0.20610097,-0.05384449,-0.38022804,26.25,27.3125,26.1875,29.0625,30.1875,30.6875
0.13805403,-0.7328414,-0.74044883,-0.8568649,-0.0008629835,0.059167475,-0.13644822,-0.3935672,-0.36788207,0.059919845,-3.0774572,0.62462974,-0.00019338362,-0.06451638,0.007571205,0.003218429,0.0088761225,0.007888631,-0.004832088,0.50020915,-1.3752227,1.8962115,-2.089321,-1.5716857,2.475179,-0.06495711,0.089807756,-0.120212875,0.02772449,-0.011829013,-0.06003668,-0.4405331,0.15322891,-9.557653,0.7620334,47.675243,-1.3436946,-2.268035,-3.4648728,-0.18340589,-0.08983822,-0.43614423,26.25,27.3125,26.1875,29.0625,30.1875,30.6875
0.14005412,-0.8065164,-0.12585731,-0.6290165,-0.0156093035,0.061040126,-0.14454733,-0.39369306,-0.36788118,0.0599392,-3.0774896,0.62459725,-0.00020546794,-0.0658075,0.008369922,0.0031286173,0.009425576,0.008163461,-0.0041134655,0.5000766,-1.3750541,1.8959483,-2.089237,-1.5716618,2.475022,-0.06708036,0.09093948,-0.121377565,0.027779218,-0.012447172,-0.06287657,-0.4213795,0.1340753,-9.404425,0.7732232,47.684196,-1.292547,-2.2693095,-3.4235845,-0.15471724,-0.09043233,-0.43667597,26.25,27.3125,26.1875,29.0625,30.1875,30.6875
0.14205438,-1.2274042,-0.49699137,-0.7775347,-0.0053448398,0.052951522,-0.1235342,-0.39385775,-0.36786464,0.05995711,-3.0774772,0.62470996,-9.965854e-05,-0.06811898,0.009472034,0.002861303,0.009542194,0.006782247,-0.0057023894,0.49991935,-1.374861,1.8956727,-2.0892127,-1.5716981,2.474937,-0.071377985,0.09399814,-0.1247802,0.029382378,-0.011889516,-0.06558568,-0.40222588,0.19153613,-9.500193,0.8179876,47.693153,-1.1318094,-2.255616,-3.5323322,-0.13502303,-0.07562992,-0.4469748,26.25,27.3125,26.1875,29.0625,30.1875,30.6875
0.14405443,-0.8566321,-0.19819215,-0.45717248,-0.0011332734,0.0630967,-0.1353009,-0.39395913,-0.36782095,0.059927158,-3.0774198,0.6246751,-0.00021720925,-0.06650425,0.0089546135,0.003173153,0.010664611,0.0062943017,0.00018393269,0.49975273,-1.3746692,1.8954939,-2.0891278,-1.5716985,2.474756,-0.06852839,0.09247938,-0.124112576,0.031197477,-0.012644423,-0.068620086,-0.4405331,0.17238252,-9.404425,0.8291774,47.661808,-1.3184584,-2.2395043,-3.461568,-0.13053548,-0.077736095,-0.46179956,26.25,27.3125,26.1875,29.0625,30.1875,30.6875
0.14605391,-1.0797257,-0.35242733,-0.44693518,0.012086334,0.061010744,-0.12821123,-0.39411518,-0.36781898,0.059949648,-3.0774481,0.6246388,-0.00012353562,-0.06913838,0.00926578,0.0039225584,0.009875477,0.0073011457,0.004100812,0.49962005,-1.3744764,1.8952054,-2.089091,-1.5717219,2.4745972,-0.07157354,0.09460961,-0.12861143,0.03229325,-0.012443936,-0.07558138,-0.4213795,0.11492168,-9.251195,0.8179876,47.69763,-1.2524438,-2.125111,-3.4652853,-0.11650246,-0.08825698,-0.43602973,26.25,27.3125,26.1875,29.0625,30.1875,30.6875
0.14805408,-0.9691338,-0.07846231,-0.4443007,0.019056423,0.057612814,-0.12908445,-0.3942669,-0.3678146,0.05999607,-3.0775049,0.62457186,1.2820173e-05,-0.06927932,0.009963746,0.0028782121,0.011274142,0.005307711,0.0058677113,0.49948794,-1.3743435,1.8949312,-2.0890434,-1.5717462,2.4744163,-0.07267996,0.096529685,-0.12864605,0.032822203,-0.012710934,-0.07845499,-0.34476504,0.11492168,-9.3661175,0.8627467,47.694946,-1.3766205,-2.3192513,-3.4696598,-0.11580193,-0.12016792,-0.39988646,26.25,27.3125,26.1875,29.0625,30.1875,30.6875
0.15005444,-0.8022133,-0.07828831,-0.3528124,0.01942649,0.055546675,-0.1282733,-0.39438918,-0.36778405,0.059952896,-3.077402,0.62464494,-0.00011972173,-0.07138803,0.010565882,0.003385989,0.011424197,0.0064325472,0.008658526,0.49933136,-1.3740667,1.894679,-2.088948,-1.5717582,2.4743185,-0.07517671,0.09802035,-0.13175507,0.033519045,-0.013401178,-0.083738014,-0.38307226,0.076614454,-9.346964,0.8157518,47.71286,-1.2957675,-2.1963735,-3.5042858,-0.06984318,-0.09100759,-0.38342872,26.25,27.3125,26.1875,29.0625,30.1875,30.6875
0.15205461,-1.0302691,0.1425672,-0.2828201,0.013455587,0.04602555,-0.13515319,-0.3945334,-0.36775637,0.05995648,-3.0774133,0.6245278,-5.6120203e-05,-0.07317478,0.011563528,0.0030255558,0.012357421,0.0056753457,0.013197634,0.49917462,-1.3738858,1.8944501,-2.0889232,-1.5717944,2.4740875,-0.078176245,0.10059391,-0.13423738,0.034527816,-0.013866392,-0.09127459,-0.36391866,0.076614454,-9.270349,0.78217715,47.68062,-1.2247235,-2.2835846,-3.3276043,-0.072223864,-0.12268038,-0.28276855,26.25,27.3125,26.1875,29.0625,30.1875,30.6875
0.15405855,-1.2235489,-0.4548641,-0.373775,0.01709886,0.04204876,-0.12726684,-0.39468193,-0.3677532,0.059986223,-3.0774343,0.6244339,3.449941e-05,-0.07324672,0.011449156,0.003601685,0.012734496,0.005889519,0.015703976,0.49905503,-1.3737056,1.894152,-2.0888507,-1.5718306,2.4739068,-0.07775324,0.10026198,-0.13553277,0.036141913,-0.014296895,-0.09335726,-0.49799395,0.17238252,-9.270349,0.7620334,47.683304,-1.1242398,-2.2614489,-3.4191978,-0.057660177,-0.116168514,-0.2727551,26.25,27.3125,26.1875,29.0625,30.1875,30.6875
0.15605743,-0.9509238,-0.43041667,-0.27653095,0.010577659,0.052186433,-0.13469426,-0.3948392,-0.36769754,0.05997254,-3.077369,0.6244177,-3.9331853e-06,-0.07361917,0.011665695,0.0017023613,0.014922618,0.002013642,0.01836684,0.4988394,-1.3734754,1.8938879,-2.088755,-1.5718669,2.4736896,-0.07837736,0.105479985,-0.1377665,0.037598122,-0.014374778,-0.09664165,-0.5363012,0.17238252,-9.193734,0.7978386,47.698532,-1.3291861,-2.3915277,-3.3147874,-0.05986204,-0.11522338,-0.21704245,26.25,27.3125,26.1875,29.0625,30.1875,30.6875
0.15805772,-0.9388308,-0.5867147,-0.20392124,0.005369003,0.061100516,-0.12847719,-0.39497682,-0.3676861,0.059994448,-3.077369,0.6244195,-4.7105036e-06,-0.07756459,0.012998438,0.0046060323,0.012675809,0.006671161,0.014493658,0.49869367,-1.3732961,1.8936003,-2.0886467,-1.5718669,2.473545,-0.08404078,0.10338621,-0.14220585,0.038963262,-0.014638247,-0.09843001,-0.36391866,0.17238252,-9.251195,0.79560274,47.65912,-1.1480126,-2.207195,-3.3521328,-0.05929129,-0.11278932,-0.16739282,26.25,27.3125,26.1875,29.0625,30.1875,30.6875
0.16005339,-1.1710309,-0.77238464,-0.36695397,0.009319459,0.057009224,-0.12004355,-0.3951213,-0.36765975,0.059983995,-3.0773406,0.624335,-1.9920276e-06,-0.076129,0.01263154,0.0020271586,0.01530547,0.0015159317,0.0159851,0.4985388,-1.3730663,1.8933371,-2.088586,-1.5719026,2.4733412,-0.082173765,0.10810888,-0.1422209,0.040034927,-0.014482753,-0.09805381,-0.38307226,0.17238252,-9.193734,0.82022345,47.681515,-1.1397183,-2.3332376,-3.3555007,-0.03904078,-0.14254734,-0.13932338,26.25,27.3125,26.1875,29.0625,30.1875,30.6875
0.1620518,-0.8191488,-0.18742447,-0.39388272,-0.007369905,0.06114221,-0.13080558,-0.39529544,-0.3676136,0.059978798,-3.0772786,0.6243247,5.4491786e-05,-0.07846412,0.013279255,0.0037294521,0.014352644,0.004395392,0.0110203875,0.4983461,-1.3728263,1.8930501,-2.088526,-1.5719746,2.4731503,-0.08502587,0.107230395,-0.14528571,0.04098848,-0.015026851,-0.09593875,-0.34476504,0.15322891,-9.174581,0.7642693,47.63225,-1.0656322,-2.240398,-3.3441992,-0.0155128185,-0.12068555,-0.14273666,26.25,27.3125,26.1875,29.0625,30.1875,30.6875
0.16405171,-0.83941454,-0.45391998,-0.25092962,-0.0016153547,0.055439927,-0.12829655,-0.3954581,-0.3676309,0.060011018,-3.0773416,0.6242055,0.00012368835,-0.08002929,0.013860319,0.0033133808,0.015104248,0.0033689402,0.0047124457,0.49822566,-1.3726091,1.892702,-2.0884535,-1.5719746,2.4729476,-0.087299354,0.11018698,-0.14813948,0.04215048,-0.015190998,-0.09190333,-0.49799395,0.2681506,-9.251195,0.83365434,47.667187,-1.0068969,-2.292496,-3.2309563,-0.020686498,-0.12027274,-0.18708898,26.25,27.3125,26.1875,29.0625,30.1875,30.6875
0.16605198,-0.18718901,-0.29439542,-0.34951562,0.0045870366,0.061669357,-0.13637795,-0.39561492,-0.36754835,0.059997287,-3.0772326,0.6242814,6.989284e-05,-0.08152466,0.014353534,0.0035343035,0.015153917,0.0037602242,-0.0012886071,0.4979735,-1.3724043,1.8924626,-2.0883338,-1.5720233,2.4727569,-0.08930842,0.11149456,-0.15034854,0.042729836,-0.015429727,-0.087908484,-0.40222588,0.21068975,-9.193734,0.8157518,47.666286,-0.9181642,-2.2130833,-3.1597867,-0.0075899875,-0.1251094,-0.22514616,26.25,27.3125,26.1875,29.0625,30.1875,30.6875
0.16805197,-0.37756395,-0.49846,-0.45909536,0.006365261,0.05075755,-0.13147004,-0.39575997,-0.36754164,0.060000915,-3.0772243,0.6242811,5.2760348e-05,-0.081930704,0.015178783,0.0025804122,0.016854871,0.00034093534,-0.005531148,0.49782917,-1.3721753,1.8921627,-2.0882494,-1.5720233,2.4726136,-0.09111758,0.11427674,-0.15215549,0.04557164,-0.015287945,-0.08547441,-0.30645782,0.21068975,-9.251195,0.8537928,47.711964,-0.9149121,-2.3989823,-3.1852431,-0.016332954,-0.15073758,-0.2678992,26.25,27.3125,26.1875,29.0625,30.1875,30.6875
0.17005198,-0.9357401,-0.5452848,-0.4703081,-0.0045436304,0.037739355,-0.12749189,-0.39593473,-0.36751112,0.059997927,-3.0771952,0.6243325,4.5065943e-05,-0.08235585,0.015979985,0.0022428941,0.017822219,-0.0017854196,-0.0075331503,0.4976249,-1.3719226,1.8918523,-2.0881765,-1.5720347,2.4724452,-0.09290802,0.115513586,-0.15341781,0.04792302,-0.015122898,-0.085262604,-0.40222588,0.13407528,-9.193734,0.8314132,47.7254,-0.82774264,-2.357244,-3.2145066,-0.03568366,-0.15044065,-0.30588976,26.25,27.3125,26.1875,29.0625,30.1875,30.6875
0.17205203,-0.7447398,-0.9147337,-0.5759344,-0.0034844035,0.050041832,-0.134552,-0.39608914,-0.36746424,0.059994996,-3.0770946,0.6242725,4.3007014e-05,-0.08382173,0.015949732,0.0028571424,0.017492095,-0.00049600203,-0.007549406,0.4974571,-1.3716823,1.8915404,-2.088033,-1.5721191,2.472253,-0.09395289,0.11652839,-0.15613773,0.048327617,-0.015462081,-0.08628813,-0.4213795,0.19153613,-9.251195,0.8717007,47.691364,-0.7674768,-2.3115084,-3.282045,-0.020308178,-0.15511522,-0.31186682,26.25,27.3125,26.1875,29.0625,30.1875,30.6875
0.17405199,-1.2259632,-0.76119363,-0.70164526,-0.00758795,0.05451033,-0.12770423,-0.39628235,-0.36743185,0.05999089,-3.0770633,0.624323,6.194009e-05,-0.08278243,0.01755644,0.001290675,0.020570079,-0.005272453,-0.007943036,0.4972409,-1.3714052,1.8912061,-2.087972,-1.5721434,2.4720726,-0.09538535,0.11770775,-0.15469468,0.05136619,-0.015882112,-0.087326504,-0.36391866,0.2681506,-9.251195,0.8112748,47.682407,-0.81667346,-2.301125,-3.2303677,-0.059877194,-0.1530281,-0.33515167,26.25,27.3125,26.1875,29.0625,30.1875,30.6875
0.17605206,-1.2059,-0.4049326,-0.55595964,-0.0027498433,0.059972804,-0.13690615,-0.396442,-0.36739838,0.060020246,-3.0770357,0.624316,9.558649e-05,-0.08327139,0.01824842,0.0013126143,0.022437463,-0.007002862,-0.008440636,0.49706107,-1.3712246,1.8908943,-2.087839,-1.5721797,2.471892,-0.09644697,0.11899637,-0.15708952,0.05488013,-0.016698796,-0.08788756,-0.4213795,0.15322891,-9.346964,0.7217513,47.728977,-0.8270384,-2.316275,-3.194906,-0.09502201,-0.15689296,-0.3477763,26.25,27.3125,26.1875,29.0625,30.1875,30.6875
0.17805216,-1.2107869,-0.5386104,-0.57309157,0.009789005,0.06269691,-0.12161569,-0.39661068,-0.3673577,0.059995983,-3.0769615,0.62439585,1.5488198e-05,-0.08236229,0.018295856,0.00093679945,0.023651866,-0.010336051,-0.007987478,0.49684566,-1.3709362,1.8905839,-2.0877416,-1.5721911,2.4717362,-0.09597185,0.1198629,-0.1581288,0.05855555,-0.01618149,-0.08786558,-0.38307226,0.076614454,-9.251195,0.7553206,47.672558,-0.81959426,-2.277052,-3.3304071,-0.13395666,-0.15721688,-0.38198632,26.25,27.3125,26.1875,29.0625,30.1875,30.6875
0.18005197,-0.828788,-0.17081718,-0.43107113,0.016267657,0.05620189,-0.13427071,-0.3967794,-0.367329,0.060004838,-3.0769262,0.62434924,2.0324824e-05,-0.08290617,0.018557452,-0.0008204837,0.024818173,-0.012290327,-0.007971556,0.49666575,-1.3706945,1.8902491,-2.087623,-1.5722274,2.4715319,-0.09680203,0.1238699,-0.15865864,0.05734539,-0.01628663,-0.08871011,-0.24899697,0.076614454,-9.270349,0.8314132,47.653748,-0.7959795,-2.234764,-3.4132872,-0.13874954,-0.18552768,-0.38620397,26.25,27.3125,26.1875,29.0625,30.1875,30.6875
0.18205199,0.1883625,0.042391807,-0.5432569,0.021955611,0.052984886,-0.13484028,-0.3969535,-0.36728936,0.060004607,-3.0768661,0.62439275,1.0555451e-05,-0.08401536,0.017894164,0.0015783494,0.02235255,-0.009968372,-0.0077038393,0.4964621,-1.3704431,1.8899254,-2.0875137,-1.5722626,2.4713633,-0.097307846,0.12171392,-0.16211079,0.059726067,-0.015235504,-0.08948521,-0.19153613,-0.038307227,-9.346964,0.83589023,47.691364,-0.9397533,-2.269504,-3.4162726,-0.16896039,-0.20372307,-0.43204534,26.25,27.3125,26.1875,29.0625,30.1875,30.6875
0.18405187,0.05251601,0.07225298,-0.67155117,0.028198315,0.017958382,-0.12775248,-0.39712662,-0.3672535,0.06000601,-3.0768163,0.62441516,-1.500059e-05,-0.082420416,0.01854575,-0.0014893974,0.026140498,-0.016213698,0.00028863538,0.49625894,-1.3701892,1.8895925,-2.087394,-1.572287,2.4711807,-0.09667408,0.12619658,-0.16085131,0.06126412,-0.015603875,-0.096842244,-0.1340753,-0.038307227,-9.32781,0.7866488,47.690468,-0.986488,-2.3908715,-3.614645,-0.21736099,-0.20644471,-0.37768096,26.25,27.3125,26.1875,29.0625,30.1875,30.6875
0.18605241,0.48322305,0.42699105,-0.662072,0.028986542,0.0020140007,-0.13246714,-0.39728904,-0.36718115,0.05997563,-3.0766678,0.62444127,-7.2364186e-05,-0.08489265,0.019430662,0.0003107892,0.025489787,-0.012836017,0.0004540289,0.49604195,-1.3699132,1.8893031,-2.0872624,-1.5723718,2.4709992,-0.099711664,0.12500347,-0.16372587,0.0620386,-0.016665509,-0.10003953,-0.019153614,0.019153614,-9.346964,0.80679786,47.73256,-0.7681242,-2.2184706,-3.471085,-0.23060071,-0.19894898,-0.35842693,26.25,27.3125,26.1875,29.0625,30.1875,30.6875
0.18805224,0.506425,-0.14293467,-0.8026454,0.038998656,0.00466433,-0.13571951,-0.3974473,-0.36717394,0.059981935,-3.0767136,0.62430996,-0.00012646208,-0.085201904,0.018258005,0.00031410364,0.026063487,-0.0124171,0.008613566,0.49586335,-1.3696724,1.8889798,-2.087166,-1.5723361,2.470733,-0.09754085,0.12736186,-0.1666847,0.06253722,-0.017389055,-0.10602449,0.019153614,-0.13407528,-9.289502,0.8179876,47.72002,-1.0322928,-2.2235503,-3.4666438,-0.24935704,-0.20311978,-0.3013666,26.25,27.3125,26.1875,29.0625,30.1875,30.6875
0.19005223,0.4309172,0.25046116,-0.88261545,0.028721375,0.010350952,-0.13763534,-0.39761993,-0.36713716,0.05998367,-3.0766232,0.6242917,-0.00015416605,-0.088432446,0.02000107,0.0016866368,0.025107268,-0.009509465,0.008156535,0.4956815,-1.3693962,1.8886088,-2.0869987,-1.5723962,2.4705515,-0.10300686,0.12670451,-0.16904981,0.06253145,-0.017955659,-0.111029804,0.11492168,-0.019153614,-9.3661175,0.80456203,47.691364,-0.695789,-2.2267303,-3.4550972,-0.27762187,-0.20665103,-0.2216464,26.25,27.3125,26.1875,29.0625,30.1875,30.6875
0.19205216,-0.15516675,-0.22161917,-0.95876735,0.013875804,0.009026676,-0.13431937,-0.39780852,-0.3671101,0.059995107,-3.0766156,0.6241879,-0.00015088575,-0.087285854,0.019111209,-0.00040753614,0.02663833,-0.014335365,0.016354088,0.49547902,-1.3691303,1.8882383,-2.086878,-1.57242,2.4702854,-0.10100226,0.13147092,-0.17033689,0.064005494,-0.017022945,-0.11722424,0.038307227,0.038307227,-9.385271,0.8493211,47.694946,-0.99075794,-2.3013422,-3.4240308,-0.28457603,-0.21755764,-0.1357806,26.25,27.3125,26.1875,29.0625,30.1875,30.6875
0.19405223,-0.14101167,-1.1201168,-1.1087469,-7.563958e-05,0.027331349,-0.12870632,-0.39799207,-0.36706603,0.060009256,-3.0765638,0.6241392,-0.000120300356,-0.088665456,0.01932502,0.0011118078,0.02576191,-0.011979222,0.014562252,0.4952749,-1.3688906,1.8878907,-2.0867465,-1.5724796,2.4700577,-0.1023447,0.13019496,-0.1725106,0.06495738,-0.017381376,-0.11677287,-0.019153614,0.2873042,-9.481039,0.8605109,47.675243,-0.9190067,-2.1451771,-3.432014,-0.34600747,-0.23920263,-0.10660887,26.25,27.3125,26.1875,29.0625,30.1875,30.6875
0.19605231,-0.70454293,-1.5438839,-1.4639127,-0.028717255,0.029780583,-0.12710428,-0.3981535,-0.367009,0.059991766,-3.0764747,0.6241388,-0.00022720359,-0.08972711,0.018517358,0.00048942387,0.025484836,-0.010999124,0.015455454,0.4950475,-1.3686252,1.8875788,-2.086592,-1.5725039,2.4698417,-0.10175941,0.13340716,-0.1744446,0.06267883,-0.017631076,-0.11707678,-0.038307227,0.36391866,-9.557653,0.8873621,47.695843,-0.98345524,-2.3465228,-3.4174707,-0.3235805,-0.23807177,-0.076437876,26.25,27.3125,26.1875,29.0625,30.1875,30.6875
0.19805218,-0.69210124,-2.2373319,-1.5561795,-0.052878708,0.04531757,-0.12439933,-0.39834043,-0.36697778,0.06000073,-3.0764453,0.62398154,-0.0002254328,-0.09354997,0.018710552,0.0019396462,0.023117661,-0.0065405173,0.007819152,0.49485463,-1.3683486,1.887196,-2.0864484,-1.5725516,2.4695547,-0.10547564,0.1347054,-0.1788972,0.060783792,-0.017681291,-0.11315391,-0.019153614,0.38307226,-9.883265,0.7530795,47.652847,-0.8741901,-2.2764668,-3.4498281,-0.33883107,-0.22701693,-0.0954033,26.25,27.3125,26.1875,29.0625,30.1875,30.6875
0.20005213,-0.7969872,-2.6365395,-1.3917701,-0.07213969,0.051059484,-0.120594494,-0.39851597,-0.36694148,0.060025603,-3.0764015,0.62397224,-0.00019230376,-0.09271258,0.01731534,0.0014429336,0.02385279,-0.0070252577,0.0069177626,0.49466434,-1.3681318,1.8868483,-2.0863054,-1.5726002,2.4693644,-0.10207584,0.13660367,-0.18006909,0.06083392,-0.018097756,-0.10885048,-0.11492168,0.4213795,-9.883265,0.88289046,47.699425,-1.0967441,-2.2537909,-3.4483566,-0.3504569,-0.25312895,-0.15827344,26.25,27.3125,26.1875,29.0625,30.1875,30.6875
0.20205207,-0.9194098,-2.8934922,-1.3812308,-0.07403558,0.051341433,-0.12584493,-0.39869362,-0.3668952,0.06000902,-3.0763323,0.6239426,-0.00024680793,-0.09599035,0.01817612,0.0013602001,0.021973243,-0.0042107576,-0.0016347659,0.49444723,-1.3678426,1.8865141,-2.0861866,-1.5726355,2.469138,-0.106626734,0.13879953,-0.18163815,0.0568367,-0.017796332,-0.104847334,-0.30645782,0.6895301,-9.844957,0.88289046,47.682407,-0.9912308,-2.3112411,-3.3432055,-0.3360886,-0.26406568,-0.20045282,26.25,27.3125,26.1875,29.0625,30.1875,30.625
0.20405215,-0.79800117,-2.5633953,-1.6161906,-0.06617371,0.06137625,-0.12133071,-0.3988934,-0.36687618,0.06001136,-3.0762904,0.6240095,-0.00021124736,-0.09703525,0.016326165,0.0014106162,0.020416172,-0.00062624575,-0.0026471708,0.49425665,-1.3675416,1.8861307,-2.0861042,-1.5726722,2.4689946,-0.10421449,0.141069,-0.18354067,0.052576434,-0.018136704,-0.10142024,-0.22984336,0.7086837,-9.864111,0.82022345,47.67614,-1.1366453,-2.3262749,-3.380088,-0.29094306,-0.250465,-0.27007988,26.25,27.3125,26.1875,29.0625,30.1875,30.625
0.2060523,-1.0001626,-2.3810308,-1.5107856,-0.057779424,0.055880338,-0.12363102,-0.3991083,-0.36685225,0.06004531,-3.0763197,0.62401664,-0.00012922124,-0.09914763,0.015665727,0.002125289,0.018236311,0.0027648075,-0.0052422183,0.49402872,-1.367301,1.8857473,-2.0860212,-1.5726837,2.4687676,-0.10515055,0.14230242,-0.18605094,0.04983104,-0.01783076,-0.09976202,-0.095768064,0.63206923,-9.749189,0.8112748,47.698532,-1.1472352,-2.2808158,-3.3221517,-0.23740369,-0.27145177,-0.3208542,26.25,27.3125,26.1875,29.0625,30.1875,30.625
0.20805243,-0.57924175,-2.1810784,-1.3132288,-0.060682446,0.072190024,-0.13428117,-0.39928713,-0.36682093,0.06003312,-3.0762434,0.6240585,-0.00016752307,-0.10102081,0.015777027,0.0017446415,0.017597292,0.0034509962,-0.00808314,0.49383646,-1.3669996,1.8853883,-2.0859025,-1.5727199,2.4686115,-0.10712007,0.1451254,-0.1882522,0.048296228,-0.017607475,-0.09888897,-0.2873042,0.7086837,-9.80665,0.83589023,47.72002,-1.1234903,-2.4246993,-3.357445,-0.19323307,-0.2951259,-0.3695366,26.25,27.3125,26.1875,29.0625,30.1875,30.625
0.21005237,-0.96186304,-1.9148576,-1.2989213,-0.04879059,0.06272956,-0.13059027,-0.39950642,-0.36678156,0.060018063,-3.0761933,0.6240277,-0.00012696536,-0.101025686,0.016435027,0.0008295396,0.018989466,0.0024222794,-0.009248523,0.4936089,-1.366663,1.8850068,-2.0858424,-1.57278,2.4683714,-0.107704975,0.14633632,-0.1875919,0.047984708,-0.018346999,-0.09830594,-0.34476504,0.63206923,-9.576807,0.84484416,47.685097,-1.0884528,-2.3253522,-3.448411,-0.1700761,-0.310319,-0.40180284,26.25,27.3125,26.1875,29.0625,30.1875,30.625
0.21205223,-0.75441736,-1.3899963,-1.1159779,-0.047163535,0.059829026,-0.12832417,-0.39971018,-0.36677003,0.06004297,-3.0762155,0.62403196,-8.680009e-05,-0.10129095,0.016567344,0.0005711736,0.018950975,0.0020413855,-0.010427673,0.49340507,-1.3663981,1.884612,-2.085747,-1.57278,2.4681675,-0.108238526,0.14706787,-0.18788622,0.04786166,-0.018130496,-0.09766152,-0.28730422,0.49799395,-9.595961,0.88960326,47.668976,-1.1503623,-2.5027034,-3.5231113,-0.14568612,-0.30825174,-0.47300896,26.25,27.3125,26.1875,29.0625,30.1875,30.625
0.21405223,-0.8499912,-1.6188241,-0.7456368,-0.033903673,0.057414707,-0.1254512,-0.39989972,-0.3667437,0.0600394,-3.0761964,0.62404585,-0.000120253346,-0.102468096,0.016334124,-4.7939498e-06,0.019055635,0.0011840785,-0.009536041,0.49318922,-1.3661088,1.8842524,-2.0856507,-1.5727795,2.467963,-0.1090411,0.15048513,-0.19075945,0.048114024,-0.017829675,-0.09935474,-0.28730422,0.36391866,-9.5385,0.8940802,47.682407,-1.1598632,-2.5274425,-3.5770154,-0.11193369,-0.3342412,-0.50454557,26.25,27.3125,26.1875,29.0625,30.1875,30.625
0.21605223,-0.9660589,-1.1983672,-0.5279774,-0.01488376,0.05358444,-0.120395325,-0.4001544,-0.36673427,0.06006526,-3.076209,0.624104,4.1096366e-05,-0.10365612,0.017093668,0.00039984044,0.019595778,0.0021012053,-0.00783481,0.49297303,-1.3657846,1.883798,-2.085615,-1.5728282,2.4677818,-0.11074992,0.15067038,-0.19206937,0.048674073,-0.018739264,-0.1027632,-0.22984336,0.13407528,-9.308657,0.7732232,47.677036,-1.1144862,-2.1866086,-3.5368736,-0.084503345,-0.3390658,-0.50567806,26.25,27.3125,26.1875,29.0625,30.1875,30.625
0.21805197,-0.32679802,0.1123906,-0.32095334,0.012111846,0.053008147,-0.13540784,-0.40037382,-0.3666887,0.060080405,-3.076193,0.6241139,0.00010186161,-0.10517743,0.017492468,-0.00052892964,0.020341832,0.00038710664,-0.0013242455,0.49272093,-1.365519,1.883427,-2.085531,-1.5728644,2.467538,-0.1128061,0.15477753,-0.19507247,0.049406055,-0.018604774,-0.11132916,-0.24899697,-0.019153614,-9.346964,0.86945957,47.65643,-1.0898421,-2.2563841,-3.4983993,-0.06880876,-0.34712273,-0.4850238,26.25,27.3125,26.1875,29.0625,30.1875,30.625
0.22005211,-0.43333983,0.7912022,-0.21653612,0.05257093,0.034693975,-0.13206029,-0.4005935,-0.3666809,0.060084134,-3.0762107,0.6240962,0.0001543824,-0.10728451,0.01745351,0.0011000806,0.019012148,0.00318119,0.002627683,0.49251685,-1.3651944,1.8830193,-2.0854828,-1.5728763,2.467321,-0.11447348,0.15456004,-0.19873534,0.050179258,-0.018767826,-0.11694745,-0.19153614,-0.15322891,-9.11712,0.90527004,47.672558,-1.06628,-2.3507123,-3.4967186,-0.018547576,-0.35512638,-0.4193034,26.25,27.3125,26.1875,29.0625,30.1875,30.625
0.22205207,-0.24205022,1.7815256,0.004318559,0.07377259,0.02822578,-0.13784948,-0.4007994,-0.3666541,0.060086552,-3.0761855,0.6240447,0.00014574775,-0.10788705,0.017575808,0.00073488895,0.019887542,0.0026063682,0.012862479,0.49230117,-1.3648819,1.8826126,-2.0853627,-1.5729007,2.4670765,-0.11483384,0.15645403,-0.20035382,0.050796263,-0.019291896,-0.12753975,-0.28730422,-0.24899697,-8.925584,0.8493211,47.67614,-1.0339782,-2.3896887,-3.4682775,0.011021388,-0.3818962,-0.3247964,26.25,27.3125,26.1875,29.0625,30.1875,30.625
0.2240521,-0.1849329,1.7880076,0.20946997,0.093667045,0.028077817,-0.13490649,-0.4010173,-0.36661282,0.060085185,-3.076162,0.6239618,0.0002151127,-0.11001351,0.018370071,0.0012249665,0.019524986,0.0025762096,0.0140807135,0.49207237,-1.3645806,1.8822416,-2.085302,-1.5729603,2.4667993,-0.118206546,0.15803526,-0.20378238,0.052475635,-0.018969791,-0.13213061,-0.36391866,-0.24899697,-8.887277,0.8560339,47.711964,-0.9723166,-2.323608,-3.3156495,0.03537473,-0.41091385,-0.25861788,26.25,27.3125,26.1875,29.0625,30.1875,30.625
0.22605227,0.3513548,2.279346,0.20741606,0.077140585,0.05003726,-0.14647338,-0.4012293,-0.36655772,0.060075734,-3.076075,0.6239192,0.00021326357,-0.1100571,0.017134892,0.0034288499,0.019006968,0.005245403,0.020691048,0.49183384,-1.3642575,1.8818463,-2.0851696,-1.5730327,2.4665456,-0.11560781,0.15594143,-0.20691666,0.055086203,-0.019791022,-0.13613793,-0.38307226,-0.3256114,-8.772355,0.8090337,47.690468,-1.099041,-2.0179017,-3.2460294,0.043051396,-0.399635,-0.17360039,26.25,27.3125,26.1875,29.0625,30.1875,30.625
0.22805202,-0.5355285,1.4499032,0.07369552,0.06931812,0.051978968,-0.13709873,-0.40143615,-0.3665161,0.06009649,-3.0760443,0.62385684,0.00019035646,-0.11116763,0.019100517,0.0028841395,0.021511445,0.0033807082,0.017166246,0.491593,-1.3639807,1.8814272,-2.0849893,-1.573057,2.46627,-0.11900267,0.15739681,-0.20801118,0.057548758,-0.021121332,-0.13600256,-0.4213795,-0.28730422,-8.925584,0.8537928,47.65643,-1.0407801,-2.0528855,-3.2259538,0.053423285,-0.41160017,-0.15897658,26.25,27.3125,26.1875,29.0625,30.1875,30.625
0.2300521,-1.0009836,0.6472765,-0.059804074,0.04525727,0.061569553,-0.13205224,-0.40167758,-0.3664917,0.06012994,-3.0760639,0.6238221,0.0002396957,-0.111103736,0.018540328,0.0033315883,0.022732548,0.002558108,0.014655917,0.4913423,-1.3636799,1.8809608,-2.0848563,-1.573069,2.4659953,-0.11751394,0.15850645,-0.21114844,0.060882974,-0.021799361,-0.13200097,-0.63206923,-0.19153613,-9.021352,0.79560274,47.66539,-1.128674,-1.9359283,-3.2906146,0.037652478,-0.44189158,-0.16494274,26.25,27.3125,26.1875,29.0625,30.1875,30.625
0.23205218,-1.0669136,-0.042633634,-0.1604501,0.018777387,0.09265566,-0.13806382,-0.40187946,-0.36644167,0.060094282,-3.0759535,0.6237819,0.00016508992,-0.111443624,0.01996365,0.0026233485,0.025409093,-0.0010627229,0.008490283,0.49111405,-1.3633069,1.880565,-2.0847232,-1.573129,2.4657564,-0.11972758,0.1605248,-0.21296853,0.065139085,-0.02245514,-0.12804383,-0.8236054,-0.095768064,-9.212888,0.8717007,47.703903,-1.1245563,-2.0019288,-3.2060082,-0.003872777,-0.4225579,-0.22344017,26.25,27.3125,26.1875,29.0625,30.1875,30.625
0.234052,-1.2850164,-0.52059716,-0.41536012,0.00939041,0.09524205,-0.13588281,-0.4020971,-0.36638585,0.060100287,-3.0758605,0.6238037,0.0001468857,-0.11125407,0.02086344,0.0018867971,0.028232789,-0.003929849,0.0021833992,0.4908625,-1.362994,1.8801359,-2.084543,-1.5731896,2.4655306,-0.12029151,0.16225065,-0.21415237,0.06846184,-0.023589168,-0.12229521,-0.5363012,0.019153614,-9.346964,0.8224646,47.668976,-1.177001,-2.053793,-3.2298126,-0.026208464,-0.41840386,-0.29090878,26.25,27.3125,26.1875,29.0625,30.1875,30.625
0.23605199,-1.2777745,-0.7484245,-0.7347392,0.0003360855,0.09176819,-0.13548821,-0.40230492,-0.36633542,0.060083568,-3.0757775,0.623788,0.000104183455,-0.11217996,0.022956235,0.0017857811,0.030699497,-0.0061887377,-0.0025910535,0.49062154,-1.3626574,1.8797406,-2.08441,-1.5732383,2.4652908,-0.12386052,0.16282696,-0.21555534,0.07243892,-0.024705056,-0.12108394,-0.57460845,0.05746084,-9.442732,0.8627467,47.694946,-0.9185105,-1.9367292,-3.3341398,-0.06693273,-0.4169476,-0.32853767,26.25,27.3125,26.1875,29.0625,30.1875,30.625
0.2380519,-1.3654531,-1.291715,-0.8951399,-0.0049347314,0.08094166,-0.12674932,-0.4025221,-0.36627948,0.060083974,-3.0756824,0.623786,7.269089e-05,-0.111384496,0.024000846,0.00021908457,0.034324285,-0.010105423,-0.002620288,0.49037042,-1.3623322,1.879309,-2.0842288,-1.5732988,2.465051,-0.12398391,0.16514194,-0.2154223,0.0751446,-0.026065746,-0.12117142,-0.6703765,0.076614454,-9.423578,0.87617236,47.709274,-1.1346172,-2.122863,-3.3555694,-0.12540129,-0.4116652,-0.34585756,26.25,27.3125,26.1875,29.0625,30.1875,30.625
0.24005179,-1.1005008,-1.0061309,-0.77922255,0.003956263,0.066293135,-0.1329439,-0.40276003,-0.36622852,0.060082607,-3.0756376,0.6237769,7.24797e-05,-0.11233621,0.025170572,-0.0012382517,0.03730348,-0.0127459625,-0.004811129,0.49009424,-1.3619943,1.8788799,-2.084109,-1.573335,2.464775,-0.12585317,0.16918315,-0.2173728,0.07678058,-0.027461486,-0.12084298,-0.63206923,0.19153613,-9.461885,0.8247004,47.709274,-0.89748174,-2.201,-3.5115502,-0.14290434,-0.40438008,-0.36358005,26.25,27.3125,26.1875,29.0625,30.1875,30.625
0.24205177,-0.46559212,-0.4366305,-0.9239865,0.0074704746,0.06739631,-0.13443793,-0.4029997,-0.36617982,0.060114592,-3.0755818,0.62380123,0.00015335009,-0.11132621,0.025997361,-0.0025286705,0.040218987,-0.018250948,-0.004460387,0.4898427,-1.3617055,1.8784255,-2.0839517,-1.5734075,2.4645462,-0.12626366,0.17150871,-0.21837105,0.08166506,-0.027442658,-0.121604204,-0.5554548,0.24899697,-9.500193,0.8873621,47.655537,-1.0453398,-2.1767516,-3.4918463,-0.20629618,-0.4010629,-0.38561153,26.25,27.3125,26.1875,29.0625,30.1875,30.625
0.24405178,-0.25538322,-0.4301842,-1.0377094,0.010830683,0.060171273,-0.13297433,-0.40322948,-0.36613357,0.060107153,-3.0755124,0.6238611,7.339074e-05,-0.11169761,0.026407188,-0.0039185258,0.041499663,-0.01992853,-0.0019236756,0.4895671,-1.3613441,1.877971,-2.0837843,-1.5734195,2.464317,-0.12697534,0.17451051,-0.21874201,0.081100844,-0.027811881,-0.124848716,-0.3256114,0.1340753,-9.557653,0.86945957,47.674347,-1.0853384,-2.3248112,-3.543948,-0.20290005,-0.40753695,-0.39258707,26.25,27.3125,26.1875,29.0625,30.1875,30.625
0.24605168,-0.13180386,-0.6725562,-0.9035235,0.0024622183,0.06157427,-0.13430117,-0.40345448,-0.36605462,0.06009697,-3.0753639,0.6238065,9.8816e-05,-0.11256987,0.027078625,-0.0039028837,0.04342257,-0.021161815,0.003576343,0.48931515,-1.3610075,1.8775524,-2.0836155,-1.5735515,2.4640505,-0.12809758,0.17631014,-0.22168025,0.084194146,-0.028963644,-0.13146332,-0.24899697,0.095768064,-9.576807,0.91421866,47.685097,-0.99092114,-2.2482936,-3.6308124,-0.2576048,-0.39606428,-0.34644687,26.25,27.3125,26.1875,29.0625,30.1875,30.625
0.2480526,-0.6261367,-1.0250821,-0.71214235,0.000930439,0.047871064,-0.1311752,-0.40364677,-0.36601505,0.060064115,-3.0752738,0.62372375,-1.262714e-05,-0.11331921,0.02733413,-0.0033097453,0.044595987,-0.020063028,0.012201011,0.48909962,-1.3606353,1.8771452,-2.0834596,-1.5735883,2.4637952,-0.12814775,0.17649707,-0.22359386,0.08547245,-0.03056175,-0.14012809,-0.19153613,0.1340753,-9.442732,0.9679317,47.698532,-1.099412,-2.2737849,-3.6350744,-0.328022,-0.36137956,-0.26346013,26.25,27.3125,26.1875,29.0625,30.1875,30.625
0.25005245,0.3136976,-0.7230008,-0.6432345,-0.015497079,0.061132684,-0.13815163,-0.40392697,-0.36596474,0.06009758,-3.0752664,0.6236967,5.0032442e-05,-0.11552495,0.02742587,-0.0031718614,0.04472645,-0.017665815,0.019387929,0.48878792,-1.3602989,1.8766302,-2.0833046,-1.573625,2.4634678,-0.12938988,0.1788985,-0.22648081,0.08386872,-0.031841118,-0.14855161,-0.05746084,0.19153613,-9.346964,0.8224646,47.661808,-1.0409281,-2.2529464,-3.530477,-0.32968256,-0.34757444,-0.17341618,26.25,27.3125,26.1875,29.0625,30.1875,30.625
0.2520524,0.5452755,-0.4190941,-0.5622292,-0.012147793,0.050653018,-0.14232309,-0.40418017,-0.36590853,0.06009673,-3.0751867,0.6236598,6.309921e-05,-0.11779482,0.026556958,-0.0023888159,0.044199202,-0.014237239,0.021031244,0.48851264,-1.3599265,1.87615,-2.0831497,-1.5736974,2.46318,-0.12915915,0.18132585,-0.23095104,0.08261752,-0.033017788,-0.14995624,0.0,0.19153613,-9.32781,0.86945957,47.674347,-1.1602168,-2.3424,-3.39676,-0.3097514,-0.3444062,-0.10005647,26.25,27.3125,26.1875,29.0625,30.1875,30.625
0.2540523,0.34942827,-0.88468915,-0.72511125,-0.0022821755,0.027125763,-0.13208298,-0.40439454,-0.3658397,0.060085908,-3.0750616,0.6235569,5.344642e-05,-0.119995266,0.026476571,-0.0017530952,0.042997014,-0.010529188,0.019595243,0.48827267,-1.3595903,1.8757309,-2.0829713,-1.5738052,2.4628923,-0.13047811,0.18223827,-0.23290952,0.07980403,-0.03372839,-0.14983241,-0.095768064,0.24899697,-9.289503,0.8851263,47.696735,-1.0611407,-2.3441694,-3.3294687,-0.32949722,-0.29239452,-0.051887304,26.25,27.3125,26.1875,29.0625,30.1875,30.625
0.25605217,0.05899005,-0.99971837,-0.75112283,-0.013427288,0.02150111,-0.120658085,-0.40463316,-0.365812,0.060086302,-3.07505,0.62345946,2.1062066e-05,-0.12240938,0.025552219,-0.000404297,0.039653517,-0.0052842405,0.013734717,0.4880211,-1.3592187,1.8752512,-2.0828288,-1.5738171,2.4625816,-0.13129497,0.18232654,-0.23525861,0.075868264,-0.03324876,-0.1447885,-0.15322891,0.2873042,-9.32781,0.78217715,47.709274,-1.2356948,-2.2052786,-3.312377,-0.28045714,-0.29451165,-0.086724505,26.25,27.3125,26.1875,29.0625,30.1875,30.625
0.2580522,0.15341319,-1.3023522,-0.90977204,-0.02072031,0.03505091,-0.1182031,-0.40489653,-0.36573318,0.060075045,-3.074901,0.62350833,2.481719e-05,-0.12362309,0.024788875,-1.0105001e-05,0.038311902,-0.003368265,0.0077896584,0.4877214,-1.3588226,1.8747605,-2.08265,-1.5739254,2.462332,-0.13117889,0.18365201,-0.2374924,0.07444828,-0.032973047,-0.13872476,-0.038307227,0.3256114,-9.385271,0.8157518,47.703903,-1.1115644,-2.1571658,-3.4434776,-0.28532383,-0.30557093,-0.14864534,26.25,27.3125,26.1875,29.0625,30.1875,30.625
0.26005223,0.1608923,-1.6510036,-0.8477975,-0.027549587,0.04864868,-0.127994,-0.40514207,-0.36568028,0.060091384,-3.0748682,0.6234859,7.000831e-05,-0.12735768,0.026678262,-0.001227076,0.038741127,-0.0011030161,-0.0034203487,0.4874443,-1.3585093,1.8743175,-2.0825198,-1.5739735,2.4620454,-0.13667361,0.1877462,-0.23863186,0.06970147,-0.0344179,-0.13300233,-0.095768064,0.3256114,-9.404425,0.8940802,47.70211,-1.0211177,-2.211699,-3.39785,-0.22020221,-0.26481906,-0.24936242,26.25,27.3125,26.1875,29.0625,30.1875,30.625
0.26205206,-0.26899964,-1.8756094,-0.871556,-0.0449868,0.06170524,-0.12443786,-0.40538096,-0.36562645,0.060078815,-3.0747569,0.623483,6.501479e-05,-0.12778285,0.025657743,-0.00041629391,0.037806526,0.0017658614,-0.0063361116,0.48719355,-1.358126,1.8738502,-2.0823643,-1.5740575,2.4618075,-0.13494255,0.18740739,-0.23979858,0.06823222,-0.034942992,-0.12835057,-0.05746084,0.4213795,-9.519346,0.91198283,47.704796,-1.075487,-2.1294425,-3.4081826,-0.18758555,-0.24644896,-0.30105916,26.25,27.3125,26.1875,29.0625,30.1875,30.625
0.26405197,-0.42278042,-1.5248296,-0.88342744,-0.05039762,0.06810772,-0.12838046,-0.4056373,-0.36557797,0.06006946,-3.074666,0.62346333,6.278084e-05,-0.13028069,0.025755394,0.0020970637,0.035503432,0.005856142,-0.008577487,0.48692936,-1.357719,1.8733467,-2.0822084,-1.5741299,2.461543,-0.13729006,0.18563958,-0.2436556,0.06914555,-0.034839977,-0.12845422,-0.05746084,0.38307226,-9.519346,0.8672237,47.698532,-0.91223687,-2.0334344,-3.4313087,-0.20054376,-0.22179344,-0.3418232,26.25,27.3125,26.1875,29.0625,30.1875,30.625
0.2660518,-0.6734274,-1.9758523,-0.9017334,-0.028774362,0.06379149,-0.12446164,-0.40590915,-0.36551687,0.06009783,-3.0746202,0.6235319,0.00017651223,-0.13110495,0.024896996,0.0014568543,0.033872414,0.0077458164,-0.012650695,0.48663005,-1.3574064,1.8728799,-2.082091,-1.5742015,2.4612927,-0.13683267,0.18761809,-0.24363784,0.06471051,-0.034278836,-0.1239268,-0.19153613,0.30645782,-9.519346,0.8873621,47.703007,-0.9851259,-2.024731,-3.4381773,-0.13747159,-0.203031,-0.44021264,26.25,27.3125,26.1875,29.0625,30.1875,30.625
0.26805177,-0.29400736,-1.048919,-0.89274544,-0.025868876,0.06897578,-0.12977734,-0.40613502,-0.3654695,0.060074132,-3.074504,0.6234308,0.0001229036,-0.13167529,0.025671873,0.0009254959,0.034305245,0.006179084,-0.015189581,0.48640174,-1.3569984,1.8724021,-2.0819104,-1.5742849,2.4610167,-0.13875194,0.18895476,-0.24431281,0.06561921,-0.03394251,-0.12330465,-0.34476504,0.30645782,-9.481039,0.83589023,47.655537,-1.013386,-1.9948478,-3.5285244,-0.08333439,-0.18774754,-0.48629838,26.25,27.3125,26.1875,29.0625,30.1875,30.625
0.2700526,-0.20545106,-0.52263105,-1.0239425,-0.007088531,0.060143534,-0.12881005,-0.40643233,-0.36541638,0.06007442,-3.0744727,0.6235132,0.00021161904,-0.13068113,0.024818588,-0.0007484504,0.035850387,0.0031336453,-0.007882562,0.48607963,-1.356601,1.8719095,-2.0818508,-1.5743335,2.4607503,-0.13636608,0.19263041,-0.2451195,0.066130355,-0.033899173,-0.12822658,-0.24899697,0.17238252,-9.634268,0.86945957,47.693153,-1.2773515,-2.2368455,-3.621495,-0.07809541,-0.18364282,-0.50145036,26.25,27.3125,26.1875,29.0625,30.1875,30.625
0.2720525,-0.075337194,-0.36116964,-1.0538789,0.006157298,0.051417716,-0.1290072,-0.40669706,-0.36538112,0.060086768,-3.0744176,0.6235537,0.00023946687,-0.1314908,0.024696395,-0.0015977648,0.03664888,0.0013209882,0.0007770456,0.48581594,-1.3562164,1.8713831,-2.0816944,-1.5743817,2.4605193,-0.13684702,0.19632736,-0.24794804,0.06718925,-0.033793587,-0.13736582,-0.1340753,0.17238252,-9.691729,0.9410752,47.688675,-1.1922293,-2.2165985,-3.5868378,-0.056732237,-0.18018499,-0.44293356,26.25,27.3125,26.1875,29.0625,30.1875,30.625
0.2740526,-0.2721929,-0.39332226,-1.0506108,0.006882404,0.046228368,-0.1321991,-0.40698034,-0.36535996,0.06010706,-3.074429,0.623473,0.00031307607,-0.13256909,0.025503166,-0.0017901158,0.03688325,0.0003704717,0.00857639,0.48555163,-1.3558204,1.8708328,-2.0815742,-1.574417,2.4602034,-0.13916509,0.19768783,-0.24945576,0.06823515,-0.033585444,-0.14748484,-0.13407528,0.076614454,-9.557653,0.8717007,47.653748,-1.2071856,-2.2823315,-3.6375198,-0.036201,-0.13364476,-0.35587257,26.25,27.3125,26.1875,29.0625,30.1875,30.625
0.27605256,-0.030296484,-0.10076733,-0.9612578,-0.006490314,0.050854865,-0.13344613,-0.40724126,-0.36527422,0.06009766,-3.0743246,0.62344617,0.0004004493,-0.13306804,0.026046956,-0.0026302568,0.037557192,-0.0019974406,0.015892077,0.48525175,-1.3554718,1.8704127,-2.0814784,-1.5745372,2.4599006,-0.1407032,0.20007157,-0.25076902,0.06951079,-0.033110153,-0.15633938,-0.095768064,0.19153613,-9.595961,0.8605109,47.704796,-1.1330937,-2.2500978,-3.4598453,-0.03263901,-0.142764,-0.2513088,26.25,27.3125,26.1875,29.0625,30.1875,30.625
0.2780525,-0.0063304976,-0.59516925,-0.8042216,-0.008503693,0.052250173,-0.12586682,-0.40750435,-0.36522147,0.060088675,-3.0742364,0.6233676,0.00037929168,-0.13504842,0.026530875,-0.0024997832,0.03794011,-0.0029629741,0.017279524,0.48497558,-1.355051,1.8698853,-2.0812976,-1.5746092,2.459587,-0.14320506,0.20308349,-0.2553485,0.0720757,-0.033030782,-0.1602249,-0.15322891,0.076614454,-9.557653,0.83589023,47.681515,-1.0502901,-2.4681318,-3.5158994,-0.020207472,-0.13570783,-0.18154207,26.25,27.3125,26.1875,29.0625,30.1875,30.625
0.2800524,0.23274057,-0.43418446,-0.57089514,-0.024048347,0.048779793,-0.13173385,-0.40777108,-0.36519253,0.060104,-3.0742123,0.6232465,0.00046089676,-0.13490045,0.027295956,-0.0023478144,0.03871144,-0.0048727267,0.01667425,0.48473567,-1.3546677,1.8693584,-2.081165,-1.5746807,2.459275,-0.14437461,0.20272452,-0.25601488,0.07512819,-0.032822356,-0.1607906,-0.2681506,0.076614454,-9.461885,0.9030289,47.69763,-1.0001644,-2.322309,-3.52809,-0.031903803,-0.12044954,-0.13190703,26.25,27.3125,26.1875,29.0625,30.1875,30.625
0.28205246,0.58409965,-0.23081276,-0.25013933,-0.018723013,0.055876587,-0.13526225,-0.40805313,-0.36514845,0.060112633,-3.0741837,0.62324226,0.00049122144,-0.13518186,0.02784174,-0.0021592523,0.039593574,-0.0073659215,0.011915779,0.48443583,-1.3542715,1.868831,-2.0810316,-1.5747169,2.4589765,-0.1456558,0.20366782,-0.25861245,0.0793967,-0.03243475,-0.15731421,-0.4213795,0.15322891,-9.308657,0.95002913,47.72002,-1.074838,-2.4610374,-3.6173096,-0.052903324,-0.115686566,-0.17109504,26.25,27.3125,26.1875,29.0625,30.1875,30.625
0.2840524,-0.13720202,0.107271,-0.42672512,0.007944487,0.03782664,-0.12933713,-0.4083374,-0.36508983,0.060141537,-3.074115,0.6232691,0.0005161225,-0.1358453,0.027688144,-0.0011955862,0.03910199,-0.008560125,0.0032157467,0.4841243,-1.3539,1.8682684,-2.0808146,-1.5747765,2.458691,-0.14648375,0.20421182,-0.262454,0.083531335,-0.031431854,-0.14944452,-0.4213795,0.095768064,-9.346964,0.8873621,47.690468,-1.0423111,-2.2909727,-3.484637,-0.07374792,-0.106672764,-0.26109853,26.25,27.3125,26.1875,29.0625,30.1875,30.625
0.28605247,-0.05780691,-0.010184525,-0.40366414,0.02491802,0.043785866,-0.13276505,-0.40860194,-0.36503047,0.060112983,-3.074016,0.6232114,0.00047989583,-0.1359982,0.028318241,-0.0013191907,0.039351188,-0.012568169,-0.0013732422,0.48383605,-1.353456,1.8677648,-2.0806696,-1.5748476,2.4583797,-0.14856029,0.2055738,-0.26498446,0.08834865,-0.029795004,-0.14693598,-0.30645782,0.019153614,-9.308656,0.84708,47.71017,-1.0222954,-2.2528992,-3.5011306,-0.12818497,-0.13109508,-0.31898052,26.25,27.3125,26.1875,29.0625,30.1875,30.625
0.2880524,0.04561346,0.29626334,-0.06875926,0.021999942,0.055495013,-0.13681936,-0.4088732,-0.36496535,0.06011879,-3.0739193,0.62322664,0.0004482999,-0.13471395,0.026983535,-0.0010866976,0.03921583,-0.015167937,0.0006389503,0.4835259,-1.35306,1.867225,-2.0804532,-1.5749077,2.458092,-0.1459068,0.20627168,-0.2672876,0.092172824,-0.028480444,-0.14629793,-0.40222588,0.038307227,-9.193734,0.86945957,47.70032,-1.0972877,-2.1460443,-3.4736633,-0.17817111,-0.1347687,-0.33456844,26.25,27.3125,26.1875,29.0625,30.1875,30.625
0.2900524,-0.15872385,0.5074779,-0.12682849,0.0271749,0.05110508,-0.13375235,-0.4091451,-0.36492574,0.060122855,-3.073871,0.6231956,0.0004591173,-0.13396695,0.027718486,-0.0028372167,0.041080408,-0.020799553,0.00040931205,0.48325023,-1.3526515,1.8666872,-2.0802963,-1.5749553,2.4578035,-0.14695193,0.20934153,-0.26784143,0.09548848,-0.027523391,-0.14711665,-0.40222588,-0.019153614,-9.155427,0.86498255,47.661808,-1.0929972,-2.0874622,-3.466458,-0.22890943,-0.12870613,-0.35598594,26.25,27.3125,26.1875,29.0625,30.1875,30.625
0.29205227,-0.30348974,0.1584714,-0.123421595,0.02363314,0.057221875,-0.13619049,-0.40939462,-0.36487126,0.060097612,-3.0737662,0.623154,0.0003305031,-0.1349588,0.027723592,-0.0021615827,0.040588394,-0.020540953,-0.0012033703,0.4829624,-1.3522077,1.8661598,-2.0800803,-1.5749911,2.4575036,-0.14790353,0.20989673,-0.27049485,0.097118095,-0.027237935,-0.14645256,-0.3256114,-0.019153614,-9.251195,0.83365434,47.682407,-1.1316876,-2.0428615,-3.4928315,-0.2645985,-0.14471519,-0.3959236,26.25,27.3125,26.1875,29.0625,30.1875,30.625
0.29405212,-0.686508,-0.106368,0.05067421,0.002207766,0.06020736,-0.13289063,-0.40968367,-0.36480537,0.060108867,-3.0736783,0.62311196,0.00035231267,-0.1368209,0.0277238,-0.0010686568,0.03939971,-0.018575167,0.004002253,0.48265052,-1.3517998,1.8655957,-2.0798762,-1.575075,2.4571772,-0.14947851,0.21036115,-0.2737031,0.09751891,-0.027143927,-0.15323147,-0.2681506,-0.038307227,-9.136273,0.9298854,47.65464,-1.1799796,-2.0074928,-3.4760962,-0.28573966,-0.15286401,-0.35359016,26.25,27.3125,26.1875,29.0625,30.1875,30.625
0.29605198,-0.6045317,-0.40106982,0.08078177,0.009033455,0.06556136,-0.13735509,-0.40993592,-0.3647581,0.060091965,-3.0735831,0.6230464,0.00029154148,-0.13746156,0.02713948,-0.0009835328,0.038692497,-0.018226366,0.013028567,0.48238724,-1.3513676,1.8650688,-2.0796854,-1.5751346,2.4568856,-0.14921704,0.21176586,-0.27564073,0.09735891,-0.026736837,-0.16199516,-0.28730422,-0.05746084,-9.174581,0.95002913,47.723602,-1.237307,-2.0772877,-3.466951,-0.31090063,-0.15845846,-0.26458675,26.25,27.3125,26.1875,29.0625,30.1875,30.625
0.29805228,-0.26470903,-0.12944399,-0.09708056,0.012480964,0.066509396,-0.13857177,-0.4102482,-0.3646928,0.060101002,-3.0735474,0.623053,0.00031024133,-0.14057024,0.02642814,-0.0006725125,0.03582566,-0.013218366,0.020614292,0.4820272,-1.3509474,1.8645056,-2.079532,-1.5751704,2.4565346,-0.15071918,0.2142652,-0.27814892,0.09154571,-0.026581708,-0.17108233,-0.24899697,0.05746084,-9.097966,0.8560339,47.677036,-1.0869195,-2.133154,-3.4947681,-0.27069035,-0.159582,-0.15698302,26.25,27.3125,26.1875,29.0625,30.1875,30.625
0.30005217,-0.04696417,-0.25455123,-0.19204897,0.010635609,0.06614293,-0.14128175,-0.41051015,-0.36462793,0.06009234,-3.073436,0.6230278,0.00023535409,-0.14203039,0.027298119,-0.00041653603,0.034936126,-0.0116996,0.021612894,0.48172686,-1.3505278,1.8639668,-2.079305,-1.5752305,2.4562333,-0.15335457,0.21412629,-0.27830535,0.09004872,-0.026540386,-0.17471391,-0.21068975,0.076614454,-9.097966,0.90750587,47.68062,-0.9682015,-1.8719101,-3.5632477,-0.26157504,-0.14952426,-0.069552846,26.25,27.3125,26.1875,29.0625,30.1875,30.625
0.30205205,-0.2775039,-0.7865421,-0.16084196,0.002929557,0.056761123,-0.13397166,-0.4107891,-0.36458457,0.060092375,-3.0733979,0.6228836,0.0002223597,-0.14419349,0.025655273,0.0005440413,0.031775966,-0.0055867876,0.02042703,0.4814404,-1.3500961,1.8634046,-2.0791276,-1.5752786,2.455862,-0.15236576,0.21505412,-0.2804153,0.08434399,-0.026596291,-0.17253684,-0.26815057,0.19153613,-9.136273,0.9321212,47.675243,-1.2271749,-1.9411445,-3.5350804,-0.20607552,-0.15919848,-0.056477427,26.25,27.3125,26.1875,29.0625,30.1875,30.625
0.3040519,-0.72660226,-1.2117245,-0.12541384,-0.01890336,0.04519786,-0.12421192,-0.41108975,-0.3645228,0.060102407,-3.073358,0.6228588,0.00025219933,-0.14633459,0.024497313,0.0013255123,0.029917507,-0.0014473334,0.014184082,0.4811047,-1.3496878,1.8628529,-2.0789726,-1.5753268,2.4555163,-0.15202007,0.21687,-0.28380892,0.081406526,-0.02686427,-0.16594511,-0.38307226,0.24899697,-9.11712,0.89631605,47.704796,-1.22001,-1.9114401,-3.5175161,-0.13408521,-0.16286463,-0.10647868,26.25,27.3125,26.1875,29.0625,30.1875,30.625
0.30605185,-0.42708394,-1.3477647,-0.47261795,-0.025695456,0.048461813,-0.1323229,-0.41135478,-0.36447206,0.06007403,-3.0732307,0.6227775,0.0001855148,-0.14727898,0.024358787,2.9918237e-05,0.030542664,-0.002071305,0.0070058443,0.48084056,-1.3492066,1.8622893,-2.0787694,-1.5754112,2.4552183,-0.152341,0.22079709,-0.28538,0.07990513,-0.027136128,-0.15908219,-0.28730422,0.30645782,-9.136273,0.784413,47.72271,-1.3012798,-2.0778766,-3.427679,-0.103226,-0.15147778,-0.17658612,26.25,27.3125,26.1875,29.0625,30.1875,30.625
0.3080517,-0.49079844,-1.7848625,-0.7601155,-0.03296919,0.045462217,-0.13109306,-0.41166273,-0.36442348,0.0601018,-3.073199,0.6227348,0.00025352638,-0.14857864,0.02485561,0.0001758283,0.030483736,-0.0010431263,0.0013262889,0.48052812,-1.3487985,1.8616918,-2.0785902,-1.5754713,2.4548836,-0.15391453,0.22166063,-0.28673583,0.07946177,-0.027551727,-0.15497386,-0.095768064,0.36391866,-9.346964,0.947788,47.683304,-1.32429,-2.1078022,-3.568338,-0.06720306,-0.15309215,-0.27023265,26.25,27.3125,26.1875,29.0625,30.1875,30.625
0.3100519,-0.36385494,-1.8276823,-0.5354313,-0.057984732,0.03886991,-0.13172583,-0.41196758,-0.36434957,0.06007777,-3.0730705,0.6228084,0.00024305572,-0.15001121,0.025745125,-0.0012088994,0.033050817,-0.0044225673,-0.00694508,0.48019138,-1.3483173,1.8611282,-2.0784338,-1.5755557,2.4546099,-0.15607549,0.2270186,-0.29083663,0.08239781,-0.028263496,-0.14885582,0.019153614,0.4213795,-9.404425,0.9164598,47.690468,-1.2351967,-2.2160976,-3.448506,-0.085766084,-0.15046573,-0.34792364,26.25,27.3125,26.1875,29.0625,30.1875,30.625
0.31205183,0.22198716,-1.6566784,-0.6261441,-0.06336792,0.02876046,-0.1452765,-0.41227445,-0.36430034,0.060059525,-3.073004,0.6228337,0.0002708736,-0.15208665,0.025263866,-0.00045596846,0.031703085,-0.0012968933,-0.010395238,0.4798793,-1.3478371,1.8605636,-2.0783265,-1.5756158,2.4543226,-0.15679242,0.2284055,-0.29395398,0.08073034,-0.028521076,-0.1461195,-0.15322891,0.51714754,-9.442732,0.8672237,47.657326,-1.2610704,-2.2529216,-3.278049,-0.037150238,-0.14083031,-0.43980104,26.25,27.3125,26.1875,29.0625,30.1875,30.625
0.31405202,-0.28156185,-2.4321265,-0.5985451,-0.04580258,0.020574905,-0.13430077,-0.4125238,-0.3642295,0.060023755,-3.0728724,0.6228069,9.395532e-05,-0.15210211,0.025836468,-0.00093093916,0.03251418,-0.0040335786,-0.010742684,0.4795665,-1.3473811,1.8600382,-2.0780861,-1.575651,2.4540105,-0.15795271,0.22975655,-0.2952108,0.0834188,-0.028007489,-0.14693004,-0.28730422,0.4405331,-9.385271,0.9701675,47.650166,-1.168628,-2.2805972,-3.4185603,-0.03192654,-0.15553683,-0.48326427,26.25,27.3125,26.1875,29.0625,30.1875,30.625
0.31605217,0.08193281,-1.3601142,-0.8137734,-0.049011145,0.030244598,-0.14718835,-0.41285887,-0.36420137,0.060069595,-3.0728824,0.6227858,0.0002491369,-0.15295984,0.027254704,-0.0017922273,0.033315092,-0.0057265526,-0.0067121796,0.4792655,-1.3469609,1.859392,-2.0779421,-1.5757111,2.4536953,-0.16093713,0.23127441,-0.2952598,0.083769776,-0.027956946,-0.1539476,-0.11492168,0.45968673,-9.500193,0.8873621,47.677036,-1.0630069,-2.320393,-3.57653,-0.027377088,-0.16168019,-0.47463095,26.25,27.3125,26.1875,29.0625,30.1875,30.625
0.3180521,-0.33303314,-1.7425022,-0.57133836,-0.04780189,0.037709635,-0.14425144,-0.41314653,-0.3641389,0.060051978,-3.0727916,0.62281746,0.00020475822,-0.15292971,0.027151078,-0.0015584825,0.03379592,-0.005580128,0.004074384,0.478942,-1.3465053,1.8588418,-2.0777748,-1.5757598,2.4534037,-0.16027555,0.23128797,-0.2960877,0.08461114,-0.028507948,-0.16406785,-0.17238253,0.5363012,-9.615114,0.9410752,47.68599,-1.1620748,-2.2190838,-3.7912269,0.005230454,-0.15801919,-0.373747,26.25,27.3125,26.1875,29.0625,30.1875,30.625
0.320052,-0.5577338,-1.7149705,-0.26710314,-0.055463836,0.05703451,-0.14461869,-0.41348237,-0.36410576,0.06003731,-3.0727437,0.62280136,0.00018978224,-0.15369754,0.02756609,-0.001186855,0.033170305,-0.007361957,0.01331446,0.47861746,-1.3459535,1.8581699,-2.0776174,-1.575795,2.4530756,-0.16228181,0.23206231,-0.29866907,0.08763564,-0.027187262,-0.1753199,-0.34476504,0.47884035,-9.385271,0.8806493,47.709274,-1.1801933,-2.2750409,-3.7797847,-0.0064665508,-0.17610681,-0.24220766,26.25,27.3125,26.1875,29.0625,30.1875,30.625
0.3220525,-0.63166124,-0.9736503,-0.22364816,-0.036865026,0.05191461,-0.1508051,-0.41376773,-0.36405173,0.060043402,-3.0726914,0.62263334,0.00016860731,-0.15411657,0.027696477,-0.0008138229,0.033321474,-0.009424976,0.01811117,0.47831708,-1.3455218,1.8575834,-2.0774004,-1.5758547,2.4526775,-0.16320533,0.23313539,-0.30178,0.09152441,-0.026409682,-0.181042,-0.3256114,0.38307226,-9.346964,0.89631605,47.682407,-1.1323996,-2.1928895,-3.6507473,-0.014565147,-0.20136803,-0.15164633,26.25,27.3125,26.1875,29.0625,30.1875,30.625
0.32405236,-0.19039865,0.319505,-0.1419632,-0.016587172,0.054006647,-0.15340799,-0.41410273,-0.36400127,0.060031664,-3.07265,0.6227233,0.000118522286,-0.15530668,0.02868108,-0.00022033292,0.03397505,-0.011524926,0.015276827,0.47794387,-1.3450058,1.8569478,-2.0772436,-1.5758547,2.452366,-0.1659354,0.23422971,-0.30567634,0.096481614,-0.026036263,-0.18093774,-0.30645782,0.19153613,-9.289502,0.9254084,47.66271,-0.97532415,-2.1092317,-3.667808,-0.046033934,-0.22381979,-0.13892533,26.25,27.3125,26.1875,29.0625,30.1875,30.625
0.3260523,0.27238944,0.6438101,-0.512125,0.027613232,0.055433422,-0.15357263,-0.41440606,-0.36392877,0.060011357,-3.0725465,0.62262666,0.00011747677,-0.15458462,0.030174546,-0.001361156,0.036870327,-0.01726837,0.008131732,0.47761986,-1.3445257,1.8563727,-2.0770738,-1.5759505,2.4519956,-0.16770044,0.23602125,-0.30660924,0.102056935,-0.025956333,-0.17555599,-0.47884035,0.11492168,-9.270349,0.8918391,47.684196,-1.163093,-2.0708349,-3.5206566,-0.08048761,-0.24009243,-0.17219363,26.25,27.3125,26.1875,29.0,30.1875,30.625
0.3280522,-0.3474789,0.6551869,-0.39650676,0.050902672,0.04120422,-0.13563608,-0.41471407,-0.3638909,0.060014453,-3.0725012,0.62254286,0.00011344829,-0.15511514,0.029072708,-0.0007192413,0.037763067,-0.018527234,0.0036529673,0.4773205,-1.3440444,1.8557376,-2.0768812,-1.5759987,2.4516501,-0.166073,0.2387384,-0.31253344,0.106809296,-0.026164133,-0.16944551,-0.63206923,-0.076614454,-9.251195,0.90750587,47.694946,-1.1270406,-2.3300514,-3.5047154,-0.16526777,-0.26676401,-0.24949428,26.25,27.3125,26.1875,29.0,30.1875,30.625
0.33005217,-0.4372088,1.3730277,-0.22091207,0.05526367,0.051658764,-0.15723798,-0.4150346,-0.3638398,0.06002407,-3.0724604,0.6225554,3.4108216e-05,-0.15611532,0.02986057,-0.00051893527,0.039211664,-0.020327445,-9.667557e-05,0.47695965,-1.3435646,1.8550781,-2.0766404,-1.5759987,2.4513028,-0.16780308,0.2404952,-0.31614554,0.11093238,-0.026637014,-0.16742054,-0.5363012,-0.22984336,-9.232041,0.9298854,47.703007,-1.0335183,-2.2932937,-3.313428,-0.2179096,-0.2806525,-0.31407017,26.25,27.3125,26.1875,29.0,30.1875,30.625
0.33205223,0.22187158,1.874236,-0.3884726,0.05757262,0.06663345,-0.1631524,-0.41535383,-0.36377645,0.060013335,-3.0723603,0.6225359,9.7619895e-06,-0.15589291,0.030560633,-0.0017953825,0.041374005,-0.024423609,-0.0055326815,0.47662348,-1.3430601,1.854443,-2.0764353,-1.5760707,2.4509678,-0.16860251,0.24341708,-0.31762233,0.11412328,-0.026679713,-0.1627811,-0.38307226,-0.3256114,-9.308657,0.95897776,47.660015,-1.1131244,-2.436161,-3.327774,-0.25797957,-0.2898301,-0.37392044,26.25,27.3125,26.1875,29.0,30.1875,30.625
0.33405223,-0.17771399,1.286148,-0.27321902,0.056046963,0.06517685,-0.15293017,-0.4156364,-0.36372006,0.05997067,-3.0722003,0.62251955,-0.00015629477,-0.15638706,0.030443618,-0.0020945,0.04292361,-0.024297547,-0.0033048422,0.47632366,-1.3425081,1.8538092,-2.076172,-1.5761312,2.450679,-0.16780846,0.24542849,-0.3196328,0.11470131,-0.028165793,-0.16420075,-0.4213795,-0.34476504,-9.32781,0.9186956,47.70659,-1.1625874,-2.3636134,-3.337783,-0.29903594,-0.2993022,-0.39765546,26.25,27.3125,26.1875,29.0,30.1875,30.625
0.33605215,-0.7162544,0.58195406,-0.12463466,0.039259855,0.071097694,-0.14979877,-0.41598117,-0.3636498,0.059994776,-3.07215,0.622543,-0.00012941787,-0.15589236,0.029750282,-0.0027072676,0.04229317,-0.023800803,0.0033686347,0.47594026,-1.3420523,1.8531517,-2.0759575,-1.5761794,2.4503171,-0.16625279,0.24596375,-0.31843075,0.11218674,-0.027876968,-0.16932055,-0.5554548,-0.24899697,-9.346964,0.87617236,47.71465,-1.2835312,-2.4552155,-3.5217533,-0.31527895,-0.30518782,-0.3936273,26.25,27.3125,26.1875,29.0,30.1875,30.625
0.33805215,-0.8513596,0.23368216,-0.518164,0.013113245,0.093464956,-0.15479963,-0.41628775,-0.36358958,0.059988763,-3.0720446,0.6224,-0.00018260062,-0.15688463,0.029575791,-0.0037364024,0.041828595,-0.022903841,0.012174819,0.47562823,-1.3415484,1.8524932,-2.0756958,-1.5762633,2.44993,-0.1666326,0.24857269,-0.3185925,0.10865685,-0.027955962,-0.17850316,-0.24899697,-0.22984336,-9.461885,0.9231726,47.68062,-1.3774314,-2.2836843,-3.5671573,-0.2809633,-0.31709182,-0.30714107,26.25,27.3125,26.1875,29.0,30.1875,30.625
0.34005198,-0.93916315,0.01720099,-0.37459698,-0.018642144,0.103919834,-0.15594342,-0.41658026,-0.36354673,0.059972502,-3.0719728,0.62224424,-0.00029611247,-0.16049637,0.02805241,-0.001756434,0.03828553,-0.014971815,0.021366647,0.47532836,-1.3410321,1.8518451,-2.075446,-1.5762995,2.4495425,-0.16672471,0.2495306,-0.32324278,0.10361163,-0.02853404,-0.18777911,-0.15322891,-0.2873042,-9.519346,0.9186956,47.67614,-1.5489857,-2.4823866,-3.569024,-0.24853322,-0.34084848,-0.19112661,26.25,27.3125,26.1875,29.0,30.1875,30.625
0.34205195,-1.1963052,-1.1408044,-0.1859877,-0.021995226,0.084869936,-0.14811367,-0.41696182,-0.36346933,0.06001546,-3.071909,0.6223438,-0.00014416304,-0.16429043,0.027551495,-0.000803404,0.03643108,-0.0071457135,0.024300648,0.47493204,-1.3405758,1.8511494,-2.075257,-1.5763963,2.449217,-0.16777733,0.25134084,-0.32621303,0.09691987,-0.030506948,-0.19175415,-0.17238253,-0.17238253,-9.5385,0.9254084,47.68599,-1.4871783,-2.4620085,-3.5692196,-0.17219454,-0.3322603,-0.10458489,26.25,27.3125,26.1875,29.0,30.1875,30.625
0.34405175,-0.8139863,-1.2224199,-0.37577164,-0.019853236,0.060339935,-0.14591295,-0.41725346,-0.3634134,0.05997713,-3.071821,0.6221362,-0.00027912846,-0.16739419,0.028224172,-0.00032017767,0.03646091,-0.003443754,0.019595437,0.47461906,-1.3400357,1.8505272,-2.07503,-1.5764445,2.4487863,-0.17034493,0.25342634,-0.32950807,0.09485076,-0.032262214,-0.18960012,-0.38307226,0.019153614,-9.385271,0.9231726,47.701214,-1.3651414,-2.450717,-3.4102526,-0.1482984,-0.3270988,-0.08052039,26.25,27.3125,26.1875,29.0,30.1875,30.625
0.3460519,-0.13111073,-0.88026196,-0.8390138,-0.0024820312,0.031967342,-0.14209965,-0.41758,-0.36334914,0.059965763,-3.071726,0.6220244,-0.00020892662,-0.16948597,0.0285703,0.0010667909,0.03472311,0.0018231756,0.01030184,0.47430652,-1.3395325,1.8499049,-2.0748756,-1.5765651,2.4484167,-0.17204252,0.25182965,-0.33008432,0.09155933,-0.033107214,-0.18199788,-0.30645782,0.17238253,-9.519346,0.90750587,47.709274,-1.2765356,-2.2848754,-3.3685105,-0.07931833,-0.3311092,-0.15050763,26.25,27.3125,26.1875,29.0,30.1875,30.625
0.34805185,0.6693017,-0.36449346,-1.2635639,-0.014068438,0.020486314,-0.15054335,-0.41792563,-0.36327493,0.05995888,-3.0716321,0.62216324,-0.00025258207,-0.1704692,0.02886864,0.001924703,0.034271967,0.0029271338,0.00090306904,0.47391036,-1.3390173,1.8492464,-2.074672,-1.5766009,2.4481199,-0.1731527,0.25146538,-0.3319394,0.09262021,-0.03318755,-0.1737064,-0.30645782,0.30645782,-9.557653,0.9410752,47.71286,-1.376034,-2.1713426,-3.4894905,-0.042540446,-0.31912208,-0.2440168,26.25,27.3125,26.1875,29.0,30.1875,30.625
0.35005173,-0.1425774,-1.5199658,-1.3113886,-0.018302206,0.0056148926,-0.1410817,-0.41826215,-0.36320704,0.05993975,-3.0715227,0.6221419,-0.0002648928,-0.17067799,0.029056394,0.0016440334,0.03547757,0.0018364398,-0.004648817,0.47356233,-1.338477,1.8485874,-2.0744793,-1.5766858,2.4477732,-0.17314002,0.25295863,-0.33362904,0.09434647,-0.03375264,-0.16813527,-0.36391866,0.4405331,-9.710882,0.9097417,47.67614,-1.3050668,-2.2686424,-3.5558252,-0.02285738,-0.32758284,-0.33266503,26.25,27.3125,26.1875,29.0,30.1875,30.625
0.35205257,-0.90866977,-2.5184524,-1.3232483,-0.04089926,0.024167098,-0.1300162,-0.4185986,-0.36313874,0.05995481,-3.0714169,0.6221418,-0.0002642823,-0.16999236,0.031171398,-0.00012769789,0.038834114,-0.004089321,-0.012212589,0.47321346,-1.3379848,1.8478931,-2.0742147,-1.5767697,2.4474385,-0.17572865,0.2549756,-0.33313358,0.098643936,-0.034019195,-0.16315642,-0.4213795,0.51714754,-9.902418,0.98807013,47.690468,-1.1524366,-2.1434171,-3.7158422,-0.039157957,-0.32198945,-0.42416263,26.25,27.3125,26.1875,29.0,30.1875,30.625
0.35405242,-1.0500444,-2.9242654,-1.1195995,-0.07414114,0.0702956,-0.14516266,-0.4189828,-0.36308017,0.059978038,-3.071362,0.62214947,-0.00016335993,-0.17104991,0.032722548,-0.00035606875,0.0402461,-0.0067477375,-0.014364438,0.47284037,-1.3374562,1.8471516,-2.0740216,-1.5768536,2.4470778,-0.17897496,0.25662094,-0.33558697,0.1024296,-0.034072205,-0.1642506,-0.21068975,0.38307226,-9.921572,0.9365982,47.683304,-1.1283442,-2.291712,-3.817225,-0.079511635,-0.326971,-0.47141713,26.25,27.3125,26.1875,29.0,30.1875,30.625
0.35605243,-1.484971,-2.9089997,-1.2480317,-0.06865133,0.0784488,-0.1436598,-0.41929716,-0.36298856,0.059942897,-3.0712242,0.6222702,-0.0002972883,-0.17132331,0.034169856,-0.0012069849,0.04327944,-0.011314015,-0.008905741,0.47244376,-1.3369406,1.8465527,-2.0738041,-1.5768899,2.446775,-0.18102175,0.2593414,-0.33829218,0.10779875,-0.034758646,-0.17174642,-0.11492168,0.34476504,-9.940725,0.8784135,47.694054,-1.023987,-2.3279312,-3.717037,-0.107932866,-0.33109483,-0.4836431,26.25,27.3125,26.1875,29.0,30.1875,30.625
0.35805234,-0.4586714,-1.7654785,-0.967944,-0.06781641,0.0959258,-0.16217494,-0.41965106,-0.36296386,0.059968464,-3.0712228,0.6221682,-0.00022729488,-0.17144401,0.03514886,-0.0019599,0.045419402,-0.015260324,0.0006581276,0.47213122,-1.3364242,1.8458203,-2.0736115,-1.5769376,2.4463992,-0.18247275,0.26170266,-0.3405442,0.11209169,-0.0349259,-0.18276061,-0.15322891,0.28730422,-9.825804,0.91421866,47.677036,-0.93833923,-2.3377542,-3.7902882,-0.19830331,-0.3443737,-0.3889385,26.25,27.3125,26.1875,29.0,30.1875,30.625
0.3600524,-0.39568597,-1.1932315,-0.64665854,-0.032586724,0.072083525,-0.15846694,-0.4199864,-0.36287683,0.059946265,-3.0711234,0.6220629,-0.0002858116,-0.17217085,0.035922546,-0.0027238494,0.047870003,-0.018037882,0.011132893,0.4717468,-1.3358953,1.8451756,-2.073395,-1.57701,2.4459624,-0.18359065,0.2650137,-0.34372854,0.11545848,-0.035937324,-0.19434234,-0.095768064,0.28730422,-9.595961,0.9254084,47.698532,-0.8659909,-2.352313,-3.671811,-0.20946667,-0.34313998,-0.24979424,26.25,27.3125,26.1875,29.0,30.1875,30.625
0.36205253,0.12483546,-0.0725855,-0.72732514,0.02336369,0.032623522,-0.148273,-0.42038062,-0.36282107,0.059982944,-3.071077,0.6220511,-0.0001135174,-0.17379296,0.03597753,-0.0020514731,0.048359282,-0.017057464,0.016199231,0.4713863,-1.3353791,1.8444208,-2.0732148,-1.5771188,2.445601,-0.18431626,0.26670268,-0.34781057,0.11713364,-0.036855433,-0.20012933,-0.076614454,0.11492168,-9.481039,0.8873621,47.664497,-0.7800665,-2.547576,-3.6251693,-0.2552531,-0.33463717,-0.15187642,26.25,27.3125,26.1875,29.0,30.1875,30.625
0.3640526,1.1035995,1.2229124,-0.46547648,0.045396198,0.014952625,-0.15854314,-0.42071307,-0.36277872,0.05998083,-3.07105,0.62187374,-0.00018188836,-0.17534259,0.03686891,-0.0010568585,0.04885472,-0.014670696,0.01274843,0.47104976,-1.3348402,1.8437122,-2.072975,-1.5771431,2.4451575,-0.1860007,0.2660871,-0.34952986,0.11756699,-0.03840026,-0.19834994,-0.038307227,0.0,-9.423578,0.8918391,47.67614,-0.7379625,-2.394185,-3.470059,-0.27518386,-0.32253748,-0.14048263,26.25,27.3125,26.1875,29.0,30.1875,30.625
0.36605242,0.90991324,0.9420341,-0.4480931,0.059287693,0.0044522993,-0.14820656,-0.42106313,-0.3626822,0.05996856,-3.070895,0.6219007,-0.0001745515,-0.17550872,0.035409257,-0.0010300594,0.04957919,-0.013419132,0.008036044,0.4706672,-1.3343121,1.8430432,-2.0727484,-1.5772637,2.4448125,-0.18283702,0.268315,-0.3524104,0.11745045,-0.039608955,-0.1904614,-0.22984336,-0.019153614,-9.32781,0.9254084,47.694946,-1.0986395,-2.3582475,-3.5549493,-0.26586005,-0.30595592,-0.22326139,26.25,27.3125,26.1875,29.0,30.1875,30.625
0.3680523,0.2105493,0.7886025,-0.6543095,0.044222545,0.010402968,-0.14784923,-0.42140836,-0.36261922,0.059946597,-3.0707984,0.6218438,-0.00024115921,-0.17662956,0.034308635,-0.0005377841,0.04857352,-0.010743967,0.0024109802,0.47030774,-1.333736,1.8423365,-2.072521,-1.5773233,2.4444306,-0.18160538,0.26970926,-0.35501423,0.11584076,-0.039928276,-0.18359786,-0.28730422,-0.019153614,-9.346964,0.9097417,47.690468,-1.1759471,-2.3402503,-3.4770393,-0.24910522,-0.30184305,-0.28719488,26.25,27.3125,26.1875,29.0,30.1875,30.625
0.37005234,-0.15715127,0.22798578,-0.29183844,0.008476229,0.055314496,-0.16027664,-0.42178965,-0.36253706,0.059958186,-3.070653,0.62187195,-0.00021417697,-0.17963907,0.034279827,0.0016262812,0.047988806,-0.0042542773,-0.001340896,0.4699235,-1.3331723,1.841556,-2.0722344,-1.5774444,2.4440835,-0.18244228,0.26924238,-0.35914716,0.11438133,-0.04236714,-0.1806624,-0.15322891,-0.15322891,-9.3661175,0.9365982,47.640312,-1.2207928,-2.5217342,-3.4486666,-0.24592762,-0.27567464,-0.35590535,26.25,27.3125,26.1875,29.0,30.1875,30.625
0.37205222,-1.4177729,-1.256779,-0.3144489,-0.012768012,0.07191168,-0.14245482,-0.42213947,-0.36249125,0.059980333,-3.0706341,0.6217916,-0.00019948963,-0.18138656,0.03499,0.0014992234,0.0474758,-0.0012716403,-0.0041435687,0.4695749,-1.3326691,1.8408383,-2.0720084,-1.5774802,2.4436874,-0.18436162,0.2698849,-0.35892195,0.11061043,-0.043273926,-0.17977253,-0.1340753,-0.1340753,-9.3661175,0.9164598,47.65912,-1.2727151,-2.2052193,-3.5065405,-0.21027763,-0.24531114,-0.38508582,26.25,27.3125,26.1875,29.0,30.1875,30.625
0.3740522,-1.2107488,-0.81017226,-0.18252629,-0.028435934,0.08635997,-0.1606587,-0.422513,-0.36242527,0.05997509,-3.0705535,0.62171316,-0.00018207124,-0.18388167,0.034357537,0.0031544387,0.0441716,0.0045805858,-0.00013715825,0.46920258,-1.3320936,1.8400968,-2.0717947,-1.5775646,2.4432771,-0.18537319,0.26915425,-0.36104766,0.10668754,-0.043031625,-0.18479027,-0.076614454,-0.17238252,-9.404425,0.94331104,47.651955,-1.3277036,-2.2001991,-3.480355,-0.14203501,-0.25184745,-0.3725435,26.25,27.3125,26.1875,29.0,30.1875,30.625
