Tylouw/Master_Thesis_Code/training_data/batch_1/rect_rod_t0.1/sample_100_session_4.csv
timestamp[s],tcp_force_x[N],tcp_force_y[N],tcp_force_z[N],tcp_force_rx[Nm?],tcp_force_ry[Nm?],tcp_force_rz[Nm?],tcp_pose_x[m],tcp_pose_y[m],tcp_pose_z[m],tcp_pose_rx[rot_vec_x],tcp_pose_ry[rot_vec_y],tcp_pose_rz[rot_vec_z],tcp_velo_x[m/s],tcp_velo_y[m/s],tcp_velo_z[m/s],tcp_velo_rx[rot_vec_x/s],tcp_velo_ry[rot_vec_y/s],tcp_velo_rz[rot_vec_z/s],q1[rad],q2[rad],q3[rad],q4[rad],q5[rad],q6[rad],qd1[rad/s],qd2[rad/s],qd3[rad/s],qd4[rad/s],qd5[rad/s],qd6[rad/s],tool_acc_x,tool_acc_y,tool_acc_z,current_of_whole_robot[A],voltage_of_whole_robot[V],current_J1[A],current_J2[A],current_J3[A],current_J4[A],current_J5[A],current_J6[A],temp_J1[C],temp_J2[C],temp_J3[C],temp_J4[C],temp_J5[C],temp_J6[C]
6.260002e-07,0.30874464,-0.08081266,1.3098851,-0.004901078,0.0018556372,-0.02008384,-0.38933933,-0.3687187,0.060027234,-3.078713,0.62491083,0.0002611153,-5.3588496e-06,-4.9051623e-06,-0.00011353203,-1.622571e-05,-0.0001970525,5.2599353e-05,0.5050448,-1.3816799,1.9041985,-2.0919034,-1.5708774,2.4800253,-6.519509e-05,0.00023224828,-8.2733163e-07,-6.7243775e-05,0.0001093927,-0.00011790407,0.11492168,0.15322891,-8.676587,0.7284641,47.70838,-0.19922212,-2.9785714,-2.2525845,-0.19469082,0.11470939,0.006237253,26.375,27.375,26.25,29.1875,30.375,30.875
0.002067685,-0.01866316,-0.42866883,1.2816525,0.0081343595,0.0009063834,-0.012599369,-0.38932827,-0.36871603,0.059986107,-3.0786965,0.62494594,0.00012867665,-0.000700741,-0.00039203165,-0.0022340368,-0.0014041665,0.0022899718,5.1131814e-05,0.50502086,-1.381619,1.9042238,-2.0919197,-1.5708297,2.4800253,-6.403552e-05,0.002944297,0.0037263965,-0.009354592,0.00010722042,-0.00011539,0.1340753,0.17238252,-8.6574335,0.7620334,47.707485,-0.21485822,-2.904755,-2.3846252,-0.14831263,0.09942657,0.01654338,26.375,27.375,26.25,29.1875,30.375,30.875
0.004066797,0.09076517,0.030464511,1.5806581,-0.009146677,0.0050827027,-0.01851995,-0.38932747,-0.36872274,0.05999469,-3.0787377,0.6249351,0.00019933529,-0.0011206741,-0.00062559545,-0.002329532,-0.0019330325,0.0032430547,5.0118244e-05,0.5050329,-1.3816547,1.90426,-2.0919793,-1.5708297,2.4800253,-6.291633e-05,0.0034723724,0.003675589,-0.0109218415,0.00010513291,-0.000112976006,0.11492168,0.095768064,-8.619126,0.7620334,47.672558,-0.19142894,-3.3663132,-2.589038,-0.04336,0.111464605,0.005230096,26.375,27.375,26.25,29.1875,30.375,30.875
0.00606116,-0.15884303,0.5157891,1.4441864,0.00049972296,-0.01604869,-0.019713577,-0.3893469,-0.36873353,0.060012072,-3.0787678,0.6249411,0.00025523,-0.00028331892,-0.00015945476,-0.0014782882,-0.0007009759,0.0010392948,4.8538306e-05,0.5050329,-1.3816552,1.9042233,-2.0919888,-1.5708297,2.4800253,-6.183565e-05,0.0018012205,0.0024929016,-0.0055432296,0.000103125254,-0.0001106609,0.095768064,0.19153613,-8.599973,0.75755644,47.687782,-0.20015116,-3.2200785,-2.5752869,-0.08024843,0.1127977,0.006254136,26.375,27.375,26.25,29.1875,30.375,30.875
0.008061731,0.79128885,1.077246,0.856878,0.035936072,-0.01886408,-0.019841673,-0.38934875,-0.3687169,0.05998211,-3.0786676,0.624978,0.0002035975,-0.000559739,-0.00031244135,0.00037282577,-0.0011924782,0.0019387774,4.761085e-05,0.5050329,-1.3815837,1.9041985,-2.0919516,-1.5708774,2.480061,-6.0791564e-05,-0.0004075256,7.304588e-05,-0.0019396183,0.00010119261,-0.00010843854,0.076614454,0.2681506,-8.599973,0.7329411,47.68599,-0.17837667,-3.1556606,-2.3874552,-0.1000187,0.1126355,0.00036774948,26.375,27.375,26.25,29.1875,30.375,30.875
0.010067816,1.2343916,1.5867093,0.5940746,0.022723053,-0.0045783096,-0.033950314,-0.38934764,-0.36873052,0.06001489,-3.0787196,0.6248737,0.00025935136,0.00021189167,0.00011689963,0.00046558515,-8.0208934e-05,-5.4792094e-05,6.26215e-05,0.50505686,-1.3816322,1.9041756,-2.0919268,-1.5708774,2.4800134,-5.978296e-05,-0.0011127118,9.800035e-07,0.0011204894,9.933125e-05,-0.000122841,0.095768064,0.095768064,-8.963891,0.62999195,47.72002,-0.67579985,-2.5555549,-2.882991,-0.147152,0.10269128,-0.07586019,26.375,27.375,26.25,29.1875,30.375,30.875
0.012060156,-0.055468064,0.38445202,0.3663354,0.0011766001,-0.0069560027,-0.023590406,-0.38933793,-0.36870033,0.05997667,-3.0786664,0.62494135,0.00015943224,-0.00013863815,0.0023656357,-0.0028739625,0.003903318,-0.007246233,-0.0038106819,0.50500774,-1.3816065,1.9042348,-2.0919383,-1.5708655,2.4800131,-0.0041741515,0.004895243,1.3148e-08,0.003334505,9.7537035e-05,-0.00036318996,0.11492168,0.076614454,-9.11712,0.7351769,47.670765,-0.912793,-2.4421582,-3.133399,-0.15349671,0.10268153,-0.12275764,26.375,27.375,26.25,29.1875,30.375,30.875
0.014068753,-0.6822031,-0.6617919,0.20917267,-0.025073145,0.011473958,-0.028562685,-0.38931698,-0.36870065,0.05994387,-3.0786242,0.62492996,-7.556432e-06,-0.0037665623,0.0036732163,-0.0056602126,0.005884492,-0.010854501,0.0010961692,0.5050055,-1.3815426,1.9042205,-2.0918787,-1.5708297,2.480009,-0.009774046,0.014591892,-0.00497786,0.0027306876,9.5806434e-05,-0.010866298,0.05746084,0.15322891,-9.289503,0.79560274,47.679718,-0.48182774,-3.239131,-3.1222358,-0.13766934,0.0941684,-0.077748984,26.375,27.375,26.25,29.1875,30.375,30.875
0.016061127,-0.5916281,-1.0356992,0.1471319,-0.040709257,0.048173275,-0.036763597,-0.38931647,-0.36871204,0.059949875,-3.0786505,0.6248929,-3.6890615e-06,-0.0057113967,0.0027873465,-0.0029661562,0.0028812184,-0.005436745,0.007851525,0.5050174,-1.3815436,1.9042081,-2.0918791,-1.5708174,2.4799945,-0.010100554,0.012176761,-0.008107588,0.0020803206,9.413632e-05,-0.017947191,-0.24899697,0.21068975,-9.442732,0.7530795,47.66987,-0.4980599,-3.018673,-3.0086985,-0.12210592,0.09941707,-0.024717597,26.375,27.375,26.25,29.1875,30.375,30.875
0.01805798,-1.147492,-0.87161225,0.048098758,-0.046599243,0.06359247,-0.05676469,-0.38929778,-0.36867562,0.059912972,-3.0785768,0.62485814,-0.00011916769,-0.005997513,0.0027401077,-0.0025298449,0.0023330944,-0.0044497633,0.010463311,0.50498134,-1.3815198,1.9042557,-2.0918434,-1.5708297,2.4799461,-0.010287816,0.011520055,-0.008249244,0.00174912,9.252345e-05,-0.020746259,-0.34476504,0.19153613,-9.442732,0.7530795,47.72092,-0.7460685,-2.7468948,-3.231214,-0.10505636,0.10020013,-0.024543392,26.375,27.375,26.25,29.1875,30.375,30.875
0.02006035,-1.2478325,-0.2708113,-0.035396848,-0.022630408,0.0737434,-0.08058231,-0.38930634,-0.3686873,0.05990161,-3.0785835,0.6247449,-0.00014903351,-0.0064764507,0.0031618045,-0.0023770211,0.0026750437,-0.0050930497,0.009057889,0.50499296,-1.3814596,1.9042076,-2.0918305,-1.5708297,2.4798863,-0.011453513,0.011875863,-0.009352498,0.003224979,0.000105118714,-0.020506207,-0.49799395,0.3256114,-9.595961,0.7620334,47.721813,-0.79284275,-2.6321507,-3.4208658,-0.11987964,0.10688908,-0.039256975,26.375,27.375,26.25,29.1875,30.375,30.875
0.022063823,-1.3375858,-0.10026615,-0.22782104,-0.0059927953,0.066998295,-0.09673621,-0.3893431,-0.36866033,0.059916552,-3.0785694,0.62483925,-0.00011089903,-0.007044747,0.0037971255,-0.0033915888,0.0046108123,-0.008590036,0.006480453,0.5049206,-1.3814703,1.9041833,-2.0918171,-1.5708417,2.4798746,-0.013055474,0.015386265,-0.0118726,0.0062316055,0.00010430174,-0.019529456,-0.49799395,0.30645782,-9.691729,0.7486078,47.71465,-0.8670087,-2.6920764,-3.393458,-0.14584482,0.11891772,-0.07187723,26.375,27.375,26.25,29.1875,30.375,30.875
0.02402315,-1.4262013,0.07720952,-0.1825587,-0.01360164,0.06337041,-0.11953171,-0.38935113,-0.36865988,0.05989587,-3.0785449,0.6247977,-0.00014186557,-0.008654783,0.0043302,-0.003655027,0.0047127567,-0.008809608,0.0035064262,0.50491977,-1.3814095,1.9041585,-2.0918171,-1.5708536,2.479851,-0.015467471,0.017637735,-0.013948764,0.0062975944,0.00011635546,-0.018966252,-0.63206923,0.19153613,-9.710882,0.7620334,47.668976,-0.855966,-2.7068276,-3.3774447,-0.12957437,0.11195934,-0.08191919,26.375,27.375,26.25,29.1875,30.375,30.875
0.026017752,-1.6024839,-0.30299732,-0.29984054,-0.018508289,0.066972874,-0.13620156,-0.38935977,-0.3686796,0.059893027,-3.0785897,0.6248082,-0.0002027058,-0.010003383,0.0043630823,-0.0037534481,0.004270506,-0.008031016,0.0012512994,0.5049073,-1.3813728,1.9041218,-2.0918176,-1.5707935,2.4798393,-0.01678774,0.019373802,-0.01554148,0.0052600875,0.00012102422,-0.018030364,-0.8236054,0.19153613,-9.825804,0.69937176,47.686886,-0.8336742,-2.818202,-3.366481,-0.12252757,0.10591635,-0.10630295,26.375,27.375,26.25,29.1875,30.375,30.875
0.02801805,-1.579592,-0.35143137,-0.31184083,-0.035559367,0.08315299,-0.14239523,-0.389382,-0.36865002,0.0598615,-3.0785136,0.62477326,-0.00026539285,-0.01070896,0.0042365277,-0.0037870898,0.00388321,-0.0073756613,-0.000353905,0.50485927,-1.3812885,1.904086,-2.0917828,-1.5708297,2.4797792,-0.017245123,0.020310143,-0.016376793,0.00439758,0.00013763273,-0.016882004,-0.6895301,0.19153613,-9.80665,0.72622824,47.71017,-0.9070861,-2.8073418,-3.427753,-0.10973522,0.12081684,-0.10249676,26.375,27.375,26.25,29.1875,30.375,30.875
0.030017488,-2.2180789,-0.5027943,-0.29080397,-0.038566463,0.0881218,-0.15605615,-0.38938555,-0.3686375,0.05984814,-3.0784907,0.62476987,-0.000308045,-0.011741687,0.0043594823,-0.002973576,0.0030710776,-0.0059585553,-0.0025826981,0.5048349,-1.3812648,1.9040855,-2.0917704,-1.5708297,2.4797556,-0.018431604,0.019836538,-0.017707823,0.0045691472,0.00016013651,-0.015839288,-0.7661445,0.15322891,-9.864111,0.7016076,47.705692,-0.8916309,-2.7035594,-3.434452,-0.10721339,0.12033935,-0.13698205,26.375,27.375,26.25,29.1875,30.375,30.875
0.03201778,-2.2459161,0.064673446,-0.31367892,-0.0238251,0.09067391,-0.15924038,-0.3894059,-0.36861524,0.05983644,-3.0784562,0.6248783,-0.00039080894,-0.012485907,0.0040721786,-0.0025739593,0.002512651,-0.0061197826,-0.002901919,0.5047629,-1.3812282,1.9040607,-2.0917342,-1.570805,2.4797556,-0.018995507,0.020808598,-0.020046812,0.005805451,0.00072333624,-0.016084064,-0.8236054,0.076614454,-9.864111,0.7866488,47.703903,-0.92757344,-2.738139,-3.4173598,-0.11910356,0.11489081,-0.15835385,26.375,27.375,26.25,29.1875,30.375,30.875
0.034017496,-1.3969891,0.31818998,-0.20923676,0.014692129,0.100777596,-0.16773255,-0.38945037,-0.36862633,0.059838243,-3.0784671,0.62480336,-0.00031129632,-0.013359163,0.0039680707,-0.0026349255,0.0019169403,-0.006378971,-0.003443639,0.50476253,-1.3811557,1.9039763,-2.091758,-1.5708412,2.4797072,-0.0200382,0.022304086,-0.021697912,0.005896825,0.0013671004,-0.016585305,-0.7852981,0.038307227,-9.710882,0.7530795,47.66271,-0.9430244,-2.7486095,-3.4062095,-0.11713415,0.09564017,-0.18783237,26.375,27.375,26.25,29.1875,30.375,30.875
0.036018085,-1.3298464,0.8679624,-0.29278034,0.025833841,0.07605332,-0.16883601,-0.3894745,-0.36863673,0.0598442,-3.078507,0.624773,-0.00027964532,-0.014687264,0.0038895456,-0.002180305,0.0009443574,-0.0053344313,-0.003007359,0.50475,-1.3811314,1.9039396,-2.0917823,-1.5708293,2.4796708,-0.021360312,0.02314773,-0.023672689,0.0056420704,0.0017082912,-0.0183433,-0.49799395,-0.019153614,-9.653421,0.7217513,47.695843,-0.9258367,-2.6829953,-3.3566165,-0.08519043,0.10274811,-0.19632748,26.375,27.375,26.25,29.1875,30.375,30.875
0.03801752,-0.44446462,0.62565726,-0.4655368,0.028771983,0.07301173,-0.160961,-0.389507,-0.3686324,0.059834797,-3.0784998,0.62482893,-0.00036022463,-0.015750961,0.004124913,-0.001886417,0.00012220717,-0.0044091456,-0.0025695537,0.5046897,-1.3810594,1.9038676,-2.091746,-1.570793,2.4796462,-0.022915706,0.02339989,-0.02449704,0.00500639,0.0019755089,-0.020336617,-0.51714754,-0.095768064,-9.768343,0.7530795,47.70211,-0.9946674,-2.678855,-3.3807788,-0.073598325,0.07362636,-0.17675884,26.375,27.375,26.25,29.1875,30.375,30.875
0.040017746,-0.78250706,0.72736883,-0.25351807,0.014107633,0.049446773,-0.1537113,-0.3895632,-0.3686091,0.05984451,-3.0784953,0.62492377,-0.00030497625,-0.017377596,0.0044375397,-0.0013938335,-0.00018630404,-0.0030416471,-0.00333324,0.50460535,-1.381035,1.9038194,-2.0917585,-1.570805,2.4796216,-0.024712661,0.024238694,-0.026589347,0.0049149436,0.001579705,-0.021368098,-0.4405331,-0.019153614,-9.653421,0.75755644,47.703903,-0.92493343,-2.6841898,-3.3525076,-0.062154643,0.08982976,-0.1933524,26.375,27.375,26.25,29.1875,30.375,30.875
0.04201742,-0.8709875,0.48955137,-0.31460318,-0.0013085724,0.044990525,-0.15495722,-0.3896032,-0.36859354,0.059847515,-3.0784693,0.62491876,-0.00029499707,-0.018774344,0.0044552544,-0.0008651989,-0.00036368563,-0.0020829467,-0.0033363488,0.50455695,-1.3809863,1.903747,-2.0917222,-1.5708293,2.4795735,-0.02585099,0.025338951,-0.029234562,0.0055354703,0.0012664137,-0.022501577,-0.2681506,0.038307227,-9.710882,0.7732232,47.703903,-0.86501986,-2.7238026,-3.2851214,-0.051064532,0.08841274,-0.20860785,26.375,27.375,26.25,29.1875,30.375,30.875
0.04401782,-0.14395928,0.31888208,-0.19762307,-0.0113253845,0.058088545,-0.1581696,-0.38963675,-0.36858907,0.05982722,-3.0784476,0.62489325,-0.0002861041,-0.019151207,0.0047232923,-0.0010716438,0.00035819222,-0.0029519738,-0.002425856,0.5045329,-1.380902,1.9036988,-2.0917456,-1.5708531,2.4795363,-0.026520437,0.02647271,-0.030355388,0.0066322703,0.0010537675,-0.024080621,-0.24899697,0.05746084,-9.615114,0.7016076,47.684196,-0.87158036,-2.7502398,-3.299708,-0.069993064,0.11218658,-0.22896343,26.375,27.375,26.25,29.1875,30.375,30.875
0.046017516,-0.54751873,-0.1878622,-0.24181823,-0.0031643242,0.041395105,-0.14031354,-0.38970834,-0.36861527,0.05987882,-3.0785608,0.6249545,-0.0002050762,-0.019521745,0.005253953,-0.0012892762,0.0011471816,-0.0040604398,-0.0014117754,0.50447255,-1.3808898,1.9035667,-2.0917451,-1.570793,2.4794998,-0.027660388,0.027339393,-0.03118268,0.007946487,0.00090225233,-0.026233928,-0.2681506,0.15322891,-9.557653,0.7620334,47.64837,-0.8721011,-2.7359304,-3.359221,-0.07732976,0.10937335,-0.22018903,26.375,27.375,26.25,29.1875,30.375,30.875
0.048017908,0.15418884,0.17812456,-0.23813884,-0.010309541,0.03994309,-0.15905683,-0.3897389,-0.36857584,0.05984679,-3.0784948,0.62486386,-0.00027041478,-0.02019181,0.0057957326,-0.0015686254,0.0015644195,-0.0047011185,-0.00089956657,0.50440025,-1.3808051,1.9035314,-2.091709,-1.5708293,2.4793794,-0.02915956,0.028393416,-0.03188861,0.008359998,0.0008428092,-0.028244872,-0.019153614,0.17238252,-9.557653,0.83589023,47.72808,-0.8847022,-2.6420674,-3.4356704,-0.07910569,0.09731153,-0.22369951,26.375,27.375,26.25,29.1875,30.375,30.875
0.050017633,0.60196733,0.28453177,-0.039306793,-0.017453047,0.03591504,-0.16256928,-0.38976234,-0.36856893,0.0598369,-3.0784872,0.62492025,-0.0003223117,-0.022415651,0.005873286,-0.0005106471,0.0003356576,-0.0023988034,-0.0011232458,0.5043515,-1.3807569,1.9034942,-2.0916975,-1.570805,2.4793668,-0.031337414,0.029064098,-0.03506787,0.008259818,0.00079725817,-0.03019757,-0.019153614,0.19153613,-9.672575,0.7777002,47.71017,-0.8507023,-2.7291675,-3.3806036,-0.07131556,0.122169375,-0.23702404,26.375,27.375,26.25,29.1875,30.375,30.875
0.052017886,0.7916825,-0.21699356,-0.096656375,-0.017363552,0.024285208,-0.15551385,-0.38982806,-0.3685652,0.05984912,-3.0785015,0.6249607,-0.0002534277,-0.023799278,0.0057197837,0.00021686351,-0.00049249944,-0.0007481032,-0.0010527172,0.50429124,-1.3806967,1.9033979,-2.091709,-1.5708169,2.47933,-0.032319054,0.029587213,-0.037316397,0.008139706,0.0007205172,-0.031248555,0.0,0.24899697,-9.576807,0.7620334,47.696735,-0.81541085,-2.6012282,-3.3377936,-0.063728474,0.114910156,-0.2392263,26.375,27.375,26.25,29.1875,30.375,30.875
0.05401748,-0.19782218,-0.42908472,-0.16386999,-0.026328387,0.004151217,-0.14217441,-0.3898598,-0.36852792,0.059835233,-3.0784464,0.62498873,-0.0003117079,-0.024642086,0.0062481253,0.00014219143,-0.00047230735,-0.00065738213,-0.0013877881,0.5042069,-1.3806485,1.9033617,-2.0916612,-1.5708297,2.4792702,-0.03395165,0.030210363,-0.03784793,0.00797814,0.0006550882,-0.032545675,0.0,0.24899697,-9.500193,0.73741806,47.734352,-0.85435015,-2.6080828,-3.2348747,-0.06353187,0.12133593,-0.26618755,26.375,27.375,26.25,29.1875,30.375,30.875
0.056017797,-0.51855457,-0.7871728,-0.2397323,-0.03153883,0.0066570905,-0.14409563,-0.38992923,-0.36850917,0.059847157,-3.078458,0.62504745,-0.0002693522,-0.025718546,0.0067939577,0.00038930678,-0.00047422454,-0.0005425126,-0.0016378928,0.50411046,-1.3806001,1.9032773,-2.0916607,-1.5708297,2.479209,-0.035835277,0.030766724,-0.03923451,0.008706913,0.00060053135,-0.0341785,0.019153614,0.2873042,-9.634268,0.7396539,47.70211,-0.7427709,-2.5741282,-3.3937812,-0.063983046,0.123677775,-0.26016527,26.375,27.375,26.25,29.1875,30.375,30.875
0.058017455,-0.013740017,-0.600676,-0.17348902,-0.040095024,0.030384116,-0.14533763,-0.38997084,-0.3685135,0.059856147,-3.0784602,0.62495154,-0.00027228732,-0.026345475,0.0066919527,0.00077491225,-0.00051758793,-0.00015950642,-0.0007946772,0.5040863,-1.380528,1.9031581,-2.0916011,-1.5708417,2.4791248,-0.036152642,0.03128127,-0.040903114,0.00950465,0.0004508904,-0.03533814,-0.038307227,0.30645782,-9.519346,0.7486078,47.70838,-0.73887503,-2.5288982,-3.4329681,-0.061252065,0.13267657,-0.267761,26.375,27.375,26.25,29.1875,30.375,30.875
0.060017798,-0.4275091,-0.89693975,0.1280999,-0.030750787,0.027871475,-0.14042619,-0.3900312,-0.36847162,0.059851356,-3.0784218,0.6250571,-0.00027419985,-0.02641668,0.006391936,0.00077622704,-0.000108942135,-0.0009930906,0.0009511985,0.5039669,-1.3804796,1.903109,-2.0915887,-1.5708536,2.4790761,-0.0357368,0.03238547,-0.042544942,0.01096884,0.0004945493,-0.03666757,-0.076614454,0.34476504,-9.442732,0.7620334,47.704796,-0.87068963,-2.481864,-3.400167,-0.059591435,0.12087123,-0.29175895,26.375,27.375,26.25,29.1875,30.375,30.875
0.06201744,-0.28273934,-0.6213863,0.018759167,-0.022784602,0.031737465,-0.14084578,-0.39010826,-0.36848727,0.059894327,-3.0785038,0.6250554,-0.00018585449,-0.028008023,0.0067055663,0.0011456143,-0.0010714286,-0.0006397544,3.282709e-05,0.50390613,-1.3804433,1.9029654,-2.0915763,-1.5708293,2.479004,-0.038161617,0.033460334,-0.044733983,0.01130713,0.0011658381,-0.03817411,-0.095768064,0.3256114,-9.346964,0.7709874,47.707485,-0.81420463,-2.449259,-3.2489114,-0.083295435,0.1512959,-0.30770466,26.375,27.375,26.25,29.1875,30.375,30.875
0.064017855,-0.7378822,-0.6500266,-0.080467306,-0.0100481175,0.01329059,-0.13481475,-0.3901431,-0.36848617,0.059864484,-3.078534,0.6249835,-0.00030541985,-0.028711403,0.006327725,0.0011042339,-0.0026641048,-0.0009989603,-0.00012583136,0.50383395,-1.3803347,1.9029049,-2.0915763,-1.5707687,2.478883,-0.03915301,0.0346862,-0.04599846,0.010887998,0.002728191,-0.03900895,-0.1340753,0.3256114,-9.346964,0.7083204,47.64837,-0.77300006,-2.404234,-3.3685145,-0.07729962,0.1348511,-0.32695028,26.375,27.375,26.25,29.1875,30.375,30.875
0.06601752,0.15359625,-0.2484587,0.13597012,-0.016303541,0.03420839,-0.14059854,-0.39018244,-0.36845893,0.059855666,-3.078484,0.6249724,-0.00031288978,-0.029415421,0.0062473803,0.001108789,-0.0032348617,-0.0009807585,0.0023134782,0.5037737,-1.3802742,1.9028453,-2.0915406,-1.5708045,2.4788222,-0.039974533,0.035689972,-0.0471691,0.010760041,0.003213856,-0.042270124,-0.15322891,0.28730422,-9.308657,0.7642693,47.672558,-0.78664064,-2.4971862,-3.3363826,-0.07035501,0.10659459,-0.31716758,26.375,27.375,26.25,29.1875,30.375,30.875
0.06801776,-0.73603266,-0.2916944,0.32517263,-0.006325586,0.023245664,-0.12909864,-0.39027223,-0.36845347,0.059876528,-3.0785446,0.6249645,-0.0002650089,-0.030786652,0.006001575,0.0020622287,-0.0043988517,0.0011978097,0.0026470523,0.50366586,-1.3802022,1.9027127,-2.0915406,-1.5707806,2.4787018,-0.04080827,0.035692185,-0.04925656,0.01037687,0.0031786857,-0.043436296,-0.15322891,0.24899697,-9.32781,0.78217715,47.73077,-0.8457391,-2.4143794,-3.2911491,-0.05602418,0.11577563,-0.3274092,26.375,27.375,26.25,29.1875,30.375,30.875
0.07001751,-0.014378616,0.17929673,0.28283837,-0.004216678,0.051904187,-0.14898752,-0.39034355,-0.36843848,0.05987078,-3.078517,0.6250171,-0.00026708085,-0.031753667,0.0063659255,0.0021097506,-0.003961039,0.0010819098,0.0010868531,0.5035815,-1.3800937,1.9025921,-2.0915167,-1.5707926,2.478654,-0.04211062,0.036885973,-0.05096884,0.011209148,0.0028491977,-0.043177105,-0.17238252,0.19153613,-9.270349,0.77545905,47.695843,-0.83708,-2.3944283,-3.2641773,-0.060616218,0.10050715,-0.37583047,26.375,27.375,26.25,29.1875,30.375,30.875
0.072017744,-0.5572709,0.083743945,0.31438783,0.0045379493,0.05436579,-0.14392713,-0.39040613,-0.36843202,0.059877515,-3.0785415,0.62502015,-0.00027980647,-0.03241243,0.0067307684,0.0012065494,-0.0030086762,-0.0006915045,0.002847854,0.50349736,-1.3800206,1.9024848,-2.0914924,-1.5707687,2.4785686,-0.043345097,0.03967714,-0.052355327,0.011818307,0.002868862,-0.046171654,-0.22984336,0.15322891,-9.32781,0.7620334,47.687782,-0.88837874,-2.3885658,-3.3164434,-0.08605962,0.11151336,-0.36067137,26.375,27.375,26.25,29.1875,30.375,30.875
0.07401749,-0.8964277,0.1466456,0.39348423,0.006612451,0.046108373,-0.14407885,-0.39046866,-0.36843082,0.05990064,-3.0785983,0.62493443,-0.00020903336,-0.032801203,0.00667276,0.00087367406,-0.0032671657,-0.0014872686,0.0046416605,0.5034371,-1.3799841,1.9023889,-2.0914924,-1.5707687,2.4784477,-0.043984804,0.041032698,-0.053220537,0.0118980585,0.0034797103,-0.048605483,-0.24899697,0.076614454,-9.308656,0.7396539,47.652847,-0.87400913,-2.4995697,-3.3010135,-0.0643138,0.1071015,-0.3538031,26.375,27.375,26.25,29.1875,30.375,30.875
0.07601786,-0.86977136,0.402395,0.4087735,0.0016010418,0.045691844,-0.13075346,-0.39054134,-0.3684142,0.059906524,-3.0785925,0.6249695,-0.00020837485,-0.03474544,0.006188247,0.00207666,-0.004833888,0.00041548294,0.008458837,0.503341,-1.3798999,1.9022678,-2.0914567,-1.5707682,2.4783742,-0.045251787,0.041957717,-0.05719744,0.012525835,0.003926012,-0.05368871,-0.34476504,0.1340753,-9.289502,0.7530795,47.70211,-0.8076345,-2.439931,-3.263151,-0.07573222,0.094856456,-0.31847444,26.375,27.375,26.25,29.1875,30.375,30.875
0.07801746,-0.5877877,0.25074077,0.3330779,0.009522058,0.053512484,-0.13920707,-0.3905759,-0.36839983,0.059890278,-3.0785596,0.6249246,-0.0002555692,-0.035385266,0.0074630994,0.0011650403,-0.0039668526,-0.0012953348,0.0070012123,0.5032921,-1.3798151,1.9021963,-2.0914204,-1.5707802,2.4783015,-0.0480285,0.043272585,-0.0567074,0.012637004,0.003990068,-0.055008113,-0.34476504,0.038307227,-9.32781,0.7642693,47.711964,-0.7492541,-2.4240072,-3.183011,-0.07979019,0.08732161,-0.3209241,26.375,27.375,26.25,29.1875,30.375,30.875
0.080017745,-0.6211549,0.82375336,0.41269103,-0.0010994544,0.056143526,-0.14696369,-0.39066553,-0.36838758,0.059900604,-3.078604,0.62487376,-0.00025394218,-0.034780435,0.0071431813,0.00035582218,-0.002955112,-0.0028237507,0.010577662,0.50317276,-1.3797187,1.9020532,-2.091396,-1.5707558,2.478145,-0.046824582,0.044873375,-0.05684694,0.013004849,0.003841988,-0.057380036,-0.4405331,0.05746084,-9.308657,0.7530795,47.723602,-0.77179945,-2.436202,-3.3988848,-0.07810296,0.09306812,-0.32663238,26.375,27.375,26.25,29.1875,30.375,30.875
0.082017496,-1.0538119,0.47750068,0.4331775,0.006008146,0.04756487,-0.14041995,-0.39073876,-0.368387,0.05990419,-3.078634,0.62481886,-0.0002780215,-0.036452223,0.0068918383,0.000862061,-0.0038658862,-0.0016141401,0.014190937,0.5030887,-1.37961,1.9019083,-2.0913603,-1.570732,2.4780228,-0.048079018,0.046441134,-0.059842177,0.01293426,0.00404869,-0.062246643,-0.34476504,0.038307227,-9.232041,0.7665104,47.703903,-0.9515175,-2.4904785,-3.3144178,-0.07659359,0.08309121,-0.27258882,26.375,27.375,26.25,29.1875,30.375,30.875
0.08401791,-0.6457034,0.41769087,0.37243527,0.011989479,0.066375665,-0.13859239,-0.39081016,-0.3683531,0.059904806,-3.0786319,0.6247788,-0.00023941828,-0.0385088,0.0067801545,0.0019634312,-0.005129821,0.00033234272,0.016148401,0.50298005,-1.3795495,1.9018353,-2.0913599,-1.5707558,2.4778895,-0.04989808,0.04722057,-0.063371226,0.013367358,0.0042109936,-0.0660219,-0.40222588,0.019153614,-9.32781,0.7463667,47.668976,-0.8532266,-2.4872746,-3.155121,-0.09018399,0.09416254,-0.2328831,26.375,27.375,26.25,29.1875,30.375,30.875
0.08601745,-1.2427876,0.4294784,0.25886673,0.010445137,0.04942111,-0.13745311,-0.3908889,-0.36835527,0.059910525,-3.0786526,0.624763,-0.00026614772,-0.03849971,0.008403586,0.0004549911,-0.0033259406,-0.0025807342,0.017082248,0.5028955,-1.3794291,1.9016689,-2.0913122,-1.570732,2.4777925,-0.052502017,0.04860774,-0.061659332,0.0136925895,0.0040381625,-0.06955991,-0.36391866,0.076614454,-9.308656,0.7665104,47.668976,-0.8197197,-2.4573703,-3.3293996,-0.10220021,0.07587466,-0.20291579,26.375,27.375,26.25,29.1875,30.375,30.875
0.088017784,-1.1990843,0.30213547,0.04586365,0.0004191297,0.052627403,-0.13582428,-0.39095947,-0.36832735,0.05991776,-3.0786917,0.62461567,-0.00027857278,-0.03969373,0.0083607035,0.0007868027,-0.003108145,-0.0018765836,0.019240046,0.5027754,-1.3793684,1.9015726,-2.0912764,-1.5707201,2.4775755,-0.053198088,0.050006278,-0.064219765,0.014345658,0.003503154,-0.07241167,-0.47884035,0.095768064,-9.346964,0.7463667,47.686886,-0.7140761,-2.5280776,-3.3099103,-0.101470575,0.08645364,-0.18104014,26.375,27.375,26.25,29.1875,30.375,30.875
0.090017475,-1.0352002,-0.20522226,0.14244121,-0.003457724,0.060446713,-0.12983575,-0.39102498,-0.36830693,0.059884675,-3.0786614,0.6246058,-0.0003368256,-0.039544757,0.0076089003,0.0011851181,-0.0029696994,-0.0012151452,0.023618534,0.50268036,-1.3792242,1.9014772,-2.0912764,-1.5707206,2.4774783,-0.051508676,0.05020781,-0.06550038,0.014913728,0.0030573441,-0.075099654,-0.47884035,0.15322891,-9.270349,0.8224646,47.698532,-0.9526069,-2.3597965,-3.3265057,-0.10645203,0.07746353,-0.12298695,26.375,27.375,26.25,29.1875,30.375,30.875
0.09201776,-0.8862629,-0.011341741,0.10312538,-0.0037010522,0.066220894,-0.13925458,-0.3911245,-0.3682947,0.059913315,-3.0787182,0.62448347,-0.00030856743,-0.040606074,0.008647432,-7.839608e-05,-0.0013379744,-0.0036826232,0.022417303,0.5025597,-1.379139,1.9012975,-2.0912158,-1.5707086,2.4772742,-0.054080557,0.053661738,-0.066926144,0.015836066,0.0028171586,-0.07646876,-0.4213795,0.19153613,-9.251195,0.78888994,47.716442,-0.9166599,-2.5359526,-3.3164513,-0.12575313,0.08724577,-0.09140085,26.375,27.375,26.25,29.1875,30.375,30.875
0.09401746,-0.771434,-0.40360323,0.016135307,-0.005887076,0.06612845,-0.1423557,-0.3912216,-0.36826092,0.059901293,-3.0787,0.62444127,-0.000299714,-0.04150012,0.009077512,0.00014576034,-0.001326259,-0.003542165,0.020626962,0.50242746,-1.3790066,1.9011654,-2.0912035,-1.5707325,2.477118,-0.055571575,0.054132283,-0.06814191,0.016462715,0.002736843,-0.07616884,-0.36391866,0.19153613,-9.32781,0.80456203,47.70659,-0.85903776,-2.493466,-3.3430595,-0.14998849,0.09472981,-0.084401816,26.375,27.375,26.25,29.1875,30.375,30.875
0.096017756,-1.1108565,-0.36693642,-0.0035765353,-0.013251161,0.043415364,-0.14011669,-0.39129975,-0.36827192,0.059903156,-3.0787516,0.6243749,-0.00034721105,-0.042449716,0.008612598,0.0012503974,-0.0027576832,-0.0010689904,0.019642862,0.50234354,-1.3788748,1.900997,-2.0911682,-1.5706848,2.4769862,-0.05569674,0.053361192,-0.0696095,0.015848223,0.0027961084,-0.07530949,-0.2681506,0.19153613,-9.3661175,0.7620334,47.68062,-0.8843814,-2.4370382,-3.3025258,-0.16119805,0.08946977,-0.09481801,26.375,27.375,26.25,29.1875,30.375,30.875
0.098017484,-0.831385,-0.99108446,-0.24200425,-0.00788075,0.04964085,-0.12625694,-0.3913887,-0.36823025,0.059906192,-3.0787091,0.6242708,-0.00028918526,-0.04383405,0.0085738,0.0011743665,-0.0032811586,0.00012168999,0.017753163,0.50223535,-1.3787782,1.900865,-2.0911205,-1.5707563,2.4768186,-0.056830965,0.055042,-0.07109171,0.014349418,0.0026743868,-0.074552834,-0.36391866,0.2873042,-9.346964,0.83365434,47.717335,-0.93760633,-2.3499732,-3.3385777,-0.16521902,0.08803061,-0.07820041,26.375,27.375,26.25,29.1875,30.375,30.875
0.10001791,-0.6010101,-0.75804555,-0.21164005,-0.0161406,0.05302688,-0.13617931,-0.3914925,-0.36820108,0.059921317,-3.0787282,0.62438995,-0.00029851543,-0.044245303,0.008708868,-0.0002808155,-0.0020085236,-0.0019080007,0.01594279,0.50206757,-1.3786929,1.9007214,-2.0910852,-1.5707206,2.4767227,-0.057338487,0.058723725,-0.07207582,0.014047138,0.0025350417,-0.07324868,-0.19153613,0.24899697,-9.423578,0.77545905,47.698532,-0.96187294,-2.5310931,-3.3797255,-0.18375479,0.09383722,-0.09494936,26.375,27.375,26.25,29.1875,30.375,30.875
0.10201745,-0.6083399,-0.9985118,-0.25381547,-0.011574198,0.04163577,-0.13125946,-0.39157698,-0.36818078,0.059904736,-3.0787473,0.62429917,-0.00032703203,-0.04544694,0.008789546,0.0003614785,-0.0026146693,-0.00022957555,0.01304688,0.5019475,-1.3785607,1.9006027,-2.0910852,-1.5707086,2.4765437,-0.058401316,0.058796164,-0.07354858,0.013686687,0.002254254,-0.071414515,-0.1340753,0.2681506,-9.3661175,0.800085,47.681515,-0.9799112,-2.5097382,-3.4087243,-0.17966577,0.09467186,-0.11563942,26.375,27.375,26.25,29.1875,30.375,30.875
0.10401778,-0.6715746,-0.42846373,-0.17873022,-0.026401784,0.024803722,-0.12907813,-0.391665,-0.36814752,0.05988579,-3.078697,0.6242509,-0.00032069665,-0.04669088,0.008754634,0.0011876638,-0.0035146922,0.0016336377,0.010387812,0.5018395,-1.3784165,1.9004697,-2.0910614,-1.5707563,2.476412,-0.059413556,0.05867957,-0.07523906,0.013424715,0.0021408668,-0.069766894,-0.1340753,0.21068975,-9.3661175,0.7665104,47.634937,-1.0325494,-2.4219372,-3.3552642,-0.18348922,0.10431968,-0.15882152,26.375,27.375,26.25,29.1875,30.375,30.875
0.10601744,-0.033578143,-0.71158606,-0.292797,-0.016589524,0.024663003,-0.1297353,-0.39178053,-0.36814168,0.059911,-3.0787637,0.6242067,-0.00027464025,-0.047285434,0.008503835,0.0006107585,-0.003309028,0.0010130546,0.008965327,0.5017076,-1.3783077,1.900278,-2.0910375,-1.5707325,2.4762442,-0.05960062,0.061102472,-0.07673839,0.013145738,0.0022599143,-0.06853055,-0.038307227,0.28730422,-9.404425,0.7777002,47.683304,-1.0445411,-2.412992,-3.3533883,-0.16370465,0.12152372,-0.17701122,26.375,27.375,26.25,29.1875,30.375,30.875
0.10801775,-0.3398396,-0.53826565,-0.30815592,-0.016795928,0.0054065925,-0.13396133,-0.39184895,-0.36811677,0.059875317,-3.0787165,0.62421757,-0.00041493602,-0.048760172,0.008663684,0.0010368669,-0.0038637158,0.0018091555,0.0066824364,0.50158733,-1.3781391,1.9001459,-2.0909774,-1.5707086,2.4761367,-0.061283197,0.06215662,-0.07902859,0.013418644,0.0023530207,-0.06792959,0.0,0.22984336,-9.385271,0.79560274,47.707485,-1.078496,-2.4537048,-3.3897138,-0.1789959,0.09752865,-0.20400274,26.375,27.375,26.25,29.1875,30.375,30.875
0.11001759,0.4977069,-0.3921008,-0.16201742,-0.018005267,0.016201,-0.14203362,-0.39197102,-0.36809677,0.059894644,-3.0787215,0.62425685,-0.00033420528,-0.049569916,0.008566419,0.001062639,-0.00435532,0.0017877703,0.0052037896,0.5014553,-1.3780186,1.8999537,-2.090953,-1.5707325,2.4760287,-0.062127095,0.06339415,-0.08058136,0.013513449,0.0027950883,-0.06729472,0.038307227,0.2681506,-9.346964,0.80679786,47.716442,-1.0747802,-2.4492838,-3.4322844,-0.1892714,0.10804533,-0.2510978,26.375,27.375,26.25,29.1875,30.375,30.875
0.112017736,-0.33550432,-1.1319464,-0.4382424,0.0059820507,-0.009921045,-0.12092367,-0.39206684,-0.3680915,0.059890345,-3.0787828,0.6241715,-0.00034231407,-0.051241007,0.008254831,0.0018979618,-0.0053581167,0.0032569352,0.006984257,0.5013353,-1.3778862,1.8998092,-2.090965,-1.5706967,2.4758477,-0.063240506,0.06450393,-0.08390542,0.013959594,0.0029634237,-0.070187375,0.076614454,0.21068975,-9.481039,0.78217715,47.7254,-1.0569804,-2.372652,-3.2029328,-0.20258829,0.11268985,-0.26201764,26.375,27.375,26.25,29.1875,30.375,30.875
0.11401763,0.58661014,-0.1239071,-0.2771325,-0.021276321,0.019081725,-0.13621286,-0.39213505,-0.36805752,0.05987854,-3.0787508,0.6241275,-0.00041683167,-0.051331755,0.009167687,0.0002645113,-0.003829,0.0004375771,0.003935605,0.5012149,-1.377777,1.8996905,-2.0908935,-1.5706967,2.475704,-0.06485502,0.06713966,-0.083314955,0.013941033,0.002975101,-0.06875327,0.038307227,0.24899697,-9.3661175,0.842603,47.703903,-1.080372,-2.5811899,-3.3317928,-0.20619878,0.112988524,-0.3042542,26.375,27.375,26.25,29.1875,30.375,30.875
0.11601772,0.01724938,-0.5187264,-0.5609952,-0.013487359,0.012058695,-0.13091311,-0.39227623,-0.36805427,0.05988964,-3.0787876,0.62415427,-0.00037076673,-0.05351783,0.008003349,0.0026917232,-0.006443409,0.0045749824,0.0035245563,0.50107116,-1.377597,1.8994492,-2.090881,-1.5706848,2.4755723,-0.06508477,0.06659806,-0.088366345,0.014649559,0.00327502,-0.06857052,0.0,0.21068975,-9.3661175,0.78217715,47.705692,-1.0915006,-2.412498,-3.1665277,-0.21009566,0.11191998,-0.3234498,26.375,27.375,26.25,29.1875,30.375,30.875
0.1180175,0.05912727,-0.6258832,-0.51130295,-0.014312129,0.027130358,-0.1294814,-0.3923857,-0.36804518,0.05990937,-3.0788507,0.6240879,-0.00034100082,-0.053379722,0.008672563,0.0017758164,-0.0057256073,0.0025488671,0.0054201265,0.5009391,-1.3774886,1.8992704,-2.0908568,-1.57066,2.475391,-0.06627924,0.06766364,-0.08762274,0.014963299,0.0036241377,-0.07166118,0.019153614,0.19153613,-9.404425,0.779936,47.72629,-1.1263508,-2.3982844,-3.2347512,-0.23809089,0.11384565,-0.3494032,26.375,27.375,26.25,29.1875,30.375,30.875
0.12001781,-0.6298626,-0.73857415,-0.67622733,-0.016735725,0.029412806,-0.12730287,-0.3924551,-0.36801746,0.059885886,-3.0787942,0.6240395,-0.0004035476,-0.054255214,0.008279638,0.00083990424,-0.0056533013,0.0010331298,0.0018175151,0.5008433,-1.3773432,1.8991379,-2.0907972,-1.5706843,2.4752722,-0.066826954,0.07151487,-0.09005521,0.014904996,0.004279336,-0.06860615,-0.15322891,0.28730422,-9.442732,0.8224646,47.690468,-1.1552783,-2.592617,-3.2693334,-0.24542886,0.098417595,-0.40511268,26.375,27.375,26.25,29.1875,30.375,30.875
0.122017466,-0.6583636,-0.7886165,-0.4546214,-0.022680486,0.050441377,-0.13466786,-0.39258838,-0.3680115,0.059886754,-3.0788367,0.6240852,-0.0003986366,-0.055471048,0.008016844,0.0026024932,-0.0072709788,0.004171222,0.0023171057,0.5006873,-1.3771638,1.8989233,-2.0907972,-1.5706481,2.4751394,-0.067428865,0.069703355,-0.091975644,0.015111104,0.0041910172,-0.06970692,-0.13407528,0.30645782,-9.423578,0.80456203,47.683304,-1.2472471,-2.3991325,-3.2300134,-0.23976329,0.09108507,-0.45940018,26.375,27.375,26.25,29.1875,30.375,30.875
0.12401776,0.0029003695,-0.08941663,-0.45544347,-0.034902856,0.07392063,-0.1420885,-0.39266574,-0.36797985,0.05987015,-3.0788033,0.62401927,-0.0005134146,-0.05549237,0.008767156,0.00136938,-0.005703473,0.0016997497,0.004482328,0.5005551,-1.3770188,1.8987674,-2.0907009,-1.5706362,2.4749703,-0.06857449,0.07185104,-0.091880634,0.015791295,0.0039974633,-0.07301755,-0.17238252,0.24899697,-9.461885,0.83365434,47.66987,-1.2251071,-2.4168804,-3.2754781,-0.25170973,0.12073072,-0.46841246,26.375,27.375,26.25,29.1875,30.375,30.875
0.12601744,-0.89465064,-0.7633614,-0.58737314,-0.015307636,0.050710835,-0.12654005,-0.3927931,-0.3679757,0.059890416,-3.0788612,0.62400967,-0.00044113665,-0.0566006,0.009121139,0.001574716,-0.0061914185,0.0018070588,0.0062770178,0.5004229,-1.3768864,1.8985642,-2.0907009,-1.5706242,2.474825,-0.070406236,0.072615124,-0.09334664,0.016165301,0.0043763937,-0.07664373,-0.2681506,0.24899697,-9.500193,0.7709874,47.682407,-1.2967136,-2.4173412,-3.3368678,-0.2734641,0.106388584,-0.46025586,26.375,27.375,26.25,29.1875,30.375,30.875
0.12801774,-0.5006283,-0.106472306,-0.46601942,-0.02113761,0.06123625,-0.13948207,-0.39289907,-0.36795256,0.059874244,-3.0788636,0.6239682,-0.000482347,-0.057629406,0.009297551,0.0019183995,-0.0066627474,0.002377365,0.011817944,0.50027853,-1.3767179,1.8983959,-2.090677,-1.5706123,2.4746544,-0.07171574,0.07316222,-0.09483882,0.016385622,0.004510258,-0.08349387,-0.24899697,0.19153613,-9.634268,0.8112748,47.681515,-1.1446121,-2.3883562,-3.3282328,-0.2867986,0.08186975,-0.45261323,26.375,27.375,26.25,29.1875,30.375,30.875
0.13001744,-0.27052805,-0.16786693,-0.5603769,-0.0100728255,0.06558525,-0.13846903,-0.39301378,-0.36795607,0.05990255,-3.0789368,0.62384534,-0.00042429383,-0.059232645,0.008135617,0.0030661274,-0.008270783,0.0049195127,0.01678466,0.500171,-1.3765974,1.8981804,-2.0906408,-1.5706004,2.474461,-0.07134,0.07436183,-0.09883263,0.016179226,0.004697215,-0.088083126,-0.24899697,0.21068975,-9.442732,0.7530795,47.692257,-1.4038086,-2.364602,-3.335946,-0.28271654,0.086222604,-0.41749692,26.375,27.375,26.25,29.1875,30.375,30.875
0.13201794,-0.74310017,-0.35841864,-0.59943044,0.0052073095,0.055557318,-0.12975259,-0.39315125,-0.36792448,0.059892695,-3.0789566,0.623788,-0.00041133942,-0.059367303,0.009516701,0.0017474871,-0.0072574983,0.0026574892,0.020258527,0.49999058,-1.3764168,1.8979887,-2.0906413,-1.5705999,2.4742424,-0.07388077,0.07551934,-0.0971311,0.015791971,0.00489621,-0.09409854,-0.28730422,0.076614454,-9.595961,0.8291774,47.70211,-1.3178215,-2.3157253,-3.298634,-0.2678963,0.081892006,-0.37130356,26.375,27.375,26.25,29.1875,30.375,30.875
0.13401751,-0.7236091,0.24989562,-0.4690211,0.00074799126,0.06486989,-0.13223082,-0.3932675,-0.36790264,0.05989202,-3.0789766,0.6236923,-0.0004113979,-0.061628476,0.009085036,0.0031225313,-0.0088636,0.0058280574,0.026659667,0.4998465,-1.3762606,1.897797,-2.090606,-1.5705999,2.4740362,-0.07514449,0.076136686,-0.10091491,0.01540798,0.0047759507,-0.10176158,-0.30645782,0.038307227,-9.500193,0.800085,47.705692,-1.2013322,-2.3038774,-3.3115673,-0.28072125,0.07381119,-0.2745656,26.375,27.375,26.25,29.1875,30.375,30.875
0.1360178,-1.1742642,0.15588805,-0.30223578,0.0062866425,0.057907812,-0.13512425,-0.3933996,-0.36788234,0.05990775,-3.07901,0.6236385,-0.00037010145,-0.06139409,0.009446447,0.0025125728,-0.007613278,0.0044645634,0.029961033,0.49969077,-1.3761162,1.8975815,-2.0905693,-1.5706004,2.4738429,-0.07523676,0.077093415,-0.10084756,0.016182512,0.0043379813,-0.10515428,-0.30645782,-0.076614454,-9.5385,0.78217715,47.67345,-1.3925331,-2.2790837,-3.2799067,-0.29224268,0.084177665,-0.25393894,26.375,27.375,26.25,29.1875,30.375,30.875
0.13801745,-1.0497832,0.35339078,-0.27844396,0.010070828,0.06276824,-0.13838188,-0.39353332,-0.3678727,0.059914764,-3.0790467,0.6235665,-0.0003015125,-0.06340849,0.00933584,0.0035758174,-0.008754867,0.006403586,0.03252068,0.49955854,-1.3759476,1.8973655,-2.0905693,-1.5706123,2.4736612,-0.07692715,0.07792538,-0.10436279,0.016616385,0.004409793,-0.109402776,-0.4405331,-0.05746084,-9.423578,0.83813137,47.719128,-1.2995818,-2.262347,-3.2948098,-0.29732937,0.08453391,-0.19759375,26.375,27.375,26.25,29.1875,30.375,30.875
0.14001773,-0.99833673,0.45084134,-0.29287493,0.010389988,0.061228603,-0.1305386,-0.39363405,-0.36784276,0.059903707,-3.0790684,0.6234942,-0.00043592544,-0.06459275,0.010317302,0.0032068717,-0.0085344715,0.0057686195,0.031405102,0.499378,-1.3757913,1.8971862,-2.0904853,-1.5705522,2.4734328,-0.07970703,0.0791979,-0.10506887,0.01672021,0.0045137797,-0.11106708,-0.36391866,-0.095768064,-9.519346,0.80679786,47.668976,-1.3041857,-2.216688,-3.266328,-0.32025212,0.07297792,-0.16235736,26.375,27.375,26.25,29.1875,30.375,30.875
0.14201751,-1.0756975,-0.0647236,-0.49319762,0.01548043,0.052416246,-0.12342795,-0.39378914,-0.367819,0.0599301,3.0791175,-0.6233507,0.00029865868,-0.065256946,0.0108243665,0.0025560039,-0.007850474,0.004692343,0.029270286,0.49920994,-1.3756583,1.8969711,-2.0904977,-1.5705761,2.473169,-0.08109298,0.0810807,-0.10587599,0.016915288,0.0044393335,-0.110317096,-0.38307226,0.0,-9.500193,0.83589023,47.703903,-1.426517,-2.2872791,-3.3351696,-0.33140072,0.081376515,-0.16546342,26.375,27.375,26.25,29.1875,30.375,30.875
0.14401783,-1.1933142,-0.40791267,-0.33740574,0.010596835,0.05760617,-0.13254605,-0.3938975,-0.36781877,0.059913363,3.0790937,-0.6233104,0.00041660413,-0.06714136,0.011767712,0.0024149665,-0.007862297,0.005083457,0.022918297,0.4990649,-1.3754535,1.8967551,-2.0904496,-1.5705041,2.473002,-0.08427262,0.08273249,-0.107433,0.016480112,0.0042556855,-0.10714373,-0.51714754,-0.019153614,-9.461885,0.83365434,47.64837,-1.2036463,-2.2053509,-3.3888407,-0.33642593,0.07247407,-0.1812485,26.375,27.375,26.25,29.1875,30.375,30.875
0.14601748,-1.1325854,0.11766073,-0.3560936,-0.0013218758,0.06658809,-0.12647921,-0.394027,-0.36776963,0.05993157,3.0791323,-0.62326145,0.00038166877,-0.06728744,0.011326976,0.0025415504,-0.0075245257,0.005069122,0.019450234,0.4988856,-1.375333,1.8965515,-2.0903652,-1.5705403,2.4727874,-0.08345928,0.08365686,-0.109014645,0.017308868,0.003966522,-0.10286118,-0.61291564,0.0,-9.423578,0.8560339,47.690468,-1.3473392,-2.251472,-3.3642182,-0.3400457,0.07737312,-0.24617359,26.375,27.375,26.25,29.1875,30.375,30.875
0.14801785,-1.0760274,0.03668915,-0.27776814,-0.0031288313,0.08003548,-0.1407081,-0.3941823,-0.3677628,0.05995042,3.0790868,-0.6231994,0.00033593684,-0.06968716,0.013351354,0.0024276131,-0.007783277,0.0050155963,0.010234334,0.49871606,-1.3751525,1.8962892,-2.0903423,-1.570516,2.472585,-0.089190945,0.084560245,-0.1097966,0.017112326,0.0042250142,-0.099376686,-0.59376204,0.076614454,-9.423578,0.83365434,47.70838,-1.1667124,-2.2665932,-3.425878,-0.3428595,0.07111361,-0.29897866,26.375,27.375,26.25,29.1875,30.375,30.875
0.15001744,-1.5113747,-0.4534788,-0.54942214,0.0069610896,0.07043947,-0.11431605,-0.39431766,-0.36773753,0.059934054,3.0791252,-0.62308955,0.00036650634,-0.06993288,0.01243477,0.0027612783,-0.008139283,0.0057303067,0.01147726,0.498549,-1.3749362,1.8960613,-2.0903056,-1.570516,2.4723446,-0.087825894,0.08550293,-0.11173779,0.01731377,0.0041910526,-0.09925376,-0.51714754,0.095768064,-9.481039,0.800085,47.72808,-1.2450273,-2.1792226,-3.393979,-0.35419542,0.075563006,-0.33967996,26.375,27.375,26.25,29.1875,30.375,30.875
0.15201777,-1.3813578,-0.19824481,-0.35209575,-0.0031577123,0.075436056,-0.12469643,-0.39445978,-0.36769167,0.059940077,3.0791252,-0.62310845,0.00031510383,-0.07092652,0.013724539,0.0014861972,-0.0069768494,0.0034850063,0.009631862,0.49835637,-1.3747909,1.8958696,-2.0902817,-1.5705403,2.472164,-0.09090684,0.088209555,-0.11210689,0.017502548,0.004246663,-0.100488774,-0.53630114,0.1340753,-9.442732,0.8247004,47.688675,-1.180486,-2.4010384,-3.4685626,-0.3460322,0.06985329,-0.3643467,26.375,27.375,26.25,29.1875,30.375,30.875
0.15401751,-1.3006843,-0.011039026,-0.257866,-0.0047072214,0.07161166,-0.12957864,-0.3946127,-0.36766532,0.059962746,3.0790813,-0.62308043,0.0002553542,-0.07378545,0.013502383,0.003983959,-0.010015037,0.008256253,0.008597389,0.49816388,-1.3746473,1.8956422,-2.0902584,-1.5705279,2.4719596,-0.093361676,0.0868201,-0.11608404,0.017227082,0.004633714,-0.101908125,-0.49799395,0.1340753,-9.3661175,0.800085,47.72092,-1.0486444,-2.2213132,-3.2914762,-0.3433088,0.07011146,-0.35141438,26.375,27.375,26.25,29.1875,30.375,30.875
0.15601781,-1.0282214,-0.23289534,-0.4826922,0.0055340203,0.07075066,-0.1265146,-0.3947768,-0.36762902,0.05996572,3.0790927,-0.6230442,0.00023381994,-0.072787,0.014946804,0.00042430963,-0.006512598,0.0016616101,0.00658074,0.49795985,-1.3744414,1.8953799,-2.0902097,-1.5705403,2.4717317,-0.094882764,0.091715954,-0.11391364,0.017626893,0.004715385,-0.10141281,-0.40222588,0.1340753,-9.404425,0.779936,47.696735,-1.0618675,-2.2294884,-3.565773,-0.35145792,0.067676544,-0.37720087,26.375,27.375,26.25,29.1875,30.375,30.875
0.15801749,-0.4361258,0.06915939,-0.25678453,0.0005084909,0.07044557,-0.1345201,-0.39494815,-0.36761722,0.059979875,3.0790274,-0.6230693,0.0001853291,-0.07606727,0.014785591,0.0030023374,-0.009571097,0.0068632294,0.0052394234,0.4977673,-1.3742379,1.8951033,-2.0901983,-1.5705155,2.471563,-0.09770221,0.09063354,-0.118401594,0.01716959,0.0049154037,-0.10288935,-0.4213795,0.076614454,-9.346964,0.80679786,47.707485,-0.9541354,-2.2062547,-3.2897773,-0.32388648,0.053647842,-0.38772655,26.375,27.375,26.25,29.1875,30.375,30.875
0.16001827,-0.8001905,-0.28488025,-0.23138608,0.007166327,0.058669355,-0.12905769,-0.3950683,-0.36756554,0.059953585,3.0790462,-0.6230528,0.00024234082,-0.07681568,0.015587358,0.0019158004,-0.008674249,0.0053773867,0.0035987948,0.49756318,-1.3740687,1.8949593,-2.0901859,-1.5705041,2.4713464,-0.099651225,0.09301694,-0.1186995,0.01682045,0.0048332848,-0.10319731,-0.45968673,0.05746084,-9.232041,0.7709874,47.696735,-0.8859113,-2.188066,-3.4813418,-0.3326497,0.06410495,-0.43674377,26.375,27.375,26.25,29.1875,30.375,30.875
0.16201751,-0.8544342,-0.5881369,-0.23811884,0.017005071,0.05295344,-0.12862213,-0.39521444,-0.36755574,0.059960138,3.079007,-0.6229841,0.00026228634,-0.07883362,0.015390584,0.0029247687,-0.009594045,0.007987577,0.009103191,0.4973831,-1.3738762,1.8947076,-2.0901506,-1.5704564,2.4711285,-0.10085791,0.0938857,-0.12196851,0.016497117,0.0043923478,-0.10990622,-0.40222588,0.11492168,-9.193734,0.8403672,47.67166,-0.833879,-2.2211006,-3.3571448,-0.32573378,0.051302604,-0.36530972,26.375,27.375,26.25,29.1875,30.375,30.875
0.16401783,-1.022753,-0.10823578,-0.004669589,0.0040412867,0.059135653,-0.12491179,-0.39539564,-0.36752,0.059986975,3.0790014,-0.62295955,0.00015688816,-0.079966255,0.015679179,0.0031071114,-0.00975737,0.008364947,0.013022052,0.49717912,-1.3736956,1.894421,-2.0901024,-1.5704921,2.47091,-0.10231505,0.09487148,-0.12362878,0.016760388,0.004361917,-0.11528118,-0.34476504,0.1340753,-9.212888,0.842603,47.66987,-0.8255135,-2.2476683,-3.3978305,-0.32584846,0.06986533,-0.3520693,26.375,27.375,26.25,29.1875,30.375,30.875
0.16601749,-0.9960731,0.15356238,-0.12673657,-0.00019541351,0.06568727,-0.13622148,-0.39555863,-0.36748457,0.059989166,3.079001,-0.62284,0.00014194871,-0.08031924,0.016296795,0.0010584346,-0.007747293,0.004441223,0.019295832,0.49696296,-1.3735018,1.8941802,-2.090078,-1.5704802,2.4706194,-0.103700064,0.09958964,-0.12479136,0.017616013,0.0044709044,-0.12293894,-0.40222588,0.19153613,-9.212888,0.842603,47.689575,-0.80898154,-2.3181677,-3.3858552,-0.3319639,0.06405865,-0.277568,26.375,27.375,26.25,29.1875,30.375,30.875
0.16801913,-1.1480396,-0.7419928,-0.2847729,0.00934781,0.07105142,-0.11881026,-0.3957204,-0.36745784,0.059984595,3.0789635,-0.62284595,0.0001651758,-0.0816838,0.015606126,0.003168827,-0.009821017,0.008306624,0.026856769,0.49674746,-1.3732864,1.8939289,-2.0900538,-1.570444,2.4704125,-0.10372989,0.09776412,-0.12746486,0.01773618,0.0044499966,-0.13052893,-0.30645782,0.24899697,-9.251195,0.80679786,47.705692,-0.89054275,-2.1779106,-3.25399,-0.32175577,0.06661406,-0.21151397,26.375,27.375,26.25,29.1875,30.375,30.875
0.17001748,-0.80420643,-0.6767875,-0.17248486,-0.005259455,0.06900997,-0.1266061,-0.39586517,-0.36742985,0.0599811,3.0790105,-0.6226615,0.00018361029,-0.08218884,0.015258165,0.0012968382,-0.008368408,0.0053040097,0.029459234,0.49656796,-1.3730801,1.8936781,-2.0899942,-1.570444,2.470112,-0.103663996,0.10333777,-0.12990084,0.017931538,0.0045988066,-0.133064,-0.28730422,0.24899697,-9.212888,0.86498255,47.709274,-0.9583863,-2.3582509,-3.4256687,-0.32866496,0.05398802,-0.14106405,26.375,27.375,26.25,29.1875,30.375,30.875
0.1720178,-0.589249,-0.7126102,-0.33935335,-0.013725788,0.05927675,-0.12759492,-0.39605787,-0.3674065,0.060008366,3.0789762,-0.6225938,9.6456926e-05,-0.08285771,0.014814868,0.003282023,-0.0101974355,0.008762081,0.031973418,0.4963525,-1.3728772,1.8933667,-2.0899584,-1.570444,2.469859,-0.10345964,0.10044,-0.13100533,0.01802385,0.004569977,-0.13537355,-0.24899697,0.24899697,-9.32781,0.75755644,47.71017,-0.96597564,-2.1724823,-3.3510685,-0.3408867,0.0535197,-0.10503243,26.375,27.375,26.25,29.1875,30.375,30.875
0.17401749,-0.014569408,-0.57403654,-0.38452357,-0.02401928,0.050892334,-0.12924075,-0.3962271,-0.3673434,0.059981916,3.0790117,-0.62254757,0.00011532701,-0.08528891,0.01594976,0.0021325736,-0.009194654,0.0077671604,0.023949075,0.4960996,-1.3726474,1.8931507,-2.0899465,-1.5704564,2.4695728,-0.10727994,0.10498897,-0.13371652,0.017538408,0.0041537816,-0.1311673,-0.22984336,0.22984336,-9.251195,0.8314132,47.70211,-0.841729,-2.3143053,-3.2549853,-0.3238926,0.068780474,-0.13008395,26.375,27.375,26.25,29.1875,30.375,30.875
0.17601776,-0.12184283,-0.7220606,-0.32955888,-0.018042855,0.034748007,-0.12711479,-0.3963963,-0.36730674,0.059997667,3.0789764,-0.6225019,0.00012338746,-0.08542276,0.014684776,0.0025702233,-0.009319122,0.00881655,0.021624083,0.49586108,-1.3724668,1.8928865,-2.089887,-1.5704201,2.4693103,-0.1049894,0.10611972,-0.13614625,0.017861081,0.00376454,-0.1265501,-0.2681506,0.2681506,-9.212888,0.85826975,47.698532,-1.0726596,-2.3685384,-3.229989,-0.31203848,0.068302006,-0.18073206,26.375,27.375,26.25,29.1875,30.375,30.875
0.17801753,-0.124025986,-0.31700796,-0.27430597,-0.015793843,0.03277014,-0.122517206,-0.3965659,-0.3672936,0.059997305,3.0789852,-0.6224706,9.974584e-05,-0.08796534,0.016113069,0.0022794246,-0.0095954845,0.008596019,0.01188507,0.4956915,-1.3722136,1.8925751,-2.0898387,-1.5704321,2.4691203,-0.1098729,0.10846416,-0.13826121,0.017690739,0.0041100946,-0.12169385,-0.19153613,0.24899697,-9.270349,0.77545905,47.672558,-0.8444229,-2.4453504,-3.1546683,-0.30693114,0.084271654,-0.24163967,26.375,27.375,26.25,29.1875,30.375,30.875
0.18001795,0.1429261,-0.44005498,-0.5078441,-0.010912971,0.038165122,-0.12833966,-0.39671695,-0.36724505,0.05997311,3.0790255,-0.6223811,0.00017090609,-0.08842915,0.014898552,0.0026281883,-0.0105113555,0.009289971,0.010061643,0.49546483,-1.371985,1.8923472,-2.0897906,-1.5704201,2.4688327,-0.10850231,0.109968565,-0.14088488,0.017763868,0.004576798,-0.11849948,-0.076614454,0.28730422,-9.289503,0.8403672,47.672558,-1.0474428,-2.468936,-3.1411562,-0.29533547,0.0701422,-0.2926145,26.375,27.375,26.25,29.1875,30.375,30.875
0.18201749,-0.41651714,-0.69811755,-0.37026942,-0.012989315,0.0262427,-0.11868287,-0.3968824,-0.36721358,0.05996271,3.0790215,-0.6223623,0.0001589411,-0.08919324,0.014967238,0.0026474402,-0.010758958,0.009080152,0.0067818984,0.49526086,-1.3717563,1.8920959,-2.0897787,-1.5704197,2.4686177,-0.10946294,0.111098476,-0.14239922,0.018214475,0.0048957844,-0.11618008,-0.05746084,0.36391866,-9.2703495,0.8403672,47.6636,-0.9639318,-2.4444053,-3.114637,-0.29618916,0.07973316,-0.34788537,26.375,27.375,26.25,29.1875,30.375,30.875
0.18401767,-0.26197782,-0.60610604,-0.45930323,-0.025766775,0.028055789,-0.120574445,-0.39708155,-0.36719063,0.059997156,3.0789752,-0.6223129,8.560282e-05,-0.08948225,0.014519249,0.0026106113,-0.011104249,0.008891117,0.0060716746,0.49503347,-1.3715519,1.8917607,-2.089719,-1.5704077,2.4683654,-0.109165765,0.112260915,-0.14376536,0.018421313,0.0052979677,-0.11517221,-0.11492168,0.30645782,-9.32781,0.8537928,47.679718,-1.0184052,-2.4110043,-3.133974,-0.28742176,0.08050884,-0.40396136,26.375,27.375,26.25,29.1875,30.375,30.875
0.18601741,-0.23270167,-0.9763998,-0.60844094,-0.028158478,0.0362162,-0.12289639,-0.39726377,-0.36714455,0.059986312,3.0790045,-0.6223011,7.800794e-05,-0.09173815,0.014850886,0.0034147557,-0.01218823,0.010522499,0.0021939715,0.49480498,-1.3712991,1.8914737,-2.0896714,-1.5704316,2.468126,-0.11182897,0.113330066,-0.14692335,0.018557282,0.00547192,-0.11395669,-0.019153614,0.34476504,-9.3661175,0.8247004,47.647476,-0.89758635,-2.370756,-3.1197107,-0.27619216,0.06636776,-0.45013648,26.375,27.375,26.25,29.1875,30.375,30.875
0.18801773,-0.29794613,-1.22386,-0.6536062,-0.029606443,0.0327371,-0.12213796,-0.397441,-0.36712572,0.05998777,3.0789647,-0.62229025,8.939899e-05,-0.08927195,0.015393614,0.0011698322,-0.00962471,0.00601333,0.0050944826,0.4945899,-1.3710587,1.8911756,-2.0896347,-1.5703958,2.4679093,-0.110378906,0.11429225,-0.14308028,0.018943883,0.0053711343,-0.11540833,-0.038307227,0.30645782,-9.404425,0.90527004,47.711964,-1.1537848,-2.423803,-3.3143566,-0.28526112,0.07929614,-0.48969206,26.375,27.375,26.25,29.1875,30.375,30.875
0.19001742,-0.12655172,-0.96430975,-0.59683657,-0.030466221,0.033465195,-0.122932196,-0.39761788,-0.36709985,0.059978984,3.0789425,-0.622284,4.7457317e-05,-0.09129348,0.015542521,0.0027550072,-0.011546353,0.00878477,0.0062813205,0.4943856,-1.3708186,1.8909124,-2.0896466,-1.5703958,2.467704,-0.112646624,0.11345075,-0.14573917,0.019093815,0.0057490463,-0.11886235,-0.038307227,0.30645782,-9.404425,0.7978386,47.71286,-0.9663311,-2.2299488,-3.1677213,-0.26614553,0.08696839,-0.49708742,26.375,27.375,26.25,29.1875,30.375,30.875
0.19201766,-0.17845286,-0.42240804,-0.67767394,-0.02185583,0.027373357,-0.124685414,-0.39782092,-0.36705992,0.060001034,3.0789149,-0.62227124,-7.25565e-06,-0.09144112,0.015797727,0.0011139004,-0.010262209,0.0060736905,0.015618355,0.49413407,-1.370601,1.8905896,-2.089587,-1.5703958,2.4674482,-0.11325091,0.11706708,-0.14633618,0.019074487,0.0059144106,-0.12880287,0.0,0.2873042,-9.442732,0.7978386,47.692257,-1.183252,-2.5460854,-3.3269749,-0.26237756,0.07511309,-0.4419711,26.375,27.375,26.25,29.1875,30.375,30.875
0.19401748,0.21515042,-0.28352204,-0.68132216,-0.005301168,0.03025841,-0.13091661,-0.39801484,-0.36702657,0.060004253,3.0788953,-0.62220365,-3.5916953e-05,-0.09210709,0.016346043,0.0015180012,-0.010933342,0.006322644,0.024184305,0.493894,-1.3703612,1.8902911,-2.0895631,-1.570383,2.4671686,-0.11501246,0.116478495,-0.1466658,0.019460244,0.006397619,-0.13913079,0.038307227,0.05746084,-9.481039,0.8247004,47.67345,-1.1396018,-2.2049198,-3.4099545,-0.24136809,0.056347653,-0.3835228,26.375,27.375,26.25,29.1875,30.375,30.875
0.1960178,-0.09647767,-0.23643257,-0.6307,0.004804317,0.024720054,-0.13138458,-0.3982091,-0.36701614,0.060014926,3.078847,-0.62207365,-8.496127e-05,-0.09338096,0.016157515,0.0014646188,-0.011895556,0.006782879,0.031489145,0.49367803,-1.3701203,1.8899797,-2.0895636,-1.5703472,2.4668777,-0.11618738,0.11833723,-0.1486107,0.018692479,0.0070361737,-0.14760976,0.095768064,-0.095768064,-9.500193,0.7911258,47.68062,-1.102961,-2.4584515,-3.505054,-0.22772819,0.07010612,-0.28513065,26.375,27.375,26.25,29.1875,30.375,30.875
0.19801743,0.18244283,0.15597735,-0.74562377,0.013140877,0.027551727,-0.12794568,-0.39838693,-0.366965,0.060007274,3.0788958,-0.6219643,-6.3791165e-05,-0.09280231,0.017127508,-9.4379993e-07,-0.010474473,0.0039342144,0.035705023,0.4934383,-1.3698798,1.8896941,-2.0894911,-1.5703591,2.4665637,-0.117295876,0.11958878,-0.14683537,0.018849159,0.0071387775,-0.152935,0.05746084,0.0,-9.557653,0.8873621,47.698532,-1.1238875,-2.3051474,-3.5686483,-0.21741985,0.055828042,-0.21336454,26.375,27.375,26.25,29.1875,30.375,30.875
0.20001775,-0.14073475,0.15600155,-0.60680485,0.015420431,0.01899111,-0.122506976,-0.3985501,-0.36695266,0.05999085,3.0788608,-0.62184167,6.2087e-05,-0.09460511,0.016746068,0.0010585381,-0.011259969,0.0056241024,0.036188703,0.49321043,-1.369615,1.8894047,-2.0894425,-1.5702633,2.4662638,-0.11816325,0.12078915,-0.15094456,0.019915048,0.0070226993,-0.15428449,-0.019153614,0.05746084,-9.500193,0.79560274,47.683304,-1.179424,-2.3262646,-3.4823148,-0.20971838,0.04401,-0.18455973,26.375,27.375,26.25,29.1875,30.375,30.875
0.20201753,-0.13105035,0.29573795,-0.38773814,0.015134526,0.035509992,-0.118221804,-0.39875248,-0.36690015,0.059995115,3.0788617,-0.6217672,7.905036e-06,-0.09623406,0.016897105,0.0023401086,-0.012204502,0.007622417,0.030471781,0.49294645,-1.3693869,1.8891176,-2.0894186,-1.5702752,2.4659534,-0.11975772,0.12044129,-0.15365987,0.020769563,0.0069118217,-0.15016082,-0.15322891,0.038307227,-9.3661175,0.86945957,47.681515,-1.0725093,-2.2568223,-3.4783506,-0.18553449,0.05322229,-0.17762671,26.375,27.375,26.25,29.1875,30.375,30.875
0.20401776,-0.65479326,0.070833266,-0.79733783,0.02488274,0.032540433,-0.11837504,-0.3989204,-0.36686307,0.059988465,3.0789237,-0.6216464,-9.651434e-06,-0.09690517,0.01749245,0.0011125708,-0.011033451,0.005242458,0.024884269,0.49275434,-1.3691454,1.888831,-2.0893586,-1.570311,2.4656782,-0.12136879,0.12369052,-0.1549237,0.021429062,0.007003478,-0.1461837,-0.21068975,0.0,-9.481039,0.800085,47.65464,-1.1316373,-2.435614,-3.3908455,-0.18458067,0.038519643,-0.23216316,26.375,27.375,26.25,29.1875,30.375,30.875
0.20601751,-0.85851777,-0.49790204,-0.8175576,0.020922108,0.048683364,-0.1134819,-0.3991527,-0.36682376,0.060010746,3.0788853,-0.62160254,-9.570521e-05,-0.09846192,0.01790345,0.002274546,-0.0119662415,0.006779428,0.018473115,0.49247822,-1.3688936,1.888472,-2.0893228,-1.570311,2.4653797,-0.12345326,0.12318868,-0.1572189,0.022430675,0.007107386,-0.14185598,-0.24899697,-0.038307227,-9.653421,0.87617236,47.70211,-1.0190006,-2.1579013,-3.4390903,-0.19094986,0.041478597,-0.31026834,26.375,27.375,26.25,29.1875,30.375,30.875
0.20801775,-1.5078931,-0.46160364,-0.76213235,0.0011049531,0.056716163,-0.11482192,-0.3993085,-0.36681288,0.060004536,3.0788698,-0.6214446,-5.681226e-06,-0.098368704,0.017788602,0.0012263327,-0.011016079,0.004452334,0.018236294,0.4922746,-1.3686523,1.8881844,-2.0892622,-1.570239,2.4650795,-0.12328547,0.12592193,-0.15832734,0.023316327,0.007369672,-0.14145105,-0.5554548,0.05746084,-9.634268,0.83589023,47.733456,-1.0732175,-2.3959644,-3.4365928,-0.18804711,0.026240952,-0.32170463,26.375,27.375,26.25,29.1875,30.375,30.875
0.21001755,-1.604463,-0.63661975,-0.9445479,-0.009890349,0.07634723,-0.11824501,-0.39953008,-0.3667485,0.060021427,3.0788682,-0.62146413,-3.0922172e-05,-0.100128785,0.018602861,0.001820134,-0.010943223,0.005301706,0.015519977,0.49197423,-1.3684118,1.8878373,-2.0891664,-1.5702513,2.4647918,-0.12587804,0.12657467,-0.16071393,0.024338208,0.006905614,-0.14132586,-0.63206923,0.1340753,-9.672575,0.83365434,47.698532,-0.9588671,-2.226873,-3.4385138,-0.17816833,0.032614164,-0.342712,26.375,27.375,26.25,29.1875,30.375,30.875
0.21201776,-1.5133501,-0.70023286,-0.7661698,-0.020394122,0.104316145,-0.12627408,-0.39972046,-0.36674756,0.06004294,3.0788066,-0.62139183,-5.263186e-05,-0.100586414,0.018606987,0.0011041325,-0.010379511,0.004011509,0.015365521,0.49177095,-1.3681706,1.8874897,-2.0891182,-1.5702032,2.4645512,-0.12630944,0.12902133,-0.16211875,0.024707895,0.007026041,-0.14160171,-0.7852981,0.21068975,-9.730036,0.8314132,47.692257,-1.145109,-2.2724488,-3.4003549,-0.18323225,0.02778586,-0.38559514,26.375,27.375,26.25,29.1875,30.375,30.875
0.21401745,-2.100527,-1.1904337,-0.7457716,-0.02562618,0.10375741,-0.11597198,-0.3999426,-0.36670545,0.060056675,3.078812,-0.62129396,-0.00010785116,-0.102751605,0.017600205,0.0027924257,-0.012318586,0.007358679,0.018533135,0.4915073,-1.3679062,1.8871292,-2.0890582,-1.5702151,2.464226,-0.12658222,0.12980244,-0.16696046,0.024903994,0.0071547963,-0.14504011,-0.7278373,0.2681506,-9.691729,0.83589023,47.66091,-1.0603173,-2.2491436,-3.2410629,-0.18425448,0.013202993,-0.39693114,26.375,27.375,26.25,29.1875,30.375,30.875
0.21601784,-1.970624,-1.3482959,-0.6552484,-0.023644334,0.117636725,-0.121945426,-0.40010783,-0.3666592,0.06002902,3.0788026,-0.6212676,1.3851654e-05,-0.1037666,0.017552728,0.0019431724,-0.011413083,0.0065211877,0.025395935,0.4912438,-1.367653,1.8868788,-2.0890105,-1.570155,2.4639473,-0.12710467,0.13336377,-0.16930899,0.024873229,0.0067454795,-0.15242393,-0.7469909,0.22984336,-9.691729,0.8985519,47.679718,-1.2519166,-2.163199,-3.328847,-0.17877094,0.03803404,-0.33037955,26.375,27.375,26.25,29.1875,30.375,30.875
0.21801768,-1.8309479,-0.8030186,-0.75784755,-0.01938291,0.109014705,-0.13120548,-0.40035126,-0.36662063,0.060057312,3.0787678,-0.6211781,-0.00011359717,-0.10509447,0.018429369,0.0016527134,-0.011316619,0.0067209126,0.03205513,0.4909675,-1.3674002,1.8865074,-2.088987,-1.5701674,2.4636197,-0.12958723,0.1345917,-0.16999394,0.024205444,0.0065858457,-0.16156448,-0.68953013,0.21068975,-9.557653,0.79560274,47.713753,-1.1118579,-2.1715922,-3.3014016,-0.17016652,0.026560016,-0.24451903,26.375,27.375,26.25,29.1875,30.375,30.875
0.22002004,-1.9841077,-0.76054764,-0.56384265,-0.0045072003,0.08886876,-0.11806838,-0.40058306,-0.3665901,0.06008159,3.0787485,-0.6210935,-0.0002094394,-0.10703808,0.01918256,0.00074583635,-0.011209251,0.0056142383,0.036755204,0.4907151,-1.3671346,1.886124,-2.088939,-1.5701793,2.4633172,-0.13279033,0.13832158,-0.17234203,0.023852956,0.007025724,-0.16946615,-0.5554548,0.2681506,-9.595961,0.842603,47.71465,-1.1182337,-2.395658,-3.2061663,-0.1404702,0.01144787,-0.1290672,26.375,27.375,26.25,29.1875,30.375,30.875
0.22201999,-0.6518632,-0.66495585,-0.42860076,-0.009122134,0.094621144,-0.13051024,-0.4007869,-0.36656463,0.060073413,3.0787382,-0.62087613,-0.00016109803,-0.10747208,0.018097956,0.0010676524,-0.011584102,0.0064837653,0.041935615,0.49045196,-1.3668456,1.8857893,-2.0889032,-1.5701193,2.4629197,-0.13124299,0.13978194,-0.17489046,0.024012119,0.0069482573,-0.17309801,-0.7278373,0.21068975,-9.442732,0.8157518,47.72629,-1.152027,-2.3076212,-3.1577482,-0.110104844,0.020968903,-0.07475123,26.375,27.375,26.25,29.1875,30.375,30.875
0.22401945,-1.2223681,-0.2628224,-0.13572372,-0.013752468,0.06872799,-0.12120932,-0.40100354,-0.36651203,0.06007333,3.078772,-0.6207908,-0.00024893842,-0.10926376,0.019736905,-1.6455902e-05,-0.0096667,0.0050658397,0.03391322,0.4901991,-1.36658,1.8854665,-2.0888784,-1.5701679,2.4626095,-0.13489312,0.14305668,-0.17648308,0.02447847,0.0059273443,-0.1687237,-0.842759,0.2681506,-9.289502,0.8537928,47.674347,-0.9036789,-2.52706,-3.3287454,-0.0970113,0.024133844,-0.07994877,26.375,27.375,26.25,29.1875,30.375,30.875
0.22601895,-1.0034512,-0.31529343,0.032399043,-0.0017235865,0.07471753,-0.123398535,-0.40125746,-0.36648142,0.060086727,3.078758,-0.6206553,-0.00029418475,-0.10874686,0.02010654,-0.00019798308,-0.008789421,0.0045017237,0.027536629,0.48991212,-1.3662565,1.8850359,-2.0888193,-1.5701555,2.46224,-0.13464855,0.1425489,-0.17563592,0.025051676,0.005427789,-0.16210243,-0.80445176,0.2681506,-9.289502,0.90527004,47.682407,-1.100874,-2.2222223,-3.3375444,-0.083735965,0.018361948,-0.13449349,26.375,27.375,26.25,29.1875,30.375,30.875
0.22801864,-1.0526977,-0.14833803,0.051035076,-0.006343632,0.07425105,-0.10848642,-0.40149352,-0.36643872,0.060102202,3.0787237,-0.6205729,-0.000418965,-0.10904926,0.020243272,-8.985431e-05,-0.008648277,0.0041715316,0.021373723,0.48963642,-1.3660041,1.8847016,-2.0888302,-1.5701679,2.4619174,-0.13509159,0.14296004,-0.1766142,0.02597288,0.0054712035,-0.15638182,-0.61291564,0.21068975,-9.232041,0.87393653,47.70838,-1.0963061,-2.3093534,-3.3398542,-0.08563567,0.028435905,-0.22702529,26.375,27.375,26.25,29.1875,30.375,30.875
0.23002018,-1.0724909,-0.033505205,0.33019844,-0.0100273,0.072608456,-0.12708026,-0.40171918,-0.36639646,0.060103882,3.0786867,-0.6206662,-0.00039175403,-0.11039642,0.02057655,-0.00041491367,-0.008844216,0.0034338348,0.012101984,0.48934832,-1.3657031,1.8843187,-2.0887463,-1.5701436,2.4616923,-0.13708884,0.14535007,-0.1788701,0.02639715,0.0059829615,-0.14910658,-0.45968673,0.1340753,-9.193734,0.8605109,47.699425,-1.045183,-2.3402567,-3.3341098,-0.070046954,0.029503517,-0.32394087,26.375,27.375,26.25,29.1875,30.375,30.875
0.23201907,-0.0029611306,0.5466895,0.54056615,-0.012459101,0.0800021,-0.1264859,-0.40194136,-0.3663642,0.060100034,3.0786595,-0.6205837,-0.0003830423,-0.11048094,0.02038045,-0.00067171874,-0.00909204,0.002604251,0.009263806,0.48907295,-1.3654022,1.8839597,-2.088711,-1.5701073,2.461369,-0.13712966,0.146394,-0.1796584,0.02676064,0.0065936474,-0.14630915,-0.28730422,-0.05746084,-8.983045,0.800085,47.677036,-1.14137,-2.3293223,-3.3862,-0.05370906,0.025062252,-0.37328762,26.375,27.375,26.25,29.1875,30.375,30.875
0.23401886,-0.5408956,0.3036627,0.51341206,0.019898465,0.03702831,-0.11660306,-0.4021952,-0.36632255,0.06012052,3.0785825,-0.62060654,-0.0004584274,-0.11181554,0.020491142,-0.0008341566,-0.008763232,0.002783127,0.00591488,0.4887613,-1.3651252,1.8835763,-2.0886867,-1.5700835,2.4610815,-0.13818978,0.14874107,-0.18217254,0.026929747,0.0062261745,-0.1440184,-0.15322891,-0.05746084,-8.983045,0.81351066,47.692257,-1.140132,-2.3044221,-3.344027,-0.040859465,0.020463476,-0.47322994,26.375,27.375,26.25,29.1875,30.375,30.875
0.23601887,0.59463185,0.96494085,0.57166755,0.035144422,0.024144689,-0.12462351,-0.4024153,-0.3662678,0.06010719,3.0786293,-0.620574,-0.0005304048,-0.112680286,0.020372817,0.00042618054,-0.009837926,0.0051668966,0.008500926,0.48850974,-1.3648252,1.883242,-2.0886624,-1.5701436,2.460804,-0.13858381,0.14737199,-0.18344192,0.026954321,0.006059552,-0.14699817,-0.076614454,-0.05746084,-8.90643,0.84708,47.687782,-1.1441301,-2.3194184,-3.278758,0.010047657,0.0222404,-0.510527,26.375,27.375,26.25,29.1875,30.375,30.875
0.2380185,1.6064065,1.3478358,0.39197752,0.047137745,0.014751574,-0.13102916,-0.40264833,-0.366219,0.060109347,3.0786073,-0.62054384,-0.00049390405,-0.114600256,0.02057178,0.0016058903,-0.010395893,0.0075700376,0.016927226,0.48819783,-1.3645248,1.8828586,-2.088579,-1.5701078,2.4604762,-0.140155,0.14758575,-0.18653038,0.027460778,0.005431551,-0.15699428,0.05746084,-0.019153614,-8.772355,0.9231726,47.68599,-1.1536244,-2.3123956,-3.2110753,0.0017203122,0.04222498,-0.47040772,26.375,27.375,26.25,29.1875,30.375,30.875
0.24002303,1.4856824,1.6975073,0.56362134,0.044467263,-0.004517431,-0.13726228,-0.4028868,-0.3661785,0.060106117,3.078588,-0.62047607,-0.0005237833,-0.11619346,0.020974204,0.0022483782,-0.011305667,0.008269778,0.02744788,0.48790947,-1.3642126,1.8824867,-2.0885541,-1.5700954,2.460148,-0.1424619,0.1481877,-0.18892246,0.028216405,0.005924736,-0.16982108,0.038307227,0.076614454,-8.791509,0.88960326,47.689575,-1.0904231,-2.1063967,-3.18341,0.032064963,0.04349725,-0.3665797,26.375,27.375,26.25,29.1875,30.375,30.875
0.24202216,1.3358192,1.2944901,0.3979762,0.042865034,-0.009102067,-0.13432479,-0.40308484,-0.3661302,0.060097672,3.078596,-0.6203733,-0.00042881398,-0.11596902,0.02079168,0.0018085504,-0.01042878,0.00648258,0.038370863,0.48762262,-1.3639357,1.8821524,-2.0884578,-1.5700477,2.4597962,-0.14192005,0.14982137,-0.19032033,0.02998715,0.005994946,-0.18020193,0.22984336,0.095768064,-8.848969,0.8717007,47.709274,-1.2268186,-2.1160555,-3.2437735,0.021085465,0.033883113,-0.2365548,26.375,27.375,26.25,29.1875,30.375,30.875
0.24401902,1.3419448,1.0154487,0.27305183,0.01684519,0.0044657835,-0.1373509,-0.40333405,-0.36608618,0.06011236,3.0785952,-0.6202751,-0.000496364,-0.11842723,0.021520814,0.0028535353,-0.010568686,0.0072737094,0.040684152,0.48733407,-1.3636351,1.8817452,-2.0883973,-1.5700597,2.4594467,-0.14509141,0.15115555,-0.19489202,0.032464456,0.0057605044,-0.18568458,0.24899697,0.15322891,-8.963891,0.85826975,47.696735,-0.9509878,-1.9908969,-3.1711764,0.02506749,0.035972968,-0.17819005,26.375,27.375,26.25,29.1875,30.375,30.875
0.2460184,0.6146217,-0.42641607,-0.052520014,0.01640548,0.002008625,-0.12163143,-0.40356633,-0.36603048,0.06009875,3.078641,-0.6201705,-0.00044892286,-0.11765996,0.023322403,0.0012705127,-0.007853953,0.0021795577,0.035430245,0.487034,-1.363298,1.8813504,-2.0883005,-1.5700597,2.4590757,-0.14732052,0.15252861,-0.19372588,0.0356975,0.005749007,-0.18266053,0.22984336,0.15322891,-9.212888,0.88289046,47.685097,-0.9787706,-2.0970964,-3.2323787,0.009711594,0.043653756,-0.16518572,26.375,27.375,26.25,29.1875,30.375,30.875
0.24801819,0.30746186,-0.81699485,-0.31035492,-0.014608639,0.0157504,-0.12479609,-0.40378213,-0.36597323,0.06009487,3.0786676,-0.6201215,-0.00041680326,-0.11744929,0.024143666,0.0007099662,-0.0061818347,-0.0013033403,0.027829846,0.48674613,-1.3630093,1.8809913,-2.0882037,-1.5700597,2.458754,-0.14851166,0.15389505,-0.1949818,0.039444435,0.00589728,-0.17625117,0.038307227,0.28730422,-9.308656,0.83589023,47.719128,-0.9296042,-2.1087985,-3.2518678,-0.035307903,0.05657001,-0.2398136,26.375,27.375,26.25,29.1875,30.375,30.875
0.25001764,-0.36849323,-1.4863487,-0.5669002,-0.038381703,0.028673105,-0.121031694,-0.40400895,-0.36590323,0.06007975,3.078741,-0.62000257,-0.0003524301,-0.118195646,0.024578203,0.0007350276,-0.0057621924,-0.001737448,0.021995932,0.48643464,-1.3626848,1.8806094,-2.0880835,-1.5700716,2.4583592,-0.14969927,0.15487058,-0.1965108,0.040575303,0.0057141357,-0.17160457,0.0,0.36391866,-9.461885,0.85155696,47.683304,-1.0392259,-2.0746853,-3.2758224,-0.052482903,0.048767187,-0.31197992,26.375,27.375,26.25,29.1875,30.375,30.875
0.25202233,-0.25577793,-1.7831999,-0.71385825,-0.05094854,0.06124934,-0.124262184,-0.40422505,-0.36587465,0.0600762,3.078745,-0.61992437,-0.0002827567,-0.11677307,0.023260554,-0.00053996244,-0.005224737,-0.004973176,0.02354629,0.48617217,-1.3623593,1.8802027,-2.0879753,-1.5700349,2.4580476,-0.14678384,0.15771066,-0.19731289,0.041652437,0.0067461263,-0.17023978,-0.019153614,0.4213795,-9.653421,0.86945957,47.70032,-1.1160052,-2.3379312,-3.3684962,-0.07887609,0.07141403,-0.34610403,26.375,27.375,26.25,29.1875,30.375,30.875
0.25401902,-0.8547373,-1.8764284,-1.0140129,-0.055928886,0.059112456,-0.1216548,-0.40444958,-0.3658116,0.060057573,3.0787754,-0.61989135,-0.00020721734,-0.116969325,0.024267515,-0.0025437134,-0.0034040662,-0.010013802,0.022189045,0.48586008,-1.3620337,1.8798326,-2.0878785,-1.570023,2.4577112,-0.14900509,0.16196491,-0.19840184,0.043796822,0.0074837278,-0.17110382,-0.15322891,0.5554548,-9.768343,0.8560339,47.668976,-1.040033,-2.2714365,-3.3903973,-0.124843895,0.033632822,-0.35610297,26.375,27.375,26.25,29.1875,30.375,30.875
0.25601783,-0.9482075,-2.0413706,-0.76983327,-0.058075126,0.070575155,-0.12939054,-0.40470278,-0.36575934,0.06006831,3.0787852,-0.6197732,-0.00023405234,-0.117314845,0.025110366,-0.0028489837,-0.002544122,-0.011620149,0.024923831,0.48554835,-1.3617213,1.8794144,-2.0877945,-1.5700234,2.4573247,-0.15061861,0.16277045,-0.19911519,0.045532208,0.0074801706,-0.1754518,-0.19153613,0.5554548,-9.864111,0.85826975,47.64658,-1.1258565,-2.2791808,-3.4502265,-0.1660409,0.05584442,-0.39188763,26.375,27.375,26.25,29.1875,30.375,30.875
0.25801817,-0.76423633,-1.166179,-0.6938765,-0.057671133,0.07335888,-0.13261953,-0.40493968,-0.36570743,0.060070787,3.0787687,-0.61980426,-0.00019037713,-0.11695726,0.02602192,-0.004613591,-0.0007493122,-0.015801225,0.029986778,0.48523635,-1.3614078,1.8790082,-2.0876863,-1.5699986,2.4570343,-0.15195492,0.16559447,-0.19888428,0.047023095,0.007845955,-0.18185127,-0.17238252,0.47884035,-9.864111,0.8537928,47.664497,-1.0969381,-2.3729377,-3.539896,-0.20635435,0.04868353,-0.33789277,26.375,27.375,26.25,29.1875,30.375,30.875
0.26001891,-0.44434267,-1.1064485,-0.80792487,-0.031254523,0.061548408,-0.13553959,-0.40516573,-0.36567253,0.060065128,3.0787776,-0.6196082,-0.00012765301,-0.11883052,0.026258923,-0.0046154954,-0.0021981446,-0.014426829,0.038691312,0.48494822,-1.3610829,1.8786124,-2.0876033,-1.5699505,2.4566228,-0.15430719,0.16719076,-0.20040229,0.045071084,0.008481247,-0.19290781,-0.076614454,0.34476504,-9.844957,0.9254084,47.67166,-1.0302652,-2.4228456,-3.450601,-0.20902842,0.040030167,-0.21346967,26.375,27.375,26.25,29.1875,30.375,30.875
0.2620187,-0.52593136,-1.1230428,-0.8654435,-0.026037622,0.046832696,-0.13248155,-0.405394,-0.36562377,0.060046446,3.0788326,-0.6194995,-9.4792296e-05,-0.1208034,0.026398953,-0.0045130397,-0.0027459709,-0.012325094,0.044301912,0.4846723,-1.3607341,1.8782171,-2.08752,-1.5699629,2.4562724,-0.15588512,0.16903532,-0.2024782,0.04319511,0.007972506,-0.20009522,-0.22984336,0.28730422,-9.787497,0.84484416,47.67166,-1.036276,-2.5882633,-3.4707375,-0.20533934,0.03660816,-0.102517925,26.375,27.375,26.25,29.1875,30.375,30.875
0.26401845,-0.8373232,-0.6796861,-0.4117407,-0.033842903,0.049915418,-0.1263315,-0.40565223,-0.36558604,0.060056873,3.0787978,-0.619281,-6.321481e-05,-0.121116586,0.027121713,-0.00544944,-0.0015051845,-0.014560642,0.042682245,0.4843367,-1.3604099,1.877788,-2.087448,-1.5698909,2.4558048,-0.15722841,0.17117466,-0.2032449,0.044395883,0.007919571,-0.19981813,-0.47884035,0.22984336,-9.691729,0.8537928,47.66271,-0.9466442,-2.3722796,-3.6097353,-0.22430748,0.025121592,-0.067364626,26.375,27.375,26.25,29.1875,30.375,30.875
0.2660187,-0.16933191,0.08613619,0.13068719,-0.029050618,0.08127496,-0.15231936,-0.40590695,-0.36551845,0.060056448,3.0788155,-0.61928654,-8.582064e-05,-0.12164013,0.026351726,-0.0045658085,-0.0027394318,-0.012927444,0.037136123,0.4840134,-1.3600863,1.8773812,-2.087364,-1.5699147,2.455483,-0.15649885,0.17094998,-0.20502551,0.044372853,0.008239331,-0.19354218,-0.38307226,0.038307227,-9.557653,0.8806493,47.674347,-0.992838,-2.4032679,-3.5522335,-0.25171483,0.03991438,-0.10454306,26.375,27.375,26.25,29.1875,30.375,30.875
0.2680183,-0.66480803,0.4631861,0.0331632,-0.0013934268,0.06814604,-0.14704198,-0.40615988,-0.36547267,0.060050752,3.0788372,-0.61914176,-9.882058e-05,-0.12341323,0.026095357,-0.0045975256,-0.003252273,-0.012284303,0.027292615,0.48371363,-1.3597375,1.8769616,-2.0873039,-1.5699147,2.4550903,-0.15761988,0.17385596,-0.20842841,0.04405684,0.0083784675,-0.18481812,-0.4405331,-0.038307227,-9.5385,0.85826975,47.705692,-1.0010626,-2.4310505,-3.528657,-0.25572333,0.029906726,-0.21605834,26.375,27.375,26.25,29.1875,30.375,30.875
0.2700177,-0.9217663,0.7685107,0.4147437,0.014924096,0.075593434,-0.14027822,-0.4064307,-0.36545366,0.060070623,3.0787652,-0.6190333,-0.00015512494,-0.12690735,0.026120443,-0.002054666,-0.006331594,-0.0068324646,0.01847642,0.48341352,-1.3594022,1.8765057,-2.087269,-1.5698665,2.4547317,-0.16074352,0.17290828,-0.21292828,0.043251917,0.008567346,-0.17912358,-0.53630114,-0.11492168,-9.308657,0.8784135,47.681515,-1.0298897,-2.3732293,-3.4511194,-0.2454268,0.046825793,-0.2910639,26.375,27.375,26.25,29.1875,30.375,30.875
0.2720181,-0.52450675,0.9196754,0.22272946,0.04062953,0.07453109,-0.14266588,-0.40669173,-0.36540127,0.06008587,3.078718,-0.6190048,-0.00013575885,-0.12755649,0.024571948,-0.0009104573,-0.007696532,-0.0043561887,0.015234253,0.48306686,-1.3590904,1.8760747,-2.0871727,-1.5698189,2.4543734,-0.15864867,0.17331931,-0.21603848,0.043130722,0.008617159,-0.17378533,-0.45968673,-0.11492168,-9.232041,0.86945957,47.67614,-1.1586542,-2.2898014,-3.284964,-0.26704544,0.023434445,-0.39651954,26.375,27.375,26.25,29.1875,30.375,30.875
0.2740183,-0.76339775,1.4489189,0.21377207,0.04561665,0.057161324,-0.1388162,-0.40691897,-0.36533317,0.060057737,3.0788095,-0.61890644,-5.788295e-05,-0.12835553,0.024426576,-0.00035214517,-0.008676241,-0.0035044856,0.013230845,0.48276767,-1.358731,1.8756794,-2.0870535,-1.5698427,2.4540014,-0.1592906,0.17345713,-0.21756919,0.04331013,0.009070939,-0.17242444,-0.51714754,-0.038307227,-9.32781,0.86945957,47.668976,-1.1990116,-2.2314277,-3.3717773,-0.26355666,0.023720745,-0.46410578,26.375,27.375,26.25,29.1875,30.375,30.875
0.27601752,-0.754887,1.1336715,0.25809252,0.03551045,0.062307123,-0.14714175,-0.4072201,-0.36530975,0.06009786,3.0787468,-0.61883026,-0.00017461272,-0.12897938,0.024007697,-0.0006022929,-0.0077664196,-0.0030932708,0.021201406,0.4824564,-1.3583819,1.875152,-2.086981,-1.5698308,2.4536507,-0.15842044,0.17569526,-0.21975142,0.04332729,0.008094183,-0.17952234,-0.40222588,-0.076614454,-9.346964,0.8157518,47.684196,-1.2945554,-2.2993283,-3.3269563,-0.2746506,0.013526857,-0.49312294,26.375,27.375,26.25,29.1875,30.375,30.875
0.2780184,-0.69367826,0.77638,0.18929636,0.011739844,0.07075,-0.14982304,-0.4074378,-0.36521965,0.06004813,3.0788171,-0.6188566,-1.9206907e-06,-0.13056743,0.02527676,-0.00060811476,-0.0070036366,-0.0032358735,0.030428445,0.4821077,-1.358022,1.8748049,-2.0868614,-1.5698193,2.4533098,-0.16145055,0.17690557,-0.22148629,0.04435057,0.0074687796,-0.19177948,-0.4213795,0.038307227,-9.461885,0.86498255,47.68062,-1.1190437,-2.2874393,-3.3575015,-0.28883645,0.031887125,-0.39175272,26.375,27.375,26.25,29.1875,30.375,30.875
0.28001767,-0.6364797,0.20121206,0.10495751,-0.0052767554,0.08793668,-0.15046197,-0.4076939,-0.36518082,0.0600599,3.0787976,-0.618692,-1.0090752e-05,-0.13163672,0.026797684,0.00013629263,-0.0067155617,-0.0026925786,0.039484277,0.48179588,-1.3576992,1.8743733,-2.086789,-1.5697831,2.4528978,-0.16451347,0.17548542,-0.22184752,0.04580699,0.006980943,-0.20389795,-0.30645782,-0.038307227,-9.481039,0.8537928,47.675243,-1.2093537,-2.1003938,-3.424338,-0.31920266,0.030023605,-0.26825017,26.375,27.375,26.25,29.1875,30.375,30.875
0.28201753,-1.0970136,-0.10569059,0.13695529,-0.022182716,0.07908079,-0.14685516,-0.4079697,-0.3651439,0.060069393,3.078815,-0.6184793,-2.7355702e-05,-0.1324741,0.025673289,0.00020449435,-0.007415792,-0.0006616287,0.046499435,0.481485,-1.3573269,1.8738822,-2.086694,-1.5697712,2.4524522,-0.16306052,0.17735608,-0.2238681,0.043844033,0.0066615734,-0.20945881,-0.30645782,0.095768064,-9.442732,0.8985519,47.696735,-1.2225842,-2.0676136,-3.3821301,-0.34735695,0.056321725,-0.1822364,26.375,27.375,26.25,29.1875,30.375,30.875
0.28401744,-0.94833237,-0.49129516,0.10188427,-0.043725785,0.09015798,-0.14284304,-0.40824956,-0.36507982,0.060073424,3.0788133,-0.61844033,-1.4466311e-05,-0.13366053,0.02512448,0.00081261183,-0.0085370345,0.0012427822,0.04382424,0.4811256,-1.3569669,1.8734154,-2.0865862,-1.5697592,2.4520688,-0.16312516,0.1781799,-0.22612093,0.043068092,0.006766129,-0.2068475,-0.49799395,0.17238252,-9.404425,0.8873621,47.688675,-1.3447481,-2.0318573,-3.460979,-0.32073802,0.05061408,-0.1743382,26.375,27.375,26.25,29.1875,30.375,30.875
0.2860174,-0.8762406,-0.5828497,-0.12164,-0.039012436,0.080948055,-0.14331304,-0.408501,-0.3650319,0.060070507,3.078857,-0.61829966,1.5699146e-05,-0.13502474,0.024960916,-3.418417e-05,-0.008341428,0.0015885679,0.036622416,0.4808255,-1.3566055,1.87296,-2.0864675,-1.5697592,2.4516757,-0.16372432,0.18170296,-0.22810377,0.041308753,0.006415471,-0.20024355,-0.38307226,0.24899697,-9.404425,0.8784135,47.693153,-1.3699331,-2.2145455,-3.4197574,-0.31466717,0.07047507,-0.2457535,26.375,27.375,26.25,29.1875,30.375,30.875
0.28801748,-0.57694566,-0.34812492,-0.14682244,-0.022266304,0.064394295,-0.14289148,-0.40877426,-0.3649528,0.060052935,3.0788808,-0.6182495,-4.730155e-05,-0.13558607,0.025979275,-0.0017767968,-0.007170134,-0.0007107226,0.030599559,0.4804767,-1.3562568,1.8725771,-2.0864556,-1.5697955,2.4512928,-0.16580948,0.18480237,-0.22774385,0.040421113,0.0064413347,-0.19630545,-0.2681506,0.24899697,-9.461885,0.86945957,47.709274,-1.359365,-2.2692409,-3.4786742,-0.31666705,0.07678595,-0.32753778,26.375,27.375,26.25,29.1875,30.375,30.875
0.2900175,0.3212414,-0.35998443,-0.36782703,-0.011861076,0.053357724,-0.15122357,-0.40907267,-0.3648929,0.06005761,3.0788717,-0.6182109,-7.773183e-05,-0.13733579,0.026241763,-0.0018376729,-0.008452191,0.0008119937,0.02544111,0.48011604,-1.3558732,1.8720855,-2.0863726,-1.5697955,2.4509094,-0.16790447,0.18627197,-0.22893794,0.03820095,0.006870581,-0.19324149,-0.17238252,0.2681506,-9.557653,0.85826975,47.691364,-1.2986348,-2.1774893,-3.5282178,-0.28826162,0.06414668,-0.3886208,26.375,27.375,26.25,29.1875,30.375,30.875
0.29201746,-0.12412321,-0.59279513,-0.37248376,-0.020197641,0.0088920435,-0.13626108,-0.40936062,-0.36486354,0.06008804,3.0788002,-0.61806273,-0.00011971336,-0.14012586,0.0265636,-0.0013164418,-0.009953851,0.0039093294,0.02297708,0.47977903,-1.3555366,1.8715948,-2.0863016,-1.5697354,2.450489,-0.17068712,0.18789826,-0.23159167,0.035802435,0.0067793876,-0.19355835,-0.1340753,0.38307226,-9.519346,0.91198283,47.690468,-1.2771206,-2.3360505,-3.546028,-0.2554241,0.06274758,-0.3962314,26.375,27.375,26.25,29.1875,30.375,30.875
0.29401746,-0.15339755,-1.2190626,-0.420503,-0.032963656,0.011065285,-0.13984361,-0.40964258,-0.36481252,0.06008348,3.078822,-0.61792564,-0.0001590533,-0.1405115,0.026176551,-0.0024964334,-0.009079524,0.003396945,0.031681344,0.47945538,-1.355152,1.871128,-2.086242,-1.5697473,2.4500773,-0.16993035,0.19120564,-0.23265997,0.034431376,0.006248858,-0.20150462,-0.076614454,0.36391866,-9.500193,0.85826975,47.661808,-1.2583725,-2.303237,-3.555769,-0.23686394,0.08959634,-0.37029734,26.375,27.375,26.25,29.1875,30.375,30.875
0.2960175,-0.11700549,-1.1135828,-0.429295,-0.04343609,0.023211267,-0.15292564,-0.40991405,-0.36475858,0.0600719,3.078825,-0.6178049,-0.00010785566,-0.14208451,0.026851919,-0.0021279142,-0.009482335,0.0039237365,0.04149742,0.47910684,-1.3547684,1.8706726,-2.0861576,-1.5697111,2.4496531,-0.17237155,0.19205679,-0.23472044,0.035009585,0.0063715796,-0.21376139,0.0,0.47884035,-9.461885,0.8537928,47.667187,-1.1434361,-2.3799074,-3.6435518,-0.21366304,0.10018768,-0.25818607,26.375,27.375,26.25,29.1875,30.375,30.875
0.2980175,-0.5071113,-1.6492296,-0.19480866,-0.055825375,0.037426546,-0.1421035,-0.41018987,-0.36469755,0.060068473,3.078835,-0.61766875,-0.00011002512,-0.14369647,0.027228063,-0.0022784155,-0.009264171,0.0036014123,0.04709495,0.4787578,-1.3544073,1.8702286,-2.086086,-1.5696992,2.449218,-0.17424859,0.19466752,-0.23778583,0.03586389,0.006333847,-0.22123459,0.038307227,0.40222588,-9.576807,0.8784135,47.691364,-1.1207299,-2.3355663,-3.5718322,-0.21527311,0.09414489,-0.14268146,26.375,27.375,26.25,29.1875,30.375,30.875
0.30001754,-0.22978899,-1.5270873,0.15098289,-0.058822934,0.05327288,-0.15017797,-0.41050577,-0.36463475,0.06007986,3.0788324,-0.61753553,-0.0001934369,-0.14487253,0.027185034,-0.001960312,-0.010882157,0.004397839,0.04530727,0.47838548,-1.3540237,1.8697265,-2.0860264,-1.5697106,2.4487631,-0.17571028,0.19536197,-0.23925823,0.035185777,0.007414208,-0.22090825,-0.17238252,0.34476504,-9.346964,0.9567419,47.675243,-1.1741772,-2.2143729,-3.4904103,-0.20026912,0.10040404,-0.096998155,26.375,27.375,26.25,29.1875,30.375,30.875
0.3020174,-0.84586716,-1.3239279,0.100224085,-0.03888499,0.034748774,-0.13586031,-0.41079095,-0.36460137,0.060089447,3.078807,-0.6174006,-0.00020268133,-0.14758822,0.02798052,-0.00036528322,-0.013540873,0.0076591345,0.034183625,0.47806036,-1.3536406,1.8692235,-2.085943,-1.5696748,2.448357,-0.17977634,0.19431594,-0.24148636,0.034340877,0.008271178,-0.2138503,-0.24899697,0.40222588,-9.385271,0.9254084,47.684196,-1.1727675,-2.1443207,-3.5067961,-0.15940045,0.09323229,-0.17339051,26.375,27.375,26.25,29.1875,30.375,30.875
0.3040175,-0.6434604,-0.96567196,0.05950833,-0.020859458,0.03855546,-0.14057758,-0.4111034,-0.3645571,0.060105838,3.078758,-0.6172416,-0.00029595164,-0.14781587,0.027361652,1.7961374e-05,-0.014193427,0.008207955,0.025868969,0.4777007,-1.3532685,1.8687319,-2.0859191,-1.5696505,2.4479046,-0.17900062,0.19471736,-0.24296993,0.03463279,0.008610639,-0.20475887,-0.38307226,0.30645782,-9.3661175,0.8784135,47.675243,-1.141305,-2.1664817,-3.6702027,-0.13840319,0.0964027,-0.2746234,26.375,27.375,26.25,29.1875,30.375,30.875
0.30601743,0.1306142,0.027149027,0.17791592,-0.017864646,0.05835268,-0.15613045,-0.4113775,-0.36448923,0.06008124,3.0788116,-0.61717904,-0.00027545367,-0.1495876,0.026825225,0.001145855,-0.01580473,0.010221658,0.017498428,0.4773646,-1.3528606,1.868276,-2.0858352,-1.5696744,2.4475229,-0.17980845,0.1956058,-0.24675305,0.034986828,0.009098152,-0.19719538,-0.36391866,0.21068975,-9.32781,0.9365982,47.682407,-1.1149715,-2.1113584,-3.4581966,-0.11450508,0.07749155,-0.38659176,26.375,27.375,26.25,29.1875,30.375,30.875
0.30801743,-0.68492633,-0.08572973,0.39562842,0.0078420155,0.036531087,-0.14573695,-0.41167125,-0.364424,0.060075212,3.0787694,-0.6172106,-0.0002524161,-0.15071349,0.027395748,0.0005716341,-0.015297081,0.00884426,0.013434636,0.47697958,-1.3524756,1.8678082,-2.0857627,-1.5696381,2.447163,-0.18169807,0.19823001,-0.24891846,0.03599253,0.009282991,-0.19502024,-0.40222588,0.21068975,-9.174581,0.8940802,47.74331,-1.0623782,-2.327778,-3.458786,-0.09346582,0.08946021,-0.48383567,26.375,27.375,26.25,29.1875,30.375,30.875
0.3100174,-0.19359435,0.8609141,0.33620173,0.018537164,0.058399126,-0.15168554,-0.41199207,-0.36438313,0.06008869,3.0787158,-0.6170808,-0.0003443336,-0.1512743,0.027652442,0.00037945103,-0.014767289,0.007861324,0.01785153,0.47661954,-1.3520796,1.8672937,-2.0857384,-1.5696143,2.446729,-0.1824603,0.19975698,-0.25071585,0.037393592,0.009292409,-0.2001979,-0.4213795,0.19153613,-9.174581,0.8985519,47.72808,-1.1165321,-2.1644378,-3.3287282,-0.08038324,0.08104727,-0.5039145,26.375,27.375,26.25,29.1875,30.375,30.875
0.31201747,-0.85011697,0.7138769,0.177024,0.035673704,0.05825671,-0.14672627,-0.4122766,-0.36433664,0.060073677,3.078712,-0.616976,-0.00023998294,-0.15100722,0.027354643,0.00021947196,-0.014532954,0.0065942006,0.030542847,0.4762597,-1.3516482,1.8667792,-2.0856183,-1.5695542,2.4463043,-0.18182464,0.20068489,-0.25189757,0.03890971,0.009677493,-0.21225376,-0.34476504,-0.076614454,-9.212888,0.9768804,47.66808,-1.1735165,-2.1438463,-3.382761,-0.07988542,0.08443645,-0.41130966,26.375,27.375,26.25,29.1875,30.375,30.875
0.31401742,-0.83278733,1.1245797,0.43716353,0.015425789,0.0792749,-0.15294431,-0.41257662,-0.36428526,0.060088504,3.0786927,-0.6168284,-0.00027331448,-0.14951319,0.026418589,-0.0008145297,-0.013301479,0.003554929,0.046628024,0.47590077,-1.3512757,1.8662761,-2.0855339,-1.5695304,2.4458559,-0.17903474,0.20275575,-0.2525496,0.040780574,0.010008512,-0.22554842,-0.40222588,-0.05746084,-9.232041,0.87393653,47.647476,-1.3375527,-2.1436105,-3.4022202,-0.08320283,0.0809201,-0.26077068,26.375,27.375,26.25,29.1875,30.375,30.875
0.3160176,-1.5575576,0.44872195,0.5932298,0.019085526,0.08557339,-0.15129827,-0.41288298,-0.3642347,0.06008851,3.078712,-0.61665666,-0.00030124115,-0.1500881,0.025886055,-0.00026874457,-0.0130161485,0.004085129,0.05285342,0.47555244,-1.3508558,1.8657492,-2.0854495,-1.5695304,2.445398,-0.17820494,0.20380807,-0.25549036,0.042340495,0.009524225,-0.23094277,-0.51714754,-0.019153614,-9.289502,0.8873621,47.684196,-1.428232,-2.0955777,-3.4447865,-0.07584512,0.062295172,-0.15574998,26.375,27.375,26.25,29.1875,30.375,30.875
0.31801745,-1.2201734,0.5208723,0.57493174,0.019320488,0.09615522,-0.14484376,-0.4131853,-0.36418754,0.060096066,3.0786986,-0.61646557,-0.0003095243,-0.15143576,0.027193416,-0.0005797,-0.012090004,0.0033415887,0.045143384,0.4751919,-1.35046,1.8652343,-2.0853655,-1.5694946,2.44492,-0.18109939,0.20530611,-0.25689876,0.043343347,0.009045558,-0.22612627,-0.59376204,-0.11492168,-9.155427,0.89631605,47.73256,-1.531867,-2.0096314,-3.4115202,-0.061734606,0.08236225,-0.1703414,26.375,27.375,26.25,29.1875,30.375,30.875
0.3200175,-1.2136794,0.64357775,0.32874477,0.01792196,0.06833942,-0.1464759,-0.413486,-0.36411083,0.06008319,3.0787568,-0.61634576,-0.00030290877,-0.15180497,0.027340397,-3.1982414e-05,-0.012251684,0.0041099675,0.0380941,0.47482002,-1.3500404,1.8647312,-2.0852573,-1.5695184,2.4444664,-0.18138123,0.20473608,-0.25765625,0.043904163,0.00882688,-0.21935903,-0.4405331,-0.05746084,-9.174581,0.8806493,47.69763,-1.5871878,-2.0033534,-3.3978155,-0.067243226,0.0993689,-0.2602836,26.375,27.375,26.25,29.1875,30.375,30.875
0.3220174,-0.34906808,0.6593983,0.3135135,0.0016131095,0.05844774,-0.15466662,-0.41383204,-0.36405373,0.060089033,3.0787406,-0.6162501,-0.00040103064,-0.15393613,0.028288482,-0.00014375146,-0.011803784,0.0044722804,0.03039872,0.47443518,-1.3495959,1.864169,-2.0852096,-1.5695308,2.444024,-0.18428345,0.20715027,-0.26047245,0.04418562,0.008269993,-0.21456406,-0.38307226,0.0,-9.251195,0.9254084,47.71465,-1.4128902,-2.093601,-3.5059843,-0.037541077,0.090466395,-0.34449202,26.375,27.375,26.25,29.1875,30.375,30.875
0.3240175,0.056932233,0.60351783,0.22103317,-0.0006306193,0.03373733,-0.14484395,-0.4141443,-0.36398953,0.060103737,3.078684,-0.6162388,-0.00042346667,-0.1547638,0.029127738,-0.0011090471,-0.009895551,0.0031288695,0.027312975,0.47403872,-1.3492229,1.863665,-2.0851252,-1.5694951,2.4436278,-0.18557839,0.20994715,-0.2619052,0.044900734,0.007195174,-0.21277204,-0.30645782,-0.05746084,-9.270349,0.88960326,47.716442,-1.4029002,-2.21034,-3.497151,-0.0425937,0.09740952,-0.39998525,26.375,27.375,26.25,29.1875,30.375,30.875
0.32601747,-0.09093895,-0.036272075,0.0938129,0.0067040124,0.023293717,-0.14306158,-0.4144084,-0.3639155,0.060059126,3.078772,-0.61606336,-0.00032066068,-0.15658987,0.029716942,-0.00044936253,-0.010294141,0.0046630837,0.030739915,0.47368917,-1.3487912,1.8632215,-2.0850294,-1.5694951,2.443158,-0.18776993,0.21058317,-0.26430756,0.045131184,0.006837054,-0.21839035,-0.28730422,0.038307227,-9.32781,0.88960326,47.66987,-1.202312,-2.1026115,-3.5269718,-0.017143747,0.13190317,-0.37956607,26.375,27.375,26.25,29.1875,30.375,30.875
0.3280174,0.662697,0.5760978,0.13749509,-0.009081813,0.040170826,-0.16936603,-0.41470355,-0.36385956,0.06002373,3.0788178,-0.6159311,-0.00022216732,-0.15770248,0.030750554,-0.0023569714,-0.009036028,0.0010791488,0.03991433,0.47332883,-1.3483099,1.8626941,-2.084922,-1.5694712,2.4427094,-0.19060332,0.21539447,-0.26608083,0.045878183,0.0073531396,-0.2303976,-0.095768064,0.11492168,-9.32781,0.9947882,47.698532,-1.2881866,-2.2375019,-3.4093566,0.0012792135,0.12557648,-0.27727562,26.375,27.375,26.25,29.1875,30.375,30.875
0.33001745,-0.18838853,-0.38265416,-0.07299264,0.0009027122,0.030798493,-0.14398652,-0.4150456,-0.36380187,0.060055617,3.078789,-0.61576545,-0.00030980227,-0.15837938,0.030955812,-0.002478836,-0.008676033,-0.0004844952,0.048579052,0.47293273,-1.347914,1.86212,-2.0848248,-1.5694588,2.4422138,-0.1916076,0.21730845,-0.26872185,0.048178412,0.0077776047,-0.2400652,-0.19153613,0.24899697,-9.32781,0.9231726,47.704796,-1.272281,-2.191933,-3.5990381,-0.007052928,0.12256076,-0.14300467,26.375,27.375,26.25,29.1875,30.375,30.875
0.33201757,-0.13549545,-0.38397518,0.05149132,-0.012738706,0.04606557,-0.14677155,-0.4153831,-0.36374387,0.060087286,3.0787702,-0.61562836,-0.00039869556,-0.16031775,0.03156007,-0.0009987357,-0.009553629,0.0010579925,0.046166323,0.47254792,-1.3475183,1.861544,-2.0847166,-1.5694588,2.441746,-0.19415238,0.21694261,-0.27216947,0.050222095,0.007872978,-0.2401959,-0.19153613,0.2873042,-9.32781,0.91421866,47.698532,-1.1760066,-2.300165,-3.5442693,-0.013721152,0.14533226,-0.11427688,26.375,27.375,26.25,29.1875,30.375,30.875
0.33401746,-0.28232875,-0.4701637,0.031106783,-0.027699195,0.049474575,-0.1453772,-0.4157035,-0.36367592,0.060064808,3.078786,-0.61548275,-0.00033189612,-0.16141397,0.032051403,-0.0012113221,-0.009587774,-0.0008439748,0.03655319,0.4721395,-1.34705,1.8610052,-2.0846202,-1.5694226,2.4412448,-0.19626676,0.21921872,-0.27506167,0.05251538,0.008753292,-0.23269641,-0.28730422,0.38307226,-9.32781,0.8873621,47.661808,-1.0919536,-2.3122225,-3.4002614,-0.043688796,0.15706491,-0.14349337,26.375,27.375,26.25,29.1875,30.375,30.875
0.33601746,-0.8394806,-0.9189156,0.12044935,-0.036982454,0.046859957,-0.13817424,-0.4160061,-0.3635953,0.060036518,3.0788374,-0.6154605,-0.0002697349,-0.16288738,0.03202176,0.000241434,-0.010427729,0.0005377632,0.02498353,0.4717548,-1.3465945,1.8604892,-2.0844996,-1.5694345,2.44084,-0.19736895,0.2191107,-0.27882043,0.054756127,0.008844548,-0.22222851,-0.4213795,0.49799395,-9.212888,0.86498255,47.653748,-1.0381087,-2.199739,-3.302671,-0.07091746,0.14635701,-0.2734995,26.375,27.375,26.25,29.1875,30.375,30.875
0.33801746,-1.28414,-1.5161484,-0.08202888,-0.023168683,0.043950632,-0.1328793,-0.41632307,-0.3635323,0.060036104,3.07884,-0.6153882,-0.00020144519,-0.16223793,0.033208337,-0.0015763184,-0.0075727613,-0.0042384434,0.015853,0.4713585,-1.3461499,1.8599151,-2.0843427,-1.5693988,2.4403985,-0.1983856,0.22185981,-0.27874914,0.057489518,0.008462134,-0.21411467,-0.49799395,0.4405331,-9.346964,0.8717007,47.690468,-0.9534801,-2.305521,-3.3936298,-0.09586237,0.15207428,-0.38388377,26.375,27.375,26.25,29.1875,30.375,30.875
0.34001753,-1.056366,-0.78738785,-0.15734458,-0.032823104,0.05904366,-0.14226986,-0.41666955,-0.36349168,0.06004175,3.078772,-0.61531895,-0.00026749197,-0.16231051,0.033792756,-0.0017386205,-0.006987131,-0.0058406643,0.011910872,0.47097433,-1.3456938,1.8593405,-2.0843065,-1.5693625,2.4399798,-0.19937013,0.22237277,-0.2795457,0.059472978,0.008683681,-0.21115637,-0.49799395,0.38307226,-9.519346,0.9298854,47.68599,-0.9935448,-2.2379873,-3.4956064,-0.1492565,0.16192852,-0.5165801,26.375,27.375,26.25,29.1875,30.375,30.875
0.34201738,-1.37569,-0.86969286,0.22614846,-0.038338553,0.07800962,-0.1430757,-0.4169841,-0.36340755,0.060025167,3.0788167,-0.61528146,-0.00019280793,-0.16136755,0.032718416,-0.001176968,-0.008149894,-0.0059592132,0.022661174,0.47056705,-1.3452389,1.8587903,-2.0841506,-1.569362,2.4395437,-0.19727768,0.22137776,-0.27991706,0.06042995,0.009772599,-0.21981524,-0.57460845,0.2681506,-9.289502,0.9612189,47.693153,-1.248905,-2.1382527,-3.6333642,-0.16516691,0.1510223,-0.50415576,26.375,27.375,26.25,29.1875,30.375,30.875
0.34401748,-1.0702788,-0.023382612,0.2216342,-0.03095107,0.10198312,-0.15441331,-0.4173002,-0.363347,0.06003122,3.0788264,-0.6150997,-0.00018208333,-0.16046983,0.03248979,-0.0012793695,-0.007172101,-0.009076593,0.03853806,0.4701835,-1.3448191,1.858239,-2.0840294,-1.5693377,2.4390457,-0.19631435,0.22221246,-0.28174415,0.06467317,0.010339902,-0.23472843,-0.4405331,0.22984336,-9.270349,0.9567419,47.66808,-1.363045,-2.0208964,-3.6161256,-0.20990472,0.14456439,-0.35898316,26.375,27.375,26.25,29.1875,30.375,30.875
0.34601745,-1.5893412,0.15021028,0.101683244,0.007689549,0.07552403,-0.13530521,-0.41762957,-0.3632783,0.060018342,3.0788493,-0.61500275,-0.000113824804,-0.16140953,0.03191082,-0.0017326935,-0.0074354424,-0.008518885,0.048442427,0.46977583,-1.3443388,1.8576521,-2.083886,-1.5693139,2.4385748,-0.19596423,0.22493061,-0.2838446,0.06346312,0.010315989,-0.24428214,-0.21068975,0.24899697,-9.232041,0.89631605,47.664497,-1.3861191,-2.1459641,-3.5562744,-0.23166652,0.16672249,-0.23101896,26.375,27.375,26.25,29.1875,30.375,30.875
0.34801745,-0.7359823,1.0192268,0.18241368,0.014110562,0.06266474,-0.14876688,-0.41795325,-0.36324376,0.06001672,3.0788412,-0.61477304,-9.61228e-05,-0.16332315,0.031588465,-0.0014099844,-0.008559159,-0.0073863775,0.047897764,0.46941525,-1.3438706,1.8570651,-2.0837905,-1.5692657,2.438072,-0.19717483,0.22733957,-0.28755283,0.06325908,0.010802184,-0.24494658,-0.19153613,0.11492168,-9.232041,0.87617236,47.704796,-1.3298602,-2.1596396,-3.516199,-0.21698308,0.14861447,-0.19636616,26.375,27.375,26.25,29.1875,30.375,30.875
0.3500176,0.42361683,1.1098413,0.059166413,0.020643337,0.039891187,-0.13929453,-0.4183088,-0.36316836,0.060030445,3.078814,-0.6147534,-0.0001265558,-0.1649039,0.032453917,-0.0010753822,-0.0077366577,-0.007744136,0.03872435,0.46898252,-1.3434263,1.8564662,-2.0836694,-1.5692543,2.4376307,-0.19941026,0.22893447,-0.2908931,0.065694675,0.010226497,-0.23800708,-0.21068975,0.095768064,-9.270349,0.98807013,47.70659,-1.318418,-2.245044,-3.4271665,-0.23498365,0.1617336,-0.2825616,26.375,27.375,26.25,29.1875,30.375,30.875
0.35201767,0.4826163,1.1160847,-0.23867463,0.02165676,0.004418237,-0.14443602,-0.41863352,-0.3630833,0.059997812,3.078884,-0.61463547,-6.528261e-05,-0.1661307,0.033143252,-0.0016278967,-0.0067572463,-0.008315948,0.031243674,0.4685743,-1.3429339,1.855914,-2.0835502,-1.5692662,2.4371402,-0.20102903,0.23140845,-0.29285628,0.06613147,0.009584735,-0.23214483,-0.15322891,0.038307227,-9.289502,0.947788,47.686886,-1.3455441,-2.3702652,-3.4110615,-0.28834194,0.17759249,-0.37123144,26.375,27.375,26.25,29.1875,30.375,30.875
0.3540175,0.32404748,0.26597884,-0.17661065,0.006474114,0.00059848436,-0.14715165,-0.41896677,-0.36301658,0.059986904,3.0789185,-0.61454743,-6.203684e-05,-0.16901277,0.032977097,-0.0005567105,-0.0077854823,-0.004180307,0.02878497,0.46818987,-1.3424535,1.855327,-2.083431,-1.5692786,2.4366968,-0.20242496,0.23305397,-0.2970149,0.06449304,0.008617044,-0.23108053,-0.15322891,0.11492168,-9.346964,0.8873621,47.64479,-1.3585745,-2.4135842,-3.3017416,-0.27900487,0.18068351,-0.39615408,26.375,27.375,26.25,29.1875,30.375,30.875
0.3560175,0.32200864,-0.02814077,-0.15843916,-0.0270652,0.02122988,-0.13976975,-0.41932517,-0.36294067,0.059999526,3.0789473,-0.61441565,-8.6074986e-05,-0.17004882,0.033715356,-0.0011389843,-0.0067760753,-0.005221702,0.03516,0.46776912,-1.3419855,1.8546933,-2.083275,-1.5692905,2.4361904,-0.2040752,0.23541671,-0.29887527,0.065390065,0.008195714,-0.23910493,0.05746084,0.076614454,-9.32781,0.91421866,47.674347,-1.3320811,-2.2982235,-3.2888854,-0.31803063,0.20407814,-0.3823816,26.375,27.375,26.25,29.1875,30.375,30.875
0.35801744,-0.45611662,-0.42346263,-0.40303096,-0.029504364,0.020282835,-0.1470817,-0.41965133,-0.3629017,0.06000656,3.0789032,-0.6142855,2.1075015e-05,-0.17127189,0.03408252,-0.0014139414,-0.0073690373,-0.0054652337,0.046044108,0.46737215,-1.341517,1.8540691,-2.0831077,-1.5691947,2.4357178,-0.20591825,0.23724784,-0.30054292,0.06522116,0.008842819,-0.2518318,0.13407528,0.076614454,-9.404425,0.9365982,47.670765,-1.1845341,-2.3987565,-3.2367673,-0.32164246,0.22759518,-0.2590833,26.375,27.375,26.25,29.1875,30.375,30.875
0.36001754,-0.3286415,-0.32410544,-0.14905886,-0.038236797,0.046986636,-0.14496724,-0.41996083,-0.36279622,0.059956234,3.0790267,-0.61417323,0.00016217088,-0.17223328,0.035586998,-0.0023755783,-0.008535407,-0.006343516,0.05071846,0.4669509,-1.3410133,1.8535317,-2.0829413,-1.5692176,2.4352112,-0.20989306,0.23786847,-0.29874492,0.06306831,0.010253956,-0.26048332,-0.17238252,0.21068975,-9.385271,0.8918391,47.684196,-1.028917,-2.4828086,-3.4005492,-0.32798308,0.20350377,-0.15640202,26.375,27.375,26.25,29.1875,30.375,30.875
0.36201745,-0.5171602,-0.36100116,-0.38188848,-0.03568105,0.059156578,-0.14224039,-0.4203375,-0.36273348,0.05995897,3.0789921,-0.6139958,0.00017787184,-0.17407337,0.03597176,-0.002475076,-0.009867055,-0.0037258358,0.04748057,0.46649474,-1.3405093,1.852887,-2.0828345,-1.569158,2.4346488,-0.21186647,0.23895997,-0.29913998,0.059453472,0.0102630295,-0.25921842,-0.21068975,0.2681506,-9.5385,0.8918391,47.67166,-1.0050564,-2.5129938,-3.536869,-0.31349614,0.20163727,-0.11089204,26.375,27.375,26.25,29.1875,30.375,30.875
0.36401758,-0.8442532,-0.35276592,-0.47845843,-0.04050524,0.067553386,-0.14043242,-0.42066798,-0.36266133,0.059960864,3.0790124,-0.61388993,0.00017757092,-0.17556818,0.036824368,-0.003378171,-0.009547634,-0.0046483036,0.036560364,0.46609798,-1.3400648,1.852311,-2.0827029,-1.569158,2.4341836,-0.21441638,0.24196075,-0.30075437,0.059025038,0.010378602,-0.2508474,-0.15322891,0.19153613,-9.557653,0.9298854,47.65643,-0.9015599,-2.5024471,-3.626513,-0.3038027,0.21153745,-0.17050676,26.375,27.375,26.25,29.1875,30.375,30.875
0.36601746,-0.8945614,-0.5052683,-0.28287035,-0.043477826,0.06399535,-0.13401699,-0.4210264,-0.36257586,0.059948668,3.0790098,-0.6138383,0.00021408797,-0.17750981,0.035769314,-0.0017197507,-0.01257865,0.0018527106,0.025573222,0.46564186,-1.3395734,1.8517126,-2.0825846,-1.5691341,2.4336958,-0.21394335,0.24079137,-0.30214393,0.054407194,0.01013841,-0.23938717,-0.30645782,0.095768064,-9.481039,0.947788,47.66808,-0.906719,-2.3998687,-3.634387,-0.28042853,0.19855611,-0.30954513,26.375,27.375,26.25,29.1875,30.375,30.875
0.36801767,-0.6719391,-0.44986698,-0.22220065,-0.037206165,0.06742328,-0.13465661,-0.4214084,-0.3625391,0.059976246,3.0789566,-0.61369634,0.00011648075,-0.17942975,0.033699654,0.00066726294,-0.015845183,0.009151775,0.020330843,0.465247,-1.3390824,1.8510298,-2.0824902,-1.5691103,2.4332192,-0.2116982,0.23971546,-0.30554056,0.05088981,0.0097843185,-0.2318979,-0.47884032,0.11492168,-9.519346,0.89631605,47.683304,-1.0386951,-2.270394,-3.5545602,-0.21670583,0.22345558,-0.44755414,26.375,27.375,26.25,29.1875,30.375,30.875
0.37001738,-0.80748105,-0.018462349,-0.36622995,-0.024571382,0.07019303,-0.14066027,-0.42173955,-0.36246547,0.059939824,3.0789611,-0.613636,0.00019505832,-0.18170223,0.032877557,0.0014531856,-0.017992282,0.012225608,0.02391753,0.46482658,-1.3385782,1.850478,-2.0824072,-1.569074,2.4327607,-0.21236157,0.24165505,-0.3093956,0.04911327,0.01031616,-0.23614721,-0.59376204,0.11492168,-9.442732,0.9858343,47.689575,-1.0591807,-2.2546957,-3.506371,-0.17794564,0.23845643,-0.48790953,26.375,27.375,26.25,29.1875,30.375,30.875
0.3720174,-0.8838808,0.27465266,-0.71500266,0.0047287447,0.056402795,-0.1393393,-0.42211315,-0.36240312,0.05995294,3.0789394,-0.6135654,9.695691e-05,-0.18227045,0.03283831,0.0019267217,-0.018646821,0.011936804,0.037143413,0.4644185,-1.3380984,1.8498434,-2.0823224,-1.5690855,2.4323115,-0.21301398,0.24209209,-0.31147107,0.05073953,0.011071571,-0.25002456,-0.1340753,0.15322891,-9.634268,0.9365982,47.68062,-1.2279848,-2.2314851,-3.4117107,-0.17175734,0.21834226,-0.39189443,26.375,27.375,26.25,29.1875,30.375,30.875
0.3740174,-0.93843985,0.30984238,-0.8564439,0.0048225173,0.053665195,-0.14140156,-0.42245325,-0.36234954,0.05994763,3.0789382,-0.61329085,0.00014006671,-0.1832108,0.032545634,0.001191289,-0.01847089,0.011821566,0.04938528,0.46401054,-1.3376181,1.8492445,-2.082215,-1.5690259,2.4317324,-0.21306233,0.245223,-0.31354907,0.049910214,0.01098523,-0.2623138,-0.21068975,0.095768064,-9.634268,0.9612189,47.661808,-1.2304311,-2.2289484,-3.4799562,-0.1577411,0.2069475,-0.24731624,26.375,27.375,26.25,29.1875,30.375,30.875
0.37601742,-1.3240739,-0.5514834,-0.8157712,-0.010054934,0.06617806,-0.11785581,-0.42282656,-0.36227208,0.059937194,3.078926,-0.6131539,0.00018751682,-0.18391716,0.032133482,0.0007065064,-0.019105801,0.011964858,0.052034646,0.46354243,-1.3371013,1.8486098,-2.0820963,-1.5689772,2.4311805,-0.21305315,0.24740042,-0.31496713,0.048760008,0.0114950435,-0.26495364,-0.4213795,0.2681506,-9.557653,0.91421866,47.691364,-1.2252883,-2.4341402,-3.5403116,-0.099829845,0.21935605,-0.17164838,26.375,27.375,26.25,29.1875,30.375,30.875
