Tylouw/Master_Thesis_Code/training_data/batch_1/rect_rod_t0.1/sample_65_session_2.csv
timestamp[s],tcp_force_x[N],tcp_force_y[N],tcp_force_z[N],tcp_force_rx[Nm?],tcp_force_ry[Nm?],tcp_force_rz[Nm?],tcp_pose_x[m],tcp_pose_y[m],tcp_pose_z[m],tcp_pose_rx[rot_vec_x],tcp_pose_ry[rot_vec_y],tcp_pose_rz[rot_vec_z],tcp_velo_x[m/s],tcp_velo_y[m/s],tcp_velo_z[m/s],tcp_velo_rx[rot_vec_x/s],tcp_velo_ry[rot_vec_y/s],tcp_velo_rz[rot_vec_z/s],q1[rad],q2[rad],q3[rad],q4[rad],q5[rad],q6[rad],qd1[rad/s],qd2[rad/s],qd3[rad/s],qd4[rad/s],qd5[rad/s],qd6[rad/s],tool_acc_x,tool_acc_y,tool_acc_z,current_of_whole_robot[A],voltage_of_whole_robot[V],current_J1[A],current_J2[A],current_J3[A],current_J4[A],current_J5[A],current_J6[A],temp_J1[C],temp_J2[C],temp_J3[C],temp_J4[C],temp_J5[C],temp_J6[C]
9.720002e-07,-0.38865852,-0.26552156,-0.2505315,-0.03541781,0.009320416,0.0071235443,-0.3893635,-0.36870366,0.060029186,-3.0787015,0.6250426,0.00028850554,0.0011811755,0.000605447,-0.001612244,0.001583972,-0.0031385515,0.00016899536,0.5049969,-1.3816794,1.904199,-2.0919273,-1.5708774,2.480061,0.0,0.0011643443,0.002276076,7.216861e-05,0.0001373346,-0.00016994089,0.1340753,0.24899697,-8.714894,0.779936,47.705692,-0.21763572,-3.049333,-2.3672295,-0.19785169,0.1303235,-0.00022365456,25.6875,26.5625,25.625,28.0625,28.875,29.3125
0.002054919,-0.56808215,-0.6262567,-0.15037195,-0.022099216,0.013220189,0.0033268905,-0.3893157,-0.36872157,0.060001973,-3.0787094,0.62490994,0.00019639368,-0.0013357585,-0.00079406745,-0.001475978,-0.002439975,0.0040947837,0.00016488541,0.50505686,-1.381667,1.9042472,-2.091931,-1.5708536,2.4800372,0.0,0.0024410852,0.0027274885,-0.009933259,0.00013681679,-0.00016475539,0.095768064,0.21068975,-8.714894,0.7105615,47.72719,-0.18469535,-2.848401,-2.2890851,-0.16765729,0.10541554,0.0054547912,25.6875,26.5625,25.625,28.0625,28.875,29.3125
0.004054428,-0.13000171,-0.36914632,-0.13540047,-0.034214187,0.027729293,-0.00072572555,-0.38934532,-0.36873806,0.060031436,-3.0787625,0.6249207,0.00029635598,-0.0019298474,-0.0011237948,-0.0015497578,-0.0030961642,0.005276484,0.00016047816,0.50505686,-1.3816788,1.9041995,-2.0919554,-1.5708536,2.4800372,0.0,0.0032202126,0.0023796882,-0.011716246,0.00013439951,-0.00015987692,0.019153614,0.30645782,-8.599973,0.7239871,47.690468,-0.22107346,-3.342301,-2.573059,-0.04910133,0.13620496,0.017070588,25.6875,26.5625,25.625,28.0625,28.875,29.3125
0.006054517,-0.49484104,-0.4280869,-0.1953842,-0.021895355,0.0065714666,0.0025918086,-0.38934818,-0.36871994,0.060011853,-3.0787528,0.6249767,0.00024152361,-0.0008111848,-0.0005005257,-0.0012006812,-0.0013429709,0.002133812,0.00015541051,0.5050088,-1.3816671,1.9042352,-2.0919774,-1.5708297,2.4800253,0.0,0.0020963724,0.0016839195,-0.0062980084,0.00013194534,-0.00015527969,0.0,0.2681506,-8.523358,0.679228,47.689575,-0.21948427,-3.2803638,-2.4549465,-0.07659195,0.115107685,0.0132056475,25.6875,26.5625,25.625,28.0625,28.875,29.3125
0.008054539,0.15111107,0.36418712,-0.63944227,0.00457011,-0.0029329897,0.0014146328,-0.38933694,-0.36871642,0.060004145,-3.0787165,0.624911,0.00018098239,0.00013308348,2.6166046e-05,-0.00014992632,-0.00037478772,0.00040912535,0.00015036904,0.50502086,-1.3816439,1.9042114,-2.0919158,-1.5708417,2.480001,0.0,-0.0004030199,0.0010969681,-0.0012338303,0.0001295716,-0.0001509386,0.0,0.21068975,-8.810662,0.7284641,47.70211,-0.16289224,-3.204905,-2.503435,-0.12508172,0.116052166,0.023272702,25.6875,26.5625,25.625,28.0625,28.875,29.3125
0.010054419,0.2732204,0.8126705,-0.9478671,0.007994931,-0.0031778316,-8.7579276e-05,-0.3893369,-0.36871198,0.060000435,-3.078704,0.62492836,0.00019358145,0.00024153292,8.7529595e-05,0.00024314062,-0.00031208753,0.00030445735,0.00015819361,0.50502086,-1.3816442,1.9042228,-2.0919273,-1.5708536,2.4800134,0.0,-0.0010900582,0.0007526817,-8.0560305e-05,0.0001272809,-0.00015885067,0.0,0.076614454,-8.925584,0.7016076,47.664497,-0.68843365,-2.5219219,-3.000033,-0.15361966,0.11098407,-0.028154097,25.6875,26.5625,25.625,28.0625,28.875,29.3125
0.012054004,-0.4036148,0.086362034,-1.1271956,-0.013269143,-0.00045490335,-0.0011486557,-0.38932958,-0.36869377,0.059985768,-3.0786374,0.6249549,0.00017086096,-0.0006720037,0.0022570181,-0.002626204,0.0034321225,-0.0064557306,-0.0042968676,0.50501966,-1.3816304,1.9042343,-2.0919025,-1.5708898,2.4800372,-0.00450778,0.005081385,-0.00068886374,0.00291736,0.00012506991,-0.0002103189,0.038307227,0.1340753,-9.232041,0.7351769,47.71017,-0.7874601,-2.5383947,-3.087247,-0.17322537,0.120601445,-0.09511246,25.6875,26.5625,25.625,28.0625,28.875,29.3125
0.01405455,-0.8871282,-0.7132542,-1.3204211,-0.038517848,0.017148413,0.0006517688,-0.38934767,-0.36869907,0.059977718,-3.0786726,0.6249601,0.00011970058,-0.0045034504,0.0031977436,-0.0047943587,0.0048543536,-0.00905311,-0.002451878,0.5049816,-1.3815907,1.9042085,-2.091915,-1.5708417,2.4799979,-0.009679692,0.014235302,-0.006477641,0.0025124443,0.00012293457,-0.007223347,-0.038307227,0.21068975,-9.251195,0.7530795,47.684196,-0.4490496,-3.2511435,-3.015497,-0.16068351,0.12885961,-0.10688676,25.6875,26.5625,25.625,28.0625,28.875,29.3125
0.016053833,-1.1095119,-1.2949514,-1.3393378,-0.06404231,0.05337596,-0.013672203,-0.38933218,-0.36868584,0.05996544,-3.0786424,0.62491196,7.628369e-05,-0.005571384,0.0030648145,-0.002946733,0.0028083082,-0.005356079,0.0049382835,0.5049813,-1.3815919,1.9042324,-2.091891,-1.5708536,2.4799714,-0.010452393,0.011436149,-0.0072188824,0.0018260204,0.00012087075,-0.015386282,-0.26815057,0.28730422,-9.308656,0.6948948,47.68599,-0.4362313,-3.0126328,-3.0980709,-0.1318155,0.1291191,-0.017394831,25.6875,26.5625,25.625,28.0625,28.875,29.3125
0.018053755,-2.2897277,-1.3792982,-1.4417822,-0.06600334,0.057189252,-0.010174044,-0.38933504,-0.36867604,0.059921637,-3.0785692,0.6248762,-4.034668e-05,-0.005584098,0.0028220494,-0.0029293685,0.002657889,-0.00511036,0.0088879205,0.5049695,-1.3814837,1.9041961,-2.0918553,-1.5708655,2.4799466,-0.01006174,0.011639392,-0.00743702,0.0015522696,0.00013016284,-0.018945144,-0.34476504,0.28730422,-9.32781,0.7396539,47.68062,-0.7358391,-2.7525802,-3.3367414,-0.10143329,0.11339235,0.0071198745,25.6875,26.5625,25.625,28.0625,28.875,29.3125
0.020054126,-1.9522818,-0.5671668,-1.6238858,-0.055271443,0.079060405,-0.035161596,-0.3893438,-0.3686753,0.059922807,-3.0785868,0.6249196,-5.0447867e-05,-0.0062800255,0.0032646714,-0.002950726,0.0031951307,-0.006123083,0.006520392,0.50494516,-1.3814832,1.9041957,-2.0918672,-1.5708417,2.479947,-0.011470861,0.012770451,-0.009106882,0.0032378272,0.00015042245,-0.017986083,-0.36391866,0.24899697,-9.557653,0.7463667,47.704796,-0.8038672,-2.7605429,-3.4051652,-0.118956,0.13889913,-0.0057779998,25.6875,26.5625,25.625,28.0625,28.875,29.3125
0.022053719,-2.1669118,-0.75808716,-1.6229607,-0.02168263,0.060558964,-0.058842465,-0.38933477,-0.3686902,0.059920188,-3.078623,0.62483394,-0.00010415086,-0.0074816463,0.0041792938,-0.0035196356,0.0044356952,-0.008450947,0.0014678239,0.504956,-1.3814703,1.9041833,-2.0918539,-1.5708054,2.4799,-0.014161499,0.015531646,-0.011615368,0.0056233625,0.00019118487,-0.01562301,-0.45968673,0.21068975,-9.710882,0.7642693,47.723602,-0.8128296,-2.710981,-3.4620452,-0.1362213,0.13669321,-0.059936546,25.6875,26.5625,25.625,28.0625,28.875,29.3125
0.024054293,-1.7137551,-0.4585112,-1.7898132,-0.019652376,0.06586996,-0.07040795,-0.3893775,-0.3686765,0.0599093,-3.078583,0.6249029,-9.380037e-05,-0.008489584,0.003941923,-0.003386267,0.0033984145,-0.00879021,-0.00030381142,0.50490785,-1.3813976,1.9041222,-2.0918539,-1.5708293,2.4799,-0.015371502,0.017049057,-0.013821801,0.006103346,0.0012589328,-0.015062064,-0.59376204,0.19153613,-9.595961,0.7284641,47.690468,-0.92781955,-2.7039752,-3.3875098,-0.13465351,0.107524134,-0.101085,25.6875,26.5625,25.625,28.0625,28.875,29.3125
0.026055153,-1.1902008,-0.15774882,-1.7905811,-0.03550457,0.08605027,-0.09602678,-0.3893841,-0.3686469,0.059895094,-3.0785546,0.62483937,-0.00013905282,-0.009780902,0.0040861,-0.0038546706,0.003034176,-0.008674962,-0.0011083715,0.50485927,-1.3813848,1.9041342,-2.0918305,-1.5708412,2.4798152,-0.016983084,0.019293703,-0.015133312,0.004891983,0.0015149327,-0.015868563,-0.842759,0.21068975,-9.691729,0.7105615,47.690468,-0.86216855,-2.7863822,-3.3645463,-0.13072011,0.11432597,-0.108763866,25.6875,26.5625,25.625,28.0625,28.875,29.3125
0.028053999,-1.8532782,-0.9174146,-1.922363,-0.04592679,0.0980362,-0.10518562,-0.38940588,-0.36866334,0.059894126,-3.078548,0.62491584,-0.00015242957,-0.010580226,0.0039131595,-0.0034625505,0.0019045483,-0.0074988706,-0.0013323486,0.5048591,-1.3813249,1.9040626,-2.091818,-1.5708293,2.4798636,-0.017698491,0.019380646,-0.015933892,0.004028466,0.0019308827,-0.016360275,-0.8619126,0.11492168,-9.80665,0.8090337,47.647476,-0.88527095,-2.683799,-3.4828482,-0.11393413,0.095277414,-0.094003774,25.6875,26.5625,25.625,28.0625,28.875,29.3125
0.030054357,-2.536576,-0.85314655,-1.628179,-0.059499934,0.10370825,-0.11125437,-0.38943532,-0.36864868,0.05989368,-3.0785434,0.62491435,-0.00019117777,-0.0112864645,0.0037486253,-0.002859934,0.0015148686,-0.0063637383,-0.0021781062,0.5047991,-1.3812888,1.904013,-2.0917828,-1.5708169,2.4798033,-0.017949194,0.01938426,-0.017366255,0.00427637,0.0017197796,-0.015764337,-0.8619126,0.095768064,-9.80665,0.7553206,47.699425,-0.8479675,-2.7298837,-3.423978,-0.10259363,0.1103849,-0.114046864,25.6875,26.5625,25.625,28.0625,28.875,29.3125
0.032053757,-2.4621186,-0.7730023,-1.6912643,-0.037124094,0.1128045,-0.11858548,-0.38944528,-0.36863786,0.059871268,-3.078486,0.62494195,-0.00022611688,-0.012335634,0.004121407,-0.0025878162,0.0018792908,-0.0066971555,-0.004502752,0.50478673,-1.3812283,1.9039897,-2.09177,-1.5708412,2.4798155,-0.019458702,0.020470653,-0.019647032,0.0059391707,0.0015603561,-0.014948073,-0.8236054,-0.038307227,-9.80665,0.7553206,47.713753,-0.9656661,-2.677647,-3.4327812,-0.11333519,0.11937176,-0.120670035,25.6875,26.5625,25.625,28.0625,28.875,29.3125
0.03405393,-1.9602484,0.03710764,-1.6775184,-0.012845472,0.11407255,-0.12948324,-0.38944858,-0.36862454,0.059838936,-3.078463,0.624958,-0.00034953063,-0.0129564805,0.0042408286,-0.0024843067,0.002050497,-0.0066218395,-0.005981307,0.50473857,-1.381168,1.9039892,-2.0917575,-1.570805,2.4797802,-0.02012242,0.02120789,-0.020868415,0.006441584,0.001371494,-0.014132436,-0.7086837,-0.05746084,-9.883265,0.72622824,47.704796,-0.91142297,-2.6976585,-3.4142978,-0.12730768,0.10416052,-0.16905038,25.6875,26.5625,25.625,28.0625,28.875,29.3125
0.036054164,-1.6472862,0.23797335,-1.8821486,0.0022999642,0.0911218,-0.12051017,-0.38949305,-0.36863044,0.059853625,-3.0784895,0.6249443,-0.00027821618,-0.014324775,0.0038663223,-0.0018183156,0.0008694629,-0.0046560206,-0.006128969,0.50471437,-1.3811318,1.9039158,-2.09177,-1.5708169,2.4797442,-0.020818206,0.021832636,-0.022929551,0.005585681,0.001448547,-0.0146796005,-0.59376204,0.019153614,-9.749189,0.7486078,47.72719,-0.8834238,-2.7242808,-3.3544025,-0.11896612,0.10723881,-0.16563693,25.6875,26.5625,25.625,28.0625,28.875,29.3125
0.038053993,-1.2507943,0.1405892,-1.8792372,0.004589546,0.07404428,-0.11768354,-0.38953373,-0.36861876,0.059849653,-3.0785,0.62498486,-0.0003025469,-0.015913505,0.004107177,-0.0017293831,-0.000342475,-0.0036425265,-0.007382968,0.5046418,-1.3810833,1.9038676,-2.0917704,-1.570793,2.4796956,-0.023059215,0.022974132,-0.024170442,0.004210237,0.002012829,-0.0156668,-0.47884035,-0.1340753,-9.653421,0.73741806,47.70211,-0.90829813,-2.6630692,-3.3860915,-0.089883834,0.10448517,-0.1823987,25.6875,26.5625,25.625,28.0625,28.875,29.3125
0.040054537,-1.1575309,-0.21704353,-1.8907449,-0.009332814,0.062794395,-0.11587285,-0.38955227,-0.36860564,0.059838265,-3.0784602,0.6249776,-0.0003207689,-0.017569039,0.0043399767,-0.0015419562,-0.0012257766,-0.002752041,-0.007812214,0.5046169,-1.3810347,1.9038309,-2.091747,-1.5708164,2.4796712,-0.025208041,0.024307199,-0.026016016,0.0035144356,0.0023486048,-0.017386032,-0.47884035,-0.114921674,-9.672575,0.75084364,47.681515,-0.86093676,-2.7020693,-3.424016,-0.0694698,0.11680467,-0.16866398,25.6875,26.5625,25.625,28.0625,28.875,29.3125
0.04205408,-0.8401759,-0.37064743,-1.8329884,-0.02306918,0.06879509,-0.116998196,-0.38960308,-0.36858848,0.059833292,-3.078439,0.62512594,-0.00033396055,-0.018981654,0.004052839,-0.0007434162,-0.0019782751,-0.0014314782,-0.0076252054,0.50453305,-1.3809744,1.9037708,-2.0917466,-1.5708045,2.4796827,-0.02605168,0.025163308,-0.028980106,0.0041028783,0.0023633488,-0.018415427,-0.4213795,0.05746084,-9.691729,0.6725152,47.716442,-0.8817947,-2.6025038,-3.3573184,-0.06443957,0.107084766,-0.18037513,25.6875,26.5625,25.625,28.0625,28.875,29.3125
0.04405445,-1.1227833,-0.55667824,-1.9178613,-0.024488889,0.058998995,-0.11070742,-0.3896318,-0.3685855,0.059836067,-3.0784326,0.6250675,-0.00033818046,-0.019040802,0.0047967904,-0.0012716244,-0.00047714723,-0.003766426,-0.008574788,0.5045086,-1.380926,1.9036988,-2.0917094,-1.5708164,2.4796226,-0.0272443,0.026406137,-0.029773958,0.0064240377,0.0021812378,-0.018657882,-0.28730422,0.019153614,-9.634268,0.7866488,47.733456,-0.904242,-2.6535058,-3.290327,-0.067589894,0.10858342,-0.20312804,25.6875,26.5625,25.625,28.0625,28.875,29.3125
0.046054095,-1.0785927,-0.49919173,-1.8098855,-0.023170754,0.050626133,-0.10416698,-0.3896847,-0.3685691,0.05984636,-3.0784535,0.62512994,-0.00030530334,-0.019732162,0.005046468,-0.0010613983,-0.0004273951,-0.00364932,-0.008642715,0.5044244,-1.3809019,1.9036497,-2.0917218,-1.570805,2.4795747,-0.028243875,0.026857477,-0.03092816,0.0070490967,0.0020801413,-0.019588789,-0.15322891,0.038307227,-9.653421,0.7665104,47.70032,-0.89533234,-2.6310697,-3.3547394,-0.08977909,0.1161419,-0.21682566,25.6875,26.5625,25.625,28.0625,28.875,29.3125
0.048053652,-1.1263222,-0.9062383,-1.9760283,-0.019462312,0.03291168,-0.09745547,-0.38974848,-0.3685775,0.05987436,-3.078505,0.62519765,-0.00024573997,-0.020252572,0.0057053543,-0.0014869728,0.0001599547,-0.004528996,-0.0087707415,0.5043641,-1.3808655,1.9035429,-2.0917218,-1.5707811,2.4795501,-0.029779658,0.027845753,-0.031207006,0.0073944493,0.0019920336,-0.020996012,-0.076614454,0.13407528,-9.557653,0.7329411,47.696735,-0.8610678,-2.6525064,-3.402812,-0.084272996,0.12213653,-0.21328975,25.6875,26.5625,25.625,28.0625,28.875,29.3125
0.050053798,-0.30674547,-0.7996998,-1.8063378,-0.026136424,0.03488299,-0.109114826,-0.3897873,-0.36853558,0.05983565,-3.0784063,0.62523425,-0.0003241356,-0.022162655,0.005905923,-0.0008006499,-0.0007963108,-0.0028844548,-0.009318214,0.50427955,-1.3807571,1.9034947,-2.091686,-1.5708169,2.479501,-0.031920128,0.028677205,-0.033700038,0.0071532503,0.0020257146,-0.022588095,-0.038307227,0.19153613,-9.5385,0.7016076,47.707485,-0.7875893,-2.5804117,-3.4235637,-0.07892923,0.112480484,-0.22816527,25.6875,26.5625,25.625,28.0625,28.875,29.3125
0.05205427,-0.17356409,-0.8323186,-1.898213,-0.03717885,0.021100162,-0.101395525,-0.3898236,-0.36854154,0.059844427,-3.0784373,0.62520164,-0.00028197645,-0.023521258,0.005310659,4.7904938e-05,-0.0025747654,-0.0010385631,-0.008942465,0.50425535,-1.3807209,1.9034346,-2.091698,-1.5708164,2.4794526,-0.032596327,0.029187694,-0.03610331,0.006568131,0.0026847632,-0.023640042,-0.038307227,0.19153613,-9.461885,0.65684843,47.734352,-0.78086543,-2.5668435,-3.3225486,-0.06370662,0.118876204,-0.22373115,25.6875,26.5625,25.625,28.0625,28.875,29.3125
0.05405363,-0.4575015,-1.3022026,-1.980235,-0.0344089,0.018664572,-0.098188676,-0.38988864,-0.36853644,0.059866223,-3.0784829,0.625307,-0.00022033956,-0.024591085,0.0054347906,0.00021550394,-0.0033707167,-0.0012308754,-0.008952861,0.50417084,-1.3806965,1.9033617,-2.0917218,-1.5707921,2.479428,-0.03429104,0.030258141,-0.03785597,0.0070319767,0.003473142,-0.025324699,0.019153614,0.22984336,-9.461885,0.7553206,47.674347,-0.7191107,-2.5091553,-3.3286495,-0.0620849,0.11116281,-0.22726104,25.6875,26.5625,25.625,28.0625,28.875,29.3125
0.056054424,-0.92195284,-1.4225782,-1.878335,-0.044404715,0.014515236,-0.09398241,-0.3899389,-0.3685241,0.059885323,-3.078462,0.62532216,-0.00022381324,-0.02504657,0.0057924115,4.828679e-05,-0.0035222254,-0.0022052822,-0.008766461,0.5041105,-1.3806483,1.903242,-2.0916374,-1.570804,2.47938,-0.035690304,0.030999897,-0.038510058,0.00772185,0.004075922,-0.026911153,0.038307227,0.2681506,-9.576807,0.6948948,47.67166,-0.7486466,-2.5053573,-3.3715365,-0.067006566,0.10341876,-0.22790635,25.6875,26.5625,25.625,28.0625,28.875,29.3125
0.058054004,-0.77782106,-1.5345565,-1.695077,-0.050199896,0.030558785,-0.097181745,-0.38998577,-0.3685056,0.05987423,-3.0784402,0.62529755,-0.00021352175,-0.025242075,0.005560831,-2.042555e-05,-0.0032126117,-0.0028617925,-0.0077227107,0.5040508,-1.3805757,1.9031814,-2.0916374,-1.5708283,2.4793077,-0.03550805,0.03216744,-0.039965633,0.008733601,0.004120496,-0.02777211,0.038307227,0.34476504,-9.461885,0.8179876,47.689575,-0.736527,-2.541465,-3.3834338,-0.07440756,0.10577004,-0.2372298,25.6875,26.5625,25.625,28.0625,28.875,29.3125
0.060053684,-1.0871606,-1.7392694,-1.827218,-0.04036423,0.032658473,-0.09443094,-0.3900493,-0.36849636,0.0598758,-3.0784795,0.6254592,-0.0002593198,-0.026150534,0.0054299315,0.0005289557,-0.003919527,-0.0021662388,-0.0073678796,0.5039307,-1.3805155,1.9031094,-2.0916493,-1.5707558,2.4792833,-0.03630401,0.03256273,-0.041794725,0.009218384,0.0044010505,-0.028922534,-0.038307227,0.36391866,-9.461885,0.7620334,47.66987,-0.8785286,-2.504472,-3.386478,-0.09443396,0.11493787,-0.25508776,25.6875,26.5625,25.625,28.0625,28.875,29.3125
0.06205564,-0.51832306,-1.0865245,-1.5148501,-0.048300907,0.05100237,-0.10286286,-0.39006537,-0.36848617,0.05986495,-3.0784438,0.6253937,-0.0003190939,-0.027502812,0.0057750274,0.00077446614,-0.00454194,-0.0017400468,-0.008095388,0.50390595,-1.3804549,1.9030489,-2.0915892,-1.5707678,2.4792223,-0.03835369,0.033470914,-0.043444257,0.009284425,0.0047347043,-0.030244766,-0.05746084,0.36391866,-9.423578,0.7463667,47.704796,-0.7515193,-2.4841988,-3.2818432,-0.07816114,0.09506011,-0.25003412,25.6875,26.5625,25.625,28.0625,28.875,29.3125
0.06405432,-0.88776463,-1.0078641,-1.6483122,-0.038912874,0.03921979,-0.106576204,-0.39014304,-0.3684749,0.059869755,-3.0784614,0.6253775,-0.00026472006,-0.028467355,0.0057920213,0.0011461109,-0.004994737,-0.0010089283,-0.007920144,0.5038219,-1.3803707,1.9029411,-2.0916011,-1.5707797,2.479126,-0.039300956,0.034047116,-0.045001626,0.009406524,0.0047759656,-0.031366475,-0.05746084,0.24899697,-9.404425,0.79560274,47.661808,-0.7960342,-2.4261456,-3.3747773,-0.07950624,0.09390424,-0.28122783,25.6875,26.5625,25.625,28.0625,28.875,29.3125
0.06605454,-1.0115004,-1.2173501,-1.6374722,-0.026575308,0.03683317,-0.09341612,-0.39021844,-0.36847553,0.059902493,-3.078503,0.6255013,-0.00020278356,-0.029482182,0.0060297432,0.0010071361,-0.0048609315,-0.0007568426,-0.008040646,0.50373775,-1.3803343,1.902821,-2.0915897,-1.5707558,2.4791138,-0.040490627,0.0354583,-0.046292458,0.009131965,0.004535801,-0.032434117,-0.15322891,0.24899697,-9.3661175,0.7777002,47.68062,-0.78663135,-2.449902,-3.3582382,-0.07087067,0.07603915,-0.2966688,25.6875,26.5625,25.625,28.0625,28.875,29.3125
0.068054035,-1.0505011,-0.7644003,-1.4247348,-0.026169589,0.043346465,-0.10255589,-0.39027613,-0.36846653,0.059904862,-3.0785208,0.62550443,-0.00022711739,-0.03039999,0.005630393,0.0013810936,-0.0053818934,0.00038465834,-0.0071571856,0.5036539,-1.380262,1.9027246,-2.0915658,-1.570732,2.4790297,-0.0406068,0.036391847,-0.04818331,0.0088395765,0.0044362694,-0.03343264,-0.1340753,0.24899697,-9.308656,0.84484416,47.67614,-0.841886,-2.3737245,-3.3915448,-0.075400986,0.096240684,-0.29502606,25.6875,26.5625,25.625,28.0625,28.875,29.3125
0.070054054,-0.8646704,-0.4818543,-1.2997442,-0.026451902,0.056448214,-0.10389278,-0.39034256,-0.36843964,0.05989165,-3.0784748,0.62555283,-0.00020562102,-0.031746376,0.006149847,0.0014900952,-0.0054912064,0.0005341481,-0.008566078,0.5035693,-1.3801653,1.9026402,-2.0915654,-1.5707682,2.4789813,-0.042742603,0.0375372,-0.04987042,0.0091967,0.0044566873,-0.03415882,-0.24899697,0.22984336,-9.232041,0.7530795,47.716442,-0.85292125,-2.3875446,-3.3016632,-0.066376,0.08523589,-0.31229007,25.6875,26.5625,25.625,28.0625,28.875,29.3125
0.07205419,-1.1834859,-0.5701065,-1.4096152,-0.014781066,0.05678035,-0.10448341,-0.3904013,-0.36845165,0.059919473,-3.0785306,0.62562054,-0.00022541743,-0.032941803,0.006088099,0.0021269147,-0.005959276,0.002176404,-0.0076201633,0.50349724,-1.3801172,1.9025091,-2.0915172,-1.5707082,2.4789443,-0.043505225,0.037892662,-0.051698,0.009008301,0.004070939,-0.035865743,-0.30645782,0.17238252,-9.251195,0.75084364,47.733456,-0.84315556,-2.3512015,-3.3402395,-0.065912545,0.10375361,-0.31537908,25.6875,26.5625,25.625,28.0625,28.875,29.3125
0.07405413,-1.3763297,-0.74054164,-1.217333,-0.007194583,0.06438398,-0.09783251,-0.39048034,-0.3684473,0.059901536,-3.0785673,0.6255689,-0.00023678076,-0.03303605,0.0064613014,0.0010251348,-0.0045261486,2.8101562e-05,-0.0063181287,0.5034013,-1.3799843,1.9024009,-2.091553,-1.5706843,2.4788115,-0.044077042,0.04036885,-0.052278936,0.009688293,0.0038527746,-0.03773864,-0.28730422,0.19153613,-9.32781,0.7665104,47.675243,-0.85709786,-2.3782504,-3.3669333,-0.048833653,0.099280804,-0.3252002,25.6875,26.5625,25.625,28.0625,28.875,29.3125
0.076054364,-1.2524077,-0.40816462,-1.2256688,-0.010468333,0.06889227,-0.097757325,-0.39052615,-0.3684154,0.05988636,-3.0785172,0.6256555,-0.00029584632,-0.03448904,0.0067013847,0.0014294536,-0.004889903,0.00072134775,-0.007200631,0.5033049,-1.3799117,1.9023412,-2.0915167,-1.5706843,2.4787755,-0.045815922,0.041410778,-0.054531448,0.01011662,0.0038312927,-0.03859414,-0.34476504,0.095768064,-9.3661175,0.7553206,47.71286,-0.8059033,-2.4497092,-3.3310769,-0.07121207,0.091725945,-0.32664916,25.6875,26.5625,25.625,28.0625,28.875,29.3125
0.07805554,-1.1867365,-0.18525963,-1.2507703,-0.00844529,0.06691318,-0.10014547,-0.3906202,-0.36841002,0.05991555,-3.0785525,0.62568295,-0.00022238975,-0.03618429,0.0071665677,0.0015106174,-0.005071143,0.0010088749,-0.009441708,0.5032082,-1.3798393,1.9021839,-2.0914934,-1.5706843,2.4786916,-0.048178617,0.04315392,-0.056829315,0.01033238,0.003849548,-0.03871437,-0.4405331,0.019153614,-9.289502,0.7642693,47.690468,-0.7270653,-2.3834856,-3.1678293,-0.060156032,0.09099421,-0.36364913,25.6875,26.5625,25.625,28.0625,28.875,29.3125
0.08005374,-1.3979602,-0.14014134,-1.2002147,-0.0064670783,0.065886855,-0.09635424,-0.39069995,-0.36841822,0.059939276,-3.0786245,0.62565535,-0.00019061482,-0.034646127,0.007082048,0.00045081094,-0.0037219718,-0.0013058436,-0.004909553,0.50312513,-1.3797668,1.9020413,-2.091481,-1.5706481,2.4785821,-0.046557758,0.043667417,-0.05513515,0.0108052315,0.0037906035,-0.041626014,-0.45968673,-0.05746084,-9.2703495,0.7978386,47.68062,-0.86844146,-2.3964915,-3.388774,-0.06765012,0.07984647,-0.35115153,25.6875,26.5625,25.625,28.0625,28.875,29.3125
0.08205395,-1.4385304,0.22639777,-1.0874577,-0.012155741,0.06498054,-0.1047995,-0.39074522,-0.36838308,0.059914798,-3.0785797,0.62564665,-0.00030439653,-0.036127485,0.007719386,6.8522335e-05,-0.00320312,-0.002297312,-0.0051280395,0.50301635,-1.37967,1.9019688,-2.0914204,-1.5706362,2.4784737,-0.04901412,0.04621438,-0.05749405,0.011736948,0.0038070974,-0.043862984,-0.40222588,-0.019153614,-9.289502,0.7732232,47.68062,-0.8755243,-2.476254,-3.3558466,-0.07907942,0.083391294,-0.34757096,25.6875,26.5625,25.625,28.0625,28.875,29.3125
0.08405452,-0.9319867,0.1714322,-1.1791103,-0.00954753,0.075266585,-0.10449071,-0.39082426,-0.36837506,0.059912752,-3.0785744,0.6256626,-0.0002507066,-0.0387362,0.0070700576,0.0020499409,-0.0053932657,0.0016114857,-0.0028401504,0.5029441,-1.3795618,1.9018482,-2.0914328,-1.57066,2.4784122,-0.0503566,0.046392333,-0.062236305,0.011820109,0.0038322334,-0.047491368,-0.4405331,-0.095768064,-9.308657,0.78888994,47.694054,-0.87792695,-2.466511,-3.2327547,-0.08794864,0.083893344,-0.3352458,25.6875,26.5625,25.625,28.0625,28.875,29.3125
0.086053945,-1.2303013,-0.21637948,-1.4565291,-0.00090753613,0.06508594,-0.10248782,-0.3908738,-0.36836508,0.059903212,-3.0785964,0.62560946,-0.00031634388,-0.039586235,0.008381247,0.0010228201,-0.00421447,0.00020575454,-0.0030202905,0.50285923,-1.379477,1.9017643,-2.091409,-1.5706247,2.4782913,-0.053123523,0.048148137,-0.061919723,0.011551054,0.0034755326,-0.05007748,-0.49799395,-0.019153614,-9.289503,0.7530795,47.69763,-0.79001844,-2.462597,-3.2292163,-0.08298666,0.08336972,-0.30415723,25.6875,26.5625,25.625,28.0625,28.875,29.3125
0.088053375,-1.1861446,-0.33938667,-1.2666253,-0.011792079,0.070998274,-0.10352947,-0.39098203,-0.3683354,0.05991214,-3.0786016,0.6256096,-0.00027879322,-0.038988117,0.00819531,9.24302e-05,-0.0029661802,-0.0015661573,-0.002123548,0.50271595,-1.3793683,1.9016098,-2.0913846,-1.5706366,2.4781475,-0.052092936,0.04991201,-0.062002353,0.01202473,0.0032377422,-0.049942914,-0.47884032,0.038307227,-9.270349,0.78888994,47.699425,-0.78855985,-2.4167008,-3.3846807,-0.08482336,0.07352402,-0.2999978,25.6875,26.5625,25.625,28.0625,28.875,29.3125
0.09005365,-1.3500782,-0.59032327,-1.2008255,-0.01797667,0.07513121,-0.099136166,-0.39103523,-0.3683122,0.059896868,-3.0785475,0.62569237,-0.00037558828,-0.040168095,0.008049498,0.0010652869,-0.0036319878,-0.00014621262,0.0009269576,0.50262,-1.3792601,1.9015001,-2.0913126,-1.5706247,2.47811,-0.052869707,0.049963273,-0.06447632,0.012883967,0.0031293153,-0.053769324,-0.4405331,0.095768064,-9.32781,0.8090337,47.698532,-0.90016794,-2.48905,-3.273642,-0.084077805,0.0807448,-0.29243645,25.6875,26.5625,25.625,28.0625,28.875,29.3125
0.09205365,-1.5115933,-0.94768727,-1.4605118,-0.0102359755,0.07050391,-0.094740696,-0.39113358,-0.3682861,0.05991597,-3.0785565,0.62571216,-0.00029455914,-0.04150173,0.0085805645,0.0008277019,-0.00336422,-0.00051169435,0.0023147066,0.50249946,-1.3791875,1.901368,-2.0913007,-1.5706486,2.4780009,-0.05495333,0.051888432,-0.06629498,0.013226252,0.0030695572,-0.057239447,-0.38307226,0.15322891,-9.385271,0.7351769,47.703903,-0.8231646,-2.3702855,-3.2709157,-0.102647856,0.08514416,-0.25720888,25.6875,26.5625,25.625,28.0625,28.875,29.25
0.094054006,-1.300712,-0.9766418,-1.5201979,-0.022778723,0.0669075,-0.09933179,-0.39122048,-0.36826304,0.059905875,-3.0785444,0.62568855,-0.00032706282,-0.04152582,0.008830314,-0.00058197026,-0.0021981138,-0.0033513326,0.004283697,0.50237954,-1.3790542,1.901225,-2.0912645,-1.5706481,2.4778678,-0.055598985,0.054998077,-0.066898376,0.013769563,0.003412833,-0.05985409,-0.28730422,0.24899697,-9.481039,0.7083204,47.687782,-0.87244767,-2.5953484,-3.3505807,-0.119325966,0.09108883,-0.2394079,25.6875,26.5625,25.625,28.0625,28.875,29.25
0.09605425,-1.2951373,-1.0236412,-1.3765804,-0.03146958,0.06063851,-0.09245992,-0.39129174,-0.3682452,0.059905555,-3.078549,0.62562954,-0.00034027774,-0.042480208,0.008642841,0.0012142757,-0.0037213871,-0.00036266583,0.0068532475,0.5022836,-1.378959,1.9011048,-2.0912282,-1.5706486,2.4777346,-0.056091696,0.05269904,-0.068361185,0.014179411,0.0033053053,-0.06291603,-0.24899697,0.21068975,-9.404425,0.7463667,47.694054,-0.87494993,-2.4178448,-3.380851,-0.12817228,0.096732035,-0.19272369,25.6875,26.5625,25.625,28.0625,28.875,29.25
0.09805366,-0.9568535,-0.939501,-1.6268023,-0.037490148,0.05764256,-0.09943717,-0.39138284,-0.36824176,0.059906565,-3.078577,0.62567323,-0.00038945346,-0.04388435,0.008815744,0.001118253,-0.0038692944,0.0005235416,0.0076586353,0.50216335,-1.3788263,1.9009374,-2.0911934,-1.5706009,2.477638,-0.05748443,0.0544058,-0.06995236,0.0132205915,0.00300231,-0.06511264,-0.17238252,0.21068975,-9.3661175,0.7978386,47.691364,-0.8771809,-2.3848727,-3.3493133,-0.14319673,0.08906755,-0.16298129,25.6875,26.5625,25.625,28.0625,28.875,29.25
0.10005355,-0.88378996,-1.3544445,-1.6958944,-0.032505147,0.057521403,-0.095806375,-0.3914648,-0.36818656,0.059879635,-3.0785136,0.6256008,-0.00038720775,-0.044600513,0.008755258,0.00071176805,-0.0035963168,0.00033336983,0.008669925,0.5020315,-1.3787055,1.900853,-2.091181,-1.5706605,2.4774692,-0.05794084,0.056371085,-0.071284644,0.01288282,0.0028475565,-0.06657935,-0.21068975,0.2681506,-9.385271,0.74413085,47.66987,-0.94992983,-2.387048,-3.3409753,-0.13612594,0.096247725,-0.10936076,25.6875,26.5625,25.625,28.0625,28.875,29.25
0.102053806,-0.9129964,-0.95422584,-1.5758263,-0.049709696,0.047489528,-0.0945637,-0.3915721,-0.3682063,0.059919316,-3.0786278,0.6255661,-0.00030920948,-0.045350082,0.008797967,-0.000120706805,-0.0033309457,-0.0009733112,0.008612337,0.5019353,-1.3786203,1.9006618,-2.091181,-1.5706128,2.477337,-0.058942515,0.05922485,-0.072747365,0.012767059,0.0032471984,-0.06752275,-0.15322891,0.3256114,-9.442732,0.80679786,47.704796,-0.9659984,-2.5866156,-3.4015584,-0.15323044,0.08808093,-0.085680574,25.6875,26.5625,25.625,28.0625,28.875,29.25
0.10405398,-0.89887226,-1.3823937,-1.6404868,-0.036377296,0.03927721,-0.089144945,-0.39166522,-0.368175,0.05989523,-3.0786047,0.62552327,-0.00034023888,-0.046234746,0.008547093,0.0012580665,-0.0051191063,0.0011769019,0.0076022632,0.50180334,-1.3784648,1.9005297,-2.091169,-1.5706242,2.4771812,-0.05965522,0.05766547,-0.074078895,0.012910449,0.003775849,-0.067226134,-0.095768064,0.3256114,-9.3661175,0.7463667,47.698532,-1.0580896,-2.4250526,-3.3432574,-0.1363198,0.09511523,-0.06935325,25.6875,26.5625,25.625,28.0625,28.875,29.25
0.10605421,-0.68439364,-1.334291,-1.7445979,-0.028447775,0.027928157,-0.09696092,-0.39178398,-0.36815062,0.05990869,-3.0786216,0.6255075,-0.0002871032,-0.04694764,0.008931388,0.00038558763,-0.004096776,-9.117442e-05,0.0054889545,0.5016595,-1.3783438,1.9003505,-2.0911453,-1.5706362,2.4770255,-0.06076776,0.06030505,-0.07525927,0.013055459,0.0034900443,-0.0662239,-0.05746084,0.30645782,-9.423578,0.7597976,47.690468,-1.052044,-2.4127824,-3.445985,-0.14897923,0.09010999,-0.071651,25.6875,26.5625,25.625,28.0625,28.875,29.25
0.10805384,-0.48496154,-1.0790292,-1.7206752,-0.039097626,0.022066562,-0.09969143,-0.3918469,-0.36814672,0.059894286,-3.0786185,0.6254509,-0.0003430341,-0.048141565,0.008996759,0.0006120172,-0.0044820174,0.00045066106,0.0032628851,0.5015871,-1.3782111,1.9002179,-2.091109,-1.5706242,2.4769182,-0.062019613,0.061472278,-0.077187575,0.01315694,0.003561279,-0.065248996,0.076614454,0.28730422,-9.346964,0.82022345,47.690468,-1.014136,-2.5269387,-3.423914,-0.14646932,0.10842247,-0.07345456,25.6875,26.5625,25.625,28.0625,28.875,29.25
0.11005427,-0.23819897,-0.82772326,-1.4925039,-0.042660158,0.019809166,-0.09480871,-0.39196447,-0.36811614,0.059914358,-3.078639,0.62551236,-0.00031294627,-0.048571624,0.008989008,0.00016049003,-0.004630277,-0.00043674707,0.0011960374,0.5014192,-1.3781146,1.9000496,-2.0910728,-1.5706123,2.4767861,-0.062733255,0.06306387,-0.07804439,0.013128322,0.004118894,-0.063896,0.076614454,0.2681506,-9.32781,0.80456203,47.667187,-1.0364043,-2.419109,-3.4305477,-0.15797852,0.09977187,-0.08536936,25.6875,26.5625,25.625,28.0625,28.875,29.25
0.11205396,-0.14420807,-0.89155763,-1.6512923,-0.03669424,0.017136343,-0.09778594,-0.39204314,-0.36810675,0.05988485,-3.078629,0.6254921,-0.00036819887,-0.051420543,0.008014765,0.0021946018,-0.0072457176,0.004062527,-0.0008169911,0.501323,-1.3779463,1.8999175,-2.0910733,-1.5706004,2.4766786,-0.0637953,0.06363587,-0.08322554,0.012535546,0.0042356253,-0.06294315,0.0,0.3256114,-9.3661175,0.7911258,47.72719,-1.0850456,-2.4110374,-3.3336,-0.17857413,0.104076475,-0.093942836,25.6875,26.5625,25.625,28.0625,28.875,29.25
0.11405368,-0.061778855,-0.42871448,-1.6585822,-0.042333294,0.025005443,-0.10093211,-0.3921523,-0.368099,0.05990719,-3.078683,0.62552357,-0.0003765954,-0.051222455,0.009097529,-9.647667e-05,-0.005140192,-0.00010020654,-0.0040226215,0.5011788,-1.377837,1.8997263,-2.0910256,-1.5705522,2.4765472,-0.06551273,0.06717527,-0.082246184,0.0126820775,0.0043949764,-0.061454937,-0.019153614,0.28730422,-9.442732,0.78217715,47.716442,-1.0618426,-2.4299047,-3.3531713,-0.1650095,0.120326884,-0.11278662,25.6875,26.5625,25.625,28.0625,28.875,29.25
0.116054416,-0.2530476,-0.9171265,-1.7911531,-0.03576837,0.02451581,-0.09558791,-0.39226344,-0.368058,0.059884302,-3.0786135,0.6255093,-0.00030617265,-0.05270703,0.008489827,0.0018019229,-0.0076235575,0.0031192543,-0.005951011,0.50105876,-1.3776691,1.8995823,-2.0910375,-1.5706357,2.4764273,-0.066237405,0.0657412,-0.08488859,0.01273501,0.0050207665,-0.060251515,-0.019153614,0.2681506,-9.308656,0.842603,47.719128,-1.1494248,-2.5158598,-3.4197397,-0.17588373,0.11246951,-0.13512594,25.6875,26.5625,25.625,28.0625,28.875,29.25
0.11805401,-0.6752672,-0.799883,-1.8366667,-0.03529561,0.031926494,-0.09300942,-0.39237005,-0.36803195,0.059887692,-3.0786207,0.6256265,-0.00039624568,-0.05425534,0.007834605,0.0030484304,-0.0092652235,0.0047304644,-0.0077725016,0.5008788,-1.377537,1.8994015,-2.090965,-1.5705756,2.4763196,-0.06695877,0.06633583,-0.08865751,0.013709682,0.0056810747,-0.05915114,-0.076614454,0.2681506,-9.308657,0.8179876,47.696735,-1.0596608,-2.3811069,-3.1580625,-0.200717,0.092055574,-0.15934765,25.6875,26.5625,25.625,28.0625,28.875,29.25
0.12005381,-0.631747,-0.8383767,-1.8193486,-0.034545355,0.04403677,-0.096905865,-0.39247203,-0.36803994,0.05990278,3.0786757,-0.6255417,0.00035264212,-0.053373292,0.008414389,0.0001418185,-0.00691318,-0.00055626454,-0.00887342,0.50078297,-1.3774151,1.8992227,-2.090965,-1.5705518,2.4761639,-0.06740133,0.07086669,-0.08742304,0.013711276,0.006163058,-0.058493037,-0.17238252,0.30645782,-9.461885,0.7978386,47.679718,-1.1782501,-2.5020041,-3.3196127,-0.19906662,0.109671965,-0.19495319,25.6875,26.5625,25.625,28.0625,28.875,29.25
0.12205441,-0.896254,-0.58277434,-1.7345641,-0.04904303,0.067361936,-0.096280746,-0.39260304,-0.36801508,0.059900403,3.0786726,-0.62559855,0.00034113674,-0.05479167,0.008173541,0.0018577476,-0.008743157,0.0022356284,-0.009827695,0.50062704,-1.3772355,1.8990072,-2.0909293,-1.5705632,2.476044,-0.06844682,0.06946143,-0.08976785,0.014133113,0.006424729,-0.05858404,-0.21068975,0.24899697,-9.423578,0.7866488,47.719128,-1.2244916,-2.4631555,-3.3519788,-0.20762402,0.091949224,-0.22934756,25.6875,26.5625,25.625,28.0625,28.875,29.25
0.124053665,-0.9515112,-1.082114,-2.0566838,-0.043978687,0.07980036,-0.09764944,-0.3927016,-0.36800253,0.059905544,3.0786529,-0.6256507,0.00035424798,-0.055168528,0.007833659,0.0018158671,-0.008669354,0.0024123278,-0.008524917,0.5005073,-1.3771029,1.8988274,-2.0908816,-1.5705513,2.4759593,-0.06811196,0.07061205,-0.09104757,0.014144806,0.006272956,-0.05955104,-0.19153613,0.19153613,-9.519346,0.80679786,47.698532,-1.2975132,-2.415719,-3.2702994,-0.23938838,0.07246515,-0.26100582,25.6875,26.5625,25.625,28.0625,28.875,29.25
0.12605412,-1.3225896,-1.1616547,-1.9985973,-0.032664824,0.07575512,-0.09745561,-0.39279386,-0.36796618,0.059878338,-3.0786495,0.6257087,-0.0004643464,-0.056679834,0.009239265,0.0013069254,-0.008434036,0.0007534369,-0.010671764,0.5003383,-1.3769462,1.8986953,-2.0908453,-1.570515,2.475827,-0.07221611,0.07236907,-0.09220348,0.015113611,0.0068590157,-0.061509095,-0.24899697,0.13407528,-9.519346,0.7709874,47.695843,-1.208454,-2.4750247,-3.2819264,-0.25328204,0.084137626,-0.25046924,25.6875,26.5625,25.625,28.0625,28.875,29.25
0.12805393,-1.6673712,-0.74047446,-1.9152651,-0.04242751,0.062446315,-0.092763446,-0.39288718,-0.3679529,0.059878338,3.0786376,-0.6256855,0.0005158116,-0.0567445,0.007870804,0.0018771671,-0.009810032,0.002300923,-0.010481531,0.5002075,-1.3768141,1.898528,-2.0907977,-1.5704793,2.4756832,-0.07024367,0.07261648,-0.09360778,0.014253706,0.007319444,-0.059727103,-0.36391866,0.1340753,-9.634268,0.7777002,47.684196,-1.2559664,-2.3623638,-3.3529308,-0.23955059,0.073066495,-0.29613817,25.6875,26.5625,25.625,28.0625,28.875,29.25
0.13005407,-1.8523382,-0.9930467,-1.8877289,-0.02169441,0.06271218,-0.08619422,-0.39303702,-0.36794943,0.059905663,3.078574,-0.6257307,0.00041777015,-0.05770026,0.0084915,0.0014593338,-0.009373205,0.0022961516,-0.011854269,0.5000631,-1.3766574,1.8982772,-2.0907857,-1.5704793,2.4755752,-0.07190726,0.073950164,-0.09410893,0.013637371,0.0069416757,-0.060016293,-0.34476504,0.095768064,-9.615114,0.7978386,47.687782,-1.4048262,-2.3551266,-3.367764,-0.24759313,0.0629067,-0.31589136,25.6875,26.5625,25.625,28.0625,28.875,29.25
0.1320536,-1.0876422,-0.3572001,-1.8980873,-0.021689296,0.079573736,-0.09647081,-0.3931426,-0.36792368,0.059883147,3.0785854,-0.62575257,0.0004184063,-0.061288994,0.009421808,0.0029384429,-0.010822588,0.0061451998,-0.013812533,0.49992967,-1.3764892,1.8981317,-2.0907981,-1.5704912,2.475454,-0.076399736,0.07430437,-0.097721525,0.012825916,0.00635862,-0.06254808,-0.36391866,0.1340753,-9.691729,0.7530795,47.716442,-1.2271675,-2.3704185,-3.20198,-0.24716835,0.070496224,-0.3367623,25.6875,26.5625,25.625,28.0625,28.875,29.25
0.13405408,-1.4324979,-0.14976896,-1.8096011,-0.019183882,0.07293132,-0.09405279,-0.39326793,-0.36793512,0.059903547,3.078534,-0.6256843,0.00038747297,-0.059788648,0.008843106,0.0016525402,-0.009796508,0.0031102127,-0.013964527,0.49981093,-1.3763324,1.8978938,-2.0907733,-1.5704554,2.4752994,-0.07436824,0.07606884,-0.097066484,0.013562327,0.006920769,-0.060365196,-0.34476504,0.019153614,-9.576807,0.8247004,47.694946,-1.3190491,-2.3519158,-3.3976736,-0.24228004,0.07926409,-0.3835257,25.6875,26.5625,25.625,28.0625,28.875,29.25
0.1360541,-1.2865757,0.2160482,-1.5794902,-0.025430713,0.08006124,-0.09934919,-0.39338902,-0.36790127,0.05991338,3.0785065,-0.62581366,0.0003862136,-0.062822394,0.008576507,0.0037392753,-0.012515389,0.0069403327,-0.016422268,0.49964228,-1.3762002,1.8977011,-2.0907142,-1.5704554,2.475215,-0.077030316,0.07605449,-0.10182966,0.0136745665,0.0074633975,-0.060568523,-0.47884035,0.0,-9.481039,0.7709874,47.695843,-1.3202026,-2.3435879,-3.2998738,-0.26265788,0.065111436,-0.44825953,25.6875,26.5625,25.625,28.0625,28.875,29.25
0.1380544,-1.4793884,-0.33410454,-1.8231294,-0.0063627656,0.07452098,-0.09245859,-0.39351633,-0.36788887,0.05992514,3.078437,-0.62585473,0.0003931832,-0.06303176,0.00929947,0.0027546976,-0.011450075,0.005355741,-0.01461199,0.49947408,-1.3760556,1.8974975,-2.0906904,-1.5704073,2.4750812,-0.078303166,0.07766022,-0.10149803,0.013644246,0.0072917594,-0.063651025,-0.4213795,-0.019153614,-9.423578,0.842603,47.684196,-1.2674313,-2.328031,-3.3618557,-0.2728492,0.05621998,-0.45751002,25.6875,26.5625,25.625,28.0625,28.875,29.25
0.14005455,-1.2678425,-0.023479803,-1.8713868,-0.009330508,0.07339913,-0.09487881,-0.39363927,-0.36785632,0.059920274,3.07843,-0.6258909,0.00039426752,-0.06403899,0.009615247,0.0028036528,-0.011382081,0.005359423,-0.012880004,0.499306,-1.3758991,1.8973173,-2.090666,-1.5704073,2.4749367,-0.07969675,0.07880344,-0.10308498,0.01411974,0.007229377,-0.06677577,-0.4405331,0.0,-9.442732,0.8112748,47.675243,-1.2942245,-2.268526,-3.3090775,-0.2831672,0.058846273,-0.45860022,25.6875,26.5625,25.625,28.0625,28.875,29.25
0.14205468,-1.3407675,-0.2674698,-1.670546,-0.011945586,0.077782094,-0.09457633,-0.39377868,-0.36784384,0.059914973,3.0784,-0.62588394,0.00036697442,-0.066111766,0.01101967,0.0025447737,-0.0107609825,0.0051738303,-0.013894077,0.49914908,-1.3757062,1.8971032,-2.090678,-1.5703954,2.4747794,-0.08365208,0.080724314,-0.10486277,0.014441496,0.0067734374,-0.06971515,-0.45968673,0.019153614,-9.32781,0.7217513,47.66091,-1.2133377,-2.3118193,-3.3185463,-0.28403494,0.048144348,-0.47125578,25.6875,26.5625,25.625,28.0625,28.875,29.25
0.14405419,-1.3222188,-0.23023854,-1.7309169,-0.016713912,0.08101025,-0.08899272,-0.3939319,-0.3678169,0.059941962,3.078391,-0.6258575,0.00031280867,-0.06588074,0.010380121,0.0026220472,-0.011178139,0.005533355,-0.0059075966,0.49897003,-1.3755498,1.89684,-2.0906065,-1.5704073,2.474585,-0.082454175,0.08091791,-0.1051936,0.014065181,0.0069702333,-0.07650361,-0.45968673,0.05746084,-9.423578,0.8090337,47.677036,-1.3515867,-2.2885964,-3.3238525,-0.27998477,0.06753753,-0.41382027,25.6875,26.5625,25.625,28.0625,28.875,29.25
0.14605463,-1.8615444,-0.88145757,-1.7789859,-0.005253025,0.07355153,-0.08611128,-0.39405423,-0.36778536,0.05993048,3.0783625,-0.6259475,0.0003543026,-0.06718497,0.011313427,0.0021669439,-0.010718372,0.004406647,-0.0056676697,0.4987893,-1.3753811,1.8966602,-2.0905817,-1.570383,2.4744642,-0.085276954,0.08287667,-0.10666013,0.014786,0.0071046567,-0.07956582,-0.40222588,0.076614454,-9.404425,0.7486078,47.694946,-1.3450773,-2.2588558,-3.4017522,-0.29697716,0.05607291,-0.38247165,25.6875,26.5625,25.625,28.0625,28.875,29.25
0.14805418,-1.4726479,-0.1837979,-1.6106389,-0.02678245,0.08264965,-0.09852723,-0.39416784,-0.36776543,0.05993262,3.0783722,-0.625891,0.00038102153,-0.06972597,0.012888558,0.0025065811,-0.010636248,0.0049885768,-0.005861515,0.49864382,-1.3752247,1.8964561,-2.090522,-1.570371,2.4742823,-0.09001324,0.08400828,-0.10894278,0.015470108,0.006751045,-0.08410683,-0.40222588,0.019153614,-9.423578,0.80679786,47.687782,-1.1014763,-2.3428628,-3.360807,-0.3042552,0.03915806,-0.36283064,25.6875,26.5625,25.625,28.0625,28.875,29.25
0.15005384,-1.7325104,-0.67501247,-1.764147,-0.020587508,0.07678259,-0.089679405,-0.39434722,-0.36774993,0.059959482,3.0783057,-0.62590975,0.00026752503,-0.06985389,0.012302357,0.0027486563,-0.010976314,0.005421221,0.0028237146,0.49845278,-1.3750443,1.896181,-2.090522,-1.570371,2.4741116,-0.08916755,0.08450569,-0.11013082,0.015621816,0.006850922,-0.09194537,-0.5746084,0.019153614,-9.404425,0.85155696,47.690468,-1.2912455,-2.2430704,-3.4011571,-0.31167695,0.050825965,-0.26914266,25.6875,26.5625,25.625,28.0625,28.875,29.25
0.15205425,-1.1285152,-0.29799676,-1.5041314,-0.032278888,0.094377115,-0.09520148,-0.39446074,-0.3677196,0.059955794,3.0782616,-0.62590075,0.0003308779,-0.07103873,0.013287481,0.0014326357,-0.009928171,0.003327288,0.002220942,0.49826017,-1.374911,1.8960255,-2.0904982,-1.570311,2.473919,-0.09193082,0.08792177,-0.11120732,0.015629966,0.006930435,-0.09410506,-0.51714754,0.095768064,-9.404425,0.81351066,47.71823,-1.141044,-2.2669153,-3.378652,-0.33655888,0.037031267,-0.26372117,25.6875,26.5625,25.625,28.0625,28.875,29.25
0.15405469,-1.9162449,-0.5151241,-1.6477082,-0.02715658,0.07299916,-0.09375425,-0.39462343,-0.36769134,0.05995756,3.078234,-0.6259123,0.00031476028,-0.07265482,0.013734673,0.0029024922,-0.011900417,0.005817201,0.0032059066,0.49805576,-1.3747073,1.8957742,-2.0904744,-1.570299,2.4737253,-0.094462015,0.086186066,-0.11247583,0.015506642,0.0074746325,-0.09762161,-0.53630114,0.095768064,-9.423578,0.78888994,47.688675,-1.0779982,-2.2528868,-3.475713,-0.33081627,0.032507673,-0.19742483,25.6875,26.5625,25.625,28.0625,28.875,29.25
0.15605389,-1.0892498,-0.44595352,-1.6893902,-0.017231831,0.082844734,-0.09206315,-0.3947648,-0.367654,0.059948202,3.0782382,-0.62593234,0.00033086972,-0.0744327,0.014646893,0.00294997,-0.0114782965,0.0066887946,0.002212738,0.49786317,-1.3745148,1.8955587,-2.0904381,-1.570299,2.4735448,-0.09709973,0.08747944,-0.11407936,0.015257688,0.006684338,-0.09926433,-0.4213795,0.076614454,-9.32781,0.8224646,47.68062,-0.9747156,-2.0852282,-3.3041391,-0.32216454,0.040747683,-0.1620546,25.6875,26.5625,25.625,28.0625,28.875,29.25
0.1580546,-1.3827517,-0.5176688,-1.4797113,-0.02102365,0.071778186,-0.08924895,-0.39491898,-0.3676395,0.0599616,3.0782027,-0.6258679,0.00029985912,-0.075721174,0.015639743,0.0019699237,-0.010064452,0.005153275,-0.00039047448,0.49768278,-1.3743331,1.895307,-2.0904138,-1.5702757,2.4733288,-0.09959725,0.0905642,-0.115645915,0.015769104,0.0061793835,-0.09915663,-0.4405331,0.15322891,-9.3661175,0.8940802,47.688675,-0.9241132,-2.3719337,-3.549541,-0.3245718,0.04644043,-0.1456493,25.6875,26.5625,25.625,28.0625,28.875,29.25
0.16005428,-0.9148999,-0.5519009,-1.4271618,-0.018820012,0.07314213,-0.0898634,-0.39507502,-0.3675775,0.059953008,3.0782115,-0.62590945,0.00030446798,-0.076993905,0.016139628,0.002035896,-0.010751488,0.0058458275,-0.0047569536,0.49744257,-1.374153,1.8951043,-2.090378,-1.5702871,2.4731135,-0.10172951,0.09124241,-0.116427995,0.014935003,0.0064497157,-0.09692241,-0.4405331,0.095768064,-9.251195,0.79560274,47.698532,-0.7702714,-2.2025433,-3.3736036,-0.3228789,0.0676332,-0.16050327,25.6875,26.5625,25.625,28.0625,28.875,29.25
0.16205372,-0.9080322,0.032982636,-1.4635752,-0.022467325,0.07062204,-0.08984247,-0.39524028,-0.36755633,0.05997221,3.078186,-0.6258874,0.00022142418,-0.07815076,0.015887784,0.001962472,-0.010910893,0.005895049,-0.009588396,0.4972629,-1.3739719,1.8948401,-2.0903542,-1.570299,2.4729235,-0.10239955,0.09353448,-0.11904548,0.0151390545,0.006568012,-0.092759445,-0.4213795,0.05746084,-9.270349,0.8157518,47.73077,-0.8398785,-2.248343,-3.4854321,-0.30984813,0.045785934,-0.2011418,25.6875,26.5625,25.625,28.0625,28.875,29.25
0.16405411,-1.220336,-0.27295825,-1.58788,-0.019329958,0.07100838,-0.08848721,-0.39540926,-0.36751428,0.059977084,3.0781257,-0.6259734,0.0002023548,-0.07982089,0.016076796,0.0026813091,-0.011615692,0.007330094,-0.015554504,0.4970227,-1.3737917,1.8946122,-2.0903428,-1.5702752,2.4727447,-0.10415953,0.09420656,-0.12154622,0.0153725175,0.006503375,-0.08855197,-0.40222588,0.19153613,-9.212888,0.83589023,47.709274,-0.7564045,-2.1842632,-3.3489175,-0.30712837,0.043844704,-0.24155188,25.6875,26.5625,25.625,28.0625,28.875,29.25
0.16605417,-0.88289624,-0.25403106,-1.3955609,-0.021986365,0.08049994,-0.092596285,-0.39556223,-0.3674837,0.059984416,3.0780962,-0.62604445,0.00017575025,-0.080011874,0.015557008,0.002475782,-0.011435506,0.006637237,-0.017166596,0.4968312,-1.373611,1.8943723,-2.090306,-1.5702752,2.4726014,-0.1035293,0.09595499,-0.12334051,0.016113052,0.006676804,-0.086308844,-0.34476504,0.13407528,-9.155427,0.78888994,47.703007,-0.832399,-2.1316075,-3.3155456,-0.3160475,0.05030763,-0.29562527,25.6875,26.5625,25.625,28.0625,28.875,29.25
0.16805395,-0.8828021,-0.649469,-1.5137979,-0.012868837,0.08170546,-0.093382575,-0.39570308,-0.36747128,0.059974574,3.07808,-0.62602067,0.0002557072,-0.081611075,0.015257414,0.003262043,-0.012230154,0.008123566,-0.01803057,0.4966515,-1.3733821,1.8941091,-2.090246,-1.570227,2.472409,-0.10444029,0.09709825,-0.12660798,0.016557377,0.006660932,-0.08635464,-0.28730422,0.17238252,-9.212888,0.83365434,47.705692,-0.9151038,-2.3144665,-3.3974624,-0.31515524,0.050851982,-0.31819236,25.6875,26.5625,25.625,28.0625,28.875,29.25
0.17005455,-1.2197174,-1.1200542,-1.6201743,-0.020228267,0.06605593,-0.08205321,-0.39588854,-0.3674437,0.059990924,3.0780165,-0.62606406,0.0001565189,-0.08105112,0.016159223,0.0018841906,-0.01104517,0.0048066303,-0.018185327,0.4964355,-1.3731898,1.8938459,-2.090258,-1.570227,2.4722283,-0.10573398,0.098463595,-0.12529866,0.017363718,0.0072138296,-0.087494105,-0.21068975,0.19153613,-9.232041,0.78217715,47.690468,-0.89668655,-2.1751618,-3.3626826,-0.3300175,0.043820374,-0.3303219,25.6875,26.5625,25.625,28.0625,28.875,29.25
0.17205416,-0.4248225,-0.8234043,-1.5115489,-0.037811235,0.06760012,-0.08957319,-0.396033,-0.36737347,0.05995582,3.078093,-0.62617475,0.00025076792,-0.083605565,0.0152682215,0.0031817162,-0.012425696,0.007939015,-0.017814707,0.49620795,-1.3729485,1.893617,-2.0901616,-1.5702633,2.4720602,-0.10635062,0.10048837,-0.13066334,0.017291812,0.0069174804,-0.08847939,-0.19153613,0.22984336,-9.289502,0.7665104,47.701214,-1.0499985,-2.385908,-3.2811227,-0.3385265,0.035597395,-0.33574474,25.6875,26.5625,25.625,28.0625,28.875,29.25
0.17405444,-0.64044505,-1.1231165,-1.5988791,-0.03712386,0.04791748,-0.08575297,-0.3961974,-0.3673666,0.059982184,3.0780082,-0.6261377,0.00019955086,-0.083086625,0.015217628,0.0021743302,-0.011161999,0.007031557,-0.017131018,0.49601635,-1.3727801,1.8933543,-2.0901506,-1.5702151,2.4718564,-0.105330154,0.101919964,-0.12991546,0.016519839,0.0062475135,-0.08814126,-0.22984336,0.28730422,-9.308656,0.7978386,47.690468,-0.936519,-2.1468253,-3.351406,-0.34195447,0.057398662,-0.36673397,25.6875,26.5625,25.625,28.0625,28.875,29.25
0.17605422,-0.45331645,-0.84704,-1.7046334,-0.047446337,0.050752986,-0.09611692,-0.39638022,-0.36732087,0.059962146,3.0780082,-0.62627244,0.00019177757,-0.085787185,0.016231986,0.0020068486,-0.01117241,0.0071846703,-0.020219985,0.49578762,-1.3725147,1.8930787,-2.0901268,-1.5702394,2.4717119,-0.10940462,0.104958855,-0.13320002,0.016625974,0.0061785583,-0.089125074,-0.21068975,0.28730422,-9.289502,0.83813137,47.664497,-0.9943137,-2.3962922,-3.2743077,-0.34388578,0.05627684,-0.39377218,25.6875,26.5625,25.625,28.0625,28.875,29.25
0.17805372,-0.5527825,-0.65987706,-1.813822,-0.03732793,0.035878886,-0.09157021,-0.3965442,-0.36730677,0.059990477,3.0779274,-0.62629217,0.00016964745,-0.08624421,0.015427397,0.0022957465,-0.011698022,0.008085677,-0.018824477,0.4955845,-1.3723463,1.8928031,-2.0900786,-1.5701913,2.4715314,-0.10844647,0.10599041,-0.1350488,0.01640637,0.0062156455,-0.089561254,-0.038307227,0.28730422,-9.308656,0.8403672,47.675243,-0.95854545,-2.3514984,-3.193565,-0.32310256,0.07718611,-0.38748682,25.6875,26.5625,25.625,28.0625,28.875,29.25
0.18005408,-0.5064683,-1.3742727,-1.8369459,-0.023348732,0.03481819,-0.07897795,-0.39671147,-0.3672548,0.059978276,3.0779324,-0.62631094,0.0001868778,-0.087246925,0.015254113,0.0018973585,-0.012377029,0.0070250724,-0.018152205,0.49534467,-1.3721291,1.8925642,-2.0900428,-1.5701913,2.4713027,-0.10970208,0.10856764,-0.13729493,0.016684186,0.0073152427,-0.09148932,-0.038307227,0.38307226,-9.251195,0.8112748,47.690468,-0.94615185,-2.438264,-3.184246,-0.33025968,0.06905843,-0.43070143,25.6875,26.5625,25.625,28.0625,28.875,29.25
0.18205447,-0.7318723,-1.3484995,-1.8097147,-0.03444184,0.035987485,-0.079539604,-0.39689678,-0.36721367,0.05998169,3.077926,-0.626402,0.00012360793,-0.088465005,0.0150867775,0.0022907902,-0.013561789,0.007580616,-0.012705667,0.49512848,-1.3719006,1.8922762,-2.0900066,-1.5702266,2.4711444,-0.110962234,0.10961342,-0.13947472,0.016765298,0.008095976,-0.098195806,-0.05746084,0.36391866,-9.270349,0.779936,47.703007,-1.0258421,-2.4678926,-3.1356323,-0.32103577,0.047906384,-0.36977175,25.6875,26.5625,25.625,28.0625,28.875,29.25
0.1840541,-0.6931322,-1.4008828,-1.9962301,-0.03932677,0.049495764,-0.08754207,-0.3970423,-0.36720276,0.05997919,3.0779026,-0.6263378,0.00017420207,-0.089955896,0.016064033,0.002507373,-0.0136708785,0.00775674,-0.011644566,0.49494806,-1.3716842,1.8920134,-2.0899584,-1.5701789,2.470927,-0.11392202,0.11021094,-0.14082558,0.017320177,0.008110054,-0.102216214,0.019153614,0.2681506,-9.404425,0.8224646,47.695843,-0.982747,-2.454866,-3.1616333,-0.33037102,0.05572416,-0.35385835,25.6875,26.5625,25.625,28.0625,28.875,29.25
0.1860543,-0.7205022,-1.410792,-1.9770007,-0.047999408,0.051729508,-0.08534554,-0.39726973,-0.36716974,0.060000446,3.077833,-0.6263745,6.118494e-05,-0.08915242,0.014956493,0.0024135062,-0.013431993,0.007522086,-0.0030422108,0.4946856,-1.3714436,1.8916787,-2.0899584,-1.5701789,2.4706964,-0.111214645,0.11093387,-0.14157613,0.017673472,0.008025849,-0.10811003,0.0,0.24899697,-9.461885,0.784413,47.709274,-1.0597465,-2.34142,-3.2109857,-0.34112376,0.053502332,-0.3017711,25.6875,26.5625,25.625,28.0625,28.875,29.25
0.18805386,-1.2251838,-1.890257,-2.0612118,-0.04939801,0.04645722,-0.08083524,-0.39743996,-0.3671389,0.059988964,3.077817,-0.6263895,0.00012740513,-0.092017695,0.015753621,0.0031307833,-0.014998975,0.009006982,-0.0020270236,0.49445644,-1.3711909,1.8913902,-2.0898983,-1.5701426,2.4704788,-0.115517415,0.1122594,-0.14477065,0.017498255,0.00869541,-0.11342753,-0.05746084,0.2681506,-9.500193,0.8112748,47.698532,-1.0301002,-2.4262846,-3.1282768,-0.32890987,0.047253683,-0.25063413,25.6875,26.5625,25.625,28.0625,28.875,29.25
0.19005425,-0.6177532,-1.2698246,-2.001098,-0.056610823,0.05818312,-0.09341759,-0.39758348,-0.3671021,0.05997896,3.0778108,-0.6263252,0.00018011202,-0.090207905,0.015332109,0.0018735521,-0.013461077,0.0067095743,0.0059695654,0.49424204,-1.3709984,1.8911756,-2.0898626,-1.5701069,2.470225,-0.11296084,0.11315537,-0.1430298,0.017623713,0.008439071,-0.11886797,0.019153614,0.2681506,-9.442732,0.83365434,47.672558,-1.1985089,-2.272945,-3.3845844,-0.31836388,0.06623514,-0.14235058,25.6875,26.5625,25.625,28.0625,28.875,29.25
0.19205418,-0.7435338,-1.1367786,-2.1086524,-0.038993865,0.051399976,-0.09343812,-0.39779553,-0.36705622,0.05999747,3.0777946,-0.6263984,6.2164785e-05,-0.09120474,0.015768595,0.0012239647,-0.013199005,0.0060388325,0.004905756,0.49400192,-1.3707695,1.8908528,-2.0898268,-1.5701545,2.470033,-0.11459555,0.11536115,-0.144111,0.017210407,0.008533147,-0.11943774,-0.038307227,0.24899697,-9.481039,0.83365434,47.71286,-1.1674018,-2.2708933,-3.296285,-0.32091737,0.04673162,-0.13376863,25.6875,26.5625,25.625,28.0625,28.875,29.25
0.19405365,-0.57513213,-0.71477026,-1.9392135,-0.03199352,0.05017515,-0.090748206,-0.39798647,-0.367046,0.060006898,3.0777268,-0.62630904,5.346307e-05,-0.09233097,0.01588765,0.001914138,-0.014819006,0.007253316,0.0012423127,0.49377385,-1.3705292,1.8905424,-2.089815,-1.570094,2.4697578,-0.11628526,0.11499966,-0.14518167,0.016810276,0.009389368,-0.11746404,-0.038307227,0.22984336,-9.423578,0.7978386,47.670765,-1.0801287,-2.3848684,-3.32839,-0.3122636,0.039736748,-0.11391923,25.6875,26.5625,25.625,28.0625,28.875,29.25
0.1960543,-0.2375405,-0.19992094,-1.9955752,-0.022634832,0.050104327,-0.091391616,-0.39816642,-0.3670235,0.05999022,3.0777066,-0.626325,8.160774e-05,-0.0923501,0.016431553,-0.00025027627,-0.012606132,0.0038481806,-0.0030966895,0.49355802,-1.3702514,1.8902439,-2.089791,-1.5700701,2.4695547,-0.116952956,0.11929502,-0.14540996,0.016794104,0.00905404,-0.11379174,-0.05746084,0.11492168,-9.442732,0.8940802,47.701214,-1.1713442,-2.350366,-3.4424992,-0.30754432,0.04130926,-0.1355509,25.6875,26.5625,25.625,28.0625,28.875,29.25
0.19805378,-0.5277022,-0.40578008,-2.0857105,-0.009660556,0.043132726,-0.0795093,-0.3983542,-0.36697632,0.059991322,3.077661,-0.6263751,7.4748365e-05,-0.094856314,0.016113237,0.0022665982,-0.015034064,0.009158186,-0.008927919,0.49329415,-1.370036,1.8899792,-2.0897672,-1.5700468,2.469328,-0.11839288,0.11752839,-0.14892171,0.016249463,0.008672252,-0.10939878,-0.19153613,0.019153614,-9.519346,0.8806493,47.705692,-1.1609449,-2.3078218,-3.486135,-0.27781573,0.052759103,-0.18320066,25.6875,26.5625,25.625,28.0625,28.875,29.25
0.20005473,-0.2344889,0.15750808,-1.9365246,-0.021033641,0.0550303,-0.09604603,-0.39854592,-0.36695126,0.060007907,3.0776355,-0.62635297,2.147242e-05,-0.09398912,0.01740743,0.00013847924,-0.013271239,0.0048346836,-0.014339993,0.49307805,-1.3698071,1.8896579,-2.0897195,-1.5700463,2.4691014,-0.1200292,0.11940306,-0.14640193,0.016495546,0.0091780955,-0.10562387,-0.1340753,0.0,-9.461885,0.85155696,47.675243,-1.1006556,-2.3492374,-3.5690079,-0.2876036,0.038252518,-0.23831007,25.6875,26.5625,25.625,28.0625,28.875,29.25
0.20205411,-1.0232006,-0.16246432,-2.0236933,-0.0051370882,0.047513947,-0.085190624,-0.39873075,-0.36692148,0.060006764,3.0775895,-0.6264399,5.894139e-05,-0.095622495,0.016946454,0.0013958022,-0.015325843,0.006785933,-0.01779059,0.4928383,-1.3695548,1.889346,-2.0896595,-1.5700101,2.468922,-0.12121929,0.119551264,-0.14952692,0.016782485,0.010060055,-0.10336306,-0.19153613,-0.095768064,-9.442732,0.85155696,47.72629,-1.1395129,-2.230702,-3.4608598,-0.28357318,0.037563086,-0.28829908,25.6875,26.5625,25.625,28.0625,28.875,29.25
0.2040544,-0.9747063,-0.30148622,-2.1208165,0.0038929638,0.06125054,-0.08149626,-0.3988849,-0.36687726,0.05996328,3.0776095,-0.6264837,0.00017192692,-0.097416714,0.017629921,0.0016083998,-0.0147148045,0.0074705253,-0.02171725,0.49260986,-1.3692782,1.8891066,-2.0896232,-1.5699862,2.4687183,-0.123397484,0.12119925,-0.1521622,0.017462322,0.009188302,-0.10161332,-0.2681506,-0.019153614,-9.500193,0.80679786,47.691364,-1.0728768,-2.1774902,-3.4583597,-0.26066172,0.03566837,-0.3285402,25.6875,26.5625,25.625,28.0625,28.875,29.25
0.20605521,-1.1009171,0.09287394,-1.9190596,-0.011732963,0.06771035,-0.08419203,-0.3991156,-0.36685765,0.05999128,3.0775156,-0.62650335,9.591348e-05,-0.09835695,0.017891478,0.0019691302,-0.015405837,0.007392301,-0.024203578,0.49234584,-1.3690255,1.8887361,-2.089599,-1.56995,2.4684787,-0.12501502,0.121684596,-0.15378718,0.018347407,0.009845314,-0.10074372,-0.36391866,0.019153614,-9.442732,0.83589023,47.7245,-1.05825,-2.240531,-3.498615,-0.25457677,0.0379206,-0.3716274,25.6875,26.5625,25.625,28.0625,28.875,29.25
0.20803119,-1.4254187,-0.48054206,-2.1349244,-0.008839531,0.07907773,-0.08625702,-0.39930406,-0.3667908,0.05999483,3.0775294,-0.62658477,3.482193e-05,-0.10006547,0.01936249,0.00046033462,-0.013814375,0.00462641,-0.029376647,0.49209324,-1.36882,1.888472,-2.0895507,-1.5699981,2.4682753,-0.12890485,0.12601922,-0.15573686,0.019149242,0.009750914,-0.09945898,-0.51714754,0.038307227,-9.500193,0.85826975,47.701214,-1.0211352,-2.3024607,-3.414864,-0.25558975,0.0141076,-0.4133879,25.6875,26.5625,25.625,28.0625,28.875,29.25
0.21005403,-1.6269375,-0.6015624,-2.069944,-0.012983397,0.09426683,-0.08371451,-0.39951503,-0.36675853,0.060011823,3.0774336,-0.6267156,2.6113654e-05,-0.099580124,0.017947964,0.0020576895,-0.01461952,0.0070045334,-0.026240578,0.49181882,-1.3685805,1.8881367,-2.0895026,-1.56995,2.4680948,-0.12577209,0.124086775,-0.15732402,0.020201461,0.00934421,-0.09946134,-0.5746084,0.076614454,-9.595961,0.81351066,47.689575,-1.0748101,-2.1828628,-3.5059233,-0.24951373,0.024293397,-0.46660677,25.6875,26.5625,25.625,28.0625,28.875,29.25
0.21205369,-2.1028404,-1.0676641,-2.1766706,-0.01833391,0.10160554,-0.07842338,-0.39971882,-0.3667307,0.060021617,3.0773697,-0.6267795,2.0900368e-05,-0.101088434,0.01895006,0.0015883038,-0.014134815,0.005933839,-0.026879797,0.49156615,-1.3683273,1.8878015,-2.089455,-1.5699142,2.4678903,-0.1287938,0.1263326,-0.15913567,0.020947654,0.0094283065,-0.10184268,-0.6895301,0.15322891,-9.576807,0.83589023,47.721813,-1.0020477,-2.2485757,-3.4714835,-0.26195508,0.028122153,-0.48781568,25.6875,26.5625,25.625,28.0625,28.875,29.25
0.21405384,-2.3995593,-1.4233702,-2.3097315,-0.034414925,0.11399627,-0.08339227,-0.39992347,-0.3667028,0.060034804,3.0773134,-0.6268214,-3.709362e-05,-0.10119733,0.018228078,0.001345159,-0.013692622,0.0057134125,-0.021878298,0.4913274,-1.3680865,1.8874787,-2.089431,-1.5699023,2.467685,-0.12744384,0.12822062,-0.1609382,0.02127275,0.009150581,-0.10549257,-0.6895301,0.22984336,-9.595961,0.84484416,47.698532,-1.1566108,-2.2058187,-3.431088,-0.25361076,0.03228595,-0.491333,25.6875,26.5625,25.625,28.0625,28.875,29.25
0.21605386,-2.259948,-1.2474216,-2.1174529,-0.049170285,0.12159623,-0.089313895,-0.40011013,-0.36664987,0.060023814,3.0773206,-0.6268926,3.219387e-05,-0.10377476,0.018021155,0.0025528779,-0.0147116035,0.008844884,-0.013592602,0.49106345,-1.3678218,1.8871659,-2.0893352,-1.5698909,2.4674647,-0.12899412,0.12955269,-0.16524592,0.021020526,0.008566968,-0.11532674,-0.7086837,0.22984336,-9.653421,0.8179876,47.695843,-1.1507928,-2.08094,-3.2473943,-0.23084597,0.044288274,-0.42722985,25.6875,26.5625,25.5625,28.0625,28.875,29.25
0.21805382,-2.4695857,-1.7260253,-2.1733332,-0.037396803,0.10763823,-0.083229266,-0.40034094,-0.366611,0.060031526,3.077248,-0.6269314,-2.6581753e-05,-0.10567524,0.018367682,0.0019289205,-0.014101554,0.008677476,-0.0087265745,0.49077544,-1.3675561,1.8868312,-2.0893352,-1.5698665,2.4672103,-0.13092859,0.1332963,-0.16826873,0.020747812,0.008117745,-0.12212465,-0.63206923,0.28730422,-9.595961,0.88289046,47.703903,-1.1456897,-2.180859,-3.322347,-0.2418836,0.042832073,-0.37883133,25.6875,26.5625,25.5625,28.0625,28.875,29.25
0.22005402,-1.4672334,-1.3426399,-2.2466524,-0.044490602,0.1145932,-0.087947205,-0.40056044,-0.36659274,0.06006721,3.0772052,-0.62688,-0.00012475379,-0.10620181,0.018867917,0.00075354706,-0.0138038,0.006868288,-0.0014652227,0.49054724,-1.3673152,1.8864487,-2.0892751,-1.5698665,2.4669557,-0.13254061,0.1357948,-0.16849059,0.020214671,0.00872612,-0.13099733,-0.51714754,0.19153613,-9.710882,0.7911258,47.677036,-1.0489626,-2.203389,-3.277643,-0.21321282,0.04493473,-0.25315753,25.6875,26.5625,25.5625,28.0625,28.875,29.25
0.22205384,-1.2262106,-1.0821577,-1.745339,-0.053605262,0.10315683,-0.08707699,-0.40079805,-0.366539,0.060078435,3.0771866,-0.62687427,-0.00022034992,-0.10884245,0.020069612,0.0010529708,-0.014131367,0.008198615,-0.00095868803,0.49025854,-1.3670503,1.8861016,-2.0892518,-1.5698909,2.466666,-0.13663971,0.13730535,-0.17091443,0.01980464,0.008397818,-0.13560116,-0.61291564,0.22984336,-9.519346,0.784413,47.695843,-1.0527452,-2.2760465,-3.2160535,-0.19458658,0.04036436,-0.20421782,25.6875,26.5625,25.5625,28.0625,28.875,29.25
0.2240541,-1.0504489,-0.86842996,-1.6863713,-0.044860438,0.096784145,-0.09468609,-0.40102142,-0.36651674,0.060091473,3.0770926,-0.62687117,-0.00024665863,-0.10989491,0.019231288,0.0021681269,-0.015026385,0.011151194,0.002232498,0.48998353,-1.366786,1.8857535,-2.0892398,-1.5698308,2.466401,-0.13573414,0.13733795,-0.17338729,0.019233342,0.0078069316,-0.13788499,-0.6895301,0.24899697,-9.346964,0.79560274,47.67614,-1.0539454,-2.1991827,-3.1388965,-0.17126128,0.05347655,-0.15998717,25.6875,26.5625,25.5625,28.0625,28.875,29.25
0.22605452,-1.3796518,-0.37990218,-1.3907088,-0.03557278,0.08237038,-0.08548659,-0.4012151,-0.36645785,0.060058363,3.0771058,-0.6269119,-0.00014620287,-0.11050316,0.01887817,0.0016218927,-0.015575847,0.0101189725,0.0013939434,0.489696,-1.3664848,1.885455,-2.0891798,-1.5698065,2.4661374,-0.13620813,0.13978544,-0.17509165,0.019144533,0.008769238,-0.13752054,-0.51714754,0.2681506,-9.289502,0.8179876,47.694054,-1.1253034,-2.464496,-3.273973,-0.15567829,0.056617305,-0.14631826,25.6875,26.5625,25.5625,28.0625,28.875,29.25
0.22805378,-1.6439972,-1.2997307,-1.526487,-0.012249428,0.07362416,-0.07323564,-0.40145957,-0.36643293,0.060077053,3.0770288,-0.6269389,-0.00021945038,-0.110274926,0.01979859,-0.00070781505,-0.0133436695,0.006055175,-0.0076011256,0.48942024,-1.3661952,1.8850611,-2.089156,-1.5697826,2.4658885,-0.13742547,0.1436186,-0.17446007,0.019314578,0.008719356,-0.12974182,-0.5363012,0.30645782,-9.212888,0.84484416,47.684196,-1.08004,-2.3147867,-3.3476605,-0.14615774,0.05593431,-0.20872855,25.6875,26.5625,25.5625,28.0625,28.875,29.25
0.23005402,-1.2719446,-0.8589714,-1.4491173,-0.022041209,0.0749874,-0.08282991,-0.40169913,-0.3664127,0.060099304,3.076947,-0.6269412,-0.00031050754,-0.110838965,0.019759977,0.00031696685,-0.013768301,0.007845235,-0.011443381,0.4891569,-1.3659195,1.8846782,-2.089144,-1.5697588,2.4656372,-0.13749735,0.14245678,-0.17553696,0.019777177,0.008263181,-0.12597035,-0.45968673,0.28730422,-9.11712,0.8112748,47.668976,-1.1609385,-2.299699,-3.3035533,-0.1261412,0.058165208,-0.24171314,25.6875,26.5625,25.5625,28.0625,28.875,29.25
0.23205441,-0.83445835,-0.6022629,-1.2542425,-0.023817148,0.068951845,-0.07935003,-0.40193272,-0.3663703,0.060096476,3.0769048,-0.62699056,-0.00033877158,-0.111787945,0.02011397,-3.106075e-05,-0.01331625,0.0074233566,-0.015206096,0.488869,-1.3656185,1.8843192,-2.0891197,-1.5697464,2.4653857,-0.13873096,0.14433545,-0.17709342,0.02004205,0.008064729,-0.12344013,-0.21068975,0.17238252,-9.059659,0.82694155,47.709274,-1.1089643,-2.3043807,-3.2906694,-0.09864645,0.06121943,-0.30867386,25.6875,26.5625,25.5625,28.0625,28.875,29.25
0.23405452,-0.06960234,-0.56167185,-1.1953113,-0.014291785,0.06681014,-0.08410771,-0.40215638,-0.36629483,0.06008627,3.0769055,-0.6270471,-0.00037530495,-0.1119485,0.020272898,-0.00042461234,-0.012976693,0.0061951717,-0.015393465,0.48855752,-1.3653537,1.8840202,-2.0890954,-1.5697707,2.4651096,-0.13923049,0.14556961,-0.17789634,0.020853592,0.008347047,-0.12375197,-0.095768064,0.019153614,-9.002198,0.78217715,47.677036,-1.2125063,-2.3427434,-3.3405344,-0.078812696,0.07621074,-0.32517,25.6875,26.5625,25.5625,28.0625,28.875,29.25
0.2360537,0.2702293,-0.07664278,-1.0530331,-0.008328094,0.04572889,-0.085792065,-0.40237683,-0.36627826,0.06009446,3.0768402,-0.6270913,-0.00041925514,-0.11285797,0.02065739,-0.0013112996,-0.011571156,0.0045379996,-0.016944235,0.4883176,-1.3650641,1.8836497,-2.089071,-1.5697464,2.4649057,-0.14032578,0.14892071,-0.18017103,0.021906441,0.007889933,-0.12329468,0.019153614,0.019153614,-9.021352,0.84484416,47.683304,-1.1402649,-2.32334,-3.3868046,-0.08221456,0.09496708,-0.35343164,25.6875,26.5625,25.5625,28.0625,28.875,29.25
0.23805413,0.40731817,0.6071104,-0.8808742,0.0022464425,0.019646926,-0.08261145,-0.40264788,-0.36622262,0.060097236,3.076791,-0.6271375,-0.0004921671,-0.11398441,0.020779101,0.00068279065,-0.013358424,0.0073755267,-0.01868305,0.48798236,-1.364741,1.8832539,-2.0890586,-1.5697464,2.4646058,-0.14158922,0.14624701,-0.18174538,0.022811607,0.008146896,-0.12281892,0.038307227,0.0,-8.90643,0.8537928,47.68062,-1.3246882,-2.2443419,-3.343027,-0.064217374,0.09574698,-0.38165176,25.6875,26.5625,25.5625,28.0625,28.875,29.25
0.24005374,0.94043523,0.45034298,-1.0540526,0.02678944,0.020194674,-0.08205399,-0.40289047,-0.3661889,0.0601144,3.07671,-0.6272535,-0.00053940667,-0.11521097,0.020194218,0.0019186616,-0.014543812,0.009360009,-0.01666392,0.48769468,-1.3644527,1.8828591,-2.089011,-1.5697225,2.464401,-0.14169064,0.14633174,-0.18485169,0.023531701,0.008272643,-0.124938,0.11492168,0.0,-8.848969,0.83589023,47.699425,-1.2298955,-2.2348385,-3.1957095,-0.03786062,0.088197455,-0.38464707,25.6875,26.5625,25.5625,28.0625,28.875,29.25
0.242054,0.708999,0.8021498,-1.0395253,0.01579283,0.009156298,-0.08621723,-0.4031192,-0.36612362,0.06011408,3.0766761,-0.6273414,-0.0005674105,-0.11796747,0.02170998,0.0025349692,-0.015526935,0.009532938,-0.01629317,0.48738116,-1.3641881,1.8825349,-2.0889747,-1.569722,2.4641469,-0.14708269,0.14741479,-0.18788677,0.024876218,0.009071957,-0.13069963,0.22984336,-0.019153614,-8.810662,0.8717007,47.7254,-0.96679044,-2.0733862,-3.320488,-0.035346474,0.08461257,-0.35130563,25.6875,26.5625,25.5625,28.0625,28.875,29.25
0.24405403,0.82763344,0.77114695,-1.1881571,0.0063068997,0.014213242,-0.0862753,-0.40334716,-0.36608648,0.060120065,3.0766497,-0.62731004,-0.0005410174,-0.11751359,0.022173071,0.0018581753,-0.01401054,0.0071681547,-0.008765133,0.48709416,-1.3638874,1.882142,-2.0888898,-1.5696868,2.4638438,-0.14723049,0.14852028,-0.18816733,0.026867002,0.008858302,-0.13837536,0.3256114,-0.038307227,-8.963891,0.842603,47.709274,-1.0841455,-2.1105602,-3.242859,-0.030516172,0.087869525,-0.29121882,25.6875,26.5625,25.5625,28.0625,28.875,29.25
0.2460541,-0.1553488,-0.22340631,-1.6126229,0.0037425489,-0.0026231743,-0.079444386,-0.40357178,-0.3660409,0.06010647,3.0766432,-0.6273822,-0.0005246988,-0.11934636,0.02282156,0.0021950612,-0.013728802,0.0071241,-0.0036815242,0.4868178,-1.3635626,1.88177,-2.0888293,-1.5696868,2.4636135,-0.14972301,0.1503475,-0.19156271,0.02861724,0.0086380625,-0.14595026,0.21068975,0.076614454,-9.078813,0.83589023,47.739727,-0.95882475,-2.033673,-3.2651308,-0.022833882,0.11128493,-0.20745912,25.6875,26.5625,25.5625,28.0625,28.875,29.25
0.24805434,-0.14046884,-1.084046,-1.8308948,-0.013349354,0.023585968,-0.074354716,-0.40378153,-0.3659811,0.06008852,3.0766938,-0.62732905,-0.00044870225,-0.1183319,0.022569075,0.0015137105,-0.012885062,0.0046264958,0.002828867,0.4865309,-1.3632498,1.8814114,-2.088721,-1.5696863,2.463287,-0.14857689,0.15137184,-0.19167295,0.03031217,0.009064872,-0.15131518,0.076614454,0.15322891,-9.193734,0.88289046,47.705692,-1.1292578,-2.0546544,-3.2675958,-0.045195963,0.10669736,-0.1079371,25.6875,26.5625,25.5625,28.0625,28.875,29.25
0.2500544,-0.5493406,-1.5975548,-2.020193,-0.027969196,0.05128559,-0.07839824,-0.404005,-0.36593398,0.06008234,3.0766907,-0.6272881,-0.00038100773,-0.118188955,0.022670371,0.0010506692,-0.011421319,0.002739537,0.0057278317,0.48623145,-1.3629367,1.8810285,-2.0886247,-1.5696505,2.4629626,-0.14827858,0.15303911,-0.19316028,0.032497086,0.008656532,-0.15391542,0.019153614,0.17238252,-9.289503,0.8560339,47.698532,-1.0845226,-2.1271453,-3.2957373,-0.06447312,0.114638016,-0.030317394,25.6875,26.5625,25.5625,28.0625,28.875,29.25
0.2520536,-0.7804036,-1.8072927,-2.1518848,-0.04357927,0.07055951,-0.07929763,-0.40423834,-0.36589155,0.06008226,3.076656,-0.6272462,-0.00037279114,-0.11926687,0.02353232,0.0005964466,-0.010927565,0.0014628058,-0.0020666844,0.48593116,-1.3626361,1.8806576,-2.088577,-1.5696148,2.4626408,-0.15067898,0.15489629,-0.19461553,0.033456307,0.008814411,-0.14852048,-0.019153614,0.3256114,-9.423578,0.8493211,47.7245,-1.0884376,-2.016648,-3.2659748,-0.07118223,0.13197641,-0.07529837,25.6875,26.5625,25.5625,28.0625,28.875,29.25
0.25405377,-1.1015939,-2.06979,-2.3079429,-0.06324103,0.08171515,-0.06873275,-0.40446576,-0.36583385,0.060079046,3.076667,-0.62730724,-0.00032594244,-0.11938565,0.022791453,0.00047568209,-0.012147235,0.0006646181,-0.0075909393,0.48563224,-1.362323,1.8802623,-2.0884569,-1.5696138,2.4623787,-0.15033802,0.15622391,-0.19602431,0.033665087,0.010252313,-0.14265539,-0.1340753,0.36391866,-9.691729,0.8918391,47.690468,-1.2043802,-2.2497127,-3.3245435,-0.082893394,0.10740259,-0.12930584,25.6875,26.5625,25.5625,28.0625,28.875,29.25
0.25605372,-1.1819388,-1.860795,-2.1558077,-0.08094978,0.084414326,-0.07917984,-0.4046832,-0.3657784,0.060062367,3.0766728,-0.62731296,-0.0002534507,-0.120302305,0.023868483,-0.0013840507,-0.010629847,-0.0023939225,-0.0176918,0.48533198,-1.3620092,1.8799046,-2.088373,-1.56959,2.4620814,-0.15290527,0.16040571,-0.19688685,0.03375672,0.010322726,-0.13512133,-0.2681506,0.47884035,-9.691729,0.83589023,47.704796,-1.1516211,-2.3467941,-3.3535686,-0.09331515,0.12108058,-0.20705566,25.6875,26.5625,25.5625,28.0625,28.875,29.25
0.25805476,-0.91200167,-2.094622,-2.4513438,-0.07049864,0.08228979,-0.07967091,-0.40494356,-0.3657616,0.06008481,3.0765657,-0.62735003,-0.0003206896,-0.12178633,0.02440878,-0.0014292294,-0.010330129,-0.0013786517,-0.022866784,0.48504394,-1.3616967,1.8794736,-2.088349,-1.5695423,2.4618304,-0.15456732,0.16185543,-0.19841652,0.033086322,0.00958848,-0.13160655,-0.21068975,0.47884035,-9.844957,0.83589023,47.679718,-1.0607845,-2.2497473,-3.4332576,-0.09565677,0.1293806,-0.25712729,25.6875,26.5625,25.5625,28.0625,28.875,29.25
0.26005414,-0.85194504,-1.6956065,-2.4203072,-0.07027224,0.07563329,-0.08105376,-0.40518773,-0.36566842,0.060066078,3.0766118,-0.6275127,-0.00031776368,-0.121948734,0.025297564,-0.0032723977,-0.009573165,-0.004708645,-0.027583664,0.48470825,-1.3613713,1.879104,-2.0882537,-1.5696014,2.4615905,-0.15663396,0.16486536,-0.19782509,0.032773428,0.010462195,-0.12895685,-0.22984336,0.38307226,-9.902418,0.93436235,47.687782,-1.0345821,-2.3603868,-3.467511,-0.09279226,0.11554993,-0.3576967,25.6875,26.5625,25.5625,28.0625,28.875,29.25
0.26205426,-0.63056797,-1.5625048,-2.1552806,-0.065644175,0.084893204,-0.08331388,-0.40543512,-0.36564147,0.06007964,3.076518,-0.62759256,-0.00031552708,-0.12319119,0.025760742,-0.0029186774,-0.009587027,-0.0040977374,-0.032912213,0.4844081,-1.3610586,1.8786844,-2.0881937,-1.5695423,2.4613523,-0.15823476,0.16558804,-0.19967481,0.033360854,0.01018874,-0.12522793,-0.45968673,0.3256114,-9.768343,0.8627467,47.73525,-0.99608904,-2.4214687,-3.4696057,-0.07383148,0.14021301,-0.41220474,25.6875,26.5625,25.5625,28.0625,28.875,29.25
0.26405433,-0.7059525,-0.6133474,-2.1242948,-0.0631538,0.09726872,-0.08156509,-0.40567192,-0.3656069,0.06007577,3.076446,-0.62763435,-0.00025555026,-0.12369485,0.025735246,-0.0030116597,-0.009053802,-0.0038426279,-0.034094315,0.48409688,-1.3607341,1.87829,-2.0881336,-1.5694703,2.4610765,-0.15817213,0.16675094,-0.20094086,0.033499308,0.009595463,-0.12398246,-0.5554548,0.3256114,-9.691729,0.83589023,47.71286,-1.0579824,-2.5250063,-3.5017748,-0.09176658,0.13815501,-0.47841895,25.6875,26.5625,25.5625,28.0625,28.875,29.25
0.26605448,-1.0522228,-0.6156653,-2.1669512,-0.04068879,0.107823886,-0.08475098,-0.40594667,-0.3655655,0.06010076,3.0763683,-0.62774944,-0.00035522092,-0.124107674,0.026142508,-0.004266373,-0.009274303,-0.0061001405,-0.03185821,0.4837848,-1.3604217,1.8778476,-2.088086,-1.5694698,2.4608464,-0.15987687,0.16930147,-0.20109016,0.032997556,0.010854909,-0.12792233,-0.45968673,0.2681506,-9.672575,0.85155696,47.688675,-0.9373313,-2.4269223,-3.644897,-0.079165906,0.12723088,-0.51395553,25.6875,26.5625,25.5625,28.0625,28.875,29.25
0.26805553,-1.435308,-0.40656814,-1.8156084,-0.03613783,0.11276149,-0.092094086,-0.4062022,-0.36552286,0.06010792,3.076318,-0.62779,-0.00037430855,-0.12555768,0.026256427,-0.0037354885,-0.009958742,-0.004947977,-0.02433067,0.48347348,-1.3600979,1.8774289,-2.0880263,-1.569446,2.460567,-0.1612888,0.17016551,-0.20341335,0.033136316,0.0109369,-0.1368606,-0.38307226,0.21068975,-9.5385,0.83365434,47.667187,-1.1547685,-2.379578,-3.5455852,-0.08114794,0.13784221,-0.4649729,25.6875,26.5625,25.5625,28.0625,28.875,29.25
0.2700535,-1.7195121,-0.35068694,-1.6074079,-0.021976387,0.1018316,-0.083917774,-0.40645596,-0.36546245,0.0600739,3.0762959,-0.62787366,-0.00029287444,-0.12556313,0.02538206,-0.00401638,-0.009470567,-0.0061000455,-0.012186291,0.4831267,-1.3597133,1.8770331,-2.0879776,-1.5694097,2.4602754,-0.1597932,0.17258672,-0.20609328,0.03466475,0.011046589,-0.1475087,-0.4405331,0.05746084,-9.481039,0.8605109,47.674347,-1.1531637,-2.4341164,-3.509492,-0.079059064,0.1266703,-0.37412906,25.6875,26.5625,25.5625,28.0625,28.875,29.25
0.27205345,-1.110104,0.2694022,-1.3877074,-0.01080049,0.0955018,-0.08647927,-0.40672424,-0.3654317,0.06008563,3.0762599,-0.62786,-0.00036506628,-0.1276226,0.02465067,-0.0017339904,-0.011907394,-0.0021888874,-0.0033472232,0.48283902,-1.3593659,1.8765782,-2.0879295,-1.5694097,2.459984,-0.16049281,0.17164986,-0.21033257,0.03526024,0.011402712,-0.15704556,-0.61291564,-0.05746084,-9.32781,0.8537928,47.687782,-1.250634,-2.3530595,-3.5541768,-0.08404349,0.1270841,-0.26635498,25.6875,26.5625,25.5625,28.0625,28.875,29.25
0.27405336,-0.27884945,1.1009134,-1.3525194,0.0025040244,0.09126643,-0.093638435,-0.40699,-0.3653967,0.0601009,3.0762105,-0.6278264,-0.0004403383,-0.12870263,0.024455603,-0.0006937713,-0.011568594,-0.00092027034,0.00197866,0.48253945,-1.3590422,1.8761462,-2.0878928,-1.5693978,2.45967,-0.16047299,0.17212254,-0.21376665,0.03727092,0.01053114,-0.16234976,-0.38307226,-0.095768064,-9.212888,0.87617236,47.685097,-1.2220806,-2.2305026,-3.3916345,-0.08828699,0.14047569,-0.1834723,25.6875,26.5625,25.5625,28.0625,28.875,29.25
0.27605405,-0.5406278,1.2561042,-1.3941844,0.018596226,0.066619374,-0.09109464,-0.40724623,-0.36533615,0.06008881,3.076183,-0.627859,-0.0003890424,-0.13048781,0.025670687,-9.768454e-06,-0.011641229,-0.0004930133,0.0005435131,0.48219097,-1.3586942,1.875739,-2.0878208,-1.5693616,2.4593456,-0.16387305,0.17229983,-0.2159508,0.03887848,0.010398659,-0.16431423,-0.40222588,-0.30645782,-9.289502,0.80679786,47.67614,-1.1800754,-2.2074027,-3.313934,-0.12121816,0.15388395,-0.13020082,25.6875,26.5625,25.5625,28.0625,28.875,29.25
0.2780541,-0.72980845,0.77772105,-1.5553073,0.029215341,0.05856516,-0.07948762,-0.40751845,-0.36527815,0.06010376,3.0761535,-0.6278933,-0.00043198798,-0.13185875,0.026214499,-0.00015834854,-0.011516064,-0.00042121275,-0.005765151,0.48185536,-1.3583698,1.875296,-2.0877368,-1.569362,2.4590354,-0.16577607,0.17403759,-0.21777117,0.038953487,0.010251459,-0.15990743,-0.47884035,-0.17238252,-9.232041,0.8784135,47.677036,-1.2729683,-2.3218844,-3.337819,-0.12248856,0.16307886,-0.18083042,25.6875,26.5625,25.5625,28.0625,28.875,29.25
0.28005412,-0.8121315,0.44561327,-1.5395597,0.015621711,0.06335196,-0.0807441,-0.40776825,-0.3652319,0.060088266,3.07615,-0.6278951,-0.00037812366,-0.13144185,0.025530187,-0.00038378668,-0.011133754,-0.001155831,-0.01144147,0.48154438,-1.3579978,1.8748645,-2.0876524,-1.5693382,2.4587262,-0.16415234,0.17517725,-0.21886852,0.039736237,0.010239155,-0.15260723,-0.4405331,-0.11492168,-9.251195,0.8493211,47.66808,-1.2981598,-2.1805038,-3.3339171,-0.11471155,0.17015862,-0.2536766,25.6875,26.5625,25.5625,28.0625,28.875,29.25
0.2820539,-0.7309248,-0.31841344,-1.4314767,-9.756496e-05,0.08011056,-0.07792272,-0.40801972,-0.36515188,0.06008267,3.076129,-0.6279674,-0.00026995837,-0.13091971,0.026403574,-0.00029463178,-0.009621188,-0.0038453413,-0.015560385,0.481161,-1.3576746,1.8744582,-2.0875194,-1.56929,2.4583907,-0.1649741,0.17479241,-0.21961854,0.043962248,0.010140602,-0.14931072,-0.3256114,0.019153614,-9.308657,0.8672237,47.716442,-1.3193393,-2.0499456,-3.333471,-0.17551568,0.16684875,-0.3202259,25.6875,26.5625,25.5625,28.0625,28.875,29.25
0.2840536,-0.6219118,-0.013666462,-1.4580379,-0.0336424,0.0905637,-0.09142488,-0.408282,-0.3651124,0.060084924,3.0761123,-0.6280215,-0.0003100075,-0.13159785,0.026611494,-3.09871e-05,-0.009170308,-0.0043581296,-0.016993953,0.48087293,-1.3573145,1.8740033,-2.0874474,-1.5693024,2.4581387,-0.16570619,0.17575979,-0.22188345,0.04592377,0.009980351,-0.1486083,-0.34476504,0.076614454,-9.346964,0.8179876,47.694946,-1.4204462,-2.0152092,-3.333262,-0.23054522,0.16439572,-0.330931,25.6875,26.5625,25.5625,28.0625,28.875,29.25
0.2860532,-0.96585625,-0.8489386,-1.748942,-0.031998955,0.092340805,-0.078865156,-0.40855283,-0.36505723,0.06009162,3.0760877,-0.62805533,-0.00031207714,-0.13260628,0.027322486,-0.00011591591,-0.00891682,-0.004558227,-0.018165212,0.48053634,-1.3569665,1.8735474,-2.087351,-1.56929,2.4578266,-0.16757455,0.17675272,-0.22304945,0.046398327,0.009849442,-0.14930488,-0.22984336,0.1340753,-9.32781,0.90750587,47.711063,-1.332542,-1.9553828,-3.3177564,-0.24159446,0.17076628,-0.36278212,25.6875,26.5625,25.5625,28.0625,28.875,29.25
0.28805447,-0.24190164,-0.5401859,-1.8212011,-0.03875788,0.08625642,-0.09387581,-0.40881753,-0.36495516,0.060072478,3.0760853,-0.6282495,-0.00021029354,-0.13398544,0.027999282,-0.0011228594,-0.008788989,-0.006155462,-0.02174493,0.48012716,-1.3566171,1.8731402,-2.0872195,-1.5692776,2.457539,-0.17015728,0.1800888,-0.22482094,0.046311744,0.010457336,-0.14830764,-0.17238252,0.1340753,-9.3661175,0.8784135,47.709274,-1.358443,-2.1857285,-3.40592,-0.26922864,0.19059946,-0.37601522,25.6875,26.5625,25.5625,28.0625,28.875,29.25
0.29005346,-0.7359226,-1.1427896,-1.830707,-0.033587378,0.049073923,-0.08459824,-0.40912095,-0.36494446,0.06010356,3.075995,-0.6282072,-0.0002767067,-0.13524549,0.028751314,-0.00247683,-0.008070233,-0.007890427,-0.017431693,0.4798149,-1.3562325,1.8725904,-2.087148,-1.5692295,2.4572122,-0.17248967,0.18383484,-0.22622314,0.04585881,0.010639604,-0.15495136,-0.038307227,0.17238252,-9.423578,0.90527004,47.684196,-1.2477136,-2.168366,-3.4593642,-0.29648018,0.20044301,-0.33519417,25.6875,26.5625,25.5625,28.0625,28.875,29.25
0.2920548,-0.08279657,-1.205721,-1.7271513,-0.037257336,0.052453738,-0.08354545,-0.409379,-0.36486337,0.06010255,3.07598,-0.6282371,-0.00029398396,-0.13597196,0.02858661,-0.002420761,-0.008060132,-0.0064477744,-0.008990719,0.47945487,-1.3559326,1.872218,-2.0870888,-1.56923,2.456873,-0.17232414,0.18469003,-0.22716662,0.044690747,0.009973412,-0.16322628,-0.15322891,0.19153613,-9.404425,0.900793,47.690468,-1.2593747,-2.1550584,-3.4918597,-0.30184633,0.21179947,-0.27269387,25.6875,26.5625,25.5625,28.0625,28.875,29.25
0.2940533,-0.3724951,-1.0739778,-1.9247382,-0.0260361,0.032105125,-0.08775947,-0.4096327,-0.36483267,0.060097888,3.0759776,-0.6281368,-0.00021779258,-0.13808462,0.029174168,-0.0024454203,-0.008640748,-0.0052245064,-0.0025152003,0.47915342,-1.3555481,1.8717383,-2.0869696,-1.5691823,2.4565094,-0.17499855,0.18665563,-0.22927548,0.043506324,0.009925975,-0.17237552,-0.05746084,0.24899697,-9.500193,0.8627467,47.71017,-1.1087694,-2.225272,-3.5137014,-0.298029,0.22689182,-0.17438363,25.6875,26.5625,25.5625,28.0625,28.875,29.25
0.2960542,-0.16054925,-1.0915873,-1.8280162,-0.043448307,0.048739146,-0.08554775,-0.40990928,-0.36474928,0.06009875,3.075977,-0.6281935,-0.00022598762,-0.13893643,0.029922329,-0.0036105076,-0.0074848365,-0.007277286,-0.00019358456,0.4787809,-1.3552115,1.8713087,-2.0868733,-1.5691942,2.4561725,-0.17681304,0.18983921,-0.23065798,0.044068277,0.009849176,-0.17651083,-0.038307227,0.28730422,-9.519346,0.9164598,47.70211,-1.154318,-2.3051257,-3.5561337,-0.30965602,0.22266278,-0.10872583,25.6875,26.5625,25.5625,28.0625,28.875,29.25
0.2980538,-0.72253424,-1.9714609,-1.7098422,-0.049188826,0.052773725,-0.08418263,-0.41019762,-0.3646955,0.060093362,3.0759704,-0.6282124,-0.00019978672,-0.13964318,0.03028453,-0.0036201354,-0.008141192,-0.007829663,-0.0038975356,0.4784328,-1.3548036,1.8708047,-2.0867655,-1.5691818,2.4558372,-0.17840345,0.19053376,-0.23165517,0.044558525,0.010678928,-0.17439716,-0.19153613,0.40222588,-9.461885,0.8179876,47.698532,-1.1335295,-2.2053995,-3.5841494,-0.34252152,0.24068859,-0.06580268,25.6875,26.5625,25.5625,28.0625,28.875,29.25
0.300054,-0.7358452,-1.8192866,-1.6847353,-0.07035285,0.06561442,-0.08392088,-0.4105036,-0.3646329,0.060100753,3.0759013,-0.6282995,-0.0002342404,-0.14252989,0.030564312,-0.0035819341,-0.010465258,-0.005731539,-0.013909126,0.47804752,-1.3544312,1.8703254,-2.0867069,-1.569157,2.4555154,-0.1818924,0.19306819,-0.2341974,0.041628435,0.011762187,-0.1678727,-0.2681506,0.38307226,-9.3661175,0.87617236,47.699425,-1.0973983,-2.3716383,-3.4489813,-0.33715647,0.23624577,-0.111554995,25.6875,26.5625,25.5625,28.0625,28.875,29.25
0.30205387,-1.3332677,-1.8908603,-1.6887686,-0.07663663,0.06584385,-0.08113039,-0.410782,-0.36456046,0.060109384,3.0759008,-0.6283978,-0.00025726142,-0.14382614,0.029378183,-0.0025792401,-0.0123411715,-0.0028140764,-0.019366395,0.47769997,-1.3540833,1.8698591,-2.0865872,-1.5691813,2.4552295,-0.18109779,0.19378607,-0.23710787,0.040356934,0.01206788,-0.16161977,-0.24899697,0.28730422,-9.461885,0.86945957,47.73614,-1.1411769,-2.0976648,-3.5384026,-0.30940086,0.2385144,-0.16206847,25.6875,26.5625,25.5625,28.0625,28.875,29.25
0.30405346,-1.0952413,-1.5931299,-1.4642116,-0.07851531,0.07836923,-0.08850817,-0.41107458,-0.3644896,0.060083177,3.0758388,-0.6285022,-0.0001838716,-0.14488228,0.02908405,-0.0013755031,-0.014661768,1.3449874e-06,-0.023942685,0.47729155,-1.3536758,1.8694161,-2.08654,-1.5691212,2.4548943,-0.18183637,0.19242266,-0.2379559,0.039007343,0.012824451,-0.15778223,-0.34476507,0.2681506,-9.346964,0.8717007,47.694946,-1.0267363,-2.170283,-3.524149,-0.3365498,0.2383802,-0.25678253,25.6875,26.5625,25.5625,28.0625,28.875,29.25
0.30605334,-1.0146154,-1.0053147,-1.4438735,-0.0565892,0.08526728,-0.09551387,-0.41133052,-0.36446583,0.060078878,3.0757504,-0.62856656,-0.00011541531,-0.14631616,0.029460054,-0.001226563,-0.015777169,0.0011414747,-0.032503825,0.47697887,-1.3533041,1.8689612,-2.086469,-1.5690368,2.4546332,-0.18385401,0.1931807,-0.23899041,0.037763424,0.013280975,-0.1512382,-0.4405331,0.3256114,-9.385271,0.88960326,47.713753,-0.99348426,-2.028865,-3.4538703,-0.30117548,0.22855252,-0.34936357,25.6875,26.5625,25.5625,28.0625,28.875,29.25
0.30805463,-1.0735812,-0.4580728,-1.4189596,-0.04109674,0.08179258,-0.0914179,-0.41165835,-0.36443144,0.06010896,3.0756629,-0.628569,-0.0002501833,-0.14800774,0.028895592,-0.0006504047,-0.017182907,0.0029279902,-0.036259383,0.4766306,-1.3529199,1.868421,-2.0864327,-1.5690249,2.454298,-0.18448874,0.19484648,-0.2422209,0.03709541,0.013717692,-0.1481145,-0.36391866,0.2873042,-9.3661175,0.8493211,47.694054,-1.0756447,-2.1087275,-3.548747,-0.29929048,0.23919158,-0.44946507,25.6875,26.5625,25.5625,28.0625,28.875,29.25
0.3100536,-0.99464715,-0.26077524,-1.3314949,-0.030806564,0.092072025,-0.09834092,-0.41193774,-0.36434898,0.060069308,3.075694,-0.6286885,-0.00017300494,-0.14942572,0.027658843,-0.0010112036,-0.018278876,0.0043432936,-0.034349278,0.47625896,-1.3524867,1.867966,-2.0863378,-1.5690368,2.4539971,-0.183707,0.19846755,-0.2453458,0.034843303,0.014025438,-0.14924227,-0.49799395,0.17238252,-9.346964,0.89631605,47.704796,-1.1709281,-2.1906104,-3.480315,-0.28265026,0.23710275,-0.48348838,25.6875,26.5625,25.5625,28.0625,28.875,29.25
0.31205317,-1.441105,-0.23879854,-1.1987346,-0.021735491,0.09627114,-0.093758054,-0.4122673,-0.36431485,0.060102362,3.0755644,-0.6287891,-0.0002584131,-0.1499175,0.025568672,-0.00021799223,-0.020312173,0.0074880887,-0.02295973,0.47588795,-1.3521028,1.8674139,-2.0862787,-1.5689882,2.4537058,-0.18073061,0.19928665,-0.24770899,0.032686688,0.014416364,-0.15765303,-0.51714754,0.21068975,-9.193734,0.8605109,47.716442,-1.3082097,-2.1947696,-3.3521967,-0.21748646,0.23708348,-0.47178334,25.6875,26.5625,25.5625,28.0625,28.875,29.25
0.3140538,-1.5763739,-0.34216416,-1.1835572,-0.011805806,0.10403158,-0.09665332,-0.4125335,-0.36426282,0.060082145,3.0755062,-0.62882966,-0.00017260967,-0.15037562,0.024608186,0.00063108664,-0.021742973,0.0089513445,-0.011885384,0.47552797,-1.3517194,1.8669828,-2.0862186,-1.5689162,2.4533787,-0.17976582,0.19929078,-0.24972746,0.03277821,0.015034463,-0.1677622,-0.57460845,0.095768064,-9.251195,0.8717007,47.71465,-1.4622253,-2.0629625,-3.3649673,-0.2160429,0.24088493,-0.37245527,25.6875,26.5625,25.5625,28.0625,28.875,29.25
0.31605417,-1.451905,0.035114985,-1.3105799,-0.0164798,0.11080626,-0.1078044,-0.4128403,-0.36419487,0.06006252,3.0755134,-0.6288243,-0.00013042438,-0.15194151,0.025464285,0.0001296036,-0.021579945,0.007808482,-0.0036252807,0.47514316,-1.351275,1.8664683,-2.0861232,-1.5689043,2.4529898,-0.18262684,0.20190437,-0.25201213,0.033567373,0.0154295415,-0.17888273,-0.3256114,0.076614454,-9.308656,0.8985519,47.691364,-1.4051377,-2.1252847,-3.41404,-0.20698112,0.22474557,-0.23732448,25.6875,26.5625,25.5625,28.0625,28.875,29.25
0.3180543,-1.4768418,-0.33213222,-1.1691215,-0.008782322,0.09624419,-0.09820879,-0.41317672,-0.36413625,0.060077295,3.0754662,-0.6288124,-0.00028552502,-0.1527147,0.026661282,-0.0006401981,-0.01995621,0.006958798,-0.0004380018,0.47477084,-1.3508787,1.8659528,-2.0861108,-1.5689286,2.4526165,-0.18450053,0.20351735,-0.252345,0.03379995,0.014407607,-0.18394217,-0.26815057,-0.076614454,-9.308657,0.900793,47.698532,-1.4212542,-2.1831274,-3.4317436,-0.19321065,0.23089427,-0.17432512,25.6875,26.5625,25.5625,28.0625,28.875,29.25
0.32005337,-1.2237195,-0.17070615,-1.113808,-0.020611271,0.074315555,-0.09985225,-0.41349342,-0.3640817,0.06009869,3.075383,-0.62885445,-0.00033772597,-0.15459031,0.027333623,-0.00042818024,-0.020182999,0.008411782,-0.003383233,0.4743861,-1.3505068,1.8654383,-2.0860393,-1.5688928,2.4522688,-0.18679684,0.204774,-0.25424471,0.03305967,0.013957466,-0.1832917,-0.38307226,0.0,-9.212888,0.90527004,47.68599,-1.3043565,-1.9839442,-3.4499555,-0.17010126,0.24353568,-0.1561872,25.6875,26.5625,25.5625,28.0625,28.875,29.25
0.32205427,-0.8898942,0.1170663,-1.2776209,-0.019228498,0.057350315,-0.09312841,-0.41380933,-0.36401853,0.060069367,3.0753222,-0.6289426,-0.00023843446,-0.15664038,0.026843153,0.0011226232,-0.021670762,0.012384346,-0.010044952,0.47396594,-1.3500392,1.8649229,-2.0859678,-1.5688208,2.4519117,-0.1872661,0.20478418,-0.25768125,0.032281447,0.013450419,-0.17709874,-0.34476507,0.1340753,-9.155427,0.85826975,47.71286,-1.3464892,-2.0849483,-3.4698873,-0.1354078,0.24889645,-0.19104356,25.6875,26.5625,25.5625,28.0625,28.875,29.25
0.32405394,0.18041906,-0.008319337,-1.5794586,-0.017329382,0.06294873,-0.10327051,-0.41410658,-0.36398095,0.060084112,3.0752761,-0.628937,-0.00029834124,-0.15657626,0.027721839,-9.984358e-05,-0.020318815,0.009420813,-0.017680347,0.4736412,-1.3496549,1.8644079,-2.0858953,-1.5688089,2.4515896,-0.18861948,0.20680009,-0.25770926,0.03354133,0.0136076175,-0.1708158,-0.22984336,0.15322891,-9.3661175,0.93436235,47.687782,-1.2744794,-2.021053,-3.4516392,-0.10553646,0.25869778,-0.27542138,25.6875,26.5625,25.5625,28.0625,28.875,29.25
0.32605362,-0.6693583,-0.7956992,-1.5378308,-0.008323764,0.026506135,-0.08767042,-0.41443416,-0.3639257,0.060099747,3.07521,-0.6290002,-0.00039891113,-0.15744995,0.029046778,-0.0009831133,-0.019132059,0.0072459327,-0.022372266,0.47326854,-1.3492584,1.8638815,-2.0858471,-1.5688089,2.451265,-0.19137691,0.20892046,-0.25864363,0.034833755,0.013560428,-0.16887982,-0.17238252,0.17238252,-9.3661175,0.8784135,47.686886,-1.2046256,-2.1188385,-3.6171162,-0.103441015,0.27688846,-0.3439132,25.6875,26.5625,25.5625,28.0625,28.875,29.25
0.32805455,-0.560262,-0.98842514,-1.5153092,-0.021757148,0.03191715,-0.09373528,-0.41473615,-0.3638441,0.060072098,3.0751944,-0.6290959,-0.0003312365,-0.15879168,0.030143451,-0.0008374958,-0.018439967,0.006939034,-0.027239827,0.47285992,-1.3488264,1.8634018,-2.0857627,-1.5687851,2.4509184,-0.19389494,0.20989963,-0.26060113,0.036407407,0.013079027,-0.16653042,-0.22984336,0.11492168,-9.3661175,0.8985519,47.677036,-1.2333244,-2.2272642,-3.6974945,-0.09647356,0.27644223,-0.39487988,25.6875,26.5625,25.5625,28.0625,28.875,29.25
0.3300535,-0.4733629,-0.8687614,-1.5669636,-0.029126924,0.038195107,-0.09978619,-0.41506696,-0.3637657,0.060062397,3.075152,-0.62926,-0.00031687377,-0.16068614,0.030487139,-0.0019069075,-0.017628493,0.0046162643,-0.028364502,0.47243923,-1.3483812,1.8628625,-2.0856664,-1.5687727,2.4506059,-0.19611712,0.21528871,-0.26516256,0.0380261,0.01341496,-0.16762571,-0.15322891,0.17238252,-9.308657,0.90527004,47.681515,-1.1230264,-2.2094707,-3.523326,-0.09112114,0.28315562,-0.40669116,25.6875,26.5625,25.5625,28.0625,28.875,29.25
0.3320536,-0.4163137,-0.23596564,-1.5873135,-0.03585804,0.041221976,-0.10934215,-0.41536465,-0.36373347,0.060075074,3.0751016,-0.6291695,-0.0003285868,-0.16233897,0.03087059,-0.0013126412,-0.018397367,0.004918186,-0.024373049,0.47210255,-1.347985,1.8623346,-2.085582,-1.568725,2.4502194,-0.19835205,0.21640839,-0.26825273,0.03940142,0.0139826685,-0.1738503,-0.05746084,0.15322891,-9.442732,0.9567419,47.73614,-1.0883673,-2.178624,-3.416148,-0.086840264,0.28318676,-0.37164503,25.6875,26.5625,25.5625,28.0625,28.875,29.25
0.33405343,-0.61355793,-1.0557135,-1.557375,-0.03602209,0.051043935,-0.111564055,-0.41570508,-0.3636759,0.060068846,3.0750272,-0.6292443,-0.0003488114,-0.16229793,0.031565078,-0.002031253,-0.018341124,0.002079044,-0.015690196,0.47169417,-1.3475288,1.8617848,-2.0855339,-1.5686883,2.4498675,-0.20006184,0.21757074,-0.26850304,0.041073345,0.015259329,-0.18424177,-0.15322891,0.19153613,-9.3661175,0.90750587,47.704796,-1.0315216,-2.3424199,-3.4862485,-0.08476162,0.28187677,-0.28279978,25.6875,26.5625,25.5625,28.0625,28.875,29.25
0.3360539,-0.8654916,-1.103006,-1.5368747,-0.046326537,0.05680705,-0.1005285,-0.4160084,-0.36357883,0.060044654,3.0750468,-0.6293001,-0.00028949493,-0.1635794,0.030992752,-0.0010451926,-0.019298766,0.0036522583,-0.006062319,0.47127447,-1.3471092,1.8613061,-2.0854256,-1.5686883,2.4494803,-0.20012674,0.21838942,-0.27201247,0.04195385,0.015406238,-0.19393419,-0.3256114,0.17238252,-9.423578,0.8806493,47.705692,-1.064622,-2.3423297,-3.4524956,-0.09165942,0.28912657,-0.1570401,25.6875,26.5625,25.5625,28.0625,28.875,29.25
0.33805406,-1.088951,-1.5512499,-1.5817218,-0.039338477,0.07174217,-0.10025853,-0.41634384,-0.36352804,0.060047507,3.0750275,-0.6292568,-0.00028304436,-0.1654923,0.030072337,0.00060212123,-0.020977454,0.006311192,-0.004557243,0.47089013,-1.3466413,1.8607048,-2.0853055,-1.5686644,2.4490716,-0.20022419,0.21918404,-0.27705327,0.043081976,0.015697679,-0.19553487,-0.45968673,0.3256114,-9.385271,0.83589023,47.698532,-0.9913331,-2.2189906,-3.3368883,-0.090778425,0.28283733,-0.08832542,25.6875,26.5625,25.5625,28.0625,28.875,29.25
0.34005398,-1.5447036,-1.4671539,-1.3941234,-0.04355854,0.08980549,-0.09660039,-0.4166746,-0.36347264,0.060043648,3.0749278,-0.6292968,-0.00021485671,-0.16456994,0.030177778,-0.0013539408,-0.019236337,0.00282126,-0.008287121,0.47045836,-1.3461965,1.860155,-2.0852215,-1.5685676,2.4486778,-0.1994519,0.22220568,-0.27644587,0.043368854,0.015731553,-0.19103234,-0.59376204,0.36391866,-9.308657,0.8784135,47.705692,-1.2040235,-2.277036,-3.3097918,-0.09156585,0.28481528,-0.120037384,25.6875,26.5625,25.5625,28.0625,28.875,29.25
0.34205407,-1.5054792,-1.176148,-1.4582111,-0.039504066,0.10376042,-0.10193219,-0.41697177,-0.36341056,0.06001423,3.0749593,-0.62926775,-0.00019775753,-0.16418825,0.029986853,-0.0011077904,-0.018959505,0.0026657348,-0.0155995535,0.4701107,-1.3457412,1.8596524,-2.0851495,-1.5685805,2.4483082,-0.19853894,0.22182116,-0.27687111,0.04442856,0.015540192,-0.18280756,-0.57460845,0.34476504,-9.3661175,0.99031126,47.694946,-1.3057082,-2.1444304,-3.507318,-0.07181457,0.28814256,-0.17618519,25.6875,26.5625,25.5625,28.0625,28.875,29.3125
0.3440537,-1.9960155,-1.2042067,-1.3740387,-0.0487405,0.112021305,-0.09760027,-0.41730863,-0.36335462,0.06003847,3.0748549,-0.62940377,-0.00022246676,-0.16406113,0.030231697,-0.0009068266,-0.019663844,0.002205852,-0.024084335,0.46970272,-1.3453337,1.8590783,-2.0850413,-1.5685319,2.4479988,-0.19916075,0.2210359,-0.27658316,0.045011878,0.016378034,-0.17494372,-0.59376204,0.30645782,-9.404425,0.88960326,47.689575,-1.4167981,-2.2217836,-3.6517353,-0.07367854,0.28957888,-0.28690857,25.75,26.5625,25.5625,28.0625,28.875,29.3125
0.34605387,-1.5596058,-1.2475855,-1.4134085,-0.041993227,0.102354966,-0.10476334,-0.41765723,-0.36330423,0.060046624,3.0747871,-0.62943095,-0.00022007976,-0.16485783,0.030261813,-0.00076909154,-0.0201257,0.0030224528,-0.030346734,0.46929464,-1.344866,1.8584675,-2.084934,-1.5684837,2.4476166,-0.19972111,0.22172171,-0.2777079,0.04451574,0.01641621,-0.16924082,-0.5554548,0.24899697,-9.3661175,0.86945957,47.71465,-1.4572833,-2.0905766,-3.6664648,-0.046559706,0.2719746,-0.3671176,25.75,26.5625,25.5625,28.0625,28.875,29.3125
0.34805426,-1.1469636,-0.8724085,-1.4332142,-0.045470566,0.078658365,-0.104766786,-0.41800883,-0.36324182,0.060034122,3.0747216,-0.6295539,-0.0002671656,-0.16719739,0.02970304,0.0005240481,-0.021606881,0.006272372,-0.035475623,0.46888635,-1.344386,1.8579043,-2.0848982,-1.5684718,2.4472938,-0.20049262,0.22295865,-0.28215256,0.04415443,0.01626212,-0.16488133,-0.36391866,0.1340753,-9.32781,0.95226496,47.65643,-1.3753142,-2.1085937,-3.6557364,-0.0404013,0.2892347,-0.46173579,25.75,26.5625,25.5625,28.0625,28.875,29.3125
0.35005388,-0.26538438,-0.23492204,-1.2317295,-0.046168536,0.067687385,-0.10524074,-0.4183585,-0.36318928,0.06003838,3.0746336,-0.6296699,-0.00033168806,-0.16829354,0.030815676,0.000110966444,-0.01997404,0.0060607875,-0.03509147,0.46848956,-1.3439301,1.8573297,-2.08485,-1.5684484,2.446981,-0.20226693,0.2245573,-0.2833869,0.044736736,0.014921647,-0.16703917,-0.2681506,0.22984336,-9.308657,1.005978,47.664497,-1.3800864,-2.148014,-3.5480525,-0.015865654,0.30122876,-0.49586648,25.75,26.5625,25.5625,28.0625,28.875,29.3125
0.35205355,-0.07825965,-0.102478474,-1.3571235,-0.016014704,0.047563333,-0.11100578,-0.41871113,-0.3631008,0.06003021,3.074612,-0.6297742,-0.00033204566,-0.16942884,0.031223688,-0.0007287864,-0.01974767,0.0044348743,-0.02686317,0.46804518,-1.3434614,1.8567537,-2.0847423,-1.5684484,2.4466047,-0.20404382,0.2278056,-0.2856732,0.04535608,0.015477041,-0.17704305,-0.17238252,0.19153613,-9.193734,0.90750587,47.698532,-1.334611,-2.1860347,-3.507258,-0.0058981637,0.29611778,-0.4364416,25.75,26.5625,25.5625,28.0625,28.875,29.3125
0.35405326,0.50107056,0.62829655,-1.6576811,-0.00039248922,0.048740048,-0.116913706,-0.41902575,-0.3630568,0.060013853,3.074583,-0.62974226,-0.00030712681,-0.1703007,0.03127295,-0.0010462989,-0.019605687,0.0031014902,-0.01511989,0.46768475,-1.3429928,1.8562044,-2.0846698,-1.5684117,2.4462283,-0.20499326,0.23031873,-0.28846666,0.046931162,0.015982017,-0.18973437,0.019153614,0.11492168,-9.3661175,0.9231726,47.694946,-1.2671576,-2.4001172,-3.6181815,-0.0147838965,0.31887752,-0.3270462,25.75,26.5625,25.5625,28.0625,28.875,29.3125
0.356054,-0.39794084,-0.3204188,-1.830031,0.005195685,0.027866164,-0.096205704,-0.41940305,-0.36298773,0.06003186,3.0744922,-0.6297952,-0.00031009666,-0.17167409,0.031382523,-0.00035297952,-0.020082118,0.0029543142,-0.0063554593,0.46721634,-1.3425246,1.8555669,-2.0845497,-1.5683516,2.4458048,-0.20643514,0.23163457,-0.29229146,0.04939896,0.016507976,-0.19993848,-0.076614454,0.13407528,-9.3661175,0.9634547,47.681515,-1.2342666,-2.3514335,-3.4059467,-0.027819693,0.3110345,-0.2142905,25.75,26.5625,25.5625,28.0625,28.875,29.3125
0.358054,-0.89410543,-0.79234564,-1.5812165,-0.025624253,0.03321338,-0.09201918,-0.4197182,-0.3629155,0.05999292,3.074534,-0.6297844,-0.0002330432,-0.17294651,0.032744236,4.0859086e-05,-0.019558296,0.0014045526,-0.007517613,0.4668315,-1.3420211,1.8550171,-2.08444,-1.5683516,2.445408,-0.20972274,0.23231673,-0.29493704,0.052992973,0.016736578,-0.20206419,-0.24899697,0.15322891,-9.270349,0.83813137,47.691364,-1.0128753,-2.3189592,-3.2570286,-0.04914674,0.31751406,-0.14637257,25.75,26.5625,25.5625,28.0625,28.875,29.3125
0.36005393,-1.0705274,-0.87695956,-1.8289002,-0.026808951,0.036469422,-0.09233167,-0.4200694,-0.36283752,0.060001,3.0744803,-0.6298373,-0.00022594843,-0.17422852,0.034894776,-0.0005345658,-0.017720826,-0.0014563067,-0.017695356,0.46638578,-1.3415769,1.8544306,-2.0843194,-1.5683159,2.4450026,-0.21394669,0.23417701,-0.2967515,0.056330245,0.016381714,-0.19610968,-0.17238252,0.095768064,-9.270349,0.8940802,47.681515,-1.0178202,-2.3167348,-3.2949843,-0.09724574,0.3179335,-0.17567368,25.75,26.5625,25.5625,28.0625,28.875,29.3125
0.36205348,-0.7667591,-1.091802,-1.8098667,-0.022793004,0.048631035,-0.10034765,-0.42040703,-0.3627778,0.059995055,3.0744576,-0.6298561,-0.00020166521,-0.17464533,0.03594443,-0.0013441134,-0.016480463,-0.0043828916,-0.026129639,0.46598917,-1.3410965,1.8538316,-2.0841992,-1.568292,2.4446208,-0.21596377,0.23622958,-0.2980763,0.05876899,0.016579943,-0.1896919,-0.15322891,0.05746084,-9.385271,0.88289046,47.716442,-0.8567054,-2.358365,-3.401726,-0.12670468,0.30498406,-0.24824773,25.75,26.5625,25.5625,28.0625,28.875,29.3125
0.3640533,-0.47355515,-0.83902085,-1.838529,-0.030907935,0.04553849,-0.10529494,-0.4207739,-0.36271298,0.05999563,3.0743957,-0.62994087,-0.00016585762,-0.17288056,0.03714213,-0.003264857,-0.012911721,-0.010261897,-0.03080254,0.46554542,-1.3405921,1.8531855,-2.0840657,-1.5682439,2.4442382,-0.21593255,0.23802264,-0.29691213,0.06267396,0.01603486,-0.18498844,-0.095768064,0.15322891,-9.519346,0.8784135,47.661808,-0.9682908,-2.5141742,-3.506423,-0.16095895,0.32024705,-0.33548167,25.75,26.5625,25.5625,28.0625,28.875,29.3125
0.36605382,-0.43654352,-0.68669635,-1.3085666,-0.04189584,0.05322312,-0.09782323,-0.42111933,-0.3626592,0.05999823,3.0743375,-0.62992764,-0.00016196065,-0.17201708,0.036412437,-0.003715926,-0.012681915,-0.012005624,-0.03146007,0.46513826,-1.3401246,1.852588,-2.0839698,-1.5681957,2.4438305,-0.21415555,0.23914824,-0.2976559,0.06396092,0.016612567,-0.18255283,-0.30645782,0.24899697,-9.3661175,0.93436235,47.695843,-1.1342738,-2.4319742,-3.617362,-0.2147592,0.3092438,-0.39034376,25.75,26.5625,25.5625,28.0625,28.875,29.3125
0.3680538,-1.2697551,-0.84800106,-1.3909546,-0.03167651,0.048423987,-0.09330751,-0.42145342,-0.36256716,0.059966497,3.07435,-0.63008213,-7.4115844e-05,-0.17342354,0.035638534,-0.0025959848,-0.014767225,-0.009254149,-0.029772198,0.46470633,-1.3396208,1.852013,-2.0838268,-1.5681952,2.4434936,-0.21422751,0.23934515,-0.3003332,0.063056834,0.017223973,-0.1843128,-0.34476507,0.076614454,-9.289503,0.9321212,47.64837,-1.1179594,-2.299203,-3.6171694,-0.20919289,0.33931935,-0.40348154,25.75,26.5625,25.5625,28.0625,28.875,29.3125
0.37005386,-0.71087945,0.17414378,-1.669692,-0.012602079,0.04649242,-0.10188652,-0.4218194,-0.3625122,0.05998709,3.0742602,-0.6300595,-0.00010565572,-0.17463776,0.03536265,-0.0010075696,-0.01665752,-0.0072731385,-0.023012593,0.46427378,-1.3391656,1.8513893,-2.0837305,-1.5681351,2.4430587,-0.2150723,0.23837435,-0.3030977,0.064210296,0.018052788,-0.191915,-0.05746084,-0.095768064,-9.346964,0.9791215,47.690468,-1.2335635,-2.1960623,-3.5858505,-0.23909043,0.3233425,-0.36001706,25.75,26.5625,25.5625,28.0625,28.875,29.3125
0.37205362,-0.59932745,0.32122326,-1.5341061,0.00106701,0.04552753,-0.1039788,-0.42216265,-0.3624432,0.059980825,3.0742295,-0.6301623,-9.2473274e-05,-0.17478457,0.03487988,-0.0005566713,-0.016944665,-0.008802556,-0.012769832,0.4638659,-1.3386856,1.8507904,-2.0836098,-1.5681227,2.4427192,-0.21478164,0.23945683,-0.30631316,0.06761559,0.019016448,-0.20186563,0.038307227,-0.076614454,-9.32781,0.9321212,47.716442,-1.2392073,-2.2104006,-3.488337,-0.2910984,0.30756843,-0.24774203,25.75,26.5625,25.5625,28.0625,28.875,29.3125
0.37405398,-0.15446256,1.0001197,-1.4045795,0.0022763414,0.051151674,-0.110049985,-0.42250523,-0.3623488,0.05995078,3.0742657,-0.63014525,3.0831223e-05,-0.17761147,0.033466194,0.0010231425,-0.019538587,-0.0022496628,-0.005053396,0.46341038,-1.3381698,1.850191,-2.0834434,-1.5680994,2.4422486,-0.21421795,0.2405481,-0.3104337,0.06365875,0.018387266,-0.20901911,-0.19153614,0.038307227,-9.232041,0.87617236,47.694054,-1.3638246,-2.2209373,-3.4493818,-0.29044268,0.30835572,-0.14155081,25.75,26.5625,25.5625,28.0625,28.875,29.3125
