Tylouw/Master_Thesis_Code/training_data/batch_1/rect_rod_t0.1/sample_43_session_1.csv
timestamp[s],tcp_force_x[N],tcp_force_y[N],tcp_force_z[N],tcp_force_rx[Nm?],tcp_force_ry[Nm?],tcp_force_rz[Nm?],tcp_pose_x[m],tcp_pose_y[m],tcp_pose_z[m],tcp_pose_rx[rot_vec_x],tcp_pose_ry[rot_vec_y],tcp_pose_rz[rot_vec_z],tcp_velo_x[m/s],tcp_velo_y[m/s],tcp_velo_z[m/s],tcp_velo_rx[rot_vec_x/s],tcp_velo_ry[rot_vec_y/s],tcp_velo_rz[rot_vec_z/s],q1[rad],q2[rad],q3[rad],q4[rad],q5[rad],q6[rad],qd1[rad/s],qd2[rad/s],qd3[rad/s],qd4[rad/s],qd5[rad/s],qd6[rad/s],tool_acc_x,tool_acc_y,tool_acc_z,current_of_whole_robot[A],voltage_of_whole_robot[V],current_J1[A],current_J2[A],current_J3[A],current_J4[A],current_J5[A],current_J6[A],temp_J1[C],temp_J2[C],temp_J3[C],temp_J4[C],temp_J5[C],temp_J6[C]
8.0100017e-07,-0.91337574,-0.7404929,-0.10797913,-0.008111276,-0.007046944,0.009839739,-0.3893382,-0.36869925,0.06001051,-3.0786772,0.6249228,0.00023094384,-8.256668e-05,-2.6407557e-05,5.151867e-05,-0.00014164636,0.0002471521,0.00010585475,0.50502086,-1.3816679,1.9042224,-2.0919034,-1.5708898,2.4800134,-3.517177e-05,-5.4820048e-05,-3.620685e-07,-0.000229691,3.8524463e-06,-0.00014101622,0.15322891,0.22984336,-8.580819,0.7642693,47.674347,-0.26025307,-3.0331135,-2.2642722,-0.22675529,0.05322689,-0.016789647,25.0625,25.75,24.8125,26.875,27.25,27.5625
0.002052671,-1.4510279,-1.1414058,-0.17170228,-0.0017042158,-0.01278453,0.021666542,-0.38933447,-0.36872926,0.060027245,-3.0787342,0.6249534,0.00022854803,-0.0014747968,-0.00079959526,-0.0004152798,-0.0034813443,0.0062607406,0.00010263524,0.5050448,-1.3816799,1.9041995,-2.0919077,-1.5708417,2.4800491,-3.3848974e-05,-7.354809e-07,0.0033243904,-0.010487238,2.5153722e-07,-0.00013673099,0.13407528,0.19153613,-8.561666,0.68146914,47.689575,-0.20236659,-2.929686,-2.321637,-0.1528608,0.063556276,-0.00857379,25.0625,25.75,24.8125,26.875,27.25,27.5625
0.00405184,-0.91567427,-1.0002663,0.027493643,-0.009897295,0.0027676201,0.004231763,-0.38935626,-0.36872104,0.060018152,-3.0787375,0.624954,0.00032073766,-0.0015868124,-0.00086393434,-0.0022827026,-0.0023979289,0.0042937864,0.00010061509,0.5050329,-1.3816664,1.9042233,-2.0919917,-1.5708774,2.4800372,-3.262199e-05,0.0038925605,0.0033549347,-0.012165493,1.6423582e-08,-0.00013269852,0.05746084,0.22984336,-8.580819,0.78888994,47.711063,-0.22460687,-3.419507,-2.5578156,-0.054020736,0.071023375,-0.013362427,25.0625,25.75,24.8125,26.875,27.25,27.5625
0.006052232,-0.49663374,-0.5003606,-0.07489631,-0.0019260101,-0.0023947177,0.009410376,-0.38934347,-0.36870506,0.06002674,-3.0787106,0.6249103,0.00031437556,-0.0005678433,-0.00029769127,-0.001637729,-0.0007925852,0.0014131736,9.756691e-05,0.5050329,-1.381703,1.9042357,-2.0919416,-1.5709013,2.4800134,-3.148093e-05,0.0024755609,0.002238623,-0.0063344548,1.0723427e-09,-0.0001288972,-0.076614454,0.2681506,-8.542512,0.7642693,47.70838,-0.19430465,-3.2929587,-2.5880952,-0.097492166,0.06110982,0.0005394637,25.0625,25.75,24.8125,26.875,27.25,27.5625
0.008052539,-0.63225543,0.23003271,-0.34302014,0.028138055,-0.02730698,0.006134235,-0.3893475,-0.36870185,0.060003627,-3.07869,0.62498295,0.0002461273,-0.00018713354,-8.595708e-05,-0.00011209666,-0.0003860705,0.0006938508,0.00010718224,0.5050088,-1.3816559,1.9042348,-2.0919511,-1.5708774,2.4800372,-3.041694e-05,0.00011618348,0.0004193743,-0.0013296098,7.001631e-11,-0.00013761113,-0.095768064,0.22984336,-8.676587,0.6971306,47.690468,-0.20544678,-3.1363585,-2.4119318,-0.12547779,0.072891876,0.001302917,25.0625,25.75,24.8125,26.875,27.25,27.5625
0.010052013,0.27831137,0.6442398,-0.8430854,0.027957195,-0.00965138,0.0044463915,-0.38932344,-0.36871606,0.0599912,-3.078702,0.6249469,0.00016783598,-2.423335e-06,2.7632068e-05,-3.0857074e-05,1.3568788e-06,-2.4718665e-06,9.6687465e-05,0.5050329,-1.3816439,1.9042462,-2.0919397,-1.5708417,2.4800372,-4.874819e-05,1.5587495e-06,8.8053675e-05,-8.681402e-05,4.5715645e-12,-0.00014546225,0.05746084,0.21068975,-8.868123,0.65013564,47.650166,-0.689918,-2.618194,-2.9704995,-0.1386073,0.052650608,-0.072140664,25.0625,25.75,24.8125,26.875,27.25,27.5625
0.012052207,-0.22773287,-0.033369016,-0.85362375,-0.0010731755,0.006805778,-0.003536801,-0.38932145,-0.36869618,0.05997453,-3.0786574,0.6249181,0.0001057545,0.000868297,0.000686433,-0.0014337456,0.0024382705,-0.004397082,5.1133808e-05,0.5050087,-1.3816189,1.9042462,-2.0919025,-1.5708536,2.4800007,-0.00034420923,0.0022222204,1.1813524e-06,0.0028044106,2.984905e-13,-0.0003952881,0.1340753,0.13407528,-8.944737,0.7217513,47.699425,-0.88624847,-2.5474172,-3.1578321,-0.13417445,0.0480204,-0.106934935,25.0625,25.75,24.8125,26.875,27.25,27.5625
0.01405248,-1.252334,-0.95876396,-1.0976684,-0.025437802,0.0146813,3.813522e-05,-0.3893174,-0.3686944,0.05997192,-3.078647,0.6248778,0.000100787016,-0.0044781435,0.0040612076,-0.0053710137,0.005601309,-0.010144835,-0.002006577,0.505017,-1.3816146,1.9042443,-2.0918906,-1.5708655,2.4799852,-0.0110327285,0.014369171,-0.005331331,0.0025490688,1.9489296e-14,-0.009021953,0.038307227,0.11492168,-9.212888,0.7866488,47.711063,-0.45029464,-3.1370077,-3.079061,-0.13947517,0.058473773,-0.057379864,25.0625,25.75,24.8125,26.875,27.25,27.5625
0.016051758,-1.8818218,-1.8639156,-1.3564966,-0.033651173,0.030852728,0.0060193194,-0.38931987,-0.36869034,0.05995391,-3.0786436,0.6248741,3.5549267e-05,-0.0064346795,0.0032209551,-0.003268387,0.003182456,-0.0057897186,0.0043286034,0.5049929,-1.3815789,1.9042434,-2.091891,-1.5708417,2.4799592,-0.011448877,0.013337154,-0.008783629,0.0020508522,1.2725119e-15,-0.01577198,-0.076614454,0.15322891,-9.346964,0.7553206,47.690468,-0.40006816,-3.068672,-3.0844173,-0.11391586,0.04901515,-0.011044277,25.0625,25.75,24.8125,26.875,27.25,27.5625
0.018052375,-1.9840616,-1.487867,-1.3391402,-0.048320495,0.06225737,-0.011765554,-0.38931426,-0.36868474,0.05991925,-3.0786028,0.6248456,-7.739835e-05,-0.0059186243,0.0029641786,-0.0032256285,0.0032111707,-0.0058430624,0.0075616473,0.5049812,-1.381507,1.9042319,-2.0918672,-1.5708297,2.479935,-0.010533811,0.012877941,-0.008360725,0.002147614,8.308593e-17,-0.018090215,-0.22984336,0.24899697,-9.404425,0.7172743,47.67345,-0.70354223,-2.8303328,-3.2629218,-0.10194692,0.049965385,0.0125462245,25.0625,25.75,24.8125,26.875,27.25,27.5625
0.02005252,-2.2095726,-1.1925207,-1.672691,-0.029866584,0.07256185,-0.023292467,-0.3893391,-0.36868426,0.0599267,-3.0785909,0.62493974,-6.43724e-05,-0.006163654,0.0030696066,-0.0025742368,0.0035193863,-0.0063954606,0.00581969,0.5049572,-1.3814832,1.9041837,-2.0918539,-1.5708297,2.4799712,-0.010940023,0.012667808,-0.010204169,0.004833938,5.4249172e-18,-0.016754033,-0.45968673,0.2681506,-9.481039,0.7329411,47.705692,-0.8268875,-2.6539025,-3.4244113,-0.10808018,0.03777182,-0.010873931,25.0625,25.75,24.8125,26.875,27.25,27.5625
0.02205264,-2.187689,-0.7136457,-1.746114,-0.015760029,0.07538625,-0.04055652,-0.38933286,-0.36867332,0.059899095,-3.0785666,0.62482244,-0.00015125217,-0.0072486578,0.0037578195,-0.003467929,0.004880329,-0.008861237,0.001027612,0.50494456,-1.381434,1.9041828,-2.0918295,-1.5708297,2.4798884,-0.013115697,0.016101744,-0.012639879,0.006652483,3.5420833e-19,-0.014136279,-0.51714754,0.28730422,-9.615114,0.75084364,47.73256,-0.9419002,-2.712718,-3.4070563,-0.15158641,0.06309045,-0.06606751,25.0625,25.75,24.8125,26.875,27.25,27.5625
0.02405176,-2.2074213,-0.74314773,-1.8119435,-0.014182264,0.067585245,-0.054893635,-0.3893181,-0.3686622,0.059886098,-3.078545,0.6248193,-0.00022110516,-0.008584994,0.004031911,-0.003748886,0.0049037165,-0.0090066735,-0.0011253776,0.5049319,-1.3814332,1.9042062,-2.0918057,-1.5708174,2.4798765,-0.014856911,0.018264066,-0.01452303,0.006511967,4.476868e-05,-0.0137234535,-0.61291564,0.2681506,-9.749189,0.7463667,47.705692,-0.91164136,-2.6873443,-3.3234472,-0.13198867,0.04991888,-0.097745635,25.0625,25.75,24.8125,26.875,27.25,27.5625
0.026052535,-2.298643,-1.2055414,-1.8115822,-0.024499824,0.069991924,-0.07225607,-0.38935626,-0.3686661,0.05988964,-3.0785396,0.62489516,-0.00023225613,-0.010155032,0.00437697,-0.0035102551,0.004288483,-0.007922248,-0.0021774175,0.5048953,-1.3813727,1.9041213,-2.0917823,-1.5708054,2.479888,-0.016910722,0.019258529,-0.01608926,0.0058370414,5.30438e-05,-0.01472437,-0.7469909,0.22984336,-9.672575,0.7329411,47.72002,-0.9214892,-2.772076,-3.3681736,-0.13895649,0.05536045,-0.11659728,25.0625,25.75,24.8125,26.875,27.25,27.5625
0.028051905,-3.1303089,-1.5021917,-2.0723915,-0.031372406,0.06511173,-0.07834456,-0.389399,-0.36865062,0.059893,-3.0785224,0.62487197,-0.00015552541,-0.010636774,0.004209417,-0.0036422554,0.0043545337,-0.008047421,-0.0010965565,0.5048593,-1.3813362,1.9040731,-2.0917938,-1.5708536,2.4798398,-0.017078953,0.020540172,-0.017325694,0.005932431,5.2994015e-05,-0.015972761,-0.7278373,0.17238252,-9.768343,0.7463667,47.682407,-0.87943274,-2.7615223,-3.422586,-0.111544065,0.05006867,-0.120308265,25.0625,25.75,24.8125,26.875,27.25,27.5625
0.03005208,-2.3503382,-1.3232989,-1.9329149,-0.03286576,0.10327124,-0.09906308,-0.3894014,-0.3686322,0.059866358,-3.0784717,0.62489915,-0.00029489317,-0.011128179,0.0044249073,-0.0033910193,0.004219086,-0.007806439,-0.0017140682,0.50481117,-1.3812762,1.9040493,-2.0917337,-1.5708297,2.479815,-0.017900594,0.020534663,-0.017977953,0.0063141254,5.2414216e-05,-0.01617667,-0.842759,0.095768064,-9.80665,0.81351066,47.65643,-0.9093008,-2.735481,-3.4340496,-0.10321611,0.054914564,-0.103040285,25.0625,25.75,24.8125,26.875,27.25,27.5625
0.032052197,-2.3834708,-0.6496472,-1.7521427,-0.021153456,0.10665109,-0.11284576,-0.38944837,-0.36864135,0.059866186,-3.0785186,0.6248721,-0.0002506268,-0.012380655,0.0042555514,-0.00263208,0.0036308586,-0.00674685,-0.0039605624,0.50477487,-1.3812158,1.9039892,-2.0917819,-1.5708174,2.4797559,-0.018785132,0.021178596,-0.020653516,0.007134214,5.1813153e-05,-0.014813603,-0.7661445,-0.019153614,-9.825804,0.79560274,47.67345,-0.93486273,-2.7016864,-3.4405332,-0.10919905,0.047346245,-0.13139774,25.0625,25.75,24.8125,26.875,27.25,27.5625
0.03405178,-2.8290246,-0.73009306,-2.013238,0.017355833,0.085297436,-0.104479164,-0.38946834,-0.36864066,0.059864614,-3.0784912,0.6248863,-0.00026525944,-0.013559954,0.0041116057,-0.0023490281,0.0032910674,-0.006158531,-0.00570797,0.5047627,-1.3811673,1.9039272,-2.0917456,-1.5708297,2.479756,-0.019651106,0.022561613,-0.022996577,0.0074148863,6.0133647e-05,-0.013931039,-0.7278373,0.019153614,-9.768343,0.6926589,47.6636,-0.9087564,-2.6999302,-3.4196424,-0.11020989,0.05593718,-0.14787504,25.0625,25.75,24.8125,26.875,27.25,27.5625
0.03605251,-1.9220754,-0.08773214,-1.9744881,0.028283272,0.084585205,-0.11303307,-0.38950437,-0.3686187,0.059860982,-3.078452,0.62493664,-0.0002307716,-0.0149219185,0.00397793,-0.0020711317,0.0025729248,-0.004872749,-0.0068908953,0.50471437,-1.3811308,1.9038924,-2.0917456,-1.5708655,2.4797442,-0.020699268,0.023776267,-0.024883877,0.006614331,6.0689348e-05,-0.01379523,-0.47884032,-0.019153614,-9.730036,0.73741806,47.667187,-1.0073472,-2.6921253,-3.3840427,-0.09643647,0.062234707,-0.16789547,25.0625,25.75,24.8125,26.875,27.25,27.5625
0.038052466,-1.5115032,0.0871306,-1.8696686,0.020950623,0.072662234,-0.1042415,-0.38952637,-0.3686315,0.05984911,-3.0784788,0.6249613,-0.00031947833,-0.015955819,0.004453922,-0.0022994468,0.002410228,-0.004603141,-0.0077561513,0.50467783,-1.3810586,1.9038314,-2.0917342,-1.5708054,2.4797196,-0.022470785,0.024821062,-0.02541247,0.0057841656,6.880637e-05,-0.01470104,-0.51714754,-0.019153614,-9.768343,0.7620334,47.657326,-0.906942,-2.64208,-3.415938,-0.0752798,0.048880056,-0.16735992,25.0625,25.75,24.8125,26.875,27.25,27.5625
0.04005239,-1.8325949,-0.5050253,-1.8118511,0.010496533,0.048251376,-0.08974387,-0.38955748,-0.36860642,0.059840668,-3.0784435,0.62495524,-0.00029803667,-0.017649071,0.0051049385,-0.0018244928,0.002031933,-0.0038567614,-0.009467415,0.50462914,-1.3810222,1.9038075,-2.0917337,-1.5708417,2.4796717,-0.025126953,0.02549884,-0.027403256,0.0062603843,3.506421e-05,-0.015645014,-0.4405331,0.019153614,-9.595961,0.71279734,47.627773,-0.96535575,-2.646306,-3.342268,-0.061279304,0.04730022,-0.18228307,25.0625,25.75,24.8125,26.875,27.25,27.5625
0.04205265,-1.2065654,-0.65219367,-1.7287203,-0.005246489,0.05717389,-0.10126297,-0.38960427,-0.36861098,0.05986166,-3.0784547,0.6250146,-0.00025607998,-0.018567152,0.0046844883,-0.0010386267,0.001473823,-0.0031390572,-0.008528276,0.504593,-1.3809859,1.9037112,-2.091709,-1.5708417,2.4796712,-0.025361924,0.026109511,-0.030208122,0.0075558242,0.00017355106,-0.016818268,-0.36391866,-0.05746084,-9.691729,0.71279734,47.684196,-0.8687871,-2.6680892,-3.2624261,-0.053635567,0.051459618,-0.17680986,25.0625,25.75,24.8125,26.875,27.25,27.5625
0.0440519,-1.3419775,-0.507976,-1.7954384,-0.013052989,0.043593246,-0.100530446,-0.38964808,-0.36858726,0.0598526,-3.078454,0.62507147,-0.0002956207,-0.019205865,0.0049287714,-0.00094848435,0.0018065126,-0.0037447477,-0.008598854,0.50449693,-1.3809375,1.9036745,-2.0917084,-1.5708174,2.4796107,-0.026367487,0.027057642,-0.031848725,0.008939656,0.00017386668,-0.017752584,-0.21068975,0.038307227,-9.653421,0.8291774,47.67793,-0.8889805,-2.6807897,-3.3356452,-0.05771191,0.06931966,-0.17218253,25.0625,25.75,24.8125,26.875,27.25,27.5625
0.04605257,-1.3280706,-0.9518851,-1.7187583,-0.007927658,0.04040524,-0.08766996,-0.38968554,-0.36857322,0.059838075,-3.0783896,0.6251355,-0.00030112048,-0.01965999,0.0050390833,-0.00096457754,0.0017606601,-0.0036365364,-0.009306591,0.5044609,-1.3808534,1.903603,-2.0916855,-1.5708536,2.4796228,-0.026966749,0.027579822,-0.03241475,0.008866042,0.00015956373,-0.01764377,-0.15322891,0.076614454,-9.500193,0.784413,47.666286,-0.9051707,-2.6333826,-3.434503,-0.05709987,0.05127906,-0.19853607,25.0625,25.75,24.8125,26.875,27.25,27.5625
0.0480519,-0.8029537,-0.7680604,-1.6139728,-0.0132122375,0.042210158,-0.093974926,-0.38973373,-0.36855966,0.059837304,-3.0783694,0.6251892,-0.00028950366,-0.020546224,0.0054480713,-0.00089857756,0.0019450607,-0.0039472906,-0.010006824,0.50440043,-1.380793,1.9035305,-2.0916731,-1.5708655,2.4795985,-0.02847227,0.028518224,-0.033876088,0.009749864,0.00014662671,-0.018448386,-0.095768064,0.19153613,-9.5385,0.80679786,47.655537,-0.8799405,-2.6687608,-3.4267874,-0.074847385,0.04606147,-0.2174061,25.0625,25.75,24.8125,26.875,27.25,27.5625
0.05005175,-0.17500101,-0.85637844,-1.6188766,-0.013979353,0.041871626,-0.1007814,-0.38976985,-0.36854535,0.059861317,-3.0783951,0.62523365,-0.00028459923,-0.02245329,0.0057375976,-0.00022058054,0.0010329232,-0.0022843457,-0.01099543,0.5043278,-1.3808045,1.9034814,-2.091637,-1.5708417,2.4795504,-0.03073135,0.029230664,-0.036195297,0.009460269,0.00013557816,-0.019717745,-0.038307227,0.21068975,-9.5385,0.7978386,47.66091,-0.84457964,-2.5862336,-3.354177,-0.06123677,0.04640784,-0.23745263,25.0625,25.75,24.8125,26.875,27.25,27.5625
0.05205192,-1.1643039,-1.4907691,-1.8491294,-0.011572214,0.004864676,-0.08920389,-0.38981178,-0.36851966,0.059839547,-3.0783272,0.6252374,-0.0003195481,-0.02347688,0.0058291447,-5.6466943e-05,0.00077647826,-0.0018112902,-0.010256885,0.50426763,-1.3807082,1.9034089,-2.0916011,-1.5708774,2.4795012,-0.0318332,0.030236358,-0.037766356,0.00948656,0.00012607506,-0.02155734,0.0,0.24899697,-9.634268,0.73069996,47.68062,-0.79931426,-2.578823,-3.3137665,-0.06610351,0.054660626,-0.22096333,25.0625,25.75,24.8125,26.875,27.25,27.5625
0.05405191,-0.64542794,-1.6525936,-1.5660948,-0.021446696,0.0138809625,-0.088050775,-0.38985392,-0.36852312,0.059845805,-3.0783482,0.62529945,-0.00031693315,-0.024222353,0.006317967,-0.00012745996,0.0011315417,-0.0024388211,-0.010356617,0.5042192,-1.3806598,1.9033374,-2.0916007,-1.5708536,2.4794888,-0.03334367,0.031201754,-0.03896336,0.010439477,0.00011781819,-0.022967517,0.05746084,0.2681506,-9.615114,0.78217715,47.70659,-0.7782244,-2.5381544,-3.4202514,-0.058433965,0.056766316,-0.22284475,25.0625,25.75,24.8125,26.875,27.25,27.5625
0.05605247,-1.2153598,-1.9672735,-1.6563694,-0.03012508,0.005439537,-0.08746678,-0.38995367,-0.36849537,0.059868086,-3.0783474,0.6253762,-0.0002616706,-0.02521712,0.0069297827,-0.00021475421,0.0015008539,-0.0030952024,-0.01089892,0.50408673,-1.3805873,1.9031929,-2.091565,-1.5708655,2.4794044,-0.035289697,0.032426253,-0.040442675,0.0114469575,0.000110575966,-0.024370538,0.038307227,0.28730422,-9.481039,0.779936,47.690468,-0.7018944,-2.535338,-3.32613,-0.06326052,0.062314577,-0.23137039,25.0625,25.75,24.8125,26.875,27.25,27.5625
0.058051717,-1.2408365,-1.5033586,-1.5339463,-0.039785504,0.01664299,-0.09132144,-0.38999134,-0.3684965,0.05987529,-3.07838,0.62538165,-0.0002590463,-0.025941722,0.006802722,4.0555802e-05,0.0012741867,-0.00267691,-0.009703884,0.5040386,-1.380551,1.9031333,-2.0915644,-1.5708417,2.4793556,-0.035745263,0.03320519,-0.042018637,0.011768611,0.00010417351,-0.026020395,-0.019153614,0.36391866,-9.404425,0.7620334,47.664497,-0.7294086,-2.4984205,-3.3960595,-0.08095991,0.061652172,-0.23365547,25.0625,25.75,24.8125,26.875,27.25,27.5625
0.06005214,-1.0992073,-1.8590454,-1.4517858,-0.025098931,0.03423678,-0.08633825,-0.39002472,-0.36848247,0.059853457,-3.0783257,0.6254079,-0.00031893363,-0.026324078,0.006051916,0.0005841478,0.0009008433,-0.0019986997,-0.0077652177,0.5039912,-1.3804545,1.9030608,-2.0915282,-1.5708536,2.4793315,-0.034833163,0.03385305,-0.044195835,0.012523324,9.847237e-05,-0.027046053,-0.05746084,0.38307226,-9.423578,0.69937176,47.66271,-0.8569498,-2.4886887,-3.3641198,-0.0579658,0.06598094,-0.24360472,25.0625,25.75,24.8125,26.875,27.25,27.5625
0.062052175,-0.8002377,-1.3978835,-1.4448066,-0.021788407,0.051191937,-0.10116432,-0.3900902,-0.3684543,0.059849966,-3.0783224,0.62546486,-0.00030447304,-0.027554741,0.006609588,0.0009681495,0.0006243915,-0.0014912409,-0.008911278,0.5038827,-1.3803943,1.9030002,-2.09154,-1.5708536,2.479259,-0.036910478,0.034188464,-0.045573547,0.012987649,9.336293e-05,-0.027976735,0.038307227,0.38307226,-9.442732,0.7777002,47.73077,-0.83432895,-2.461902,-3.4053774,-0.06542727,0.06438196,-0.26130593,25.0625,25.75,24.8125,26.875,27.25,27.5625
0.06405223,-0.7936379,-0.87509835,-1.293955,-0.01964091,0.04694928,-0.10281126,-0.39014214,-0.36844993,0.059873722,-3.0783212,0.6255028,-0.00026396214,-0.028886482,0.0067491042,0.0011221932,0.0002319112,-0.00077894423,-0.009300789,0.50383425,-1.3803581,1.9028925,-2.0914924,-1.5708655,2.4792345,-0.038380913,0.035475124,-0.047379795,0.012693476,8.8757515e-05,-0.029056681,-0.019153614,0.3256114,-9.308657,0.7777002,47.66271,-0.7625158,-2.460653,-3.2907052,-0.05819895,0.082399726,-0.26935863,25.0625,25.75,24.8125,26.875,27.25,27.5625
0.066052094,-0.42758358,-0.49181387,-1.2103363,-0.018477997,0.052007515,-0.10026,-0.39020795,-0.36845058,0.059873,-3.0783288,0.6254657,-0.00026456107,-0.029883089,0.006751276,0.0012393384,7.0054324e-05,-0.00048479956,-0.009148057,0.5037739,-1.3802495,1.9027604,-2.0914686,-1.5708655,2.47915,-0.039306127,0.036749758,-0.049206242,0.012909399,8.4585794e-05,-0.030133704,-0.1340753,0.22984336,-9.308656,0.7530795,47.689575,-0.80276954,-2.4268231,-3.3464828,-0.05837708,0.06639475,-0.2750477,25.0625,25.75,24.8125,26.875,27.25,27.5625
0.06805214,-1.0279908,-0.9114176,-1.0980611,-0.008084426,0.0402704,-0.08719799,-0.39028126,-0.3684475,0.059898384,-3.0783746,0.6255328,-0.0002440994,-0.030760428,0.0066972743,0.0013582909,-0.00015862935,-0.00013891367,-0.00920478,0.503678,-1.380201,1.9026397,-2.0914443,-1.5708297,2.4790902,-0.04004558,0.03786721,-0.050818454,0.012991745,0.00011578303,-0.030815667,-0.24899697,0.24899697,-9.289502,0.7150385,47.64837,-0.80284375,-2.3441405,-3.29336,-0.06040311,0.077766836,-0.27591395,25.0625,25.75,24.8125,26.875,27.25,27.5625
0.070052266,-1.3038146,-0.67301685,-1.2901788,-0.008068545,0.044616897,-0.092812374,-0.39034763,-0.36844406,0.05990788,-3.0783732,0.6256088,-0.0001904763,-0.031898696,0.0067537995,0.0016747275,-0.00057263207,0.00060669414,-0.009502634,0.5036177,-1.3801286,1.9025325,-2.0914443,-1.5708417,2.4790776,-0.04119582,0.038743377,-0.05258572,0.01302954,0.00011562304,-0.0316672,-0.24899697,0.17238252,-9.232041,0.7866488,47.67793,-0.82769394,-2.423664,-3.2928746,-0.06316179,0.064381905,-0.29254723,25.0625,25.75,24.8125,26.875,27.25,27.5625
0.072052285,-1.4291862,-0.8182165,-1.3350512,0.0047185584,0.052972984,-0.08424278,-0.39039922,-0.3684227,0.059897307,-3.078358,0.6255672,-0.0002339722,-0.03238677,0.0069294036,0.0008367924,0.00015455275,-0.0007110423,-0.009421442,0.50353366,-1.3800437,1.902448,-2.0914085,-1.5708417,2.4789696,-0.041939065,0.041177154,-0.053574335,0.01308936,0.00011117521,-0.032490857,-0.3256114,0.19153613,-9.308656,0.8179876,47.71286,-0.81790316,-2.3932178,-3.3295488,-0.078825146,0.06622172,-0.30299053,25.0625,25.75,24.8125,26.875,27.25,27.5625
0.07405244,-1.4548393,-0.5014278,-1.1425073,-0.0017049419,0.06045339,-0.084463164,-0.3904759,-0.36840987,0.05991044,-3.0783682,0.6256067,-0.00026036284,-0.033354964,0.007290441,0.0010924656,0.00022018519,-0.0008245294,-0.010054425,0.5034254,-1.3799592,1.9023045,-2.0913484,-1.5708174,2.4788847,-0.043437388,0.041958828,-0.055335518,0.014200669,0.00010679786,-0.03335547,-0.22984336,0.095768064,-9.212888,0.7016076,47.682407,-0.7967845,-2.4884744,-3.4124022,-0.0755412,0.076730624,-0.31794322,25.0625,25.75,24.8125,26.875,27.25,27.5625
0.07605187,-1.5146936,-0.5494159,-1.1762388,0.0036020773,0.0617608,-0.08966165,-0.3905343,-0.36838168,0.05988398,-3.0782797,0.62570226,-0.0002689783,-0.034760732,0.00677855,0.0015175641,-0.00033152217,0.000100801626,-0.007924143,0.5033535,-1.3798386,1.9022192,-2.0913355,-1.5708655,2.4788837,-0.04389894,0.043866817,-0.058636107,0.014514451,0.00013465474,-0.035945762,-0.28730422,0.11492168,-9.270349,0.7217513,47.683304,-0.87638545,-2.3984504,-3.1663594,-0.08426079,0.06908294,-0.31358245,25.0625,25.75,24.8125,26.875,27.25,27.5625
0.078051835,-1.6841486,-0.0959667,-1.1600593,-0.00063222967,0.0573857,-0.09204613,-0.3905971,-0.36837748,0.059885923,-3.0782955,0.6257067,-0.00026821397,-0.034682516,0.00869404,0.00032016376,0.0011811748,-0.0025920556,-0.0099524325,0.50328046,-1.3797542,1.9021124,-2.091324,-1.5708536,2.4788115,-0.04702768,0.044088367,-0.056296367,0.015042057,0.00011464434,-0.03704715,-0.34476504,0.038307227,-9.289502,0.8179876,47.685097,-0.7819973,-2.4512053,-3.382698,-0.07743728,0.060700774,-0.32342365,25.0625,25.75,24.8125,26.875,27.25,27.5625
0.08005267,-1.6658529,-0.6610452,-1.1560627,0.0137858745,0.06397017,-0.08215247,-0.39065847,-0.36837316,0.059891045,-3.0783153,0.6256531,-0.00028162892,-0.035674307,0.008218532,4.2374344e-05,0.0011993591,-0.0025937725,-0.009792943,0.5032086,-1.3796694,1.9019922,-2.0912879,-1.5708417,2.4787037,-0.0471327,0.046779405,-0.05881485,0.014880273,9.3341034e-05,-0.037310164,-0.40222588,0.076614454,-9.289503,0.7530795,47.667187,-0.80896527,-2.4672427,-3.4008904,-0.09320335,0.058981463,-0.3433975,25.0625,25.75,24.8125,26.875,27.25,27.5625
0.08205265,-1.7567446,-0.3979156,-1.0905219,0.0016543412,0.055139128,-0.087451145,-0.39072338,-0.36832944,0.05987134,-3.0782416,0.625693,-0.0003430405,-0.037270505,0.006623042,0.0020075815,-0.0009058626,0.0011490064,-0.00748497,0.50308937,-1.3795612,1.9018954,-2.0912278,-1.5708655,2.4786189,-0.045944408,0.04688984,-0.0634815,0.015141292,0.00012014856,-0.03842803,-0.4213795,0.038307227,-9.251195,0.80679786,47.694946,-0.9457687,-2.4108293,-3.2361164,-0.09986003,0.06221857,-0.36501467,25.0625,25.75,24.8125,26.875,27.25,27.5625
0.08405187,-1.2895803,0.0034173683,-0.9773563,-0.00020205746,0.067324996,-0.09506113,-0.39081153,-0.36834368,0.059908845,-3.0782974,0.6257426,-0.0002822447,-0.038290877,0.007834297,0.0012551878,-0.00027794598,9.733485e-07,-0.0072402772,0.50301635,-1.3794886,1.9017161,-2.0911925,-1.5708417,2.4785697,-0.04892399,0.04838661,-0.06350602,0.014978038,0.00012470082,-0.04165205,-0.49799395,0.095768064,-9.270349,0.79560274,47.660015,-0.8397858,-2.4768488,-3.2516148,-0.11008424,0.07148097,-0.34461996,25.0625,25.75,24.8125,26.875,27.25,27.5625
0.0860526,-2.2689803,-0.5697492,-1.3021488,0.0074923034,0.045035172,-0.07882232,-0.3908918,-0.36832377,0.059896566,-3.0783005,0.6257622,-0.00027005642,-0.0386899,0.008693693,0.00034241495,0.00075548067,-0.0019375308,-0.0072227498,0.5029081,-1.3793799,1.9016207,-2.0912163,-1.5708417,2.4784734,-0.050749544,0.050120123,-0.063615225,0.01554997,0.00015444514,-0.043494932,-0.34476504,0.1340753,-9.308656,0.71951014,47.698532,-0.81974745,-2.388717,-3.3988187,-0.11203191,0.070228,-0.33462173,25.0625,25.75,24.8125,26.875,27.25,27.5625
0.088051684,-1.4938654,-0.87002283,-1.2583323,-0.0017835348,0.06251956,-0.0876065,-0.39097205,-0.36828235,0.05989887,-3.0782714,0.62579197,-0.00031216966,-0.040448084,0.00878994,0.0013560641,-0.00029126753,-4.779749e-05,-0.0051865913,0.50276375,-1.3792957,1.9014996,-2.0911443,-1.5708417,2.4783514,-0.052534647,0.05033,-0.0662289,0.015793,0.00015268517,-0.04731514,-0.40222588,0.15322891,-9.289502,0.74413085,47.682407,-0.7286395,-2.4328065,-3.3148532,-0.1376039,0.07214102,-0.3087448,25.0625,25.75,24.8125,26.875,27.25,27.5625
0.090051755,-1.3309062,-0.5250524,-1.3414723,-0.018536963,0.07004109,-0.092364065,-0.39104623,-0.36828828,0.05989302,-3.07827,0.62575215,-0.0003301464,-0.04016925,0.007783146,0.000799934,0.00018315011,-0.00090607133,-0.0030570887,0.5027046,-1.3791507,1.9013332,-2.091108,-1.5708417,2.4782677,-0.050570812,0.052673776,-0.06778905,0.015990065,0.00014677286,-0.04747983,-0.51714754,0.11492168,-9.3661175,0.77545905,47.67614,-0.9216305,-2.3639693,-3.3310547,-0.13644189,0.057512052,-0.3012299,25.0625,25.75,24.8125,26.875,27.25,27.5625
0.092051655,-1.8840784,-1.2497343,-1.3494898,-0.0055500837,0.069677755,-0.08298671,-0.39113402,-0.36827853,0.059923213,-3.0783348,0.62576574,-0.0002959565,-0.041222002,0.008478795,-0.0001512291,0.0009041826,-0.0022069246,-0.0036140215,0.502584,-1.3791018,1.9012011,-2.0910847,-1.5708054,2.4781473,-0.052704584,0.055365533,-0.06876058,0.015758764,0.00014104167,-0.04905581,-0.38307226,0.15322891,-9.385271,0.7239871,47.66271,-0.86668,-2.533317,-3.339083,-0.14496428,0.061811663,-0.31673142,25.0625,25.75,24.8125,26.875,27.25,27.5625
0.094051674,-2.284927,-2.0108104,-1.4748713,0.008080034,0.057385627,-0.07707774,-0.39122197,-0.36824226,0.05990111,-3.078271,0.6257504,-0.00033042344,-0.04277895,0.008553836,0.0019242645,-0.0010690611,0.0013125477,-0.001206254,0.5024637,-1.3789465,1.9010566,-2.091036,-1.5708417,2.4780257,-0.054280773,0.052878957,-0.07061679,0.016064398,0.00016735328,-0.05303952,-0.2681506,0.19153613,-9.346964,0.8179876,47.675243,-0.8971189,-2.378658,-3.382711,-0.16580495,0.055071704,-0.27454194,25.0625,25.75,24.8125,26.875,27.25,27.5625
0.09605231,-1.5463289,-1.0101919,-1.3589133,-0.023276629,0.06098521,-0.08394187,-0.39130694,-0.3682163,0.059887715,-3.0782309,0.6257785,-0.0003353101,-0.043461706,0.008577586,0.0013784107,-0.0007319856,0.00069561496,0.0012835596,0.5023559,-1.3788136,1.9009246,-2.0910127,-1.5708655,2.4779406,-0.05494212,0.0550387,-0.07189845,0.015887598,0.00016334059,-0.056189816,-0.21068975,0.21068975,-9.3661175,0.8023209,47.674347,-0.87495536,-2.2934976,-3.3010168,-0.19681397,0.069549814,-0.23730406,25.0625,25.75,24.8125,26.875,27.25,27.5625
0.09805168,-1.2547625,-1.1284083,-1.3710566,-0.0281367,0.053725567,-0.08909673,-0.39139962,-0.36823538,0.05991462,-3.0783267,0.6257199,-0.00030113928,-0.044501416,0.008567047,0.00071884086,-0.00047352587,0.00023282517,0.0024592406,0.5022718,-1.3787166,1.9007457,-2.0910008,-1.5708174,2.4778078,-0.055874627,0.057871573,-0.07362684,0.015315691,0.00015774892,-0.05829679,-0.22984336,0.21068975,-9.385271,0.80679786,47.658226,-0.91364276,-2.4751837,-3.3549585,-0.17711046,0.072088495,-0.21931648,25.0625,25.75,24.8125,26.875,27.25,27.5625
0.10005178,-0.85990775,-0.77234805,-1.3980491,-0.03380161,0.053897712,-0.092567466,-0.3914785,-0.3681888,0.059896868,-3.078272,0.6257839,-0.000346658,-0.044682115,0.008877806,-0.000103895996,0.00044447248,-0.0014354511,0.003805963,0.5021278,-1.3786076,1.900649,-2.0909646,-1.5708297,2.4777107,-0.056550268,0.059818335,-0.074182115,0.015827462,0.00015241474,-0.060318682,-0.22984336,0.17238252,-9.385271,0.7463667,47.67345,-0.88572216,-2.5643954,-3.3782105,-0.18174732,0.08622664,-0.17943007,25.0625,25.75,24.8125,26.875,27.25,27.5625
0.10205196,-0.612583,-0.9591351,-1.6385585,-0.02106485,0.04134621,-0.08855117,-0.39159802,-0.36815593,0.059901804,-3.078246,0.6257784,-0.00031009567,-0.04602389,0.008496864,0.0016553636,-0.0012584015,0.0016662342,0.0048781275,0.5019838,-1.3784641,1.9004568,-2.0909164,-1.5708655,2.4775667,-0.0571341,0.05836789,-0.07653432,0.016089367,0.00014742084,-0.061973996,-0.095768064,0.21068975,-9.385271,0.7172743,47.694054,-0.98175704,-2.4070787,-3.4030838,-0.1900106,0.08544729,-0.15435803,25.0625,25.75,24.8125,26.875,27.25,27.5625
0.10405205,-1.0046904,-0.9975051,-1.4884284,-0.026839603,0.026041858,-0.088741444,-0.39167625,-0.36814648,0.05988937,-3.078255,0.6257399,-0.00033811558,-0.046474505,0.0088394545,0.00047716676,-3.4413275e-05,-0.0005597147,0.0055271946,0.5018878,-1.378331,1.9003247,-2.0909045,-1.5708536,2.4774456,-0.058115028,0.06150697,-0.077709645,0.016666431,0.00014274438,-0.06360309,-0.076614454,0.24899697,-9.3661175,0.7172743,47.684196,-0.95859396,-2.3855014,-3.426265,-0.20994493,0.07877173,-0.120568424,25.0625,25.75,24.8125,26.875,27.25,27.5625
0.10605172,-1.063228,-1.5918163,-1.5443356,-0.018292086,0.024325652,-0.08319817,-0.3917469,-0.36811858,0.059877094,-3.0782287,0.6257154,-0.00042405934,-0.047346186,0.008699283,0.00068964734,-0.00045842666,0.00020552691,0.0055166967,0.5017679,-1.3782104,1.9001936,-2.0908325,-1.5708417,2.4773138,-0.058673847,0.062375862,-0.07916388,0.016377658,0.00013835508,-0.064150676,-0.038307227,0.28730422,-9.346964,0.6948948,47.67166,-1.0287564,-2.4604063,-3.4602537,-0.19402269,0.07050389,-0.08747048,25.0625,25.75,24.8125,26.875,27.25,27.5625
0.10805171,-1.5302308,-1.7181915,-1.6722926,-0.008003572,0.0035813432,-0.074242264,-0.39187825,-0.3680965,0.059894584,-3.0782568,0.6257204,-0.0003144047,-0.04810294,0.009099823,0.000496039,-0.00021927878,-0.00021487074,0.003766225,0.5016237,-1.3780899,1.9000138,-2.0908449,-1.5708655,2.4771693,-0.06002711,0.06352558,-0.080168374,0.016714655,0.00013422796,-0.06375291,0.0,0.2681506,-9.442732,0.83589023,47.703903,-1.0106167,-2.4416184,-3.4330664,-0.22333494,0.093766466,-0.078944325,25.0625,25.75,24.8125,26.875,27.25,27.5625
0.110051736,-0.93575305,-0.9712674,-1.6475003,-0.021371657,0.0064410893,-0.0808165,-0.39197934,-0.3681155,0.05990205,-3.0783215,0.6256581,-0.00030781835,-0.051052164,0.007978407,0.002745212,-0.0029906982,0.004825197,0.0018960611,0.5015396,-1.3779335,1.8998088,-2.0908325,-1.5708297,2.4770381,-0.060858075,0.063924156,-0.085605755,0.016004141,0.00013033974,-0.0627114,0.11492168,0.24899697,-9.442732,0.7732232,47.703007,-0.97181535,-2.3510385,-3.2256646,-0.2196143,0.081113465,-0.09123891,25.0625,25.75,24.8125,26.875,27.25,27.5625
0.11205186,-0.92002,-1.2290267,-1.6218241,-0.019691963,0.0017665576,-0.07022651,-0.3920722,-0.36807236,0.059889436,-3.078261,0.6257038,-0.0003438896,-0.050747804,0.008674023,0.00034165697,-0.00088558625,0.00078095746,0.0003330279,0.5013957,-1.3778,1.8996657,-2.0907729,-1.5708536,2.4769306,-0.061791886,0.06796844,-0.08489199,0.015802655,0.00022722375,-0.062082015,0.15322891,0.30645782,-9.404425,0.80679786,47.705692,-1.0450641,-2.5438132,-3.3378983,-0.22359076,0.080901824,-0.09751576,25.0625,25.75,24.8125,26.875,27.25,27.5625
0.114052184,-0.23116334,-1.0847267,-1.606415,-0.019325286,0.02008409,-0.08694672,-0.39216828,-0.36806646,0.059885394,-3.0782511,0.6256636,-0.00031907816,-0.053040482,0.007956331,0.0029008077,-0.0032907974,0.0051135914,-0.0014818327,0.5013115,-1.3776443,1.899485,-2.0907485,-1.5708774,2.4768226,-0.06270644,0.06675855,-0.08948126,0.016645063,0.0002467942,-0.061180204,0.076614454,0.30645782,-9.385271,0.7911258,47.674347,-1.1306175,-2.4000788,-3.300181,-0.23896557,0.084837146,-0.09852418,25.0625,25.75,24.8125,26.875,27.25,27.5625
0.11605258,-0.5049211,-1.0508577,-1.8913962,-0.016555473,0.025829244,-0.083099455,-0.39227086,-0.36803168,0.059890658,-3.078261,0.62574345,-0.0003304902,-0.053252753,0.008934325,0.002426882,-0.0025331376,0.0037631574,-0.004424389,0.50114316,-1.3775481,1.8993534,-2.0907242,-1.5708536,2.476703,-0.06452016,0.067111254,-0.08898569,0.017346928,0.00023594749,-0.060051568,0.038307227,0.28730422,-9.461885,0.779936,47.690468,-1.0706362,-2.3732905,-3.2033694,-0.24188153,0.10248983,-0.11140369,25.0625,25.75,24.8125,26.875,27.25,27.5625
0.11805161,-0.9215027,-1.3808653,-1.7495497,-0.012804133,0.027304277,-0.07813185,-0.3923704,-0.368017,0.059871882,-3.078243,0.62572134,-0.00043006096,-0.053115904,0.009144574,0.00023582568,-5.058112e-05,-0.0007961162,-0.006184673,0.5010113,-1.377354,1.8991498,-2.0906522,-1.5708297,2.4765596,-0.06473823,0.0722804,-0.09048521,0.018870292,0.00024621887,-0.058508147,0.0,0.2681506,-9.500193,0.7866488,47.684196,-1.065546,-2.5443947,-3.3029735,-0.25232926,0.105163984,-0.13296881,25.0625,25.75,24.8125,26.875,27.25,27.5625
0.12005158,-0.8739543,-1.394293,-1.6163118,-0.024904449,0.044652276,-0.07645067,-0.39249632,-0.3680132,0.059925795,-3.0783103,0.6257349,-0.00024601095,-0.05466263,0.008824269,0.0026341276,-0.0021629094,0.003052664,-0.008266961,0.50090325,-1.3772949,1.8989571,-2.0906522,-1.5708536,2.4764516,-0.06561476,0.069792815,-0.09317277,0.019653931,0.00025490826,-0.057301775,-0.1340753,0.2681506,-9.519346,0.842603,47.675243,-1.1528698,-2.4064915,-3.3073049,-0.27696213,0.10763197,-0.15478812,25.0625,25.75,24.8125,26.875,27.25,27.5625
0.12205166,-1.3082323,-1.248827,-1.7685493,-0.027426284,0.053397994,-0.07685037,-0.3925969,-0.3679974,0.059901856,-3.0782745,0.62570804,-0.00032186907,-0.055075694,0.008805603,0.0018920425,-0.0017386259,0.0022135607,-0.009479448,0.5007835,-1.37709,1.898755,-2.0905921,-1.5708536,2.4763198,-0.06596433,0.07195555,-0.09396485,0.019223152,0.00028002672,-0.056438256,-0.21068975,0.2681506,-9.481039,0.78888994,47.690468,-1.2529163,-2.369739,-3.255538,-0.28703678,0.08731586,-0.17245515,25.0625,25.75,24.8125,26.875,27.25,27.5625
0.12405182,-1.8208818,-1.5355105,-1.7546463,-0.015125334,0.056880426,-0.07568384,-0.39269748,-0.3679778,0.059893392,-3.0782685,0.6258037,-0.00041523593,-0.05570018,0.009072902,0.0019242404,-0.0015913856,0.0018844119,-0.01110408,0.50062746,-1.3769336,1.8985752,-2.090532,-1.5708054,2.4762242,-0.066987485,0.07273801,-0.09514947,0.019987507,0.00030664698,-0.05583634,-0.22984336,0.22984336,-9.5385,0.8247004,47.66539,-1.2319139,-2.3698134,-3.3330808,-0.29732412,0.0928909,-0.1990706,25.0625,25.75,24.8125,26.875,27.25,27.5625
0.12605236,-1.6307526,-1.135142,-1.6744927,-0.017649831,0.0647993,-0.07929185,-0.39278424,-0.3679428,0.05987312,-3.0782063,0.6258292,-0.0004906139,-0.055979174,0.008617666,0.0019156906,-0.0018431294,0.001669207,-0.01091414,0.5004958,-1.3767769,1.8984193,-2.09046,-1.5708174,2.4761164,-0.06666262,0.073885955,-0.09658174,0.020338088,0.0006248006,-0.055701368,-0.24899697,0.21068975,-9.423578,0.7866488,47.69763,-1.2851591,-2.3169246,-3.340228,-0.3202654,0.0871961,-0.21524303,25.0625,25.75,24.8125,26.875,27.25,27.5625
0.12805255,-1.8735151,-0.9549753,-1.6075537,-0.01168317,0.052707773,-0.06913473,-0.3929184,-0.36795208,0.05989085,-3.0782564,0.6258203,-0.0004052878,-0.059235033,0.0090359105,0.0034036,-0.0037098522,0.0048727733,-0.0146863945,0.50038695,-1.3766086,1.8981794,-2.0904605,-1.5708169,2.4759958,-0.07041031,0.07455338,-0.10071447,0.020096788,0.0007203901,-0.055675194,-0.38307226,0.15322891,-9.404425,0.8179876,47.64121,-1.2362766,-2.302523,-3.3137631,-0.34096414,0.079642504,-0.25277832,25.0625,25.75,24.8125,26.875,27.25,27.5625
0.13005199,-1.4126773,-0.6421182,-1.6367326,-0.009399602,0.06275816,-0.0828816,-0.3930059,-0.36793536,0.059902623,-3.0782752,0.62586015,-0.00044399654,-0.057829354,0.008906895,0.001885863,-0.0023882024,0.0023849178,-0.010564512,0.5002557,-1.3765119,1.8980244,-2.0904005,-1.5707811,2.475887,-0.068899654,0.07597564,-0.09884869,0.019627467,0.00075652293,-0.05828698,-0.4405331,0.15322891,-9.576807,0.7777002,47.6636,-1.271213,-2.298084,-3.3507056,-0.32745835,0.09873362,-0.25128657,25.0625,25.75,24.8125,26.875,27.25,27.5625
0.13205206,-1.5431936,-0.6074905,-1.6914628,-0.0029257014,0.06392647,-0.08021749,-0.39317647,-0.36791667,0.059928704,-3.0782635,0.62591624,-0.0002704807,-0.06006497,0.00841299,0.0031999345,-0.0043151476,0.0052305856,-0.0122568,0.50011146,-1.3763314,1.8977484,-2.090389,-1.5708531,2.4757795,-0.07030631,0.07671951,-0.10264807,0.019256629,0.0010792318,-0.058000233,-0.45968673,0.11492168,-9.576807,0.8023209,47.687782,-1.3994946,-2.243153,-3.3366766,-0.32359177,0.07126311,-0.2690526,25.0625,25.75,24.8125,26.875,27.25,27.5625
0.13405246,-2.2019434,-1.0478728,-1.6900477,0.006235521,0.05291774,-0.07324296,-0.39328542,-0.36788046,0.05990679,-3.0782416,0.62595123,-0.00032736143,-0.061707474,0.010011197,0.0029550153,-0.0044381,0.0053194272,-0.017060695,0.49994254,-1.3761634,1.8975934,-2.0903652,-1.5708412,2.4756353,-0.0745224,0.07718686,-0.10248425,0.018489314,0.0011423099,-0.057412535,-0.45968673,0.038307227,-9.481039,0.7553206,47.66271,-1.2585394,-2.2292657,-3.2895494,-0.32401007,0.08993496,-0.3084586,25.0625,25.75,24.8125,26.875,27.25,27.5625
0.13605228,-1.8827064,-0.5593725,-1.7751594,0.00087741914,0.06450224,-0.07684632,-0.39339837,-0.3678537,0.05990904,-3.078237,0.62608343,-0.0004045254,-0.062379148,0.008718262,0.0033629504,-0.004981526,0.006421084,-0.014751892,0.4997634,-1.3760185,1.8974003,-2.0902936,-1.570793,2.4755392,-0.072909914,0.079058126,-0.10566104,0.018570669,0.001084181,-0.058107246,-0.53630114,0.019153614,-9.442732,0.8224646,47.684196,-1.3093383,-2.2633948,-3.3332028,-0.3326074,0.089710616,-0.3440253,25.0625,25.75,24.8125,26.875,27.25,27.5625
0.13805237,-2.3337133,-0.7973926,-1.6238296,0.008059437,0.056640532,-0.07208038,-0.39351934,-0.36785126,0.059906088,-3.0782464,0.6260266,-0.00038083678,-0.063333906,0.0093226,0.0033884775,-0.004858046,0.006325174,-0.014073336,0.49965498,-1.3758259,1.8971728,-2.0902689,-1.570805,2.4753942,-0.07474325,0.07976466,-0.10667304,0.019018939,0.0010210307,-0.060618572,-0.5363012,0.095768064,-9.442732,0.7911258,47.65912,-1.3637857,-2.1849742,-3.3007517,-0.3332464,0.06724122,-0.343899,25.0625,25.75,24.8125,26.875,27.25,27.5625
0.14005247,-1.841042,-0.5986832,-1.6590792,0.005403887,0.06429163,-0.08458489,-0.39368263,-0.36783642,0.059952762,-3.0782707,0.62616813,-0.00025627602,-0.06403821,0.010005378,0.0025964298,-0.004068384,0.0050490913,-0.019069742,0.49948686,-1.3756931,1.8968982,-2.0902212,-1.5708169,2.4753115,-0.07646074,0.08175199,-0.10726044,0.019117571,0.00094603136,-0.057338912,-0.4405331,0.15322891,-9.461885,0.82022345,47.682407,-1.3542552,-2.259364,-3.38613,-0.33895895,0.07426217,-0.40230957,25.0625,25.75,24.8125,26.875,27.25,27.5625
0.14205252,-2.2467413,-1.1092471,-1.4587919,0.008446053,0.054025255,-0.074681155,-0.39378414,-0.3678221,0.0599393,-3.0782917,0.62615305,-0.00028257616,-0.06518262,0.010572721,0.0026874288,-0.004013966,0.0051917504,-0.019891871,0.4993544,-1.3755367,1.8967432,-2.0902212,-1.570793,2.475167,-0.07837261,0.082614325,-0.10858593,0.019483417,0.0008283244,-0.058427848,-0.45968673,0.038307227,-9.461885,0.78217715,47.684196,-1.2535406,-2.2112424,-3.410635,-0.33586454,0.082596004,-0.44187915,25.0625,25.75,24.8125,26.875,27.25,27.5625
0.1440517,-1.500777,-0.59814614,-1.4511628,-0.010238422,0.06984278,-0.08408153,-0.3939306,-0.36780474,0.059955146,-3.0782902,0.6261901,-0.00024240935,-0.06711172,0.011182665,0.0028497013,-0.004212543,0.005811401,-0.019651275,0.49919787,-1.375356,1.896479,-2.090161,-1.5708054,2.475034,-0.081065424,0.08429659,-0.110981934,0.01955769,0.00070251245,-0.06135984,-0.49799395,0.05746084,-9.404425,0.83365434,47.670765,-1.2363904,-2.206982,-3.3688617,-0.34346056,0.08354503,-0.44893438,25.0625,25.75,24.8125,26.875,27.25,27.5625
0.14605239,-1.4661561,-0.5072546,-1.4789983,-0.010934457,0.07265592,-0.0885928,-0.39404738,-0.36777362,0.05993999,-3.0782804,0.62616575,-0.00030048593,-0.06753397,0.010713362,0.0028652612,-0.004507498,0.006321347,-0.016064031,0.49903032,-1.3751754,1.8962883,-2.0901134,-1.570793,2.4748526,-0.080645315,0.08535184,-0.11218499,0.019117206,0.00071165356,-0.06452637,-0.45968673,0.11492168,-9.404425,0.8560339,47.677036,-1.1738211,-2.1781774,-3.3437572,-0.35185432,0.085159965,-0.45504916,25.0625,25.75,24.8125,26.875,27.25,27.5625
0.14805238,-1.8044183,-0.654334,-1.3637358,-0.013287703,0.073163055,-0.08220178,-0.394192,-0.36775267,0.059955932,-3.078284,0.6262997,-0.00024386379,-0.06854596,0.011017415,0.0029217289,-0.004609232,0.006550376,-0.014876995,0.49886227,-1.3750188,1.8960608,-2.0900896,-1.5707935,2.4747677,-0.08204339,0.08634691,-0.113529,0.01921636,0.00069233286,-0.06711076,-0.49799395,0.22984336,-9.308657,0.8403672,47.664497,-1.4446926,-2.1402285,-3.3865752,-0.33664453,0.08410725,-0.45568573,25.0625,25.75,24.8125,26.875,27.25,27.5625
0.1500526,-1.6318696,-0.94104475,-1.3849957,-0.011082563,0.081990264,-0.08035221,-0.39434275,-0.3677332,0.059958015,-3.0783033,0.6264187,-0.00025407143,-0.07099874,0.0137340315,0.0015713564,-0.003303982,0.004210271,-0.015286734,0.4986683,-1.3748255,1.895821,-2.0900657,-1.5707573,2.4746456,-0.088808276,0.089453876,-0.11422451,0.019486707,0.00066575705,-0.073465146,-0.34476504,0.15322891,-9.251195,0.82022345,47.67345,-1.0823156,-2.351868,-3.4550881,-0.34270808,0.08968082,-0.43046767,25.0625,25.75,24.8125,26.875,27.25,27.5625
0.15205173,-1.5994936,-0.7678764,-1.6131195,-0.0099060945,0.0720339,-0.08114796,-0.39448684,-0.36768156,0.059960514,-3.0782452,0.6263839,-0.00016850138,-0.07197472,0.012244814,0.003707603,-0.005563165,0.008305971,-0.011054678,0.49850142,-1.3746579,1.8956054,-2.090018,-1.5708417,2.4744647,-0.087185614,0.08798521,-0.11732571,0.019372731,0.00068502466,-0.07607361,-0.30645782,0.11492168,-9.404425,0.7642693,47.690468,-1.2684151,-2.128075,-3.2978497,-0.3331772,0.096851826,-0.39665136,25.0625,25.75,24.8125,26.875,27.25,27.5625
0.15405172,-1.9659585,-1.0955914,-1.5310011,-0.004357196,0.057434417,-0.079266526,-0.39463642,-0.36766922,0.05997029,-3.0782905,0.6263709,-0.00018014658,-0.07251215,0.013549849,0.001426899,-0.0033851045,0.0043169153,-0.008716839,0.49832067,-1.3744642,1.8953422,-2.0899699,-1.5708054,2.47427,-0.08983308,0.09233871,-0.117383614,0.01962457,0.00068113755,-0.08105824,-0.53630114,0.05746084,-9.32781,0.82694155,47.65912,-1.1541243,-2.2598364,-3.5345392,-0.3186298,0.08328637,-0.36679968,25.0625,25.75,24.8125,26.875,27.25,27.5625
0.15605171,-1.68686,-0.79626805,-1.4679308,-0.0075901486,0.06653884,-0.080896765,-0.39479393,-0.36762673,0.059954572,-3.078273,0.62649816,-0.00016689042,-0.074438624,0.014160017,0.0022182507,-0.004470946,0.006233264,-0.0037558237,0.49810427,-1.3742601,1.8951381,-2.0899818,-1.570805,2.4741354,-0.092607684,0.092322715,-0.119068034,0.019122131,0.0007150622,-0.08879325,-0.34476507,0.095768064,-9.212888,0.81351066,47.703903,-1.0133483,-2.1689024,-3.316782,-0.32795572,0.075094834,-0.27649927,25.0625,25.75,24.8125,26.875,27.25,27.5625
0.15805188,-1.4027802,-0.60637736,-1.4837875,0.0028110468,0.065051645,-0.07810074,-0.39496335,-0.3676076,0.05998076,-3.0783205,0.6264882,-5.623661e-05,-0.07656641,0.014443823,0.002479817,-0.0051489905,0.007435926,-0.004451818,0.49792394,-1.3740911,1.8948754,-2.0899704,-1.5708169,2.473943,-0.09501076,0.09425979,-0.12185797,0.018593416,0.000737513,-0.09049889,-0.24899697,0.038307227,-9.251195,0.8224646,47.688675,-0.97810495,-2.1503947,-3.4278789,-0.30477065,0.08050208,-0.25748098,25.0625,25.75,24.8125,26.875,27.25,27.5625
0.16005205,-1.1962763,-0.22713812,-1.3264275,-0.010005635,0.060209222,-0.08896776,-0.39512306,-0.3675837,0.060011823,-3.0783675,0.6265546,-6.2738436e-05,-0.07841747,0.014777642,0.003195789,-0.0058707013,0.008727588,-0.0037183617,0.4977077,-1.3739347,1.8945998,-2.0898864,-1.5707692,2.4737623,-0.097236566,0.09506018,-0.12454156,0.019001428,0.00075491244,-0.09345704,-0.22984336,0.05746084,-9.270349,0.8493211,47.639416,-0.90817034,-2.2371686,-3.3885503,-0.30523917,0.10541998,-0.21240443,25.0625,25.75,24.8125,26.875,27.25,27.5625
0.1620525,-1.7143303,-1.17673,-1.4216397,0.008984337,0.04734404,-0.0754099,-0.39525992,-0.36754668,0.059981596,-3.078336,0.62646985,-0.00012394636,-0.079472035,0.015288615,0.0030211466,-0.005944708,0.0081883315,-0.003483149,0.49752733,-1.373694,1.8943714,-2.0898383,-1.5707811,2.4735332,-0.09922154,0.09643543,-0.12589566,0.019416625,0.0010711851,-0.09567714,-0.4213795,0.19153613,-9.174581,0.7597976,47.704796,-0.8353402,-2.1979747,-3.3357053,-0.2876429,0.08044581,-0.16665882,25.0625,25.75,24.8125,26.875,27.25,27.5625
0.16405205,-1.1061003,-0.86596847,-1.530418,0.0006417197,0.065302245,-0.07399721,-0.39540136,-0.3675124,0.059973378,-3.078311,0.6264639,-0.00014398784,-0.08088053,0.014946296,0.0025532055,-0.0056586033,0.0076251426,-0.004355351,0.49734747,-1.3734883,1.894132,-2.0897782,-1.570793,2.473353,-0.09990885,0.10020811,-0.1294227,0.019801535,0.0010809473,-0.09549039,-0.51714754,0.17238252,-9.212888,0.8224646,47.703007,-0.84566617,-2.3220215,-3.4415894,-0.28161597,0.08665024,-0.15067658,25.0625,25.75,24.8125,26.875,27.25,27.5625
0.16605236,-1.9045606,-0.957294,-1.3796824,-0.009123191,0.060465153,-0.070851296,-0.3955762,-0.36745867,0.059973434,-3.0782757,0.6265348,-9.507703e-05,-0.08073276,0.015741315,0.0026055968,-0.005413398,0.0073827333,-0.007361663,0.49711952,-1.3732847,1.8938817,-2.089742,-1.5708293,2.4731739,-0.10100234,0.09894211,-0.12812129,0.020093592,0.0009880392,-0.09357819,-0.34476504,0.2681506,-9.232041,0.8179876,47.66271,-0.80664814,-2.1650317,-3.350387,-0.29911166,0.08290985,-0.15229261,25.0625,25.75,24.8125,26.875,27.25,27.5625
0.1680523,-1.7266682,-0.8380179,-1.2963125,-0.01548182,0.0740375,-0.080048464,-0.3957303,-0.36745435,0.059990205,-3.0783145,0.6265451,-5.1437877e-05,-0.08308449,0.015150026,0.002237172,-0.0052813524,0.007181529,-0.01200672,0.49696344,-1.3730906,1.8936046,-2.0897062,-1.5708169,2.4730194,-0.10211025,0.104284525,-0.13378024,0.020651799,0.00096311583,-0.09003799,-0.4405331,0.24899697,-9.232041,0.76874626,47.679718,-0.8248204,-2.3111603,-3.3218706,-0.2917958,0.09199776,-0.18673858,25.0625,25.75,24.8125,26.875,27.25,27.5625
0.1700524,-1.9012256,-1.2820518,-1.3767297,-0.0075807534,0.071092054,-0.06688671,-0.39590642,-0.36740786,0.05997707,-3.0782998,0.6265807,-6.66301e-05,-0.082992665,0.015433652,0.0027568808,-0.0056091608,0.00789821,-0.01646674,0.49672413,-1.372851,1.8933414,-2.0896704,-1.5708169,2.4728043,-0.10242034,0.10265664,-0.13308142,0.02079553,0.00091323035,-0.08588859,-0.45968673,0.21068975,-9.155427,0.80679786,47.683304,-0.8689386,-2.2137437,-3.358509,-0.26358414,0.09631404,-0.22301829,25.0625,25.75,24.8125,26.875,27.25,27.5625
0.17205256,-1.4641927,-0.8589784,-1.4267517,-0.016991483,0.06978372,-0.08200985,-0.3960805,-0.3673743,0.060001142,-3.078318,0.6266817,3.5664036e-06,-0.08421846,0.014592557,0.002709701,-0.005985456,0.008577007,-0.019180287,0.4965086,-1.3726819,1.8930773,-2.0896342,-1.5708169,2.4726496,-0.10208814,0.10556861,-0.13636044,0.020387065,0.0009199848,-0.08284106,-0.38307226,0.19153613,-9.174581,0.8605109,47.690468,-0.9464921,-2.2754316,-3.2631855,-0.27429458,0.08302532,-0.2798724,25.0625,25.75,24.8125,26.875,27.25,27.5625
0.1740525,-1.5494058,-1.1634951,-1.5574982,-0.010627595,0.043173824,-0.068140626,-0.3962453,-0.36737028,0.059985112,-3.0783439,0.626687,-3.6096666e-05,-0.085158706,0.014216274,0.002800407,-0.0061655184,0.008908179,-0.020288635,0.49632892,-1.3724048,1.8927788,-2.0896103,-1.5707811,2.47247,-0.10226967,0.10736293,-0.13878772,0.020646352,0.0009176471,-0.081913106,-0.2681506,0.21068975,-9.251195,0.83589023,47.71465,-0.9620932,-2.3223443,-3.211842,-0.25928542,0.07831551,-0.3171602,25.0625,25.75,24.8125,26.875,27.25,27.5625
0.17605168,-0.58363134,-0.68375933,-1.5347472,-0.02223171,0.04738767,-0.085279964,-0.3964201,-0.36731136,0.059992645,-3.0782893,0.6268484,4.093283e-05,-0.08692351,0.015189727,0.0021601343,-0.0056524454,0.007933503,-0.022436349,0.49610025,-1.3722236,1.892538,-2.0895746,-1.5708293,2.4723492,-0.10547487,0.11022482,-0.1408151,0.020909427,0.0009309142,-0.08296941,-0.22984336,0.30645782,-9.346964,0.7642693,47.716442,-0.8393284,-2.3989003,-3.193587,-0.23202612,0.09080952,-0.31710488,25.0625,25.75,24.8125,26.875,27.25,27.5625
0.17805187,-0.9124022,-1.3782542,-1.639467,-0.017575046,0.040230073,-0.0688044,-0.39661217,-0.36728257,0.0600119,-3.0783038,0.6269446,4.2601765e-05,-0.087009154,0.014000644,0.0026306997,-0.0063070003,0.009011919,-0.019687824,0.49586147,-1.3719951,1.8922032,-2.0894907,-1.570805,2.4721687,-0.10354233,0.11088077,-0.14267547,0.020855937,0.0009934523,-0.0837847,-0.19153613,0.2681506,-9.3661175,0.78217715,47.66091,-1.0503371,-2.3781366,-3.1657815,-0.2361666,0.09038927,-0.32381555,25.0625,25.75,24.8125,26.875,27.25,27.5625
0.18005191,-1.0714239,-1.5688213,-1.8771746,-0.011545093,0.04272211,-0.071615286,-0.3967735,-0.3672649,0.060003836,-3.0783315,0.6268755,9.544151e-05,-0.08917897,0.01591014,0.0026824328,-0.006226703,0.008969627,-0.024499305,0.49569193,-1.3717668,1.8919524,-2.0895026,-1.5708169,2.4719527,-0.108648665,0.111549355,-0.14371283,0.02129951,0.00094642397,-0.08407904,-0.15322891,0.2681506,-9.270349,0.80679786,47.677036,-0.7877178,-2.3594227,-3.189112,-0.215828,0.091790505,-0.32927275,25.0625,25.75,24.8125,26.875,27.25,27.5625
0.18205182,-1.3407516,-1.5465337,-1.8281223,-0.016909042,0.044532225,-0.07465758,-0.3969492,-0.36721358,0.059993353,-3.078265,0.6269947,4.7089845e-05,-0.0885488,0.015447913,0.0021043054,-0.00525617,0.0073376703,-0.02363599,0.49545324,-1.371514,1.8916534,-2.0894063,-1.5708293,2.471797,-0.10719953,0.1130728,-0.1445027,0.022462713,0.0008678643,-0.08349276,-0.1340753,0.30645782,-9.461885,0.7933669,47.690468,-1.0009811,-2.3894062,-3.2272706,-0.21216083,0.100872874,-0.35576907,25.0625,25.75,24.8125,26.875,27.25,27.5625
0.18405192,-0.9298095,-1.5624819,-1.6666728,-0.03690641,0.05570172,-0.075845584,-0.3971008,-0.36719048,0.05997847,-3.0782568,0.62704855,-8.330034e-06,-0.08952571,0.015543913,0.0022303085,-0.0052291793,0.007281296,-0.02234076,0.4952612,-1.3712733,1.8913897,-2.089358,-1.570805,2.4716396,-0.10820541,0.11442757,-0.14661404,0.0232838,0.00086762884,-0.085792996,-0.076614454,0.34476504,-9.461885,0.8493211,47.651955,-0.99551004,-2.3040102,-3.1145155,-0.20016026,0.10349869,-0.38193733,25.0625,25.75,24.8125,26.875,27.25,27.5625
0.18605262,-0.43307027,-0.99889106,-1.6721871,-0.04020863,0.06473401,-0.08592868,-0.3973027,-0.3671547,0.05999236,-3.07827,0.6271856,3.6304617e-05,-0.090540364,0.014775618,0.003092025,-0.006164772,0.008990682,-0.022464452,0.49500987,-1.3710448,1.8910779,-2.0893223,-1.570793,2.4714723,-0.107788764,0.115096316,-0.14943972,0.023493437,0.0008795214,-0.08525152,-0.05746084,0.24899697,-9.423578,0.84484416,47.661808,-0.9808951,-2.3747058,-3.324314,-0.19869688,0.08904007,-0.4072929,25.0625,25.75,24.8125,26.875,27.25,27.5625
0.18805248,-0.7303285,-1.1274604,-1.9596391,-0.028216453,0.049301155,-0.07127886,-0.39749828,-0.36713168,0.060001504,-3.0782914,0.62726533,0.00010443525,-0.09087509,0.01632749,0.0023431405,-0.005481248,0.0075521898,-0.021562444,0.49479318,-1.3708048,1.8907684,-2.08931,-1.570793,2.4713027,-0.11069348,0.11516171,-0.14781865,0.023397202,0.00097164896,-0.089058995,-0.05746084,0.24899697,-9.461885,0.7866488,47.690468,-0.93054295,-2.2445028,-3.3300529,-0.1904698,0.10805905,-0.4352147,25.0625,25.75,24.8125,26.875,27.25,27.5625
0.19005172,-0.80733615,-1.5058272,-2.005189,-0.011907631,0.031339504,-0.07301849,-0.39766988,-0.36709243,0.06000682,-3.0782752,0.62729543,0.000113998256,-0.09021543,0.015367132,0.0014629621,-0.004969163,0.006429889,-0.014262488,0.4945786,-1.3705876,1.8904814,-2.0892384,-1.570805,2.4711092,-0.10848529,0.11734343,-0.14834405,0.022970261,0.0010534332,-0.09415036,-0.019153614,0.19153613,-9.461885,0.800085,47.65912,-1.1632146,-2.3689613,-3.3866143,-0.16492644,0.106595024,-0.37041304,25.0625,25.75,24.8125,26.875,27.25,27.5625
0.19205168,-0.38989523,-0.87875825,-1.8497823,-0.010918483,0.032932,-0.074680194,-0.3978731,-0.36706614,0.060011234,-3.078298,0.62737507,0.00018421268,-0.09112277,0.016810274,0.00044506293,-0.0043150824,0.004880944,-0.012774881,0.49434975,-1.370335,1.8901705,-2.089239,-1.570805,2.4709272,-0.11177197,0.118874066,-0.14778863,0.022557382,0.0012205624,-0.09892482,0.038307227,0.1340753,-9.423578,0.8179876,47.709274,-0.9253143,-2.221904,-3.4636302,-0.14040734,0.11333776,-0.34676522,25.0625,25.75,24.8125,26.875,27.25,27.5625
0.19405195,-0.62942725,-0.48935878,-1.8978738,-0.002127075,0.023649612,-0.08291721,-0.39805126,-0.36703882,0.06001196,3.0783064,-0.62738967,-0.00018428933,-0.09217887,0.016083091,0.0015240328,-0.005602126,0.006798888,-0.0059741964,0.49413463,-1.3700947,1.8898715,-2.0891907,-1.570793,2.4707203,-0.1115953,0.11903574,-0.15052085,0.022829244,0.0014416842,-0.10554814,0.05746084,0.019153614,-9.461885,0.83589023,47.66987,-1.1557248,-2.3120236,-3.4153757,-0.109341055,0.10072051,-0.28674865,25.0625,25.75,24.8125,26.875,27.25,27.5625
0.19605231,-0.45481467,-0.5633884,-1.8596351,0.0130547285,0.02395671,-0.0796478,-0.3982347,-0.36701792,0.06003152,3.0783093,-0.62729156,-0.00015658647,-0.093235284,0.016606461,0.0013150591,-0.0049421266,0.0056403675,-0.0029261855,0.49391827,-1.3698536,1.8895124,-2.08907,-1.5707692,2.4704425,-0.11335626,0.12103779,-0.15283066,0.024472779,0.001410597,-0.11035607,0.095768064,0.038307227,-9.519346,0.84708,47.688675,-1.1016198,-2.261457,-3.649805,-0.09501551,0.102327004,-0.2354502,25.0625,25.75,24.8125,26.875,27.25,27.5625
0.19805236,-0.42632627,-0.3425585,-1.705932,0.0069918134,0.02932776,-0.07492426,-0.3984351,-0.366979,0.060029797,3.0782847,-0.6273423,-0.00021029453,-0.09379206,0.017082723,0.0013742408,-0.004619738,0.0047960165,-0.00011627014,0.49367857,-1.3696011,1.8892125,-2.0890577,-1.5707811,2.4702377,-0.114674255,0.1216906,-0.15411817,0.026002228,0.0015337016,-0.11448369,0.095768064,0.11492168,-9.423578,0.8560339,47.647476,-1.0262718,-2.2630918,-3.4849396,-0.106391296,0.09550445,-0.12044215,25.0625,25.75,24.8125,26.875,27.25,27.5625
0.20005248,-0.27429637,-0.27256453,-1.9042456,0.008768351,0.029192163,-0.0767789,-0.39859933,-0.366965,0.060032662,3.0782616,-0.6273364,-0.00022480283,-0.09504622,0.016945438,0.002112731,-0.0050776456,0.005780103,-0.0006604107,0.49349868,-1.3693728,1.8889254,-2.0890214,-1.5707692,2.4700572,-0.11549213,0.12245386,-0.15695664,0.026995828,0.001470664,-0.11475624,0.019153614,0.11492168,-9.442732,0.8247004,47.64479,-1.1323748,-2.1818638,-3.4263458,-0.09544849,0.09538688,-0.099800296,25.0625,25.75,24.8125,26.875,27.25,27.5625
0.20205274,-0.41869232,-0.36869648,-1.866234,0.0037516975,0.033881687,-0.08457152,-0.39878926,-0.36689168,0.06001399,3.0782971,-0.6273633,-0.00017731627,-0.096006855,0.016955413,0.0023128123,-0.005094083,0.0059717335,-0.0032038447,0.4932111,-1.3691198,1.8886498,-2.08895,-1.5707811,2.469782,-0.11626633,0.12371966,-0.15911175,0.02770815,0.0013877213,-0.11298607,-0.038307227,0.17238252,-9.442732,0.86945957,47.661808,-1.0985928,-2.3569124,-3.430905,-0.09055677,0.09692406,-0.07552519,25.0625,25.75,24.8125,26.875,27.25,27.5625
0.20405205,-0.92492545,-0.47614083,-1.9538621,-0.016109344,0.041333184,-0.07269919,-0.39896992,-0.3668852,0.060022894,3.0782425,-0.62737346,-0.00015492665,-0.0964148,0.017746322,0.0010479011,-0.0036815344,0.0032310344,-0.0087062055,0.49300677,-1.3688668,1.8883141,-2.0888894,-1.570733,2.4695911,-0.11793864,0.12654997,-0.1598743,0.028728915,0.0014448006,-0.109155476,-0.11492168,0.19153613,-9.461885,0.76874626,47.66271,-1.0825695,-2.1197598,-3.462183,-0.07717854,0.098404974,-0.13004851,25.0625,25.75,24.8125,26.875,27.25,27.5625
0.20605215,-1.7497479,-1.0950189,-2.1681244,-0.01475024,0.04303923,-0.0632255,-0.39916974,-0.3668555,0.06003049,3.0782535,-0.6273397,-0.00020429962,-0.09748443,0.018185802,0.0015277693,-0.0036077562,0.0032551864,-0.014538034,0.49279085,-1.3686026,1.887968,-2.0888288,-1.5707568,2.469353,-0.11953486,0.12710676,-0.16202241,0.030332116,0.0013701589,-0.10491903,-0.22984336,0.22984336,-9.653421,0.85155696,47.691364,-1.1230128,-2.2239962,-3.444374,-0.09084683,0.09672648,-0.17334679,25.0625,25.75,24.8125,26.875,27.25,27.5625
0.20805217,-1.90374,-1.225382,-2.0188656,-0.028331336,0.06462903,-0.06915702,-0.39934805,-0.36681268,0.060025122,3.0782602,-0.6273814,-0.00014714625,-0.09855289,0.018718801,0.0017439385,-0.0033710606,0.0029126406,-0.020304443,0.49255073,-1.3683497,1.8876566,-2.088733,-1.5707453,2.4691381,-0.12130306,0.12807359,-0.16402611,0.031784654,0.001319339,-0.10092007,-0.47884035,0.21068975,-9.691729,0.82694155,47.682407,-1.0900052,-2.238017,-3.485275,-0.10858849,0.09659433,-0.23219451,25.0625,25.75,24.8125,26.875,27.25,27.5625
0.21005227,-2.1499796,-1.8775734,-2.039123,-0.034728855,0.08410722,-0.0712324,-0.399567,-0.3667764,0.060050424,3.0782096,-0.6274868,-0.00022732388,-0.09923535,0.018701978,0.0011810261,-0.0028024646,0.0016757692,-0.023511143,0.49229908,-1.3681085,1.8872975,-2.0886724,-1.5707568,2.4689589,-0.12187676,0.13071892,-0.16611388,0.03258491,0.0014065831,-0.09828603,-0.5554548,0.22984336,-9.653421,0.86945957,47.698532,-1.0884323,-2.011976,-3.5068421,-0.10749161,0.09262435,-0.29280746,25.0625,25.75,24.8125,26.875,27.25,27.5625
0.2120524,-2.4809186,-1.6931039,-1.8764124,-0.040021952,0.09490253,-0.070351355,-0.3997409,-0.36673948,0.06004712,3.0781908,-0.62752324,-0.00015985196,-0.101062566,0.020100215,0.0005084245,-0.0021086014,0.0002555893,-0.029088734,0.49205807,-1.3678674,1.886998,-2.0885885,-1.570721,2.468743,-0.12584175,0.13337281,-0.16795927,0.033359658,0.0014616755,-0.09667255,-0.61291564,0.2681506,-9.691729,0.9097417,47.73614,-0.98381495,-2.1805696,-3.420816,-0.09769753,0.08822447,-0.32390308,25.0625,25.75,24.8125,26.875,27.25,27.5625
0.21405251,-2.285969,-1.5940286,-1.7745242,-0.032939278,0.1022619,-0.07434579,-0.3999772,-0.36668435,0.060054336,3.0781486,-0.6276661,-0.00021156335,-0.101376645,0.018310951,0.000466991,-0.00263829,0.00073877024,-0.026883267,0.4917598,-1.3675898,1.8866395,-2.0885408,-1.570733,2.4685395,-0.12319808,0.13624282,-0.17127368,0.033126585,0.0016961605,-0.09623295,-0.8236054,0.2681506,-9.519346,0.7642693,47.71465,-1.1257001,-2.2355566,-3.2746644,-0.0928647,0.094310224,-0.36366463,25.0625,25.75,24.8125,26.875,27.25,27.5625
0.21605173,-2.2650976,-1.1541449,-1.7484263,-0.03346158,0.10126112,-0.07176705,-0.4001796,-0.36665708,0.06006004,3.0781147,-0.62779444,-0.00022428244,-0.10311702,0.01872137,0.0007656477,-0.0033523717,0.001803881,-0.029763164,0.4915315,-1.3673134,1.88628,-2.0884688,-1.570733,2.4683957,-0.12546296,0.13739216,-0.17325974,0.032687314,0.0018189868,-0.0956172,-0.7469909,0.24899697,-9.519346,0.8224646,47.68599,-0.9374895,-2.1726701,-3.255176,-0.08528705,0.08031854,-0.3940359,25.0625,25.75,24.8125,26.875,27.25,27.5625
0.21805178,-2.2657552,-1.0216397,-1.6121287,-0.028926257,0.09781034,-0.075424425,-0.4004032,-0.36663213,0.06006806,3.0780609,-0.6278587,-0.00026813068,-0.103938274,0.01787606,0.00087317964,-0.0040626046,0.0024083422,-0.030309467,0.49128053,-1.3670243,1.8859085,-2.0884335,-1.5707206,2.4681919,-0.12492371,0.1393553,-0.17582563,0.032422557,0.0021588684,-0.09453077,-0.7086837,0.24899697,-9.481039,0.85155696,47.664497,-1.2258904,-2.2541387,-3.3329024,-0.07768697,0.08068424,-0.44912553,25.0625,25.75,24.8125,26.875,27.25,27.5625
0.22005169,-1.8230429,-1.3382114,-1.5206304,-0.012945089,0.10423368,-0.07499776,-0.40059018,-0.36659592,0.06005448,3.0780694,-0.6278604,-0.0002512865,-0.104940996,0.019013816,0.0005961634,-0.0038580208,0.0021952358,-0.031235106,0.49105173,-1.3667482,1.8855985,-2.0883858,-1.570721,2.4679632,-0.12761611,0.13984904,-0.1757604,0.03214887,0.002078416,-0.096297465,-0.8236054,0.24899697,-9.308656,0.8157518,47.67166,-1.0781581,-2.1276486,-3.3150141,-0.051974945,0.07402598,-0.4727287,25.0625,25.75,24.8125,26.875,27.25,27.5625
0.22205174,-2.0849457,-0.748308,-1.6200336,-0.006547112,0.08549649,-0.07365537,-0.400817,-0.36655873,0.06006738,3.0780442,-0.62792826,-0.00033090942,-0.10569759,0.019218976,0.0002204775,-0.0035353024,0.0016511284,-0.028731147,0.49080026,-1.366471,1.8852271,-2.0883377,-1.5707453,2.4677575,-0.1285498,0.14165692,-0.17715165,0.03236257,0.002053971,-0.099734284,-0.6703765,0.17238252,-9.3661175,0.8627467,47.689575,-1.17135,-2.3564348,-3.2768736,-0.048809167,0.085111804,-0.47906566,25.0625,25.75,24.8125,26.875,27.25,27.5625
0.2240519,-1.5493817,-1.0169816,-1.3479666,-0.004862312,0.088301264,-0.07103759,-0.40105054,-0.3665335,0.06010793,3.0779488,-0.6280977,-0.00044199015,-0.10588771,0.020004408,-0.0012895046,-0.0013451579,-0.0019070635,-0.023492802,0.490548,-1.3662297,1.8848327,-2.088277,-1.5707453,2.4676232,-0.12980844,0.1451368,-0.17833865,0.034241516,0.0018124706,-0.10623003,-0.53630114,0.095768064,-9.251195,0.8940802,47.69763,-1.0591806,-2.257861,-3.3488016,-0.053978387,0.09392235,-0.47382784,25.0625,25.75,24.8125,26.875,27.25,27.5625
0.22605225,-1.7830571,-0.7988545,-1.1961516,-0.006343973,0.07069917,-0.07083123,-0.40129122,-0.36648226,0.06010212,3.0778964,-0.6281802,-0.00041768592,-0.10757266,0.021590596,-0.0003408375,-0.0014867248,-0.000818522,-0.02117696,0.49022365,-1.3659178,1.8844622,-2.088229,-1.5707091,2.4673572,-0.13364904,0.14389771,-0.1793259,0.035446998,0.0014284883,-0.11238603,-0.49799395,0.095768064,-9.174581,0.8179876,47.704796,-1.0678277,-2.1669333,-3.4324188,-0.04031436,0.077918634,-0.3997847,25.0625,25.75,24.8125,26.875,27.25,27.5625
0.22805242,-1.6356239,-0.34917092,-1.0518544,0.0064252894,0.065790825,-0.07085043,-0.40149873,-0.36644807,0.06010182,3.0779042,-0.62817293,-0.0003749129,-0.107982054,0.020920865,-0.000623442,-0.0013344261,-0.00079052156,-0.010286152,0.4899727,-1.3656167,1.8840784,-2.0881212,-1.5706972,2.4671009,-0.13273054,0.14601554,-0.1812167,0.035269655,0.0012768913,-0.12235725,-0.49799395,-0.11492168,-9.097966,0.83589023,47.65912,-1.0682148,-2.2616005,-3.4154499,-0.027801743,0.07058599,-0.3410046,25.0625,25.75,24.8125,26.875,27.25,27.5625
0.23005256,-0.9019855,0.27872846,-0.9459259,0.022629613,0.07563836,-0.08158808,-0.40173018,-0.3664045,0.060112815,3.0778327,-0.62829053,-0.00043261,-0.10895504,0.02102726,-0.00038348694,-0.0013873816,-0.000516774,-0.006490771,0.48968482,-1.365352,1.8837312,-2.0880969,-1.5706853,2.4668956,-0.13365148,0.14707269,-0.18321471,0.03594651,0.0012010057,-0.12707263,-0.30645782,-0.19153613,-8.887277,0.8672237,47.651955,-1.0504122,-2.1539295,-3.4021773,-0.019424053,0.07323778,-0.2519553,25.0625,25.75,24.8125,26.875,27.25,27.5625
0.23205163,-0.88207227,0.5368787,-0.76670676,0.047999855,0.05248886,-0.07378254,-0.4019541,-0.3663724,0.060102444,3.0778682,-0.62821794,-0.0004511045,-0.109278604,0.021557547,-0.0016357386,0.0004083334,-0.0038453646,-0.0037917153,0.48944497,-1.3650142,1.8833369,-2.0880363,-1.5707091,2.4666061,-0.13474168,0.15056463,-0.18508534,0.038104795,0.0011829766,-0.13086088,-0.17238252,-0.19153613,-8.887277,0.8403672,47.716442,-1.0363042,-2.3385155,-3.3728604,-0.01976265,0.082585864,-0.20213893,25.0625,25.75,24.8125,26.875,27.25,27.5625
0.23405166,-0.5325498,1.00762,-0.79729676,0.058466524,0.041298702,-0.0712743,-0.40221497,-0.36631885,0.060126904,3.0777965,-0.62833595,-0.0005382393,-0.110745415,0.020955956,6.4965425e-05,-0.0010746482,-0.0013401126,-0.0036157873,0.4891217,-1.3647386,1.8829406,-2.0879881,-1.5707091,2.4663658,-0.13503776,0.15015396,-0.1887584,0.03928031,0.001318223,-0.13133182,-0.19153613,-0.24899697,-8.734048,0.87617236,47.685097,-1.0508276,-2.1625612,-3.3794093,-0.027115658,0.07047169,-0.15960094,25.0625,25.75,24.8125,26.875,27.25,27.5625
0.23605172,0.42079243,1.2941425,-0.74212086,0.059822664,0.03459043,-0.0780043,-0.40239486,-0.36625835,0.06008887,3.077889,-0.6282587,-0.00048412077,-0.1108279,0.021555515,0.0009772944,-0.00064019306,-0.002143807,-0.005378949,0.48888177,-1.3644385,1.8826541,-2.087927,-1.5707453,2.4660661,-0.13604113,0.14884597,-0.19011658,0.04285581,0.0013072722,-0.13057216,-0.11492168,-0.1340753,-8.695741,0.80456203,47.67614,-1.1400639,-2.0833747,-3.4364069,-0.05869464,0.07332705,-0.14664629,25.0625,25.75,24.8125,26.875,27.25,27.5625
0.23805174,0.09552139,0.5196989,-0.9426217,0.065546155,0.0051888153,-0.071813576,-0.40265384,-0.3662241,0.06012593,3.0777907,-0.6284158,-0.0005161188,-0.11069822,0.02163898,0.00091092003,0.00029754516,-0.003876013,-0.012936456,0.48857057,-1.3641498,1.8821996,-2.0878184,-1.5707091,2.4658656,-0.13596441,0.14979018,-0.19173416,0.045504034,0.0012984517,-0.12293737,-0.019153614,-0.1340753,-8.829816,0.9835985,47.679718,-1.2541573,-2.025157,-3.280909,-0.08733542,0.07622835,-0.23066719,25.0625,25.75,24.8125,26.875,27.25,27.5625
0.2400518,0.0452637,0.17626728,-1.2400736,0.03830623,0.0061841724,-0.07149858,-0.4028485,-0.3661759,0.06009597,3.0778573,-0.62845,-0.00043682076,-0.11213231,0.021712162,0.0013310785,9.110946e-05,-0.003159402,-0.017558903,0.48833057,-1.3638133,1.8818401,-2.0877106,-1.570733,2.4656386,-0.1371932,0.15117018,-0.19454648,0.046204776,0.0011275164,-0.119542524,-0.05746084,-0.019153614,-8.887277,0.84484416,47.686886,-1.1255847,-2.0021513,-3.269599,-0.09762719,0.092629276,-0.2527262,25.0625,25.75,24.8125,26.875,27.25,27.5625
0.242052,-0.0031834757,-0.44125804,-1.4728764,0.009493999,0.016648084,-0.07217964,-0.40308738,-0.3661102,0.06010293,3.077852,-0.6285629,-0.00040254305,-0.111359514,0.022626298,8.3943945e-05,0.002786036,-0.008091466,-0.020113152,0.48800746,-1.3635122,1.8814334,-2.087577,-1.570733,2.4653869,-0.1379031,0.15337262,-0.19535162,0.050428145,0.0010629048,-0.11769786,-0.095768064,0.11492168,-9.059659,0.8873621,47.690468,-1.2829804,-1.9637072,-3.199144,-0.13436681,0.09019282,-0.31195107,25.0625,25.75,24.8125,26.875,27.25,27.5625
0.2440522,0.056702722,-0.81801176,-1.7055614,-0.013151367,0.04100231,-0.07597725,-0.4032887,-0.3660453,0.060070142,3.077909,-0.6286324,-0.00026853292,-0.11147567,0.023447063,-7.049319e-05,0.004247372,-0.010532477,-0.021562029,0.4877192,-1.3631754,1.8810743,-2.0874445,-1.570733,2.4651349,-0.13920552,0.15424185,-0.19688411,0.053933635,0.00090523734,-0.117550954,0.019153614,0.19153613,-9.308657,0.8717007,47.68599,-1.1946338,-2.006425,-3.2243772,-0.21098639,0.08605759,-0.3290009,25.0625,25.75,24.8125,26.875,27.25,27.5625
0.24605222,-0.8937184,-1.890026,-2.127035,-0.016072951,0.039392684,-0.06513794,-0.40349823,-0.36599565,0.06006665,3.0779157,-0.6287121,-0.0001949855,-0.11378864,0.02550141,-0.0004921998,0.0051371786,-0.011957153,-0.027447458,0.48744202,-1.3628746,1.8806919,-2.0873125,-1.570721,2.4649067,-0.14454092,0.15653403,-0.19907238,0.055507477,0.0007760558,-0.116999835,0.076614454,0.30645782,-9.423578,0.83813137,47.709274,-1.0763167,-2.0112357,-3.2565527,-0.2680716,0.08551504,-0.33638388,25.0625,25.75,24.8125,26.875,27.25,27.5625
0.24805224,-0.77358556,-2.095391,-2.1539478,-0.04579241,0.050444912,-0.07238987,-0.40370625,-0.36594486,0.060062766,3.077945,-0.6287742,-0.00014496276,-0.113602325,0.025171826,-0.0019580338,0.006436608,-0.0144318,-0.026807763,0.4871791,-1.3625731,1.8803095,-2.0871809,-1.570733,2.464679,-0.14374822,0.16016953,-0.20021382,0.05580742,0.00077510084,-0.11684599,0.11492168,0.40222588,-9.5385,0.8672237,47.684196,-1.0847404,-2.0128646,-3.2932577,-0.29359242,0.091833055,-0.37722084,25.0625,25.75,24.8125,26.875,27.25,27.5625
0.25005233,-0.8222546,-2.5183432,-2.3102944,-0.061648227,0.04827171,-0.06891367,-0.40395147,-0.36587664,0.06006297,3.077951,-0.6289092,-0.00011256006,-0.11487824,0.026280126,-0.0011878401,0.0057390523,-0.012978687,-0.027740505,0.48685467,-1.3622491,1.8798908,-2.0870492,-1.5707458,2.4644382,-0.1465953,0.15882991,-0.20037836,0.055700112,0.0007018792,-0.1187605,-0.038307227,0.45968673,-9.710882,0.80456203,47.677036,-0.9423668,-2.0322933,-3.3557405,-0.34449136,0.08801502,-0.38552386,25.0625,25.75,24.8125,26.875,27.25,27.5625
0.2520525,-1.1503165,-2.500267,-2.3050146,-0.0725066,0.04691668,-0.0709583,-0.4041464,-0.36582494,0.060033653,-3.0779796,0.6289866,-4.6532477e-05,-0.11555441,0.025256868,-0.0018766486,0.0054247943,-0.012431616,-0.021701984,0.48657957,-1.3619114,1.8795198,-2.0869057,-1.570721,2.464208,-0.14540984,0.16199067,-0.20221287,0.053746697,0.00069810345,-0.12361243,-0.05746084,0.51714754,-9.768343,0.8784135,47.71017,-1.0103148,-2.2481952,-3.3572989,-0.3516642,0.087966666,-0.3575056,25.0625,25.75,24.8125,26.875,27.25,27.5625
0.25405255,-1.6801025,-2.7870622,-2.4126725,-0.061808653,0.04895436,-0.064790405,-0.40437615,-0.36577922,0.060045265,-3.0779653,0.62905586,-7.668819e-05,-0.11569349,0.025822725,-0.003965512,0.0069715455,-0.015169363,-0.015794983,0.48629192,-1.3616099,1.8791021,-2.0867746,-1.5707096,2.4639654,-0.14633341,0.16581345,-0.20187068,0.052727297,0.0006024756,-0.13044243,-0.019153614,0.49799395,-9.730036,0.85826975,47.690468,-0.9312017,-2.2791643,-3.5309389,-0.37550092,0.09246437,-0.30546433,25.0625,25.75,24.8125,26.875,27.25,27.5625
0.2560517,-0.89111197,-1.8823378,-2.4568982,-0.062423896,0.07158905,-0.080389336,-0.40464684,-0.3657158,0.060058646,-3.077961,0.62908876,1.571005e-05,-0.117815524,0.026266407,-0.0041491734,0.0062652826,-0.0138947,-0.011141667,0.4859678,-1.3612968,1.8786825,-2.086715,-1.5707458,2.4636626,-0.14887002,0.16809222,-0.20383446,0.050950877,0.0006239067,-0.13763127,-0.076614454,0.51714754,-9.844957,0.9164598,47.682407,-1.1046169,-2.2954452,-3.4567604,-0.40261966,0.10153705,-0.21984985,25.0625,25.75,24.8125,26.875,27.25,27.5625
0.2580522,-1.3637182,-1.9734643,-2.439439,-0.051707014,0.06981094,-0.0705181,-0.4048945,-0.3656733,0.06004984,-3.0779424,0.6291172,-4.1734285e-05,-0.11884444,0.02466007,-0.004483737,0.004621083,-0.010986401,-0.0022346056,0.48566905,-1.360924,1.8782285,-2.0865977,-1.570733,2.4633842,-0.14705016,0.17070162,-0.20523664,0.046406068,0.000696891,-0.14471751,-0.1340753,0.49799395,-9.787497,0.87393653,47.66987,-1.1468997,-2.283635,-3.514208,-0.36953253,0.11269389,-0.10238777,25.0625,25.75,24.8125,26.875,27.25,27.5625
0.26005232,-1.3820001,-1.8912218,-2.184606,-0.051959578,0.07134828,-0.07067041,-0.40512994,-0.365642,0.06007167,3.077918,-0.6290918,-4.4860735e-06,-0.12004192,0.024578804,-0.0033668994,0.001673771,-0.008240586,-0.0020533954,0.4853931,-1.3606485,1.8778347,-2.086538,-1.5707086,2.4630957,-0.14869407,0.16906849,-0.20539947,0.044397373,0.0020228652,-0.14654468,-0.15322891,0.36391866,-9.768343,0.8537928,47.66808,-1.0747763,-2.3073084,-3.6574345,-0.36639372,0.10305184,-0.09522487,25.0625,25.75,24.8125,26.875,27.25,27.5625
0.26205242,-1.0824889,-2.0214663,-2.2009218,-0.050477993,0.07867611,-0.0741384,-0.40537772,-0.36557087,0.060053222,3.07795,-0.629138,1.6065038e-05,-0.12182138,0.024486078,-0.003770513,0.00027363372,-0.0070430413,-0.0067815953,0.48506942,-1.3602997,1.8774389,-2.086455,-1.5707325,2.462797,-0.15042342,0.17158687,-0.20695685,0.04171902,0.0026855296,-0.14354588,-0.15322891,0.2873042,-9.710882,0.92764956,47.696735,-1.1395023,-2.3495998,-3.658908,-0.3357926,0.07746713,-0.059102386,25.0625,25.75,24.8125,26.875,27.25,27.5625
0.26405248,-1.177375,-1.5544995,-2.0196927,-0.04903853,0.061947603,-0.071603365,-0.40562665,-0.36555335,0.06006186,3.0779169,-0.6290963,-1.0388013e-06,-0.12359099,0.025066853,-0.004078417,0.0005276012,-0.0068930904,-0.014368594,0.48480514,-1.3599511,1.8769845,-2.0863836,-1.5707086,2.462511,-0.15267855,0.17411065,-0.20930235,0.041531686,0.0023884298,-0.13821235,-0.1340753,0.21068975,-9.653421,0.8918391,47.717335,-0.9831749,-2.3656409,-3.6286144,-0.32511824,0.09061189,-0.09759785,25.0625,25.75,24.8125,26.875,27.25,27.5625
0.26605245,-0.8049959,-0.8459915,-1.6240623,-0.049407117,0.06762566,-0.0684207,-0.40586096,-0.36550486,0.060054112,3.0779345,-0.629083,2.7438418e-05,-0.1270249,0.024293955,-0.0022951807,-0.0019450559,-0.000881035,-0.021809097,0.48451725,-1.3596151,1.8765768,-2.0862887,-1.5707091,2.4622128,-0.15393987,0.17517953,-0.21405843,0.038750034,0.0017541272,-0.13203037,-0.4213795,0.2681506,-9.500193,0.8403672,47.682407,-1.045682,-2.4063787,-3.5153933,-0.29778337,0.09703174,-0.16899762,25.0625,25.75,24.8125,26.875,27.25,27.5625
0.26805213,-1.5341234,-1.4691627,-1.7451046,-0.007421261,0.06364887,-0.060133517,-0.4061215,-0.3654793,0.06005223,3.0778613,-0.6291847,-9.694642e-06,-0.12994608,0.023266694,-0.00026045687,-0.0051142573,0.005704103,-0.027311925,0.4842297,-1.3592558,1.8761443,-2.0862663,-1.5706853,2.4619982,-0.15453194,0.17493747,-0.21766166,0.035296477,0.0014838547,-0.12711781,-0.45968673,0.17238252,-9.3661175,0.88960326,47.668976,-0.9845754,-2.26909,-3.4794402,-0.24251473,0.115761936,-0.24087459,25.0625,25.75,24.8125,26.875,27.25,27.5625
0.27005258,-1.0410187,-0.09632713,-1.7784609,0.0040645646,0.08663795,-0.070164025,-0.40639886,-0.36541775,0.060064945,3.07782,-0.6293127,-3.6539197e-05,-0.13174155,0.02345267,0.00035289815,-0.0061868257,0.007669381,-0.033938654,0.48388213,-1.3589195,1.8756894,-2.0861704,-1.5706853,2.461736,-0.15632844,0.17565678,-0.21978201,0.034459215,0.0015174497,-0.122286804,-0.53630114,0.15322891,-9.423578,0.9030289,47.664497,-1.1511688,-2.211256,-3.4083853,-0.21906513,0.093146116,-0.32793558,25.0625,25.75,24.8125,26.875,27.25,27.5625
0.2720518,-1.7295246,-0.3538157,-1.7516356,0.023178676,0.08277607,-0.06372687,-0.406622,-0.36538425,0.060040615,3.0777853,-0.62938035,1.5905143e-05,-0.13130687,0.02249675,-0.00028187543,-0.005697111,0.0062173936,-0.032122437,0.4836072,-1.3585714,1.8753179,-2.0861342,-1.570649,2.4615078,-0.15440278,0.17801072,-0.22140832,0.03524892,0.0017583603,-0.122176945,-0.5554548,0.11492168,-9.442732,0.8940802,47.70032,-1.1254237,-2.0620632,-3.4445162,-0.20255587,0.094926625,-0.36246255,25.0625,25.75,24.8125,26.875,27.25,27.5625
0.27405214,-1.4246522,0.082098834,-1.4932244,-0.0021557559,0.09990979,-0.07336773,-0.4069041,-0.3653439,0.060063154,3.077715,-0.6295221,-2.8120128e-05,-0.13246508,0.022357326,0.0010620716,-0.008154049,0.007716351,-0.037919983,0.48328334,-1.358224,1.8748273,-2.0860384,-1.5706362,2.4612815,-0.15597732,0.17688383,-0.22327565,0.035770573,0.0032424307,-0.11795556,-0.6512229,0.0,-9.481039,0.84708,47.68599,-1.0726601,-2.1220756,-3.4693413,-0.19626382,0.055389237,-0.44425517,25.0625,25.75,24.8125,26.875,27.25,27.5625
0.27605236,-1.7463319,-0.30186924,-1.4699794,0.0018997465,0.10221082,-0.074617,-0.40717897,-0.36531645,0.060069114,3.077685,-0.6295527,-7.126915e-05,-0.13349254,0.022139514,0.0017423959,-0.009025618,0.009054324,-0.038119413,0.4829958,-1.3578402,1.8743356,-2.0859663,-1.5706366,2.4610171,-0.1564976,0.17719531,-0.22527869,0.035872992,0.0033960342,-0.11827589,-0.7086837,-0.095768064,-9.423578,0.83589023,47.64837,-1.1782972,-2.0405488,-3.484938,-0.17312223,0.055126764,-0.49691278,25.0625,25.75,24.8125,26.875,27.25,27.5625
0.27805263,-1.9934425,-0.022087382,-1.6797765,-0.015444474,0.100864075,-0.071875654,-0.40744013,-0.36527464,0.060096756,3.0776222,-0.6296703,-0.00014262916,-0.13422294,0.022582795,0.0017073427,-0.008292955,0.0090454575,-0.034271505,0.48269632,-1.3575399,1.8738927,-2.085883,-1.5706366,2.4607992,-0.1573797,0.17817266,-0.22657345,0.03654242,0.0027615386,-0.123004444,-0.47884035,-0.038307227,-9.461885,0.91421866,47.653748,-1.2741815,-2.0080104,-3.4482954,-0.1528725,0.05888466,-0.5216116,25.0625,25.75,24.8125,26.875,27.25,27.5625
0.28005174,-1.2561471,-0.49172106,-1.469189,-0.010840641,0.1205157,-0.077550344,-0.4077117,-0.36521944,0.060078938,3.0776079,-0.6297559,-0.00016566821,-0.13494897,0.022612812,0.001851035,-0.0072998195,0.009155742,-0.025080541,0.48237312,-1.3571559,1.8734626,-2.0858462,-1.570649,2.4605315,-0.15738565,0.17959225,-0.22897758,0.03789387,0.0018354097,-0.13219932,-0.47884035,-0.076614454,-9.481039,0.9231726,47.65106,-1.3528372,-1.9684196,-3.5081198,-0.1554372,0.06502296,-0.4496312,25.0625,25.75,24.8125,26.875,27.25,27.5625
0.2820525,-1.4305228,-0.2473759,-1.5385586,-0.002905034,0.105360255,-0.07776585,-0.40798432,-0.36516157,0.060094077,3.077564,-0.6298561,-0.00020795572,-0.1359202,0.02300433,0.0008280824,-0.006145898,0.007621811,-0.016085306,0.4820373,-1.3568312,1.8730181,-2.0857618,-1.570649,2.460264,-0.15858743,0.18308069,-0.2310095,0.038334418,0.0015317246,-0.14239478,-0.49799395,0.0,-9.442732,0.89631605,47.689575,-1.2995921,-2.0316415,-3.4972348,-0.12729375,0.07398501,-0.36744028,25.0625,25.75,24.8125,26.875,27.25,27.5625
0.2840526,-1.3346936,-0.09689964,-1.6549886,0.019520877,0.07956825,-0.07177324,-0.40827662,-0.36510786,0.06006779,3.0775423,-0.6299428,-0.00015387611,-0.13672787,0.024392147,0.00019254205,-0.0051736273,0.0061139558,-0.01016084,0.4816768,-1.3563873,1.872527,-2.0856903,-1.5706252,2.4599605,-0.1613804,0.18427157,-0.23127413,0.03920076,0.0013720066,-0.151112,-0.28730422,-0.05746084,-9.423578,0.88960326,47.703007,-1.1239977,-1.9780076,-3.4582794,-0.10836415,0.060783997,-0.2737911,25.0625,25.75,24.8125,26.875,27.25,27.5625
0.28605172,-1.2118847,0.30278453,-1.6795589,0.017543033,0.054813065,-0.0715809,-0.4085532,-0.3650623,0.060107403,3.077483,-0.62998325,-0.00027822418,-0.13677314,0.024418233,-0.0009302435,-0.0038588054,0.003824218,-0.005023133,0.48136574,-1.3560983,1.8720726,-2.0856178,-1.5706371,2.4596825,-0.16129224,0.18728445,-0.23262464,0.04017644,0.0012841237,-0.15616055,-0.2681506,-0.095768064,-9.461885,0.85826975,47.666286,-1.2828579,-2.21153,-3.5733795,-0.08713565,0.080950156,-0.19255343,25.0625,25.75,24.8125,26.875,27.25,27.5625
0.28805172,-1.0150142,-0.27210078,-1.5815107,0.015899008,0.043622207,-0.07184361,-0.40882394,-0.3650204,0.060072917,3.0775337,-0.6299343,-0.00022905765,-0.13734235,0.024162346,-0.0014697865,-0.0029588258,0.0026222817,-0.002997779,0.48106608,-1.3556415,1.8715814,-2.0855339,-1.570649,2.459346,-0.16109651,0.19021153,-0.23528345,0.041390013,0.0010337527,-0.15798879,-0.2873042,0.0,-9.423578,0.8784135,47.66091,-1.386939,-2.2716935,-3.5653238,-0.082022995,0.07627174,-0.14450411,25.0625,25.75,24.8125,26.875,27.25,27.5625
0.290052,-0.3726389,-0.23378338,-1.7306828,-0.009369008,0.059843145,-0.0720405,-0.40910858,-0.36496788,0.06010473,3.0774772,-0.6299843,-0.00031488872,-0.13803422,0.024884941,-0.0018891358,-0.0020224773,0.0013537126,-0.010177968,0.48072964,-1.3553292,1.8711137,-2.0854495,-1.570649,2.4590483,-0.1626378,0.19181868,-0.23661233,0.04267041,0.0008007453,-0.15234903,-0.28730422,0.019153614,-9.385271,0.8605109,47.65912,-1.4451711,-2.2687786,-3.588269,-0.077972315,0.092727184,-0.1962975,25.0625,25.75,24.8125,26.875,27.25,27.5625
0.2920521,-0.6330893,-0.90814066,-1.7027228,-0.0151928915,0.053547528,-0.07994088,-0.40939265,-0.36489582,0.060099185,3.0774627,-0.63010263,-0.00032441822,-0.13984478,0.025628798,-0.0012388828,-0.0021497929,0.0016458421,-0.019738495,0.48036864,-1.3549572,1.8706588,-2.085365,-1.570661,2.4587631,-0.16531374,0.1928276,-0.23978679,0.04451624,0.00077421585,-0.14546338,-0.19153613,0.1340753,-9.404425,0.9321212,47.704796,-1.3182405,-2.3109355,-3.6147642,-0.07177943,0.073525414,-0.24263792,25.0625,25.75,24.8125,26.875,27.25,27.5625
0.29405242,-0.23766337,-1.5060788,-1.597144,-0.043281663,0.055956744,-0.077323385,-0.4096885,-0.3648326,0.06009756,3.077477,-0.6301649,-0.00033310696,-0.1410493,0.02615817,-0.0015516537,-0.0015424344,0.0006241837,-0.025012579,0.4800202,-1.3545489,1.8701428,-2.085245,-1.5706857,2.458452,-0.16707182,0.1951933,-0.24230556,0.045852914,0.00070276303,-0.14194629,-0.13407528,0.22984336,-9.461885,0.9186956,47.674347,-1.2856737,-2.0981588,-3.5060477,-0.069288716,0.07075551,-0.31548655,25.0625,25.75,24.8125,26.875,27.25,27.5625
0.2960525,-0.59551245,-2.1125035,-1.2973523,-0.05636175,0.04269381,-0.06352358,-0.40996286,-0.36479428,0.060111888,3.0774188,-0.6302327,-0.00032473294,-0.14211668,0.027704312,-0.0011320104,-0.001575434,0.00087086443,-0.0294102,0.47969496,-1.3541898,1.8696526,-2.0851371,-1.5706495,2.4581766,-0.1703995,0.19413608,-0.24221088,0.04658718,0.00062340795,-0.14087664,-0.15322891,0.30645782,-9.32781,0.8403672,47.687782,-1.1819487,-2.192788,-3.5426323,-0.07142093,0.091123894,-0.35799393,25.0625,25.75,24.8125,26.875,27.25,27.5625
0.2980525,-0.70136744,-1.8368914,-1.4173392,-0.040857393,0.038748644,-0.064104535,-0.41024888,-0.36471453,0.06008468,3.0774343,-0.6303697,-0.00033093814,-0.14380935,0.027343504,-0.00010252377,-0.0026403714,0.0028645422,-0.030874211,0.4793351,-1.353782,1.8692087,-2.085077,-1.5706857,2.4579005,-0.17115164,0.19499543,-0.24575008,0.04700216,0.0006389969,-0.14016362,-0.19153613,0.36391866,-9.193734,0.8560339,47.64658,-1.2929434,-2.115353,-3.5008671,-0.07058043,0.09432363,-0.381876,25.0625,25.75,24.8125,26.875,27.25,27.5625
0.30005246,-0.7996985,-0.96721786,-1.5235009,-0.03549176,0.037676405,-0.078063376,-0.41052926,-0.3647027,0.060135763,3.0773149,-0.63038355,-0.00040012234,-0.1444809,0.027381092,0.0003348658,-0.0031586415,0.0039101494,-0.031037614,0.47903475,-1.3534701,1.8686947,-2.0849812,-1.5706257,2.4576242,-0.1716628,0.19493532,-0.24668458,0.0468389,0.00063066615,-0.14051111,-0.038307227,0.4213795,-9.212888,0.9186956,47.63315,-1.1460705,-2.0416129,-3.6150508,-0.033967234,0.10354482,-0.38787848,25.0625,25.75,24.8125,26.875,27.25,27.5625
0.30205178,-0.618145,-1.2827715,-1.1383322,-0.034690756,0.04835978,-0.07721021,-0.4108024,-0.36461416,0.0600985,3.077398,-0.63051176,-0.00034084063,-0.14615145,0.027581317,0.00077552383,-0.003592071,0.004731729,-0.0263509,0.4786864,-1.3530378,1.8682274,-2.084849,-1.5706857,2.4573455,-0.173317,0.19641596,-0.24968188,0.04741916,0.00062194053,-0.14685102,-0.038307227,0.40222588,-9.193734,0.9768804,47.67614,-1.0927178,-1.9761367,-3.4599605,-0.027072277,0.09724054,-0.389459,25.0625,25.75,24.8125,26.875,27.25,27.5625
0.30405182,-0.8606644,-1.6642259,-1.2209085,-0.013713987,0.04560746,-0.0758414,-0.4111211,-0.3645728,0.060108304,3.0773132,-0.63060683,-0.00040078964,-0.14759988,0.028035706,-0.00050909375,-0.0023626306,0.0021912733,-0.022848664,0.47832564,-1.3526286,1.8677,-2.084801,-1.570661,2.457055,-0.1752368,0.2013959,-0.25315672,0.04873966,0.00070986286,-0.15227136,-0.17238252,0.36391866,-9.251195,0.91198283,47.687782,-1.1323106,-1.9784021,-3.4226165,-0.029275592,0.09685832,-0.31832355,25.0625,25.75,24.8125,26.875,27.25,27.5625
0.3060521,-0.69432455,-0.7129712,-1.0757,-0.023701346,0.057945132,-0.087688304,-0.41140014,-0.3645243,0.060100522,3.077288,-0.63063693,-0.000375692,-0.14908355,0.029532144,-0.00019548574,-0.0022757116,0.0018696099,-0.017700467,0.47798827,-1.3522332,1.8672208,-2.0847166,-1.5706371,2.45674,-0.17892343,0.20153518,-0.25444335,0.050217524,0.0007857641,-0.16110604,-0.17238252,0.28730422,-9.289502,0.8112748,47.696735,-0.9923339,-1.9521217,-3.430672,-0.03141039,0.09882173,-0.22745013,25.0625,25.75,24.8125,26.875,27.25,27.5625
0.3080521,-0.8701929,-0.5691535,-1.1657386,-0.017645936,0.060104784,-0.085841015,-0.41167128,-0.36447978,0.06009817,3.0772817,-0.6306505,-0.00032000281,-0.14871688,0.029757142,-0.00027368063,-0.0025850164,-0.00020192056,-0.011761351,0.47766432,-1.3518374,1.8667177,-2.084584,-1.5706128,2.4564254,-0.17959659,0.20153823,-0.25480866,0.052278124,0.002016055,-0.16771981,-0.21068975,0.21068975,-9.346964,0.9186956,47.682407,-1.1162457,-1.9805783,-3.4348154,-0.03343569,0.10197112,-0.12970844,25.0625,25.75,24.8125,26.875,27.25,27.5625
0.3100522,-1.3095084,-0.8670102,-1.1219698,-0.004010282,0.06172236,-0.07520149,-0.412005,-0.36442587,0.06011982,3.0772438,-0.630661,-0.00041545686,-0.1478699,0.028888926,-0.0009373029,-0.0017791556,-0.003143242,-0.009096035,0.4772929,-1.3514286,1.8661555,-2.0844996,-1.5706247,2.4560657,-0.17766026,0.20391181,-0.25684646,0.054921906,0.0026654426,-0.16844854,-0.22984336,0.11492168,-9.270349,0.8851263,47.68062,-1.0553274,-2.0220335,-3.534189,-0.038189135,0.079638176,-0.08663876,25.0625,25.75,24.8125,26.875,27.25,27.5625
0.31205228,-1.1713603,-0.32556596,-0.82254654,-0.015806954,0.08046056,-0.0816412,-0.41229725,-0.36435378,0.060093418,3.0772607,-0.63076437,-0.0003412266,-0.14887069,0.029803444,-0.00093005475,-0.000891811,-0.004738665,-0.015182179,0.47692016,-1.3509846,1.865651,-2.084379,-1.5706247,2.4557555,-0.17986403,0.20537023,-0.25936288,0.057805613,0.0025983022,-0.16456547,-0.4213795,0.076614454,-9.308656,0.92764956,47.703903,-1.0600452,-2.0608344,-3.4393406,-0.078414135,0.075904265,-0.09318757,25.0625,25.75,24.8125,26.875,27.25,27.5625
0.31405234,-1.2916287,0.09387563,-0.8210897,-0.0026616806,0.073001415,-0.08452347,-0.4126279,-0.36430472,0.06013149,3.07721,-0.6307956,-0.0004536023,-0.14902972,0.030147877,-0.00038315228,-0.00061431003,-0.004883581,-0.022390291,0.47656012,-1.3506012,1.8650764,-2.0842707,-1.5706366,2.4554217,-0.18031582,0.20474893,-0.2603397,0.05965886,0.0024294674,-0.15780878,-0.4405331,0.05746084,-9.155427,0.8605109,47.71286,-1.057377,-2.0103583,-3.4619436,-0.1050576,0.07600994,-0.15069911,25.0625,25.75,24.8125,26.875,27.25,27.5625
0.31605256,-1.4912483,0.048763953,-0.88700557,0.025819873,0.06340475,-0.07346145,-0.4128871,-0.36425194,0.06009167,3.0771902,-0.6308914,-0.0003030415,-0.14962779,0.029720379,-7.804977e-05,-0.00021844468,-0.0049814098,-0.029051902,0.47621235,-1.3501692,1.864622,-2.084174,-1.570577,2.4551363,-0.1797938,0.2062838,-0.26337302,0.061436076,0.0021039224,-0.15062396,-0.53630114,0.05746084,-9.078813,0.86945957,47.68599,-1.1759677,-1.991231,-3.594809,-0.114045985,0.07400473,-0.23254457,25.0625,25.75,24.8125,26.875,27.25,27.5625
0.31805158,-0.83541656,0.65804565,-0.6079665,0.016902698,0.07815882,-0.095715895,-0.41318837,-0.36418924,0.06010677,3.077202,-0.63095075,-0.00037582027,-0.14733674,0.02903411,-0.0014158846,0.0028122712,-0.010435046,-0.029156482,0.47587755,-1.3497844,1.8640946,-2.0840523,-1.5706252,2.4548373,-0.17642945,0.20881315,-0.26458588,0.066349626,0.0019175151,-0.14715433,-0.4405331,-0.095768064,-9.059659,0.91421866,47.65912,-1.3690255,-2.1146307,-3.5512195,-0.16219896,0.06231332,-0.3104336,25.0625,25.75,24.8125,26.875,27.25,27.5625
0.32005182,-1.0804423,0.5352692,-0.728244,0.023622526,0.066788815,-0.08964959,-0.41346735,-0.3641217,0.060094498,3.0771766,-0.6311394,-0.00031928485,-0.14767338,0.028312333,-0.002300381,0.0031613207,-0.010918388,-0.03302429,0.47551775,-1.3493879,1.8636154,-2.0839336,-1.5706133,2.4545987,-0.17532326,0.21193653,-0.26624104,0.06547323,0.0018117041,-0.14217937,-0.4213795,-0.05746084,-9.059659,0.91198283,47.63315,-1.4554062,-2.0383523,-3.5480282,-0.19626574,0.08092647,-0.385514,25.0625,25.75,24.8125,26.875,27.25,27.5625
0.3220521,-0.9373498,0.3262669,-0.96857256,0.029692156,0.056758,-0.088668935,-0.4137987,-0.364076,0.06010167,3.077164,-0.6312361,-0.00030347682,-0.15000445,0.029169722,-0.0015315276,0.002597801,-0.010126579,-0.038730938,0.47515658,-1.3489078,1.8629798,-2.0837657,-1.5706133,2.4542997,-0.17867494,0.21313705,-0.2698585,0.06692839,0.0019393524,-0.1398234,-0.38307226,-0.05746084,-9.097966,0.9835985,47.70032,-1.3342929,-2.0750878,-3.57121,-0.20816812,0.07324597,-0.4598962,25.0625,25.75,24.8125,26.875,27.25,27.5625
0.3240524,-0.9955408,-0.12080306,-0.87414694,0.0116452705,0.04469202,-0.09238804,-0.4141093,-0.36399817,0.06009399,3.0771651,-0.6313495,-0.00025491277,-0.15060768,0.029876783,-0.0022186302,0.0047242637,-0.014273245,-0.038152583,0.4747603,-1.3484752,1.86244,-2.0836194,-1.5706133,2.4539742,-0.18021703,0.21671052,-0.27386826,0.07202615,0.0019379539,-0.14194238,-0.24899697,0.038307227,-9.11712,0.91421866,47.660015,-1.4709737,-2.0568287,-3.4953566,-0.27314243,0.07723394,-0.50456774,25.0625,25.75,24.8125,26.875,27.25,27.5625
0.3260524,-0.9730456,-0.47640783,-1.1553193,0.0018564176,0.034677498,-0.08364884,-0.41438347,-0.3639155,0.060063194,3.0772083,-0.6314695,-0.00012344362,-0.15275571,0.030414632,-0.0019006784,0.003786668,-0.012473597,-0.03203873,0.4743875,-1.3480431,1.8619484,-2.083453,-1.5706133,2.453671,-0.18280788,0.21803306,-0.27600268,0.07081117,0.0019235915,-0.1506465,-0.2681506,0.11492168,-9.174581,0.90527004,47.67614,-1.3751187,-2.129477,-3.4329188,-0.30245113,0.058857903,-0.48143566,25.0625,25.75,24.8125,26.875,27.25,27.5625
0.32805255,-1.0362607,-0.6209261,-0.99606365,-0.018067982,0.03614229,-0.09499713,-0.41469714,-0.36387953,0.060065698,3.0771782,-0.6315351,-0.00012303345,-0.15379097,0.030293165,-0.0020593458,0.003780634,-0.0120781865,-0.023450704,0.47405136,-1.3475868,1.8613623,-2.0833333,-1.5706013,2.4533799,-0.18323396,0.2200348,-0.2781043,0.0705614,0.0017425083,-0.15965953,-0.21068975,0.13407528,-9.251195,0.8940802,47.664497,-1.3479588,-2.2597024,-3.3431315,-0.31899995,0.081036754,-0.37456268,25.0625,25.75,24.8125,26.875,27.25,27.5625
0.33005252,-0.8329946,-1.11867,-1.048101,-0.02776358,0.057856422,-0.088574156,-0.41501254,-0.36380458,0.060076557,3.0772057,-0.6316128,-0.00012791349,-0.15637843,0.030442743,-0.0013441464,0.0028139807,-0.009601629,-0.014829333,0.47367832,-1.3471662,1.8607873,-2.0831544,-1.5706371,2.453052,-0.18537183,0.22188015,-0.2818853,0.06984989,0.001456747,-0.17041707,-0.22984336,0.21068975,-9.212888,0.89631605,47.66091,-1.2324965,-2.3253102,-3.3339853,-0.33724982,0.084037535,-0.26005155,25.0625,25.75,24.8125,26.875,27.25,27.5625
0.33205175,-1.295139,-1.7518111,-1.2962286,-0.023906825,0.05813372,-0.08729862,-0.41530576,-0.36373875,0.060037937,3.0771956,-0.63164634,1.9005889e-05,-0.15862893,0.030965783,-0.000117291565,0.0011680328,-0.00566205,-0.012111753,0.47328162,-1.346699,1.8602837,-2.0830472,-1.570577,2.4526777,-0.18779446,0.2210909,-0.2833549,0.06786541,0.0011028091,-0.1755567,-0.28730422,0.2873042,-9.32781,0.947788,47.719128,-1.1724253,-2.1588113,-3.3113692,-0.35056153,0.10100722,-0.1845514,25.0625,25.75,24.8125,26.875,27.25,27.5625
0.33405188,-1.6306111,-1.6919003,-1.2750905,-0.043813407,0.066256404,-0.08277345,-0.41559795,-0.36367518,0.060016762,3.0772603,-0.6316411,0.000113169015,-0.15981647,0.031734154,-0.0020326017,0.0013436588,-0.006118011,-0.014784186,0.47293338,-1.3462303,1.8597225,-2.0828688,-1.570589,2.4523182,-0.18995439,0.22461933,-0.28251505,0.063981414,0.0011297683,-0.17504415,-0.4213795,0.40222588,-9.404425,0.9298854,47.675243,-1.2011497,-2.1060395,-3.386429,-0.33066162,0.08414072,-0.16154787,25.0625,25.75,24.8125,26.875,27.25,27.5625
0.33605212,-1.4689891,-2.2185323,-1.6147827,-0.052548375,0.078145206,-0.08124906,-0.41593847,-0.36358804,0.060017135,3.0772493,-0.6317774,8.695441e-05,-0.16054744,0.032678775,-0.0023063617,0.0013036276,-0.006054135,-0.022471711,0.47251266,-1.3457898,1.8591598,-2.0827491,-1.5706133,2.4519842,-0.19197313,0.22486696,-0.28212282,0.06326213,0.001133051,-0.16937566,-0.45968673,0.49799395,-9.385271,0.86945957,47.66091,-1.1137402,-2.1319208,-3.590098,-0.30190146,0.088759445,-0.21122536,25.0625,25.75,24.8125,26.875,27.25,27.5625
0.3380523,-1.9905431,-2.5798047,-1.513258,-0.070690595,0.0775044,-0.08268606,-0.41628098,-0.36352956,0.060040824,3.07719,-0.63190347,5.504285e-05,-0.16208398,0.032890644,-0.0015068789,-0.00071354315,-0.00237595,-0.029542282,0.47211623,-1.3453578,1.8585495,-2.082607,-1.5706013,2.4516742,-0.19352968,0.22383866,-0.2820382,0.06001407,0.001252581,-0.16386206,-0.4213795,0.40222588,-9.500193,0.842603,47.65912,-1.0483323,-2.0933435,-3.6902866,-0.30297035,0.08671362,-0.28089297,25.0625,25.75,24.8125,26.875,27.25,27.5625
0.3400526,-1.9843444,-2.6445246,-1.6424329,-0.06935281,0.08534723,-0.07652498,-0.41658178,-0.36345953,0.059991386,3.0772183,-0.632027,0.00016079661,-0.16510701,0.03227693,-0.0002833875,-0.0037168174,0.0031972358,-0.03398726,0.47174364,-1.3448517,1.8580226,-2.0825007,-1.5706013,2.4513752,-0.19499546,0.22471683,-0.28503132,0.055799574,0.0013638829,-0.16088215,-0.49799395,0.45968673,-9.595961,0.91421866,47.639416,-1.0110533,-2.0208738,-3.7651296,-0.25223494,0.09903433,-0.33439568,25.0625,25.75,24.8125,26.875,27.25,27.5625
0.34205168,-1.8310616,-1.9594592,-1.7102184,-0.053551547,0.086272545,-0.08403661,-0.41689813,-0.3634092,0.059981897,3.077208,-0.6320651,0.0001896412,-0.16662315,0.031904075,-0.0004052077,-0.0050506075,0.004753546,-0.03801372,0.4713833,-1.344383,1.8574475,-2.0823815,-1.570589,2.4510403,-0.1957871,0.22679694,-0.28687733,0.053573664,0.0018356938,-0.15764728,-0.38307226,0.3256114,-9.576807,1.0171678,47.723602,-0.92076266,-2.076278,-3.7268643,-0.23670179,0.07739222,-0.3717693,25.0625,25.75,24.8125,26.875,27.25,27.5625
0.344052,-1.6635419,-1.4195801,-1.6652606,-0.026114762,0.09066018,-0.08785226,-0.41725963,-0.36333218,0.05999532,3.0771773,-0.6321918,0.00012228197,-0.16798452,0.03196433,-0.00031302293,-0.005257455,0.004842161,-0.03816512,0.47096294,-1.343927,1.8568357,-2.0822618,-1.5706133,2.4507031,-0.19694448,0.22886214,-0.28985718,0.05431242,0.001983442,-0.15865235,-0.45968673,0.3256114,-9.576807,0.89631605,47.684196,-0.86744785,-2.148149,-3.6667154,-0.21442974,0.098801255,-0.3914258,25.0625,25.75,24.8125,26.875,27.25,27.5625
0.34605232,-1.3273437,-0.77781445,-1.7278987,-0.011493149,0.096844934,-0.09972802,-0.41757646,-0.36328408,0.059986267,3.0771108,-0.6323285,0.00014296797,-0.16865432,0.030290518,-0.00079965655,-0.0067446125,0.0062925555,-0.03259926,0.4705919,-1.3434736,1.8562859,-2.0821788,-1.5705765,2.450426,-0.1949693,0.23184218,-0.2917964,0.051309727,0.002644665,-0.16224301,-0.49799395,0.2681506,-9.595961,0.9701675,47.690468,-1.1089029,-2.1323938,-3.6070175,-0.15547428,0.07513034,-0.4083225,25.0625,25.75,24.8125,26.875,27.25,27.5625
0.34805173,-1.4246876,-0.59455,-1.9632133,-0.004554272,0.09299624,-0.09523172,-0.41792,-0.36324605,0.05997694,3.0770597,-0.63231105,0.00016185762,-0.1701171,0.028713569,-0.00061490154,-0.008342945,0.008110992,-0.02261766,0.47020838,-1.3429688,1.8556741,-2.0820959,-1.5705284,2.4500384,-0.19377424,0.2349883,-0.29582092,0.049852077,0.0032410957,-0.17102875,-0.36391866,0.28730422,-9.710882,0.95226496,47.70211,-1.3559387,-2.4357328,-3.5573606,-0.09104175,0.06210458,-0.3138676,25.0625,25.75,24.8125,26.875,27.25,27.5625
0.3500521,-1.5543842,-0.95236486,-1.7574601,-0.018426498,0.0850273,-0.09887689,-0.4182704,-0.3631919,0.059973832,3.0770464,-0.63235956,9.699609e-05,-0.17077404,0.02847873,-0.00024983278,-0.008034145,0.007480955,-0.013032543,0.46983638,-1.3424765,1.8550628,-2.082011,-1.5705527,2.4496987,-0.19377233,0.23648806,-0.29915023,0.052382734,0.0032605068,-0.18061088,-0.30645782,0.28730422,-9.691729,0.86945957,47.683304,-1.3934464,-2.3703744,-3.4783397,-0.101548865,0.059136856,-0.20289691,25.0625,25.75,24.8125,26.875,27.25,27.5625
0.35205227,-1.6654683,-1.3215274,-1.8725098,-0.034442596,0.067267664,-0.08434525,-0.41860294,-0.36309925,0.0599589,3.0770812,-0.6324403,0.0001383463,-0.1714835,0.029021423,-0.0002980447,-0.007200193,0.007116514,-0.007826701,0.46941584,-1.3420057,1.8544883,-2.081855,-1.5705765,2.4493244,-0.19473875,0.23756549,-0.30072656,0.05358477,0.002676173,-0.18678208,-0.22984336,0.21068975,-9.730036,0.9634547,47.68599,-1.299994,-2.3519206,-3.425056,-0.10889362,0.069290526,-0.081893586,25.0625,25.75,24.8125,26.875,27.25,27.5625
0.35405257,-1.2805417,-1.2672848,-1.9453986,-0.024414346,0.038415957,-0.082189195,-0.41899335,-0.36305726,0.06001122,3.0770214,-0.63240963,-4.940704e-05,-0.17291087,0.02980303,-0.0008019234,-0.00612208,0.0064332294,-0.009837356,0.4690312,-1.3415525,1.8537935,-2.0817473,-1.5706013,2.4489286,-0.19666052,0.24028179,-0.30317476,0.05441263,0.0020485495,-0.18669108,-0.076614454,0.22984336,-9.672575,0.86498255,47.675243,-1.2072365,-2.4549518,-3.4408083,-0.08764183,0.08097224,-0.07886695,25.0625,25.75,24.8125,26.875,27.25,27.5625
0.35605183,-1.2488078,-1.4013618,-2.0843916,-0.024998203,0.017209306,-0.08433571,-0.4193035,-0.36299232,0.059965268,3.0770352,-0.63247555,6.762879e-05,-0.17226152,0.031015718,-0.0022359882,-0.0042631403,0.0034673063,-0.01928631,0.46864715,-1.3410363,1.8532442,-2.081639,-1.570577,2.448584,-0.19775319,0.24133012,-0.3014921,0.055172607,0.00172344,-0.17833517,-0.3256114,0.21068975,-9.672575,0.88960326,47.66091,-1.3484113,-2.4680343,-3.6194835,-0.061698783,0.08858737,-0.14328296,25.0625,25.75,24.8125,26.875,27.25,27.5625
0.3580522,-0.598674,-1.1966258,-1.9204752,-0.0237267,0.037485436,-0.08366678,-0.41971058,-0.36294866,0.059999555,3.0769536,-0.63248223,-0.00011446821,-0.17304708,0.03156319,-0.0022373379,-0.0040645115,0.0035882147,-0.028646845,0.46823883,-1.3405412,1.8525494,-2.081579,-1.570589,2.4481907,-0.1989835,0.24200618,-0.302487,0.0554714,0.0015150028,-0.17020431,-0.19153613,0.038307227,-9.615114,0.9298854,47.65464,-1.3201323,-2.578591,-3.680616,-0.036448207,0.079748385,-0.22995475,25.0625,25.75,24.8125,26.875,27.25,27.5625
0.36005235,-0.76037234,-1.0208123,-1.7311095,-0.01302907,0.03698001,-0.091374196,-0.4200195,-0.36286053,0.059974328,3.0769346,-0.6326937,-5.2474275e-06,-0.1745626,0.031882674,-0.0025019334,-0.0033769077,0.003006025,-0.036534104,0.4678184,-1.3400881,1.8520216,-2.081435,-1.5705651,2.4479048,-0.20039225,0.24504109,-0.30598247,0.056766655,0.0011482795,-0.1637241,0.038307227,0.038307227,-9.634268,0.93436235,47.66091,-1.2997823,-2.4527662,-3.6600761,-0.024530621,0.0790222,-0.33177614,25.0625,25.75,24.8125,26.875,27.25,27.5625
0.36205247,-0.31839883,-0.6823832,-1.4329989,0.005995765,0.040966354,-0.092850626,-0.420404,-0.36278698,0.059963405,3.0768733,-0.63287866,-4.730419e-05,-0.17684436,0.03253344,-0.0002171312,-0.005151479,0.0064562126,-0.044618886,0.46737328,-1.3395609,1.8513869,-2.0813625,-1.5705651,2.4475832,-0.20319332,0.24306805,-0.3091515,0.058028676,0.0011804964,-0.15844001,-0.05746084,-0.019153614,-9.423578,0.94331104,47.684196,-1.1993928,-2.4373307,-3.6022248,-0.002500689,0.08819522,-0.41194898,25.0625,25.75,24.8125,26.875,27.25,27.5625
0.36405155,-0.15102094,0.21055621,-1.2636163,0.013938604,0.033293374,-0.09701083,-0.4207841,-0.36274847,0.059996203,3.0767796,-0.6329395,-0.00014057031,-0.17953897,0.033565428,0.0013595999,-0.006805365,0.008196919,-0.05160172,0.4669757,-1.3390818,1.8507036,-2.0812542,-1.5705408,2.4472358,-0.20737761,0.24287592,-0.3129776,0.059749447,0.0018867885,-0.15564129,-0.038307227,-0.05746084,-9.385271,0.9791215,47.682407,-1.0978557,-2.2264998,-3.5386415,0.012957076,0.08626442,-0.49964204,25.0625,25.75,24.8125,26.875,27.25,27.5625
0.3660517,-0.44885704,0.54348147,-1.4667195,0.033780377,0.021866575,-0.09299752,-0.4211366,-0.36266774,0.05998466,3.076774,-0.63310844,-0.0001722383,-0.18031955,0.033271655,0.0019999044,-0.007304421,0.0071675833,-0.04932904,0.46656793,-1.3385895,1.8501042,-2.081145,-1.5705765,2.4469345,-0.20789972,0.2441992,-0.31689188,0.06302805,0.0027993848,-0.15843602,-0.11492168,-0.019153614,-9.270349,0.8918391,47.67614,-1.0217724,-2.266722,-3.3823042,-0.0017645198,0.071174584,-0.4940637,25.0625,25.75,24.8125,26.875,27.25,27.5625
0.3680519,-0.28431344,0.49383694,-1.7261324,0.044846512,0.024335349,-0.09565598,-0.4214775,-0.3625818,0.059965245,3.0767686,-0.6332929,-0.00013558696,-0.1801108,0.03511013,0.001428196,-0.0058511,0.002669706,-0.04187513,0.46614698,-1.3380978,1.8495177,-2.081012,-1.570588,2.4466295,-0.2110109,0.24457927,-0.31721318,0.06763961,0.0035336749,-0.16900226,-0.095768064,0.019153614,-9.289502,0.9701675,47.666286,-0.89071953,-2.1572936,-3.395155,-0.027510481,0.07101819,-0.42814022,25.0625,25.75,24.8125,26.875,27.25,27.5625
0.37005192,-0.6710734,-0.045748807,-1.8624393,0.036740627,0.03162626,-0.09352051,-0.42182034,-0.36254185,0.059968974,3.0767183,-0.633314,-4.111349e-05,-0.17930144,0.035683446,-0.00023470804,-0.0026303756,-0.0031772628,-0.029893856,0.465751,-1.3375894,1.8488473,-2.0808308,-1.5705165,2.4462533,-0.21094035,0.24838756,-0.3193451,0.07265184,0.003290587,-0.18091182,-0.038307227,0.038307227,-9.423578,0.91198283,47.664497,-0.84766245,-2.3186867,-3.4397933,-0.06802498,0.055193733,-0.35578275,25.0625,25.75,24.8125,26.875,27.25,27.5625
0.372052,-1.0527503,-0.4960947,-1.7149118,0.008071381,0.051372595,-0.09875965,-0.42216066,-0.36245978,0.059955698,3.0767474,-0.63335365,3.3205248e-05,-0.17791793,0.036415905,-0.00047737375,-0.00016245329,-0.007383445,-0.0200532,0.46533084,-1.3370895,1.8482255,-2.0806491,-1.5705165,2.4458544,-0.21061191,0.24829575,-0.32008332,0.078353785,0.002974538,-0.19042395,-0.22984336,0.05746084,-9.442732,0.91198283,47.675243,-0.89005125,-2.3075337,-3.5480046,-0.13568269,0.0692096,-0.22847797,25.0625,25.75,24.8125,26.875,27.25,27.5625
0.3740522,-1.6720638,-1.5078019,-1.3857518,-0.017251572,0.08787235,-0.09295062,-0.42251927,-0.3623999,0.059978288,3.0767086,-0.63340145,7.00818e-05,-0.17765461,0.03687728,-0.00029555394,0.0015328875,-0.009484009,-0.017416187,0.464911,-1.3366098,1.8475417,-2.080444,-1.5704807,2.4454696,-0.21060944,0.24872665,-0.32207766,0.08256633,0.0024039645,-0.19305737,-0.47884035,0.019153614,-9.289502,0.87617236,47.670765,-1.0109496,-2.3159914,-3.5289264,-0.19462751,0.0799525,-0.1518647,25.0625,25.75,24.8125,26.875,27.25,27.5625
