Tylouw/Master_Thesis_Code/training_data/batch_1/rect_rod_t0.1/sample_20_session_1.csv
timestamp[s],tcp_force_x[N],tcp_force_y[N],tcp_force_z[N],tcp_force_rx[Nm?],tcp_force_ry[Nm?],tcp_force_rz[Nm?],tcp_pose_x[m],tcp_pose_y[m],tcp_pose_z[m],tcp_pose_rx[rot_vec_x],tcp_pose_ry[rot_vec_y],tcp_pose_rz[rot_vec_z],tcp_velo_x[m/s],tcp_velo_y[m/s],tcp_velo_z[m/s],tcp_velo_rx[rot_vec_x/s],tcp_velo_ry[rot_vec_y/s],tcp_velo_rz[rot_vec_z/s],q1[rad],q2[rad],q3[rad],q4[rad],q5[rad],q6[rad],qd1[rad/s],qd2[rad/s],qd3[rad/s],qd4[rad/s],qd5[rad/s],qd6[rad/s],tool_acc_x,tool_acc_y,tool_acc_z,current_of_whole_robot[A],voltage_of_whole_robot[V],current_J1[A],current_J2[A],current_J3[A],current_J4[A],current_J5[A],current_J6[A],temp_J1[C],temp_J2[C],temp_J3[C],temp_J4[C],temp_J5[C],temp_J6[C]
1.1969998e-06,-0.7212248,-0.9888382,-0.17568481,0.000843079,-0.0046777762,-0.0045530084,-0.38933858,-0.3687263,0.060017586,-3.07875,0.6249569,0.00019895106,0.00079614116,0.0004946763,-0.001066238,0.00045006856,-0.001120089,-4.1675212e-05,0.5050208,-1.3816679,1.9042119,-2.0919282,-1.5708174,2.4800253,-0.00018110653,-5.732903e-05,0.002856781,-0.0016020023,0.00015053977,-0.00014065277,0.17238252,0.19153613,-8.580819,0.784413,47.728977,-0.2488958,-3.0600345,-2.2942193,-0.22342226,0.17040427,0.028324401,24.625,25.125,24.3125,26.0625,26.1875,26.5
0.002052322,-0.5684212,-1.1504605,-0.18441133,0.0028984211,0.00877529,-0.0055194963,-0.38933194,-0.36870477,0.059991825,-3.0786672,0.6249591,0.00016700434,-0.0016458775,-0.00086460705,-0.00030676616,-0.0037898559,0.006516839,-3.8007383e-05,0.5050208,-1.3816319,1.9042233,-2.0919077,-1.5708655,2.4800372,-0.00017522946,-7.691421e-07,0.0031143932,-0.010651139,0.00014566642,-0.00013758104,0.095768064,0.19153613,-8.63828,0.69041777,47.701214,-0.23497957,-2.9274263,-2.286331,-0.15997872,0.17229751,0.03477841,24.625,25.125,24.3125,26.0625,26.1875,26.5
0.004052374,-0.6641444,-0.77479446,-0.0112562105,-0.0067128628,0.006064063,-0.0063672075,-0.38934582,-0.3687311,0.060023244,-3.0787702,0.6248836,0.00029659882,-0.0017354268,-0.000917471,-0.002079295,-0.0025996927,0.004366635,-3.4580855e-05,0.50504476,-1.3816785,1.9042233,-2.0919797,-1.5708536,2.480001,-0.00016972168,0.0038436302,0.0028642693,-0.011787789,0.00014109851,-0.00013464052,0.095768064,0.17238252,-8.542512,0.7620334,47.73256,-0.15447088,-3.3512034,-2.5421228,-0.06815654,0.16693941,0.024965063,24.625,25.125,24.3125,26.0625,26.1875,26.5
0.006051727,-0.19404313,-0.48941067,-0.16592224,0.00047313323,0.0035892134,-0.011054475,-0.3893547,-0.36873785,0.060021505,-3.0787644,0.6249979,0.00027033573,-0.0006223112,-0.00029965446,-0.0015515346,-0.00089541846,0.0013167721,-3.269967e-05,0.50503284,-1.381655,1.904199,-2.0919774,-1.5708297,2.480061,-0.00016455006,0.002454816,0.0020004695,-0.006041437,0.0001368084,-0.00013182308,-0.019153614,0.24899697,-8.523358,0.7911258,47.71823,-0.2038854,-3.2758126,-2.4583254,-0.0964149,0.17372316,0.037921574,24.625,25.125,24.3125,26.0625,26.1875,26.5
0.008051781,0.17972526,0.24498351,-0.4053725,0.021603711,-0.004948822,-0.008369443,-0.38934007,-0.368712,0.06000173,-3.0786946,0.62492627,0.0002334373,-0.00035986924,-0.00015439966,-0.00014859915,-0.00084347685,0.0012432546,-3.0784555e-05,0.50503284,-1.3816439,1.9042224,-2.0919402,-1.5708774,2.4800253,-0.00015968423,0.000117290976,0.00073146494,-0.002345421,0.0001327716,-0.00012912138,0.019153614,0.28730422,-8.63828,0.7105615,47.695843,-0.21895431,-3.2094107,-2.4077103,-0.12348922,0.19432303,0.023792468,24.625,25.125,24.3125,26.0625,26.1875,26.5
0.010051838,-0.21255879,-0.21468377,-0.9944839,0.040466428,-0.016807552,-0.0077903247,-0.38933837,-0.3687216,0.060014747,-3.078718,0.6249886,0.00018314461,0.00041920762,0.00028750615,-0.0002508505,0.00058839587,-0.0013240061,-3.0285371e-05,0.5050208,-1.3816559,1.9041985,-2.091903,-1.5708297,2.4800491,-0.00017208552,1.5736081e-06,0.00031285666,0.0011284852,0.00012896619,-0.00014223291,0.019153614,0.2681506,-8.925584,0.800085,47.734352,-0.67313886,-2.6133928,-2.9864175,-0.15231745,0.16467862,-0.0350528,24.625,25.125,24.3125,26.0625,26.1875,26.5
0.012051983,-0.4240389,-0.42819148,-1.0202805,0.007818866,-0.00051258516,-0.002095575,-0.38934416,-0.36870882,0.059992712,-3.0786839,0.6249818,0.00017657461,0.0010706652,0.00066849525,-0.0010509326,0.002260549,-0.0043311375,-4.1556855e-06,0.50500876,-1.3816196,1.9042109,-2.0919259,-1.5708536,2.4800372,-0.00020243082,0.0013412073,4.1973717e-06,0.0035382838,0.00012537284,-0.00019862245,0.076614454,0.15322891,-8.963891,0.7284641,47.71823,-0.7956977,-2.3584242,-3.1686924,-0.15224972,0.15613636,-0.09142701,24.625,25.125,24.3125,26.0625,26.1875,26.5
0.01405216,-0.9638163,-1.1527727,-1.153836,-0.013571601,0.012804929,-0.002604087,-0.38933182,-0.36871874,0.059990745,-3.0786872,0.6248869,0.000119185155,-0.004770962,0.002634703,-0.004811597,0.0048864223,-0.009113773,-0.0022570586,0.50502956,-1.3816022,1.9041842,-2.0918787,-1.5708417,2.4799984,-0.008983251,0.015590328,-0.0081197405,0.002868191,0.00012197449,-0.0067208735,0.0,0.13407528,-9.193734,0.7172743,47.666286,-0.4553647,-3.1562085,-3.004634,-0.11480452,0.1410065,-0.08614124,24.625,25.125,24.3125,26.0625,26.1875,26.5
0.016052004,-1.7839922,-1.9428464,-1.5070351,-0.024195263,0.02356141,-0.0025822835,-0.38934484,-0.36869738,0.059975024,-3.07865,0.62491494,6.2052e-05,-0.005760598,0.0028078305,-0.003762851,0.0037831296,-0.007072739,0.0026652978,0.50498134,-1.3815669,1.9041728,-2.0918548,-1.5708417,2.4799724,-0.010183528,0.014290973,-0.008921186,0.0026481475,9.659685e-05,-0.012843329,-0.15322891,0.2681506,-9.442732,0.72622824,47.695843,-0.44062895,-3.0302925,-3.0993285,-0.09446874,0.13539003,-0.019550461,24.625,25.125,24.3125,26.0625,26.1875,26.5
0.018051902,-1.8234577,-1.9569523,-1.3924878,-0.03984301,0.04851361,-0.016454665,-0.3893231,-0.36867657,0.059929896,-3.0785837,0.6248426,-2.6392221e-05,-0.0055072904,0.0025245983,-0.0030008596,0.0036372642,-0.0068000653,0.005945696,0.5049816,-1.3815192,1.904219,-2.0918543,-1.5708655,2.479936,-0.009467527,0.013191042,-0.009714522,0.004231478,9.266549e-05,-0.0154077485,-0.28730422,0.30645782,-9.500193,0.7329411,47.70211,-0.6028151,-2.7731187,-3.3143358,-0.07769488,0.12701401,0.005030212,24.625,25.125,24.3125,26.0625,26.1875,26.5
0.020051828,-1.6124053,-1.2426584,-1.4676353,-0.03546439,0.07439574,-0.029841714,-0.38934034,-0.36869755,0.059937153,-3.0785987,0.6248854,-1.2414864e-05,-0.0056149373,0.0032004444,-0.0029644996,0.0049455864,-0.0091501735,0.0037059174,0.50499326,-1.381483,1.9041594,-2.091853,-1.5708536,2.4799724,-0.01070419,0.01383446,-0.011405399,0.0079690255,9.0247755e-05,-0.014404228,-0.51714754,0.34476504,-9.5385,0.7978386,47.734352,-0.7847016,-2.6021566,-3.4151473,-0.09660441,0.11380412,-0.027134983,24.625,25.125,24.3125,26.0625,26.1875,26.5
0.022051845,-1.8199596,-0.9696953,-1.7030196,-0.020771822,0.0698525,-0.044190492,-0.38934326,-0.36865452,0.059901994,-3.078497,0.6249421,-0.00011747504,-0.006984184,0.00305631,-0.0031977454,0.005323445,-0.009843961,0.0022663742,0.504933,-1.3814337,1.9041704,-2.0918047,-1.5708774,2.4799604,-0.011743655,0.017015545,-0.014877809,0.009050084,8.803467e-05,-0.014002345,-0.49799395,0.3256114,-9.595961,0.73069996,47.72719,-0.89905167,-2.6730366,-3.3703866,-0.11513666,0.12450513,-0.06812252,24.625,25.125,24.3125,26.0625,26.1875,26.5
0.024051933,-1.6724856,-0.96405435,-1.7527188,-0.018762385,0.07171908,-0.05571625,-0.3893473,-0.36866072,0.05989866,-3.0785353,0.62475944,-0.00014436875,-0.008073843,0.0039049,-0.0043777167,0.0062904106,-0.011594455,-2.4746585e-05,0.50493217,-1.3814086,1.9041456,-2.0917928,-1.5708655,2.4798408,-0.014191432,0.020096835,-0.015796492,0.008887435,8.593255e-05,-0.014158115,-0.53630114,0.36391866,-9.691729,0.81351066,47.739727,-0.8280365,-2.7223647,-3.3321953,-0.08987491,0.11304499,-0.111105606,24.625,25.125,24.3125,26.0625,26.1875,26.5
0.026052438,-2.201137,-1.2659054,-1.7411984,-0.026787028,0.06275154,-0.069605105,-0.38938597,-0.3686794,0.05991476,-3.0785375,0.62491316,-0.000113080474,-0.009182486,0.0038282867,-0.0035804852,0.0053259935,-0.009831948,0.00013278665,0.50491995,-1.3813608,1.9040498,-2.0917814,-1.5708536,2.4799242,-0.015090492,0.019860618,-0.01726371,0.008581823,7.3615054e-05,-0.015214089,-0.63206923,0.2873042,-9.672575,0.75084364,47.734352,-0.9357165,-2.6878417,-3.4147568,-0.0930586,0.09247111,-0.109050006,24.625,25.125,24.3125,26.0625,26.1875,26.5
0.028052451,-2.3106246,-1.7910717,-1.7435398,-0.021714272,0.072595455,-0.085533164,-0.38938424,-0.36866832,0.059882257,-3.0785112,0.62485045,-0.00021248023,-0.009686565,0.0044476213,-0.0039370377,0.0060130167,-0.011053251,-0.00052491855,0.50489545,-1.3813002,1.9040493,-2.0917685,-1.5708417,2.479864,-0.016597772,0.020980341,-0.018008415,0.009608144,6.2209285e-05,-0.016063277,-0.7469909,0.22984336,-9.672575,0.76874626,47.74331,-0.8811616,-2.7162628,-3.4582758,-0.094337404,0.09716767,-0.109581634,24.625,25.125,24.3125,26.0625,26.1875,26.5
0.03005253,-1.8503755,-0.97971565,-1.7147355,-0.026485987,0.09569071,-0.10723819,-0.38940766,-0.36865547,0.059872545,-3.0784605,0.62489754,-0.0002582065,-0.010531941,0.004238792,-0.0034785126,0.005878839,-0.010814323,-0.00050298695,0.5048593,-1.3812399,1.9039892,-2.0917203,-1.5708536,2.4798636,-0.01703589,0.021940345,-0.02046391,0.010829359,6.018806e-05,-0.0165223,-0.7661445,0.076614454,-9.844957,0.8023209,47.737934,-0.92309165,-2.6969888,-3.3938837,-0.095307425,0.0834329,-0.09893942,24.625,25.125,24.3125,26.0625,26.1875,26.5
0.032052644,-2.377524,-1.0429591,-1.8756174,0.0036466874,0.08980535,-0.108429864,-0.38943174,-0.36865824,0.059861127,-3.0784893,0.62494296,-0.0003065436,-0.011549477,0.00398964,-0.0027614979,0.005434618,-0.009786371,-0.0022513713,0.50481135,-1.3811916,1.9039634,-2.0917437,-1.5708054,2.4798403,-0.017497715,0.022454947,-0.022884563,0.011622185,-5.1715684e-05,-0.015234549,-0.6703765,0.019153614,-9.768343,0.6926589,47.711063,-0.925591,-2.624274,-3.373798,-0.099717215,0.07110879,-0.117740326,24.625,25.125,24.3125,26.0625,26.1875,26.5
0.034052,-1.7691755,-0.21458925,-1.6746974,0.014082035,0.10015256,-0.11335983,-0.38944143,-0.36863127,0.059850145,-3.0784376,0.624856,-0.00031496646,-0.012886399,0.0038981962,-0.0024435103,0.004922483,-0.00876143,-0.004554145,0.50478697,-1.3811672,1.9039515,-2.091708,-1.5708536,2.4797683,-0.018561635,0.02371253,-0.025038155,0.011373058,-0.000104924424,-0.013994488,-0.61291564,0.076614454,-9.691729,0.80679786,47.711964,-0.9519468,-2.6584177,-3.3843114,-0.09487776,0.07374367,-0.14472917,24.625,25.125,24.3125,26.0625,26.1875,26.5
0.03605248,-2.1528645,-0.13757226,-1.8348951,0.026549844,0.07696997,-0.097109824,-0.38945994,-0.3686451,0.059855167,-3.0784624,0.6249185,-0.0003643182,-0.0136044165,0.003923027,-0.002368672,0.0046163015,-0.008178659,-0.0050246613,0.5047628,-1.3811309,1.9038919,-2.0916846,-1.5708054,2.47978,-0.019263426,0.02436679,-0.025874868,0.0108980555,-0.000122024685,-0.014225235,-0.5554548,-0.019153614,-9.710882,0.8112748,47.71286,-0.98001003,-2.6853206,-3.4209964,-0.08605298,0.052382458,-0.16699588,24.625,25.125,24.3125,26.0625,26.1875,26.5
0.038052455,-1.459722,0.05244735,-1.7632586,0.021677038,0.083072364,-0.11209782,-0.38951868,-0.36864275,0.059872415,-3.0784585,0.62495625,-0.0002699638,-0.014917224,0.0037132043,-0.0021662265,0.0042801565,-0.007473706,-0.0052017076,0.5047265,-1.3810823,1.9037951,-2.0916846,-1.5708417,2.4797678,-0.020104162,0.0261205,-0.02840993,0.010899381,-0.00017409572,-0.014887524,-0.45968673,-0.095768064,-9.691729,0.76874626,47.70211,-0.99918395,-2.674899,-3.429884,-0.060292862,0.04046706,-0.16739938,24.625,25.125,24.3125,26.0625,26.1875,26.5
0.04005254,-1.1279163,-0.10848315,-1.7628467,0.011823032,0.07162773,-0.108481646,-0.3895565,-0.368633,0.05987042,-3.0784435,0.624896,-0.00026047588,-0.016722932,0.00421609,-0.0015708288,0.0044597015,-0.006266785,-0.006509055,0.50468993,-1.3810219,1.9037226,-2.0916598,-1.570866,2.4796956,-0.022171957,0.027108159,-0.031100055,0.011634454,-0.00091977796,-0.015645426,-0.4213795,-0.076614454,-9.634268,0.7978386,47.73256,-0.92097855,-2.645309,-3.3337188,-0.057071485,0.031724334,-0.19098248,24.625,25.125,24.3125,26.0625,26.1875,26.5
0.04205285,-0.88586557,-0.6663105,-1.8230984,0.006844939,0.06104443,-0.10481828,-0.38957742,-0.36861476,0.059836898,-3.0783942,0.62496346,-0.00041186303,-0.017777828,0.0050666044,-0.0015484297,0.005379311,-0.0071666,-0.0070953444,0.5046173,-1.3809254,1.903674,-2.0916116,-1.5708302,2.4796712,-0.024355816,0.028263107,-0.032956634,0.0135699995,-0.001292056,-0.017241454,-0.22984336,-0.095768064,-9.615114,0.7486078,47.716442,-0.89327395,-2.7161393,-3.3480303,-0.059196286,0.03879507,-0.1606878,24.625,25.125,24.3125,26.0625,26.1875,26.5
0.044051886,-0.73938996,-0.875357,-1.7778306,0.0070104566,0.054257713,-0.09185524,-0.38963214,-0.36859614,0.05984623,-3.0783596,0.6250328,-0.0003615505,-0.0177448,0.0057614683,-0.0020976414,0.0074828356,-0.008394195,-0.0069746505,0.5045574,-1.380877,1.9035901,-2.0915873,-1.5708665,2.479659,-0.024714243,0.029260926,-0.033188,0.014898852,-0.0025379767,-0.017718086,-0.2873042,0.038307227,-9.634268,0.7172743,47.694946,-0.8910506,-2.6769872,-3.4345767,-0.059574787,0.043436464,-0.18669313,24.625,25.125,24.3125,26.0625,26.1875,26.5
0.04605231,-1.1662744,-0.85071266,-1.8667324,-0.0030759207,0.035957336,-0.09263254,-0.38966563,-0.36857903,0.05984677,-3.0783215,0.62510216,-0.00040517488,-0.018371072,0.0057041273,-0.001957242,0.0071923938,-0.008640942,-0.0074837552,0.5044973,-1.3808286,1.9035181,-2.0915272,-1.5708665,2.4796472,-0.025432762,0.03016587,-0.03474229,0.015622267,-0.0021675515,-0.017927432,-0.19153613,0.05746084,-9.576807,0.7486078,47.71017,-0.95259863,-2.6622858,-3.4537363,-0.05618929,0.04324135,-0.20062226,24.625,25.125,24.3125,26.0625,26.1875,26.5
0.04805256,-1.2074416,-1.3994589,-1.8193496,-0.00070645084,0.027070442,-0.0917595,-0.3897136,-0.3685773,0.059857365,-3.078348,0.6250497,-0.00037798443,-0.019515255,0.0052123754,-0.0010303884,0.0060849204,-0.007465011,-0.007054732,0.5044492,-1.3807805,1.9034342,-2.0915148,-1.570866,2.479563,-0.02591931,0.030646008,-0.0376062,0.016439606,-0.0017712469,-0.018842664,-0.076614454,0.15322891,-9.519346,0.75755644,47.71823,-0.96159005,-2.6142902,-3.3079035,-0.074281976,0.0123877255,-0.21346287,24.625,25.125,24.3125,26.0625,26.1875,26.5
0.05005219,-0.8103079,-1.2761003,-1.7855204,-0.0075474,0.027469644,-0.088866845,-0.38975787,-0.36856875,0.059857067,-3.078325,0.62512165,-0.00036463363,-0.020570302,0.0053006685,-0.0008334864,0.0058141975,-0.0073827435,-0.0072567835,0.50440085,-1.38072,1.9033607,-2.091503,-1.5708779,2.4795625,-0.027172245,0.031822696,-0.03958199,0.017034642,-0.0015778326,-0.019892994,-0.095768064,0.2681506,-9.500193,0.80456203,47.737934,-0.903408,-2.6438837,-3.3585143,-0.07474101,-0.00072965305,-0.23163563,24.625,25.125,24.3125,26.0625,26.1875,26.5
0.05205263,-0.89587355,-1.7136399,-1.9482458,-0.014986465,0.017115006,-0.07915883,-0.38977927,-0.36853287,0.059838537,-3.0782473,0.6251435,-0.00046688374,-0.022000393,0.0058731623,-0.0006608809,0.0052823294,-0.006727179,-0.00808417,0.5043282,-1.3806597,1.9033126,-2.091419,-1.5708903,2.4795134,-0.02955855,0.03254406,-0.040739205,0.016638348,-0.0014358615,-0.021451427,-0.05746084,0.34476504,-9.557653,0.7172743,47.711964,-0.81924033,-2.5366333,-3.3779864,-0.07542832,0.022668626,-0.2318534,24.625,25.125,24.3125,26.0625,26.1875,26.5
0.054051697,-0.88992655,-2.0840943,-1.6889777,-0.02583053,0.01679223,-0.08670537,-0.38985524,-0.36852807,0.05986258,-3.0782616,0.6251844,-0.00039888645,-0.02281739,0.0058109835,-0.0005624413,0.0051802862,-0.0064945915,-0.00739861,0.50425625,-1.3805993,1.903181,-2.0913951,-1.5709018,2.4794652,-0.03019591,0.033701047,-0.042386763,0.01687546,-0.0014621969,-0.022773534,-0.019153614,0.30645782,-9.461885,0.72622824,47.709274,-0.82513446,-2.5435338,-3.4155927,-0.10337372,-0.014548135,-0.2552731,24.625,25.125,24.3125,26.0625,26.1875,26.5
0.05605223,-0.75482327,-2.0955193,-1.6913292,-0.03352758,0.019692859,-0.090831794,-0.38989383,-0.36850902,0.05985766,-3.078249,0.62516236,-0.00040023882,-0.024238454,0.0058818343,-0.0001193071,0.004844968,-0.0050333706,-0.007265936,0.50419587,-1.3805509,1.9031323,-2.0913832,-1.5709141,2.4793928,-0.031378265,0.03458885,-0.044367705,0.016528094,-0.001881099,-0.02408673,-0.019153614,0.3256114,-9.500193,0.7597976,47.68599,-0.8168683,-2.495748,-3.3659558,-0.11286077,-0.027113255,-0.24089983,24.625,25.125,24.3125,26.0625,26.1875,26.5
0.058052197,-0.96704954,-1.8761467,-1.6030598,-0.03830212,0.029755685,-0.09263572,-0.3899388,-0.36851847,0.059873596,-3.0782764,0.6251673,-0.00043553367,-0.025887066,0.006226783,0.0004459556,0.0044667036,-0.0036184199,-0.0072698477,0.5041474,-1.3804905,1.9030112,-2.0913236,-1.5708784,2.479344,-0.033270705,0.035274476,-0.04646464,0.016519511,-0.002239278,-0.025973588,-0.076614454,0.30645782,-9.500193,0.78217715,47.690468,-0.75321364,-2.4900904,-3.3415422,-0.1121957,-0.03824488,-0.23297235,24.625,25.125,24.3125,26.0625,26.1875,26.5
0.06005218,-1.4353113,-1.6998775,-1.6698302,-0.029918928,0.028211178,-0.0850154,-0.3899991,-0.36849558,0.05986313,-3.0782266,0.62519544,-0.00042827489,-0.02693241,0.0065393983,0.00092226575,0.004631146,-0.0023006345,-0.007126672,0.5040752,-1.3803943,1.9029158,-2.0912998,-1.5709146,2.4792957,-0.034278076,0.035422154,-0.04773816,0.01657243,-0.0030240624,-0.027121969,0.0,0.3256114,-9.481039,0.779936,47.71554,-0.7909917,-2.425694,-3.3856282,-0.10761356,-0.03481495,-0.241043,24.625,25.125,24.3125,26.0625,26.1875,26.5
0.06205255,-1.2144015,-1.8221394,-1.4883407,-0.017219149,0.03945143,-0.08316787,-0.39005828,-0.36848772,0.059869137,-3.0782251,0.6252903,-0.00045414653,-0.02739448,0.005721599,0.00074567815,0.004745332,-0.0019489122,-0.0051490148,0.5039918,-1.3803217,1.9028081,-2.0912635,-1.5708908,2.4792717,-0.033157196,0.037547234,-0.04977442,0.016232008,-0.0032999953,-0.02797699,-0.038307227,0.38307226,-9.404425,0.78888994,47.71286,-0.8181937,-2.385218,-3.4285364,-0.11693749,-0.021945216,-0.23188159,24.625,25.125,24.3125,26.0625,26.1875,26.5
0.064051665,-1.1547736,-1.3786898,-1.5000789,-0.014190913,0.040321544,-0.08557533,-0.3900844,-0.36848345,0.059845187,-3.0781863,0.6252049,-0.000528182,-0.028539745,0.0057289563,0.00076508935,0.004580447,-0.0019856098,-0.0053644706,0.50396734,-1.3802129,1.9027232,-2.0912158,-1.5709022,2.479199,-0.034334373,0.03930945,-0.052000612,0.016647328,-0.0031444626,-0.028937666,0.019153614,0.3256114,-9.423578,0.7351769,47.696735,-0.8756404,-2.4049902,-3.377889,-0.11402545,-0.05300856,-0.2553363,24.625,25.125,24.3125,26.0625,26.1875,26.5
0.06605243,-1.3420055,-1.2483828,-1.3713807,-0.006391785,0.031805962,-0.083617285,-0.39017406,-0.36847386,0.05987197,-3.0781913,0.62532115,-0.00041709375,-0.030119559,0.0060147317,0.0015123946,0.0039056176,-0.00016494267,-0.005956406,0.50388294,-1.3801528,1.9025911,-2.0912158,-1.570927,2.4791865,-0.036099333,0.039453283,-0.053817417,0.016399916,-0.0034360033,-0.030109547,-0.1340753,0.24899697,-9.289502,0.73069996,47.694054,-0.80964494,-2.4131498,-3.3928862,-0.11425781,-0.050837927,-0.2601803,24.625,25.125,24.3125,26.0625,26.1875,26.5
0.06805249,-0.50238717,-0.8781525,-1.3700539,-0.009337606,0.050052922,-0.097194515,-0.39021578,-0.36847025,0.05987157,-3.0781937,0.6253218,-0.0004718801,-0.031120462,0.0063655996,0.0012901636,0.004940841,-0.00024650985,-0.006509076,0.50382274,-1.3800802,1.9024953,-2.0911677,-1.5709027,2.4791265,-0.037076518,0.041301638,-0.055619966,0.016928965,-0.0043070326,-0.030531233,-0.17238252,0.24899697,-9.346964,0.784413,47.716442,-0.8302033,-2.3648145,-3.3804443,-0.1182355,-0.050383262,-0.28181997,24.625,25.125,24.3125,26.0625,26.1875,26.5
0.07005243,-1.3970686,-0.90384305,-1.2157055,-0.0070585315,0.03718031,-0.085744336,-0.39030296,-0.36845928,0.05989368,-3.0782049,0.62540054,-0.0003622848,-0.031821884,0.007206368,0.00071129523,0.0072670095,-0.00035481158,-0.006146893,0.5037387,-1.3800194,1.9023756,-2.0911791,-1.570928,2.4790902,-0.03790004,0.04293578,-0.056297317,0.017195765,-0.006291507,-0.03171283,-0.22984336,0.30645782,-9.270349,0.8224646,47.716442,-0.8574616,-2.4451814,-3.404646,-0.113692395,-0.05299466,-0.29795933,24.625,25.125,24.3125,26.0625,26.1875,26.5
0.07205281,-1.3130692,-0.5169525,-1.1578069,-0.008025731,0.052983135,-0.087943815,-0.39035395,-0.36844182,0.05987316,-3.0781796,0.6253368,-0.00045933804,-0.034304,0.006706367,0.0022356508,0.00707896,0.0033348321,-0.0053753136,0.5036546,-1.3798991,1.9022664,-2.091119,-1.5709165,2.4789696,-0.03835243,0.044207964,-0.061389912,0.017699486,-0.007920756,-0.032930817,-0.19153613,0.21068975,-9.270349,0.7038487,47.704796,-0.90079945,-2.350023,-3.3056693,-0.1217001,-0.04807326,-0.30799937,24.625,25.125,24.3125,26.0625,26.1875,26.5
0.07405172,-1.1535777,-0.29661813,-0.9009863,0.0045453957,0.0654321,-0.09740976,-0.39043257,-0.36842886,0.059882086,-3.078163,0.6253138,-0.00040973228,-0.034414824,0.008506947,0.00088383653,0.010851963,0.0011982787,-0.006582908,0.5035823,-1.3798022,1.9021233,-2.0910833,-1.5709532,2.4788852,-0.040062677,0.04585554,-0.060536362,0.018896844,-0.010189683,-0.03342916,-0.28730422,0.19153613,-9.174581,0.7597976,47.701214,-0.87490594,-2.3726683,-3.3309205,-0.13315995,-0.022272209,-0.32498574,24.625,25.125,24.3125,26.0625,26.1875,26.5
0.07605248,-1.5893521,-0.40514073,-1.0834548,0.011734675,0.059348732,-0.08535225,-0.390515,-0.36841807,0.059901312,-3.078151,0.6253871,-0.00031582572,-0.035302494,0.009243561,0.0007015977,0.013167965,0.0016817861,-0.0050177295,0.5035102,-1.3797299,1.9019912,-2.091071,-1.57099,2.4788604,-0.04071064,0.047206573,-0.061878167,0.019587308,-0.012452727,-0.035637613,-0.30645782,0.15322891,-9.251195,0.76874626,47.686886,-0.8663397,-2.4454968,-3.3707643,-0.15209925,0.001453551,-0.33232838,24.625,25.125,24.3125,26.0625,26.1875,26.5
0.07805262,-1.707571,-0.40310648,-0.9867107,0.012535009,0.05553807,-0.08181091,-0.39056128,-0.36839584,0.05988623,-3.0781167,0.62541777,-0.0004273675,-0.036735475,0.008536577,0.001287479,0.0118683595,0.0027488929,-0.0040782797,0.50341415,-1.3796332,1.9018949,-2.0909994,-1.5709652,2.478788,-0.04123368,0.048873197,-0.06521106,0.01968895,-0.011840058,-0.037098873,-0.49799395,0.019153614,-9.174581,0.7486078,47.677036,-0.908,-2.4363315,-3.3228555,-0.16214657,0.0142825525,-0.32646888,24.625,25.125,24.3125,26.0625,26.1875,26.5
0.08005168,-1.4268472,-0.58116937,-1.0559105,0.013672341,0.0518638,-0.08563863,-0.39063564,-0.36838964,0.05988065,-3.0781186,0.6253613,-0.00041627625,-0.037607253,0.0081658475,0.0018146,0.00968874,0.0024820964,-0.005529791,0.5033418,-1.3795129,1.9017624,-2.0909865,-1.5709771,2.4786801,-0.04268312,0.04936286,-0.06713363,0.02029546,-0.009805095,-0.037100196,-0.40222588,0.076614454,-9.232041,0.83365434,47.69763,-0.9173061,-2.434044,-3.1616116,-0.18152207,0.0056889034,-0.33053434,24.625,25.125,24.3125,26.0625,26.1875,26.5
0.082052425,-0.8675086,-0.13368982,-1.0069776,-0.004213171,0.055104204,-0.09886477,-0.3907351,-0.36838317,0.059931014,-3.0781474,0.625483,-0.00029367718,-0.03732795,0.008826168,0.00040004984,0.009232945,-0.0021555284,-0.007616204,0.5032451,-1.3794761,1.901596,-2.0909503,-1.570988,2.4786558,-0.045170825,0.051403962,-0.06662142,0.02157385,-0.0071620694,-0.037507605,-0.40222588,0.0,-9.193734,0.72622824,47.698532,-0.8504788,-2.39194,-3.421182,-0.1918081,-0.035404373,-0.3656488,24.625,25.125,24.3125,26.0625,26.1875,26.5
0.08405258,-0.74897105,-0.4805768,-1.0145704,-0.010666998,0.060798936,-0.09799331,-0.3907811,-0.36835214,0.059891522,-3.0780692,0.62548316,-0.0004364253,-0.037706975,0.0076857903,0.00077813433,0.0078300005,-0.0021326542,-0.0030354646,0.5031497,-1.3793316,1.9014987,-2.0908787,-1.5709876,2.4785705,-0.044352747,0.05267383,-0.06910853,0.022088394,-0.0059555923,-0.04127079,-0.4213795,0.019153614,-9.270349,0.77545905,47.723602,-0.7987864,-2.3861117,-3.317325,-0.20871492,-0.048437107,-0.36537695,24.625,25.125,24.3125,26.0625,26.1875,26.5
0.08605184,-1.293444,-0.48996213,-0.8325082,-0.011885748,0.06413563,-0.094102606,-0.39084557,-0.36832199,0.059869315,-3.0780056,0.62546897,-0.0004998705,-0.03857893,0.007392147,0.0013751547,0.0070534553,-0.0014894939,-0.0015617948,0.5030538,-1.3791993,1.901379,-2.0908182,-1.5710114,2.478474,-0.0448889,0.05319238,-0.071239404,0.022759361,-0.005593328,-0.043280095,-0.4213795,0.11492168,-9.232041,0.8247004,47.70211,-0.9651391,-2.3817968,-3.3687608,-0.20402116,-0.07276707,-0.3316008,24.625,25.125,24.3125,26.0625,26.1875,26.5
0.08805206,-1.8225923,-0.7795088,-1.1587899,0.0064904164,0.06804018,-0.088389926,-0.39091808,-0.36832756,0.059879985,-3.0780149,0.6255079,-0.00052605907,-0.039531343,0.008679691,-0.00026382413,0.009739323,-0.003889788,4.331988e-05,0.502981,-1.3790898,1.9012116,-2.0907586,-1.570988,2.4784243,-0.04718555,0.056980662,-0.0721072,0.02324049,-0.0067933844,-0.047178373,-0.40222588,0.11492168,-9.3661175,0.8023209,47.711063,-0.880445,-2.3979025,-3.3978026,-0.2363473,-0.067852765,-0.3243639,24.625,25.125,24.3125,26.0625,26.1875,26.5
0.09005235,-1.0846403,-0.041756213,-1.2075799,-0.009066016,0.08944784,-0.09946177,-0.39099056,-0.36832,0.059888266,-3.0780437,0.62539905,-0.00048427877,-0.041366667,0.009355679,0.0012828748,0.009177565,-0.001004317,-0.0017388109,0.5029085,-1.3790063,1.901091,-2.0907462,-1.5710005,2.4782803,-0.049458332,0.05555887,-0.07408433,0.023842547,-0.007694569,-0.047666766,-0.36391866,0.076614454,-9.3661175,0.8090337,47.72092,-0.8374833,-2.5023172,-3.3880172,-0.23397303,-0.056930833,-0.30413806,24.625,25.125,24.3125,26.0625,26.25,26.5
0.092052706,-1.2624663,-0.27393672,-1.1745135,-0.0084083015,0.080583744,-0.09756646,-0.39109355,-0.3682983,0.059898876,-3.0780292,0.6254732,-0.0004844344,-0.04251679,0.0101348255,0.001375058,0.010109997,-0.000996349,-0.002740478,0.50277615,-1.3788857,1.9009107,-2.0906866,-1.5710005,2.4781961,-0.051311772,0.056532085,-0.075697154,0.024926258,-0.008517701,-0.048516102,-0.40222588,0.11492168,-9.385271,0.7351769,47.72002,-0.7555439,-2.287445,-3.4246974,-0.25804886,-0.05761472,-0.31803477,24.625,25.125,24.3125,26.0625,26.25,26.5
0.09405176,-1.2480766,-0.7662843,-1.156309,-0.0060396027,0.07054583,-0.084015235,-0.39117804,-0.36829364,0.059905544,-3.0780363,0.6253735,-0.00044878485,-0.04217345,0.009754281,0.0006559625,0.012803375,-0.0013633427,0.0035208855,0.50270516,-1.378765,1.9007443,-2.0906498,-1.5710253,2.4780622,-0.04898137,0.058779433,-0.07684562,0.025451599,-0.010704867,-0.052441742,-0.34476504,0.15322891,-9.346964,0.7709874,47.690468,-0.8755505,-2.3566682,-3.4277163,-0.2649196,-0.0657335,-0.29037905,24.625,25.125,24.3125,26.0625,26.25,26.5
0.09605234,-1.1938401,-0.49729535,-1.2738808,-0.014578928,0.063614845,-0.08803127,-0.39127317,-0.36826783,0.059901454,-3.0779936,0.62540215,-0.0004260873,-0.044001177,0.010983662,-0.00029258247,0.015564007,-0.001272032,0.0049427473,0.5025964,-1.3786315,1.9005874,-2.090614,-1.5710624,2.4779768,-0.051197242,0.062213294,-0.07868125,0.02510782,-0.013176774,-0.056072764,-0.30645782,0.15322891,-9.385271,0.8403672,47.70211,-0.8945031,-2.5071728,-3.4290514,-0.27728817,-0.02357468,-0.24114028,24.625,25.125,24.3125,26.0625,26.25,26.5
0.09805241,-1.4738944,-0.9769446,-1.429545,-0.008849533,0.056344144,-0.08323117,-0.3913405,-0.3682221,0.059864968,-3.0779057,0.6254029,-0.0005567082,-0.045689296,0.011171215,0.0017408525,0.014120789,0.0024545933,0.0056149564,0.50246423,-1.3784763,1.9004678,-2.0905306,-1.5710744,2.4778564,-0.05273115,0.059964746,-0.080730364,0.025443215,-0.013719862,-0.058275677,-0.21068975,0.095768064,-9.3661175,0.75084364,47.67614,-0.8782464,-2.3304644,-3.4456472,-0.28475606,0.011593468,-0.20969824,24.625,25.125,24.3125,26.0625,26.25,26.5
0.10005245,-1.2462252,-1.4641225,-1.3304743,0.003188973,0.050578196,-0.083975084,-0.39143962,-0.3681996,0.059883345,-3.0779088,0.62532413,-0.0004942076,-0.045978464,0.010974549,0.00104467,0.014611587,0.00051908445,0.0076566306,0.5023565,-1.3783791,1.9002999,-2.090482,-1.5711101,2.4776993,-0.05296866,0.06262872,-0.082551174,0.026526442,-0.013220466,-0.060555242,-0.22984336,0.15322891,-9.3661175,0.8090337,47.703903,-0.86275613,-2.3117468,-3.4508286,-0.30644056,-0.0052026613,-0.18486808,24.625,25.125,24.3125,26.0625,26.25,26.5
0.10205262,-0.90875417,-0.80904174,-1.2880498,-0.017499296,0.051508795,-0.08674927,-0.39157134,-0.36817828,0.059899356,-3.0779035,0.62538016,-0.0004289312,-0.046694215,0.010496509,0.0006867663,0.013463268,-0.00034085085,0.008467496,0.5022125,-1.3782344,1.9000839,-2.0904462,-1.571133,2.477591,-0.053694602,0.0648333,-0.08429613,0.0262587,-0.011804328,-0.06209457,-0.22984336,0.21068975,-9.385271,0.83813137,47.72002,-0.9308793,-2.3930044,-3.4003754,-0.3135507,-0.0136475805,-0.15810786,24.625,25.125,24.3125,26.0625,26.25,26.5
0.10405183,-0.7391697,-0.8902781,-1.2844776,-0.016071249,0.04893065,-0.08841954,-0.39164734,-0.3681426,0.05988292,-3.077823,0.62536246,-0.00049399975,-0.048520364,0.009883762,0.0016594075,0.012031658,0.0017403747,0.009075662,0.50210446,-1.3780898,1.8999285,-2.0903504,-1.5711693,2.4774823,-0.05449789,0.06603733,-0.0879225,0.02616266,-0.011566327,-0.06350393,-0.17238252,0.21068975,-9.3661175,0.7665104,47.703903,-0.9365405,-2.4380283,-3.3358626,-0.3246015,-0.030176047,-0.12944052,24.625,25.125,24.3125,26.0625,26.25,26.5
0.106052466,-0.56611943,-1.1141626,-1.5254387,-0.010227603,0.03992916,-0.085780166,-0.39172497,-0.36814088,0.05987436,-3.077817,0.6252649,-0.00048268712,-0.049132783,0.009918024,0.0017167772,0.011822932,0.0026826242,0.00952284,0.50204456,-1.3779454,1.8997716,-2.090327,-1.5711936,2.4773624,-0.054942183,0.06642611,-0.08831257,0.025235884,-0.011841482,-0.064394355,0.0,0.2681506,-9.461885,0.7665104,47.66271,-0.98857796,-2.3849273,-3.3193502,-0.32753366,-0.007003799,-0.09823636,24.625,25.125,24.3125,26.0625,26.25,26.5
0.10805253,-0.13364413,-0.98949796,-1.3779321,-0.022542361,0.04177801,-0.09656876,-0.39184535,-0.3680985,0.059890293,-3.077794,0.62531734,-0.00044681996,-0.050082315,0.009966347,0.0005104008,0.013450582,0.0011844669,0.008761415,0.5018767,-1.3778359,1.8995918,-2.0902665,-1.5712179,2.4772303,-0.05544577,0.07073658,-0.090725094,0.025433602,-0.012552222,-0.06413339,-0.05746084,0.2681506,-9.442732,0.8112748,47.682407,-0.9781257,-2.4943774,-3.4507232,-0.31130338,-0.014212642,-0.07815805,24.625,25.125,24.3125,26.0625,26.25,26.5
0.11005156,0.22195226,-0.9466356,-1.5088702,-0.030777413,0.044299897,-0.09306784,-0.39194348,-0.36810258,0.059898086,-3.0778131,0.6252248,-0.00044637002,-0.05211939,0.009477029,0.002895023,0.01199981,0.0053755944,0.007302533,0.5017927,-1.3776803,1.8993763,-2.0902069,-1.5712184,2.4770863,-0.05603058,0.069453835,-0.094883285,0.026504422,-0.013302524,-0.06325627,-0.038307227,0.34476504,-9.404425,0.83813137,47.711964,-1.0264139,-2.3222435,-3.1681018,-0.33064127,-0.00046098325,-0.09100996,24.625,25.125,24.3125,26.0625,26.25,26.5
0.11205274,-0.45330933,-1.8079563,-1.9379733,-0.009138265,0.026605492,-0.0788793,-0.39204895,-0.3680835,0.059892513,-3.0778003,0.6251459,-0.00041399105,-0.051608145,0.00989873,0.0020390486,0.012224871,0.0031949102,0.0060625435,0.5016847,-1.3775238,1.8991979,-2.0901825,-1.5712537,2.4769309,-0.056781486,0.07006199,-0.0937216,0.026748288,-0.012447919,-0.062769525,0.0,0.34476504,-9.3661175,0.74413085,47.693153,-1.0761098,-2.306008,-3.3556633,-0.33774132,0.008151568,-0.07945444,24.625,25.125,24.3125,26.0625,26.25,26.5
0.11405212,-0.42853495,-1.5256556,-1.823324,-0.033986036,0.022459375,-0.08039245,-0.39213237,-0.3680511,0.059851468,-3.0777287,0.6251123,-0.0005585738,-0.05307454,0.0095512625,0.00082627917,0.012427736,0.0015636071,0.004089009,0.5015525,-1.377318,1.8990287,-2.090099,-1.5712532,2.4767869,-0.057913415,0.07525124,-0.0970513,0.026413372,-0.011856684,-0.061925694,0.038307227,0.34476504,-9.481039,0.79560274,47.719128,-1.0488867,-2.49719,-3.2939296,-0.33844197,-0.0009972584,-0.09847033,24.625,25.125,24.3125,26.0625,26.25,26.5
0.116051786,-0.3130453,-1.8525406,-1.5549133,-0.04941757,0.03244796,-0.084638685,-0.39228237,-0.36804911,0.05990772,-3.0777595,0.6252148,-0.00037808667,-0.053999938,0.009092181,0.0025058994,0.010026006,0.004189088,0.0021729483,0.50143266,-1.3772104,1.898765,-2.0900633,-1.5712894,2.4767272,-0.05850388,0.07324272,-0.098497115,0.026405014,-0.011007829,-0.060603216,0.095768064,0.40222588,-9.500193,0.8403672,47.716442,-1.0953596,-2.3678572,-3.3034549,-0.3415265,0.0014987108,-0.10461934,24.625,25.125,24.3125,26.0625,26.25,26.5
0.11805191,-0.9228675,-2.0639803,-1.7558414,-0.04428238,0.020534325,-0.07472608,-0.39233288,-0.36801624,0.059878483,-3.0776768,0.62512153,-0.00044632217,-0.054902628,0.009253273,0.0019418509,0.010472249,0.0037382576,-0.00035057546,0.50136054,-1.3770776,1.8986577,-2.0899913,-1.5713376,2.4766076,-0.059490234,0.07554814,-0.099886,0.026096245,-0.011190824,-0.05906361,-0.05746084,0.3256114,-9.595961,0.7553206,47.65912,-1.0860865,-2.3624432,-3.3029518,-0.34786654,-0.0036448147,-0.12719062,24.625,25.125,24.3125,26.0625,26.25,26.5
0.12005207,-0.82907355,-1.9016272,-1.9212012,-0.03624069,0.031311303,-0.078590244,-0.39246687,-0.36798844,0.059873458,-3.077655,0.6250988,-0.0004373871,-0.05617167,0.0094129285,0.0020628201,0.0101783825,0.0046501784,-0.003120837,0.50120443,-1.376885,1.8984302,-2.0899441,-1.5713614,2.4764402,-0.060796596,0.076718755,-0.10143493,0.025532147,-0.011375612,-0.057598304,-0.038307227,0.30645782,-9.576807,0.85826975,47.734352,-1.0943162,-2.3995566,-3.3776364,-0.3598342,-0.0035064828,-0.13330762,24.625,25.125,24.3125,26.0625,26.25,26.5
0.12205227,-1.0905803,-1.5267147,-1.7841039,-0.030170018,0.039513446,-0.076992415,-0.39256808,-0.3680123,0.059873495,-3.0776906,0.6251069,-0.0004890815,-0.057441227,0.008463951,0.002923051,0.007830977,0.006198242,-0.0046588588,0.50112045,-1.3766925,1.8981909,-2.089896,-1.5713128,2.4763567,-0.06117448,0.07749598,-0.10422065,0.02505299,-0.010066815,-0.056440033,-0.038307227,0.24899697,-9.519346,0.7665104,47.677036,-1.1346507,-2.3829448,-3.3964992,-0.33050394,-0.0006260304,-0.17187382,24.625,25.125,24.3125,26.0625,26.25,26.5
0.12405239,-0.886907,-0.7320722,-1.5375899,-0.0244166,0.04687742,-0.09001957,-0.39269373,-0.3679673,0.059892662,-3.0776346,0.62513316,-0.00034841636,-0.057677027,0.008716761,0.0027684805,0.0073427944,0.0056741224,-0.00611605,0.5009884,-1.3765844,1.8980111,-2.0898602,-1.5714091,2.4762485,-0.062221773,0.07770817,-0.10410138,0.02493783,-0.009384267,-0.056032132,-0.095768064,0.30645782,-9.5385,0.7642693,47.672558,-1.1714696,-2.2702732,-3.3542843,-0.32579538,-0.0056813294,-0.19151005,24.625,25.125,24.3125,26.0625,26.25,26.5
0.1260518,-0.83490634,-0.6746873,-1.5625143,-0.014314786,0.055101283,-0.08965038,-0.3928026,-0.36796388,0.059896007,-3.0776792,0.62514293,-0.00041064285,-0.05948637,0.008212041,0.0032696107,0.006632468,0.007581721,-0.006724939,0.5008445,-1.3764277,1.8978065,-2.089812,-1.571349,2.476105,-0.06283953,0.079696916,-0.107468985,0.02430547,-0.009685817,-0.056038592,-0.21068975,0.21068975,-9.442732,0.83813137,47.704796,-1.1603935,-2.307624,-3.3680472,-0.30230471,-0.006763263,-0.20870903,24.625,25.125,24.3125,26.0625,26.25,26.5
0.1280519,-1.3213112,-0.8435164,-1.5365475,-0.00065895874,0.052783556,-0.08169915,-0.39291942,-0.36795095,0.05988452,-3.0776188,0.62522614,-0.00040517002,-0.059723176,0.008179652,0.0029290179,0.006296874,0.0066302847,-0.007358803,0.50073653,-1.376223,1.8975791,-2.0897644,-1.5713843,2.4760568,-0.063450694,0.08081401,-0.10806892,0.024456115,-0.008936622,-0.056017075,-0.19153613,0.11492168,-9.442732,0.7105615,47.711964,-1.2485433,-2.2687323,-3.3408966,-0.29629877,-0.036650486,-0.231867,24.625,25.125,24.3125,26.0625,26.25,26.5
0.13005225,-1.2492446,-0.7273977,-1.5340337,0.004506388,0.058769267,-0.08338223,-0.39306238,-0.36793223,0.059898224,-3.0776398,0.6251902,-0.00035134962,-0.06117404,0.007972294,0.003493465,0.0055996967,0.007964796,-0.0065374915,0.50058055,-1.3760543,1.8973397,-2.0897286,-1.5713967,2.4758759,-0.06439689,0.08193965,-0.11070012,0.024453172,-0.008970371,-0.05778362,-0.22984336,0.0,-9.519346,0.8403672,47.704796,-1.2595026,-2.1777,-3.34836,-0.28989723,-0.042396657,-0.25293246,24.625,25.125,24.3125,26.0625,26.25,26.5
0.13205233,-1.50126,-0.7810191,-1.5094341,0.0069666943,0.054939367,-0.084530145,-0.3931879,-0.3679282,0.05992316,-3.0776513,0.6251926,-0.0002715474,-0.062001374,0.007773705,0.0038743513,0.005591104,0.009114714,-0.0066382787,0.50047284,-1.3759099,1.8971008,-2.0896804,-1.571421,2.4757683,-0.06446776,0.082640514,-0.11240582,0.024444697,-0.009515187,-0.0577521,-0.24899697,0.038307227,-9.500193,0.7620334,47.690468,-1.3996363,-2.2721078,-3.2959905,-0.27068,-0.06299143,-0.2564065,24.625,25.125,24.3125,26.0625,26.25,26.5
0.1340522,-1.2536836,-0.58636457,-1.4012525,-0.0061304946,0.06703683,-0.0831765,-0.39328405,-0.36790186,0.059906796,-3.0776289,0.6251887,-0.000314796,-0.063619055,0.009113728,0.0033057558,0.0064000143,0.008442211,-0.010784703,0.50033975,-1.3757532,1.8969439,-2.0896447,-1.571421,2.4756358,-0.067950666,0.0845789,-0.11344224,0.024521539,-0.009905193,-0.05708665,-0.3256114,0.05746084,-9.423578,0.8224646,47.705692,-1.22057,-2.265618,-3.3723135,-0.25707963,-0.05085078,-0.30670536,24.625,25.125,24.3125,26.0625,26.25,26.5
0.13605165,-0.97886914,-0.19087508,-1.4180809,-0.01515695,0.073164195,-0.09380563,-0.39342368,-0.36788583,0.05991395,-3.0775993,0.6251048,-0.00025595224,-0.063440405,0.008102815,0.0035627226,0.0063126916,0.008806546,-0.008294045,0.5002208,-1.3755487,1.8966688,-2.0895731,-1.5714806,2.4754684,-0.066002294,0.08532862,-0.115041055,0.025004473,-0.010005674,-0.057628028,-0.30645782,0.095768064,-9.442732,0.7418897,47.66271,-1.358154,-2.2170377,-3.4394627,-0.23660564,-0.05351915,-0.33491492,24.625,25.125,24.3125,26.0625,26.25,26.5
0.13805182,-1.4080145,-0.7793383,-1.5658466,-0.0017575466,0.066766754,-0.08120778,-0.39354578,-0.3678802,0.059929315,-3.077618,0.62526,-0.00025153547,-0.06466569,0.008839978,0.0032390202,0.0076821763,0.008342345,-0.00774999,0.50007665,-1.3754039,1.8964537,-2.089537,-1.5714453,2.4754188,-0.06773751,0.08740206,-0.11698925,0.02594581,-0.01098621,-0.059904393,-0.3256114,0.11492168,-9.346964,0.8605109,47.67614,-1.3910818,-2.3086138,-3.376297,-0.23137704,-0.05114586,-0.3436849,24.625,25.125,24.3125,26.0625,26.25,26.5
0.1400519,-1.5981714,-0.8220092,-1.46948,-0.0030790223,0.0643216,-0.07503477,-0.393704,-0.36787197,0.05996511,-3.0776448,0.6253083,-0.00012924787,-0.06668455,0.010010822,0.0031553272,0.0071018985,0.007975475,-0.014461823,0.49993128,-1.3752472,1.8961781,-2.0895007,-1.5714687,2.4753003,-0.071963765,0.08892881,-0.11866616,0.026136205,-0.010296946,-0.05742039,-0.4213795,0.19153613,-9.308657,0.8179876,47.692257,-1.2636853,-2.2677312,-3.4210436,-0.2275441,-0.051938437,-0.4017415,24.625,25.125,24.3125,26.0625,26.25,26.5
0.14205217,-1.5036378,-0.89764345,-1.3615083,-0.0020673242,0.0707435,-0.082293324,-0.3938306,-0.36785632,0.05996439,-3.077618,0.6253187,-0.00017438241,-0.06646028,0.0092187645,0.003235404,0.0077181337,0.008281223,-0.011457683,0.49978843,-1.3750428,1.8959154,-2.0894048,-1.5714692,2.4751675,-0.06997271,0.089820795,-0.12003838,0.026643747,-0.010988594,-0.058430932,-0.38307226,0.17238252,-9.442732,0.8560339,47.66808,-1.3334968,-2.1463156,-3.4468107,-0.20014662,-0.05082642,-0.4428267,24.625,25.125,24.3125,26.0625,26.25,26.5
0.14405228,-1.5276772,-0.51484215,-1.1666695,-0.016227141,0.074592054,-0.09079449,-0.39397085,-0.36783817,0.05996251,-3.0776067,0.6253535,-0.00012287014,-0.06826201,0.00997521,0.0020955675,0.009874307,0.007033052,-0.010805434,0.499644,-1.3748488,1.8956865,-2.0893924,-1.571494,2.4750464,-0.072070405,0.09448005,-0.12311816,0.027192546,-0.012288892,-0.06117635,-0.30645782,0.114921674,-9.423578,0.8403672,47.695843,-1.3836687,-2.304423,-3.4704084,-0.20637506,-0.060900323,-0.45453268,24.625,25.125,24.3125,26.0625,26.25,26.5
0.14605196,-1.6780127,-1.1082109,-1.3839017,-0.00042171232,0.067708395,-0.06749185,-0.3940805,-0.36780658,0.059959926,-3.077558,0.62530416,-0.00014510723,-0.06831769,0.010600499,0.0027427569,0.008640659,0.007708575,-0.009963711,0.49951178,-1.3746817,1.8954724,-2.0892975,-1.5715293,2.4748898,-0.07361665,0.092018984,-0.12163274,0.026975816,-0.011531493,-0.06356646,-0.51714754,0.05746084,-9.385271,0.8560339,47.688675,-1.4443324,-2.158658,-3.5455182,-0.19337448,-0.060059436,-0.45765507,24.625,25.125,24.3125,26.0625,26.25,26.5
0.14805195,-1.4884923,-1.047022,-1.4837813,-0.0007397022,0.06462068,-0.08361094,-0.39424464,-0.3677696,0.059959456,-3.0775123,0.62529343,-5.878047e-05,-0.07156462,0.010424154,0.003473831,0.0074699195,0.010115682,-0.009695065,0.49934313,-1.3744645,1.8952073,-2.0892613,-1.5716013,2.4747205,-0.0761935,0.09516091,-0.12692586,0.026444718,-0.011670228,-0.066409186,-0.38307226,0.095768064,-9.423578,0.8314132,47.64121,-1.3293769,-2.1561613,-3.4333277,-0.13759124,-0.057227258,-0.473428,24.625,25.125,24.3125,26.0625,26.25,26.5
0.150052,-1.3010403,-0.7685424,-1.1954217,-0.009043077,0.06348726,-0.08298168,-0.3943617,-0.36773515,0.059949297,-3.077477,0.62543666,-0.00012911532,-0.07184278,0.011585974,0.0030747775,0.007656754,0.008260856,-0.0060062767,0.49916267,-1.3742963,1.895017,-2.0892012,-1.5715774,2.474634,-0.07881697,0.095221125,-0.12634765,0.027515652,-0.01094948,-0.07272303,-0.45968673,0.15322891,-9.423578,0.8537928,47.703007,-1.2803866,-2.2332144,-3.4935632,-0.12991896,-0.06580059,-0.43510288,24.625,25.125,24.3125,26.0625,26.25,26.5
0.15205213,-0.8766661,-0.6288336,-1.1580209,-0.0073825945,0.06601564,-0.08313739,-0.3945378,-0.36774683,0.05998087,-3.0775208,0.6253871,1.9094912e-05,-0.07282153,0.011596425,0.002670956,0.0081941215,0.0067651644,-0.0044620307,0.49904257,-1.374079,1.8946813,-2.0891764,-1.5716137,2.4744775,-0.07985472,0.0981708,-0.1293082,0.029089866,-0.010702967,-0.07530515,-0.5363012,0.19153613,-9.308656,0.86498255,47.689575,-1.1645795,-2.184169,-3.473865,-0.11659207,-0.061455324,-0.4099871,24.625,25.125,24.3125,26.0625,26.25,26.5
0.15405248,-1.364783,-0.64204293,-1.1982116,0.010204116,0.05316565,-0.08602307,-0.39467704,-0.36770487,0.05997138,-3.0774677,0.62544894,-2.8085227e-05,-0.07360554,0.011288576,0.0034261749,0.0083056055,0.007583276,0.0003375695,0.49885115,-1.3738747,1.894441,-2.089092,-1.5716251,2.4743316,-0.07971725,0.09870419,-0.13201872,0.030596657,-0.011201626,-0.07996467,-0.51714754,0.1340753,-9.346964,0.842603,47.683304,-1.3220729,-2.183869,-3.406933,-0.10831177,-0.05492469,-0.38525128,24.625,25.125,24.3125,26.0625,26.25,26.5
0.15605178,-1.5573999,-0.8185481,-1.2518452,0.0105987685,0.05900884,-0.076407745,-0.39482892,-0.36768425,0.059969306,-3.0774806,0.6254301,-4.2336505e-05,-0.075680204,0.013304632,0.0032236571,0.008258762,0.0060736453,0.0030731212,0.49866942,-1.373658,1.8941773,-2.0890439,-1.5716132,2.4741366,-0.08543938,0.09990596,-0.13332221,0.03199035,-0.010444412,-0.08842353,-0.49799395,0.19153613,-9.251195,0.8023209,47.684196,-1.1581801,-2.129014,-3.4588947,-0.09482123,-0.08423878,-0.293164,24.625,25.125,24.3125,26.0625,26.25,26.5
0.15805167,-1.3519446,-0.637305,-1.1799738,0.011942872,0.07136852,-0.073197715,-0.39495724,-0.36765328,0.059964977,-3.0774539,0.62534505,-6.475137e-05,-0.07517586,0.012649566,0.0019992676,0.010054141,0.0038155017,0.0061513586,0.4985146,-1.3734643,1.893938,-2.0889595,-1.5716375,2.4739323,-0.083537996,0.10333209,-0.1348379,0.032918695,-0.010946942,-0.089597814,-0.4405331,0.095768064,-9.270349,0.8157518,47.691364,-1.2070538,-2.3063586,-3.308783,-0.10259967,-0.07259816,-0.26823804,24.625,25.125,24.3125,26.0625,26.25,26.5
0.16005197,-1.8529878,-0.9163803,-0.99247205,0.0015400491,0.064101264,-0.07766072,-0.39512193,-0.3676413,0.059996966,-3.0774782,0.6253299,3.0967098e-05,-0.07835579,0.012569871,0.0045469124,0.007552298,0.008078171,0.0067125307,0.49835792,-1.3732847,1.893638,-2.0888994,-1.5716614,2.4737632,-0.08638129,0.10263013,-0.14002621,0.033861365,-0.010793474,-0.093001485,-0.4213795,0.21068975,-9.232041,0.8314132,47.70211,-1.1703479,-2.1534624,-3.401523,-0.0835332,-0.092784345,-0.23269747,24.625,25.125,24.3125,26.0625,26.25,26.5
0.16205245,-1.0801183,-0.6787963,-0.94343764,-0.018797832,0.09123144,-0.08453588,-0.3952669,-0.3676274,0.05999145,-3.0774806,0.6252718,1.1981215e-05,-0.07858514,0.013880667,0.0020431776,0.010297434,0.0030885139,0.006483384,0.49820146,-1.3730546,1.8933634,-2.0888398,-1.5716614,2.4735703,-0.08874031,0.10740938,-0.14030787,0.035055146,-0.010821007,-0.09513043,-0.59376204,0.22984336,-9.136273,0.8224646,47.698532,-1.0819583,-2.3484333,-3.3839817,-0.07421277,-0.098445,-0.18495464,24.625,25.125,24.3125,26.0625,26.25,26.5
0.16405268,-1.3709421,-0.7732708,-1.2758827,-0.006450312,0.07213344,-0.08141557,-0.39544716,-0.367572,0.06002109,-3.0774522,0.62530404,8.955767e-05,-0.080635354,0.014498223,0.0037524214,0.0100179855,0.00611348,0.0042937743,0.49797323,-1.372887,1.8930749,-2.088743,-1.57171,2.473366,-0.09086633,0.106345296,-0.14320752,0.036225297,-0.012022108,-0.09506359,-0.34476504,0.19153613,-9.270349,0.87617236,47.67614,-1.0030167,-2.1113634,-3.3126326,-0.08809468,-0.081072554,-0.14010775,24.625,25.125,24.3125,26.0625,26.25,26.5
0.16605206,-1.2832432,-0.8917434,-1.2634059,0.002906301,0.057594255,-0.087507784,-0.39561728,-0.36755428,0.059993144,-3.0774105,0.6252781,0.00011817124,-0.08196982,0.014882221,0.0029287536,0.010773829,0.0044426993,0.0011768397,0.49781695,-1.3725853,1.8927768,-2.088731,-1.5717577,2.4731991,-0.092775695,0.10999835,-0.14590771,0.03709583,-0.011892713,-0.09385464,-0.2681506,0.21068975,-9.251195,0.8806493,47.705692,-0.93726474,-2.253034,-3.2100217,-0.0608761,-0.084882885,-0.14176401,24.625,25.125,24.3125,26.0625,26.25,26.5
0.16805206,-1.1257687,-0.7868775,-1.0966452,0.001471375,0.05128208,-0.07450468,-0.39577657,-0.36751246,0.06000722,-3.0773993,0.6252576,8.838122e-05,-0.083277166,0.015204602,0.0030905919,0.01088232,0.0047015036,-0.0034618422,0.49760073,-1.3723929,1.8924888,-2.0886114,-1.5717577,2.4729717,-0.09433386,0.11141052,-0.1481148,0.037716676,-0.012115014,-0.090772346,-0.4213795,0.24899697,-9.232041,0.78217715,47.689575,-0.8827787,-2.249772,-3.1845024,-0.058437478,-0.06630382,-0.18349276,24.625,25.125,24.3125,26.0625,26.25,26.5
0.17005214,-0.9031414,-0.61875075,-1.4211544,0.0016279664,0.055906396,-0.07644583,-0.39595953,-0.36747745,0.060022812,-3.0773714,0.62540793,0.00018043588,-0.084203206,0.015430644,0.002722384,0.011236038,0.0042293123,-0.008488072,0.49739686,-1.3721879,1.8922013,-2.0885756,-1.5717939,2.4728653,-0.09546446,0.11341373,-0.14972425,0.03790552,-0.012196672,-0.08687622,-0.45968673,0.22984336,-9.212888,0.83365434,47.691364,-0.8445338,-2.3450198,-3.1206946,-0.033523217,-0.07346478,-0.22046,24.625,25.125,24.3125,26.0625,26.25,26.5
0.17205246,-1.1966197,-1.1124783,-1.3583466,0.013042406,0.05723322,-0.083560675,-0.39611354,-0.3674223,0.05999246,-3.0772626,0.6254063,9.541679e-05,-0.08466331,0.01590769,0.0024185006,0.01160163,0.0025536607,-0.013425507,0.4971928,-1.3719113,1.8919138,-2.0884545,-1.5718416,2.4726744,-0.09693728,0.11470776,-0.15096162,0.03949165,-0.011724678,-0.08341089,-0.49799395,0.17238252,-9.32781,0.7463667,47.716442,-0.8518114,-2.29583,-3.2428205,-0.020772407,-0.095317185,-0.2667295,24.625,25.125,24.3125,26.0625,26.25,26.5
0.17405242,-1.4836477,-0.8416211,-1.3984188,-0.010784061,0.0670086,-0.08063095,-0.39628965,-0.36743605,0.060022943,-3.0773423,0.6253836,0.00011488652,-0.08497808,0.016210238,0.0023236743,0.012438377,0.0018589927,-0.015127835,0.4970251,-1.3716828,1.8915561,-2.0883825,-1.5717939,2.4724824,-0.09743891,0.115559906,-0.15207094,0.04076329,-0.012123245,-0.08220954,-0.47884035,0.21068975,-9.423578,0.78888994,47.666286,-0.85593224,-2.232612,-3.2983265,-0.03102059,-0.08597543,-0.3013577,24.625,25.125,24.3125,26.0625,26.25,26.5
0.17605188,-1.967191,-1.4896013,-1.5200429,-0.009745901,0.06892386,-0.07344929,-0.396455,-0.36741033,0.060036547,-3.0773287,0.6254373,0.00016542275,-0.08483391,0.016365884,0.00196237,0.012786525,4.067087e-05,-0.014650006,0.4968452,-1.3714784,1.8912681,-2.088322,-1.5718173,2.472338,-0.097873904,0.11647774,-0.15269461,0.04222646,-0.011560123,-0.08312371,-0.4213795,0.19153613,-9.3661175,0.7933669,47.666286,-0.82513416,-2.2437134,-3.1809168,-0.03216044,-0.108277,-0.32046548,24.625,25.125,24.3125,26.0625,26.25,26.5
0.17805201,-1.7179561,-1.567902,-1.513265,-0.009551705,0.07993493,-0.07108184,-0.3966167,-0.36736727,0.06002482,-3.077216,0.62539357,0.00014693216,-0.08567001,0.016421359,0.0024155618,0.013742231,-0.0004985049,-0.013837071,0.49667734,-1.3712015,1.8909324,-2.0881774,-1.5719017,2.4721575,-0.09832485,0.1178613,-0.15605609,0.045125622,-0.012153229,-0.08438401,-0.30645782,0.21068975,-9.289502,0.82022345,47.689575,-0.90899205,-2.2709594,-3.2315087,-0.05076254,-0.12803647,-0.33983788,24.625,25.125,24.3125,26.0625,26.25,26.5
0.18005203,-1.3706505,-1.1848515,-1.6018169,-0.009959959,0.07538988,-0.07420274,-0.3967894,-0.3673389,0.060019694,-3.0772223,0.62549,0.00010576053,-0.08534753,0.01709229,0.00174192,0.015163346,-0.0022841184,-0.013782265,0.49644983,-1.3709612,1.8906468,-2.0881288,-1.5718659,2.4719894,-0.09885926,0.11854892,-0.15562469,0.046254694,-0.012551114,-0.084972456,-0.24899697,0.19153613,-9.3661175,0.8537928,47.709274,-0.9259685,-2.202324,-3.3625486,-0.06974991,-0.11869,-0.34836334,24.625,25.125,24.3125,26.0625,26.25,26.5
0.18205221,-0.85441536,-0.932489,-1.5152783,-0.003521803,0.053680185,-0.07737847,-0.39698917,-0.3672852,0.06002766,-3.0771556,0.6255718,0.00018936738,-0.08542935,0.017561555,-0.00061376725,0.017440297,-0.0054248027,-0.0152598,0.4962222,-1.3707192,1.8903245,-2.0880578,-1.5719384,2.4718215,-0.099356234,0.12321393,-0.15567718,0.045482304,-0.013060509,-0.08399006,-0.15322891,0.095768064,-9.3661175,0.8873621,47.698532,-1.0514903,-2.305231,-3.4584627,-0.038029343,-0.11659615,-0.37267894,24.625,25.125,24.3125,26.0625,26.25,26.5
0.1840523,-1.2622479,-0.9195203,-1.5203741,0.009749112,0.015804958,-0.068716936,-0.39717498,-0.3672417,0.060035124,-3.0771196,0.6256199,0.00019786667,-0.08609477,0.017537106,0.0015422369,0.016715134,-0.0027351144,-0.013701369,0.4959945,-1.3704801,1.8900007,-2.087961,-1.5719622,2.4716287,-0.09946999,0.12027072,-0.15757835,0.047611434,-0.013707418,-0.08566054,-0.15322891,0.076614454,-9.289502,0.8179876,47.716442,-0.8820434,-2.1583164,-3.645299,-0.03336849,-0.12028639,-0.37095875,24.625,25.125,24.3125,26.0625,26.25,26.5
0.18605193,-0.24862264,-0.43083754,-1.4397191,0.02321709,0.019620774,-0.07775318,-0.3973237,-0.36722252,0.060012452,-3.0770798,0.6256119,0.00012002871,-0.08502868,0.018908167,-0.0014665495,0.020404514,-0.010058353,-0.015552352,0.49582663,-1.3702021,1.8897017,-2.087876,-1.5719622,2.471461,-0.1009061,0.12486573,-0.15690723,0.050539337,-0.013466932,-0.08524521,-0.11492168,0.076614454,-9.308656,0.83813137,47.687782,-1.0398219,-2.3156502,-3.578973,-0.06477833,-0.1158492,-0.39734444,24.625,25.125,24.3125,26.0625,26.25,26.5
0.18805191,0.4506632,0.34069532,-1.689594,0.021959113,0.023363257,-0.08913467,-0.39750874,-0.36717892,0.060023546,-3.0770352,0.6255627,0.00016467283,-0.08660988,0.019286217,0.0002434917,0.019721562,-0.009236891,-0.014134366,0.495622,-1.3699621,1.889366,-2.0877678,-1.5720223,2.4712317,-0.10305591,0.12416127,-0.16077521,0.054051198,-0.013265319,-0.08881231,-0.038307227,0.05746084,-9.346964,0.8403672,47.68599,-0.840575,-2.2091346,-3.5380654,-0.1033057,-0.12233567,-0.41847402,24.625,25.125,24.3125,26.0625,26.25,26.5
0.19005202,0.55563784,0.55893505,-1.662159,0.015022557,0.017495232,-0.08934329,-0.39768788,-0.36713004,0.06002435,-3.07695,0.62571466,0.0001801631,-0.08799959,0.018816506,0.00023870442,0.019255117,-0.008631644,-0.009324361,0.49540642,-1.369721,1.8890551,-2.0876715,-1.57207,2.471122,-0.103552,0.126715,-0.16375963,0.053713113,-0.01316131,-0.0941168,0.076614454,-0.038307227,-9.346964,0.8090337,47.693153,-1.0084283,-2.283758,-3.4758222,-0.116759285,-0.12590653,-0.36257613,24.625,25.125,24.3125,26.0625,26.25,26.5
0.1920523,-0.3554546,-0.4743915,-1.5965716,0.024033362,0.009560068,-0.072400436,-0.39785254,-0.36709955,0.059998147,-3.0769072,0.6257408,5.2005133e-05,-0.0883324,0.019249976,0.0010058254,0.020003058,-0.00893125,-0.0058596605,0.4951909,-1.369421,1.8887323,-2.0875628,-1.5720466,2.4709284,-0.10420548,0.12613803,-0.16551566,0.05666111,-0.013690089,-0.09823225,0.038307227,0.095768064,-9.3661175,0.91198283,47.690468,-0.9268404,-2.1760693,-3.4116015,-0.13961327,-0.12636325,-0.34421128,24.625,25.125,24.3125,26.0625,26.25,26.5
0.19405222,-0.56895787,-1.0671965,-1.8362037,0.019947764,0.015251615,-0.06532702,-0.39803556,-0.3670572,0.06001363,-3.0768616,0.625784,7.040081e-05,-0.087581165,0.018909503,-0.00072400685,0.022263048,-0.01407741,0.0009337051,0.49497554,-1.3691912,1.8883957,-2.0874422,-1.5720824,2.470746,-0.10318169,0.1307263,-0.16782981,0.059973188,-0.013242992,-0.10400149,0.11492168,0.21068975,-9.346964,0.8247004,47.66987,-1.0391806,-2.3001382,-3.468315,-0.17098713,-0.15189183,-0.27575222,24.625,25.125,24.3125,26.0625,26.25,26.5
0.19605242,-0.71111757,-1.1497772,-2.1171017,-0.0024114884,0.019080805,-0.074183114,-0.39819795,-0.36701542,0.060003042,-3.076787,0.62557447,1.3571459e-07,-0.08913876,0.02002463,0.0007579656,0.022291427,-0.012586283,0.0025590376,0.4947949,-1.3689035,1.8880361,-2.0872624,-1.5721425,2.4704444,-0.105954945,0.12917884,-0.16990624,0.062286235,-0.013995735,-0.10839638,0.11492168,0.22984336,-9.461885,0.83365434,47.666286,-0.904767,-2.1219225,-3.473855,-0.24081552,-0.15049577,-0.20741002,24.625,25.125,24.3125,26.0625,26.25,26.5
0.19805253,-0.69157803,-1.7335744,-2.05192,-0.021623755,0.032016147,-0.07955591,-0.39835554,-0.36697987,0.059996676,-3.0767407,0.62563646,-6.3482395e-05,-0.088685386,0.019082239,-3.801916e-05,0.023090938,-0.014614269,0.010090351,0.49459207,-1.3686622,1.8877381,-2.0871537,-1.5721425,2.4702864,-0.10407066,0.13206156,-0.17183545,0.06348555,-0.013755254,-0.11404231,0.076614454,0.24899697,-9.461885,0.87393653,47.668976,-1.166766,-2.3153453,-3.428155,-0.2811783,-0.13459745,-0.13076858,24.625,25.125,24.3125,26.0625,26.25,26.5
0.20005262,-0.941856,-1.9035057,-2.0049639,-0.043573096,0.03324684,-0.07465025,-0.39850327,-0.36693177,0.059976082,-3.0766494,0.62552357,-0.00018811105,-0.090499036,0.020148477,0.00019337493,0.022999363,-0.013981235,0.0065085683,0.49439934,-1.3683857,1.8874143,-2.086974,-1.5721782,2.470035,-0.10731096,0.13285863,-0.17337462,0.06362172,-0.013997307,-0.1136977,-0.019153614,0.38307226,-9.634268,0.8179876,47.705692,-0.96789455,-2.2289872,-3.4938998,-0.31583697,-0.15042527,-0.13007067,24.625,25.125,24.3125,26.0625,26.25,26.5
0.20205191,-0.9758176,-2.3558478,-2.0375042,-0.04206513,0.03938291,-0.06845555,-0.39873227,-0.3668937,0.060015727,-3.0766296,0.6254984,-5.989568e-05,-0.09169424,0.019259002,0.00021880546,0.022275323,-0.013201213,0.005991796,0.49417213,-1.3681325,1.8869952,-2.0868552,-1.5722502,2.469795,-0.10700741,0.13551491,-0.17650533,0.06305511,-0.013736829,-0.112877175,0.019153614,0.45968673,-9.5385,0.84484416,47.687782,-1.1888943,-2.237293,-3.3266172,-0.33554697,-0.14203224,-0.080059886,24.625,25.125,24.3125,26.0625,26.25,26.5
0.20405206,-1.2698166,-2.3186114,-2.093969,-0.050465483,0.04448569,-0.06814636,-0.3989152,-0.36685473,0.060017172,-3.0765944,0.62545407,-8.2839535e-05,-0.0931922,0.019469313,0.0002818807,0.022857955,-0.012567764,0.0011264877,0.49395618,-1.3678677,1.8866485,-2.0867345,-1.572275,2.469556,-0.10815836,0.13758728,-0.17924091,0.06344001,-0.014559335,-0.10915868,0.0,0.49799395,-9.653421,0.900793,47.694946,-1.108891,-2.232922,-3.2448754,-0.367078,-0.14943495,-0.113941714,24.625,25.125,24.3125,26.0625,26.25,26.5
0.20605215,-0.8609126,-2.1897042,-1.846776,-0.05597811,0.06719092,-0.075429745,-0.39909583,-0.36683288,0.060035996,-3.0765913,0.62553346,-0.00012252736,-0.095533215,0.01843476,0.0009520112,0.019246886,-0.008585234,-0.0042202864,0.49374017,-1.367627,1.886289,-2.0866048,-1.5722498,2.4693902,-0.109281994,0.13894562,-0.18142778,0.059051767,-0.013282145,-0.104937695,-0.30645782,0.49799395,-9.634268,0.8537928,47.705692,-1.0956892,-2.2684376,-3.3107846,-0.35756707,-0.15894753,-0.1854055,24.625,25.125,24.3125,26.0625,26.25,26.5
0.20805237,-1.3142576,-2.2862535,-1.9724572,-0.04818644,0.06284848,-0.07067363,-0.39931688,-0.36678293,0.06003533,-3.0765307,0.6254826,-7.925805e-05,-0.097395256,0.01757932,0.0017563873,0.016866382,-0.0050615477,-0.008117911,0.49350065,-1.3673145,1.8858932,-2.0864985,-1.5723218,2.469127,-0.10972904,0.13981368,-0.18369168,0.056210116,-0.012868092,-0.10148688,-0.2873042,0.5554548,-9.615114,0.83365434,47.684196,-1.1702641,-2.0566654,-3.3436232,-0.34700587,-0.18479738,-0.23056662,24.625,25.125,24.3125,26.0625,26.25,26.5
0.2100516,-1.3750187,-1.9888476,-1.6994566,-0.050951693,0.06905807,-0.07781171,-0.39950562,-0.3667632,0.060038097,-3.0765166,0.6255389,-8.5983644e-05,-0.09774979,0.017945714,-0.0003536949,0.017877497,-0.0082004005,-0.013049193,0.49329668,-1.3670366,1.8855361,-2.0864146,-1.5723218,2.46896,-0.11097534,0.14422756,-0.18401392,0.055363107,-0.012272852,-0.097802736,-0.40222588,0.5554548,-9.615114,0.85826975,47.67614,-1.1521302,-2.2017615,-3.3970752,-0.3171727,-0.19679731,-0.27921,24.625,25.125,24.3125,26.0625,26.25,26.5
0.21209256,-1.8993653,-2.3510273,-1.7637186,-0.04233706,0.06941836,-0.06358626,-0.39967465,-0.3667282,0.060030684,-3.0764468,0.6256017,-0.00016293844,-0.09927564,0.01810172,-0.0007304169,0.017525082,-0.0064056786,-0.015697252,0.49309266,-1.3667598,1.8851899,-2.086272,-1.5723342,2.4688044,-0.112221904,0.14607202,-0.18475372,0.052511424,-0.012828572,-0.096398,-0.51714754,0.45968673,-9.500193,0.85155696,47.699425,-1.1864159,-2.244569,-3.4393668,-0.3210135,-0.21935882,-0.3092252,24.625,25.125,24.3125,26.0625,26.25,26.5
0.21410605,-1.5457696,-1.7018151,-1.5519892,-0.047579207,0.08364923,-0.0783568,-0.3999022,-0.3667035,0.060046915,-3.076465,0.62562364,-9.4572366e-05,-0.101151675,0.017820032,-0.00086612237,0.016381918,-0.0032094212,-0.017091725,0.4928529,-1.3664706,1.8847941,-2.0862134,-1.5723461,2.4685762,-0.11305976,0.14792398,-0.18574567,0.048293415,-0.013343733,-0.095839605,-0.45968673,0.40222588,-9.442732,0.86498255,47.684196,-1.1656697,-2.3285582,-3.4239535,-0.27530977,-0.21429381,-0.35681504,24.625,25.125,24.375,26.0625,26.25,26.5
0.21609588,-1.788572,-2.0040095,-1.5012922,-0.037345655,0.094075106,-0.070085056,-0.40010768,-0.36667204,0.06004759,-3.0764186,0.62567234,-7.507043e-05,-0.10285103,0.018014668,-0.0018336446,0.01632138,-0.0033948724,-0.019573081,0.49263683,-1.3661691,1.8844107,-2.0861185,-1.5723823,2.4683967,-0.11493934,0.15168375,-0.1877059,0.046622954,-0.013213561,-0.095236674,-0.45968673,0.3256114,-9.442732,0.8717007,47.674347,-1.1343105,-2.3917854,-3.5805125,-0.23138145,-0.23671103,-0.4131071,24.625,25.125,24.375,26.0625,26.25,26.5
0.21810083,-1.6167626,-1.2524657,-1.1472921,-0.04407995,0.09939742,-0.07876429,-0.40033033,-0.36664426,0.06007142,-3.0764124,0.62576795,-2.3513716e-05,-0.104262486,0.018395448,-0.00057999324,0.014964411,-0.00021189505,-0.022140868,0.49239662,-1.3658935,1.8840054,-2.0860226,-1.5723943,2.4682171,-0.11658608,0.14999978,-0.18831918,0.04547239,-0.013524617,-0.094315216,-0.6895301,0.2681506,-9.3661175,0.9186956,47.675243,-1.0865397,-2.172271,-3.533145,-0.19289246,-0.23397663,-0.45071992,24.625,25.125,24.375,26.0625,26.25,26.5
0.22010331,-1.5949713,-0.8157535,-1.0111198,-0.019398427,0.09325546,-0.07662488,-0.4005507,-0.36659688,0.06006546,-3.0763803,0.62583554,-1.4270653e-06,-0.105888754,0.017745933,5.945355e-06,0.013453302,0.0016423401,-0.021512534,0.49213317,-1.3655927,1.8836459,-2.0859635,-1.5724181,2.4680002,-0.11716867,0.15152355,-0.19131662,0.04458855,-0.013081263,-0.095526084,-0.5554548,0.095768064,-9.251195,0.9410752,47.70211,-1.2307863,-2.3184717,-3.5079494,-0.16211446,-0.25146326,-0.49135518,24.625,25.125,24.375,26.0625,26.25,26.5
0.22205807,-1.4765617,0.019586336,-0.96562576,0.016291536,0.08464413,-0.08335388,-0.40076238,-0.3665819,0.06005896,-3.076366,0.6259454,1.2260482e-05,-0.10722196,0.017804608,0.0004085772,0.013376713,0.0033557294,-0.01857507,0.4919174,-1.3652681,1.8832616,-2.0859158,-1.5724186,2.467855,-0.11793692,0.15239623,-0.19319773,0.044044364,-0.013833509,-0.09922902,-0.53630114,-0.05746084,-9.097966,0.8179876,47.703903,-1.0991957,-2.1661103,-3.5222511,-0.12618385,-0.25006047,-0.48467097,24.625,25.125,24.375,26.0625,26.25,26.5
0.2240533,-1.4422662,0.3785883,-0.89971733,0.051845443,0.06815755,-0.07922046,-0.40099028,-0.36655933,0.06007554,-3.0763853,0.62594634,0.00010438984,-0.10967007,0.018028757,0.0008136,0.01241856,0.0050076116,-0.01500939,0.49168897,-1.3649787,1.8828667,-2.0858681,-1.5724424,2.467625,-0.12047598,0.15449569,-0.19651027,0.043332882,-0.013780868,-0.105333194,-0.47884035,-0.15322891,-9.078813,0.90527004,47.696735,-1.1681435,-2.314874,-3.3676934,-0.07461114,-0.2665798,-0.4713089,24.625,25.125,24.375,26.0625,26.25,26.5
0.22605269,-0.5545396,1.8365608,-0.6559,0.048006378,0.077565335,-0.09588463,-0.40121892,-0.36654207,0.060076445,-3.0763988,0.6259041,0.00014119713,-0.11030597,0.017612997,0.0006238202,0.013418004,0.0050360598,-0.0073018414,0.49146175,-1.364642,1.8824481,-2.0858076,-1.5724548,2.4673698,-0.11972241,0.15683858,-0.19907874,0.04399211,-0.014686758,-0.11228379,-0.45968673,-0.22984336,-9.002198,0.90527004,47.66271,-1.1015781,-2.222716,-3.313322,-0.037625857,-0.25881195,-0.4162211,24.625,25.125,24.375,26.0625,26.25,26.5
0.2280519,-0.8483953,1.6219321,-0.65383834,0.058454975,0.06255736,-0.08159815,-0.40143645,-0.36649078,0.060074158,-3.0763185,0.6259973,0.00014376128,-0.11163399,0.017356904,0.0030202032,0.011774505,0.0077103265,0.0006128853,0.49120992,-1.3643305,1.8820533,-2.0856874,-1.572503,2.4671867,-0.12051869,0.15466408,-0.20251924,0.046448812,-0.014517173,-0.12099411,-0.49799395,-0.28730422,-8.868123,0.87617236,47.660015,-1.2397668,-2.0508049,-3.2736235,-0.015822046,-0.28485996,-0.36345422,24.625,25.125,24.375,26.0625,26.25,26.5
0.23005208,-1.2887498,1.0300021,-0.98680377,0.060198735,0.055385865,-0.08137781,-0.40163684,-0.36644912,0.06006839,-3.0762877,0.62589127,0.00013237746,-0.1129783,0.017979478,0.003685492,0.012897431,0.0076310965,0.0050593303,0.49098203,-1.3640298,1.8816818,-2.0855787,-1.5725387,2.4668968,-0.122105025,0.15566973,-0.20595647,0.049464915,-0.015483245,-0.12702248,-0.49799395,-0.2681506,-8.944737,0.9164598,47.703007,-1.167714,-1.9707489,-3.1216192,-0.020098638,-0.3023814,-0.26566356,24.625,25.125,24.375,26.0625,26.25,26.5
0.232052,-0.7565612,0.7496533,-1.3013139,0.047234245,0.063078314,-0.08803856,-0.4018934,-0.36640814,0.060090892,-3.0762637,0.6259424,0.00019362717,-0.11413598,0.019827465,0.00333321,0.014553909,0.0051011033,0.0048397533,0.49070525,-1.363705,1.8812145,-2.085458,-1.572575,2.4666553,-0.12598006,0.15706955,-0.20760997,0.052716255,-0.015750045,-0.13067703,-0.36391866,-0.24899697,-9.174581,0.9992599,47.709274,-1.1370542,-1.9496198,-3.2439222,-0.03544358,-0.3074299,-0.19796558,24.625,25.125,24.375,26.0625,26.25,26.5
0.23405197,-1.1223502,-0.31817868,-1.373951,0.023547137,0.06573912,-0.074605174,-0.40210214,-0.36636224,0.06008107,-3.0762062,0.62583154,0.00019030352,-0.11347249,0.020203976,0.0022818998,0.01750916,0.0022090578,0.007828272,0.49047804,-1.36338,1.8808202,-2.0853374,-1.572635,2.4663665,-0.12517567,0.15923634,-0.20844871,0.055320587,-0.017000692,-0.13285638,-0.49799395,-0.11492168,-9.270349,0.87617236,47.668976,-1.1398659,-2.0557523,-3.3021727,-0.041705053,-0.30992988,-0.1599931,24.625,25.125,24.375,26.0625,26.25,26.5
0.23605226,-0.9621409,-0.73349917,-1.4722638,-0.0046258606,0.09009368,-0.07262969,-0.4023001,-0.36632863,0.060064767,-3.076153,0.62582314,5.8120993e-05,-0.11461965,0.02180661,0.0020440621,0.018785117,0.00060149515,0.0036569121,0.49023715,-1.3630315,1.8804015,-2.0851686,-1.5726236,2.4661274,-0.12857565,0.1602866,-0.20972285,0.057563942,-0.017380483,-0.13208184,-0.5554548,-0.019153614,-9.32781,0.8717007,47.658226,-0.9071236,-1.9495008,-3.3016796,-0.04313153,-0.310619,-0.1471756,24.625,25.125,24.375,26.0625,26.25,26.5
0.23805252,-1.6485579,-0.80619574,-1.7507584,-0.015280868,0.082363844,-0.06937735,-0.40253654,-0.36623856,0.06006115,-3.076062,0.6257871,7.921099e-05,-0.114337936,0.021672115,0.0016213822,0.01974985,-0.0011824964,-0.0040099057,0.48992628,-1.3627303,1.8800191,-2.0850365,-1.5727075,2.465806,-0.128012,0.1617798,-0.21100448,0.059380516,-0.017387176,-0.12384998,-0.5363012,0.1340753,-9.442732,0.8717007,47.67166,-1.0557082,-2.0337906,-3.3058596,-0.050032362,-0.3099413,-0.20280457,24.625,25.125,24.375,26.0625,26.25,26.5
0.24005182,-1.6281776,-1.49563,-1.8151538,-0.016579533,0.09614195,-0.068969026,-0.40278167,-0.36620337,0.06007518,-3.0760007,0.6259877,9.863759e-05,-0.11494057,0.021578472,0.00075173535,0.020761391,-0.002348729,-0.008216591,0.4896628,-1.3623927,1.8795527,-2.084905,-1.5727319,2.4656758,-0.12810044,0.16495134,-0.21294111,0.059652697,-0.017731572,-0.11972954,-0.47884035,0.24899697,-9.634268,0.8157518,47.687782,-1.0076797,-2.2522433,-3.3159938,-0.06660892,-0.31619653,-0.24124223,24.625,25.125,24.375,26.0625,26.25,26.5
0.24205227,-1.581283,-1.812102,-1.9385219,-0.024808146,0.092458904,-0.07418224,-0.4029951,-0.36615372,0.06006768,-3.0759578,0.62593997,8.629073e-05,-0.11452394,0.022667285,-0.0018253942,0.022813465,-0.0073894844,-0.012414131,0.48941076,-1.3620795,1.8791698,-2.0847967,-1.5727676,2.4653997,-0.12981491,0.16886055,-0.2119322,0.060142733,-0.01717331,-0.1172474,-0.3256114,0.21068975,-9.653421,0.9365982,47.677036,-1.07456,-2.1647878,-3.5249,-0.05538309,-0.31605637,-0.30566478,24.625,25.125,24.375,26.0625,26.25,26.5
0.2440525,-1.1814846,-1.8595312,-1.9900345,-0.026942115,0.086664245,-0.07519204,-0.40325683,-0.36608648,0.060081046,-3.0758662,0.6259778,0.00016459064,-0.11539244,0.022274364,-0.0013021823,0.022943832,-0.006663092,-0.012305619,0.4891235,-1.3617425,1.878703,-2.0846531,-1.5728639,2.4651482,-0.12956117,0.17003624,-0.21483652,0.061277438,-0.017639693,-0.11709946,-0.40222588,0.34476504,-9.595961,0.8672237,47.696735,-1.1162066,-2.1565742,-3.434125,-0.058992185,-0.33639404,-0.33433318,24.625,25.125,24.375,26.0625,26.25,26.5
0.24605256,-0.5598119,-1.4503541,-2.027702,-0.023494186,0.0717415,-0.073215984,-0.40345258,-0.36605206,0.06006878,-3.075837,0.6259325,6.0999384e-05,-0.11576653,0.02289556,-0.0024840664,0.024334395,-0.009044168,-0.013966364,0.48888367,-1.3614174,1.8783082,-2.0845091,-1.572852,2.464884,-0.13078703,0.17281681,-0.21573424,0.06214853,-0.017761033,-0.11666228,-0.19153613,0.3256114,-9.634268,0.8985519,47.687782,-1.121057,-2.2790537,-3.549778,-0.0670546,-0.33179367,-0.34201762,24.625,25.125,24.375,26.0625,26.25,26.5
0.248052,-0.4702636,-1.5375848,-2.124585,-0.024135016,0.046993148,-0.06943125,-0.40371662,-0.36600965,0.060073603,-3.0757966,0.62611586,8.194903e-05,-0.11506236,0.023288101,-0.0032312912,0.025849326,-0.011599077,-0.014342931,0.4885843,-1.3610567,1.8778428,-2.0844133,-1.5728639,2.4647045,-0.13063535,0.17377996,-0.21568955,0.064102925,-0.017898718,-0.11613386,-0.17238252,0.30645782,-9.730036,0.8537928,47.66271,-1.1342895,-2.3449748,-3.6110935,-0.08409634,-0.34926915,-0.36783558,24.625,25.125,24.375,26.0625,26.25,26.5
0.2500519,-0.19116707,-1.8250401,-2.0772502,-0.02885641,0.03511484,-0.06918424,-0.40395766,-0.36596802,0.060086492,-3.0757527,0.6260854,0.00016456895,-0.11545227,0.024619767,-0.0037728916,0.028425181,-0.013559703,-0.013724512,0.48834416,-1.3607322,1.8773993,-2.084304,-1.5729364,2.4644513,-0.13229065,0.17507859,-0.21664935,0.06669156,-0.019257719,-0.1184032,-0.038307227,0.36391866,-9.653421,0.9298854,47.705692,-1.0990627,-2.4162753,-3.647389,-0.084012404,-0.34201807,-0.37921494,24.625,25.125,24.375,26.0625,26.25,26.5
0.25205216,0.0006714777,-2.0397418,-1.8685149,-0.019335186,0.0351013,-0.071415655,-0.40420723,-0.3659131,0.060084067,-3.0756633,0.62611854,0.00021455185,-0.11595903,0.023733972,-0.0036223056,0.028848099,-0.013854549,-0.0077507664,0.48808137,-1.3603717,1.8769449,-2.0841835,-1.5730203,2.464221,-0.13102417,0.17739451,-0.22020628,0.06836672,-0.01951467,-0.12310774,-0.038307227,0.3256114,-9.461885,0.900793,47.696735,-1.1699886,-2.3349733,-3.652441,-0.1141736,-0.35276705,-0.3717028,24.625,25.125,24.375,26.0625,26.25,26.5
0.25405237,-0.21484138,-1.5295784,-1.6355681,-0.011610473,0.019454947,-0.06916445,-0.40443924,-0.36585978,0.060081612,-3.0756085,0.6261812,0.0001628295,-0.117676064,0.02419907,-0.0025513885,0.028678177,-0.014921448,-0.0039309035,0.487793,-1.3600359,1.8765143,-2.0840375,-1.5730323,2.463979,-0.13362734,0.17864741,-0.22523932,0.07298578,-0.018889721,-0.1295302,0.11492168,0.38307226,-9.32781,0.88289046,47.682407,-1.1131749,-2.2758088,-3.4972985,-0.14834489,-0.3563807,-0.31390476,24.625,25.125,24.375,26.0625,26.25,26.5
0.25605264,0.26502812,-0.8209039,-1.5243095,-0.0049262154,0.024328897,-0.078238875,-0.40467504,-0.36581543,0.060073365,-3.0755749,0.6261511,0.00011502464,-0.119947486,0.025439402,-0.0025971357,0.02893206,-0.01534144,0.00055244425,0.48751634,-1.3596754,1.8760704,-2.0839064,-1.5730442,2.4636881,-0.1375935,0.1809225,-0.22818239,0.074117966,-0.018949868,-0.13797742,0.17238253,0.34476504,-9.32781,0.88289046,47.678825,-1.10081,-2.3914669,-3.379459,-0.1927773,-0.36285698,-0.22541733,24.625,25.125,24.375,26.0625,26.25,26.5
0.25805247,0.18550126,-0.7625057,-1.3266144,-0.0008797979,0.018076962,-0.07687243,-0.4049488,-0.36576897,0.06008548,-3.0755422,0.6261758,0.00014977873,-0.12052092,0.02455736,-0.0012551312,0.027846288,-0.013598749,0.009079167,0.4872175,-1.3593041,1.8755668,-2.0837748,-1.5730804,2.4634092,-0.13660528,0.18038842,-0.23091832,0.07531126,-0.018831128,-0.14551567,0.15322891,0.3256114,-9.212888,0.83365434,47.69763,-1.0353739,-2.2363324,-3.366308,-0.20478812,-0.3732938,-0.12026276,24.625,25.125,24.375,26.0625,26.25,26.5
0.26005238,0.681945,-0.93125457,-1.5926596,0.003427285,0.025319457,-0.07383138,-0.40519097,-0.36573377,0.060117763,-3.0755405,0.6261176,0.00020848986,-0.12056263,0.025682596,-0.0012928701,0.02944379,-0.017271101,0.007719601,0.48696512,-1.359004,1.8751,-2.083629,-1.5731157,2.463121,-0.13862093,0.18113455,-0.23296703,0.080594525,-0.018521003,-0.14617272,0.11492168,0.3256114,-9.32781,0.87617236,47.71465,-0.9947395,-2.1123223,-3.3401546,-0.25730145,-0.3785413,-0.09152071,24.625,25.125,24.375,26.0625,26.25,26.5
0.26205254,0.330191,-1.0643431,-1.4666997,-0.011250806,0.0275325,-0.06638317,-0.40543833,-0.36566642,0.06011339,-3.0754383,0.6260778,0.00017846869,-0.12278918,0.025338655,-0.00016362683,0.028450815,-0.013935739,0.004560395,0.4866775,-1.3586321,1.8746198,-2.0834377,-1.5731882,2.462822,-0.13949968,0.18214726,-0.23663534,0.07983015,-0.01922929,-0.143887,0.019153614,0.21068975,-9.346964,0.87393653,47.723602,-0.9719866,-2.0366464,-3.305256,-0.2978116,-0.3766587,-0.069393486,24.625,25.125,24.375,26.0625,26.25,26.5
0.26405242,-0.78913134,-1.6264263,-1.6196963,-0.018209819,0.027892211,-0.057162363,-0.4056573,-0.3656146,0.060080137,-3.0753832,0.62604976,3.207637e-05,-0.12339324,0.026170934,-0.00021631819,0.028693859,-0.0144547,-0.002213038,0.48638943,-1.3582482,1.8742012,-2.0832937,-1.5731763,2.4625237,-0.14134441,0.18235752,-0.2369966,0.08056193,-0.019214049,-0.13895626,-0.076614454,0.24899697,-9.270349,0.8873621,47.678825,-1.0236071,-2.0883117,-3.3406925,-0.3166784,-0.3863464,-0.108324654,24.625,25.125,24.375,26.0625,26.25,26.5
0.26605257,-0.5417188,-1.3464872,-1.4659144,-0.025613563,0.06554353,-0.065296754,-0.405903,-0.3655749,0.060089413,-3.075331,0.6260587,2.3199242e-05,-0.122688815,0.024630276,-1.7178167e-05,0.028192777,-0.013435555,-0.005813654,0.48612723,-1.3578883,1.8737096,-2.0831268,-1.573212,2.462274,-0.13804145,0.18265627,-0.23770444,0.07984326,-0.01924831,-0.13205166,-0.095768064,0.1340753,-9.308657,0.95002913,47.664497,-1.2415507,-2.0961945,-3.417985,-0.3371455,-0.3959923,-0.16154087,24.625,25.125,24.375,26.0625,26.25,26.5
0.2680526,-1.1307571,-1.358347,-1.452088,-0.021201473,0.08311364,-0.06753313,-0.40616035,-0.36551827,0.060095213,-3.0752556,0.6261024,-1.33093745e-05,-0.12566799,0.024373438,0.0010562474,0.026385872,-0.008661986,-0.012424625,0.48582727,-1.3575164,1.873206,-2.0829365,-1.5732487,2.4620113,-0.13975576,0.18389362,-0.24101968,0.07686054,-0.019898875,-0.12715015,-0.15322891,0.095768064,-9.3661175,0.8717007,47.696735,-1.1277924,-1.9303788,-3.2178855,-0.32598096,-0.4050548,-0.2486301,24.625,25.125,24.375,26.0625,26.25,26.5
0.27005178,-1.4064943,-0.94534767,-1.3315248,-0.017522447,0.08684508,-0.06346482,-0.40641397,-0.36549032,0.060105216,-3.0752242,0.6261755,-1.8248222e-05,-0.12709652,0.024529127,0.00078641967,0.02564329,-0.006759074,-0.01823964,0.48556343,-1.3571442,1.872703,-2.0827935,-1.5732607,2.4617975,-0.141038,0.18527426,-0.24146403,0.073900506,-0.020135585,-0.122615874,-0.1340753,0.15322891,-9.251195,0.9545008,47.723602,-1.1502448,-1.9137673,-3.2916698,-0.28967834,-0.41116083,-0.2962554,24.625,25.125,24.375,26.0625,26.25,26.5
0.2720518,-1.4008344,-0.6025542,-1.3580692,0.0007915331,0.078168325,-0.07415816,-0.40666512,-0.36543038,0.060103536,-3.0751555,0.6262173,-4.4291457e-05,-0.12879033,0.024806825,-0.00068663014,0.025694523,-0.0064434623,-0.019717682,0.4852636,-1.3567833,1.8722376,-2.0826395,-1.5732969,2.4615328,-0.14276986,0.18938954,-0.24234715,0.07040299,-0.020350277,-0.12286692,-0.19153613,0.076614454,-9.346964,0.8806493,47.687782,-1.1976962,-1.9118757,-3.5247145,-0.2848954,-0.42657396,-0.34875432,24.625,25.125,24.375,26.0625,26.25,26.5
0.27405205,-1.1460149,-0.23471822,-1.6471655,0.011175367,0.06922359,-0.07070485,-0.40688494,-0.36538956,0.060083482,-3.075081,0.6262235,-9.502372e-05,-0.13216764,0.024631443,0.00023375318,0.023608249,5.5507182e-05,-0.02579921,0.48502335,-1.3564113,1.871806,-2.0825098,-1.5733331,2.4613063,-0.14463761,0.1904772,-0.24455057,0.0648029,-0.021556236,-0.11864619,-0.19153613,0.019153614,-9.423578,0.9164598,47.68062,-1.0942645,-1.9639108,-3.4867618,-0.2139976,-0.41061938,-0.43463218,24.625,25.125,24.375,26.0625,26.25,26.5
0.27605215,-0.35166866,-0.13597092,-1.6177603,-0.004866447,0.076630116,-0.075692475,-0.40718517,-0.3653117,0.06008357,-3.0749848,0.6263175,-3.5790763e-06,-0.13316597,0.025444845,-0.001070145,0.025182102,-0.00053950335,-0.027895005,0.48468778,-1.3560148,1.8713039,-2.082402,-1.57343,2.4610422,-0.14607167,0.19349913,-0.24499704,0.06347475,-0.022678161,-0.11797975,-0.19153613,-0.038307227,-9.5385,0.9321212,47.690468,-1.0583873,-2.1195476,-3.5317085,-0.16405788,-0.41276643,-0.49360734,24.625,25.125,24.375,26.0625,26.25,26.5
0.2780525,-0.8213841,-1.0783213,-1.589226,-0.0029461724,0.069954,-0.0766988,-0.40745622,-0.36530247,0.060099695,-3.0749893,0.6263153,5.9495378e-05,-0.13365541,0.026302567,-0.0021833056,0.026715681,-0.0029937506,-0.024632107,0.4844477,-1.3556179,1.8707646,-2.0822937,-1.5734538,2.4608004,-0.14769216,0.19613619,-0.24599144,0.064697765,-0.022901086,-0.12286258,-0.47884035,0.15322891,-9.385271,0.94331104,47.674347,-1.0372907,-2.1529405,-3.5514467,-0.16334316,-0.41378212,-0.49991304,24.625,25.125,24.375,26.0625,26.25,26.5
0.28005254,-1.4336363,-1.1211276,-1.6176999,-0.01917678,0.07701014,-0.06937153,-0.4076968,-0.36524117,0.060092993,-3.0748913,0.6264041,-3.463116e-05,-0.13621587,0.025835799,-0.0016927285,0.025863485,0.000783659,-0.017174939,0.48414811,-1.3552455,1.8702854,-2.0820916,-1.5734776,2.4605691,-0.14842847,0.1985229,-0.24943818,0.06198985,-0.023953754,-0.13104844,-0.59376204,0.1340753,-9.500193,0.92093146,47.66987,-1.0490944,-2.2048202,-3.617598,-0.12094503,-0.39464182,-0.4516173,24.625,25.125,24.375,26.0625,26.25,26.5
0.28205267,-2.3240077,-1.8299432,-1.7524464,-0.018535903,0.08999922,-0.06546396,-0.4079539,-0.365189,0.06008644,-3.0748463,0.6263508,6.702942e-06,-0.13729201,0.027266296,-0.0019067806,0.02807761,-5.356987e-05,-0.0093928715,0.48387173,-1.3548732,1.8698295,-2.0819943,-1.5735382,2.4602656,-0.15067868,0.1997895,-0.25099897,0.06401884,-0.025550624,-0.14107399,-0.4213795,0.17238252,-9.519346,0.9835985,47.74331,-1.0119333,-2.286981,-3.6513507,-0.10454826,-0.38315672,-0.36929733,24.625,25.125,24.375,26.0625,26.25,26.5
0.28405172,-2.0970325,-1.3277892,-1.4432354,-0.040675595,0.11552376,-0.07065293,-0.40821034,-0.36511168,0.06005973,-3.0747223,0.6263743,-4.1226103e-05,-0.13635233,0.026148876,-0.0032205791,0.029843992,-0.0028074349,0.0022081155,0.48356158,-1.3544644,1.8693622,-2.0818388,-1.5736107,2.4599864,-0.14769365,0.20346315,-0.25282922,0.06539351,-0.025873067,-0.14968535,-0.53630114,0.24899697,-9.461885,0.900793,47.682407,-1.2373819,-2.1836374,-3.5842574,-0.10349097,-0.3723786,-0.26682878,24.625,25.125,24.375,26.0625,26.25,26.5
0.28605187,-2.2984424,-1.55991,-1.4356105,-0.023101952,0.112022765,-0.06412421,-0.40850633,-0.36504292,0.060065452,-3.0746381,0.6263905,1.0734935e-05,-0.1377081,0.026350072,-0.002297293,0.02937036,-0.0011581485,0.006728183,0.48323813,-1.3540572,1.8688229,-2.081683,-1.5736946,2.4596844,-0.14887331,0.2034406,-0.25510165,0.065972,-0.026246132,-0.15538251,-0.7278373,0.22984336,-9.423578,0.8873621,47.666286,-1.1302234,-2.1859417,-3.7369153,-0.0861132,-0.36336637,-0.20040113,24.625,25.125,24.375,26.0625,26.25,26.5
0.288052,-1.9408379,-1.162216,-1.6325102,-0.014943791,0.10496007,-0.07207595,-0.40877566,-0.36503524,0.060079623,-3.074697,0.62634283,4.1671345e-05,-0.13984907,0.026091995,-0.00012719604,0.028211486,0.0031262343,0.0080275675,0.48297444,-1.3536733,1.8683084,-2.081599,-1.5736712,2.4593835,-0.14961886,0.20244813,-0.25903296,0.066557944,-0.027218252,-0.15742391,-0.59376204,0.22984336,-9.5385,0.9612189,47.690468,-1.1586349,-2.0855746,-3.576992,-0.078320175,-0.35119826,-0.15489408,24.625,25.125,24.375,26.0625,26.25,26.5
0.2900525,-1.8952442,-1.2709315,-1.3777078,-0.01005817,0.082854666,-0.06404544,-0.4090697,-0.36499098,0.060101505,-3.074673,0.62630296,0.00015540657,-0.14175107,0.025929997,0.0007943917,0.027669985,0.005771299,0.0017103399,0.48268664,-1.3532895,1.8677686,-2.0814798,-1.5737432,2.4590743,-0.15044887,0.2034178,-0.26229587,0.066257335,-0.027958717,-0.15193373,-0.63206923,0.19153613,-9.385271,0.9298854,47.716442,-1.3034517,-2.0513914,-3.5359602,-0.04628791,-0.33801305,-0.1782468,24.625,25.125,24.375,26.0625,26.25,26.5
0.2920518,-1.4446571,-0.9651369,-1.2658502,-0.0049492773,0.07065094,-0.07042875,-0.4093879,-0.36493465,0.06011965,-3.074596,0.6263272,0.00031503572,-0.14199747,0.026075458,0.00043391835,0.029055145,0.005056876,-0.0040614363,0.48238748,-1.3528694,1.8671931,-2.0813591,-1.5738639,2.4588006,-0.15024684,0.20501813,-0.2637314,0.06736352,-0.02883836,-0.14595707,-0.6512229,0.21068975,-9.270349,0.9388393,47.67166,-1.3280386,-2.1025631,-3.4850283,-0.019814715,-0.32311642,-0.22177628,24.625,25.125,24.375,26.0625,26.25,26.5
0.294052,-0.8780668,-0.26878726,-1.3741338,-0.007354311,0.06906047,-0.07050449,-0.40964544,-0.36485958,0.060073774,-3.0744755,0.6264375,0.00018629846,-0.14176351,0.026971944,-0.00061255856,0.03040632,0.0018150547,-0.009617041,0.48205152,-1.3524247,1.8667277,-2.0812151,-1.5738877,2.4585493,-0.15160184,0.20661741,-0.26381868,0.06934961,-0.028539157,-0.14175408,-0.6703765,0.17238252,-9.270349,0.95002913,47.698532,-1.2285134,-2.1653562,-3.4739509,-0.020582363,-0.32377163,-0.29990408,24.625,25.125,24.375,26.0625,26.25,26.5
0.2960522,-0.744339,-0.35779214,-1.268555,-0.00393572,0.0707291,-0.07625433,-0.40994203,-0.36481017,0.060091957,-3.0744584,0.6263771,0.00024465655,-0.14333372,0.028430834,-0.000350863,0.031733073,3.8047085e-05,-0.013479271,0.48173884,-1.3520288,1.8661755,-2.0810702,-1.5739354,2.4582014,-0.15506263,0.20814624,-0.26724827,0.07342712,-0.028890865,-0.14135054,-0.4213795,0.076614454,-9.385271,0.9455522,47.685097,-1.07387,-2.077178,-3.6647892,-0.029889744,-0.3056055,-0.331357,24.625,25.125,24.375,26.0625,26.25,26.5
0.2980524,-0.73355913,-0.848228,-1.3027613,0.013657731,0.06520477,-0.074024,-0.41024104,-0.36475107,0.060105998,-3.0743895,0.62643754,0.00028436646,-0.14324094,0.028923854,-0.00048109965,0.034771405,-0.0023579884,-0.014409357,0.48141602,-1.3516209,1.8656124,-2.0809004,-1.573996,2.4579256,-0.15471344,0.20981765,-0.27010062,0.07813112,-0.030473348,-0.14006384,-0.2681506,0.0,-9.289502,0.9634547,47.64927,-1.2893095,-2.042829,-3.5600424,-0.03462236,-0.2832496,-0.35751754,24.625,25.125,24.375,26.0625,26.25,26.5
0.30005166,-0.55561584,-0.009978184,-0.8973421,0.0075804694,0.06380491,-0.07753898,-0.410518,-0.36469442,0.060098004,-3.0743284,0.62642336,0.0003093715,-0.14232327,0.029206961,-0.0017775807,0.03762047,-0.0075121485,-0.013171522,0.4811165,-1.3512121,1.8651093,-2.0807798,-1.574056,2.4576254,-0.1541817,0.21293682,-0.2720646,0.08284445,-0.030617865,-0.14076781,-0.36391866,0.095768064,-9.251195,0.95897776,47.679718,-1.2412608,-2.133122,-3.4960184,-0.10780805,-0.26055893,-0.36142913,24.625,25.125,24.375,26.0625,26.25,26.5
0.3020526,-0.50175995,0.17970316,-0.89145756,0.023016999,0.054748442,-0.079799406,-0.4108233,-0.36464512,0.060108136,-3.0742505,0.6264991,0.00033547956,-0.14269812,0.029156046,-0.00087536394,0.03737847,-0.008836585,-0.008194968,0.4808044,-1.3507686,1.864509,-2.080598,-1.5741156,2.457371,-0.1547882,0.21307445,-0.27528715,0.08695242,-0.029812885,-0.14635257,-0.22984335,0.019153614,-9.040505,0.9321212,47.705692,-1.3383608,-2.0774312,-3.5085292,-0.1489608,-0.24099888,-0.36384037,24.625,25.125,24.375,26.0625,26.25,26.5
0.3040516,-0.34089646,0.3498826,-1.0749317,0.03270921,0.03806204,-0.077772535,-0.41110536,-0.3645803,0.060111765,-3.07418,0.62654,0.00033251508,-0.1423866,0.03052542,-0.0021889228,0.039674442,-0.01360254,-0.0056493264,0.48047978,-1.350372,1.863983,-2.0804298,-1.5741633,2.4570813,-0.15676275,0.21522765,-0.27579665,0.09056401,-0.029663803,-0.15087207,0.13407528,-0.019153614,-9.078813,0.9186956,47.66808,-1.3328543,-2.1186097,-3.5147688,-0.19420695,-0.21970552,-0.32116592,24.625,25.125,24.375,26.0625,26.25,26.5
0.3060517,0.047201794,-0.2034352,-1.0572813,0.034065533,0.014631756,-0.07783053,-0.41140148,-0.36451337,0.06010304,-3.0740812,0.62651485,0.00031335148,-0.14396395,0.031474408,-0.0019975645,0.040133517,-0.013755881,0.0009937097,0.480155,-1.3499163,1.8634084,-2.080238,-1.5742363,2.456754,-0.15935476,0.21653578,-0.27821615,0.09197247,-0.030046651,-0.16010277,0.24899697,0.019153614,-9.078813,0.9365982,47.677036,-1.2557824,-2.0519285,-3.4938493,-0.22095926,-0.21805778,-0.23979236,24.625,25.125,24.375,26.0625,26.25,26.5
0.30805182,0.60117704,-0.3581746,-0.7888908,0.009369981,0.012551882,-0.07965989,-0.41170633,-0.36444557,0.06010299,-3.0739932,0.6264151,0.00037168257,-0.1461559,0.031677946,-0.00068580033,0.039760858,-0.011069823,0.006621624,0.4798426,-1.3494723,1.8628334,-2.0800698,-1.574344,2.456391,-0.16089524,0.21703048,-0.28203684,0.09269527,-0.03099694,-0.16726515,0.076614454,0.05746084,-8.944737,0.9321212,47.709274,-1.2151525,-2.0269876,-3.424854,-0.24371517,-0.1920214,-0.11914316,24.625,25.125,24.375,26.0625,26.25,26.5
0.31005192,1.0995715,-0.47594115,-0.9161841,0.0007176254,0.01846112,-0.08807493,-0.4119602,-0.36439764,0.06008526,-3.0739312,0.6263832,0.0002391193,-0.14661977,0.031629287,-0.0011609877,0.04084166,-0.012135652,0.0079122335,0.47954258,-1.3490403,1.8623046,-2.0798662,-1.5743445,2.4560795,-0.16080219,0.2194238,-0.28421247,0.0939104,-0.031495612,-0.16845647,0.019153614,0.095768064,-8.963891,0.93436235,47.696735,-1.231082,-2.0392113,-3.4711778,-0.2538026,-0.17272407,-0.064951114,24.625,25.125,24.375,26.0625,26.25,26.5
0.31205192,0.088045515,-0.9837848,-1.2159631,-0.000993433,0.002115235,-0.0668941,-0.41223213,-0.3642886,0.060051747,-3.0737183,0.62641793,0.00017402487,-0.14820887,0.032433547,-0.0013271914,0.039995875,-0.010869999,0.0017589313,0.47920558,-1.3485962,1.861792,-2.0796392,-1.5744766,2.4557922,-0.16348048,0.2202652,-0.28446242,0.09178586,-0.03136088,-0.16497706,0.0,0.1340753,-9.155427,0.9097417,47.68599,-1.0263245,-2.0907269,-3.3851495,-0.28320527,-0.1455813,-0.06942717,24.625,25.125,24.375,26.0625,26.25,26.5
0.3140519,0.034509134,-1.2110358,-0.98883444,-0.033765737,0.037346367,-0.083065554,-0.41254357,-0.3642359,0.060060497,-3.0736918,0.62641793,0.0002071628,-0.15110914,0.03163032,-0.00029370657,0.03730044,-0.0066750813,-0.006731691,0.47886926,-1.3481641,1.8612164,-2.079497,-1.5745119,2.4554596,-0.16480157,0.22214444,-0.2885599,0.08904835,-0.030905709,-0.1578079,-0.019153614,0.22984336,-9.212888,0.9030289,47.739727,-1.1833596,-2.1994443,-3.3642993,-0.25476366,-0.113961175,-0.1286257,24.625,25.125,24.375,26.0625,26.25,26.5
0.31605196,-1.0929499,-1.7711774,-0.94855136,-0.05060176,0.036622234,-0.074645266,-0.4128491,-0.36417803,0.060072552,-3.0735953,0.6264392,0.000177438,-0.1531007,0.031309776,-0.00059406727,0.035920113,-0.006144198,-0.0156104565,0.4785448,-1.3477073,1.8605789,-2.0792458,-1.574572,2.4551613,-0.16645178,0.2255577,-0.29182953,0.087802686,-0.029932449,-0.15057997,-0.13407528,0.38307226,-9.155427,0.90527004,47.698532,-1.0732747,-2.1633532,-3.2523198,-0.28076068,-0.13238999,-0.21277107,24.625,25.125,24.375,26.0625,26.25,26.5
0.31805184,-0.9761964,-2.0425174,-1.3657802,-0.05433981,0.06881526,-0.08395255,-0.4131501,-0.36411652,0.06007801,-3.0734906,0.6264754,0.00019633594,-0.15480298,0.030323826,-0.0005036452,0.033111572,-0.0029223051,-0.01874668,0.47823268,-1.3472632,1.8599828,-2.079044,-1.5746554,2.4548857,-0.16675855,0.2272233,-0.29313052,0.08327095,-0.028941173,-0.14775285,-0.19153613,0.4213795,-9.289502,0.8918391,47.686886,-1.107569,-2.180876,-3.309495,-0.20952708,-0.1167092,-0.2799631,24.625,25.125,24.375,26.0625,26.25,26.5
0.32005218,-1.7020804,-2.4531813,-1.4273492,-0.059622157,0.07636155,-0.07624988,-0.41344395,-0.36404374,0.06005338,-3.073399,0.6265376,0.000101278485,-0.15551993,0.030108936,-0.00063825015,0.030746652,-0.0018797454,-0.025676513,0.47787216,-1.3467953,1.8594311,-2.0788658,-1.5746793,2.4545763,-0.16786009,0.22754219,-0.29269308,0.080504596,-0.027328677,-0.14192939,-0.2873042,0.34476504,-9.32781,0.90750587,47.72271,-1.003397,-2.1226435,-3.4660752,-0.17524111,-0.12651183,-0.38032198,24.625,25.125,24.375,26.0625,26.25,26.5
0.32205218,-2.6554148,-3.1994665,-1.4425471,-0.06148948,0.07252893,-0.074008755,-0.41374078,-0.3639824,0.060038075,-3.073305,0.62663513,4.3395838e-05,-0.15641485,0.030904803,-0.001935871,0.030319922,-0.0028076165,-0.030311054,0.47753525,-1.3463272,1.8588575,-2.078687,-1.5747145,2.4543128,-0.17029545,0.22973599,-0.29200152,0.07823915,-0.0265359,-0.13973193,-0.57460845,0.4405331,-9.3661175,0.9410752,47.703007,-0.9569442,-2.0399554,-3.6787064,-0.14485534,-0.13432945,-0.45862418,24.625,25.125,24.375,26.0625,26.25,26.5
0.32405224,-2.1125326,-3.009369,-1.0932239,-0.07290787,0.10464543,-0.08048548,-0.41407502,-0.36394233,0.06005751,-3.073274,0.6266645,0.00017055369,-0.15746619,0.029768327,-0.0008704564,0.02826306,-0.0004376945,-0.028564684,0.47722384,-1.3458718,1.8582338,-2.0785673,-1.5747865,2.454024,-0.16961247,0.23004664,-0.29475024,0.07760245,-0.02580654,-0.14079922,-0.7086837,0.45968673,-9.308656,0.92093146,47.684196,-1.1377686,-1.9761852,-3.829399,-0.11141837,-0.12482439,-0.4938144,24.625,25.125,24.375,26.0625,26.25,26.5
0.32605228,-1.8751782,-2.1150658,-1.3812786,-0.066352904,0.10777749,-0.09409721,-0.41437972,-0.36385605,0.060026888,-3.073147,0.62676805,5.2513886e-05,-0.15817146,0.029909614,-0.00032065937,0.026763614,-0.0007465899,-0.023189813,0.47683933,-1.34538,1.8576602,-2.0783632,-1.5748218,2.453721,-0.17117155,0.22993669,-0.29622266,0.07872321,-0.02437793,-0.14773671,-0.57460845,0.4405331,-9.32781,0.9365982,47.661808,-1.0777676,-1.989785,-3.7376347,-0.10964392,-0.13914064,-0.49473768,24.625,25.125,24.375,26.0625,26.25,26.5
0.32805228,-2.4077737,-1.7076826,-1.5597214,-0.025862193,0.08021589,-0.07605359,-0.4146736,-0.36381617,0.060002383,-3.0731182,0.6267563,1.7814624e-05,-0.16008271,0.02849728,0.0007210818,0.023797398,0.0025741756,-0.012646298,0.4765272,-1.3448999,1.8571085,-2.0782564,-1.5748338,2.4534056,-0.17097832,0.2312825,-0.29986474,0.076653115,-0.02332129,-0.15809008,-0.61291564,0.40222588,-9.442732,1.0216395,47.64837,-1.1197457,-1.986015,-3.7907665,-0.057226073,-0.13339551,-0.38302755,24.625,25.125,24.375,26.0625,26.25,26.5
0.3300524,-1.6322739,-0.5652069,-1.6569333,-0.018987149,0.09106872,-0.09467566,-0.41502243,-0.36377442,0.060030114,-3.073125,0.62676847,0.0001201808,-0.16038454,0.028035384,0.0008611044,0.024064006,0.0010021249,-0.0007189245,0.4761797,-1.3444434,1.8564609,-2.0781229,-1.57487,2.4530652,-0.170586,0.23314999,-0.3032039,0.07958186,-0.022868898,-0.16962767,-0.7086837,0.3256114,-9.5385,0.9612189,47.691364,-1.1749368,-1.9741321,-3.628738,-0.060697637,-0.14713223,-0.2748424,24.625,25.125,24.375,26.0625,26.25,26.5
0.33205247,-1.865129,-0.72469115,-1.4578896,-0.010918913,0.09575655,-0.088089965,-0.41534826,-0.36370367,0.060018975,-3.0730183,0.6268186,0.00013992828,-0.16006473,0.02622601,0.0003317931,0.023758404,0.0005420859,0.007877667,0.47583282,-1.3439512,1.8558506,-2.0779564,-1.5749534,2.4527638,-0.16743654,0.23603162,-0.30553943,0.079258665,-0.022421813,-0.17507498,-0.9959879,0.24899697,-9.500193,0.99031126,47.695843,-1.4166925,-2.0796626,-3.6547751,-0.041810893,-0.15970877,-0.20527902,24.625,25.125,24.375,26.0625,26.25,26.5
0.33405256,-2.1219504,-0.8828883,-1.4844072,-0.0051110573,0.10645561,-0.089725465,-0.41568512,-0.36364803,0.06002283,-3.0729847,0.6267714,0.00014117944,-0.16162045,0.024900798,0.00080847414,0.022632524,0.0014044755,0.00908686,0.475473,-1.3434585,1.8552021,-2.0777762,-1.5749892,2.4523792,-0.16677554,0.23920703,-0.3107575,0.080000944,-0.021835158,-0.17562352,-0.7469909,0.095768064,-9.557653,0.9030289,47.7245,-1.4355612,-2.1041188,-3.465713,0.003082313,-0.18443412,-0.16014016,24.625,25.125,24.375,26.0625,26.25,26.5
0.33605167,-1.338442,-0.30575317,-1.5438795,-0.017280294,0.1145829,-0.10008919,-0.41600743,-0.36361694,0.060014606,-3.0729642,0.6267725,0.00015798697,-0.16307142,0.026434086,0.00027392476,0.023947595,-0.0013444531,5.265853e-05,0.47515962,-1.342954,1.8545798,-2.0776556,-1.5750135,2.4520695,-0.17047174,0.24185589,-0.31360808,0.08326039,-0.021731447,-0.17028488,-0.4405331,0.05746084,-9.595961,0.900793,47.688675,-1.3980322,-2.3478203,-3.471779,-0.021637047,-0.184414,-0.18872538,24.625,25.125,24.375,26.0625,26.25,26.5
0.33805186,-1.5609258,-0.66315335,-1.4818578,-0.013995743,0.081359096,-0.08095704,-0.41635087,-0.3635598,0.060004737,-3.072904,0.6267627,0.00015332327,-0.1626581,0.027564624,-0.0012625264,0.02729959,-0.0060342182,-0.0071117785,0.47479948,-1.3424253,1.8539208,-2.0774863,-1.5750612,2.4517114,-0.17133234,0.24490781,-0.3148172,0.0871357,-0.02255234,-0.1639757,-0.4213795,0.0,-9.519346,0.8985519,47.66091,-1.4127293,-2.398942,-3.3741074,-0.023582475,-0.17618302,-0.25585988,24.625,25.125,24.375,26.0625,26.25,26.5
0.34005204,-1.0107445,-0.20790574,-1.3413491,-0.006209132,0.052235585,-0.09050889,-0.41666913,-0.36349747,0.05999955,-3.0728164,0.6267479,0.00018579469,-0.16249336,0.029688785,-0.002646694,0.03103819,-0.010601599,-0.013653974,0.47447482,-1.3419454,1.8533105,-2.0773175,-1.5751456,2.4513893,-0.17381796,0.24684998,-0.3150519,0.0912008,-0.023780663,-0.15991227,-0.36391866,-0.019153614,-9.385271,0.9164598,47.691364,-1.3112856,-2.39733,-3.5889559,-0.048192136,-0.16924202,-0.34341067,24.625,25.125,24.375,26.0625,26.25,26.5
0.342052,-0.07459139,-0.32684287,-1.745964,0.029316701,0.027880084,-0.092823945,-0.4170282,-0.36342567,0.06001756,-3.0727475,0.62688714,0.00022454013,-0.16160688,0.031092647,-0.003957599,0.03425227,-0.016068732,-0.016980814,0.4740784,-1.3414649,1.852641,-2.0771244,-1.5751942,2.4510891,-0.1749972,0.24874142,-0.3156007,0.096183814,-0.024136722,-0.1577627,-0.19153614,-0.05746084,-9.519346,0.9992599,47.661808,-1.3494124,-2.484669,-3.593543,-0.07882374,-0.15709934,-0.37771505,24.625,25.125,24.375,26.0625,26.25,26.5
0.34405208,0.92804193,0.5197464,-1.3332549,0.010097287,0.021103974,-0.102701195,-0.4173527,-0.3633749,0.060010146,-3.0726871,0.62691385,0.0002634435,-0.16281833,0.032547873,-0.0030177825,0.034876063,-0.017363835,-0.019350102,0.47375312,-1.3409735,1.8520292,-2.0769908,-1.5752538,2.4507887,-0.17830119,0.2484277,-0.31849572,0.100808576,-0.024111375,-0.15869673,-0.038307227,-0.1340753,-9.481039,0.99031126,47.661808,-1.165849,-2.4345837,-3.6158338,-0.1440379,-0.15282007,-0.39784688,24.625,25.125,24.375,26.0625,26.25,26.5
0.3460524,0.7713176,0.49526215,-0.9525308,0.019893546,-0.008478525,-0.10067258,-0.41769105,-0.3633026,0.060005397,-3.0725925,0.6269125,0.00022556972,-0.16353808,0.033330396,-0.0031468095,0.03593665,-0.020117724,-0.019742489,0.47338077,-1.3404574,1.8513597,-2.076762,-1.5753134,2.4504282,-0.18021901,0.25038272,-0.32161158,0.10487811,-0.023826018,-0.16022088,0.038307227,-0.28730422,-9.289502,1.0261165,47.698532,-1.2369143,-2.535688,-3.6115513,-0.17632324,-0.15398508,-0.40936053,24.625,25.125,24.375,26.0625,26.25,26.5
0.34805232,1.4153789,0.8195631,-0.9607419,0.023143537,-0.0056073563,-0.10425545,-0.41803738,-0.3632661,0.06002189,-3.0725696,0.6269788,0.00023281213,-0.16445215,0.033053514,-0.0023449692,0.03593978,-0.020350968,-0.011380102,0.47303277,-1.3399526,1.8506635,-2.0765698,-1.5753258,2.450125,-0.18040991,0.2515241,-0.32561153,0.107896864,-0.023765795,-0.16877343,0.11492168,-0.22984336,-9.174581,0.8806493,47.694946,-1.1645925,-2.4746776,-3.4976568,-0.2279669,-0.16466059,-0.35185757,24.625,25.125,24.375,26.0625,26.25,26.5
0.3500523,0.7453601,0.81858706,-1.0689588,0.041798893,-0.019142428,-0.104682185,-0.4183553,-0.36313868,0.059968162,-3.0723639,0.62692946,0.00011413467,-0.16786504,0.03325237,0.0012878919,0.032904994,-0.014017452,-0.0036477752,0.47262383,-1.3394148,1.8500761,-2.0763304,-1.575446,2.4497125,-0.18331511,0.24863876,-0.33063197,0.10870383,-0.024040785,-0.17940457,0.21068975,-0.11492168,-9.11712,0.95897776,47.711964,-1.058496,-2.2962637,-3.246412,-0.2538907,-0.16186908,-0.25314018,24.625,25.125,24.375,26.0625,26.25,26.5
0.35205233,0.56798327,0.6941715,-1.2385164,0.03798961,-0.013301245,-0.09576592,-0.41867846,-0.36308694,0.059968583,-3.07232,0.62691647,1.9266627e-05,-0.16798222,0.033635035,0.00023373336,0.03332409,-0.01549834,0.0027761832,0.4722635,-1.3389108,1.8494061,-2.0760906,-1.575446,2.44935,-0.18403482,0.25045022,-0.330444,0.108171485,-0.023790902,-0.18654795,0.2873042,-0.076614454,-9.289503,0.9612189,47.693153,-1.006603,-2.2322736,-3.3047276,-0.27442756,-0.17114124,-0.14989704,24.625,25.125,24.375,26.0625,26.25,26.5
0.35405245,-0.15072413,-0.43028122,-1.1804597,0.005159899,0.015248159,-0.0866517,-0.4190004,-0.36303425,0.05998242,-3.0722497,0.6268839,1.5266925e-05,-0.1702554,0.033954475,0.0007358834,0.031545516,-0.01296184,0.0006823407,0.4719388,-1.338431,1.8487357,-2.0758522,-1.5755056,2.4490147,-0.1865769,0.25142583,-0.33241242,0.10607459,-0.023389155,-0.18699668,0.05746084,0.05746084,-9.32781,0.92093146,47.67345,-0.91687167,-2.237634,-3.3763375,-0.27086565,-0.18099222,-0.10901006,24.625,25.125,24.375,26.0625,26.25,26.5
0.35605252,-1.304327,-1.8392154,-1.41071,-0.025754746,0.049039584,-0.08734663,-0.4193286,-0.36293623,0.05996357,-3.072113,0.6268599,-8.1787985e-05,-0.17204225,0.034989696,0.00097465643,0.030633792,-0.0115614785,-0.009352676,0.4715417,-1.3379154,1.84809,-2.075589,-1.5755776,2.4486208,-0.18973082,0.2517658,-0.33321923,0.10489003,-0.023226034,-0.18011332,-0.15322891,0.076614454,-9.404425,0.9231726,47.666286,-0.807192,-2.0685031,-3.5168867,-0.27552155,-0.18298666,-0.11126065,24.625,25.125,24.375,26.0625,26.25,26.5
0.35805243,-1.8953165,-2.308873,-1.4384711,-0.057805773,0.09149505,-0.096970074,-0.4196556,-0.36288053,0.05997801,-3.0720508,0.626812,-0.00013663337,-0.17388293,0.034125023,0.0006140963,0.02822631,-0.007261371,-0.017642416,0.47119403,-1.3374232,1.8473948,-2.0753162,-1.5756134,2.4482517,-0.18980908,0.25375912,-0.33346096,0.09823908,-0.023037666,-0.17190094,-0.15322891,0.095768064,-9.710882,0.88960326,47.677036,-0.97763264,-2.1525903,-3.4501214,-0.2328938,-0.19332378,-0.20805225,24.625,25.125,24.375,26.0625,26.25,26.5
0.3600522,-2.5134058,-2.9730759,-1.6439441,-0.07514237,0.11738136,-0.08852691,-0.41999784,-0.36281955,0.059974693,-3.0719848,0.6269346,-0.00019055969,-0.17304999,0.03259712,-0.0003426357,0.028145943,-0.0077872407,-0.021530803,0.47081098,-1.3369069,1.8467258,-2.075113,-1.5756258,2.4479542,-0.18659683,0.25603428,-0.333877,0.09683504,-0.022719346,-0.16480055,-0.51714754,0.2873042,-9.749189,1.0015011,47.703007,-1.0120509,-2.2049205,-3.6800675,-0.1883295,-0.20352656,-0.3092442,24.625,25.125,24.375,26.0625,26.25,26.5
0.36205232,-2.7619076,-2.7141545,-1.3729769,-0.08691271,0.13258524,-0.09436488,-0.4203572,-0.36274213,0.059980713,-3.0718925,0.6270125,-0.0001929723,-0.17417997,0.031670395,-0.00034400795,0.027401468,-0.0042407955,-0.025473682,0.47041538,-1.336391,1.8460311,-2.074888,-1.5756859,2.4476197,-0.18526869,0.25752473,-0.33493525,0.0929153,-0.02366882,-0.15952286,-0.7469909,0.34476504,-9.691729,0.9410752,47.693153,-1.14296,-2.1833928,-3.814959,-0.16742483,-0.21488523,-0.40211183,24.625,25.125,24.375,26.0625,26.25,26.5
0.36405233,-2.8262532,-2.472,-1.5259855,-0.062706076,0.1270018,-0.09448444,-0.42071152,-0.36268646,0.059962496,-3.0718453,0.6271577,-0.00020208873,-0.17567776,0.030950781,-0.0006692746,0.027656434,-0.0026323872,-0.028784927,0.47003168,-1.33585,1.8453835,-2.0747678,-1.5756983,2.447333,-0.18458803,0.2609557,-0.3381887,0.09143205,-0.024627473,-0.15552397,-0.5554548,0.38307226,-9.653421,1.0126908,47.66987,-1.3188602,-2.3072414,-3.7613063,-0.112039216,-0.21553513,-0.4867156,24.625,25.125,24.375,26.0625,26.25,26.5
0.36605233,-1.583734,-1.5537165,-1.7058109,-0.045807004,0.115772456,-0.10752172,-0.42105886,-0.36263865,0.059980355,-3.0718117,0.6271282,-0.0001335308,-0.17708997,0.0303627,0.00023144894,0.025988167,-0.00016371277,-0.02647799,0.46969584,-1.3353585,1.8447016,-2.074589,-1.5757583,2.4469836,-0.1848454,0.2614069,-0.3406898,0.09049442,-0.024278568,-0.15809001,-0.4213795,0.4213795,-9.691729,1.0283576,47.683304,-1.4257021,-2.3371553,-3.6912303,-0.09695171,-0.21073492,-0.5093799,24.625,25.125,24.375,26.0625,26.25,26.5
0.36805245,-1.4703912,-1.7135949,-1.5667669,-0.03407808,0.06411622,-0.09345794,-0.4214377,-0.36256617,0.059964623,-3.0717223,0.62725645,-8.192272e-05,-0.17870834,0.029364832,0.0007381593,0.024507008,0.0019906822,-0.016358575,0.46929994,-1.3347946,1.8440179,-2.074458,-1.5758299,2.4466798,-0.18454447,0.2634659,-0.34423238,0.089315765,-0.023988932,-0.167909,-0.36391866,0.57460845,-9.634268,0.947788,47.64479,-1.3534259,-2.2348042,-3.720594,-0.06415954,-0.22036242,-0.46554136,24.625,25.125,24.375,26.0625,26.25,26.5
0.37005162,-0.013881376,-1.257687,-1.67676,-0.04456455,0.054607224,-0.11093777,-0.4218055,-0.362506,0.059979428,-3.0716605,0.6272751,-4.7842077e-05,-0.17847374,0.030632142,-0.00024354913,0.027180463,-0.0020823032,-0.006116933,0.46892744,-1.3342663,1.8432888,-2.0742404,-1.5758904,2.4463274,-0.18589689,0.26539677,-0.3453801,0.09329874,-0.024579858,-0.17949933,-0.30645782,0.5363012,-9.634268,0.95226496,47.70838,-1.3351552,-2.23437,-3.6565683,-0.04331977,-0.22894418,-0.36535874,24.625,25.125,24.375,26.0625,26.25,26.5
0.3720518,-0.44893417,-2.0204008,-1.7694125,-0.036478538,0.024389626,-0.08920711,-0.42215645,-0.36245462,0.05997676,-3.071619,0.62712663,-1.20593995e-05,-0.17993404,0.031060722,0.0005453558,0.027481867,-0.00096018385,0.0028928942,0.46859092,-1.3337263,1.8425931,-2.0740607,-1.5759624,2.445904,-0.18715674,0.26598766,-0.34833738,0.09472949,-0.02540999,-0.18976338,-0.36391866,0.51714754,-9.634268,1.0641627,47.707485,-1.3607795,-2.2999582,-3.6831672,-0.047482017,-0.22937088,-0.24798378,24.625,25.125,24.375,26.0625,26.25,26.5
0.37405187,-0.5470546,-1.6387254,-1.7157805,-0.051600646,0.029796634,-0.09550368,-0.42253006,-0.3623898,0.059988964,-3.0715752,0.6270969,3.7032787e-05,-0.17962286,0.03247354,0.00062856055,0.030302724,-0.0046586497,0.0051620738,0.46820664,-1.3331987,1.8418754,-2.0738666,-1.576023,2.4455073,-0.1885179,0.2662366,-0.35035908,0.10103939,-0.026268551,-0.19338861,-0.30645782,0.40222588,-9.500193,0.9545008,47.675243,-1.3251514,-2.2991354,-3.6499243,-0.05993598,-0.22366318,-0.15924281,24.625,25.125,24.375,26.0625,26.25,26.5
0.3760519,-0.6540971,-1.7444648,-1.2950083,-0.03554501,0.0422332,-0.09248659,-0.4228622,-0.3623345,0.059971925,-3.0715237,0.6271838,-9.57366e-05,-0.1797081,0.03309024,0.00082555827,0.031603914,-0.007883652,0.00091926986,0.46782228,-1.3326594,1.841204,-2.0736496,-1.5759987,2.4451842,-0.18959907,0.26732525,-0.35350603,0.106573656,-0.025979571,-0.19022554,-0.13407528,0.19153613,-9.481039,0.9298854,47.65643,-1.3438563,-2.14214,-3.5940866,-0.13672867,-0.22930866,-0.16456017,24.625,25.125,24.375,26.0625,26.25,26.5
