Tylouw/Master_Thesis_Code/training_data/batch_1/rect_rod_t0.1/sample_23_session_1.csv
timestamp[s],tcp_force_x[N],tcp_force_y[N],tcp_force_z[N],tcp_force_rx[Nm?],tcp_force_ry[Nm?],tcp_force_rz[Nm?],tcp_pose_x[m],tcp_pose_y[m],tcp_pose_z[m],tcp_pose_rx[rot_vec_x],tcp_pose_ry[rot_vec_y],tcp_pose_rz[rot_vec_z],tcp_velo_x[m/s],tcp_velo_y[m/s],tcp_velo_z[m/s],tcp_velo_rx[rot_vec_x/s],tcp_velo_ry[rot_vec_y/s],tcp_velo_rz[rot_vec_z/s],q1[rad],q2[rad],q3[rad],q4[rad],q5[rad],q6[rad],qd1[rad/s],qd2[rad/s],qd3[rad/s],qd4[rad/s],qd5[rad/s],qd6[rad/s],tool_acc_x,tool_acc_y,tool_acc_z,current_of_whole_robot[A],voltage_of_whole_robot[V],current_J1[A],current_J2[A],current_J3[A],current_J4[A],current_J5[A],current_J6[A],temp_J1[C],temp_J2[C],temp_J3[C],temp_J4[C],temp_J5[C],temp_J6[C]
1.2739999e-06,0.36685827,-0.977118,-0.18197191,-0.01318772,0.032282703,-0.00176403,-0.38936234,-0.36873952,0.06006025,-3.0787919,0.62498456,0.00028513762,0.0008503398,0.0005074077,-0.0013480131,0.00080288015,-0.0017030602,-1.6644151e-05,0.5050208,-1.3817037,1.9041518,-2.0919044,-1.5708174,2.4800372,-0.00013565422,0.0005821661,0.0026964576,-0.0014001786,0.00012395674,-0.00012003927,0.11492168,0.17238252,-8.734048,0.7933669,47.77734,-0.14647579,-3.0761528,-2.326332,-0.21330756,0.12921311,0.02879285,24.625,25.1875,24.4375,26.1875,26.375,26.625
0.002054836,-0.064278066,-0.6550158,-0.1055644,-0.021709818,0.028584192,-0.0057215644,-0.3893525,-0.36872777,0.060034174,-3.0787544,0.62491935,0.00028129056,-0.0013614105,-0.00072343095,-0.001713095,-0.0023694066,0.003998755,-1.4936376e-05,0.50503284,-1.381679,1.904188,-2.091931,-1.5708536,2.4800134,-0.00013314579,0.0027397415,0.0030219916,-0.010408167,0.00012117492,-0.000118070566,0.076614454,0.21068975,-8.619126,0.679228,47.734352,-0.26354623,-2.954399,-2.2436588,-0.14477387,0.11330737,0.025459927,24.625,25.1875,24.4375,26.1875,26.375,26.625
0.004060434,-0.49093565,-0.9963807,-0.31039286,-0.012819275,0.014384709,0.003352254,-0.38937348,-0.36873668,0.060052827,-3.0787933,0.62496567,0.00033928652,-0.001024397,-0.000536827,-0.0025450801,-0.0016470796,0.0026996394,-1.450359e-05,0.5050208,-1.3816906,1.9041647,-2.091955,-1.5708417,2.4800253,-0.00013072822,0.0037990443,0.0037264307,-0.010685475,0.00011851552,-0.00011616563,0.05746084,0.21068975,-8.580819,0.7530795,47.73256,-0.17160103,-3.2651322,-2.5640326,-0.079701565,0.11386685,0.03756605,24.625,25.1875,24.4375,26.1875,26.375,26.625
0.006055016,0.334847,-0.26159734,-0.11631589,-0.0074671744,0.019666674,-0.016377218,-0.38934708,-0.36873627,0.06002288,-3.078751,0.62493783,0.0002531969,-0.00034381798,-0.00015829892,-0.0015291498,-0.00081077585,0.0012100929,-1.4397929e-05,0.50504476,-1.3816552,1.904188,-2.0919416,-1.5708417,2.4800372,-0.00012839703,0.0018413011,0.002652432,-0.0059454925,0.00011597009,-0.000114321236,0.076614454,0.19153613,-8.561666,0.784413,47.72719,-0.18312877,-3.276558,-2.5605474,-0.09869079,0.11823125,0.025987415,24.625,25.1875,24.4375,26.1875,26.375,26.625
0.00805449,0.62005174,-0.020524865,-0.6886348,0.034584142,0.0022350487,-0.0018910371,-0.38935804,-0.368722,0.060029488,-3.0787246,0.62497056,0.0003036894,-1.3405748e-05,2.5686157e-05,-0.00023550104,-0.0006404464,0.00091982074,-1.4207754e-05,0.50503284,-1.3816679,1.9041876,-2.0919402,-1.5708774,2.4800491,-0.00012614745,-0.00038763828,0.0014986123,-0.0022262738,0.00011353202,-0.00011253444,0.0,0.22984336,-8.676587,0.72622824,47.71286,-0.15888405,-3.2084422,-2.4151034,-0.11923809,0.120409936,0.020567115,24.625,25.1875,24.4375,26.1875,26.375,26.625
0.010054262,0.51070064,0.5857577,-0.9627654,0.03177398,-9.5594936e-05,-0.00509422,-0.389341,-0.3687098,0.060003616,-3.0787027,0.6249663,0.00023383241,0.00017102947,0.0001216491,0.00025024757,-0.00035508676,0.00037930658,-1.5371545e-05,0.5050208,-1.3816563,1.9042352,-2.0919511,-1.5708655,2.4800372,-0.00012411646,-0.0010870553,0.0007533732,-0.00017056237,0.0001284911,-0.00010939095,0.05746084,0.19153613,-8.887277,0.76874626,47.707485,-0.7420944,-2.5583508,-2.9272637,-0.14742173,0.1093481,-0.05134082,24.625,25.1875,24.4375,26.1875,26.375,26.625
0.012054229,-0.35931712,-0.48956835,-1.1186526,0.005232145,0.009214536,-0.007585758,-0.38934,-0.3687158,0.05998815,-3.0786748,0.6249049,0.00016105034,-0.0015585265,0.001676165,-0.002202916,0.0018673764,-0.0036444513,-0.0041984697,0.50503176,-1.3815944,1.9041866,-2.0919034,-1.5708655,2.4800134,-0.0043607512,0.0050246776,-0.00092105975,-1.1136505e-05,0.00012702837,-0.00016129215,0.15322891,0.17238252,-9.040505,0.69041777,47.677036,-0.88071513,-2.5141923,-3.011444,-0.1447668,0.1180913,-0.12420279,24.625,25.1875,24.4375,26.1875,26.375,26.625
0.014053886,-0.7066573,-1.2329711,-1.3791584,-0.03568011,0.03441951,-0.006991293,-0.38934007,-0.36871427,0.059998218,-3.0786815,0.6249042,0.00017301572,-0.005279321,0.0030831334,-0.0043295044,0.0034672017,-0.006556162,-0.0009369711,0.5050292,-1.3816149,1.9041852,-2.0918915,-1.5708655,2.4800096,-0.010213167,0.013441296,-0.0060273833,-7.271342e-07,0.00012458985,-0.009271773,0.0,0.15322891,-9.308656,0.7396539,47.688675,-0.46593952,-3.2600574,-2.9323668,-0.14679988,0.13443457,-0.11668659,24.625,25.1875,24.4375,26.1875,26.375,26.625
0.01605406,-1.1320578,-1.9037656,-1.3243623,-0.057416875,0.060054034,-0.0142424265,-0.3893301,-0.36869618,0.059955727,-3.078636,0.62490886,3.455889e-05,-0.0052185007,0.0033486322,-0.0039087925,0.0036178671,-0.0068559325,0.008183893,0.50499314,-1.3815553,1.9042085,-2.0918791,-1.5708417,2.4799821,-0.010611442,0.012604494,-0.0063302363,0.0014729527,0.0001384705,-0.018791111,-0.19153614,0.19153613,-9.3661175,0.7150385,47.709274,-0.5432671,-3.0666142,-2.980337,-0.15387169,0.13517866,-0.0078051607,24.625,25.1875,24.4375,26.1875,26.375,26.625
0.018054038,-1.2804923,-1.9488966,-1.5572784,-0.057114758,0.07919837,-0.029239513,-0.38932598,-0.3686724,0.059934925,-3.0785832,0.6249374,-4.9921142e-05,-0.005311853,0.0035746684,-0.0034115156,0.003237316,-0.006298668,0.008475712,0.50495696,-1.3815317,1.90422,-2.0918434,-1.5708417,2.4799705,-0.011117841,0.011393835,-0.006101619,0.001782836,0.00020141876,-0.019589761,-0.36391866,0.3256114,-9.346964,0.7709874,47.71017,-0.72097766,-2.8303452,-3.2129679,-0.13703978,0.1535735,-0.015920486,24.625,25.1875,24.4375,26.1875,26.375,26.625
0.0200543,-1.2199225,-0.8272494,-1.806435,-0.051164255,0.08924315,-0.045433406,-0.38932008,-0.36869222,0.059926875,-3.0785959,0.62484556,-0.00011978966,-0.0060900073,0.0038497923,-0.0029638761,0.0030874824,-0.0061741904,0.0060129594,0.5049806,-1.3814837,1.9041733,-2.0918071,-1.5708174,2.4799352,-0.012352706,0.01155714,-0.0075678676,0.002904715,0.00027143324,-0.018361492,-0.4213795,0.28730422,-9.519346,0.7911258,47.74331,-0.8786831,-2.736383,-3.397653,-0.156497,0.14815205,-0.07181387,24.625,25.1875,24.4375,26.1875,26.375,26.625
0.02205337,-0.9836684,-0.6766546,-1.7837842,-0.025755992,0.09288729,-0.06903526,-0.38933694,-0.36866608,0.059906654,-3.0785635,0.6249362,-0.0001487539,-0.0076321205,0.0034187774,-0.0034698753,0.00058288185,-0.008172775,0.0029731856,0.50491995,-1.3814583,1.9041947,-2.091831,-1.5708159,2.4799352,-0.015039759,0.015080844,-0.010584814,0.0029240893,0.0034230184,-0.018012337,-0.4213795,0.2681506,-9.653421,0.679228,47.711964,-0.8764201,-2.7812684,-3.4005914,-0.15951958,0.13132197,-0.10600277,24.625,25.1875,24.4375,26.1875,26.375,26.625
0.024054376,-1.2758552,-0.912889,-1.974518,-0.015011204,0.08489199,-0.08917172,-0.38934192,-0.36868456,0.05990356,-3.0786035,0.6248289,-0.00017377283,-0.00862898,0.0032185349,-0.0033545245,-0.0007168544,-0.007937523,0.002787527,0.50493145,-1.381422,1.904159,-2.091831,-1.5707921,2.4798746,-0.016272098,0.016190683,-0.012049844,0.0024411853,0.0044422806,-0.019059924,-0.57460845,0.22984336,-9.595961,0.7150385,47.703903,-0.895363,-2.7312796,-3.3913956,-0.16870204,0.11742388,-0.09723129,24.625,25.1875,24.4375,26.1875,26.375,26.625
0.02605405,-1.4238688,-1.3119751,-2.0301626,-0.011734485,0.09159862,-0.09739948,-0.3893363,-0.3686669,0.059868153,-3.0785615,0.62480265,-0.0002590505,-0.010191246,0.0032521146,-0.00335784,-0.0010128446,-0.007170987,0.0012958464,0.50490695,-1.3813732,1.9041818,-2.0918314,-1.5707921,2.479839,-0.017717032,0.018222582,-0.01431092,0.0018568431,0.004322746,-0.019011974,-0.7661445,0.19153613,-9.672575,0.7978386,47.693153,-0.9417846,-2.792117,-3.3324125,-0.13960311,0.11857967,-0.09367831,24.625,25.1875,24.4375,26.1875,26.375,26.625
0.028053394,-2.0543473,-1.5098372,-2.1282508,-0.02284943,0.09912707,-0.106765255,-0.3893799,-0.3686742,0.059882466,-3.0785851,0.62480694,-0.00024394368,-0.010458554,0.0034258068,-0.0040010307,-0.00033056445,-0.0077166483,-0.00070755364,0.504871,-1.3813245,1.9040865,-2.0918076,-1.5707802,2.4798028,-0.018049916,0.019714415,-0.014498647,0.001362088,0.0039886455,-0.01734041,-0.8236054,0.095768064,-9.844957,0.7866488,47.70211,-0.9167112,-2.705381,-3.3664584,-0.12064969,0.11849817,-0.11875875,24.625,25.1875,24.4375,26.1875,26.375,26.625
0.030053524,-2.075335,-1.1212711,-1.9483081,-0.031994198,0.11427446,-0.10353537,-0.38940597,-0.36865827,0.0598808,-3.07856,0.6248413,-0.00021900762,-0.0115541555,0.0031643708,-0.002846392,-0.0017582161,-0.0057225106,-0.002420514,0.5048347,-1.3813008,1.9040622,-2.0918076,-1.570804,2.4797912,-0.018809073,0.018998219,-0.016298654,0.0014412117,0.004270013,-0.016386483,-0.7469909,0.076614454,-9.844957,0.7978386,47.723602,-0.9392368,-2.722498,-3.3395557,-0.13420896,0.113224275,-0.1345403,24.625,25.1875,24.4375,26.1875,26.375,26.625
0.0320537,-2.114867,-0.7222733,-2.0044217,-0.024694385,0.1102798,-0.10164884,-0.38943917,-0.3686642,0.05987978,-3.078581,0.62482727,-0.00024556663,-0.012173233,0.0033429526,-0.0029625157,-0.0019111817,-0.006650277,-0.0032078063,0.5047984,-1.3812404,1.9039901,-2.0917947,-1.5707797,2.4797435,-0.020050723,0.020190984,-0.017647248,0.0023334932,0.004851444,-0.016841218,-0.6895301,0.11492168,-9.80665,0.6769922,47.677036,-0.9864253,-2.780887,-3.4137325,-0.12944381,0.1183758,-0.16980562,24.625,25.1875,24.4375,26.1875,26.375,26.625
0.034053534,-0.97474337,-0.02738899,-2.0071006,-0.013410594,0.11918598,-0.10420784,-0.38944045,-0.36865515,0.059858542,-3.0785978,0.6247919,-0.00025827385,-0.012503621,0.0029915043,-0.0029551112,-0.0031731983,-0.008082169,-0.0035863756,0.5047742,-1.381228,1.9040374,-2.0918543,-1.5707673,2.479695,-0.020890137,0.021300552,-0.01922661,0.0034399782,0.0066474513,-0.017304497,-0.6512229,0.076614454,-9.768343,0.78217715,47.734352,-0.94459474,-2.6770859,-3.393989,-0.13183464,0.089001246,-0.1694937,24.625,25.1875,24.4375,26.1875,26.375,26.625
0.036053628,-1.2368778,-0.06400385,-2.0416753,0.008379537,0.09295627,-0.094533615,-0.38948455,-0.3686325,0.059861094,-3.078553,0.6248978,-0.00027289568,-0.013809878,0.002521046,-0.002251964,-0.005008936,-0.0064389673,-0.0032670742,0.504702,-1.3811798,1.9039639,-2.0918071,-1.5707787,2.4796946,-0.02182056,0.02177584,-0.021201884,0.0026111952,0.007452357,-0.018554823,-0.47884035,-0.095768064,-9.672575,0.7642693,47.717335,-1.0283006,-2.6942909,-3.368021,-0.13838404,0.0789071,-0.18410578,24.625,25.1875,24.4375,26.1875,26.375,26.625
0.038053453,-1.0240228,-0.14932507,-2.0928817,0.009456783,0.0861294,-0.09916701,-0.3895182,-0.36862406,0.059836123,-3.0785475,0.6248585,-0.00035547654,-0.01569276,0.0030362266,-0.0015776351,-0.0058559813,-0.0045085344,-0.0041267523,0.50464135,-1.3810836,1.9039043,-2.0917952,-1.5707549,2.4796102,-0.024321688,0.02202215,-0.022878088,0.001943271,0.007253583,-0.020195484,-0.4213795,-0.05746084,-9.710882,0.7530795,47.71823,-0.98433983,-2.7135792,-3.3479445,-0.12425021,0.07016727,-0.20512575,24.625,25.1875,24.4375,26.1875,26.375,26.625
0.040053323,-0.92715496,-0.27491704,-2.0220096,-0.0011259315,0.08189601,-0.094754145,-0.38954833,-0.36862317,0.05984744,-3.078552,0.6249181,-0.0003531762,-0.016974775,0.0039374786,-0.0019523628,-0.005222236,-0.004425085,-0.006070127,0.5046045,-1.381059,1.9038442,-2.0917714,-1.5707434,2.47961,-0.026662456,0.023425428,-0.023578152,0.0014760732,0.006655921,-0.020591155,-0.34476504,-0.095768064,-9.672575,0.8157518,47.737934,-0.8607989,-2.7246904,-3.381526,-0.115750425,0.06535831,-0.20145528,24.625,25.1875,24.4375,26.1875,26.375,26.625
0.042053986,-0.9101336,-0.77060616,-2.0622609,-0.006759423,0.07937942,-0.090156674,-0.38958782,-0.36862284,0.05985908,-3.078618,0.6249701,-0.0003030378,-0.018021993,0.003889342,-0.0017564493,-0.0053584767,-0.0036192117,-0.005939047,0.5045445,-1.3810587,1.9038309,-2.0918314,-1.5707072,2.479574,-0.027387567,0.02455663,-0.025326267,0.0013238098,0.006382647,-0.021445476,-0.36391866,-0.095768064,-9.730036,0.6635613,47.687782,-0.9239639,-2.727192,-3.3538384,-0.09753458,0.07778832,-0.22940657,24.625,25.1875,24.4375,26.1875,26.375,26.625
0.0440538,-1.3621234,-0.9016679,-1.9644127,-0.009111501,0.061217513,-0.08431294,-0.38961914,-0.3686186,0.059837807,-3.078599,0.6249848,-0.00033121993,-0.019398833,0.00367701,-0.0010739642,-0.005940359,-0.0019459005,-0.004778571,0.5045083,-1.3809743,1.9037822,-2.0918434,-1.5707077,2.4795494,-0.028124524,0.025310533,-0.027757144,0.0012559964,0.006076658,-0.023341408,-0.17238252,0.019153614,-9.634268,0.73069996,47.72002,-0.9110906,-2.7261548,-3.248962,-0.085514754,0.0850185,-0.24026337,24.625,25.1875,24.4375,26.1875,26.375,26.625
0.04605379,-0.42468718,-0.7480851,-1.8594428,-0.011038336,0.07123115,-0.09486982,-0.38969192,-0.36860445,0.059852213,-3.078594,0.625078,-0.00027793527,-0.02038856,0.0041809133,-0.0010596571,-0.0054835933,-0.0015410646,-0.004286984,0.5044239,-1.380914,1.9036754,-2.0918314,-1.5707196,2.479524,-0.029519938,0.026157044,-0.028808182,0.0013292547,0.005479427,-0.025226617,-0.038307227,0.0,-9.576807,0.7709874,47.70211,-0.9452287,-2.6583624,-3.295515,-0.074670054,0.07883077,-0.25001788,24.625,25.1875,24.4375,26.1875,26.375,26.625
0.048054066,0.064881295,-0.9646904,-2.1636474,-0.007500146,0.06526878,-0.08739351,-0.38971436,-0.36859703,0.059833474,-3.0785844,0.625057,-0.00036063083,-0.020679014,0.005286868,-0.0011806242,-0.0039730486,-0.003139298,-0.0041462546,0.5043755,-1.3808419,1.9036273,-2.0918067,-1.5706958,2.4794636,-0.03130875,0.026411561,-0.02939362,0.003792264,0.0049320622,-0.02715544,-0.05746084,0.05746084,-9.595961,0.75755644,47.703903,-0.8550515,-2.6029606,-3.311363,-0.10822594,0.09195008,-0.23570824,24.625,25.1875,24.4375,26.1875,26.375,26.625
0.050053637,0.34110045,-1.060929,-2.0035932,-0.01526377,0.05226317,-0.0912974,-0.38977346,-0.36858383,0.059846498,-3.0786238,0.6250262,-0.00032915061,-0.02153764,0.005993634,-0.0010980977,-0.003684593,-0.002970917,-0.0039691655,0.50429094,-1.3808056,1.9035548,-2.0918067,-1.5706843,2.4793549,-0.033086933,0.026676396,-0.029962912,0.004090664,0.004598002,-0.02910971,-0.11492168,0.15322891,-9.653421,0.8291774,47.737934,-0.85650265,-2.6445985,-3.4003434,-0.10720995,0.1100582,-0.24338815,24.625,25.1875,24.4375,26.1875,26.375,26.625
0.052053597,0.017606348,-1.0696832,-1.8641484,-0.033527657,0.039692678,-0.09279444,-0.38981935,-0.3685559,0.059845462,-3.0785658,0.6250901,-0.00029488598,-0.023205258,0.005684118,-0.00024648715,-0.0048807673,-0.0008445407,-0.0028194105,0.5042308,-1.3807575,1.9034947,-2.0917828,-1.570732,2.479342,-0.034128483,0.02738491,-0.0326308,0.0036091483,0.0046100444,-0.031299844,-0.076614454,0.19153613,-9.615114,0.7620334,47.709274,-0.8344231,-2.6240737,-3.4063966,-0.10535237,0.110105105,-0.22623244,24.625,25.1875,24.4375,26.1875,26.375,26.625
0.05405327,-0.17922421,-1.7460388,-1.9617418,-0.03033517,0.039205812,-0.08746438,-0.38987657,-0.36855188,0.059855282,-3.0785892,0.6250568,-0.00026672884,-0.02500586,0.0056629865,0.00040183734,-0.006329622,0.0006996528,-0.0038539963,0.5041703,-1.3806971,1.9033984,-2.091771,-1.5707315,2.4792578,-0.03609244,0.028252928,-0.035011273,0.0030679975,0.0051268255,-0.032228835,-0.05746084,0.28730422,-9.519346,0.78217715,47.737934,-0.82864827,-2.5696259,-3.3126843,-0.09131983,0.12493947,-0.2542983,24.625,25.1875,24.4375,26.1875,26.375,26.625
0.05605407,-0.30433455,-1.3306956,-1.943219,-0.044343956,0.042046603,-0.08669349,-0.38993797,-0.36853316,0.05986424,-3.078599,0.6251737,-0.00023528963,-0.026109753,0.005953483,0.0005756659,-0.0068731774,0.0012008147,-0.004393647,0.50407404,-1.3806608,1.9033378,-2.0917833,-1.5707196,2.4792333,-0.037751097,0.028938267,-0.036165077,0.002835107,0.0053589474,-0.033347443,-0.019153614,0.30645782,-9.481039,0.7642693,47.71823,-0.8115243,-2.5147696,-3.3091488,-0.08462016,0.11392718,-0.27565357,24.625,25.1875,24.4375,26.1875,26.375,26.625
0.05805389,-0.31327254,-1.691161,-1.9071736,-0.036474805,0.04871265,-0.088682026,-0.3899749,-0.36853155,0.059870686,-3.0786407,0.6251424,-0.00025837217,-0.025746996,0.005265678,0.00038158588,-0.0070754657,0.00034440454,-0.0018857983,0.5040145,-1.3806244,1.9032773,-2.0917704,-1.5706838,2.4791489,-0.03662051,0.02991639,-0.0369947,0.0033381975,0.0059494018,-0.034725193,-0.038307227,0.34476504,-9.5385,0.7620334,47.717335,-0.854383,-2.5354807,-3.2888985,-0.08005749,0.11801563,-0.287245,24.625,25.1875,24.4375,26.1875,26.375,26.625
0.060054075,-0.86839145,-1.698399,-1.8413665,-0.028361129,0.03675053,-0.07613696,-0.39001736,-0.3685007,0.05984863,-3.078605,0.6251542,-0.00029108115,-0.026603619,0.0054798583,0.00064585515,-0.0077276984,0.00014012381,-0.0023815546,0.5039301,-1.380552,1.903242,-2.0917704,-1.5706953,2.4790764,-0.03819285,0.030451458,-0.03839618,0.0040662186,0.006616616,-0.035802566,-0.038307227,0.34476504,-9.404425,0.7866488,47.711964,-0.8952061,-2.4890833,-3.3694503,-0.08964375,0.10953452,-0.29966003,24.625,25.1875,24.4375,26.1875,26.375,26.625
0.062053993,-0.7208247,-1.2338256,-1.7844303,-0.026806895,0.04159979,-0.08538726,-0.39005834,-0.3684928,0.059830405,-3.0786288,0.625198,-0.0004069894,-0.027819937,0.005842113,0.00063972134,-0.008387323,-0.0002137893,-0.0027554156,0.5038336,-1.3804677,1.903181,-2.0917585,-1.5706233,2.4790041,-0.040397048,0.031738438,-0.039969414,0.004344579,0.0073609552,-0.037633628,0.0,0.30645782,-9.346964,0.7217513,47.71554,-0.8882156,-2.488781,-3.3545628,-0.09329198,0.125294,-0.32007977,24.625,25.1875,24.4375,26.1875,26.375,26.625
0.06405358,-0.19892254,-1.0772756,-1.5670186,-0.02310816,0.05327567,-0.09054631,-0.39015725,-0.36851195,0.059894893,-3.078732,0.6252385,-0.00020699204,-0.028911628,0.005665563,0.0010267979,-0.009446898,0.00060975977,-0.0031801027,0.5037732,-1.3804553,1.903025,-2.0917828,-1.5706228,2.478956,-0.041441593,0.032495152,-0.041680988,0.004065277,0.007893442,-0.038252246,-0.076614454,0.2681506,-9.3661175,0.779936,47.699425,-0.8440615,-2.4318602,-3.307664,-0.08103077,0.10271129,-0.33244514,24.625,25.1875,24.4375,26.1875,26.375,26.625
0.0660534,-0.49650785,-1.1730814,-1.5964315,-0.020582035,0.05401332,-0.08502625,-0.39020687,-0.3684736,0.05987061,-3.0786798,0.62524486,-0.0002414894,-0.030191565,0.005745594,0.0013506663,-0.009904787,0.0019418146,-0.0019449431,0.5036772,-1.3803709,1.9029778,-2.091771,-1.5706466,2.4788706,-0.042610154,0.033292394,-0.043216754,0.003417054,0.007644923,-0.040655136,-0.1340753,0.24899697,-9.385271,0.7418897,47.703007,-0.8623843,-2.4411392,-3.297061,-0.07320924,0.109613016,-0.3454618,24.625,25.1875,24.4375,26.1875,26.375,26.625
0.068053596,-0.5085062,-0.6821536,-1.3547202,-0.024970943,0.06543125,-0.08312079,-0.3902915,-0.36848348,0.059887122,3.0787454,-0.6252002,0.00019280634,-0.031108566,0.0059429365,0.0014685886,-0.0099562835,0.0023902946,-0.0011270634,0.5035929,-1.3802865,1.9028457,-2.0917943,-1.5706114,2.4787502,-0.043681663,0.034125257,-0.04447405,0.00342672,0.0074741426,-0.04254308,-0.19153613,0.24899697,-9.308657,0.78888994,47.694946,-0.853191,-2.4179626,-3.2496662,-0.06912794,0.10365194,-0.3395036,24.625,25.1875,24.4375,26.1875,26.375,26.625
0.070053704,-0.92561,-1.1133202,-1.4245739,-0.004907046,0.06777985,-0.07955224,-0.3903345,-0.3684717,0.05988642,-3.0787375,0.625218,-0.00023469224,-0.03222304,0.005883522,0.0021233195,-0.011241069,0.0031372819,-0.0020942101,0.50353265,-1.3802143,1.9027485,-2.0917346,-1.5706109,2.478702,-0.045090202,0.03433961,-0.04629449,0.0037563182,0.008234726,-0.04298521,-0.21068975,0.22984336,-9.346964,0.81351066,47.746887,-0.84156764,-2.4570398,-3.3018014,-0.06261989,0.09879152,-0.3477025,24.625,25.1875,24.4375,26.1875,26.375,26.625
0.07205363,-0.5956118,-0.5611647,-1.5606194,-0.010917639,0.07748226,-0.0916,-0.39038616,-0.36846837,0.05987521,3.0787313,-0.62519574,0.00028558538,-0.032690465,0.005604232,0.0020525148,-0.012397639,0.0023806642,-0.0008674637,0.5034485,-1.38013,1.9026769,-2.0917466,-1.5705622,2.4786048,-0.045908112,0.035427902,-0.04746511,0.0039414195,0.009611103,-0.045031443,-0.30645782,0.15322891,-9.232041,0.7642693,47.721813,-0.8509499,-2.4853814,-3.2670512,-0.07640114,0.092204675,-0.3573089,24.625,25.1875,24.4375,26.1875,26.375,26.625
0.0740542,-1.0734903,-0.67044604,-1.4883437,0.0026068494,0.07091709,-0.0796537,-0.39043897,-0.36845836,0.05988029,3.0786922,-0.6251676,0.00032137605,-0.033660863,0.0059294235,0.0015692342,-0.011702097,0.0020134733,0.0011677952,0.5033524,-1.3800812,1.9026049,-2.0917346,-1.5705141,2.478496,-0.04708241,0.037565526,-0.048881516,0.0038826452,0.009176632,-0.048239287,-0.4213795,0.0,-9.251195,0.7597976,47.71286,-0.88466763,-2.4273267,-3.2743123,-0.074003115,0.0744517,-0.35490802,24.625,25.1875,24.4375,26.1875,26.375,26.625
0.076054424,-0.9425686,-0.486643,-1.3261366,0.0024150787,0.076907724,-0.08401819,-0.39052257,-0.3684602,0.05990875,3.0786166,-0.62513244,0.00025888227,-0.035056528,0.006976908,0.0013348755,-0.011566724,0.0014150058,0.0025543578,0.5032553,-1.3800324,1.9024853,-2.0917466,-1.5704783,2.4783866,-0.05024246,0.038833175,-0.04993391,0.004259948,0.009349834,-0.052784815,-0.40222588,0.038307227,-9.404425,0.79560274,47.71554,-0.78777814,-2.4343004,-3.265214,-0.08769879,0.082219504,-0.34134012,24.625,25.1875,24.4375,26.1875,26.375,26.625
0.078053415,-1.1014365,-0.4494957,-1.241721,-0.000840573,0.07910179,-0.08864925,-0.39061454,-0.36844754,0.0599231,3.0785828,-0.62514156,0.00020164021,-0.034895714,0.006042375,0.0014367898,-0.012086422,0.001865264,0.006439828,0.50314826,-1.3799484,1.9023532,-2.0917466,-1.5704783,2.4782896,-0.04865879,0.039468203,-0.05083335,0.003879963,0.009588476,-0.055086013,-0.36391866,0.038307227,-9.308656,0.7866488,47.704796,-0.8662083,-2.445934,-3.3658748,-0.077301934,0.07247407,-0.30778584,24.625,25.1875,24.4375,26.1875,26.375,26.625
0.08005324,-1.1351146,-0.73155415,-1.4053987,0.0018154436,0.08613892,-0.09102725,-0.39066067,-0.36841324,0.059881695,3.0786374,-0.6251724,0.00034219763,-0.03711405,0.005953117,0.0018755919,-0.012612316,0.0034953363,0.005648169,0.50303984,-1.3798155,1.9022793,-2.091699,-1.5704659,2.4781935,-0.050357427,0.04174927,-0.054460626,0.0035476862,0.009249538,-0.055991635,-0.47884035,0.05746084,-9.270349,0.8224646,47.737038,-0.9896641,-2.406774,-3.1647716,-0.07525916,0.07172027,-0.3222621,24.625,25.1875,24.4375,26.1875,26.375,26.625
0.08205352,-1.2410676,-0.38512543,-1.417195,-0.0073924367,0.084518835,-0.09256796,-0.39075494,-0.3684194,0.059909094,3.078581,-0.62510026,0.00024117553,-0.037036225,0.0072204755,0.0012579211,-0.011377227,0.0021271494,0.008710446,0.50295556,-1.3797435,1.9021372,-2.0917227,-1.570455,2.4780715,-0.05214728,0.04157124,-0.052952796,0.0040160967,0.008837319,-0.060842987,-0.45968673,0.038307227,-9.308657,0.6926589,47.72271,-0.9247012,-2.4420173,-3.2486577,-0.06908637,0.0724403,-0.3030089,24.625,25.1875,24.4375,26.1875,26.375,26.625
0.08405421,-0.7668402,-0.07618446,-1.40442,-0.011304808,0.08787582,-0.09329944,-0.39082313,-0.36838293,0.059904285,3.0785913,-0.62508255,0.00028461177,-0.0380704,0.008136023,0.00027810023,-0.011007326,-0.00027072735,0.009773223,0.5028227,-1.3796705,1.9020537,-2.091687,-1.5704421,2.4779263,-0.05515849,0.044237047,-0.054039218,0.0047160247,0.009667369,-0.06491765,-0.49799395,-0.076614454,-9.308656,0.7150385,47.71823,-0.7428794,-2.45035,-3.3938758,-0.079952374,0.06951894,-0.26113808,24.625,25.1875,24.4375,26.1875,26.375,26.625
0.08605351,-0.81690925,-0.6624256,-1.4120499,-0.0036244937,0.0793259,-0.08872427,-0.39090082,-0.3683664,0.05990435,3.078571,-0.62505627,0.00026769435,-0.038737338,0.0074265823,0.0010237182,-0.011724837,0.0009782009,0.013539568,0.5027151,-1.3795862,1.9019564,-2.0916984,-1.5704302,2.477805,-0.0545909,0.044650186,-0.05632664,0.0051528024,0.00969254,-0.068115264,-0.4213795,-0.095768064,-9.346964,0.78888994,47.705692,-0.8066356,-2.4192715,-3.3206174,-0.07599923,0.071675405,-0.2203432,24.625,25.1875,24.4375,26.1875,26.375,26.625
0.08805345,-1.2540275,-0.63601696,-1.4500858,-0.00046553253,0.06253134,-0.08327783,-0.39098394,-0.3683572,0.059922706,3.0785491,-0.62495375,0.00024832005,-0.040434856,0.0066800285,0.0019004239,-0.012447914,0.0033699847,0.01637901,0.50260746,-1.3795136,1.9018234,-2.0916746,-1.5704063,2.477636,-0.054576628,0.046148602,-0.06004729,0.0049361684,0.009168724,-0.070937574,-0.5554548,0.05746084,-9.289502,0.7933669,47.699425,-1.003752,-2.5044305,-3.1659718,-0.068527974,0.08158602,-0.17774849,24.625,25.1875,24.4375,26.1875,26.375,26.625
0.09005359,-0.46087387,-0.2407304,-1.4795108,-0.0107925655,0.08455524,-0.09009785,-0.39106673,-0.36831537,0.059895433,3.0786068,-0.62496495,0.00029984646,-0.040404268,0.007826498,0.00052713824,-0.01176922,0.00072210096,0.016288335,0.5024749,-1.3793689,1.9017061,-2.0916388,-1.5704302,2.4775033,-0.056888744,0.047463983,-0.058419123,0.004637721,0.009848648,-0.07316104,-0.4213795,0.19153613,-9.308657,0.779936,47.72002,-0.9408684,-2.4420176,-3.2542582,-0.0744208,0.06881715,-0.14736536,24.625,25.1875,24.4375,26.1875,26.375,26.625
0.09205384,-1.1288444,-0.69382495,-1.6153641,-0.014488699,0.071676135,-0.08006104,-0.39116699,-0.3683225,0.059927244,3.07852,-0.62490785,0.00017993414,-0.041774318,0.007862928,0.0012667425,-0.012053245,0.0026780257,0.017200666,0.5023788,-1.3793088,1.9015735,-2.091687,-1.5704063,2.4773827,-0.05778036,0.047779758,-0.06044653,0.004504123,0.009160639,-0.07496198,-0.30645782,0.15322891,-9.385271,0.7486078,47.716442,-0.90538543,-2.473575,-3.343628,-0.08582127,0.064660065,-0.12229267,24.625,25.1875,24.4375,26.1875,26.375,26.625
0.0940535,-0.80522275,-1.3100364,-1.6108087,-0.016367892,0.07582064,-0.0847906,-0.39124066,-0.36831057,0.05992522,3.0785449,-0.6247786,0.00020700245,-0.04257604,0.0077148755,0.001149747,-0.012243641,0.0025139595,0.01667865,0.5022828,-1.3792002,1.9014415,-2.0916512,-1.5703944,2.477203,-0.058417123,0.04944381,-0.062183127,0.004629746,0.009402875,-0.07507624,-0.28730422,0.22984336,-9.270349,0.78888994,47.72271,-0.9743398,-2.43107,-3.2898636,-0.081236064,0.088237956,-0.101921365,24.625,25.1875,24.4375,26.1875,26.375,26.625
0.09605351,-1.119712,-1.2150894,-1.5596547,-0.024969954,0.06305392,-0.07550009,-0.39130953,-0.36827728,0.059913382,3.078576,-0.62474614,0.00025201868,-0.04315001,0.007785301,0.00020597053,-0.011936383,0.0006634535,0.014959223,0.50216275,-1.3791031,1.9013451,-2.0916145,-1.5703944,2.4770586,-0.05944401,0.052353583,-0.06353228,0.004837736,0.0100199105,-0.07438395,-0.22984336,0.22984336,-9.289502,0.8112748,47.73256,-0.9838542,-2.5104237,-3.2491794,-0.06590461,0.058495536,-0.090717904,24.625,25.1875,24.4375,26.1875,26.375,26.625
0.098053716,-0.6289786,-1.3093325,-1.6618716,-0.02169871,0.06356532,-0.08266084,-0.39140776,-0.36826107,0.059915334,3.0785234,-0.62469685,0.0002844702,-0.04375708,0.007901833,0.0014676781,-0.0126956515,0.002407651,0.013582985,0.5020068,-1.3789957,1.9012135,-2.0916145,-1.5703343,2.4768786,-0.0600792,0.050548818,-0.06446277,0.0056850794,0.009848875,-0.07364243,-0.1340753,0.28730422,-9.385271,0.784413,47.704796,-1.0001221,-2.4183054,-3.3146133,-0.089157134,0.07945484,-0.095383495,24.625,25.1875,24.4375,26.1875,26.375,26.625
0.10005379,-0.26104626,-1.2054573,-1.66387,-0.028135987,0.06015366,-0.08248597,-0.3915154,-0.36823595,0.059916746,3.0785463,-0.62460625,0.00020677979,-0.044824433,0.0078579,0.0014723307,-0.01262611,0.0030308454,0.011713239,0.50188684,-1.3788748,1.90107,-2.0916264,-1.5703701,2.4766994,-0.060755983,0.052120186,-0.06627825,0.0054158173,0.009486926,-0.07244764,-0.019153614,0.22984336,-9.404425,0.7665104,47.733456,-1.0623407,-2.4052176,-3.2938206,-0.09471825,0.087615184,-0.090589955,24.625,25.1875,24.4375,26.1875,26.375,26.625
0.10205378,-0.14523524,-1.0561568,-1.5772648,-0.034456603,0.05794554,-0.0825629,-0.39159876,-0.36821234,0.05991093,3.078528,-0.62464124,0.00024479645,-0.045728724,0.00769692,0.0011539594,-0.013322647,0.0032754168,0.009510355,0.5017549,-1.3787662,1.9009494,-2.091603,-1.5703462,2.4765916,-0.061615188,0.053832814,-0.06730741,0.004183653,0.009975052,-0.071103945,-0.11492168,0.22984336,-9.32781,0.74413085,47.71465,-1.0785844,-2.4562683,-3.3356967,-0.096890196,0.08754064,-0.11291502,24.625,25.1875,24.4375,26.1875,26.375,26.625
0.10405345,-0.50726897,-1.933902,-1.7309517,-0.01813556,0.04469334,-0.07654519,-0.39169136,-0.36820123,0.05991604,3.0784984,-0.62461746,0.00024283526,-0.046780556,0.007764117,0.0002580559,-0.013305912,0.002456609,0.0063262344,0.5016348,-1.378657,1.9008058,-2.0915916,-1.5703214,2.4764605,-0.062924504,0.056907155,-0.06869764,0.0032264108,0.010351353,-0.06922829,-0.19153613,0.2681506,-9.308657,0.7530795,47.689575,-1.1104851,-2.607408,-3.2974358,-0.07639882,0.080090076,-0.13654386,24.625,25.1875,24.4375,26.1875,26.375,26.625
0.1060539,0.2175187,-1.2993728,-1.9038239,-0.039438225,0.05295869,-0.08225702,-0.3917947,-0.36818558,0.0599056,3.078464,-0.62461114,0.00026475976,-0.04802224,0.007877059,0.0016579872,-0.0146504855,0.005126888,0.0035722258,0.5014906,-1.3785135,1.9006623,-2.0916035,-1.5702862,2.4763167,-0.06418061,0.05532392,-0.06998974,0.0031176256,0.010245448,-0.06772987,0.0,0.2681506,-9.3661175,0.7709874,47.695843,-1.0841373,-2.46556,-3.3317676,-0.06233088,0.089550555,-0.1700181,24.625,25.1875,24.4375,26.1875,26.375,26.625
0.108053856,0.01070851,-1.4800078,-1.6854012,-0.028450433,0.036448214,-0.07977575,-0.39189047,-0.36817616,0.059929714,3.0784154,-0.6245633,0.00021943027,-0.048771024,0.007584363,0.0015478445,-0.016037203,0.004495361,0.0013128862,0.5013705,-1.3784409,1.9005188,-2.0915916,-1.5702614,2.476173,-0.06531386,0.056794714,-0.07145615,0.0029974063,0.011766717,-0.066604294,0.076614454,0.3256114,-9.385271,0.7463667,47.68062,-1.0946144,-2.3698092,-3.304795,-0.068964615,0.06731815,-0.20969501,24.625,25.1875,24.4375,26.1875,26.375,26.625
0.11005394,0.042854633,-1.5353295,-1.7432579,-0.028812896,0.02660192,-0.07323374,-0.39199424,-0.3681636,0.059938293,3.0783825,-0.62455785,0.0002163113,-0.049268946,0.008212147,0.0006974146,-0.014544355,0.002648975,-0.00052773784,0.5012383,-1.3783199,1.9003505,-2.0915673,-1.5702375,2.4760416,-0.066553,0.05913303,-0.07254486,0.0040888283,0.011347821,-0.066001326,0.0,0.22984336,-9.461885,0.8627467,47.719128,-1.122757,-2.5072684,-3.3144598,-0.0831892,0.08504489,-0.23504439,24.625,25.1875,24.4375,26.1875,26.375,26.625
0.112054095,0.18899249,-0.90486807,-1.6578693,-0.030646546,0.034537632,-0.079427026,-0.39206803,-0.36813283,0.05989899,3.0784173,-0.6245824,0.0002890853,-0.050139785,0.0087249605,0.00073778606,-0.014209332,0.0026457785,-8.416085e-05,0.5011181,-1.3781635,1.9002546,-2.0915673,-1.5702375,2.4759324,-0.06802451,0.059870597,-0.073638625,0.0046121497,0.011051769,-0.06791623,0.038307227,0.22984336,-9.423578,0.800085,47.719128,-1.0760523,-2.4513373,-3.3293757,-0.08802351,0.081897244,-0.25317234,24.625,25.1875,24.4375,26.1875,26.375,26.625
0.11405389,0.42909786,-0.805934,-1.8231577,-0.027576696,0.05093784,-0.08585518,-0.39218292,-0.3681326,0.059924006,3.0783234,-0.62454414,0.00024982504,-0.051107034,0.008631863,0.00095554854,-0.0150134815,0.0031400903,-0.0005049523,0.5009742,-1.3780671,1.9000863,-2.0915787,-1.5701779,2.4757764,-0.069035776,0.06077102,-0.075160265,0.0044178423,0.01152303,-0.06850561,0.019153614,0.2681506,-9.404425,0.77545905,47.709274,-1.1110185,-2.5020459,-3.3470454,-0.084858015,0.076555796,-0.2661715,24.625,25.1875,24.4375,26.1875,26.375,26.625
0.11605378,-0.29637605,-1.0820366,-1.8340784,-0.015857454,0.043581642,-0.076754235,-0.39229012,-0.36809,0.05990988,3.0783484,-0.6245879,0.00025436078,-0.05311023,0.00808987,0.0019883197,-0.01602268,0.005697767,-0.0019182693,0.5008181,-1.3779227,1.8999418,-2.0915549,-1.5702018,2.4756446,-0.06974156,0.06207267,-0.07902204,0.0042509716,0.011171194,-0.067796156,-0.076614454,0.21068975,-9.461885,0.80679786,47.713753,-1.1317892,-2.381577,-3.3264472,-0.072849184,0.075280786,-0.31797045,24.625,25.1875,24.4375,26.1875,26.375,26.625
0.11805414,-0.12044364,-0.9691462,-1.7460278,-0.015093023,0.061647393,-0.08178092,-0.39243183,-0.36810467,0.059942693,3.0782442,-0.62448853,0.00017467038,-0.052955206,0.008637431,0.0005963542,-0.01507855,0.0031900213,-0.0014159009,0.5006742,-1.3777895,1.8997148,-2.0915787,-1.5701417,2.475452,-0.070733644,0.0641881,-0.078336135,0.0041079307,0.011558143,-0.069289684,-0.1340753,0.22984336,-9.289502,0.8157518,47.71286,-1.1831222,-2.5021524,-3.1928282,-0.08715339,0.068434685,-0.3525725,24.625,25.1875,24.4375,26.1875,26.375,26.625
0.12005397,-0.39381814,-0.88423806,-1.9135604,-0.00958173,0.06928145,-0.07231968,-0.3924822,-0.36807984,0.05990489,3.078303,-0.6244616,0.00030279276,-0.053696696,0.008608378,0.0012593466,-0.016055139,0.0042837523,-0.001689855,0.50057805,-1.3776456,1.8996195,-2.091531,-1.5701293,2.4753315,-0.0715615,0.06373987,-0.079324506,0.004117412,0.01188228,-0.0698448,-0.15322891,0.17238252,-9.385271,0.84484416,47.733456,-1.2168586,-2.421205,-3.3866754,-0.08334863,0.05557903,-0.35872668,24.625,25.1875,24.4375,26.1875,26.375,26.625
0.122053996,-0.9607244,-1.0273864,-1.9972334,-0.007110932,0.061426055,-0.074611455,-0.39258802,-0.36805147,0.059901606,3.0782745,-0.6244967,0.000352551,-0.05662926,0.008070484,0.003415299,-0.018348418,0.008332422,-0.0057537397,0.5004099,-1.3775133,1.8994621,-2.0914953,-1.570093,2.475189,-0.07338432,0.063973114,-0.08460073,0.004510839,0.011941962,-0.067601845,-0.17238252,0.095768064,-9.519346,0.78217715,47.71465,-1.3090546,-2.3553224,-3.1560245,-0.07277467,0.051270284,-0.44630498,24.625,25.1875,24.4375,26.1875,26.375,26.625
0.124053605,-1.522224,-1.1238427,-1.9846094,-0.004433549,0.055049345,-0.06297871,-0.39268962,-0.3680606,0.05989272,3.0782452,-0.6243927,0.00037722776,-0.05559456,0.009434295,4.8080918e-05,-0.014647965,0.0017701683,-0.0043212306,0.50030154,-1.3773437,1.8992838,-2.0915067,-1.5700454,2.4750195,-0.07464694,0.06875341,-0.082846776,0.0055163046,0.011852799,-0.0702967,-0.45968673,0.095768064,-9.442732,0.80679786,47.699425,-1.1652521,-2.5453901,-3.246044,-0.0775652,0.054713152,-0.4651006,24.625,25.1875,24.4375,26.1875,26.375,26.625
0.12605369,-1.2117021,-0.9757843,-1.93925,-0.012412036,0.07294223,-0.075902574,-0.3928078,-0.36800712,0.059906065,3.0782387,-0.6244653,0.0003627963,-0.056951508,0.008647947,0.0026195983,-0.016520204,0.0067049367,-0.0004469113,0.50011015,-1.3772484,1.8991269,-2.0914466,-1.5700577,2.4748743,-0.07410193,0.066111065,-0.0856104,0.005700336,0.011126368,-0.07362445,-0.36391866,0.15322891,-9.442732,0.76874626,47.68599,-1.407557,-2.3969526,-3.2867851,-0.09048767,0.049810693,-0.4717021,24.625,25.1875,24.4375,26.1875,26.375,26.625
0.1280536,-1.2143859,-0.63017535,-1.9288206,-0.02224634,0.08670268,-0.08333693,-0.39294133,-0.36801213,0.05991934,3.0781505,-0.6244078,0.0002988525,-0.058921903,0.009795924,0.002071872,-0.016492056,0.0057515553,-0.0009347371,0.49996522,-1.3771033,1.8989357,-2.0914948,-1.5700096,2.4747047,-0.07809753,0.06867172,-0.08743492,0.0058204266,0.011565122,-0.07713057,-0.36391866,0.095768064,-9.576807,0.78888994,47.684196,-1.3527328,-2.4551246,-3.2814107,-0.10968316,0.046778884,-0.47285002,24.625,25.1875,24.4375,26.1875,26.375,26.625
0.13005346,-1.1907983,-0.73681366,-2.0344071,-0.02163849,0.10106199,-0.07782867,-0.39306238,-0.3679932,0.059931863,3.0781295,-0.62439823,0.00025750167,-0.058732986,0.009536761,0.0016444699,-0.01625455,0.005331502,0.0073387786,0.4998216,-1.376971,1.898745,-2.091471,-1.5700096,2.4745579,-0.07746327,0.0695866,-0.08746613,0.005426284,0.011564362,-0.08476926,-0.49799395,0.13407528,-9.615114,0.8291774,47.686886,-1.2053834,-2.4191759,-3.2622113,-0.11389106,0.042495802,-0.43263754,24.625,25.1875,24.4375,26.1875,26.375,26.625
0.13205376,-1.7288402,-1.258449,-1.9033628,-0.011616046,0.08963567,-0.06558274,-0.39317772,-0.36795843,0.05991186,3.078119,-0.6244324,0.00030999354,-0.059913572,0.009702934,0.002181183,-0.016636211,0.0064783683,0.009927523,0.49964178,-1.3768026,1.8985881,-2.091459,-1.5699857,2.4744008,-0.07867226,0.06996051,-0.089176156,0.0055805496,0.011348083,-0.088566326,-0.59376204,0.11492168,-9.576807,0.80456203,47.71823,-1.4029553,-2.3932328,-3.2862315,-0.11368686,0.05076936,-0.40545002,24.625,25.1875,24.4375,26.1875,26.375,26.625
0.13405436,-1.3962586,-0.66444075,-1.9961802,-0.009180102,0.10166611,-0.08048434,-0.39327046,-0.36793,0.059889745,3.0781422,-0.62433594,0.0004064412,-0.06084936,0.00989325,0.0019681926,-0.017350059,0.0059747915,0.016075032,0.49948555,-1.376646,1.8984445,-2.0914228,-1.569949,2.4741814,-0.080372095,0.07137547,-0.09034995,0.0054473593,0.012213155,-0.096414566,-0.47884035,0.17238252,-9.634268,0.8224646,47.7254,-1.3922162,-2.4158874,-3.317173,-0.10452652,0.052266482,-0.36845696,24.625,25.1875,24.4375,26.1875,26.375,26.625
0.13605335,-0.872453,-0.30131817,-2.1559803,-0.00855093,0.10451522,-0.08058543,-0.39341486,-0.36792302,0.059923247,3.078089,-0.6242472,0.00027632233,-0.062374815,0.010387306,0.0025675297,-0.017569277,0.007438352,0.019299226,0.49934095,-1.3765258,1.8982285,-2.0914352,-1.5699495,2.4739883,-0.08226966,0.07167354,-0.09208495,0.0055019464,0.011715584,-0.10153377,-0.5554548,0.019153614,-9.576807,0.8090337,47.711964,-1.2945976,-2.3045177,-3.3840528,-0.10936886,0.03515801,-0.2801075,24.625,25.1875,24.4375,26.1875,26.375,26.625
0.13805357,-1.4229432,-0.6391365,-1.9490948,-0.0040781833,0.08598886,-0.07435429,-0.39355075,-0.36790362,0.05993821,3.0780513,-0.6241026,0.0002427221,-0.063616656,0.011509681,0.0020058097,-0.01722308,0.0066298065,0.020544311,0.4991605,-1.3763932,1.8980373,-2.0914352,-1.5699133,2.4737225,-0.08532665,0.073194444,-0.09258937,0.00537001,0.011807898,-0.10583483,-0.53630114,-0.038307227,-9.5385,0.78217715,47.723602,-1.30689,-2.2971556,-3.197753,-0.11714929,0.047355063,-0.23461983,24.625,25.1875,24.4375,26.1875,26.375,26.625
0.14005348,-1.4621127,-0.26846418,-1.7755871,-0.0045072366,0.08279553,-0.07242645,-0.3936826,-0.36789203,0.05992808,3.0780168,-0.62411195,0.00024068607,-0.064186215,0.011099257,0.0024805542,-0.0173343,0.008127735,0.024713539,0.499005,-1.3762008,1.8978347,-2.0914466,-1.5698899,2.4735773,-0.084749386,0.07349922,-0.093981706,0.005098654,0.01119125,-0.10942534,-0.57460845,0.019153614,-9.519346,0.8224646,47.73614,-1.3535728,-2.3321946,-3.417605,-0.09478614,0.05478423,-0.18392742,24.625,25.1875,24.4375,26.1875,26.375,26.625
0.14205357,-0.92254263,-0.3484115,-1.7798512,-0.006724722,0.098032765,-0.072862975,-0.39377543,-0.36782858,0.05988027,3.0780883,-0.624068,0.00035558647,-0.06643517,0.011210329,0.0030876857,-0.017856954,0.010012172,0.02407042,0.4988128,-1.3760321,1.8977379,-2.0914228,-1.5698899,2.4733486,-0.08670024,0.07523766,-0.09738502,0.004863608,0.010733756,-0.110732034,-0.47884035,0.038307227,-9.5385,0.7553206,47.69763,-1.4552805,-2.302761,-3.218449,-0.11349383,0.07000461,-0.16062102,24.625,25.1875,24.4375,26.1875,26.375,26.625
0.14405409,-0.9059069,-0.29916915,-1.6610626,-0.008528543,0.100395024,-0.082112685,-0.39391688,-0.36782715,0.05991101,3.0780265,-0.6239446,0.00034420978,-0.068675905,0.013513299,0.0028847381,-0.018110009,0.00957379,0.01647677,0.4986428,-1.3758879,1.8974861,-2.0913756,-1.5698298,2.4731095,-0.09286943,0.07573339,-0.097492784,0.004745306,0.011174082,-0.10930728,-0.40222588,0.038307227,-9.423578,0.7709874,47.67345,-1.0893204,-2.237819,-3.3223052,-0.10518793,0.07571876,-0.15553716,24.625,25.1875,24.4375,26.1875,26.375,26.625
0.14605333,-1.1629468,-0.463558,-1.9090071,-0.0035609812,0.088955574,-0.070092894,-0.39405516,-0.36777937,0.059914436,3.078003,-0.6239402,0.00032910955,-0.06890408,0.012759864,0.0028478727,-0.018220458,0.009452205,0.013226595,0.4984279,-1.375755,1.8973178,-2.0913627,-1.5698179,2.472895,-0.091877274,0.07732288,-0.099384695,0.0051011415,0.011330038,-0.10506391,-0.45968673,-0.019153614,-9.461885,0.7866488,47.67166,-1.2679267,-2.2610154,-3.2901416,-0.107204705,0.059221067,-0.19959277,24.625,25.1875,24.4375,26.1875,26.375,26.625
0.14805327,-1.1530585,-0.14136633,-1.6515455,-0.016450644,0.08399995,-0.076019526,-0.39422074,-0.3677699,0.059952673,3.0779269,-0.6238893,0.00017301195,-0.069658644,0.013623462,0.0024733066,-0.018407023,0.008173797,0.0056339405,0.49825937,-1.3756227,1.8970793,-2.091387,-1.5698174,2.4727044,-0.09447289,0.07818186,-0.09966047,0.005546439,0.012118852,-0.1000659,-0.5363012,0.11492168,-9.404425,0.84708,47.690468,-1.1767628,-2.2335935,-3.3669558,-0.114509344,0.06277878,-0.24810593,24.625,25.1875,24.4375,26.1875,26.375,26.625
0.15005358,-1.523787,-0.83289397,-1.6891706,-0.0032973944,0.085292034,-0.07279944,-0.3943906,-0.3677409,0.059949473,3.0779018,-0.623905,0.0001327007,-0.07143945,0.0146982325,0.0019631824,-0.017618982,0.008124746,0.0004997579,0.4980548,-1.3754057,1.896829,-2.091387,-1.5698179,2.472513,-0.09745939,0.0804666,-0.10114229,0.0051661185,0.011451068,-0.09791632,-0.5363012,0.076614454,-9.32781,0.8873621,47.741516,-1.0623851,-2.2476568,-3.3606315,-0.10051859,0.07730915,-0.3104374,24.625,25.1875,24.4375,26.1875,26.375,26.625
0.15205374,-0.7650161,-0.66133577,-1.7533042,-0.005619093,0.09496456,-0.080263965,-0.3945024,-0.3677035,0.05995408,3.0778873,-0.6238449,0.00014245721,-0.07281277,0.015341328,0.0022714946,-0.018071841,0.008879286,-0.0008744709,0.4978744,-1.3752974,1.8966845,-2.0913627,-1.569794,2.472297,-0.09979508,0.080857255,-0.10228714,0.005046297,0.011490416,-0.09887718,-0.28730422,0.095768064,-9.442732,0.8090337,47.71465,-1.0304918,-2.2306523,-3.3427687,-0.09250127,0.0795805,-0.34776047,24.625,25.1875,24.4375,26.1875,26.375,26.625
0.15405382,-1.6111022,-0.9090669,-1.6232486,-0.007368799,0.06642952,-0.062876426,-0.3946382,-0.36767828,0.059947312,3.0778306,-0.6238912,0.00020398399,-0.074521236,0.015926994,0.0028359976,-0.019034717,0.009599101,-0.0029910107,0.49766976,-1.3751171,1.8964804,-2.0913389,-1.5697335,2.4721284,-0.10262115,0.08136079,-0.10427045,0.0054411637,0.011993248,-0.09958634,-0.38307226,0.11492168,-9.346964,0.7642693,47.691364,-0.89151084,-2.2352278,-3.3804765,-0.10188559,0.07890557,-0.3476924,24.625,25.1875,24.4375,26.1875,26.375,26.625
0.15605386,-1.0719652,-0.84812176,-1.5988947,-0.008760773,0.0746768,-0.07171327,-0.39479265,-0.36763328,0.059952505,3.0777776,-0.62393683,0.0002132704,-0.07527517,0.016399961,0.002075501,-0.018037504,0.008292498,-0.0033872002,0.49742994,-1.3749601,1.8962768,-2.091315,-1.5696973,2.4719238,-0.10391214,0.08382533,-0.1055903,0.00592894,0.011745661,-0.100479834,-0.45968673,0.095768064,-9.32781,0.800085,47.679718,-0.8604462,-2.2121935,-3.3966112,-0.10295264,0.09610616,-0.35971642,24.625,25.1875,24.4375,26.1875,26.375,26.625
0.15805416,-1.1164408,-0.8223317,-1.6895202,-0.00813325,0.073968776,-0.070486695,-0.39497322,-0.36759433,0.059970118,3.0777283,-0.62392694,6.151675e-05,-0.076412514,0.016698819,0.0027393887,-0.01926827,0.009341739,-0.004897892,0.4972137,-1.3748039,1.8960623,-2.0913627,-1.5697211,2.4717078,-0.105777785,0.08346512,-0.10666434,0.005852344,0.012338794,-0.10083362,-0.38307226,0.15322891,-9.308656,0.8560339,47.690468,-0.87378955,-2.2999527,-3.3466325,-0.116068676,0.11752438,-0.39746612,24.625,25.1875,24.4375,26.1875,26.375,26.625
0.1600539,-1.1472679,-0.854722,-1.5672587,-0.008133166,0.08476825,-0.06397794,-0.39510503,-0.3675816,0.05996003,3.077698,-0.6238819,0.00013769665,-0.07689975,0.01653771,0.0032955953,-0.020467373,0.009834687,-0.0050704484,0.49703383,-1.3745999,1.8958348,-2.091327,-1.5696605,2.4715037,-0.10642422,0.083115906,-0.107591525,0.0061295656,0.0131586045,-0.10130799,-0.4213795,0.15322891,-9.289502,0.87617236,47.7254,-0.8584466,-2.118023,-3.385583,-0.10743883,0.0955707,-0.39190435,24.625,25.1875,24.4375,26.1875,26.375,26.625
0.16205405,-1.0439287,-1.1885526,-1.661845,-0.0027995869,0.08509767,-0.06821308,-0.39529416,-0.3675467,0.059993554,3.0776405,-0.6238859,6.355549e-05,-0.07761052,0.016052034,0.0014884344,-0.01960271,0.0068839146,-0.0027144211,0.49679452,-1.3744298,1.8955458,-2.0912797,-1.5696486,2.4712744,-0.106617756,0.0888936,-0.11035898,0.006130247,0.013812577,-0.10385506,-0.40222588,0.1340753,-9.289502,0.7597976,47.691364,-0.97035193,-2.2613425,-3.2438397,-0.11689673,0.11742005,-0.44855845,24.625,25.1875,24.4375,26.1875,26.375,26.625
0.16405426,-0.71419835,-0.95203006,-1.6813058,-0.011884509,0.08730347,-0.07758009,-0.39543173,-0.3675118,0.0599798,3.077621,-0.62389797,6.202125e-05,-0.07780369,0.016576575,0.002010748,-0.019667381,0.007900874,0.0023823292,0.49660254,-1.3742504,1.8953665,-2.0912912,-1.5696367,2.4710925,-0.10737711,0.0873445,-0.10971984,0.0061270744,0.013395384,-0.1097113,-0.24899697,0.17238252,-9.32781,0.78888994,47.696735,-0.93662024,-2.1935744,-3.5077302,-0.106689,0.1027738,-0.38627157,24.625,25.1875,24.4375,26.1875,26.375,26.625
0.16605422,-0.49811623,-1.2480426,-1.7408358,-0.002511755,0.07563048,-0.07167685,-0.3955906,-0.3674646,0.05997701,3.0775943,-0.623907,7.5260636e-05,-0.07896527,0.01614693,0.0019971225,-0.019826679,0.008205562,0.008669838,0.49636307,-1.3740691,1.895152,-2.0912669,-1.5696129,2.4708622,-0.10767442,0.08974491,-0.11258606,0.006262234,0.0133949295,-0.11629455,-0.1340753,0.17238252,-9.308657,0.83589023,47.695843,-0.90690947,-2.2470527,-3.2708855,-0.10431945,0.121327445,-0.3482411,24.625,25.1875,24.4375,26.1875,26.375,26.625
0.16805387,-0.33817714,-0.8048311,-1.6678073,-0.012926619,0.054978523,-0.07065926,-0.39576244,-0.36742827,0.05997999,3.0775414,-0.62383556,4.0561492e-05,-0.08034246,0.017294617,0.0016233426,-0.019430993,0.0072629503,0.012327239,0.49612242,-1.3738884,1.894936,-2.0912907,-1.5695766,2.4705837,-0.11088343,0.09132074,-0.11376836,0.0069009336,0.013511721,-0.12315963,-0.038307227,0.15322891,-9.346964,0.82022345,47.675243,-0.95552826,-2.2898226,-3.4178343,-0.11706622,0.13096948,-0.25752157,24.625,25.1875,24.4375,26.1875,26.375,26.625
0.17005685,0.2606364,-0.586924,-1.599478,-0.023284595,0.05823581,-0.07516234,-0.3959186,-0.36741573,0.059988916,3.0775208,-0.62368953,7.1860445e-06,-0.08065277,0.015542959,0.0023987878,-0.02026766,0.009385256,0.022712436,0.49594378,-1.3736959,1.8946842,-2.0912793,-1.5695528,2.4703166,-0.108019605,0.09229672,-0.116620794,0.006527771,0.013246456,-0.13067898,-0.15322891,0.24899697,-9.212888,0.81351066,47.71465,-1.16788,-2.2687907,-3.3202448,-0.11598657,0.14420158,-0.1695,24.625,25.1875,24.4375,26.1875,26.375,26.625
0.17205504,-0.28077275,-1.0624901,-1.7434881,-0.01322162,0.03881215,-0.07031204,-0.3961114,-0.3673739,0.059996925,3.0774713,-0.6237007,-4.9932623e-05,-0.08309678,0.01758449,0.0007113572,-0.019676464,0.006673709,0.017607067,0.4956901,-1.37349,1.8944215,-2.0912797,-1.5695409,2.4700763,-0.114106774,0.096711606,-0.11795874,0.006120518,0.014025286,-0.13165917,-0.095768064,0.28730422,-9.212888,0.82022345,47.701214,-0.867152,-2.45769,-3.3295584,-0.12172191,0.1543253,-0.13036664,24.625,25.1875,24.4375,26.1875,26.375,26.625
0.17405428,0.15967156,-0.682525,-1.7180737,-0.028198957,0.056651007,-0.07773608,-0.3962671,-0.36731362,0.05998306,3.0774848,-0.62366265,-9.482999e-06,-0.08290393,0.016962934,0.0019836815,-0.020327866,0.008781666,0.019819673,0.49543938,-1.3732988,1.8942174,-2.091243,-1.5695289,2.4698002,-0.11257441,0.09463811,-0.118507735,0.0065863654,0.013597436,-0.13233975,0.038307227,0.30645782,-9.232041,0.78888994,47.71823,-1.0214763,-2.2907104,-3.3176198,-0.10835852,0.1673244,-0.10011418,24.625,25.1875,24.4375,26.1875,26.375,26.625
0.1760537,-0.040597882,-1.7826582,-1.7749372,-0.016745422,0.06163159,-0.067025565,-0.39640945,-0.36728564,0.059980728,3.0774744,-0.6235857,2.5073875e-06,-0.083778195,0.016831616,0.0005692623,-0.019152578,0.0056540724,0.0155527145,0.49524736,-1.3731165,1.8940004,-2.0912187,-1.5695046,2.4695616,-0.11339085,0.09985642,-0.12183775,0.008008507,0.014047006,-0.12888733,-0.019153614,0.30645782,-9.155427,0.8023209,47.66271,-0.9719635,-2.3891025,-3.1376228,-0.13441265,0.17746304,-0.13840036,24.625,25.1875,24.4375,26.1875,26.375,26.625
0.1780541,-0.16317078,-1.7623553,-1.8735625,-0.022336269,0.058124863,-0.058500443,-0.39658108,-0.36726105,0.059993744,3.0774198,-0.6235181,-5.9632166e-06,-0.083842695,0.016569385,0.002022659,-0.020107804,0.007519088,0.011245176,0.49502003,-1.3729254,1.8937382,-2.0911944,-1.5694569,2.469299,-0.112931184,0.097403124,-0.12246238,0.008995091,0.014006715,-0.124119736,-0.076614454,0.34476504,-9.193734,0.78888994,47.690468,-1.0552429,-2.2555711,-3.4443226,-0.122427404,0.18573675,-0.19101566,24.625,25.1875,24.4375,26.1875,26.375,26.625
0.18005364,-0.12527737,-1.3871715,-1.86798,-0.024510244,0.05906727,-0.06815141,-0.39677224,-0.36723608,0.060006473,3.0773816,-0.6234752,-9.0426474e-05,-0.08508516,0.017230473,0.0007216888,-0.020071141,0.005375488,0.0038358006,0.4948036,-1.372708,1.8934506,-2.0911949,-1.5694565,2.469061,-0.11573134,0.10098753,-0.123682275,0.008528235,0.01499565,-0.11950884,0.019153614,0.28730422,-9.308656,0.83813137,47.72271,-0.9429514,-2.3763504,-3.2038078,-0.15857628,0.19145522,-0.24162117,24.625,25.1875,24.4375,26.1875,26.375,26.625
0.18205364,-0.4745474,-1.2562797,-1.8857785,-0.028288642,0.04915494,-0.069537885,-0.39692503,-0.36720324,0.05997496,3.0773363,-0.6235038,1.3508939e-05,-0.085755445,0.016259925,0.0012533435,-0.020654025,0.0072067846,0.0024354383,0.49456468,-1.3724673,1.893236,-2.0911949,-1.5693845,2.4688456,-0.11443835,0.1019015,-0.12586072,0.007914198,0.014630562,-0.116814755,-0.019153614,0.3256114,-9.404425,0.78888994,47.69763,-1.2037466,-2.3980496,-3.3383193,-0.13427621,0.21602096,-0.30870622,24.625,25.1875,24.4375,26.1875,26.375,26.625
0.18405376,-0.17730372,-1.540698,-1.8788817,-0.026326194,0.049995683,-0.06553294,-0.39708596,-0.36715275,0.059986576,3.077365,-0.6234143,-2.5386036e-05,-0.08749597,0.016401831,0.0011660788,-0.02085733,0.0068723606,-0.0010890086,0.4943482,-1.3722981,1.8929948,-2.0911348,-1.5694083,2.4685698,-0.11642146,0.10472238,-0.12919526,0.008622977,0.014965765,-0.11527172,-0.05746084,0.30645782,-9.346964,0.8112748,47.690468,-1.0397449,-2.4526114,-3.1716506,-0.14240012,0.21298653,-0.35432202,24.625,25.1875,24.4375,26.1875,26.375,26.625
0.18605408,-0.31978753,-1.3979813,-1.7521863,-0.021604357,0.04264754,-0.059480775,-0.39729238,-0.36710206,0.059979215,3.0773106,-0.6235181,-2.7529502e-05,-0.088414475,0.016391907,0.0014955675,-0.021235177,0.007720609,-0.002984518,0.4940606,-1.3720456,1.8927082,-2.0911224,-1.5693845,2.468354,-0.117134035,0.105355576,-0.13071334,0.008587703,0.014898496,-0.11408781,-0.15322891,0.30645782,-9.32781,0.82022345,47.683304,-1.2094247,-2.474203,-3.122295,-0.12644094,0.23283736,-0.4022412,24.625,25.1875,24.4375,26.1875,26.375,26.625
0.18805408,-0.22198309,-1.2614076,-1.9240098,-0.019712271,0.04871405,-0.06888769,-0.39744702,-0.36707613,0.059971772,3.0772743,-0.6234917,-7.214823e-05,-0.08988843,0.016403493,0.0017006814,-0.022478009,0.008149879,-0.005839026,0.49386853,-1.371853,1.8925041,-2.0911586,-1.5693716,2.4681501,-0.118998036,0.10680583,-0.13286176,0.008318538,0.015791504,-0.11309582,-0.095768064,0.34476504,-9.32781,0.8291774,47.689575,-1.2111022,-2.40765,-3.1351404,-0.15140204,0.2356214,-0.47554243,24.625,25.1875,24.4375,26.1875,26.375,26.625
0.19005413,-0.73914057,-1.4738896,-2.1304405,-0.02193484,0.043070626,-0.052274693,-0.39763284,-0.36707202,0.059984226,3.07719,-0.62343466,-4.2669413e-05,-0.0901941,0.016480701,0.0017234475,-0.023319155,0.007060734,-0.00506856,0.49364084,-1.3716125,1.8921813,-2.091122,-1.5692877,2.4678977,-0.12012912,0.107297644,-0.13373663,0.009273382,0.017060133,-0.11499671,-0.095768064,0.30645782,-9.423578,0.86945957,47.711964,-1.1786462,-2.3938458,-3.164648,-0.14899799,0.23986739,-0.50704116,24.625,25.1875,24.4375,26.1875,26.375,26.625
0.19205442,0.04216175,-1.1924,-1.7793063,-0.033006817,0.06946036,-0.081037916,-0.39781362,-0.36701983,0.059988447,3.07719,-0.62339395,-5.6593108e-05,-0.0908724,0.016690465,0.001895427,-0.023786083,0.0069548525,-0.0025119283,0.49338883,-1.3714082,1.8919176,-2.0910742,-1.5692872,2.4676204,-0.12133,0.1077666,-0.13481669,0.009764694,0.017530637,-0.11875374,-0.19153613,0.2681506,-9.461885,0.7620334,47.670765,-1.174381,-2.4024887,-3.13336,-0.16269518,0.21770841,-0.5108403,24.625,25.1875,24.4375,26.1875,26.375,26.625
0.19405366,-0.4473663,-1.6987337,-2.0077531,-0.021643657,0.07245011,-0.068622924,-0.39797446,-0.36699143,0.059967298,3.077161,-0.62340134,-1.7563887e-05,-0.09128237,0.016865904,0.0013759277,-0.024284368,0.0056151217,0.005750801,0.49317282,-1.3711675,1.8916792,-2.0910742,-1.569251,2.4674127,-0.12261632,0.10920316,-0.13539425,0.009868078,0.018618047,-0.12830272,-0.22984336,0.24899697,-9.481039,0.82694155,47.704796,-1.2198572,-2.3883388,-3.2061243,-0.16823855,0.23608293,-0.4149059,24.625,25.1875,24.4375,26.1875,26.375,26.625
0.19605377,-0.59940565,-1.054935,-2.0698905,-0.03388314,0.08538404,-0.07343804,-0.39815247,-0.3669712,0.059985753,3.0771084,-0.6232685,1.2540776e-05,-0.0923804,0.016857937,0.0017011228,-0.025337081,0.005850646,0.014673681,0.4929329,-1.3709631,1.8913802,-2.0910146,-1.5691789,2.4670966,-0.12405388,0.11010643,-0.13729987,0.010191483,0.019452097,-0.13866192,-0.21068975,0.17238252,-9.5385,0.8672237,47.698532,-1.2591408,-2.314868,-3.1225896,-0.18488196,0.2471157,-0.39157367,24.625,25.1875,24.4375,26.1875,26.375,26.625
0.19805372,-1.3421556,-1.1709279,-2.1958923,-0.015898455,0.07604933,-0.06779578,-0.3983314,-0.36692804,0.05997798,3.0770662,-0.6232951,6.299214e-05,-0.09327305,0.017893588,0.00036025487,-0.024194399,0.0034507348,0.01989425,0.49266857,-1.3707337,1.8911165,-2.0909784,-1.5691308,2.4668543,-0.12662686,0.113210656,-0.13804908,0.010515223,0.019593643,-0.14645487,-0.17238252,0.15322891,-9.519346,0.7978386,47.670765,-1.1389,-2.2779708,-3.3177185,-0.20626995,0.2404882,-0.2805068,24.625,25.1875,24.4375,26.1875,26.375,26.625
0.2000537,-0.78933495,-0.664253,-1.9378573,-0.015778929,0.0940173,-0.071358815,-0.3985465,-0.36692488,0.060015522,3.0769327,-0.6231683,-2.5323641e-05,-0.09406966,0.018574147,0.0014064218,-0.025098823,0.005320231,0.023359314,0.49241665,-1.3705304,1.8907946,-2.0910027,-1.5690469,2.4665403,-0.12838054,0.111076616,-0.13788085,0.010432368,0.019538837,-0.15167132,-0.36391866,0.11492168,-9.519346,0.9097417,47.719128,-1.074841,-2.3268776,-3.3083682,-0.20705543,0.24094778,-0.20337588,24.625,25.1875,24.4375,26.1875,26.375,26.625
0.20205392,-0.8584251,-0.42267472,-1.9380339,-0.003322134,0.09935008,-0.06866045,-0.39871117,-0.36683223,0.059950516,3.0769925,-0.6232181,0.0001339159,-0.09503001,0.01894706,-8.0162754e-05,-0.024251428,0.0034018417,0.023308614,0.49210486,-1.3702526,1.890603,-2.0909665,-1.5690349,2.466252,-0.12990674,0.11513918,-0.13924116,0.009831178,0.01968249,-0.15314808,-0.49799395,0.0,-9.5385,0.84484416,47.698532,-1.1496844,-2.4059496,-3.335824,-0.19249423,0.23962037,-0.16134828,24.625,25.1875,24.4375,26.1875,26.375,26.625
0.20405427,-1.3661394,-0.413872,-2.0023031,0.010883189,0.095663175,-0.062525384,-0.39893016,-0.36682335,0.05999023,3.0769103,-0.6231071,-1.184096e-06,-0.095162585,0.018550573,0.00077057915,-0.025542654,0.004998885,0.019548517,0.4918772,-1.370037,1.8902558,-2.0909665,-1.5690111,2.4659657,-0.12953654,0.11371996,-0.13940145,0.00939287,0.02008255,-0.14901543,-0.51714754,-0.05746084,-9.634268,0.81351066,47.693153,-1.1174219,-2.3019023,-3.4752629,-0.18310758,0.24066125,-0.16874194,24.625,25.1875,24.4375,26.1875,26.375,26.625
0.20605345,-1.0863526,0.04127931,-1.9243983,0.012906846,0.10283781,-0.06434102,-0.39910492,-0.36679187,0.05998158,3.076896,-0.6229909,4.856464e-05,-0.0975242,0.019331465,0.0010431276,-0.026622016,0.0055424264,0.011791727,0.49163643,-1.369796,1.8899802,-2.0909307,-1.5689625,2.4656544,-0.13334195,0.11541986,-0.14206578,0.009371284,0.020769775,-0.14506288,-0.53630114,-0.19153613,-9.615114,0.90750587,47.683304,-1.1205373,-2.3361413,-3.506906,-0.21792567,0.25080112,-0.21696666,24.625,25.1875,24.4375,26.1875,26.375,26.625
0.20805423,-1.0118116,-0.36431655,-1.900545,0.024419578,0.100067794,-0.06291665,-0.39929885,-0.36675304,0.059975818,3.0768585,-0.6229264,4.463117e-05,-0.09542763,0.019173954,-0.0001453296,-0.02538889,0.002876451,0.009031184,0.4913738,-1.3695558,1.889707,-2.0909307,-1.5689262,2.4653563,-0.13122916,0.11539015,-0.13943177,0.009700777,0.020949252,-0.14018998,-0.61291564,-0.24899697,-9.557653,0.88289046,47.678825,-1.157715,-2.2183166,-3.6669438,-0.2028324,0.25959456,-0.29347938,24.625,25.1875,24.4375,26.1875,26.375,26.625
0.21005404,-0.8656596,0.33603743,-1.8852315,0.010907309,0.10791954,-0.06591054,-0.3994937,-0.36670634,0.05998385,3.0767972,-0.6229334,2.168999e-05,-0.098104745,0.019407094,0.00092633825,-0.026453804,0.0055221533,0.0055022486,0.49109763,-1.3693514,1.8894423,-2.0909188,-1.5688905,2.4650924,-0.13377643,0.11657661,-0.14325836,0.00951589,0.020641087,-0.13920571,-0.49799395,-0.22984336,-9.519346,0.86945957,47.72002,-1.1535184,-2.1229582,-3.5123906,-0.20198573,0.2643422,-0.3316987,24.625,25.1875,24.4375,26.1875,26.375,26.625
0.21205398,-0.7488655,0.4392612,-1.9974569,0.019851586,0.107947275,-0.06701581,-0.399698,-0.36668107,0.060002353,3.0767264,-0.6228607,1.0907202e-05,-0.09956652,0.019093225,0.0016896436,-0.027585499,0.0073319427,0.0046852976,0.49083397,-1.3691223,1.889119,-2.090883,-1.5688304,2.4647925,-0.13458873,0.11730237,-0.14581375,0.009229286,0.020792501,-0.13919882,-0.4213795,-0.17238253,-9.500193,0.8224646,47.694946,-1.2082561,-2.3096738,-3.5093832,-0.20198894,0.26752394,-0.34803113,24.625,25.1875,24.4375,26.1875,26.375,26.625
0.21405403,-1.0768106,-0.030409588,-2.1411285,0.018106472,0.0859296,-0.06894241,-0.39990705,-0.3666464,0.059998296,3.076642,-0.6229009,-1.0671775e-05,-0.10066146,0.019767657,0.00064504973,-0.026976844,0.0049063945,0.0026524495,0.49055743,-1.3688693,1.888832,-2.0909069,-1.5687817,2.464552,-0.13701272,0.12070327,-0.14774507,0.010197079,0.021410422,-0.13958757,-0.45968673,0.0,-9.5385,0.8537928,47.711964,-1.0307764,-2.1139812,-3.4338346,-0.20961753,0.270216,-0.37529868,24.625,25.1875,24.4375,26.1875,26.375,26.625
0.21605399,-0.75350624,-0.54872036,-1.9589165,0.0052005467,0.089877196,-0.06563734,-0.4001113,-0.36658385,0.0599795,3.0766463,-0.6228813,-9.7178745e-06,-0.10286375,0.021033738,0.0013269602,-0.027818765,0.005924948,0.0021197905,0.49026874,-1.3686053,1.8885568,-2.0908945,-1.5687817,2.4642506,-0.14120898,0.12083637,-0.14957574,0.01061205,0.02168117,-0.14325055,-0.59376204,0.019153614,-9.481039,0.8403672,47.682407,-1.0586176,-2.2166543,-3.481391,-0.2420004,0.2702244,-0.3928622,24.625,25.1875,24.4375,26.1875,26.375,26.625
0.21805395,-1.1686907,-0.96049905,-2.0101843,-0.011588459,0.09072432,-0.06521801,-0.4003387,-0.3665434,0.06002241,3.0765667,-0.6228395,-0.00011599112,-0.102751724,0.020435646,0.0008900757,-0.027177846,0.005474283,0.010689843,0.48998195,-1.368412,1.8882207,-2.0908582,-1.5687584,2.463948,-0.13982627,0.12261851,-0.15075806,0.010736496,0.021358324,-0.15043506,-0.63206923,0.11492168,-9.500193,0.8627467,47.681515,-1.090169,-2.296001,-3.4444067,-0.22896998,0.27145636,-0.3425241,24.625,25.1875,24.4375,26.1875,26.375,26.625
0.22005402,-1.1071712,-1.5295484,-2.1496737,-0.018661652,0.11013316,-0.06520011,-0.40053862,-0.3664984,0.0600143,3.0765254,-0.6228052,-2.8339959e-05,-0.10361428,0.020463787,0.0009464881,-0.027179074,0.005423266,0.019142827,0.4896824,-1.3681474,1.8879098,-2.0907986,-1.5686864,2.4636323,-0.14059782,0.12400575,-0.15271991,0.011391556,0.021399597,-0.15965909,-0.4213795,0.24899697,-9.481039,0.85826975,47.71017,-1.0878849,-2.0534835,-3.44632,-0.25257516,0.2912499,-0.23080441,24.625,25.1875,24.4375,26.1875,26.375,26.625
0.22205395,-1.1337093,-1.6794031,-2.0893507,-0.039659005,0.12463051,-0.071270466,-0.40074825,-0.36644784,0.060026117,3.0765016,-0.62271845,-4.539034e-05,-0.104545556,0.020730268,0.00031641693,-0.026673986,0.0041104355,0.026146865,0.48939437,-1.3679183,1.8875984,-2.09075,-1.568662,2.4632933,-0.14192346,0.12674204,-0.15474264,0.012100803,0.021593066,-0.16798696,-0.38307226,0.4213795,-9.653421,0.8224646,47.694054,-1.0287364,-2.1739063,-3.4605913,-0.27118263,0.30274597,-0.11848344,24.625,25.1875,24.4375,26.1875,26.375,26.625
0.2240538,-0.7577826,-1.7826453,-1.7779324,-0.06025369,0.13004245,-0.07233428,-0.40096006,-0.36641484,0.060015097,3.0764778,-0.62257546,-2.4758096e-05,-0.10559692,0.02028974,-0.00029583,-0.026378112,0.002980478,0.029738758,0.4891193,-1.3676287,1.8872751,-2.0907385,-1.5686139,2.462932,-0.14222363,0.13053623,-0.15807484,0.01279663,0.021872124,-0.17187677,-0.51714754,0.45968673,-9.5385,0.8605109,47.69763,-1.1573066,-2.2227554,-3.4602885,-0.28063315,0.31153053,-0.06342004,24.625,25.1875,24.4375,26.1875,26.375,26.625
0.22605376,-1.0221359,-2.079293,-1.7303206,-0.05222147,0.106120266,-0.05716686,-0.4011682,-0.36637473,0.060034987,3.0764244,-0.6225095,-6.115585e-05,-0.10621997,0.020502625,4.7376685e-05,-0.027170623,0.0034358427,0.024033422,0.48884335,-1.3674126,1.8869637,-2.0907023,-1.5685781,2.462622,-0.143362,0.13033982,-0.15863986,0.012784517,0.022362646,-0.16730824,-0.4405331,0.4405331,-9.442732,0.8224646,47.687782,-1.2537719,-2.2796588,-3.3159614,-0.2858442,0.31992137,-0.078588925,24.625,25.1875,24.4375,26.1875,26.375,26.625
0.2280535,-0.2101112,-1.8905786,-1.8458816,-0.04718536,0.09424047,-0.06519993,-0.40139443,-0.36631173,0.06003001,3.0763876,-0.6225227,-6.447937e-05,-0.10767927,0.019875519,-2.8837296e-05,-0.027829072,0.0044862526,0.01728428,0.48852012,-1.3671472,1.8866528,-2.090679,-1.5685538,2.4623117,-0.14358112,0.13309559,-0.16154094,0.011690149,0.022438932,-0.16077615,-0.30645782,0.49799395,-9.481039,0.88289046,47.698532,-1.2537483,-2.257278,-3.179998,-0.28099,0.31020916,-0.13017866,24.625,25.1875,24.4375,26.1875,26.375,26.625
0.2300535,-0.07072897,-1.7316036,-1.6815357,-0.057476886,0.07397446,-0.06149437,-0.40162948,-0.3662611,0.060008146,3.0763884,-0.6224885,-0.00010513374,-0.10924136,0.019938335,6.2440624e-05,-0.028126514,0.005511612,0.009313225,0.48823214,-1.3668224,1.8863171,-2.0906913,-1.5685657,2.4620025,-0.14485775,0.13493806,-0.16385858,0.0111112455,0.022210354,-0.15408017,-0.19153613,0.4213795,-9.404425,0.8918391,47.72271,-1.2137139,-2.297453,-3.2309804,-0.30081776,0.330104,-0.2325407,24.625,25.1875,24.4375,26.1875,26.375,26.625
0.23205435,-0.07176041,-2.246788,-1.5926398,-0.038992632,0.060440943,-0.05929276,-0.40186316,-0.36622402,0.06003769,3.0762894,-0.62249154,-0.00017069573,-0.11098918,0.02085671,-0.0008245246,-0.027853755,0.004568607,-0.00022118766,0.48793164,-1.3665929,1.8859705,-2.090667,-1.568518,2.4617167,-0.1479939,0.13809425,-0.1655221,0.010578625,0.022413777,-0.14767867,-0.19153613,0.47884035,-9.308657,0.87393653,47.71286,-1.239408,-2.4765081,-3.2085786,-0.29044518,0.34788224,-0.31813794,24.625,25.1875,24.4375,26.1875,26.375,26.625
0.23405331,-0.105436,-1.6190631,-1.3073522,-0.04015789,0.055787362,-0.06097328,-0.40209803,-0.36617798,0.06004441,3.0761714,-0.622543,-0.00013300333,-0.11145651,0.019893264,0.00076253264,-0.030157853,0.007782698,-0.0013887078,0.48758498,-1.3663296,1.8856353,-2.0906432,-1.5684212,2.4614172,-0.14702883,0.13608012,-0.1665492,0.009716141,0.022947991,-0.14554471,-0.1340753,0.36391866,-9.174581,0.8537928,47.719128,-1.3138821,-2.2102096,-3.1981454,-0.26677343,0.35919198,-0.36102602,24.625,25.1875,24.4375,26.1875,26.375,26.625
0.23605336,0.51448053,-0.9725178,-1.4174883,-0.040500935,0.0626734,-0.06168929,-0.4023274,-0.3661396,0.06003503,3.076136,-0.62251776,-0.00017879,-0.11326082,0.020615965,0.00066223374,-0.030936718,0.00776984,-0.0075625638,0.48730847,-1.3660285,1.8852996,-2.0906556,-1.5684093,2.4611297,-0.15018958,0.13781102,-0.16836596,0.009447273,0.02364405,-0.14252923,-0.05746084,0.4213795,-9.232041,0.8605109,47.696735,-1.0029155,-2.4785504,-3.089227,-0.28254783,0.35601437,-0.47792697,24.625,25.1875,24.4375,26.1875,26.375,26.625
0.23805429,0.17203872,-1.3058192,-1.3196087,-0.027422586,0.051523928,-0.059085082,-0.40256858,-0.3661156,0.06007265,3.0760238,-0.62245494,-0.00023374765,-0.113919236,0.020963924,-0.00020378512,-0.031528134,0.006092872,-0.007384715,0.48700854,-1.3657876,1.8849181,-2.0906193,-1.5683368,2.460805,-0.15208112,0.13996367,-0.16891289,0.009064371,0.024975091,-0.1445948,0.038307227,0.34476504,-9.097966,0.83589023,47.686886,-1.0308273,-2.256373,-3.289557,-0.26538962,0.34737614,-0.5119738,24.625,25.1875,24.4375,26.1875,26.375,26.625
0.2400534,0.74816597,-0.7390354,-1.0400033,-0.032638848,0.055310987,-0.07217649,-0.40280008,-0.36607993,0.060058378,3.075991,-0.622404,-0.00022590603,-0.11442949,0.021858111,-0.000782155,-0.030918343,0.004599137,-0.00034905758,0.48672035,-1.3654629,1.8845595,-2.090608,-1.5683011,2.4604893,-0.1540564,0.1411376,-0.1692228,0.009839561,0.025164545,-0.15360498,0.15322891,0.24899697,-9.097966,0.8560339,47.719128,-1.0218282,-2.3300915,-3.2993438,-0.27786654,0.357566,-0.48243463,24.625,25.1875,24.4375,26.1875,26.375,26.625
0.24205436,0.51308185,-0.7912103,-0.9648874,-0.022843292,0.055460833,-0.07292668,-0.40302056,-0.36605066,0.06005514,3.0758622,-0.6224675,-0.0001751926,-0.11604952,0.022113113,0.00014493553,-0.03210406,0.0067197434,0.009391272,0.48640838,-1.3651867,1.8842367,-2.090608,-1.5681928,2.4602334,-0.15588605,0.14095525,-0.1710595,0.009483348,0.025255213,-0.16517326,0.076614454,0.21068975,-9.059659,0.8784135,47.704796,-1.0631384,-2.21732,-3.3085308,-0.28210223,0.3531329,-0.39287943,24.625,25.1875,24.4375,26.1875,26.375,26.625
0.2440536,0.71868396,-0.18370149,-0.88598645,-0.014278795,0.05913794,-0.06810549,-0.40326288,-0.36597723,0.06004637,3.0758328,-0.62245214,-0.00020584466,-0.11507997,0.02069309,-0.00043443605,-0.032740943,0.0053603277,0.022877071,0.48606217,-1.3649098,1.8839253,-2.090608,-1.5681804,2.4598815,-0.15330803,0.14258242,-0.1717195,0.009454859,0.026489442,-0.17607886,0.11492168,0.095768064,-8.90643,0.81351066,47.69763,-1.2192584,-2.335347,-3.3932958,-0.2853681,0.34243697,-0.27047643,24.625,25.1875,24.4375,26.1875,26.375,26.625
0.2460538,0.6952717,0.655367,-0.88179994,-0.004511649,0.0518028,-0.07270253,-0.40349054,-0.36595863,0.06005254,3.075789,-0.62224764,-0.00024413218,-0.11637585,0.020263609,-0.00058070035,-0.03445228,0.0051941006,0.026833577,0.48579836,-1.3646208,1.8835658,-2.0906084,-1.5681313,2.4594958,-0.15464243,0.14493665,-0.1741016,0.008854258,0.028103853,-0.18136536,0.17238252,0.019153614,-8.983045,0.8784135,47.681515,-1.1786642,-2.2222733,-3.2990212,-0.27503857,0.34732467,-0.2036424,24.625,25.1875,24.4375,26.1875,26.375,26.625
0.24805358,1.1915511,0.571491,-0.81776583,0.017367395,0.058328174,-0.06782536,-0.40374953,-0.3659127,0.06006497,3.0757194,-0.62221617,-0.00026898898,-0.11742693,0.021002742,0.0007461247,-0.035764113,0.007049945,0.023779053,0.48546207,-1.3643215,1.883171,-2.0905716,-1.5680836,2.459149,-0.15689349,0.14266752,-0.17453744,0.009320613,0.02841391,-0.18056034,0.05746084,-0.11492168,-8.963891,0.8627467,47.693153,-1.1195004,-2.0945544,-3.311617,-0.24970995,0.34316325,-0.1645436,24.625,25.1875,24.4375,26.1875,26.375,26.625
0.25005418,1.2777841,1.1128124,-0.887034,0.024371957,0.055804912,-0.06967114,-0.40396932,-0.36588806,0.060078263,3.0756338,-0.62208533,-0.00027221587,-0.119166,0.02130195,0.0013383216,-0.036363203,0.008330954,0.016618052,0.48517415,-1.3640687,1.8828357,-2.0905597,-1.5679997,2.4587903,-0.15880218,0.14361556,-0.17709124,0.009523095,0.028347671,-0.17530513,-0.038307227,-0.15322891,-8.944737,0.87393653,47.723602,-1.0855236,-2.0898075,-3.2244434,-0.2592766,0.3381778,-0.21561415,24.625,25.1875,24.4375,26.1875,26.375,26.625
0.25205326,0.67068696,0.58308,-1.3503169,0.037736688,0.034397677,-0.0679121,-0.404189,-0.3658036,0.060047038,3.0756664,-0.62207574,-0.00021502627,-0.12109138,0.021729192,0.0017036148,-0.03688706,0.009158063,0.008407425,0.484838,-1.3637677,1.8825353,-2.090512,-1.5679997,2.458444,-0.16116585,0.14518738,-0.17990154,0.0097790025,0.02840571,-0.16945826,0.019153614,-0.21068975,-9.136273,0.8918391,47.681515,-0.9967765,-2.04034,-3.2545257,-0.26475364,0.35619017,-0.30484605,24.625,25.1875,24.4375,26.1875,26.375,26.625
0.25405407,0.22809856,0.082018055,-1.4590237,0.021307662,0.034111146,-0.06275274,-0.40442023,-0.36578238,0.06003723,3.0755806,-0.62201864,-0.00015928586,-0.121275716,0.022333674,0.0007346421,-0.03625979,0.006170342,0.005522408,0.4845384,-1.3634429,1.8821658,-2.0904996,-1.5679034,2.4581199,-0.16275966,0.14737788,-0.18073095,0.011372063,0.029254038,-0.16816492,-0.038307227,-0.11492168,-9.270349,0.87393653,47.690468,-1.0435829,-2.1238308,-3.3864408,-0.2770452,0.34220904,-0.3384109,24.625,25.1875,24.4375,26.1875,26.375,26.625
0.25605404,0.21083699,-0.4062283,-1.5970545,-0.0018444523,0.060983308,-0.07058292,-0.40467483,-0.3657173,0.060031008,3.0755172,-0.62206125,-0.00011268553,-0.12227299,0.021714995,0.0014520659,-0.03791174,0.0062059374,0.0062551363,0.48416692,-1.3631302,1.8817943,-2.090451,-1.5678428,2.4577832,-0.16338809,0.14842904,-0.18397734,0.012786574,0.03070904,-0.16952322,-0.21068975,0.019153614,-9.346964,0.9410752,47.70838,-1.0034819,-2.080147,-3.2383676,-0.27915916,0.3286702,-0.38418302,24.625,25.1875,24.4375,26.1875,26.375,26.625
0.25805435,-0.4144815,-0.9992229,-2.0971787,-0.015670307,0.08420867,-0.067758925,-0.40490064,-0.36569825,0.06004828,3.0754383,-0.62198776,-0.00010967529,-0.12169256,0.023338422,-0.00019264151,-0.03576929,0.001449721,0.0041898945,0.48389077,-1.3628533,1.8814124,-2.090402,-1.5677704,2.4574714,-0.16570021,0.15007098,-0.18279861,0.015193146,0.031049931,-0.16976853,-0.36391866,0.038307227,-9.481039,0.84484416,47.668976,-1.0707803,-2.1208105,-3.3826447,-0.32929388,0.2988217,-0.40700027,24.625,25.1875,24.4375,26.1875,26.375,26.625
0.26005355,-1.2692386,-1.7599669,-2.1590025,-0.023076165,0.10297828,-0.0687259,-0.40512735,-0.3656419,0.06003016,3.0754101,-0.62195635,3.4367404e-05,-0.12056158,0.021864621,-0.0013408723,-0.036301784,-0.0019335741,0.013118307,0.48354435,-1.362528,1.8810419,-2.090306,-1.567686,2.457109,-0.16339833,0.15310359,-0.18411383,0.016261427,0.033107787,-0.17639387,-0.36391866,0.15322891,-9.653421,0.89631605,47.711063,-1.2024096,-2.087842,-3.4454236,-0.37363762,0.28809196,-0.3507721,24.625,25.1875,24.4375,26.1875,26.375,26.625
0.26205337,-1.937704,-1.9357716,-2.424206,-0.045105148,0.11769552,-0.0723984,-0.40536308,-0.36557892,0.06002898,3.075384,-0.62186646,3.9578266e-05,-0.121940516,0.02167993,0.00057598494,-0.03872206,0.0008832654,0.022455158,0.48320863,-1.3622526,1.8807062,-2.0902698,-1.5676497,2.4567206,-0.16473353,0.15117109,-0.18630366,0.016812306,0.033974465,-0.18706399,-0.45968673,0.36391866,-9.768343,0.83589023,47.716442,-1.118914,-2.157397,-3.396964,-0.383202,0.2611189,-0.26475164,24.625,25.1875,24.4375,26.1875,26.375,26.625
0.264055,-2.0403738,-1.9117976,-2.42929,-0.059267394,0.1348363,-0.06698148,-0.4055942,-0.3655451,0.060016345,3.0753307,-0.62177354,0.000110880406,-0.122489,0.021979343,-0.0010358512,-0.03727589,-0.0011731187,0.030642187,0.48289692,-1.3619267,1.8803362,-2.090234,-1.5675663,2.4563577,-0.16543297,0.15517032,-0.18741198,0.016469786,0.033674773,-0.19594967,-0.6512228,0.34476504,-9.902418,0.800085,47.695843,-1.1509655,-2.2978048,-3.4248073,-0.38443184,0.25191802,-0.1363736,24.625,25.1875,24.4375,26.1875,26.375,26.625
0.2660539,-2.1932163,-1.9207997,-2.474523,-0.06705223,0.13282101,-0.071350604,-0.40583092,-0.36550283,0.060006637,3.0752845,-0.6216463,0.00015466021,-0.123166665,0.022472704,-0.0020499185,-0.036380295,-0.002331776,0.032179788,0.48257318,-1.3616134,1.8799771,-2.0902102,-1.5674938,2.4559605,-0.16660191,0.15774427,-0.18816637,0.01612706,0.03343295,-0.19865522,-0.6512229,0.3256114,-9.921572,0.85155696,47.687782,-1.2263932,-2.345171,-3.4585164,-0.40904018,0.23867618,-0.07897544,24.625,25.1875,24.4375,26.1875,26.375,26.625
0.2680537,-1.9968568,-2.3731205,-2.4171596,-0.05782802,0.12329419,-0.06232576,-0.40609667,-0.36545375,0.060030956,3.0752082,-0.6215571,0.00015442415,-0.12494272,0.023171516,-0.0027243705,-0.03714587,-0.0030822312,0.024112463,0.48221296,-1.3613242,1.8795589,-2.0901387,-1.5674218,2.4555545,-0.16984273,0.16053475,-0.18983974,0.015326415,0.03445797,-0.1938247,-0.63206923,0.28730422,-9.883265,0.9365982,47.698532,-1.2279007,-2.421819,-3.4774284,-0.42801,0.23186345,-0.08900373,24.625,25.1875,24.4375,26.1875,26.375,26.625
0.27005398,-1.4263326,-1.6402197,-2.3704588,-0.060656887,0.106382616,-0.070625015,-0.40637937,-0.36541724,0.06003157,3.0750728,-0.62156916,5.3343254e-05,-0.12522213,0.022410559,-0.0027642192,-0.038588297,-0.002639427,0.017089877,0.48186606,-1.3609996,1.8791875,-2.090223,-1.5673612,2.4552326,-0.16935264,0.16144504,-0.19060995,0.014119909,0.035536535,-0.1863058,-0.6512228,0.30645782,-9.940725,0.900793,47.698532,-1.2957656,-2.3714693,-3.6005955,-0.40441373,0.20202789,-0.1632578,24.625,25.1875,24.4375,26.1875,26.375,26.625
0.27205378,-0.7862957,-2.06315,-2.3222888,-0.041175183,0.093423754,-0.06456219,-0.40660697,-0.36536378,0.060037617,3.0750701,-0.62147486,0.00010069357,-0.12765947,0.021570817,-0.00116522,-0.040830303,0.0022603811,0.010433203,0.48155472,-1.3607115,1.8788036,-2.0901163,-1.5673255,2.4548628,-0.16979918,0.16178212,-0.19419375,0.011983323,0.03522733,-0.18009503,-0.5363012,0.22984336,-9.959879,0.87617236,47.690468,-1.2714183,-2.4282742,-3.5238838,-0.40351978,0.1825731,-0.2709521,24.625,25.1875,24.4375,26.1875,26.375,26.625
0.2740538,-0.82850796,-1.4810455,-2.089177,-0.036915477,0.07587838,-0.07448635,-0.406871,-0.36533964,0.06002417,3.0749693,-0.62141937,9.727619e-05,-0.12841827,0.021556038,-0.0019917611,-0.04028394,0.0024426042,0.0029862963,0.48123112,-1.3603507,1.8784097,-2.090153,-1.5672415,2.4545176,-0.16996971,0.16428083,-0.19501197,0.010397444,0.034652352,-0.1728163,-0.49799395,0.36391866,-9.768343,0.9321212,47.704796,-1.3492401,-2.4205678,-3.6642933,-0.3776786,0.17475806,-0.38324773,24.625,25.1875,24.4375,26.1875,26.375,26.625
0.27605414,0.10225034,-0.92749935,-1.7696109,-0.03261545,0.09599414,-0.08000447,-0.40717146,-0.36530122,0.06006988,3.0748224,-0.6214079,-7.0845363e-06,-0.12868142,0.02125979,-0.0021879652,-0.041012745,0.0025906337,0.0005319608,0.48085922,-1.360063,1.8779553,-2.0901291,-1.5671695,2.4541576,-0.16993661,0.16511364,-0.1953993,0.009497938,0.035252195,-0.17032294,-0.36391866,0.28730422,-9.615114,0.900793,47.688675,-1.395546,-2.3322031,-3.5746357,-0.36445564,0.1646204,-0.46524277,24.625,25.1875,24.4375,26.1875,26.375,26.625
0.27805412,-0.62254393,-1.0768238,-1.7062986,-0.018355928,0.08317238,-0.07542732,-0.4074197,-0.3652664,0.06005658,3.0747623,-0.6213183,-5.0728445e-06,-0.13035306,0.02151122,-0.0022801117,-0.041352943,0.0027203513,0.0010166343,0.4805464,-1.3597263,1.8775839,-2.0901406,-1.567109,2.4537966,-0.1718658,0.16748698,-0.19811228,0.009594564,0.035509743,-0.17273366,-0.21068975,0.21068975,-9.519346,0.87617236,47.666286,-1.4111075,-2.406561,-3.6649969,-0.3542611,0.15631779,-0.5025113,24.625,25.1875,24.4375,26.1875,26.375,26.625
0.28005412,-0.35201395,-0.5288288,-1.4285026,-0.02111922,0.0741234,-0.084664784,-0.40767553,-0.36519367,0.060042847,3.0746918,-0.62137526,9.091817e-05,-0.13226071,0.022165727,-0.0009851457,-0.04282645,0.0054595387,0.009556155,0.4801496,-1.3594031,1.8772134,-2.090081,-1.5670251,2.4534445,-0.17454898,0.16640894,-0.19971757,0.009237975,0.03558629,-0.18395656,0.05746084,0.095768064,-9.32781,0.92764956,47.72719,-1.3177977,-2.3143873,-3.625474,-0.33240014,0.13315623,-0.4305275,24.625,25.1875,24.4375,26.1875,26.375,26.625
0.28205413,0.56021214,-0.08516379,-1.1863343,-0.013754897,0.066789016,-0.0841596,-0.40796366,-0.3651591,0.06005971,3.074608,-0.6212737,-4.654655e-05,-0.13459107,0.022538124,4.665438e-05,-0.043881748,0.007607552,0.021063864,0.4798249,-1.3590792,1.8767942,-2.0901167,-1.5670007,2.4530673,-0.17708555,0.16718774,-0.20310105,0.009518821,0.035599183,-0.19799522,0.076614454,0.076614454,-9.251195,0.8537928,47.711964,-1.2987108,-2.2170677,-3.4997036,-0.32244384,0.09578037,-0.30548638,24.625,25.1875,24.4375,26.1875,26.375,26.625
0.284054,0.451177,-0.05681558,-1.2360642,-0.00698355,0.047351472,-0.08246516,-0.40825397,-0.3651075,0.060078517,3.0745025,-0.6212085,-9.5338735e-05,-0.13609476,0.021625534,0.001295447,-0.04534026,0.010675054,0.029412244,0.47944134,-1.3587673,1.8763741,-2.0901048,-1.5669292,2.4526567,-0.17669043,0.16768171,-0.20645949,0.009047415,0.03552425,-0.20594421,0.038307227,0.11492168,-9.232041,0.87617236,47.684196,-1.268712,-2.2573845,-3.3483093,-0.33066934,0.086280376,-0.20521432,24.625,25.1875,24.4375,26.1875,26.375,26.625
0.28605407,0.43634087,0.16832387,-1.2299417,0.010629885,0.027078554,-0.088940196,-0.4085182,-0.36507753,0.060054503,3.0744019,-0.62111324,4.545721e-06,-0.1377613,0.022636931,0.0011413551,-0.044344414,0.010873334,0.027620032,0.47908023,-1.3583826,1.8759664,-2.0901048,-1.5667976,2.452249,-0.1791135,0.16955023,-0.20853938,0.009587943,0.034563404,-0.2065752,-0.019153614,0.095768064,-9.174581,0.91421866,47.68599,-1.2111788,-2.3038845,-3.245959,-0.30292022,0.08852056,-0.15838729,24.625,25.1875,24.4375,26.1875,26.375,26.625
0.288054,0.010000788,0.107937776,-1.2534829,0.0063776798,0.0293151,-0.074382484,-0.4088185,-0.36503613,0.060090955,3.0742836,-0.6210541,-0.00012420671,-0.13873442,0.023548324,0.00093510567,-0.04337969,0.010254076,0.019861093,0.4787198,-1.3580829,1.8755234,-2.0901043,-1.5667495,2.451867,-0.18100369,0.17082128,-0.20988831,0.010660887,0.034012683,-0.2007021,-0.076614454,0.05746084,-9.232041,0.96569055,47.693153,-1.1919618,-2.1266036,-3.2856283,-0.29548368,0.09418048,-0.20881057,24.625,25.1875,24.4375,26.1875,26.375,26.625
0.29005405,-0.09710987,-0.6733565,-1.3635987,0.007046819,0.0551185,-0.07595084,-0.40906322,-0.3649809,0.06006761,3.0742726,-0.6209407,-1.1768191e-05,-0.14028841,0.024395196,0.0027134698,-0.044275727,0.012993355,0.010926011,0.47837073,-1.3577238,1.8751281,-2.0900319,-1.5666779,2.4514487,-0.18334831,0.16850097,-0.21140927,0.011659107,0.033527274,-0.19411375,-0.1340753,0.19153613,-9.251195,0.9701675,47.72271,-1.1298568,-1.988883,-3.2808123,-0.28707075,0.08593309,-0.29813623,24.625,25.1875,24.4375,26.1875,26.375,26.625
0.29205412,-0.3791047,-0.640631,-1.5493864,-0.010001267,0.074166164,-0.087645195,-0.40935478,-0.36491978,0.060091794,3.0741868,-0.6209459,-5.4075932e-05,-0.14241643,0.025789276,0.0031681417,-0.04322979,0.012981324,0.0038245744,0.4779856,-1.3574116,1.8746842,-2.0899718,-1.5666298,2.451078,-0.18682544,0.16994987,-0.21478263,0.014086105,0.03261634,-0.19048764,-0.21068975,0.24899697,-9.346964,0.8985519,47.674347,-1.0428749,-1.9638438,-3.3353167,-0.33244175,0.07210709,-0.36723363,24.625,25.1875,24.4375,26.1875,26.375,26.625
0.29405415,-1.005102,-1.3488265,-1.6548473,-0.0132833235,0.093043216,-0.08792495,-0.40964648,-0.36488366,0.060104426,3.0740602,-0.62086135,-9.12316e-05,-0.14272402,0.026679795,0.0026549366,-0.041580684,0.011998549,0.0031858652,0.47761357,-1.3570756,1.8742541,-2.0899832,-1.5665344,2.4506695,-0.18783431,0.17098573,-0.21514377,0.015077789,0.031638015,-0.19085638,-0.28730422,0.22984336,-9.385271,0.9545008,47.67614,-1.1475322,-1.8991067,-3.3890338,-0.33701816,0.0737472,-0.41192138,24.625,25.1875,24.4375,26.1875,26.375,26.625
0.29605392,-1.7025762,-1.2297299,-1.6319364,-0.022425307,0.09851156,-0.08085112,-0.409908,-0.36480984,0.060090076,3.074053,-0.62083817,-2.6976433e-05,-0.14176698,0.026924888,-0.00020351949,-0.037980955,0.00726703,0.008205171,0.47724172,-1.356726,1.8738469,-2.0898993,-1.5664991,2.4502842,-0.18667242,0.17615919,-0.21511665,0.015772196,0.0306348,-0.19471607,-0.22984336,0.24899697,-9.404425,0.94331104,47.684196,-1.1247199,-2.0239077,-3.3728719,-0.34862876,0.07433145,-0.41460186,24.625,25.1875,24.4375,26.1875,26.375,26.625
0.2980536,-1.0771222,-1.1172734,-1.7412928,-0.018606633,0.12320521,-0.09560634,-0.41020933,-0.36477667,0.060125165,3.073915,-0.62078446,-0.00013338184,-0.14375521,0.027766261,0.00016960353,-0.037127186,0.009051579,0.016221702,0.47688136,-1.3564141,1.873392,-2.0898993,-1.5664276,2.4499083,-0.18873039,0.17746772,-0.21759897,0.015826678,0.029124275,-0.20478877,-0.24899697,0.15322891,-9.404425,0.8717007,47.65912,-1.098068,-1.9474041,-3.4458885,-0.3363229,0.07771483,-0.3401795,24.625,25.1875,24.4375,26.1875,26.375,26.625
0.30005372,-0.583542,-0.21365802,-1.4756291,-0.022616766,0.122843035,-0.10398621,-0.4104662,-0.3647194,0.06009078,3.0738745,-0.6206732,1.4982186e-05,-0.1448192,0.027556404,0.00043568868,-0.037375387,0.010244655,0.028220288,0.47649717,-1.35603,1.8729967,-2.0898516,-1.5663193,2.4494598,-0.18899204,0.1787182,-0.21972199,0.015614065,0.028837964,-0.21705015,-0.28730422,0.095768064,-9.442732,0.9231726,47.7254,-1.0925758,-2.1365767,-3.4590297,-0.33844092,0.089818254,-0.20434216,24.625,25.1875,24.4375,26.1875,26.375,26.625
0.30205366,-0.8655154,-0.25120535,-1.5950667,-0.007898175,0.097468615,-0.09297215,-0.4107644,-0.3646584,0.06011105,3.0738316,-0.62058485,-0.00010248294,-0.14412062,0.02754996,-0.0013835436,-0.03649588,0.0075960695,0.033179007,0.47613722,-1.3557053,1.8725542,-2.0898278,-1.5663193,2.4490504,-0.188525,0.18139672,-0.21866344,0.014662719,0.02931649,-0.22153828,-0.49799395,0.15322891,-9.423578,0.90750587,47.690468,-1.2169003,-2.209023,-3.4986694,-0.32190248,0.08325031,-0.12761682,24.625,25.1875,24.4375,26.1875,26.375,26.625
0.30405352,-0.67372334,-0.6211523,-1.6946348,0.0027454747,0.09930648,-0.09550629,-0.41106567,-0.36460832,0.060100082,3.0737643,-0.6204377,-8.082521e-05,-0.14400892,0.026883256,-0.0020051436,-0.03516692,0.007825428,0.030119983,0.47574234,-1.3553088,1.8720988,-2.0898159,-1.5662359,2.4485724,-0.18638045,0.18349782,-0.21971129,0.014025591,0.028026642,-0.21633567,-0.5554548,0.19153613,-9.442732,0.8605109,47.678825,-1.5342253,-2.2447731,-3.5662606,-0.30339447,0.09273513,-0.1323194,24.625,25.1875,24.4375,26.1875,26.375,26.625
0.30605438,-0.9606284,-0.7449136,-1.5452962,-0.00058574736,0.099434495,-0.08540928,-0.41135803,-0.36454707,0.06010291,3.0736976,-0.62039024,-0.00010923582,-0.14525495,0.026599217,-0.0013338642,-0.03439987,0.010044926,0.021243582,0.47535864,-1.3549608,1.8716677,-2.089792,-1.5661882,2.4481678,-0.18579185,0.18461242,-0.22268704,0.014248529,0.026308998,-0.20687182,-0.6703765,0.13407528,-9.519346,0.89631605,47.694946,-1.653657,-2.2595954,-3.5386746,-0.30246162,0.124843955,-0.24427056,24.625,25.1875,24.4375,26.1875,26.375,26.625
0.30805418,-1.0507755,-0.8028171,-1.56803,-0.012035377,0.10179109,-0.08574111,-0.4116495,-0.3645293,0.06012173,3.073617,-0.6201669,-0.00017223215,-0.14637683,0.027583973,-0.0012663277,-0.033750016,0.010182312,0.011546349,0.4750339,-1.3546011,1.871189,-2.0897796,-1.5661167,2.447714,-0.18786666,0.18522952,-0.22379239,0.014902219,0.025667997,-0.19924785,-0.4405331,0.15322891,-9.32781,0.9321212,47.661808,-1.5479376,-2.0809634,-3.548357,-0.31029126,0.13324198,-0.35320786,24.625,25.1875,24.4375,26.1875,26.375,26.625
0.31005412,-0.9636858,-1.2196255,-1.4904486,-0.024727156,0.09973454,-0.086628616,-0.4119702,-0.364438,0.060130864,3.0735614,-0.62033373,-0.00024679015,-0.14778833,0.028686328,-0.00090998155,-0.0338134,0.0107853925,0.001969992,0.47461277,-1.3542414,1.8707207,-2.08972,-1.5661291,2.4474046,-0.1906217,0.18533546,-0.22487645,0.0152925635,0.025440702,-0.19242553,-0.45968673,0.19153613,-9.3661175,0.9164598,47.723602,-1.4765079,-2.2032657,-3.4869452,-0.29490077,0.12966,-0.44918615,24.625,25.1875,24.4375,26.1875,26.375,26.625
0.31205392,-0.66453886,-1.288421,-1.3591037,-0.03332106,0.09104934,-0.08797644,-0.41225278,-0.36437386,0.06011387,3.0734813,-0.6203177,-0.0001674779,-0.15012378,0.029208874,-0.00014377135,-0.0343608,0.012681126,-0.0014150634,0.474204,-1.3538693,1.8703026,-2.0896838,-1.5660328,2.4469962,-0.19312225,0.18657188,-0.22820668,0.015476024,0.025063764,-0.1915406,-0.4596867,0.24899697,-9.32781,0.91421866,47.690468,-1.4330542,-2.2403846,-3.4839215,-0.27894458,0.15596783,-0.5190646,24.625,25.1875,24.4375,26.1875,26.375,26.625
0.31405395,-0.51273155,-1.0554091,-1.2759936,-0.039067075,0.07808497,-0.091508135,-0.41253614,-0.36431652,0.060106345,3.0734472,-0.6201903,-0.00019432965,-0.15221971,0.030410288,-0.0002757319,-0.0341275,0.012727844,0.0045326436,0.47384295,-1.3535088,1.869882,-2.0896719,-1.565997,2.4465601,-0.1966725,0.18864086,-0.23055974,0.015886873,0.02488714,-0.20103708,-0.21068975,0.19153613,-9.270349,0.9410752,47.70211,-1.3813549,-2.0895083,-3.428552,-0.28300685,0.1751595,-0.48080254,24.6875,25.1875,24.4375,26.1875,26.375,26.625
0.3160538,-0.06952647,-0.9125284,-1.5064949,-0.01909529,0.06327375,-0.09296132,-0.412857,-0.3642488,0.060092576,3.073407,-0.6201923,-0.00024254434,-0.15255877,0.030035514,-0.0003921194,-0.034709238,0.013198903,0.01895948,0.47344717,-1.3530886,1.8694032,-2.08966,-1.5659851,2.446171,-0.19640443,0.18958656,-0.23133068,0.015106226,0.025263237,-0.2151938,-0.15322891,0.21068975,-9.212888,0.8918391,47.691364,-1.3890023,-2.1027646,-3.4904633,-0.26089963,0.19299965,-0.37494424,24.6875,25.1875,24.4375,26.1875,26.375,26.625
0.31805378,0.11585913,-0.4464448,-1.5402843,-0.00591649,0.051844276,-0.0939669,-0.41316548,-0.36419627,0.060104504,3.073327,-0.6200357,-0.00027601767,-0.15344842,0.030559415,-0.00045074942,-0.035617698,0.013060254,0.028306438,0.4730506,-1.352729,1.8689369,-2.089636,-1.5659121,2.445687,-0.19845057,0.19018613,-0.23192891,0.014891994,0.026208524,-0.22658254,-0.11492168,0.15322891,-9.251195,0.93436235,47.668976,-1.3330309,-2.0207663,-3.4201314,-0.24116006,0.2052545,-0.24183017,24.6875,25.1875,24.4375,26.1875,26.375,26.625
0.32005346,0.12126557,-0.56001174,-1.4746162,-0.0043033543,0.059775278,-0.089653865,-0.4134876,-0.36413804,0.060129367,3.0732474,-0.6199254,-0.00032495812,-0.1564817,0.031123733,0.0011271519,-0.0369892,0.016489457,0.027607825,0.47264126,-1.3523693,1.8684329,-2.0895765,-1.5658525,2.4452193,-0.20163044,0.19056016,-0.23602873,0.01497773,0.025900612,-0.22906132,-0.1340753,0.21068975,-9.232041,0.8403672,47.711964,-1.1551012,-2.0327716,-3.436957,-0.21115708,0.21662667,-0.18656243,24.6875,25.1875,24.4375,26.1875,26.375,26.625
0.3220535,-0.020902084,-0.36788478,-1.4990424,-0.0070414543,0.062096737,-0.0849501,-0.4137869,-0.36408424,0.060122825,3.073173,-0.619818,-0.00030279445,-0.15748227,0.031995997,0.00043236927,-0.035343293,0.014969371,0.018873887,0.4722447,-1.3519845,1.8679775,-2.0895517,-1.5657691,2.4447653,-0.2033012,0.19322418,-0.23808394,0.016468322,0.025118388,-0.22199823,-0.24899697,0.1340753,-9.270349,0.8717007,47.69763,-1.1179436,-2.0784197,-3.3647594,-0.23827173,0.24163988,-0.23924264,24.6875,25.1875,24.4375,26.1875,26.375,26.625
0.3240536,-0.26737422,-0.5662401,-1.5662808,-0.006226594,0.067361146,-0.07792022,-0.41409126,-0.36400145,0.060097422,3.0731509,-0.61977977,-0.00027022933,-0.15900068,0.03219812,0.00042791644,-0.036581926,0.014453868,0.009169721,0.47182426,-1.3515762,1.8675336,-2.089516,-1.5657324,2.444324,-0.20556709,0.1952634,-0.24071158,0.01692932,0.026432188,-0.21455519,-0.22984336,0.17238252,-9.251195,0.9298854,47.704796,-1.010922,-2.050079,-3.3103623,-0.22656177,0.25189623,-0.33174473,24.6875,25.1875,24.4375,26.1875,26.375,26.625
0.32605422,-0.4751383,-0.76175445,-1.6678991,-0.018611157,0.07633271,-0.08360642,-0.41443032,-0.36394563,0.0601095,3.0730777,-0.61974776,-0.00036456215,-0.15966573,0.032538135,-0.00033117336,-0.037273403,0.012191279,0.003632404,0.47142687,-1.3511677,1.8670071,-2.0894916,-1.565708,2.4439163,-0.2075275,0.19758946,-0.24202715,0.017612098,0.028090857,-0.2109705,-0.36391866,0.24899697,-9.270349,0.8784135,47.689575,-0.9480965,-2.0346186,-3.4124892,-0.22328839,0.26065105,-0.398588,24.6875,25.1875,24.4375,26.1875,26.375,26.625
0.3280541,-0.7512201,-1.2621248,-1.6106272,-0.01671313,0.08629086,-0.082006834,-0.41474774,-0.3638823,0.060112722,3.0729933,-0.6196916,-0.00037098033,-0.16031706,0.032944504,-0.00017093813,-0.03698736,0.012348866,0.0031673093,0.47100696,-1.350784,1.8665279,-2.0894558,-1.565636,2.4434724,-0.20839988,0.19806157,-0.24319047,0.018322885,0.027789496,-0.21137688,-0.2681506,0.15322891,-9.3661175,0.95002913,47.68599,-0.9669894,-2.0821824,-3.5283704,-0.20288494,0.28110427,-0.4275794,24.6875,25.1875,24.4375,26.1875,26.375,26.625
0.33005342,-0.9871296,-1.4186908,-1.6080971,-0.0237288,0.10020674,-0.08175607,-0.41506726,-0.36381495,0.060119297,3.0729423,-0.61961424,-0.00040964538,-0.15990633,0.03118603,-0.000629052,-0.03754839,0.011198792,0.016066141,0.47060028,-1.3503991,1.8660368,-2.0894072,-1.5655993,2.4430242,-0.20561057,0.20090061,-0.24578866,0.018920058,0.028874902,-0.22148077,-0.38307226,0.076614454,-9.442732,0.95226496,47.70838,-1.2508067,-2.081128,-3.4765275,-0.2061122,0.2864853,-0.37495303,24.6875,25.1875,24.4375,26.1875,26.375,26.625
0.33205363,-1.700801,-1.6407905,-1.2647053,-0.019692585,0.097119465,-0.085723065,-0.41536662,-0.36375654,0.060107023,3.0729182,-0.61940944,-0.0003574301,-0.1592706,0.030857006,-0.0011565991,-0.03774795,0.009710374,0.028223235,0.47020456,-1.3499916,1.865558,-2.0893476,-1.5655273,2.4425037,-0.20491263,0.20166072,-0.24569196,0.019383812,0.029792458,-0.23293735,-0.34476504,0.076614454,-9.32781,0.90527004,47.688675,-1.395684,-1.9387901,-3.4382734,-0.21792063,0.28261808,-0.25151202,24.6875,25.1875,24.4375,26.1875,26.375,26.625
0.33405364,-1.1460171,-0.67629117,-1.3113496,-0.013262,0.10878094,-0.07974198,-0.41570127,-0.3636756,0.060086638,3.0728354,-0.61946654,-0.0003453221,-0.1600919,0.029930932,-0.00046040842,-0.039289203,0.011309402,0.03430099,0.46974868,-1.3495594,1.8650788,-2.0893357,-1.5654668,2.4420943,-0.20430247,0.20234586,-0.24808967,0.019027026,0.03048115,-0.23840134,-0.34476504,0.11492168,-9.308657,0.9321212,47.67614,-1.4148507,-2.0463586,-3.4925706,-0.18310565,0.28857318,-0.15488927,24.6875,25.1875,24.4375,26.1875,26.375,26.625
0.33605358,-0.61858517,-0.33433998,-1.6785703,0.009239856,0.093533546,-0.08253141,-0.41603026,-0.36362264,0.0600869,3.0727777,-0.6193411,-0.00038968062,-0.16083069,0.030162696,-0.0013845847,-0.038444072,0.010524849,0.03141574,0.46935257,-1.3491389,1.8645638,-2.0893118,-1.5654196,2.4416275,-0.20490533,0.20515448,-0.24938111,0.01860436,0.030095827,-0.23611738,-0.22984336,0.15322891,-9.385271,0.9186956,47.67345,-1.4148192,-2.1724954,-3.5757349,-0.16531757,0.29472965,-0.1273508,24.6875,25.1875,24.4375,26.1875,26.375,26.625
0.33805358,-0.52820694,-0.3821483,-1.7251697,-0.00056091044,0.06668677,-0.083081715,-0.41632906,-0.36354697,0.060094904,3.0727465,-0.61918694,-0.00039081898,-0.16221678,0.031059729,-0.0013633628,-0.038681705,0.010885349,0.019363668,0.4689438,-1.3487911,1.8641084,-2.0892403,-1.5653709,2.4411266,-0.20741796,0.20597817,-0.25043842,0.01838109,0.03011771,-0.22657633,-0.17238252,0.1340753,-9.3661175,0.947788,47.693153,-1.3786445,-2.1254303,-3.5084848,-0.14489207,0.32632273,-0.2157937,24.6875,25.1875,24.4375,26.1875,26.375,26.625
0.34005356,-0.14990376,-0.94366425,-1.6227915,-0.013230076,0.051196106,-0.08002284,-0.41664338,-0.3634933,0.06007291,3.0727172,-0.6191099,-0.00035958592,-0.16352604,0.031386603,-0.002547571,-0.037832182,0.009161342,0.008526623,0.46855932,-1.3483338,1.8635935,-2.0891922,-1.5653232,2.440698,-0.20889029,0.21029556,-0.25314164,0.01866013,0.030102557,-0.21720985,-0.28730422,0.21068975,-9.2703495,0.94331104,47.73077,-1.4404109,-2.287801,-3.6102896,-0.14056109,0.34039155,-0.33133596,24.6875,25.1875,24.4375,26.1875,26.375,26.625
0.34205377,0.16481179,-0.9437659,-1.8117515,-0.019406436,0.0424903,-0.08383826,-0.41701943,-0.36342758,0.060088806,3.0725696,-0.61919886,-0.00049233437,-0.16560398,0.031378724,-0.0018174578,-0.03916707,0.010445017,-0.00038606735,0.4681027,-1.3479133,1.8630537,-2.089216,-1.5652751,2.4403162,-0.2107987,0.21189894,-0.25689796,0.019048573,0.030716678,-0.21019797,-0.28730422,0.22984336,-9.32781,0.91198283,47.696735,-1.4149951,-2.3774965,-3.5228567,-0.1429586,0.37075478,-0.4548875,24.6875,25.1875,24.4375,26.1875,26.375,26.625
0.34405428,0.2011324,-0.98501134,-1.899327,-0.029847277,0.050511792,-0.09113824,-0.41729596,-0.36337224,0.06006498,3.072536,-0.6191333,-0.00034268672,-0.16651297,0.031055158,-0.0013938969,-0.04002349,0.010832325,-0.001288568,0.4677187,-1.3474939,1.8625749,-2.0891082,-1.5651788,2.4398956,-0.21121992,0.21295755,-0.2593816,0.019768933,0.03130054,-0.20971559,-0.19153613,0.22984336,-9.308656,0.9679317,47.684196,-1.3523958,-2.3206456,-3.496756,-0.13854906,0.35709283,-0.5398009,24.6875,25.1875,24.4375,26.1875,26.375,26.625
0.3460539,-0.34216917,-1.5223083,-1.9903146,-0.03785145,0.057047512,-0.079547554,-0.41769722,-0.36330447,0.060103282,3.072406,-0.61906147,-0.00050380046,-0.16772056,0.03148838,-0.0011300659,-0.041178606,0.010496926,0.0073558516,0.46723795,-1.3470739,1.8619765,-2.0890954,-1.5651301,2.439387,-0.21350828,0.21386938,-0.2613682,0.020705137,0.03258172,-0.2206388,-0.076614454,0.22984336,-9.423578,0.8873621,47.67166,-1.3002377,-2.2862277,-3.5593803,-0.109906845,0.3789859,-0.508186,24.6875,25.1875,24.4375,26.1875,26.375,26.625
0.34805396,-0.59755975,-1.7583599,-1.5841094,-0.048518125,0.079229675,-0.08464764,-0.417982,-0.3631972,0.06002852,3.0724676,-0.6190679,-0.00032172067,-0.16913323,0.03232828,-0.00080081896,-0.04230596,0.009886789,0.017817773,0.46680456,-1.3465941,1.8615445,-2.0890114,-1.5651053,2.4389498,-0.21672727,0.2145599,-0.26337406,0.022150269,0.033909544,-0.23431945,-0.17238252,0.3256114,-9.270349,0.947788,47.684196,-1.1569495,-2.2552955,-3.489956,-0.11777188,0.36030495,-0.36846963,24.6875,25.1875,24.4375,26.1875,26.375,26.625
0.35005394,-1.1801267,-1.9904983,-1.5937606,-0.03704364,0.09061207,-0.07750692,-0.41833705,-0.36315858,0.06005362,3.0723407,-0.61894333,-0.00037821458,-0.17109102,0.033551067,-0.001140785,-0.042471353,0.008740234,0.023255555,0.4663835,-1.3461733,1.8609694,-2.0889752,-1.5650095,2.4384675,-0.22065048,0.21704865,-0.2659584,0.023283606,0.034654334,-0.24367344,-0.36391866,0.38307226,-9.232041,0.947788,47.719128,-1.0979221,-2.2656207,-3.3341742,-0.13192223,0.36257195,-0.24725941,24.6875,25.1875,24.4375,26.1875,26.375,26.625
0.35205367,-0.7878555,-1.0837986,-1.8660777,-0.034892317,0.099436395,-0.0826803,-0.41867256,-0.36308983,0.060047206,3.0722225,-0.61890376,-0.00032366713,-0.17310995,0.03351316,8.1291684e-05,-0.045156732,0.010143198,0.01803972,0.4659146,-1.3457537,1.8604668,-2.088939,-1.5648893,2.4379892,-0.22314918,0.21742247,-0.2693864,0.023900839,0.03642768,-0.2409478,-0.36391866,0.3256114,-9.32781,0.88960326,47.703903,-0.93836874,-2.3286786,-3.2583668,-0.12668091,0.38258794,-0.22880995,24.6875,25.1875,24.4375,26.1875,26.375,26.625
0.35405385,-1.0702943,-1.033504,-1.7293913,-0.026274115,0.08406656,-0.071919024,-0.41900244,-0.3630187,0.060026072,3.0721822,-0.61882126,-0.00028431966,-0.17325833,0.03378404,0.001046779,-0.046456836,0.0112003,0.010537973,0.46548277,-1.345299,1.8599519,-2.0888908,-1.5648288,2.4375112,-0.22393009,0.21524203,-0.26908392,0.024238365,0.03709903,-0.23422481,-0.38307226,0.28730422,-9.346964,0.9365982,47.696735,-1.0175831,-2.0984995,-3.3457465,-0.13117194,0.36668247,-0.32377663,24.6875,25.1875,24.4375,26.1875,26.375,26.625
0.35605407,-1.3180968,-1.0414376,-1.6472381,-0.030698173,0.07723963,-0.07813082,-0.41936234,-0.36298698,0.060062073,3.0720794,-0.6186874,-0.0004186243,-0.17309715,0.033436444,0.0003419929,-0.046287235,0.010320101,0.006004341,0.46509913,-1.3448789,1.8593525,-2.088855,-1.5647806,2.4370575,-0.22317025,0.21689467,-0.26948288,0.023840226,0.037359107,-0.22892497,-0.5554548,0.2681506,-9.289502,0.98807013,47.70032,-1.2024207,-2.0842133,-3.4852042,-0.10220708,0.36806738,-0.39173567,24.6875,25.1875,24.4375,26.1875,26.375,26.625
0.35805342,-0.88464814,-1.0875287,-1.7742858,-0.023984555,0.09538592,-0.081009984,-0.41970682,-0.36289212,0.060034893,3.072017,-0.6186936,-0.0002992307,-0.17232944,0.033045903,-0.00046158928,-0.045698464,0.00891642,0.007595905,0.46459526,-1.3444108,1.8588265,-2.0887716,-1.5646847,2.4365656,-0.22173658,0.21815349,-0.2693199,0.023978338,0.037472248,-0.22908364,-0.36391866,0.2681506,-9.2703495,0.9410752,47.693153,-1.2552992,-2.1043816,-3.6286256,-0.09943247,0.38123673,-0.4426614,24.6875,25.1875,24.4375,26.1875,26.375,26.625
0.3600536,-0.57125,-0.6805642,-1.8548982,-0.014469912,0.09330111,-0.08606875,-0.42005336,-0.36284447,0.060037535,3.0719101,-0.61862785,-0.00032304222,-0.17348142,0.032642636,-0.00047744066,-0.046407588,0.00891495,0.015551936,0.46417528,-1.3439664,1.8582753,-2.0887468,-1.5646003,2.4361186,-0.22225128,0.22054201,-0.2723656,0.024404218,0.03817505,-0.2375481,-0.1340753,0.095768064,-9.404425,0.90750587,47.71286,-1.2483935,-2.158305,-3.659694,-0.091015674,0.38417482,-0.38619858,24.6875,25.1875,24.4375,26.1875,26.375,26.625
0.36205366,-0.7433987,-0.8229399,-1.5865858,-0.011390788,0.07924084,-0.08771534,-0.420387,-0.36277148,0.06000265,3.0718567,-0.6185322,-0.00028470703,-0.17331606,0.03263276,-0.0018138012,-0.045715846,0.00659087,0.029001568,0.46373165,-1.343498,1.8577851,-2.0887468,-1.5645279,2.4356222,-0.2222033,0.22335224,-0.27291006,0.024642624,0.038681615,-0.25094727,-0.076614454,0.05746084,-9.308657,0.90750587,47.690468,-1.3628799,-2.2164242,-3.49647,-0.08493805,0.38516882,-0.2558161,24.6875,25.1875,24.4375,26.1875,26.375,26.625
0.36405382,-0.29090792,-0.18586469,-1.6015456,-0.011198436,0.070057064,-0.077873744,-0.42074683,-0.36271784,0.06001765,3.0717657,-0.6184336,-0.0003230337,-0.17506614,0.032717727,-0.0015969385,-0.047727074,0.006591282,0.033821933,0.46329895,-1.3430533,1.8571972,-2.0886872,-1.5644559,2.43514,-0.2247143,0.22522801,-0.2758028,0.024834644,0.040545076,-0.25826788,-0.30645782,0.15322891,-9.193734,0.9612189,47.70211,-1.3721633,-2.2599518,-3.5688906,-0.07000187,0.3639977,-0.14529768,24.6875,25.1875,24.4375,26.1875,26.375,26.625
0.366054,-0.068464935,0.20729752,-1.7955451,0.007231367,0.048369236,-0.08479734,-0.42111436,-0.36264068,0.060018312,3.0717297,-0.6183145,-0.00035137945,-0.17623849,0.031967517,-0.0013401366,-0.049383223,0.0068628024,0.031198537,0.46284252,-1.3425853,1.8566102,-2.0886157,-1.5644192,2.434614,-0.22505285,0.22730203,-0.2790359,0.02501956,0.04191165,-0.25597486,-0.22984336,0.17238252,-9.423578,0.98135734,47.684196,-1.4136082,-2.3851824,-3.5360522,-0.04377745,0.35428455,-0.12108889,24.6875,25.1875,24.4375,26.1875,26.375,26.625
0.36805403,-0.09139027,-0.32508615,-2.000645,0.0010136737,0.045203254,-0.06888811,-0.4214602,-0.36260208,0.060006816,3.0716093,-0.61819786,-0.00030014498,-0.1770189,0.030968333,-9.714186e-05,-0.051667955,0.0082722455,0.022145245,0.46241078,-1.3421056,1.8560475,-2.0885909,-1.5642866,2.434125,-0.224668,0.22711271,-0.28186604,0.025743758,0.043299995,-0.24652828,-0.11492168,0.17238252,-9.423578,0.9567419,47.658226,-1.4088947,-2.4308689,-3.494161,-0.02719879,0.34112427,-0.23116973,24.6875,25.1875,24.4375,26.1875,26.375,26.625
0.3700541,0.541701,-0.69755566,-2.106643,-0.027305434,0.050915614,-0.07368,-0.4218097,-0.3625268,0.059999187,3.0715592,-0.61813754,-0.00030132072,-0.17848505,0.031460986,8.848151e-05,-0.05289414,0.007464337,0.008558821,0.4619659,-1.3416498,1.8554963,-2.0885308,-1.5642375,2.433649,-0.22734527,0.22859326,-0.2844575,0.026985846,0.044718854,-0.23561104,-0.17238252,0.21068975,-9.404425,0.9231726,47.71286,-1.2992041,-2.328074,-3.3791876,-0.028259195,0.31868863,-0.34810567,24.6875,25.1875,24.4375,26.1875,26.375,26.625
0.37205428,-0.00094105076,-1.5938041,-1.9624258,-0.05423968,0.042503346,-0.07354933,-0.42218593,-0.36245134,0.05999576,3.0714707,-0.61818165,-0.00027935734,-0.17943853,0.03218664,-0.0006803855,-0.052643742,0.005101038,-0.00014888369,0.4614854,-1.3411573,1.8548855,-2.0884464,-1.564166,2.4332078,-0.22959968,0.2313366,-0.28650782,0.028512841,0.04553381,-0.22915216,-0.19153613,0.24899697,-9.461885,0.8940802,47.690468,-1.3535566,-2.4081166,-3.3457298,-0.037979044,0.30328605,-0.473462,24.6875,25.1875,24.4375,26.1875,26.375,26.625
0.3740533,0.17120983,-1.8915858,-2.2660246,-0.058677096,0.058047105,-0.077526495,-0.4225355,-0.36239716,0.0600124,3.0713482,-0.61809653,-0.00028165596,-0.18083882,0.03334958,-0.0010708931,-0.052620035,0.0036479728,0.0013348747,0.46104047,-1.3407367,1.8543223,-2.0883863,-1.5640572,2.4327257,-0.23287843,0.233284,-0.28837737,0.029821543,0.04621515,-0.23390798,-0.1340753,0.24899697,-9.557653,0.900793,47.682407,-1.2528995,-2.5004525,-3.4318635,-0.050112225,0.29554522,-0.50456727,24.6875,25.1875,24.4375,26.1875,26.375,26.625
