Tylouw/Master_Thesis_Code/training_data/batch_1/rect_rod_t0.1/sample_64_session_2.csv
timestamp[s],tcp_force_x[N],tcp_force_y[N],tcp_force_z[N],tcp_force_rx[Nm?],tcp_force_ry[Nm?],tcp_force_rz[Nm?],tcp_pose_x[m],tcp_pose_y[m],tcp_pose_z[m],tcp_pose_rx[rot_vec_x],tcp_pose_ry[rot_vec_y],tcp_pose_rz[rot_vec_z],tcp_velo_x[m/s],tcp_velo_y[m/s],tcp_velo_z[m/s],tcp_velo_rx[rot_vec_x/s],tcp_velo_ry[rot_vec_y/s],tcp_velo_rz[rot_vec_z/s],q1[rad],q2[rad],q3[rad],q4[rad],q5[rad],q6[rad],qd1[rad/s],qd2[rad/s],qd3[rad/s],qd4[rad/s],qd5[rad/s],qd6[rad/s],tool_acc_x,tool_acc_y,tool_acc_z,current_of_whole_robot[A],voltage_of_whole_robot[V],current_J1[A],current_J2[A],current_J3[A],current_J4[A],current_J5[A],current_J6[A],temp_J1[C],temp_J2[C],temp_J3[C],temp_J4[C],temp_J5[C],temp_J6[C]
1.121e-06,-0.3917343,-0.37713355,-0.3602408,-0.026769554,0.014833353,-0.0018962605,-0.38933155,-0.36870626,0.06000901,-3.0786903,0.6250022,0.0001671302,0.0009367744,0.00049300486,-0.0012790365,0.0010577108,-0.002221333,0.00024250551,0.5050088,-1.3816675,1.9042228,-2.091892,-1.5708417,2.4800491,-4.8762355e-05,0.00070624525,0.0021715416,-0.0004226052,0.00015278801,-0.00029222298,0.15322891,0.095768064,-8.676587,0.7150385,47.687782,-0.2404234,-3.039062,-2.2383192,-0.21693446,0.116352394,0.0029349143,25.6875,26.5625,25.5625,28.0,28.875,29.25
0.002054395,0.27460968,-0.054474942,-0.22712016,-0.034462515,0.03372938,-0.020217426,-0.389355,-0.3687248,0.060013805,-3.0787218,0.62491256,0.0002485427,-0.0009091092,-0.00053364335,-0.0024587794,-0.0016785621,0.0026936335,0.00023183832,0.5050329,-1.3816305,1.9041771,-2.091931,-1.5708655,2.4800134,-4.747615e-05,0.0034894217,0.0038573965,-0.01051694,0.00014961329,-0.00027943254,0.1340753,0.15322891,-8.619126,0.7530795,47.672558,-0.246158,-3.0798771,-2.3363855,-0.16012007,0.14390501,0.002527051,25.6875,26.5625,25.5625,28.0,28.875,29.25
0.004054132,-0.3951756,-0.78648686,-0.32942846,-0.020127568,0.022110928,-0.0008261418,-0.38935217,-0.36872488,0.060006212,-3.0787294,0.6249717,0.00022597419,-0.0014192702,-0.00081686076,-0.0022761542,-0.0025150697,0.0042046313,0.00022142021,0.50502086,-1.3816305,1.9042,-2.0919554,-1.5708417,2.4800372,-4.6256115e-05,0.0035271763,0.0037802018,-0.012204578,0.0001465673,-0.00026757288,0.11492168,0.24899697,-8.599973,0.6926589,47.672558,-0.2464644,-3.3374774,-2.6138458,-0.07199147,0.12516426,0.0062578605,25.6875,26.5625,25.5625,28.0,28.875,29.25
0.00605356,0.002536087,0.24274032,-0.29882842,-0.013887919,0.016349396,-0.006227259,-0.3893444,-0.368726,0.05999397,-3.0787063,0.62490946,0.0002194748,-0.00023544436,-0.00015777488,-0.0014381193,-0.0007263668,0.0010021413,0.00023827831,0.5050448,-1.3816072,1.9041995,-2.0919526,-1.5708655,2.4800253,-4.509719e-05,0.0016756702,0.0025236707,-0.0054284018,0.00014364315,-0.00028377186,0.038307227,0.17238252,-8.580819,0.7620334,47.664497,-0.22421964,-3.1956422,-2.5072842,-0.091619164,0.12348345,-0.00081234216,25.6875,26.5625,25.5625,28.0,28.875,29.25
0.008053884,0.5488182,1.2140878,-0.80123425,0.008932097,0.000109453795,-0.016193166,-0.38933507,-0.36873057,0.060007706,-3.07872,0.6248738,0.00026022914,0.00022397208,9.872449e-05,-0.0003623654,-0.0003700019,0.00037702403,0.00023647548,0.5050688,-1.3816439,1.9042114,-2.0919516,-1.5708774,2.4800253,-4.3995016e-05,-0.00038165928,0.0016868127,-0.0018147036,0.00014083362,-0.0002812278,0.095768064,0.21068975,-8.676587,0.7530795,47.661808,-0.22106434,-3.2048135,-2.4499152,-0.1367172,0.13780694,0.0054693436,25.6875,26.5625,25.5625,28.0,28.875,29.25
0.010054116,-0.058950473,0.36801615,-1.1692452,0.030131387,-0.0072654793,-0.008048108,-0.38934946,-0.36872613,0.059996188,-3.078707,0.6249096,0.0001918925,0.00050297315,0.00025433098,0.0002563726,0.00028287488,-0.0007880958,0.00022811195,0.5050329,-1.3815962,1.9041756,-2.0919268,-1.5708536,2.4800134,-4.294529e-05,-0.0010701326,0.000324306,0.0015718556,0.00013813135,-0.00027172698,0.095768064,0.17238252,-9.002198,0.6926589,47.64389,-0.71228915,-2.5273905,-2.9755573,-0.17467341,0.12236223,-0.050918516,25.6875,26.5625,25.5625,28.0,28.875,29.25
0.012054023,-0.17660785,-0.1973697,-1.1442639,-0.009525758,0.025453331,-0.017187202,-0.3893133,-0.36872193,0.059954837,-3.078671,0.6248631,5.2299834e-05,0.0011443569,0.0006818896,-0.0028448196,0.003551352,-0.006691139,0.0002963339,0.50504476,-1.3815584,1.9042224,-2.091915,-1.5708297,2.4800007,-0.00016457005,0.0049783657,4.350979e-06,0.0025908097,0.0001355315,-0.0004605979,0.038307227,0.19153613,-9.232041,0.7553206,47.66271,-0.9044833,-2.5087643,-3.0911553,-0.1590459,0.1169398,-0.10630579,25.6875,26.5625,25.5625,28.0,28.875,29.25
0.014054577,-0.8903413,-1.2528522,-1.3517668,-0.041293815,0.040478338,-0.0131354835,-0.38931856,-0.3686819,0.05995631,-3.078598,0.62482816,8.101017e-05,-0.0046660523,0.003645967,-0.0048307995,0.004803607,-0.008982146,0.0007529377,0.50501716,-1.3815788,1.9042324,-2.0918672,-1.5709013,2.4799607,-0.010592663,0.013805279,-0.0058129923,0.002189838,0.00013302728,-0.011341467,-0.038307227,0.11492168,-9.32781,0.78217715,47.698532,-0.5241244,-3.2036448,-3.0214474,-0.15300517,0.11935899,-0.053654328,25.6875,26.5625,25.5625,28.0,28.875,29.25
0.016053742,-1.0398748,-1.2947407,-1.4142948,-0.068108186,0.0717984,-0.02897654,-0.38932452,-0.36869574,0.059946492,-3.0786119,0.62486726,4.824085e-06,-0.0059266547,0.003115736,-0.0035164955,0.0032974088,-0.006266422,0.006158883,0.50500506,-1.3815311,1.9041957,-2.0918553,-1.5708536,2.4799712,-0.01087788,0.013233591,-0.008064658,0.0019073916,0.00013061405,-0.017031768,-0.17238252,0.24899697,-9.423578,0.72622824,47.690468,-0.55445695,-3.0717692,-3.0776434,-0.13512471,0.12603976,-0.014016408,25.6875,26.5625,25.5625,28.0,28.875,29.25
0.018053943,-1.3805635,-0.8069943,-1.3690557,-0.07800268,0.08878465,-0.04720217,-0.38934582,-0.36869973,0.05994984,-3.07865,0.62485576,-1.8580817e-05,-0.006016304,0.0032461951,-0.0024167888,0.0026761387,-0.0051439237,0.006928441,0.5049692,-1.3815079,1.9041604,-2.0918548,-1.5708174,2.4799232,-0.011180954,0.011073326,-0.008258116,0.002978643,0.00013318933,-0.01810478,-0.49799395,0.2681506,-9.500193,0.7642693,47.692257,-0.691429,-2.818151,-3.2724252,-0.119620144,0.13617179,-0.021778509,25.6875,26.5625,25.5625,28.0,28.875,29.25
0.02005379,-1.0384368,-0.3954056,-1.6744959,-0.052731257,0.11212306,-0.06644168,-0.3893123,-0.3686889,0.059903916,-3.0785725,0.6247838,-9.6809395e-05,-0.005729544,0.0035054192,-0.0027880468,0.0038691037,-0.0072924974,0.004754474,0.50500494,-1.3814595,1.9042076,-2.0918539,-1.5708536,2.479924,-0.01134924,0.012089844,-0.009140901,0.0053021195,0.00013103917,-0.016098833,-0.57460845,0.30645782,-9.5385,0.71951014,47.698532,-0.823424,-2.6171603,-3.4038744,-0.14573893,0.11039908,-0.06041847,25.6875,26.5625,25.5625,28.0,28.875,29.25
0.022053577,-1.7500883,-0.30151767,-2.0239222,-0.031021329,0.09503072,-0.07497468,-0.38932297,-0.36867043,0.059881553,-3.078543,0.6247788,-0.00018118694,-0.006970494,0.003906472,-0.0037396585,0.004812769,-0.00905148,0.0023193273,0.50495636,-1.3814101,1.9041947,-2.09183,-1.5708417,2.479876,-0.013200027,0.01581178,-0.011521256,0.0059567136,0.0001512178,-0.01551302,-0.57460845,0.22984336,-9.672575,0.80679786,47.701214,-0.9766899,-2.7564075,-3.35991,-0.1500916,0.12693284,-0.10060427,25.6875,26.5625,25.5625,28.0,28.875,29.25
0.024053762,-1.4576848,0.061271194,-1.7458789,-0.0438102,0.10042922,-0.099152185,-0.38936523,-0.36867213,0.059897505,-3.078551,0.6248193,-0.00015194209,-0.009221863,0.004063923,-0.0037353106,0.0042350995,-0.00806351,0.0006720952,0.5049197,-1.3813732,1.9041094,-2.0918062,-1.5708417,2.4798636,-0.015583461,0.018543229,-0.014572434,0.0051321406,0.0001701322,-0.016247481,-0.68953013,0.19153613,-9.730036,0.83589023,47.67345,-0.8369211,-2.7516274,-3.3538969,-0.1318615,0.13260907,-0.10655686,25.6875,26.5625,25.5625,28.0,28.875,29.25
0.026054166,-1.7974548,-0.49367487,-1.8856672,-0.041004077,0.09949077,-0.106624015,-0.38936454,-0.36866438,0.05986638,-3.0785093,0.6248304,-0.00022318149,-0.01003978,0.0043907077,-0.0035244408,0.003755111,-0.0072457185,8.20576e-05,0.50490725,-1.3813131,1.9041094,-2.0918067,-1.5708417,2.4798634,-0.016911536,0.01855384,-0.014928976,0.0045299553,0.00019114699,-0.016985357,-0.80445176,0.21068975,-9.768343,0.7665104,47.68062,-0.86090267,-2.8210707,-3.4138694,-0.121624574,0.12528053,-0.1002274,25.6875,26.5625,25.5625,28.0,28.875,29.25
0.028053913,-2.2228937,-1.123529,-2.0405364,-0.0391013,0.10638521,-0.1062757,-0.38939005,-0.36865214,0.05986706,-3.0785162,0.62485075,-0.00026348134,-0.010674927,0.004029309,-0.0033632638,0.0029814285,-0.0071285735,-0.0010630032,0.5048473,-1.3812888,1.9040736,-2.0917828,-1.5708169,2.4798152,-0.017282253,0.019548994,-0.016492667,0.0046200133,0.0008080078,-0.016211335,-0.8236054,0.095768064,-9.883265,0.73741806,47.64837,-0.8575617,-2.7727244,-3.4252157,-0.10344285,0.11563881,-0.10965632,25.6875,26.5625,25.5625,28.0,28.875,29.25
0.030053532,-2.4724078,-0.72642356,-1.8883048,-0.04453082,0.10880911,-0.12677579,-0.38940665,-0.36863336,0.05986267,-3.0784845,0.6247883,-0.00025606962,-0.011221428,0.004400314,-0.0035102312,0.0033307676,-0.007939665,-0.0031737776,0.5048228,-1.3812644,1.9040493,-2.091758,-1.5708531,2.4797559,-0.018471764,0.020538777,-0.017540222,0.0055559226,0.0008941671,-0.015289762,-0.7852981,0.076614454,-9.864111,0.69937176,47.65106,-0.9502028,-2.6605783,-3.463625,-0.12451111,0.12441659,-0.13784172,25.6875,26.5625,25.5625,28.0,28.875,29.25
0.03205347,-2.0008667,-0.11062975,-1.9242482,-0.030504584,0.12380447,-0.12863919,-0.3894126,-0.36865187,0.059855726,-3.078525,0.6248163,-0.00031802306,-0.012143895,0.0042422335,-0.0027965459,0.002896355,-0.0070512216,-0.0042500105,0.5048108,-1.3812283,1.904025,-2.0917695,-1.570793,2.479756,-0.019035716,0.020825738,-0.019706639,0.006448823,0.0008421352,-0.014776549,-0.80445176,0.038307227,-9.80665,0.7463667,47.668976,-0.98271847,-2.7364364,-3.3978162,-0.117216714,0.12300758,-0.1585272,25.6875,26.5625,25.5625,28.0,28.875,29.25
0.03405399,-1.6228979,0.48508713,-1.8774241,-0.00696064,0.11683092,-0.1353937,-0.38946277,-0.36863247,0.05982749,-3.0784907,0.6248278,-0.00034740425,-0.013614649,0.003945915,-0.0021586856,0.0019582608,-0.005386566,-0.00412479,0.5047386,-1.3811198,1.9039639,-2.0917823,-1.570805,2.4796956,-0.019916197,0.021764047,-0.022185344,0.0060782433,0.00085054856,-0.015781099,-0.6703765,-0.05746084,-9.921572,0.7396539,47.66987,-0.9697747,-2.7408643,-3.3794127,-0.12722099,0.120410405,-0.1876553,25.6875,26.5625,25.5625,28.0,28.875,29.25
0.036053702,-1.8332202,0.26159027,-2.0958493,0.009866289,0.09382587,-0.10899036,-0.38949427,-0.368622,0.05984983,-3.0784595,0.6249182,-0.00028302314,-0.014827378,0.0039859535,-0.0020892275,0.0014027276,-0.004904675,-0.005017096,0.5047142,-1.3811194,1.9039043,-2.091746,-1.5708412,2.4797316,-0.021272428,0.023135815,-0.023881491,0.0057106502,0.0010992977,-0.01624451,-0.45968673,-0.038307227,-9.825804,0.7329411,47.683304,-1.0225458,-2.7165952,-3.3653848,-0.096498355,0.10990657,-0.16784586,25.6875,26.5625,25.5625,28.0,28.875,29.25
0.03805357,-1.4293958,0.2620247,-1.9944034,0.0063434606,0.08253147,-0.12086906,-0.38950992,-0.36860195,0.059820592,-3.078429,0.6248344,-0.00036899396,-0.01583208,0.004484951,-0.0022548072,0.0013718975,-0.0047353017,-0.005184379,0.5046658,-1.381047,1.90388,-2.0917222,-1.5708412,2.4796348,-0.023013867,0.024120307,-0.024564149,0.005245692,0.0010397276,-0.017818151,-0.4405331,-0.05746084,-9.672575,0.83365434,47.661808,-0.9443335,-2.7619572,-3.4113762,-0.08505194,0.12815937,-0.17587504,25.6875,26.5625,25.5625,28.0,28.875,29.25
0.040054202,-0.9371054,0.030127332,-1.8311951,-0.010290654,0.076115824,-0.12151895,-0.38957256,-0.3686256,0.059860535,-3.0785067,0.62494767,-0.00030443445,-0.017639862,0.0050055357,-0.0017044,0.00081298104,-0.0035487697,-0.006531083,0.5046169,-1.3810227,1.9037603,-2.0917222,-1.570793,2.4796467,-0.025521547,0.02482673,-0.026674312,0.0053416886,0.00095201953,-0.018977905,-0.38307226,-0.095768064,-9.615114,0.72622824,47.687782,-0.9007676,-2.7012906,-3.3981597,-0.07108286,0.10750948,-0.18017355,25.6875,26.5625,25.5625,28.0,28.875,29.25
0.04205403,-0.8206039,-0.2848255,-2.0042984,-0.015898393,0.06935052,-0.11512675,-0.3896087,-0.36861092,0.059841778,-3.0784693,0.6249585,-0.00028086232,-0.018598868,0.004603449,-0.0009947259,0.0003262725,-0.002425796,-0.0060717356,0.504581,-1.3809506,1.9037231,-2.091746,-1.5708293,2.4796224,-0.025664357,0.025432192,-0.029155817,0.0059991227,0.0008307626,-0.019578816,-0.24899697,-0.019153614,-9.615114,0.7978386,47.66987,-0.8833921,-2.6471887,-3.2572188,-0.069409505,0.11451559,-0.20150498,25.6875,26.5625,25.5625,28.0,28.875,29.25
0.044053543,-1.0660897,-0.45145565,-2.037339,-0.023158751,0.060494825,-0.106397875,-0.3896249,-0.3686074,0.059819,-3.0784605,0.62493765,-0.00036347832,-0.019338027,0.004909009,-0.0010100015,0.0006454437,-0.0029126718,-0.0061599305,0.50454473,-1.380878,1.9036864,-2.0917337,-1.570805,2.4795742,-0.026839707,0.026522225,-0.030629907,0.0069642384,0.0007843009,-0.020665254,-0.19153613,0.038307227,-9.519346,0.7396539,47.692257,-0.9244633,-2.7051454,-3.3469548,-0.06373806,0.12765124,-0.20702279,25.6875,26.5625,25.5625,28.0,28.875,29.25
0.04605416,-0.7695509,-0.41721147,-1.8884723,-0.026750281,0.062061783,-0.11371863,-0.38970035,-0.36855564,0.059847347,-3.0784004,0.62503904,-0.00028939714,-0.019285424,0.0054899757,-0.0012804982,0.0015877568,-0.0045381146,-0.005736485,0.50442463,-1.3808658,1.903591,-2.0916612,-1.570865,2.479525,-0.027740953,0.02697845,-0.03094774,0.008703042,0.000747668,-0.02198985,-0.15322891,-0.019153614,-9.615114,0.7933669,47.66091,-0.9339733,-2.6410344,-3.3983006,-0.07594597,0.11763908,-0.220696,25.6875,26.5625,25.5625,28.0,28.875,29.25
0.04805408,-0.9976445,-1.1436198,-2.0566094,-0.011895295,0.045805186,-0.10150067,-0.3897561,-0.36855498,0.05985633,-3.0784247,0.62512046,-0.00024385254,-0.0203944,0.00568786,-0.00096497196,0.001267169,-0.0038232717,-0.0053246925,0.50436425,-1.3808175,1.903519,-2.0916855,-1.5708536,2.4795125,-0.029064212,0.02764232,-0.03246946,0.0087804105,0.0006799347,-0.023724027,0.038307227,0.21068975,-9.576807,0.7978386,47.679718,-0.8682942,-2.5884771,-3.4216235,-0.07229878,0.12415721,-0.23342878,25.6875,26.5625,25.5625,28.0,28.875,29.25
0.050053347,-0.36746168,-0.7225906,-1.9682734,-0.02612463,0.043299098,-0.11187804,-0.3897942,-0.36855358,0.059845828,-3.0784485,0.62510633,-0.00029389292,-0.022575384,0.0058537526,1.969326e-05,0.00017697633,-0.0017429307,-0.0057161725,0.50430363,-1.3807453,1.9034575,-2.0916855,-1.5708174,2.47944,-0.0313412,0.028353065,-0.035559867,0.00881282,0.00062137865,-0.025608068,0.05746084,0.30645782,-9.442732,0.7486078,47.661808,-0.7865826,-2.6506007,-3.3418052,-0.087108076,0.123019695,-0.2393558,25.6875,26.5625,25.5625,28.0,28.875,29.25
0.052053794,0.1822162,-1.1488277,-2.1366305,-0.029952262,0.04115024,-0.1099476,-0.38981405,-0.36854383,0.059833188,-3.078406,0.6250589,-0.0003006963,-0.023546224,0.0059610163,0.00010071141,-5.0055867e-05,-0.0012396263,-0.005187512,0.5042913,-1.3806849,1.9034094,-2.0916612,-1.5708536,2.4794035,-0.032397147,0.029350888,-0.03687178,0.008575569,0.0005719814,-0.027191894,0.076614454,0.2681506,-9.5385,0.7620334,47.666286,-0.7973898,-2.5876138,-3.32229,-0.069158934,0.13671851,-0.24307382,25.6875,26.5625,25.5625,28.0,28.875,29.25
0.05405363,-0.26107684,-1.3624957,-2.031557,-0.0395359,0.029931573,-0.099277675,-0.3898599,-0.3685093,0.059840567,-3.0783727,0.6251869,-0.00034264568,-0.024544159,0.0065513756,2.6612921e-05,6.173838e-05,-0.0012861188,-0.00531292,0.5041829,-1.3806604,1.9033502,-2.0916016,-1.5708417,2.4793792,-0.034269497,0.030228252,-0.037766367,0.008687933,0.0004933612,-0.028938212,0.038307227,0.24899697,-9.481039,0.7530795,47.72629,-0.83815527,-2.6004534,-3.355043,-0.063912585,0.1469223,-0.24552508,25.6875,26.5625,25.5625,28.0,28.875,29.25
0.056054328,-0.672119,-1.1951239,-1.6954162,-0.055116247,0.027777221,-0.106756836,-0.38990745,-0.36851323,0.059842393,-3.0784228,0.6251586,-0.00035115736,-0.02565166,0.006892821,0.00016350446,0.00011335388,-0.0012270794,-0.0056757606,0.5041225,-1.3806001,1.9032773,-2.091613,-1.5708054,2.4792948,-0.035826866,0.03132878,-0.039523814,0.009319324,0.00041745065,-0.030131765,0.019153614,0.36391866,-9.557653,0.7933669,47.695843,-0.75120884,-2.5742407,-3.3836517,-0.06344536,0.13174032,-0.25150454,25.6875,26.5625,25.5625,28.0,28.875,29.25
0.058053937,-1.0032717,-1.6697454,-1.8384975,-0.044589326,0.035925176,-0.099071875,-0.38998097,-0.36849263,0.059856664,-3.07841,0.6251739,-0.00034013906,-0.025990987,0.006646306,0.0002561035,7.8124045e-05,-0.0013127669,-0.004463372,0.5040266,-1.3805277,1.9031457,-2.091553,-1.5708174,2.4792101,-0.035766795,0.03216578,-0.040849973,0.0098657925,0.00048749035,-0.031283602,0.038307227,0.40222588,-9.461885,0.7709874,47.695843,-0.7129492,-2.5328274,-3.3633423,-0.062492695,0.13937055,-0.24798056,25.6875,26.5625,25.5625,28.0,28.875,29.25
0.06005345,-0.6881938,-1.0260141,-1.5506971,-0.055505134,0.05145869,-0.10605644,-0.3900452,-0.36849728,0.05986388,-3.0784383,0.62523615,-0.00029550496,-0.026582109,0.0062359925,0.00066793396,-0.00014378679,-0.0010203863,-0.0030212114,0.503967,-1.3804553,1.9030489,-2.0915763,-1.5708054,2.4791858,-0.035655335,0.03302268,-0.043017235,0.0108130425,0.00053907617,-0.032613456,-0.019153614,0.38307226,-9.289502,0.7732232,47.690468,-0.8434826,-2.430064,-3.3766298,-0.068474025,0.17083043,-0.27621347,25.6875,26.5625,25.5625,28.0,28.875,29.25
0.062054023,-0.7793715,-1.040516,-1.5163673,-0.038602356,0.052894942,-0.1045775,-0.3901021,-0.36849564,0.05987665,-3.0784674,0.6252044,-0.0002272361,-0.027815223,0.0067132604,0.000766949,-0.0009358,-0.0011244945,-0.004757691,0.50391823,-1.380407,1.9029654,-2.0915887,-1.5708169,2.4791136,-0.03806768,0.03386693,-0.044267807,0.010924953,0.0012817627,-0.033289976,-0.11492168,0.36391866,-9.308657,0.7463667,47.65106,-0.8278314,-2.412543,-3.318097,-0.074103646,0.15388566,-0.28282484,25.6875,26.5625,25.5625,28.0,28.875,29.25
0.06405394,-0.79387724,-0.7359933,-1.5648825,-0.029350642,0.048492506,-0.10333047,-0.390159,-0.36847022,0.059881754,-3.0784454,0.6252378,-0.00025633513,-0.028861273,0.006286932,0.0011510855,-0.0022350615,-0.0005507617,-0.004301179,0.503822,-1.3803464,1.9028686,-2.0915287,-1.5708164,2.479041,-0.03885449,0.034934755,-0.046388585,0.010845069,0.002136559,-0.03453382,-0.11492168,0.30645782,-9.404425,0.7396539,47.639416,-0.7863083,-2.441981,-3.3281646,-0.07173434,0.13872072,-0.29164517,25.6875,26.5625,25.5625,28.0,28.875,29.25
0.066053934,-0.47838315,-0.6569621,-1.4639555,-0.029293306,0.055599716,-0.10707956,-0.39018324,-0.36845413,0.059849624,-3.0784118,0.625269,-0.00039252953,-0.02955025,0.0063390653,0.0013596114,-0.0027123417,-0.0005369349,-0.00448101,0.50374997,-1.3802503,1.90282,-2.091493,-1.5707806,2.4789927,-0.03983537,0.03550019,-0.04763457,0.011282956,0.0025430291,-0.035335265,-0.17238252,0.28730422,-9.346964,0.7172743,47.619713,-0.84215456,-2.4898505,-3.3798773,-0.065590486,0.13281365,-0.30952644,25.6875,26.5625,25.5625,28.0,28.875,29.25
0.06805348,-0.71312046,-0.33453998,-1.3825766,-0.029759416,0.053425703,-0.11087068,-0.39027527,-0.3684623,0.059885684,-3.078495,0.6252462,-0.0002510247,-0.030572167,0.0061029023,0.0016335648,-0.003391982,0.00022802266,-0.0038579174,0.50367785,-1.3802019,1.9026889,-2.0915287,-1.5707806,2.478896,-0.04052337,0.036565546,-0.049466446,0.011050749,0.0027684085,-0.036645513,-0.21068975,0.22984336,-9.232041,0.7620334,47.63225,-0.80989504,-2.4032164,-3.280591,-0.07603772,0.13494352,-0.33823013,25.6875,26.5625,25.5625,28.0,28.875,29.25
0.070054196,-0.8436688,-0.23947515,-1.4157766,-0.020892208,0.06303747,-0.108554445,-0.3903442,-0.36844158,0.0598893,-3.0784817,0.6252619,-0.0002122148,-0.03186291,0.0062108804,0.0018575877,-0.0036094103,0.00086633646,-0.002296508,0.50359356,-1.3801293,1.9025921,-2.0915167,-1.5708045,2.4788232,-0.041826136,0.037856344,-0.051529713,0.011158733,0.002646401,-0.039508417,-0.17238252,0.24899697,-9.270349,0.683705,47.6421,-0.82768655,-2.3649147,-3.2823286,-0.063847095,0.1322734,-0.32368788,25.6875,26.5625,25.5625,28.0,28.875,29.25
0.072054364,-0.9767772,-0.17940971,-1.3543726,-0.018819284,0.06997251,-0.105585076,-0.39040866,-0.3684433,0.059882533,-3.0784798,0.6252422,-0.00028139344,-0.032527577,0.006417567,0.0016502165,-0.0033613858,0.00059867103,-0.0018317268,0.50352144,-1.3799968,1.9024371,-2.0914571,-1.5707806,2.478739,-0.042729594,0.03909808,-0.052565016,0.011307788,0.0025546863,-0.040876,-0.24899697,0.17238252,-9.270349,0.800085,47.675243,-0.9034471,-2.4244244,-3.296634,-0.06573632,0.12765059,-0.33255437,25.6875,26.5625,25.5625,28.0,28.875,29.25
0.07405397,-1.0221252,-0.2964768,-1.3504816,-0.013539473,0.07666477,-0.10841433,-0.39045396,-0.3684167,0.059883337,-3.0784574,0.6252572,-0.0002588517,-0.032765295,0.006512304,0.0009079721,-0.0028572236,-0.0011282229,-0.003075756,0.5034493,-1.3799601,1.9023889,-2.0914443,-1.5708045,2.4786792,-0.04335085,0.04120481,-0.053501718,0.01189147,0.0029458327,-0.040253274,-0.30645782,0.11492168,-9.251195,0.7083204,47.62688,-0.8539689,-2.4944353,-3.3323898,-0.067327105,0.10873632,-0.35229152,25.6875,26.5625,25.5625,28.0,28.875,29.25
0.07605436,-1.3929285,-0.24075234,-1.3528242,-0.010632935,0.072879225,-0.1023191,-0.39052832,-0.36840978,0.059894413,-3.0784843,0.62526006,-0.00026840452,-0.035035055,0.006005072,0.0023511888,-0.004757501,0.0012687932,-0.0017101925,0.5033532,-1.3798758,1.9022559,-2.0914085,-1.5707802,2.4785814,-0.04491573,0.04204169,-0.057902746,0.012438472,0.0034455615,-0.043182705,-0.30645782,0.095768064,-9.270349,0.75755644,47.679718,-0.8806945,-2.3969238,-3.1857886,-0.06796398,0.089142635,-0.36395708,25.6875,26.5625,25.5625,28.0,28.875,29.25
0.078054234,-0.9307763,0.31313813,-1.5596513,-0.012352273,0.07482439,-0.115764484,-0.3906178,-0.368392,0.059903022,-3.078497,0.62535864,-0.00023886576,-0.035090983,0.007347825,0.00090209383,-0.003739955,-0.001750733,-0.0017480877,0.5032324,-1.3797911,1.9021362,-2.0914085,-1.5707682,2.4785206,-0.04757093,0.043591946,-0.05647905,0.012599118,0.0040150853,-0.04580123,-0.3256114,0.095768064,-9.289502,0.7418897,47.645687,-0.76780486,-2.5173364,-3.2566178,-0.069366425,0.09844257,-0.35091949,25.6875,26.5625,25.5625,28.0,28.875,29.25
0.08005405,-1.2548571,0.37974596,-1.3453753,-0.018363595,0.06686086,-0.11022876,-0.39068997,-0.36838698,0.059902087,-3.0785136,0.62532073,-0.00025300073,-0.034754246,0.0067000627,0.000537282,-0.003463166,-0.0029875133,0.0038101464,0.503149,-1.3796823,1.9020041,-2.0913842,-1.5707558,2.4784114,-0.046379793,0.045131054,-0.05767141,0.013468714,0.004367228,-0.050168313,-0.36391866,-0.05746084,-9.289502,0.6769922,47.661808,-0.8450145,-2.381671,-3.418539,-0.07927147,0.08490371,-0.33071297,25.6875,26.5625,25.5625,28.0,28.875,29.25
0.082053415,-1.2149626,-0.14238256,-1.3144145,-0.00732142,0.071998544,-0.111671105,-0.39076194,-0.368358,0.059895717,-3.078497,0.62527764,-0.0002698691,-0.036517013,0.0066734217,0.0010218662,-0.0040034265,-0.0017077507,0.0043785595,0.50304085,-1.3795859,1.9018964,-2.0913484,-1.5707682,2.4782786,-0.04787348,0.046663158,-0.06059265,0.013476447,0.0042153304,-0.052228834,-0.36391866,0.019153614,-9.308656,0.75084364,47.651955,-0.92867684,-2.5312874,-3.330668,-0.09604606,0.07725657,-0.29945472,25.6875,26.5625,25.5625,28.0,28.875,29.25
0.084053904,-1.5997866,-0.041530218,-1.3338757,-0.005472091,0.06973279,-0.10426995,-0.39082396,-0.3683439,0.059907146,-3.0785074,0.62531835,-0.00029412174,-0.038485214,0.0065748785,0.0021938323,-0.0049081882,0.00044979472,0.003606523,0.5029445,-1.3795255,1.9017881,-2.0913007,-1.5707444,2.4782064,-0.049373288,0.047259945,-0.06410079,0.014063883,0.003961661,-0.05295471,-0.38307226,0.095768064,-9.251195,0.7217513,47.63315,-0.8825691,-2.4851968,-3.1294386,-0.09567787,0.08031862,-0.32254544,25.6875,26.5625,25.5625,28.0,28.875,29.25
0.08605409,-1.5278077,-0.3611336,-1.5791848,-1.4847909e-05,0.075252324,-0.10489176,-0.3909033,-0.36832783,0.059910383,-3.07855,0.62522894,-0.000280063,-0.03808875,0.0083046965,0.00025333103,-0.002643295,-0.0033964708,0.005219954,0.5028359,-1.3794408,1.9016804,-2.0913002,-1.570732,2.4780366,-0.05182593,0.048985116,-0.061838374,0.014539393,0.0038371447,-0.05702118,-0.4213795,0.05746084,-9.346964,0.7620334,47.64837,-0.8567678,-2.4470477,-3.3589585,-0.10371849,0.07069858,-0.2997202,25.6875,26.5625,25.5625,28.0,28.875,29.25
0.088053964,-1.480758,-0.4221789,-1.2843496,-0.015448705,0.079408325,-0.1008918,-0.39099532,-0.36831504,0.05992723,-3.0785308,0.6252231,-0.00022882434,-0.03943045,0.008307211,0.0006465418,-0.0024412107,-0.0029230735,0.008100876,0.50275165,-1.3793323,1.9015001,-2.0912402,-1.5707687,2.4779513,-0.052812982,0.050564613,-0.06486213,0.015665691,0.0034275644,-0.060887054,-0.34476504,0.11492168,-9.32781,0.73069996,47.621502,-0.7937039,-2.4664793,-3.3174658,-0.12218589,0.07073444,-0.26006922,25.6875,26.5625,25.5625,28.0,28.875,29.25
0.090053886,-1.6464767,-0.39811566,-1.4348079,-0.026331585,0.07945102,-0.09834604,-0.39102918,-0.36829317,0.05989351,-3.0785062,0.6251581,-0.0003553852,-0.039458297,0.007493123,0.0011804142,-0.0025671616,-0.0019899243,0.012690701,0.50266844,-1.3792242,1.9014405,-2.0912035,-1.5707449,2.4778306,-0.05124781,0.05075015,-0.066412665,0.016155174,0.0030798072,-0.063910775,-0.45968673,0.11492168,-9.3661175,0.7642693,47.690468,-0.9462831,-2.3554142,-3.3156316,-0.14809439,0.07567817,-0.22254032,25.6875,26.5625,25.5625,28.0,28.875,29.25
0.09205355,-1.2931981,-0.59325767,-1.4429756,-0.025232648,0.08558791,-0.10091135,-0.39110962,-0.36827773,0.05988597,-3.0785115,0.6251382,-0.00038422,-0.040559705,0.008698733,-0.00040927433,-0.0006121643,-0.0044785007,0.012747152,0.50255984,-1.3791026,1.9013084,-2.0911796,-1.5707325,2.477709,-0.053967513,0.054565888,-0.0673807,0.016432967,0.0025618705,-0.06668507,-0.45968673,0.13407528,-9.32781,0.80456203,47.70838,-0.86750865,-2.5616217,-3.3165104,-0.14320469,0.06783223,-0.17364207,25.6875,26.5625,25.5625,28.0,28.875,29.25
0.09405424,-1.1611911,-0.87967354,-1.4170334,-0.026291246,0.08564889,-0.10317063,-0.391234,-0.36824912,0.059907276,-3.0785255,0.62510175,-0.00034277406,-0.04210106,0.008567133,0.0010796738,-0.002213527,-0.0010511074,0.013965152,0.5024038,-1.378983,1.9011048,-2.09112,-1.5707449,2.4775286,-0.055003516,0.053301934,-0.06909829,0.01563997,0.002309672,-0.068938,-0.36391866,0.22984336,-9.385271,0.779936,47.690468,-0.94173133,-2.4341912,-3.3294365,-0.1529077,0.07772961,-0.14215487,25.6875,26.5625,25.5625,28.0,28.875,29.25
0.09605354,-1.3787305,-0.6200583,-1.3235312,-0.041275617,0.07129594,-0.10239142,-0.39127937,-0.36821982,0.05987027,-3.078467,0.6250308,-0.00044666047,-0.04314166,0.008328663,0.0014408347,-0.0027282115,0.0004908627,0.015399954,0.5023197,-1.3788505,1.9010214,-2.0910723,-1.5707568,2.4774077,-0.055373684,0.054041162,-0.07061661,0.014820174,0.0020057368,-0.070741825,-0.34476504,0.28730422,-9.404425,0.7553206,47.664497,-0.91294,-2.3824122,-3.3234978,-0.15508536,0.07248438,-0.106267355,25.6875,26.5625,25.5625,28.0,28.875,29.25
0.09805376,-1.0538552,-1.0064371,-1.57038,-0.040851407,0.07053128,-0.09796451,-0.39136675,-0.36819375,0.05989454,-3.078495,0.62505645,-0.00041440013,-0.044235244,0.008549614,0.0012578936,-0.0026592084,0.0009164785,0.014469152,0.50218755,-1.378802,1.9009007,-2.091037,-1.5707453,2.477288,-0.056582186,0.055567883,-0.07187173,0.0142107885,0.0017389505,-0.07101815,-0.30645782,0.28730422,-9.404425,0.7284641,47.691364,-0.950621,-2.3560343,-3.3473506,-0.17213264,0.09040761,-0.08118853,25.6875,26.5625,25.5625,28.0,28.875,29.25
0.10005378,-0.72996235,-0.5580647,-1.4625823,-0.04361624,0.0686942,-0.10318897,-0.39148325,-0.3682003,0.059901632,-3.0785775,0.6249381,-0.0003977437,-0.04484391,0.008597733,-1.999887e-05,-0.0014406173,-0.0009205644,0.013286049,0.5020677,-1.3786445,1.9006981,-2.091037,-1.5707091,2.477084,-0.057098456,0.059373654,-0.07347886,0.014212427,0.0015549681,-0.07034967,-0.2681506,0.2681506,-9.3661175,0.71279734,47.690468,-0.9585432,-2.6183617,-3.3921208,-0.1883009,0.08988374,-0.08417771,25.6875,26.5625,25.5625,28.0,28.875,29.25
0.10205374,-0.51349604,-0.6391601,-1.709248,-0.03945974,0.061293777,-0.09572277,-0.39158407,-0.36817408,0.059897427,-3.0785315,0.6249481,-0.00036246533,-0.046321005,0.008480556,0.0017335068,-0.003132556,0.0028278967,0.0117672905,0.5019596,-1.378501,1.9005297,-2.0910013,-1.5707568,2.476988,-0.058054283,0.057478487,-0.075099155,0.013625835,0.0012291658,-0.069785774,-0.21068975,0.28730422,-9.3661175,0.75084364,47.719128,-0.9661616,-2.437963,-3.385047,-0.1863923,0.07569417,-0.08283505,25.6875,26.5625,25.5625,28.0,28.875,29.25
0.104053594,-0.8774133,-0.9072851,-1.6933544,-0.03585926,0.040784854,-0.09839683,-0.39169338,-0.36814785,0.05990897,-3.078584,0.6249397,-0.00035789685,-0.046906494,0.008660391,0.0012217489,-0.0028592213,0.0023206817,0.010054625,0.5017917,-1.3784045,1.9003862,-2.0909889,-1.570721,2.4768083,-0.058885597,0.059133854,-0.0758194,0.01326962,0.001234436,-0.06890381,-0.11492168,0.30645782,-9.404425,0.7911258,47.71017,-1.0326315,-2.4245975,-3.4336505,-0.17612992,0.0928042,-0.089361325,25.6875,26.5625,25.5625,28.0,28.875,29.25
0.10605355,-0.29118666,-0.6602387,-1.4667141,-0.042301245,0.0468639,-0.11033321,-0.39178896,-0.36815068,0.059913754,-3.0786214,0.6248715,-0.0003158638,-0.047749437,0.008437051,0.00092010194,-0.0026747626,0.0020122463,0.008293915,0.5017078,-1.3782715,1.9002179,-2.0909889,-1.570721,2.4766772,-0.05927022,0.06143123,-0.077891804,0.013403999,0.0012199432,-0.06752649,-0.038307227,0.3256114,-9.385271,0.6926589,47.66987,-1.0415589,-2.4435573,-3.333825,-0.17803729,0.10763785,-0.099722385,25.6875,26.5625,25.5625,28.0,28.875,29.25
0.10805407,-0.19966574,-0.5743269,-1.5754418,-0.041625988,0.03945654,-0.1055216,-0.39188263,-0.36812016,0.059908222,-3.0785823,0.6248833,-0.00026619568,-0.048748888,0.008815361,0.001035493,-0.002591696,0.0019400367,0.004953075,0.5015995,-1.3781512,1.9000853,-2.0909774,-1.5707692,2.4765813,-0.06079535,0.062407807,-0.07947925,0.014115298,0.0011809249,-0.06571,0.019153614,0.30645782,-9.346964,0.779936,47.639416,-1.036012,-2.4651947,-3.3556828,-0.19686055,0.09210321,-0.11369401,25.6875,26.5625,25.5625,28.0,28.875,29.25
0.110053755,-0.14540106,-0.64614034,-1.7097272,-0.034798574,0.029238937,-0.08963849,-0.3919686,-0.3681168,0.05989683,-3.0786085,0.6248125,-0.00033391017,-0.050367758,0.008316036,0.0020088225,-0.0037016685,0.0037086033,0.0026936329,0.5014915,-1.3779947,1.8999175,-2.0909407,-1.570733,2.476426,-0.061514467,0.06337399,-0.08294114,0.014528766,0.0012965335,-0.06416843,0.019153614,0.24899697,-9.481039,0.7284641,47.655537,-1.0780997,-2.4294968,-3.384028,-0.2018044,0.101501234,-0.13957684,25.6875,26.5625,25.5625,28.0,28.875,29.25
0.112053365,0.26167345,-0.55309993,-1.6658775,-0.031265423,0.035767097,-0.1000217,-0.39206386,-0.36807027,0.059893224,-3.0785694,0.6247853,-0.00032720092,-0.05049634,0.008887883,0.0007877297,-0.002436533,0.001454534,0.0007114192,0.5013475,-1.3778857,1.8997859,-2.090893,-1.5707692,2.47627,-0.06256399,0.06573047,-0.0830338,0.014847715,0.0012703901,-0.063235365,0.095768064,0.2681506,-9.404425,0.7665104,47.65912,-1.0683537,-2.4643693,-3.198648,-0.20648858,0.119512826,-0.18290088,25.6875,26.5625,25.5625,28.0,28.875,29.25
0.114053614,-0.13487187,-0.41056347,-1.6734884,-0.03688793,0.033697426,-0.0974922,-0.3921788,-0.36806387,0.059894968,-3.0785913,0.6248479,-0.00032349236,-0.051370952,0.009107157,0.0006869639,-0.0028276432,0.0012731205,-0.0011447307,0.5012153,-1.3777292,1.8995937,-2.090881,-1.5707453,2.476174,-0.06399091,0.06685791,-0.08413836,0.0147961695,0.0016999764,-0.06280626,0.019153614,0.21068975,-9.385271,0.78888994,47.67793,-1.1202304,-2.5049164,-3.36418,-0.2099607,0.104491115,-0.20741498,25.6875,26.5625,25.5625,28.0,28.875,29.25
0.11605371,-0.15626247,-0.45117715,-1.7616532,-0.03507551,0.041859925,-0.09999867,-0.3922845,-0.36807847,0.059917375,-3.0786562,0.62482333,-0.00030352717,-0.053892966,0.008128393,0.0030907085,-0.0051794234,0.005602104,-0.0022112052,0.5011193,-1.3775971,1.8993782,-2.0908453,-1.5707091,2.4760547,-0.064648375,0.06663843,-0.08950361,0.015456924,0.0016760887,-0.062395096,-0.038307227,0.22984336,-9.3661175,0.7396539,47.683304,-1.1332035,-2.4063802,-3.1181865,-0.22019994,0.104911365,-0.2289064,25.6875,26.5625,25.5625,28.0,28.875,29.25
0.118053496,-0.63764733,-0.5236021,-1.8446779,-0.034537226,0.041313834,-0.09576294,-0.39236683,-0.36802948,0.059877228,-3.0785737,0.6248246,-0.00039672022,-0.053267438,0.009038351,0.0011902541,-0.003521736,0.0018072689,-0.001733224,0.5009752,-1.3774283,1.8992585,-2.0907972,-1.5707325,2.4759219,-0.06581274,0.068911806,-0.087954134,0.015756164,0.0020431846,-0.06403859,-0.095768064,0.24899697,-9.519346,0.7732232,47.704796,-1.1198053,-2.3505242,-3.3097045,-0.23218082,0.11171009,-0.25612053,25.6875,26.5625,25.5625,28.0,28.875,29.25
0.120053425,-0.9778573,-0.50589967,-1.8114223,-0.04396177,0.052489273,-0.10102965,-0.39247966,-0.3680319,0.05990139,-3.0786312,0.62477785,-0.00033942322,-0.05430245,0.008522113,0.0012834211,-0.0038810603,0.0018480113,-0.0012746925,0.5008673,-1.3773072,1.8990544,-2.0907724,-1.5707206,2.4757776,-0.066068046,0.071099855,-0.09088867,0.0162943,0.0023375289,-0.06475138,-0.1340753,0.21068975,-9.557653,0.7463667,47.686886,-1.2000196,-2.6134405,-3.288661,-0.24809247,0.09971197,-0.26154894,25.6875,26.5625,25.5625,28.0,28.875,29.25
0.122053295,-1.2766142,-0.71355134,-1.6084598,-0.047727127,0.059406687,-0.10042147,-0.39258593,-0.36800373,0.05990403,-3.0786397,0.624876,-0.00037547262,-0.05527761,0.008503183,0.002639629,-0.00492227,0.0036182487,-0.0031978218,0.50069934,-1.3771876,1.8988985,-2.0907366,-1.5706848,2.4756699,-0.066955365,0.06985429,-0.0927426,0.01734354,0.0024004655,-0.06371526,-0.15322891,0.15322891,-9.461885,0.7217513,47.629562,-1.2592897,-2.3751526,-3.2311623,-0.25304633,0.10865567,-0.3149867,25.6875,26.5625,25.5625,28.0,28.875,29.25
0.12405403,-0.6822383,-0.13549864,-1.7341435,-0.049884792,0.08221882,-0.10516564,-0.39269003,-0.36799863,0.059900507,-3.0786645,0.62480396,-0.00041684986,-0.05541222,0.008993222,0.0012718781,-0.003938374,0.0009665722,-0.0037713293,0.5005793,-1.3770186,1.8986953,-2.090689,-1.5706605,2.4755018,-0.06813988,0.0725695,-0.09292066,0.01760533,0.002809744,-0.06432658,-0.22984336,0.15322891,-9.519346,0.8224646,47.627773,-1.2471792,-2.430197,-3.3786192,-0.2703624,0.10401818,-0.33481973,25.6875,26.5625,25.5625,28.0,28.875,29.25
0.12605354,-1.2415546,-0.52834576,-1.7831924,-0.031650472,0.075747855,-0.09802803,-0.39281437,-0.3680003,0.059916243,-3.0787034,0.6248094,-0.00037424234,-0.05569561,0.008967162,0.001595072,-0.00409331,0.0010877546,-0.001869217,0.5004596,-1.3768624,1.8984689,-2.0906646,-1.5706486,2.4753807,-0.06838555,0.07256355,-0.09382407,0.018335003,0.0028899752,-0.0664741,-0.19153613,0.15322891,-9.5385,0.7709874,47.62688,-1.3293839,-2.441947,-3.354216,-0.26186904,0.08890105,-0.3411535,25.6875,26.5625,25.5625,28.0,28.875,29.25
0.1280542,-1.0519835,-0.64801496,-1.9027241,-0.027581265,0.08435121,-0.09576013,-0.3929145,-0.367937,0.059901673,-3.0786216,0.62487274,-0.00038309197,-0.0574518,0.01005293,0.00134153,-0.0040978044,0.0010736826,-0.008040262,0.50029063,-1.3767419,1.8983482,-2.0906165,-1.5706967,2.4752617,-0.07181748,0.07409789,-0.09499466,0.017978724,0.0028954472,-0.06373441,-0.28730422,0.095768064,-9.576807,0.7866488,47.64658,-1.2041892,-2.3748226,-3.330039,-0.2709417,0.108046964,-0.41474319,25.6875,26.5625,25.5625,28.0,28.875,29.25
0.13005449,-1.3354245,-0.12806283,-1.7728046,-0.031106634,0.07878989,-0.09778662,-0.39303172,-0.36792982,0.05989523,-3.0786464,0.624894,-0.00041939787,-0.059094753,0.007944582,0.0034861383,-0.006725435,0.0060467706,-0.004217666,0.50014764,-1.3765615,1.8981436,-2.090593,-1.5706605,2.475129,-0.06971259,0.074106194,-0.09968181,0.017036706,0.0028038444,-0.06545002,-0.34476504,0.095768064,-9.576807,0.7038487,47.6421,-1.4040661,-2.3783298,-3.178218,-0.29668075,0.07746272,-0.44364372,25.6875,26.5625,25.5625,28.0,28.875,29.25
0.13205379,-1.1051091,0.14431861,-1.9712583,-0.03584888,0.08715312,-0.10432008,-0.39313355,-0.36792842,0.05990165,-3.0786638,0.62480026,-0.00042300145,-0.05889937,0.009364877,0.0017549754,-0.005143855,0.002514311,-0.0033075106,0.50005114,-1.3764049,1.8979295,-2.090533,-1.5706605,2.4749718,-0.07209261,0.075949535,-0.098021075,0.017390216,0.0031136824,-0.06874119,-0.28730422,0.095768064,-9.557653,0.8224646,47.61882,-1.4171417,-2.3318803,-3.3961296,-0.29930532,0.08206054,-0.4578241,25.6875,26.5625,25.5625,28.0,28.875,29.25
0.13405344,-0.9740413,0.5488815,-1.6538745,-0.036655683,0.090519376,-0.103843816,-0.39325425,-0.367886,0.05987861,-3.078639,0.6249104,-0.0005154978,-0.062447272,0.009333528,0.0037702252,-0.0075474503,0.006531466,-0.0035618688,0.4998462,-1.3762244,1.8977598,-2.0904973,-1.5706247,2.4748387,-0.07539287,0.07655874,-0.103351675,0.017436678,0.0032829563,-0.07178537,-0.30645782,0.0,-9.5385,0.779936,47.655537,-1.2104039,-2.250372,-3.3004847,-0.3110849,0.103708185,-0.45785502,25.6875,26.5625,25.5625,28.0,28.875,29.25
0.13605349,-0.9716333,0.17239842,-1.8188517,-0.019031484,0.08986629,-0.10237673,-0.3934015,-0.36788023,0.05990785,-3.078693,0.62485844,-0.00037957638,-0.061273605,0.009146056,0.002867013,-0.0062690764,0.004458836,0.0033239522,0.4997153,-1.3760799,1.8975219,-2.0904973,-1.5706486,2.4746687,-0.073893875,0.07749498,-0.10258105,0.018161096,0.0031639207,-0.07717193,-0.4213795,0.0,-9.481039,0.87393653,47.690468,-1.4503114,-2.2880507,-3.3120954,-0.32681698,0.078514755,-0.4519986,25.6875,26.5625,25.5625,28.0,28.875,29.25
0.13805404,-1.2128888,0.0012803198,-1.673251,-0.017270792,0.08915682,-0.10361707,-0.39352116,-0.3678757,0.059900295,-3.078723,0.6248053,-0.00040393393,-0.06321945,0.009671758,0.0031544727,-0.006782866,0.0055458047,0.005379391,0.4995824,-1.3758875,1.8973054,-2.0904734,-1.5706247,2.474499,-0.07649993,0.078837246,-0.10475972,0.01780022,0.0030882747,-0.081832215,-0.45968673,0.076614454,-9.346964,0.83589023,47.675243,-1.3442752,-2.2702403,-3.2813551,-0.3107341,0.086174734,-0.40915772,25.6875,26.5625,25.5625,28.0,28.875,29.25
0.14005403,-1.0130848,0.44453403,-1.8027068,-0.023758534,0.09350525,-0.10007226,-0.39364287,-0.36782816,0.059906438,-3.0787146,0.62476283,-0.0004355821,-0.06427717,0.01000898,0.0027016876,-0.006811232,0.005101094,0.0081094215,0.4993903,-1.3757546,1.8971146,-2.0903895,-1.5706247,2.4742815,-0.07815938,0.08080051,-0.10598829,0.017442487,0.003320757,-0.086221375,-0.34476504,0.019153614,-9.3661175,0.8112748,47.696735,-1.3429017,-2.159006,-3.2792335,-0.32914668,0.085343,-0.37854373,25.6875,26.5625,25.5625,28.0,28.875,29.25
0.14205423,-1.4089469,-0.26260325,-1.8292887,-0.0099315215,0.082890645,-0.10032069,-0.3938033,-0.36782068,0.059953332,-3.0787857,0.62484777,-0.00030458154,-0.06449929,0.0105456,0.0024592394,-0.0060787634,0.0042732377,0.016373122,0.4992225,-1.3756343,1.8968624,-2.090377,-1.5706128,2.4741578,-0.07908543,0.08133456,-0.10626418,0.018265218,0.00308533,-0.09541025,-0.4213795,0.05746084,-9.442732,0.8627467,47.698532,-1.3118725,-2.3372447,-3.358797,-0.32997614,0.09539529,-0.31479773,25.6875,26.5625,25.5625,28.0,28.875,29.25
0.14405404,-1.490035,-0.42834333,-1.7361209,-0.02273776,0.08350216,-0.098813444,-0.3939472,-0.36781144,0.059949007,-3.0788078,0.6247184,-0.00025505788,-0.066920616,0.011963386,0.0022851615,-0.0062782657,0.0046498096,0.014392747,0.4990891,-1.3754174,1.896612,-2.0903652,-1.5706366,2.473941,-0.08366245,0.08310386,-0.10784539,0.017649423,0.003077912,-0.09800589,-0.4405331,0.038307227,-9.385271,0.75755644,47.69763,-1.2283717,-2.2453773,-3.4070098,-0.3391093,0.07564687,-0.2750281,25.6875,26.5625,25.5625,28.0,28.875,29.25
0.1460537,-1.4137996,-0.055797406,-1.5011766,-0.029525964,0.09289453,-0.10419388,-0.3940337,-0.36777005,0.059931044,-3.0788033,0.6246954,-0.00038992235,-0.06726348,0.010896425,0.0028290083,-0.006765628,0.0058537,0.019678064,0.49891,-1.3752849,1.8964795,-2.0902936,-1.5705885,2.4737482,-0.082065076,0.08391198,-0.11008587,0.017797794,0.0029187226,-0.10169281,-0.4213795,0.095768064,-9.308656,0.8224646,47.674347,-1.3944604,-2.2842534,-3.3962364,-0.3238166,0.08803411,-0.22883222,25.6875,26.5625,25.5625,28.0,28.875,29.25
0.14805335,-1.6426315,-0.17382765,-1.6982841,-0.0179356,0.091147296,-0.09603027,-0.39416876,-0.36775327,0.059936944,-3.0788434,0.6245679,-0.00033483547,-0.06925605,0.012211001,0.0030346792,-0.006848161,0.006166489,0.018488688,0.49876514,-1.3751166,1.8962635,-2.0902817,-1.5706009,2.4735188,-0.086029485,0.08475364,-0.11166037,0.018216282,0.0028434442,-0.10446693,-0.51714754,0.05746084,-9.308657,0.85826975,47.661808,-1.4125807,-2.2662184,-3.385051,-0.3340101,0.08158721,-0.1852613,25.6875,26.5625,25.5625,28.0,28.875,29.25
0.15005428,-1.2853066,-0.2687086,-1.6855941,-0.01989686,0.09824132,-0.09778185,-0.39436528,-0.36772773,0.059966136,3.0788763,-0.624537,0.00021155024,-0.0699768,0.012851595,0.0020247444,-0.0058467723,0.004657715,0.01700559,0.49854884,-1.3749235,1.895965,-2.0902693,-1.5706128,2.4732792,-0.0876327,0.0872978,-0.11239841,0.018214138,0.002695329,-0.10458589,-0.4213795,0.19153613,-9.385271,0.7530795,47.67614,-1.1272931,-2.2535267,-3.4171536,-0.3378709,0.06958627,-0.16082102,25.6875,26.5625,25.5625,28.0,28.875,29.25
0.15205404,-1.6539006,0.09842872,-1.5915632,-0.029311059,0.07922138,-0.09417415,-0.39449596,-0.3676832,0.059952557,-3.0788639,0.62455434,-0.00021745042,-0.07117305,0.013379835,0.0025301063,-0.006503401,0.005265115,0.012593612,0.49836868,-1.3747432,1.8957738,-2.0902336,-1.5706366,2.4731116,-0.08976385,0.087300375,-0.11365757,0.018620197,0.0029788844,-0.10230516,-0.5363012,0.076614454,-9.308656,0.7866488,47.639416,-1.2522261,-2.3353715,-3.4929056,-0.33866033,0.074532725,-0.17040348,25.6875,26.5625,25.5625,28.0,28.875,29.25
0.15405405,-0.98204416,-0.24164611,-1.5241017,-0.02714025,0.09316821,-0.096974045,-0.39463404,-0.3676851,0.059967868,3.0788355,-0.62447464,0.00023328618,-0.07280438,0.013951556,0.003176548,-0.00730513,0.006694542,0.006285141,0.49820024,-1.3745751,1.8955339,-2.0902097,-1.5705646,2.472897,-0.09220131,0.08736426,-0.11517572,0.018442985,0.0030028354,-0.09843345,-0.57460845,0.11492168,-9.308656,0.8023209,47.731667,-1.1557418,-2.175845,-3.367284,-0.34213424,0.08027732,-0.2049241,25.6875,26.5625,25.5625,28.0,28.875,29.25
0.15605398,-1.3421427,0.008286239,-1.5068444,-0.021912219,0.08163444,-0.09411074,-0.39478198,-0.36764875,0.059948016,3.0788393,-0.6245354,0.00029282086,-0.074114546,0.014625123,0.0009396762,-0.0056090667,0.0035962001,-0.00011817283,0.49799582,-1.3743448,1.8952945,-2.0901616,-1.5705527,2.4727302,-0.094490275,0.09329684,-0.1170348,0.017902937,0.0029859312,-0.09431752,-0.51714754,0.095768064,-9.3661175,0.8112748,47.705692,-1.0448261,-2.3200278,-3.498049,-0.32903707,0.07862531,-0.2619624,25.6875,26.5625,25.5625,28.0,28.875,29.25
0.15805373,-1.1910707,-0.20632616,-1.5168946,-0.018434348,0.08287932,-0.09131369,-0.39493573,-0.3676166,0.05997034,3.078819,-0.6245331,0.0001976325,-0.07537577,0.015363042,0.0018234906,-0.0062964493,0.0052370504,-0.0047180043,0.49781546,-1.374201,1.8950676,-2.0901377,-1.5705765,2.472551,-0.09673963,0.092179894,-0.11774027,0.017954124,0.00281172,-0.09196653,-0.40222588,0.076614454,-9.289502,0.8090337,47.6636,-0.88658816,-2.2188048,-3.4584408,-0.3359815,0.08995246,-0.30207562,25.6875,26.5625,25.5625,28.0,28.875,29.25
0.16005357,-0.90173256,-0.09028131,-1.5169401,-0.022827094,0.085350566,-0.09341808,-0.39507702,-0.36758006,0.05996262,3.078869,-0.6245048,0.00019147228,-0.0775397,0.015618755,0.0022211543,-0.007030215,0.0064420504,-0.006614957,0.49764687,-1.3739963,1.8948282,-2.090078,-1.5706128,2.4723587,-0.09915778,0.09402246,-0.12080983,0.017769033,0.0028730708,-0.092486426,-0.40222588,0.095768064,-9.270349,0.78888994,47.690468,-0.8570323,-2.2129061,-3.4451876,-0.32812852,0.07748816,-0.3342661,25.6875,26.5625,25.5625,28.0,28.875,29.25
0.16205364,-0.9474079,-0.25630516,-1.6616709,-0.019972961,0.07637594,-0.09130086,-0.39525658,-0.3675674,0.059995282,3.0787754,-0.62446594,0.00012435028,-0.07912308,0.01555003,0.0028576232,-0.0077786837,0.007726156,-0.0066585597,0.49743107,-1.3738279,1.8945512,-2.0900662,-1.5705646,2.4721305,-0.10047724,0.0950879,-0.12358875,0.01800205,0.0029234707,-0.09376088,-0.49799395,0.11492168,-9.270349,0.8157518,47.67345,-0.84915215,-2.2145066,-3.3952959,-0.3303179,0.08558348,-0.33311534,25.6875,26.5625,25.5625,28.0,28.875,29.25
0.16405344,-0.88307923,0.2617673,-1.5838102,-0.028760208,0.09125945,-0.100493,-0.3954137,-0.36748978,0.059976447,3.0788338,-0.6245919,0.00019053531,-0.079990864,0.016014205,0.0025161323,-0.007452736,0.007015482,-0.007754566,0.4971792,-1.373611,1.8943118,-2.0899584,-1.5706009,2.47195,-0.10203725,0.09669424,-0.124836884,0.018421246,0.0029688159,-0.09422454,-0.36391866,0.19153613,-9.212888,0.7933669,47.666286,-0.83685327,-2.1761355,-3.3306892,-0.32644534,0.09442596,-0.3529179,25.6875,26.5625,25.5625,28.0,28.875,29.25
0.16605376,-1.1551322,-0.6670719,-1.5608336,-0.016046563,0.09080941,-0.091870524,-0.39555174,-0.36748722,0.059968803,3.078759,-0.6245774,0.00019570709,-0.08167209,0.015495988,0.0032023366,-0.008781379,0.008452212,-0.009474386,0.49701113,-1.3734183,1.8941082,-2.0899942,-1.5705408,2.4717824,-0.10296716,0.09821296,-0.12821126,0.018384838,0.0034502395,-0.093433686,-0.4213795,0.15322891,-9.212888,0.8157518,47.64121,-0.81577945,-2.333226,-3.4221327,-0.3193153,0.083957985,-0.37852746,25.6875,26.5625,25.5625,28.0,28.875,29.25
0.16805345,-1.457292,-0.59950334,-1.3965702,-0.03591206,0.09066787,-0.09159265,-0.39572433,-0.36745134,0.05998403,3.078763,-0.6245365,0.00013095052,-0.08105666,0.015844768,0.002554928,-0.0079788705,0.007214659,-0.00674967,0.49680763,-1.3732259,1.893834,-2.0899465,-1.5705646,2.471553,-0.10287672,0.09838176,-0.12697056,0.01844513,0.003343028,-0.0960682,-0.40222588,0.17238252,-9.289502,0.8247004,47.679718,-0.90110564,-2.1927238,-3.366606,-0.31989306,0.081976786,-0.4046563,25.6875,26.5,25.5625,28.0,28.875,29.1875
0.17005421,-1.7127619,-0.9376685,-1.4827443,-0.03381886,0.07943665,-0.087386094,-0.39588022,-0.36742476,0.0599888,3.0787687,-0.6245957,0.00013531667,-0.08293406,0.015335834,0.002494366,-0.008237444,0.0074501056,-0.008148068,0.49662772,-1.3730085,1.8935455,-2.089862,-1.5705765,2.4714096,-0.10376697,0.10209921,-0.13134797,0.01877395,0.003449931,-0.09555803,-0.34476504,0.1340753,-9.212888,0.7530795,47.675243,-0.8827877,-2.372986,-3.2453198,-0.31213534,0.07504557,-0.4332717,25.6875,26.5,25.5625,28.0,28.875,29.1875
0.17205395,-1.2484529,-0.97331464,-1.7899545,-0.02800472,0.0770818,-0.09012618,-0.39604795,-0.3673806,0.059984017,3.078744,-0.624604,9.3913e-05,-0.083468564,0.015211185,0.0027345966,-0.008534962,0.008053146,-0.0015267505,0.49640018,-1.3728163,1.8933305,-2.089874,-1.5705765,2.4711905,-0.10398553,0.10251368,-0.132397,0.018738462,0.0034279039,-0.10239733,-0.21068975,0.21068975,-9.346964,0.7530795,47.64837,-1.0006166,-2.273455,-3.378342,-0.31886202,0.062312447,-0.3996714,25.6875,26.5,25.5625,28.0,28.875,29.1875
0.174054,-0.47211775,-0.57660323,-1.6452605,-0.03637217,0.07611995,-0.09641253,-0.3962009,-0.36733925,0.059956584,3.0787802,-0.6245724,0.00017921528,-0.08540644,0.016019337,0.0024451255,-0.008381178,0.007976533,-0.00078941416,0.49618357,-1.3725632,1.8930782,-2.0898144,-1.5705646,2.4709496,-0.10700148,0.10493486,-0.1346357,0.018699585,0.0033202711,-0.106149465,-0.15322891,0.21068975,-9.346964,0.83589023,47.67614,-0.98078454,-2.3094316,-3.3412151,-0.3128503,0.090470165,-0.3798317,25.6875,26.5,25.5625,28.0,28.875,29.1875
0.17605384,0.034281034,-0.49718237,-1.5888059,-0.028344525,0.06860754,-0.098421626,-0.39642605,-0.36730626,0.06000169,3.0787077,-0.62464744,-1.3347439e-05,-0.08546689,0.014533687,0.0024191856,-0.008388549,0.0084677925,0.008190718,0.49594498,-1.3723702,1.8927435,-2.0898025,-1.5706009,2.4707673,-0.10437174,0.107140325,-0.1371994,0.018620828,0.0031042902,-0.11249782,-0.22984336,0.21068975,-9.289502,0.7709874,47.711063,-1.0349802,-2.3144584,-3.1751604,-0.302918,0.09725739,-0.31947094,25.6875,26.5,25.5625,28.0,28.875,29.1875
0.17805365,-0.26994428,-0.56890833,-1.6928089,-0.024517996,0.05895396,-0.09518798,-0.39657232,-0.36727893,0.05999807,3.0786817,-0.62462103,7.792297e-05,-0.08830817,0.015723346,0.0025733556,-0.009220435,0.009259274,0.009198651,0.49572805,-1.3721654,1.8924917,-2.089731,-1.5705403,2.4705372,-0.10912995,0.10912576,-0.13983415,0.01818553,0.0034529222,-0.1182632,-0.17238252,0.30645782,-9.232041,0.85155696,47.647476,-0.99143165,-2.4657018,-3.2098708,-0.28104198,0.0972964,-0.2483424,25.6875,26.5,25.5625,28.0,28.875,29.1875
0.18005319,-0.109149925,-0.3127891,-1.7796115,-0.03495623,0.061562125,-0.10370872,-0.39671507,-0.3672354,0.05995239,3.078743,-0.62455064,0.00016453893,-0.08835819,0.014818536,0.0028048803,-0.00934039,0.009729483,0.017714206,0.49552497,-1.3719008,1.8922752,-2.0897071,-1.5705408,2.4702826,-0.10753716,0.11006457,-0.14158425,0.018528547,0.0033259313,-0.1251853,-0.038307227,0.28730422,-9.308657,0.80456203,47.67614,-0.9681659,-2.4051733,-3.1196709,-0.28376812,0.08824284,-0.16878495,25.6875,26.5,25.5625,28.0,28.875,29.1875
0.18205391,-0.3520248,-0.71935546,-1.7946033,-0.03784102,0.060626436,-0.10144103,-0.3969312,-0.36721104,0.059998266,3.07871,-0.6245056,2.1944581e-06,-0.08914424,0.015177162,0.002784815,-0.009477086,0.009547004,0.017588355,0.49530885,-1.3716965,1.8919166,-2.0896585,-1.5705761,2.4700427,-0.10893241,0.11088628,-0.14259975,0.018813718,0.0035475574,-0.1264542,-0.05746084,0.24899697,-9.3661175,0.80679786,47.684196,-1.0176327,-2.368382,-3.194707,-0.26916406,0.09442604,-0.12767182,25.6875,26.5,25.5625,28.0,28.875,29.1875
0.18405353,-0.7520921,-1.6929055,-1.8396571,-0.037212476,0.06024166,-0.078919955,-0.39710012,-0.36718562,0.059993807,3.0787275,-0.6243754,1.600311e-05,-0.08933713,0.015495543,0.0022090434,-0.009091279,0.007934796,0.014910522,0.49510485,-1.3714556,1.8916291,-2.0896108,-1.5705642,2.4697554,-0.10985795,0.112306304,-0.14317945,0.019575818,0.0039768694,-0.12470217,-0.11492168,0.2681506,-9.3661175,0.80679786,47.661808,-0.9770602,-2.364953,-3.187786,-0.26268822,0.09575496,-0.11428116,25.6875,26.5,25.5625,28.0,28.875,29.1875
0.18605398,-0.5024407,-1.4657341,-1.9817764,-0.04817676,0.07197267,-0.08708387,-0.39726585,-0.36718133,0.060001627,3.0786936,-0.62429374,1.2910268e-05,-0.090927124,0.0164387,0.0023177394,-0.009188697,0.0075975847,0.008179106,0.49492422,-1.371227,1.8913311,-2.0895746,-1.5705279,2.4695282,-0.11299141,0.11347217,-0.14505668,0.020541413,0.004226557,-0.121103644,-0.076614454,0.30645782,-9.442732,0.7620334,47.666286,-0.9662725,-2.3819757,-3.101106,-0.26022506,0.0789935,-0.15407982,25.6875,26.5,25.5625,28.0,28.875,29.1875
0.18805452,0.124206685,-0.5336703,-1.9810591,-0.05998028,0.07415079,-0.10373482,-0.3974681,-0.36711583,0.059990324,3.078677,-0.62438583,-1.2514752e-05,-0.090652,0.014761084,0.0027534266,-0.009748344,0.00837285,0.006572807,0.49463797,-1.3709863,1.8910674,-2.0895627,-1.5705403,2.4693017,-0.10994424,0.11449147,-0.1473628,0.020878777,0.004350605,-0.116449334,-0.019153614,0.28730422,-9.461885,0.85155696,47.672558,-1.1367741,-2.355436,-3.431698,-0.25925124,0.09469293,-0.1967519,25.6875,26.5,25.5625,28.0,28.875,29.1875
0.1900543,-0.20351943,-0.92938876,-1.8046309,-0.047976207,0.067337245,-0.09586354,-0.39763772,-0.36708295,0.059992656,3.0786679,-0.6243501,-1.1012156e-05,-0.09174737,0.017064411,0.0014180877,-0.008593957,0.006199877,-0.0025072105,0.49442086,-1.3707697,1.8907932,-2.0895145,-1.5705279,2.4690635,-0.11476113,0.11590038,-0.1459474,0.020516606,0.004370801,-0.11218654,0.0,0.2681506,-9.3661175,0.7866488,47.682407,-0.9585443,-2.3122168,-3.4565463,-0.24151349,0.076033935,-0.25814,25.6875,26.5,25.5625,28.0,28.875,29.1875
0.1920541,-0.39921004,-0.6923371,-1.9813447,-0.040757325,0.05586474,-0.082444325,-0.3978175,-0.36704072,0.059991434,3.078685,-0.62435156,-8.107999e-06,-0.091269955,0.016128564,0.0016294658,-0.008611334,0.0067879064,-0.002865007,0.49419424,-1.3705294,1.8904933,-2.0894425,-1.5705403,2.4688358,-0.11254084,0.11605184,-0.1466366,0.020528667,0.0041060564,-0.10960794,0.019153614,0.22984336,-9.346964,0.784413,47.677036,-1.1431128,-2.4033148,-3.4129176,-0.23150799,0.07476206,-0.3079753,25.6875,26.5,25.5625,28.0,28.875,29.1875
0.19405395,0.32956272,-0.19983816,-1.9720079,-0.029789034,0.063289404,-0.09466265,-0.39801344,-0.36702147,0.059985418,3.0786312,-0.62436116,1.5618376e-05,-0.091161996,0.01695317,-0.00040890454,-0.006762213,0.0029357506,-0.0061168396,0.49395412,-1.370252,1.8901709,-2.0894186,-1.5704921,2.4686086,-0.113891676,0.119599104,-0.14636539,0.020983776,0.0043103304,-0.10770678,-0.038307227,0.15322891,-9.442732,0.8605109,47.713753,-1.1300025,-2.314113,-3.523904,-0.19152316,0.09351192,-0.36302358,25.6875,26.5,25.5625,28.0,28.875,29.1875
0.19605349,-0.18428464,0.12667157,-1.750713,-0.026089763,0.047015917,-0.089316204,-0.39822444,-0.36699274,0.060008485,3.0785367,-0.6244379,-0.0001276191,-0.09309887,0.016821137,0.0013258961,-0.0091938125,0.006074462,-0.008864569,0.4937141,-1.3700483,1.8898839,-2.089455,-1.5704917,2.4684286,-0.11577187,0.11849734,-0.14896627,0.020768784,0.0049719233,-0.10683872,0.038307227,0.24899697,-9.481039,0.8403672,47.683304,-1.1296308,-2.3323035,-3.4309645,-0.2027762,0.07493446,-0.40384644,25.6875,26.5,25.5625,28.0,28.875,29.1875
0.19805329,-0.20519295,0.0055599343,-1.8739872,-0.012159679,0.040681474,-0.0930749,-0.39838487,-0.3669759,0.06001812,3.0785198,-0.6243376,-7.708207e-05,-0.09362613,0.01663319,0.0008996148,-0.0091529675,0.0056079454,-0.010083294,0.49351054,-1.3698313,1.8895844,-2.089371,-1.5704435,2.4681647,-0.11599736,0.12041333,-0.15026352,0.020585544,0.0051551927,-0.10584495,0.0,0.15322891,-9.500193,0.8672237,47.687782,-1.1473403,-2.3265288,-3.6393118,-0.1791395,0.09964949,-0.45244,25.6875,26.5,25.5625,28.0,28.875,29.1875
0.20005439,-0.018023621,0.007017,-1.9804934,-0.013659136,0.0491534,-0.09590407,-0.39859647,-0.3669338,0.060025632,3.078495,-0.6244472,-0.00016957932,-0.09459815,0.016613998,0.001545365,-0.010174379,0.006085959,-0.010105586,0.49327046,-1.3695791,1.8892611,-2.0893466,-1.5704798,2.4679964,-0.11720123,0.120636106,-0.15220784,0.021397732,0.005833729,-0.10702641,0.0,0.095768064,-9.461885,0.76874626,47.683304,-1.1297175,-2.2244108,-3.5586596,-0.16028957,0.0743054,-0.49024683,25.6875,26.5,25.5625,28.0,28.875,29.1875
0.20205343,0.17080937,-0.021458501,-1.9852126,-0.017397234,0.06688401,-0.1008768,-0.39877677,-0.3669015,0.060015604,3.0784616,-0.6244767,-0.00013009169,-0.09597279,0.016897297,0.0016105776,-0.009958135,0.006039483,-0.008286935,0.49303058,-1.3693262,1.8889741,-2.0893104,-1.5704435,2.4677792,-0.11875791,0.12252581,-0.15484042,0.022290854,0.0056648985,-0.1104004,-0.076614454,0.05746084,-9.481039,0.84484416,47.685097,-1.1521411,-2.1683156,-3.4325557,-0.16630316,0.07354652,-0.5076637,25.6875,26.5,25.5625,28.0,28.875,29.1875
0.2040541,-0.07469635,0.4952046,-2.0914223,-0.02156116,0.073868036,-0.098576464,-0.39893872,-0.36688602,0.060006507,3.0784845,-0.62439775,-8.7111905e-05,-0.09696346,0.017292581,0.0017992271,-0.009860699,0.006208297,-0.0005575265,0.49285057,-1.3690615,1.8886627,-2.0892384,-1.5704316,2.4675472,-0.12016313,0.12331871,-0.15639584,0.022956448,0.0054991967,-0.11953439,-0.1340753,0.05746084,-9.5385,0.8023209,47.62867,-1.1830754,-2.2672427,-3.4509573,-0.16602856,0.06973137,-0.4774165,25.6875,26.5,25.5625,28.0,28.875,29.1875
0.20605418,-0.7431546,-0.24120583,-2.0846372,-0.019303702,0.08096854,-0.09696144,-0.39913493,-0.36683002,0.060022954,3.078465,-0.6244682,-0.0001250693,-0.097859316,0.017782751,0.00012596682,-0.008505698,0.0035049235,0.004151662,0.49258655,-1.3688558,1.8883637,-2.0891669,-1.5704435,2.4673297,-0.121787384,0.12787351,-0.15808849,0.023118656,0.0055878,-0.12586652,-0.17238252,0.11492168,-9.557653,0.83589023,47.66808,-1.0656468,-2.3097086,-3.4857507,-0.14566682,0.074328735,-0.40712136,25.6875,26.5,25.5625,28.0,28.875,29.1875
0.208054,-1.0514271,-0.51564777,-1.9253136,-0.033454146,0.09260511,-0.10056812,-0.399335,-0.36679366,0.060007136,3.0784771,-0.62434757,-5.8579884e-05,-0.099021904,0.018064158,0.0017671632,-0.009647347,0.00547708,0.0131074395,0.49232256,-1.3685563,1.8880285,-2.0891063,-1.5704077,2.466989,-0.123286486,0.12605642,-0.16001908,0.024597919,0.0056628734,-0.13632138,-0.30645782,0.17238252,-9.5385,0.8560339,47.684196,-1.1055926,-2.1910083,-3.4606948,-0.12972015,0.04898821,-0.3014483,25.6875,26.5,25.5625,28.0,28.875,29.1875
0.21005379,-1.5025045,-0.38165537,-1.9475479,-0.048944425,0.10526921,-0.10165982,-0.39952594,-0.3667573,0.060018018,3.0784616,-0.62430525,-7.305683e-05,-0.100678384,0.01955682,0.0012458104,-0.008923968,0.003427136,0.014821688,0.49208173,-1.3683271,1.8877167,-2.0890458,-1.5703958,2.466724,-0.12742734,0.12838475,-0.16206315,0.02646594,0.006000963,-0.14217581,-0.51714754,0.19153613,-9.5385,0.8537928,47.690468,-1.0118966,-2.3322513,-3.4771996,-0.13913439,0.058624454,-0.23137505,25.6875,26.5,25.5625,28.0,28.875,29.1875
0.21205327,-1.9341718,-0.69961077,-1.8176885,-0.052215625,0.11139361,-0.09615007,-0.39971283,-0.3667276,0.0600241,3.0784764,-0.6241885,-5.6656874e-05,-0.0997959,0.018076904,0.0013514117,-0.0089423945,0.0029210935,0.02132747,0.4918552,-1.3680748,1.8873824,-2.0889614,-1.570383,2.4664228,-0.12424941,0.12928031,-0.16366047,0.02760856,0.006257723,-0.14550339,-0.53630114,0.15322891,-9.615114,0.7866488,47.703007,-1.1472375,-2.0413256,-3.519086,-0.14213516,0.053669617,-0.17178,25.6875,26.5,25.5625,28.0,28.875,29.1875
0.2140542,-1.480043,-0.6510522,-1.9017808,-0.05751182,0.13515729,-0.096705645,-0.39992484,-0.36669084,0.060019255,3.0784624,-0.6241478,-9.780189e-05,-0.101930395,0.018972114,0.0005536783,-0.008186209,0.001981862,0.018324733,0.4916026,-1.3677969,1.8870591,-2.08895,-1.5703834,2.4661467,-0.12746756,0.13317192,-0.16657658,0.027820582,0.006035284,-0.14571671,-0.63206923,0.13407528,-9.595961,0.800085,47.70032,-0.9941089,-2.1762116,-3.3320026,-0.14358357,0.033562317,-0.15292136,25.6875,26.5,25.5625,28.0,28.875,29.1875
0.21605413,-2.089945,-0.71864814,-1.6645966,-0.05362428,0.12452747,-0.09126772,-0.40012947,-0.36665294,0.060022615,3.0784516,-0.6241481,-5.7596226e-05,-0.10271859,0.017897291,0.0009270669,-0.008363107,0.0031831574,0.011812484,0.49133983,-1.3675201,1.8866991,-2.0888536,-1.5703596,2.4658856,-0.12604962,0.13507633,-0.16976574,0.027966524,0.005614589,-0.13778472,-0.82360536,0.19153613,-9.5385,0.7732232,47.68062,-1.1986895,-2.2112138,-3.224549,-0.14009032,0.048909366,-0.19466762,25.6875,26.5,25.5625,28.0,28.875,29.1875
0.2180539,-1.2217729,-0.32887408,-1.6113799,-0.05339894,0.14473408,-0.0988674,-0.40037423,-0.36663148,0.06007292,3.0783634,-0.6241126,-0.00020404824,-0.10414245,0.01812102,0.0011016282,-0.008794854,0.00407943,0.006205662,0.49107596,-1.3672915,1.8863038,-2.0888183,-1.5703477,2.465611,-0.12760676,0.13634492,-0.17160869,0.02754878,0.005585556,-0.13373342,-0.8810662,0.2681506,-9.461885,0.8157518,47.65464,-1.2063903,-2.245241,-3.3266983,-0.115386635,0.043504484,-0.24002965,25.6875,26.5,25.5625,28.0,28.875,29.1875
0.22005364,-2.043651,-0.6886388,-1.6087315,-0.03331027,0.11613169,-0.08860384,-0.40056413,-0.36659205,0.060063582,3.0783463,-0.62407106,-0.00019091254,-0.10526909,0.018516516,0.0004031537,-0.008145852,0.0032977327,0.0023975258,0.49082398,-1.3670384,1.8860172,-2.0887945,-1.5703233,2.4653354,-0.12908937,0.13910511,-0.17334738,0.027527224,0.0053798333,-0.13140662,-0.7086837,0.24899697,-9.442732,0.80456203,47.667187,-1.2174748,-2.2410238,-3.273667,-0.11567263,0.040930312,-0.30205286,25.6875,26.5,25.5625,28.0,28.875,29.1875
0.22205359,-0.7474811,-0.13982396,-1.6054009,-0.041688647,0.12895975,-0.10121397,-0.4008069,-0.36655298,0.060074642,3.0783226,-0.6240853,-0.0002586617,-0.10617193,0.01905874,0.00028147592,-0.007898555,0.0034939074,0.0009432967,0.49054772,-1.3667377,1.8856219,-2.0887458,-1.5703357,2.4650712,-0.13053793,0.13999525,-0.17413753,0.02737184,0.005075083,-0.13140006,-0.68953013,0.26815057,-9.32781,0.7978386,47.667187,-1.0402493,-2.2393599,-3.2770581,-0.08634889,0.037043907,-0.32283577,25.6875,26.5,25.5625,28.0,28.875,29.1875
0.22405325,-1.0300995,-0.3681833,-1.4799415,-0.035086274,0.10128578,-0.09555857,-0.40101984,-0.36650917,0.06007518,3.0783129,-0.6241031,-0.00026988136,-0.10838909,0.020562775,0.00025468215,-0.0077041653,0.0038631277,-0.0036631196,0.4902832,-1.3664608,1.8852762,-2.0886862,-1.5703362,2.4648192,-0.13475792,0.14138313,-0.17577529,0.027390068,0.004728964,-0.13101253,-0.7661445,0.15322891,-9.251195,0.81351066,47.658226,-1.1129665,-2.3225226,-3.2151904,-0.070431665,0.045576364,-0.35134524,25.6875,26.5,25.5625,28.0,28.875,29.1875
0.22605413,-0.79255617,-0.08755964,-1.2958233,-0.035903946,0.10703346,-0.09871702,-0.40125525,-0.3664687,0.060084745,3.0782528,-0.6241648,-0.00032664885,-0.10810423,0.020080844,-0.0012771605,-0.0061949077,0.0012265341,-0.0021207235,0.48999634,-1.3661832,1.8849171,-2.0886624,-1.5703238,2.4645786,-0.1335626,0.14533183,-0.17716224,0.02786856,0.0046459576,-0.13135824,-0.7469909,0.19153613,-9.136273,0.8112748,47.674347,-1.0930328,-2.4196503,-3.3859792,-0.043803833,0.03689497,-0.3793461,25.6875,26.5,25.5625,28.0,28.875,29.1875
0.22805403,-1.2121637,-0.3491634,-1.3287277,-0.017803686,0.09310194,-0.091038264,-0.40145406,-0.36643198,0.06007255,3.078276,-0.6241293,-0.00029593834,-0.10870648,0.020407213,-0.00045070748,-0.006765881,0.0024467898,-0.000133708,0.48975638,-1.3658834,1.88457,-2.08859,-1.5703238,2.4643137,-0.13453308,0.14410116,-0.17770521,0.028299509,0.0045749648,-0.13431591,-0.45968673,0.076614454,-9.193734,0.8179876,47.661808,-1.0408384,-2.244026,-3.3880754,-0.043597087,0.05188408,-0.38306886,25.6875,26.5,25.5625,28.0,28.875,29.1875
0.23005414,-0.9466639,0.40590587,-1.1430597,-0.025412943,0.0942634,-0.09575126,-0.40171948,-0.36641094,0.060100954,3.078173,-0.62412256,-0.00042971177,-0.109812014,0.020978931,-0.00087514054,-0.0061645475,0.0017044146,0.00474201,0.4894684,-1.3655945,1.8841628,-2.0886023,-1.5703,2.4640348,-0.13628785,0.14620692,-0.17942415,0.028858775,0.0044145803,-0.14094485,-0.21068975,-0.019153614,-9.078813,0.83589023,47.71286,-1.0988514,-2.3335285,-3.3457346,-0.02756394,0.052647002,-0.33023554,25.6875,26.5,25.5625,28.0,28.875,29.1875
0.2320538,-0.14038199,0.43196923,-0.74859625,-0.016019994,0.09927665,-0.10011318,-0.40193033,-0.36635068,0.06009885,3.0782151,-0.62408614,-0.00042309624,-0.11030845,0.02056395,-0.0005319844,-0.0066205994,0.0021623394,0.013680325,0.48919323,-1.3653181,1.8838152,-2.088506,-1.5703238,2.4637318,-0.13607822,0.14688563,-0.18114959,0.029287824,0.00460284,-0.14967316,-0.21068975,-0.076614454,-8.983045,0.91198283,47.698532,-1.146797,-2.2712507,-3.4821754,-0.013104987,0.049010195,-0.26214868,25.6875,26.5,25.5625,28.0,28.875,29.1875
0.23405421,0.30687222,0.89618975,-0.72509366,-0.0006150573,0.08325044,-0.102643944,-0.4021804,-0.36631,0.060109474,3.0781794,-0.62403417,-0.00047737756,-0.1108984,0.020400131,-0.0012284365,-0.0068142437,0.0005971112,0.022469275,0.48889363,-1.3650163,1.8834218,-2.0884697,-1.5703114,2.4634044,-0.13680805,0.1495904,-0.1829292,0.029657627,0.0055226944,-0.1591914,-0.076614454,-0.076614454,-8.848969,0.8851263,47.685097,-1.1697872,-2.4817905,-3.3795254,0.0037125673,0.039069362,-0.16774184,25.6875,26.5,25.5625,28.0,28.875,29.1875
0.2360532,0.2520498,1.1962874,-0.9396459,0.017501839,0.049893454,-0.08765538,-0.40240714,-0.36627093,0.060103692,3.0781708,-0.62399167,-0.0004787646,-0.11211174,0.020315534,-0.00015210551,-0.0076919664,0.002514626,0.024713788,0.48861802,-1.3647048,1.8830513,-2.088422,-1.5702995,2.4631035,-0.13759135,0.14925326,-0.1851055,0.030071277,0.0053988877,-0.16221844,-0.05746084,-0.1340753,-8.868123,0.82694155,47.691364,-1.2176466,-2.1914878,-3.4710252,0.020479258,0.043578245,-0.09008081,25.6875,26.5,25.5625,28.0,28.875,29.1875
0.23805405,0.6765896,0.87988746,-0.8747962,0.030449962,0.030702416,-0.0913684,-0.4026349,-0.3662434,0.06010889,3.078142,-0.6238525,-0.0005263999,-0.11291929,0.020937689,0.0008125894,-0.0076150997,0.0036457651,0.021234998,0.48835394,-1.3644171,1.8826922,-2.0884097,-1.5702761,2.4627564,-0.13890553,0.14807297,-0.18622611,0.0314159,0.004810303,-0.16005309,0.019153614,-0.11492168,-8.714894,0.8627467,47.691364,-1.163547,-2.1510644,-3.3834095,0.01986744,0.033731565,-0.06343025,25.6875,26.5,25.5625,28.0,28.875,29.1875
0.24005403,1.0379949,1.2836322,-0.8783162,0.020603864,0.026824249,-0.09627414,-0.4028783,-0.3661759,0.06011328,3.0781326,-0.6239097,-0.000550893,-0.113961734,0.020659981,0.0017222448,-0.0073352116,0.0044010463,0.01554793,0.48803094,-1.3641281,1.8823198,-2.0883367,-1.5702881,2.4624705,-0.13890919,0.14894551,-0.18988451,0.03366539,0.0042054076,-0.154368,-0.019153614,-0.1340753,-8.791509,0.7911258,47.696735,-1.2837551,-2.090369,-3.3170283,0.022201637,0.060088098,-0.09930109,25.6875,26.5,25.5625,28.0,28.875,29.1875
0.24205402,0.5078923,0.5447333,-1.212059,0.026282735,0.016029967,-0.083136536,-0.40308002,-0.36613145,0.060083997,3.0781617,-0.6238632,-0.00042461083,-0.114879854,0.021423217,0.0016090273,-0.006018365,0.003162279,0.0059228935,0.48775455,-1.3637915,1.8819612,-2.0882404,-1.5702523,2.4621615,-0.14055818,0.1505884,-0.1921798,0.036034413,0.0036077215,-0.14639099,0.0,-0.038307227,-8.983045,0.8851263,47.666286,-1.2284584,-2.015271,-3.1358497,0.011760441,0.061262965,-0.18090291,25.6875,26.5,25.5625,28.0,28.875,29.1875
0.24405351,0.3162243,-0.070061,-1.6788545,0.0075605167,0.027850688,-0.08769988,-0.40330392,-0.3660578,0.06008532,3.0781968,-0.623912,-0.0004283982,-0.116815045,0.023484131,0.0011863601,-0.0053198645,0.0012494791,-0.0040172893,0.48745367,-1.3635143,1.8816017,-2.0881317,-1.5702881,2.461887,-0.14581065,0.15238172,-0.19383034,0.037901696,0.003881723,-0.14170289,0.076614454,0.076614454,-9.040505,0.8627467,47.701214,-1.0993203,-2.1105587,-3.174047,0.014619591,0.06874017,-0.24823168,25.6875,26.5,25.5625,28.0,28.875,29.1875
0.24605434,-0.28919435,-0.74151057,-1.7748281,-0.01853736,0.03112493,-0.07965341,-0.40352243,-0.36602303,0.060069535,3.0782044,-0.62389463,-0.00033104437,-0.115986235,0.023191454,0.00093892246,-0.0044260244,-0.0017179184,-0.0071845036,0.48717874,-1.3631659,1.8811954,-2.0880234,-1.5702523,2.4616003,-0.14486356,0.15345398,-0.1954068,0.041448604,0.00447692,-0.13758886,0.05746084,0.21068975,-9.174581,0.8090337,47.667187,-1.0964991,-2.058676,-3.1543417,-0.034445476,0.06748587,-0.35330018,25.6875,26.5,25.5625,28.0,28.875,29.1875
0.24805339,-0.09388726,-1.3328974,-1.9145751,-0.039184995,0.050439756,-0.08328447,-0.40376112,-0.3659662,0.060087796,3.0781963,-0.62399143,-0.00033683857,-0.116234116,0.024721423,-0.00020551402,-0.0026327474,-0.006239082,-0.013843174,0.48687822,-1.3628768,1.8807772,-2.08789,-1.5702637,2.4613614,-0.14787742,0.15573165,-0.19637802,0.044973217,0.005010596,-0.13394411,-0.038307227,0.2681506,-9.346964,0.83813137,47.65912,-1.0012783,-2.0670304,-3.3164878,-0.07789406,0.061431084,-0.41092357,25.6875,26.5,25.5625,28.0,28.875,29.1875
0.25005326,-0.54312533,-1.6451392,-2.104744,-0.06733199,0.05887759,-0.08808876,-0.40399,-0.36591202,0.06005883,3.0782328,-0.62401587,-0.00028727122,-0.11501269,0.024707083,-0.0016742934,-4.0440013e-05,-0.011632425,-0.014209804,0.48659128,-1.3625154,1.8803934,-2.087817,-1.5702757,2.4610853,-0.14682212,0.15899232,-0.19798717,0.04929975,0.0052389363,-0.13252191,-0.076614454,0.34476504,-9.5385,0.80679786,47.701214,-1.0554466,-2.0706348,-3.3154798,-0.1518822,0.059764713,-0.48902518,25.6875,26.5,25.5625,28.0,28.875,29.1875
0.25205407,-0.694444,-1.4849974,-1.9869986,-0.083614394,0.081704564,-0.09932557,-0.40421495,-0.36587504,0.060077753,3.0782201,-0.6239915,-0.00026134241,-0.11531181,0.0253489,-0.00096198224,0.0003037671,-0.011533467,-0.010718953,0.48631507,-1.3622274,1.8799752,-2.0876849,-1.5702523,2.4607956,-0.1478585,0.15782468,-0.19868588,0.051247664,0.0048910794,-0.137049,-0.15322891,0.45968673,-9.787497,0.82022345,47.677036,-0.9988025,-2.0842493,-3.364738,-0.20589513,0.054988366,-0.51371217,25.6875,26.5,25.5625,28.0,28.875,29.1875
0.25405395,-0.7005909,-1.5945961,-2.2431283,-0.08216698,0.10160409,-0.09417029,-0.4044498,-0.3658069,0.06007825,3.0781949,-0.62403715,-0.00014021884,-0.11723741,0.025883935,-0.0017740325,0.00012131812,-0.011304301,-0.003515927,0.48595548,-1.361926,1.8795799,-2.0875413,-1.5701917,2.4604678,-0.15039104,0.16108857,-0.20038392,0.04940933,0.00493223,-0.1467837,-0.11492168,0.4213795,-9.749189,0.842603,47.677036,-1.1566951,-2.2838254,-3.3898892,-0.21897924,0.06378649,-0.4517374,25.6875,26.5,25.5625,28.0,28.875,29.1875
0.25605392,-1.3349487,-1.9593686,-2.4451845,-0.07108585,0.09358876,-0.09361558,-0.40469036,-0.36574987,0.06009048,3.07821,-0.6240316,-0.00020113355,-0.11585867,0.025319537,-0.003786014,0.0017257135,-0.015427086,0.009636395,0.48566857,-1.3616365,1.879186,-2.087458,-1.5702275,2.4601758,-0.14845231,0.16461931,-0.20026574,0.050155554,0.005446631,-0.15799727,-0.11492168,0.47884035,-9.768343,0.8627467,47.67345,-1.2243751,-2.3412018,-3.476915,-0.24402303,0.06250261,-0.36721385,25.6875,26.5,25.5625,28.0,28.875,29.1875
0.25805402,-0.49572873,-1.6251575,-2.1250846,-0.06771943,0.108670615,-0.09440891,-0.4049121,-0.3657129,0.06008289,3.0781837,-0.6240587,-0.00012118695,-0.11778069,0.025142752,-0.0036728727,0.000759999,-0.014771071,0.017521473,0.4853809,-1.3613112,1.8787912,-2.087362,-1.5701798,2.4599085,-0.15010218,0.16727443,-0.20370421,0.049920734,0.0059836092,-0.16753127,-0.1340753,0.36391866,-9.519346,0.8627467,47.653748,-1.155386,-2.4003503,-3.5011978,-0.2862637,0.05413375,-0.2511887,25.6875,26.5,25.5625,28.0,28.875,29.1875
0.2600536,-0.8433846,-1.1559883,-2.1024096,-0.056306504,0.078506194,-0.08389524,-0.40515435,-0.36563718,0.060065154,3.078265,-0.6239581,-0.00012266706,-0.11922711,0.025722533,-0.004597072,0.000408522,-0.015274224,0.019350948,0.48506868,-1.3609743,1.8784083,-2.0872786,-1.570227,2.4595234,-0.15258446,0.17005162,-0.20463738,0.04835233,0.006515223,-0.17184298,-0.11492168,0.30645782,-9.749189,0.7911258,47.679718,-1.1610112,-2.3555968,-3.5356216,-0.29559594,0.052025635,-0.17899631,25.6875,26.5,25.5625,28.0,28.875,29.1875
0.26205337,-0.30258176,-1.0261139,-2.2261326,-0.046439573,0.07242771,-0.08990223,-0.40538156,-0.36559823,0.060050834,3.0782752,-0.6238827,-4.310695e-05,-0.12054024,0.026262887,-0.003569502,-0.0006842628,-0.012077059,0.017362153,0.48478073,-1.3606267,1.878002,-2.0871837,-1.5701917,2.4591873,-0.15422508,0.16839238,-0.20465794,0.046704013,0.0059778662,-0.17149478,-0.1340753,0.21068975,-9.825804,0.90750587,47.681515,-1.0418236,-2.3825798,-3.5434594,-0.29272527,0.058910422,-0.16010973,25.6875,26.5,25.5625,28.0,28.875,29.1875
0.26405331,-0.66455936,-0.90668344,-1.7475846,-0.05667286,0.06391796,-0.09135705,-0.40561637,-0.365559,0.060032483,3.078279,-0.62384826,1.1470911e-05,-0.12260744,0.026334867,-0.0031380386,-0.0015649345,-0.01008203,0.010718838,0.4844928,-1.3602666,1.8775948,-2.0871117,-1.5701679,2.4588776,-0.155975,0.16999485,-0.20737919,0.045650993,0.0058099823,-0.16660018,-0.34476504,0.15322891,-9.615114,0.8605109,47.65643,-1.0519805,-2.4171295,-3.6339643,-0.3041712,0.047831558,-0.18641871,25.6875,26.5,25.5625,28.0,28.875,29.1875
0.26605356,-0.97023195,-0.61971325,-1.6848922,-0.040188633,0.062089533,-0.08788154,-0.40587583,-0.36553562,0.060049415,3.078258,-0.6237889,-1.8465425e-05,-0.124371484,0.026116548,-0.0033109772,-0.0022725223,-0.009323634,0.0032654225,0.4842168,-1.3599179,1.8771161,-2.0870168,-1.5701555,2.4585674,-0.15722875,0.17286864,-0.21026993,0.044666585,0.006075036,-0.16039914,-0.40222588,0.19153613,-9.442732,0.93436235,47.640312,-1.0119617,-2.3624034,-3.6957946,-0.30175036,0.06435998,-0.27822468,25.6875,26.5,25.5625,28.0,28.875,29.1875
0.2680534,-0.6442309,0.077072285,-1.5541787,-0.026107892,0.08291658,-0.09139826,-0.4061179,-0.36547863,0.0600519,3.078236,-0.62376446,-7.4388627e-06,-0.12585217,0.02606366,-0.0029777687,-0.004343334,-0.008172493,-0.00043276986,0.48389298,-1.359618,1.8767341,-2.0869458,-1.5701312,2.4582312,-0.15913391,0.17368227,-0.2117534,0.04335425,0.007364736,-0.15860665,-0.38307226,0.17238252,-9.423578,0.88960326,47.666286,-1.0729939,-2.470497,-3.5417302,-0.29239845,0.05325299,-0.32537383,25.6875,26.5,25.5625,28.0,28.875,29.1875
0.27005365,-0.53753865,0.7406266,-1.2109145,-0.016625341,0.10098526,-0.10463256,-0.40640113,-0.36543703,0.06005242,3.0781803,-0.62378985,-4.0895004e-05,-0.12641318,0.023753328,-0.0012093527,-0.0069554006,-0.005235894,0.0012394856,0.4835587,-1.3592461,1.8762778,-2.086909,-1.5701069,2.45792,-0.15623353,0.17358546,-0.21577844,0.04366405,0.008309023,-0.15737776,-0.30645782,0.11492168,-9.346964,0.8157518,47.68062,-1.1972299,-2.3099935,-3.3927217,-0.30010527,0.019922215,-0.35429457,25.6875,26.5,25.5625,28.0,28.875,29.1875
0.27205428,-1.1959729,0.68306166,-1.2387109,0.0043635163,0.093328044,-0.09821318,-0.40664393,-0.36539754,0.060064465,3.0781853,-0.62371165,-2.8910852e-05,-0.12785041,0.023799079,-0.0006134738,-0.007430289,-0.0032812422,0.0005751957,0.48327112,-1.3589225,1.8758343,-2.0867898,-1.5700945,2.4575832,-0.15717264,0.17418918,-0.21778375,0.043120682,0.007815366,-0.1576514,-0.49799395,0.076614454,-9.308656,0.88289046,47.682407,-1.0707959,-2.2492328,-3.367391,-0.31247857,0.016999885,-0.38192445,25.6875,26.5,25.5625,28.0,28.875,29.1875
0.2740535,-1.1500472,0.8753682,-1.5181564,0.006275089,0.10356591,-0.09780077,-0.40689868,-0.36534658,0.06006714,3.0781639,-0.62372214,-6.161796e-06,-0.12976733,0.023546545,-0.00032406376,-0.00849084,-0.00045097678,0.0057974574,0.4829474,-1.3585864,1.8754028,-2.086695,-1.5700711,2.457269,-0.15809603,0.17578559,-0.21984099,0.040594395,0.007433468,-0.1637957,-0.45968673,0.038307227,-9.3661175,0.84708,47.661808,-1.2601988,-2.090762,-3.3339643,-0.2854382,0.013022209,-0.3542391,25.6875,26.5,25.5625,28.0,28.875,29.1875
0.27605373,-1.1985269,0.5739044,-1.5743426,-0.0028718484,0.10772768,-0.106927,-0.4071434,-0.36529213,0.060047157,3.0781438,-0.6237507,8.70478e-05,-0.13046293,0.023545507,0.00041483121,-0.0093194125,0.0010610871,0.012853538,0.482612,-1.3582268,1.8749965,-2.086611,-1.5700234,2.456954,-0.15861356,0.1751133,-0.2207349,0.040452562,0.007462291,-0.17136954,-0.45968673,-0.019153614,-9.404425,0.9791215,47.688675,-1.2435887,-2.1341054,-3.3743272,-0.2853781,0.0135896895,-0.2987322,25.6875,26.5,25.5625,28.0,28.875,29.1875
0.2780534,-1.211455,0.3734514,-1.3757036,-0.0361941,0.12223701,-0.108512506,-0.4074281,-0.3652511,0.060073588,3.078127,-0.623645,-1.2679176e-05,-0.13181101,0.024049105,0.0009372619,-0.009832191,0.0022561373,0.021003714,0.48230025,-1.357891,1.8745164,-2.0865395,-1.5700349,2.4565787,-0.16046762,0.17530581,-0.2222003,0.040436935,0.007379029,-0.18137275,-0.40222588,-0.019153614,-9.442732,0.9231726,47.679718,-1.3949844,-2.138337,-3.3100953,-0.27921432,0.011091027,-0.18254697,25.6875,26.5,25.5625,28.0,28.875,29.1875
0.28005412,-1.4206003,-0.35912323,-1.5416597,-0.040803444,0.11483292,-0.10348094,-0.40770307,-0.36517715,0.06008123,3.078172,-0.6235725,-7.487722e-05,-0.13225389,0.024117453,0.0010430247,-0.008645007,0.0024120386,0.026697092,0.48196515,-1.3575548,1.8740729,-2.0864437,-1.5700835,2.456193,-0.16017175,0.17632082,-0.22398324,0.041618593,0.0062612104,-0.18676859,-0.4405331,0.038307227,-9.404425,0.8851263,47.657326,-1.2774978,-2.0053978,-3.39973,-0.28950197,0.004716423,-0.10136232,25.6875,26.5,25.5625,28.0,28.875,29.1875
0.2820538,-1.1858346,-0.012286405,-1.7501652,-0.054959074,0.1175475,-0.09988415,-0.40795186,-0.36513397,0.060072254,3.0781858,-0.62348026,6.2682802e-06,-0.13366249,0.02484773,0.0009092224,-0.008161758,0.0034714588,0.023717334,0.4816529,-1.3571829,1.8736185,-2.086324,-1.5700477,2.4558215,-0.1619468,0.17755042,-0.22501649,0.04071864,0.0053320155,-0.18556282,-0.47884035,0.038307227,-9.481039,0.93436235,47.66091,-1.2025781,-2.0025034,-3.4804864,-0.2957427,0.02285301,-0.08666847,25.6875,26.5,25.5625,28.0,28.875,29.1875
0.28405353,-1.3241521,-0.46139845,-1.6458571,-0.051372472,0.10799026,-0.10112478,-0.4082228,-0.3650781,0.060075525,3.0781865,-0.6234448,-3.3952067e-05,-0.13469474,0.024892187,-4.199356e-05,-0.007919729,0.0037216146,0.0163403,0.4813294,-1.3568345,1.8731755,-2.086253,-1.5700597,2.455476,-0.16260512,0.18041323,-0.22588539,0.038611393,0.0049974327,-0.17884295,-0.5363012,0.11492168,-9.557653,0.9410752,47.664497,-1.322926,-1.976613,-3.4100616,-0.26768488,0.030445306,-0.12464284,25.6875,26.5,25.5625,28.0,28.875,29.1875
0.28605336,-1.5002911,-0.6230518,-1.7185572,-0.037871502,0.09513181,-0.09568775,-0.4085228,-0.36504903,0.06009704,3.0780735,-0.6234629,-8.9793706e-05,-0.13614619,0.023931876,0.00036515534,-0.00995319,0.006242586,0.008848464,0.48098153,-1.3564742,1.8726848,-2.0862176,-1.5699996,2.455154,-0.1625326,0.18187377,-0.22807142,0.036165874,0.005637515,-0.17127764,-0.47884032,0.11492168,-9.595961,0.8717007,47.6636,-1.361424,-2.0589528,-3.497525,-0.24103498,0.04061325,-0.19866368,25.6875,26.5,25.5625,28.0,28.875,29.1875
0.2880542,-1.1306317,-0.43573806,-1.7831217,-0.029411973,0.091292225,-0.09358397,-0.4087636,-0.36497933,0.060064666,3.0781364,-0.62344027,-3.855969e-05,-0.13689882,0.02416776,-0.0008518608,-0.009168344,0.0050905347,0.0036725695,0.4806694,-1.3561012,1.87229,-2.0861342,-1.5700239,2.45482,-0.16337018,0.1851375,-0.22911805,0.03532847,0.005459913,-0.16693874,-0.36391866,0.17238252,-9.519346,0.9097417,47.677036,-1.4792864,-2.2045803,-3.5655057,-0.22800484,0.03016809,-0.27060243,25.6875,26.5,25.5625,28.0,28.875,29.1875
0.29005432,-0.44638467,-0.18574077,-1.7751302,-0.028672181,0.080339804,-0.099379614,-0.40905666,-0.36492103,0.060076173,3.0780852,-0.6235295,-6.9223024e-05,-0.13893339,0.025002789,-0.0015453821,-0.008888726,0.0048480793,-0.0048133526,0.4803085,-1.3557404,1.8718103,-2.0860507,-1.5700115,2.4545214,-0.1663246,0.18841368,-0.23140892,0.034688078,0.0053228424,-0.16140573,-0.17238252,0.22984336,-9.557653,0.8940802,47.66271,-1.4132005,-2.2964456,-3.5581946,-0.20207807,0.029292917,-0.3767677,25.6875,26.5,25.5625,28.0,28.875,29.1875
0.29205388,-0.43794572,-0.7506677,-1.9507055,-0.03605251,0.050654348,-0.0893511,-0.40936443,-0.36488026,0.06009921,3.0780296,-0.6235397,-0.00016911229,-0.14033295,0.025875768,-0.0019609225,-0.008484777,0.00499454,-0.00954823,0.4799718,-1.3553681,1.8712958,-2.0859907,-1.5700115,2.4541984,-0.16861102,0.19013418,-0.23246686,0.034083895,0.004907415,-0.15895602,-0.1340753,0.22984336,-9.595961,0.9254084,47.65912,-1.2448502,-2.2394373,-3.5527945,-0.18140215,0.037307177,-0.45233175,25.6875,26.5,25.5625,28.0,28.875,29.25
0.29405355,0.106476635,-0.90429604,-1.6700373,-0.05992546,0.05298816,-0.10400151,-0.40963894,-0.3648116,0.06009942,3.0780098,-0.6235154,-0.00018624689,-0.14185153,0.026624233,-0.002071571,-0.008251113,0.0051857736,-0.009308391,0.4796109,-1.3550321,1.8708767,-2.085931,-1.57,2.453825,-0.17087649,0.19177924,-0.23428473,0.034201648,0.0046167676,-0.16146027,-0.24899697,0.2681506,-9.5385,0.87617236,47.66987,-1.1974719,-2.3744733,-3.5867429,-0.14290111,0.04523482,-0.48505706,25.6875,26.5,25.5625,28.0,28.8125,29.25
0.29605335,0.00093060907,-1.3625989,-1.6283362,-0.07105363,0.058711987,-0.10775283,-0.40994477,-0.36476758,0.060092475,3.0780067,-0.62350804,-0.00025379748,-0.14347726,0.028048577,-0.0017759199,-0.0077609555,0.0053162104,-0.0015730843,0.4792858,-1.3546002,1.8703607,-2.085883,-1.5700244,2.453496,-0.17423606,0.19224349,-0.23587267,0.035443343,0.0041384725,-0.17255428,-0.15322891,0.40222588,-9.500193,0.87617236,47.66091,-1.2162632,-2.1870348,-3.5123339,-0.12171602,0.04867079,-0.42703116,25.6875,26.5,25.5625,28.0,28.8125,29.25
0.29805356,-0.63946545,-1.3444763,-1.3663487,-0.07713769,0.06196716,-0.10551474,-0.41020516,-0.36471993,0.06009995,3.0779605,-0.62350905,-0.00022013874,-0.14476158,0.026792794,2.427315e-05,-0.009604257,0.008408989,0.012982238,0.47895035,-1.3542647,1.8699173,-2.0857866,-1.5699762,2.4531672,-0.17327027,0.19201313,-0.23988535,0.036111817,0.004357551,-0.18614274,0.019153614,0.3256114,-9.461885,0.8918391,47.65643,-1.1649768,-2.3514006,-3.482673,-0.10898683,0.06457276,-0.30300263,25.6875,26.5,25.5625,28.0,28.8125,29.25
0.30005342,-0.43133923,-1.1013823,-1.212803,-0.0636525,0.06675782,-0.108061045,-0.41049674,-0.3646559,0.06008297,3.0779674,-0.62347007,-0.00021908143,-0.14560872,0.027156584,5.487703e-05,-0.010601174,0.0073325452,0.017962443,0.47858983,-1.3538567,1.86945,-2.085727,-1.5699757,2.4527817,-0.17532107,0.19297421,-0.24143219,0.037196267,0.0057472307,-0.19317421,-0.038307227,0.34476504,-9.3661175,0.82022345,47.64479,-1.1500286,-2.2173367,-3.5552914,-0.09538621,0.06248736,-0.20097536,25.6875,26.5,25.5625,28.0,28.8125,29.25
0.30205417,-0.43315637,-0.7794877,-1.3152896,-0.04850186,0.068012275,-0.108878665,-0.41079268,-0.3646317,0.060111813,3.0779245,-0.6232876,-0.00030807877,-0.14546007,0.027591078,-0.0008541615,-0.010057829,0.0047317296,0.019463323,0.47827724,-1.3534964,1.868936,-2.0856664,-1.5699509,2.4523609,-0.17622942,0.19462086,-0.24168622,0.03836878,0.006487752,-0.19558321,-0.17238252,0.28730422,-9.251195,0.9545008,47.65912,-1.1099222,-2.192655,-3.5438623,-0.08647859,0.059274707,-0.13957365,25.6875,26.5,25.5625,28.0,28.8125,29.25
0.3040541,-0.028320124,-0.36428812,-1.4047127,-0.027103845,0.06511546,-0.10580683,-0.4110834,-0.36455017,0.060082667,3.0779667,-0.6232812,-0.00028960497,-0.1481524,0.027794555,0.00026706018,-0.011088341,0.0068546827,0.012124423,0.47790393,-1.3530765,1.8684787,-2.0855944,-1.5699753,2.4519784,-0.17871827,0.19615887,-0.24632883,0.03910873,0.006410254,-0.19073169,-0.2681506,0.24899697,-9.193734,0.8918391,47.642998,-0.96478724,-2.1637352,-3.4709477,-0.07261949,0.046069935,-0.16856632,25.6875,26.5,25.5625,28.0,28.8125,29.25
0.30605382,-0.5500916,0.08995842,-1.1692429,-0.019732678,0.057161164,-0.10068439,-0.41137916,-0.36449966,0.060076885,3.077889,-0.62330806,-0.00024590892,-0.14959943,0.028752523,0.0001159417,-0.010973803,0.0061252094,0.0023865139,0.47751954,-1.3526804,1.8679999,-2.0855343,-1.5699033,2.4516208,-0.18156002,0.19778724,-0.2482514,0.040113147,0.0066443174,-0.18383484,-0.3256114,0.19153613,-9.212888,0.88960326,47.642998,-0.9708076,-2.034589,-3.5248156,-0.06280961,0.04902993,-0.2511029,25.6875,26.5,25.5625,28.0,28.8125,29.25
0.30805355,-0.63409555,0.3183313,-0.9625322,-0.019137712,0.07262871,-0.1026432,-0.4117035,-0.36446267,0.06010071,3.077858,-0.623243,-0.0003585519,-0.15047167,0.027507752,0.0017090508,-0.012732475,0.008506912,0.0008618017,0.47718427,-1.352273,1.8674372,-2.0854619,-1.5699152,2.4512491,-0.18038332,0.19745459,-0.25173205,0.04099936,0.0071231727,-0.1811322,-0.36391866,0.17238252,-9.11712,0.87393653,47.651955,-1.1290426,-2.0025105,-3.3363822,-0.05850046,0.038640708,-0.33239102,25.6875,26.5,25.5625,28.0,28.8125,29.25
0.3100533,-0.6588374,0.4024719,-1.173771,-0.001798468,0.08209829,-0.10889064,-0.4119977,-0.36439914,0.060112186,3.0778573,-0.6232071,-0.00037125294,-0.15103234,0.02798392,0.0007800921,-0.012114083,0.006023902,-0.0034049442,0.4768237,-1.3518999,1.8669332,-2.0853417,-1.5699147,2.4508665,-0.18187854,0.20023149,-0.2533502,0.042328835,0.0077169663,-0.1783601,-0.40222588,0.095768064,-9.155427,0.8157518,47.682407,-1.069954,-2.080904,-3.3704014,-0.023724802,0.03167782,-0.37767613,25.6875,26.5,25.5625,28.0,28.8125,29.25
0.31205413,-0.5186203,0.63283473,-1.1743561,-0.009469072,0.09763608,-0.121151105,-0.41228744,-0.36434925,0.060097467,3.0778208,-0.62329465,-0.00034588596,-0.1515841,0.027771069,0.0006204219,-0.011729449,0.005317331,-0.0028505186,0.47647572,-1.3514795,1.8664421,-2.0852697,-1.5698909,2.450578,-0.1818496,0.20220189,-0.25572312,0.043543354,0.007700914,-0.17888471,-0.38307226,0.05746084,-9.270349,0.86498255,47.67614,-1.1231093,-2.1087604,-3.4085166,-0.016849667,0.030571513,-0.39968544,25.6875,26.5,25.5625,28.0,28.8125,29.25
0.3140538,-1.4902062,0.30124205,-0.95942086,-0.018564144,0.098278284,-0.105672196,-0.41260737,-0.3642905,0.060118396,3.077763,-0.62322015,-0.00039480263,-0.15103126,0.027952744,-0.00052053045,-0.009949194,0.0026135363,0.0045382706,0.47608006,-1.3511072,1.865928,-2.0851967,-1.5698551,2.4501433,-0.18132389,0.20441814,-0.2562314,0.045071527,0.007383703,-0.18574686,-0.45968673,-0.038307227,-9.308657,0.95897776,47.65106,-1.2171429,-2.186804,-3.4264455,-0.023624856,0.035123255,-0.3728447,25.6875,26.5,25.5625,28.0,28.8125,29.25
0.3160535,-1.6694762,0.09456121,-0.7459339,-0.01644009,0.109615915,-0.11010674,-0.41291243,-0.36425012,0.06011471,3.077777,-0.6230791,-0.00044989848,-0.15069611,0.027095392,0.00010627928,-0.0104053095,0.0029691502,0.018210156,0.47575665,-1.3506758,1.8654011,-2.0851371,-1.5698665,2.4497304,-0.17962617,0.20410186,-0.25761876,0.04626044,0.0076479097,-0.1977207,-0.51714754,-0.038307227,-9.11712,0.9186956,47.647476,-1.4683356,-2.1129456,-3.4594278,-0.029183771,0.011936844,-0.26612926,25.6875,26.5,25.5625,28.0,28.8125,29.25
0.31805333,-1.5143895,0.7385326,-0.8548525,-0.008141625,0.1086093,-0.11471866,-0.41319954,-0.36416537,0.06009478,3.077788,-0.62317115,-0.00036325684,-0.15123427,0.025849085,0.0005033554,-0.010607523,0.0040646777,0.029744312,0.47536138,-1.3502672,1.8649219,-2.085005,-1.5698551,2.4493914,-0.17767617,0.20587999,-0.26083478,0.046647176,0.007320698,-0.20730402,-0.47884032,0.038307227,-9.136273,0.9410752,47.666286,-1.5715475,-2.0957546,-3.3918114,-0.0069522066,0.035390545,-0.14637767,25.6875,26.5,25.5625,28.0,28.8125,29.25
0.32005405,-0.7997959,0.53806,-1.1516025,0.0036775935,0.106163256,-0.119898744,-0.41350797,-0.36411682,0.060101036,3.07777,-0.6230524,-0.0003829744,-0.1520747,0.02699058,5.1070212e-05,-0.009888013,0.0033292866,0.02886415,0.4750007,-1.3498595,1.8643955,-2.0849216,-1.5698313,2.448959,-0.17996846,0.2068658,-0.2611531,0.046972983,0.007029045,-0.20871572,-0.24899697,0.019153614,-9.174581,0.8873621,47.658226,-1.5385714,-2.0749683,-3.4525032,-0.0028606597,0.029347528,-0.08797778,25.6875,26.5,25.5625,28.0,28.8125,29.25
0.32205373,-0.7176674,0.09095896,-1.1671352,-0.015222667,0.07266073,-0.105972424,-0.4138412,-0.36406043,0.060107693,3.077779,-0.62294436,-0.00043598114,-0.15330777,0.028545614,-0.00044352622,-0.008688976,0.0019977686,0.01821075,0.4746277,-1.3494155,1.8638209,-2.0848248,-1.5698432,2.4485178,-0.1831751,0.20840919,-0.26228252,0.04828656,0.006573321,-0.20126818,-0.3256114,0.0,-9.212888,0.94331104,47.672558,-1.4449941,-2.075591,-3.5715854,9.477837e-05,0.040134303,-0.117457986,25.6875,26.5,25.5625,28.0,28.8125,29.25
0.32405326,-0.27812058,-0.09000008,-1.0351928,-0.017956227,0.04444255,-0.099758804,-0.4141283,-0.36400744,0.060091805,3.0777707,-0.6229298,-0.00039791793,-0.15474625,0.029414209,-0.0009806145,-0.0073177773,0.00096476835,0.007147917,0.47427884,-1.3489951,1.8633288,-2.0847409,-1.5698198,2.4481611,-0.1852487,0.21127908,-0.264921,0.049601905,0.0058123004,-0.19227763,-0.45968673,0.076614454,-9.155427,0.9410752,47.661808,-1.3617508,-2.1254196,-3.564136,-0.014641697,0.039972045,-0.22914037,25.6875,26.5,25.5625,28.0,28.8125,29.25
0.32605326,0.4958483,-0.106324166,-1.387709,-0.026283896,0.048907164,-0.11886887,-0.41442215,-0.3639323,0.06007366,3.0777898,-0.622976,-0.0003107607,-0.15609601,0.030279035,-0.00065431645,-0.0065054507,0.0009263776,-0.0017404679,0.47389436,-1.348563,1.8628138,-2.0845969,-1.5698074,2.4478033,-0.18725376,0.21231678,-0.2674261,0.05147509,0.0050887,-0.18539357,-0.30645782,0.11492168,-9.232041,0.93436235,47.694946,-1.3575048,-2.0828013,-3.453442,-0.011763237,0.057793338,-0.31592774,25.6875,26.5,25.5625,28.0,28.8125,29.25
0.32805416,0.25651538,-0.3185771,-1.5561708,-0.023375567,0.04596041,-0.109352395,-0.41473398,-0.36387345,0.060066625,3.0777783,-0.62295616,-0.00031158113,-0.15546162,0.030845365,-0.0015848058,-0.004479883,-0.0023818118,-0.008038744,0.47352266,-1.3481311,1.8622869,-2.0845115,-1.5697964,2.4474208,-0.18731843,0.21393019,-0.2679981,0.05430079,0.004796726,-0.17915964,-0.21068975,0.19153613,-9.346964,0.9030289,47.661808,-1.3489621,-2.2447789,-3.40288,-0.012737543,0.071998954,-0.40987098,25.6875,26.5,25.5625,28.0,28.8125,29.25
0.330054,-0.24488364,-0.71917164,-1.475115,-0.028159628,0.042018045,-0.113667585,-0.41503397,-0.36380357,0.06005411,3.077801,-0.6229621,-0.00026320608,-0.15617788,0.03197028,-0.0026415954,-0.0027999885,-0.0064257313,-0.010772073,0.47314942,-1.3476981,1.8617605,-2.084379,-1.569796,2.4470487,-0.18985696,0.21729909,-0.27058548,0.057885103,0.0051396694,-0.17896411,-0.15322891,0.30645782,-9.404425,0.8605109,47.67614,-1.2814932,-2.2031264,-3.5220354,-0.049605407,0.077845186,-0.49169454,25.6875,26.5,25.5625,28.0,28.8125,29.25
0.3320539,-0.8186535,-0.99447656,-1.0656481,-0.044290043,0.055290762,-0.10349071,-0.41537243,-0.3637433,0.06008819,3.077748,-0.62298614,-0.0003232827,-0.15813236,0.032733824,-0.0024105725,-0.0028648465,-0.007453905,-0.005972919,0.47275242,-1.3473017,1.8611726,-2.0842464,-1.5697836,2.4466736,-0.19295156,0.2196879,-0.27466893,0.060475964,0.0056797313,-0.18685633,-0.095768064,0.3256114,-9.270349,0.95002913,47.694946,-1.1563101,-2.2670217,-3.493548,-0.090692,0.07956502,-0.5010404,25.6875,26.5,25.5625,28.0,28.8125,29.25
0.33405396,-0.2428426,-0.42223033,-1.2938807,-0.04505512,0.072340965,-0.11798614,-0.41568553,-0.36368433,0.060064785,3.0777645,-0.6229627,-0.00026897748,-0.1607172,0.032367446,-0.00019540676,-0.005048574,-0.00425559,0.0043203933,0.4723798,-1.3468221,1.8606194,-2.0841382,-1.5697716,2.4462845,-0.194682,0.2196558,-0.28011802,0.062130325,0.0061646765,-0.19887897,-0.095768064,0.30645782,-9.232041,0.900793,47.695843,-1.0602213,-2.2097652,-3.2996597,-0.11209108,0.08119157,-0.38183552,25.6875,26.5,25.5625,28.0,28.8125,29.25
0.33605367,-0.6254421,-0.54433614,-1.3958898,-0.04077839,0.06705305,-0.11933605,-0.4159958,-0.363595,0.06004443,3.0777984,-0.6229455,-0.00017810428,-0.15993437,0.0337016,-0.0015181688,-0.0032022141,-0.010268603,0.01421782,0.4719593,-1.346378,1.8600935,-2.0839922,-1.5697592,2.4458492,-0.19672811,0.22149879,-0.2805295,0.066907294,0.0072621345,-0.2108234,-0.114921674,0.34476504,-9.270349,0.8157518,47.68062,-1.0484744,-2.242605,-3.2936974,-0.17847633,0.065369576,-0.25206676,25.6875,26.5,25.5625,28.0,28.8125,29.25
0.33805358,-0.6147086,-0.8135457,-1.3379059,-0.04433833,0.07146347,-0.10773644,-0.4163181,-0.36351684,0.06003369,3.077822,-0.62291056,-0.00017483142,-0.161749,0.03537075,-0.0012914479,-0.0033607786,-0.008755308,0.014680962,0.47156206,-1.3459347,1.8595556,-2.0838854,-1.5697712,2.4454274,-0.20054159,0.22121586,-0.2805347,0.06578226,0.0067116306,-0.21510004,-0.24899697,0.36391866,-9.289503,0.8717007,47.651955,-0.9558233,-2.1495566,-3.5216172,-0.21598455,0.07783413,-0.1687069,25.6875,26.5,25.5625,28.0,28.8125,29.25
0.34005308,-1.2282329,-0.8225923,-1.3478652,-0.04871188,0.075724296,-0.10828199,-0.41665015,-0.36345747,0.060038704,3.0778148,-0.62285316,-0.0001484631,-0.16094121,0.035760812,-0.0022111635,-0.0020428433,-0.011093619,0.0100066755,0.47116613,-1.3454788,1.8589581,-2.083742,-1.5697469,2.4449968,-0.20025711,0.22209011,-0.27986255,0.06692115,0.0065952544,-0.21014155,-0.51714754,0.3256114,-9.32781,0.8403672,47.68599,-1.016778,-2.140071,-3.6510363,-0.22721234,0.08074289,-0.1689229,25.6875,26.5,25.5625,28.0,28.8125,29.25
0.3420539,-1.707385,-1.0368303,-1.2368913,-0.043970436,0.08102802,-0.10312163,-0.41696048,-0.36339873,0.060025975,3.077824,-0.62282014,-5.134287e-05,-0.15963212,0.034934588,-0.0022922903,-0.0009983737,-0.014194457,0.005651136,0.47078314,-1.3450106,1.8583826,-2.083584,-1.5697111,2.4445922,-0.19789027,0.2230891,-0.2819709,0.07126924,0.007056451,-0.20341925,-0.59376204,0.19153614,-9.32781,0.9321212,47.640312,-1.0702162,-2.0812135,-3.7555661,-0.29994476,0.0699227,-0.2471579,25.6875,26.5,25.5625,28.0,28.8125,29.25
0.3440537,-1.3794069,-0.45262328,-1.3990855,-0.03704677,0.1087981,-0.10154341,-0.4172854,-0.36334133,0.060022485,3.077783,-0.6228132,2.0941334e-05,-0.1607696,0.03315576,-0.0018952574,-0.0034310163,-0.011946686,0.002122886,0.47037536,-1.3445543,1.8578066,-2.083454,-1.5696505,2.4441855,-0.19641432,0.2252121,-0.28505766,0.06913252,0.008182777,-0.19841461,-0.51714754,0.13407528,-9.289502,0.9388393,47.64479,-1.1751018,-2.15351,-3.6494715,-0.32585096,0.061528906,-0.3349096,25.6875,26.5,25.5625,28.0,28.8125,29.25
0.34605396,-1.3152848,0.02628074,-1.283981,-0.018728953,0.11337848,-0.11461522,-0.41760984,-0.36328164,0.060013425,3.0778177,-0.62274307,6.49751e-07,-0.16141689,0.03263556,-0.0025462927,-0.0038000825,-0.01191483,0.00027287067,0.47001576,-1.3440852,1.8572325,-2.0833461,-1.5696748,2.443778,-0.19612065,0.22775955,-0.28647593,0.067802705,0.008485427,-0.19627044,-0.45968673,0.076614454,-9.289502,0.8918391,47.65106,-1.4063964,-2.2523503,-3.6138554,-0.3187992,0.05261242,-0.38872138,25.6875,26.5,25.5625,28.0,28.8125,29.25
0.3480539,-1.1204478,0.3041447,-1.3734939,-0.0076866993,0.110617355,-0.11350632,-0.4179405,-0.363223,0.060019117,3.0778224,-0.6226656,1.2174069e-05,-0.16461235,0.03293479,-0.0010484568,-0.0055285143,-0.0072362865,0.000916557,0.4696308,-1.34363,1.8566335,-2.083203,-1.5696625,2.4433444,-0.19879414,0.22821419,-0.2901165,0.06604626,0.007896793,-0.19958618,-0.36391866,0.17238252,-9.251195,0.92764956,47.650166,-1.3252519,-2.3167934,-3.5758154,-0.33399263,0.0675915,-0.4045762,25.6875,26.5,25.5625,28.0,28.8125,29.25
0.35005385,-0.91192263,0.38560227,-1.5364659,-0.0070422096,0.08839531,-0.11668197,-0.41825962,-0.36313954,0.059976112,3.077878,-0.62268883,0.00012982484,-0.1667193,0.033034787,-0.0014820236,-0.005397133,-0.0052233995,0.010156325,0.46922258,-1.3431134,1.8560704,-2.0830605,-1.5696629,2.4429438,-0.19993739,0.23139726,-0.29256168,0.06359135,0.006845487,-0.20996812,-0.15322891,0.1340753,-9.404425,0.8784135,47.660015,-1.445487,-2.2337315,-3.511056,-0.32692802,0.06455666,-0.3277389,25.6875,26.5,25.5625,28.0,28.8125,29.25
0.35205352,-0.5213893,-0.15419026,-1.8744557,-0.017620116,0.06591299,-0.11258528,-0.41860208,-0.36307272,0.05997373,3.077884,-0.6226446,0.00015579326,-0.16858009,0.031542823,-0.00094194594,-0.0072974903,-0.0013460957,0.021624135,0.46881506,-1.3426331,1.8554591,-2.082918,-1.569651,2.4425082,-0.19881418,0.23365916,-0.29591134,0.06037906,0.0067785135,-0.2203115,-0.21068975,0.21068975,-9.519346,0.9030289,47.67166,-1.3895197,-2.4178228,-3.4874806,-0.29646745,0.08847119,-0.20534572,25.6875,26.5,25.5625,28.0,28.8125,29.25
0.3540542,-0.48962784,-0.88601017,-1.713842,-0.059955515,0.067865536,-0.10406259,-0.4189327,-0.36302197,0.05997158,3.077889,-0.6225116,0.00020433626,-0.1709972,0.031734116,0.00016060183,-0.008379175,0.0026100185,0.023226822,0.4684305,-1.3421535,1.8548478,-2.0827749,-1.5696157,2.4420402,-0.20049033,0.23403591,-0.298582,0.05867225,0.005948337,-0.2235891,-0.38307226,0.15322891,-9.557653,0.8918391,47.67793,-1.3109648,-2.377316,-3.3087037,-0.27491444,0.09067756,-0.1335789,25.6875,26.5,25.5625,28.0,28.8125,29.25
0.35605404,-0.72530466,-1.2150468,-2.035948,-0.06235453,0.059072483,-0.107807934,-0.41929355,-0.36293575,0.05999374,3.0778782,-0.6224724,0.000109272136,-0.17255656,0.032258425,0.0008103585,-0.0085717,0.0046008346,0.017881485,0.4679977,-1.3417336,1.8542618,-2.082667,-1.5696396,2.4415846,-0.20204432,0.23428588,-0.30037072,0.05834336,0.0052299486,-0.21979655,-0.22984336,0.05746084,-9.653421,0.87617236,47.684196,-1.3891985,-2.4665804,-3.4353547,-0.28462133,0.10891788,-0.12465796,25.6875,26.5,25.5625,28.0,28.8125,29.25
0.358054,-0.611653,-1.4300257,-2.1057537,-0.060129385,0.07406858,-0.10354396,-0.41961724,-0.3628469,0.059959367,3.0779006,-0.6225794,0.00019697566,-0.17379043,0.032155447,-0.0008278346,-0.009225372,0.0049723247,0.007483517,0.4675778,-1.3412409,1.85371,-2.082537,-1.5696396,2.4412289,-0.20296554,0.23814188,-0.30047408,0.053954728,0.005616089,-0.21031997,-0.21068975,0.15322891,-9.768343,0.88289046,47.64658,-1.3459787,-2.4854596,-3.4720247,-0.23787016,0.12301376,-0.20185784,25.6875,26.5,25.5625,28.0,28.8125,29.25
0.3600536,-1.2028444,-1.4164431,-2.1419048,-0.06640325,0.070124,-0.10150019,-0.41998553,-0.36278307,0.059955157,3.0779104,-0.6225076,0.0001605041,-0.17388405,0.03286419,-0.0024797176,-0.009732997,0.002754973,-0.003348668,0.4671691,-1.3407247,1.8530663,-2.0824301,-1.569651,2.4407744,-0.20489363,0.24013214,-0.29884535,0.052071713,0.00706811,-0.20141722,-0.3256114,0.2681506,-9.730036,0.83365434,47.677036,-1.3155282,-2.4174504,-3.6778357,-0.1970357,0.11597848,-0.3213098,25.6875,26.5,25.5625,28.0,28.8125,29.25
0.36205417,-1.0791233,-1.691443,-2.1354258,-0.06228524,0.08815283,-0.10284448,-0.42032337,-0.362731,0.059958555,3.0778105,-0.62258893,0.00021376368,-0.17495275,0.033908013,-0.0021571224,-0.0106641315,0.0028238199,-0.012223545,0.46674815,-1.3402691,1.8524789,-2.082322,-1.5695666,2.440417,-0.20780711,0.23973487,-0.29926828,0.052421533,0.007871416,-0.1954564,-0.22984336,0.30645782,-9.653421,0.9254084,47.67614,-1.1037885,-2.4608822,-3.8107772,-0.18311235,0.11896121,-0.4230601,25.6875,26.5,25.5625,28.0,28.8125,29.25
0.3640531,-1.0885799,-1.2901225,-2.0636609,-0.054762825,0.086813115,-0.10532218,-0.4206779,-0.3626632,0.059935153,3.0778124,-0.6226112,0.00022705371,-0.17827384,0.03505382,-0.00083423185,-0.0118124345,0.005626425,-0.018009877,0.46633866,-1.3397417,1.8518671,-2.0822265,-1.5695671,2.4400215,-0.2121445,0.24046783,-0.30334756,0.052750837,0.0076284613,-0.19400625,-0.1340753,0.2681506,-9.710882,0.9097417,47.670765,-0.93222046,-2.4235597,-3.7328,-0.18181205,0.10610018,-0.5213362,25.6875,26.5,25.5625,28.0,28.8125,29.25
0.36605382,-1.1546047,-0.99630386,-2.110181,-0.03476854,0.08172092,-0.10731361,-0.4210645,-0.3626006,0.05995739,3.0777526,-0.622613,8.2557526e-05,-0.18098427,0.034657784,0.0004773291,-0.014464645,0.011204476,-0.01121047,0.46591815,-1.339274,1.8512329,-2.0821679,-1.569579,2.43961,-0.21347213,0.2406132,-0.30569765,0.04879213,0.007509947,-0.20213185,-0.1340753,0.19153614,-9.710882,0.95226496,47.694946,-0.878622,-2.3041427,-3.7012897,-0.10144845,0.11315149,-0.505116,25.6875,26.5,25.5625,28.0,28.8125,29.25
0.36805415,-0.6143604,-0.06460878,-2.0947907,-0.018705651,0.07259906,-0.10625351,-0.42141795,-0.36253893,0.059958145,3.0777225,-0.6225406,8.860728e-05,-0.18263347,0.034137283,0.0013179978,-0.015800485,0.012676838,0.0023753257,0.46549842,-1.3387941,1.8506211,-2.0820596,-1.5695428,2.4391491,-0.21411608,0.24205504,-0.3095906,0.049354486,0.008060035,-0.21636058,-0.22984336,0.114921674,-9.691729,0.9231726,47.675243,-0.9457067,-2.2655704,-3.560401,-0.08820251,0.119430184,-0.38203073,25.6875,26.5,25.5625,28.0,28.8125,29.25
0.37005424,-0.73523223,-0.10677314,-2.1727157,-0.0013853632,0.06605144,-0.105842,-0.42177892,-0.36246935,0.05993738,3.077701,-0.6225088,9.887758e-05,-0.1831498,0.032911785,0.0022282868,-0.017166806,0.013353965,0.014683098,0.4650666,-1.338278,1.8500217,-2.0819876,-1.569518,2.4387004,-0.21287154,0.2428664,-0.31309223,0.050846647,0.008993828,-0.22742334,-0.36391866,0.11492168,-9.653421,0.8537928,47.675243,-1.1056521,-2.30665,-3.4498549,-0.07985251,0.11133543,-0.24780366,25.6875,26.5,25.5625,28.0,28.8125,29.25
0.3720532,-0.23159775,0.74729973,-1.9552213,-0.0052006505,0.085145496,-0.11230938,-0.42212316,-0.3624154,0.059916787,3.0777185,-0.6224153,0.00012697786,-0.18253312,0.03237782,0.0021702824,-0.01686784,0.01259738,0.018189222,0.464683,-1.3377508,1.8493999,-2.0818794,-1.5695065,2.4382565,-0.21132527,0.24324262,-0.31379724,0.051994435,0.009072892,-0.22938341,-0.24899697,0.17238252,-9.5385,0.93436235,47.689575,-1.1550033,-2.1371715,-3.5305147,-0.049055807,0.11067708,-0.19291773,25.6875,26.5,25.5625,28.0,28.8125,29.25
0.3740534,-0.53799355,0.55533797,-2.4165423,-0.0012163088,0.08116562,-0.112322554,-0.4224924,-0.36233714,0.05994269,3.077691,-0.6223582,8.2284016e-05,-0.18317801,0.03343566,0.00070234976,-0.014271679,0.009494795,0.008988742,0.46423852,-1.337306,1.8487653,-2.081735,-1.5694946,2.4377801,-0.21284662,0.24711792,-0.3157663,0.054025434,0.008152544,-0.22170244,-0.34476504,0.1340753,-9.730036,0.9321212,47.681515,-1.2195973,-2.2930112,-3.5698445,-0.047276672,0.12695155,-0.26918143,25.6875,26.5,25.5625,28.0,28.8125,29.25
0.3760533,-2.0973206,-0.86191934,-2.2598882,-0.022447083,0.06293284,-0.08650902,-0.4228712,-0.36227548,0.059950724,3.0776398,-0.6223698,4.865723e-05,-0.18282297,0.03362899,0.00048525838,-0.012978594,0.007733399,0.0033517862,0.46380678,-1.3368022,1.8481067,-2.0816262,-1.5694708,2.4373624,-0.21244033,0.24793972,-0.31696418,0.056557838,0.0077978973,-0.21565847,-0.40222588,0.095768064,-9.730036,0.94331104,47.689575,-1.2378956,-2.3627002,-3.658815,-0.04490083,0.13353722,-0.35374802,25.6875,26.5,25.5625,28.0,28.8125,29.25
