Tylouw/Master_Thesis_Code/training_data/batch_1/rect_rod_t0.1/sample_55_session_2.csv
timestamp[s],tcp_force_x[N],tcp_force_y[N],tcp_force_z[N],tcp_force_rx[Nm?],tcp_force_ry[Nm?],tcp_force_rz[Nm?],tcp_pose_x[m],tcp_pose_y[m],tcp_pose_z[m],tcp_pose_rx[rot_vec_x],tcp_pose_ry[rot_vec_y],tcp_pose_rz[rot_vec_z],tcp_velo_x[m/s],tcp_velo_y[m/s],tcp_velo_z[m/s],tcp_velo_rx[rot_vec_x/s],tcp_velo_ry[rot_vec_y/s],tcp_velo_rz[rot_vec_z/s],q1[rad],q2[rad],q3[rad],q4[rad],q5[rad],q6[rad],qd1[rad/s],qd2[rad/s],qd3[rad/s],qd4[rad/s],qd5[rad/s],qd6[rad/s],tool_acc_x,tool_acc_y,tool_acc_z,current_of_whole_robot[A],voltage_of_whole_robot[V],current_J1[A],current_J2[A],current_J3[A],current_J4[A],current_J5[A],current_J6[A],temp_J1[C],temp_J2[C],temp_J3[C],temp_J4[C],temp_J5[C],temp_J6[C]
7.1500017e-07,-0.80123746,-0.9769658,-0.099825114,-0.03084554,0.017063348,0.0035780463,-0.3893211,-0.36872458,0.060005885,-3.0787044,0.62485045,0.00016578533,0.00056272175,0.0002741592,-0.0009711024,0.00019721419,-0.00072449405,0.00031385088,0.50505686,-1.3816439,1.9041995,-2.091881,-1.5708536,2.4800007,-4.62267e-05,0.00026467943,0.002316904,-0.0018528335,0.0001786875,-0.00036105004,0.019153614,0.24899697,-8.580819,0.7642693,47.691364,-0.25668907,-2.988331,-2.3470254,-0.19415763,0.18037294,0.032247312,25.5625,26.375,25.4375,27.75,28.5,28.875
0.002052952,-0.87243587,-0.7725533,-0.12126432,-0.031103482,0.021714702,0.003594527,-0.38935694,-0.3687231,0.060034182,-3.0787506,0.62493783,0.00028130785,-0.0012550929,-0.0007362042,-0.00168416,-0.0022092366,0.0036024167,0.00029651783,0.50502086,-1.381679,1.904188,-2.091931,-1.5708536,2.4800134,-4.5069195e-05,0.002786327,0.0027548913,-0.009763522,0.00017375914,-0.000341472,0.05746084,0.21068975,-8.6574335,0.78217715,47.723602,-0.24025166,-2.9929562,-2.3245459,-0.15188007,0.18970443,0.017670799,25.5625,26.375,25.4375,27.75,28.5,28.875
0.004051827,-1.219576,-0.99063325,-0.05013856,-0.025812931,0.013075449,0.0020426256,-0.3893493,-0.36871544,0.060022783,-3.0787153,0.62485313,0.00030171828,-0.0016498907,-0.0009547878,-0.0015870857,-0.002705719,0.0045037135,0.0002803301,0.5050448,-1.3816668,1.9041995,-2.091931,-1.5709013,2.479989,-4.3968343e-05,0.003047047,0.0024492475,-0.010747596,0.00016909526,-0.00032390986,0.038307227,0.22984336,-8.599973,0.67475104,47.701214,-0.18800622,-3.3701699,-2.591886,-0.07825631,0.17811972,0.02607726,25.5625,26.375,25.4375,27.75,28.5,28.875
0.00605217,-0.31162113,-0.46395373,-0.19526139,-0.015399095,0.020014675,-0.007742685,-0.3893317,-0.3687091,0.059994634,-3.078693,0.6249452,0.0001798109,-0.0006780582,-0.00041310338,-0.0011855136,-0.001187517,0.0017874571,0.00026512516,0.50502086,-1.3816432,1.9042352,-2.0919292,-1.5708536,2.4800253,-4.291989e-05,0.0019403236,0.0017207864,-0.005800645,0.00016467492,-0.00030806445,0.019153614,0.21068975,-8.6574335,0.71951014,47.71286,-0.19217528,-3.2706065,-2.5277672,-0.09643941,0.17727306,0.03241282,25.5625,26.375,25.4375,27.75,28.5,28.875
0.008052391,0.07299366,0.24735971,-0.6545567,0.0008430022,0.004836142,-0.0013131939,-0.38935637,-0.3687112,0.060013942,-3.0787215,0.6249512,0.00026239906,-7.999947e-05,-8.7224944e-05,-0.00031918744,-0.00059038796,0.00073101505,0.0002651339,0.5050088,-1.3816559,1.9042114,-2.0919516,-1.5708655,2.4800134,-2.8135051e-05,9.753585e-05,0.0010904237,-0.0021140028,0.00016047987,-0.0002936996,-0.076614454,0.22984336,-8.7532015,0.77545905,47.698532,-0.17294094,-3.1643243,-2.4669175,-0.12625733,0.18242294,0.03629507,25.5625,26.375,25.4375,27.75,28.5,28.875
0.010052776,-0.22496122,0.1830891,-0.8112895,0.010329712,0.0025217,-0.005867582,-0.38931233,-0.36870718,0.059959363,-3.0786567,0.6249761,6.801994e-05,0.0002909001,0.00012670206,-0.0002958003,0.00013824897,-0.0005710554,0.0002610317,0.50502086,-1.3815958,1.9042591,-2.0919273,-1.5708297,2.4800491,-3.8662696e-05,1.3085679e-06,0.00070276303,-0.00013802928,0.00015649358,-0.0003002067,0.0,0.21068975,-8.983045,0.69937176,47.666286,-0.7372812,-2.640106,-2.9642453,-0.16146444,0.1779755,-0.033428527,25.5625,26.375,25.4375,27.75,28.5,28.875
0.012052178,-0.55713916,-0.08299547,-0.97174966,-0.015856085,0.012241484,-0.012796714,-0.38933071,-0.36869252,0.059971184,-3.0786324,0.62491286,0.00011617038,0.00020452464,0.00015095192,-0.002668646,0.0023058548,-0.0044893636,0.00026323408,0.50500876,-1.3815943,1.9042224,-2.0918915,-1.5708774,2.4800007,-0.00016163298,0.0056318515,-0.0005789133,-9.012326e-06,0.00015269988,-0.00042396676,0.095768064,0.1340753,-9.11712,0.7553206,47.71465,-0.90362906,-2.4849463,-3.1023262,-0.14283009,0.19223659,-0.11207844,25.5625,26.375,25.4375,27.75,28.5,28.875
0.014052335,-1.5161418,-1.1055121,-1.2342792,-0.035533324,0.022050977,-0.0021426387,-0.38931552,-0.36870062,0.05996733,-3.0786555,0.6248405,0.00010262771,-0.0051211673,0.0033800313,-0.0043759434,0.0035454172,-0.006746149,-0.0005202863,0.5050292,-1.3816032,1.9042443,-2.0919034,-1.5708655,2.479973,-0.010580192,0.012902308,-0.0052846447,-5.8844046e-07,0.00014908623,-0.010055917,0.0,0.1340753,-9.32781,0.7553206,47.690468,-0.55619216,-3.2253194,-2.9513924,-0.14125024,0.19473664,-0.08340668,25.5625,26.375,25.4375,27.75,28.5,28.875
0.016052648,-1.926612,-1.609468,-1.1794208,-0.05272764,0.04045454,-0.012282544,-0.38931683,-0.36869133,0.05995476,-3.078616,0.62488645,1.9458066e-05,-0.0057587693,0.0035628756,-0.0033359074,0.003015957,-0.0058214166,0.006820387,0.5050048,-1.3815677,1.90422,-2.0918553,-1.5708536,2.4799824,-0.011492925,0.011744282,-0.0066028154,0.0014089083,0.00016371028,-0.01830915,-0.21068975,0.19153613,-9.385271,0.7083204,47.70032,-0.5225012,-3.0334013,-3.0852609,-0.14045112,0.18760324,0.0071948096,25.5625,26.375,25.4375,27.75,28.5,28.875
0.018052371,-2.2851694,-1.4063971,-1.263269,-0.063611925,0.060079608,-0.026055554,-0.38932514,-0.3686862,0.059943803,-3.078618,0.6248865,-6.028024e-06,-0.005591299,0.0035262322,-0.0028340637,0.002640854,-0.005208872,0.008462379,0.504981,-1.3815442,1.90422,-2.0918677,-1.5708417,2.4799583,-0.01129395,0.010487164,-0.006317397,0.0016629398,0.00019631768,-0.019752564,-0.34476504,0.17238252,-9.385271,0.7933669,47.690468,-0.7407434,-2.8227785,-3.2600448,-0.14713398,0.22852588,-0.01368246,25.5625,26.375,25.4375,27.75,28.5,28.875
0.020052686,-2.2287145,-1.0930254,-1.4664629,-0.044626236,0.08193606,-0.043291003,-0.3893118,-0.36866435,0.059914023,-3.0785782,0.62484217,-9.363169e-05,-0.0061052963,0.0036460226,-0.0026359046,0.0026509033,-0.0053787283,0.0058421586,0.50495666,-1.3815199,1.9042562,-2.0918548,-1.5708417,2.4799113,-0.012021938,0.010964779,-0.007534986,0.0025564507,0.00026792122,-0.017859988,-0.45968673,0.21068975,-9.461885,0.800085,47.689575,-0.8584935,-2.67656,-3.4598088,-0.15385184,0.21138817,-0.06473861,25.5625,26.375,25.4375,27.75,28.5,28.875
0.022051888,-1.9643841,-0.9599819,-1.6631896,-0.024471937,0.09089899,-0.07391284,-0.3893375,-0.36866438,0.05991307,-3.0785677,0.6248599,-0.000108630804,-0.007938023,0.0032914968,-0.0029082873,0.0008013493,-0.0067636,0.002438203,0.50493205,-1.3814707,1.9041947,-2.091831,-1.5708407,2.4798992,-0.014566096,0.014580467,-0.011289587,0.0030044673,0.002549305,-0.017001975,-0.47884035,0.19153613,-9.634268,0.78217715,47.72808,-0.8780674,-2.7245915,-3.446093,-0.15603982,0.1930956,-0.09408331,25.5625,26.375,25.4375,27.75,28.5,28.875
0.024052221,-2.1578379,-0.7057384,-1.6408787,-0.024910577,0.08293158,-0.089316525,-0.38933218,-0.36867735,0.059896972,-3.0785847,0.62474984,-0.00017878515,-0.009078563,0.0033919292,-0.0029927376,-0.00061729195,-0.007216032,0.000565771,0.5049433,-1.3814223,1.9041713,-2.0918186,-1.5708159,2.4798396,-0.016712101,0.015945278,-0.012640694,0.0026954655,0.0040054806,-0.017277353,-0.51714754,0.095768064,-9.768343,0.71279734,47.703903,-0.9382578,-2.709405,-3.3810165,-0.14956775,0.16277269,-0.09213342,25.5625,26.375,25.4375,27.75,28.5,28.875
0.026052564,-2.1665802,-0.72482705,-1.8544692,-0.030885225,0.08739405,-0.101641364,-0.38933772,-0.3686606,0.059864447,-3.078538,0.6248365,-0.0002890475,-0.010178922,0.0033816684,-0.0031366146,-0.0007217422,-0.006811866,-1.2912353e-05,0.50489503,-1.3813614,1.9041709,-2.0918071,-1.5707921,2.4798512,-0.017656058,0.01770701,-0.014275,0.0021647494,0.0038949451,-0.017641712,-0.7469909,0.038307227,-9.80665,0.75755644,47.716442,-0.84290266,-2.7936492,-3.398818,-0.14145795,0.16529828,-0.09232868,25.5625,26.375,25.4375,27.75,28.5,28.875
0.028051808,-3.1133099,-1.5517428,-1.935441,-0.0288791,0.09112166,-0.09271644,-0.3893754,-0.36866888,0.059873812,-3.0785832,0.6248265,-0.00026919262,-0.010726205,0.0036045122,-0.0034114067,-0.00024569378,-0.0068854275,-0.001523637,0.50485885,-1.3813251,1.9041094,-2.091819,-1.5707682,2.479803,-0.018303458,0.018831711,-0.014942917,0.0020046358,0.0035127338,-0.016777102,-0.82360536,0.0,-9.787497,0.7642693,47.690468,-0.948245,-2.7341104,-3.3960712,-0.15239361,0.16503274,-0.1019997,25.5625,26.375,25.4375,27.75,28.5,28.875
0.030051999,-2.7450798,-0.9198425,-1.7800288,-0.05379868,0.11822354,-0.12690909,-0.38938957,-0.36866227,0.05987049,-3.0785825,0.62478894,-0.00028316272,-0.011693765,0.0034382949,-0.0025463281,-0.0010207156,-0.0050719087,-0.003104217,0.5048347,-1.3813012,1.904086,-2.0918076,-1.5707687,2.4797556,-0.018801669,0.018482389,-0.016483022,0.0019328198,0.0033103982,-0.015693836,-0.80445176,0.095768064,-9.768343,0.7642693,47.689575,-0.95194966,-2.686172,-3.4149323,-0.1463035,0.17374173,-0.14587823,25.5625,26.375,25.4375,27.75,28.5,28.875
0.032052092,-3.0353591,-1.2836363,-1.9392502,-0.035384163,0.11556695,-0.110508315,-0.3894401,-0.36866185,0.059876077,-3.0785866,0.62484795,-0.00025591798,-0.012100753,0.003912289,-0.0031016227,-0.0004414771,-0.0067416583,-0.0045539234,0.50478643,-1.3812405,1.9040016,-2.0918071,-1.5707682,2.4797437,-0.020166794,0.020054841,-0.017302502,0.0029205468,0.003611649,-0.015609224,-0.842759,0.076614454,-9.825804,0.7620334,47.716442,-0.95365286,-2.77946,-3.4743328,-0.13927147,0.19491306,-0.14936003,25.5625,26.375,25.4375,27.75,28.5,28.875
0.0340517,-2.13035,-0.52946246,-1.8847156,-0.03545202,0.118825406,-0.12964879,-0.3894628,-0.36862278,0.05984994,-3.078523,0.62487304,-0.00030365866,-0.01324059,0.0034765585,-0.0024901193,-0.0018811877,-0.006008267,-0.004684083,0.5047143,-1.3811922,1.9040011,-2.0917947,-1.5707921,2.4796953,-0.021060532,0.020873629,-0.019721325,0.0031789648,0.004510942,-0.016373556,-0.6512228,0.038307227,-9.80665,0.71279734,47.686886,-1.0410019,-2.6637478,-3.4122434,-0.15146546,0.18738255,-0.17928848,25.5625,26.375,25.4375,27.75,28.5,28.875
0.036052242,-1.9870956,-0.43525478,-1.9961151,-0.011251008,0.0951807,-0.114290126,-0.3894828,-0.36862245,0.05984766,-3.0785122,0.6248895,-0.00029094663,-0.01435044,0.0029494106,-0.0015447844,-0.004357954,-0.00467355,-0.003967185,0.5047019,-1.3811563,1.9039639,-2.0917947,-1.570803,2.4796946,-0.022157298,0.020663753,-0.02155061,0.0028463,0.006028114,-0.018189207,-0.6512228,0.0,-9.749189,0.77545905,47.70211,-0.995984,-2.6953485,-3.416623,-0.15839298,0.16521713,-0.1810193,25.5625,26.375,25.4375,27.75,28.5,28.875
0.03805243,-1.4198966,0.06593014,-1.7350396,-0.01501927,0.09047283,-0.11730966,-0.38950488,-0.36861917,0.059835047,-3.0785048,0.624946,-0.00037034988,-0.01576534,0.0031919295,-0.0013605893,-0.005384048,-0.00396589,-0.004321825,0.50465333,-1.3810958,1.9039158,-2.0917714,-1.5707673,2.4796822,-0.024230551,0.02161085,-0.02293668,0.0021685048,0.0065781563,-0.019908262,-0.40222588,-0.05746084,-9.825804,0.8179876,47.689575,-0.94481766,-2.7779093,-3.426633,-0.1272326,0.13884848,-0.1933077,25.5625,26.375,25.4375,27.75,28.5,28.875
0.040052786,-1.05045,0.0025873107,-1.7330558,-0.02519305,0.092533395,-0.12283215,-0.38953593,-0.368605,0.059827477,-3.0785058,0.62498534,-0.00038435528,-0.016744377,0.003694283,-0.0017292849,-0.0053538466,-0.0041816435,-0.0050947727,0.5045927,-1.3810594,1.9038929,-2.0917838,-1.5707549,2.479646,-0.026036546,0.02298907,-0.023614576,0.0016719587,0.006652931,-0.020940907,-0.34476504,-0.038307227,-9.749189,0.78217715,47.690468,-0.8689463,-2.6985216,-3.410832,-0.104248255,0.15146573,-0.19720083,25.5625,26.375,25.4375,27.75,28.5,28.875
0.042051706,-1.7499956,-0.63118005,-1.9826052,-0.023098378,0.068127036,-0.106320776,-0.3896047,-0.36860758,0.059847523,-3.0785487,0.62501246,-0.00029751493,-0.018002305,0.003529204,-0.0010886147,-0.0058212457,-0.0023788975,-0.0047557405,0.50453275,-1.3810111,1.9037956,-2.0918076,-1.5707549,2.4795976,-0.026639648,0.023527445,-0.025638174,0.0013551739,0.0061866734,-0.021880789,-0.34476504,0.038307227,-9.653421,0.7866488,47.68062,-0.885605,-2.6222496,-3.3894038,-0.11741839,0.14510807,-0.20968354,25.5625,26.375,25.4375,27.75,28.5,28.875
0.044052117,-1.4034657,-0.68466914,-1.6404027,-0.028797103,0.0725862,-0.11051355,-0.38964656,-0.36858314,0.05984465,-3.0785394,0.62500936,-0.00028441113,-0.01978724,0.0033885997,-0.00016810025,-0.0066292356,2.4254157e-05,-0.004585816,0.5044605,-1.380975,1.9037594,-2.0918076,-1.5707678,2.4795246,-0.027780756,0.024134776,-0.028367838,0.0009849351,0.0057253353,-0.023189757,-0.22984336,0.11492168,-9.615114,0.6926589,47.691364,-0.92689884,-2.6783762,-3.2867894,-0.10319791,0.16703697,-0.21189773,25.5625,26.375,25.4375,27.75,28.5,28.875
0.046052303,-1.5498703,-1.0608358,-1.9173921,-0.018277155,0.051489312,-0.1000692,-0.3896633,-0.36859295,0.059842307,-3.078565,0.6250337,-0.0003752368,-0.020721149,0.0040928572,-0.00036404355,-0.0060129496,-3.725492e-05,-0.0040323045,0.50442386,-1.3809266,1.9036993,-2.0917714,-1.5707077,2.4794998,-0.029517304,0.025107289,-0.02909767,0.0010974138,0.005213003,-0.0254786,-0.15322891,0.11492168,-9.653421,0.7642693,47.711964,-0.90068305,-2.6451344,-3.2975888,-0.09029247,0.15815306,-0.2265613,25.5625,26.375,25.4375,27.75,28.5,28.875
0.04805264,-0.3037425,-0.67593175,-1.7852768,-0.029121911,0.057113834,-0.11460208,-0.38974133,-0.3685898,0.05986405,-3.07859,0.6250383,-0.0002134528,-0.021717045,0.004891068,-0.00015173445,-0.0055500646,-0.00022334124,-0.0043590586,0.50437534,-1.3808783,1.9036034,-2.0918186,-1.5707554,2.4794512,-0.031590637,0.025515469,-0.030341318,0.002319584,0.0048999833,-0.02722371,-0.019153614,0.11492168,-9.5385,0.75084364,47.678825,-0.8968338,-2.6449828,-3.2789412,-0.099209934,0.16510281,-0.23554538,25.5625,26.375,25.4375,27.75,28.5,28.875
0.05005238,-0.7797286,-0.7513516,-1.7609284,-0.032957383,0.027581766,-0.10697822,-0.3897832,-0.36855572,0.059849326,-3.0785625,0.6250902,-0.00024303288,-0.021854332,0.0056607327,-0.00080087985,-0.0044169067,-0.002009799,-0.0038426314,0.5042792,-1.3808298,1.9035796,-2.091818,-1.5707558,2.4793909,-0.03293151,0.02660964,-0.030403549,0.0034000685,0.004772521,-0.02908083,-0.038307227,0.15322891,-9.595961,0.78217715,47.67614,-0.7999547,-2.6606717,-3.41922,-0.09779758,0.1772084,-0.25471812,25.5625,26.375,25.4375,27.75,28.5,28.875
0.052052815,-0.16024868,-0.6847339,-1.7478666,-0.04423636,0.03605379,-0.10846753,-0.38982877,-0.3685514,0.059866637,-3.0785947,0.62515396,-0.00024935565,-0.023455806,0.0055286395,-4.9024977e-05,-0.005795415,-0.00035441096,-0.0037706646,0.5042068,-1.3808056,1.9035062,-2.0917947,-1.5707196,2.4793541,-0.034451727,0.027181124,-0.032702625,0.003012186,0.005174242,-0.030672505,-0.019153614,0.19153613,-9.500193,0.80679786,47.719128,-0.87856406,-2.627586,-3.4041314,-0.10347605,0.19164364,-0.2501381,25.5625,26.375,25.4375,27.75,28.5,28.875
0.05405202,-0.5385268,-1.1137544,-1.7079664,-0.04328506,0.03762375,-0.10466165,-0.389873,-0.36853552,0.059857775,-3.078586,0.625153,-0.00023688229,-0.025459439,0.005826397,0.0006737324,-0.006881726,0.001367346,-0.004860012,0.50414616,-1.3807454,1.903458,-2.0918071,-1.5707315,2.479294,-0.036890954,0.027881172,-0.035100725,0.0026774227,0.0052875387,-0.032021455,0.076614454,0.24899697,-9.519346,0.7038487,47.689575,-0.787108,-2.5589287,-3.3547564,-0.08908867,0.17529891,-0.26973155,25.5625,26.375,25.4375,27.75,28.5,28.875
0.05605246,-0.74820054,-1.7037836,-1.7186939,-0.03958456,0.043851834,-0.1008651,-0.38994506,-0.36853164,0.059886035,-3.078632,0.6251804,-0.00023064122,-0.026330316,0.0056248107,0.0007547093,-0.0072938767,0.0018605045,-0.0041500023,0.50405,-1.3806969,1.9033254,-2.091759,-1.5706958,2.4792092,-0.037433326,0.029118832,-0.03668466,0.0023940331,0.005407475,-0.033272978,0.0,0.30645782,-9.519346,0.7486078,47.67614,-0.72760636,-2.6425283,-3.3383546,-0.07788199,0.19231509,-0.2817025,25.5625,26.375,25.4375,27.75,28.5,28.875
0.058052458,-0.54102755,-1.0794067,-1.4381224,-0.063787,0.057660136,-0.11330186,-0.3899945,-0.36851493,0.05987568,-3.0786066,0.6252116,-0.00020788149,-0.026122851,0.005073177,0.0008333627,-0.007634993,0.0015603835,-0.0017908753,0.50399053,-1.3806247,1.9032663,-2.091771,-1.5707196,2.4791725,-0.036584124,0.029508317,-0.03742839,0.0028442286,0.0058505232,-0.034783334,0.0,0.40222588,-9.500193,0.7620334,47.67345,-0.9076159,-2.525113,-3.3271012,-0.07836447,0.18894091,-0.28654617,25.5625,26.375,25.4375,27.75,28.5,28.875
0.06005267,-1.8562151,-1.8843473,-1.6460129,-0.040141292,0.0317102,-0.09129194,-0.39004692,-0.36849827,0.05986894,-3.0786083,0.62521315,-0.00023475155,-0.027065374,0.005851937,0.0008734281,-0.007837895,0.0006272881,-0.0033370412,0.50390583,-1.3805523,1.9031934,-2.0917585,-1.5707072,2.4790885,-0.039161034,0.030097935,-0.038488068,0.0040320526,0.0064790226,-0.035814803,-0.019153614,0.36391866,-9.423578,0.80679786,47.675243,-0.8405175,-2.4974494,-3.3677387,-0.08409648,0.1964482,-0.29545707,25.5625,26.375,25.4375,27.75,28.5,28.875
0.062051877,-0.9626363,-1.0609685,-1.6545373,-0.045233108,0.04512714,-0.103312455,-0.39010912,-0.36851227,0.059882183,-3.078688,0.6252482,-0.00022514648,-0.027990492,0.00564824,0.0011614809,-0.009158782,0.00058689207,-0.003210521,0.50383353,-1.3804921,1.9030975,-2.0917828,-1.5706466,2.479028,-0.040408336,0.030994363,-0.040268097,0.0043117288,0.0076543097,-0.0371893,-0.019153614,0.28730422,-9.423578,0.77545905,47.72719,-0.8160907,-2.476226,-3.3268406,-0.10088745,0.1597277,-0.29275078,25.5625,26.375,25.4375,27.75,28.5,28.875
0.064052604,-0.60099727,-1.0495214,-1.2932916,-0.044521585,0.05701995,-0.108633816,-0.39017448,-0.36848703,0.059889596,-3.0786753,0.6252642,-0.0002133036,-0.028977808,0.0056039793,0.0014593112,-0.009822623,0.0014280513,-0.0035048085,0.5037375,-1.3804319,1.9030012,-2.0917466,-1.5706586,2.4789436,-0.04135584,0.03165607,-0.041654482,0.003978988,0.007826238,-0.0378421,-0.11492168,0.2681506,-9.346964,0.7665104,47.703903,-0.808758,-2.5035055,-3.330647,-0.10600616,0.16165283,-0.31123716,25.5625,26.375,25.4375,27.75,28.5,28.875
0.066052645,-0.7325895,-1.0931214,-1.4519181,-0.03921803,0.062002927,-0.10582378,-0.3902186,-0.36850047,0.059901312,-3.07873,0.6252935,-0.00021969537,-0.029888762,0.0055249673,0.0015374812,-0.010341952,0.0018229781,-0.0015306142,0.5036892,-1.3803835,1.9029173,-2.0917466,-1.5706109,2.4789066,-0.042231202,0.032766875,-0.043084074,0.0037027108,0.008088008,-0.040691007,-0.19153613,0.24899697,-9.32781,0.75084364,47.72719,-0.79975927,-2.4161108,-3.3818302,-0.09902932,0.17311245,-0.3251003,25.5625,26.375,25.4375,27.75,28.5,28.875
0.06805267,-1.2792201,-0.79509866,-1.3551581,-0.037800353,0.06292572,-0.103441596,-0.39025235,-0.36845934,0.059850097,-3.0786781,0.6252817,-0.00034722462,-0.030902069,0.0056608175,0.001222912,-0.010609014,0.0016490257,-0.0009748016,0.50358105,-1.3802748,1.9029053,-2.091747,-1.570599,2.4787977,-0.043594662,0.03455124,-0.044376586,0.0032347564,0.008398347,-0.04261073,-0.11492168,0.22984336,-9.289502,0.779936,47.705692,-0.8381892,-2.451672,-3.3245225,-0.05983063,0.15563765,-0.3302366,25.5625,26.375,25.4375,27.75,28.5,28.875
0.07005204,-2.0198045,-1.1293854,-1.4753737,-0.0262232,0.057597607,-0.09640842,-0.39031592,-0.36847675,0.059879668,3.078719,-0.6252141,0.0002980185,-0.031944696,0.005630328,0.0017201757,-0.011508526,0.0022820206,-0.0019444582,0.50352067,-1.3802383,1.9027976,-2.0917585,-1.5705503,2.47869,-0.0448094,0.0350171,-0.046126354,0.0035310623,0.008881559,-0.042855136,-0.15322891,0.22984336,-9.32781,0.7016076,47.71465,-0.8357662,-2.5101178,-3.3873725,-0.07603305,0.14901695,-0.3413935,25.5625,26.375,25.4375,27.75,28.5,28.875
0.07205219,-1.4233898,-0.92610586,-1.3555684,-0.020635381,0.077272736,-0.101659045,-0.39038196,-0.3684491,0.059883088,3.0787077,-0.6252676,0.00029773405,-0.03268657,0.005609311,0.0020280697,-0.01189589,0.0026521499,-0.0009765768,0.5034126,-1.3801781,1.9027132,-2.0917346,-1.5705503,2.4786167,-0.045557212,0.03555201,-0.047546364,0.0039057205,0.009040708,-0.04457046,-0.30645782,0.095768064,-9.251195,0.8157518,47.728977,-0.8906441,-2.4082437,-3.3431966,-0.07038324,0.14745937,-0.35937107,25.5625,26.375,25.4375,27.75,28.5,28.875
0.074052624,-1.5052608,-0.6024466,-1.2477281,-0.017187405,0.07380015,-0.10697259,-0.39049536,-0.36844024,0.05991322,3.0786471,-0.62529254,0.00019704542,-0.033991992,0.005968706,0.0021186292,-0.012007525,0.0029524944,0.0006382496,0.50329226,-1.3800937,1.9025449,-2.0917346,-1.5705508,2.4785197,-0.04733707,0.036840115,-0.049315322,0.004071388,0.008994746,-0.047963418,-0.36391866,0.17238252,-9.289502,0.75755644,47.698532,-0.84455025,-2.3853817,-3.3117228,-0.07477236,0.14497149,-0.36185074,25.5625,26.375,25.4375,27.75,28.5,28.875
0.07605202,-2.0117905,-0.5951577,-1.381967,-0.002850305,0.063616425,-0.090097256,-0.39052606,-0.3684463,0.059910744,3.0786345,-0.62521225,0.000262695,-0.035092097,0.006468631,0.0015447625,-0.0122396555,0.0014774066,0.002199355,0.5032435,-1.3800328,1.9024729,-2.0917103,-1.5705022,2.4784224,-0.04976803,0.03908846,-0.050755203,0.0044433963,0.009906773,-0.051956095,-0.4213795,0.076614454,-9.308657,0.7150385,47.703903,-0.77335,-2.3999567,-3.3286288,-0.08474193,0.12500538,-0.3370073,25.5625,26.375,25.4375,27.75,28.5,28.875
0.07805209,-1.6956974,-0.45325318,-1.3068702,-0.01180223,0.07377083,-0.10019887,-0.3906046,-0.36843246,0.059908066,3.0786045,-0.62518376,0.0002861092,-0.03467943,0.0058544753,0.0012720923,-0.0120426165,0.00131744,0.0068191853,0.5031244,-1.3799365,1.9023651,-2.0917103,-1.5704659,2.4782894,-0.04828115,0.03985813,-0.050978914,0.004136753,0.009811392,-0.055088554,-0.40222588,0.038307227,-9.232041,0.77545905,47.666286,-0.85648125,-2.4279366,-3.3845463,-0.08416236,0.1291048,-0.32024965,25.5625,26.375,25.4375,27.75,28.5,28.875
0.08005224,-2.4234312,-0.6684126,-1.2107607,-0.014589668,0.06718703,-0.093288794,-0.39067933,-0.36839303,0.059903167,3.0786328,-0.6252103,0.00028892956,-0.037372243,0.0059859087,0.0023216815,-0.0127383,0.00391987,0.0047881776,0.50300366,-1.379852,1.9022683,-2.091675,-1.5704902,2.4781816,-0.05059283,0.041334923,-0.055131424,0.004199333,0.00915703,-0.05536654,-0.45968673,0.019153614,-9.289502,0.81351066,47.683304,-0.9223837,-2.3938785,-3.187432,-0.07189171,0.13257825,-0.3228768,25.5625,26.375,25.4375,27.75,28.5,28.875
0.08205192,-2.0993571,-0.588595,-1.5121206,-0.012123181,0.07695381,-0.10059098,-0.39075634,-0.36840183,0.05991999,3.0785897,-0.6251015,0.00023018202,-0.0368145,0.006763579,0.0010745743,-0.011977922,0.000938662,0.008401063,0.50293154,-1.3797795,1.9021496,-2.091699,-1.5704659,2.4780471,-0.05185803,0.04237406,-0.053623427,0.004631065,0.009936623,-0.060245626,-0.4405331,-0.038307227,-9.308656,0.81351066,47.71823,-0.83480716,-2.473227,-3.2196994,-0.086046465,0.12286122,-0.28629327,25.5625,26.375,25.4375,27.75,28.5,28.875
0.084052525,-1.606059,-0.6014983,-1.2668582,-0.009861499,0.08621858,-0.10103167,-0.3908099,-0.368373,0.05990399,3.078598,-0.6250834,0.00032577693,-0.038077462,0.007936575,0.00046532473,-0.011155714,-0.000112131245,0.0093256105,0.5028109,-1.3796948,1.9020776,-2.0916622,-1.5704302,2.477914,-0.05486315,0.04419064,-0.05446978,0.0049830107,0.009719163,-0.06417487,-0.40222588,-0.11492168,-9.404425,0.7351769,47.698532,-0.77990496,-2.4511895,-3.4089346,-0.07894761,0.10715698,-0.25319913,25.5625,26.375,25.4375,27.75,28.5,28.875
0.08605207,-1.6577045,-0.6109589,-1.2393585,-0.015828112,0.078972,-0.098143816,-0.39090416,-0.3683844,0.059920803,3.078542,-0.62499243,0.0002494535,-0.038683377,0.0069274255,0.0012247943,-0.011662381,0.001814182,0.0140427165,0.50272745,-1.3795984,1.9019336,-2.091699,-1.5704063,2.477781,-0.053415895,0.044753283,-0.056839257,0.0048628543,0.009235532,-0.06744216,-0.36391866,0.0,-9.232042,0.7284641,47.698532,-0.8445429,-2.4189966,-3.3570185,-0.061467864,0.11986029,-0.20596763,25.5625,26.375,25.4375,27.75,28.5,28.875
0.08805219,-2.0356162,-0.7297376,-1.3424833,-0.009673797,0.06824216,-0.08906231,-0.39099118,-0.36833543,0.059914112,3.0785692,-0.62501544,0.00027862273,-0.040504802,0.006438766,0.0019798935,-0.013012067,0.0034288764,0.01570907,0.5025715,-1.3795019,1.9018239,-2.0916512,-1.5704182,2.477636,-0.054523148,0.0462637,-0.06032908,0.0047770897,0.009631572,-0.07021501,-0.49799395,0.05746084,-9.251195,0.81351066,47.688675,-0.97125965,-2.415305,-3.176517,-0.0693748,0.112894624,-0.18315855,25.5625,26.375,25.4375,27.75,28.5,28.875
0.090052426,-1.5326602,-0.76443565,-1.3860228,-0.0133108795,0.074497625,-0.09804386,-0.3910779,-0.3683347,0.059928384,3.078519,-0.6249856,0.00023507405,-0.040404093,0.0078254035,0.00053053553,-0.011488335,0.0006889155,0.015621962,0.5024748,-1.3794172,1.9016937,-2.0916626,-1.5703944,2.4775271,-0.056745224,0.047598556,-0.058640715,0.0048922948,0.009624699,-0.07234991,-0.34476504,0.038307227,-9.3661175,0.7418897,47.661808,-0.9017807,-2.4518633,-3.3135946,-0.06735575,0.113906845,-0.1658257,25.5625,26.375,25.4375,27.75,28.5,28.875
0.09205254,-1.3462642,-0.71272343,-1.3309103,-0.023630936,0.074798316,-0.106271684,-0.39115667,-0.36830688,0.059921045,3.0785575,-0.6248762,0.000264031,-0.041639093,0.0077693667,0.00082299527,-0.011423464,0.0018142925,0.016782211,0.502355,-1.3793088,1.901574,-2.091627,-1.5703949,2.4773343,-0.057411276,0.048890445,-0.06082696,0.004835463,0.0090201115,-0.0741745,-0.28730422,0.19153613,-9.385271,0.8224646,47.733456,-0.9009787,-2.4585352,-3.3707645,-0.074689806,0.11641797,-0.118958935,25.5625,26.375,25.4375,27.75,28.5,28.875
0.09405203,-1.3485975,-0.88806385,-1.1798544,-0.0336656,0.07079554,-0.10118198,-0.39123008,-0.36829326,0.059928056,3.0785844,-0.62474644,0.00023743193,-0.04248664,0.007593434,0.0012962989,-0.012280547,0.0025938312,0.016368546,0.50227094,-1.3792247,1.9014529,-2.0916026,-1.5704063,2.477166,-0.058125902,0.049253974,-0.062352166,0.00489991,0.009394428,-0.07447522,-0.19153613,0.21068975,-9.32781,0.7150385,47.684196,-0.968981,-2.372399,-3.2931728,-0.06678409,0.116736084,-0.09043978,25.5625,26.375,25.4375,27.75,28.5,28.875
0.096052274,-1.4450259,-1.3368037,-1.2996624,-0.029497476,0.0639617,-0.08927631,-0.39129242,-0.3682742,0.059904516,3.0785758,-0.6247643,0.00034623616,-0.04290964,0.007695835,5.6291643e-05,-0.011611893,0.00043119275,0.015058522,0.50215095,-1.3791034,1.9013575,-2.0915787,-1.5703582,2.4770582,-0.058962274,0.05252515,-0.06341074,0.004907718,0.009844199,-0.07400177,-0.19153613,0.21068975,-9.32781,0.73741806,47.74331,-0.9628174,-2.5338209,-3.3121228,-0.076574124,0.13500732,-0.0782115,25.5625,26.375,25.4375,27.75,28.5,28.875
0.09805259,-1.0303667,-1.1934737,-1.592518,-0.038340356,0.06898505,-0.099868156,-0.3913968,-0.3682561,0.059915125,3.0785615,-0.6246843,0.0002622468,-0.043859817,0.007924203,0.0011878316,-0.011998332,0.0026360224,0.013614646,0.5020309,-1.3790076,1.9012254,-2.0916026,-1.5703701,2.47689,-0.05976458,0.051234066,-0.064526916,0.0051990193,0.009125344,-0.07335839,-0.1340753,0.2681506,-9.346964,0.7463667,47.66271,-1.026712,-2.490591,-3.3510938,-0.08079114,0.13534933,-0.066721484,25.5625,26.375,25.4375,27.75,28.5,28.875
0.10005191,-1.4033111,-1.2452457,-1.4735752,-0.046596043,0.05154055,-0.08467395,-0.39148825,-0.3682182,0.05988725,3.0785718,-0.62470716,0.00031882405,-0.044857047,0.007894863,0.0015897946,-0.0128379315,0.0032138715,0.011339195,0.5018748,-1.3788635,1.9011182,-2.0916026,-1.5703582,2.476747,-0.060908515,0.051801894,-0.06615486,0.0053489194,0.009578744,-0.07222715,-0.076614454,0.2681506,-9.481039,0.7351769,47.679718,-1.0387076,-2.3665226,-3.3501337,-0.09038611,0.10746485,-0.08949613,25.5625,26.375,25.4375,27.75,28.5,28.875
0.10205216,-1.1359311,-1.3217255,-1.6422477,-0.043276865,0.048114665,-0.09693292,-0.39159614,-0.36822873,0.05991702,3.078496,-0.6246532,0.00030828404,-0.045481514,0.007722296,0.00135734,-0.01307231,0.0029038072,0.009717576,0.5017549,-1.3787546,1.9009136,-2.0915668,-1.5702981,2.476603,-0.06140302,0.05340548,-0.06750888,0.0052622296,0.009935513,-0.07109916,-0.1340753,0.2681506,-9.423578,0.8224646,47.716442,-1.0389404,-2.4234898,-3.3610687,-0.072517544,0.116298705,-0.09546846,25.5625,26.375,25.4375,27.75,28.5,28.875
0.10405239,-1.1038046,-1.46365,-1.6144929,-0.038590096,0.03551438,-0.090148516,-0.39168906,-0.36820412,0.059916906,3.0784943,-0.6246734,0.00028401005,-0.046340574,0.008154119,7.5684206e-05,-0.011989273,0.0011791458,0.006609837,0.50163466,-1.3786453,1.9007815,-2.0915544,-1.57031,2.4764957,-0.06283748,0.056931384,-0.06870714,0.0049677226,0.009813561,-0.069424555,-0.05746084,0.30645782,-9.404425,0.7597976,47.689575,-1.0507486,-2.5064619,-3.3413377,-0.081144236,0.13102698,-0.11906237,25.5625,26.375,25.4375,27.75,28.5,28.875
0.106052786,-0.41447288,-1.3864295,-1.6712965,-0.043042388,0.0426503,-0.09392119,-0.39178687,-0.3681957,0.059920378,3.0784488,-0.6245684,0.00022233445,-0.04740157,0.008050266,0.0011372698,-0.013721354,0.003006288,0.0040790793,0.5015146,-1.3785497,1.9006742,-2.091615,-1.5702857,2.476316,-0.06402974,0.05598782,-0.069953196,0.0047224863,0.010456257,-0.06808582,-0.019153614,0.30645782,-9.461885,0.779936,47.684196,-1.0678631,-2.4914083,-3.353161,-0.07874006,0.1253927,-0.16497278,25.5625,26.375,25.4375,27.75,28.5,28.875
0.10805205,-0.41261435,-1.3938271,-1.6223347,-0.042590532,0.041490834,-0.0905548,-0.39189297,-0.3681816,0.059938267,3.0783956,-0.6246166,0.00022994251,-0.04857538,0.008129537,0.0015089532,-0.014209757,0.0042536086,0.0017114239,0.5013705,-1.3784415,1.9004945,-2.0915673,-1.5702504,2.4762087,-0.06512507,0.05659015,-0.071410105,0.0042525185,0.01028347,-0.066812314,0.038307227,0.28730422,-9.385271,0.7978386,47.70211,-1.0790352,-2.3292053,-3.3515232,-0.07243195,0.113892235,-0.19293292,25.5625,26.375,25.4375,27.75,28.5,28.875
0.11005241,-0.5742257,-1.3717537,-1.6258903,-0.044211265,0.03365664,-0.09356381,-0.39200234,-0.36815366,0.0599232,3.0783827,-0.62459546,0.000229721,-0.04958118,0.008380596,0.0008633597,-0.013893085,0.003600454,-6.391719e-05,0.5012144,-1.3782964,1.9003624,-2.0915911,-1.570238,2.476041,-0.06648272,0.059063595,-0.07279753,0.0038936257,0.010318003,-0.06639359,0.0,0.2681506,-9.442732,0.7396539,47.694946,-1.0856948,-2.4674423,-3.4045844,-0.090909354,0.12004301,-0.23528449,25.5625,26.375,25.4375,27.75,28.5,28.875
0.112052426,-0.6781139,-1.1023349,-1.6252762,-0.04935504,0.03315649,-0.09117817,-0.39209172,-0.36814132,0.059928656,3.0783772,-0.62459326,0.00019044659,-0.050315436,0.008446205,0.0010910962,-0.014651013,0.0032635776,-0.00038516926,0.5011182,-1.378188,1.9002188,-2.0915787,-1.5702499,2.4759443,-0.06777385,0.059693694,-0.07423434,0.0046293065,0.011145844,-0.06736367,0.038307227,0.30645782,-9.32781,0.8314132,47.74062,-1.0261588,-2.4469304,-3.3530235,-0.06422064,0.12514296,-0.26401523,25.5625,26.375,25.4375,27.75,28.5,28.875
0.11405233,-0.8159033,-1.157525,-1.7361122,-0.038723722,0.033798803,-0.09073911,-0.39217845,-0.36811414,0.059907854,3.078372,-0.6245916,0.00029794165,-0.05098913,0.008564379,0.0010197705,-0.014822442,0.0029521773,0.00016053571,0.50096214,-1.3780435,1.9000868,-2.0915425,-1.5702018,2.4757879,-0.068764046,0.06076468,-0.075419135,0.004938618,0.011442424,-0.06889991,0.095768064,0.19153613,-9.385271,0.7709874,47.719128,-1.077502,-2.406021,-3.398909,-0.0902991,0.123638004,-0.25702676,25.5625,26.375,25.4375,27.75,28.5,28.875
0.11605257,-0.4054108,-0.79471046,-1.5480145,-0.03524635,0.047922846,-0.09693366,-0.39229244,-0.36808696,0.059925284,3.0783427,-0.62462425,0.00022817108,-0.05361804,0.007883137,0.0027404118,-0.01614349,0.007023014,-0.0018979553,0.50081825,-1.3779472,1.8999304,-2.0915306,-1.5702137,2.4756682,-0.06953324,0.061673407,-0.08037976,0.0047884965,0.010639901,-0.06760692,0.0,0.21068975,-9.423578,0.7642693,47.703007,-1.159333,-2.3630562,-3.320148,-0.084423214,0.11833095,-0.31106198,25.5625,26.375,25.4375,27.75,28.5,28.875
0.118051656,-0.94983566,-1.2604766,-1.6275164,-0.020791097,0.05272349,-0.09458887,-0.39237994,-0.36808345,0.0599002,3.0783045,-0.624616,0.00033258356,-0.053017624,0.008353849,0.00067433115,-0.015153148,0.0030510614,-0.0020262839,0.5006862,-1.3777778,1.8997868,-2.091531,-1.5701412,2.4755359,-0.070399344,0.064645916,-0.07916053,0.0045594955,0.01168014,-0.068346314,-0.038307227,0.2873042,-9.3661175,0.78217715,47.70838,-1.2095525,-2.5313282,-3.2982535,-0.06252674,0.11047399,-0.3483013,25.5625,26.375,25.4375,27.75,28.5,28.875
0.12005194,-1.4843605,-1.0277125,-1.663,-0.0259971,0.053150892,-0.087084584,-0.39246628,-0.36807016,0.059912797,3.0782764,-0.6245704,0.00038088308,-0.053762835,0.00846865,0.0015899952,-0.015648969,0.0047355974,-0.00050604425,0.50055426,-1.3776822,1.8996314,-2.0914714,-1.5700935,2.475379,-0.07103098,0.06364007,-0.08011294,0.0048094466,0.011306944,-0.070497535,-0.1340753,0.21068975,-9.423578,0.7866488,47.694946,-1.227587,-2.4302258,-3.3196766,-0.084625676,0.09802675,-0.35085618,25.5625,26.375,25.4375,27.75,28.5,28.875
0.1220521,-1.1790649,-0.7690068,-1.6079079,-0.030620437,0.07277943,-0.09149412,-0.39261726,-0.3680558,0.059928283,3.0782356,-0.6244678,0.00023947611,-0.056518435,0.007989573,0.0034505995,-0.017557036,0.008418646,-0.0049309456,0.50039816,-1.3775381,1.8994387,-2.0915306,-1.5701059,2.4751642,-0.072687656,0.06418342,-0.08505164,0.0050575086,0.011212396,-0.067725964,-0.21068975,0.11492168,-9.481039,0.842603,47.723602,-1.3038135,-2.3200908,-3.1495142,-0.08033716,0.11268851,-0.42491254,25.5625,26.375,25.4375,27.75,28.5,28.875
0.12405165,-1.3924005,-1.1368515,-1.7965963,-0.023139207,0.07454553,-0.088490084,-0.3927118,-0.36802903,0.0599111,3.0782678,-0.62451184,0.0003150696,-0.055521537,0.009243459,8.499739e-05,-0.014289122,0.001745734,-0.0044868058,0.5002657,-1.3773679,1.8992599,-2.091459,-1.5701059,2.4750552,-0.07406755,0.06905037,-0.08337769,0.005940651,0.011549655,-0.069551125,-0.2681506,0.15322891,-9.461885,0.7284641,47.703007,-1.1694763,-2.5462728,-3.3234725,-0.07905915,0.09630609,-0.46525708,25.5625,26.375,25.4375,27.75,28.5,28.875
0.12605202,-1.2963107,-0.8132236,-1.7100872,-0.03685029,0.080947846,-0.09553465,-0.39282474,-0.36802822,0.05993085,3.0781853,-0.62453043,0.00031852012,-0.056468684,0.008516767,0.0022958214,-0.015546369,0.0054631527,1.4504479e-05,0.50012255,-1.3772488,1.8990682,-2.0914347,-1.5700458,2.474934,-0.07327553,0.06687016,-0.08605506,0.0069440254,0.0108724,-0.07325846,-0.36391866,0.17238252,-9.519346,0.80456203,47.70838,-1.4437398,-2.4047184,-3.2833724,-0.09472924,0.09814821,-0.46955425,25.5625,26.375,25.4375,27.75,28.5,28.875
0.1280521,-1.7490647,-1.3052799,-1.8869911,-0.033173535,0.08517276,-0.08635346,-0.3929488,-0.36802366,0.05996071,3.078102,-0.62449336,0.00024194404,-0.058387943,0.009428934,0.0022862374,-0.015947897,0.005931101,-0.0002548173,0.4999777,-1.3771521,1.8988885,-2.0914462,-1.5700096,2.4747767,-0.076639146,0.068259515,-0.08757956,0.006481946,0.011005919,-0.07635102,-0.4213795,0.11492168,-9.461885,0.82022345,47.698532,-1.3198249,-2.3310776,-3.2617583,-0.10662562,0.105733156,-0.46506715,25.5625,26.375,25.4375,27.75,28.5,28.875
0.13005272,-1.8257452,-1.4224954,-1.863064,-0.027819665,0.09426495,-0.08714113,-0.39305747,-0.36798093,0.059939604,3.0781136,-0.6245096,0.00029854567,-0.058382407,0.009537593,0.0015801669,-0.015183159,0.005107512,0.0074046482,0.49979806,-1.3769954,1.8987454,-2.0914228,-1.5699977,2.4746058,-0.076622985,0.069656536,-0.087571435,0.0061754957,0.010730859,-0.0839942,-0.40222588,0.076614454,-9.576807,0.75755644,47.675243,-1.2361472,-2.4356494,-3.252973,-0.092285454,0.09255441,-0.44026846,25.5625,26.375,25.4375,27.75,28.5,28.875
0.13205253,-1.9141909,-1.2044961,-1.7788163,-0.029604996,0.09711701,-0.086036295,-0.3931619,-0.36795866,0.05991097,3.0781395,-0.6243981,0.0003924404,-0.05969181,0.00970671,0.0019549844,-0.015817866,0.006292861,0.00954183,0.49964195,-1.3768032,1.8985771,-2.091399,-1.5699619,2.474377,-0.07808257,0.0703066,-0.08910453,0.0057214494,0.010714531,-0.08759074,-0.45968673,0.21068975,-9.576807,0.842603,47.71823,-1.4589161,-2.356182,-3.3524625,-0.101927705,0.087869644,-0.4170659,25.5625,26.375,25.4375,27.75,28.5,28.875
0.13405195,-1.8861089,-0.7043261,-1.7681087,-0.02952372,0.10367078,-0.09395999,-0.39327595,-0.36793295,0.059903454,3.0780973,-0.62444186,0.00036248492,-0.060928505,0.009938195,0.0018090213,-0.016162338,0.006419209,0.015356422,0.49948576,-1.3766704,1.898445,-2.0914352,-1.5699495,2.4742534,-0.07974111,0.07196161,-0.090660125,0.005353689,0.010959807,-0.09506288,-0.49799395,0.038307227,-9.576807,0.7217513,47.66808,-1.3823977,-2.3004775,-3.3053586,-0.11900355,0.087966524,-0.37556303,25.5625,26.375,25.4375,27.75,28.5,28.875
0.13605206,-1.7972401,-0.5867638,-1.7006189,-0.01468896,0.09614218,-0.09379047,-0.39341336,-0.3679223,0.059926372,3.0780854,-0.62430394,0.0002904972,-0.06326518,0.010019916,0.003281611,-0.017445564,0.009506821,0.018997377,0.49934107,-1.3765264,1.8982166,-2.0914109,-1.5699495,2.4740243,-0.08178701,0.071981,-0.09405236,0.005408686,0.010610469,-0.100747384,-0.3256114,0.05746084,-9.576807,0.7732232,47.704796,-1.297872,-2.2901828,-3.3231187,-0.08364833,0.09709917,-0.28418282,25.5625,26.375,25.4375,27.75,28.5,28.875
0.13805212,-1.6993495,-0.65902483,-1.7285461,-0.009980901,0.09423946,-0.08635192,-0.3935726,-0.36791825,0.059970293,3.0780158,-0.6242099,0.00018743725,-0.06379123,0.011307816,0.0021997609,-0.0166543,0.007381816,0.02059622,0.49917266,-1.3763936,1.8979539,-2.091387,-1.5699257,2.4738061,-0.08461253,0.073476516,-0.09339528,0.0055070515,0.010950362,-0.10517102,-0.40222588,-0.038307227,-9.500193,0.83365434,47.685097,-1.3108463,-2.3082888,-3.3391619,-0.10228128,0.103190064,-0.255573,25.5625,26.375,25.4375,27.75,28.5,28.875
0.14005241,-1.9396658,-0.65565556,-1.7737037,-0.0041712695,0.082570486,-0.08122649,-0.39366993,-0.36789235,0.05993716,3.0780241,-0.62411267,0.0002545535,-0.06440191,0.010667747,0.0028521912,-0.017703073,0.008843981,0.024626624,0.49901718,-1.3762255,1.8978351,-2.0914109,-1.5698899,2.473589,-0.08421196,0.07358425,-0.09494121,0.005167161,0.011168598,-0.10880072,-0.53630114,-0.038307227,-9.481039,0.85826975,47.719128,-1.2336057,-2.218915,-3.4077024,-0.1042926,0.097927816,-0.20550586,25.5625,26.375,25.4375,27.75,28.5,28.875
0.14205259,-1.7147189,-0.3003783,-1.809617,-0.016554952,0.088501185,-0.08481346,-0.39380455,-0.36787066,0.05992958,3.0780263,-0.6240542,0.00026647645,-0.06560912,0.010704677,0.0028667997,-0.01744004,0.009365616,0.025258994,0.49884927,-1.3760326,1.8976182,-2.091387,-1.569878,2.4733844,-0.08505693,0.075387254,-0.097143516,0.005240471,0.010686866,-0.11027646,-0.5363012,0.019153614,-9.346964,0.83589023,47.74241,-1.3768711,-2.2674701,-3.1660857,-0.11156799,0.10037019,-0.16430482,25.5625,26.375,25.4375,27.75,28.5,28.875
0.14405194,-2.0733912,-0.5313718,-1.6958873,-0.006271522,0.08286743,-0.07926897,-0.3939477,-0.3678213,0.05994594,3.0779967,-0.62403274,0.00026420917,-0.068691626,0.012657129,0.0034316613,-0.018493855,0.010627573,0.018062206,0.4986195,-1.3759123,1.8974274,-2.0913389,-1.5698537,2.473145,-0.09133818,0.07577971,-0.098828785,0.004924254,0.011010275,-0.10936026,-0.53630114,-0.05746084,-9.404425,0.78217715,47.71554,-1.165613,-2.2674074,-3.281458,-0.102148205,0.10024558,-0.14946944,25.5625,26.375,25.4375,27.75,28.5,28.875
0.14605278,-1.7690744,-0.19284627,-1.8005846,-0.013329494,0.08512271,-0.083272316,-0.39408642,-0.3678234,0.059967704,3.0779424,-0.62394583,0.00016242586,-0.06882582,0.01270376,0.002607023,-0.017446723,0.009154689,0.014170894,0.4984879,-1.3757675,1.8972114,-2.0913627,-1.5698417,2.4729662,-0.09138147,0.07803518,-0.09974186,0.0053763837,0.010804295,-0.10551037,-0.47884035,-0.019153614,-9.404425,0.7933669,47.716442,-1.3063376,-2.2356515,-3.2859235,-0.10180138,0.09855522,-0.17308769,25.5625,26.375,25.4375,27.75,28.5,28.875
0.1480522,-1.9407797,-0.60441214,-1.5437471,-0.010737404,0.081179686,-0.08219645,-0.3942156,-0.36778113,0.05996157,3.077935,-0.6239287,0.00020147914,-0.07028451,0.013754297,0.002733886,-0.017173685,0.00896257,0.0065636695,0.49828327,-1.3756111,1.8970317,-2.091327,-1.5698179,2.4727519,-0.094361156,0.07887895,-0.10126552,0.0063567376,0.010654579,-0.10088222,-0.63206923,-0.038307227,-9.3661175,0.8291774,47.711063,-1.1677716,-2.3018708,-3.309527,-0.1167697,0.11951403,-0.22686279,25.5625,26.375,25.4375,27.75,28.5,28.875
0.15005262,-1.8083879,-0.67007303,-1.6213259,-0.0094258,0.0887709,-0.07612923,-0.39437518,-0.36776188,0.059970137,3.0778418,-0.6239308,0.00017900954,-0.07104754,0.014525045,0.0019436441,-0.016928105,0.00738619,0.0017105069,0.49806693,-1.375442,1.8968171,-2.0913508,-1.5697578,2.4725487,-0.09665469,0.08072404,-0.101689294,0.006441611,0.011199984,-0.098321885,-0.5554548,-0.038307227,-9.346964,0.7553206,47.703903,-1.0833195,-2.235358,-3.2926292,-0.10139009,0.12356424,-0.28165874,25.5625,26.375,25.4375,27.75,28.5,28.875
0.15205175,-1.869427,-0.4520036,-1.5938864,-0.014710912,0.083250545,-0.082808554,-0.39453685,-0.36771095,0.05998761,3.0778465,-0.6239318,7.216966e-05,-0.072942,0.015099527,0.0023579248,-0.017602757,0.008633956,-0.0011787302,0.4978624,-1.3752977,1.8966006,-2.0913274,-1.5698055,2.4723444,-0.09932026,0.081637055,-0.10363724,0.0060555334,0.011199333,-0.09809675,-0.38307226,0.038307227,-9.385271,0.8291774,47.72719,-1.0469856,-2.2562327,-3.3448443,-0.11791383,0.10795985,-0.31837833,25.5625,26.375,25.4375,27.75,28.5,28.875
0.15405178,-1.5375168,-0.69407356,-1.6749775,-0.018940326,0.090158015,-0.091580525,-0.39466548,-0.36769325,0.059965495,3.0778008,-0.6239215,0.00015970354,-0.07412985,0.01577952,0.0025257913,-0.017994618,0.00884418,-0.001983752,0.49767014,-1.3750935,1.8964084,-2.091327,-1.569734,2.4721515,-0.10166838,0.082098916,-0.104618095,0.006212578,0.011444406,-0.09963978,-0.40222588,0.095768064,-9.346964,0.7463667,47.713753,-0.9431863,-2.3038502,-3.3009472,-0.10204004,0.11423058,-0.3395158,25.5625,26.375,25.4375,27.75,28.5,28.875
0.15605195,-1.6691539,-0.85277635,-1.5248278,-0.029585537,0.08712322,-0.08743084,-0.39484337,-0.36762723,0.059985545,3.0777724,-0.6240507,7.012711e-05,-0.074959464,0.016366497,0.0016990468,-0.01765728,0.0066481163,-0.0037278112,0.49741793,-1.3749485,1.8961824,-2.0912907,-1.5697693,2.4719837,-0.103842005,0.08468724,-0.106029265,0.0071233865,0.0122037735,-0.10006854,-0.49799395,0.15322891,-9.32781,0.7866488,47.71465,-0.88023055,-2.2057142,-3.4180808,-0.095180385,0.13133667,-0.35805643,25.5625,26.375,25.4375,27.75,28.5,28.875
0.15805218,-1.9017601,-0.89741486,-1.5791212,-0.028550124,0.08613085,-0.08627133,-0.39496964,-0.36760837,0.059967373,3.0777228,-0.62398297,0.00012947677,-0.07594899,0.016680064,0.0022765696,-0.017666481,0.008130996,-0.004766834,0.49722597,-1.3747681,1.896015,-2.0913146,-1.5696977,2.4717557,-0.104805954,0.08450809,-0.10714245,0.007120067,0.011505838,-0.09999246,-0.4405331,0.1340753,-9.404425,0.8403672,47.690468,-0.87136436,-2.340855,-3.3537235,-0.13377331,0.13555017,-0.39502287,25.5625,26.375,25.4375,27.75,28.5,28.875
0.16005214,-1.3825692,-0.61758554,-1.4577069,-0.028330814,0.09913765,-0.08787377,-0.39512983,-0.36760724,0.060004655,3.0776646,-0.6239128,2.6762333e-05,-0.07709451,0.016796404,0.0030916908,-0.01864432,0.0096328305,-0.0053839856,0.49706984,-1.3746123,1.8957399,-2.0912907,-1.5696858,2.4715633,-0.10610368,0.084163725,-0.10859987,0.007138679,0.011658589,-0.10067156,-0.3256114,0.11492168,-9.346964,0.8247004,47.703903,-0.8960286,-2.144178,-3.433869,-0.116286926,0.12707862,-0.392771,25.5625,26.375,25.4375,27.75,28.5,28.875
0.1620526,-1.2680608,-0.2985637,-1.3396221,-0.032257818,0.10380806,-0.092199475,-0.39527172,-0.36754543,0.059974838,3.0776563,-0.62392867,0.00013517607,-0.07729785,0.01722245,0.0004886621,-0.016304139,0.0057600103,-0.004839602,0.49680611,-1.3744181,1.8955716,-2.0912669,-1.5696377,2.4713106,-0.106834196,0.08973891,-0.10922902,0.00672279,0.011445375,-0.101945765,-0.28730422,0.17238252,-9.346964,0.8493211,47.689575,-0.87626195,-2.3272557,-3.3111115,-0.113134824,0.13969962,-0.43588006,25.5625,26.375,25.4375,27.75,28.5,28.875
0.16405222,-1.5969286,-0.56508803,-1.1935742,-0.026746629,0.08702994,-0.08526315,-0.3954424,-0.36754057,0.06001279,3.077563,-0.62386715,1.4780402e-06,-0.07811962,0.016650252,0.0020472247,-0.018576518,0.0079173045,0.0013709147,0.49662656,-1.3742746,1.8953203,-2.0912907,-1.5696133,2.4711046,-0.107191965,0.0881644,-0.11099215,0.0070892535,0.012434121,-0.10851273,-0.34476504,0.17238252,-9.270349,0.7665104,47.687782,-0.9005524,-2.1903677,-3.4708643,-0.11647266,0.14741029,-0.3934427,25.5625,26.375,25.4375,27.75,28.5,28.875
0.1660524,-0.73199993,-0.52912587,-1.365352,-0.025553172,0.08992551,-0.09906377,-0.3956096,-0.3674863,0.0600087,3.0775473,-0.6238978,1.4613082e-05,-0.07850056,0.017085416,0.0008492311,-0.017258514,0.0059641786,0.0059357057,0.4963748,-1.3740814,1.8950919,-2.091255,-1.5696009,2.470874,-0.10808854,0.09103511,-0.11175298,0.007335905,0.012213164,-0.1139733,-0.17238252,0.17238252,-9.232041,0.8291774,47.713753,-0.98195946,-2.3267941,-3.3440647,-0.12011555,0.14724264,-0.3615373,25.5625,26.375,25.4375,27.75,28.5,28.875
0.16805258,-0.32333973,-0.5296356,-1.2892666,-0.027655974,0.074028276,-0.09243828,-0.39579743,-0.3674598,0.060029298,3.0775068,-0.6238275,-8.535883e-05,-0.080621205,0.017633898,0.0013413277,-0.01767258,0.00740186,0.0110406615,0.49615845,-1.3738889,1.8948163,-2.091255,-1.5696009,2.4706192,-0.110707425,0.09230774,-0.11437607,0.0072373752,0.011907027,-0.1216948,-0.15322891,0.19153613,-9.251195,0.85155696,47.664497,-1.0156391,-2.2697637,-3.457254,-0.11597966,0.16864924,-0.31132987,25.5625,26.375,25.4375,27.75,28.5,28.875
0.1700519,-1.0869569,-1.4316248,-1.3019086,-0.023354726,0.040348582,-0.08667504,-0.39591715,-0.3674059,0.059999872,3.0775313,-0.6238072,1.1912812e-05,-0.08096626,0.015723182,0.0024435963,-0.02012978,0.009304871,0.021337949,0.49594343,-1.3737086,1.8946608,-2.0912192,-1.5695766,2.4703884,-0.108555794,0.09257339,-0.117134474,0.0068973373,0.013159285,-0.12984073,-0.1340753,0.15322891,-9.251195,0.8179876,47.694946,-1.021242,-2.2153,-3.2797523,-0.12860766,0.17213175,-0.21737665,25.5625,26.375,25.4375,27.75,28.5,28.875
0.17205185,-0.40766457,-1.0161922,-1.5015851,-0.03409502,0.046252675,-0.08595645,-0.39609933,-0.36739153,0.060006272,3.0774992,-0.62368596,-3.4112996e-05,-0.08327326,0.01774912,0.0010919264,-0.018457586,0.0073971767,0.018366577,0.49573833,-1.3734789,1.8943733,-2.0912192,-1.5695533,2.4701118,-0.113669954,0.09649456,-0.118794374,0.0071198894,0.012606004,-0.13198131,-0.076614454,0.17238252,-9.193734,0.87617236,47.763012,-0.9964997,-2.390688,-3.3265786,-0.10797344,0.18092686,-0.13513714,25.5625,26.375,25.4375,27.75,28.5,28.875
0.17405213,-0.73001635,-1.2333848,-1.5408225,-0.029763313,0.037033387,-0.086207256,-0.39625815,-0.36733028,0.059997953,3.0774937,-0.623662,6.263334e-06,-0.08288176,0.016851284,0.001941133,-0.019490875,0.008162682,0.021847706,0.49547547,-1.3732991,1.8941702,-2.0911825,-1.5695289,2.4698348,-0.11209693,0.09544008,-0.1196585,0.007880615,0.013155082,-0.1338898,-0.038307227,0.21068975,-9.174581,0.76874626,47.674347,-1.0094972,-2.2798707,-3.3447554,-0.113789216,0.19531617,-0.098104276,25.5625,26.375,25.4375,27.75,28.5,28.875
0.17605254,-0.68705684,-1.7086191,-1.6699888,-0.03050182,0.04542408,-0.0898625,-0.3964307,-0.36730954,0.06000636,3.0774791,-0.62354624,-6.418131e-05,-0.08329405,0.017319478,-0.0003152902,-0.017290514,0.0043086032,0.016473474,0.49528345,-1.373093,1.893906,-2.0911825,-1.5695294,2.4695725,-0.11315151,0.100786515,-0.121006444,0.008316663,0.013055388,-0.12956806,0.0,0.19153613,-9.232041,0.8023209,47.65643,-1.0534661,-2.3749895,-3.214662,-0.13142392,0.2074115,-0.13797909,25.5625,26.375,25.4375,27.75,28.5,28.875
0.17805195,-1.0354633,-1.7750155,-1.5633165,-0.039375983,0.04182939,-0.07730692,-0.39658347,-0.3672705,0.059996348,3.0774508,-0.6235812,-1.2686655e-05,-0.08474297,0.016267791,0.002626292,-0.021155596,0.0089245625,0.011058769,0.49505582,-1.3728902,1.8936795,-2.0911467,-1.5694927,2.4693704,-0.11340046,0.09753397,-0.12389257,0.008554405,0.014253562,-0.12440243,-0.15322891,0.24899697,-9.212888,0.7642693,47.635834,-1.0186956,-2.2438614,-3.3688016,-0.1176728,0.22599909,-0.18467209,25.5625,26.375,25.4375,27.75,28.5,28.875
0.18005215,-0.5099092,-1.1763911,-1.6354904,-0.048246074,0.054368578,-0.080532275,-0.3967525,-0.36722767,0.06000052,3.0774105,-0.62357646,-3.0100635e-05,-0.08560858,0.017825805,0.0005739267,-0.018670572,0.0050921314,0.0033964585,0.4948151,-1.3727086,1.8934511,-2.0911343,-1.5694689,2.469132,-0.11652938,0.10184405,-0.12458608,0.009492816,0.013890905,-0.119867586,-0.05746084,0.30645782,-9.193734,0.74413085,47.63673,-0.8884438,-2.3974104,-3.3132315,-0.1516578,0.21784334,-0.24278551,25.5625,26.375,25.4375,27.75,28.5,28.875
0.18205221,-0.40945953,-1.5600542,-1.8573538,-0.034821082,0.051530194,-0.08910107,-0.39693174,-0.3671964,0.059984155,3.0773723,-0.6235866,-5.9371105e-06,-0.08554192,0.01613472,0.0011828179,-0.02026807,0.0059515415,0.002407015,0.49457663,-1.372456,1.8931879,-2.0911343,-1.5694321,2.4689047,-0.1141927,0.10252212,-0.1268047,0.00951854,0.014885122,-0.1165408,0.0,0.3256114,-9.308657,0.87393653,47.689575,-1.1673115,-2.3723557,-3.2274616,-0.14702739,0.23820168,-0.31327775,25.5625,26.375,25.4375,27.75,28.5,28.875
0.18405491,-0.68724597,-0.9338865,-1.5970691,-0.050685078,0.040491465,-0.08715398,-0.39711475,-0.36717623,0.059999686,3.077363,-0.62349004,-8.856282e-05,-0.08756992,0.016898055,0.00051491166,-0.020225177,0.004994764,-0.0023900939,0.49438378,-1.3722385,1.8928884,-2.0911105,-1.5694445,2.468653,-0.11752648,0.105955295,-0.12939641,0.009537754,0.015303703,-0.115075245,0.019153614,0.30645782,-9.289502,0.8605109,47.689575,-0.94727933,-2.4999075,-3.292763,-0.13697253,0.2341832,-0.36176598,25.5625,26.375,25.4375,27.75,28.5,28.875
0.1860523,-0.65859514,-1.1125716,-1.564406,-0.044382285,0.03989755,-0.08687494,-0.39729327,-0.3671403,0.05999777,3.0772736,-0.6234907,-4.468925e-05,-0.088185735,0.016241737,0.00092285936,-0.02139708,0.0054314453,-0.0029615809,0.49410856,-1.3720341,1.8926495,-2.0911105,-1.5693597,2.4683895,-0.11743875,0.106802866,-0.1314014,0.009765086,0.016131492,-0.11441492,0.0,0.3256114,-9.308657,0.8403672,47.71554,-1.1739041,-2.4628944,-3.156314,-0.15750335,0.23867476,-0.4020124,25.5625,26.375,25.4375,27.75,28.5,28.875
0.18805222,-0.5215174,-1.2342199,-1.7646145,-0.03765582,0.053452298,-0.086615175,-0.39744002,-0.367107,0.059979253,3.0772815,-0.6234737,2.2071848e-05,-0.08960035,0.016428126,0.0016983658,-0.022414546,0.006846001,-0.0059099896,0.4939045,-1.3718058,1.8924092,-2.0910628,-1.5693358,2.468174,-0.119125344,0.10687186,-0.13328925,0.009859627,0.01635039,-0.11315308,-0.076614454,0.3256114,-9.346964,0.80679786,47.690468,-1.1064728,-2.4535024,-3.1798599,-0.1632033,0.24347894,-0.4567442,25.5625,26.375,25.4375,27.75,28.5,28.875
0.19005232,-0.7659547,-1.0965574,-1.8327043,-0.05253244,0.06362207,-0.08019487,-0.39760417,-0.36707613,0.059988935,3.0772421,-0.62350297,2.0609186e-05,-0.08994504,0.016645374,0.001309669,-0.022596568,0.0057425858,-0.005980457,0.4936885,-1.3716131,1.892147,-2.0910146,-1.5693115,2.4679813,-0.12017773,0.10801062,-0.13385081,0.010173042,0.0170402,-0.11413455,-0.15322891,0.2681506,-9.346964,0.86498255,47.71286,-1.1232283,-2.3203318,-3.1516113,-0.14682369,0.24683611,-0.50154656,25.5625,26.375,25.4375,27.75,28.5,28.875
0.19205242,-1.1564204,-1.4688311,-1.7530488,-0.045120146,0.06507561,-0.0874207,-0.39783394,-0.3670334,0.06000545,3.0771737,-0.6235246,-6.7583554e-05,-0.09095945,0.016779967,0.0013564143,-0.022900501,0.005951937,-0.004169878,0.49340078,-1.3713728,1.8918232,-2.0910141,-1.5692996,2.467716,-0.12136552,0.10923972,-0.1354558,0.01023056,0.017223042,-0.117130816,-0.15322891,0.22984336,-9.404425,0.88960326,47.717335,-1.1659942,-2.4543328,-3.1961684,-0.16561723,0.2564181,-0.5103197,25.5625,26.375,25.4375,27.75,28.5,28.875
0.19405164,-1.5281397,-1.3580643,-1.8711178,-0.04875114,0.07200142,-0.08417813,-0.39795414,-0.3670051,0.059960235,3.0771518,-0.62353295,0.00013068329,-0.091550834,0.017082218,0.0012688367,-0.022638856,0.0057062213,0.00477477,0.49318495,-1.3711319,1.891631,-2.0909784,-1.5692037,2.467508,-0.12229661,0.11011132,-0.13642709,0.010700944,0.017112777,-0.12700759,-0.15322891,0.24899697,-9.404425,0.73741806,47.68062,-1.190175,-2.3999512,-3.2166867,-0.18288799,0.26116052,-0.45558733,25.5625,26.375,25.4375,27.75,28.5,28.875
0.19605188,-1.3078237,-0.92014253,-1.7919284,-0.053862624,0.08891254,-0.09161258,-0.39818203,-0.36698264,0.06000146,3.0770695,-0.6234341,-2.7674798e-05,-0.09228106,0.017429985,0.0016027085,-0.023682216,0.005802481,0.010949471,0.49293292,-1.370928,1.8912972,-2.0909898,-1.5691913,2.467205,-0.12402905,0.10993389,-0.13704324,0.010930766,0.018017692,-0.13491237,-0.19153613,0.19153613,-9.423578,0.7911258,47.7254,-1.1306245,-2.3005562,-3.2336392,-0.19056466,0.259856,-0.42213598,25.5625,26.375,25.4375,27.75,28.5,28.875
0.19805202,-1.5659871,-1.007102,-1.9373618,-0.029465826,0.080986716,-0.088219725,-0.3983544,-0.36694768,0.06000256,3.0770338,-0.6233828,3.480081e-05,-0.09381954,0.01753302,0.000602747,-0.023232684,0.0043951967,0.019241344,0.49268094,-1.3707101,1.8910216,-2.0909302,-1.5691313,2.4669256,-0.12571141,0.1143599,-0.14008859,0.011030197,0.018297506,-0.14488491,-0.17238253,0.22984336,-9.519346,0.8023209,47.68599,-1.1633382,-2.44595,-3.2752988,-0.22236642,0.27880186,-0.29248318,25.5625,26.375,25.4375,27.75,28.5,28.875
0.20005229,-1.8259013,-1.0195961,-2.029489,-0.009739228,0.074910015,-0.07580291,-0.39853626,-0.36691153,0.05997723,3.077042,-0.6232095,4.539075e-05,-0.094203815,0.018617943,0.0015173145,-0.024512775,0.005561336,0.022503352,0.49244055,-1.3704472,1.8907713,-2.090954,-1.5691069,2.466576,-0.12818108,0.11123357,-0.13843487,0.010885145,0.01889008,-0.1506177,-0.34476504,0.05746084,-9.481039,0.8090337,47.703903,-1.0812027,-2.2830322,-3.3081129,-0.21614884,0.2540843,-0.22089937,25.5625,26.375,25.4375,27.75,28.5,28.875
0.20205231,-1.6075348,-0.22170405,-1.8837657,-0.015906781,0.08404861,-0.07596842,-0.39873645,-0.36687326,0.059990853,3.0769665,-0.6232489,3.912995e-05,-0.09424731,0.018357245,-0.0005016322,-0.023516528,0.0023575206,0.024301717,0.49216548,-1.370229,1.8904723,-2.0909183,-1.5690588,2.4663353,-0.12811717,0.11601346,-0.1394668,0.01044457,0.01953632,-0.15235028,-0.47884035,-0.05746084,-9.500193,0.84708,47.696735,-1.1474135,-2.5062404,-3.3956575,-0.21329632,0.25442266,-0.1769537,25.5625,26.375,25.4375,27.75,28.5,28.875
0.20405172,-1.518879,-0.11893535,-1.827092,-0.0030792258,0.09443616,-0.08471862,-0.39891252,-0.36684695,0.059993185,3.076939,-0.6231105,8.415547e-05,-0.0950529,0.019106759,0.0001297562,-0.023758212,0.0037119384,0.02028608,0.491925,-1.3700016,1.8901852,-2.090871,-1.5689987,2.466012,-0.12977697,0.11479353,-0.13944858,0.01034975,0.019111246,-0.14999442,-0.45968673,-0.21068975,-9.519346,0.7463667,47.68062,-1.0581043,-2.3201287,-3.490764,-0.21533823,0.25010163,-0.15679118,25.5625,26.375,25.4375,27.75,28.5,28.875
0.20605187,-1.4681064,0.796746,-1.7832357,-0.007904108,0.09764116,-0.08313965,-0.39912954,-0.36681506,0.060004916,3.076865,-0.62311715,8.742587e-06,-0.09785385,0.01968328,0.000923697,-0.024876667,0.0057835625,0.012895308,0.49166068,-1.3697608,1.8898743,-2.090883,-1.5689749,2.4657614,-0.1332066,0.116221175,-0.14290306,0.010024103,0.01912131,-0.14603022,-0.47884035,-0.21068975,-9.500193,0.8247004,47.67614,-1.1163042,-2.3695161,-3.4046316,-0.22182688,0.26067144,-0.23638727,25.5625,26.375,25.4375,27.75,28.5,28.875
0.20805196,-1.6919774,0.2752107,-1.7384567,0.0016719084,0.10027402,-0.08451505,-0.3993027,-0.36678258,0.059970368,3.0768392,-0.6229984,0.00012417577,-0.09644819,0.01928152,5.4883498e-05,-0.024753798,0.0035358618,0.008663628,0.4913977,-1.3694842,1.889623,-2.0908825,-1.5688905,2.4654276,-0.13178653,0.116638646,-0.14150995,0.0102568455,0.020069784,-0.14037956,-0.45968673,-0.1340753,-9.519346,0.83365434,47.674347,-1.1604401,-2.3043075,-3.684732,-0.2166339,0.26945442,-0.28062314,25.5625,26.375,25.4375,27.75,28.5,28.875
0.21005245,-1.8223038,0.1855106,-1.7383562,0.003317416,0.09815635,-0.081211545,-0.39950156,-0.366709,0.059980556,3.076835,-0.6230356,7.1763534e-05,-0.097593956,0.019339997,-0.00032282472,-0.024971707,0.0026475452,0.0064443243,0.49110964,-1.3692913,1.8893589,-2.0908344,-1.5689143,2.4651635,-0.13323055,0.119224474,-0.14385605,0.010696531,0.020683162,-0.13960262,-0.57460845,-0.22984336,-9.442732,0.8023209,47.668976,-1.160718,-2.198233,-3.5264957,-0.22313848,0.2797895,-0.3306381,25.5625,26.375,25.4375,27.75,28.5,28.875
0.21205264,-1.4424623,-0.07916558,-2.0741603,0.01035997,0.10223618,-0.07932258,-0.3996984,-0.3666941,0.059996665,3.076756,-0.6229612,4.524675e-05,-0.099641465,0.018970273,0.0016368328,-0.02688104,0.007113309,0.0050075087,0.49087006,-1.3690634,1.889048,-2.090823,-1.5688542,2.4648876,-0.13412872,0.11806023,-0.14676972,0.009949899,0.020266302,-0.13906161,-0.59376204,-0.17238252,-9.442732,0.8806493,47.73525,-1.1880112,-2.2501924,-3.4689941,-0.22016083,0.2599886,-0.35975724,25.5625,26.375,25.4375,27.75,28.5,28.875
0.21405202,-1.7782973,-0.42028105,-2.011663,0.004607295,0.08417143,-0.07383604,-0.39990404,-0.36664033,0.05999899,3.0766854,-0.623005,7.8959405e-05,-0.100546315,0.020044792,-0.00032339437,-0.025151182,0.0033800532,0.0023915253,0.4905576,-1.3688335,1.8887604,-2.0907867,-1.5687941,2.4646115,-0.13681911,0.1227152,-0.14807154,0.010718761,0.02050718,-0.13913448,-0.4405331,-0.076614454,-9.519346,0.8247004,47.698532,-0.9007293,-2.3008602,-3.5409694,-0.24121374,0.2741019,-0.39200112,25.5625,26.375,25.4375,27.75,28.5,28.875
0.21605217,-1.5354575,-0.7769439,-1.9844007,-0.015374903,0.08904044,-0.078214556,-0.40008035,-0.36658728,0.059973016,3.0767248,-0.62297225,0.00010968125,-0.10230221,0.020755254,0.0011946816,-0.026307633,0.0060132165,0.002431449,0.49031755,-1.3685701,1.8884968,-2.0907505,-1.5688065,2.4643462,-0.13939059,0.121094696,-0.14970541,0.011114722,0.020287195,-0.14174637,-0.51714754,0.095768064,-9.500193,0.79560274,47.67793,-1.1669756,-2.2046115,-3.4442508,-0.23579928,0.28403223,-0.39649892,25.5625,26.375,25.4375,27.75,28.5,28.875
0.21805242,-1.8129846,-1.1551819,-2.02063,-0.0326323,0.088656686,-0.07753569,-0.40031555,-0.36653545,0.059980184,3.076611,-0.62303984,7.0673e-05,-0.1025314,0.020763146,0.0006589865,-0.025010947,0.0055034007,0.0096597755,0.4899823,-1.3683289,1.8881983,-2.0907743,-1.5687469,2.4640677,-0.13898224,0.122957855,-0.15081638,0.011454704,0.019409496,-0.14856423,-0.63206923,0.15322891,-9.461885,0.8403672,47.698532,-1.0901291,-2.2344363,-3.4397779,-0.24901411,0.29854023,-0.35166377,25.5625,26.375,25.4375,27.75,28.5,28.875
0.22005254,-2.0575593,-1.7242801,-2.0169961,-0.04143851,0.10465452,-0.083021164,-0.40051672,-0.36649224,0.059989046,3.076589,-0.6229706,9.3028175e-05,-0.10318064,0.020586135,0.0006181327,-0.02524312,0.004697232,0.018662425,0.48970672,-1.3680882,1.8878745,-2.0907023,-1.5687107,2.4637518,-0.13956799,0.12464061,-0.15301938,0.012605115,0.020012848,-0.15815145,-0.57460845,0.22984336,-9.481039,0.8224646,47.691364,-1.0895411,-2.2842789,-3.48513,-0.2785375,0.30068764,-0.26566607,25.5625,26.375,25.4375,27.75,28.5,28.875
0.22205177,-1.8753201,-1.6889015,-1.9557152,-0.056745578,0.12005507,-0.08284719,-0.40072942,-0.3664566,0.060007263,3.076523,-0.6228751,8.338467e-05,-0.104661494,0.020663206,0.0011890258,-0.026209448,0.0055056238,0.026750816,0.48941857,-1.3678597,1.8875521,-2.090666,-1.5686501,2.4634125,-0.14125408,0.12556128,-0.15554476,0.013075965,0.020511009,-0.16792376,-0.4405331,0.34476504,-9.576807,0.9634547,47.70659,-1.08553,-2.0393462,-3.4473147,-0.2904157,0.30680037,-0.14407468,25.5625,26.375,25.4375,27.75,28.5,28.875
0.22405197,-2.2206187,-2.1113727,-1.8955728,-0.059393004,0.108503595,-0.07514453,-0.400944,-0.36643192,0.060026333,3.0764763,-0.62268984,4.4172102e-05,-0.10619493,0.019924313,0.00084836385,-0.026261179,0.005379723,0.030573025,0.48915523,-1.3676181,1.887215,-2.0906417,-1.5686024,2.4630396,-0.14138858,0.12968588,-0.15976974,0.013284671,0.020630304,-0.17187686,-0.36391866,0.30645782,-9.442732,0.8090337,47.739727,-1.170867,-2.228265,-3.3373497,-0.2839389,0.29550508,-0.084038794,25.5625,26.375,25.4375,27.75,28.5,28.875
0.22605257,-1.8039191,-1.7111046,-1.8252392,-0.06958479,0.10203085,-0.07816778,-0.4011674,-0.36637726,0.06001166,3.076475,-0.6226522,5.8089387e-05,-0.107172295,0.020177918,0.0006869511,-0.026572313,0.0057643414,0.026020624,0.4888556,-1.3673173,1.8868812,-2.090607,-1.56859,2.4627168,-0.1426616,0.13086578,-0.16067638,0.012526793,0.020719776,-0.168597,-0.36391866,0.4405331,-9.3661175,0.8784135,47.698532,-1.1406028,-2.1855693,-3.3385973,-0.3008176,0.3185564,-0.07509388,25.5625,26.375,25.4375,27.75,28.5,28.875
0.22805166,-0.491993,-1.5109515,-1.7187759,-0.07165483,0.107119404,-0.085480385,-0.40139952,-0.36634138,0.06002959,3.0764172,-0.62254673,-5.945102e-05,-0.10805977,0.019719176,-6.2633175e-05,-0.027047284,0.0050954293,0.019775206,0.4885801,-1.3670762,1.8865579,-2.0906312,-1.5685781,2.462383,-0.14305983,0.13405894,-0.1626119,0.01162941,0.021458918,-0.16274613,-0.3256114,0.49799395,-9.404425,0.8224646,47.71017,-1.210196,-2.3523045,-3.2385836,-0.3071059,0.33397657,-0.10696477,25.5625,26.375,25.4375,27.75,28.5,28.875
0.23005173,-0.8001909,-1.2891855,-1.6320841,-0.075504154,0.07423737,-0.07836737,-0.401652,-0.36630523,0.06007674,3.0762932,-0.62250596,-0.00015827523,-0.10943475,0.019605039,0.0009158351,-0.0285647,0.0073596328,0.010701008,0.48825654,-1.36686,1.8861874,-2.0906074,-1.568518,2.46205,-0.14417621,0.13374054,-0.16431667,0.010939317,0.021742811,-0.15478483,-0.17238252,0.38307226,-9.3661175,0.8537928,47.698532,-1.2120734,-2.2393816,-3.2442403,-0.30672228,0.3481297,-0.19451973,25.5625,26.375,25.4375,27.75,28.5,28.875
0.23205173,-0.81746304,-1.8602527,-1.4604331,-0.057713356,0.056841783,-0.068706535,-0.4018682,-0.36624125,0.060051598,3.0762777,-0.6225826,-0.00015912297,-0.11200047,0.019973405,0.0007360107,-0.028787505,0.008876177,0.0023675708,0.48795623,-1.3665704,1.8858985,-2.090608,-1.5685185,2.4617996,-0.14667909,0.13693222,-0.1674075,0.00939005,0.02121278,-0.14895281,-0.076614454,0.38307226,-9.270349,0.8537928,47.73256,-1.3046342,-2.5233095,-3.2317352,-0.29975984,0.3502586,-0.27688956,25.5625,26.375,25.4375,27.75,28.5,28.875
0.23405208,-0.6902648,-1.7465167,-1.361602,-0.05215905,0.048017826,-0.07668212,-0.4021126,-0.3662054,0.060049605,3.0762134,-0.6225481,-0.00011342065,-0.111365266,0.019696508,-6.21871e-05,-0.02870683,0.0074619935,0.0010752348,0.48763305,-1.3662461,1.8855046,-2.0905597,-1.568446,2.4614632,-0.14591868,0.13798183,-0.16681066,0.00904164,0.021810573,-0.14689948,-0.095768064,0.40222588,-9.308657,0.8314132,47.703903,-1.2398758,-2.3009305,-3.219111,-0.27850226,0.33399242,-0.3553242,25.5625,26.375,25.4375,27.75,28.5,28.875
0.23605217,0.013802953,-0.96184236,-1.2087972,-0.055574875,0.061967198,-0.07642743,-0.40230307,-0.36616653,0.06003376,3.0761611,-0.622543,-9.2700684e-05,-0.1131378,0.02073925,0.0004883759,-0.030046714,0.008035169,-0.007536665,0.48736796,-1.3659939,1.8852419,-2.0905716,-1.5683974,2.4612017,-0.14972997,0.13789135,-0.16801876,0.009204758,0.022722777,-0.14209755,-0.019153614,0.4405331,-9.11712,0.8605109,47.709274,-0.96646595,-2.2468853,-3.1907048,-0.28171608,0.34964573,-0.44286045,25.5625,26.375,25.4375,27.75,28.5,28.875
0.23805238,-0.07851165,-0.7901238,-1.1697016,-0.048559215,0.052734524,-0.084177874,-0.40258223,-0.36615425,0.06008544,3.07601,-0.62252915,-0.00026129218,-0.113938324,0.020959307,-0.00023444806,-0.030210817,0.0067905392,-0.008405315,0.4870686,-1.3657286,1.8848103,-2.0905836,-1.5683492,2.4609132,-0.15117088,0.14029069,-0.16924442,0.009066528,0.023480179,-0.14266454,0.095768064,0.36391866,-9.174581,0.8112748,47.703007,-1.1283466,-2.356812,-3.3103728,-0.29173255,0.33713147,-0.49770492,25.5625,26.375,25.4375,27.75,28.5,28.875
0.24005179,0.27767503,-0.6806632,-1.0826703,-0.043396883,0.052499164,-0.089097984,-0.40281236,-0.36609477,0.06006549,3.076003,-0.6225226,-0.0002472752,-0.114906006,0.021930272,-0.00044796398,-0.030403215,0.0062225466,-0.003386123,0.48675647,-1.3654162,1.8844765,-2.0905597,-1.5683373,2.460598,-0.15384719,0.14092298,-0.16959132,0.009219065,0.023938099,-0.1503597,0.05746084,0.2681506,-9.11712,0.8157518,47.677036,-0.97942245,-2.2630491,-3.3170247,-0.2818272,0.3512927,-0.48870802,25.5625,26.375,25.4375,27.75,28.5,28.875
0.24205172,-0.36039343,-0.6773205,-0.88271207,-0.035755016,0.03991571,-0.08185532,-0.40302125,-0.36605066,0.060062278,3.075926,-0.62249863,-0.00019320389,-0.1155841,0.022165945,-0.00068121584,-0.030084189,0.0058069034,0.0075442945,0.48644495,-1.3651638,1.8841766,-2.0905359,-1.5682534,2.4602814,-0.15472333,0.14236045,-0.17091647,0.009672979,0.023884056,-0.16216524,0.076614454,0.17238252,-9.040505,0.90527004,47.685097,-1.1051068,-2.240174,-3.3332293,-0.2933023,0.3572775,-0.4095096,25.5625,26.375,25.4375,27.75,28.5,28.875
0.24405184,-0.2889492,-0.1542528,-0.82752514,-0.021594672,0.04254024,-0.082732394,-0.40325516,-0.3660333,0.060073633,3.0758462,-0.6224728,-0.00020269888,-0.11503991,0.020614194,-0.00029468467,-0.0314657,0.006561656,0.02169847,0.48617035,-1.3648633,1.8837832,-2.0905,-1.5681928,2.460001,-0.15210545,0.14247227,-0.17186356,0.009237944,0.024790147,-0.17369927,0.13407528,0.11492168,-8.90643,0.8090337,47.733456,-1.1896771,-2.279582,-3.4271622,-0.2818035,0.34564304,-0.3018157,25.5625,26.375,25.4375,27.75,28.5,28.875
0.24605209,-0.008606318,0.39741015,-0.64602506,-0.0035102086,0.04447263,-0.09812143,-0.40350354,-0.36598656,0.06008853,3.0757456,-0.6223537,-0.00028712192,-0.11648625,0.020848881,-0.00045468367,-0.03295121,0.0060190004,0.02542812,0.4858341,-1.364622,1.8834718,-2.0905483,-1.5681323,2.4596033,-0.15466718,0.14437401,-0.17375909,0.009047381,0.02639483,-0.17998545,0.19153613,-0.038307227,-9.002198,0.7911258,47.73883,-1.0380002,-2.3682313,-3.3294072,-0.27110702,0.3369999,-0.20052989,25.5625,26.375,25.4375,27.75,28.5,28.875
0.24805212,0.10299672,0.6766449,-0.66562474,-0.0020703177,0.043017644,-0.09139251,-0.4037439,-0.36594552,0.06008839,3.075709,-0.6222681,-0.00026903846,-0.11717884,0.02102104,0.0005496131,-0.034561235,0.0069745127,0.025901072,0.48552227,-1.3643105,1.8830885,-2.0905,-1.5680841,2.4592428,-0.15607928,0.1430069,-0.17457625,0.009653564,0.027387688,-0.18186906,0.095768064,0.0,-8.829816,0.800085,47.705692,-1.1734908,-2.1026907,-3.4023843,-0.26985908,0.3113119,-0.14557499,25.5625,26.375,25.4375,27.75,28.5,28.875
0.2500523,-0.014900285,0.6271004,-0.98596865,0.010904125,0.040778104,-0.07727342,-0.40396032,-0.36589867,0.06007622,3.0756967,-0.6221908,-0.0002042975,-0.11822845,0.021693243,0.00044330352,-0.034001574,0.006829809,0.020387843,0.4852224,-1.3640097,1.8827423,-2.0904396,-1.5680364,2.4588964,-0.15777707,0.14422013,-0.17595625,0.0102176275,0.02695323,-0.17805387,0.019153614,0.0,-8.963891,0.8247004,47.72719,-1.0986946,-2.0450644,-3.3616505,-0.26731408,0.3337656,-0.18604451,25.5625,26.375,25.4375,27.75,28.5,28.875
0.2520524,0.054908544,1.1814816,-1.1440215,0.0023532638,0.036994353,-0.089507386,-0.40421176,-0.36586022,0.060083624,3.075606,-0.6221373,-0.00024620883,-0.12014794,0.0224828,0.0010360572,-0.033974793,0.0077941446,0.010511082,0.48489812,-1.3637211,1.8823828,-2.0904515,-1.5679764,2.4585505,-0.1604027,0.14514007,-0.17865159,0.011153596,0.026480297,-0.17080002,0.05746084,-0.076614454,-9.078813,0.8940802,47.733456,-1.0887318,-2.065024,-3.2410765,-0.26509285,0.33245933,-0.2733384,25.5625,26.375,25.4375,27.75,28.5,28.875
0.25405177,-0.5802775,-0.28211766,-1.4669349,0.006221448,0.03574798,-0.07930497,-0.40442112,-0.36578384,0.060035337,3.07562,-0.62215936,-0.00012239518,-0.12125351,0.022510428,0.0011072252,-0.034230717,0.006902339,0.00692371,0.48456252,-1.363396,1.8820947,-2.0904152,-1.5679401,2.458227,-0.16172262,0.14716503,-0.18166125,0.012814703,0.027109146,-0.16853268,-0.038307227,0.019153614,-9.251195,0.80456203,47.70211,-1.0047562,-2.0631623,-3.3032064,-0.2967091,0.32725835,-0.33168662,25.5625,26.375,25.4375,27.75,28.5,28.875
0.25605193,-1.0882063,-0.8640618,-1.4949371,-0.021702984,0.053576734,-0.07615384,-0.40467948,-0.36575195,0.060070977,3.0755324,-0.6220647,-0.00020252226,-0.12244618,0.022234708,0.001560842,-0.035532497,0.006646324,0.004754371,0.48425055,-1.3631313,1.8816885,-2.0903785,-1.5678915,2.4578671,-0.16299926,0.14861229,-0.18474048,0.014076684,0.02839892,-0.1676347,-0.21068975,0.019153614,-9.346964,0.7642693,47.703903,-1.0331043,-2.0612428,-3.2369244,-0.32185733,0.31298685,-0.38703942,25.5625,26.375,25.4375,27.75,28.5,28.875
0.2580524,-1.2527745,-0.76456296,-1.7900003,-0.041567437,0.08225078,-0.09323808,-0.40490457,-0.365723,0.060062893,3.0754924,-0.6220172,-8.847661e-05,-0.121911906,0.022364344,0.00045895902,-0.034739967,0.0031849279,0.0044602463,0.48395145,-1.3627944,1.8812813,-2.0902822,-1.5678076,2.4575436,-0.16320552,0.1507635,-0.18528344,0.015920116,0.029313099,-0.16754639,-0.34476504,0.076614454,-9.461885,0.91198283,47.705692,-1.1005818,-2.1224833,-3.3935347,-0.35737,0.30255455,-0.38439843,25.5625,26.375,25.4375,27.75,28.5,28.875
0.2600526,-1.6200578,-1.3182132,-2.0383642,-0.049867127,0.11566077,-0.091022596,-0.40512592,-0.36566195,0.060037933,3.075464,-0.62196654,-1.1214226e-05,-0.12108257,0.022225982,-0.0014334302,-0.033428792,-0.00080657343,0.011570854,0.48361653,-1.3624926,1.8809708,-2.0902584,-1.567747,2.4571807,-0.16258395,0.15425366,-0.18540134,0.016728122,0.030029535,-0.1740348,-0.36391866,0.076614454,-9.730036,0.8314132,47.681515,-1.151484,-2.2081733,-3.406918,-0.36737213,0.28722292,-0.34965736,25.5625,26.375,25.4375,27.75,28.5,28.875
0.26205164,-2.6461902,-1.55122,-1.8966495,-0.0661973,0.11858047,-0.09144168,-0.40535578,-0.36561182,0.0600409,3.0754035,-0.6219483,1.8764078e-05,-0.12203526,0.021999167,6.0663908e-05,-0.036511652,0.00067675527,0.019699605,0.48329225,-1.3622173,1.8806232,-2.0902102,-1.567686,2.456853,-0.16421267,0.15248328,-0.18680629,0.017200053,0.032101106,-0.18378948,-0.49799395,0.2681506,-9.825804,0.9030289,47.71017,-1.0588034,-2.114217,-3.4335394,-0.3817035,0.26301333,-0.28282964,25.5625,26.375,25.4375,27.75,28.5,28.875
0.26405212,-2.6469014,-2.0343144,-2.1937444,-0.06281923,0.12883869,-0.08594397,-0.4055973,-0.36556947,0.060032547,3.0753582,-0.62181664,9.075763e-05,-0.12240255,0.022057045,-0.0010376838,-0.035869293,-0.0012210757,0.029284026,0.48295686,-1.361892,1.8802413,-2.0901616,-1.567602,2.4564412,-0.16473693,0.1555144,-0.18805163,0.01745012,0.03244377,-0.19389687,-0.59376204,0.30645782,-9.787497,0.8179876,47.704796,-1.2425333,-2.212584,-3.3738823,-0.39626658,0.23412816,-0.15907612,25.5625,26.375,25.4375,27.75,28.5,28.875
0.26605228,-2.3425422,-1.7088842,-2.2181897,-0.06835197,0.13354746,-0.09671342,-0.40582827,-0.3655357,0.06003784,3.0753007,-0.6216668,0.0001317879,-0.12321703,0.02247251,-0.002388922,-0.034594115,-0.0021781034,0.032459877,0.48264557,-1.3616023,1.8798712,-2.0901144,-1.5675186,2.4560437,-0.1656379,0.15891631,-0.18885548,0.016333597,0.03177547,-0.19797263,-0.68953013,0.3256114,-9.902418,0.8851263,47.70032,-1.273802,-2.3290458,-3.4544659,-0.41943735,0.22301008,-0.07961403,25.5625,26.375,25.4375,27.75,28.5,28.875
0.26805267,-2.0590615,-1.8580257,-2.267939,-0.064294904,0.1275368,-0.08249679,-0.40609515,-0.3654887,0.060036954,3.0752473,-0.6216378,0.00010847826,-0.12476254,0.02255433,-0.002573314,-0.03472345,-0.001261546,0.028682392,0.48231,-1.3612652,1.8794636,-2.090091,-1.5674828,2.455697,-0.16683058,0.16119398,-0.1909905,0.015329501,0.0314653,-0.19538562,-0.6703765,0.40222588,-9.998186,0.87617236,47.72271,-1.408884,-2.4139452,-3.494174,-0.42155778,0.23412323,-0.0774373,25.5625,26.375,25.4375,27.75,28.5,28.875
0.27005216,-1.9632685,-1.7343364,-2.082384,-0.069888316,0.112333044,-0.08980756,-0.40630597,-0.36542404,0.059988316,3.075262,-0.6215654,0.00022902501,-0.12503739,0.022567697,-0.003756132,-0.03478734,-0.001990181,0.022376355,0.48198655,-1.3609284,1.8791646,-2.090068,-1.5674342,2.4553266,-0.16722487,0.16341832,-0.190566,0.013295504,0.031833984,-0.18947515,-0.59376204,0.3256114,-9.902418,0.82694155,47.709274,-1.3345544,-2.3244457,-3.5574174,-0.39380467,0.22268373,-0.14199874,25.5625,26.375,25.4375,27.75,28.5,28.875
0.272052,-2.1277912,-1.6380655,-2.1550238,-0.05543844,0.08907252,-0.08178949,-0.406628,-0.3653957,0.060055718,3.0751092,-0.6215191,4.1722495e-05,-0.12724134,0.022187013,-0.0015694035,-0.038168527,0.0023417661,0.012846856,0.48162657,-1.360641,1.8786615,-2.0900443,-1.567386,2.4549575,-0.16899806,0.16175042,-0.19333215,0.012315114,0.032836113,-0.18171087,-0.5363012,0.36391866,-9.825804,0.80679786,47.72002,-1.2196348,-2.3627787,-3.4943194,-0.39167887,0.19928208,-0.25257602,25.5625,26.375,25.4375,27.75,28.5,28.875
0.27405176,-1.5133116,-1.2371389,-1.7230643,-0.051448293,0.086202085,-0.09070747,-0.4068682,-0.36535633,0.060032006,3.075021,-0.62150514,0.00010762872,-0.12845485,0.021687686,-0.0016645191,-0.039217323,0.0031112833,0.0049249805,0.48129112,-1.3603046,1.8783144,-2.0900562,-1.5672902,2.4546247,-0.16945826,0.1638998,-0.1954776,0.01114426,0.03339251,-0.17424668,-0.51714754,0.3256114,-9.710882,0.8717007,47.71286,-1.3426597,-2.4683733,-3.5030951,-0.35859266,0.1643149,-0.34770936,25.5625,26.375,25.4375,27.75,28.5,28.875
0.27605185,-0.8572657,-0.92984337,-1.4599408,-0.052024893,0.09987524,-0.09953666,-0.4071301,-0.3652988,0.0600146,3.0749903,-0.6214422,0.00011501159,-0.12860055,0.021827186,-0.00285587,-0.038652536,0.0017756239,0.00029107637,0.480943,-1.3599561,1.8779329,-2.0900452,-1.567254,2.4542413,-0.16977148,0.16627002,-0.19546297,0.010207351,0.033506766,-0.16992483,-0.49799395,0.28730422,-9.634268,0.9254084,47.67345,-1.4810579,-2.3286562,-3.6211584,-0.34274358,0.15573701,-0.42433488,25.5625,26.375,25.4375,27.75,28.5,28.875
0.27805197,-1.1260531,-0.90500766,-1.4021266,-0.041357864,0.09492269,-0.09366496,-0.40741006,-0.36527088,0.060050815,3.0748506,-0.62143266,2.6514743e-05,-0.13035879,0.021875793,-0.0023823848,-0.03984754,0.0027640988,-0.0007048624,0.48060662,-1.3596678,1.8775018,-2.0900328,-1.5671815,2.453917,-0.17165028,0.16767906,-0.1982635,0.010194396,0.03413437,-0.17080143,-0.24899697,0.19153613,-9.442732,0.9231726,47.667187,-1.4261699,-2.4742723,-3.552218,-0.35656676,0.15247738,-0.48968393,25.5625,26.375,25.4375,27.75,28.5,28.875
0.2800522,-0.94229263,-0.25092646,-1.3065643,-0.039045285,0.08025353,-0.09730913,-0.40766504,-0.36522752,0.06004778,3.0747848,-0.6214128,1.2119485e-05,-0.13278306,0.022212988,-0.00067344424,-0.04181703,0.0061975294,0.0069794958,0.48028165,-1.3593446,1.877118,-2.0900214,-1.5671338,2.4535882,-0.1743381,0.16689289,-0.20119748,0.0100156935,0.034333184,-0.181171,-0.095768064,0.038307227,-9.308657,0.8023209,47.64837,-1.4532675,-2.3056931,-3.5425253,-0.34286934,0.1211739,-0.44952738,25.5625,26.375,25.4375,27.75,28.5,28.875
0.28205216,-0.5727839,-0.20935859,-1.2205424,-0.015467679,0.060582004,-0.103390224,-0.40796545,-0.36518973,0.060068898,3.0746472,-0.62137777,-2.4004443e-05,-0.13440469,0.02255061,-0.00025485567,-0.04195297,0.0075641335,0.018914904,0.47989714,-1.3590084,1.8766636,-2.090009,-1.5670379,2.4531996,-0.17590445,0.1680367,-0.20357826,0.010060116,0.033887062,-0.1946692,0.038307227,0.076614454,-9.289502,0.9455522,47.707485,-1.3236682,-2.2373002,-3.432899,-0.3314771,0.11379882,-0.35167432,25.5625,26.375,25.4375,27.75,28.5,28.875
0.2840523,-0.74783635,-0.20560198,-1.0641246,-0.004057957,0.032630354,-0.09393168,-0.40824637,-0.36513123,0.060071982,3.074582,-0.6212827,-6.6625216e-05,-0.13675717,0.022332229,0.0017822827,-0.043532215,0.011747426,0.02695494,0.47952482,-1.3586849,1.8762678,-2.0900085,-1.5669903,2.4527764,-0.17716429,0.16741377,-0.20753823,0.0102616865,0.033402335,-0.20396644,-0.05746084,-0.019153614,-9.193734,0.86945957,47.698532,-1.2657384,-2.1524403,-3.3288832,-0.3243035,0.093044445,-0.21654306,25.5625,26.375,25.4375,27.75,28.5,28.875
0.28605247,0.029218977,0.77725047,-1.2563684,-0.00050641753,0.044709075,-0.1029306,-0.4084865,-0.36509892,0.0600677,3.0744944,-0.6211309,7.156833e-06,-0.13847908,0.022894712,0.0017958933,-0.044133306,0.012113202,0.02736221,0.4791878,-1.3583724,1.8758968,-2.0899851,-1.5668701,2.4523559,-0.17972033,0.16909021,-0.20958616,0.010077369,0.03378874,-0.20692721,-0.095768064,0.11492168,-9.251195,0.86945957,47.719128,-1.1556357,-2.2765126,-3.3242645,-0.2873776,0.08348571,-0.15163589,25.5625,26.375,25.4375,27.75,28.5,28.875
0.28805256,-0.0087491125,0.26494023,-1.2870913,0.004044484,0.05042899,-0.103541665,-0.4087881,-0.36504933,0.060065344,3.0744574,-0.62106836,-2.8511064e-05,-0.13936535,0.023704402,0.0015797787,-0.043539517,0.011349649,0.020927344,0.4788273,-1.3579763,1.8754176,-2.089949,-1.5668463,2.4519613,-0.1815984,0.17028263,-0.21081698,0.0110670775,0.03361955,-0.2023687,-0.095768064,0.095768064,-9.289502,0.83589023,47.72629,-1.217302,-2.2102022,-3.3183856,-0.2885874,0.07081008,-0.17346808,25.5625,26.375,25.4375,27.75,28.5,28.875
0.29005197,-0.7435579,-0.22740595,-1.0442948,-0.009677327,0.048841547,-0.09361773,-0.40907106,-0.36499584,0.060066894,3.0743742,-0.6210176,-5.756867e-05,-0.14024612,0.024571426,0.0022047532,-0.042937133,0.011383456,0.012769811,0.4784548,-1.3576411,1.8750108,-2.089948,-1.5667862,2.451568,-0.18334003,0.17002138,-0.21245994,0.013219938,0.03307533,-0.19595113,-0.28730422,0.076614454,-9.2703495,0.85826975,47.72719,-1.2255476,-1.9877052,-3.3207617,-0.2969748,0.07250387,-0.25672367,25.5625,26.375,25.4375,27.75,28.5,28.875
0.29205206,-1.0593264,-0.75978917,-1.4999641,-0.025485387,0.064594775,-0.097070664,-0.40936702,-0.3649504,0.060113538,3.074247,-0.62097335,-0.00010896867,-0.14179528,0.025566522,0.002523793,-0.04246055,0.011365702,0.0062362393,0.47807017,-1.3573529,1.8745421,-2.0898755,-1.5667022,2.451172,-0.18595785,0.17103449,-0.21480073,0.0147974845,0.03267836,-0.19203186,-0.24899697,0.13407528,-9.308657,0.8537928,47.68599,-1.1615077,-2.028606,-3.224041,-0.30655628,0.06267296,-0.3279824,25.5625,26.375,25.4375,27.75,28.5,28.875
0.2940524,-1.6692411,-1.2098416,-1.5062827,-0.034828816,0.078553654,-0.09231293,-0.4096327,-0.3648822,0.060093246,3.0741467,-0.62106854,-5.4945565e-05,-0.14100076,0.026212897,0.0015089004,-0.04030997,0.008765252,0.005365791,0.47767422,-1.357017,1.874184,-2.089875,-1.5666183,2.4508486,-0.18578395,0.17211913,-0.2142462,0.016483715,0.031981435,-0.19098847,-0.17238252,0.19153613,-9.442732,0.85826975,47.690468,-1.197481,-1.9867141,-3.322491,-0.32847005,0.05199487,-0.39362073,25.5625,26.375,25.4375,27.75,28.5,28.875
0.29605243,-1.7138776,-0.9909908,-1.3813767,-0.041057475,0.09963834,-0.09589301,-0.40990672,-0.36483347,0.060088236,3.0741196,-0.6209861,-2.171847e-05,-0.14163376,0.026989406,7.9367914e-05,-0.037952486,0.0066745407,0.0051751607,0.47732604,-1.3566437,1.8737296,-2.089803,-1.5665711,2.4504526,-0.1868122,0.17573737,-0.21558344,0.017170658,0.030860258,-0.19182716,-0.3256114,0.15322891,-9.481039,0.90527004,47.693153,-1.072109,-2.1407347,-3.4313738,-0.33123553,0.05436051,-0.41779482,25.5625,26.375,25.4375,27.75,28.5,28.875
0.2980517,-1.8763013,-1.1216831,-1.4378581,-0.03928493,0.10764083,-0.098503076,-0.41016737,-0.36477464,0.060071085,3.0741072,-0.62084407,4.873726e-05,-0.1434014,0.027648643,-0.00072550867,-0.036924694,0.0060626124,0.012147221,0.4769651,-1.3562827,1.8733205,-2.0897434,-1.566511,2.4500046,-0.1889481,0.17947048,-0.21833952,0.017272705,0.030259142,-0.20093538,-0.24899697,0.21068975,-9.404425,0.8985519,47.670765,-1.1144364,-2.1471567,-3.380356,-0.3354895,0.05659241,-0.36154443,25.5625,26.375,25.4375,27.75,28.5,28.875
0.30005187,-1.3111199,-0.5537657,-1.4713151,-0.039744772,0.11628707,-0.11434571,-0.41045642,-0.36474368,0.06008203,3.073995,-0.6207187,2.3483943e-05,-0.14446674,0.028031738,-0.00032271413,-0.036484364,0.0077396836,0.023057478,0.47660473,-1.3559353,1.8728775,-2.0897434,-1.5664157,2.4495804,-0.18969508,0.1797655,-0.21961172,0.017046556,0.029162673,-0.2125919,-0.30645782,0.22984336,-9.461885,0.84484416,47.666286,-1.0746837,-2.079669,-3.387149,-0.3302189,0.08263623,-0.24606876,25.5625,26.375,25.4375,27.75,28.5,28.875
0.3020518,-1.6667137,-0.72577757,-1.4553643,-0.020379432,0.09288837,-0.10806865,-0.41074702,-0.36466882,0.06008196,3.0739763,-0.6206529,-9.516516e-06,-0.14417906,0.028456038,-0.0017985085,-0.03469665,0.0063657993,0.029904308,0.47622097,-1.3555868,1.8724469,-2.0896957,-1.5664037,2.4491582,-0.18945023,0.18191487,-0.21869722,0.016069164,0.02824281,-0.219195,-0.4213795,0.19153613,-9.481039,0.92093146,47.728977,-1.2300053,-2.172527,-3.5507727,-0.29298002,0.07444559,-0.12659416,25.5625,26.375,25.4375,27.75,28.5,28.875
0.30405223,-1.5303894,-0.80078113,-1.5398489,-0.01991296,0.09549612,-0.09956034,-0.4110436,-0.36461788,0.060083866,3.073872,-0.62055403,1.998353e-05,-0.14401482,0.027060613,-0.002191551,-0.03365399,0.0069830017,0.031689104,0.47581413,-1.3552265,1.8720034,-2.0896723,-1.5662965,2.448703,-0.18610102,0.18444692,-0.2208172,0.01561855,0.02704373,-0.21763052,-0.51714754,0.22984336,-9.519346,0.85155696,47.693153,-1.3851334,-2.1822567,-3.5423508,-0.29655284,0.07959005,-0.10370578,25.5625,26.375,25.4375,27.75,28.5,28.875
0.30605164,-1.9965699,-0.8603467,-1.3573861,-0.033557236,0.09458325,-0.09694888,-0.41130877,-0.36455125,0.06007554,3.0738668,-0.62046003,1.9963566e-06,-0.1451638,0.026091557,-0.0011724296,-0.03467935,0.009535217,0.024556555,0.47546667,-1.3548906,1.8716091,-2.089636,-1.5662845,2.4482977,-0.18517713,0.18508331,-0.22386974,0.015273217,0.026763014,-0.20957294,-0.61291564,0.2681506,-9.442732,0.88960326,47.684196,-1.5441258,-2.2644405,-3.5094953,-0.287179,0.063815646,-0.1753512,25.5625,26.375,25.4375,27.75,28.5,28.875
0.30805165,-1.5953021,-1.2888844,-1.5166906,-0.029525053,0.10719227,-0.09944211,-0.41165504,-0.36451426,0.060114052,3.0737288,-0.620418,-0.0001310486,-0.14592946,0.027270202,-0.002862076,-0.03208888,0.007319224,0.014215884,0.47506985,-1.3545176,1.8710698,-2.0896242,-1.5662249,2.4478927,-0.18685399,0.18880053,-0.22463453,0.015464907,0.025481377,-0.20090726,-0.5746084,0.2681506,-9.423578,0.86498255,47.703903,-1.4973353,-2.0924969,-3.5368876,-0.277055,0.08802626,-0.2943307,25.5625,26.375,25.4375,27.75,28.5,28.875
0.31005186,-1.336231,-1.3008443,-1.3897678,-0.042379703,0.10474559,-0.10056035,-0.41194305,-0.3644382,0.060098168,3.073692,-0.62041616,-0.000113906186,-0.14898933,0.028341355,-0.00042599087,-0.03315782,0.012232842,0.0034026257,0.47467297,-1.3541466,1.8706502,-2.089588,-1.5661892,2.4474995,-0.19032471,0.18687378,-0.22798398,0.015870798,0.024163315,-0.19356667,-0.4405331,0.3256114,-9.32781,0.9254084,47.711964,-1.5187454,-2.0802503,-3.6047664,-0.2802503,0.10863646,-0.41298386,25.5625,26.375,25.4375,27.75,28.5,28.875
0.31205192,-1.5266392,-1.5972893,-1.2545048,-0.04410819,0.081067614,-0.09750662,-0.41224656,-0.3643888,0.06010159,3.0736372,-0.62030977,-0.00014144,-0.15104167,0.028798409,0.00023863875,-0.03438543,0.013450832,-0.0012546568,0.47429994,-1.353763,1.8701714,-2.0895517,-1.566141,2.4470673,-0.1930287,0.18786,-0.23077884,0.016042598,0.024706991,-0.19160978,-0.38307226,0.3256114,-9.270349,0.83365434,47.691364,-1.3786016,-2.0868378,-3.5107331,-0.2525004,0.13047117,-0.49380052,25.5625,26.375,25.4375,27.75,28.5,28.875
0.31405222,-1.4277112,-1.2971308,-1.2016667,-0.04769139,0.06536709,-0.095302224,-0.4125633,-0.36431766,0.06011471,3.0735273,-0.6203985,-0.00019875348,-0.15186213,0.02935232,0.00041999028,-0.034814026,0.013924534,0.0029466683,0.47387967,-1.3534145,1.869716,-2.0895278,-1.5660928,2.4467168,-0.19462098,0.18793744,-0.2313126,0.015927773,0.024920747,-0.19740099,-0.24899697,0.30645782,-9.212888,0.94331104,47.69763,-1.4728186,-2.0892758,-3.4231918,-0.25062925,0.14322235,-0.5105425,25.5625,26.375,25.4375,27.75,28.5,28.875
0.3160524,-0.66234845,-0.7739382,-1.2589635,-0.034199018,0.059600577,-0.107395716,-0.41282663,-0.3642548,0.060066618,3.0735178,-0.6203308,-0.00012515628,-0.1530436,0.029264953,0.0003940416,-0.03477384,0.01489517,0.01484109,0.47351962,-1.3530065,1.8693327,-2.0895283,-1.5660452,2.4463158,-0.19508974,0.1897713,-0.23343101,0.015445204,0.024489652,-0.20976521,-0.11492168,0.21068975,-9.251195,0.9164598,47.66987,-1.4337468,-2.0933833,-3.4878836,-0.23349649,0.15203908,-0.4159621,25.5625,26.375,25.4375,27.75,28.5,28.875
0.31805253,-0.51195383,-0.6183529,-1.2671926,-0.020691989,0.050176125,-0.1122801,-0.41316143,-0.36417922,0.060094353,3.0734587,-0.6203124,-0.00021715155,-0.15381159,0.030249663,-0.0015196683,-0.033292264,0.0118007,0.02563871,0.47309884,-1.3526455,1.8688177,-2.0894568,-1.5660328,2.4458914,-0.19732144,0.1940217,-0.2343274,0.015594839,0.024660055,-0.22279161,-0.076614454,0.13407528,-9.289502,0.8403672,47.66271,-1.3799378,-2.0744345,-3.5402834,-0.22818793,0.16334127,-0.270933,25.5625,26.375,25.4375,27.75,28.5,28.875
0.32010064,-1.0140754,-0.83304185,-1.2044371,-0.021706546,0.047367264,-0.100119635,-0.4134955,-0.3641291,0.0600932,3.0733721,-0.6201396,-0.00024110015,-0.15646292,0.030538892,0.00075021375,-0.036417186,0.01569028,0.027646346,0.47267765,-1.3522265,1.8683146,-2.0894568,-1.5659484,2.4453735,-0.20053504,0.19240175,-0.23758225,0.01563435,0.02571494,-0.22800766,-0.11492168,0.15322891,-9.193734,0.83589023,47.666286,-1.2384962,-1.9926785,-3.4453135,-0.19681695,0.18323515,-0.17566174,25.5625,26.375,25.4375,27.75,28.5,28.875
0.3221089,-0.7502921,-0.36031008,-1.2038628,-0.025307493,0.0557646,-0.105144955,-0.4138183,-0.3640816,0.060117263,3.0732799,-0.62002957,-0.00034374814,-0.15778284,0.030840639,0.00095938693,-0.03691246,0.015392896,0.020638175,0.4722932,-1.3518665,1.8678225,-2.089444,-1.5659007,2.4449325,-0.20235515,0.1939227,-0.2402103,0.016774325,0.026305515,-0.22281407,-0.17238252,0.22984336,-9.136273,0.83813137,47.689575,-1.1851834,-2.0213063,-3.3518534,-0.18647426,0.17422056,-0.18759067,25.5625,26.375,25.4375,27.75,28.5,28.875
0.32410058,-0.47440138,-0.19275688,-1.0091351,-0.030306285,0.06936444,-0.10984461,-0.41411176,-0.36401156,0.0600911,3.0732577,-0.6199525,-0.00029734406,-0.15921186,0.031728055,0.00053512404,-0.036240257,0.014470341,0.011300824,0.47189632,-1.3514577,1.8673795,-2.0894077,-1.5658525,2.4444904,-0.2047731,0.19628513,-0.24239326,0.017710049,0.02610642,-0.21589428,-0.15322891,0.19153613,-9.212888,0.9254084,47.723602,-1.1144958,-2.0728767,-3.2964249,-0.18392195,0.19789031,-0.27825546,25.5625,26.375,25.4375,27.75,28.5,28.875
0.3261056,-0.9362307,-0.91019434,-1.4043505,-0.0188336,0.07615105,-0.09460932,-0.4144407,-0.36395928,0.06012566,3.073174,-0.61992,-0.00035377295,-0.16006562,0.033501893,-0.0005655751,-0.03378729,0.012538552,0.00344674,0.47149932,-1.3510852,1.8668293,-2.0893114,-1.5658048,2.4440842,-0.20748957,0.19841124,-0.24279532,0.018821193,0.024807733,-0.21075791,-0.30645782,0.17238252,-9.251195,0.8717007,47.709274,-0.963913,-2.1342788,-3.358036,-0.18764013,0.22498035,-0.3628177,25.5625,26.375,25.4375,27.75,28.5,28.875
0.3281054,-0.84046495,-0.22152421,-1.2751013,-0.038763937,0.09442849,-0.10844895,-0.41478023,-0.36388826,0.060124125,3.0730822,-0.6198248,-0.0004183324,-0.16141045,0.03350934,0.0007175048,-0.035895564,0.014033478,0.00016735957,0.4710547,-1.3506899,1.8663605,-2.0893357,-1.5657443,2.443592,-0.20920138,0.19768985,-0.24504825,0.019518036,0.026030159,-0.2091841,-0.30645782,0.076614454,-9.32781,0.87393653,47.67614,-0.9999488,-2.0717158,-3.340671,-0.16920102,0.23280555,-0.41682127,25.5625,26.375,25.4375,27.75,28.5,28.875
0.33010954,-1.8204836,-1.0886241,-1.1188483,-0.031679742,0.089613676,-0.09646867,-0.41508123,-0.363842,0.06011486,3.0730236,-0.6198068,-0.0003869518,-0.1594432,0.03171285,-0.0005103516,-0.036423836,0.010980073,0.008921225,0.47068414,-1.350269,1.8658589,-2.0892756,-1.5656832,2.443218,-0.20552164,0.19974104,-0.24489401,0.019835675,0.02792371,-0.21425235,-0.34476504,0.11492168,-9.251195,0.8560339,47.667187,-1.1532075,-2.1613064,-3.3888946,-0.18001431,0.23613238,-0.39292815,25.5625,26.375,25.4375,27.75,28.5,28.875
0.33205745,-1.672668,-1.0039915,-1.1238965,-0.027043132,0.103102945,-0.103484295,-0.4153906,-0.36377004,0.060087204,3.073001,-0.6196786,-0.00033292331,-0.1599348,0.030601198,-0.00019672082,-0.037305202,0.011961261,0.021916626,0.47026482,-1.3498372,1.8653911,-2.0892398,-1.5656236,2.4427216,-0.2041612,0.20115165,-0.2473554,0.019695332,0.028320605,-0.22588563,-0.4213795,0.038307227,-9.174581,0.90750587,47.682407,-1.336527,-2.1913521,-3.4376802,-0.15642172,0.23827294,-0.2900604,25.5625,26.375,25.4375,27.75,28.5,28.875
0.33405375,-1.9025198,-0.7771473,-1.259034,-0.008819221,0.09431058,-0.08971963,-0.41570035,-0.36369902,0.060093842,3.0729728,-0.61957216,-0.00037028248,-0.16102825,0.030422682,-1.6522257e-05,-0.037798114,0.01245311,0.030757722,0.46986854,-1.3494653,1.8649124,-2.0891798,-1.5655993,2.4422626,-0.20479314,0.20273232,-0.2498033,0.01996556,0.028595677,-0.23535594,-0.38307226,0.05746084,-9.212888,0.8806493,47.698532,-1.4016374,-2.072978,-3.4458654,-0.15162434,0.23213822,-0.17794496,25.5625,26.375,25.4375,27.75,28.5,28.875
0.33605173,-1.782983,-0.4478017,-1.4386792,0.0037625153,0.07893773,-0.094013125,-0.41599023,-0.36362657,0.06003126,3.072927,-0.6195616,-0.00019256503,-0.1610162,0.030469095,-0.001205904,-0.03783905,0.010103161,0.031076254,0.46943623,-1.3489969,1.8644818,-2.089156,-1.5654911,2.4418297,-0.20535898,0.20519893,-0.25019485,0.020006135,0.02969587,-0.23623872,-0.2681506,0.21068975,-9.308656,0.8605109,47.67345,-1.4002346,-2.1992943,-3.4510245,-0.14548023,0.25952232,-0.13240972,25.5625,26.375,25.4375,27.75,28.5,28.875
0.33805242,-0.73856103,-0.052140433,-1.2635195,-0.019741287,0.07551305,-0.105368875,-0.41636214,-0.36358947,0.060096666,3.072815,-0.6193905,-0.0004478631,-0.16260448,0.031065457,-0.0012094037,-0.038171824,0.0106485,0.022058887,0.46905148,-1.3486369,1.8638953,-2.089144,-1.5654787,2.4413528,-0.20754851,0.20671484,-0.25199825,0.019634709,0.029771,-0.22940367,-0.3256114,0.114921674,-9.3661175,1.005978,47.681515,-1.2736311,-2.1564224,-3.6425107,-0.123133674,0.25036156,-0.1630341,25.5625,26.375,25.4375,27.75,28.5,28.875
0.34005266,-1.1353232,-0.82028335,-1.6272601,-0.026104774,0.048965022,-0.09092071,-0.4166677,-0.3635141,0.060085755,3.0727947,-0.61929476,-0.00037848338,-0.16401604,0.031306747,-0.0009967393,-0.03756666,0.011502903,0.012293782,0.46863148,-1.3482282,1.8634032,-2.0890477,-1.5654196,2.4408758,-0.2083903,0.20843948,-0.25477228,0.020176921,0.028808123,-0.22048256,-0.30645782,0.038307227,-9.289503,0.9254084,47.690468,-1.4654291,-2.3282425,-3.5967913,-0.10829842,0.29243416,-0.28079897,25.5625,26.375,25.4375,27.75,28.5,28.875
0.3420517,-0.7336309,-1.0808985,-1.6489044,-0.033419944,0.047877647,-0.09252097,-0.41701183,-0.36344087,0.06006686,3.072687,-0.61943096,-0.00035466903,-0.16576678,0.031703368,-0.00096974045,-0.037069652,0.01143826,0.002316601,0.4681749,-1.347772,1.8628877,-2.0890234,-1.5653476,2.4405184,-0.21007179,0.21108985,-0.25842237,0.021444209,0.028370852,-0.21218577,-0.30645782,0.1340753,-9.32781,0.9030289,47.681515,-1.4118793,-2.3372712,-3.528009,-0.10123206,0.31810385,-0.40999073,25.5625,26.375,25.4375,27.75,28.5,28.875
0.34405217,-0.79271966,-0.9995423,-1.758303,-0.038165275,0.049602605,-0.096262,-0.41734236,-0.3633648,0.06005666,3.0726724,-0.61925703,-0.00039395547,-0.1668347,0.031988513,-0.0012916374,-0.03684849,0.010094009,-0.0033088217,0.4677546,-1.3473514,1.8623956,-2.088999,-1.5653237,2.4399915,-0.21151114,0.21362829,-0.2612014,0.022977017,0.028779013,-0.20799597,-0.17238252,0.19153613,-9.423578,0.99702406,47.68062,-1.4016498,-2.3401647,-3.459691,-0.096961156,0.33475208,-0.5176238,25.5625,26.375,25.4375,27.75,28.5,28.875
0.3460516,-1.0403596,-1.3988132,-1.8323191,-0.051289417,0.047981687,-0.09454736,-0.41769603,-0.36332318,0.060088225,3.072549,-0.6192661,-0.00050921843,-0.16704936,0.032576263,-0.0016083465,-0.037619602,0.008175793,0.001987277,0.4673575,-1.346944,1.861822,-2.0889623,-1.5652751,2.4396162,-0.21345553,0.21417072,-0.26147556,0.024129264,0.030405082,-0.21522783,-0.11492168,0.24899697,-9.461885,0.9768804,47.692257,-1.3346603,-2.2865267,-3.4435291,-0.09681674,0.3379227,-0.5061388,25.5625,26.375,25.4375,27.75,28.5,28.875
0.3480525,-1.2550217,-2.020228,-1.4679182,-0.054452397,0.06781889,-0.09778111,-0.4180183,-0.36323354,0.06006969,3.0725105,-0.6192896,-0.00042527594,-0.1696848,0.03337302,-0.00032722089,-0.03978105,0.009799015,0.012414941,0.4669002,-1.3465121,1.8613185,-2.088867,-1.5652145,2.4391787,-0.217576,0.21443868,-0.26498565,0.025052177,0.0316735,-0.22977202,-0.13407528,0.40222588,-9.289502,0.9254084,47.690468,-1.1095926,-2.20385,-3.4058344,-0.109766066,0.32950938,-0.40832996,25.5625,26.375,25.4375,27.75,28.5,28.875
0.35005257,-2.0730026,-1.920706,-1.7206002,-0.044692375,0.07025476,-0.09090518,-0.41834736,-0.36319658,0.06006374,3.0724316,-0.61907375,-0.00042417066,-0.17223985,0.033416945,0.0012074353,-0.041857734,0.012662757,0.021880103,0.46650377,-1.3460679,1.8607906,-2.0888546,-1.5651187,2.4386578,-0.21999486,0.21483758,-0.26908976,0.02536513,0.0323157,-0.24165098,-0.2681506,0.38307226,-9.32781,0.9097417,47.647476,-1.1055008,-2.3373766,-3.2958272,-0.10060531,0.34133035,-0.25735098,25.5625,26.375,25.4375,27.75,28.5,28.875
0.35205266,-1.7603904,-1.3615946,-1.819366,-0.035990182,0.08631941,-0.09704797,-0.41869637,-0.36310777,0.06005796,3.0723433,-0.61909586,-0.00037457337,-0.17325471,0.034164988,0.0011510056,-0.043195225,0.0116798645,0.020856032,0.46601117,-1.3456362,1.8602637,-2.0887825,-1.5650333,2.4381905,-0.22288299,0.21555157,-0.27002838,0.025907885,0.033980727,-0.24350871,-0.2681506,0.4213795,-9.461885,0.9164598,47.67793,-0.9601567,-2.2613492,-3.306993,-0.10093855,0.3493914,-0.19593912,25.5625,26.375,25.4375,27.75,28.5,28.875
0.3540523,-2.099241,-1.8986905,-1.7659464,-0.030860616,0.07822604,-0.08661868,-0.418996,-0.36303854,0.060033355,3.0722961,-0.6190143,-0.00022760063,-0.17251182,0.033871595,0.00057100126,-0.043768067,0.009983895,0.014210677,0.46557915,-1.3452048,1.859774,-2.0886867,-1.5649251,2.4377136,-0.22233772,0.21605279,-0.26944324,0.026074037,0.03522492,-0.23631549,-0.34476507,0.34476504,-9.461885,0.86498255,47.683304,-0.9789697,-2.1255274,-3.4349027,-0.09090114,0.3528818,-0.26089674,25.5625,26.375,25.4375,27.75,28.5,28.875
0.35605228,-2.1040022,-1.5079105,-1.6365207,-0.047019783,0.08150733,-0.084435694,-0.41935858,-0.36295477,0.060009755,3.0722783,-0.61899394,-0.00027353747,-0.17159848,0.033613496,-0.0007493616,-0.04291493,0.0075685456,0.0093632545,0.4651358,-1.3447126,1.8592242,-2.0886629,-1.5649251,2.4372602,-0.22112656,0.21801421,-0.26895535,0.026145073,0.03553852,-0.23025464,-0.59376204,0.34476504,-9.3661175,0.87617236,47.666286,-1.1533643,-2.1261783,-3.5054169,-0.0986097,0.33877873,-0.35177648,25.5625,26.375,25.4375,27.75,28.5,28.875
0.35805234,-1.9065069,-1.5882618,-1.6628239,-0.044580225,0.09619799,-0.08490638,-0.41972625,-0.36291766,0.0600541,3.072124,-0.61890495,-0.00040183126,-0.17155105,0.03382879,-0.0023281286,-0.041372307,0.005004066,0.0074140755,0.46471584,-1.3443162,1.8586372,-2.0886385,-1.5648416,2.4368048,-0.22111842,0.22140771,-0.2696569,0.026460199,0.035347346,-0.22829178,-0.53630114,0.30645782,-9.32781,0.9634547,47.67345,-1.1928713,-2.0965617,-3.5977168,-0.08735997,0.34378606,-0.4288834,25.5625,26.375,25.4375,27.75,28.5,28.875
0.36005247,-1.8544205,-0.5044906,-1.7730938,-0.044450887,0.08812814,-0.09683855,-0.42006743,-0.36284104,0.06002156,3.07208,-0.61887366,-0.00031967933,-0.17257805,0.03394128,-0.0026335274,-0.042048503,0.0044590617,0.010714723,0.46425942,-1.3438237,1.8580989,-2.0885794,-1.5647691,2.4363346,-0.22248901,0.22343676,-0.27155426,0.026570557,0.036222577,-0.23295997,-0.114921674,0.17238252,-9.404425,0.947788,47.677036,-1.2434847,-2.1652806,-3.6860619,-0.053665645,0.35889173,-0.4189803,25.5625,26.375,25.4375,27.75,28.5,28.875
0.36205256,-0.9162507,-0.54979086,-1.6293333,-0.029489825,0.08751714,-0.107725285,-0.4204102,-0.36277506,0.06001708,3.0720046,-0.6188523,-0.00032483437,-0.17395346,0.03316799,-0.0014716046,-0.043982446,0.006717878,0.021501843,0.46382698,-1.3433797,1.8575586,-2.0885313,-1.5647086,2.4358988,-0.22262748,0.223841,-0.27475613,0.02657606,0.03701032,-0.24388061,-0.13407528,0.19153613,-9.32781,0.9231726,47.682407,-1.2832224,-2.202775,-3.5586793,-0.060734466,0.34869313,-0.33704883,25.5625,26.375,25.4375,27.75,28.5,28.875
0.36405203,-1.1686065,-0.48581415,-1.6959885,-0.014998782,0.06216236,-0.08755875,-0.4207775,-0.36273336,0.060039107,3.0719044,-0.61861336,-0.0004363969,-0.17503491,0.032536052,-0.0013498332,-0.04468713,0.0076220804,0.033309843,0.46340784,-1.3429475,1.8569835,-2.0885313,-1.5646366,2.4353435,-0.22246413,0.22589797,-0.27754915,0.026291767,0.037335128,-0.25551844,-0.22984336,0.19153613,-9.232041,0.83365434,47.684196,-1.3755755,-2.4068148,-3.5596428,-0.047568668,0.3432455,-0.18436706,25.5625,26.375,25.4375,27.75,28.5,28.875
0.36605212,-0.44995677,0.02575882,-1.8570317,-0.0018538282,0.058269434,-0.09728627,-0.4211408,-0.3626626,0.060033657,3.071847,-0.618544,-0.00042743038,-0.17611901,0.03234407,-0.0011401108,-0.045383938,0.008065783,0.0338085,0.46295145,-1.3424674,1.8563956,-2.0884593,-1.5645765,2.4348514,-0.22310308,0.22740377,-0.2800159,0.026582222,0.037782848,-0.25665244,-0.15322891,0.24899697,-9.289503,0.95002913,47.67793,-1.4799554,-2.3378577,-3.4048166,-0.03584627,0.36397636,-0.11002259,25.5625,26.375,25.4375,27.75,28.5,28.875
0.3680523,-0.6085625,-0.3463311,-1.9953169,-0.008557112,0.048957072,-0.09283722,-0.4214897,-0.36256996,0.06000599,3.071814,-0.6185067,-0.00035661677,-0.1769748,0.032138668,-0.0013764845,-0.04587776,0.007162687,0.025317185,0.46247086,-1.3419874,1.8558577,-2.0883873,-1.564516,2.434352,-0.22375028,0.22973138,-0.28259975,0.027407711,0.038592864,-0.24880475,-0.05746084,0.22984336,-9.404425,0.90750587,47.679718,-1.4065995,-2.3632233,-3.4459372,-0.036426615,0.36588848,-0.15781604,25.5625,26.375,25.4375,27.75,28.5,28.875
0.37005267,-0.47346583,-1.1231495,-1.9764416,-0.03387192,0.051708713,-0.08395236,-0.42186266,-0.36252236,0.06003499,3.0716963,-0.618392,-0.00045304556,-0.17906184,0.032392133,-0.00070125185,-0.047652878,0.0071269833,0.012761154,0.4620383,-1.341555,1.8552579,-2.0883505,-1.5644435,2.4338632,-0.22664063,0.23145087,-0.28664625,0.028942745,0.040185258,-0.23912653,-0.076614454,0.19153613,-9.423578,0.92764956,47.683304,-1.3648278,-2.3236928,-3.2817793,-0.024073392,0.34096682,-0.29274103,25.5625,26.375,25.4375,27.75,28.5,28.875
0.37205258,-0.22248796,-1.4058455,-1.8465501,-0.06728053,0.046117272,-0.09694955,-0.42220032,-0.3624524,0.060002528,3.071625,-0.6183824,-0.00029457192,-0.17925781,0.032702547,-0.000573555,-0.04811758,0.005336027,0.0029151582,0.46156967,-1.3410512,1.8546962,-2.0882542,-1.5643233,2.4333978,-0.22780953,0.23188932,-0.28812203,0.031363618,0.041359317,-0.23044613,-0.038307227,0.28730422,-9.442732,0.9097417,47.719128,-1.2763662,-2.5229437,-3.3001487,-0.031581536,0.34211206,-0.41413456,25.5625,26.375,25.4375,27.75,28.5,28.875
0.37405184,-0.40870842,-1.8679291,-2.189053,-0.059597485,0.035599098,-0.08144563,-0.42257214,-0.3623848,0.06000602,3.0715187,-0.6184384,-0.00033048444,-0.17972405,0.033322826,-0.0009767679,-0.04819754,0.002908324,-0.0005041839,0.46111295,-1.3405831,1.8541073,-2.088206,-1.5642627,2.43299,-0.22970419,0.23343171,-0.2896778,0.033534035,0.042533245,-0.22891356,-0.019153614,0.30645782,-9.500193,0.95226496,47.698532,-1.190613,-2.521334,-3.334271,-0.051768918,0.33289582,-0.49931708,25.5625,26.375,25.4375,27.75,28.5,28.875
0.37605175,-0.22294356,-1.5972012,-2.1238227,-0.074520685,0.045383193,-0.0955449,-0.42289898,-0.36231482,0.05999182,3.0714693,-0.618346,-0.00022177763,-0.1791529,0.034737904,-0.0030450947,-0.04848554,-0.0022352538,0.0074117216,0.46066815,-1.3401272,1.8535594,-2.0880973,-1.564166,2.432494,-0.23294154,0.23522893,-0.28739795,0.034041565,0.045150038,-0.24005863,0.019153614,0.28730422,-9.576807,0.9231726,47.675243,-1.1069205,-2.4378748,-3.4421644,-0.06650536,0.29643205,-0.47219324,25.5625,26.375,25.4375,27.75,28.5,28.875
0.37805185,-0.57690287,-1.660747,-1.9340951,-0.066345856,0.05411718,-0.09716473,-0.4232757,-0.3622478,0.05998065,3.071367,-0.61831695,-0.00019343288,-0.17978652,0.034579173,-0.002142451,-0.05011017,-0.0006271543,0.021878311,0.46018767,-1.3396238,1.8529605,-2.0880497,-1.5640696,2.4320087,-0.23347224,0.23427555,-0.28834644,0.033923615,0.045990292,-0.25505137,-0.095768064,0.28730422,-9.576807,0.95226496,47.664497,-1.1388636,-2.3298855,-3.6280043,-0.06957011,0.2798472,-0.31864196,25.5625,26.375,25.4375,27.75,28.5,28.875
