Tylouw/Master_Thesis_Code/training_data/batch_1/rect_rod_t0.1/sample_37_session_1.csv
timestamp[s],tcp_force_x[N],tcp_force_y[N],tcp_force_z[N],tcp_force_rx[Nm?],tcp_force_ry[Nm?],tcp_force_rz[Nm?],tcp_pose_x[m],tcp_pose_y[m],tcp_pose_z[m],tcp_pose_rx[rot_vec_x],tcp_pose_ry[rot_vec_y],tcp_pose_rz[rot_vec_z],tcp_velo_x[m/s],tcp_velo_y[m/s],tcp_velo_z[m/s],tcp_velo_rx[rot_vec_x/s],tcp_velo_ry[rot_vec_y/s],tcp_velo_rz[rot_vec_z/s],q1[rad],q2[rad],q3[rad],q4[rad],q5[rad],q6[rad],qd1[rad/s],qd2[rad/s],qd3[rad/s],qd4[rad/s],qd5[rad/s],qd6[rad/s],tool_acc_x,tool_acc_y,tool_acc_z,current_of_whole_robot[A],voltage_of_whole_robot[V],current_J1[A],current_J2[A],current_J3[A],current_J4[A],current_J5[A],current_J6[A],temp_J1[C],temp_J2[C],temp_J3[C],temp_J4[C],temp_J5[C],temp_J6[C]
9.2100004e-07,-0.07492283,-0.4077523,1.0329076,0.009682413,0.00018444115,-0.0065529877,-0.38935986,-0.36871493,0.060007337,-3.0786977,0.6250419,0.00019482491,-3.8279635e-05,-5.155163e-05,2.6216261e-05,-0.00020876454,8.876972e-05,8.6529864e-05,0.5049969,-1.3816198,1.9041756,-2.0919158,-1.5708417,2.480061,-3.6069e-05,-1.9831763e-05,-1.3810605e-07,-0.00015925049,0.00013939236,-0.0001227848,0.095768064,0.095768064,-8.714894,0.75084364,47.731667,-0.16112223,-3.041323,-2.269803,-0.20770371,0.17824566,0.018528573,24.9375,25.5625,24.6875,26.6875,27.0,27.3125
0.002055173,0.044300903,0.025252609,1.057859,-0.0017121638,0.0063140965,-0.016160522,-0.38932985,-0.36873114,0.060007937,-3.0787394,0.6249354,0.00020249355,-0.0017892084,-0.0010241059,-0.00014106878,-0.0040112375,0.0069328947,8.466285e-05,0.5050448,-1.3816559,1.9042233,-2.091944,-1.5708297,2.4800372,-3.559349e-05,-2.660684e-07,0.0027648376,-0.010773279,0.00013688157,-0.000120437326,0.05746084,0.21068975,-8.542512,0.7396539,47.684196,-0.19056813,-2.9587731,-2.2945664,-0.17702101,0.17515764,0.008825665,24.9375,25.5625,24.6875,26.6875,27.0,27.3125
0.004054704,0.059111238,0.076771446,0.9203824,-0.009404948,0.0076112007,-0.012287016,-0.38934785,-0.36870462,0.060007054,-3.0786824,0.6249812,0.00026179376,-0.0017820144,-0.001020694,-0.0020807956,-0.0029434871,0.0049999612,9.811633e-05,0.50502086,-1.3816546,1.9042238,-2.091944,-1.5708898,2.4800491,-3.5130404e-05,0.003665073,0.0033001734,-0.012765715,0.00013433662,-0.00013284884,0.038307227,0.22984336,-8.542512,0.7105615,47.667187,-0.189616,-3.3812559,-2.5452127,-0.046566643,0.1831091,0.032795265,24.9375,25.5625,24.6875,26.6875,27.0,27.3125
0.006055145,0.2390704,-0.20762417,0.9855142,0.008216132,0.00050028914,-0.007116669,-0.3893433,-0.36871827,0.060006175,-3.0787144,0.6249111,0.00023476472,-0.0004405346,-0.00027364102,-0.0013882063,-0.0010452452,0.0015997225,9.746661e-05,0.5050329,-1.3816433,1.9042119,-2.0919416,-1.5708655,2.4800134,-3.4679164e-05,0.0017347203,0.002502608,-0.006143584,0.0001318766,-0.00013242927,0.076614454,0.17238252,-8.446744,0.75084364,47.672558,-0.25708503,-3.2987456,-2.5415368,-0.07698488,0.1796364,0.0238666,24.9375,25.5625,24.6875,26.6875,27.0,27.3125
0.008012057,0.30799934,0.91087633,0.47060484,0.03509954,-0.025066193,-0.009730141,-0.3893128,-0.36871284,0.059974216,-3.0786662,0.6248823,0.00010849384,-0.00048775433,-0.00029834997,0.00073588046,-0.0015484097,0.0025251321,9.5546035e-05,0.5050448,-1.3816084,1.9042348,-2.091904,-1.5708536,2.4800134,-3.4239434e-05,-0.0013965543,0.0004265215,-0.0019895372,0.00012960075,-0.00013016736,0.019153614,0.15322891,-8.599973,0.6926589,47.70211,-0.19595993,-3.1400104,-2.4014416,-0.13509196,0.18725726,0.024108637,24.9375,25.5625,24.6875,26.6875,27.0,27.3125
0.01005527,0.35499966,0.8589033,0.11673703,0.047485914,-0.024403539,-0.007707736,-0.38933,-0.36870372,0.059994064,-3.0786688,0.6249785,0.00017743875,0.00025255044,0.000108765475,0.0005796737,-0.00017582453,2.5280806e-07,8.350781e-05,0.50502086,-1.3816444,1.9042348,-2.0919154,-1.5708655,2.4800491,-4.3767162e-05,-0.0013725666,1.3729985e-05,0.0012729533,0.00015675498,-0.0001278644,0.019153614,0.19153613,-9.021352,0.7351769,47.685097,-0.736985,-2.574398,-2.8912578,-0.16425475,0.17168689,-0.03116231,24.9375,25.5625,24.6875,26.6875,27.0,27.3125
0.012054328,-0.041239917,0.38361204,0.026989358,0.014166063,-0.007386152,-0.020026566,-0.38931525,-0.3687135,0.05997652,-3.0786753,0.62490505,0.00013332862,-0.0003946655,0.002336697,-0.0033667819,0.00392059,-0.007397307,-0.00418663,0.5050437,-1.3816181,1.9042462,-2.0919263,-1.5708536,2.4800253,-0.004400603,0.006036615,1.8420528e-07,0.0023333488,0.00015347758,-0.00021349045,0.05746084,0.22984336,-9.155427,0.7083204,47.685097,-0.8266866,-2.5598645,-3.0760415,-0.16361457,0.17219129,-0.09679191,24.9375,25.5625,24.6875,26.6875,27.0,27.3125
0.014053563,-0.008143846,-0.4300893,-0.021571703,-0.027787024,0.027087795,-0.01735354,-0.389311,-0.36869833,0.059932988,-3.0786126,0.62489164,4.379332e-05,-0.004058177,0.0035092018,-0.0050431024,0.0048650512,-0.009121637,-0.0031261574,0.5050295,-1.381543,1.9042567,-2.0919268,-1.5708655,2.4800107,-0.009803115,0.013380961,-0.004709571,0.0016636866,0.00014854643,-0.0066733123,-0.05746084,0.17238252,-9.251195,0.7329411,47.719128,-0.4795764,-3.1945848,-3.0633912,-0.15148091,0.19298574,-0.11296582,24.9375,25.5625,24.6875,26.6875,27.0,27.3125
0.016053852,-0.9441111,-0.95566875,-0.17401451,-0.042396132,0.036617294,-0.012124469,-0.38933048,-0.36869472,0.059961997,-3.0786366,0.624854,7.337266e-05,-0.0054792915,0.003063431,-0.0036291843,0.0032323834,-0.006201202,0.004231152,0.50500524,-1.3815674,1.9042085,-2.0918791,-1.5708655,2.47996,-0.010387823,0.01267455,-0.0070167957,0.0013301424,0.0001579128,-0.014614472,-0.24899697,0.21068975,-9.3661175,0.7642693,47.71286,-0.57635915,-3.0371704,-3.0617256,-0.14185873,0.20290053,-0.03159698,24.9375,25.5625,24.6875,26.6875,27.0,27.3125
0.018054163,-1.1046561,-1.0100003,-0.11925492,-0.040109858,0.05684202,-0.030966345,-0.38929316,-0.36866412,0.05987996,-3.078536,0.62481374,-0.00015182608,-0.005761864,0.0031697152,-0.0025525321,0.0022530663,-0.004453068,0.00628155,0.50498116,-1.3814721,1.9042801,-2.0918677,-1.5708536,2.4799235,-0.010835704,0.01047593,-0.0068831327,0.0013911246,0.00016626786,-0.017113207,-0.34476504,0.22984336,-9.461885,0.7553206,47.705692,-0.72793424,-2.7669,-3.260649,-0.12550837,0.20374796,-0.020323597,24.9375,25.5625,24.6875,26.6875,27.0,27.3125
0.020053715,-1.448957,-0.16102087,-0.44290683,-0.02191773,0.057724472,-0.041959245,-0.38933942,-0.3686666,0.059917286,-3.078556,0.6248948,-2.8482584e-05,-0.006276988,0.0033756779,-0.0030732045,0.0026431512,-0.005244733,0.0058115297,0.5049569,-1.3814834,1.9042085,-2.0918677,-1.5708774,2.4799473,-0.01168998,0.012140831,-0.007665155,0.0013891943,0.00020737252,-0.01749693,-0.45968673,0.24899697,-9.557653,0.7463667,47.698532,-0.8493538,-2.7409165,-3.4090462,-0.1360525,0.19842678,-0.029358357,24.9375,25.5625,24.6875,26.6875,27.0,27.3125
0.02205395,-1.2165599,0.37793362,-0.5135712,-0.009326313,0.054531384,-0.06371644,-0.38933536,-0.36867464,0.059894264,-3.0785565,0.62487763,-0.00015053249,-0.00753456,0.0040794387,-0.0033694108,0.0034581444,-0.007843833,0.0024490266,0.50494415,-1.3814225,1.9041833,-2.0918424,-1.5708293,2.4799237,-0.014391932,0.014904277,-0.010988191,0.0046167215,0.00075073703,-0.016835865,-0.4405331,0.24899697,-9.749189,0.800085,47.690468,-0.89463544,-2.738216,-3.4628625,-0.14643016,0.20526192,-0.071282074,24.9375,25.5625,24.6875,26.6875,27.0,27.3125
0.024053687,-1.7465228,0.033305638,-0.58772266,-0.008792502,0.037262026,-0.06972739,-0.3893494,-0.36867264,0.059878826,-3.0785656,0.6248802,-0.00016470143,-0.008591839,0.0037557276,-0.0038865113,0.0018193334,-0.009030369,-9.383206e-05,0.5049196,-1.3813856,1.9041828,-2.0918782,-1.5708164,2.4798996,-0.016088009,0.017532311,-0.01278265,0.0040218486,0.0027537157,-0.015991298,-0.5554548,0.19153613,-9.5385,0.7083204,47.64658,-0.9016447,-2.7184072,-3.3892338,-0.15959431,0.18347496,-0.10659976,24.9375,25.5625,24.6875,26.6875,27.0,27.3125
0.02605405,-1.2671788,-0.18159702,-0.7498094,-0.014247691,0.056266773,-0.09022516,-0.3893382,-0.36865893,0.059864428,-3.078536,0.6248363,-0.00023380796,-0.010178755,0.0036071183,-0.003097508,4.3458087e-05,-0.007048761,-0.0007318848,0.504907,-1.3813734,1.9041933,-2.091843,-1.5708164,2.4798634,-0.017690193,0.017745286,-0.014606824,0.0030374192,0.0033418501,-0.016955746,-0.6895301,0.19153613,-9.672575,0.8023209,47.65912,-0.8786479,-2.7844706,-3.3792007,-0.13077043,0.17575786,-0.10292565,24.9375,25.5625,24.6875,26.6875,27.0,27.3125
0.028054448,-1.9149382,-0.57018816,-0.710119,-0.027656209,0.071859196,-0.10170233,-0.3893997,-0.36866003,0.05989112,-3.0785642,0.62484086,-0.000151764,-0.010745202,0.0035464705,-0.003612827,0.00048449097,-0.007206292,-0.00066783663,0.50485903,-1.3813368,1.9040865,-2.091831,-1.5708288,2.4798148,-0.017921694,0.01965407,-0.015551775,0.002425844,0.0030291646,-0.017249811,-0.7661445,0.19153613,-9.864111,0.6926589,47.690468,-0.92216456,-2.787417,-3.4204822,-0.13576484,0.1933137,-0.09661619,24.9375,25.5625,24.6875,26.6875,27.0,27.3125
0.03005377,-2.0596886,-0.73461854,-0.6643187,-0.026665745,0.09595679,-0.10885311,-0.38938358,-0.36864567,0.05985396,-3.0785108,0.6248893,-0.00028928957,-0.01197244,0.0035965901,-0.0028785574,-2.2006623e-05,-0.0053039384,-0.0023995887,0.5048347,-1.3812888,1.9041089,-2.0918071,-1.5708045,2.4798274,-0.018853184,0.019636653,-0.017132327,0.0021161404,0.0025466925,-0.01644829,-0.6703765,0.17238252,-9.730036,0.75084364,47.70211,-0.967729,-2.687386,-3.3985949,-0.112931244,0.20786986,-0.1080615,24.9375,25.5625,24.6875,26.6875,27.0,27.3125
0.03205389,-2.1587133,-0.24195288,-0.64762545,-0.008503151,0.09998724,-0.11018697,-0.38941538,-0.36863914,0.059843406,-3.078511,0.6248902,-0.0003176978,-0.012260865,0.0041111493,-0.0029005255,0.0004788088,-0.0061503076,-0.004556868,0.5047865,-1.3812286,1.9040617,-2.0918067,-1.5707926,2.4797797,-0.019970477,0.019914938,-0.01770088,0.0033899487,0.0025193116,-0.015408146,-0.6703765,0.038307227,-9.749189,0.779936,47.716442,-0.9071297,-2.7821608,-3.4206915,-0.124333054,0.18783844,-0.13067068,24.9375,25.5625,24.6875,26.6875,27.0,27.3125
0.034053825,-1.7111787,0.5251984,-0.660426,0.010478535,0.08858253,-0.103743285,-0.38944933,-0.36865708,0.059862457,-3.078572,0.6248845,-0.00029768847,-0.0129757235,0.003941082,-0.0027836666,0.00015721402,-0.0068887766,-0.006116368,0.5047623,-1.3812039,1.9039892,-2.0918067,-1.5707563,2.4797442,-0.020750131,0.021353932,-0.019966284,0.0047055376,0.0031568957,-0.014628295,-0.6703765,-0.019153614,-9.749189,0.75755644,47.704796,-0.991489,-2.7516403,-3.4038744,-0.1184633,0.20082442,-0.15064137,24.9375,25.5625,24.6875,26.6875,27.0,27.3125
0.03605391,-1.0071435,0.9576818,-0.5173314,0.02748716,0.07705312,-0.11133975,-0.3894768,-0.3686207,0.0598274,-3.0784717,0.62501734,-0.00037249783,-0.014201929,0.0032849645,-0.0022498872,-0.0016041324,-0.005644307,-0.0060368227,0.50469023,-1.3811196,1.9039639,-2.0917828,-1.5707802,2.4797678,-0.021373564,0.02239308,-0.022252915,0.004008428,0.0040883753,-0.0153320925,-0.61291564,-0.11492168,-9.787497,0.7777002,47.703903,-0.9820204,-2.6751842,-3.3921306,-0.11534415,0.18177584,-0.16745934,24.9375,25.5625,24.6875,26.6875,27.0,27.3125
0.03805465,-0.9227753,0.9538255,-0.6106394,0.021960914,0.056851033,-0.1029361,-0.38949227,-0.3686309,0.05983097,-3.0785208,0.624913,-0.00038249735,-0.016050702,0.0033920107,-0.0016564039,-0.0034513297,-0.0038003423,-0.007767209,0.5046774,-1.3810953,1.9039272,-2.0917833,-1.5707554,2.4796836,-0.023729907,0.022907538,-0.023900464,0.0026320256,0.0048067947,-0.015958421,-0.4405331,-0.1340753,-9.768343,0.7642693,47.69763,-0.9106171,-2.6902092,-3.398538,-0.09478441,0.17043497,-0.16647887,24.9375,25.5625,24.6875,26.6875,27.0,27.3125
0.04005393,-0.54398805,0.22612448,-0.5903574,0.009272978,0.060931854,-0.0993383,-0.38956416,-0.36859262,0.059833348,-3.078478,0.6250582,-0.00031764872,-0.017248975,0.0042625754,-0.0016683076,-0.0033063178,-0.003270946,-0.008572128,0.5045687,-1.3810472,1.9038676,-2.0917947,-1.5707921,2.479671,-0.026070666,0.023374759,-0.02432906,0.0022012875,0.0044216397,-0.017493157,-0.36391866,-0.095768064,-9.749189,0.78217715,47.711063,-0.89571583,-2.7199745,-3.4252229,-0.08658688,0.16781598,-0.17867151,24.9375,25.5625,24.6875,26.6875,27.0,27.3125
0.042054057,-0.61964905,-0.02781974,-0.6506218,-0.0068072975,0.060857464,-0.09933368,-0.38958633,-0.3685907,0.059822,-3.0784485,0.6251284,-0.00034560918,-0.01846603,0.004141505,-0.0011532713,-0.003627786,-0.0017085666,-0.008282487,0.50454473,-1.3809867,1.9038194,-2.0917838,-1.5707921,2.4796946,-0.026704267,0.024097981,-0.026293956,0.0019216349,0.003942064,-0.018414674,-0.28730422,0.019153614,-9.634268,0.75084364,47.690468,-0.8906701,-2.6600013,-3.3841805,-0.07756487,0.18356687,-0.18966496,24.9375,25.5625,24.6875,26.6875,27.0,27.3125
0.04405433,-0.6395063,0.023580851,-0.4572922,-0.010405149,0.056596067,-0.09581585,-0.38962984,-0.368595,0.05982546,-3.0784993,0.62508166,-0.00032901805,-0.01942614,0.0042225705,-0.0009996864,-0.0033676832,-0.0021416831,-0.0088019995,0.5044964,-1.3809382,1.9037594,-2.0918067,-1.5707682,2.4796107,-0.027723605,0.025631871,-0.028790236,0.003389578,0.0039221807,-0.018913222,-0.24899697,0.076614454,-9.653421,0.7217513,47.672558,-0.9420729,-2.7392545,-3.3179786,-0.07764872,0.17400604,-0.19535086,24.9375,25.5625,24.6875,26.6875,27.0,27.3125
0.04605377,-0.50732857,0.029778725,-0.56986916,-0.0043688486,0.04495273,-0.10216149,-0.38965952,-0.36856854,0.059819143,-3.0784576,0.6251692,-0.0003723334,-0.019736353,0.004545224,-0.0010524882,-0.0033969323,-0.003637655,-0.009108888,0.5044241,-1.380902,1.9037226,-2.09177,-1.5707682,2.4795983,-0.029022217,0.026319012,-0.029863905,0.005069092,0.004671308,-0.0199061,-0.15322891,0.076614454,-9.557653,0.80679786,47.68599,-0.93706584,-2.7384121,-3.3627005,-0.09297157,0.17321756,-0.2294562,24.9375,25.5625,24.6875,26.6875,27.0,27.3125
0.04805392,-0.26406232,0.26311257,-0.48602095,-0.0073539475,0.029578391,-0.100840494,-0.38972443,-0.36859488,0.059846878,-3.0785244,0.6251637,-0.00028568663,-0.020288175,0.004982352,-0.0012762004,-0.003778807,-0.0045777066,-0.009569105,0.5043997,-1.3808417,1.903591,-2.0917823,-1.5707554,2.479562,-0.030762048,0.027047483,-0.030293968,0.005406515,0.0054610483,-0.02118646,-0.095768064,0.13407528,-9.557653,0.8023209,47.705692,-0.8699135,-2.710538,-3.360352,-0.117509164,0.17391965,-0.22588721,24.9375,25.5625,24.6875,26.6875,27.0,27.3125
0.050054077,0.14960752,-0.25105277,-0.5409566,-0.008269215,0.022401283,-0.10452462,-0.3897736,-0.36856392,0.05983193,-3.0784905,0.6253093,-0.00038034216,-0.021747146,0.0054184827,-0.0010896578,-0.003969542,-0.0031543944,-0.009707548,0.5042793,-1.3807694,1.9035314,-2.0917466,-1.5707196,2.4795368,-0.0325256,0.02783732,-0.031429604,0.0044173286,0.0049337,-0.02281019,-0.019153614,0.17238252,-9.5385,0.7553206,47.687782,-0.8217809,-2.6648989,-3.439158,-0.08413179,0.17541632,-0.22974154,24.9375,25.5625,24.6875,26.6875,27.0,27.3125
0.05205457,-0.016447164,-0.7439004,-0.67829335,-0.012900056,0.011094309,-0.089285396,-0.38983467,-0.36854765,0.05984773,-3.078469,0.6252473,-0.00020917239,-0.023823969,0.0050975536,2.4262858e-05,-0.004984654,-0.00012879522,-0.009379257,0.504255,-1.380733,1.903458,-2.0917704,-1.5708159,2.4794767,-0.03355997,0.0286027,-0.034734614,0.0038173718,0.0043530255,-0.024170008,0.0,0.24899697,-9.404425,0.76874626,47.690468,-0.792771,-2.628954,-3.4070127,-0.056875892,0.16977702,-0.22794342,24.9375,25.5625,24.6875,26.6875,27.0,27.3125
0.054054387,-0.5293627,-0.67615545,-0.5627539,-0.027134158,0.0039193993,-0.089791656,-0.389863,-0.3685346,0.059847925,-3.0784986,0.62531054,-0.00036482274,-0.025287518,0.005486578,0.00035420066,-0.0050817593,0.00091277045,-0.009031781,0.5041467,-1.3806968,1.9033984,-2.091699,-1.5707201,2.479404,-0.03531308,0.029493842,-0.036527686,0.003764708,0.0039292676,-0.026269168,0.0,0.24899697,-9.519346,0.76874626,47.72271,-0.8178917,-2.6173315,-3.3374891,-0.07413783,0.18107127,-0.24650127,24.9375,25.5625,24.6875,26.6875,27.0,27.3125
0.056054417,-0.1811544,-0.48511726,-0.5058284,-0.034210734,0.01611703,-0.10192326,-0.38990408,-0.36851534,0.05982641,-3.0784488,0.6253386,-0.0003580487,-0.02592053,0.005971511,0.00034120772,-0.0051035453,0.00043921682,-0.008799647,0.50409824,-1.3806124,1.9033502,-2.0917103,-1.5707558,2.4793794,-0.03687094,0.029982673,-0.037214883,0.004365446,0.0041758684,-0.02805942,-0.019153614,0.34476504,-9.423578,0.78217715,47.705692,-0.7909232,-2.567218,-3.3175263,-0.0639816,0.19055447,-0.24958226,24.9375,25.5625,24.6875,26.6875,27.0,27.3125
0.058053944,-0.44821802,-0.5935762,-0.38953292,-0.034117766,0.016902508,-0.0855831,-0.3899698,-0.36850634,0.059842035,-3.0784888,0.62538403,-0.00029746306,-0.025917917,0.0055212,0.0005556368,-0.0052237627,-0.00016617929,-0.0074567287,0.5040146,-1.3805763,1.9032773,-2.0917342,-1.5707444,2.479319,-0.036354396,0.030605366,-0.038754553,0.005753658,0.004575095,-0.028885663,0.038307227,0.28730422,-9.481039,0.7597976,47.698532,-0.8525627,-2.5886097,-3.3443024,-0.07713186,0.18531382,-0.24881008,24.9375,25.5625,24.6875,26.6875,27.0,27.3125
0.06005389,-0.10581326,-0.91822386,-0.47871283,-0.021539373,0.028739695,-0.093154915,-0.39003223,-0.36850283,0.059844166,-3.0785017,0.6254058,-0.00029766883,-0.026712243,0.0053748772,0.00085661456,-0.00615785,-0.00016749588,-0.007478021,0.5039423,-1.3804919,1.90317,-2.0917222,-1.5707315,2.4792588,-0.03735344,0.031337794,-0.040416066,0.0062305243,0.0053914106,-0.029864054,-0.038307227,0.3256114,-9.519346,0.8627467,47.71286,-0.8622829,-2.537196,-3.3387053,-0.07494204,0.1893791,-0.2553358,24.9375,25.5625,24.6875,26.6875,27.0,27.3125
0.06205419,-0.3363642,-0.3238479,-0.27130958,-0.027945036,0.026149454,-0.09849987,-0.39007396,-0.36850965,0.05985613,-3.0785558,0.62549317,-0.00034231553,-0.028076662,0.0057565444,0.001165755,-0.006867865,0.00068165374,-0.008461908,0.50386995,-1.3804556,1.903097,-2.0917099,-1.5706595,2.479234,-0.03939399,0.03191877,-0.041726694,0.0058755674,0.0056001698,-0.030920286,-0.05746084,0.30645782,-9.461885,0.7418897,47.695843,-0.79008555,-2.5036778,-3.350191,-0.09039192,0.185229,-0.2780974,24.9375,25.5625,24.6875,26.6875,27.0,27.3125
0.06405441,-0.3709392,-0.46595088,-0.18036239,-0.013767195,0.029652817,-0.09357032,-0.39014703,-0.36848655,0.059854668,-3.0785403,0.6254713,-0.0002911207,-0.02965896,0.005783273,0.0016936379,-0.0076679015,0.0023353065,-0.009069868,0.50378543,-1.3803713,1.9030007,-2.0917099,-1.5706958,2.479138,-0.040844418,0.03275008,-0.04377316,0.005256044,0.0054971143,-0.031761486,-0.05746084,0.24899697,-9.3661175,0.74413085,47.674347,-0.87994325,-2.4729218,-3.3133807,-0.060629543,0.19082868,-0.29700935,24.9375,25.5625,24.6875,26.6875,27.0,27.3125
0.06605429,-0.42391926,-0.1762307,-0.10846063,-0.013430802,0.029856233,-0.097333126,-0.39019704,-0.36845726,0.059856176,-3.0785062,0.62556034,-0.00032063219,-0.030152809,0.0058856783,0.001390618,-0.0075173145,0.0017611397,-0.008812437,0.5036895,-1.3803228,1.9029292,-2.0916622,-1.5706958,2.479102,-0.04156182,0.03408026,-0.044696297,0.0054245573,0.005640248,-0.032736138,-0.095768064,0.22984336,-9.270349,0.842603,47.67614,-0.80884457,-2.4887931,-3.3063462,-0.049277227,0.19744927,-0.3078227,24.9375,25.5625,24.6875,26.6875,27.0,27.3125
0.06805447,-0.86046046,-0.033383932,-0.062204346,-0.008676543,0.028736617,-0.09159827,-0.3902579,-0.36846593,0.05985058,-3.0785646,0.62553376,-0.0003417452,-0.03119053,0.0060923956,0.0014127075,-0.007678838,0.0020920266,-0.008678782,0.5036172,-1.3802264,1.9028333,-2.0916865,-1.5706476,2.4790056,-0.04285781,0.035212293,-0.04605717,0.005287782,0.00561954,-0.034164876,-0.1340753,0.21068975,-9.270349,0.7239871,47.67793,-0.86822456,-2.4992619,-3.3400178,-0.06545468,0.18836331,-0.31132197,24.9375,25.5625,24.6875,26.6875,27.0,27.3125
0.070054084,-0.66357434,0.08099809,-0.16837297,0.0007407585,0.040263478,-0.09402439,-0.39034024,-0.3684617,0.05988445,-3.0786111,0.6255806,-0.00024226689,-0.03203279,0.0059084757,0.0018857251,-0.008753679,0.0020765609,-0.009148662,0.503533,-1.3801899,1.9027132,-2.0916865,-1.5706471,2.4789448,-0.04391757,0.035814334,-0.04804507,0.0061656,0.006569393,-0.03475502,-0.19153613,0.11492168,-9.308656,0.78888994,47.693153,-0.85808253,-2.4285042,-3.2803268,-0.066014744,0.18324989,-0.31428832,24.9375,25.5625,24.6875,26.6875,27.0,27.3125
0.07205422,-0.7604023,0.16432014,-0.048859905,0.0045362273,0.04387235,-0.099123776,-0.3904036,-0.36844233,0.059878495,-3.078584,0.625593,-0.00025857304,-0.033102024,0.005987919,0.0023283963,-0.009648465,0.002801863,-0.008540772,0.5034488,-1.3800938,1.9026049,-2.0916507,-1.570659,2.4788718,-0.045309007,0.036187265,-0.049499918,0.0061791665,0.0069994205,-0.036754575,-0.2873042,0.038307227,-9.289502,0.7418897,47.704796,-0.8795632,-2.420206,-3.2780752,-0.066394195,0.17828947,-0.33757684,24.9375,25.5625,24.6875,26.6875,27.0,27.3125
0.07405444,-0.6335858,0.6062606,0.08547455,0.002764638,0.049159024,-0.09428762,-0.39046407,-0.36843038,0.059877306,-3.0786035,0.6255771,-0.00025823724,-0.03367672,0.005782373,0.0016937428,-0.009566682,0.0019006204,-0.006950393,0.50336486,-1.380021,1.9025215,-2.0916507,-1.5706471,2.4787755,-0.04571758,0.03863729,-0.050907716,0.005965661,0.007359593,-0.038753066,-0.30645782,0.05746084,-9.270349,0.7597976,47.709274,-0.8822241,-2.4686007,-3.266273,-0.077555135,0.17681439,-0.32757702,24.9375,25.5625,24.6875,26.6875,27.0,27.3125
0.07605436,-0.70099133,0.0550564,-0.113058105,0.01535828,0.053705275,-0.09767155,-0.390516,-0.36843342,0.059891947,-3.0786462,0.62562615,-0.00027906496,-0.035027213,0.006964569,0.0011894093,-0.009201054,0.0010614275,-0.009637704,0.5032918,-1.3799723,1.9024252,-2.0916264,-1.5705994,2.4787276,-0.049010504,0.040159017,-0.051574677,0.006024523,0.007444007,-0.039358143,-0.34476504,0.038307227,-9.289502,0.7665104,47.691364,-0.78071404,-2.4473124,-3.3319201,-0.072475314,0.17688473,-0.33479887,24.9375,25.5625,24.6875,26.6875,27.0,27.3125
0.07805387,-1.0736948,0.27304527,0.14347787,0.008790478,0.050145082,-0.100357056,-0.3905692,-0.36842227,0.059871342,-3.078666,0.6255902,-0.00031710163,-0.036320742,0.00592993,0.0022158306,-0.01105756,0.0029579182,-0.009392593,0.503208,-1.379876,1.9023637,-2.0916507,-1.5705746,2.4786189,-0.04890762,0.040964533,-0.054846026,0.005932715,0.00814849,-0.03950014,-0.4213795,-0.019153614,-9.346964,0.75755644,47.65643,-0.7893102,-2.4728613,-3.2460134,-0.042448282,0.15351965,-0.36082596,24.9375,25.5625,24.6875,26.6875,27.0,27.3125
0.08005395,-1.1376954,0.13889673,-0.1448338,0.012299889,0.05140188,-0.09196204,-0.3906697,-0.36841407,0.0598989,3.0786366,-0.62571615,0.00027718832,-0.03595619,0.0057753534,0.0015898653,-0.010231972,0.00125896,-0.0056702513,0.5031006,-1.3797795,1.9021729,-2.0915902,-1.5705746,2.4785938,-0.04835828,0.042465232,-0.055417374,0.006890789,0.008247106,-0.042672664,-0.40222588,-0.019153614,-9.385271,0.800085,47.70211,-0.92404056,-2.388511,-3.1774976,-0.05314499,0.14648154,-0.36462852,24.9375,25.5625,24.6875,26.6875,27.0,27.3125
0.082054004,-1.3663945,0.20146735,-0.17937759,0.012908162,0.052093156,-0.09362834,-0.3907274,-0.36838302,0.059885982,3.0786388,-0.6256979,0.00033280128,-0.03596978,0.0074447906,0.00015686174,-0.008302785,-0.0019154632,-0.0059532872,0.5029797,-1.3797067,1.9021133,-2.0915773,-1.5705508,2.4784613,-0.051074043,0.043889537,-0.0540553,0.007818592,0.008091419,-0.04510578,-0.40222588,0.05746084,-9.32781,0.7597976,47.704796,-0.88415134,-2.5313816,-3.392371,-0.076152705,0.14152832,-0.34340346,24.9375,25.5625,24.6875,26.6875,27.0,27.3125
0.08405438,-1.0113436,0.28762153,-0.123278834,0.012439375,0.057752367,-0.103933424,-0.39079234,-0.3683677,0.05987903,3.0786128,-0.6256897,0.0003699194,-0.03808984,0.008018478,0.00075824326,-0.008159744,-5.843198e-06,-0.0036938754,0.50287116,-1.3796223,1.9020294,-2.0915773,-1.570515,2.4783509,-0.053347465,0.04497422,-0.05670235,0.0077838823,0.007039432,-0.04963567,-0.38307226,0.076614454,-9.32781,0.78217715,47.691364,-0.8107873,-2.4534457,-3.3329053,-0.055209827,0.1620018,-0.32141984,24.9375,25.5625,24.6875,26.6875,27.0,27.3125
0.086055204,-1.1036545,0.46669045,-0.053468972,0.0065666097,0.049945068,-0.09604047,-0.39089274,-0.36837047,0.059905995,3.078569,-0.6256622,0.000309861,-0.040320642,0.0075275977,0.002301272,-0.009955148,0.0029080852,-0.004304368,0.5027749,-1.379526,1.9018487,-2.0915534,-1.5705031,2.478243,-0.05468647,0.045433003,-0.06081203,0.008017148,0.007203449,-0.05036231,-0.38307226,0.32561144,-9.232041,0.78888994,47.684196,-0.7713866,-2.4418516,-3.2012465,-0.061311077,0.16476293,-0.30516264,24.9375,25.5625,24.6875,26.6875,27.0,27.3125
0.088054486,-1.2209,0.27963355,-0.068304814,0.006800441,0.052852627,-0.09315768,-0.3909842,-0.36831826,0.059905685,3.0785947,-0.62576103,0.0002762294,-0.039310254,0.0070383376,0.0010287536,-0.008775449,0.0009573763,-0.0013283,0.50263196,-1.3794413,1.9017409,-2.0915177,-1.5705513,2.4781587,-0.052854836,0.047461547,-0.06025014,0.007703597,0.007110163,-0.05150657,-0.4213795,0.076614454,-9.289502,0.8023209,47.687782,-0.943635,-2.4954138,-3.1994848,-0.05980915,0.13916972,-0.3159864,24.9375,25.5625,24.6875,26.6875,27.0,27.3125
0.090053804,-0.9442385,0.38839012,-0.16971639,-0.00022032017,0.06252659,-0.08987537,-0.39103973,-0.3683148,0.05988497,3.0786037,-0.6257035,0.00033125465,-0.04022863,0.008008481,0.00058694655,-0.008289059,6.620859e-05,0.00035195288,0.5025593,-1.3793209,1.9016455,-2.0915177,-1.570527,2.478049,-0.055333532,0.048605938,-0.060671687,0.007998511,0.0071114595,-0.055665392,-0.49799395,0.095768064,-9.3661175,0.7978386,47.71465,-0.89567024,-2.444015,-3.4154615,-0.08621611,0.14020489,-0.2773971,24.9375,25.5625,24.6875,26.6875,27.0,27.3125
0.09205404,-1.054749,-0.020151317,-0.21926819,-0.004822236,0.058284827,-0.09464891,-0.39115337,-0.3682936,0.059900086,3.078552,-0.6257498,0.00031295785,-0.04196969,0.008080783,0.001584674,-0.009274689,0.0023652453,0.0019571795,0.50240314,-1.3792126,1.9014777,-2.0914938,-1.5705031,2.4779284,-0.05690294,0.048703235,-0.06300441,0.0077483817,0.006864877,-0.058838416,-0.36391866,0.1340753,-9.404425,0.75084364,47.72002,-0.90504,-2.4299803,-3.2905211,-0.07843959,0.14891632,-0.24631068,24.9375,25.5625,24.6875,26.6875,27.0,27.3125
0.09405444,-0.7410082,-0.17682461,-0.1630935,-0.0075828307,0.056496415,-0.09797511,-0.39123315,-0.3682826,0.059907623,3.078523,-0.62572265,0.00030973923,-0.042403743,0.007664658,0.00078367064,-0.009073889,0.00067315355,0.0044884705,0.50229526,-1.3791275,1.901357,-2.091482,-1.5704788,2.4778073,-0.05699331,0.051839005,-0.064996086,0.008184478,0.0075020967,-0.061459646,-0.34476504,0.19153613,-9.3661175,0.8023209,47.71286,-0.92635155,-2.4847116,-3.2657754,-0.08271442,0.1506459,-0.21292175,24.9375,25.5625,24.6875,26.6875,27.0,27.3125
0.09605417,-0.820737,-0.7987303,-0.29245314,-0.0016294806,0.04490128,-0.08059917,-0.3913038,-0.36826003,0.059884675,3.0785592,-0.6257092,0.0003423221,-0.043078464,0.007921947,0.0010110919,-0.009622798,0.0010291345,0.0059189578,0.502199,-1.3789954,1.9012502,-2.09147,-1.5704907,2.477698,-0.05823312,0.051877495,-0.06555256,0.008125666,0.007808432,-0.064130485,-0.40222588,0.21068975,-9.385271,0.800085,47.70211,-0.93591046,-2.4969985,-3.3233058,-0.09833379,0.12049981,-0.17073347,24.9375,25.5625,24.6875,26.6875,27.0,27.3125
0.09805385,-0.729661,-0.5520426,-0.35367638,-0.010813036,0.03816164,-0.09303465,-0.3914196,-0.36821795,0.05990014,3.0785625,-0.6257472,0.00027500716,-0.044163372,0.007851528,0.0016602273,-0.010167873,0.0029645176,0.007363414,0.50204325,-1.3788993,1.9010934,-2.0914347,-1.570527,2.4775658,-0.058821373,0.051906567,-0.06692996,0.0075160796,0.0073528127,-0.06616168,-0.3256114,0.21068975,-9.3661175,0.7620334,47.704796,-1.0310442,-2.405516,-3.303131,-0.07605844,0.13497122,-0.1457211,24.9375,25.5625,24.6875,26.6875,27.0,27.3125
0.10005401,-0.2187643,-0.3769751,-0.4583882,-0.015880534,0.03953624,-0.0962467,-0.39146665,-0.36819288,0.05988015,3.0785894,-0.62563604,0.00036995256,-0.045327302,0.007996971,0.0016961673,-0.01002957,0.0037071838,0.008280037,0.50193506,-1.3788148,1.9010333,-2.0914104,-1.5704912,2.4773848,-0.05983595,0.053285193,-0.06857811,0.007206447,0.006867256,-0.06809156,-0.11492168,0.28730422,-9.461885,0.78217715,47.703903,-0.98851097,-2.406291,-3.3079107,-0.080538906,0.14584288,-0.10765867,24.9375,25.5625,24.6875,26.6875,27.0,27.3125
0.10205431,-0.22845511,-0.48079976,-0.34241027,-0.02115042,0.034739897,-0.08773674,-0.39160678,-0.36819077,0.059908666,3.078484,-0.6256724,0.00028021613,-0.045669157,0.008210485,0.00051394483,-0.009251864,0.0010191271,0.0073777135,0.5017791,-1.3786936,1.9008301,-2.0914342,-1.5704554,2.477265,-0.06087718,0.056456544,-0.069833584,0.008022656,0.0074859443,-0.06822975,-0.1340753,0.28730422,-9.385271,0.8023209,47.694946,-1.0271416,-2.5613334,-3.3364615,-0.08509402,0.15948234,-0.077678554,24.9375,25.5625,24.6875,26.6875,27.0,27.3125
0.1040546,-0.39964977,-0.87866825,-0.3348169,-0.012876452,0.018803338,-0.07898625,-0.3916795,-0.36820874,0.059904773,3.0784686,-0.6256116,0.00031925694,-0.046365503,0.008051711,0.0009983972,-0.010185645,0.001926758,0.006095299,0.5017189,-1.3785493,1.9006628,-2.09141,-1.5704187,2.4771688,-0.06148094,0.056446433,-0.070891134,0.007846854,0.007865669,-0.06755125,-0.076614454,0.24899697,-9.308657,0.7172743,47.647476,-1.0568209,-2.4981203,-3.3405952,-0.095271826,0.1438092,-0.075136304,24.9375,25.5625,24.6875,26.6875,27.0,27.3125
0.10605446,0.15309875,-0.52780926,-0.34513754,-0.017203296,0.01731578,-0.0896871,-0.39177147,-0.36816487,0.05989702,3.0784893,-0.62559813,0.00029465425,-0.047841314,0.008107896,0.0018908918,-0.011524969,0.0037977016,0.0037552936,0.50157464,-1.3784535,1.9005669,-2.0914104,-1.5704426,2.4770136,-0.06309767,0.056295194,-0.072665855,0.0074867345,0.008136752,-0.06682766,0.05746084,0.24899697,-9.442732,0.83365434,47.694946,-1.040957,-2.3599863,-3.364229,-0.08578791,0.14464544,-0.0696638,24.9375,25.5625,24.6875,26.6875,27.0,27.3125
0.10805376,0.5671845,-0.3293616,-0.31057775,-0.022289341,0.018921722,-0.08984334,-0.39189845,-0.36815107,0.059899673,3.078449,-0.6255894,0.0002773334,-0.048494603,0.008349474,0.0009503718,-0.010681656,0.0025073714,0.002036611,0.50141877,-1.3782963,1.9003748,-2.0914104,-1.5704187,2.4768574,-0.06401595,0.059072666,-0.07380055,0.0073839184,0.008018461,-0.06602591,0.05746084,0.2681506,-9.442732,0.76874626,47.690468,-1.0685003,-2.4520578,-3.343782,-0.09383045,0.15468048,-0.071110144,24.9375,25.5625,24.6875,26.6875,27.0,27.3125
0.11005414,-0.014784342,-0.48062965,-0.39996836,-0.024780177,0.0011293152,-0.08229436,-0.39197677,-0.36813706,0.059916016,3.0784383,-0.6255693,0.00025051154,-0.04911975,0.008421038,0.0010064675,-0.010980297,0.002108933,-0.000104576095,0.50132257,-1.3782239,1.9002436,-2.0913742,-1.5704187,2.4767501,-0.06498572,0.059954394,-0.07512221,0.008028533,0.008472616,-0.064854376,0.038307227,0.2681506,-9.3661175,0.8023209,47.70211,-1.0344096,-2.4483485,-3.3825037,-0.08734931,0.14436425,-0.08838633,24.9375,25.5625,24.6875,26.6875,27.0,27.3125
0.11205408,-0.09840878,-0.6663344,-0.39377645,-0.010480405,0.0034879274,-0.086239256,-0.39207524,-0.36812156,0.059911378,3.0784237,-0.62558633,0.00028932962,-0.050547294,0.00871006,0.0013790947,-0.011496415,0.0027713587,-0.0034271865,0.50119036,-1.3780794,1.9000748,-2.091338,-1.5703949,2.4766304,-0.06685835,0.060878266,-0.07713045,0.008285744,0.008603334,-0.06340378,0.05746084,0.19153613,-9.3661175,0.7239871,47.689575,-1.0244623,-2.4660444,-3.309348,-0.08265649,0.14135377,-0.09614297,24.9375,25.5625,24.6875,26.6875,27.0,27.3125
0.11405458,0.28023827,-0.13365053,-0.485946,-0.01461743,0.014657979,-0.092386484,-0.39218056,-0.3681163,0.05990629,3.0783556,-0.62561125,0.0003212653,-0.05215321,0.008298821,0.0025418259,-0.012514362,0.0048982045,-0.005741584,0.5010465,-1.3779353,1.8999184,-2.0913503,-1.5703348,2.4765108,-0.06755215,0.061349425,-0.080455355,0.008790081,0.008471081,-0.06178144,0.095768064,0.2681506,-9.442732,0.7530795,47.684196,-1.0957196,-2.3806717,-3.3240707,-0.09615727,0.1383383,-0.12880814,24.9375,25.5625,24.6875,26.6875,27.0,27.3125
0.11605438,0.056233212,-0.47459853,-0.51150876,-0.002687194,0.014864528,-0.0819896,-0.39228645,-0.36808732,0.05989996,3.0783734,-0.62557757,0.00028535898,-0.051972345,0.008771553,0.00030581374,-0.011205787,0.00089769735,-0.007981287,0.5009142,-1.3778015,1.8997744,-2.0913503,-1.5703582,2.4763553,-0.06864581,0.065361515,-0.0800716,0.008528143,0.009246595,-0.06063592,0.05746084,0.21068975,-9.404425,0.83589023,47.71823,-1.0671812,-2.5740073,-3.206125,-0.09303091,0.14453481,-0.14848796,24.9375,25.5625,24.6875,26.6875,27.0,27.3125
0.11805426,-0.57602876,-0.17644411,-0.4659642,-0.010797327,0.012604869,-0.08336466,-0.39239424,-0.36806026,0.059914857,3.07832,-0.62562436,0.00029426042,-0.05268104,0.008623596,0.0015239989,-0.0127784675,0.0027465848,-0.009543601,0.50074637,-1.3777063,1.8996195,-2.091314,-1.5703219,2.4762235,-0.069337256,0.06378767,-0.08101452,0.008669656,0.009739232,-0.05976542,-0.114921674,0.30645782,-9.32781,0.7709874,47.692257,-1.1460752,-2.4641235,-3.3287535,-0.100899816,0.14319062,-0.18016136,24.9375,25.5625,24.6875,26.6875,27.0,27.3125
0.12005447,-0.57224643,-0.43731922,-0.6413751,-0.0073812483,0.028359726,-0.081475355,-0.3924819,-0.36803198,0.059883203,3.078332,-0.6256655,0.00039076296,-0.0549694,0.007681826,0.0034352124,-0.0152362315,0.0056750593,-0.0107456455,0.5006025,-1.377538,1.8994864,-2.0912898,-1.5702976,2.4761038,-0.07031388,0.0642855,-0.08616772,0.009576352,0.010478413,-0.059539624,-0.13407528,0.2681506,-9.404425,0.8314132,47.698532,-1.1626794,-2.261295,-3.1612542,-0.094746485,0.13345762,-0.20811181,24.9375,25.5625,24.6875,26.6875,27.0,27.3125
0.12205445,-0.29132167,-0.17974783,-0.65261686,-0.013015652,0.04700128,-0.094657496,-0.39259234,-0.36804464,0.059923127,3.0782664,-0.62563163,0.0003177893,-0.053443845,0.008002261,0.0002698668,-0.012806254,-0.0005713494,-0.010920207,0.50050676,-1.3774399,1.8992714,-2.091254,-1.5702738,2.4759953,-0.069969326,0.06892462,-0.08456156,0.009976387,0.011354362,-0.05902082,-0.095768064,0.28730422,-9.404425,0.76874626,47.667187,-1.2563168,-2.5809972,-3.2762194,-0.119147226,0.12350458,-0.2383129,24.9375,25.5625,24.6875,26.6875,27.0,27.3125
0.12405438,-0.70254076,-0.34093255,-0.58738804,-0.016152766,0.04819254,-0.08536954,-0.39271536,-0.36800736,0.05991469,3.0782526,-0.6257444,0.0003059055,-0.05604908,0.009211155,0.0019563443,-0.013624677,0.0022545964,-0.012766015,0.5003377,-1.3772845,1.8991035,-2.0912416,-1.5702857,2.4758985,-0.07398684,0.06770408,-0.08718107,0.010948796,0.010714512,-0.061190918,-0.22984336,0.22984336,-9.3661175,0.83813137,47.711063,-1.2234526,-2.4640403,-3.2617626,-0.13770719,0.11366313,-0.23853676,24.9375,25.5625,24.6875,26.6875,27.0,27.3125
0.12605399,-0.96602327,-0.9829371,-0.60379267,-0.005997283,0.05426122,-0.079559736,-0.3928026,-0.36801562,0.059910692,3.0781972,-0.62569475,0.00039197627,-0.0562435,0.008174196,0.0022355851,-0.014043907,0.0035227712,-0.011449328,0.5002187,-1.37714,1.8989362,-2.0912182,-1.5702018,2.4757555,-0.0722534,0.068549395,-0.088678114,0.010293792,0.010470264,-0.06077306,-0.21068975,0.21068975,-9.442732,0.7911258,47.67614,-1.2963142,-2.308467,-3.2487965,-0.13562201,0.12375948,-0.26498982,24.9375,25.5625,24.6875,26.6875,27.0,27.3125
0.128054,-1.1389616,-0.62941414,-0.5581456,-0.009878014,0.055673562,-0.0752002,-0.39293873,-0.36798167,0.05990969,3.078197,-0.6257514,0.00035529918,-0.05658748,0.008663334,0.0014964332,-0.013949163,0.002100032,-0.013203518,0.5000506,-1.3769714,1.898733,-2.0911944,-1.5702256,2.475623,-0.07374164,0.06993383,-0.08861363,0.0101368595,0.011071324,-0.060507633,-0.28730422,0.19153613,-9.5385,0.8224646,47.696735,-1.3645651,-2.463446,-3.332611,-0.13371441,0.0973023,-0.31145173,24.9375,25.5625,24.6875,26.6875,27.0,27.3125
0.1300538,-1.3903934,-0.66281945,-0.64594877,-0.0031643286,0.06015936,-0.08113437,-0.39304745,-0.3679779,0.059907142,3.078168,-0.62572825,0.0003523811,-0.05894057,0.010230966,0.0017959784,-0.014030301,0.0026390036,-0.016288893,0.49992895,-1.376815,1.8985533,-2.091194,-1.5702018,2.4754906,-0.07841001,0.070752256,-0.090373546,0.010570761,0.010883959,-0.06208936,-0.36391866,0.19153613,-9.500193,0.7642693,47.693153,-1.2199033,-2.3759058,-3.272002,-0.14494808,0.09959528,-0.3457836,24.9375,25.5625,24.6875,26.6875,27.0,27.3125
0.13205409,-1.1725029,0.073490076,-0.63859254,-0.004414511,0.06369947,-0.08547262,-0.39312932,-0.36794865,0.059887312,3.0781522,-0.6257788,0.0004591985,-0.05872555,0.008861606,0.0022130695,-0.014104281,0.0038514072,-0.012649726,0.49977455,-1.3766825,1.8984331,-2.0911577,-1.5701541,2.4753697,-0.07556792,0.07144305,-0.09214842,0.010562302,0.01036241,-0.062885456,-0.36391866,0.15322891,-9.481039,0.7642693,47.694946,-1.3275688,-2.3182456,-3.2299566,-0.1466536,0.10690963,-0.35421416,24.9375,25.5625,24.6875,26.6875,27.0,27.3125
0.13405442,-1.148161,0.14089726,-0.5698616,0.0040420783,0.068525255,-0.08588966,-0.3932668,-0.36792573,0.05990623,3.0780869,-0.6258454,0.00042471956,-0.061481554,0.008944195,0.003569862,-0.016001584,0.0067385486,-0.018074779,0.49959397,-1.3765503,1.898228,-2.0911343,-1.5701298,2.475239,-0.078393005,0.0721023,-0.095956884,0.010269231,0.0106402775,-0.060283717,-0.40222588,0.019153614,-9.481039,0.8090337,47.711063,-1.3460733,-2.2913358,-3.320753,-0.15326715,0.11305465,-0.43530864,24.9375,25.5625,24.6875,26.6875,27.0,27.3125
0.13605414,-1.0808785,0.06836976,-0.5873327,0.010598874,0.06740641,-0.08549919,-0.39339122,-0.36789817,0.059907578,3.0780582,-0.62587595,0.00041246935,-0.0613497,0.010281693,0.0022765305,-0.014185916,0.0045039686,-0.01760012,0.49942574,-1.3764055,1.8980502,-2.0911214,-1.5701183,2.4750936,-0.08017123,0.073199734,-0.09435912,0.010410997,0.0101242075,-0.06253621,-0.47884035,0.038307227,-9.500193,0.800085,47.705692,-1.3127985,-2.2989492,-3.3405569,-0.15648942,0.10925641,-0.4615007,24.9375,25.5625,24.6875,26.6875,27.0,27.3125
0.1380542,-1.378181,0.01030299,-0.61086845,0.02204054,0.060917128,-0.084093235,-0.39351362,-0.3679092,0.05992405,3.0779746,-0.6258962,0.00041567459,-0.06279524,0.009731892,0.0029238546,-0.015779253,0.0060998434,-0.015361159,0.4992937,-1.3762492,1.8978223,-2.0910985,-1.5700577,2.474985,-0.08094661,0.07423988,-0.09693195,0.009784525,0.0107569005,-0.06554964,-0.40222588,-0.095768064,-9.519346,0.8806493,47.71017,-1.3065307,-2.260511,-3.3362517,-0.15003851,0.11227235,-0.46337807,24.9375,25.5625,24.6875,26.6875,27.0,27.3125
0.14005436,-1.2388842,0.08579986,-0.54155403,0.0149299605,0.057959706,-0.08207167,-0.3936475,-0.3678649,0.05990469,3.077984,-0.62591714,0.00047091677,-0.06513057,0.01108023,0.003077347,-0.016258728,0.006307916,-0.016751321,0.49908847,-1.3760566,1.8976296,-2.0910628,-1.5700458,2.4747915,-0.08553056,0.07552506,-0.098876424,0.010035624,0.011075466,-0.06874331,-0.38307226,0.0,-9.461885,0.7620334,47.686886,-1.197463,-2.2236896,-3.1583042,-0.16123988,0.098115236,-0.47041607,24.9375,25.5625,24.6875,26.6875,27.0,27.3125
0.14205377,-0.8404696,0.39119568,-0.4753478,0.005415571,0.06863227,-0.087379776,-0.39380848,-0.36784205,0.05993919,3.0779123,-0.6260134,0.00034624955,-0.064980775,0.010231583,0.0032479535,-0.015723966,0.0072780224,-0.009315136,0.49890944,-1.3759241,1.8973912,-2.0910504,-1.5700582,2.4746819,-0.08335736,0.076210685,-0.10006682,0.009952416,0.010149096,-0.07400358,-0.51714754,-0.095768064,-9.385271,0.8157518,47.698532,-1.2780116,-2.2362342,-3.3134742,-0.15282905,0.105524,-0.45137715,24.9375,25.5625,24.6875,26.6875,27.0,27.3125
0.14405423,-1.5170844,0.29326054,-0.5778139,0.015007319,0.05731332,-0.079471834,-0.39392146,-0.3678473,0.059950434,3.0778375,-0.6259573,0.0003360015,-0.06672205,0.011206101,0.0030430285,-0.015294067,0.0069924328,-0.0073014772,0.49877685,-1.3757914,1.897211,-2.0910623,-1.5699981,2.4745238,-0.0864242,0.078138836,-0.102005325,0.010429527,0.009912906,-0.079082206,-0.49799395,-0.038307227,-9.346964,0.80456203,47.681515,-1.391007,-2.201011,-3.2950172,-0.16992843,0.107771136,-0.41450074,24.9375,25.5625,24.6875,26.6875,27.0,27.3125
0.14605449,-1.6603645,0.24283259,-0.58361477,0.016342102,0.06308698,-0.08022656,-0.39406145,-0.36779168,0.059925217,3.0778933,-0.6259867,0.00033241278,-0.06767681,0.012035469,0.0027306525,-0.015055116,0.0067798737,-0.00567383,0.49858448,-1.375587,1.8970202,-2.0910385,-1.5700463,2.4743428,-0.088596776,0.07903471,-0.10230853,0.010138874,0.009804033,-0.08288242,-0.49799395,-0.11492168,-9.3661175,0.86945957,47.691364,-1.1233019,-2.2694454,-3.293676,-0.14992878,0.10439571,-0.4075168,24.9375,25.5625,24.6875,26.6875,27.0,27.3125
0.14805467,-1.1110793,0.19984922,-0.42144778,0.0078460425,0.07071818,-0.08517335,-0.39422396,-0.3677806,0.05999602,3.0778084,-0.6259822,0.00017601509,-0.06848056,0.012542544,0.0024033,-0.014498754,0.006124824,0.0017670809,0.49841633,-1.3755023,1.8967451,-2.0909784,-1.5700463,2.4741828,-0.090051875,0.08052292,-0.103447445,0.010639097,0.009643839,-0.09177636,-0.5554548,-0.038307227,-9.3661175,0.7642693,47.670765,-1.3348782,-2.3044157,-3.3103614,-0.16628993,0.10845123,-0.33297014,24.9375,25.5625,24.6875,26.6875,27.0,27.3125
0.15005437,-1.2025433,-0.11497549,-0.36249995,0.0065566865,0.06890379,-0.07931969,-0.3943628,-0.36774546,0.05997874,3.0777798,-0.62597734,0.00024047586,-0.07026732,0.013842081,0.0023946657,-0.01441475,0.0058204983,-0.00012606924,0.49819973,-1.3753097,1.8965529,-2.090966,-1.5699981,2.4739668,-0.09388547,0.0816589,-0.10494413,0.011314968,0.009716011,-0.09371634,-0.4405331,0.05746084,-9.423578,0.78888994,47.687782,-1.2118306,-2.2598653,-3.3749633,-0.18995139,0.10490596,-0.2765417,24.9375,25.5625,24.6875,26.6875,27.0,27.3125
0.15205388,-1.1203891,-0.08210278,-0.5006711,0.0057362476,0.06279363,-0.090686046,-0.39447564,-0.3677174,0.059953354,3.0777788,-0.6259573,0.00034921762,-0.07176687,0.014935567,0.0023322995,-0.014172564,0.0056156167,0.00056642265,0.49801895,-1.3751173,1.8963741,-2.0909297,-1.56995,2.4737737,-0.096996136,0.08273051,-0.10620115,0.011805706,0.009598319,-0.09751927,-0.40222588,0.076614454,-9.442732,0.8403672,47.681515,-1.0802671,-2.2179794,-3.3723245,-0.1926409,0.11205645,-0.22308081,24.9375,25.5625,24.6875,26.6875,27.0,27.3125
0.15405397,-0.8288875,0.07668068,-0.46810317,-0.0015115623,0.06265372,-0.08183858,-0.39464343,-0.3676777,0.05996466,3.0777283,-0.6260031,0.00030364736,-0.07346997,0.015498064,0.0022799831,-0.013805021,0.0058899536,0.0010460871,0.49779075,-1.3749485,1.8961452,-2.0909178,-1.5699381,2.4735806,-0.09918319,0.084789865,-0.10860471,0.012091504,0.009148211,-0.10018383,-0.2681506,0.076614454,-9.442732,0.7620334,47.698532,-0.9177928,-2.1271799,-3.31812,-0.19437271,0.11343695,-0.17401764,24.9375,25.5625,24.6875,26.6875,27.0,27.3125
0.15605378,-0.57855546,-0.04894312,-0.20893216,-0.0095415935,0.061399937,-0.084007725,-0.39477038,-0.36765555,0.059967954,3.0777032,-0.6259211,0.00028633967,-0.0745959,0.016136382,0.0022759994,-0.014009852,0.006012918,-0.0009780779,0.4976222,-1.3748038,1.8959659,-2.0909178,-1.5699142,2.473364,-0.10133224,0.0855432,-0.10948366,0.012014932,0.009272895,-0.10030809,-0.47884032,0.11492168,-9.385271,0.87393653,47.71465,-0.89046293,-2.3386629,-3.364668,-0.19598827,0.1162263,-0.14745073,24.9375,25.5625,24.6875,26.6875,27.0,27.3125
0.15805386,-0.95555687,-0.23282032,-0.33054394,0.0008143732,0.059771612,-0.08083765,-0.39492327,-0.36760154,0.059952687,3.0777209,-0.6260034,0.0002907839,-0.07638439,0.016235758,0.003693487,-0.01509586,0.0090376,-0.0038062176,0.49740627,-1.3745999,1.8957504,-2.090882,-1.5699385,2.4731975,-0.1027924,0.08484155,-0.1118691,0.011926065,0.008778277,-0.09893901,-0.51714754,0.11492168,-9.308657,0.784413,47.683304,-0.84906816,-2.1588802,-3.3629913,-0.20182578,0.11904293,-0.14423195,24.9375,25.5625,24.6875,26.6875,27.0,27.3125
0.16005455,-1.1366302,-0.029391658,-0.10202874,0.0074056787,0.059689727,-0.0835182,-0.39509255,-0.36758128,0.05998477,3.077629,-0.625986,0.00017506916,-0.076119706,0.017344484,0.00056484295,-0.011865043,0.0039006325,-0.009207948,0.49720222,-1.3744661,1.8955239,-2.090906,-1.5699147,2.4729943,-0.10413642,0.090180956,-0.11109727,0.0118732,0.008402851,-0.09487941,-0.45968673,0.1340753,-9.346964,0.7866488,47.70032,-0.8121259,-2.2140071,-3.3891284,-0.21294522,0.13453531,-0.17355853,24.9375,25.5625,24.6875,26.6875,27.0,27.3125
0.16205406,-1.2672875,0.25112516,-0.23299754,0.0009272002,0.059462056,-0.070255384,-0.3952525,-0.36756498,0.05999996,3.0775573,-0.62599194,0.00016412511,-0.07834483,0.016884195,0.0030981717,-0.014719205,0.00809744,-0.014561845,0.4969983,-1.3742865,1.8952707,-2.090882,-1.5698665,2.4728034,-0.105670005,0.0884048,-0.114872254,0.012375711,0.008908021,-0.091058016,-0.4405331,0.095768064,-9.289503,0.83589023,47.64927,-0.8131105,-2.1570706,-3.4086738,-0.22242682,0.11848186,-0.22555043,24.9375,25.5625,24.6875,26.6875,27.0,27.3125
0.16405413,-1.0374025,-0.23427337,-0.0026298573,0.012058726,0.06592752,-0.07962702,-0.39541847,-0.36753058,0.060007595,3.077481,-0.62607414,0.00017336974,-0.0779539,0.017096594,0.0015035281,-0.013778569,0.005682568,-0.018116321,0.4967587,-1.3741055,1.8950328,-2.0908582,-1.5698184,2.4726248,-0.10582627,0.09087165,-0.11402516,0.011635402,0.00923638,-0.08765972,-0.34476504,0.11492168,-9.212888,0.7150385,47.703903,-0.891422,-2.271339,-3.4866123,-0.21659702,0.12494888,-0.27973434,24.9375,25.5625,24.6875,26.6875,27.0,27.3125
0.1660541,-0.61568516,0.029582571,-0.065202385,0.010659328,0.06129231,-0.08729691,-0.39557976,-0.3674705,0.05998872,3.0775506,-0.6261259,0.00014417342,-0.07917577,0.016520977,0.0018541088,-0.014219268,0.0071101957,-0.018821778,0.49655506,-1.3738766,1.8947929,-2.0908105,-1.5698909,2.4724448,-0.10575179,0.09253887,-0.116724566,0.011198476,0.008935526,-0.08687852,-0.24899697,0.1340753,-9.270349,0.8224646,47.71286,-0.8863801,-2.259665,-3.3490188,-0.20562205,0.13479821,-0.3162258,24.9375,25.5625,24.6875,26.6875,27.0,27.3125
0.16805428,-0.28004956,0.15385234,-0.026281424,-0.004704294,0.048942782,-0.08786903,-0.39572623,-0.3674485,0.05999731,3.077467,-0.62618417,0.00018921932,-0.08080454,0.016211964,0.0028271116,-0.015083797,0.009538769,-0.018357841,0.49633944,-1.3737081,1.894565,-2.0907743,-1.5698189,2.4722762,-0.1064328,0.09309616,-0.11955095,0.010931086,0.008537895,-0.08802174,-0.24899697,0.13407528,-9.212888,0.79560274,47.701214,-0.9216314,-2.2338147,-3.3042264,-0.20264533,0.15717942,-0.33441436,24.9375,25.5625,24.6875,26.6875,27.0,27.3125
0.17005427,0.09347896,-0.03710846,-0.18609369,-0.0055032023,0.037145738,-0.08828325,-0.39590973,-0.36741513,0.059988268,3.0774572,-0.62616324,0.00013620732,-0.08218004,0.017175369,0.0013096569,-0.014663275,0.0067768325,-0.020243393,0.49612266,-1.3734667,1.8943013,-2.0907867,-1.5698303,2.4720478,-0.10984693,0.09712873,-0.120905444,0.010880926,0.009487106,-0.0895497,-0.11492168,0.19153613,-9.136273,0.7866488,47.68599,-0.91138566,-2.344324,-3.303862,-0.21540032,0.14834411,-0.33287156,24.9375,25.5625,24.6875,26.6875,27.0,27.3125
0.17205454,0.037439153,-0.25144506,-0.115163445,-0.016561957,0.025340963,-0.07399969,-0.3960344,-0.3673741,0.059976235,3.077445,-0.6262531,0.00017730973,-0.08248345,0.015118695,0.0034679433,-0.016532538,0.01022941,-0.016628873,0.49593243,-1.3732991,1.894121,-2.09075,-1.5698184,2.4719152,-0.106633194,0.0958377,-0.12451151,0.011855199,0.009483192,-0.08994963,-0.1340753,0.24899697,-9.251195,0.8179876,47.690468,-1.0874455,-2.2464204,-3.330607,-0.23308337,0.15694368,-0.34914094,24.9375,25.5625,24.6875,26.6875,27.0,27.3125
0.17405379,-0.3861042,-0.64853543,-0.15054363,-0.018083496,0.0236906,-0.07671697,-0.39620903,-0.3673295,0.059979208,3.0774183,-0.62630856,0.00017878097,-0.08338388,0.01839843,-0.00023244685,-0.012548535,0.0037632536,-0.02273226,0.49569067,-1.3730929,1.8938583,-2.0907023,-1.5698065,2.4717116,-0.112650916,0.10138978,-0.122795805,0.012175173,0.009063556,-0.08986339,-0.15322891,0.22984336,-9.308657,0.76874626,47.65912,-0.8909285,-2.3570914,-3.3653135,-0.26114208,0.16925567,-0.38510385,24.9375,25.5625,24.6875,26.6875,27.0,27.3125
0.17605439,0.03692261,-0.48798087,-0.2657597,-0.017716207,0.027696876,-0.09207597,-0.39638257,-0.36730045,0.059993155,3.0773668,-0.626353,0.00013201337,-0.08479927,0.016149355,0.0032889333,-0.017193682,0.009223614,-0.020165434,0.4954758,-1.3729019,1.8935941,-2.0906785,-1.569794,2.4715312,-0.11103861,0.09848608,-0.12749346,0.01276282,0.0105521325,-0.09081739,-0.019153614,0.24899697,-9.270349,0.85826975,47.696735,-1.0244135,-2.2425985,-3.1663964,-0.26201752,0.16473272,-0.4039051,24.9375,25.5625,24.6875,26.6875,27.0,27.3125
0.17805372,-0.46269202,-0.92464054,-0.2897811,-0.014535518,0.023897905,-0.08291189,-0.39656392,-0.36727214,0.060009375,3.0772786,-0.62643015,5.9390994e-05,-0.084488645,0.01682766,0.0007658168,-0.015397391,0.0045302403,-0.0208172,0.49524775,-1.3727201,1.8933438,-2.0906909,-1.5697697,2.4713626,-0.112252966,0.10285412,-0.12699927,0.012886563,0.011215016,-0.09137917,0.0,0.2873042,-9.212888,0.83813137,47.65464,-0.9921035,-2.335494,-3.3450413,-0.25678763,0.16586734,-0.42693883,24.9375,25.5625,24.6875,26.6875,27.0,27.3125
0.1800538,-0.054661386,-0.60029054,-0.26555502,-0.022217017,0.031535935,-0.07637579,-0.39672467,-0.36725342,0.059991237,3.077238,-0.6264359,0.0001349302,-0.085977726,0.015825575,0.0019912943,-0.01697716,0.0072272266,-0.013548396,0.49503252,-1.3724675,1.8930792,-2.0906665,-1.5697097,2.4711561,-0.11194588,0.103501596,-0.13052551,0.012656212,0.011322024,-0.098339684,-0.019153614,0.3256114,-9.232041,0.8247004,47.698532,-1.0447264,-2.3681874,-3.1581833,-0.2664247,0.17098811,-0.37275732,24.9375,25.5625,24.6875,26.6875,27.0,27.3125
0.18205483,0.04932135,-0.5279619,-0.37326866,-0.014391352,0.03388085,-0.087662846,-0.39688072,-0.3672001,0.05994968,3.0772917,-0.6264656,0.000186091,-0.08752963,0.016480096,0.0010657834,-0.01670402,0.006194466,-0.01293671,0.49481583,-1.3722022,1.8928522,-2.0906422,-1.569734,2.4709513,-0.114564024,0.10676996,-0.13221756,0.012120901,0.011566218,-0.10156926,0.076614454,0.34476504,-9.289502,0.83365434,47.67166,-0.9121424,-2.4080348,-3.235601,-0.28211275,0.16193041,-0.36303172,24.9375,25.5625,24.6875,26.6875,27.0,27.3125
0.18405399,0.33282596,-0.6457626,-0.46599227,-0.006156927,0.037000395,-0.08498734,-0.39705986,-0.36718178,0.05999184,3.0771668,-0.62649167,0.0001438153,-0.087892614,0.01577517,0.0012180079,-0.01639467,0.007056399,-0.0050896173,0.4945771,-1.3720577,1.8925766,-2.090607,-1.5696615,2.4707448,-0.11324278,0.10805253,-0.1341044,0.0121329175,0.010898583,-0.10809265,-0.038307227,0.36391866,-9.270349,0.84484416,47.690468,-1.2038499,-2.5225134,-3.104842,-0.27236184,0.1808907,-0.30103442,24.9375,25.5625,24.6875,26.6875,27.0,27.3125
0.18605378,-0.20189285,-0.8705842,-0.37095523,-0.017424937,0.022632666,-0.08343659,-0.39723948,-0.36715487,0.05999071,3.0771585,-0.62648726,0.00015814533,-0.089009196,0.015847342,0.0020619337,-0.017821342,0.007531768,-0.0019479023,0.49436074,-1.3718054,1.8922652,-2.0905464,-1.5696491,2.470527,-0.11496541,0.1079476,-0.13616529,0.013208554,0.011933468,-0.11295712,0.038307227,0.3256114,-9.32781,0.88960326,47.71823,-0.98878896,-2.4246302,-3.1531425,-0.28114814,0.17150098,-0.2652612,24.9375,25.5625,24.6875,26.6875,27.0,27.3125
0.18805401,-0.3115689,-0.77465653,-0.48857334,-0.016590971,0.022988046,-0.07863608,-0.39741924,-0.36710677,0.059982985,3.077147,-0.6264994,0.00017171665,-0.08948839,0.016055647,0.0016668214,-0.017586736,0.0070225126,0.0040483666,0.49410915,-1.3715767,1.8920025,-2.090511,-1.5696372,2.4702845,-0.11572081,0.109261274,-0.13683882,0.013139611,0.011975558,-0.11970843,-0.076614454,0.34476504,-9.385271,0.83589023,47.689575,-1.217788,-2.3889322,-3.1492019,-0.27939904,0.18406016,-0.17002873,24.9375,25.5625,24.6875,26.6875,27.0,27.3125
0.19005448,-0.1604181,-0.7563702,-0.64393747,-0.020830493,0.03202809,-0.08147822,-0.39759806,-0.3670749,0.059987716,3.0771098,-0.62649226,0.000101265745,-0.09030621,0.016622663,0.0015598818,-0.017449468,0.006608494,0.002100305,0.49389318,-1.3713725,1.8917512,-2.0905225,-1.5696372,2.470069,-0.11741275,0.11014238,-0.13777554,0.013626939,0.0120599745,-0.11945126,-0.15322891,0.34476504,-9.481039,0.8291774,47.688675,-1.1384448,-2.3754315,-3.1758773,-0.3088828,0.19172508,-0.15449218,24.9375,25.5625,24.6875,26.6875,27.0,27.3125
0.1920546,-0.47455785,-0.8821665,-0.588165,-0.025915565,0.034509234,-0.07732848,-0.39777812,-0.36703026,0.059974708,3.0770872,-0.6264877,0.00020686386,-0.092031,0.016073873,0.002256007,-0.019401172,0.007930541,0.0006268625,0.49361724,-1.3711195,1.8914632,-2.0904505,-1.5695766,2.469793,-0.11866882,0.11157457,-0.14102803,0.01336469,0.013143835,-0.11923364,-0.1340753,0.2873042,-9.519346,0.80679786,47.667187,-1.1500149,-2.363135,-3.115618,-0.33314264,0.18748993,-0.09286198,24.9375,25.5625,24.6875,26.6875,27.0,27.3125
0.19405381,-0.5906209,-1.0392536,-0.7398587,-0.012502432,0.036208116,-0.07847132,-0.39797962,-0.36701298,0.05998994,3.077053,-0.6264439,9.703197e-05,-0.09136637,0.01736813,0.0013526378,-0.017716391,0.0064603416,-0.004066652,0.49341327,-1.3708795,1.8911427,-2.0904505,-1.5695895,2.4695663,-0.11969755,0.111032106,-0.13834253,0.013314424,0.012371819,-0.11556852,-0.17238252,0.21068975,-9.595961,0.7665104,47.64658,-1.187865,-2.3372614,-3.2876039,-0.34013468,0.19769888,-0.13741687,24.9375,25.5625,24.6875,26.6875,27.0,27.3125
0.19605426,-0.4118773,-0.72297865,-0.7151798,-0.005744507,0.044745687,-0.07216046,-0.39813894,-0.3669901,0.05999839,3.076987,-0.62637466,0.00012720944,-0.09236544,0.017280757,5.0925723e-07,-0.017103685,0.004407567,-0.009525973,0.49318552,-1.3706976,1.8909014,-2.0904267,-1.569517,2.4693038,-0.120671414,0.11562432,-0.14073783,0.013220027,0.0128017785,-0.111081265,-0.19153613,0.1340753,-9.442732,0.8605109,47.70211,-1.2072015,-2.4192257,-3.1889858,-0.32619977,0.20471534,-0.17385423,24.9375,25.5625,24.6875,26.6875,27.0,27.3125
0.19805399,-0.78971726,0.05256038,-0.7256225,0.0032223247,0.043104324,-0.08214786,-0.39831796,-0.36693197,0.05998369,3.0769997,-0.62643677,0.00014417697,-0.09391197,0.017623642,0.0019568233,-0.019084742,0.008169158,-0.015244239,0.49293342,-1.3704586,1.8906392,-2.090379,-1.5695294,2.469089,-0.12256248,0.112828545,-0.14178231,0.012806592,0.012760661,-0.10725442,-0.22984336,0.095768064,-9.500193,0.8403672,47.66808,-1.1681117,-2.3210807,-3.307952,-0.33014494,0.20689967,-0.21667242,24.9375,25.5625,24.6875,26.6875,27.0,27.3125
0.2000544,-0.45766276,0.44491246,-0.7083252,0.01902436,0.052827418,-0.08331371,-0.39852247,-0.36691284,0.059989173,3.076924,-0.626519,0.00012708886,-0.09398938,0.018218927,-0.00046004224,-0.018140303,0.0036596863,-0.020395502,0.4926933,-1.3701926,1.8903044,-2.0903552,-1.5694927,2.46891,-0.1243735,0.117382616,-0.14169583,0.012584089,0.014066836,-0.103913695,-0.1340753,0.019153614,-9.576807,0.8247004,47.67614,-1.1238112,-2.4902585,-3.423083,-0.33298153,0.21192575,-0.289756,24.9375,25.5625,24.6875,26.6875,27.0,27.3125
0.2020545,-0.52613413,0.32136303,-0.7358348,0.024841627,0.05184916,-0.08643791,-0.39870292,-0.36688197,0.059981108,3.0768456,-0.6265613,0.00014594429,-0.09576141,0.018789627,0.0006573168,-0.019387286,0.0063057593,-0.024009766,0.49244106,-1.369965,1.8900541,-2.090367,-1.5694326,2.4686942,-0.12677692,0.1164347,-0.1429713,0.011895152,0.013915624,-0.10270196,-0.30645782,-0.11492168,-9.5385,0.8717007,47.704796,-1.0522951,-2.320942,-3.585019,-0.33753482,0.19593349,-0.32940757,24.9375,25.5625,24.6875,26.6875,27.0,27.3125
0.20405379,-0.32935333,0.83180076,-0.5448399,0.016602924,0.06527664,-0.080565445,-0.39889792,-0.36685583,0.059998456,3.0768032,-0.6265714,0.00010141342,-0.09540968,0.019161629,-0.00030046105,-0.018907387,0.0045644566,-0.02574519,0.4922134,-1.3697362,1.8897313,-2.0903199,-1.5694207,2.4684784,-0.12727131,0.11746246,-0.14198843,0.011647267,0.014324068,-0.10146073,-0.4213795,-0.11492168,-9.5385,0.73741806,47.694946,-1.0823749,-2.3039966,-3.5570025,-0.32706618,0.20947483,-0.4099954,24.9375,25.5625,24.6875,26.6875,27.0,27.3125
0.20605418,-1.0152948,0.4790085,-0.5245675,0.02299355,0.06167129,-0.077111006,-0.39908034,-0.36681446,0.05998395,3.076759,-0.6266401,0.00016489178,-0.0975022,0.018797627,0.0012396713,-0.020177646,0.0076653035,-0.027651379,0.49194935,-1.3694838,1.8894552,-2.0902836,-1.5693725,2.468263,-0.12827152,0.11772423,-0.1458995,0.011972273,0.01397246,-0.10055333,-0.49799395,-0.24899697,-9.576807,0.83365434,47.701214,-1.0887334,-2.2833986,-3.4910479,-0.3236284,0.21333067,-0.44553345,24.9375,25.5625,24.6875,26.6875,27.0,27.3125
0.20805448,-0.86315334,0.5563128,-0.7831978,0.027349116,0.077312164,-0.07886198,-0.39930853,-0.36676446,0.0600142,3.0766203,-0.6268425,7.39074e-05,-0.09879347,0.020113302,-0.0001330521,-0.019102484,0.0046264366,-0.031617105,0.49163705,-1.3692904,1.8891557,-2.0902832,-1.5693363,2.4680948,-0.13187408,0.12135077,-0.14735843,0.01299694,0.0144736795,-0.1001879,-0.45968673,-0.22984336,-9.5385,0.86945957,47.683304,-1.1250691,-2.230805,-3.550311,-0.33340454,0.20765728,-0.4873478,24.9375,25.5625,24.6875,26.6875,27.0,27.3125
0.21005379,-0.778838,0.98971665,-0.6707699,0.017814085,0.08504001,-0.08677377,-0.39947748,-0.36674222,0.05999569,3.0765944,-0.6268523,0.00017666482,-0.09919326,0.018766806,0.0019300209,-0.020629233,0.008366122,-0.02715086,0.49141037,-1.3690151,1.8888558,-2.090223,-1.5692767,2.4678776,-0.12965748,0.11929469,-0.14971456,0.013405707,0.01405267,-0.10243742,-0.51714754,-0.15322891,-9.500193,0.8605109,47.690468,-1.2207553,-2.212901,-3.4898036,-0.35535008,0.20964883,-0.51997036,24.9375,25.5625,24.6875,26.6875,27.0,27.3125
0.21205387,-1.6348786,0.43173394,-0.771247,0.014398513,0.0800152,-0.07835176,-0.39969754,-0.36668298,0.060002953,3.0765662,-0.6269795,8.693121e-05,-0.09972859,0.01933383,-0.000114268114,-0.019249924,0.004253662,-0.025232268,0.49113435,-1.3687729,1.8885449,-2.0901992,-1.569312,2.4676847,-0.13147363,0.12421529,-0.15114956,0.014199929,0.014788085,-0.10617062,-0.61291564,-0.038307227,-9.576807,0.8672237,47.684196,-1.180687,-2.3630292,-3.5032313,-0.3459506,0.21165967,-0.5042253,24.9375,25.5625,24.6875,26.6875,27.0,27.3125
0.21405478,-1.4389074,-0.04502305,-0.8347413,0.011478489,0.08904234,-0.07968843,-0.39988142,-0.36664203,0.060009196,3.0764914,-0.6270524,9.243416e-05,-0.10055405,0.019508798,0.001162915,-0.019725189,0.006620568,-0.015845845,0.4908708,-1.3685695,1.8882827,-2.090175,-1.5692648,2.4674764,-0.13202368,0.12258445,-0.15222085,0.014616618,0.014108405,-0.116106324,-0.4213795,0.0,-9.672575,0.8918391,47.687782,-1.1630747,-2.1506479,-3.500454,-0.35728136,0.22167222,-0.44648165,24.9375,25.5625,24.6875,26.6875,27.0,27.3125
0.21605411,-1.2572297,-0.104010135,-0.89755833,-0.010170125,0.09412186,-0.0842555,-0.4000926,-0.36661085,0.060005326,3.0764458,-0.6270218,8.6326916e-05,-0.10284472,0.020408599,0.0015624231,-0.02002624,0.007535839,-0.013014931,0.49060598,-1.3682928,1.8879584,-2.0901625,-1.5692285,2.4671984,-0.13542321,0.12402857,-0.1549663,0.014986748,0.013952901,-0.12233509,-0.38307226,0.095768064,-9.710882,0.8493211,47.647476,-0.958388,-2.077707,-3.4607592,-0.365274,0.22090575,-0.399122,24.9375,25.5625,24.6875,26.6875,27.0,27.3125
0.21805431,-1.3451995,-0.6141519,-0.9499589,-0.022720115,0.08680837,-0.07962995,-0.4003038,-0.36655807,0.060027033,3.0764327,-0.6270327,6.7633114e-06,-0.10389294,0.020892864,0.00012934372,-0.018709114,0.005693337,-0.0052372157,0.4903424,-1.368075,1.8876356,-2.090103,-1.5692528,2.4669435,-0.13693558,0.12818053,-0.15664513,0.014774818,0.013675553,-0.13162324,-0.61291564,0.19153613,-9.615114,0.90527004,47.668976,-1.1955245,-2.1121233,-3.4814787,-0.38347885,0.24470219,-0.28548613,24.9375,25.5625,24.6875,26.6875,27.0,27.3125
0.22005448,-1.7009804,-1.1146725,-0.7756186,-0.035066158,0.08635167,-0.084099256,-0.40048796,-0.36651295,0.059994116,3.076429,-0.62702864,8.7912544e-05,-0.105109096,0.020390302,0.00024705782,-0.01937564,0.0061649214,-0.00073468476,0.49007875,-1.367786,1.88736,-2.090079,-1.5692166,2.466678,-0.1373445,0.13034439,-0.1595327,0.014783272,0.014039856,-0.13653396,-0.7469909,0.2873042,-9.500193,0.9365982,47.703007,-1.1176858,-2.2270985,-3.5124712,-0.37714124,0.25923076,-0.21726471,24.9375,25.5625,24.6875,26.6875,27.0,27.3125
0.2220539,-1.3859696,-1.4250987,-0.8320078,-0.03680659,0.09506435,-0.08106696,-0.40073857,-0.3664657,0.06002778,3.0763528,-0.6270478,-1.6261087e-05,-0.10607524,0.020520192,-3.842214e-05,-0.019576862,0.0060523143,0.00085295684,0.489767,-1.3675452,1.886988,-2.0900438,-1.5692047,2.466388,-0.13849309,0.13211027,-0.1609423,0.01444111,0.014287596,-0.13926816,-0.7469909,0.30645782,-9.461885,0.83589023,47.693153,-1.0846397,-2.2638779,-3.3343658,-0.36706996,0.26451984,-0.18050572,24.9375,25.5625,24.6875,26.6875,27.0,27.3125
0.22405417,-0.9905303,-0.82348675,-0.832084,-0.036895573,0.0952953,-0.07950206,-0.40094814,-0.3664385,0.060029812,3.0762827,-0.62705356,-2.3667108e-05,-0.10782948,0.020021735,0.0009288287,-0.020969823,0.008185667,-0.00016894843,0.48950323,-1.3672807,1.8866647,-2.0900314,-1.569156,2.466137,-0.13929608,0.13309449,-0.16431181,0.014298095,0.014516159,-0.13904728,-0.51714754,0.34476504,-9.557653,0.84484416,47.674347,-1.1384175,-2.1442747,-3.1713257,-0.3682419,0.27543217,-0.16210642,24.9375,25.5625,24.6875,26.6875,27.0,27.3125
0.22605385,-0.80906135,-0.6906956,-0.37080622,-0.034329705,0.09343076,-0.076284274,-0.40119037,-0.36638564,0.060042743,3.0761871,-0.6271145,-6.0441966e-05,-0.10868899,0.01957494,0.00059546524,-0.021530412,0.008299974,-0.0085132085,0.48916796,-1.3670276,1.8863305,-2.09002,-1.5691084,2.465852,-0.13949803,0.13535422,-0.1660909,0.013449957,0.0149554815,-0.13090298,-0.47884035,0.34476504,-9.404425,0.94331104,47.704796,-1.0996845,-2.3639622,-3.2440183,-0.36608446,0.277102,-0.224545,24.9375,25.5625,24.6875,26.6875,27.0,27.3125
0.22805402,-0.6651429,-0.8102396,-0.34434244,-0.018802265,0.07372827,-0.0740311,-0.4014259,-0.36635596,0.060067028,3.0760899,-0.62719166,-0.00015116819,-0.11004979,0.019493885,0.0008300757,-0.022512317,0.009237984,-0.013793682,0.4888921,-1.366775,1.885971,-2.090008,-1.569084,2.465637,-0.14076097,0.13665569,-0.1680675,0.012835043,0.015387323,-0.12688312,-0.47884035,0.36391866,-9.251195,0.9186956,47.67614,-1.1910168,-2.2115922,-3.2314353,-0.33874613,0.27954993,-0.2563468,24.9375,25.5625,24.6875,26.6875,27.0,27.3125
0.23005436,0.10167596,-0.348674,-0.25893238,-0.018058969,0.06548243,-0.08039094,-0.401647,-0.36633286,0.06006782,3.0760353,-0.62718016,-0.00019774298,-0.11067168,0.019498857,0.0007021423,-0.022571705,0.009462944,-0.016735878,0.48864058,-1.3664861,1.8856238,-2.090008,-1.5690602,2.4653854,-0.14121494,0.13775197,-0.16904506,0.012492854,0.015339431,-0.12439354,-0.17238252,0.3256114,-9.193734,0.83813137,47.692257,-1.1859595,-2.2725759,-3.1694531,-0.34315872,0.28832337,-0.32927543,24.9375,25.5625,24.6875,26.6875,27.0,27.3125
0.23205389,0.2005625,-0.35020053,-0.33857048,-0.008318293,0.03835703,-0.07744554,-0.40191123,-0.36628062,0.060083956,3.0759716,-0.6273016,-0.0002693208,-0.1120083,0.019632915,-8.873423e-05,-0.022581942,0.009057422,-0.018072696,0.48831663,-1.366185,1.8852166,-2.0899608,-1.5690602,2.4651456,-0.1426649,0.14094724,-0.1708786,0.011488981,0.015545978,-0.12450459,-0.15322891,0.3256114,-9.212888,0.82022345,47.666286,-1.1780593,-2.3691995,-3.113116,-0.32458055,0.30407172,-0.3508777,24.9375,25.5625,24.6875,26.6875,27.0,27.3125
0.234054,-0.049490932,-0.5574833,-0.108015165,-0.01185004,0.018816955,-0.07493398,-0.4021275,-0.36624047,0.06007855,3.0759137,-0.6273081,-0.00031555368,-0.112686455,0.019644296,0.0010197599,-0.02333975,0.011382234,-0.01867835,0.4880413,-1.3659213,1.884919,-2.0899847,-1.5690364,2.464882,-0.14295277,0.13942957,-0.17156939,0.011297051,0.015134993,-0.12418607,-0.076614454,0.3256114,-9.136273,0.82694155,47.67345,-1.2563143,-2.201094,-3.2401755,-0.3033433,0.3148866,-0.37062675,24.9375,25.5625,24.6875,26.6875,27.0,27.3125
0.23605432,0.26447868,-0.46868172,-0.15730084,-0.0065286336,0.023152204,-0.07291647,-0.40237254,-0.36620715,0.06008851,3.0758018,-0.6273994,-0.000339331,-0.11298149,0.02012874,8.612479e-05,-0.023160538,0.009105168,-0.020109901,0.48772928,-1.3656322,1.8845481,-2.0899723,-1.5689758,2.4646413,-0.1444998,0.14143999,-0.17201169,0.011833651,0.016059384,-0.12429993,0.076614454,0.2681506,-9.021352,0.90750587,47.70032,-1.2120712,-2.3851938,-3.312403,-0.2925381,0.30545378,-0.40289778,24.9375,25.5625,24.6875,26.6875,27.0,27.3125
0.2380536,0.51702774,0.12444208,0.10299905,-0.00993127,0.015827915,-0.08049772,-0.40260786,-0.3661527,0.060089342,3.0757496,-0.62750477,-0.00039605575,-0.1154422,0.02192559,0.00017313658,-0.023512125,0.008612916,-0.022884564,0.487428,-1.3653554,1.8842124,-2.0899599,-1.5689758,2.4644127,-0.14995193,0.14281145,-0.17411375,0.012842135,0.016614545,-0.12697567,0.19153613,0.22984336,-9.097966,0.88960326,47.703007,-1.038372,-2.309907,-3.2996387,-0.2952002,0.3148773,-0.4111807,24.9375,25.5625,24.6875,26.6875,27.0,27.3125
0.24005398,0.977074,0.19368982,0.14199159,0.0011134667,0.020731159,-0.0853282,-0.40283734,-0.36610976,0.060086954,3.0756867,-0.6275633,-0.00040001958,-0.115024686,0.0217338,-0.0013430075,-0.022679219,0.005709178,-0.01692125,0.48712885,-1.3650659,1.8838662,-2.0899365,-1.5689391,2.4641583,-0.1495637,0.1459222,-0.17448632,0.013077209,0.017257305,-0.1325495,0.2681506,0.17238252,-8.983045,0.8784135,47.70032,-1.1075929,-2.3583856,-3.3158426,-0.26555508,0.3148738,-0.37840778,24.9375,25.5625,24.6875,26.6875,27.0,27.3125
0.2420544,1.5630013,0.81673086,0.30746552,0.011268518,0.017309891,-0.0851241,-0.40307853,-0.3660721,0.060096513,3.075627,-0.62752616,-0.0004365956,-0.1168776,0.022181211,0.0005190725,-0.02493122,0.008603812,-0.01131944,0.48682883,-1.3647785,1.8834952,-2.0899122,-1.5689033,2.4638429,-0.15227066,0.14389975,-0.1764068,0.013431082,0.017918142,-0.14085676,0.22984336,0.076614454,-8.925584,0.77545905,47.664497,-1.0346667,-2.2536812,-3.2929149,-0.2382015,0.32333902,-0.3006149,24.9375,25.5625,24.6875,26.6875,27.0,27.3125
0.24405366,1.0185987,0.9908185,0.3969857,0.025747376,-0.008851629,-0.08239589,-0.40330267,-0.36603484,0.060073033,3.075568,-0.62754714,-0.00038913038,-0.11673916,0.021665135,0.0010313407,-0.025902646,0.008925353,-0.0025201347,0.4865296,-1.3644543,1.8831605,-2.0899122,-1.5688428,2.4635644,-0.15163992,0.14333148,-0.17704256,0.013923476,0.01864878,-0.14902489,0.17238252,0.019153614,-8.848969,0.8403672,47.67614,-1.0796905,-2.1915877,-3.310802,-0.24149287,0.31673187,-0.21555692,24.9375,25.5625,24.6875,26.6875,27.0,27.3125
0.24605507,1.0628734,1.1073526,0.22511744,0.032661308,0.0025609138,-0.0841141,-0.4035381,-0.3659988,0.060080715,3.0755033,-0.62753075,-0.00039706138,-0.11713939,0.02106155,0.0012963974,-0.026614405,0.008745603,0.0017864271,0.48623022,-1.3641659,1.8827895,-2.0898755,-1.5687946,2.4632633,-0.15134034,0.14440444,-0.17916772,0.014819965,0.019379966,-0.15302992,0.19153613,-0.019153614,-8.848969,0.8985519,47.72719,-1.115172,-2.0383615,-3.2383375,-0.23540509,0.3244506,-0.122370005,24.9375,25.5625,24.6875,26.6875,27.0,27.3125
0.2480546,0.9355663,0.9729493,0.1693224,0.038185935,0.005505969,-0.0868554,-0.4037473,-0.36593646,0.060066044,3.075488,-0.62754613,-0.00033115034,-0.11888522,0.021430446,0.0018488086,-0.027227296,0.009232466,0.0010867461,0.48591796,-1.3638891,1.8824776,-2.089815,-1.5687588,2.4629626,-0.15361464,0.14564443,-0.18218677,0.015895862,0.019695792,-0.15460376,0.19153613,-0.019153614,-9.002198,0.86945957,47.687782,-1.065049,-2.0494084,-3.2110348,-0.24784395,0.32474607,-0.061879486,24.9375,25.5625,24.6875,26.6875,27.0,27.3125
0.25005367,0.42743072,0.84408265,0.06769058,0.020601748,0.020210946,-0.07878402,-0.40398252,-0.3659102,0.060075756,3.0754359,-0.62744004,-0.00038065066,-0.11938726,0.021276347,0.0020785003,-0.026704924,0.008824994,-0.0039707404,0.48564303,-1.3636004,1.8821071,-2.089803,-1.5687231,2.4626284,-0.15354452,0.14686789,-0.18462415,0.017715698,0.019429352,-0.14947405,0.076614454,0.0,-9.097966,0.900793,47.683304,-1.1532288,-2.015969,-3.266036,-0.24830526,0.30379412,-0.10405773,24.9375,25.5625,24.6875,26.6875,27.0,27.3125
0.25205365,-0.16238192,-0.04466757,-0.2933764,0.011621523,0.02753236,-0.06804522,-0.4042099,-0.36585918,0.060075745,3.075405,-0.62743586,-0.00029205426,-0.12116489,0.021484846,0.0024771118,-0.027200507,0.008806111,-0.011943457,0.48531896,-1.3632996,1.8817223,-2.0896947,-1.568663,2.4623058,-0.15563965,0.14885265,-0.18827574,0.019169623,0.01986341,-0.14359526,-0.15322891,0.095768064,-9.193734,0.83365434,47.666286,-1.1710558,-2.0043814,-3.2019737,-0.26252764,0.31426197,-0.15939572,24.9375,25.5625,24.6875,26.6875,27.0,27.3125
0.25405407,0.6220382,0.05539418,-0.5793908,-0.010542815,0.06154658,-0.08764563,-0.40446857,-0.36579567,0.06007491,3.075357,-0.6275651,-0.00033068354,-0.12156294,0.022505796,0.0015508357,-0.026222588,0.006401443,-0.020664323,0.48498306,-1.3629866,1.8813409,-2.089658,-1.5686625,2.4620569,-0.15774986,0.15062805,-0.18860056,0.02029451,0.02011959,-0.13698362,-0.15322891,0.22984336,-9.385271,0.8717007,47.675243,-1.1053748,-2.0730724,-3.374268,-0.26392213,0.32329157,-0.24226214,24.9375,25.5625,24.6875,26.6875,27.0,27.3125
0.25605416,-0.29660317,-0.7464435,-0.9138118,-0.025190163,0.05793845,-0.07432417,-0.4046849,-0.36574557,0.060061987,3.0753117,-0.62763464,-0.00024151469,-0.12193971,0.023602536,0.0010745429,-0.0250888,0.0052386853,-0.027230637,0.48467103,-1.3626859,1.8809937,-2.0895865,-1.5686029,2.4617941,-0.15953568,0.15123822,-0.18848413,0.021131063,0.019653132,-0.13220395,-0.21068975,0.2681506,-9.710882,0.9097417,47.681515,-1.0064017,-2.0602088,-3.3938498,-0.26764098,0.33139962,-0.29394102,24.9375,25.5625,24.6875,26.6875,27.0,27.3125
0.2580543,-1.0213914,-1.5323794,-1.0327222,-0.037824042,0.06565019,-0.067156956,-0.40491664,-0.36570954,0.060053714,3.0752628,-0.62770075,-0.00021633969,-0.12297525,0.023926029,0.0002846802,-0.024930958,0.0039942693,-0.029770592,0.48438302,-1.3623602,1.8806113,-2.0895388,-1.5685662,2.4615538,-0.16116601,0.1540845,-0.19014993,0.021132372,0.020093353,-0.131293,-0.53630114,0.3256114,-9.730036,0.93436235,47.695843,-1.0656219,-2.2091656,-3.299123,-0.2943067,0.33376497,-0.3697884,24.9375,25.5625,24.6875,26.6875,27.0,27.3125
0.2600542,-1.4985541,-1.5537527,-1.2206414,-0.043366093,0.08221388,-0.06463877,-0.40515825,-0.3656616,0.060057033,3.0752017,-0.62774765,-0.00019498407,-0.12287943,0.023667067,-0.0016352193,-0.023569576,0.0010033395,-0.034071285,0.4840599,-1.362059,1.8802289,-2.0894787,-1.5685185,2.461268,-0.16065869,0.15857546,-0.19118342,0.020957276,0.0202757,-0.12648347,-0.63206923,0.38307226,-9.825804,0.800085,47.689575,-1.0282954,-2.2641723,-3.3500876,-0.3004015,0.3473671,-0.44618177,24.9375,25.5625,24.6875,26.6875,27.0,27.3125
0.26205462,-1.5212151,-1.0560058,-1.2354889,-0.048663437,0.1136544,-0.07525017,-0.4054207,-0.36559993,0.060068537,3.075078,-0.6279709,-0.00019239291,-0.1237926,0.024089383,-0.0015062421,-0.023917021,0.0017028344,-0.036102716,0.4836881,-1.3617704,1.879846,-2.089431,-1.5684584,2.4610515,-0.16204841,0.1589332,-0.19183859,0.020487715,0.020264408,-0.12584063,-0.6703765,0.38307226,-9.902418,0.8403672,47.66808,-0.985085,-2.2162468,-3.4288,-0.2851196,0.3387673,-0.5030755,24.9375,25.5625,24.6875,26.6875,27.0,27.3125
0.26405442,-1.5562922,-0.90252125,-1.2092909,-0.04545405,0.1285886,-0.07722016,-0.40566248,-0.36556154,0.06005719,3.0750368,-0.6280367,-0.00015424343,-0.12531197,0.024473703,-0.0022813254,-0.024658358,0.00084011635,-0.03408925,0.48338813,-1.3614211,1.8794392,-2.0893714,-1.5684222,2.460798,-0.16458088,0.16193442,-0.19353344,0.019618044,0.021328699,-0.13038503,-0.5746084,0.28730422,-9.902418,0.8985519,47.688675,-1.1634355,-2.2984552,-3.4311166,-0.28381175,0.32445306,-0.52482396,24.9375,25.5625,24.6875,26.6875,27.0,27.3125
0.2660536,-1.6494887,-0.7494494,-1.1473502,-0.03659339,0.12047239,-0.077963926,-0.40590864,-0.3655118,0.060055133,3.0749707,-0.6280715,-0.00017540461,-0.12465649,0.023399279,-0.002946198,-0.0252036,0.00042442503,-0.022437148,0.48306566,-1.3611205,1.8790807,-2.08936,-1.568386,2.460506,-0.16253245,0.16329065,-0.1933884,0.018263428,0.022031605,-0.13998722,-0.61291564,0.30645782,-9.902418,0.8537928,47.688675,-1.2215704,-2.4026508,-3.575684,-0.26454806,0.32017726,-0.46988028,24.9375,25.5625,24.6875,26.6875,27.0,27.3125
0.26805362,-1.484305,-0.24258088,-1.0463154,-0.024479099,0.10309397,-0.08732992,-0.40615043,-0.36547592,0.06005574,3.0749283,-0.62803686,-0.00020772986,-0.1261095,0.023288237,-0.0030044038,-0.025761068,0.0013230777,-0.012303401,0.48277766,-1.3608074,1.8786982,-2.0893366,-1.5683616,2.460202,-0.16358815,0.1653759,-0.19560339,0.017374566,0.02213476,-0.15117459,-0.57460845,0.2681506,-9.844957,0.9567419,47.690468,-1.2546341,-2.5397446,-3.4691706,-0.24215858,0.31922835,-0.37751317,24.9375,25.5625,24.6875,26.6875,27.0,27.3125
0.2700541,-0.75549036,-0.09189305,-0.8590116,-0.022156132,0.11034123,-0.081479736,-0.4064345,-0.36545593,0.060068853,3.0748146,-0.6280059,-0.00022614458,-0.12678106,0.022765271,-0.0031148198,-0.025604216,0.0026737195,-0.0019387179,0.48244292,-1.3604478,1.8782314,-2.0893123,-1.5682782,2.4598627,-0.16273312,0.16696851,-0.1970376,0.01613881,0.021400876,-0.16068235,-0.59376204,0.21068975,-9.653421,0.8560339,47.689575,-1.322957,-2.2728305,-3.4909132,-0.22669467,0.33515117,-0.25546822,24.9375,25.5625,24.6875,26.6875,27.0,27.3125
0.27205423,-0.14886628,0.2484745,-0.60139847,-0.015859444,0.10894949,-0.08473957,-0.4066798,-0.36539504,0.060070336,3.0747576,-0.6280509,-0.00028659558,-0.12815358,0.02386867,-0.002816392,-0.025520915,0.0036707865,-0.0007471504,0.48211813,-1.3601718,1.8778967,-2.0893123,-1.5682663,2.4595735,-0.1653592,0.16692084,-0.19766559,0.01599002,0.02088569,-0.16449907,-0.51714754,0.17238252,-9.595961,0.83589023,47.70211,-1.207782,-2.3533278,-3.6037834,-0.19563141,0.33687454,-0.1939033,24.9375,25.5625,24.6875,26.6875,27.0,27.3125
0.2740538,-0.765845,0.20334387,-0.4013355,-0.013269797,0.07418577,-0.07471862,-0.40696272,-0.36534134,0.060069844,3.074697,-0.6280973,-0.0002939418,-0.13040118,0.024959661,-0.0032691516,-0.025261194,0.0033789533,-0.004495772,0.4817579,-1.359811,1.8774537,-2.0892646,-1.5682305,2.4592502,-0.16897562,0.16987899,-0.20025231,0.016011091,0.020795874,-0.164365,-0.4213795,0.038307227,-9.576807,0.84484416,47.67166,-1.1750202,-2.445641,-3.5651336,-0.18669045,0.34362677,-0.15145561,24.9375,25.5625,24.6875,26.6875,27.0,27.3125
0.27605394,-0.30445093,0.4896105,-0.085363746,-0.009543794,0.06688478,-0.078087576,-0.4072189,-0.36530063,0.06006793,3.0746424,-0.6280653,-0.00028971635,-0.1310688,0.023795996,-0.0019615826,-0.027073704,0.0057999697,-0.0070344214,0.48143548,-1.3594756,1.877047,-2.0892284,-1.5681823,2.458915,-0.16779788,0.16937928,-0.20264585,0.015922675,0.021277657,-0.16064681,-0.36391866,0.019153614,-9.3661175,0.9365982,47.675243,-1.3514314,-2.3323927,-3.5407655,-0.15793592,0.33529043,-0.19068345,24.9375,25.5625,24.6875,26.6875,27.0,27.3125
0.2780549,-0.0977344,0.6514686,0.11814129,0.0037156544,0.05730994,-0.0780544,-0.40751162,-0.36525697,0.06009541,3.0745075,-0.62811756,-0.00040317167,-0.13262162,0.022871438,-0.00027245644,-0.028987495,0.008930226,-0.014542894,0.48107603,-1.3591758,1.8766273,-2.0892408,-1.5681337,2.4586058,-0.16763659,0.16918308,-0.20632933,0.016136443,0.021526868,-0.15297285,-0.47884035,0.0,-9.289502,0.92764956,47.689575,-1.3375667,-2.2484016,-3.4474087,-0.146999,0.3391344,-0.27374536,24.9375,25.5625,24.6875,26.6875,27.0,27.3125
0.28005427,0.36898923,1.0161668,0.061339747,0.023054004,0.057413477,-0.09192204,-0.40775064,-0.36521283,0.060055535,3.0744884,-0.6281727,-0.000299049,-0.13459793,0.022067055,0.0011358011,-0.03098105,0.011640079,-0.017543785,0.48076367,-1.3587799,1.8762311,-2.089193,-1.568086,2.4583304,-0.1682201,0.16997981,-0.21056847,0.0162601,0.02202578,-0.15055452,-0.28730422,0.019153614,-9.232041,0.8851263,47.675243,-1.4475216,-2.1528463,-3.3234615,-0.123805374,0.33578846,-0.3224617,24.9375,25.5625,24.6875,26.6875,27.0,27.3125
0.28205448,0.4446369,1.3980824,0.04459402,0.03342602,0.04266922,-0.08422086,-0.40805265,-0.36518696,0.06011302,3.0743186,-0.6281779,-0.0004982481,-0.13598451,0.023103777,3.536944e-05,-0.030261824,0.0094977915,-0.021650488,0.48042667,-1.3585148,1.8757876,-2.089217,-1.5680379,2.4580188,-0.17126393,0.17338264,-0.21234012,0.01687161,0.022411507,-0.14948581,-0.05746084,-0.1340753,-9.346964,0.9186956,47.660015,-1.4138081,-2.253017,-3.2854233,-0.11785947,0.34309188,-0.36762142,24.9375,25.5625,24.6875,26.6875,27.0,27.3125
0.28405452,1.0113041,1.4152746,-0.048681766,0.023181954,0.042105448,-0.09439886,-0.40832677,-0.36510015,0.060103696,3.074284,-0.6283433,-0.00049982144,-0.1375858,0.023891086,0.0011834892,-0.031218622,0.01159118,-0.023127528,0.480042,-1.3581798,1.8753923,-2.0891569,-1.5680379,2.457742,-0.17378038,0.17226183,-0.2136886,0.017054208,0.022302216,-0.1505252,-0.038307227,0.0,-9.270349,0.93436235,47.650166,-1.2802336,-2.0867372,-3.2928052,-0.09261623,0.35675305,-0.37587753,24.9375,25.5625,24.6875,26.6875,27.0,27.3125
0.28605387,0.90460366,0.45207992,0.050329767,0.0045998762,0.034464277,-0.09396973,-0.40856695,-0.36506885,0.060090274,3.074232,-0.6283142,-0.00040099636,-0.13900653,0.025455562,0.0019615295,-0.030615851,0.011947075,-0.023967354,0.47972864,-1.3578205,1.8749741,-2.0890844,-1.567954,2.4574172,-0.17709449,0.17152892,-0.21511716,0.019207355,0.021617176,-0.15300049,-0.05746084,0.19153613,-9.289503,0.93436235,47.734352,-1.1763568,-2.0639465,-3.2247238,-0.07530983,0.35012814,-0.40821597,24.9375,25.5625,24.6875,26.6875,27.0,27.3125
0.2880541,0.2934218,0.18804415,-0.08453494,-0.019557584,0.028125212,-0.08608001,-0.4088772,-0.36499387,0.06010489,3.0741518,-0.62844676,-0.00050200074,-0.13860169,0.026360396,0.0012072698,-0.02974355,0.008488868,-0.018577965,0.47933272,-1.3574842,1.8745307,-2.089059,-1.567954,2.4571147,-0.17863514,0.17240122,-0.21510129,0.021814864,0.022485077,-0.15992793,-0.05746084,0.21068975,-9.251195,0.8784135,47.72002,-1.3172283,-1.9825518,-3.2354813,-0.0758013,0.3316103,-0.33935273,24.9375,25.5625,24.6875,26.6875,27.0,27.3125
0.2900545,0.12439376,-0.40848055,-0.16591157,-0.023217898,0.03088295,-0.08935937,-0.40914732,-0.36495852,0.06010889,3.0740938,-0.628428,-0.00049805036,-0.13878697,0.025622018,0.0016166427,-0.030647052,0.007381047,-0.008624067,0.47900847,-1.3571243,1.8740748,-2.0889986,-1.5679053,2.4567864,-0.17826213,0.1734828,-0.2179151,0.024151316,0.023835309,-0.16950555,-0.019153614,0.24899697,-9.385271,0.9030289,47.71017,-1.2419208,-1.9687283,-3.2801545,-0.08933574,0.33278576,-0.24951583,24.9375,25.5625,24.6875,26.6875,27.0,27.3125
0.2920538,0.56301624,-0.1627718,-0.10505431,-0.051140428,0.05808212,-0.092708685,-0.409417,-0.36488822,0.060099497,3.0740407,-0.62845194,-0.00040939302,-0.13902989,0.026446186,-0.00031858138,-0.029433072,0.003160903,-0.00266624,0.478612,-1.3567754,1.8736571,-2.0889146,-1.5678328,2.4564118,-0.18026078,0.17744797,-0.21860166,0.025219535,0.024729349,-0.1774607,-0.076614454,0.2681506,-9.385271,0.8873621,47.677036,-1.198149,-1.9617913,-3.3969097,-0.10153207,0.32785517,-0.14054921,24.9375,25.5625,24.6875,26.6875,27.0,27.3125
0.2940544,-0.46086404,-0.53796285,-0.16776419,-0.03869423,0.044759713,-0.083858036,-0.40969336,-0.36483976,0.06010071,3.073946,-0.62847096,-0.00037193185,-0.14006461,0.026678225,0.00015070503,-0.030612899,0.0037479948,-0.002457485,0.47823924,-1.3564277,1.8732251,-2.088867,-1.5677484,2.4560633,-0.18189365,0.17759648,-0.21992834,0.025360437,0.025521599,-0.17930014,-0.11492168,0.2681506,-9.481039,0.84484416,47.670765,-1.131995,-1.9265425,-3.3340125,-0.11796348,0.33560252,-0.06493268,24.9375,25.5625,24.6875,26.6875,27.0,27.3125
0.2960538,-0.37930983,-0.6417266,-0.18037233,-0.020187728,0.048477437,-0.08568894,-0.40997496,-0.36478904,0.060134053,3.0738962,-0.628407,-0.00046077804,-0.1409738,0.02694221,-0.0008062276,-0.031486414,0.0017032403,-0.0081964675,0.47790223,-1.356127,1.8727711,-2.0887954,-1.567736,2.455693,-0.18404217,0.18047169,-0.22122906,0.0251936,0.027244786,-0.17570448,-0.1340753,0.28730422,-9.423578,0.93436235,47.703007,-0.9837575,-2.1248236,-3.3407443,-0.10809572,0.29694983,-0.06858236,24.9375,25.5625,24.6875,26.6875,27.0,27.3125
0.29805416,-0.3371503,-0.2810179,-0.3125039,-0.018064367,0.050966326,-0.07689169,-0.4102536,-0.36477032,0.06011447,3.073795,-0.6283911,-0.00044852527,-0.14201994,0.027946945,-0.0018532133,-0.031655278,-0.0005156508,-0.017984284,0.47757757,-1.3557183,1.8723286,-2.0888193,-1.5676516,2.4553716,-0.1871987,0.18294813,-0.22193322,0.02531325,0.0284095,-0.16906953,-0.2873042,0.28730422,-9.3661175,0.9612189,47.703007,-0.9506261,-2.1597877,-3.541241,-0.08558654,0.269951,-0.14335963,24.9375,25.5625,24.6875,26.6875,27.0,27.3125
0.30005378,-0.1376886,0.22310354,-0.21000507,-0.020911055,0.061093375,-0.09337494,-0.41056198,-0.36468804,0.06013604,3.0737054,-0.6285484,-0.00049887045,-0.14233075,0.027360003,-0.0022674943,-0.031282235,-0.00081181317,-0.025786782,0.47715834,-1.3553941,1.8718728,-2.0887468,-1.5676278,2.4550624,-0.18621206,0.18521364,-0.22377923,0.025317457,0.028200183,-0.16027811,-0.30645782,0.28730422,-9.385271,0.86498255,47.692257,-1.1069382,-2.1019118,-3.5289574,-0.08204512,0.2561972,-0.23277739,24.9375,25.5625,24.6875,26.6875,27.0,27.3125
0.302054,-0.61463964,-0.34690645,-0.26969457,-0.0028032854,0.050722666,-0.08373925,-0.4108362,-0.36466363,0.060132857,3.073603,-0.6285684,-0.0004473313,-0.14389728,0.027574,-0.0019325832,-0.031387378,0.0002770712,-0.0316093,0.47682154,-1.3550093,1.8714055,-2.0886986,-1.567532,2.4547515,-0.18753567,0.18665221,-0.2263695,0.025465455,0.027785167,-0.15577792,-0.32561144,0.22984336,-9.442732,0.8537928,47.67614,-1.0632961,-2.3247511,-3.4385357,-0.080057785,0.25708726,-0.29711396,24.9375,25.5625,24.6875,26.6875,27.0,27.3125
0.30405438,-0.4821483,-0.055073313,0.00941822,-0.025713377,0.062348764,-0.090114325,-0.41115057,-0.3645939,0.06014442,3.0735102,-0.62874305,-0.00052495004,-0.14410536,0.027174711,-0.0018207179,-0.03209325,-2.1494068e-05,-0.036096487,0.47642565,-1.3546498,1.8709377,-2.0886629,-1.5675195,2.4544768,-0.18736319,0.18738025,-0.22767666,0.025981303,0.028550573,-0.15111463,-0.61291564,0.24899697,-9.346964,0.8918391,47.688675,-1.1251736,-2.0437276,-3.4879313,-0.06815971,0.24589273,-0.39085555,24.9375,25.5625,24.6875,26.6875,27.0,27.3125
0.3060539,-0.85252243,-0.47351593,0.30664235,-0.029787194,0.06782105,-0.090880014,-0.41142878,-0.36455044,0.060135346,3.073407,-0.62883556,-0.0004466391,-0.14513831,0.025918892,-0.000152985,-0.034487624,0.0026541373,-0.036439653,0.47605425,-1.3542663,1.8704823,-2.0886033,-1.5674237,2.4541767,-0.18656836,0.1868504,-0.2309548,0.026331957,0.029449912,-0.14997402,-0.5554548,0.2681506,-9.3661175,0.93436235,47.71554,-1.2580876,-2.2286077,-3.423176,-0.05142639,0.23503678,-0.46597835,24.9375,25.5625,24.6875,26.6875,27.0,27.3125
0.30805412,-0.83565575,-0.3638329,0.23163879,-0.023861978,0.07205334,-0.0970641,-0.41173145,-0.36447304,0.060125783,3.0733292,-0.6289901,-0.00041345498,-0.14553756,0.02566965,-0.00037917847,-0.03486244,0.0016855345,-0.03312699,0.47563428,-1.3538822,1.870027,-2.0885427,-1.5673751,2.4538634,-0.18682835,0.18852355,-0.23270594,0.027128352,0.03024479,-0.15354447,-0.36391866,0.24899697,-9.289502,0.9835985,47.70211,-1.4719911,-2.2385898,-3.391738,-0.056040604,0.20754111,-0.4995799,24.9375,25.5625,24.6875,26.6875,27.0,27.3125
0.31005463,-0.82280385,-0.14703614,0.22677651,-0.010576885,0.081361175,-0.09991589,-0.4119892,-0.36444733,0.060129363,3.073237,-0.6289629,-0.00036127708,-0.14495566,0.024778498,-0.0011775178,-0.03438148,0.00038609147,-0.020095672,0.47531065,-1.3535337,1.8695849,-2.0884826,-1.5672792,2.4535348,-0.18484035,0.19069278,-0.23361382,0.027304797,0.030455103,-0.16458613,-0.38307226,0.11492168,-9.212888,0.90750587,47.683304,-1.6101353,-2.110309,-3.4796379,-0.054058805,0.18437332,-0.42951334,24.9375,25.5625,24.6875,26.6875,27.0,27.3125
0.312054,-0.47233865,0.5039502,0.17791745,0.008522934,0.072746076,-0.09970291,-0.4122736,-0.36440033,0.060101118,3.0732026,-0.62892973,-0.0002897568,-0.1469826,0.024697768,-0.00025382894,-0.035907794,0.0025093912,-0.0089498805,0.47495058,-1.3531016,1.8691167,-2.088435,-1.5672191,2.4531586,-0.1865661,0.19160615,-0.23683238,0.02708876,0.030877458,-0.17745642,-0.28730422,0.1340753,-9.251195,0.85826975,47.66808,-1.5347055,-2.1415205,-3.4374647,-0.049646236,0.17022195,-0.33062077,24.9375,25.5625,24.6875,26.6875,27.0,27.3125
0.31405455,-0.07660769,0.5050995,0.33150914,0.016686952,0.06631234,-0.102680854,-0.41258544,-0.36434072,0.06011557,3.0730836,-0.62901944,-0.00036079044,-0.14852957,0.025495898,-0.00038783354,-0.036178425,0.0028568902,-0.005236606,0.47455326,-1.3527536,1.8686613,-2.0884235,-1.5671705,2.452833,-0.18914266,0.19301923,-0.2381923,0.026646012,0.030999731,-0.18374269,-0.17238252,0.11492168,-9.232041,0.9186956,47.687782,-1.4004693,-2.02529,-3.4794636,-0.03217905,0.14420433,-0.2177133,24.9375,25.5625,24.6875,26.6875,27.0,27.3125
0.3160535,-0.63587445,0.44008654,0.22197886,0.009713986,0.039112855,-0.09105027,-0.4128958,-0.36427316,0.06011413,3.073033,-0.6290072,-0.00034383198,-0.15029941,0.02590886,0.00054872484,-0.036669005,0.0047462275,-0.004627251,0.4741448,-1.3523582,1.8681706,-2.088351,-1.5671228,2.4524236,-0.19094151,0.19330984,-0.24084327,0.027133271,0.0305885,-0.18615022,-0.28730422,0.21068975,-9.11712,0.98807013,47.693153,-1.3977759,-2.049473,-3.369953,0.009558052,0.13169505,-0.1580421,24.9375,25.5625,24.6875,26.6875,27.0,27.3125
0.31805402,0.41666228,0.5506267,0.38504988,0.006329479,0.04392343,-0.10300773,-0.4132052,-0.36424023,0.060138166,3.072945,-0.6289555,-0.00041482944,-0.1527577,0.02737727,0.00069354364,-0.035507016,0.0047405455,-0.0128218755,0.4737954,-1.3519856,1.8676552,-2.0883029,-1.5670756,2.4520535,-0.1947179,0.19564056,-0.244471,0.028972588,0.029563753,-0.18172964,-0.21068975,0.17238252,-9.155427,0.93436235,47.685097,-1.3560083,-2.1135857,-3.3226945,-0.015251645,0.13437101,-0.16666496,24.9375,25.5625,24.6875,26.6875,27.0,27.3125
0.32005438,0.3848961,0.82833076,0.27967927,0.0008266815,0.03181843,-0.10516398,-0.4135103,-0.36417714,0.060120482,3.0728822,-0.62904155,-0.0003818645,-0.15276285,0.028010722,-8.2188315e-05,-0.033984207,0.0025214683,-0.019545082,0.47339928,-1.3515652,1.8671764,-2.0882547,-1.5670274,2.4517195,-0.19540364,0.19734865,-0.24525304,0.03071514,0.02921241,-0.17569222,-0.24899697,0.17238252,-9.251195,0.9254084,47.664497,-1.3881474,-2.119398,-3.2896657,-0.0039578844,0.12396376,-0.2494205,24.9375,25.5625,24.6875,26.6875,27.0,27.3125
0.32205373,0.2870687,0.38668168,0.016787538,-0.005430353,0.033965737,-0.095341116,-0.41382074,-0.3640949,0.060102835,3.0728226,-0.6291473,-0.0003347568,-0.15243764,0.028894203,-0.0015442837,-0.031595815,-0.00066651846,-0.024831282,0.47296706,-1.351157,1.8667091,-2.0881941,-1.5669793,2.4513612,-0.19601914,0.19976512,-0.24529693,0.03227456,0.02853388,-0.17102265,-0.2873042,0.11492168,-9.289502,0.8784135,47.689575,-1.3143957,-2.1342878,-3.4221559,-0.035441145,0.10374862,-0.32242918,24.9375,25.5625,24.6875,26.6875,27.0,27.3125
0.32405403,-0.3778231,-0.07213422,0.21242653,-0.006225716,0.037651327,-0.09979785,-0.41411275,-0.36404768,0.060103666,3.0727377,-0.6292478,-0.00027803762,-0.15368743,0.029707847,-0.0012020731,-0.032203153,-0.00046224231,-0.030385422,0.47259465,-1.3507613,1.866207,-2.0880978,-1.5669073,2.4510627,-0.19855583,0.19999549,-0.24654989,0.03284856,0.02897703,-0.16800384,-0.1340753,0.1340753,-9.270349,0.8806493,47.68062,-1.2251558,-2.0811791,-3.4896245,-0.043463614,0.09288329,-0.37780428,24.9375,25.5625,24.6875,26.6875,27.0,27.3125
0.32605436,-0.20564365,-0.04650134,0.06903788,-0.007565413,0.048968654,-0.09845307,-0.4144125,-0.3639895,0.060091235,3.0726647,-0.6292888,-0.00022225425,-0.15476783,0.030639475,-0.0016753022,-0.030933293,-0.002181548,-0.031386647,0.47219777,-1.3503526,1.8657273,-2.0880373,-1.5668353,2.450701,-0.20066386,0.20237996,-0.24892305,0.03497531,0.028638951,-0.16911013,-0.17238252,0.15322891,-9.232041,0.87617236,47.711964,-1.1789782,-2.1187577,-3.4725814,-0.06054975,0.08473486,-0.3883863,24.9375,25.5625,24.6875,26.6875,27.0,27.3125
0.32805413,-0.08123236,0.09993749,0.21988274,-0.011230383,0.06083003,-0.10598718,-0.41475362,-0.3639437,0.060106855,3.0725586,-0.62940013,-0.00026279013,-0.15506805,0.03167081,-0.0023986246,-0.029706642,-0.004289209,-0.029621687,0.4718012,-1.3499209,1.8651532,-2.0879648,-1.5667876,2.450388,-0.20239483,0.20378947,-0.24942644,0.036537953,0.02853521,-0.17260425,-0.13407528,0.17238252,-9.155427,0.9231726,47.723602,-1.0616405,-2.0416708,-3.4978242,-0.06419111,0.08846174,-0.4025774,24.9375,25.5625,24.6875,26.6875,27.0,27.3125
0.33005458,-0.41017762,0.32409823,0.077777855,0.0046891226,0.05094824,-0.10070028,-0.41503006,-0.36386284,0.06008104,3.072571,-0.62939805,-0.00018108597,-0.1555132,0.032250114,-0.0022708885,-0.029258512,-0.004959222,-0.02194642,0.47141632,-1.3495247,1.8647102,-2.0878685,-1.5667638,2.4500003,-0.20354739,0.204127,-0.25057852,0.038203776,0.02846629,-0.18143353,-0.21068975,0.21068975,-9.270349,0.9186956,47.704796,-0.91601104,-2.0513232,-3.4425921,-0.09524137,0.07268927,-0.3261928,24.9375,25.5625,24.6875,26.6875,27.0,27.3125
0.3320538,-0.23942237,0.54719645,0.023332167,0.012296559,0.057009965,-0.10270703,-0.4153591,-0.36379528,0.060080834,3.0724669,-0.6295049,-0.00012836744,-0.15625389,0.03267427,-0.0026057682,-0.028158553,-0.006488983,-0.012591313,0.4709723,-1.3491044,1.8641828,-2.087784,-1.5666794,2.4496367,-0.20455743,0.2064048,-0.25316796,0.040449105,0.028222673,-0.19179776,-0.30645782,0.11492168,-9.346964,0.90750587,47.667187,-0.91978186,-2.1956625,-3.5486395,-0.1289702,0.065045215,-0.19816259,24.9375,25.5625,24.6875,26.6875,27.0,27.3125
0.33405432,-0.36899063,0.2298972,-0.04362896,0.0048001213,0.06910759,-0.098281436,-0.41565165,-0.36372626,0.060075793,3.0724092,-0.629469,-7.5137206e-05,-0.15616345,0.031996697,-0.0031495234,-0.027183034,-0.0068551977,-0.0058459267,0.47056514,-1.3487322,1.8637275,-2.0877125,-1.5666078,2.4492147,-0.2027806,0.20858534,-0.25468475,0.040602576,0.027538035,-0.19676676,-0.30645782,0.076614454,-9.32781,0.8537928,47.684196,-1.1943766,-2.1102996,-3.5751352,-0.14527883,0.06727335,-0.09338617,24.9375,25.5625,24.6875,26.6875,27.0,27.3125
0.3360536,-0.9870828,0.21782666,-0.0028472913,0.0039346684,0.068095215,-0.09331583,-0.41595998,-0.36367935,0.06006002,3.0723577,-0.6294786,8.47328e-06,-0.15730232,0.031453267,-0.0038125566,-0.02608791,-0.0065425863,-0.0064891754,0.47018155,-1.3482746,1.8631872,-2.0876172,-1.5665363,2.448844,-0.20199782,0.21249183,-0.2579066,0.04015825,0.026406959,-0.19534177,-0.38307226,0.019153614,-9.232041,0.8784135,47.723602,-1.3851578,-2.2914116,-3.6745653,-0.14884523,0.06202522,-0.075429544,24.9375,25.5625,24.6875,26.6875,27.0,27.3125
0.33805382,-1.0460986,0.38659424,0.0515207,0.0071313577,0.0707933,-0.09076386,-0.41627902,-0.36360118,0.060059194,3.0723188,-0.6295125,-2.533164e-05,-0.15818246,0.031247554,-0.0030631751,-0.025446257,-0.005776102,-0.013789921,0.46977365,-1.3478792,1.862696,-2.0875561,-1.5665249,2.4484625,-0.20166722,0.21338525,-0.26122257,0.04217195,0.0254685,-0.18771026,-0.36391866,0.11492168,-9.3661175,0.900793,47.65912,-1.4024732,-2.3352008,-3.4216151,-0.18529215,0.06443242,-0.15628047,24.9375,25.5625,24.6875,26.6875,27.0,27.3125
0.34005442,-0.6129612,0.19598565,-0.034321997,0.005319418,0.074846715,-0.0954639,-0.4166123,-0.36355633,0.06007204,3.072214,-0.62955284,-2.4649532e-06,-0.15905558,0.031541936,-0.0031143487,-0.024066139,-0.0058511575,-0.02302635,0.4693658,-1.347447,1.8621215,-2.0874598,-1.5664414,2.4480937,-0.20198064,0.21517599,-0.26366818,0.04351001,0.024249746,-0.1787876,-0.3256114,0.24899697,-9.3661175,0.9768804,47.688675,-1.3698808,-2.2726662,-3.4418142,-0.23202766,0.06411468,-0.26829177,24.9375,25.5625,24.6875,26.6875,27.0,27.3125
0.34205377,-0.11451769,-0.2704145,-0.031953875,-0.0070734173,0.06498044,-0.10025715,-0.41693053,-0.3634784,0.06006756,3.072159,-0.62964076,1.5269728e-05,-0.1608683,0.032420978,-0.0027081256,-0.023626035,-0.003969634,-0.030797608,0.46894497,-1.347039,1.8616179,-2.0873764,-1.5664057,2.447735,-0.20403963,0.21590619,-0.26545954,0.043088052,0.022986585,-0.173077,-0.2681506,0.22984336,-9.404425,0.9388393,47.657326,-1.4115877,-2.3341732,-3.5045733,-0.2528991,0.070314065,-0.36246514,24.9375,25.5625,24.6875,26.6875,27.0,27.3125
0.34405434,-0.63786733,-0.45582005,0.15985958,-0.02281122,0.04435628,-0.103089325,-0.41726834,-0.363422,0.060055707,3.0720997,-0.62970847,4.685069e-05,-0.16300456,0.032474373,-0.0017689681,-0.02428337,-0.0010738305,-0.03724319,0.46853644,-1.3465592,1.8610438,-2.0872924,-1.566358,2.4473767,-0.2053042,0.21683398,-0.2686679,0.042485673,0.022243576,-0.16789621,-0.4213795,0.3256114,-9.308657,0.90750587,47.68062,-1.4560227,-2.2285676,-3.4036534,-0.2584341,0.09643564,-0.4417402,24.9375,25.5625,24.6875,26.6875,27.0,27.3125
0.3460541,0.22456576,-0.4884585,-0.023921808,-0.027908264,0.063983284,-0.10393716,-0.41757977,-0.36334905,0.060048524,3.0720727,-0.62983686,4.4866636e-05,-0.16506417,0.0329871,-0.0013582702,-0.024710622,0.0005671927,-0.03875351,0.4681519,-1.3461385,1.8605279,-2.087197,-1.566358,2.447076,-0.20751092,0.21825284,-0.27130595,0.042060673,0.021883762,-0.16859244,-0.61291564,0.30645782,-9.308657,0.8940802,47.704796,-1.4728315,-2.39008,-3.2341251,-0.2759963,0.114682704,-0.49281746,24.9375,25.5625,24.6875,26.6875,27.0,27.3125
0.3480537,-0.26904905,-0.64285,-0.38719833,-0.015299908,0.05456548,-0.10550677,-0.41791332,-0.3632803,0.060035706,3.0720081,-0.62995255,0.00011647299,-0.16525967,0.033311408,-0.0014127747,-0.02439112,0.00045105373,-0.030663729,0.46771967,-1.3456712,1.8599652,-2.0870893,-1.5662979,2.4467247,-0.20790635,0.21850015,-0.27167317,0.042486787,0.021683306,-0.17707859,-0.24899697,0.3256114,-9.385271,1.048496,47.68062,-1.4261541,-2.250121,-3.3863387,-0.29170686,0.13583028,-0.48510012,24.9375,25.5625,24.6875,26.6875,27.0,27.3125
0.35005394,-0.9027732,-0.8961636,-0.3411501,-0.023075208,0.05552305,-0.09898828,-0.4182088,-0.3631943,0.060004886,3.07199,-0.63004,0.00023511487,-0.1664987,0.03394997,-0.00072491384,-0.024887584,0.002221504,-0.02115119,0.46729878,-1.3452404,1.8594874,-2.0869815,-1.5662502,2.4463608,-0.20964484,0.21798389,-0.27262983,0.042225268,0.021358434,-0.18833172,-0.19153613,0.28730422,-9.385271,0.900793,47.703007,-1.3263483,-2.1285033,-3.5442197,-0.30601138,0.13052157,-0.3893049,24.9375,25.5625,24.6875,26.6875,27.0,27.3125
0.352054,-1.1965927,-1.034394,-0.13750748,-0.024785835,0.06624003,-0.09635129,-0.41856572,-0.3631205,0.060002998,3.0719373,-0.63000447,0.00020920724,-0.16759929,0.035766635,-0.0018404536,-0.02466208,0.0007241288,-0.01397659,0.4668537,-1.3447843,1.8589243,-2.086922,-1.566214,2.4459007,-0.21370506,0.21943632,-0.2717775,0.041425,0.021884399,-0.199565,-0.34476504,0.30645782,-9.3661175,0.947788,47.684196,-1.1139882,-2.0622663,-3.66341,-0.31297368,0.13580418,-0.24983442,24.9375,25.5625,24.6875,26.6875,27.0,27.3125
0.35405412,-0.933799,-0.7190685,-0.17968221,-0.025675295,0.084098436,-0.1001668,-0.41890773,-0.36303633,0.05998525,3.071889,-0.6300897,0.00027051763,-0.16964832,0.036582056,-0.0022934796,-0.025227789,6.6490764e-05,-0.012244575,0.4663968,-1.3443158,1.8583735,-2.086826,-1.5661653,2.4455035,-0.21707809,0.22241813,-0.27449208,0.041531138,0.022699764,-0.20466772,-0.4405331,0.2681506,-9.385271,0.95897776,47.651955,-1.0685296,-2.1084714,-3.6792812,-0.34036413,0.13550603,-0.18356618,24.9375,25.5625,24.6875,26.6875,27.0,27.3125
0.3560543,-1.0089699,-0.5156661,-0.18414555,-0.016440583,0.079721734,-0.08872803,-0.41925138,-0.36300015,0.06000018,3.0718057,-0.6299983,0.00022381512,-0.17213768,0.037414968,-0.001939677,-0.026389722,0.0018723863,-0.019140752,0.46601173,-1.343872,1.857787,-2.086767,-1.5661052,2.4450724,-0.22049409,0.2237951,-0.27677274,0.040303446,0.022927614,-0.20118447,-0.3256114,0.24899697,-9.308657,0.92764956,47.71823,-0.9426602,-2.029085,-3.5236526,-0.35551593,0.14539927,-0.16267622,24.9375,25.5625,24.6875,26.6875,27.0,27.3125
0.35805365,-0.532932,-0.240218,-0.40686634,0.0034306415,0.06431993,-0.096939325,-0.4196175,-0.3629034,0.06000842,3.0717564,-0.6300869,0.00016048887,-0.17358433,0.03653152,-0.0016184432,-0.02767523,0.005517668,-0.025725111,0.46554413,-1.3434395,1.8572239,-2.086685,-1.5661057,2.4446669,-0.21972607,0.22512558,-0.27839246,0.036736473,0.022417825,-0.19383135,-0.36391866,0.21068975,-9.404425,0.95226496,47.694054,-0.9694905,-2.1761634,-3.5603962,-0.32320297,0.15842672,-0.24888644,24.9375,25.5625,24.6875,26.6875,27.0,27.3125
0.36005405,-0.49576485,0.31569675,-0.20880054,-0.0033791903,0.04858808,-0.10033514,-0.41997424,-0.3628411,0.05999944,3.0716634,-0.63020474,0.00014801069,-0.17485474,0.035499744,-0.0016659906,-0.028154233,0.007254184,-0.030889278,0.46511275,-1.3429588,1.8566488,-2.0866368,-1.5660576,2.4443214,-0.21865365,0.22796102,-0.28148732,0.035219993,0.022050556,-0.18759325,-0.4405331,0.21068975,-9.442732,0.9164598,47.716442,-1.1999781,-2.2147212,-3.638443,-0.29792783,0.17778912,-0.3360027,24.9375,25.5625,24.6875,26.6875,27.0,27.3125
0.3620543,-0.075345434,0.082827404,-0.2269776,-0.006381768,0.064446576,-0.09928341,-0.4202975,-0.3627843,0.05996995,3.0715995,-0.63023025,0.00021517316,-0.17634499,0.034858964,-0.0011621086,-0.029784724,0.009019273,-0.033936337,0.46470448,-1.3424789,1.856121,-2.086589,-1.5659856,2.4439375,-0.21904267,0.2294452,-0.2843109,0.03425821,0.022706777,-0.1849329,-0.51714754,0.22984336,-9.308656,0.9254084,47.666286,-1.1589701,-2.4417293,-3.5885658,-0.29784533,0.17506891,-0.38205284,24.9375,25.5625,24.6875,26.6875,27.0,27.3125
0.3640544,-0.22739474,-0.040269397,-0.7302173,0.0034841066,0.056537103,-0.10004223,-0.4206417,-0.36270607,0.05996127,3.071562,-0.6303182,0.00023763359,-0.17745617,0.034620073,-0.0011145502,-0.03006867,0.009604405,-0.03409072,0.4642723,-1.3420107,1.8555464,-2.0864813,-1.5659612,2.4435654,-0.21937257,0.23135185,-0.2868323,0.034237914,0.022702638,-0.18510762,-0.15322891,0.17238252,-9.576807,0.900793,47.67166,-1.242857,-2.3130026,-3.4505713,-0.28481138,0.18613192,-0.41693288,24.9375,25.5625,24.6875,26.6875,27.0,27.3125
0.36605465,-0.1820715,-0.59089226,-0.6667549,-0.01334562,0.054587256,-0.1069303,-0.42103034,-0.36266002,0.05998057,3.0714304,-0.63038313,0.00018770364,-0.17823003,0.034546077,-0.00114914,-0.029572826,0.009340588,-0.02870029,0.4638283,-1.3415186,1.8548874,-2.0864093,-1.5658897,2.4431794,-0.21950142,0.23326464,-0.2894642,0.03546637,0.022421964,-0.19062476,-0.15322891,0.21068975,-9.672575,0.96569055,47.683304,-1.2772241,-2.3427284,-3.3315506,-0.29288736,0.19421646,-0.38283092,24.9375,25.5625,24.6875,26.6875,27.0,27.3125
0.3680537,-0.70943725,-1.2174718,-0.4593701,-0.034032576,0.058901478,-0.09829533,-0.421371,-0.3625681,0.059958432,3.071422,-0.6304119,0.00021151661,-0.17953393,0.034286145,-0.00050280336,-0.030137153,0.011817883,-0.017950758,0.46338466,-1.3410507,1.8543485,-2.086326,-1.5658778,2.442755,-0.21961808,0.23389415,-0.29158708,0.03455924,0.021859866,-0.20149216,-0.3256114,0.30645782,-9.519346,0.8672237,47.675243,-1.4078419,-2.510275,-3.4099593,-0.27019995,0.22352943,-0.27150288,24.9375,25.5625,24.6875,26.6875,27.0,27.3125
0.37005404,-0.40705228,-0.73813236,-0.6961508,-0.028776146,0.063198045,-0.10222974,-0.42171878,-0.36251128,0.059966337,3.0713322,-0.63042694,0.00019320514,-0.1803926,0.034207467,-0.0010494723,-0.030328862,0.012422561,-0.009629418,0.46296468,-1.3406061,1.853773,-2.0862548,-1.5658177,2.4423563,-0.2199671,0.23591296,-0.29253083,0.032922264,0.021809958,-0.2101612,-0.15322891,0.30645782,-9.615114,0.92764956,47.67166,-1.5027771,-2.5100098,-3.4217427,-0.2650859,0.23432522,-0.16351525,24.9375,25.5625,24.6875,26.6875,27.0,27.3125
0.37205413,-0.20618382,-0.63080937,-0.8095582,-0.023888506,0.070601225,-0.09674659,-0.4221006,-0.36243325,0.0599699,3.0712385,-0.63048387,0.00012333537,-0.18014012,0.03464389,-0.0024816701,-0.030384127,0.010193423,-0.009779818,0.462496,-1.3401384,1.853187,-2.086219,-1.5657815,2.4419358,-0.2209017,0.23768525,-0.291324,0.031931344,0.022886172,-0.21094151,-0.17238252,0.36391866,-9.691729,0.93436235,47.675243,-1.3820832,-2.3640842,-3.5598602,-0.23725,0.27000225,-0.10672267,24.9375,25.5625,24.6875,26.6875,27.0,27.3125
0.37405506,-0.46559423,-0.6329104,-0.36612582,-0.038358655,0.056820117,-0.0924953,-0.42245576,-0.36236173,0.059939716,3.0711634,-0.63056916,0.00019243213,-0.18113449,0.035495337,-0.0020258136,-0.031723313,0.010807394,-0.018091584,0.4620392,-1.3396231,1.8526133,-2.086159,-1.5657095,2.4415421,-0.22346857,0.23689339,-0.2914413,0.031687114,0.023798272,-0.20519483,-0.24899697,0.3256114,-9.500193,0.9634547,47.661808,-1.3340073,-2.3187943,-3.6770782,-0.2225268,0.26978654,-0.15340298,24.9375,25.5625,24.6875,26.6875,27.0,27.3125
