Tylouw/Master_Thesis_Code/training_data/batch_1/rect_rod_t0.1/sample_7_session_1.csv
timestamp[s],tcp_force_x[N],tcp_force_y[N],tcp_force_z[N],tcp_force_rx[Nm?],tcp_force_ry[Nm?],tcp_force_rz[Nm?],tcp_pose_x[m],tcp_pose_y[m],tcp_pose_z[m],tcp_pose_rx[rot_vec_x],tcp_pose_ry[rot_vec_y],tcp_pose_rz[rot_vec_z],tcp_velo_x[m/s],tcp_velo_y[m/s],tcp_velo_z[m/s],tcp_velo_rx[rot_vec_x/s],tcp_velo_ry[rot_vec_y/s],tcp_velo_rz[rot_vec_z/s],q1[rad],q2[rad],q3[rad],q4[rad],q5[rad],q6[rad],qd1[rad/s],qd2[rad/s],qd3[rad/s],qd4[rad/s],qd5[rad/s],qd6[rad/s],tool_acc_x,tool_acc_y,tool_acc_z,current_of_whole_robot[A],voltage_of_whole_robot[V],current_J1[A],current_J2[A],current_J3[A],current_J4[A],current_J5[A],current_J6[A],temp_J1[C],temp_J2[C],temp_J3[C],temp_J4[C],temp_J5[C],temp_J6[C]
8.17e-07,-0.8135486,-1.2398902,-0.30671218,-0.019325035,0.0025955697,0.014531552,-0.38932565,-0.36871997,0.059996586,-3.0786886,0.624925,0.00016472481,0.00062552287,0.00031103028,-0.0011046003,0.0005236619,-0.0012451919,0.00011934588,0.5050448,-1.3816315,1.9042114,-2.0919044,-1.5708536,2.4800372,-2.9104825e-05,0.000632017,0.0020762812,-0.0013657494,0.0001455361,-0.0001492694,0.21068975,0.19153613,-8.523358,0.7217513,47.71823,-0.22625163,-3.0545669,-2.2385361,-0.20889705,0.19611184,0.01659717,24.3125,24.75,24.125,25.5,25.5625,25.8125
0.002094972,-0.41059533,-1.1586113,-0.16103883,-0.02248146,0.019527338,0.002441888,-0.3893363,-0.36873472,0.060025427,-3.0787454,0.6249366,0.00021369605,-0.0006193662,-0.00038072816,-0.002126676,-0.0018576853,0.0030370743,0.000117385345,0.5050448,-1.3816671,1.9041885,-2.0919073,-1.5708297,2.4800372,-2.8192992e-05,0.0021524006,0.00464424,-0.010353938,0.0001422497,-0.00014623771,0.076614454,0.2681506,-8.523358,0.7553206,47.67793,-0.262268,-2.9380155,-2.326817,-0.15906748,0.19560574,0.002623295,24.3125,24.75,24.125,25.5,25.5625,25.8125
0.004084947,-0.5389417,-0.77203196,-0.14223863,-0.03053088,0.018634526,0.006109416,-0.38936305,-0.36871767,0.060028993,-3.0787332,0.6249342,0.0003060501,-0.0012014412,-0.0007038093,-0.0019418666,-0.0026067202,0.004389809,0.00011573446,0.50502086,-1.381667,1.9041885,-2.091944,-1.5708774,2.4800134,-2.7336739e-05,0.0024688633,0.004163612,-0.011736036,0.00013910886,-0.00014332673,0.0,0.21068975,-8.504205,0.7978386,47.689575,-0.21934763,-3.339861,-2.5759578,-0.086826175,0.19651629,0.011435273,24.3125,24.75,24.125,25.5,25.5625,25.8125
0.006086821,-0.1612598,-0.45380756,-0.18894854,-0.006634371,0.013000309,0.012320143,-0.389364,-0.36872262,0.060030505,-3.0787375,0.62499243,0.00030617285,-0.00041432574,-0.0002649214,-0.00082440017,-0.0015793514,0.0025584516,0.00011335074,0.50502086,-1.3816677,1.904188,-2.091953,-1.5708655,2.4800491,-2.6530808e-05,0.000345678,0.0028803025,-0.0062297103,0.00013610344,-0.00014052921,0.038307227,0.21068975,-8.465898,0.71279734,47.70032,-0.21158478,-3.2570095,-2.5266635,-0.09902537,0.2052976,0.018073468,24.3125,24.75,24.125,25.5,25.5625,25.8125
0.008080374,0.19310714,0.28921577,-0.60737705,0.028201379,-0.009169267,0.004449318,-0.3893485,-0.36873,0.060013346,-3.0787363,0.6249729,0.00023899181,-0.00040606313,-0.00025980797,-2.1255823e-05,-0.0010043202,0.0015322526,0.00011189718,0.5050329,-1.3816439,1.9041985,-2.0919516,-1.5708417,2.4800491,-2.577117e-05,4.637712e-06,0.00059289613,-0.0024249386,0.00013322505,-0.00013783868,0.11492168,0.13407528,-8.561666,0.7866488,47.703903,-0.20781493,-3.127252,-2.3397355,-0.12897871,0.19296819,0.018662304,24.3125,24.75,24.125,25.5,25.5625,25.8125
0.010094469,-0.19144863,0.010226434,-1.1644169,0.03312026,-0.014149608,0.013616072,-0.38933954,-0.36871347,0.059977878,-3.0786889,0.6249252,0.000164687,2.4231222e-05,-1.0248207e-05,-3.5085533e-05,-0.00011122013,-6.847849e-05,9.3506096e-05,0.50502086,-1.3815958,1.9042224,-2.0919511,-1.5708536,2.4800134,-4.1520365e-05,6.222083e-08,0.00010146762,-9.591129e-05,0.0001304662,-0.00013524941,0.1340753,0.11492168,-8.829816,0.73069996,47.66271,-0.6802176,-2.5869808,-2.9436486,-0.11745502,0.159601,-0.04085262,24.3125,24.75,24.125,25.5,25.5625,25.8125
0.012055808,-0.49127296,-0.4738191,-1.1695591,-0.011396111,0.006084246,0.003942699,-0.38932288,-0.368713,0.0599781,-3.078678,0.6249423,9.394342e-05,0.001287736,0.00077169656,-0.004011656,0.0045698835,-0.008518816,-3.5708515e-05,0.5050208,-1.3816056,1.9042224,-2.0919025,-1.5708297,2.4800253,-0.00017823906,0.00726498,1.3613177e-06,0.0023995682,0.000127819,-0.0001418232,0.1340753,0.15322891,-9.097966,0.74413085,47.655537,-0.8374366,-2.5222335,-3.16238,-0.12554967,0.16856682,-0.09893845,24.3125,24.75,24.125,25.5,25.5625,25.8125
0.014054822,-0.9587492,-1.6191233,-1.3886676,-0.04338922,0.030750994,0.006284852,-0.3893179,-0.36870387,0.059971385,-3.0786495,0.624957,7.6975026e-05,-0.0046351473,0.0027716237,-0.0038686453,0.0043534576,-0.008151841,-0.0029593897,0.5050175,-1.3816031,1.9042319,-2.09189,-1.5708417,2.4800348,-0.009087508,0.0133561,-0.007813343,0.003696391,0.00012527735,-0.0061233775,0.0,0.15322891,-9.232041,0.7486078,47.70211,-0.45527261,-3.0726552,-3.0490026,-0.13341847,0.15482612,-0.103585675,24.3125,24.75,24.125,25.5,25.5625,25.8125
0.016054045,-1.4944377,-1.906867,-1.495186,-0.06484324,0.04564235,0.0022870074,-0.38932756,-0.3686905,0.059957985,-3.0786116,0.62490696,1.8968763e-05,-0.00569877,0.002845487,-0.0028147767,0.003398501,-0.006427196,0.0027388248,0.5049934,-1.3815553,1.9041952,-2.0918424,-1.5708536,2.4799843,-0.010204805,0.01251806,-0.009301762,0.004050323,0.00012283471,-0.012938455,-0.21068975,0.30645782,-9.251195,0.67475104,47.705692,-0.4179083,-2.8781343,-3.0539808,-0.097327895,0.15182602,-0.04318302,24.3125,24.75,24.125,25.5,25.5625,25.8125
0.018054226,-1.9330817,-1.690253,-1.522843,-0.069914505,0.068261825,-0.01042206,-0.38930312,-0.36870196,0.05994219,-3.0786135,0.6248865,-0.00010158398,-0.0055252095,0.002728829,-0.0020532764,0.003137725,-0.005949067,0.0060618925,0.5050055,-1.381532,1.9041952,-2.0918062,-1.5708054,2.4799833,-0.009844249,0.011156384,-0.0097018555,0.005267784,0.00012048542,-0.015901152,-0.40222588,0.34476504,-9.461885,0.7709874,47.728977,-0.6675181,-2.6799912,-3.319448,-0.09230107,0.1424175,-0.025650728,24.3125,24.75,24.125,25.5,25.5625,25.8125
0.020054257,-2.102766,-1.644101,-1.6615146,-0.05145776,0.08534038,-0.018046476,-0.38932285,-0.36867812,0.059921924,-3.078566,0.62485844,-0.000109993336,-0.005333022,0.002850601,-0.0030615733,0.0047920384,-0.008935035,0.005849151,0.5049695,-1.381483,1.9041833,-2.0918052,-1.5708417,2.479936,-0.009869649,0.013879219,-0.011097263,0.0073534357,0.000118224576,-0.015713029,-0.47884035,0.38307226,-9.500193,0.7396539,47.655537,-0.82811594,-2.5105405,-3.3959112,-0.10741931,0.13439351,-0.027072493,24.3125,24.75,24.125,25.5,25.5625,25.8125
0.022054331,-2.0504527,-1.3658532,-1.8850517,-0.041603513,0.08708355,-0.030169701,-0.3893525,-0.36867812,0.059928622,-3.0785635,0.62482077,-7.099342e-05,-0.0075349086,0.003196499,-0.002672102,0.0044816947,-0.008381094,0.002556949,0.5049566,-1.3814461,1.9041218,-2.0917928,-1.5708655,2.4799,-0.012511225,0.016060434,-0.014751014,0.008190772,0.00011604675,-0.015060645,-0.5363012,0.38307226,-9.749189,0.7530795,47.67614,-0.8789356,-2.5876198,-3.379282,-0.120894596,0.13030781,-0.07408678,24.3125,24.75,24.125,25.5,25.5625,25.8125
0.024054302,-1.6437744,-1.4602675,-1.9208614,-0.039063618,0.090444215,-0.041221805,-0.38934937,-0.36866197,0.059903946,-3.0785098,0.62481135,-0.00017148902,-0.00809532,0.0036804762,-0.003972097,0.0056666313,-0.010526258,1.0857003e-05,0.5049323,-1.3813969,1.9041089,-2.0917451,-1.5708655,2.4798765,-0.013850729,0.019253751,-0.015586794,0.008284123,0.00011394784,-0.013853223,-0.68953013,0.2681506,-9.844957,0.7284641,47.705692,-0.94871926,-2.636864,-3.339489,-0.096313745,0.12771665,-0.10902548,24.3125,24.75,24.125,25.5,25.5625,25.8125
0.026054665,-2.2339487,-1.5642523,-1.994255,-0.041655708,0.07915526,-0.05457161,-0.389347,-0.36864787,0.05987878,-3.078467,0.6249179,-0.00026749057,-0.009297989,0.0038271851,-0.00355175,0.0050476016,-0.009413533,-9.001478e-06,0.5048959,-1.3813608,1.9041208,-2.0917332,-1.5708417,2.479912,-0.0152217,0.019718947,-0.017025225,0.007984177,0.00011192344,-0.015203645,-0.7278373,0.24899697,-9.787497,0.67475104,47.71286,-0.9244524,-2.7028894,-3.4386253,-0.08684172,0.12356883,-0.120143875,24.3125,24.75,24.125,25.5,25.5625,25.8125
0.02805463,-2.2297533,-1.5579835,-1.8702981,-0.03926563,0.08602691,-0.07109987,-0.38936752,-0.36866087,0.059878036,-3.0785186,0.62483245,-0.00026460373,-0.010102762,0.004292244,-0.003410121,0.0051577077,-0.009554491,5.3820237e-05,0.50488335,-1.3813245,1.904085,-2.091757,-1.5708174,2.4798396,-0.016738445,0.020239053,-0.0181372,0.008752962,8.2813e-05,-0.016782701,-0.7278373,0.17238252,-9.825804,0.800085,47.658226,-0.8603049,-2.6483693,-3.4544368,-0.09088161,0.10274142,-0.122557156,24.3125,24.75,24.125,25.5,25.5625,25.8125
0.030054426,-2.5632308,-1.1754171,-1.7698762,-0.034227733,0.08900717,-0.08355373,-0.38938472,-0.36866492,0.059869856,-3.0785139,0.6248304,-0.00033169027,-0.0110511985,0.004146244,-0.0030471142,0.005187212,-0.009557707,-0.0004097913,0.5048592,-1.3812641,1.904024,-2.0917208,-1.5707935,2.4798148,-0.017362827,0.021560136,-0.020843143,0.010155395,5.5001226e-05,-0.016942257,-0.68953013,0.15322891,-9.691729,0.7642693,47.678825,-0.8633379,-2.6596107,-3.402063,-0.09817016,0.093962125,-0.12404035,24.3125,24.75,24.125,25.5,25.5625,25.8125
0.032054495,-2.580936,-0.9889923,-1.7743148,-0.018370949,0.09311378,-0.07652754,-0.3894102,-0.36863002,0.05985813,-3.07843,0.6249499,-0.0003517379,-0.01216172,0.0036849047,-0.0024733224,0.0044460497,-0.008222473,-0.0021164117,0.50479925,-1.3812277,1.9039997,-2.091685,-1.5708297,2.47984,-0.017623,0.022471337,-0.023209967,0.010083468,5.176539e-05,-0.015494687,-0.7278373,0.095768064,-9.710882,0.8023209,47.70032,-0.9566963,-2.6445265,-3.3609858,-0.09097866,0.08825314,-0.13050973,24.3125,24.75,24.125,25.5,25.5625,25.8125
0.03405421,-2.2303107,-0.31047332,-1.7790993,-0.007890379,0.102714695,-0.07637313,-0.38947508,-0.36864546,0.059883874,-3.0784786,0.62488365,-0.00020229012,-0.013461149,0.0039061117,-0.002093964,0.0041478476,-0.0076377047,-0.0051377313,0.5047868,-1.3811793,1.9038919,-2.0917203,-1.5708655,2.4797802,-0.019194067,0.023389162,-0.025269674,0.010569079,2.842195e-05,-0.014043451,-0.7469909,-0.076614454,-9.672575,0.7396539,47.684196,-0.90694255,-2.672932,-3.3099916,-0.08649239,0.068663396,-0.16283807,24.3125,24.75,24.125,25.5,25.5625,25.8125
0.036053833,-2.02536,-0.30954036,-1.8034443,0.009201201,0.09335063,-0.0744442,-0.3894842,-0.3686469,0.05986937,-3.078477,0.62488365,-0.00032199622,-0.014176974,0.003835358,-0.0019181352,0.0038365272,-0.0070747323,-0.0057181856,0.5047506,-1.381119,1.9038428,-2.0916727,-1.5708174,2.4797442,-0.019741619,0.02406712,-0.0264374,0.010416222,2.4638159e-05,-0.014009945,-0.59376204,-0.076614454,-9.615114,0.7620334,47.694946,-1.00559,-2.687233,-3.3549175,-0.08870246,0.06287693,-0.17271492,24.3125,24.75,24.125,25.5,25.5625,25.8125
0.03805553,-1.9373701,-0.6771821,-1.9117922,0.009225807,0.07519771,-0.06696218,-0.389533,-0.36863837,0.059871983,-3.0784702,0.6249968,-0.0002930305,-0.015305179,0.0035628842,-0.0016670009,0.0034335868,-0.0063091735,-0.005170885,0.5046906,-1.3810705,1.9037822,-2.091685,-1.5708174,2.4797556,-0.020322183,0.025503786,-0.028699048,0.010376203,1.6086958e-06,-0.015136613,-0.40222588,-0.1340753,-9.730036,0.82694155,47.70211,-0.9512866,-2.6940656,-3.380879,-0.06247624,0.05014958,-0.17519411,24.3125,24.75,24.125,25.5,25.5625,25.8125
0.04005383,-1.5193834,-0.57490915,-2.0107064,-0.0008818578,0.06640369,-0.06160805,-0.38957247,-0.3685948,0.059848107,-3.078387,0.6249809,-0.00030390322,-0.01708689,0.003940116,-0.00096563227,0.0030247925,-0.0055771186,-0.006819263,0.5046178,-1.3809981,1.9037455,-2.0916603,-1.5708774,2.4796836,-0.022620425,0.026455611,-0.03169475,0.011580607,1.0503634e-07,-0.015785228,-0.34476504,-0.1340753,-9.768343,0.7463667,47.696735,-0.9403317,-2.6596437,-3.269723,-0.040463395,0.031260833,-0.19006974,24.3125,24.75,24.125,25.5,25.5625,25.8125
0.042054188,-1.5868928,-0.8095482,-1.9585401,-0.0038194952,0.04678735,-0.06047532,-0.38958958,-0.36860287,0.059843373,-3.0783825,0.62501895,-0.00038471728,-0.018165678,0.0048771044,-0.0012888323,0.0041208244,-0.0065614674,-0.007937874,0.5045931,-1.3809373,1.9036735,-2.091612,-1.5708417,2.4796832,-0.024902344,0.028057525,-0.033132266,0.012809933,-0.00048497456,-0.016946897,-0.2681506,-0.019153614,-9.615114,0.7351769,47.66987,-0.8285556,-2.6655672,-3.3176708,-0.0505841,0.02885001,-0.1945765,24.3125,24.75,24.125,25.5,25.5625,25.8125
0.04405407,-1.4582661,-0.79899585,-1.7073491,-0.016403174,0.040856183,-0.06463301,-0.3896203,-0.3685932,0.059841007,-3.0783803,0.6250362,-0.00043901682,-0.018146923,0.005779179,-0.0018203487,0.007152615,-0.007491565,-0.006800233,0.5045334,-1.380889,1.9036134,-2.091575,-1.5708183,2.4796345,-0.025026303,0.029020002,-0.033427976,0.014431242,-0.0026877623,-0.018204104,-0.22984336,-0.095768064,-9.653421,0.8179876,47.683304,-0.88099647,-2.673135,-3.3829708,-0.059047967,0.05376221,-0.1994701,24.3125,24.75,24.125,25.5,25.5625,25.8125
0.046054203,-0.93038934,-0.68149984,-1.7641121,-0.026428305,0.050564013,-0.07409046,-0.38968208,-0.36856937,0.05986888,-3.0783546,0.6250887,-0.00032125684,-0.018965324,0.005822218,-0.0016331389,0.007097091,-0.007399552,-0.0069517726,0.50447315,-1.3808768,1.90353,-2.091551,-1.5708784,2.4796104,-0.025862139,0.029985964,-0.035140883,0.015069414,-0.0026859015,-0.018887745,-0.11492168,0.019153614,-9.634268,0.72622824,47.696735,-0.867551,-2.6337438,-3.3823085,-0.05907313,0.047532044,-0.2176041,24.3125,24.75,24.125,25.5,25.5625,25.8125
0.048053466,-0.9983673,-1.3255059,-1.986081,-0.020402003,0.039562862,-0.06822624,-0.38971537,-0.36857077,0.059864998,-3.0783372,0.6251429,-0.0003618985,-0.020263057,0.0053906906,-0.0007125707,0.0058572907,-0.006305921,-0.007269747,0.5044369,-1.3808044,1.9034451,-2.0915148,-1.5708665,2.4796102,-0.0266909,0.030606285,-0.03816228,0.015911877,-0.0021347404,-0.019398287,-0.038307227,0.19153613,-9.576807,0.7866488,47.677036,-0.927355,-2.5887227,-3.303956,-0.04116233,0.036742847,-0.23488918,24.3125,24.75,24.125,25.5,25.5625,25.8125
0.050053854,-0.7987912,-1.5212911,-1.9437276,-0.026946088,0.031131038,-0.061541162,-0.38977644,-0.36854777,0.059861742,-3.0783386,0.6251806,-0.00034732695,-0.021352526,0.00531626,-0.0002559289,0.005010161,-0.005792697,-0.007696441,0.50434077,-1.3807442,1.9033841,-2.0915267,-1.570866,2.4795375,-0.027884942,0.03133555,-0.04015745,0.016316978,-0.0016453781,-0.02016571,-0.019153614,0.22984336,-9.576807,0.76874626,47.69763,-0.91049993,-2.5920346,-3.3178134,-0.053258136,0.02708575,-0.24973394,24.3125,24.75,24.125,25.5,25.5625,25.8125
0.052054588,-0.57925385,-1.6308937,-1.7658949,-0.039337795,0.025079977,-0.0680243,-0.38980344,-0.36853662,0.059844818,-3.0782878,0.6251895,-0.0004070409,-0.02214339,0.0060142246,-0.00026787724,0.005178049,-0.006384383,-0.0076163947,0.5043042,-1.3806598,1.9033121,-2.091479,-1.5708779,2.479513,-0.029881695,0.031883534,-0.04097743,0.01718695,-0.0015087331,-0.022242354,-0.05746084,0.34476504,-9.5385,0.75755644,47.68062,-0.8083012,-2.4788287,-3.3288994,-0.09131566,0.015047589,-0.25798213,24.3125,24.75,24.125,25.5,25.5625,25.8125
0.054053754,-0.5857789,-1.5672395,-1.6488094,-0.05786514,0.026845079,-0.06671127,-0.38985118,-0.3685346,0.059864473,-3.0783105,0.6251544,-0.00037930888,-0.023261918,0.0056477115,5.9282025e-05,0.0043408014,-0.005260732,-0.006365923,0.5042562,-1.3806236,1.9032162,-2.0914428,-1.5708779,2.4794402,-0.0304216,0.03301659,-0.042934645,0.016621722,-0.00132489,-0.024032088,-0.019153614,0.3256114,-9.5385,0.7642693,47.691364,-0.8116716,-2.479792,-3.3360815,-0.084612735,-0.008303965,-0.25900507,24.3125,24.75,24.125,25.5,25.5625,25.8125
0.05605408,-0.71684957,-1.9533361,-1.6228961,-0.05705721,0.031443454,-0.06289431,-0.38989237,-0.36850724,0.05984195,-3.0782266,0.6252533,-0.0004947295,-0.02455678,0.006114559,0.00015248137,0.004327245,-0.0045056096,-0.0071356837,0.5041716,-1.3805152,1.9031204,-2.091359,-1.5708779,2.479428,-0.03218849,0.033964884,-0.044189308,0.016261404,-0.0016848373,-0.025027664,0.019153614,0.4405331,-9.5385,0.7642693,47.705692,-0.7799957,-2.4293919,-3.317929,-0.10109539,-0.013688477,-0.26379824,24.3125,24.75,24.125,25.5,25.5625,25.8125
0.058053594,-0.9631201,-1.8997273,-1.4549387,-0.055367038,0.037698846,-0.07128969,-0.38996297,-0.3685183,0.059868556,-3.0782764,0.6251863,-0.00034101235,-0.026443133,0.006317187,0.000689922,0.0040205712,-0.0029419877,-0.007411625,0.5041472,-1.3804667,1.9030107,-2.0913951,-1.5709146,2.4793556,-0.033979855,0.03525618,-0.046924327,0.016188413,-0.0021761958,-0.026540974,0.038307227,0.4213795,-9.442732,0.80456203,47.721813,-0.7989559,-2.4656024,-3.3130207,-0.090207264,-0.016735371,-0.25075576,24.3125,24.75,24.125,25.5,25.5625,25.8125
0.060054533,-0.94298947,-2.0814424,-1.602052,-0.049401734,0.048311327,-0.059994254,-0.3900375,-0.3685089,0.05989826,-3.0783105,0.6253083,-0.00032296905,-0.027208546,0.006130078,0.0012030604,0.003730457,-0.0016117009,-0.0067921565,0.50403917,-1.3804305,1.902892,-2.091359,-1.5708784,2.4793193,-0.03412829,0.03546858,-0.04831616,0.016064914,-0.0025675597,-0.027307624,0.019153614,0.47884035,-9.442732,0.7933669,47.704796,-0.7460139,-2.468596,-3.3338306,-0.100588076,-0.048620895,-0.25667146,24.3125,24.75,24.125,25.5,25.5625,25.8125
0.062054347,-1.361743,-1.782595,-1.5037605,-0.04227097,0.03788485,-0.061354596,-0.39007637,-0.36847922,0.059880447,-3.0782406,0.6253315,-0.00038344992,-0.027216515,0.0056659435,0.0009050011,0.0042100768,-0.0022189657,-0.004929524,0.50396776,-1.3803458,1.902819,-2.0912998,-1.5709022,2.4792714,-0.0332708,0.03702713,-0.049592342,0.016545365,-0.0026986215,-0.028311616,-0.038307227,0.38307226,-9.3661175,0.83589023,47.689575,-0.828015,-2.3776512,-3.362598,-0.09281069,-0.030490732,-0.2719751,24.3125,24.75,24.125,25.5,25.5625,25.8125
0.064054236,-0.55277306,-1.1776117,-1.3508135,-0.039875768,0.05833978,-0.06936629,-0.39014432,-0.36848179,0.059893213,-3.0782511,0.625256,-0.00030502968,-0.028824149,0.0057366374,0.0012251368,0.0037003632,-0.0011678464,-0.00524647,0.5039312,-1.3802614,1.9026874,-2.0912874,-1.5709385,2.4791865,-0.034843925,0.038465414,-0.051973637,0.016320616,-0.0027652748,-0.029566547,0.076614454,0.34476504,-9.308656,0.7642693,47.637623,-0.8501529,-2.3764982,-3.3068314,-0.115259476,-0.05277857,-0.27634537,24.3125,24.75,24.125,25.5,25.5625,25.8125
0.06605383,-0.8458638,-0.7531248,-1.2986376,-0.039744705,0.043763384,-0.06281644,-0.39019406,-0.36848864,0.059899416,-3.0782995,0.625247,-0.0003668935,-0.030269166,0.0060654036,0.0014711048,0.0035922863,-0.00044574848,-0.006038241,0.50385886,-1.3801887,1.9025792,-2.0912516,-1.5708784,2.4791024,-0.036578644,0.03965169,-0.0539672,0.016445726,-0.0030239713,-0.030508013,-0.038307227,0.30645782,-9.289502,0.72622824,47.694946,-0.88347423,-2.320437,-3.2997568,-0.10259299,-0.06300848,-0.30190685,24.3125,24.75,24.125,25.5,25.5625,25.8125
0.06805377,-1.004965,-1.1729405,-1.3519427,-0.030901082,0.04442752,-0.05864596,-0.3902442,-0.36847585,0.059894245,-3.0782635,0.6252969,-0.00038270516,-0.031335913,0.006216692,0.0017239896,0.0035948837,0.0005275164,-0.00619999,0.50379854,-1.3801045,1.9024833,-2.0912158,-1.5708913,2.4790778,-0.03752624,0.040431608,-0.055430233,0.016278781,-0.0035009207,-0.031292126,-0.22984336,0.2681506,-9.251195,0.784413,47.690468,-0.84476733,-2.307025,-3.2203908,-0.10755715,-0.05188464,-0.31665832,24.3125,24.75,24.125,25.5,25.5625,25.8125
0.070054166,-0.9639429,-0.93696976,-1.1741712,-0.026161995,0.0578669,-0.06791037,-0.3903272,-0.36846063,0.05991431,-3.0782666,0.6253926,-0.00031478144,-0.031487778,0.006744092,0.0005177427,0.005760933,-0.0013721328,-0.005129679,0.50370264,-1.3800435,1.9023627,-2.0912035,-1.5709027,2.4790413,-0.037937704,0.04311212,-0.055991672,0.016871525,-0.0044801827,-0.03277161,-0.24899697,0.15322891,-9.251195,0.78888994,47.696735,-0.81510746,-2.4188275,-3.3864746,-0.10610269,-0.06437171,-0.31988674,24.3125,24.75,24.125,25.5,25.5625,25.8125
0.07205419,-1.3814919,-0.88031554,-1.1407987,-0.020193433,0.06354124,-0.0636998,-0.3903574,-0.36843866,0.059869565,-3.0781991,0.62534,-0.00048298851,-0.033858076,0.006427944,0.0021630542,0.0051874975,0.0018837824,-0.005539165,0.5036306,-1.3798991,1.9022774,-2.0911314,-1.5708917,2.478945,-0.038937688,0.043783605,-0.060755305,0.017839175,-0.005562336,-0.033357386,-0.19153613,0.11492168,-9.308657,0.7866488,47.690468,-0.87794125,-2.3682704,-3.2230246,-0.1103713,-0.061047893,-0.32861358,24.3125,24.75,24.125,25.5,25.5625,25.8125
0.07405418,-1.4205468,-0.6408824,-1.1098344,-0.015242437,0.0710334,-0.062179342,-0.39044887,-0.36842576,0.059893135,-3.0781937,0.62541544,-0.00037810896,-0.033540044,0.0078080655,0.0004862656,0.008299164,-0.0010908421,-0.00505537,0.5035462,-1.3798264,1.9021348,-2.0911186,-1.570928,2.4789085,-0.040153805,0.045845434,-0.05957747,0.018709071,-0.0068468633,-0.035055313,-0.22984336,0.095768064,-9.270349,0.7486078,47.66808,-0.8725861,-2.370828,-3.2175565,-0.1441621,-0.06264183,-0.32818842,24.3125,24.75,24.125,25.5,25.5625,25.8125
0.07605373,-1.2780424,0.055627715,-0.97082615,-0.016581662,0.07702212,-0.07487936,-0.39050877,-0.36842588,0.059909064,-3.0782154,0.6253029,-0.00035062543,-0.034561854,0.008091424,0.0010465063,0.009005264,-0.00010355456,-0.00352836,0.5034982,-1.3797541,1.9020022,-2.091071,-1.5709404,2.4787877,-0.04089263,0.046270866,-0.061602224,0.019787043,-0.007944527,-0.0373183,-0.2681506,0.0,-9.232041,0.78217715,47.703007,-0.9414359,-2.3400311,-3.3488941,-0.14700148,-0.06882719,-0.3390091,24.3125,24.75,24.125,25.5,25.5625,25.8125
0.078054614,-1.4647611,-0.07532135,-1.1037759,-0.0061883414,0.065139405,-0.07102405,-0.390589,-0.36840305,0.059902534,-3.0781887,0.62543213,-0.00037848664,-0.036894213,0.008116702,0.0016815892,0.010437052,0.0026149764,-0.0034937942,0.50337815,-1.379645,1.9018825,-2.0910466,-1.5709294,2.4787517,-0.041494295,0.048717026,-0.06600863,0.020065421,-0.010520446,-0.037947174,-0.45968673,0.038307227,-9.193734,0.80456203,47.67614,-0.92995095,-2.4048202,-3.231213,-0.14496502,-0.02396605,-0.33376867,24.3125,24.75,24.125,25.5,25.5625,25.8125
0.080054104,-1.3830272,0.06580018,-1.0431412,-0.0050261235,0.06848385,-0.072575465,-0.39063105,-0.368386,0.05990629,-3.0781684,0.6253708,-0.000409261,-0.037905216,0.008906212,0.00170221,0.011349807,0.0029320125,-0.0054720207,0.5033177,-1.3795849,1.9017867,-2.090975,-1.5709413,2.4786556,-0.043163918,0.049392648,-0.06695586,0.020502063,-0.011475332,-0.037635826,-0.51714754,0.019153614,-9.308656,0.7732232,47.68062,-0.8694452,-2.3460665,-3.0832562,-0.15495026,-0.0011044047,-0.35701248,24.3125,24.75,24.125,25.5,25.5625,25.8125
0.082013756,-1.5814513,-0.8411131,-1.3883492,0.006471029,0.06385066,-0.06463878,-0.3907057,-0.36837804,0.05989815,-3.0781229,0.62541765,-0.00038865046,-0.038123112,0.009699038,0.0006846979,0.011671105,0.0001824466,-0.0052328724,0.50325704,-1.3794522,1.9016427,-2.0909507,-1.5709771,2.47863,-0.045344383,0.051089164,-0.06681768,0.021224458,-0.010430759,-0.040057287,-0.36391866,0.095768064,-9.32781,0.75084364,47.66091,-0.79014665,-2.2924216,-3.3317428,-0.17769933,-0.013042278,-0.37147087,24.3125,24.75,24.125,25.5,25.5625,25.8125
0.084053695,-1.793628,-0.65197897,-1.2175983,-0.019927116,0.06039602,-0.06479394,-0.3908075,-0.36836556,0.059918042,-3.07816,0.62544215,-0.00037198866,-0.038085204,0.008240591,0.0009913634,0.010611867,-0.00043237745,-0.00076762325,0.503126,-1.3793555,1.9014748,-2.0909145,-1.5709528,2.4785097,-0.043605756,0.052678607,-0.06969917,0.022538867,-0.009210292,-0.042785436,-0.38307226,0.076614454,-9.346964,0.80679786,47.677036,-0.9122986,-2.424909,-3.258609,-0.1984882,-0.029472783,-0.35292512,24.3125,24.75,24.125,25.5,25.5625,25.8125
0.08605398,-2.1820068,-1.1981136,-1.2398661,-0.018942872,0.0619217,-0.050684076,-0.39085844,-0.36836523,0.059913814,-3.0781639,0.625308,-0.00041705085,-0.038974896,0.008344459,0.0014540794,0.009038175,-0.001037892,0.00020150369,0.5030774,-1.3792474,1.9013427,-2.090854,-1.5709518,2.4783769,-0.045641143,0.052957494,-0.07134384,0.023669157,-0.0075441063,-0.04579242,-0.49799395,0.095768064,-9.32781,0.7217513,47.67345,-0.9798407,-2.351551,-3.290003,-0.2132872,-0.049700055,-0.35332185,24.3125,24.75,24.125,25.5,25.5625,25.8125
0.08805453,-1.7372352,-1.4944626,-1.3695017,-0.01879858,0.07495148,-0.05085259,-0.39097387,-0.36832407,0.059921015,-3.078096,0.6254066,-0.00033125773,-0.0397477,0.008420518,0.00014109741,0.008994769,-0.0034277146,0.0016556975,0.50294524,-1.3791258,1.9011744,-2.0908182,-1.5710233,2.478315,-0.047215234,0.056711078,-0.072737895,0.023373013,-0.0063597364,-0.048822008,-0.4405331,0.15322891,-9.232041,0.83813137,47.661808,-0.8919972,-2.4061587,-3.3064036,-0.21274361,-0.08625534,-0.3224451,24.3125,24.75,24.125,25.5,25.5625,25.8125
0.09005439,-1.0790473,-0.80511147,-1.1550729,-0.03836723,0.09398372,-0.06422936,-0.39102763,-0.36832193,0.05990841,-3.0780737,0.62536544,-0.00041477216,-0.041646525,0.009078717,0.0011745971,0.008209014,-0.0007247208,-0.00110634,0.5028844,-1.3789941,1.9010309,-2.0907466,-1.5710119,2.4782314,-0.049693014,0.056033544,-0.07414477,0.02271293,-0.006981793,-0.048535563,-0.47884035,0.17238252,-9.308657,0.7866488,47.683304,-0.8120099,-2.4487739,-3.2812235,-0.21227571,-0.08584787,-0.32842886,24.3125,24.75,24.125,25.5,25.5625,25.8125
0.09205392,-2.12838,-1.5189873,-1.2336147,-0.022581076,0.06706867,-0.05854864,-0.39112958,-0.3683041,0.059924178,-3.0780973,0.62540704,-0.00038517467,-0.042519398,0.009425383,0.0015893766,0.008952199,-0.00022990159,0.000916377,0.5027524,-1.3788978,1.9008754,-2.0907223,-1.5710005,2.4781225,-0.050518535,0.056531407,-0.075965345,0.023962224,-0.007873061,-0.05138154,-0.40222588,0.1340753,-9.404425,0.7933669,47.655537,-0.784022,-2.2544258,-3.2823896,-0.24498226,-0.07191033,-0.31711024,24.3125,24.75,24.125,25.5,25.5625,25.8125
0.09405428,-1.9382308,-1.3126109,-1.346471,-0.01749835,0.06958408,-0.05932207,-0.39119372,-0.3682668,0.05991202,-3.0780337,0.62539047,-0.00044841797,-0.042181365,0.009448958,0.0008999484,0.011391187,-0.0015118613,0.0057023484,0.50264513,-1.3787891,1.9007553,-2.0906374,-1.5710248,2.478013,-0.04928613,0.0584077,-0.07693921,0.025360532,-0.009398229,-0.054930758,-0.38307226,0.22984336,-9.3661175,0.80679786,47.653748,-0.90386385,-2.309957,-3.3506656,-0.27607372,-0.05447107,-0.27219296,24.3125,24.75,24.125,25.5,25.5625,25.8125
0.09605386,-1.2106351,-0.6906497,-1.4848357,-0.028544832,0.07979182,-0.06759407,-0.3912967,-0.36824292,0.059895433,-3.0779924,0.6254203,-0.00045305473,-0.043639965,0.0105750235,-0.0004162607,0.013826864,-0.0026563532,0.0060991123,0.5025246,-1.3786196,1.900587,-2.090614,-1.5710496,2.4779165,-0.05153278,0.06223221,-0.078450784,0.025226166,-0.010989128,-0.057569314,-0.26815057,0.22984336,-9.385271,0.779936,47.70032,-0.85544825,-2.5323396,-3.3679824,-0.29617798,-0.05645112,-0.2423542,24.3125,24.75,24.125,25.5,25.5625,25.8125
0.09805409,-1.5686802,-1.2929128,-1.4618393,-0.01857656,0.062365785,-0.06826762,-0.391373,-0.36823487,0.059908133,-3.0780077,0.62534463,-0.0004524453,-0.04540906,0.011037767,0.0012072467,0.013750085,0.0013186994,0.0076913056,0.5024404,-1.3785241,1.9004315,-2.0905545,-1.57105,2.4777832,-0.052788187,0.060692836,-0.080297254,0.02509614,-0.012843088,-0.06041244,-0.19153613,0.24899697,-9.346964,0.8493211,47.681515,-0.81312215,-2.353093,-3.3894987,-0.26944488,-0.042082638,-0.21997508,24.3125,24.75,24.125,25.5,25.5625,25.8125
0.10005388,-1.4025494,-1.1410908,-1.2570808,-0.028594129,0.055713415,-0.05385664,-0.39147013,-0.368211,0.059905767,-3.077969,0.6253161,-0.00044605558,-0.046362456,0.011038018,0.0010582319,0.014663409,0.0014520477,0.009505484,0.5023325,-1.3783792,1.9002517,-2.0904944,-1.5710863,2.4776626,-0.053119384,0.0627726,-0.08253779,0.025578607,-0.013715158,-0.062554434,-0.21068975,0.24899697,-9.308656,0.84708,47.694946,-0.90290755,-2.3235416,-3.3262532,-0.2871125,-0.010360898,-0.2024863,24.3125,24.75,24.125,25.5,25.5625,25.8125
0.10205372,-1.5576695,-1.4843229,-1.2518638,-0.024736127,0.042445388,-0.054587916,-0.39156523,-0.36819753,0.05989592,-3.0779517,0.6252735,-0.00043648155,-0.046902683,0.011133062,0.00067071593,0.014956127,0.00013009143,0.010507875,0.5022363,-1.3782223,1.900083,-2.0904706,-1.5711101,2.4775422,-0.05400318,0.06467048,-0.08413907,0.026576694,-0.013339156,-0.06444045,-0.21068975,0.30645782,-9.251195,0.784413,47.686886,-0.8869053,-2.3571618,-3.306754,-0.32765806,-0.007152212,-0.16011423,24.3125,24.75,24.125,25.5,25.5625,25.8125
0.104054205,-0.91800594,-1.2073368,-1.3735908,-0.03392788,0.04678935,-0.06380757,-0.39166164,-0.3681593,0.0598981,-3.0779219,0.62524635,-0.00041560747,-0.048795443,0.009880389,0.0017801642,0.01202969,0.0022570614,0.011023827,0.5021044,-1.3781137,1.8999385,-2.0904224,-1.5711454,2.4773972,-0.054593418,0.066121705,-0.088248216,0.025951648,-0.011810503,-0.065547906,-0.15322891,0.24899697,-9.289502,0.7866488,47.681515,-0.8997941,-2.3505569,-3.354185,-0.31208146,-0.010589355,-0.10374707,24.3125,24.75,24.125,25.5,25.5625,25.8125
0.10605399,-1.1602408,-1.2719359,-1.4647536,-0.032928422,0.022431409,-0.05526501,-0.39177945,-0.3681254,0.059921887,-3.0779247,0.6252085,-0.00033724,-0.048821025,0.009889957,0.001325162,0.011728371,0.0015804565,0.010429516,0.50196064,-1.3780175,1.8997597,-2.0903747,-1.5711817,2.4772296,-0.054983895,0.06687792,-0.08798296,0.02537224,-0.011219688,-0.065345705,-0.038307227,0.21068975,-9.346964,0.7642693,47.678825,-0.99494326,-2.3588283,-3.2573311,-0.3194595,-0.026625562,-0.101541445,24.3125,24.75,24.125,25.5,25.5625,25.8125
0.10805366,-0.9200367,-1.707006,-1.4688326,-0.03182451,0.019148737,-0.051808234,-0.39185902,-0.3681104,0.05989247,-3.0778646,0.625215,-0.00038554086,-0.050107297,0.009737885,0.00045665333,0.012546496,0.0011131878,0.009052331,0.5018766,-1.3778358,1.8996032,-2.0903394,-1.571206,2.4771574,-0.055599384,0.070827745,-0.0905715,0.024813902,-0.0117228385,-0.064580515,-0.038307227,0.2681506,-9.385271,0.8157518,47.693153,-0.99574214,-2.4168453,-3.3501797,-0.29657412,-0.016838394,-0.087919325,24.3125,24.75,24.125,25.5,25.5625,25.8125
0.110054284,-0.7972607,-1.5092946,-1.5673316,-0.035237033,0.023995336,-0.059355777,-0.3919747,-0.36811477,0.059910797,-3.077893,0.6252019,-0.00037036403,-0.052009217,0.0090942755,0.0026314678,0.010901894,0.005053924,0.008158369,0.5017688,-1.3776802,1.8993634,-2.0902789,-1.5711936,2.477038,-0.05597766,0.06984396,-0.0945197,0.025501408,-0.012182025,-0.06406276,0.038307227,0.36391866,-9.289502,0.7463667,47.690468,-1.0287938,-2.3694925,-3.103344,-0.3377602,-0.004877968,-0.08407503,24.3125,24.75,24.125,25.5,25.5625,25.8125
0.112054,-0.75362676,-1.575059,-1.6663285,-0.02451089,0.027788162,-0.056502417,-0.39208406,-0.36809468,0.059912693,-3.0778818,0.6251225,-0.00036197473,-0.051641308,0.009974878,0.001989969,0.012317469,0.0034023167,0.006439495,0.5016487,-1.3775238,1.8991603,-2.0902188,-1.5712179,2.4768698,-0.056823786,0.07001779,-0.09348297,0.02641878,-0.012624878,-0.06318937,0.038307227,0.3256114,-9.385271,0.77545905,47.65912,-1.0309966,-2.313262,-3.278634,-0.3366642,0.0014952237,-0.080712005,24.3125,24.75,24.125,25.5,25.5625,25.8125
0.114054166,-1.125805,-1.9631151,-1.7814721,-0.02690395,0.021172462,-0.055664595,-0.39216995,-0.36805302,0.0599053,-3.077811,0.62512827,-0.00037316178,-0.05280149,0.009625508,0.00043020686,0.012727889,0.00059162464,0.004168177,0.5015287,-1.3774018,1.8990163,-2.0901473,-1.5712656,2.4767625,-0.057913307,0.075728476,-0.09676061,0.026640158,-0.01164264,-0.06200699,0.0,0.47884035,-9.3661175,0.8537928,47.67614,-1.0450414,-2.4939833,-3.1976228,-0.3385875,-0.007745687,-0.09794597,24.3125,24.75,24.125,25.5,25.5625,25.8125
0.116054475,-0.953219,-2.0034277,-1.7726269,-0.046228062,0.027465748,-0.05216934,-0.39231282,-0.3680445,0.059931755,-3.0778434,0.6250771,-0.0002765639,-0.053831667,0.009404289,0.002424072,0.010388213,0.0038968367,0.0018102392,0.5013967,-1.3772466,1.898764,-2.090111,-1.5712894,2.4765947,-0.058761068,0.07288051,-0.097929575,0.026630364,-0.011178037,-0.06049855,0.019153614,0.38307226,-9.481039,0.8112748,47.690468,-1.0718218,-2.380749,-3.242079,-0.34097913,0.010453287,-0.1165443,24.3125,24.75,24.125,25.5,25.5625,25.8125
0.118055955,-0.8419327,-2.1995103,-1.9398571,-0.052077565,0.0298974,-0.05628335,-0.39238894,-0.36802927,0.059900783,-3.0778005,0.6250504,-0.00036542,-0.054438695,0.009474984,0.0015174962,0.010939089,0.0022965274,-0.00063845614,0.5013005,-1.3770655,1.898609,-2.0900633,-1.5712894,2.4764874,-0.059604928,0.07579571,-0.099382155,0.026834747,-0.010898104,-0.058892533,-0.019153614,0.34476504,-9.404425,0.8403672,47.685097,-1.0516791,-2.325653,-3.2588024,-0.34733397,-0.007716231,-0.1342352,24.3125,24.75,24.125,25.5,25.5625,25.8125
0.12005476,-0.38848507,-1.7151575,-1.9661245,-0.053324975,0.041490756,-0.054959122,-0.39249784,-0.36799195,0.05989534,-3.077746,0.6251176,-0.00041160043,-0.05576322,0.009507671,0.0019182067,0.00995539,0.0032786892,-0.0033582405,0.5011443,-1.3769091,1.8984169,-2.0899794,-1.5713013,2.47638,-0.06110582,0.07657457,-0.10114964,0.02648634,-0.010514212,-0.05767317,-0.05746084,0.30645782,-9.576807,0.7642693,47.67614,-1.1459651,-2.3759568,-3.3065295,-0.34585965,0.0085249655,-0.17208117,24.3125,24.75,24.125,25.5,25.5625,25.8125
0.122054204,-1.260608,-2.1462576,-1.7961453,-0.03608579,0.026471363,-0.051253445,-0.39260018,-0.367995,0.05989875,-3.0777364,0.62501824,-0.0003494962,-0.056834623,0.008880457,0.002588865,0.008980059,0.00493181,-0.0040612025,0.5010845,-1.3767407,1.8982013,-2.0899436,-1.5713495,2.4762597,-0.06106469,0.07732692,-0.103507966,0.026170794,-0.01045762,-0.056928266,-0.05746084,0.24899697,-9.5385,0.82022345,47.642998,-1.1522354,-2.3215747,-3.3645358,-0.34458247,-0.014639718,-0.19799384,24.3125,24.75,24.125,25.5,25.5625,25.8125
0.1240539,-0.92103934,-1.6332732,-1.8092073,-0.03002249,0.044817843,-0.05176535,-0.392706,-0.36795616,0.05989125,-3.0776904,0.6250865,-0.00038139353,-0.05700074,0.00931946,0.001748725,0.009267115,0.0036792236,-0.005527948,0.5009284,-1.376596,1.8980335,-2.0898845,-1.571361,2.4761522,-0.06215293,0.07863212,-0.103030525,0.02562144,-0.010109822,-0.056550156,-0.076614454,0.2681506,-9.461885,0.78888994,47.600906,-1.1812024,-2.301237,-3.2987058,-0.3432443,-0.0077985004,-0.2219575,24.3125,24.75,24.125,25.5,25.5625,25.8125
0.12605451,-0.8374687,-0.9109655,-1.6211209,-0.032724634,0.06089673,-0.062120937,-0.3928285,-0.3679639,0.059902865,-3.0777178,0.6250722,-0.00036676892,-0.058579512,0.008487529,0.002282283,0.007588288,0.005190152,-0.006294304,0.5008206,-1.3764153,1.8977817,-2.0898364,-1.571349,2.476032,-0.062655896,0.0804474,-0.10624493,0.024886187,-0.00936999,-0.056287106,-0.076614454,0.24899697,-9.346964,0.74413085,47.682407,-1.233238,-2.3026562,-3.3825812,-0.329713,-0.029971674,-0.25039876,24.3125,24.75,24.125,25.5,25.5625,25.8125
0.12805432,-1.2765818,-0.76517653,-1.521936,-0.03134653,0.06444167,-0.059919752,-0.39297187,-0.36795297,0.059929978,-3.077739,0.62515223,-0.00027209884,-0.05904913,0.008509847,0.0023283588,0.007055524,0.0053717056,-0.0049838196,0.50067663,-1.3762709,1.8975433,-2.089812,-1.5713605,2.4759355,-0.06333925,0.08082647,-0.1067411,0.024583638,-0.008989056,-0.058282193,-0.15322891,0.17238252,-9.442732,0.8918391,47.686886,-1.2661921,-2.314055,-3.2370443,-0.3101056,-0.041377965,-0.26101002,24.3125,24.75,24.125,25.5,25.5625,25.8125
0.13005434,-1.2381126,-0.6441541,-1.5835241,-0.020981591,0.070085324,-0.060763333,-0.39306855,-0.36794192,0.059917964,-3.0777395,0.62507457,-0.00030092907,-0.060547274,0.008281152,0.0029985255,0.0063659665,0.006799385,-0.0048067756,0.5005686,-1.3761023,1.8973626,-2.0897763,-1.5713605,2.475779,-0.064267784,0.081887975,-0.10958216,0.024778407,-0.00907715,-0.05938611,-0.24899697,0.11492168,-9.461885,0.80679786,47.689575,-1.2530465,-2.298315,-3.3332305,-0.30431777,-0.04897841,-0.2692821,24.3125,24.75,24.125,25.5,25.5625,25.8125
0.1320542,-1.3813121,-0.773179,-1.600324,-0.019599885,0.06548193,-0.05911735,-0.39318115,-0.36791024,0.05991628,-3.0776715,0.62506086,-0.0002846791,-0.06115261,0.008114151,0.002934368,0.0060041253,0.0065196175,-0.0066049066,0.50044864,-1.3759338,1.8971475,-2.0896928,-1.5714206,2.4756594,-0.064806394,0.08317643,-0.111028425,0.025002697,-0.008628855,-0.05812657,-0.28730422,0.05746084,-9.442732,0.800085,47.679718,-1.4057622,-2.2343483,-3.3788972,-0.27970332,-0.04009532,-0.3033667,24.3125,24.75,24.125,25.5,25.5625,25.8125
0.134054,-1.6082315,-0.96043056,-1.5392096,-0.025035972,0.06515853,-0.054569278,-0.39331436,-0.3679062,0.059930075,-3.077704,0.62510675,-0.00026774337,-0.06271916,0.009274185,0.002377631,0.0067137494,0.00609372,-0.0096663,0.5003039,-1.375765,1.8969077,-2.0896566,-1.5713967,2.4755392,-0.067915745,0.08514733,-0.11206334,0.02478251,-0.009047595,-0.058173157,-0.2681506,0.15322891,-9.500193,0.80679786,47.67166,-1.2080686,-2.2749927,-3.4135141,-0.29066178,-0.06027578,-0.34598142,24.3125,24.75,24.125,25.5,25.5625,25.8125
0.13605447,-1.1750988,-0.75016624,-1.6047343,-0.031597506,0.077346504,-0.06432207,-0.39342052,-0.36788756,0.059923228,-3.077647,0.6251298,-0.00027607573,-0.062559895,0.008346247,0.0024912884,0.0072374656,0.0068275775,-0.0046263156,0.500197,-1.3755847,1.8966931,-2.089585,-1.571433,2.475454,-0.06568357,0.086086355,-0.113465354,0.024850652,-0.0098663205,-0.060978077,-0.3256114,0.15322891,-9.461885,0.7709874,47.690468,-1.4137814,-2.2153928,-3.4213173,-0.2629839,-0.04211373,-0.34689578,24.3125,24.75,24.125,25.5,25.5625,25.8125
0.13805415,-1.7714312,-1.3917693,-1.4265027,-0.019163912,0.07513766,-0.05730769,-0.39357105,-0.36787447,0.059940144,-3.077678,0.6251391,-0.00024637827,-0.06410924,0.008817823,0.0024108603,0.0074445894,0.0068407804,-0.009382862,0.5000286,-1.3754036,1.896429,-2.0895374,-1.571421,2.4752877,-0.067759976,0.08808842,-0.11575899,0.025231678,-0.01005379,-0.058296695,-0.34476504,0.13407528,-9.461885,0.8224646,47.67614,-1.4275006,-2.300055,-3.3597207,-0.2442121,-0.053956382,-0.388588,24.3125,24.75,24.125,25.5,25.5625,25.8125
0.14005375,-1.9808112,-1.0567023,-1.559927,-0.023735454,0.069905676,-0.053444434,-0.39371035,-0.36785567,0.059947394,-3.0776742,0.6251387,-0.00019661931,-0.06632431,0.010203314,0.0027948634,0.007143383,0.0073880246,-0.013102262,0.49988326,-1.3752234,1.89619,-2.0895007,-1.5714449,2.4751427,-0.07210201,0.08876402,-0.117561765,0.025730943,-0.010053379,-0.05891881,-0.4405331,0.13407528,-9.442732,0.80679786,47.678825,-1.21508,-2.203581,-3.3877616,-0.24052364,-0.04622841,-0.4589305,24.3125,24.75,24.125,25.5,25.5625,25.8125
0.14205427,-1.7558317,-0.6905497,-1.487486,-0.023281252,0.07795009,-0.05533808,-0.39383566,-0.36782873,0.05994961,-3.0776312,0.6251645,-0.00014811702,-0.065738186,0.009136696,0.0027029382,0.007821952,0.0076168813,-0.0074714934,0.49975258,-1.3750547,1.895974,-2.089453,-1.5714935,2.4750338,-0.06930786,0.08975577,-0.118575215,0.025873195,-0.010762359,-0.06175332,-0.49799395,0.19153613,-9.423578,0.8403672,47.675243,-1.3871889,-2.213567,-3.4441197,-0.21129441,-0.04454916,-0.4671505,24.3125,24.75,24.125,25.5,25.5625,25.8125
0.14405394,-1.517031,-0.58840257,-1.3959911,-0.032536563,0.08775881,-0.060334403,-0.393958,-0.36781165,0.059945144,-3.0776265,0.62524015,-0.0001894377,-0.06757781,0.009995337,0.0015357165,0.0088021355,0.005814985,-0.0075131305,0.49959594,-1.374873,1.8957576,-2.0894048,-1.5714692,2.474925,-0.07241719,0.094078735,-0.12113371,0.02615752,-0.010767254,-0.064819224,-0.34476504,0.15322891,-9.423578,0.7620334,47.635834,-1.3726637,-2.3604238,-3.5057206,-0.2035704,-0.06323133,-0.46641856,24.3125,24.75,24.125,25.5,25.5625,25.8125
0.14605466,-1.5347085,-0.542702,-1.4844537,-0.032042406,0.08585033,-0.060714636,-0.39409667,-0.36778834,0.05994099,-3.0775843,0.62522966,-0.00018204305,-0.0684947,0.010772929,0.002580475,0.009203876,0.008148588,-0.006409771,0.49945176,-1.3746575,1.8954948,-2.0893333,-1.5715059,2.4747798,-0.07362276,0.09230816,-0.121484295,0.026422255,-0.012241098,-0.067124724,-0.30645782,0.11492168,-9.308656,0.8717007,47.690468,-1.4003832,-2.1594815,-3.408081,-0.19895504,-0.07230265,-0.4620002,24.3125,24.75,24.125,25.5,25.5625,25.8125
0.14805453,-1.6235737,-0.95737624,-1.4393315,-0.016084597,0.07297887,-0.05644719,-0.3942295,-0.36776653,0.059945017,-3.0775855,0.6252072,-0.00013245676,-0.0707489,0.01074233,0.0027947244,0.007980725,0.00863608,-0.0024391161,0.49930725,-1.3744884,1.8952793,-2.089309,-1.5715293,2.4746213,-0.076135345,0.09503281,-0.12521991,0.026407933,-0.011412193,-0.07360825,-0.34476504,0.095768064,-9.32781,0.8537928,47.67614,-1.3783844,-2.1247342,-3.5004344,-0.17239082,-0.051495723,-0.44123742,24.3125,24.75,24.125,25.5,25.5625,25.8125
0.15005426,-1.6817609,-0.7581338,-1.2465898,-0.027131995,0.0667857,-0.053722046,-0.39438313,-0.367728,0.05995326,-3.0775328,0.62523484,-7.319457e-05,-0.07176244,0.012501271,0.002489381,0.008596605,0.0077285753,-0.0033231839,0.49913833,-1.3742963,1.8950161,-2.089237,-1.5715894,2.4744766,-0.07992127,0.09505864,-0.124691434,0.026936775,-0.0115179,-0.07651015,-0.40222588,0.019153614,-9.385271,0.83589023,47.703903,-1.3250296,-2.2111824,-3.5225854,-0.14112024,-0.056720667,-0.41847926,24.3125,24.75,24.125,25.5,25.5625,25.8125
0.15205416,-1.7222941,-0.7780257,-1.2135506,-0.016281052,0.059805647,-0.052529562,-0.39451563,-0.36770785,0.059942782,-3.0775404,0.6251549,-8.934864e-05,-0.07265407,0.011807846,0.0023839762,0.009368771,0.007506494,0.0017328768,0.49898282,-1.3740909,1.8947877,-2.0892007,-1.5715898,2.4742703,-0.07918955,0.098131254,-0.12838908,0.028122885,-0.012099077,-0.08083122,-0.5363012,0.076614454,-9.270349,0.8179876,47.66808,-1.2026005,-2.234992,-3.4781227,-0.111108735,-0.035948656,-0.3817465,24.3125,24.75,24.125,25.5,25.5625,25.8125
0.15405416,-1.406919,-0.58880705,-1.1743997,-0.014216725,0.065352924,-0.060190953,-0.3946562,-0.3677041,0.05996032,-3.0775583,0.62515366,-8.964332e-05,-0.07297091,0.011285224,0.0026927174,0.008070302,0.0066316104,0.009540791,0.49883914,-1.3738985,1.8945001,-2.0891168,-1.571577,2.4741237,-0.07953613,0.09887735,-0.13028671,0.029408095,-0.010546777,-0.08898869,-0.47884035,0.076614454,-9.308657,0.8112748,47.674347,-1.3647562,-2.23827,-3.3850188,-0.10775502,-0.07152228,-0.2922129,24.3125,24.75,24.125,25.5,25.5625,25.8125
0.1560541,-1.3801306,-0.5134603,-1.1359259,-0.011001201,0.07346391,-0.054281056,-0.39482468,-0.36768356,0.059989616,-3.0775857,0.62519956,6.2078097e-06,-0.07531477,0.013551193,0.002686298,0.008845936,0.005928927,0.005127031,0.49865744,-1.3737301,1.894225,-2.08908,-1.5715894,2.4739673,-0.08524267,0.099919066,-0.13186939,0.03093431,-0.01088616,-0.09028084,-0.51714754,0.15322891,-9.270349,0.8314132,47.681515,-1.1213485,-2.2061205,-3.3958857,-0.11181514,-0.07213963,-0.27473748,24.3125,24.75,24.125,25.5,25.5625,25.8125
0.15805383,-1.4622478,-0.4790531,-1.3097794,-0.0022224926,0.0732248,-0.0651584,-0.3949757,-0.36765888,0.05999124,-3.0775483,0.6251495,6.4326145e-05,-0.07548498,0.012567378,0.0019703896,0.009843045,0.0045489427,0.010650913,0.49851444,-1.3735124,1.8939489,-2.08902,-1.5716494,2.473798,-0.083580524,0.103595875,-0.13485515,0.031922325,-0.011109174,-0.094140455,-0.47884035,0.05746084,-9.308656,0.83365434,47.675243,-1.2540991,-2.305556,-3.2402143,-0.10747467,-0.08519862,-0.24413688,24.3125,24.75,24.125,25.5,25.5625,25.8125
0.16005431,-1.0762212,-0.43176305,-1.1604065,-0.027792359,0.08859907,-0.06733996,-0.39513227,-0.36763424,0.05998714,-3.0775645,0.62507534,3.5562523e-05,-0.07726623,0.013297882,0.003090062,0.00883004,0.0057990234,0.010051345,0.49832183,-1.3732846,1.8936738,-2.0889595,-1.5716375,2.4735572,-0.08657991,0.10306507,-0.13705005,0.033061605,-0.010822156,-0.096540146,-0.47884035,0.1340753,-9.270349,0.83589023,47.68062,-1.1367781,-2.1596446,-3.4623265,-0.08963314,-0.07819056,-0.1851566,24.3125,24.75,24.125,25.5,25.5625,25.8125
0.16205412,-1.6821265,-0.99188405,-1.0268872,-0.025356185,0.07827005,-0.05931097,-0.39528883,-0.36759716,0.059996426,-3.0775218,0.62500876,7.9199504e-05,-0.07813942,0.0146043245,0.0012747307,0.011535806,0.0024127844,0.0075509297,0.4981534,-1.3730788,1.8933862,-2.0888636,-1.5716981,2.473353,-0.089067414,0.10736339,-0.13833359,0.034309585,-0.01158221,-0.09652436,-0.51714754,0.1340753,-9.193734,0.80456203,47.635834,-1.0435061,-2.3969154,-3.3574262,-0.06382399,-0.083507,-0.14631486,24.3125,24.75,24.125,25.5,25.5625,25.8125
0.1640538,-1.2823126,-0.39125085,-1.168102,-0.03660903,0.078348294,-0.06670886,-0.3954517,-0.36757645,0.05999762,-3.0775435,0.62503374,9.5004165e-05,-0.07990576,0.014448834,0.003229839,0.009371872,0.0047420403,0.0043562427,0.49796116,-1.3728632,1.8931216,-2.0888393,-1.5716852,2.4731736,-0.09087268,0.10617241,-0.14172415,0.035808746,-0.010794749,-0.09513601,-0.4213795,0.21068975,-9.232041,0.8605109,47.68599,-0.95442104,-2.1177888,-3.2628913,-0.06368469,-0.090799175,-0.14945053,24.3125,24.75,24.125,25.5,25.5625,25.8125
0.1660541,-1.476569,-1.0911555,-1.4197313,-0.027131254,0.06389845,-0.054472927,-0.39562497,-0.36754316,0.059997432,-3.0774953,0.6250453,9.811784e-05,-0.081617765,0.015088212,0.00247395,0.010586694,0.0036287408,-0.0015097299,0.4977688,-1.3726094,1.8927983,-2.0887425,-1.5717214,2.4729948,-0.09313859,0.10994398,-0.14468513,0.036556594,-0.011335209,-0.09153281,-0.38307226,0.17238252,-9.289502,0.79560274,47.73077,-0.91828656,-2.3566976,-3.2361698,-0.077650115,-0.09717107,-0.18906733,24.3125,24.75,24.125,25.5,25.5625,25.8125
0.16805391,-1.4481705,-1.0076476,-1.1919225,-0.02823055,0.05400125,-0.049344253,-0.39578125,-0.36749595,0.059988704,-3.0774317,0.625093,0.000116698466,-0.08291918,0.015981644,0.0023451815,0.01149379,0.0035249346,-0.007595578,0.49757648,-1.3723929,1.892547,-2.088683,-1.5717701,2.4728405,-0.09532572,0.11133391,-0.14621805,0.03722409,-0.012084112,-0.08763141,-0.49799395,0.19153613,-9.174581,0.83813137,47.68599,-0.86378944,-2.274587,-3.181709,-0.059832267,-0.086563036,-0.21624833,24.3125,24.75,24.125,25.5,25.5625,25.8125
0.17005469,-1.4874855,-1.0921475,-1.3347753,-0.018884527,0.058473416,-0.05801071,-0.3959432,-0.36745873,0.05998991,-3.0773888,0.62514305,8.323828e-05,-0.083661914,0.015671216,0.0022455615,0.0110076275,0.0030213036,-0.01170619,0.49737272,-1.3721639,1.8922476,-2.0885756,-1.5717815,2.4726737,-0.09585426,0.11316736,-0.14830065,0.03768191,-0.011420793,-0.08404941,-0.49799395,0.24899697,-9.174581,0.8403672,47.716442,-0.84445906,-2.3677988,-3.2030458,-0.043843396,-0.09430679,-0.2671497,24.3125,24.75,24.125,25.5,25.5625,25.8125
0.17205474,-1.7026799,-1.2229837,-1.2422676,-0.012633868,0.066022076,-0.04744165,-0.3961138,-0.36744457,0.060016315,-3.0774217,0.62509143,0.00012274225,-0.0843512,0.01618778,0.0020961855,0.011616499,0.0022801375,-0.013970083,0.4971927,-1.3719596,1.8919252,-2.0884912,-1.5717815,2.4724574,-0.0971962,0.11429655,-0.1495695,0.038763095,-0.011599604,-0.0831269,-0.47884035,0.15322891,-9.232041,0.8537928,47.704796,-0.8186972,-2.2963736,-3.1911244,-0.039437428,-0.09024522,-0.31498104,24.3125,24.75,24.125,25.5,25.5625,25.8125
0.17405453,-1.8284584,-0.9486172,-1.3045644,-0.028416151,0.07500376,-0.052847855,-0.39624846,-0.36740634,0.059979837,-3.0773404,0.6251319,1.6353071e-05,-0.08489463,0.016535398,0.0019784071,0.011984168,0.0013409416,-0.013845486,0.49701267,-1.3716948,1.8916739,-2.0884068,-1.5717934,2.4723132,-0.09831061,0.11537678,-0.1508976,0.040007092,-0.011484857,-0.08436454,-0.45968673,0.21068975,-9.232041,0.8157518,47.64658,-0.8316767,-2.3275828,-3.23367,-0.03747787,-0.10296801,-0.33800513,24.3125,24.75,24.125,25.5,25.5625,25.8125
0.17605452,-1.9755162,-1.4776275,-1.3027633,-0.023371404,0.084147416,-0.053279568,-0.39643022,-0.36736992,0.05998849,-3.0773222,0.62529856,4.3984342e-05,-0.085442215,0.015970068,0.002389305,0.011573472,0.0014778061,-0.0124360295,0.49678537,-1.3714782,1.8913854,-2.0883586,-1.5717934,2.4721923,-0.097995944,0.11641381,-0.15333343,0.041085064,-0.0111918235,-0.08545932,-0.57460845,0.2681506,-9.212888,0.800085,47.707485,-0.91816497,-2.2722533,-3.1328673,-0.038054217,-0.0978736,-0.3346656,24.3125,24.75,24.125,25.5,25.5625,25.8125
0.17805429,-1.4924098,-1.0142181,-1.4566752,-0.03663234,0.08814747,-0.058617253,-0.39661634,-0.36733037,0.059997827,-3.0772636,0.62526697,9.864354e-05,-0.08627514,0.015964322,0.002604747,0.011802111,0.0008605105,-0.012809211,0.49659348,-1.3712254,1.8910388,-2.0882504,-1.5718654,2.4719884,-0.0987564,0.117902376,-0.15604335,0.042949118,-0.011102672,-0.08584559,-0.36391866,0.24899697,-9.308657,0.85155696,47.694946,-0.8924813,-2.3061166,-3.3078492,-0.023306195,-0.104805276,-0.3424641,24.3125,24.75,24.125,25.5,25.5625,25.8125
0.18005411,-1.0829952,-0.62082064,-1.4659883,-0.04329174,0.074841246,-0.058950763,-0.39679265,-0.36732188,0.05999758,-3.0772722,0.6252497,0.00013520264,-0.08537792,0.016886447,0.0013877993,0.013947682,-0.0029105819,-0.014386151,0.49642542,-1.370961,1.890716,-2.0882132,-1.5718774,2.4718087,-0.09938664,0.11908531,-0.1552466,0.045305848,-0.011184078,-0.084899314,-0.22984336,0.22984336,-9.289502,0.8493211,47.694054,-0.93970805,-2.242141,-3.345387,-0.055675615,-0.12865683,-0.36943978,24.3125,24.75,24.125,25.5,25.5625,25.8125
0.18205383,-0.85017824,-0.65869534,-1.2829396,-0.03811635,0.053994752,-0.057906948,-0.3969462,-0.36727932,0.059988964,-3.0772128,0.6252542,5.683441e-05,-0.0863718,0.018001853,-0.00028809535,0.016673394,-0.0044514826,-0.013266633,0.4962215,-1.3707192,1.8904179,-2.088082,-1.5718898,2.4716153,-0.1010844,0.122937836,-0.15593445,0.044793576,-0.01286099,-0.087710865,-0.13407528,0.13407528,-9.346964,0.83365434,47.668976,-0.9519696,-2.2558775,-3.3892,-0.06967743,-0.11792369,-0.4005954,24.3125,24.75,24.125,25.5,25.5625,25.8125
0.18405451,-1.0556471,-0.83587337,-1.4331819,-0.01691523,0.028636888,-0.049161352,-0.39714268,-0.36724925,0.060013082,-3.0772176,0.62533075,0.00015072558,-0.08541565,0.017421335,0.00051394507,0.016159713,-0.0037615774,-0.012070207,0.49600655,-1.3705039,1.8900956,-2.088034,-1.5719136,2.4714477,-0.09926651,0.12079036,-0.15539221,0.04554311,-0.01273146,-0.08709112,-0.095768064,0.1340753,-9.32781,0.78888994,47.66271,-0.9525789,-2.2796416,-3.4953747,-0.03588728,-0.10662705,-0.42863697,24.3125,24.75,24.125,25.5,25.5625,25.8125
0.18605389,-0.33899555,-0.2872509,-1.4806052,-0.010835792,0.029632848,-0.06506899,-0.39732996,-0.3671926,0.059985563,-3.0771115,0.6253446,0.00010624528,-0.08646063,0.01902976,-0.0013086351,0.018742628,-0.008005814,-0.010306843,0.4957779,-1.3701899,1.8897594,-2.0879252,-1.5719737,2.4712415,-0.102701284,0.12524273,-0.1570836,0.04773052,-0.012997971,-0.09228642,-0.019153614,0.17238252,-9.251195,0.8672237,47.71286,-1.0269668,-2.4118638,-3.4965978,-0.046575755,-0.120713666,-0.42185676,24.3125,24.75,24.125,25.5,25.5625,25.8125
0.18805438,0.07952984,0.19316386,-1.5227079,-0.00435402,0.029396787,-0.060079034,-0.39749536,-0.36715394,0.05998426,-3.0770853,0.62539405,7.480143e-05,-0.08705033,0.018623132,0.00060655014,0.018203713,-0.007115161,-0.0064579914,0.49556234,-1.3699623,1.8894719,-2.0878398,-1.5719737,2.4710603,-0.10253631,0.123883106,-0.16073973,0.051699024,-0.012955542,-0.095969275,0.038307227,0.019153614,-9.289503,0.88960326,47.679718,-0.87382185,-2.2216587,-3.4316363,-0.090796545,-0.104016185,-0.3604321,24.3125,24.75,24.125,25.5,25.5625,25.8125
0.19005416,-0.3432057,-0.28959763,-1.7228979,0.0072749285,0.006983679,-0.050360143,-0.39767432,-0.3671241,0.059982203,-3.0770192,0.6253582,0.00011531241,-0.087503076,0.019307522,-0.00014361822,0.019348448,-0.010134129,-0.0027106537,0.49539408,-1.3696852,1.8891243,-2.087743,-1.5720462,2.4708784,-0.10431004,0.12630206,-0.16252531,0.054247957,-0.012536067,-0.10149027,0.076614454,0.0,-9.3661175,0.8605109,47.70032,-0.8911551,-2.2888494,-3.4737597,-0.123929314,-0.12233947,-0.3218497,24.3125,24.75,24.125,25.5,25.5625,25.8125
0.1920537,0.3090647,-0.1727613,-1.6452774,-0.001686362,0.026793394,-0.06187261,-0.3978392,-0.36708805,0.05998442,-3.077011,0.6252748,9.585518e-05,-0.08908993,0.018733034,0.001370022,0.017854339,-0.0067748083,0.0028420708,0.49519056,-1.3694571,1.8888258,-2.0876477,-1.5720576,2.470624,-0.10455906,0.12586214,-0.16538176,0.05386827,-0.012837157,-0.10728995,0.05746084,0.076614454,-9.270349,0.8537928,47.677036,-1.0339537,-2.1998563,-3.4316154,-0.11957407,-0.12013462,-0.2878999,24.3125,24.75,24.125,25.5,25.5625,25.8125
0.19405434,-0.38590124,-0.80533475,-1.8475665,-0.0032484322,0.019362008,-0.04957776,-0.39800853,-0.3670396,0.05997015,-3.0769448,0.62531465,1.750561e-05,-0.0887625,0.019258065,-0.000244481,0.020179486,-0.012289509,0.0077670394,0.49496296,-1.3691913,1.8885139,-2.087527,-1.57207,2.47043,-0.105440415,0.12988046,-0.16743298,0.057844445,-0.012276712,-0.113095745,0.038307227,0.1340753,-9.346964,0.8291774,47.67614,-1.0434039,-2.284533,-3.4228702,-0.17038663,-0.10859041,-0.21263516,24.3125,24.75,24.125,25.5,25.5625,25.8125
0.19605415,-0.55138004,-0.76711226,-2.032614,-0.019128336,0.016391933,-0.0513804,-0.39818892,-0.36701158,0.05998965,-3.0769246,0.62525,-1.7012208e-05,-0.08881251,0.019341052,0.0007093124,0.020841008,-0.012207889,0.010823952,0.49475926,-1.3689395,1.888131,-2.0873582,-1.5720819,2.4701886,-0.105185084,0.12894854,-0.16917415,0.060754586,-0.012906313,-0.115894996,0.1340753,0.21068975,-9.423578,0.9298854,47.71286,-0.942218,-2.1583085,-3.3779552,-0.22864279,-0.11795589,-0.12556015,24.3125,24.75,24.125,25.5,25.5625,25.8125
0.19805415,-0.27304476,-1.3869526,-2.140595,-0.031770438,0.03379862,-0.04730202,-0.3983671,-0.36697093,0.059983604,-3.0768793,0.625182,-6.9378366e-05,-0.08910255,0.019209847,6.99197e-05,0.021344194,-0.0141544435,0.012102217,0.4945439,-1.3686625,1.8877844,-2.0872262,-1.5721058,2.4699368,-0.105468504,0.13147551,-0.17106259,0.062058922,-0.012439974,-0.11745619,0.076614454,0.22984336,-9.481039,0.9097417,47.677036,-1.1864116,-2.3685217,-3.3757548,-0.24927881,-0.13457668,-0.107567534,24.3125,24.75,24.125,25.5,25.5625,25.8125
0.20005454,-0.61921334,-1.7123944,-2.119924,-0.050271913,0.04180285,-0.056119632,-0.39855903,-0.3669297,0.059984177,-3.0768402,0.62515706,-9.198007e-05,-0.08947669,0.019723088,-0.0004346214,0.022839278,-0.015158131,0.007640437,0.49431583,-1.3683854,1.8874253,-2.0871055,-1.5721306,2.4696984,-0.10609273,0.1330397,-0.17204194,0.06306985,-0.013284563,-0.11361538,-0.038307227,0.24899697,-9.576807,0.7642693,47.685097,-1.0137429,-2.3130827,-3.4240336,-0.28684884,-0.13063571,-0.1193123,24.3125,24.75,24.125,25.5,25.5625,25.8125
0.2020543,-0.7708297,-1.9472754,-2.104251,-0.056700278,0.0579021,-0.050548382,-0.39872876,-0.36686984,0.059992686,-3.0767586,0.62519944,-0.00017065724,-0.09153802,0.019231552,-4.730974e-05,0.02165201,-0.013831625,0.0023290543,0.49407592,-1.3681566,1.8870896,-2.0869148,-1.5721539,2.4694955,-0.107336394,0.13563992,-0.17595913,0.06265457,-0.012887783,-0.10954579,0.0,0.30645782,-9.615114,0.76874626,47.64837,-1.1371691,-2.2458591,-3.2735672,-0.336501,-0.1453324,-0.14497893,24.3125,24.75,24.125,25.5,25.5625,25.8125
0.20405419,-1.0773121,-2.1902251,-2.0890677,-0.07286526,0.07027835,-0.049474783,-0.39892635,-0.36685193,0.060003985,-3.0767453,0.6251594,-9.541598e-05,-0.0931445,0.01896848,0.0007479692,0.020783134,-0.012240398,-0.0033116986,0.49389607,-1.3678801,1.8867177,-2.0868428,-1.5722016,2.4692926,-0.108305216,0.13666773,-0.17909487,0.06294902,-0.0128785735,-0.10487292,-0.11492168,0.36391866,-9.5385,0.87393653,47.677036,-1.1326203,-2.2973557,-3.218945,-0.36154306,-0.16317613,-0.17660242,24.3125,24.75,24.125,25.5,25.5625,25.8125
0.20605426,-1.6859897,-2.9324927,-2.16669,-0.06710756,0.06484561,-0.04293565,-0.3990918,-0.3668081,0.059987947,-3.0766637,0.6251642,-0.00021567327,-0.094095804,0.019101197,0.00040199538,0.020655638,-0.011580076,-0.0080576055,0.49368024,-1.3675911,1.8863715,-2.0866764,-1.572214,2.4690905,-0.109206796,0.13814962,-0.17979108,0.06152402,-0.013094524,-0.101026036,-0.19153613,0.40222588,-9.5385,0.83589023,47.68599,-1.1136243,-2.298773,-3.2706664,-0.3729298,-0.16318321,-0.23764327,24.3125,24.75,24.125,25.5,25.5625,25.8125
0.20805396,-1.2600082,-2.2539134,-2.2169623,-0.07845738,0.07871827,-0.05383253,-0.3993055,-0.36678147,0.060022283,-3.0766478,0.62521833,-0.00013783648,-0.09621395,0.018592851,0.00078935915,0.018889157,-0.007747286,-0.0110360775,0.49346444,-1.3673384,1.8859648,-2.0865576,-1.5722502,2.4689107,-0.11004667,0.13955837,-0.18150228,0.057612106,-0.013364998,-0.09888602,-0.22984336,0.49799395,-9.576807,1.0082139,47.67345,-1.133105,-2.2972207,-3.3369029,-0.3536126,-0.17550364,-0.29906738,24.3125,24.75,24.125,25.5,25.5625,25.8125
0.21005405,-2.1465876,-2.6984985,-2.2265441,-0.068760164,0.06668705,-0.04134547,-0.39946306,-0.3667565,0.059997786,-3.076623,0.6251561,-0.00023839774,-0.09768211,0.018436966,4.4871616e-05,0.018330857,-0.006573653,-0.013285644,0.49327248,-1.367049,1.8856534,-2.0864632,-1.5722383,2.4686832,-0.11101632,0.142396,-0.18253858,0.054513667,-0.013446853,-0.0976039,-0.34476504,0.47884035,-9.691729,0.83589023,47.72002,-1.1845822,-2.336199,-3.304431,-0.3280664,-0.16263138,-0.34884244,24.3125,24.75,24.125,25.5,25.5625,25.8125
0.21205458,-1.5555493,-2.1875148,-2.0062938,-0.07495629,0.088882215,-0.055342834,-0.399695,-0.36671826,0.0600016,-3.076565,0.6252979,-0.00020691477,-0.09867909,0.018379522,0.00030757132,0.017022347,-0.005920481,-0.015258203,0.49302065,-1.3667245,1.8852352,-2.086367,-1.5722741,2.4685276,-0.112268455,0.14299338,-0.1837626,0.053936947,-0.012610196,-0.0968854,-0.3256114,0.4213795,-9.5385,0.83813137,47.651955,-1.1637833,-2.2906868,-3.316628,-0.34104127,-0.19253297,-0.37169316,24.3125,24.75,24.125,25.5,25.5625,25.8125
0.21405402,-2.2091117,-2.666867,-2.0428247,-0.05069496,0.08092026,-0.034822248,-0.39988956,-0.36670163,0.06003203,-3.0765886,0.62526387,-0.00017795993,-0.100511774,0.018087417,0.00022315313,0.015661111,-0.0033145356,-0.017163755,0.4928168,-1.3664834,1.8848513,-2.086249,-1.5722741,2.4682996,-0.11335017,0.14488046,-0.18506074,0.050407145,-0.012654058,-0.09606076,-0.4405331,0.49799395,-9.557653,0.90527004,47.635834,-1.2045405,-2.5823455,-3.5377731,-0.30757108,-0.19541289,-0.41720974,24.3125,24.75,24.125,25.5,25.5625,25.8125
0.21605392,-1.7679633,-2.2022457,-1.9223533,-0.0508897,0.101984814,-0.048939086,-0.40007755,-0.3666554,0.06001127,-3.0765305,0.62530947,-0.00024274383,-0.102197446,0.018295063,-0.0009012885,0.014966167,-0.0026256337,-0.019863052,0.49257663,-1.3661824,1.8845171,-2.0861537,-1.5722855,2.4680955,-0.11532652,0.14815083,-0.18563582,0.046772353,-0.01238467,-0.09533692,-0.36391866,0.4213795,-9.519346,0.82022345,47.73077,-1.1131487,-2.329106,-3.6056406,-0.2667204,-0.21021175,-0.47395512,24.3125,24.75,24.125,25.5,25.5625,25.8125
0.2180543,-2.0319197,-1.5338359,-1.7568343,-0.060437042,0.10147035,-0.053688362,-0.40029627,-0.36661905,0.060023427,-3.0765057,0.62536085,-0.0001510073,-0.1044629,0.018397788,0.00085197104,0.01344694,0.00212263,-0.019176867,0.4923485,-1.3659067,1.8841466,-2.086095,-1.5723346,2.467903,-0.1169099,0.14692971,-0.1878681,0.045315705,-0.013300693,-0.09760359,-0.40222588,0.22984336,-9.404425,0.9298854,47.70032,-1.1032349,-2.265499,-3.5940008,-0.23859085,-0.2053014,-0.49965447,24.3125,24.75,24.125,25.5,25.5625,25.8125
0.22005464,-1.7361301,-1.3443412,-1.3315855,-0.03242079,0.101354316,-0.05898202,-0.40050122,-0.36657304,0.05999954,-3.0764186,0.625456,-0.00019173199,-0.10652029,0.018805727,0.0006168918,0.012675198,0.003198463,-0.018073905,0.49210826,-1.3655695,1.8837761,-2.0859997,-1.5723699,2.4677334,-0.119474865,0.14922059,-0.18972306,0.04355391,-0.013149762,-0.10127009,-0.4405331,0.076614454,-9.270349,0.89631605,47.66539,-1.1327276,-2.3554466,-3.604712,-0.19478734,-0.22653025,-0.49681947,24.3125,24.75,24.125,25.5,25.5625,25.8125
0.22205457,-2.2321656,-0.48502418,-1.300346,-0.009499093,0.077688865,-0.039507676,-0.4007286,-0.366576,0.06002785,-3.0764916,0.6254624,-0.00011561081,-0.10722167,0.017591106,0.001127706,0.011971236,0.0049356814,-0.0067969873,0.49189335,-1.3652807,1.8833555,-2.085952,-1.5723461,2.4675133,-0.11787235,0.15055408,-0.1923969,0.043015406,-0.013362961,-0.110943824,-0.49799395,-0.05746084,-9.212888,0.9254084,47.652847,-1.1020588,-2.274137,-3.5257444,-0.14883403,-0.22887492,-0.43905568,24.3125,24.75,24.125,25.5,25.5625,25.8125
0.22405426,-1.7417054,0.83888906,-1.2259226,0.018526299,0.07239689,-0.058746457,-0.40095088,-0.36652687,0.060025606,-3.0764482,0.62549037,-7.057056e-05,-0.11046707,0.018206114,0.0015255628,0.010962623,0.006432931,-0.0055065295,0.49164027,-1.3649791,1.8829836,-2.0858805,-1.5723938,2.4672835,-0.12185209,0.15342909,-0.19669569,0.042625256,-0.013198994,-0.11621252,-0.47884035,-0.15322891,-9.212888,0.9321212,47.64389,-1.092062,-2.472876,-3.5018823,-0.10795169,-0.24649544,-0.38819858,24.3125,24.75,24.125,25.5,25.5625,25.8125
0.22605416,-1.417983,0.673662,-1.1524514,0.048369054,0.06973965,-0.054019365,-0.40118155,-0.36650115,0.060036078,-3.0764823,0.6254698,-1.6696273e-05,-0.110677294,0.01695432,0.0027160202,0.010327122,0.008868664,0.0065163304,0.49138978,-1.3646795,1.8825902,-2.0858324,-1.5723943,2.467016,-0.11950068,0.15292113,-0.1988871,0.042860184,-0.013800332,-0.12588224,-0.5554548,-0.24899697,-9.097966,0.8672237,47.685097,-1.1650257,-1.9928496,-3.4785419,-0.06122052,-0.2572567,-0.30420086,24.3125,24.75,24.125,25.5,25.5625,25.8125
0.22805369,-1.187987,0.8749331,-1.1972566,0.0484559,0.06907297,-0.04833783,-0.40140814,-0.36647338,0.06003518,-3.0764556,0.6254626,1.747253e-05,-0.11135281,0.017782615,0.0023681268,0.011437577,0.0076000122,0.009413657,0.49116173,-1.3643427,1.8821701,-2.0857484,-1.5724305,2.466787,-0.121181145,0.15426372,-0.20008484,0.04434389,-0.014186106,-0.13045849,-0.63206923,-0.15322891,-9.097966,0.92093146,47.709274,-1.2178292,-2.0407019,-3.4395127,-0.054799125,-0.2636343,-0.2403184,24.3125,24.75,24.125,25.5,25.5625,25.8125
0.23005429,-1.1295083,0.6421568,-1.3730277,0.04220357,0.072405994,-0.05897035,-0.40163782,-0.36645454,0.060085032,-3.0764878,0.625389,0.00013631524,-0.11316953,0.017594421,0.003648084,0.011758158,0.009018667,0.011927193,0.49094594,-1.3640897,1.8817266,-2.0856273,-1.5724667,2.4665215,-0.1218402,0.15553094,-0.20514832,0.047030605,-0.015137316,-0.1336276,-0.5554548,-0.1340753,-9.078813,0.91421866,47.683304,-1.1497617,-2.0621426,-3.3129106,-0.045872174,-0.2808849,-0.18333869,24.3125,24.75,24.125,25.5,25.5625,25.8125
0.23205371,-1.1888753,0.5078096,-1.6471486,0.016528945,0.07122878,-0.052502334,-0.4018524,-0.3663793,0.06003898,-3.0763972,0.6253337,6.321064e-05,-0.11403731,0.01994745,0.0030377852,0.013774223,0.005894755,0.0067039,0.49065697,-1.3637292,1.8813804,-2.0855424,-1.5725149,2.46621,-0.12628189,0.15641926,-0.20561722,0.050308496,-0.015448318,-0.13284364,-0.36391866,-0.1340753,-9.155427,0.7777002,47.69763,-1.0417643,-2.0582867,-3.38173,-0.055243455,-0.27967155,-0.15224172,24.3125,24.75,24.125,25.5,25.5625,25.8125
0.23405442,-1.2212275,-0.63666373,-1.6806077,-0.00019873334,0.079642445,-0.043128982,-0.40206715,-0.3663357,0.06004884,-3.076347,0.62536234,3.8528167e-05,-0.113367684,0.019496411,0.0024123422,0.015794223,0.0032630444,0.0041482355,0.49040622,-1.363428,1.8809618,-2.0853856,-1.5725392,2.4659836,-0.12452267,0.15879248,-0.20776924,0.053363133,-0.015987558,-0.1285257,-0.61291564,-0.076614454,-9.3661175,0.7597976,47.696735,-1.150508,-1.97403,-3.3037324,-0.047270857,-0.2880098,-0.17281401,24.3125,24.75,24.125,25.5,25.5625,25.8125
0.23605447,-1.745684,-1.3255347,-1.6965117,-0.02250503,0.08670333,-0.04654657,-0.40228137,-0.36628816,0.06005969,-3.0763261,0.62537855,3.254318e-05,-0.1140138,0.020558612,0.0023335682,0.016792972,0.0016149601,-0.0014377773,0.4901419,-1.3631517,1.8805789,-2.0852654,-1.5725511,2.4657323,-0.12673794,0.1595427,-0.20909113,0.055859976,-0.01608791,-0.1251541,-0.6512228,-0.038307227,-9.308657,0.9254084,47.731667,-0.9636536,-2.048985,-3.3288927,-0.06284918,-0.30300036,-0.23512289,24.3125,24.75,24.125,25.5,25.5625,25.8125
0.23805419,-2.0270114,-1.6658847,-1.7602562,-0.031129906,0.09147855,-0.039179165,-0.40254974,-0.36624488,0.060079485,-3.0762749,0.6254663,0.00011686597,-0.11435264,0.021608833,0.0012757315,0.01946982,-0.0008128529,-0.0078035924,0.4898662,-1.3628025,1.8800882,-2.0851448,-1.5726117,2.4655182,-0.12796302,0.16205804,-0.2102005,0.05785813,-0.017297085,-0.120009586,-0.59376204,0.076614454,-9.461885,0.8806493,47.705692,-1.0998495,-2.0422914,-3.3132086,-0.08751171,-0.29393306,-0.29157045,24.3125,24.75,24.125,25.5,25.5625,25.8125
0.24005392,-1.989374,-1.7269498,-2.0882921,-0.033380106,0.09681491,-0.04436968,-0.40275052,-0.36620063,0.06006672,-3.0762181,0.6254151,4.7232963e-05,-0.11457324,0.021369902,0.000112939226,0.02024396,-0.0036540995,-0.008534304,0.4896267,-1.3624765,1.8796939,-2.0850008,-1.572635,2.4652543,-0.12808642,0.16577716,-0.21236087,0.059162915,-0.01665624,-0.119401716,-0.38307226,0.17238252,-9.519346,0.84484416,47.67614,-1.0978203,-2.1260688,-3.3474488,-0.08490644,-0.31549016,-0.3171088,24.3125,24.75,24.125,25.5,25.5625,25.8125
0.24205376,-1.2842283,-1.2223575,-1.9836385,-0.050889645,0.11090801,-0.051264714,-0.40297812,-0.36615846,0.06006252,-3.0761716,0.62542415,5.0875053e-05,-0.11517985,0.022146856,-0.00030572055,0.020784538,-0.0036659536,-0.0098547675,0.48937476,-1.3621403,1.8792762,-2.0848935,-1.5726713,2.4650142,-0.12955269,0.16640882,-0.21206608,0.05849421,-0.017135242,-0.119545735,-0.30645782,0.24899697,-9.634268,0.85826975,47.637623,-1.0532422,-2.0419276,-3.4517279,-0.06704039,-0.30054212,-0.3371513,24.3125,24.75,24.125,25.5,25.5625,25.8125
0.24405435,-1.4140135,-1.5610987,-1.9362736,-0.04065582,0.087517604,-0.047012113,-0.40322173,-0.36609018,0.060057778,-3.07608,0.62548155,7.787179e-05,-0.11630672,0.021757362,-1.5998416e-05,0.020479763,-0.0026051123,-0.01052616,0.48908728,-1.3618035,1.8788561,-2.0847738,-1.5727438,2.4647746,-0.12967674,0.16795754,-0.21461084,0.058399215,-0.017377606,-0.11899598,-0.36391866,0.28730422,-9.557653,0.8560339,47.65912,-1.125271,-2.0851297,-3.5662642,-0.044026867,-0.31381896,-0.35885558,24.3125,24.75,24.125,25.5,25.5625,25.8125
0.24605411,-1.406453,-1.7458382,-2.0779948,-0.030702615,0.060759764,-0.045196332,-0.40347037,-0.36605376,0.060077064,-3.0760806,0.6255376,0.00012661175,-0.116865404,0.022133922,-0.0011369351,0.021698674,-0.0048020724,-0.010917933,0.48881158,-1.3614901,1.8784145,-2.0846775,-1.5727557,2.464534,-0.13068861,0.17118885,-0.21617857,0.059240628,-0.017424071,-0.119615555,-0.15322891,0.3256114,-9.634268,0.8605109,47.689575,-1.1551664,-2.2505894,-3.562578,-0.04223664,-0.32027888,-0.37596795,24.3125,24.75,24.125,25.5,25.5625,25.8125
0.24805373,-0.042661034,-1.1723795,-2.1089501,-0.04380251,0.057896793,-0.051746536,-0.40371263,-0.3660078,0.06008818,-3.0760286,0.62560076,0.00016984931,-0.11620778,0.022937456,-0.0027745957,0.024345957,-0.0080074165,-0.0076904884,0.48854804,-1.361165,1.877972,-2.0845573,-1.5728039,2.4643168,-0.13084452,0.17345437,-0.21546993,0.060325284,-0.018262597,-0.12299641,-0.11492168,0.2681506,-9.749189,0.8918391,47.660015,-1.1446326,-2.2975407,-3.5793297,-0.044752814,-0.31325147,-0.37387532,24.3125,24.75,24.125,25.5,25.5625,25.8125
0.2500544,-0.5935065,-2.2209527,-2.2101343,-0.03351344,0.030140612,-0.039241347,-0.4039565,-0.36595377,0.060086634,-3.0759664,0.62554425,0.00020744187,-0.11700956,0.023179788,-0.0031711585,0.025373355,-0.0100533515,-0.0029098815,0.48828438,-1.3608156,1.877529,-2.0844367,-1.5728759,2.4640262,-0.13190232,0.1762463,-0.21855031,0.062876485,-0.018228404,-0.12883319,0.0,0.30645782,-9.519346,0.8918391,47.694946,-1.2123811,-2.4654694,-3.6288059,-0.043327965,-0.31321976,-0.3232948,24.3125,24.75,24.125,25.5,25.5625,25.8125
0.25205404,-0.2353161,-2.144679,-1.7314532,-0.040878396,0.030481096,-0.04568284,-0.40421307,-0.36589995,0.06008471,-3.0759244,0.62562567,0.00018650119,-0.117036544,0.023527626,-0.0033916545,0.02632061,-0.012621169,0.004088295,0.48797306,-1.3604559,1.8770741,-2.084316,-1.5728878,2.4637713,-0.13262694,0.17759109,-0.22045404,0.06612281,-0.017880034,-0.13655604,0.038307227,0.2873042,-9.461885,0.9030289,47.66987,-1.2656159,-2.2137685,-3.6792798,-0.08945138,-0.31621525,-0.2631414,24.3125,24.75,24.125,25.5,25.5625,25.8125
0.2540538,-0.07697148,-1.5489477,-1.5251727,-0.041210115,0.031849325,-0.04269091,-0.4044251,-0.36585152,0.060075395,-3.0758815,0.6254967,0.0001733558,-0.1180819,0.02369093,-0.002431613,0.026433406,-0.011886315,0.011160158,0.48773283,-1.360132,1.8766793,-2.0841959,-1.5729359,2.4634564,-0.13346612,0.17766774,-0.22325024,0.068219736,-0.018350793,-0.144464,0.11492168,0.2681506,-9.32781,0.86945957,47.66987,-1.1431599,-2.3000917,-3.5345984,-0.10168593,-0.34165,-0.1734851,24.3125,24.75,24.125,25.5,25.5625,25.8125
0.2560543,0.24539852,-0.89532405,-1.5718671,-0.029308027,0.02737437,-0.053972993,-0.40466106,-0.36582845,0.06008113,-3.0758755,0.6254768,0.00018145681,-0.12079795,0.025225267,-0.0020092805,0.026690997,-0.013796164,0.007969278,0.48749155,-1.3597832,1.8762225,-2.0840862,-1.5729479,2.4632037,-0.13875973,0.18030137,-0.22840364,0.07253457,-0.017694226,-0.14656687,0.15322891,0.28730422,-9.251195,0.8940802,47.690468,-1.0709814,-2.327989,-3.3663807,-0.12293303,-0.35134512,-0.10077354,24.3125,24.75,24.125,25.5,25.5625,25.8125
0.2580538,0.16030125,-1.2431811,-1.5663124,-0.008532395,0.02025356,-0.03780672,-0.4049369,-0.36576462,0.06009275,-3.0758212,0.6255199,0.00021216102,-0.12026552,0.0243824,-0.0011903727,0.026505336,-0.013792985,0.010897869,0.48716918,-1.3594238,1.8757318,-2.0839422,-1.572996,2.4629154,-0.13687228,0.17966753,-0.23004971,0.07470938,-0.017541727,-0.14760804,0.19153614,0.2681506,-9.193734,0.8627467,47.68599,-1.0874605,-2.280214,-3.3667717,-0.18612316,-0.34183502,-0.050142504,24.3125,24.75,24.125,25.5,25.5625,25.8125
0.2600546,0.4574249,-0.86923426,-1.4205602,-0.013464048,0.018466126,-0.040982757,-0.40520972,-0.3657053,0.060119815,-3.0757923,0.62547797,0.0002567354,-0.121942766,0.025038922,-0.0006238646,0.0261851,-0.013189434,0.0035826296,0.48685703,-1.3590882,1.8752292,-2.0837743,-1.5730437,2.4625812,-0.13935441,0.18043952,-0.23255312,0.075756475,-0.01754377,-0.14277406,0.05746084,0.2681506,-9.11712,0.9791215,47.667187,-1.053828,-2.1432812,-3.336234,-0.19660068,-0.3705844,-0.07306691,24.3125,24.75,24.125,25.5,25.5625,25.8125
0.2620543,0.17775363,-0.99781615,-1.4189098,-0.020614505,0.022355834,-0.038849425,-0.40543628,-0.36568806,0.060128313,-3.0757809,0.6254006,0.0002621342,-0.12092868,0.025396544,-0.0005588419,0.028181069,-0.016349727,-0.0021665771,0.4866416,-1.3587402,1.8747615,-2.0836408,-1.5730675,2.4623191,-0.13880162,0.18041246,-0.23386678,0.08083277,-0.01781749,-0.13647088,-0.019153614,0.21068975,-9.212888,0.86498255,47.666286,-1.0964122,-2.125094,-3.3599672,-0.25027025,-0.36705685,-0.1318281,24.3125,24.75,24.125,25.5,25.5625,25.8125
0.26405385,-0.43167832,-1.4574174,-1.5193908,-0.031376682,0.038567614,-0.040485356,-0.40565988,-0.36562085,0.060092047,-3.075644,0.6254351,0.00010609635,-0.12266421,0.025965525,-0.00043283624,0.028189974,-0.015275129,-0.010830319,0.48635328,-1.3583319,1.874307,-2.0834377,-1.5731038,2.4620702,-0.1408777,0.18187785,-0.23589538,0.08045784,-0.01835018,-0.12987782,-0.076614454,0.24899697,-9.193734,0.8627467,47.653748,-1.0010865,-2.1731923,-3.4067042,-0.30179745,-0.3773002,-0.22300324,24.3125,24.75,24.125,25.5,25.5625,25.8125
0.26605383,-0.68698066,-1.1879812,-1.3458259,-0.042046648,0.056357015,-0.042557187,-0.40592068,-0.36557618,0.060124844,-3.0756102,0.62556094,0.00011727697,-0.12237301,0.025127515,-0.0007896105,0.027992047,-0.01643934,-0.013237994,0.48605487,-1.3580081,1.8738025,-2.083258,-1.5731157,2.461855,-0.13956374,0.18355885,-0.23731141,0.08112921,-0.017633816,-0.12615795,-0.095768064,0.19153614,-9.270349,0.8985519,47.71286,-1.338942,-2.1277976,-3.342088,-0.30473635,-0.3907791,-0.2755667,24.3125,24.75,24.125,25.5,25.5625,25.8125
0.26805365,-1.4171343,-1.4941556,-1.3461878,-0.037240714,0.068932176,-0.04052275,-0.40613523,-0.365535,0.060106352,-3.075542,0.6255468,1.0688216e-05,-0.124308586,0.02422338,0.0011101287,0.025804987,-0.0120962635,-0.015110654,0.48580337,-1.3576368,1.87336,-2.0830905,-1.5731276,2.4616036,-0.13961539,0.1830392,-0.24088952,0.080364265,-0.017752858,-0.12433375,-0.13407528,0.095768064,-9.289502,0.9791215,47.677036,-1.2133265,-1.9326966,-3.3602557,-0.33929724,-0.41044837,-0.35275492,24.3125,24.75,24.0625,25.5625,25.5625,25.8125
0.27005437,-1.4619002,-1.3401401,-1.1729532,-0.030333957,0.0848908,-0.040620584,-0.4064266,-0.36549485,0.06014007,-3.0755198,0.6255831,0.00012806512,-0.12666146,0.024260655,0.0015249708,0.024244476,-0.008606274,-0.020954745,0.4855153,-1.3572763,1.8728203,-2.0829604,-1.5731877,2.4613414,-0.14149708,0.18426746,-0.24262272,0.07705261,-0.018005848,-0.120370485,-0.05746084,0.076614454,-9.251195,0.9030289,47.670765,-1.1717937,-1.9242598,-3.3858838,-0.32970488,-0.41466326,-0.4191489,24.3125,24.75,24.0625,25.5625,25.5625,25.8125
0.27205396,-0.9989306,-0.3324348,-1.2901185,-0.02058233,0.09218303,-0.04891281,-0.40663454,-0.3654441,0.060094748,-3.0754356,0.625622,-4.7030342e-05,-0.12764607,0.024741922,0.0005103604,0.024215408,-0.007742777,-0.023363128,0.48523945,-1.3568802,1.872414,-2.0828173,-1.5731758,2.4611008,-0.14283802,0.18607964,-0.24179927,0.073640384,-0.018408192,-0.119299226,-0.095768064,-0.038307227,-9.251195,0.9791215,47.681515,-1.1613089,-1.8210907,-3.4476318,-0.298688,-0.42048305,-0.49042162,24.3125,24.75,24.0625,25.5625,25.5625,25.8125
0.2740537,-1.053009,-0.4390321,-1.5072548,-0.0041018375,0.0817018,-0.041365087,-0.4069042,-0.36540508,0.060094573,-3.0753963,0.62568784,-3.7813912e-05,-0.1299275,0.025474144,0.0003792143,0.024092471,-0.004967577,-0.021883689,0.48495126,-1.3564838,1.8719105,-2.082699,-1.5732006,2.460859,-0.14522877,0.18772936,-0.24285033,0.07051617,-0.019617246,-0.12316434,-0.15322891,0.0,-9.3661175,0.91198283,47.678825,-1.0698123,-2.0683017,-3.5649612,-0.28494814,-0.405389,-0.51080227,24.3125,24.75,24.0625,25.5625,25.5625,25.8125
0.27605402,-1.0777578,-0.52827656,-1.587618,-0.014049182,0.07593033,-0.05508861,-0.4071767,-0.3653441,0.0601219,-3.0753117,0.6257227,8.263499e-05,-0.13296212,0.02508948,-6.0928127e-05,0.023573564,-0.00066431164,-0.014368982,0.48467553,-1.3561468,1.8714079,-2.082545,-1.5733093,2.4606164,-0.14619708,0.19182284,-0.24561793,0.065106414,-0.021201946,-0.13164032,-0.19153614,0.038307227,-9.3661175,0.9388393,47.67166,-1.0680668,-2.108262,-3.4246092,-0.22787237,-0.418925,-0.46650997,24.3125,24.75,24.0625,25.5625,25.5625,25.8125
0.27805367,-1.730694,-0.9363504,-1.6109256,-0.021517666,0.07091491,-0.04827133,-0.40741318,-0.3652821,0.060106233,-3.0752451,0.6257408,-3.864059e-05,-0.13386081,0.025716778,-0.0016995844,0.024813509,-0.0022427316,-0.0060920436,0.4843636,-1.3557742,1.8709539,-2.0823658,-1.5733093,2.4603245,-0.14768831,0.19562006,-0.24626635,0.06390197,-0.02160586,-0.14140429,-0.49799395,0.076614454,-9.423578,0.9254084,47.67166,-1.1105663,-2.1229882,-3.5916927,-0.16555879,-0.40399075,-0.3932073,24.3125,24.75,24.0625,25.5625,25.5625,25.8125
0.2800544,-1.5366846,-0.86829793,-1.6726664,-0.03793342,0.09714454,-0.046063647,-0.40768373,-0.3652412,0.060109206,-3.0752237,0.62573004,-5.7118894e-05,-0.13440917,0.025795482,-0.0020759618,0.026078776,-0.0033395768,0.00325986,0.48406428,-1.3553777,1.870437,-2.0822222,-1.5733212,2.4600215,-0.14780357,0.19792262,-0.24860975,0.065472625,-0.022244453,-0.15086775,-0.51714754,0.05746084,-9.576807,0.9298854,47.678825,-1.0866838,-2.1750107,-3.4739854,-0.17972115,-0.40612057,-0.29560095,24.3125,24.75,24.0625,25.5625,25.5625,25.8125
0.2820543,-1.6467962,-1.4955943,-1.6993065,-0.03655346,0.11568522,-0.050246023,-0.40795797,-0.36516958,0.060102943,-3.0751534,0.6257301,-4.395143e-05,-0.13655075,0.02577762,-0.00186881,0.024719825,-0.00047329027,0.008144693,0.48374018,-1.3549932,1.8699583,-2.0820916,-1.5733813,2.4597068,-0.14944562,0.1994859,-0.25035492,0.06245254,-0.0224101,-0.15739243,-0.51714754,0.11492168,-9.519346,0.95226496,47.694946,-1.0389532,-2.2213776,-3.509975,-0.14169995,-0.40002835,-0.19990143,24.3125,24.75,24.0625,25.5625,25.5625,25.8125
0.284054,-2.3925176,-1.6695296,-1.410832,-0.05220261,0.11405122,-0.041175406,-0.4081886,-0.36513138,0.06008482,-3.075075,0.62559384,-3.786013e-05,-0.13686255,0.026029635,-0.002204109,0.026077317,-0.0012096823,0.011006411,0.4835251,-1.3545974,1.8694924,-2.081959,-1.5734657,2.459417,-0.14951536,0.20096573,-0.2517012,0.06357953,-0.023288902,-0.16031879,-0.61291564,0.22984336,-9.500193,0.8806493,47.635834,-1.272048,-2.225206,-3.6454713,-0.11304942,-0.41663975,-0.16122086,24.3125,24.75,24.0625,25.5625,25.5625,25.8125
0.28605357,-2.1198914,-1.5296342,-1.6391629,-0.046116844,0.12802249,-0.046842203,-0.40848652,-0.36506867,0.060080655,-3.075043,0.62562835,-5.9350787e-05,-0.13681166,0.026023842,-0.0019492506,0.026692776,-0.00086643646,0.0060336576,0.4831661,-1.354178,1.868966,-2.081827,-1.5734776,2.459084,-0.14890786,0.20078035,-0.252307,0.06436065,-0.023988986,-0.15473533,-0.80445176,0.3256114,-9.404425,0.9388393,47.666286,-1.273332,-2.161652,-3.6042585,-0.0958568,-0.4048705,-0.16642821,24.3125,24.75,24.0625,25.5625,25.5625,25.8125
0.28805435,-1.4223697,-1.2048299,-1.8066874,-0.033994652,0.1259921,-0.048776098,-0.4087502,-0.36500832,0.06007536,-3.0749626,0.6256344,-3.166696e-05,-0.1391049,0.025914302,-0.00096212595,0.026759733,0.0017908543,-0.0016968123,0.48287824,-1.3537937,1.8684849,-2.0816953,-1.5735501,2.4588106,-0.14984287,0.20248492,-0.25677282,0.06480556,-0.025284367,-0.14793248,-0.7086837,0.21068975,-9.557653,0.9835985,47.705692,-1.214659,-2.0843685,-3.6691241,-0.096679464,-0.40209788,-0.22572623,24.3125,24.75,24.0625,25.5625,25.5625,25.8125
0.29005376,-1.6812378,-1.5884483,-1.551948,-0.03742996,0.10789486,-0.04607972,-0.409044,-0.36498985,0.060105927,-3.0749764,0.62552226,9.738468e-05,-0.14065754,0.025784371,-0.00016120962,0.026374562,0.0036863293,-0.0068235034,0.4826266,-1.3533975,1.8679103,-2.0815756,-1.5736107,2.4584875,-0.15055206,0.2033557,-0.25977385,0.065077685,-0.02581295,-0.14351347,-0.7086837,0.17238252,-9.442732,0.9612189,47.64927,-1.2797561,-2.1374497,-3.5691526,-0.07343998,-0.40071213,-0.30712745,24.3125,24.75,24.0625,25.5625,25.5625,25.8125
0.29205453,-1.4933023,-1.3832585,-1.5543076,-0.037609924,0.09546823,-0.040682282,-0.40934727,-0.36493728,0.060118817,-3.0749214,0.6256444,0.00015778857,-0.14234555,0.026491143,-0.00018524831,0.027344752,0.004440025,-0.00930944,0.48230287,-1.3529893,1.8673586,-2.081444,-1.5736593,2.4582474,-0.15234151,0.20529123,-0.26218432,0.06532645,-0.027026404,-0.14281183,-0.59376204,0.21068975,-9.423578,0.9567419,47.668976,-1.4033831,-2.0661025,-3.5118663,-0.02281073,-0.38375592,-0.34392977,24.3125,24.75,24.0625,25.5625,25.5625,25.8125
0.29405424,-1.115785,-1.0104295,-1.608572,-0.027704751,0.09247233,-0.050547525,-0.4096302,-0.36487156,0.060101017,-3.0748456,0.62568533,0.000115258445,-0.14249009,0.026529048,-0.001531819,0.029711442,0.0020520105,-0.009531732,0.48196754,-1.3525563,1.8668436,-2.0813,-1.5736951,2.4579477,-0.15180166,0.20920046,-0.26423034,0.06666839,-0.028027987,-0.14204317,-0.57460845,0.17238252,-9.461885,0.9254084,47.67614,-1.3244016,-2.148147,-3.5301328,-0.009409665,-0.34621096,-0.36614075,24.3125,24.75,24.0625,25.5625,25.5625,25.8125
0.29605415,-1.3833342,-1.1181413,-1.5594567,-0.021442272,0.07695936,-0.041886784,-0.40992785,-0.36479944,0.06009266,-3.0747766,0.62574667,0.00018457521,-0.14359519,0.027766647,-0.00087972305,0.030150812,0.00204795,-0.010939492,0.4816313,-1.3521491,1.8663515,-2.0812151,-1.5737675,2.457659,-0.15446007,0.20867929,-0.26563007,0.06877476,-0.02842051,-0.14329225,-0.40222588,0.21068975,-9.442732,0.94331104,47.690468,-1.1849165,-2.000605,-3.4970355,-0.017737731,-0.34517717,-0.36682394,24.3125,24.75,24.0625,25.5625,25.5625,25.8125
0.29805428,-1.1358237,-1.0421822,-1.34683,-0.017562812,0.07118942,-0.048252523,-0.41021168,-0.36475822,0.060088027,-3.0747175,0.62573,0.00018125073,-0.14425726,0.027763402,-7.29627e-05,0.029917615,0.0013671216,-0.00654442,0.48134363,-1.3517053,1.8657902,-2.0810583,-1.5738152,2.4573689,-0.1552203,0.20905375,-0.26871085,0.07194429,-0.027919136,-0.14844762,-0.19153613,0.038307227,-9.3661175,0.99702406,47.67345,-1.2808597,-1.9855263,-3.5469022,-0.0077985683,-0.31959355,-0.38851058,24.3125,24.75,24.0625,25.5625,25.5625,25.8125
0.30005416,-0.77418673,-0.25772485,-1.1930457,-0.017815553,0.066305615,-0.054247983,-0.41053268,-0.36471915,0.060107898,-3.074724,0.6257462,0.0002845391,-0.1434554,0.028073756,-0.0014513804,0.032139625,-0.0036263196,-0.0012361767,0.4810201,-1.3512846,1.8652147,-2.0809615,-1.573851,2.4570549,-0.15511009,0.21209203,-0.2702079,0.07582669,-0.027580105,-0.15364793,-0.22984336,0.019153614,-9.270349,0.9410752,47.64389,-1.3292866,-2.0881348,-3.535287,-0.045438815,-0.33935553,-0.3290021,24.3125,24.75,24.0625,25.5625,25.5625,25.8125
0.30205366,-0.6402764,-0.19253786,-1.2190754,0.011797442,0.055009298,-0.049382366,-0.41082254,-0.36466238,0.060135886,-3.0746622,0.6257093,0.00039028574,-0.1434631,0.029172635,-0.0017745643,0.034778517,-0.0064479355,0.0065255016,0.48073176,-1.3509127,1.8646635,-2.0807922,-1.5739478,2.4567518,-0.15618499,0.21326947,-0.27190676,0.080023415,-0.02863266,-0.1624805,-0.1340753,0.019153614,-9.155427,0.88960326,47.66539,-1.4404552,-2.1030123,-3.458951,-0.07675404,-0.31154594,-0.22868013,24.3125,24.75,24.0625,25.5625,25.5625,25.8125
0.30405438,0.1451959,0.7214337,-1.1751512,0.012565957,0.062100656,-0.0682768,-0.41107568,-0.3645895,0.06008192,-3.0745447,0.6256432,0.00025711424,-0.1440596,0.030297678,-0.0020695927,0.037330426,-0.009061812,0.011740374,0.48041895,-1.3504444,1.8641843,-2.0806353,-1.5739955,2.4564133,-0.15779606,0.2152162,-0.2746336,0.08426649,-0.029730728,-0.16929725,0.095768064,0.0,-9.11712,0.9254084,47.658226,-1.2667364,-2.003993,-3.5608075,-0.102494314,-0.29349026,-0.12132013,24.3125,24.75,24.0625,25.5625,25.5625,25.8125
0.3060541,0.26040754,-0.023606418,-0.9713021,0.022475189,0.029282773,-0.056373708,-0.41138536,-0.3645185,0.06009995,-3.0744765,0.6256094,0.00032082992,-0.14448886,0.031532407,-0.0019656501,0.039154835,-0.011360941,0.01112838,0.48008257,-1.3500366,1.8636092,-2.080454,-1.5740799,2.456065,-0.15974672,0.21583156,-0.27664357,0.08851674,-0.030295556,-0.17063291,0.095768064,-0.019153614,-9.136273,0.9768804,47.691364,-1.3223356,-1.9572783,-3.5534573,-0.15760984,-0.26471633,-0.08333512,24.3125,24.75,24.0625,25.5625,25.5625,25.8125
0.30805373,0.51162684,-0.0051451265,-0.8400613,-0.007401617,0.013513055,-0.053216174,-0.41168454,-0.3644548,0.060085967,-3.0743873,0.6256327,0.00027668546,-0.14650354,0.032792225,-0.0010377628,0.03951951,-0.010766932,0.004752395,0.47974575,-1.3495688,1.8630341,-2.0802739,-1.574128,2.4557545,-0.16308732,0.21618015,-0.27981144,0.0909719,-0.030908767,-0.16759206,-0.076614454,0.038307227,-8.887277,1.0350704,47.66987,-1.2608414,-2.0132675,-3.5399652,-0.20817012,-0.23069611,-0.09774336,24.3125,24.75,24.0625,25.5625,25.5625,25.8125
0.31005445,0.88134116,-0.34994012,-1.2566592,-0.012880489,0.012370556,-0.051205482,-0.41197908,-0.36439213,0.060101103,-3.0743296,0.62556565,0.00028676106,-0.14645648,0.0319067,-0.0012782735,0.040334914,-0.012032922,8.236633e-05,0.47942218,-1.3491602,1.8624591,-2.0800693,-1.5741881,2.455397,-0.16136591,0.21866876,-0.2828076,0.0929816,-0.031049276,-0.1611977,-0.038307227,0.076614454,-9.021352,0.88960326,47.655537,-1.2707546,-2.0574298,-3.4778686,-0.22972855,-0.21496041,-0.16159636,24.3125,24.75,24.0625,25.5625,25.5625,25.8125
0.31205413,0.43128964,-0.954486,-1.464434,-0.011458281,0.004137598,-0.054472797,-0.4122674,-0.36432394,0.060095683,-3.0742059,0.6256603,0.00029395238,-0.1478073,0.03256997,-0.0013350383,0.040428974,-0.0125701465,-0.009699263,0.47910953,-1.3487282,1.8619078,-2.07989,-1.574272,2.4551597,-0.16361508,0.22036219,-0.28505585,0.09405954,-0.030886745,-0.15366323,0.095768064,0.095768064,-9.251195,0.98135734,47.66091,-1.1552354,-2.0306401,-3.4370956,-0.23890033,-0.18789554,-0.23187037,24.3125,24.75,24.0625,25.5625,25.5625,25.8125
0.31405374,-0.337735,-1.5336162,-0.9645683,-0.046132497,0.023412678,-0.04656916,-0.4125568,-0.36425602,0.060087286,-3.0741012,0.6256209,0.00028491634,-0.149663,0.032749258,-0.0018253364,0.04035443,-0.012322161,-0.014821909,0.47879666,-1.3482827,1.8613442,-2.0796988,-1.574356,2.4548361,-0.16535696,0.22370608,-0.2879141,0.093309686,-0.030954385,-0.15027864,0.038307227,0.17238252,-9.212888,0.900793,47.6636,-1.1679066,-2.2312112,-3.376537,-0.29519767,-0.16552591,-0.29382595,24.3125,24.75,24.0625,25.5625,25.5625,25.8125
0.31605443,-0.21466228,-1.3725808,-1.0754548,-0.054622244,0.05149425,-0.055295773,-0.4128638,-0.36418736,0.06009087,-3.0739923,0.6256584,0.00026748248,-0.15330346,0.031473566,-0.0002065324,0.03617517,-0.0058296775,-0.021298908,0.47846028,-1.3478272,1.8607334,-2.0794733,-1.574428,2.4545376,-0.16667844,0.22518279,-0.29242596,0.088652745,-0.030260874,-0.14512219,-0.095768064,0.19153613,-9.097966,0.97464454,47.666286,-1.1609097,-2.1793897,-3.3057303,-0.25621295,-0.15412445,-0.3759746,24.3125,24.75,24.0625,25.5625,25.5625,25.8125
0.3180545,-1.1583933,-1.7269477,-1.3512433,-0.04556506,0.061516494,-0.054842442,-0.4131305,-0.36412263,0.060060732,-3.073897,0.62565947,0.00014101354,-0.15391028,0.031479232,-0.0007484686,0.03532745,-0.006784861,-0.024840431,0.47813606,-1.3473715,1.860206,-2.0792816,-1.5744513,2.4542267,-0.16779941,0.22696967,-0.29337123,0.08826091,-0.02908933,-0.14270271,-0.24899697,0.24899697,-9.174581,0.99702406,47.65912,-1.1712589,-2.2149563,-3.2307603,-0.2657451,-0.16410391,-0.45698202,24.3125,24.75,24.0625,25.5625,25.5625,25.8125
0.32005423,-1.7989092,-2.3330307,-1.3561409,-0.05417438,0.07892188,-0.059051577,-0.41342968,-0.3640543,0.060057268,-3.073797,0.6257323,0.00012348755,-0.15460333,0.0308071,-0.0010979276,0.032810155,-0.004209473,-0.022558559,0.47780004,-1.3469274,1.8596328,-2.0790923,-1.5745109,2.4539495,-0.16776517,0.22743595,-0.29205805,0.08300689,-0.028070312,-0.14495356,-0.22984336,0.4405331,-9.270349,0.9254084,47.688675,-1.0908386,-2.1190348,-3.4910293,-0.20681971,-0.16080773,-0.48398268,24.3125,24.75,24.0625,25.5625,25.5625,25.8125
0.32205397,-1.883236,-2.3549073,-1.3859497,-0.08149043,0.10069354,-0.06390008,-0.41372514,-0.36399525,0.06004035,-3.0737107,0.62570834,6.4390515e-05,-0.15546948,0.03090344,-0.0011297518,0.030856062,-0.0029608642,-0.01450671,0.47747564,-1.3464478,1.8590463,-2.078901,-1.5745586,2.4536216,-0.16920994,0.22747631,-0.29155073,0.08039649,-0.026960481,-0.15445328,-0.53630114,0.59376204,-9.2703495,0.9947882,47.65106,-1.0047638,-2.0909762,-3.7052722,-0.16920388,-0.15931243,-0.45743257,24.3125,24.75,24.0625,25.5625,25.5625,25.8125
0.3240537,-2.195605,-2.7305946,-1.432798,-0.0930369,0.109834,-0.064955026,-0.41404754,-0.36393818,0.06003994,-3.073637,0.6258035,0.000106019404,-0.15743792,0.030744318,-0.00048375005,0.02923169,-0.00030465212,-0.006670513,0.47713906,-1.34598,1.8584474,-2.078758,-1.5746187,2.4533544,-0.17060578,0.22843401,-0.2938741,0.078602515,-0.026782054,-0.16368519,-0.4405331,0.5363012,-9.404425,0.94331104,47.666286,-1.1613494,-2.0815935,-3.8418083,-0.13955516,-0.13764529,-0.36509314,24.3125,24.75,24.0625,25.5625,25.5625,25.8125
0.3260548,-2.5626938,-2.4630775,-1.4897794,-0.10056498,0.108770184,-0.055350427,-0.41434902,-0.36387932,0.060024057,-3.0735786,0.62572676,4.9510803e-05,-0.1594511,0.02981728,0.00036265646,0.026782906,0.0024163988,0.003191172,0.47680306,-1.3455001,1.8578604,-2.0785787,-1.5746545,2.4529784,-0.17118762,0.22996436,-0.29739606,0.076994486,-0.025915435,-0.17412971,-0.5746084,0.40222588,-9.519346,0.9858343,47.689575,-1.1318196,-2.0468557,-3.7532108,-0.09159163,-0.1342939,-0.2377902,24.3125,24.75,24.0625,25.5625,25.5625,25.8125
0.3280544,-2.5076725,-2.353183,-1.5772569,-0.07314325,0.09865121,-0.056485698,-0.41468477,-0.36382216,0.060045272,-3.0735447,0.6257361,0.00013229695,-0.15918487,0.029770086,6.1522136e-05,0.02708314,0.00028034401,0.007913512,0.47645515,-1.3450559,1.8572377,-2.0784228,-1.5747141,2.452641,-0.17115043,0.2310896,-0.29864755,0.07911662,-0.025214285,-0.1788184,-0.6703765,0.40222588,-9.481039,0.99702406,47.681515,-1.2054168,-1.9191518,-3.728588,-0.11677314,-0.1333989,-0.15414895,24.3125,24.75,24.0625,25.5625,25.5625,25.8125
0.33005416,-1.9492458,-1.2105129,-1.6267955,-0.055178717,0.102006,-0.056691743,-0.4150109,-0.36374414,0.060021706,-3.0734882,0.625743,8.1282386e-05,-0.16097276,0.02818303,0.0007924834,0.024302417,0.0035041485,0.007182419,0.47605962,-1.3445637,1.8566612,-2.0782807,-1.5747379,2.4522574,-0.17048697,0.23302273,-0.3021957,0.07658022,-0.024244748,-0.1774256,-0.9576807,0.3256114,-9.481039,0.98807013,47.694946,-1.2677443,-1.953405,-3.7310925,-0.06304702,-0.13938312,-0.14751786,24.3125,24.75,24.0625,25.5625,25.5625,25.8125
0.33205393,-2.1893284,-1.3527539,-1.7503293,-0.023890048,0.10682932,-0.05813363,-0.41532722,-0.36372754,0.060033176,-3.073501,0.62571007,8.7848566e-05,-0.16124712,0.026554873,0.000938635,0.023412596,0.003196205,0.0028771998,0.47576013,-1.3440827,1.8560151,-2.0781238,-1.5747379,2.451936,-0.1684526,0.23551476,-0.30590865,0.07768224,-0.0232995,-0.17108913,-1.0151415,0.24899697,-9.461885,0.98807013,47.66271,-1.5843484,-2.202809,-3.7241402,-0.021747874,-0.14645442,-0.20607603,24.3125,24.75,24.0625,25.5625,25.5625,25.8125
0.33405462,-2.2911491,-1.0431612,-1.4884969,-0.014952763,0.1072297,-0.05893178,-0.41568607,-0.3636732,0.06002919,-3.0734377,0.62573683,0.00018156665,-0.16167873,0.025229018,0.0012524344,0.023066543,0.003126607,-0.0016080573,0.47541273,-1.3435551,1.8553556,-2.0780041,-1.5748218,2.451614,-0.16668007,0.23776045,-0.3098172,0.07925074,-0.02294611,-0.16483188,-0.7278373,0.22984336,-9.461885,0.9858343,47.67614,-1.6847641,-2.114121,-3.4891672,-0.049283385,-0.17178999,-0.2789747,24.3125,24.75,24.0625,25.5625,25.5625,25.8125
0.3360544,-1.446417,-0.3485815,-1.442827,-0.026028719,0.10928488,-0.069235,-0.4159872,-0.36360848,0.06001779,-3.0733418,0.6257954,0.00013585988,-0.16302341,0.025705714,0.00015499735,0.023254357,0.0017392028,-0.0055225324,0.47507605,-1.3430862,1.8547682,-2.0778124,-1.5748695,2.4513266,-0.16875431,0.24138245,-0.31175223,0.07887421,-0.022492494,-0.16299115,-0.38307226,0.095768064,-9.519346,0.95897776,47.655537,-1.5096374,-2.275754,-3.4534073,0.021521289,-0.17499295,-0.3268453,24.3125,24.75,24.0625,25.5625,25.5625,25.8125
0.33805415,-1.8622061,-0.88383245,-1.5524421,-0.026929962,0.07766988,-0.06085628,-0.41632873,-0.36352926,0.06000206,-3.0732698,0.6257833,0.00019815606,-0.16484928,0.02705565,0.00029420404,0.023942806,0.00055702636,-0.01314257,0.47470295,-1.3425941,1.8541807,-2.0777037,-1.5749534,2.4509556,-0.17235132,0.24318792,-0.31500188,0.081680074,-0.022557745,-0.1589665,-0.36391866,-0.019153614,-9.5385,1.0328293,47.677036,-1.4874315,-2.2805166,-3.3860092,0.013144865,-0.1735435,-0.38975245,24.3125,24.75,24.0625,25.5625,25.5625,25.8125
0.3400537,-0.9807219,-0.93177253,-1.4130499,-0.0259389,0.06771795,-0.07054367,-0.41667607,-0.36348066,0.059997793,-3.073209,0.6258471,0.0002216142,-0.16365424,0.029267462,-0.0019324594,0.027827237,-0.00549576,-0.012949386,0.4743542,-1.3420659,1.8535122,-2.0775468,-1.5750016,2.450655,-0.1744083,0.24500196,-0.31301928,0.08502027,-0.02324987,-0.16121382,-0.34476504,0.0,-9.442732,0.9612189,47.667187,-1.3935516,-2.396272,-3.4335613,0.0036517363,-0.1492449,-0.40631032,24.3125,24.75,24.0625,25.5625,25.5625,25.8125
0.3420545,0.14652106,-0.23475206,-1.5933031,-0.019844046,0.052905086,-0.07333768,-0.41702688,-0.363438,0.060029075,-3.0732176,0.6258454,0.0003241351,-0.16307047,0.030270362,-0.0025093723,0.030559108,-0.009191792,-0.0080845095,0.47400588,-1.3416103,1.8528537,-2.0774014,-1.5750383,2.4503047,-0.17495175,0.24610086,-0.31416374,0.08956758,-0.023999186,-0.16661985,-0.22984336,0.05746084,-9.595961,1.0104496,47.661808,-1.3442488,-2.346765,-3.6660943,-0.02263984,-0.14294638,-0.40471268,24.3125,24.75,24.0625,25.5625,25.5625,25.8125
0.34405404,0.09530932,-0.24867745,-1.4514381,-0.019316403,0.029652756,-0.07313147,-0.4173532,-0.36336225,0.060013935,-3.0731194,0.62581956,0.00029987236,-0.1637816,0.031194294,-0.0026464337,0.03211469,-0.012419038,-0.0006280441,0.47364503,-1.3411057,1.85223,-2.0772083,-1.5751098,2.449941,-0.17695647,0.24823289,-0.31765464,0.09444675,-0.023958452,-0.17607857,-0.019153614,-0.019153614,-9.500193,0.947788,47.65464,-1.2760918,-2.4097705,-3.7040186,-0.069631726,-0.1514847,-0.30030617,24.3125,24.75,24.0625,25.5625,25.5625,25.8125
0.34605533,0.3579551,-0.19419836,-1.3072151,-0.0045667286,0.010960121,-0.0730336,-0.417677,-0.3632908,0.059983354,-3.0730298,0.6257778,0.00019545836,-0.16395041,0.033099324,-0.0035307996,0.034209896,-0.017784595,0.004456883,0.47327214,-1.3405654,1.8515948,-2.0770028,-1.5751456,2.449554,-0.18041347,0.25009885,-0.3192568,0.099859774,-0.023426047,-0.18462019,0.076614454,-0.17238252,-9.32781,0.90750587,47.667187,-1.2021576,-2.4872613,-3.546525,-0.10395499,-0.15730795,-0.18714373,24.3125,24.75,24.0625,25.5625,25.5625,25.8125
0.3480542,0.51956654,0.20322977,-1.0191379,0.019735422,-0.0051024104,-0.06126023,-0.41802752,-0.36324626,0.060021322,-3.0730207,0.6257348,0.00030660292,-0.1649304,0.033202667,-0.0029103658,0.03452675,-0.019176738,0.0074521843,0.47293603,-1.3401097,1.8509125,-2.076822,-1.5752057,2.4491925,-0.1814578,0.2516613,-0.3235941,0.10398073,-0.023089191,-0.18866125,0.095768064,-0.1340753,-9.097966,0.95897776,47.689575,-1.2175605,-2.4474106,-3.5135362,-0.15350614,-0.15509,-0.10375714,24.3125,24.75,24.0625,25.5625,25.5625,25.8125
0.35005426,0.7030361,0.96807736,-1.1417056,0.039627824,-0.019645661,-0.06581664,-0.4183484,-0.3631818,0.05999134,-3.0729501,0.62570274,0.00018124041,-0.16670065,0.033763085,-0.0011104811,0.033633526,-0.01817724,0.002457392,0.47256315,-1.33957,1.8502764,-2.0766175,-1.5752171,2.4488091,-0.18391743,0.25093928,-0.32771233,0.107524365,-0.022773558,-0.1861243,0.05746084,-0.1340753,-9.059659,0.94331104,47.6636,-1.093841,-2.3437483,-3.3809981,-0.20444399,-0.15922318,-0.093316816,24.3125,24.75,24.0625,25.5625,25.5625,25.8125
0.352054,0.55101585,1.15059,-1.3886613,0.046382967,-0.024849659,-0.067311026,-0.41867372,-0.3630977,0.059977632,-3.0728393,0.62566537,0.0001286314,-0.16735211,0.034085233,-0.00076679996,0.033260755,-0.018792873,-0.0063467873,0.4721909,-1.3390666,1.8496422,-2.0763896,-1.5752891,2.4484284,-0.18520875,0.2513809,-0.32954165,0.109301135,-0.022164982,-0.17861187,0.076614454,-0.095768064,-9.212888,0.87393653,47.639416,-1.0518553,-2.3104327,-3.3543978,-0.2444838,-0.15882078,-0.17554858,24.3125,24.75,24.0625,25.5625,25.5625,25.8125
0.3540539,0.684101,0.6913918,-1.3432074,0.016711185,0.009887548,-0.07040681,-0.41898414,-0.36302298,0.05995587,-3.0727031,0.62575734,-4.2605236e-05,-0.16877934,0.034736898,-0.00035680397,0.032752723,-0.017996084,-0.016320717,0.47181806,-1.338539,1.8489832,-2.0761025,-1.575313,2.448131,-0.18738292,0.25189,-0.3312799,0.109612755,-0.022088962,-0.17080867,-0.019153614,-0.038307227,-9.346964,0.87393653,47.65106,-0.97820544,-2.2177124,-3.332921,-0.27279222,-0.17049988,-0.2509333,24.3125,24.75,24.0625,25.5625,25.5625,25.8125
0.3560546,-0.5287597,-0.7532864,-1.6203293,-0.01852818,0.041328568,-0.06723648,-0.41930762,-0.36294886,0.059949882,-3.0725906,0.625775,-0.00010691169,-0.16973564,0.0353557,-0.0006010825,0.032467905,-0.017218906,-0.02346284,0.47145727,-1.3380351,1.8483251,-2.0758512,-1.575373,2.4477963,-0.18898739,0.2525451,-0.33131644,0.10818062,-0.022198696,-0.16526842,-0.24899697,0.095768064,-9.423578,0.91421866,47.66271,-0.811828,-2.1223028,-3.4103246,-0.27296832,-0.1713711,-0.31876212,24.3125,24.75,24.0625,25.5625,25.5625,25.8125
0.35805458,-1.8961153,-2.3296967,-1.7200073,-0.05858078,0.08145492,-0.06842524,-0.41964775,-0.36286432,0.059947502,-3.072492,0.6259102,-0.00021853425,-0.1717369,0.03541577,-0.00040323782,0.031173615,-0.015655015,-0.029846625,0.47103682,-1.3375305,1.8476552,-2.0755885,-1.5753855,2.4474735,-0.1908571,0.25446826,-0.33394682,0.106915325,-0.021775289,-0.16075353,-0.2681506,0.0,-9.672575,1.106686,47.653748,-0.8674327,-2.3427725,-3.4842367,-0.29819056,-0.18185176,-0.40953147,24.3125,24.75,24.0625,25.5625,25.5625,25.8125
0.3600543,-2.517753,-3.0132496,-1.6078357,-0.098815665,0.1371539,-0.07196763,-0.42000082,-0.36280498,0.059969097,-3.0724077,0.6259278,-0.0001689815,-0.1717789,0.03300286,-0.0005260372,0.028899347,-0.011367985,-0.025823213,0.47069046,-1.3370271,1.846938,-2.0753515,-1.5754694,2.4471495,-0.18676932,0.255457,-0.33360276,0.10070988,-0.021719621,-0.16068918,-0.4213795,0.11492168,-9.730036,0.94331104,47.67614,-1.0761278,-2.3065,-3.6239402,-0.27455917,-0.18559489,-0.50169194,24.3125,24.75,24.0625,25.5625,25.5625,25.8125
0.36205417,-3.0630136,-3.2405872,-1.7050337,-0.108421974,0.15795624,-0.066403866,-0.42032552,-0.36274907,0.05997204,-3.0723526,0.6259703,-0.00023405819,-0.17348759,0.03177734,-0.0004087944,0.027202701,-0.0074765943,-0.020914601,0.47033074,-1.3365349,1.846279,-2.0751255,-1.5754813,2.4468238,-0.18584312,0.25762165,-0.33564803,0.09632599,-0.022019085,-0.16466804,-0.47884035,0.24899697,-9.730036,1.0305934,47.66539,-1.1903414,-2.1787877,-3.655665,-0.2042838,-0.20592263,-0.5119213,24.3125,24.75,24.0625,25.5625,25.5625,25.8125
0.36405408,-3.411161,-3.334115,-2.032953,-0.08606217,0.14472535,-0.06056458,-0.4206873,-0.36269587,0.05997019,-3.0723164,0.6259743,-0.00021884317,-0.17483738,0.031147247,-0.00154679,0.026217958,-0.0060611796,-0.009345895,0.46995887,-1.3359942,1.8455848,-2.0749595,-1.575517,2.4464595,-0.18586317,0.2611885,-0.3365693,0.09190355,-0.02184928,-0.17625709,-0.34476507,0.34476504,-9.749189,0.95897776,47.682407,-1.3098946,-2.2581556,-3.8042455,-0.18574974,-0.2088366,-0.4150101,24.3125,24.75,24.0625,25.5625,25.5625,25.8125
0.3660539,-2.1009471,-1.7821783,-1.826044,-0.07706668,0.12135562,-0.082507744,-0.42101982,-0.36262262,0.05995895,-3.0722446,0.62595284,-0.00025087027,-0.17742507,0.031236459,-0.0015209155,0.025014024,-0.0034307085,0.00016197326,0.46958634,-1.3354895,1.8449501,-2.0747688,-1.5755652,2.4460833,-0.18790412,0.26377586,-0.3392793,0.08906515,-0.022041991,-0.18780284,-0.2681506,0.5554548,-9.768343,0.97240865,47.675243,-1.3836844,-2.3786843,-3.8031373,-0.11113531,-0.21066508,-0.28171772,24.3125,24.75,24.0625,25.5625,25.5625,25.8125
0.36805448,-0.95495903,-1.7268659,-2.0132668,-0.052089915,0.080663964,-0.072132364,-0.42138034,-0.36254624,0.059929635,-3.0721376,0.62592524,-0.00023316246,-0.178756,0.031289157,-0.00047686513,0.024549995,-0.00037035538,0.0069069876,0.46921435,-1.3349142,1.8442777,-2.0746133,-1.5756615,2.4457085,-0.18831557,0.26323512,-0.3409421,0.08827259,-0.023062833,-0.19495252,-0.34476504,0.61291564,-9.653421,0.9768804,47.667187,-1.4095318,-2.379033,-3.7033696,-0.09075338,-0.2268081,-0.19627073,24.3125,24.75,24.0625,25.5625,25.5625,25.8125
0.3700543,-0.39871532,-1.7541509,-2.1765158,-0.044090066,0.03962628,-0.06669698,-0.4217535,-0.36251396,0.059971467,-3.0722013,0.6258236,-0.0001244,-0.17981951,0.030652817,8.568208e-05,0.025411103,0.0023633817,0.0074385703,0.46885478,-1.3344344,1.8435606,-2.0744584,-1.5756744,2.4452775,-0.18677266,0.26452652,-0.34379548,0.08778721,-0.025057787,-0.19393131,-0.40222588,0.6512228,-9.730036,0.9791215,47.691364,-1.4498906,-2.2960382,-3.7905164,-0.045929644,-0.19996262,-0.15955006,24.3125,24.75,24.0625,25.5625,25.5625,25.8125
0.37205425,-0.2851434,-2.3396575,-2.2988904,-0.05414206,0.028015595,-0.06569272,-0.42213285,-0.36242133,0.05994897,-3.0720758,0.6259184,-0.00012237031,-0.18078507,0.031964958,1.4984631e-05,0.027966905,0.0016067639,-0.0016711579,0.4684341,-1.3338585,1.8428658,-2.0742776,-1.5757593,2.4449327,-0.18839622,0.2658627,-0.3460108,0.09051355,-0.026980856,-0.18643239,-0.49799395,0.6512228,-9.710882,0.98807013,47.651955,-1.4389417,-2.2932246,-3.704298,-0.03227657,-0.17684495,-0.21315482,24.3125,24.75,24.0625,25.5625,25.5625,25.8125
0.37405393,-0.5285864,-2.6308517,-1.969826,-0.08042028,0.044804256,-0.072137214,-0.42247444,-0.36237106,0.0599346,-3.0719981,0.62580824,-8.22437e-05,-0.18111977,0.032443933,-0.00061168784,0.029053835,-0.0023147913,-0.008930186,0.46812156,-1.3333055,1.842183,-2.0741084,-1.5758547,2.444562,-0.18978848,0.2687438,-0.34922042,0.09483326,-0.026165228,-0.18056798,-0.34476504,0.4405331,-9.844957,0.9791215,47.64479,-1.3796809,-2.4105115,-3.6833339,-0.054843314,-0.17957206,-0.2788595,24.3125,24.75,24.0625,25.5625,25.5625,25.8125
