Tylouw/Master_Thesis_Code/training_data/batch_1/rect_rod_t0.1/sample_59_session_2.csv
timestamp[s],tcp_force_x[N],tcp_force_y[N],tcp_force_z[N],tcp_force_rx[Nm?],tcp_force_ry[Nm?],tcp_force_rz[Nm?],tcp_pose_x[m],tcp_pose_y[m],tcp_pose_z[m],tcp_pose_rx[rot_vec_x],tcp_pose_ry[rot_vec_y],tcp_pose_rz[rot_vec_z],tcp_velo_x[m/s],tcp_velo_y[m/s],tcp_velo_z[m/s],tcp_velo_rx[rot_vec_x/s],tcp_velo_ry[rot_vec_y/s],tcp_velo_rz[rot_vec_z/s],q1[rad],q2[rad],q3[rad],q4[rad],q5[rad],q6[rad],qd1[rad/s],qd2[rad/s],qd3[rad/s],qd4[rad/s],qd5[rad/s],qd6[rad/s],tool_acc_x,tool_acc_y,tool_acc_z,current_of_whole_robot[A],voltage_of_whole_robot[V],current_J1[A],current_J2[A],current_J3[A],current_J4[A],current_J5[A],current_J6[A],temp_J1[C],temp_J2[C],temp_J3[C],temp_J4[C],temp_J5[C],temp_J6[C]
8.2099996e-07,0.6553225,0.621997,1.3529774,-0.01912305,0.020062849,-0.018350368,-0.38935623,-0.36871383,0.060024653,-3.0787082,0.6249292,0.00025922697,0.00078245765,0.00049246993,-0.00086106185,0.00071908487,-0.0015132003,-6.121354e-05,0.5050208,-1.3816559,1.9041761,-2.0919034,-1.5708774,2.4800134,-0.00016280418,-5.7173575e-06,0.0020501728,-0.00037264978,0.00010641199,-0.00010254203,0.11492168,0.076614454,-8.619126,0.7284641,47.684196,-0.20797002,-3.063591,-2.213242,-0.21452463,0.11335256,0.0133415125,25.625,26.5,25.5,27.875,28.625,29.0625
0.002052857,0.3800755,0.49652037,1.1688315,-0.015176676,0.015100582,-0.013869479,-0.38933125,-0.36873907,0.060002107,-3.0787387,0.6248579,0.00017238734,-0.0010380548,-0.0005226695,-0.0009403411,-0.0031554287,0.005453099,-5.3978638e-05,0.5050568,-1.3816198,1.9041885,-2.0919201,-1.5708297,2.480001,-0.00015803946,-7.6705646e-08,0.0046148943,-0.010914285,0.00010753482,-0.0001049465,0.038307227,0.11492168,-8.561666,0.7396539,47.655537,-0.19620186,-2.9429336,-2.3461428,-0.14202598,0.11419882,0.011522628,25.625,26.5,25.5,27.875,28.625,29.0625
0.004052073,0.3993013,0.44024852,1.246145,-0.00985314,0.011087614,-0.014783156,-0.38934997,-0.36872196,0.06000894,-3.0787148,0.6249113,0.00023571689,-0.0011544778,-0.0005911965,-0.002210356,-0.0022775868,0.0038601826,-5.086585e-05,0.50503284,-1.3816308,1.9041885,-2.0919316,-1.5708655,2.4800134,-0.00015354568,0.0029184376,0.004215751,-0.011614873,0.000107643085,-0.000102860875,0.1340753,0.1340753,-8.599973,0.7329411,47.66271,-0.19534546,-3.298032,-2.6008704,-0.062925935,0.13306339,0.00022168917,25.625,26.5,25.5,27.875,28.625,29.0625
0.006051849,0.62146735,1.2827165,1.2431798,-0.0026808595,-0.0012528029,-0.024177793,-0.3893494,-0.36872163,0.06000904,-3.0786986,0.62498444,0.00023328459,-0.00024976933,-8.974942e-05,-0.0016602307,-0.00047971072,0.00063519983,-4.897289e-05,0.50503284,-1.381631,1.904188,-2.0919287,-1.5708655,2.480061,-0.00014930047,0.002131112,0.0024857463,-0.0054052724,0.000105299274,-0.000100582074,0.15322891,0.21068975,-8.504205,0.7642693,47.707485,-0.19733533,-3.2808542,-2.543069,-0.10563271,0.13131937,0.0063353246,25.625,26.5,25.5,27.875,28.625,29.0625
0.008051878,1.6477448,1.9189925,0.90439504,0.026651245,-0.0021926132,-0.025902007,-0.3893423,-0.36873555,0.060000632,-3.0787425,0.6249552,0.00018475245,8.729142e-05,9.681063e-05,-0.00048407124,-0.0002800786,0.0002912543,-4.7427013e-05,0.50503284,-1.3816198,1.904199,-2.0919516,-1.5708174,2.4800372,-0.00014528357,6.864186e-05,0.0014542626,-0.0019137016,0.00010290269,-9.838423e-05,0.019153614,0.24899697,-8.6574335,0.76874626,47.68062,-0.16168767,-3.1647935,-2.4290028,-0.1306613,0.13247973,0.012403727,25.625,26.5,25.5,27.875,28.625,29.0625
0.010052179,0.48593134,1.3125104,0.43820468,0.040409863,-0.028331416,-0.011164134,-0.3893146,-0.3687174,0.059979852,-3.0786934,0.6249646,7.124224e-05,0.0006865959,0.00043775584,-0.00051913917,0.00088575797,-0.0018007731,-6.134761e-05,0.5050208,-1.3816198,1.9042352,-2.091903,-1.5708054,2.4800372,-0.00015697791,9.209181e-07,0.0009386462,0.0010645832,0.00010060287,-9.627931e-05,0.019153614,0.15322891,-8.887277,0.69041777,47.67166,-0.6692699,-2.6153364,-2.8802533,-0.1687889,0.11101966,-0.05749932,25.625,26.5,25.5,27.875,28.625,29.0625
0.012052474,0.49398562,0.30823082,0.26352456,0.00087198796,0.009515979,-0.019906474,-0.38932347,-0.3687204,0.059986163,-3.0786908,0.624964,0.00012501433,0.00047800687,0.00048730502,-0.0028257382,0.003036536,-0.0056919833,-0.00029703762,0.5050327,-1.3816183,1.9042219,-2.0919154,-1.5708297,2.4800491,-0.00043788506,0.0056891856,-0.0006000165,0.0013610275,9.840303e-05,-0.00013998714,0.05746084,0.17238252,-9.11712,0.8224646,47.668976,-0.87566435,-2.5051353,-3.0623293,-0.15554717,0.11350103,-0.11085603,25.625,26.5,25.5,27.875,28.625,29.0625
0.014051911,-0.0966052,-0.44847178,0.10650652,-0.03838972,0.029111985,-0.021095999,-0.3893307,-0.36870906,0.059968688,-3.078644,0.6248967,0.000102537226,-0.0053914045,0.003368267,-0.003448121,0.0033422098,-0.0062665925,-0.0022803056,0.50502914,-1.3815675,1.9041961,-2.091891,-1.5708655,2.4800096,-0.010779478,0.01191557,-0.0066455402,0.0018295004,9.629702e-05,-0.008494897,-0.038307227,0.1340753,-9.385271,0.7396539,47.691364,-0.42732474,-3.1327586,-2.9138827,-0.14761283,0.13202035,-0.122555904,25.625,26.5,25.5,27.875,28.625,29.0625
0.01605201,-1.2934757,-1.3424358,-0.12201189,-0.048178136,0.039664026,-0.017906142,-0.38933125,-0.3686992,0.059948754,-3.0786343,0.62483394,3.2923297e-05,-0.00606266,0.0038506007,-0.0033561517,0.003219405,-0.0060449233,0.004777006,0.5050046,-1.3815314,1.9041961,-2.0918791,-1.5708536,2.479947,-0.01221784,0.012002208,-0.0069485554,0.0017912255,9.4279625e-05,-0.01699043,-0.24899697,0.22984336,-9.519346,0.7620334,47.716442,-0.46283865,-3.033459,-2.965747,-0.15259263,0.13581568,-0.02257052,25.625,26.5,25.5,27.875,28.625,29.0625
0.018052068,-1.0646993,-0.8302106,-0.08474303,-0.06438518,0.0700805,-0.04127648,-0.38932297,-0.36868498,0.05993112,-3.0786097,0.6248471,-3.524221e-05,-0.0057411133,0.0036182762,-0.0028561112,0.002807082,-0.005331348,0.0077090156,0.5049809,-1.3815198,1.90422,-2.0918677,-1.5708417,2.4799347,-0.011535084,0.010739697,-0.0066194967,0.0019005089,0.000109582594,-0.01924006,-0.45968673,0.3256114,-9.5385,0.7911258,47.690468,-0.6722566,-2.8377495,-3.1906197,-0.14698538,0.13312459,-0.025224302,25.625,26.5,25.5,27.875,28.625,29.0625
0.020052142,-1.2188435,0.15797855,-0.24696517,-0.045321055,0.07967647,-0.06623865,-0.38933328,-0.36868352,0.05992566,-3.07859,0.62486243,-6.570366e-05,-0.0058654426,0.0037404743,-0.0026299774,0.0032002188,-0.006088883,0.0071570626,0.5049688,-1.3814838,1.9041842,-2.0918424,-1.5708417,2.4799347,-0.011871807,0.010959939,-0.0078073028,0.0037212004,0.00013313028,-0.019024545,-0.47884035,0.3256114,-9.595961,0.7463667,47.690468,-0.8683709,-2.6395302,-3.3869863,-0.14430705,0.12875687,-0.04169091,25.625,26.5,25.5,27.875,28.625,29.0625
0.02205214,-0.97364664,0.54396677,-0.33424485,-0.021752346,0.07851056,-0.08845834,-0.38935754,-0.36867067,0.05992312,-3.0785685,0.6249183,-5.496528e-05,-0.0074179163,0.0044778897,-0.0035987936,0.0040028333,-0.00824361,0.0025685062,0.5049319,-1.3814583,1.9041599,-2.0918424,-1.5708536,2.4799354,-0.014777222,0.014794686,-0.0103577245,0.0047097798,0.00046980262,-0.01734041,-0.51714754,0.28730422,-9.749189,0.7530795,47.687782,-0.8450761,-2.7152333,-3.403977,-0.16007906,0.1409325,-0.08214352,25.625,26.5,25.5,27.875,28.625,29.0625
0.02405236,-1.54776,0.22338527,-0.47459465,-0.015567822,0.057114244,-0.097030155,-0.38935718,-0.36867446,0.059902642,-3.0785906,0.6248461,-0.00016183165,-0.009000477,0.003424604,-0.0033087067,0.0010722178,-0.007963261,0.0017707195,0.5049076,-1.3814095,1.9041461,-2.0918305,-1.570804,2.4798632,-0.015997058,0.017211342,-0.013706637,0.003970989,0.0028889829,-0.01776476,-0.7278373,0.24899697,-9.768343,0.7709874,47.681515,-0.9029369,-2.7686121,-3.3241415,-0.14211884,0.13246569,-0.10666322,25.625,26.5,25.5,27.875,28.625,29.0625
0.02605182,-0.9994356,-0.11962722,-0.4650154,-0.021786302,0.075281486,-0.11497126,-0.3893852,-0.36867985,0.059899677,-3.078603,0.6248688,-0.00016024231,-0.009896132,0.0032418252,-0.0033558037,-0.0007366291,-0.0077446904,0.00027661113,0.50488305,-1.381361,1.9040984,-2.091843,-1.5707921,2.4798512,-0.01744625,0.01811815,-0.014375244,0.00266142,0.004361949,-0.01772174,-0.8236054,0.19153613,-9.787497,0.7732232,47.72092,-0.8153381,-2.8027306,-3.311767,-0.13110138,0.10170527,-0.08468102,25.625,26.5,25.5,27.875,28.625,29.0625
0.028051844,-1.8875302,-0.30178186,-0.50848085,-0.034546454,0.076867245,-0.121057145,-0.38938138,-0.36866263,0.05987386,-3.0785463,0.62497306,-0.0003120703,-0.010830512,0.0033976678,-0.003291706,-0.0004549317,-0.0069264662,-0.001198551,0.50483495,-1.3813127,1.9040865,-2.0917833,-1.5707558,2.4798753,-0.018178783,0.019094724,-0.015600876,0.0023338394,0.0037144264,-0.016977686,-0.842759,0.17238252,-9.825804,0.85826975,47.716442,-0.887326,-2.7076454,-3.3868692,-0.12284723,0.10318832,-0.11500079,25.625,26.5,25.5,27.875,28.625,29.0625
0.030052004,-1.7395589,-0.21868835,-0.4401878,-0.03641261,0.10124229,-0.12682448,-0.38939413,-0.36863098,0.059842966,-3.078464,0.62486035,-0.00029642467,-0.011622079,0.0034894054,-0.0026902906,-0.0004096452,-0.0053701065,-0.002493507,0.50482273,-1.3812528,1.904086,-2.0917833,-1.5708407,2.4798033,-0.018576771,0.018858727,-0.016688107,0.002318403,0.002918899,-0.016079066,-0.80445176,0.19153613,-9.864111,0.7351769,47.711063,-0.88979113,-2.700241,-3.3362427,-0.1004456,0.10895241,-0.13874838,25.625,26.5,25.5,27.875,28.625,29.0625
0.032051872,-1.3020267,0.34663793,-0.29047325,-0.0144535415,0.11879291,-0.14049965,-0.3894092,-0.3686532,0.05984974,-3.078554,0.624899,-0.00035127482,-0.01281586,0.003908825,-0.0023408325,0.00041797204,-0.0051170937,-0.0043561505,0.5047865,-1.3812404,1.9040612,-2.0918067,-1.5707453,2.4797797,-0.01986924,0.019969303,-0.019141773,0.0038450703,0.0020709494,-0.015506236,-0.6895301,0.019153614,-9.749189,0.7553206,47.67614,-0.9381696,-2.7410748,-3.3351545,-0.12969658,0.1315913,-0.16839018,25.625,26.5,25.5,27.875,28.625,29.0625
0.034052234,-0.91378015,1.2793307,-0.34493548,0.004528476,0.10752089,-0.14300847,-0.389477,-0.36864036,0.059873257,-3.0785408,0.6249348,-0.00021908295,-0.013374628,0.0039917952,-0.0025059471,0.00051443407,-0.00586396,-0.00495666,0.50473833,-1.3812038,1.9039644,-2.0918067,-1.5708045,2.4797556,-0.020701975,0.02130613,-0.02051295,0.0045779487,0.0023470554,-0.015738124,-0.61291564,0.019153614,-9.730036,0.80456203,47.698532,-0.92967266,-2.6567802,-3.3901024,-0.12876102,0.117166266,-0.19034529,25.625,26.5,25.5,27.875,28.625,29.0625
0.036052737,-0.77483624,1.0180889,-0.46682337,0.026655572,0.08611071,-0.12995896,-0.389504,-0.36863112,0.059866387,-3.0785458,0.62495464,-0.00023165297,-0.014568008,0.003570289,-0.0018537313,-0.0014815247,-0.004388821,-0.005058707,0.5046901,-1.3811678,1.9039401,-2.091818,-1.5707926,2.4797192,-0.021748675,0.021586549,-0.022117546,0.003642216,0.0033746862,-0.016683776,-0.63206923,-0.1340753,-9.730036,0.800085,47.703007,-0.95782334,-2.625744,-3.321637,-0.12777033,0.10687523,-0.17825854,25.625,26.5,25.5,27.875,28.625,29.0625
0.03805188,-0.8360724,0.6009597,-0.428359,0.022582475,0.06158839,-0.12117816,-0.38952324,-0.36862472,0.059832156,-3.078517,0.62494886,-0.00031623986,-0.015977865,0.003384149,-0.001295599,-0.0033698315,-0.002936751,-0.0049469136,0.5046536,-1.3810714,1.9039043,-2.0918186,-1.5707802,2.4796827,-0.023341348,0.022029791,-0.023669248,0.0025633343,0.0043179365,-0.018389337,-0.47884035,-0.038307227,-9.653421,0.76874626,47.683304,-0.88586,-2.6869252,-3.275856,-0.10882801,0.10140129,-0.19819155,25.625,26.5,25.5,27.875,28.625,29.0625
0.040051784,-0.63890916,0.039141614,-0.51453054,0.010882955,0.056448344,-0.11543703,-0.38957366,-0.36861855,0.059859477,-3.0785437,0.6250322,-0.00029676536,-0.01773817,0.0037579066,-0.0010189622,-0.003885484,-0.0019711687,-0.006130094,0.50458086,-1.381059,1.9038194,-2.0917833,-1.5707558,2.4796586,-0.025600538,0.02333673,-0.02577727,0.0022706497,0.0042975396,-0.01946405,-0.36391866,-0.038307227,-9.691729,0.76874626,47.664497,-0.89018434,-2.6979718,-3.2751055,-0.08721441,0.09410465,-0.19081882,25.625,26.5,25.5,27.875,28.625,29.0625
0.042051908,-0.12115814,0.31657168,-0.40742773,-0.004124689,0.0642711,-0.11995982,-0.38960856,-0.36859313,0.05983991,-3.078506,0.625043,-0.00030106277,-0.01910597,0.0036403958,-0.0004554036,-0.003912941,-0.00037850527,-0.0059880833,0.5045209,-1.3809986,1.9037951,-2.0917947,-1.5707806,2.4796102,-0.026210545,0.024355087,-0.028283589,0.002353582,0.0035457134,-0.02021365,-0.30645782,-0.11492168,-9.557653,0.7642693,47.666286,-0.8812692,-2.7070901,-3.2617211,-0.06317805,0.11783764,-0.21190074,25.625,26.5,25.5,27.875,28.625,29.0625
0.044052612,-0.5401825,0.49356124,-0.3451554,-0.0123663,0.051164273,-0.124480754,-0.38964197,-0.368608,0.059855144,-3.0785596,0.62503535,-0.0003239382,-0.01911109,0.0042671724,-0.0008378511,-0.0024850292,-0.0028206862,-0.006222591,0.5044846,-1.380962,1.9037117,-2.09177,-1.5707325,2.4795623,-0.027227506,0.025521606,-0.02942904,0.0051619713,0.0034804498,-0.020995554,-0.11492168,-0.05746084,-9.519346,0.75755644,47.657326,-0.86289287,-2.7360435,-3.208828,-0.08822708,0.10877816,-0.2118943,25.625,26.5,25.5,27.875,28.625,29.0625
0.046052907,-0.18581401,0.060273845,-0.46596575,0.0036115476,0.043318458,-0.115582995,-0.3897218,-0.36857834,0.059855178,-3.0784948,0.6251178,-0.00020903531,-0.019940183,0.0046167155,-0.00071202125,-0.0028710095,-0.0031625598,-0.006584732,0.5044121,-1.3808779,1.9036149,-2.0917823,-1.5708159,2.4795496,-0.028899573,0.026148966,-0.030609474,0.0058243074,0.003982637,-0.022305762,-0.15322891,0.05746084,-9.519346,0.77545905,47.691364,-0.8913802,-2.6502757,-3.247958,-0.09841279,0.09525563,-0.23284942,25.625,26.5,25.5,27.875,28.625,29.0625
0.048052102,0.14476241,0.38832211,-0.41132402,-0.012033027,0.03819873,-0.1282709,-0.3897273,-0.36858904,0.059849493,-3.0785239,0.62512237,-0.00030056227,-0.020760022,0.005216927,-0.00086028245,-0.0032232525,-0.0031090213,-0.0064831045,0.5043875,-1.3808417,1.9035796,-2.091758,-1.5707558,2.4795241,-0.03084897,0.026565911,-0.030625716,0.005206792,0.0042624474,-0.024357248,-0.13407528,0.19153613,-9.500193,0.82022345,47.667187,-0.8882201,-2.6004987,-3.2959266,-0.09293929,0.10390939,-0.23872495,25.625,26.5,25.5,27.875,28.625,29.0625
0.050051697,0.33709466,-0.08453246,-0.33769608,-0.017762039,0.030722221,-0.121566914,-0.38977867,-0.36856034,0.05984175,-3.0785058,0.62521493,-0.0002997891,-0.021966629,0.005284759,-0.00055054016,-0.0039668023,-0.0021980996,-0.006287629,0.5042912,-1.3807933,1.9035429,-2.0917704,-1.5707558,2.479488,-0.03221515,0.027329516,-0.032143176,0.0048034107,0.004468481,-0.025918484,0.0,0.24899697,-9.461885,0.8247004,47.704796,-0.8484367,-2.5813956,-3.3692718,-0.082144365,0.10535154,-0.24970725,25.625,26.5,25.5,27.875,28.625,29.0625
0.052051723,0.09335217,-0.6386938,-0.4969508,-0.02116061,0.01780232,-0.11762907,-0.38983247,-0.36853835,0.059852865,-3.0784965,0.62521225,-0.00025899042,-0.023588786,0.005262462,0.00044481995,-0.0044996226,0.00018663744,-0.005539928,0.5042191,-1.3807572,1.9034694,-2.0917466,-1.5707802,2.4794154,-0.0332573,0.02752871,-0.03463264,0.004750382,0.0037771498,-0.027706008,0.019153614,0.22984336,-9.404425,0.78217715,47.687782,-0.8175527,-2.5635037,-3.2864168,-0.0804215,0.12455432,-0.254932,25.625,26.5,25.5,27.875,28.625,29.0625
0.054051846,0.14302182,-0.40427554,-0.4308601,-0.031520776,0.014384369,-0.113625385,-0.38988185,-0.3685519,0.05986623,-3.0785515,0.625243,-0.00029302426,-0.024659155,0.005816031,0.0005228768,-0.0039226804,5.253056e-05,-0.0052607004,0.50415856,-1.3806969,1.9033622,-2.0917222,-1.5707206,2.479367,-0.03490853,0.028627545,-0.036338616,0.0057571093,0.00333565,-0.029634854,0.019153614,0.2681506,-9.557653,0.7620334,47.653748,-0.7868749,-2.5004532,-3.2399406,-0.06893892,0.12341447,-0.2504356,25.625,26.5,25.5,27.875,28.625,29.0625
0.056052305,0.07397103,-0.8148274,-0.42057347,-0.026327066,0.021885287,-0.117179334,-0.38993937,-0.36852765,0.059870858,-3.0785363,0.6252967,-0.00021452564,-0.025674768,0.006275776,0.00073026994,-0.0039665783,0.00022976873,-0.0055937786,0.5040863,-1.3806605,1.903314,-2.0917456,-1.5707563,2.4793303,-0.036596034,0.029221162,-0.03763174,0.006279503,0.0032877561,-0.030988516,-0.05746084,0.2681506,-9.442732,0.7530795,47.70211,-0.80834126,-2.4540784,-3.2897377,-0.07752399,0.119468614,-0.2588965,25.625,26.5,25.5,27.875,28.625,29.0625
0.058052503,-0.1931575,-0.52227116,-0.33870178,-0.032704942,0.02516122,-0.11816803,-0.39000165,-0.36850983,0.05988417,-3.078545,0.62533545,-0.0002135695,-0.025475958,0.0056304596,0.00043094312,-0.004259298,-0.0005981812,-0.00352385,0.50399077,-1.380612,1.9032182,-2.0917094,-1.5707444,2.4792578,-0.035728466,0.03048115,-0.03848008,0.006449731,0.003942751,-0.03219142,-0.05746084,0.24899697,-9.5385,0.8023209,47.66808,-0.81677663,-2.4715993,-3.212407,-0.073723376,0.12999907,-0.26713437,25.625,26.5,25.5,27.875,28.625,29.0625
0.06005256,-0.34361196,-0.66611916,-0.070684195,-0.02961789,0.027717087,-0.111979134,-0.3900426,-0.36850864,0.059871998,-3.078547,0.62533534,-0.00024164423,-0.026368879,0.0055934205,0.000627959,-0.0053467597,-0.00052265445,-0.0032816,0.50394243,-1.3805277,1.9031461,-2.0917094,-1.5707315,2.4792092,-0.037065107,0.031234713,-0.03982037,0.0064424113,0.004854933,-0.033771254,-0.114921674,0.30645782,-9.461885,0.8090337,47.705692,-0.88390946,-2.4709744,-3.3092856,-0.060278457,0.12435229,-0.27563387,25.625,26.5,25.5,27.875,28.625,29.0625
0.062051717,-0.42796975,-0.38800827,-0.11092857,-0.030566966,0.027130561,-0.114547856,-0.39010853,-0.36849934,0.05988837,-3.078572,0.62537926,-0.00020942105,-0.02783072,0.0058383355,0.0008565094,-0.006195714,-0.00060051435,-0.0050046346,0.50385785,-1.3804791,1.9030489,-2.091698,-1.5707196,2.4791489,-0.039321277,0.0326099,-0.042093314,0.006996425,0.005633654,-0.03430442,-0.13407528,0.24899697,-9.308656,0.7418897,47.687782,-0.8055669,-2.4691105,-3.247672,-0.06919329,0.12463849,-0.286445,25.625,26.5,25.5,27.875,28.625,29.0625
0.064051785,-0.24019778,-0.26168242,0.10108525,-0.02104993,0.034376886,-0.115439236,-0.39017653,-0.36849853,0.059895776,-3.0785995,0.6253654,-0.00019430899,-0.028862288,0.0059901057,0.0012387331,-0.006608687,0.00058927597,-0.0048937644,0.50378555,-1.3803948,1.9029297,-2.091686,-1.5707077,2.4790645,-0.04039784,0.032901097,-0.043217484,0.0065896674,0.0054183146,-0.035490833,-0.05746084,0.28730422,-9.308657,0.80679786,47.68062,-0.8214233,-2.435628,-3.2369552,-0.08580771,0.11834812,-0.3131837,25.625,26.5,25.5,27.875,28.625,29.0625
0.06605259,0.41844317,0.3284275,0.13557981,-0.026330095,0.05693864,-0.12350468,-0.39022365,-0.3684721,0.0598912,-3.0785854,0.62536216,-0.00025037714,-0.0295732,0.0057709045,0.0012627684,-0.0071238815,0.00084183656,-0.004217782,0.50368965,-1.3803344,1.9028577,-2.0916378,-1.5706958,2.4789684,-0.0408899,0.03403272,-0.044551633,0.006322093,0.005742906,-0.036658872,-0.21068975,0.2681506,-9.32781,0.800085,47.723602,-0.8678272,-2.4092429,-3.2929683,-0.07774289,0.11071243,-0.311795,25.625,26.5,25.5,27.875,28.625,29.0625
0.06805238,-0.041221883,0.5102957,0.25328377,-0.020926567,0.054059245,-0.12653306,-0.39027032,-0.36845338,0.059871618,-3.0785487,0.6253338,-0.0002695269,-0.030670635,0.0060308846,0.0017185743,-0.007445867,0.0018663681,-0.0038827115,0.50362945,-1.3802382,1.9027857,-2.091626,-1.5707196,2.4788952,-0.0422109,0.034281142,-0.045895845,0.0063654054,0.005526157,-0.038314205,-0.17238252,0.19153613,-9.308656,0.78217715,47.7245,-0.8682391,-2.4239085,-3.3311355,-0.053284004,0.12311043,-0.33752328,25.625,26.5,25.5,27.875,28.625,29.0625
0.070052475,-0.6552442,0.26442483,0.13992836,-0.0014905203,0.046486083,-0.12116926,-0.39035484,-0.36846986,0.059902906,-3.0786676,0.62537664,-0.00021498684,-0.031684086,0.0057396586,0.0019859956,-0.008761282,0.0022791373,-0.0029058978,0.5035332,-1.3801899,1.9026655,-2.0916617,-1.5706471,2.4788105,-0.04325052,0.035296593,-0.047646683,0.006104467,0.00647906,-0.04033068,-0.21068975,0.11492168,-9.289502,0.7396539,47.693153,-0.84935164,-2.3813486,-3.2481413,-0.06351344,0.11604376,-0.3571921,25.625,26.5,25.5,27.875,28.625,29.0625
0.07205263,-0.48216888,0.30574858,0.20030235,0.0053742076,0.0517766,-0.11908901,-0.39041796,-0.3684663,0.059914686,-3.0786848,0.62538064,-0.00021205602,-0.032680433,0.0059224153,0.0018438615,-0.008957439,0.0020434316,-0.0031102733,0.5034608,-1.3801173,1.9025449,-2.0916264,-1.5706352,2.4787385,-0.04465691,0.036825124,-0.04915364,0.0061947103,0.006762337,-0.041532222,-0.22984336,0.11492168,-9.232041,0.83813137,47.657326,-0.8273239,-2.394217,-3.299738,-0.06760374,0.09042782,-0.34530205,25.625,26.5,25.5,27.875,28.625,29.0625
0.07405167,-0.34633157,0.5806688,0.2204424,-1.9112857e-05,0.061823018,-0.119448245,-0.3904765,-0.36845055,0.059914563,-3.0787017,0.6254224,-0.00022406697,-0.033076838,0.0060371277,0.0014675097,-0.008315556,0.0013528193,-0.0034543585,0.5033649,-1.3800566,1.9024733,-2.091626,-1.5706114,2.4786665,-0.045069814,0.03833283,-0.05018164,0.0066320826,0.006532989,-0.0416,-0.2681506,0.076614454,-9.289503,0.7933669,47.65912,-0.91956645,-2.3887186,-3.2527108,-0.046903424,0.09415382,-0.38067046,25.625,26.5,25.5,27.875,28.625,29.0625
0.07605224,-0.4431455,0.8840837,0.21740046,0.0032641888,0.062498607,-0.122322604,-0.3905284,-0.3684233,0.05988976,-3.078682,0.6254556,-0.00030597564,-0.034235194,0.007525568,0.0008691325,-0.0072197164,0.00012483643,-0.0031953196,0.50325584,-1.3799601,1.9024128,-2.091614,-1.5705875,2.4785807,-0.048416026,0.039673552,-0.050554898,0.0072723296,0.0061639077,-0.045204673,-0.38307226,-0.05746084,-9.251195,0.7978386,47.664497,-0.79616594,-2.4028115,-3.326177,-0.04790929,0.08606444,-0.37067163,25.625,26.5,25.5,27.875,28.625,29.0625
0.07805231,-0.7517032,0.58685684,0.09968105,0.011632987,0.05879251,-0.11483304,-0.3906176,-0.36841416,0.059908103,-3.0787172,0.62534606,-0.00022493064,-0.035763536,0.0066997795,0.0016679183,-0.008153881,0.0014288928,-0.0013913906,0.50317216,-1.3798755,1.9022683,-2.0916016,-1.5706114,2.4784243,-0.048556693,0.04147429,-0.054668244,0.007990992,0.006348409,-0.047147393,-0.38307226,-0.019153614,-9.251195,0.76874626,47.653748,-0.7629488,-2.3523827,-3.2001526,-0.056479592,0.086609796,-0.36984593,25.625,26.5,25.5,27.875,28.625,29.0625
0.08005248,-0.6950457,0.9794356,0.34238377,0.0020259535,0.065472424,-0.121020295,-0.3906697,-0.3684069,0.059906047,3.0787108,-0.62539935,0.00029370145,-0.03521569,0.006267337,0.0011921898,-0.008021725,0.00063158874,0.0042957924,0.5030888,-1.3797909,1.902162,-2.0915534,-1.5705751,2.478375,-0.047478978,0.04223444,-0.054436684,0.007763355,0.006615541,-0.051757418,-0.38307226,0.0,-9.289502,0.78888994,47.64389,-0.94117236,-2.4103003,-3.183895,-0.058728725,0.09042168,-0.31654328,25.625,26.5,25.5,27.875,28.625,29.0625
0.08205193,-0.8300462,0.8768547,0.32484186,0.0077057965,0.06399319,-0.11108114,-0.39073825,-0.3683881,0.05991362,-3.0787091,0.625341,-0.0002424806,-0.036259767,0.0073469384,0.0005262558,-0.007310485,-0.00044918223,0.0025958596,0.5030159,-1.3797185,1.9020537,-2.0915296,-1.5706114,2.478266,-0.050196193,0.043869782,-0.054881427,0.007861609,0.0065134857,-0.052774034,-0.4405331,-0.095768064,-9.308656,0.7732232,47.677036,-0.82666767,-2.3583689,-3.4227047,-0.0778276,0.08401154,-0.30891556,25.625,26.5,25.5,27.875,28.625,29.0625
0.084051825,-0.5135953,0.7480573,0.3311759,0.006471922,0.0702624,-0.11959596,-0.39084828,-0.36838815,0.059951667,3.0786335,-0.6253449,0.00016387882,-0.03784345,0.007876204,0.0007049155,-0.007228515,-3.5974663e-05,0.0026256647,0.5028835,-1.3796576,1.9018978,-2.0915415,-1.5705632,2.4781456,-0.052378513,0.045279615,-0.05705955,0.008312072,0.0062448164,-0.054984007,-0.4213795,0.0,-9.308657,0.8560339,47.661808,-0.8886302,-2.5105295,-3.3248706,-0.062034853,0.09763742,-0.31947428,25.625,26.5,25.5,27.875,28.625,29.0625
0.08605236,-0.5251597,0.7181205,0.23010294,-0.0030319418,0.06484944,-0.13043505,-0.39089137,-0.36835277,0.05990953,3.0787234,-0.6252649,0.00023865997,-0.04003464,0.0077056037,0.0018972273,-0.008502692,0.0023440951,0.0053201984,0.50279903,-1.3795375,1.9018487,-2.0915296,-1.5705875,2.478,-0.054098327,0.0460667,-0.060757127,0.008522901,0.0062020863,-0.059397217,-0.36391866,0.05746084,-9.270349,0.76874626,47.703903,-0.75737035,-2.366948,-3.1693919,-0.06334558,0.08989869,-0.27822036,25.625,26.5,25.5,27.875,28.625,29.0625
0.088052385,-0.37949622,0.5848599,0.35678068,-0.007481042,0.06934132,-0.12705483,-0.39098078,-0.36834058,0.059919585,3.078684,-0.6252923,0.0002371846,-0.038466044,0.0072741555,0.00056880485,-0.007159705,-0.000114396586,0.010774906,0.5026801,-1.3794408,1.9017061,-2.0915058,-1.5705632,2.4779031,-0.051909674,0.047453385,-0.059391238,0.008574324,0.006214542,-0.0626635,-0.47884035,0.019153614,-9.212888,0.800085,47.65643,-0.9558044,-2.4706588,-3.251937,-0.07029315,0.10224161,-0.25322476,25.625,26.5,25.5,27.875,28.625,29.0625
0.09005252,-0.73326546,0.41618952,0.20676185,-0.011874837,0.065164454,-0.115681,-0.39104265,-0.3683217,0.059900783,3.0787137,-0.62525886,0.00030781244,-0.03987932,0.007755173,0.00057007145,-0.0077846716,-0.00053831574,0.011447628,0.5025833,-1.3793201,1.9015979,-2.0914695,-1.5705513,2.4777818,-0.054489404,0.0489195,-0.061236534,0.009023073,0.0069602965,-0.06591653,-0.38307226,0.1340753,-9.232041,0.8537928,47.695843,-0.92937744,-2.3305445,-3.3175852,-0.085778356,0.07590558,-0.21239941,25.625,26.5,25.5,27.875,28.625,29.0625
0.092052564,-0.08071275,0.6260637,0.27670297,-0.023392104,0.08001692,-0.12463317,-0.3911324,-0.36830613,0.059927173,3.0786602,-0.6251886,0.00027349606,-0.04118198,0.007945528,0.0011349069,-0.008326924,0.00056235073,0.012311881,0.5024511,-1.3792721,1.9014782,-2.0914576,-1.570515,2.4776125,-0.055973276,0.049355205,-0.06308104,0.009210077,0.0069060773,-0.06826337,-0.38307226,0.19153613,-9.289502,0.78888994,47.635834,-0.8790802,-2.4590256,-3.311402,-0.1008351,0.071191646,-0.19310665,25.625,26.5,25.5,27.875,28.625,29.0625
0.09405257,-0.5448225,0.0822223,0.10030511,-0.022631677,0.06493473,-0.11670203,-0.39122757,-0.3682599,0.05991734,3.0786874,-0.62523156,0.00025103602,-0.041749023,0.00803369,8.6510416e-05,-0.0071863667,-0.000692575,0.013887215,0.5023075,-1.3791629,1.9013685,-2.0914452,-1.5705513,2.4774923,-0.056388427,0.05247194,-0.064343855,0.0090054935,0.0065070298,-0.0702523,-0.34476504,0.19153613,-9.346964,0.7239871,47.66271,-0.98518306,-2.4056945,-3.2617974,-0.08686569,0.08727867,-0.14331844,25.625,26.5,25.5,27.875,28.625,29.0625
0.09605215,-0.5692482,-0.08132655,0.18709108,-0.030829253,0.06299582,-0.11761659,-0.3912941,-0.3682644,0.059907667,3.0786786,-0.6251716,0.00033068255,-0.042490773,0.0082656965,6.7125424e-05,-0.007166184,-0.0006691163,0.014278457,0.50222313,-1.3790302,1.9012254,-2.0914094,-1.5705031,2.4773717,-0.057437208,0.05334996,-0.06537977,0.0091568995,0.006474431,-0.07169191,-0.2681506,0.22984336,-9.500193,0.75084364,47.677036,-0.9735133,-2.5881393,-3.2988052,-0.10130631,0.08869435,-0.10878623,25.625,26.5,25.5,27.875,28.625,29.0625
0.098052554,-0.3100524,-0.34546843,-0.0671172,-0.02271197,0.0628808,-0.117047995,-0.39138508,-0.3682247,0.05989797,3.078702,-0.6251378,0.00033210788,-0.043618467,0.007691746,0.0015701453,-0.009404462,0.0020104533,0.013620729,0.50207925,-1.3789228,1.9011177,-2.091398,-1.570515,2.4772038,-0.057920434,0.052106846,-0.06726504,0.008856872,0.007141756,-0.07151796,-0.21068975,0.24899697,-9.442732,0.82694155,47.67345,-0.93909764,-2.3507996,-3.3113413,-0.09236354,0.085825115,-0.09172298,25.625,26.5,25.5,27.875,28.625,29.0625
0.10005258,0.09789852,-0.1049791,0.058664825,-0.026689438,0.060370255,-0.12017382,-0.39150956,-0.36823192,0.059929825,3.078658,-0.6250902,0.00020689378,-0.044380635,0.008112372,0.0011298589,-0.008661747,0.0015626695,0.01177205,0.5019831,-1.378802,1.9009022,-2.091398,-1.570527,2.4770837,-0.059050787,0.053766567,-0.06825097,0.00893432,0.0067115473,-0.070797674,-0.095768064,0.2681506,-9.442732,0.8247004,47.705692,-1.0868254,-2.4057465,-3.327001,-0.083703235,0.084583804,-0.09606646,25.625,26.5,25.5,27.875,28.625,29.0625
0.102052495,-0.017954769,-0.007014619,0.100090854,-0.040523715,0.040307034,-0.115794696,-0.39157033,-0.3682092,0.059916902,3.0786474,-0.6250696,0.00032624032,-0.045257427,0.00827309,0.00022889716,-0.00795075,0.00064500724,0.010173811,0.5018511,-1.3787049,1.9008058,-2.0913503,-1.5704669,2.4769402,-0.060007446,0.05676374,-0.06965503,0.008493445,0.0065229014,-0.070155054,-0.1340753,0.30645782,-9.3661175,0.7933669,47.652847,-1.0015461,-2.4543946,-3.3552341,-0.10328433,0.08927839,-0.08324914,25.625,26.5,25.5,27.875,28.625,29.0625
0.10405176,-0.45374274,-0.4945925,-0.0002811416,-0.026291272,0.018330634,-0.11362983,-0.39170092,-0.36817792,0.05992593,3.078646,-0.6250307,0.00019311564,-0.045979887,0.008165635,5.284989e-05,-0.0079581505,0.00046842417,0.008688708,0.5017072,-1.3785841,1.9006504,-2.091386,-1.570515,2.4767723,-0.060537357,0.058400124,-0.07121484,0.008565213,0.006616663,-0.069198675,-0.05746084,0.2681506,-9.385271,0.80679786,47.66987,-1.1021922,-2.5119624,-3.3480284,-0.09774329,0.093113594,-0.09632856,25.625,26.5,25.5,27.875,28.625,29.0625
0.106052734,0.54941547,-0.32944474,-0.09212609,-0.025462335,0.033491794,-0.11114125,-0.39176738,-0.3681723,0.059907872,3.078635,-0.624972,0.00029677476,-0.047341645,0.008143072,0.0014371399,-0.010019874,0.0028072714,0.005658714,0.5015989,-1.3784525,1.9005302,-2.0913618,-1.5704554,2.4766288,-0.062170807,0.0570607,-0.07274636,0.00839612,0.0072941273,-0.06780299,-0.019153614,0.28730422,-9.308656,0.75755644,47.67345,-1.1138176,-2.3520656,-3.3186603,-0.09138487,0.08779268,-0.11672726,25.625,26.5,25.5,27.875,28.625,29.0625
0.10805208,0.56856453,-0.14945179,-0.2696694,-0.029279456,0.022015052,-0.1128039,-0.39188635,-0.36815223,0.059925165,3.078609,-0.6249866,0.00025585617,-0.04804236,0.008401697,0.00053959945,-0.00943808,0.0013096011,0.002756002,0.50145483,-1.3783315,1.9003395,-2.0913265,-1.5704554,2.4764972,-0.06336864,0.059808336,-0.07398353,0.008478502,0.0075047724,-0.06609726,0.076614454,0.2681506,-9.423578,0.8157518,47.66987,-1.05428,-2.3861377,-3.3509712,-0.09343271,0.11617608,-0.14357099,25.625,26.5,25.5,27.875,28.625,29.0625
0.110052094,1.1325722,-0.22020365,-0.038577553,-0.026847716,0.029029964,-0.12003266,-0.39196151,-0.36813414,0.059913155,3.0786214,-0.62495226,0.0002977803,-0.04898349,0.00842672,0.00067527115,-0.009881947,0.0013255582,0.00019948126,0.50134665,-1.3782108,1.9002184,-2.0913022,-1.5704426,2.476366,-0.064505674,0.060937703,-0.0757236,0.008861825,0.007882521,-0.06467769,-0.019153614,0.30645782,-9.423578,0.8112748,47.67614,-1.1292753,-2.4271295,-3.362444,-0.110160455,0.08998723,-0.18128678,25.625,26.5,25.5,27.875,28.625,29.0625
0.11205217,0.40385383,-0.102012545,-0.05327917,-0.022045106,0.012586572,-0.10487162,-0.39207944,-0.36812222,0.059915654,3.0785632,-0.6249594,0.00025310117,-0.049881022,0.008936522,0.00046559708,-0.0098030595,0.001296804,-0.0025830066,0.5012024,-1.3780783,1.9000639,-2.091338,-1.5704187,2.4762337,-0.0661412,0.061936274,-0.076372266,0.00857763,0.007829619,-0.063529775,-0.038307227,0.22984336,-9.385271,0.7732232,47.668976,-1.0875282,-2.3804321,-3.329894,-0.087148055,0.10087146,-0.20675421,25.625,26.5,25.5,27.875,28.625,29.0625
0.11405263,0.29799834,0.1805971,-0.19748332,-0.017384648,0.013671385,-0.11210055,-0.39217362,-0.36810014,0.059909206,3.078564,-0.6250176,0.00030591147,-0.052147828,0.0076443097,0.002385591,-0.012730009,0.0047758017,-0.0032237894,0.50107056,-1.377934,1.8998941,-2.0912788,-1.5704068,2.476138,-0.066601865,0.062487353,-0.08140606,0.008601531,0.008713272,-0.063349135,0.038307227,0.19153613,-9.289502,0.8403672,47.690468,-1.1185775,-2.464546,-3.2470407,-0.10904902,0.0913043,-0.22326466,25.625,26.5,25.5,27.875,28.625,29.0625
0.11605296,0.5568044,0.4995372,-0.057930805,-0.015467062,0.025744798,-0.116830245,-0.39227805,-0.36808887,0.059924457,3.0785594,-0.6249394,0.00024010167,-0.051488396,0.008907658,-0.000106383515,-0.0097891195,-0.0006550117,-0.0048381016,0.50096226,-1.3778244,1.8997267,-2.091266,-1.5704187,2.4759817,-0.06812314,0.06614215,-0.08042301,0.010139655,0.008751707,-0.06325574,-0.019153614,0.19153613,-9.289502,0.83589023,47.65912,-1.1294185,-2.548584,-3.305252,-0.10935976,0.08962794,-0.2626343,25.625,26.5,25.5,27.875,28.625,29.0625
0.11805368,0.30452743,0.23538291,-0.18719247,-0.014228209,0.033784453,-0.11441509,-0.3923846,-0.36807543,0.059930988,3.078518,-0.62496763,0.0002638752,-0.052729003,0.008484801,0.0013979963,-0.011665444,0.002457781,-0.002266304,0.50081843,-1.377693,1.8995479,-2.0912297,-1.5703825,2.4758608,-0.06863133,0.064832516,-0.0821712,0.009570094,0.0088993125,-0.06633531,-0.019153614,0.30645782,-9.3661175,0.8224646,47.658226,-1.2109172,-2.4429765,-3.3444858,-0.10098334,0.08338521,-0.25536704,25.625,26.5,25.5,27.875,28.625,29.0625
0.12005229,-0.16226667,0.30627346,-0.3117276,-0.0139704915,0.037906982,-0.11775549,-0.3924998,-0.36803913,0.059919994,3.078501,-0.62504184,0.00026259906,-0.05475192,0.007474923,0.0031298897,-0.014364194,0.0052226903,-0.004529855,0.50065047,-1.3775488,1.899402,-2.0912297,-1.570382,2.4757414,-0.06942654,0.06519354,-0.08663206,0.009946259,0.009932188,-0.06486663,-0.1340753,0.24899697,-9.385271,0.78217715,47.63315,-1.2540399,-2.3696365,-3.1351094,-0.10898638,0.07836777,-0.27636445,25.625,26.5,25.5,27.875,28.625,29.0625
0.12205259,-0.23275144,0.007628871,-0.25282013,-0.006896041,0.05283199,-0.111382335,-0.39258447,-0.36804646,0.05992924,3.078467,-0.62491983,0.00027323648,-0.05352597,0.008236174,1.03337e-05,-0.011618928,-0.0010192193,-0.005356376,0.50055444,-1.3774389,1.899248,-2.0912178,-1.5703338,2.4755735,-0.06992852,0.06972335,-0.08507156,0.010651383,0.010527487,-0.06454259,-0.19153613,0.15322891,-9.461885,0.8224646,47.63852,-1.2261516,-2.5239499,-3.304895,-0.1349469,0.056693807,-0.33057144,25.625,26.5,25.5,27.875,28.625,29.0625
0.124052666,-0.4713803,0.07571327,-0.16113105,-0.02137146,0.06542913,-0.1153082,-0.39267537,-0.36803097,0.059902683,3.0784855,-0.62492144,0.00039549067,-0.055570718,0.008598334,0.0018619171,-0.01294484,0.0021904379,-0.0049145524,0.500422,-1.3772473,1.8990678,-2.0911577,-1.5702981,2.4754398,-0.07216868,0.06829036,-0.08774714,0.011313933,0.010142578,-0.06722402,-0.17238252,0.15322891,-9.500193,0.7597976,47.658226,-1.2802553,-2.4285698,-3.208912,-0.14795907,0.05912909,-0.35047618,25.625,26.5,25.5,27.875,28.625,29.0625
0.12605262,-0.6224661,-0.12680283,-0.16013119,-0.028608633,0.06656068,-0.112531304,-0.39280742,-0.36800566,0.059912395,3.0784147,-0.62502426,0.00036450088,-0.05601114,0.008221136,0.0017434679,-0.013338455,0.0015764469,-0.0071009886,0.50024223,-1.3771147,1.8988885,-2.0911577,-1.5702738,2.4753332,-0.07231558,0.06983041,-0.08942079,0.011797767,0.010784404,-0.06518407,-0.34476504,0.15322891,-9.461885,0.80456203,47.66271,-1.2326635,-2.4029102,-3.2267365,-0.15022637,0.04830098,-0.3964703,25.625,26.5,25.5,27.875,28.625,29.0625
0.12805177,-0.5321297,0.40224573,-0.16922824,-0.032601874,0.07781931,-0.11710657,-0.3929086,-0.36797398,0.059890557,3.0784674,-0.6249768,0.00038459213,-0.05604465,0.008238829,0.0012288259,-0.012403863,0.00074558426,-0.0070823864,0.50011057,-1.376946,1.8987325,-2.0911334,-1.5702981,2.4751654,-0.072094716,0.07126037,-0.09004115,0.012166783,0.010360792,-0.064981185,-0.4405331,0.22984336,-9.5385,0.80679786,47.640312,-1.4743463,-2.4121737,-3.32314,-0.15567699,0.048975594,-0.45914948,25.625,26.5,25.5,27.875,28.625,29.0625
0.1300526,-0.43864173,-0.060786374,-0.34010887,-0.015182712,0.09214354,-0.115881376,-0.39301378,-0.36795893,0.059893917,3.0784366,-0.6250275,0.00043612497,-0.058421973,0.009491807,0.0017761169,-0.01339421,0.0019364358,-0.008812736,0.49996555,-1.3768018,1.8985404,-2.0910733,-1.5702618,2.475056,-0.07655616,0.07162532,-0.09167074,0.011915581,0.01065508,-0.06771213,-0.38307226,0.17238252,-9.500193,0.85826975,47.66987,-1.3603146,-2.3305604,-3.2933931,-0.1658248,0.06133462,-0.47297665,25.625,26.5,25.5,27.875,28.625,29.0625
0.13205254,-0.6921526,0.5754945,-0.3662917,-0.015176949,0.08863306,-0.11670661,-0.3931634,-0.36793447,0.059914835,3.078374,-0.6250693,0.00033822554,-0.058029704,0.009218546,0.0011714298,-0.012780956,0.0009089274,-0.0044930726,0.4997862,-1.376669,1.8983382,-2.0910857,-1.5702618,2.4749107,-0.0756819,0.072870314,-0.091798596,0.011997815,0.010616478,-0.07115639,-0.4213795,0.038307227,-9.481039,0.79560274,47.66271,-1.3164997,-2.3637667,-3.3316011,-0.18185046,0.039486457,-0.48314643,25.625,26.5,25.5,27.875,28.625,29.0625
0.1340517,-0.39886838,0.7863977,-0.32104403,-0.014758498,0.09604395,-0.123167396,-0.39325792,-0.3679354,0.05992203,3.078365,-0.6249307,0.00035978292,-0.06057927,0.008629633,0.0030270359,-0.014891085,0.0045166207,-0.0022120287,0.49967796,-1.376537,1.898157,-2.0910494,-1.5702256,2.4747171,-0.0770971,0.073195815,-0.09644671,0.012147873,0.010732266,-0.07485079,-0.38307226,0.05746084,-9.5385,0.8090337,47.647476,-1.3904276,-2.2965019,-3.190977,-0.1892688,0.038221274,-0.48015517,25.625,26.5,25.5,27.875,28.625,29.0625
0.13605231,-1.2218727,0.37920475,-0.20930675,-0.006827994,0.07817824,-0.11312915,-0.39341033,-0.3679152,0.05993243,3.078278,-0.62502503,0.00035306028,-0.06063707,0.009673253,0.0014785981,-0.013675178,0.0020337198,0.0034026133,0.49947375,-1.3763682,1.8979305,-2.091038,-1.5701779,2.474583,-0.07895208,0.07521315,-0.09522221,0.011677297,0.010862526,-0.08232024,-0.45968673,0.1340753,-9.404425,0.75084364,47.64121,-1.3501017,-2.3596601,-3.3458068,-0.17602198,0.040083997,-0.42375597,25.625,26.5,25.5,27.875,28.625,29.0625
0.1380524,-0.60883015,0.4196482,-0.394774,0.0019513237,0.086238936,-0.115073204,-0.3935088,-0.36791265,0.059915233,3.0782707,-0.6249073,0.00044308286,-0.062847845,0.009624306,0.0029140566,-0.015279791,0.0049657105,0.00496477,0.49934125,-1.3761878,1.8977503,-2.0910141,-1.5701178,2.4743779,-0.08088296,0.075193,-0.0984571,0.011598469,0.010859543,-0.08581228,-0.3256114,0.0,-9.461885,0.84708,47.647476,-1.2847507,-2.2594278,-3.3065195,-0.18742293,0.034810375,-0.41716918,25.625,26.5,25.5,27.875,28.625,29.0625
0.14005226,-1.019542,0.62333834,-0.10119843,-0.002354371,0.07423905,-0.11211363,-0.39364076,-0.36786672,0.059931416,3.0782938,-0.6249072,0.00036737346,-0.06424064,0.011076992,0.0021564409,-0.014007568,0.00451647,0.009672284,0.49917263,-1.3760673,1.8975595,-2.090966,-1.5701665,2.4742064,-0.08402137,0.07695019,-0.09871657,0.0111094415,0.009960934,-0.09365637,-0.36391866,-0.095768064,-9.519346,0.74413085,47.66271,-1.4154017,-2.2715344,-3.2306032,-0.18846518,0.014593696,-0.35753036,25.625,26.5,25.5,27.875,28.625,29.0625
0.14205232,-1.0060394,0.19801605,-0.2476561,0.0071617314,0.072574474,-0.10918864,-0.3937771,-0.3678336,0.059914414,3.078278,-0.62488276,0.0004187572,-0.065430224,0.010736555,0.0028729886,-0.014900359,0.005949308,0.013432302,0.49896887,-1.3758745,1.8973669,-2.090954,-1.5701302,2.4739895,-0.08457206,0.07755047,-0.10109477,0.011209628,0.0100559,-0.097966336,-0.45968673,-0.11492168,-9.423578,0.85155696,47.67345,-1.2976431,-2.316261,-3.2958097,-0.19735764,0.04929984,-0.2846134,25.625,26.5,25.5,27.875,28.625,29.0625
0.14405234,-0.85673404,0.5499109,-0.06711115,0.0028283156,0.07389683,-0.1083863,-0.39391452,-0.36781892,0.059938528,3.0782578,-0.6247984,0.0003223366,-0.06619668,0.0109482575,0.0025420352,-0.014577506,0.0056746555,0.016484115,0.49882498,-1.3757418,1.8971518,-2.0909421,-1.5701421,2.4737957,-0.08551411,0.07915962,-0.10224714,0.011151628,0.009910627,-0.10195862,-0.4405331,0.019153614,-9.519346,0.7777002,47.674347,-1.3890274,-2.262132,-3.2176228,-0.19709955,0.03145685,-0.23488188,25.625,26.5,25.5,27.875,28.625,29.0625
0.146052,-0.9035439,0.7786525,-0.07352073,0.0011216097,0.07509078,-0.11134966,-0.3940578,-0.36781144,0.059964947,3.07819,-0.6247088,0.00031266463,-0.06842995,0.013246319,0.0024153586,-0.014065379,0.00516602,0.014182352,0.4986432,-1.3755977,1.8969125,-2.090906,-1.5700821,2.4735665,-0.091270655,0.07992012,-0.10303659,0.011883082,0.009713168,-0.105412245,-0.4405331,0.05746084,-9.385271,0.83589023,47.719128,-1.1068256,-2.2595913,-3.2908003,-0.21252286,0.031809635,-0.1796028,25.625,26.5,25.5,27.875,28.625,29.0625
0.14805208,-0.24099082,0.7499155,-0.18463092,0.0042837257,0.08584167,-0.11587765,-0.39417663,-0.367769,0.05993427,3.078182,-0.62472427,0.00039276836,-0.06840648,0.012394946,0.001900868,-0.014573834,0.003947144,0.015567412,0.49844006,-1.3754168,1.8967675,-2.090906,-1.5700458,2.4733741,-0.09042641,0.082124785,-0.10452299,0.011994772,0.010738076,-0.10595378,-0.5554548,0.095768064,-9.404425,0.84708,47.647476,-1.3420333,-2.2960691,-3.3631957,-0.2281414,0.03790467,-0.14756157,25.625,26.5,25.5,27.875,28.625,29.0625
0.1500521,-0.49888572,0.5113435,-0.11666613,0.0015068568,0.07923764,-0.11269392,-0.39433035,-0.36774293,0.059954103,3.0781465,-0.6246996,0.0003484629,-0.07014749,0.013374151,0.002104335,-0.01439186,0.005003868,0.01126895,0.49824744,-1.3752602,1.8965286,-2.0908706,-1.5700339,2.4731708,-0.093223356,0.08288049,-0.105828874,0.011708489,0.010076276,-0.104450345,-0.51714754,0.11492168,-9.346964,0.8560339,47.703007,-1.2108353,-2.1897433,-3.3695178,-0.22749089,0.024634568,-0.14908703,25.625,26.5,25.5,27.875,28.625,29.0625
0.15205221,-0.6652586,0.1504969,-0.14062458,0.007673994,0.08088751,-0.1072107,-0.39445683,-0.36771622,0.059944924,3.0781455,-0.624625,0.00034784796,-0.0715035,0.0142816715,0.0019931723,-0.013544082,0.005139117,0.0055913175,0.4980792,-1.3750918,1.8963493,-2.0908701,-1.5700225,2.4729562,-0.0954597,0.08417715,-0.107214935,0.012087654,0.009266713,-0.10100731,-0.5363012,0.11492168,-9.32781,0.8179876,47.68062,-1.049032,-2.2399971,-3.3177428,-0.22742073,0.044180185,-0.1654294,25.625,26.5,25.5,27.875,28.625,29.0625
0.154052,-0.63461936,0.36760825,-0.25751847,-0.0002080062,0.07802015,-0.1050229,-0.39462113,-0.36769146,0.059953,3.078116,-0.62462175,0.0002935325,-0.07321977,0.0146700675,0.0014091657,-0.013664527,0.0046022,-0.0014636012,0.49788666,-1.3748982,1.8960985,-2.0908582,-1.5700225,2.4727654,-0.09787337,0.08730034,-0.10951774,0.011678825,0.009628116,-0.09636465,-0.4405331,0.038307227,-9.385271,0.8403672,47.66987,-1.0187204,-2.2566354,-3.3067303,-0.23117894,0.03606111,-0.2222153,25.625,26.5,25.5,27.875,28.625,29.0625
0.15605217,0.09754944,0.3418054,-0.12547834,-0.00862568,0.087841526,-0.11633769,-0.3947753,-0.3676515,0.05996746,3.0780787,-0.6246746,0.00027597413,-0.07467901,0.015560842,0.0024714433,-0.014940569,0.006518157,-0.0077975076,0.49767026,-1.3747427,1.8958701,-2.0908105,-1.5700101,2.4725869,-0.100795746,0.08568655,-0.10997809,0.011460455,0.009836696,-0.0929532,-0.40222588,0.095768064,-9.385271,0.86945957,47.66539,-0.9892782,-2.2212555,-3.3332891,-0.22048046,0.04186786,-0.28279147,25.625,26.5,25.5,27.875,28.625,29.0625
0.15805222,-0.15972808,0.17104512,0.012546503,-0.011126155,0.07525171,-0.11256434,-0.39491683,-0.36761868,0.05996432,3.078043,-0.62472486,0.00025885802,-0.07696758,0.0155208465,0.0036519247,-0.016110793,0.009324512,-0.009851445,0.49747786,-1.3745745,1.8956774,-2.0908105,-1.5699981,2.4724305,-0.10259533,0.08635534,-0.113410674,0.011203648,0.009522392,-0.092696816,-0.49799395,0.11492168,-9.308657,0.7933669,47.69763,-0.8225685,-2.1395195,-3.2817345,-0.24467528,0.03903819,-0.30867156,25.625,26.5,25.5,27.875,28.625,29.0625
0.16005239,-0.3543572,0.37726438,0.0016943554,-0.007914774,0.07202159,-0.11865586,-0.39508566,-0.36758682,0.059982534,3.078003,-0.62469625,0.00020503782,-0.07584422,0.016835349,-0.00012400364,-0.012516082,0.0026349649,-0.009724501,0.49726212,-1.3744043,1.8954285,-2.0907867,-1.5699862,2.472202,-0.10375877,0.091597,-0.111071326,0.011220803,0.009568299,-0.093986854,-0.40222588,0.21068975,-9.289502,0.8403672,47.668976,-0.9216554,-2.3918648,-3.423736,-0.22803922,0.034279063,-0.32242948,25.625,26.5,25.5,27.875,28.625,29.0625
0.16205256,-0.7231674,0.0805053,-0.057867322,0.0051029655,0.06503309,-0.0982577,-0.39521128,-0.36756656,0.059958793,3.0779362,-0.6247207,0.00035580673,-0.078316525,0.016344827,0.0023614347,-0.015127321,0.0068115434,-0.010465904,0.49704605,-1.3742006,1.895235,-2.0907624,-1.5698785,2.4720097,-0.1053435,0.09043959,-0.115522176,0.01192463,0.009862813,-0.09482937,-0.45968673,0.15322891,-9.32781,0.8157518,47.684196,-0.86669195,-2.1428208,-3.3665738,-0.2471146,0.04728259,-0.34439552,25.625,26.5,25.5,27.875,28.625,29.0625
0.16405256,-0.5459411,0.14844567,-0.101763725,0.005430959,0.07206931,-0.110527255,-0.3953893,-0.36752027,0.0599821,3.0779417,-0.6247397,0.00022686404,-0.07788895,0.01682447,0.0010132242,-0.013067908,0.004931001,-0.010646177,0.4968425,-1.3740318,1.8949732,-2.0907261,-1.5699385,2.4718175,-0.10515223,0.09239533,-0.114781566,0.011862504,0.008958136,-0.09445637,-0.34476507,0.1340753,-9.32781,0.80679786,47.683304,-0.9094231,-2.2665696,-3.4613106,-0.26329356,0.053085096,-0.36279595,25.625,26.5,25.5,27.875,28.625,29.0625
0.16605188,-0.14855619,0.4031188,-0.11157963,-0.003857681,0.07850029,-0.11462959,-0.39555547,-0.36747983,0.059986796,3.0779061,-0.6247496,0.0001964032,-0.07928164,0.016224202,0.0017323447,-0.014730901,0.006159701,-0.008782853,0.49661475,-1.3738512,1.8947452,-2.0907147,-1.5699261,2.4716005,-0.105917886,0.09348425,-0.117719814,0.011841349,0.009835445,-0.0970846,-0.21068975,0.076614454,-9.308657,0.85826975,47.694946,-0.92019695,-2.262429,-3.4305727,-0.25749314,0.053196725,-0.37665632,25.625,26.5,25.5,27.875,28.625,29.0625
0.16805203,-0.12432603,0.083177045,-0.16762428,-0.002913864,0.07007835,-0.10705125,-0.3956885,-0.3674467,0.059955012,3.0779138,-0.6247718,0.0002779297,-0.08065847,0.016452288,0.0018720786,-0.014500117,0.0068958225,-0.010852669,0.49642253,-1.3736224,1.8945402,-2.0906909,-1.5699023,2.4714212,-0.10717524,0.09502397,-0.11991718,0.011967323,0.0092747975,-0.096270986,-0.24899697,0.095768064,-9.193734,0.8605109,47.682407,-0.9794037,-2.2115688,-3.3559637,-0.26604083,0.047925785,-0.42378467,25.625,26.5,25.5,27.875,28.625,29.0625
0.17005202,-0.016161459,0.3072475,-0.3825655,-0.013678248,0.051635187,-0.10563732,-0.39589116,-0.3674169,0.059990287,3.0778377,-0.6247709,0.000108624656,-0.0814626,0.016970994,0.0015190556,-0.01387572,0.006626965,-0.00613632,0.49619484,-1.3734539,1.894265,-2.0907147,-1.5699147,2.4712029,-0.10847627,0.0964082,-0.12077739,0.011984312,0.008870838,-0.102286294,-0.19153613,0.24899697,-9.193734,0.80456203,47.66271,-1.0521716,-2.3486352,-3.3448915,-0.24549165,0.051875897,-0.40624937,25.625,26.5,25.5,27.875,28.625,29.0625
0.172052,0.3070524,0.005739234,-0.17410165,-0.031855132,0.047819715,-0.112012096,-0.39603788,-0.3673704,0.059972193,3.0778434,-0.62488306,0.00022006223,-0.082757115,0.015164822,0.003546107,-0.015673133,0.010435093,-0.00070729386,0.4959679,-1.3732255,1.8940128,-2.0906184,-1.5698909,2.4710453,-0.10643407,0.096402444,-0.1255245,0.012540742,0.008627489,-0.10567177,-0.21068975,0.34476504,-9.270349,0.7351769,47.696735,-1.0001086,-2.1962812,-3.1875663,-0.27320284,0.061628766,-0.37700644,25.625,26.5,25.5,27.875,28.625,29.0625
0.17405203,0.4485291,-0.35117722,-0.2393275,-0.033733312,0.049060866,-0.10823472,-0.39622018,-0.3673376,0.059981912,3.0777955,-0.62485176,0.00014999195,-0.082872614,0.017838582,-0.0001882544,-0.012344135,0.003740741,0.0014640328,0.49573895,-1.3730315,1.893763,-2.0906308,-1.5698789,2.470803,-0.11114784,0.10144814,-0.12304466,0.012495297,0.008903898,-0.11255675,-0.1340753,0.36391866,-9.289502,0.8605109,47.65643,-1.0431362,-2.417132,-3.445009,-0.29085043,0.06688227,-0.32236487,25.625,26.5,25.5,27.875,28.625,29.0625
0.17605218,-0.19640023,-0.40677068,-0.3372862,-0.025914023,0.029191421,-0.10428203,-0.39637223,-0.3673083,0.059984036,3.0778043,-0.62475187,0.00018946722,-0.08395694,0.016662471,0.0019216262,-0.014384849,0.007674384,0.00877669,0.4955358,-1.372828,1.8934997,-2.0905588,-1.5698546,2.4705365,-0.1100704,0.09988872,-0.12603173,0.012621204,0.008826408,-0.11879115,-0.076614454,0.38307226,-9.270349,0.7642693,47.66271,-1.0192437,-2.2218544,-3.17057,-0.27964437,0.08697031,-0.25402594,25.625,26.5,25.5,27.875,28.625,29.0625
0.17805229,0.10239465,-0.5825467,-0.2486878,-0.022388453,0.03677777,-0.10647027,-0.39654532,-0.36727256,0.05999103,3.0777457,-0.6247928,0.00018504437,-0.08508586,0.016904645,0.0010366,-0.013441492,0.0062310295,0.015279964,0.49529573,-1.3726343,1.893248,-2.0905344,-1.5698189,2.4703295,-0.11137209,0.10350928,-0.12846942,0.013170578,0.008690279,-0.12659428,0.0,0.30645782,-9.289502,0.90750587,47.686886,-1.012898,-2.306096,-3.3515573,-0.30870476,0.08098534,-0.15559033,25.625,26.5,25.5,27.875,28.625,29.0625
0.18005243,0.116775945,-0.5796017,-0.20642383,-0.015391778,0.039009057,-0.09995702,-0.39670604,-0.36722893,0.05996431,3.0777655,-0.6247205,0.00022699533,-0.08652104,0.01637641,0.0017574519,-0.015173307,0.0075429287,0.014124553,0.49506792,-1.3723938,1.89302,-2.090523,-1.569806,2.4700541,-0.11229924,0.1044925,-0.13126272,0.013003701,0.009583929,-0.12636583,-0.05746084,0.36391866,-9.270349,0.8157518,47.623295,-1.0120419,-2.3971603,-3.2414677,-0.2724566,0.092084154,-0.13188887,25.625,26.5,25.5,27.875,28.625,29.0625
0.18205243,0.10137609,-0.40861356,-0.32389414,-0.0111241555,0.036221124,-0.103931345,-0.3968741,-0.36720958,0.059969403,3.0777426,-0.6246783,0.00019782498,-0.08851471,0.017162569,0.0016810759,-0.015399855,0.0074767163,0.010723182,0.4948752,-1.372177,1.8927449,-2.0904987,-1.5697945,2.4698381,-0.115529425,0.10661252,-0.13369162,0.01326564,0.009816886,-0.12619331,0.019153614,0.28730422,-9.308657,0.8179876,47.675243,-0.9631624,-2.4163394,-3.1732235,-0.29677027,0.08490675,-0.114537165,25.625,26.5,25.5,27.875,28.625,29.0625
0.18405247,0.40574062,-0.10803152,-0.49838397,-0.014658873,0.03887061,-0.10366731,-0.39707002,-0.36720333,0.059995588,3.0776365,-0.6246179,0.00012902163,-0.087767474,0.0155186085,0.0013266427,-0.016039431,0.0068843756,0.009630064,0.49464875,-1.3719722,1.8924445,-2.090511,-1.569734,2.4695876,-0.112561755,0.10832221,-0.13486764,0.012952534,0.010671537,-0.12213142,-0.076614454,0.34476504,-9.3661175,0.82022345,47.67345,-1.1635087,-2.5007184,-3.1431212,-0.3003078,0.10610476,-0.14599028,25.625,26.5,25.5,27.875,28.625,29.0625
0.18602234,0.38261616,-0.5337262,-0.474602,-0.023785556,0.038727246,-0.10591553,-0.3972232,-0.36713585,0.059956226,3.077696,-0.6246341,0.0002468869,-0.08991219,0.016489116,0.0020095634,-0.017587645,0.0075224238,0.0010250768,0.4943958,-1.3717197,1.892217,-2.0904386,-1.5697335,2.4693372,-0.1167382,0.108615324,-0.13689233,0.0133824805,0.011717018,-0.11770407,-0.076614454,0.34476504,-9.308656,0.8179876,47.716442,-1.0108755,-2.3999538,-3.1049614,-0.30199346,0.10412526,-0.18252584,25.625,26.5,25.5,27.875,28.625,29.0625
0.18805236,0.07479688,-0.79893094,-0.41160947,-0.027527021,0.035826772,-0.09911162,-0.39738646,-0.36709452,0.059940413,3.0777261,-0.6245826,0.00022436668,-0.08976504,0.015713876,0.0020118514,-0.017106991,0.0077356184,-0.0015907532,0.49419293,-1.3714912,1.8919781,-2.0904267,-1.5697578,2.4690986,-0.11493058,0.10968746,-0.13827749,0.013733087,0.01119067,-0.113279566,-0.17238252,0.24899697,-9.32781,0.8157518,47.66987,-1.2513129,-2.4143949,-3.156403,-0.3235239,0.10185389,-0.2435748,25.625,26.5,25.5,27.875,28.625,29.0625
0.19005242,0.08713079,-0.8336919,-0.63757515,-0.019900294,0.04663389,-0.10499255,-0.39759657,-0.36708298,0.059991565,3.0776188,-0.62458116,0.00014471437,-0.090411305,0.016344873,0.0015770497,-0.01669565,0.006718457,-0.0057050544,0.49395284,-1.3712987,1.8916191,-2.0903666,-1.5697097,2.4688714,-0.11659392,0.11097586,-0.13894887,0.014211968,0.011324241,-0.110827155,-0.11492168,0.3256114,-9.3661175,0.8247004,47.67345,-1.2048867,-2.40068,-3.1731968,-0.33821648,0.09528531,-0.3134632,25.625,26.5,25.5,27.875,28.625,29.0625
0.19205256,-0.22571239,-0.6279293,-0.6119512,-0.025264775,0.050754018,-0.09511433,-0.39776495,-0.36702216,0.05996944,3.0776484,-0.6246063,0.00014992652,-0.09202527,0.016482318,0.00201283,-0.017654626,0.008155105,-0.009209259,0.49371284,-1.3710699,1.8913916,-2.0903432,-1.569734,2.4686434,-0.11833479,0.11188545,-0.1408899,0.013521658,0.01148137,-0.10906333,0.0,0.28730422,-9.423578,0.8090337,47.67166,-1.1501739,-2.3857365,-3.082685,-0.33851546,0.1101504,-0.3578603,25.625,26.5,25.5,27.875,28.625,29.0625
0.19405185,-0.0354499,-0.24948461,-0.67150855,-0.025181985,0.05397996,-0.10392492,-0.397979,-0.367012,0.059984017,3.0775068,-0.62463486,0.00010711615,-0.09268204,0.016353177,0.0027928262,-0.0184814,0.009269941,-0.01024135,0.49344924,-1.3708299,1.8910807,-2.0903785,-1.5696496,2.4684157,-0.118775405,0.11141077,-0.14221875,0.013962687,0.011694739,-0.108470455,-0.076614454,0.21068975,-9.423578,0.8023209,47.64837,-1.2583224,-2.2538047,-3.3594625,-0.34808207,0.12837505,-0.4021964,25.625,26.5,25.5,27.875,28.625,29.0625
0.19605218,-0.43236092,-0.043581344,-0.6276636,-0.01768854,0.048316333,-0.10170255,-0.3981436,-0.36697075,0.05998132,3.0775409,-0.62464255,0.000115366565,-0.092209324,0.016931478,0.0007030352,-0.017551374,0.005275443,-0.012423306,0.49324548,-1.3706006,1.8907946,-2.090295,-1.5696734,2.4682126,-0.11993091,0.11446024,-0.14107366,0.013721695,0.012768605,-0.107445054,-0.21068975,0.15322891,-9.481039,0.8179876,47.684196,-1.1948438,-2.469587,-3.3181477,-0.33761537,0.109255776,-0.45001203,25.625,26.5,25.5,27.875,28.625,29.0625
0.19805251,-0.21242139,0.17868482,-0.55401003,-0.0031046153,0.055790745,-0.09900364,-0.39830336,-0.36696917,0.05997521,3.077472,-0.6246273,0.00016104367,-0.093334205,0.01778723,0.0010097865,-0.017250834,0.006249847,-0.013513868,0.49305308,-1.3703606,1.89052,-2.0902832,-1.5696009,2.4680195,-0.1218854,0.11438108,-0.14170256,0.01372762,0.01204688,-0.108308055,-0.24899697,0.1340753,-9.442732,0.8537928,47.675243,-1.2351811,-2.231333,-3.3487825,-0.33332822,0.12237823,-0.49101043,25.625,26.5,25.5,27.875,28.625,29.0625
0.20005226,-0.25517997,0.4907146,-0.73851633,0.0047705234,0.056795467,-0.10435389,-0.39851588,-0.3669122,0.05998014,3.0774357,-0.62465614,0.0001056642,-0.09393924,0.018312566,0.00045783262,-0.017570917,0.0053613232,-0.012179515,0.49276495,-1.3701319,1.8902334,-2.0902712,-1.5696009,2.4677541,-0.1236857,0.11554853,-0.14175463,0.013248114,0.0127595095,-0.11144243,-0.15322891,-0.038307227,-9.615114,0.75755644,47.66987,-1.1379602,-2.3913813,-3.438313,-0.34049425,0.10978799,-0.50887734,25.625,26.5,25.5,27.875,28.625,29.0625
0.20205233,0.26864138,0.7302174,-0.50551677,0.0070634987,0.07104968,-0.108935185,-0.39869872,-0.3668782,0.059964903,3.077393,-0.6247183,0.0001680652,-0.095717706,0.018226217,0.0011874994,-0.018621977,0.0066385614,-0.0048997905,0.49251297,-1.3698672,1.8899444,-2.090235,-1.5695533,2.4675465,-0.12528999,0.11674156,-0.14495318,0.013649025,0.013084976,-0.120325506,-0.19153613,-0.11492168,-9.500193,0.842603,47.64389,-1.164266,-2.2536926,-3.4892888,-0.33604175,0.102413155,-0.47734785,25.625,26.5,25.5,27.875,28.625,29.0625
0.20405234,-0.014765101,1.0813131,-0.48253393,0.006225143,0.07342824,-0.11492398,-0.39889964,-0.36683503,0.059971076,3.0774014,-0.62465894,0.000104650535,-0.09519218,0.019056374,-0.00031359438,-0.017750164,0.003977226,5.9708385e-05,0.49227315,-1.3696265,1.8896354,-2.0901997,-1.5695766,2.4672687,-0.12645452,0.11802698,-0.14299211,0.013165519,0.01359044,-0.12644999,-0.22984336,-0.1340753,-9.442732,0.8717007,47.684196,-1.092293,-2.2929502,-3.6464357,-0.3249269,0.12146794,-0.4131285,25.625,26.5,25.5,27.875,28.625,29.0625
0.20605256,0.19127765,0.42939016,-0.61032647,0.026565194,0.092138804,-0.11009352,-0.399094,-0.36678964,0.05998231,3.0773265,-0.62467706,0.000121092,-0.09795914,0.019546894,0.0015035874,-0.01989218,0.007246665,0.0073614004,0.49198428,-1.3694226,1.8893584,-2.090163,-1.5695165,2.4670007,-0.12992634,0.117336065,-0.14635822,0.01335236,0.013944773,-0.13722213,-0.36391866,-0.21068975,-9.500193,0.90527004,47.690468,-0.9072157,-2.168788,-3.559204,-0.33215594,0.10889186,-0.30783236,25.625,26.5,25.5,27.875,28.625,29.0625
0.20805265,-0.77893496,0.67040735,-0.58802265,0.03232196,0.08128793,-0.105212286,-0.3992718,-0.3667793,0.05997543,3.0772731,-0.624603,0.00014051245,-0.09842358,0.018662572,0.0005476743,-0.018389981,0.006479513,0.014715648,0.49176973,-1.3691688,1.8890713,-2.090163,-1.5694574,2.4667468,-0.12821575,0.12160689,-0.1493344,0.013465153,0.012989737,-0.1428631,-0.36391866,-0.22984336,-9.519346,0.87617236,47.690468,-1.2297108,-2.3817482,-3.472365,-0.33134717,0.11879369,-0.24197938,25.625,26.5,25.5,27.875,28.625,29.0625
0.21005186,-0.67899644,1.09024,-0.60642725,0.021058038,0.09530535,-0.105309084,-0.39948207,-0.36673674,0.05999578,3.0772243,-0.6245533,9.1710586e-05,-0.10006872,0.019239781,0.0020854122,-0.019472342,0.009040424,0.015973037,0.4914935,-1.3689531,1.88876,-2.0901277,-1.5694331,2.466446,-0.13044499,0.12004828,-0.15112437,0.014057724,0.0127489,-0.14634852,-0.4213795,-0.15322891,-9.615114,0.8605109,47.67614,-1.0339425,-2.152299,-3.5330496,-0.3391693,0.13189158,-0.18974727,25.625,26.5,25.5,27.875,28.625,29.0625
0.21205172,-0.52864146,0.86902803,-0.49767676,0.0067392956,0.114648096,-0.110842064,-0.3996921,-0.36668378,0.059984304,3.0772448,-0.62451714,5.711843e-05,-0.10031578,0.019053318,0.0012434555,-0.018299673,0.0075932094,0.01693174,0.49123022,-1.3686758,1.8884495,-2.090103,-1.5694574,2.4661577,-0.13007262,0.12292785,-0.15282877,0.014713733,0.012401683,-0.14693362,-0.7661445,0.038307227,-9.595961,0.8672237,47.668976,-1.2634108,-2.4074597,-3.4246607,-0.351196,0.138819,-0.16740657,25.625,26.5,25.5,27.875,28.625,29.0625
0.21405193,-0.9575643,0.19177286,-0.629467,-1.0837235e-05,0.109869555,-0.09990879,-0.39987564,-0.36664256,0.059985902,3.0772214,-0.6244402,0.000103598475,-0.10127316,0.019788822,0.0007788739,-0.01814363,0.0061634793,0.0072691604,0.49096596,-1.3684489,1.8881615,-2.0900433,-1.5694093,2.4658484,-0.1324302,0.12467731,-0.15407479,0.015543605,0.012934265,-0.13962822,-0.7469909,0.095768064,-9.557653,0.8985519,47.690468,-1.118417,-2.2277758,-3.5005646,-0.35585418,0.14143836,-0.19748484,25.625,26.5,25.5,27.875,28.625,29.0625
0.21605226,-1.2743206,-0.52026683,-0.8107078,-0.013480867,0.10069592,-0.09954179,-0.40009803,-0.36659268,0.060013317,3.077176,-0.6244919,1.0545442e-05,-0.10364082,0.021102687,0.0010321694,-0.017982796,0.006889637,-0.00085932296,0.49068934,-1.3682302,1.8878273,-2.0899947,-1.5694212,2.46561,-0.13639084,0.1260843,-0.15644294,0.01593844,0.012454708,-0.13545829,-0.7278373,0.15322891,-9.557653,0.9097417,47.690468,-1.178365,-2.2853765,-3.4867146,-0.35183907,0.15639347,-0.24265987,25.625,26.5,25.5,27.875,28.625,29.0625
0.21805279,-0.51618755,-0.38692287,-0.6129501,-0.044997435,0.11499326,-0.11159353,-0.40030274,-0.36655912,0.060004,3.0771308,-0.6245002,1.845736e-05,-0.103156894,0.019828657,0.0011784775,-0.018255793,0.0068480745,-0.0007790102,0.49042672,-1.3679539,1.8875159,-2.0899827,-1.5693854,2.4653585,-0.13391058,0.12697022,-0.15799595,0.016517673,0.012717356,-0.13305756,-0.80445176,0.21068975,-9.730036,0.9612189,47.675243,-1.1297657,-2.0652618,-3.4056525,-0.37090102,0.17360988,-0.29548326,25.625,26.5,25.5,27.875,28.625,29.0625
0.220052,-1.1550071,-0.9164375,-0.50409216,-0.050806336,0.09822159,-0.10274214,-0.4005196,-0.36651745,0.06002758,3.077092,-0.6244932,-5.5818422e-05,-0.10639008,0.020283403,0.0009584032,-0.018484063,0.0077764243,-0.0044866153,0.49016184,-1.3677257,1.8871793,-2.0899355,-1.5693854,2.4650943,-0.13735975,0.13141337,-0.16266987,0.015825922,0.012481583,-0.13279583,-0.7278373,0.2681506,-9.615114,0.94331104,47.687782,-1.0170568,-2.230907,-3.3514113,-0.37168032,0.18061936,-0.33367157,25.625,26.5,25.5,27.875,28.625,29.0625
0.22205204,-0.6664754,-0.53820515,-0.47152388,-0.0556186,0.11262037,-0.105838746,-0.40075144,-0.36648792,0.0600437,3.077,-0.6244544,-0.00012224284,-0.10772439,0.02013008,0.0016930132,-0.019642884,0.009591945,-0.0061198403,0.48987427,-1.3674734,1.886844,-2.0899475,-1.5693372,2.4647944,-0.13832615,0.13171938,-0.16461861,0.015329949,0.012660645,-0.13212714,-0.6703765,0.24899697,-9.519346,0.8605109,47.65643,-1.0770105,-2.2359147,-3.3904243,-0.38514304,0.18136765,-0.35475445,25.625,26.5,25.5,27.875,28.625,29.0625
0.22405198,-0.74605554,-0.4768124,-0.5033283,-0.032887973,0.103229545,-0.104019724,-0.4009679,-0.36643133,0.060019642,3.0769672,-0.62459946,-3.9221297e-05,-0.10853919,0.019931462,0.0008056729,-0.01975848,0.008994395,-0.00620815,0.489563,-1.3671582,1.8865088,-2.0898883,-1.5693015,2.464578,-0.13887686,0.13470188,-0.16593723,0.014147128,0.013038868,-0.13258916,-0.5746084,0.24899697,-9.557653,0.8537928,47.675243,-1.1912366,-2.2094216,-3.2481241,-0.3577158,0.18968862,-0.39437205,25.625,26.5,25.5,27.875,28.625,29.0625
0.22605258,-0.44140506,-0.5429597,-0.1961949,-0.02371341,0.102958396,-0.10356089,-0.4011834,-0.366394,0.06005453,3.076914,-0.6245473,-0.0001255806,-0.109878324,0.019621912,0.00084593805,-0.020661866,0.009379015,-0.00355748,0.48929915,-1.3669534,1.8861741,-2.0898402,-1.5692886,2.4642885,-0.13986954,0.13681883,-0.16851276,0.013849815,0.013669227,-0.13623032,-0.45968673,0.2681506,-9.385271,0.8090337,47.693153,-1.0932151,-2.341317,-3.2159162,-0.32889596,0.20723705,-0.39462578,25.625,26.5,25.5,27.875,28.625,29.0625
0.22805281,-0.07735751,-0.06457809,-0.18880014,-0.019591978,0.08956414,-0.103864305,-0.40142834,-0.36635077,0.06003059,3.0768752,-0.62453413,-0.00017263011,-0.11132045,0.01891613,0.00050622644,-0.02156376,0.009740104,0.0028358048,0.4889997,-1.3666177,1.8858384,-2.0898888,-1.5692767,2.463986,-0.14028439,0.14017569,-0.17155914,0.01281032,0.014307811,-0.14303625,-0.4213795,0.40222588,-9.32781,0.842603,47.67345,-1.1984828,-2.2322714,-3.1737278,-0.32912514,0.20235944,-0.34005082,25.625,26.5,25.5,27.875,28.625,29.0625
0.23005192,0.52921826,-0.17798305,-0.22758019,-0.010109368,0.076193,-0.11503493,-0.40168568,-0.3663255,0.06006525,3.0767815,-0.624566,-0.00027554313,-0.111918576,0.019106757,0.002217061,-0.022693628,0.013173654,0.011550714,0.48871207,-1.3663409,1.8854207,-2.0898526,-1.5692528,2.4637303,-0.14068295,0.13690399,-0.17148747,0.012471565,0.013726247,-0.15214887,-0.21068975,0.3256114,-9.270349,0.9231726,47.67166,-1.1839669,-2.323151,-3.2638223,-0.2895963,0.21098273,-0.25891942,25.625,26.5,25.5,27.875,28.625,29.0625
0.23205209,0.4706732,-0.6906345,-0.2727252,-0.002437965,0.057409406,-0.09815641,-0.4018688,-0.36626923,0.06005021,3.0767837,-0.6244455,-0.00019855908,-0.112191945,0.019622846,0.0009251864,-0.021412663,0.011165665,0.019237686,0.48842436,-1.3661011,1.8851575,-2.089805,-1.5692047,2.4633672,-0.14161047,0.139623,-0.17184596,0.012510495,0.013551506,-0.16076323,-0.1340753,0.2681506,-9.232041,0.8179876,47.65464,-1.2280797,-2.446513,-3.2536092,-0.29742086,0.22740072,-0.13477388,25.625,26.5,25.5,27.875,28.625,29.0625
0.23405215,0.88202906,-0.377567,-0.08975205,-0.02535736,0.051256254,-0.10197512,-0.4021182,-0.36622348,0.060060002,3.0767562,-0.62436014,-0.00028268338,-0.11227677,0.020096766,0.00015067395,-0.01977039,0.009567148,0.022673415,0.4881249,-1.3658123,1.884787,-2.089792,-1.5692052,2.4630182,-0.14197032,0.14144427,-0.17254703,0.013584739,0.012874306,-0.16455755,-0.1340753,0.28730422,-9.251195,0.8672237,47.66539,-1.2246249,-2.3333316,-3.3232856,-0.2960083,0.24483347,-0.07821686,25.625,26.5,25.5,27.875,28.625,29.0625
0.2360522,1.3340917,-0.032864638,0.11790479,-0.035666693,0.058844306,-0.115540504,-0.40236974,-0.36619636,0.06007669,3.076667,-0.62430686,-0.00034857335,-0.11337921,0.02059207,-0.00020127655,-0.02023484,0.008814079,0.016360575,0.48782477,-1.3655238,1.8844041,-2.089792,-1.5691565,2.4626963,-0.1441641,0.14312531,-0.17379853,0.013605417,0.013649128,-0.16043657,-0.038307227,0.22984336,-9.136273,0.8717007,47.67793,-1.0866334,-2.3813243,-3.3574166,-0.27205747,0.25271875,-0.076143146,25.625,26.5,25.5,27.875,28.625,29.0625
0.2380525,0.82249886,-0.19912755,0.1677509,-0.022275895,0.03757334,-0.09210636,-0.40260136,-0.3661521,0.060061168,3.0766506,-0.62430716,-0.00034907807,-0.114921644,0.021746295,0.00019173202,-0.020844538,0.009139089,0.007286804,0.48753646,-1.3651991,1.8840455,-2.0897682,-1.5691446,2.4624104,-0.14761691,0.14310768,-0.17481598,0.014063386,0.014031983,-0.15481518,-0.05746084,0.2681506,-9.078813,0.8403672,47.666286,-1.2462621,-2.3303885,-3.3620996,-0.25108615,0.26249045,-0.11450066,25.625,26.5,25.5,27.875,28.625,29.0625
0.2400526,1.143368,0.23717286,0.3892953,-0.0075216894,0.03487727,-0.10115762,-0.4028287,-0.36612087,0.060053013,3.07656,-0.62429154,-0.00034602828,-0.1154511,0.02118585,2.4934903e-05,-0.021692792,0.008116939,-0.0011818397,0.48723704,-1.3649081,1.8837212,-2.0897915,-1.5690726,2.462113,-0.14781336,0.14514387,-0.17707519,0.014789704,0.015257243,-0.14654097,0.095768064,0.11492168,-9.078813,0.8717007,47.679718,-1.0819213,-2.4464166,-3.3687177,-0.24314384,0.2807777,-0.1996116,25.625,26.5,25.5,27.875,28.625,29.0625
0.24205178,1.1999848,0.5306458,0.37684214,0.023824364,0.013673085,-0.09665656,-0.40308166,-0.36606726,0.060073443,3.0765548,-0.6242548,-0.00042793693,-0.11702733,0.022298208,-0.0004673847,-0.021357898,0.0070961565,-0.008906084,0.48693648,-1.3646213,1.8833154,-2.08972,-1.5690964,2.4617903,-0.15109493,0.14731391,-0.17871018,0.015306755,0.015441167,-0.1420967,0.21068975,0.1340753,-8.944737,0.84484416,47.667187,-1.0410968,-2.2825727,-3.3521857,-0.23594916,0.2724917,-0.26165193,25.625,26.5,25.5,27.875,28.625,29.0625
0.24405178,1.6885873,0.9745712,0.31364802,0.03174201,0.00844574,-0.09403751,-0.40330887,-0.36602712,0.060065396,3.0764887,-0.62431794,-0.0004070327,-0.118649065,0.021044692,0.0024342034,-0.02535648,0.011938143,-0.010812478,0.486637,-1.3643202,1.8829678,-2.0896962,-1.5690478,2.4615388,-0.15112574,0.14459662,-0.18206033,0.015228177,0.016708469,-0.14021975,0.1340753,0.076614454,-8.925584,0.86498255,47.645687,-0.99746865,-2.0919585,-3.352539,-0.21046022,0.25750622,-0.3417889,25.625,26.5,25.5,27.875,28.625,29.0625
0.24605197,1.6134812,1.2428235,0.32390317,0.033315998,0.011286003,-0.1040116,-0.4035285,-0.3659849,0.060069278,3.076398,-0.6243596,-0.00047246748,-0.11867228,0.021819642,0.0017802104,-0.024687078,0.0102652125,-0.017451998,0.48634893,-1.3640814,1.8826813,-2.0897315,-1.569012,2.4612885,-0.15247527,0.145335,-0.18163328,0.015854666,0.016909549,-0.13492848,0.05746084,0.0,-8.90643,0.92764956,47.689575,-0.97355294,-2.1605008,-3.3991644,-0.20099509,0.27274507,-0.43669295,25.625,26.5,25.5,27.875,28.625,29.0625
0.24805215,1.0272264,0.89386326,0.012068615,0.042494465,0.013153345,-0.099873506,-0.4037676,-0.36593094,0.06006344,3.0763855,-0.6244124,-0.00044314534,-0.119614795,0.021346064,0.0020595808,-0.025408067,0.010225067,-0.018356264,0.48603815,-1.3637565,1.8822864,-2.0896475,-1.5689992,2.4610124,-0.1528273,0.1470219,-0.18453951,0.016776439,0.017565098,-0.1343751,0.17238252,0.019153614,-9.040505,0.98135734,47.704796,-1.2419401,-2.055882,-3.3421025,-0.2085508,0.28146073,-0.4934342,25.625,26.5,25.5,27.875,28.625,29.0625
0.2500523,-0.14956255,0.27552524,-0.21233018,0.026201902,0.013020204,-0.08761102,-0.4039776,-0.36589727,0.060058363,3.0763247,-0.62443334,-0.00036965683,-0.119527236,0.021083497,0.0015060266,-0.025162548,0.007752295,-0.012791733,0.48575068,-1.3634677,1.8819383,-2.089587,-1.5689267,2.4607458,-0.15280753,0.14916418,-0.18633704,0.018754482,0.018518843,-0.13991885,0.11492168,0.095768064,-9.193734,0.85826975,47.694946,-1.2205148,-2.122513,-3.2610416,-0.2031872,0.26886478,-0.5038339,25.625,26.5,25.5,27.875,28.625,29.0625
0.25205222,0.81366014,0.19444676,-0.291169,-0.0027719452,0.05584592,-0.10124013,-0.40424123,-0.365842,0.060072616,3.0762594,-0.6244718,-0.00038979363,-0.120049946,0.021875124,0.0009209618,-0.02412715,0.0058265002,-0.0038684634,0.48540252,-1.3631667,1.8815316,-2.0895264,-1.5688914,2.4604301,-0.15449576,0.15090376,-0.1875092,0.020404551,0.01853504,-0.15052907,-0.019153614,0.076614454,-9.251195,0.8672237,47.661808,-1.171973,-2.0689373,-3.25912,-0.1944985,0.27521962,-0.44565707,25.625,26.5,25.5,27.875,28.625,29.0625
0.2540522,-0.2089818,-0.4427794,-0.77707237,-0.0056223846,0.0549302,-0.09711979,-0.404457,-0.3657978,0.060073834,3.0762455,-0.62444216,-0.0003371367,-0.120784104,0.0225669,0.00051581254,-0.023372483,0.004698836,0.005889879,0.4851149,-1.3628778,1.8811611,-2.0894306,-1.5688552,2.460126,-0.15614001,0.1524482,-0.1887191,0.02145229,0.018416377,-0.1619315,-0.019153614,0.21068975,-9.32781,0.84708,47.693153,-1.188038,-2.1277027,-3.1767,-0.22632322,0.2719337,-0.3303094,25.625,26.5,25.5,27.875,28.625,29.0625
0.25605237,0.02707076,-0.26489273,-0.9579435,-0.034076735,0.068705484,-0.0969352,-0.40468618,-0.36575717,0.06004269,3.0762453,-0.6243417,-0.00025744358,-0.1220226,0.023288062,-0.00047360134,-0.02235748,0.0027419298,0.012155282,0.48481455,-1.3625166,1.8807906,-2.0893943,-1.5688075,2.459763,-0.15836322,0.1559523,-0.19094437,0.022407593,0.018443013,-0.17041945,-0.076614454,0.2681506,-9.557653,0.99702406,47.695843,-1.0906332,-2.1435332,-3.3392806,-0.24992308,0.29003972,-0.23153065,25.625,26.5,25.5,27.875,28.625,29.0625
0.25805253,-0.5771502,-1.1380148,-1.0330267,-0.04473058,0.066817604,-0.09779051,-0.4049112,-0.3656899,0.06004774,3.0762386,-0.6243761,-0.00025705463,-0.12309337,0.023977742,0.00059651386,-0.023103848,0.0045183464,0.014561865,0.48450288,-1.3622526,1.8804435,-2.0893104,-1.5688075,2.4594738,-0.1602713,0.15438347,-0.19160074,0.022727977,0.018286945,-0.17473432,-0.34476504,0.30645782,-9.653421,0.95897776,47.691364,-1.0505958,-2.1069617,-3.3124578,-0.24017128,0.29914984,-0.17241526,25.625,26.5,25.5,27.875,28.625,29.0625
0.26005247,-0.7500196,-1.0491649,-0.99710387,-0.059981726,0.0875514,-0.092866965,-0.40517086,-0.3656443,0.060056586,3.0761766,-0.62434506,-0.00026463578,-0.12362081,0.02413933,-0.00047958991,-0.023045715,0.0028044197,0.010359252,0.48416707,-1.3619391,1.8800367,-2.0892627,-1.5687588,2.4591267,-0.1613578,0.15715533,-0.19243966,0.022344863,0.019037686,-0.17161646,-0.47884035,0.38307226,-9.787497,0.86498255,47.703903,-1.0211045,-2.33807,-3.4071503,-0.22620976,0.2974614,-0.16179326,25.625,26.5,25.5,27.875,28.625,29.0625
0.26205266,-1.140432,-1.1514217,-1.2143813,-0.05812273,0.10694592,-0.09278532,-0.4054213,-0.36559898,0.060058225,3.076158,-0.6242676,-0.00026840685,-0.12491378,0.02459505,-0.0016867117,-0.022997346,0.00092577556,0.0023678965,0.483855,-1.361614,1.8796295,-2.0892031,-1.5687345,2.4587688,-0.16366173,0.1609676,-0.19424735,0.022021573,0.019861458,-0.16592711,-0.63206923,0.40222588,-9.998186,0.85155696,47.66271,-1.1346753,-2.326457,-3.4576428,-0.2225922,0.28296134,-0.21354079,25.625,26.5,25.5,27.875,28.625,29.0625
0.2640526,-1.4643062,-0.92204636,-1.2194452,-0.060247116,0.11651377,-0.098614894,-0.40562713,-0.36552384,0.060005862,3.076194,-0.6242752,-0.00013727564,-0.12356864,0.023687368,-0.003153074,-0.022289282,-0.001433979,-0.00022353347,0.48353267,-1.3612765,1.8793324,-2.089155,-1.5687102,2.4584467,-0.1611437,0.16325991,-0.193607,0.021505838,0.02031177,-0.1608192,-0.7278373,0.30645782,-10.01734,0.85826975,47.661808,-1.188455,-2.3744266,-3.5015664,-0.22300112,0.28155816,-0.30316657,25.625,26.5,25.5,27.875,28.625,29.0625
0.26605195,-1.5601007,-0.4993463,-0.92154145,-0.05590993,0.1213781,-0.10252734,-0.40589923,-0.36551446,0.060038716,3.076066,-0.6242475,-0.00021106623,-0.12522075,0.023250703,-0.0026430795,-0.023688367,0.0002600294,-0.0024307093,0.48323303,-1.3609638,1.8788775,-2.0891316,-1.5686387,2.4581463,-0.16204,0.1647592,-0.19641905,0.02068175,0.020774746,-0.15950456,-0.6703765,0.24899697,-9.9790325,0.8784135,47.70838,-1.1742837,-2.345509,-3.632264,-0.2064516,0.29176223,-0.34366146,25.625,26.5,25.5,27.875,28.625,29.0625
0.2680522,-0.7779258,-0.019748935,-0.784059,-0.041711096,0.13304536,-0.11413152,-0.40617123,-0.36546773,0.060056962,3.0759733,-0.6242475,-0.00026470248,-0.1259472,0.023414537,-0.0024942257,-0.024639133,0.0012968485,-0.002696069,0.48288536,-1.3606642,1.8784713,-2.0891082,-1.56859,2.4578106,-0.16306509,0.16476999,-0.19652945,0.019437004,0.021150833,-0.16026242,-0.63206923,0.24899697,-9.864111,0.8784135,47.666286,-1.2665435,-2.458335,-3.7042565,-0.19588137,0.2685425,-0.38871443,25.625,26.5,25.5,27.875,28.625,29.0625
0.27005222,-1.2066792,-0.2946469,-0.820122,-0.019089285,0.105606705,-0.09830109,-0.40643752,-0.36542758,0.060064297,3.0759056,-0.6242903,-0.000286755,-0.12718551,0.023210164,-0.0023791334,-0.025103461,0.0023570294,-0.0038640846,0.4825618,-1.3603277,1.8780397,-2.08906,-1.5685543,2.4575226,-0.1636528,0.16639714,-0.19864537,0.018782914,0.021074349,-0.15968025,-0.59376204,0.17238252,-9.825804,0.8918391,47.645687,-1.2327878,-2.4023962,-3.6266112,-0.1677849,0.29342732,-0.41542673,25.625,26.4375,25.5,27.875,28.625,29.0625
0.27205223,-0.7483646,0.17883986,-0.5338082,-0.021527909,0.09306424,-0.10893526,-0.40670434,-0.3653845,0.060066182,3.0758488,-0.6241589,-0.00032471673,-0.12893778,0.024488127,-0.0030399493,-0.024034167,0.002026562,0.0003260066,0.48222557,-1.3600031,1.8776459,-2.0890605,-1.5685061,2.4571118,-0.16674118,0.16887406,-0.20013426,0.018617617,0.02030748,-0.16695699,-0.5746084,0.038307227,-9.615114,0.91421866,47.66271,-1.3050864,-2.4527545,-3.667701,-0.15457478,0.28509372,-0.35118705,25.625,26.4375,25.5,27.875,28.625,29.0625
0.27405235,-0.4236756,0.3073344,-0.15696198,-0.011895725,0.082952246,-0.11700768,-0.406995,-0.3653382,0.060078524,3.0757577,-0.6242102,-0.0004184787,-0.12989554,0.02408358,-0.0027828799,-0.024283342,0.0033707253,0.009780613,0.48187846,-1.3596671,1.8772143,-2.0890605,-1.5684828,2.4568086,-0.16655655,0.1701492,-0.20218757,0.018122645,0.019940296,-0.17622454,-0.53630114,0.019153614,-9.442732,0.94331104,47.65464,-1.3648262,-2.4546962,-3.7377245,-0.1467537,0.29223067,-0.29444438,25.625,26.4375,25.5,27.875,28.625,29.0625
0.27605245,0.63975286,0.95239556,0.13593948,0.00025692728,0.08837833,-0.12090625,-0.40727302,-0.36530226,0.0600939,3.0757241,-0.6240607,-0.0005098365,-0.1321558,0.023251556,-0.0006268118,-0.026656,0.008168681,0.018905813,0.48156694,-1.3593315,1.8767709,-2.0890367,-1.5684708,2.4564083,-0.16697642,0.16951057,-0.20620683,0.017459836,0.01985132,-0.18576685,-0.45968673,-0.11492168,-9.423578,0.900793,47.692257,-1.3067095,-2.412679,-3.5739484,-0.113021635,0.30654132,-0.17582038,25.625,26.4375,25.5,27.875,28.625,29.0625
0.2780527,0.21568182,1.0718541,0.29322255,0.023031438,0.0577322,-0.107796445,-0.40752172,-0.36527273,0.060091678,3.0756552,-0.62400657,-0.00048183542,-0.13385426,0.022797246,0.00021580818,-0.027638743,0.010088166,0.02154583,0.48125538,-1.3589956,1.8763641,-2.089001,-1.5683988,2.4560719,-0.16759081,0.1707963,-0.20973934,0.01757761,0.019846467,-0.1890193,-0.4213795,-0.15322891,-9.289502,0.9321212,47.683304,-1.3753319,-2.2436895,-3.3771946,-0.06797017,0.30967414,-0.097439796,25.625,26.4375,25.5,27.875,28.625,29.0625
0.28005168,0.8045653,1.4223429,0.2262944,0.028250616,0.05688227,-0.11189826,-0.40778813,-0.3651843,0.060049035,3.0756428,-0.62412065,-0.00040082308,-0.13477495,0.022139529,0.0018642569,-0.029324617,0.012113717,0.018763265,0.48085937,-1.3586123,1.8759917,-2.0889642,-1.5683745,2.4557488,-0.16750851,0.16978623,-0.21262273,0.0188992,0.020394146,-0.18615428,-0.24899697,-0.15322891,-9.174581,0.90750587,47.71286,-1.4327096,-2.2018611,-3.2530136,-0.06714842,0.310776,-0.07750997,25.625,26.4375,25.5,27.875,28.625,29.0625
0.28205177,0.7876646,1.392867,0.25415468,0.03803895,0.054499216,-0.1109159,-0.40803966,-0.36513224,0.060059514,3.0755882,-0.6240561,-0.00040931144,-0.13558649,0.022880323,0.0017636144,-0.028844357,0.010795699,0.010966653,0.48052278,-1.3583218,1.8756078,-2.088916,-1.5683264,2.455379,-0.16945162,0.17099471,-0.21431836,0.020778185,0.020581298,-0.18029913,-0.22984336,-0.095768064,-9.155427,0.89631605,47.68599,-1.4244521,-2.3086095,-3.2518172,-0.054429285,0.3165381,-0.15253732,25.625,26.4375,25.5,27.875,28.625,29.0625
0.28405258,0.6421125,1.4216131,-0.051687676,0.025464216,0.039660055,-0.11325644,-0.40834573,-0.36513722,0.060095582,3.0754726,-0.6239418,-0.00055221556,-0.13664718,0.024209201,0.0013603081,-0.027933212,0.009007116,-0.00086692075,0.48023385,-1.3579518,1.875081,-2.088915,-1.5682782,2.4550338,-0.17248096,0.1724886,-0.21567996,0.022646032,0.020613963,-0.17149122,-0.095768064,0.0,-9.289502,0.8560339,47.67793,-1.3776127,-2.2252104,-3.2477,-0.039783906,0.33212712,-0.24836294,25.625,26.4375,25.5,27.875,28.625,29.0625
0.28605172,0.70876116,0.33149981,-0.024766192,0.0044532474,0.03695607,-0.10813787,-0.40860856,-0.3650442,0.060075134,3.0754833,-0.6239671,-0.00052357354,-0.13820249,0.024654454,0.0028271875,-0.028208844,0.010664264,-0.008258242,0.47984925,-1.3576163,1.87471,-2.0888546,-1.5682787,2.4546638,-0.17413153,0.1718733,-0.21880488,0.024784733,0.020081386,-0.1657507,-0.095768064,0.038307227,-9.270349,0.91198283,47.69763,-1.3167604,-2.0399246,-3.3528907,-0.054199826,0.33340037,-0.32401204,25.625,26.4375,25.5,27.875,28.625,29.0625
0.2880519,0.61001116,-0.18459165,0.0073675,-0.025179295,0.044978984,-0.113093965,-0.40888432,-0.36499307,0.060107123,3.0753927,-0.6240846,-0.0005615027,-0.1382147,0.024950804,0.0025060214,-0.027220026,0.009078317,-0.0132459765,0.47950134,-1.3573163,1.8742546,-2.0887587,-1.5682429,2.454401,-0.17442322,0.17302847,-0.21992907,0.026618788,0.019943504,-0.16105326,-0.21068975,0.17238252,-9.308657,0.91198283,47.67345,-1.297229,-2.0072849,-3.3451,-0.061676487,0.34392816,-0.4310692,25.625,26.4375,25.5,27.875,28.625,29.0625
0.2900522,-0.12178901,-0.7924242,-0.2619496,-0.025474995,0.037507325,-0.11036388,-0.40914905,-0.3649267,0.060090773,3.075399,-0.62408745,-0.00051800173,-0.1382959,0.026505737,0.0013046886,-0.026267547,0.005990667,-0.016695762,0.47915208,-1.3569444,1.873825,-2.0886743,-1.5682305,2.454053,-0.17731877,0.17414016,-0.21882497,0.027587596,0.02052799,-0.16049938,-0.13407528,0.22984336,-9.3661175,0.9365982,47.655537,-1.179491,-1.9749378,-3.3490968,-0.06208121,0.3484064,-0.5041411,25.625,26.4375,25.5,27.875,28.625,29.0625
0.29205248,0.058862276,-0.7653936,-0.25148314,-0.0331552,0.05296717,-0.11899454,-0.40944,-0.36488178,0.060103778,3.0752723,-0.62417346,-0.00054467557,-0.14035384,0.026511932,0.0013406749,-0.026919106,0.005667019,-0.012208581,0.47877946,-1.3566047,1.873381,-2.08865,-1.568158,2.4537504,-0.17944393,0.17745116,-0.2231875,0.028660009,0.021284377,-0.1671075,-0.038307227,0.22984336,-9.481039,0.91421866,47.678825,-1.1726465,-2.1610289,-3.3373077,-0.0724933,0.35792682,-0.5151541,25.625,26.4375,25.5,27.875,28.625,29.0625
0.29405248,0.24020487,0.048430458,0.1473368,-0.054316152,0.073202275,-0.13483576,-0.40972176,-0.36481878,0.060108148,3.075241,-0.6241034,-0.00054113014,-0.14086023,0.026857525,-0.00018024285,-0.026804207,0.0029005485,-0.0027684215,0.47840703,-1.3562585,1.872938,-2.0885785,-1.5681218,2.4533384,-0.18106279,0.18096896,-0.2239953,0.028497558,0.022492861,-0.17816404,0.019153614,0.21068975,-9.5385,0.8784135,47.677036,-1.157644,-2.2208955,-3.397079,-0.076719776,0.343239,-0.42150778,25.625,26.4375,25.5,27.875,28.625,29.0625
0.29605168,-0.18746576,-0.27472356,-0.20151863,-0.020065973,0.05581999,-0.114448324,-0.40999678,-0.36477497,0.06012539,3.0751593,-0.6240805,-0.00055474817,-0.14150576,0.028583717,-0.0013174523,-0.026414929,0.0007636259,0.0055901743,0.4780579,-1.3559343,1.872495,-2.0885189,-1.5680612,2.4529855,-0.18478504,0.18206511,-0.22273853,0.028269876,0.023179956,-0.19024329,-0.038307227,0.22984336,-9.423578,0.9679317,47.698532,-1.1669056,-2.1482563,-3.474484,-0.068032406,0.32579863,-0.29833487,25.625,26.4375,25.5,27.875,28.625,29.0625
0.29805204,-0.15446183,0.22147928,-0.18124168,-0.013246782,0.05569295,-0.117360495,-0.4102733,-0.36472678,0.06010542,3.0750964,-0.624064,-0.00047141543,-0.14174661,0.028044753,-0.0019254428,-0.026261825,0.00010581399,0.012670425,0.47768614,-1.3555381,1.8720521,-2.0884707,-1.5679773,2.4526117,-0.184071,0.18444102,-0.22425207,0.028103804,0.023363803,-0.19660866,-0.19153613,0.3256114,-9.3661175,0.93436235,47.695843,-1.1920278,-2.2725966,-3.5161724,-0.051911473,0.33120453,-0.21418476,25.625,26.4375,25.5,27.875,28.625,29.0625
0.30005226,-0.14277388,-0.03680369,-0.10532665,-0.01127012,0.059758194,-0.12007541,-0.4105847,-0.3646541,0.06013033,3.0750499,-0.6240361,-0.0006012579,-0.14311044,0.02762397,-0.0018404422,-0.02682497,0.00067018956,0.011446825,0.47730207,-1.3552134,1.8715962,-2.088435,-1.5679892,2.4522164,-0.18456177,0.18683538,-0.22737777,0.028078921,0.02361924,-0.19587198,-0.24899697,0.28730422,-9.423578,0.8806493,47.67614,-1.0783465,-2.176151,-3.4295096,-0.04308085,0.34046328,-0.18754336,25.625,26.4375,25.5,27.875,28.625,29.0625
0.30205226,0.14837354,-0.008674441,-0.044518415,-0.020504586,0.06675047,-0.11989918,-0.41084632,-0.36461306,0.060117062,3.075001,-0.6239341,-0.00046540212,-0.14420505,0.028381715,-0.0019390396,-0.027091727,0.00044031136,0.0026507424,0.4769412,-1.3548294,1.8711418,-2.088339,-1.5678815,2.4517982,-0.18683414,0.18772511,-0.2283251,0.02822806,0.023942031,-0.18934816,-0.38307226,0.28730422,-9.423578,0.91198283,47.650166,-1.0758878,-2.2806363,-3.5396695,-0.03773105,0.33919322,-0.24769598,25.625,26.4375,25.5,27.875,28.625,29.0625
0.30405232,-0.5747151,-0.57804143,-0.15695208,-0.024881633,0.05514157,-0.10961369,-0.41115987,-0.36457437,0.06012104,3.0749555,-0.6238895,-0.00056817045,-0.14466695,0.0280585,-0.00262327,-0.027317652,-0.0015705316,-0.0036130503,0.47660485,-1.3544209,1.8706373,-2.0883267,-1.567881,2.45144,-0.18723355,0.19064316,-0.23059554,0.02925083,0.025066508,-0.18347926,-0.5554548,0.28730422,-9.385271,0.91421866,47.66271,-1.0320506,-2.227168,-3.5470328,-0.029897353,0.32572854,-0.33057183,25.625,26.4375,25.5,27.875,28.625,29.0625
0.3060526,-0.4311417,-0.7005792,0.028530065,-0.03545565,0.07078236,-0.11309985,-0.41143176,-0.36450285,0.060097963,3.0749075,-0.62397695,-0.00050590374,-0.14510825,0.027541116,-0.0020773257,-0.027595432,-0.0016160929,-0.0059806183,0.47622114,-1.3540491,1.8702301,-2.088278,-1.5678328,2.4511173,-0.18677396,0.19146581,-0.23329954,0.031054653,0.025326531,-0.18065126,-0.34476504,0.2681506,-9.32781,0.97240865,47.691364,-1.1806767,-2.1554651,-3.5081654,-0.048023015,0.30136374,-0.36462432,25.625,26.4375,25.5,27.875,28.625,29.0625
0.30805197,-0.69890267,-0.32688457,0.19210817,-0.035235155,0.07642461,-0.11421241,-0.41172868,-0.36444795,0.060109675,3.0748086,-0.62397236,-0.00045627134,-0.1440526,0.02599563,-0.00086351414,-0.028831515,-0.00059804245,-0.0024105448,0.4758145,-1.3536899,1.8697513,-2.0881941,-1.5677365,2.4507205,-0.18352818,0.18966618,-0.23422699,0.032336984,0.025971774,-0.18097405,-0.51714754,0.24899697,-9.232042,0.9791215,47.668976,-1.3861356,-2.1141753,-3.4694571,-0.05554411,0.2909182,-0.4092474,25.625,26.4375,25.5,27.875,28.625,29.0625
0.3100523,-0.95143765,-0.21585503,0.17925447,-0.006761217,0.083558574,-0.112985745,-0.41202486,-0.36441052,0.060135156,3.074709,-0.6240069,-0.00051083526,-0.1442507,0.0245437,-0.00053481705,-0.031393535,-0.00079689815,0.0014682973,0.4754666,-1.353342,1.8692602,-2.088134,-1.5676874,2.4504073,-0.1825929,0.19083504,-0.23645239,0.03241582,0.028363816,-0.18391134,-0.51714754,0.24899697,-9.174581,1.0082139,47.68062,-1.453448,-2.046601,-3.5094671,-0.05434416,0.27358896,-0.43173826,25.625,26.4375,25.5,27.875,28.625,29.0625
0.3120524,-0.32231098,0.45152515,-0.036144953,0.015239626,0.09146651,-0.121942505,-0.41231874,-0.36436522,0.060115516,3.0746627,-0.6239545,-0.00043971222,-0.14550766,0.024991713,-0.00049809006,-0.03224184,-0.00078788865,0.008507153,0.47509393,-1.35291,1.8687695,-2.088074,-1.5676154,2.450008,-0.18474793,0.19196384,-0.23798464,0.032473247,0.029142033,-0.19310378,-0.19153613,0.1340753,-9.3661175,0.8940802,47.66091,-1.416025,-2.100362,-3.4950855,-0.040681496,0.25141773,-0.3593998,25.625,26.4375,25.5,27.875,28.625,29.0625
0.3140524,-0.25923786,0.7725973,0.24027814,0.013642307,0.07600252,-0.12511617,-0.4125974,-0.36431327,0.06010671,3.0746021,-0.62384105,-0.00036061578,-0.1475542,0.02594899,-0.0010074662,-0.031416774,-0.0016834034,0.016473532,0.47470915,-1.352537,1.8683256,-2.088014,-1.5675195,2.4495602,-0.18778323,0.19541298,-0.24131763,0.033597298,0.028852047,-0.20410423,-0.15322891,0.11492168,-9.308657,0.95226496,47.66987,-1.4756978,-2.1521196,-3.421947,-0.05535621,0.23125279,-0.24989203,25.625,26.4375,25.5,27.875,28.625,29.0625
0.3160524,0.47777513,0.75999945,0.34069943,0.010715537,0.075090885,-0.13156338,-0.41291896,-0.36425972,0.060125057,3.0745683,-0.623774,-0.00042333733,-0.14949615,0.026786698,-0.000546763,-0.030638305,-0.00047150525,0.019671082,0.47433636,-1.3521411,1.8677868,-2.08793,-1.5675081,2.44915,-0.18994977,0.19676109,-0.24426939,0.0345136,0.02763427,-0.20946752,-0.2681506,0.076614454,-9.136273,0.9097417,47.71465,-1.3774157,-2.0328236,-3.333397,-0.08410369,0.22983047,-0.15859227,25.625,26.4375,25.5,27.875,28.625,29.0625
0.31805262,0.39995807,0.8155571,0.058600057,0.019786686,0.044239298,-0.12693144,-0.41321486,-0.3641975,0.06011775,3.074539,-0.623713,-0.00044452213,-0.150156,0.02753907,-0.0001468664,-0.029962588,-0.00060664327,0.016033966,0.47396395,-1.3517574,1.8673314,-2.0878932,-1.5674843,2.4487436,-0.19129477,0.19670719,-0.24559264,0.036329255,0.02710156,-0.20717508,-0.22984336,0.1340753,-9.174581,0.90527004,47.689575,-1.3641286,-2.0930395,-3.302328,-0.09091527,0.23113123,-0.13719398,25.625,26.4375,25.5,27.875,28.625,29.0625
0.3200517,1.1731497,0.80449045,-0.017220872,0.010026283,0.04841662,-0.119987205,-0.41350362,-0.36413494,0.0601113,3.0745013,-0.6236896,-0.00034477576,-0.1498347,0.027831653,-0.0011090909,-0.028839229,-0.0041027665,0.0074382434,0.47356784,-1.3513612,1.8668398,-2.087773,-1.5674118,2.4483378,-0.19170345,0.19897936,-0.24681586,0.038900252,0.02767537,-0.1989873,-0.30645782,0.095768064,-9.232041,0.88289046,47.66987,-1.3377676,-2.13798,-3.328909,-0.11583358,0.22463931,-0.22011259,25.625,26.4375,25.5,27.875,28.625,29.0625
0.32205188,0.2807998,0.14299436,-0.05853854,0.004523291,0.026545012,-0.11887418,-0.41383094,-0.36407417,0.060112674,3.0744388,-0.62368214,-0.00040747123,-0.15060668,0.02865743,-0.0015528982,-0.028773783,-0.005516885,-0.002888111,0.47317126,-1.350953,1.8663377,-2.0877483,-1.5673875,2.4479449,-0.19392528,0.20032485,-0.2476946,0.03970849,0.028254444,-0.19087963,-0.21068975,0.095768064,-9.251195,0.88960326,47.67345,-1.287493,-2.1436682,-3.3051817,-0.124721706,0.2153719,-0.32167497,25.625,26.4375,25.5,27.875,28.625,29.0625
0.32405207,0.5266665,-0.082228385,0.1199206,-0.009528865,0.051230818,-0.119479805,-0.41411927,-0.3640144,0.06010619,3.074361,-0.6237297,-0.0003280766,-0.15263548,0.029896878,-0.00065053353,-0.029811563,-0.0040645506,-0.01343025,0.47277388,-1.3505696,1.8658699,-2.0876648,-1.5673035,2.4475873,-0.19771531,0.19983344,-0.2492822,0.040024966,0.0284972,-0.18412682,-0.24899697,0.076614454,-9.174581,0.9231726,47.660015,-1.2086365,-2.0413868,-3.328864,-0.14182794,0.20643196,-0.43092707,25.625,26.4375,25.5,27.875,28.625,29.0625
0.3260521,0.0018594726,-0.3245745,0.1066277,-0.006058331,0.049772754,-0.122094564,-0.41442436,-0.363936,0.060079828,3.0743432,-0.62378484,-0.00022078223,-0.15332669,0.030688655,-0.00062970066,-0.02957969,-0.0055629774,-0.018997367,0.47235316,-1.3501257,1.8653678,-2.0875561,-1.5672554,2.4472034,-0.19974035,0.20065136,-0.2509141,0.042285606,0.028958453,-0.18058506,-0.22984336,0.11492168,-9.251195,0.8918391,47.687782,-1.1282271,-2.0583699,-3.433558,-0.18829557,0.16905665,-0.52417314,25.625,26.4375,25.5,27.875,28.625,29.0625
0.3280523,-0.064299084,0.06957085,-0.035724685,-0.008735738,0.049304757,-0.117667995,-0.4147338,-0.36388284,0.06008116,3.074266,-0.6238062,-0.00018074509,-0.15429454,0.031515207,-0.0010748797,-0.029041076,-0.0075269556,-0.018696455,0.4719566,-1.3497175,1.8648518,-2.0874717,-1.5671834,2.4468303,-0.20203705,0.20277782,-0.25300586,0.044277407,0.029387003,-0.18318063,-0.11492168,0.19153613,-9.251195,0.9679317,47.653748,-1.091171,-2.0810294,-3.3758836,-0.2134164,0.16650462,-0.5633324,25.625,26.4375,25.5,27.875,28.625,29.0625
0.3300517,0.27064452,0.122457035,0.10743707,-0.0064503285,0.05960062,-0.12884098,-0.4150522,-0.36381337,0.060089607,3.0742075,-0.6238083,-0.00020225125,-0.15534402,0.033202313,-0.0027168337,-0.027987909,-0.010458153,-0.009976036,0.47154728,-1.3493327,1.8643507,-2.0874002,-1.5671471,2.44643,-0.20583746,0.20589001,-0.25317496,0.044486564,0.029829375,-0.19569926,-0.1340753,0.19153613,-9.289503,0.8806493,47.675243,-0.9951463,-2.0615878,-3.426544,-0.24050087,0.14932281,-0.48150882,25.625,26.4375,25.5,27.875,28.625,29.0625
0.33205187,0.15012571,0.1888119,-0.25929636,-0.0024043287,0.05686984,-0.12504491,-0.41533214,-0.3637523,0.060065646,3.07418,-0.6238137,-7.311226e-05,-0.15624845,0.032888427,-0.002637088,-0.028322725,-0.009807635,0.0036657858,0.47116333,-1.3489124,1.8638715,-2.087292,-1.5670751,2.446053,-0.20595235,0.20746338,-0.25532025,0.044403248,0.029860293,-0.20945679,-0.15322891,0.17238252,-9.385271,0.91198283,47.67345,-0.9972025,-2.0755827,-3.5328813,-0.26833373,0.13193521,-0.34731936,25.625,26.4375,25.5,27.875,28.625,29.0625
0.3340521,-0.20485026,-0.23755924,0.013521795,-0.005752616,0.06702653,-0.1197811,-0.4156483,-0.3637058,0.060089163,3.0741167,-0.62369746,-9.0253256e-05,-0.15618245,0.031319026,-0.0022829417,-0.02890061,-0.0085443575,0.014748167,0.4707803,-1.3485285,1.8633317,-2.087196,-1.567015,2.4456058,-0.20310576,0.20855291,-0.25744307,0.044103745,0.029836196,-0.21769029,-0.30645782,0.1340753,-9.3661175,0.9701675,47.681515,-1.0987804,-2.116003,-3.5119348,-0.2808955,0.12876874,-0.21835566,25.625,26.4375,25.5,27.875,28.625,29.0625
0.33605227,-0.092915535,0.110567756,-0.1129613,-0.010870632,0.08083016,-0.1267212,-0.41595298,-0.3636416,0.060082655,3.0740514,-0.6236263,2.7261869e-05,-0.15694839,0.030187955,-0.0020528298,-0.029313201,-0.007422645,0.016011862,0.47034878,-1.3481203,1.8628277,-2.0870888,-1.5669068,2.4451382,-0.20161872,0.2106601,-0.26056102,0.04396382,0.029687503,-0.2174664,-0.3256114,0.15322891,-9.308656,0.9186956,47.698532,-1.2562256,-2.1635303,-3.5007691,-0.29660237,0.10485126,-0.18611664,25.625,26.4375,25.5,27.875,28.625,29.0625
0.3380527,-0.52768713,-0.13010933,-0.06718101,-0.0021340495,0.08023469,-0.117485836,-0.41627413,-0.36357337,0.06005942,3.0740197,-0.62364274,6.194571e-05,-0.15770474,0.030093279,-0.0031859253,-0.02904768,-0.008127206,0.007522546,0.4699408,-1.3476634,1.8623132,-2.0870297,-1.566871,2.4447448,-0.20196687,0.21393803,-0.2617517,0.04261303,0.029741561,-0.20932437,-0.47884035,0.095768064,-9.385271,0.9768804,47.67614,-1.4173248,-2.244742,-3.389953,-0.3033912,0.06878695,-0.26678592,25.625,26.4375,25.5,27.875,28.625,29.0625
0.34005174,-0.9706308,-0.4383466,-0.060493693,-0.009123733,0.081358984,-0.10899047,-0.41659078,-0.36352965,0.06006902,3.073979,-0.6235233,0.000115300936,-0.15935971,0.030724637,-0.0029616293,-0.028848343,-0.006829459,-0.0011706935,0.46955606,-1.3472316,1.8617381,-2.086898,-1.5667995,2.4442909,-0.20377335,0.2151263,-0.26371896,0.04232697,0.028955143,-0.20243786,-0.2681506,0.24899697,-9.3661175,0.9298854,47.70211,-1.3311374,-2.2472281,-3.5185847,-0.3157314,0.07780748,-0.3509699,25.625,26.4375,25.5,27.875,28.625,29.0625
0.3420519,-0.41483584,-0.47314972,-0.09121124,-0.019910648,0.089736596,-0.12460436,-0.41691434,-0.3634516,0.060068365,3.073904,-0.6235875,0.000114992945,-0.16226506,0.030964175,-0.0013710366,-0.029724402,-0.0035011861,-0.0062662587,0.46912324,-1.3468354,1.8612455,-2.086838,-1.5667518,2.443908,-0.20601274,0.21601138,-0.26862028,0.04299194,0.02822407,-0.1995803,-0.2681506,0.30645782,-9.346964,0.86945957,47.66271,-1.3386248,-2.290834,-3.4204116,-0.3466488,0.07405438,-0.40039134,25.625,26.4375,25.5,27.875,28.625,29.0625
0.34405196,-0.53034943,-0.5649374,-0.24746788,-0.023555424,0.065948226,-0.11606038,-0.41725883,-0.36336455,0.060047496,3.0739443,-0.6235741,6.571825e-05,-0.16447419,0.029414833,0.00027676966,-0.031355843,0.0017275206,-0.0036707504,0.46871594,-1.3463557,1.8606943,-2.0867665,-1.5668,2.4434874,-0.2045771,0.21713015,-0.2734124,0.041273512,0.02731071,-0.20074005,-0.4213795,0.38307226,-9.385271,0.9298854,47.65464,-1.3959866,-2.1479158,-3.2675087,-0.3548575,0.08141695,-0.43100083,25.625,26.4375,25.5,27.875,28.625,29.0625
0.3460525,-0.59542507,-0.72376424,-0.26353145,-0.026612123,0.06260973,-0.11753895,-0.41756237,-0.36330786,0.060027465,3.073901,-0.62348306,0.00018545568,-0.16523588,0.030160826,-0.00029440748,-0.03155526,0.0031298243,0.0036442548,0.46830744,-1.3459119,1.8601798,-2.086672,-1.5667046,2.4430277,-0.20602489,0.21745358,-0.27189118,0.038155243,0.026880102,-0.20950495,-0.38307226,0.4213795,-9.442732,0.9455522,47.69763,-1.4130242,-2.2082665,-3.2061338,-0.33088583,0.078703165,-0.3749329,25.625,26.4375,25.5,27.875,28.625,29.0625
0.34805185,-0.2149964,-0.6329257,-0.4365283,-0.036003977,0.08482695,-0.1271494,-0.41789556,-0.36323905,0.060013227,3.0738382,-0.62352115,0.00022996873,-0.16604137,0.030832091,-0.00029382645,-0.031152213,0.0035530988,0.014374239,0.46787533,-1.345456,1.8596424,-2.0866,-1.5666445,2.4426277,-0.20732626,0.21795456,-0.27261534,0.038258392,0.026374402,-0.22153701,-0.28730422,0.4213795,-9.500193,0.98807013,47.66091,-1.4021626,-2.1138601,-3.4980567,-0.33917302,0.073220514,-0.26376617,25.625,26.4375,25.5,27.875,28.625,29.0625
0.350052,-0.4268404,-0.8334053,-0.31147414,-0.041149966,0.089951076,-0.1212167,-0.41822678,-0.36319432,0.060016986,3.0737915,-0.62339336,0.00026864067,-0.1671738,0.03236438,-0.00079098326,-0.030329263,0.0037194123,0.017843286,0.46747833,-1.345,1.8590559,-2.0864928,-1.566573,2.442157,-0.21016847,0.21862487,-0.2722155,0.03746651,0.02559524,-0.22784933,-0.38307226,0.38307226,-9.519346,0.99031126,47.675243,-1.3992026,-2.082296,-3.5444002,-0.34095442,0.071318045,-0.13636468,25.625,26.4375,25.5,27.875,28.625,29.0625
0.352052,-0.86933047,-0.6823986,-0.2372044,-0.044076163,0.08688293,-0.110355675,-0.4185558,-0.36311927,0.060010273,3.0737748,-0.6233551,0.000250613,-0.1688513,0.034140702,-0.0017489033,-0.028717568,0.0028777337,0.012461647,0.46706927,-1.3445677,1.8585294,-2.0864208,-1.5665611,2.4417264,-0.21370935,0.22115526,-0.273199,0.03740632,0.024539012,-0.22600928,-0.49799395,0.2873042,-9.500193,0.9164598,47.666286,-1.3192863,-2.095956,-3.7401319,-0.33295894,0.073364764,-0.112981655,25.625,26.4375,25.5,27.875,28.625,29.0625
0.35405222,-0.52170014,-0.7052575,-0.15980573,-0.028363682,0.096429326,-0.11685606,-0.41892993,-0.36306867,0.06001148,3.0736358,-0.6233318,0.0002124116,-0.17161939,0.034269646,-0.0014095211,-0.029336154,0.0059988867,0.0020318986,0.4666125,-1.3440958,1.8579539,-2.0864217,-1.5664653,2.4412732,-0.21551801,0.2236903,-0.27665353,0.035259034,0.023677519,-0.21738584,-0.51714754,0.28730422,-9.404425,0.9455522,47.684196,-1.171481,-2.2520742,-3.7041628,-0.33290252,0.08665344,-0.16941431,25.625,26.4375,25.5,27.875,28.625,29.0625
0.35605237,-0.65741354,-0.005484973,-0.3920282,-0.010520918,0.08363522,-0.11911199,-0.4192749,-0.36300275,0.05998292,3.0736194,-0.62329584,0.00025576935,-0.17415574,0.0348235,-0.0009524884,-0.030858874,0.0090323705,-0.01011609,0.4661915,-1.3435833,1.8573793,-2.0863507,-1.5664295,2.4408321,-0.21834704,0.224737,-0.27846,0.03260203,0.023639785,-0.20806651,-0.38307226,0.2681506,-9.423578,0.92764956,47.675243,-0.9645405,-2.332887,-3.627471,-0.27923205,0.09294644,-0.27971905,25.625,26.4375,25.5,27.875,28.625,29.0625
0.35805282,-0.12020405,0.9054341,-0.4436582,-0.002463494,0.07310035,-0.121139646,-0.4196069,-0.36293918,0.05999127,3.0735457,-0.6233046,0.0002670405,-0.17594041,0.034722067,-0.0011674929,-0.031789266,0.010162487,-0.019095903,0.46577108,-1.3431633,1.8568281,-2.0862558,-1.5663694,2.4404268,-0.21966657,0.22736463,-0.2808766,0.03095104,0.023946058,-0.20040376,-0.24899697,0.15322891,-9.519346,1.0171678,47.64121,-0.8902273,-2.229048,-3.5678735,-0.25374407,0.091065064,-0.3973178,25.625,26.4375,25.5,27.875,28.625,29.0625
0.36005187,-0.40161762,0.0023239744,-0.53704154,0.019983185,0.045904882,-0.115446255,-0.41997257,-0.36286065,0.059984468,3.0734816,-0.6233889,0.0002045314,-0.17628501,0.034116715,-0.0016419248,-0.031477273,0.009931806,-0.022153337,0.46532696,-1.3426944,1.856265,-2.0862195,-1.5663575,2.440044,-0.21863897,0.22974305,-0.28275996,0.03079786,0.023774665,-0.19631691,-0.40222588,0.22984336,-9.481039,0.947788,47.66539,-0.89581066,-2.4797356,-3.5813031,-0.22898701,0.09475386,-0.50943875,25.625,26.4375,25.5,27.875,28.625,29.0625
0.3620522,-0.11650931,-0.24733065,-0.32836935,-0.006095981,0.06702795,-0.11862661,-0.42029795,-0.36280537,0.059974387,3.0734086,-0.623426,0.00025755615,-0.17790112,0.033286378,-0.00027495672,-0.032070562,0.013302947,-0.014959804,0.4649197,-1.3422385,1.8557142,-2.086136,-1.566286,2.4396694,-0.21784598,0.2304227,-0.28680763,0.03094276,0.02281772,-0.20271797,-0.63206923,0.22984336,-9.346964,1.0149267,47.661808,-1.088746,-2.3543081,-3.4212723,-0.2145809,0.10662806,-0.5062001,25.625,26.4375,25.5,27.875,28.625,29.0625
0.3640522,0.14518607,-0.051508307,-0.8395067,-0.006395999,0.079944454,-0.12691301,-0.42065653,-0.36273175,0.059976265,3.0733569,-0.62338644,0.00023146112,-0.17922603,0.03302391,0.0007176053,-0.032086,0.015646936,-0.0013525758,0.4644759,-1.3417823,1.8551382,-2.0860636,-1.5662497,2.4392078,-0.21772093,0.23096253,-0.28993455,0.031509712,0.021842556,-0.2162004,-0.15322891,0.095768064,-9.5385,0.90527004,47.63225,-1.2348572,-2.5426922,-3.34959,-0.20002207,0.103557095,-0.39647257,25.625,26.4375,25.5,27.875,28.625,29.0625
0.36605242,-0.06073574,-0.49176937,-0.85455954,-0.016339004,0.07248395,-0.117549665,-0.42105344,-0.36266246,0.059990317,3.0732687,-0.62341845,0.00016118912,-0.1796787,0.03322196,0.0001428044,-0.031286485,0.014535242,0.010911177,0.46400794,-1.3412905,1.8544911,-2.0859911,-1.566214,2.4387715,-0.21811,0.23311192,-0.2915599,0.03241421,0.021698399,-0.22885144,-0.1340753,0.15322891,-9.634268,0.92764956,47.64658,-1.211018,-2.464228,-3.3659847,-0.19441168,0.1202102,-0.27444592,25.625,26.4375,25.5,27.875,28.625,29.0625
0.36805293,-0.6655815,-0.4557424,-0.32829672,-0.040744863,0.06557847,-0.12005666,-0.4214107,-0.36262646,0.059992664,3.0731764,-0.62328196,0.00013836139,-0.18026008,0.03344337,-0.00067555526,-0.030680602,0.013391459,0.0137923295,0.4635997,-1.3408104,1.8538932,-2.0859554,-1.56613,2.43829,-0.21875748,0.2356297,-0.2929176,0.032592777,0.02170752,-0.23237793,-0.38307226,0.24899697,-9.5385,0.95002913,47.67614,-1.2715912,-2.5203855,-3.362999,-0.17612195,0.13212474,-0.2089699,25.625,26.4375,25.5,27.875,28.625,29.0625
0.37005186,-0.2520555,-0.30619615,-0.71450377,-0.021127395,0.063922144,-0.119012535,-0.42177707,-0.36253953,0.059993867,3.0731404,-0.62326235,8.855072e-05,-0.17959574,0.033567205,-0.0015451458,-0.029416798,0.012030316,0.0075358585,0.4631433,-1.3403544,1.8533186,-2.0858839,-1.5661181,2.4378264,-0.2178801,0.23662828,-0.292302,0.032742374,0.021183737,-0.2252444,-0.36391866,0.24899697,-9.672575,0.9612189,47.690468,-1.2727405,-2.5040014,-3.499549,-0.16439901,0.14059305,-0.23426908,25.625,26.4375,25.5,27.875,28.625,29.0625
0.37205204,0.3969888,0.2540089,-0.77408797,-0.023581736,0.076468706,-0.12101837,-0.4221222,-0.362442,0.059968453,3.0731385,-0.6233034,0.00013004294,-0.1802692,0.034151576,-0.000839609,-0.030029897,0.013278904,-0.00028513235,0.46268734,-1.3398747,1.8527693,-2.0857875,-1.5661062,2.4373965,-0.21918488,0.23540322,-0.29251376,0.032770224,0.021156305,-0.2187291,-0.1340753,0.21068975,-9.615114,0.90527004,47.688675,-1.3462052,-2.5199075,-3.57655,-0.13367721,0.14313647,-0.33118328,25.625,26.4375,25.5,27.875,28.625,29.0625
0.37405205,-0.55282956,-0.44068623,-0.48549068,-0.01758993,0.044841506,-0.093067475,-0.42249805,-0.36239436,0.059963223,3.073063,-0.62325156,8.270219e-05,-0.18172443,0.034493968,-0.000107460764,-0.03080991,0.014312123,-0.006085839,0.4622672,-1.3393596,1.8521451,-2.0857522,-1.566058,2.436954,-0.22088856,0.23582225,-0.29495814,0.03352223,0.021401854,-0.21462947,-0.11492168,0.1340753,-9.481039,0.9164598,47.66808,-1.3834674,-2.3559198,-3.6289086,-0.11423445,0.15893914,-0.40690476,25.625,26.4375,25.5,27.875,28.625,29.0625
0.37605208,0.6780406,0.15554805,-0.21476895,-0.011349518,0.052644327,-0.121632904,-0.4228684,-0.3623477,0.05998835,3.0729418,-0.623245,-6.2015547e-06,-0.18324144,0.035091706,-0.00037081167,-0.030869903,0.013522741,-0.0060551316,0.4618465,-1.3389152,1.8515352,-2.0857036,-1.565998,2.4365451,-0.22318615,0.2382816,-0.29767343,0.034489684,0.021848451,-0.21695347,0.019153614,0.095768064,-9.423578,0.9992599,47.690468,-1.2957819,-2.360386,-3.6745286,-0.100618646,0.17934322,-0.44083375,25.625,26.4375,25.5,27.875,28.625,29.0625
0.37805238,1.2253194,0.74024016,-0.40739074,0.0061346428,0.04555536,-0.123525485,-0.42322728,-0.36225688,0.059964865,3.0729065,-0.6232734,2.6465817e-05,-0.18602216,0.03654224,0.0006974395,-0.03189128,0.015283411,-0.001927362,0.461377,-1.3384233,1.8509716,-2.0856311,-1.5659617,2.436098,-0.22777131,0.23855843,-0.30071077,0.035278637,0.022018882,-0.22566552,0.0,0.038307227,-9.385271,0.9791215,47.66271,-1.2389588,-2.2903647,-3.5075257,-0.08605682,0.1885469,-0.36177212,25.625,26.4375,25.5,27.875,28.625,29.0625
