Tylouw/Master_Thesis_Code/training_data/batch_1/rect_rod_t0.1/sample_2_session_1.csv
timestamp[s],tcp_force_x[N],tcp_force_y[N],tcp_force_z[N],tcp_force_rx[Nm?],tcp_force_ry[Nm?],tcp_force_rz[Nm?],tcp_pose_x[m],tcp_pose_y[m],tcp_pose_z[m],tcp_pose_rx[rot_vec_x],tcp_pose_ry[rot_vec_y],tcp_pose_rz[rot_vec_z],tcp_velo_x[m/s],tcp_velo_y[m/s],tcp_velo_z[m/s],tcp_velo_rx[rot_vec_x/s],tcp_velo_ry[rot_vec_y/s],tcp_velo_rz[rot_vec_z/s],q1[rad],q2[rad],q3[rad],q4[rad],q5[rad],q6[rad],qd1[rad/s],qd2[rad/s],qd3[rad/s],qd4[rad/s],qd5[rad/s],qd6[rad/s],tool_acc_x,tool_acc_y,tool_acc_z,current_of_whole_robot[A],voltage_of_whole_robot[V],current_J1[A],current_J2[A],current_J3[A],current_J4[A],current_J5[A],current_J6[A],temp_J1[C],temp_J2[C],temp_J3[C],temp_J4[C],temp_J5[C],temp_J6[C]
6.4999995e-07,-0.85072106,-0.9229286,-0.37876022,-0.01794346,0.008648763,0.00813155,-0.3893438,-0.36872557,0.060029197,-3.0787363,0.62491566,0.00027626386,0.001161756,0.0006477831,-0.0011684711,0.001049561,-0.002263028,5.979494e-05,0.50504476,-1.3816799,1.9041995,-2.0919273,-1.5708655,2.4800253,-0.00011626652,-1.857907e-05,0.0027311551,-0.00022494586,0.00018187425,-0.00017741173,0.11492168,0.19153613,-8.580819,0.7530795,47.71823,-0.19837955,-2.9729767,-2.3321614,-0.22055092,0.12586464,0.026150549,24.25,24.625,24.0,25.3125,25.3125,25.5
0.002052315,-1.0186383,-0.55949515,-0.14843515,-0.032197136,0.013312557,-0.0022708077,-0.38933736,-0.36871493,0.0600122,-3.0787156,0.6249114,0.00023691703,-0.0017351176,-0.00096306525,-0.0022451149,-0.0028093723,0.004677557,5.68124e-05,0.50503284,-1.3816664,1.9042233,-2.0919316,-1.5708655,2.4800134,-0.000112629,0.0038979286,0.0033944726,-0.012745972,0.00017313988,-0.00016910199,0.038307227,0.19153613,-8.446744,0.7463667,47.728977,-0.1887219,-3.311306,-2.5476716,-0.05963832,0.1357893,0.039208926,24.25,24.625,24.0,25.3125,25.3125,25.5
0.004052029,-1.0186383,-0.55949515,-0.14843515,-0.032197136,0.013312557,-0.0022708077,-0.38933736,-0.36871493,0.0600122,-3.0787156,0.6249114,0.00023691703,-0.0017351176,-0.00096306525,-0.0022451149,-0.0028093723,0.004677557,5.68124e-05,0.50503284,-1.3816664,1.9042233,-2.0919316,-1.5708655,2.4800134,-0.000112629,0.0038979286,0.0033944726,-0.012745972,0.00017313988,-0.00016910199,0.038307227,0.19153613,-8.446744,0.7463667,47.728977,-0.1887219,-3.311306,-2.5476716,-0.05963832,0.1357893,0.039208926,24.25,24.625,24.0,25.3125,25.3125,25.5
0.006051637,0.15311548,0.5107133,-0.7006591,0.014163128,0.0018023725,-0.0019063761,-0.389346,-0.36871976,0.059992854,-3.0787072,0.62494797,0.00023519041,-0.00023339926,-0.0001255694,0.0003656574,-0.001263646,0.0019387655,5.1638814e-05,0.50503284,-1.3816203,1.9042228,-2.091976,-1.5708655,2.4800372,-0.000109212175,-0.0012437328,0.0011365974,-0.0022016265,0.00016519468,-0.000161515,0.038307227,0.17238252,-8.714894,0.7530795,47.72002,-0.22019558,-3.035884,-2.407053,-0.12934382,0.1145718,0.028782334,24.25,24.625,24.0,25.3125,25.3125,25.5
0.008051796,0.36415887,0.49841046,-0.93201923,0.024939105,0.0074997903,-0.0109758945,-0.3893217,-0.36873198,0.059977878,-3.0786963,0.62488824,0.00016460566,0.00017444795,7.555854e-05,0.0003242195,-0.00050625246,0.00043946182,5.786332e-05,0.5050687,-1.3815962,1.9042228,-2.0919511,-1.5708536,2.4800372,-0.00010766963,-0.0012049996,0.0007183248,-0.00014375048,0.0002316331,-0.00016634376,0.05746084,0.21068975,-8.925584,0.6926589,47.72002,-0.682459,-2.4650679,-3.0434601,-0.13209166,0.0970394,-0.01854952,24.25,24.625,24.0,25.3125,25.3125,25.5
0.010052022,0.36415887,0.49841046,-0.93201923,0.024939105,0.0074997903,-0.0109758945,-0.3893217,-0.36873198,0.059977878,-3.0786963,0.62488824,0.00016460566,0.00017444795,7.555854e-05,0.0003242195,-0.00050625246,0.00043946182,5.786332e-05,0.5050687,-1.3815962,1.9042228,-2.0919511,-1.5708536,2.4800372,-0.00010766963,-0.0012049996,0.0007183248,-0.00014375048,0.0002316331,-0.00016634376,0.05746084,0.21068975,-8.925584,0.6926589,47.72002,-0.682459,-2.4650679,-3.0434601,-0.13209166,0.0970394,-0.01854952,24.25,24.625,24.0,25.3125,25.3125,25.5
0.012051833,-0.9035675,-0.62193674,-1.1443075,0.0025854313,-0.0010974419,0.0038869842,-0.38932514,-0.36873123,0.059983335,-3.0787036,0.624928,0.00016378672,0.0008547605,0.0004709101,-0.0028606153,0.00353866,-0.006777594,0.00011943717,0.5050568,-1.3816062,1.9042219,-2.0919497,-1.5708417,2.4800491,-0.000113245216,0.0058195037,-0.0010083334,0.0028317117,0.00018695343,-0.00023191735,0.1340753,0.1340753,-9.078813,0.78217715,47.690468,-0.80324066,-2.402383,-3.155878,-0.1339132,0.08421641,-0.094103314,24.25,24.625,24.0,25.3125,25.3125,25.5
0.014051983,-1.7874243,-1.9909036,-1.5891159,-0.053917896,0.04727803,0.0024354998,-0.38934723,-0.3686927,0.059946246,-3.0786042,0.6248852,5.4848846e-05,-0.0051354812,0.0027471492,-0.0036488273,0.0042440225,-0.007982756,0.0047307373,0.50499356,-1.3815069,1.9041728,-2.0918782,-1.5708774,2.479972,-0.009521367,0.013811272,-0.008963756,0.004188967,0.00013648062,-0.014246898,-0.22984336,0.30645782,-9.3661175,0.71951014,47.70211,-0.44044048,-2.9310758,-3.149414,-0.13376763,0.07564531,-0.023860881,24.25,24.625,24.0,25.3125,25.3125,25.5
0.016051697,-1.7874243,-1.9909036,-1.5891159,-0.053917896,0.04727803,0.0024354998,-0.38934723,-0.3686927,0.059946246,-3.0786042,0.6248852,5.4848846e-05,-0.0051354812,0.0027471492,-0.0036488273,0.0042440225,-0.007982756,0.0047307373,0.50499356,-1.3815069,1.9041728,-2.0918782,-1.5708774,2.479972,-0.009521367,0.013811272,-0.008963756,0.004188967,0.00013648062,-0.014246898,-0.22984336,0.30645782,-9.3661175,0.71951014,47.70211,-0.44044048,-2.9310758,-3.149414,-0.13376763,0.07564531,-0.023860881,24.25,24.625,24.0,25.3125,25.3125,25.5
0.018052487,-2.0604203,-1.7113764,-1.898058,-0.044588264,0.08305,-0.028663041,-0.38930565,-0.36869168,0.05991634,-3.0785997,0.6248277,-0.00011955438,-0.0056876224,0.0030256752,-0.003068999,0.0048064915,-0.008954524,0.0047561005,0.5049932,-1.3814948,1.9042181,-2.091841,-1.5708174,2.4799361,-0.010494404,0.014207927,-0.011488298,0.00744026,0.000114890616,-0.015244522,-0.36391866,0.3256114,-9.5385,0.7105615,47.701214,-0.77035946,-2.6611483,-3.3667517,-0.11829698,0.07441937,-0.052052625,24.25,24.625,24.0,25.3125,25.3125,25.5
0.020051576,-1.9822046,-0.885986,-1.998691,-0.03939368,0.08084918,-0.041637566,-0.3893317,-0.3687059,0.059927464,-3.0786176,0.6248133,-9.2811686e-05,-0.0067660757,0.0031690896,-0.0034923868,0.0056056115,-0.01039498,0.0028998898,0.5049927,-1.3814577,1.9041461,-2.0918286,-1.5708174,2.4799244,-0.011743287,0.017207466,-0.014429644,0.0090294285,0.00011016043,-0.014635672,-0.45968673,0.30645782,-9.615114,0.8224646,47.65912,-0.8725599,-2.6246052,-3.4211605,-0.12623464,0.06752258,-0.09254147,24.25,24.625,24.0,25.3125,25.3125,25.5
0.022052562,-1.9822046,-0.885986,-1.998691,-0.03939368,0.08084918,-0.041637566,-0.3893317,-0.3687059,0.059927464,-3.0786176,0.6248133,-9.2811686e-05,-0.0067660757,0.0031690896,-0.0034923868,0.0056056115,-0.01039498,0.0028998898,0.5049927,-1.3814577,1.9041461,-2.0918286,-1.5708174,2.4799244,-0.011743287,0.017207466,-0.014429644,0.0090294285,0.00011016043,-0.014635672,-0.45968673,0.30645782,-9.615114,0.8224646,47.65912,-0.8725599,-2.6246052,-3.4211605,-0.12623464,0.06752258,-0.09254147,24.25,24.625,24.0,25.3125,25.3125,25.5
0.024052024,-2.1311607,-1.4555423,-2.3906548,-0.03406021,0.080173455,-0.0446707,-0.38933837,-0.36867598,0.05987992,-3.0785205,0.62477416,-0.00025235207,-0.009060259,0.0040211356,-0.003962863,0.0060733436,-0.010453081,0.002299457,0.5049438,-1.3813484,1.9041089,-2.0917566,-1.5708297,2.4798634,-0.015081,0.02042814,-0.017103892,0.008761005,-0.00028112734,-0.017370632,-0.68953013,0.21068975,-9.787497,0.72622824,47.67614,-0.9119308,-2.7597759,-3.3925486,-0.08705664,0.033344995,-0.103052825,24.25,24.625,24.0,25.3125,25.3125,25.5
0.026052138,-2.2630863,-1.3363253,-2.1043553,-0.0446972,0.0875236,-0.04104893,-0.3893698,-0.36866015,0.059862174,-3.0784771,0.62482363,-0.0002839903,-0.009711456,0.004643665,-0.0035643394,0.0062183146,-0.010623327,0.00089009135,0.5048952,-1.3812766,1.9040617,-2.0917447,-1.5708417,2.4798512,-0.0167088,0.020167908,-0.018020831,0.010157219,-0.00032570018,-0.01758879,-0.7278373,0.17238253,-9.844957,0.7620334,47.658226,-0.92310363,-2.6618614,-3.4697254,-0.09078551,0.032640357,-0.093889266,24.25,24.625,24.0,25.3125,25.3125,25.5
0.028052226,-2.2630863,-1.3363253,-2.1043553,-0.0446972,0.0875236,-0.04104893,-0.3893698,-0.36866015,0.059862174,-3.0784771,0.62482363,-0.0002839903,-0.009711456,0.004643665,-0.0035643394,0.0062183146,-0.010623327,0.00089009135,0.5048952,-1.3812766,1.9040617,-2.0917447,-1.5708417,2.4798512,-0.0167088,0.020167908,-0.018020831,0.010157219,-0.00032570018,-0.01758879,-0.7278373,0.17238253,-9.844957,0.7620334,47.658226,-0.92310363,-2.6618614,-3.4697254,-0.09078551,0.032640357,-0.093889266,24.25,24.625,24.0,25.3125,25.3125,25.5
0.030051565,-2.327406,-0.8455357,-2.1861804,-0.02611757,0.09853465,-0.048532024,-0.3894088,-0.3686452,0.059842654,-3.0784736,0.62482435,-0.00037823434,-0.011983607,0.0043103853,-0.0030845068,0.005945703,-0.010028947,-0.0031420288,0.50481087,-1.3811911,1.9039997,-2.0917203,-1.5708054,2.4797678,-0.018237708,0.023392135,-0.023225646,0.011486813,-0.00038365094,-0.015082954,-0.7086837,0.019153614,-9.768343,0.7665104,47.71823,-0.90221894,-2.7051105,-3.3831615,-0.091204256,0.025630157,-0.1349805,24.25,24.625,24.0,25.3125,25.3125,25.5
0.032051735,-1.9248505,0.026396243,-2.260236,-0.018351464,0.10771436,-0.051149394,-0.3894241,-0.368656,0.059839915,-3.078457,0.6247833,-0.0003931013,-0.013243285,0.004185227,-0.0025196366,0.0054712235,-0.008540253,-0.004123721,0.50482243,-1.381131,1.9039267,-2.0916846,-1.5708178,2.4797559,-0.019011853,0.02409119,-0.025304105,0.0113347145,-0.00069337524,-0.014873834,-0.61291564,-0.019153614,-9.825804,0.7978386,47.703903,-0.93546295,-2.6543221,-3.3760734,-0.09126159,0.00709732,-0.15592092,24.25,24.625,24.0,25.3125,25.3125,25.5
0.03405248,-1.9248505,0.026396243,-2.260236,-0.018351464,0.10771436,-0.051149394,-0.3894241,-0.368656,0.059839915,-3.078457,0.6247833,-0.0003931013,-0.013243285,0.004185227,-0.0025196366,0.0054712235,-0.008540253,-0.004123721,0.50482243,-1.381131,1.9039267,-2.0916846,-1.5708178,2.4797559,-0.019011853,0.02409119,-0.025304105,0.0113347145,-0.00069337524,-0.014873834,-0.61291564,-0.019153614,-9.825804,0.7978386,47.703903,-0.93546295,-2.6543221,-3.3760734,-0.09126159,0.00709732,-0.15592092,24.25,24.625,24.0,25.3125,25.3125,25.5
0.036052264,-1.7013414,-0.44260302,-2.1883712,0.0045400513,0.07840603,-0.038665134,-0.38951412,-0.36862382,0.059849624,-3.078429,0.62485427,-0.00030196924,-0.015192732,0.004173576,-0.002033697,0.004720817,-0.007017369,-0.005024691,0.50471413,-1.3810586,1.903819,-2.0916846,-1.570866,2.4796956,-0.020757478,0.025699224,-0.028225701,0.0109517975,-0.0007811014,-0.015716862,-0.38307226,-0.019153614,-9.730036,0.7709874,47.66808,-0.9412155,-2.642819,-3.3940892,-0.05796182,0.006028391,-0.18571143,24.25,24.625,24.0,25.3125,25.3125,25.5
0.03805242,-0.8526999,-0.43644407,-2.1441581,-0.00076746434,0.074978925,-0.043632213,-0.38954264,-0.36862424,0.059840277,-3.0784252,0.6248924,-0.00038175893,-0.016646089,0.004305556,-0.0016067111,0.004658555,-0.006884728,-0.0058240257,0.5046658,-1.3809857,1.903746,-2.0916483,-1.5708302,2.4796715,-0.02232862,0.027236074,-0.031339966,0.012383475,-0.0007954923,-0.016487252,-0.30645782,-0.019153614,-9.749189,0.7396539,47.70032,-0.9272325,-2.6238546,-3.3471866,-0.045314234,-0.020980434,-0.19878553,24.25,24.625,24.0,25.3125,25.3125,25.5
0.040052444,-0.8526999,-0.43644407,-2.1441581,-0.00076746434,0.074978925,-0.043632213,-0.38954264,-0.36862424,0.059840277,-3.0784252,0.6248924,-0.00038175893,-0.016646089,0.004305556,-0.0016067111,0.004658555,-0.006884728,-0.0058240257,0.5046658,-1.3809857,1.903746,-2.0916483,-1.5708302,2.4796715,-0.02232862,0.027236074,-0.031339966,0.012383475,-0.0007954923,-0.016487252,-0.30645782,-0.019153614,-9.749189,0.7396539,47.70032,-0.9272325,-2.6238546,-3.3471866,-0.045314234,-0.020980434,-0.19878553,24.25,24.625,24.0,25.3125,25.3125,25.5
0.042051986,-1.3660227,-0.9151163,-2.2387192,-0.013164483,0.04785082,-0.037639067,-0.38962552,-0.3685923,0.0598346,-3.078363,0.62493724,-0.00039061648,-0.017744731,0.0057465294,-0.0020114367,0.007248605,-0.008406252,-0.006105182,0.5045571,-1.3808651,1.9036025,-2.0915873,-1.5708665,2.4795988,-0.02482045,0.029079245,-0.0331872,0.014976116,-0.0023278166,-0.018694147,-0.19153613,0.038307227,-9.595961,0.78217715,47.693153,-0.9102403,-2.684268,-3.3932586,-0.054019168,-0.06093985,-0.19130194,24.25,24.625,24.0,25.3125,25.3125,25.5
0.044052143,-1.1391068,-0.96811444,-2.1222398,-0.019504584,0.05179125,-0.040347062,-0.38965482,-0.36858425,0.059847567,-3.078352,0.6249922,-0.00041776884,-0.018572474,0.006180071,-0.0019085981,0.008590556,-0.008161703,-0.005644202,0.50450903,-1.3808408,1.9035305,-2.0915267,-1.570855,2.4795864,-0.025513818,0.030112777,-0.034895457,0.016090104,-0.0036232418,-0.019845188,-0.095768064,0.019153614,-9.576807,0.78888994,47.67614,-0.8980923,-2.611011,-3.469709,-0.06676033,-0.028230574,-0.21207099,24.25,24.625,24.0,25.3125,25.3125,25.5
0.046052434,-1.1391068,-0.96811444,-2.1222398,-0.019504584,0.05179125,-0.040347062,-0.38965482,-0.36858425,0.059847567,-3.078352,0.6249922,-0.00041776884,-0.018572474,0.006180071,-0.0019085981,0.008590556,-0.008161703,-0.005644202,0.50450903,-1.3808408,1.9035305,-2.0915267,-1.570855,2.4795864,-0.025513818,0.030112777,-0.034895457,0.016090104,-0.0036232418,-0.019845188,-0.095768064,0.019153614,-9.576807,0.78888994,47.67614,-0.8980923,-2.611011,-3.469709,-0.06676033,-0.028230574,-0.21207099,24.25,24.625,24.0,25.3125,25.3125,25.5
0.04805198,-1.4135092,-1.4371235,-2.20017,-0.032451034,0.02328661,-0.030926336,-0.38976336,-0.36855254,0.059843376,-3.078304,0.6250578,-0.00039454942,-0.021270638,0.005631099,-0.0006318361,0.0065227477,-0.0062411907,-0.004934935,0.5043765,-1.3806959,1.9033607,-2.091491,-1.5708908,2.479501,-0.02764813,0.0320338,-0.040245056,0.016833091,-0.0027540727,-0.022688035,0.019153614,0.24899697,-9.5385,0.7620334,47.677036,-0.8501195,-2.5539079,-3.3398194,-0.073166095,-0.051696666,-0.23804119,24.25,24.625,24.0,25.3125,25.3125,25.5
0.050052278,-0.3534411,-1.5476081,-1.9722732,-0.04663191,0.0324474,-0.0425791,-0.38980165,-0.36854488,0.059850525,-3.0783038,0.6250196,-0.00040921484,-0.022255389,0.006103315,-0.00082415785,0.00617006,-0.006457515,-0.0053301705,0.5043278,-1.3806475,1.9032763,-2.0914428,-1.5708908,2.4794285,-0.02961581,0.033082355,-0.040981557,0.016538063,-0.0023445475,-0.024260761,0.019153614,0.22984336,-9.481039,0.842603,47.70211,-0.8040864,-2.5176096,-3.3908052,-0.086695634,-0.06591616,-0.23735158,24.25,24.625,24.0,25.3125,25.3125,25.5
0.05205244,-0.3534411,-1.5476081,-1.9722732,-0.04663191,0.0324474,-0.0425791,-0.38980165,-0.36854488,0.059850525,-3.0783038,0.6250196,-0.00040921484,-0.022255389,0.006103315,-0.00082415785,0.00617006,-0.006457515,-0.0053301705,0.5043278,-1.3806475,1.9032763,-2.0914428,-1.5708908,2.4794285,-0.02961581,0.033082355,-0.040981557,0.016538063,-0.0023445475,-0.024260761,0.019153614,0.22984336,-9.481039,0.842603,47.70211,-0.8040864,-2.5176096,-3.3908052,-0.086695634,-0.06591616,-0.23735158,24.25,24.625,24.0,25.3125,25.3125,25.5
0.054052263,-0.90258574,-1.9656279,-1.9753273,-0.05906756,0.02805875,-0.036733966,-0.38990727,-0.36854106,0.059862327,-3.0783148,0.6251367,-0.00040649137,-0.024512773,0.0061091864,0.0001941347,0.0052616484,-0.0040587997,-0.004436233,0.50420743,-1.380515,1.9030846,-2.091407,-1.5708665,2.47938,-0.031493325,0.03406986,-0.04446024,0.016491376,-0.0027175439,-0.027029967,-0.019153614,0.2873042,-9.519346,0.77545905,47.67166,-0.8316071,-2.4955907,-3.321094,-0.105113074,-0.06346884,-0.24663226,24.25,24.625,24.0,25.3125,25.3125,25.5
0.056052487,-0.81581706,-1.9872313,-1.9623625,-0.053880226,0.04235146,-0.036872987,-0.38993952,-0.36849985,0.05985143,-3.07824,0.62517846,-0.00046741127,-0.026320746,0.006288127,0.00084647053,0.004746092,-0.0024949266,-0.005220164,0.50412315,-1.3804667,1.903036,-2.091335,-1.5708908,2.4793313,-0.033285026,0.035038773,-0.047104783,0.016548708,-0.0030301786,-0.028035687,0.019153614,0.38307226,-9.500193,0.7463667,47.664497,-0.79942405,-2.4945612,-3.3478365,-0.10080019,-0.084114805,-0.24936588,24.25,24.625,24.0,25.3125,25.3125,25.5
0.058052517,-0.81581706,-1.9872313,-1.9623625,-0.053880226,0.04235146,-0.036872987,-0.38993952,-0.36849985,0.05985143,-3.07824,0.62517846,-0.00046741127,-0.026320746,0.006288127,0.00084647053,0.004746092,-0.0024949266,-0.005220164,0.50412315,-1.3804667,1.903036,-2.091335,-1.5708908,2.4793313,-0.033285026,0.035038773,-0.047104783,0.016548708,-0.0030301786,-0.028035687,0.019153614,0.38307226,-9.500193,0.7463667,47.664497,-0.79942405,-2.4945612,-3.3478365,-0.10080019,-0.084114805,-0.24936588,24.25,24.625,24.0,25.3125,25.3125,25.5
0.060051937,-0.3378284,-1.3889036,-1.732235,-0.050415505,0.06474109,-0.049603872,-0.39005676,-0.36848664,0.05983836,-3.0782287,0.6251931,-0.00048338677,-0.02728604,0.005818658,0.00062490784,0.0048212344,-0.002552966,-0.0026140045,0.50399137,-1.3802735,1.9028319,-2.0913112,-1.5708908,2.4792101,-0.033359244,0.03765705,-0.04972272,0.016634744,-0.0030759354,-0.030714475,-0.095768064,0.40222588,-9.423578,0.8157518,47.68062,-0.87151396,-2.4279943,-3.3467412,-0.11159301,-0.09260898,-0.2819638,24.25,24.625,24.0,25.3125,25.3125,25.5
0.062052008,-0.3378284,-1.3889036,-1.732235,-0.050415505,0.06474109,-0.049603872,-0.39005676,-0.36848664,0.05983836,-3.0782287,0.6251931,-0.00048338677,-0.02728604,0.005818658,0.00062490784,0.0048212344,-0.002552966,-0.0026140045,0.50399137,-1.3802735,1.9028319,-2.0913112,-1.5708908,2.4792101,-0.033359244,0.03765705,-0.04972272,0.016634744,-0.0030759354,-0.030714475,-0.095768064,0.40222588,-9.423578,0.8157518,47.68062,-0.87151396,-2.4279943,-3.3467412,-0.11159301,-0.09260898,-0.2819638,24.25,24.625,24.0,25.3125,25.3125,25.5
0.06405247,-1.1493921,-1.3700846,-1.5982487,-0.035561625,0.044265106,-0.03698545,-0.39009348,-0.3684944,0.059848897,-3.0782473,0.6251586,-0.0005216693,-0.028791483,0.0056158183,0.001618143,0.0038313686,-0.00062999176,-0.0026132364,0.50395495,-1.3802133,1.9027232,-2.0912516,-1.5708665,2.4791498,-0.034377005,0.037938435,-0.05236281,0.016832253,-0.0031441154,-0.031731736,-0.095768064,0.28730422,-9.3661175,0.80456203,47.67166,-0.86227286,-2.4933257,-3.342414,-0.12105134,-0.116163775,-0.28702793,24.25,24.625,24.0,25.3125,25.3125,25.5
0.06605192,-1.0617411,-0.99215096,-1.6424848,-0.038450774,0.041310556,-0.04566158,-0.39018884,-0.36847916,0.059861857,-3.0782263,0.6252315,-0.0004159861,-0.030393738,0.0060809483,0.0017562379,0.004166108,0.00038136318,-0.003455937,0.5038706,-1.3801168,1.9025797,-2.0912516,-1.5709151,2.4791138,-0.036157142,0.03937855,-0.054341495,0.01664766,-0.0039295075,-0.0326667,-0.05746084,0.24899697,-9.308657,0.71951014,47.684196,-0.84322166,-2.3565607,-3.3594668,-0.10712713,-0.12190096,-0.29166445,24.25,24.625,24.0,25.3125,25.3125,25.5
0.06805199,-1.370206,-1.0292965,-1.6422204,-0.029668976,0.03408729,-0.03621833,-0.39020604,-0.36846444,0.059840955,-3.0781813,0.62518317,-0.0005442006,-0.03149145,0.0067216386,0.0014062801,0.006138097,0.00064894144,-0.0028461355,0.5038223,-1.3800318,1.9025077,-2.0911677,-1.5709032,2.479041,-0.03709576,0.041360788,-0.055977944,0.01702629,-0.005792569,-0.034209892,-0.05746084,0.21068975,-9.32781,0.8090337,47.66539,-0.8044156,-2.4124813,-3.3462229,-0.12024766,-0.100543305,-0.3023097,24.25,24.625,24.0,25.3125,25.3125,25.5
0.07005199,-1.0312767,-0.9220994,-1.3913126,-0.026261479,0.055252127,-0.04581336,-0.39029658,-0.36845532,0.05987376,-3.078208,0.6252265,-0.00041922642,-0.03200074,0.007453256,0.0006661936,0.008255108,-0.00011629221,-0.0030565555,0.5037383,-1.3799833,1.9023756,-2.0911672,-1.5709285,2.4789808,-0.037869364,0.043234367,-0.05661468,0.017485492,-0.007275222,-0.03477006,-0.19153613,0.19153614,-9.270349,0.82022345,47.687782,-0.90231776,-2.4076753,-3.3853645,-0.13157523,-0.089584544,-0.31770676,24.25,24.625,24.0,25.3125,25.3125,25.5
0.07205209,-1.7229669,-0.7131915,-1.519456,-0.006736248,0.06855307,-0.044002824,-0.39039576,-0.36843607,0.05985232,-3.0781782,0.62514174,-0.00053447025,-0.033915676,0.008141682,0.0008296127,0.009515221,0.00033775246,-0.0015807296,0.50360584,-1.3797784,1.90216,-2.091071,-1.5709165,2.4787993,-0.0399722,0.045446195,-0.059903406,0.01877641,-0.008607965,-0.03834376,-0.2681506,0.19153614,-9.251195,0.7665104,47.733456,-0.8923183,-2.4524345,-3.296103,-0.13287312,-0.08634327,-0.33669472,24.25,24.625,24.0,25.3125,25.3125,25.5
0.07405224,-1.7371588,-0.55946195,-1.3507935,-0.003413088,0.068772085,-0.034076713,-0.39050707,-0.36843416,0.05991361,-3.0782425,0.6251545,-0.00032503775,-0.034916364,0.008658001,0.0006890451,0.0115735205,0.0008399685,-0.0012713597,0.50352174,-1.3797536,1.9019912,-2.091071,-1.5709532,2.4787152,-0.04048989,0.047147166,-0.06175645,0.019486932,-0.010650764,-0.039167106,-0.38307226,0.019153614,-9.289502,0.82022345,47.64479,-0.87735146,-2.4118192,-3.3567517,-0.16631678,-0.05173582,-0.3495069,24.25,24.625,24.0,25.3125,25.3125,25.5
0.076052435,-1.7371588,-0.55946195,-1.3507935,-0.003413088,0.068772085,-0.034076713,-0.39050707,-0.36843416,0.05991361,-3.0782425,0.6251545,-0.00032503775,-0.034916364,0.008658001,0.0006890451,0.0115735205,0.0008399685,-0.0012713597,0.50352174,-1.3797536,1.9019912,-2.091071,-1.5709532,2.4787152,-0.04048989,0.047147166,-0.06175645,0.019486932,-0.010650764,-0.039167106,-0.38307226,0.019153614,-9.289502,0.82022345,47.64479,-0.87735146,-2.4118192,-3.3567517,-0.16631678,-0.05173582,-0.3495069,24.25,24.625,24.0,25.3125,25.3125,25.5
0.078051776,-1.5608916,-0.5346466,-1.4640284,-0.0008859773,0.05618672,-0.039134983,-0.39061698,-0.36841124,0.059876226,-3.0781925,0.6251806,-0.00046602383,-0.03721718,0.008032568,0.0015990436,0.009471223,0.0017736169,0.0006715382,0.5033655,-1.3795129,1.9017752,-2.090999,-1.5709289,2.4785817,-0.042427536,0.04940068,-0.06669762,0.02033601,-0.009275199,-0.0430472,-0.36391866,0.05746084,-9.212888,0.78217715,47.67345,-0.9439783,-2.4263494,-3.1646676,-0.16459188,-0.06052213,-0.33955038,24.25,24.625,24.0,25.3125,25.3125,25.5
0.08005174,-1.4649978,-0.84614223,-1.4725869,-0.004770158,0.05943422,-0.03143118,-0.39070335,-0.3683813,0.059889372,-3.0781617,0.6251939,-0.00043193504,-0.03748919,0.008923087,0.0007046768,0.009828282,-0.0014406355,0.000383562,0.5032566,-1.379428,1.9016312,-2.0909383,-1.5709642,2.478485,-0.04494178,0.051096704,-0.06704177,0.021964433,-0.008036445,-0.04527577,-0.4213795,0.038307227,-9.289502,0.784413,47.65464,-0.8196138,-2.3430862,-3.394661,-0.17799857,-0.08505596,-0.3483464,24.25,24.625,24.0,25.3125,25.3125,25.5
0.0820522,-1.4649978,-0.84614223,-1.4725869,-0.004770158,0.05943422,-0.03143118,-0.39070335,-0.3683813,0.059889372,-3.0781617,0.6251939,-0.00043193504,-0.03748919,0.008923087,0.0007046768,0.009828282,-0.0014406355,0.000383562,0.5032566,-1.379428,1.9016312,-2.0909383,-1.5709642,2.478485,-0.04494178,0.051096704,-0.06704177,0.021964433,-0.008036445,-0.04527577,-0.4213795,0.038307227,-9.289502,0.784413,47.65464,-0.8196138,-2.3430862,-3.394661,-0.17799857,-0.08505596,-0.3483464,24.25,24.625,24.0,25.3125,25.3125,25.5
0.084051885,-1.8699933,-1.3250337,-1.4176033,-0.012567507,0.06289943,-0.042502146,-0.39086902,-0.36836684,0.05990215,-3.0782006,0.625082,-0.000406324,-0.038503166,0.0074573755,0.0011310482,0.0076900343,-0.0016160364,0.005445782,0.5030773,-1.379211,1.9013318,-2.0908787,-1.5709633,2.4782312,-0.04461716,0.053601746,-0.071149945,0.022680571,-0.006088542,-0.050015554,-0.59376204,0.095768064,-9.385271,0.8023209,47.655537,-0.9887184,-2.378704,-3.2510736,-0.21155961,-0.120898694,-0.3069761,24.25,24.625,24.0,25.3125,25.3125,25.5
0.08605214,-2.0543494,-1.1071851,-1.2704058,-0.015982287,0.07541848,-0.037117377,-0.39093173,-0.36834195,0.059884664,-3.078117,0.62508494,-0.0004971575,-0.04009823,0.008267573,0.00014344405,0.008766597,-0.0026611893,0.003523897,0.5029925,-1.3790655,1.9011749,-2.0907705,-1.570988,2.478159,-0.04717804,0.057084944,-0.07298352,0.022465328,-0.006538153,-0.050651703,-0.59376204,0.095768064,-9.32781,0.7530795,47.651955,-0.86501896,-2.4699092,-3.3191922,-0.22382882,-0.14232756,-0.3176772,24.25,24.625,24.0,25.3125,25.3125,25.5
0.0880524,-2.0543494,-1.1071851,-1.2704058,-0.015982287,0.07541848,-0.037117377,-0.39093173,-0.36834195,0.059884664,-3.078117,0.62508494,-0.0004971575,-0.04009823,0.008267573,0.00014344405,0.008766597,-0.0026611893,0.003523897,0.5029925,-1.3790655,1.9011749,-2.0907705,-1.570988,2.478159,-0.04717804,0.057084944,-0.07298352,0.022465328,-0.006538153,-0.050651703,-0.59376204,0.095768064,-9.32781,0.7530795,47.651955,-0.86501896,-2.4699092,-3.3191922,-0.22382882,-0.14232756,-0.3176772,24.25,24.625,24.0,25.3125,25.3125,25.5
0.09005191,-2.4131205,-1.0233352,-1.5928105,-0.017787697,0.0742933,-0.030005377,-0.39100584,-0.36831513,0.059892394,-3.078097,0.6250402,-0.00043462196,-0.04121479,0.009131123,0.0016058367,0.008755491,-0.0004942373,0.0059563275,0.5029081,-1.3789943,1.9010676,-2.0907462,-1.5710357,2.4780493,-0.049012702,0.05485801,-0.073975906,0.02378007,-0.007574655,-0.05491677,-0.34476504,0.17238252,-9.423578,0.800085,47.67793,-0.81654316,-2.424544,-3.302103,-0.23705576,-0.13873097,-0.2908175,24.25,24.625,24.0,25.3125,25.3125,25.5
0.09205195,-1.7983897,-1.1165172,-1.4282769,-0.019594628,0.07737393,-0.033721525,-0.39107615,-0.36832136,0.059885073,-3.0781245,0.6249683,-0.0005263872,-0.042351764,0.009887708,0.0015217564,0.009903056,-0.0008854385,0.0077549974,0.50282365,-1.3788495,1.9008993,-2.0906866,-1.5709885,2.4779165,-0.050820313,0.05631835,-0.07580864,0.02505221,-0.00839755,-0.058520176,-0.38307226,0.1340753,-9.3661175,0.800085,47.625084,-0.7922354,-2.325369,-3.3637853,-0.26314008,-0.121336535,-0.23810947,24.25,24.625,24.0,25.3125,25.3125,25.5
0.09405198,-1.7985778,-1.0611246,-1.463257,-0.019702185,0.06648794,-0.038246024,-0.39120543,-0.3682782,0.059909955,-3.078091,0.6250542,-0.0004099087,-0.04212622,0.009446003,0.0005969138,0.011775364,-0.0022141428,0.012306911,0.50266856,-1.3787526,1.9007195,-2.0906498,-1.5710491,2.4778194,-0.049229123,0.05915672,-0.077210754,0.025680155,-0.009399773,-0.061478227,-0.40222588,0.19153613,-9.32781,0.7866488,47.683304,-0.90470946,-2.3709326,-3.3825243,-0.28178766,-0.12786655,-0.20088077,24.25,24.625,24.0,25.3125,25.3125,25.5
0.09605206,-1.8385129,-1.2797148,-1.6142339,-0.013110279,0.052251045,-0.03595216,-0.3913626,-0.36821368,0.059881598,-3.0779963,0.6249375,-0.0004777774,-0.045428723,0.011196358,0.0015651631,0.014170312,0.0020094507,0.012542271,0.50245184,-1.3784881,1.9004439,-2.0905306,-1.5711101,2.4775422,-0.05263424,0.059931062,-0.0802898,0.025444642,-0.013550997,-0.06510713,-0.22984336,0.22984336,-9.32781,0.80679786,47.67614,-0.8910129,-2.3259926,-3.417397,-0.3017237,-0.07887803,-0.16649935,24.25,24.625,24.0,25.3125,25.3125,25.5
0.09805212,-1.2176101,-0.81164575,-1.4728807,-0.027543278,0.065110736,-0.044238027,-0.39145258,-0.3682089,0.05988426,-3.0779788,0.62493205,-0.00048188298,-0.04602322,0.011236941,0.0006177713,0.015165563,-5.191943e-05,0.01401899,0.5023678,-1.3783429,1.9002522,-2.0904706,-1.5711225,2.477457,-0.05331652,0.06330862,-0.08236345,0.026423374,-0.013435916,-0.067264944,-0.19153613,0.17238252,-9.32781,0.6926589,47.694946,-0.93408,-2.3426003,-3.373318,-0.29363504,-0.06713066,-0.11550763,24.25,24.625,24.0,25.3125,25.3125,25.5
0.100052156,-1.2176101,-0.81164575,-1.4728807,-0.027543278,0.065110736,-0.044238027,-0.39145258,-0.3682089,0.05988426,-3.0779788,0.62493205,-0.00048188298,-0.04602322,0.011236941,0.0006177713,0.015165563,-5.191943e-05,0.01401899,0.5023678,-1.3783429,1.9002522,-2.0904706,-1.5711225,2.477457,-0.05331652,0.06330862,-0.08236345,0.026423374,-0.013435916,-0.067264944,-0.19153613,0.17238252,-9.32781,0.6926589,47.694946,-0.93408,-2.3426003,-3.373318,-0.29363504,-0.06713066,-0.11550763,24.25,24.625,24.0,25.3125,25.3125,25.5
0.1020517,-1.4040376,-1.0235702,-1.5500141,-0.03416177,0.056457136,-0.032628685,-0.39155513,-0.36820176,0.05989181,-3.0780168,0.62482446,-0.0004560206,-0.04676094,0.010482797,0.00087813206,0.01334391,-1.390439e-05,0.01393821,0.5022599,-1.3782102,1.9000725,-2.0904462,-1.5711216,2.4772773,-0.0537005,0.06453145,-0.084386356,0.026305912,-0.011861701,-0.067570925,-0.15322891,0.24899697,-9.308657,0.8403672,47.658226,-0.9302733,-2.4492998,-3.382001,-0.31376308,-0.07292678,-0.10192726,24.25,24.625,24.0,25.3125,25.3125,25.5
0.10405166,-0.82355624,-1.0067389,-1.5350857,-0.040689487,0.05381359,-0.038734656,-0.39164415,-0.36818972,0.059899107,-3.0780125,0.62472725,-0.0004738238,-0.049129546,0.0091277445,0.0024645878,0.00977144,0.0028376405,0.012247983,0.50216377,-1.3780776,1.8998798,-2.0903623,-1.5711325,2.477121,-0.054696724,0.065732315,-0.08931439,0.025806101,-0.010116396,-0.06687833,-0.15322891,0.24899697,-9.3661175,0.7463667,47.645687,-0.95015836,-2.435205,-3.3334703,-0.32257736,-0.09862481,-0.08587624,24.25,24.625,24.0,25.3125,25.3125,25.5
0.106052,-0.60070896,-1.1817064,-1.5972192,-0.033180702,0.03899585,-0.03795758,-0.3917358,-0.36816692,0.05988898,-3.077983,0.62470275,-0.0004773672,-0.049110025,0.009651239,0.0017809925,0.01075501,0.0022643637,0.011102653,0.5020557,-1.3779333,1.8997239,-2.090327,-1.5711573,2.4770017,-0.055179484,0.06642597,-0.08845927,0.025232919,-0.010703493,-0.0662144,-0.11492168,0.24899697,-9.404425,0.78217715,47.67166,-0.95251536,-2.3596516,-3.3588648,-0.32038724,-0.08948788,-0.0812577,24.25,24.625,24.0,25.3125,25.3125,25.5
0.108052015,-0.63124025,-1.6103667,-1.6438166,-0.033775404,0.034203567,-0.04043037,-0.39193544,-0.36810228,0.05986883,-3.0778928,0.6247227,-0.00051724154,-0.05172307,0.009403893,0.0026160162,0.011129112,0.004294981,0.007843549,0.50179195,-1.3776319,1.8993882,-2.0902188,-1.571206,2.476762,-0.056337863,0.06933941,-0.09408018,0.02633998,-0.01202181,-0.06410725,-0.05746084,0.30645782,-9.404425,0.78888994,47.696735,-1.047385,-2.3047247,-3.128907,-0.33939403,-0.075957224,-0.106556356,24.25,24.625,24.0,25.3125,25.3125,25.5
0.1100521,-0.92563516,-1.2568574,-1.9113518,-0.035988484,0.03050192,-0.027948892,-0.39207727,-0.3681012,0.059905093,-3.0779274,0.62467235,-0.0003284664,-0.051907994,0.009704447,0.0020319584,0.01180203,0.003319154,0.005854259,0.50169593,-1.3774996,1.8991488,-2.0902188,-1.571266,2.4766304,-0.056925204,0.070616536,-0.09429822,0.026456337,-0.012134949,-0.06270607,0.019153614,0.30645782,-9.481039,0.74413085,47.66271,-1.0187321,-2.367159,-3.3352334,-0.34662408,-0.06805511,-0.12767312,24.25,24.625,24.0,25.3125,25.3125,25.5
0.11205213,-0.92563516,-1.2568574,-1.9113518,-0.035988484,0.03050192,-0.027948892,-0.39207727,-0.3681012,0.059905093,-3.0779274,0.62467235,-0.0003284664,-0.051907994,0.009704447,0.0020319584,0.01180203,0.003319154,0.005854259,0.50169593,-1.3774996,1.8991488,-2.0902188,-1.571266,2.4766304,-0.056925204,0.070616536,-0.09429822,0.026456337,-0.012134949,-0.06270607,0.019153614,0.30645782,-9.481039,0.74413085,47.66271,-1.0187321,-2.367159,-3.3352334,-0.34662408,-0.06805511,-0.12767312,24.25,24.625,24.0,25.3125,25.3125,25.5
0.114052,-0.8573199,-2.142151,-2.055524,-0.05180581,0.033551928,-0.038322352,-0.39224064,-0.36805585,0.05987624,-3.0778587,0.6246217,-0.0004746541,-0.053621788,0.0092549855,0.0021581757,0.009996542,0.0032302788,0.0016734296,0.5014678,-1.3771985,1.898825,-2.0900753,-1.5712656,2.4763796,-0.058735035,0.07319501,-0.097659715,0.026442103,-0.0105225425,-0.060335677,-0.019153614,0.3256114,-9.519346,0.8157518,47.67166,-1.050139,-2.3667681,-3.282898,-0.33625466,-0.07473081,-0.16870819,24.25,24.625,24.0,25.3125,25.3125,25.5
0.11605218,-0.8573199,-2.142151,-2.055524,-0.05180581,0.033551928,-0.038322352,-0.39224064,-0.36805585,0.05987624,-3.0778587,0.6246217,-0.0004746541,-0.053621788,0.0092549855,0.0021581757,0.009996542,0.0032302788,0.0016734296,0.5014678,-1.3771985,1.898825,-2.0900753,-1.5712656,2.4763796,-0.058735035,0.07319501,-0.097659715,0.026442103,-0.0105225425,-0.060335677,-0.019153614,0.3256114,-9.519346,0.8157518,47.67166,-1.050139,-2.3667681,-3.282898,-0.33625466,-0.07473081,-0.16870819,24.25,24.625,24.0,25.3125,25.3125,25.5
0.118051924,-0.31501707,-1.7836729,-1.9604622,-0.06678121,0.04977418,-0.043116793,-0.3923717,-0.3680292,0.05988837,-3.0778205,0.62470925,-0.00042602728,-0.05496506,0.009156542,0.0019925293,0.009765154,0.0035567349,-4.3539854e-05,0.50132376,-1.3770412,1.8985976,-2.0900156,-1.5713013,2.4762952,-0.05981958,0.07550576,-0.099933386,0.026004136,-0.010481595,-0.059702165,-0.076614454,0.34476504,-9.595961,0.83589023,47.661808,-1.1311946,-2.4320314,-3.2810578,-0.34016162,-0.07748628,-0.18526545,24.25,24.625,24.0,25.3125,25.3125,25.5
0.12005191,-0.44639808,-1.5789436,-2.0509586,-0.047397107,0.05984034,-0.037595257,-0.39255828,-0.3679921,0.05986557,-3.0777738,0.62462294,-0.0005157325,-0.058009498,0.008391687,0.0033751891,0.00789035,0.0073245578,-0.0023655691,0.5010959,-1.3767163,1.8982371,-2.089896,-1.5713133,2.4760196,-0.0612071,0.07752372,-0.10530211,0.025147887,-0.010665521,-0.058763843,-0.019153614,0.28730422,-9.557653,0.7911258,47.690468,-1.1145862,-2.2963197,-3.2987375,-0.3153952,-0.09896002,-0.25686273,24.25,24.625,24.0,25.3125,25.3125,25.5
0.12205225,-0.44639808,-1.5789436,-2.0509586,-0.047397107,0.05984034,-0.037595257,-0.39255828,-0.3679921,0.05986557,-3.0777738,0.62462294,-0.0005157325,-0.058009498,0.008391687,0.0033751891,0.00789035,0.0073245578,-0.0023655691,0.5010959,-1.3767163,1.8982371,-2.089896,-1.5713133,2.4760196,-0.0612071,0.07752372,-0.10530211,0.025147887,-0.010665521,-0.058763843,-0.019153614,0.28730422,-9.557653,0.7911258,47.690468,-1.1145862,-2.2963197,-3.2987375,-0.3153952,-0.09896002,-0.25686273,24.25,24.625,24.0,25.3125,25.3125,25.5
0.12405167,-1.010557,-1.0242698,-1.9409022,-0.035094224,0.046811365,-0.037884276,-0.39270288,-0.3679915,0.059893098,-3.077813,0.6246099,-0.00039287092,-0.05771915,0.0089238845,0.002877021,0.007704135,0.006174897,-0.0011814975,0.5009758,-1.3765602,1.8979868,-2.0898845,-1.5713371,2.4758866,-0.062256828,0.077273265,-0.10380667,0.024815165,-0.009944282,-0.06100084,-0.038307227,0.24899697,-9.5385,0.7777002,47.64121,-1.144793,-2.349219,-3.3472118,-0.32336712,-0.09413787,-0.27257583,24.25,24.625,24.0,25.3125,25.3125,25.5
0.12605217,-1.7474457,-0.527126,-1.8337402,-0.024510734,0.0497652,-0.0350471,-0.39294016,-0.36795458,0.059908308,-3.0777724,0.62465966,-0.00033446433,-0.06001376,0.008313025,0.003311742,0.006295881,0.0076246783,-0.003134733,0.5007238,-1.376247,1.8975562,-2.0897763,-1.5713848,2.475671,-0.06364265,0.0801947,-0.108166575,0.024298906,-0.009414135,-0.060432557,-0.11492168,0.19153613,-9.500193,0.76874626,47.658226,-1.2103007,-2.2617707,-3.3332205,-0.2938026,-0.11847366,-0.31132025,24.25,24.625,24.0,25.3125,25.3125,25.5
0.12805234,-1.0401183,-0.79321533,-1.7669193,-0.012283547,0.07675351,-0.03415295,-0.3930649,-0.36794034,0.05991918,-3.0777755,0.62460214,-0.00032191927,-0.061122812,0.0082571255,0.0033404494,0.0062979776,0.007800739,-0.0034876089,0.5005919,-1.3760781,1.8973149,-2.0897048,-1.5713967,2.475503,-0.064495996,0.081984885,-0.110442564,0.024629328,-0.009504562,-0.060931697,-0.095768064,0.15322891,-9.5385,0.76874626,47.68062,-1.2961838,-2.254006,-3.3125873,-0.2803846,-0.113864325,-0.33945036,24.25,24.625,24.0,25.3125,25.3125,25.5
0.13005252,-1.0401183,-0.79321533,-1.7669193,-0.012283547,0.07675351,-0.03415295,-0.3930649,-0.36794034,0.05991918,-3.0777755,0.62460214,-0.00032191927,-0.061122812,0.0082571255,0.0033404494,0.0062979776,0.007800739,-0.0034876089,0.5005919,-1.3760781,1.8973149,-2.0897048,-1.5713967,2.475503,-0.064495996,0.081984885,-0.110442564,0.024629328,-0.009504562,-0.060931697,-0.095768064,0.15322891,-9.5385,0.76874626,47.68062,-1.2961838,-2.254006,-3.3125873,-0.2803846,-0.113864325,-0.33945036,24.25,24.625,24.0,25.3125,25.3125,25.5
0.13205208,-1.2792132,-0.4298354,-1.7175872,-0.03242135,0.074444145,-0.033627313,-0.39330974,-0.36791724,0.059920076,-3.077785,0.62462467,-0.00029776405,-0.063384235,0.009544221,0.0028231298,0.0073533226,0.0078188535,-0.008151983,0.500327,-1.3757288,1.8968848,-2.0896447,-1.5713972,2.4752512,-0.06811872,0.08481666,-0.11261389,0.024460971,-0.010441249,-0.059886824,-0.28730422,0.05746084,-9.481039,0.779936,47.650166,-1.2312279,-2.2295406,-3.3803205,-0.24824415,-0.1284853,-0.41537082,24.25,24.625,24.0,25.3125,25.3125,25.5
0.13405205,-1.2671834,-0.6142725,-1.6900419,-0.027777258,0.07487771,-0.044929083,-0.39342627,-0.36788124,0.05991017,-3.0777102,0.62456703,-0.0003101743,-0.06336067,0.008456028,0.0033565843,0.00729053,0.008905712,-0.0043764585,0.50019616,-1.3755364,1.8966573,-2.0895488,-1.5714573,2.475094,-0.065954566,0.085300975,-0.114513494,0.024888054,-0.010915192,-0.06149569,-0.38307226,0.1340753,-9.385271,0.76874626,47.65464,-1.3670728,-2.2195106,-3.453201,-0.24415356,-0.13339987,-0.45762008,24.25,24.625,24.0,25.3125,25.3125,25.5
0.13605233,-1.2671834,-0.6142725,-1.6900419,-0.027777258,0.07487771,-0.044929083,-0.39342627,-0.36788124,0.05991017,-3.0777102,0.62456703,-0.0003101743,-0.06336067,0.008456028,0.0033565843,0.00729053,0.008905712,-0.0043764585,0.50019616,-1.3755364,1.8966573,-2.0895488,-1.5714573,2.475094,-0.065954566,0.085300975,-0.114513494,0.024888054,-0.010915192,-0.06149569,-0.38307226,0.1340753,-9.385271,0.76874626,47.65464,-1.3670728,-2.2195106,-3.453201,-0.24415356,-0.13339987,-0.45762008,24.25,24.625,24.0,25.3125,25.3125,25.5
0.13805181,-1.7387358,-1.015997,-1.7137384,-0.022492519,0.07152721,-0.033344876,-0.3937036,-0.36786833,0.05992832,-3.0777473,0.62465066,-0.00021441099,-0.06685655,0.010355465,0.0030923155,0.0076370058,0.008492369,-0.0045209085,0.49991837,-1.3751749,1.8961786,-2.0895126,-1.5714573,2.474864,-0.072246954,0.088772565,-0.118236676,0.025661374,-0.011026271,-0.067642376,-0.45968673,0.19153613,-9.3661175,0.8537928,47.682407,-1.2142338,-2.1799283,-3.38944,-0.23097193,-0.12883087,-0.4763622,24.25,24.625,24.0,25.3125,25.3125,25.5
0.1400519,-1.7387358,-1.015997,-1.7137384,-0.022492519,0.07152721,-0.033344876,-0.3937036,-0.36786833,0.05992832,-3.0777473,0.62465066,-0.00021441099,-0.06685655,0.010355465,0.0030923155,0.0076370058,0.008492369,-0.0045209085,0.49991837,-1.3751749,1.8961786,-2.0895126,-1.5714573,2.474864,-0.072246954,0.088772565,-0.118236676,0.025661374,-0.011026271,-0.067642376,-0.45968673,0.19153613,-9.3661175,0.8537928,47.682407,-1.2142338,-2.1799283,-3.38944,-0.23097193,-0.12883087,-0.4763622,24.25,24.625,24.0,25.3125,25.3125,25.5
0.14205231,-1.6582185,-0.899993,-1.6385161,-0.025065629,0.0741615,-0.031141799,-0.39381194,-0.3678431,0.0599258,-3.0777256,0.62460303,-0.00027344932,-0.066216595,0.009015164,0.0029841636,0.0069537405,0.007884703,0.0017486379,0.49977574,-1.3750064,1.8959626,-2.0894167,-1.5714568,2.4746945,-0.06993308,0.08987307,-0.1193624,0.025884798,-0.010143427,-0.071599014,-0.49799395,0.21068975,-9.423578,0.8537928,47.690468,-1.3741153,-2.2093859,-3.4805357,-0.20826812,-0.13243553,-0.4824714,24.25,24.625,24.0,25.3125,25.3125,25.5
0.14405228,-1.3658637,-0.5931343,-1.5323753,-0.033614706,0.09149359,-0.045465972,-0.39408645,-0.36781272,0.0599673,-3.0777678,0.62453014,-0.00016593027,-0.0685521,0.010802863,0.0030049784,0.00867367,0.008675774,0.0074331257,0.499487,-1.3746936,1.8954724,-2.089309,-1.5714816,2.4743552,-0.07385482,0.09137489,-0.12135538,0.02650029,-0.0120366225,-0.08120076,-0.49799395,0.15322891,-9.3661175,0.80456203,47.64837,-1.4589056,-2.198062,-3.4814398,-0.19456843,-0.12236892,-0.4066255,24.25,24.625,24.0,25.3125,25.3125,25.5
0.1460518,-1.8084096,-0.68688995,-1.6359582,-0.027110282,0.0732217,-0.030503465,-0.39422643,-0.36779281,0.05994927,-3.077726,0.62448007,-0.00014632572,-0.071574174,0.010407247,0.0036724203,0.0069562765,0.010319347,0.011683136,0.49935415,-1.3744524,1.8952187,-2.0892732,-1.5715293,2.4741967,-0.076383285,0.09463802,-0.12673445,0.026337413,-0.011335037,-0.08797797,-0.34476504,0.076614454,-9.423578,0.8537928,47.637623,-1.347858,-2.0935555,-3.4199438,-0.13966341,-0.1393096,-0.3631742,24.25,24.625,24.0,25.3125,25.3125,25.5
0.14805193,-1.8084096,-0.68688995,-1.6359582,-0.027110282,0.0732217,-0.030503465,-0.39422643,-0.36779281,0.05994927,-3.077726,0.62448007,-0.00014632572,-0.071574174,0.010407247,0.0036724203,0.0069562765,0.010319347,0.011683136,0.49935415,-1.3744524,1.8952187,-2.0892732,-1.5715293,2.4741967,-0.076383285,0.09463802,-0.12673445,0.026337413,-0.011335037,-0.08797797,-0.34476504,0.076614454,-9.423578,0.8537928,47.637623,-1.347858,-2.0935555,-3.4199438,-0.13966341,-0.1393096,-0.3631742,24.25,24.625,24.0,25.3125,25.3125,25.5
0.15005258,-1.2784721,-0.2665923,-1.4658628,-0.032349065,0.07399603,-0.04279194,-0.39452907,-0.36772203,0.05997129,-3.0777063,0.6244526,-4.833066e-05,-0.072602935,0.01158749,0.0028678973,0.008479488,0.0071972185,0.016589958,0.49899396,-1.374103,1.894729,-2.089165,-1.5715894,2.473822,-0.07934214,0.097525425,-0.12900658,0.0291758,-0.011178019,-0.09584335,-0.49799395,0.0,-9.346964,0.84708,47.66271,-1.1832843,-2.1808095,-3.5622048,-0.10469122,-0.15218805,-0.23930722,24.25,24.625,24.0,25.3125,25.3125,25.5
0.15205178,-1.2784721,-0.2665923,-1.4658628,-0.032349065,0.07399603,-0.04279194,-0.39452907,-0.36772203,0.05997129,-3.0777063,0.6244526,-4.833066e-05,-0.072602935,0.01158749,0.0028678973,0.008479488,0.0071972185,0.016589958,0.49899396,-1.374103,1.894729,-2.089165,-1.5715894,2.473822,-0.07934214,0.097525425,-0.12900658,0.0291758,-0.011178019,-0.09584335,-0.49799395,0.0,-9.346964,0.84708,47.66271,-1.1832843,-2.1808095,-3.5622048,-0.10469122,-0.15218805,-0.23930722,24.25,24.625,24.0,25.3125,25.3125,25.5
0.15405184,-1.9916605,-0.49501145,-1.4187883,-0.012214594,0.06306173,-0.033237282,-0.39482418,-0.3676981,0.05998055,-3.0777197,0.6242819,-2.8723487e-06,-0.07549824,0.013551019,0.0031597225,0.008941709,0.006347746,0.014401586,0.49870443,-1.3736699,1.8941659,-2.0890439,-1.5716251,2.4734247,-0.08523131,0.09948872,-0.13263516,0.031798307,-0.01118079,-0.09954284,-0.4405331,0.15322891,-9.32781,0.8918391,47.661808,-1.14329,-2.152258,-3.471128,-0.09647502,-0.16231366,-0.1605536,24.25,24.625,24.0,25.3125,25.3125,25.5
0.15605196,-1.9916605,-0.49501145,-1.4187883,-0.012214594,0.06306173,-0.033237282,-0.39482418,-0.3676981,0.05998055,-3.0777197,0.6242819,-2.8723487e-06,-0.07549824,0.013551019,0.0031597225,0.008941709,0.006347746,0.014401586,0.49870443,-1.3736699,1.8941659,-2.0890439,-1.5716251,2.4734247,-0.08523131,0.09948872,-0.13263516,0.031798307,-0.01118079,-0.09954284,-0.4405331,0.15322891,-9.32781,0.8918391,47.661808,-1.14329,-2.152258,-3.471128,-0.09647502,-0.16231366,-0.1605536,24.25,24.625,24.0,25.3125,25.3125,25.5
0.15805231,-1.2436686,-0.77110744,-1.6631861,-0.008408012,0.08913097,-0.039292227,-0.39497036,-0.36767873,0.059973948,-3.0777116,0.62431747,-6.016894e-06,-0.07518013,0.012693536,0.0020172172,0.009784102,0.003977436,0.015232186,0.4985375,-1.3734523,1.8939141,-2.0890076,-1.5716251,2.4732811,-0.08371169,0.103059076,-0.13447113,0.032545928,-0.010789022,-0.098853506,-0.3256114,0.15322891,-9.346964,0.8291774,47.6636,-1.2308377,-2.3665335,-3.323688,-0.0873605,-0.17320949,-0.1630452,24.25,24.625,24.0,25.3125,25.3125,25.5
0.16005242,-1.4499478,-0.70943266,-1.2344992,-0.028634325,0.08468098,-0.03211743,-0.39528075,-0.36761284,0.05999162,-3.0776863,0.62425953,1.17546015e-05,-0.078888096,0.014208601,0.0021986424,0.010597957,0.0039268094,0.003324464,0.49816433,-1.3730545,1.8933629,-2.0888398,-1.5716614,2.4728754,-0.08915248,0.10699822,-0.14008039,0.034650665,-0.011483889,-0.0923823,-0.5554548,0.13407528,-9.193734,0.8537928,47.66091,-1.0422618,-2.2754796,-3.374707,-0.0675925,-0.18504222,-0.2202561,24.25,24.625,24.0,25.3125,25.3125,25.5
0.16205251,-1.4499478,-0.70943266,-1.2344992,-0.028634325,0.08468098,-0.03211743,-0.39528075,-0.36761284,0.05999162,-3.0776863,0.62425953,1.17546015e-05,-0.078888096,0.014208601,0.0021986424,0.010597957,0.0039268094,0.003324464,0.49816433,-1.3730545,1.8933629,-2.0888398,-1.5716614,2.4728754,-0.08915248,0.10699822,-0.14008039,0.034650665,-0.011483889,-0.0923823,-0.5554548,0.13407528,-9.193734,0.8537928,47.66091,-1.0422618,-2.2754796,-3.374707,-0.0675925,-0.18504222,-0.2202561,24.25,24.625,24.0,25.3125,25.3125,25.5
0.16405186,-1.2723178,-0.8030116,-1.5106091,-0.015882371,0.078785315,-0.039907474,-0.39542693,-0.3675835,0.05997852,-3.0776677,0.6241811,6.7525743e-06,-0.08078611,0.014483595,0.0039071916,0.009621392,0.0067052776,-0.002251045,0.49799597,-1.3728269,1.8931111,-2.0887916,-1.5716857,2.4726605,-0.09102474,0.10599571,-0.14303264,0.035699207,-0.011956599,-0.08867685,-0.4213795,0.17238252,-9.136273,0.7911258,47.66271,-0.9889526,-2.1482122,-3.3067698,-0.063096,-0.17552929,-0.26088583,24.25,24.625,24.0,25.3125,25.3125,25.5
0.1660519,-1.041348,-0.6730154,-1.4170011,-0.022022953,0.06377866,-0.03218837,-0.39577958,-0.36750734,0.06000442,-3.077589,0.6242229,0.00013802516,-0.083218515,0.015133344,0.003160277,0.010188813,0.0047666687,-0.0068605156,0.49761158,-1.3723928,1.8925003,-2.0886347,-1.5717934,2.4723127,-0.09452189,0.11101013,-0.14770755,0.037319742,-0.011533123,-0.08756335,-0.38307226,0.21068975,-9.193734,0.8247004,47.684196,-0.85490334,-2.2960184,-3.1796498,-0.024409654,-0.19012083,-0.33559838,24.25,24.625,24.0,25.3125,25.3125,25.5
0.16805203,-1.1630822,-0.6964994,-1.5835284,-0.023501981,0.057368983,-0.031721342,-0.39594534,-0.36747265,0.06001638,-3.077545,0.6242887,0.00019901658,-0.08414938,0.015696058,0.0026221024,0.011288197,0.003861273,-0.007127212,0.49743164,-1.3721876,1.8922127,-2.0885627,-1.5718421,2.4721797,-0.0959451,0.11322052,-0.1492887,0.038005188,-0.012069209,-0.08871792,-0.36391866,0.22984336,-9.174581,0.80456203,47.688675,-0.80874217,-2.3852744,-3.1862535,-0.024197552,-0.1677677,-0.3200503,24.25,24.625,24.0,25.3125,25.3125,25.5
0.17005205,-1.1630822,-0.6964994,-1.5835284,-0.023501981,0.057368983,-0.031721342,-0.39594534,-0.36747265,0.06001638,-3.077545,0.6242887,0.00019901658,-0.08414938,0.015696058,0.0026221024,0.011288197,0.003861273,-0.007127212,0.49743164,-1.3721876,1.8922127,-2.0885627,-1.5718421,2.4721797,-0.0959451,0.11322052,-0.1492887,0.038005188,-0.012069209,-0.08871792,-0.36391866,0.22984336,-9.174581,0.80456203,47.688675,-0.80874217,-2.3852744,-3.1862535,-0.024197552,-0.1677677,-0.3200503,24.25,24.625,24.0,25.3125,25.3125,25.5
0.17205256,-2.056454,-1.25879,-1.7216102,-0.02424302,0.06616556,-0.01631503,-0.39625663,-0.36742547,0.060003184,-3.0775185,0.6242259,9.365033e-05,-0.084889956,0.016457662,0.0023733517,0.012358855,0.001741253,-0.009346045,0.4970597,-1.3716947,1.8916153,-2.0883825,-1.5718297,2.4717722,-0.09785575,0.114987716,-0.15151893,0.040839147,-0.012004852,-0.088408194,-0.4405331,0.24899697,-9.308656,0.8940802,47.690468,-0.85780454,-2.2350998,-3.278697,-0.035545677,-0.18537857,-0.4009726,24.25,24.625,24.0,25.3125,25.3125,25.5
0.1740525,-1.6814389,-1.0912025,-1.5252266,-0.039584134,0.08851544,-0.04017879,-0.3964678,-0.36738893,0.06002385,-3.0775046,0.62435424,0.00017255277,-0.08520006,0.016707303,0.002180946,0.013008182,0.0010006794,-0.0068519833,0.49682006,-1.371454,1.8912681,-2.0883224,-1.5718535,2.4716146,-0.09836779,0.115980215,-0.15250051,0.041781284,-0.012222022,-0.09141396,-0.38307226,0.11492168,-9.289502,0.8179876,47.655537,-0.84474814,-2.225995,-3.2388532,-0.018390626,-0.20191017,-0.3927116,24.25,24.625,24.0,25.3125,25.3125,25.5
0.17605248,-1.6814389,-1.0912025,-1.5252266,-0.039584134,0.08851544,-0.04017879,-0.3964678,-0.36738893,0.06002385,-3.0775046,0.62435424,0.00017255277,-0.08520006,0.016707303,0.002180946,0.013008182,0.0010006794,-0.0068519833,0.49682006,-1.371454,1.8912681,-2.0883224,-1.5718535,2.4716146,-0.09836779,0.115980215,-0.15250051,0.041781284,-0.012222022,-0.09141396,-0.38307226,0.11492168,-9.289502,0.8179876,47.655537,-0.84474814,-2.225995,-3.2388532,-0.018390626,-0.20191017,-0.3927116,24.25,24.625,24.0,25.3125,25.3125,25.5
0.17805192,-1.7638332,-1.2475265,-1.8464428,-0.03185809,0.06388137,-0.022729,-0.3968112,-0.36730194,0.060027055,-3.077402,0.6243671,0.00019235468,-0.0854024,0.01724329,0.0018051061,0.014992559,-0.002261287,-0.0023176663,0.49641258,-1.3709848,1.8906583,-2.0881288,-1.5719379,2.4712286,-0.09923854,0.11825146,-0.1553992,0.046203725,-0.012420947,-0.096816935,-0.24899697,0.17238252,-9.3661175,0.80679786,47.68062,-0.9537932,-2.163745,-3.4214227,-0.045538858,-0.20022684,-0.422759,24.25,24.625,24.0,25.3125,25.3125,25.5
0.18005212,-1.0671738,-1.0068521,-1.7656677,-0.02709351,0.056244113,-0.029704576,-0.39696318,-0.36725992,0.059998225,-3.0773091,0.62436414,0.00013676446,-0.085437454,0.017365022,-0.00016262181,0.016311992,-0.0050833276,0.0008375745,0.49623308,-1.3707072,1.8903717,-2.088034,-1.5719861,2.4710593,-0.099540986,0.12232628,-0.15564515,0.0454729,-0.012253096,-0.100273244,-0.15322891,0.1340753,-9.346964,0.9164598,47.65912,-1.0084537,-2.2546234,-3.394257,-0.021004051,-0.2050616,-0.3831426,24.25,24.625,24.0,25.3125,25.3125,25.5
0.18205217,-1.0671738,-1.0068521,-1.7656677,-0.02709351,0.056244113,-0.029704576,-0.39696318,-0.36725992,0.059998225,-3.0773091,0.62436414,0.00013676446,-0.085437454,0.017365022,-0.00016262181,0.016311992,-0.0050833276,0.0008375745,0.49623308,-1.3707072,1.8903717,-2.088034,-1.5719861,2.4710593,-0.099540986,0.12232628,-0.15564515,0.0454729,-0.012253096,-0.100273244,-0.15322891,0.1340753,-9.346964,0.9164598,47.65912,-1.0084537,-2.2546234,-3.394257,-0.021004051,-0.2050616,-0.3831426,24.25,24.625,24.0,25.3125,25.3125,25.5
0.18405257,-0.41529727,-0.14648715,-1.7914219,-0.008952027,0.031647313,-0.034215365,-0.39732963,-0.36720473,0.060013227,-3.0773141,0.62431866,0.00015457942,-0.085005805,0.018802857,-0.001596667,0.019972738,-0.010163861,0.011292798,0.49581355,-1.3702135,1.8897136,-2.087876,-1.571998,2.470611,-0.100957826,0.12499354,-0.15663862,0.049991146,-0.013063251,-0.11214313,-0.038307227,0.11492168,-9.289503,0.86945957,47.68599,-1.0878628,-2.3474786,-3.597302,-0.05118138,-0.20205592,-0.26814443,24.25,24.625,24.0,25.3125,25.3125,25.5
0.18605201,0.18244737,0.18676254,-1.8622932,0.003918913,0.03528743,-0.03929695,-0.39750174,-0.36716035,0.060007907,-3.077275,0.6242677,0.000120350436,-0.08624551,0.01926681,6.199161e-05,0.019393034,-0.009821417,0.016483186,0.495597,-1.3699619,1.8894013,-2.0877678,-1.5720218,2.470368,-0.10302211,0.123909734,-0.16002126,0.053864602,-0.012730977,-0.11939727,0.038307227,0.0,-9.423578,0.8537928,47.688675,-0.7913948,-2.2231872,-3.5229928,-0.09368706,-0.2131925,-0.20142248,24.25,24.625,24.0,25.3125,25.3125,25.5
0.18805264,0.18244737,0.18676254,-1.8622932,0.003918913,0.03528743,-0.03929695,-0.39750174,-0.36716035,0.060007907,-3.077275,0.6242677,0.000120350436,-0.08624551,0.01926681,6.199161e-05,0.019393034,-0.009821417,0.016483186,0.495597,-1.3699619,1.8894013,-2.0877678,-1.5720218,2.470368,-0.10302211,0.123909734,-0.16002126,0.053864602,-0.012730977,-0.11939727,0.038307227,0.0,-9.423578,0.8537928,47.688675,-0.7913948,-2.2231872,-3.5229928,-0.09368706,-0.2131925,-0.20142248,24.25,24.625,24.0,25.3125,25.3125,25.5
0.19005269,0.53064317,0.3500667,-1.6467422,0.0010969862,0.03759072,-0.0409318,-0.39769316,-0.36712968,0.06001907,-3.0772843,0.62411577,0.0001661948,-0.08764055,0.01891563,0.0001434432,0.019266326,-0.009083697,0.01634886,0.49539334,-1.3697087,1.8890551,-2.087684,-1.5720576,2.4700685,-0.10350081,0.12627871,-0.1630454,0.053804226,-0.01297984,-0.11973967,0.095768064,0.05746084,-9.423578,0.8806493,47.716442,-0.95252734,-2.2359428,-3.5514708,-0.09779413,-0.20236024,-0.121956974,24.25,24.625,24.0,25.3125,25.3125,25.5
0.19205406,-0.18038154,-0.18715604,-1.8040701,-0.002429945,0.025542201,-0.037655745,-0.3978613,-0.36712086,0.060032703,-3.0772874,0.6240567,0.00014808562,-0.08838818,0.019196294,0.0009065809,0.019181475,-0.009103741,0.017297063,0.49522537,-1.3694565,1.8886961,-2.0875628,-1.5720576,2.4698634,-0.10465339,0.12613523,-0.16513593,0.05601039,-0.012901743,-0.12183992,0.038307227,0.05746084,-9.3661175,0.83589023,47.674347,-0.9917748,-2.2706304,-3.4647355,-0.121092744,-0.2096592,-0.09257527,24.25,24.625,24.0,25.3125,25.3125,25.5
0.19405264,-0.5726557,-0.37237245,-2.0322905,-0.0142159285,0.023700226,-0.02621853,-0.3980311,-0.36706483,0.060036253,-3.077205,0.62402207,0.00016058123,-0.08793767,0.01925072,-0.00050675124,0.022194393,-0.013109761,0.013579238,0.49502212,-1.3692268,1.8883842,-2.0874307,-1.5721306,2.4696493,-0.10382871,0.1300774,-0.16738586,0.05927235,-0.013652013,-0.11729372,-0.038307227,0.095768064,-9.251195,0.85155696,47.675243,-1.012848,-2.2512097,-3.4816291,-0.18689464,-0.20238629,-0.13610232,24.25,24.625,24.0,25.3125,25.3125,25.5
0.19605175,-0.20497149,-1.1511601,-2.0309808,-0.043671746,0.04848214,-0.03137502,-0.39836115,-0.36696005,0.05999786,-3.0770288,0.62398994,-4.462772e-06,-0.08922071,0.019530794,0.00031585176,0.022976138,-0.013339363,0.003095516,0.4945906,-1.368674,1.8877496,-2.0871537,-1.5722021,2.4692206,-0.10500054,0.13124374,-0.17150715,0.06280245,-0.014252715,-0.107976206,-0.038307227,0.22984336,-9.442732,0.8672237,47.651955,-1.1494827,-2.2801821,-3.470416,-0.2622946,-0.20481977,-0.20094535,24.25,24.625,24.0,25.3125,25.3125,25.5
0.19805185,-0.6823764,-1.978539,-2.1111903,-0.051015437,0.053076625,-0.029256755,-0.39853826,-0.36691526,0.060002618,-3.0769925,0.623927,-6.6235676e-05,-0.090099,0.019838097,7.490045e-07,0.022501579,-0.014352373,-0.0024579084,0.49436235,-1.3684212,1.8874019,-2.0869982,-1.5722145,2.468958,-0.10681128,0.13286611,-0.1728421,0.06317943,-0.013363221,-0.10423445,-0.1340753,0.3256114,-9.500193,0.9097417,47.703007,-0.927196,-2.2524903,-3.4593723,-0.29682797,-0.22379205,-0.2773006,24.25,24.625,24.0,25.3125,25.3125,25.5
0.20005195,-0.6823764,-1.978539,-2.1111903,-0.051015437,0.053076625,-0.029256755,-0.39853826,-0.36691526,0.060002618,-3.0769925,0.623927,-6.6235676e-05,-0.090099,0.019838097,7.490045e-07,0.022501579,-0.014352373,-0.0024579084,0.49436235,-1.3684212,1.8874019,-2.0869982,-1.5722145,2.468958,-0.10681128,0.13286611,-0.1728421,0.06317943,-0.013363221,-0.10423445,-0.1340753,0.3256114,-9.500193,0.9097417,47.703007,-0.927196,-2.2524903,-3.4593723,-0.29682797,-0.22379205,-0.2773006,24.25,24.625,24.0,25.3125,25.3125,25.5
0.20205243,-0.82107836,-2.020626,-2.219263,-0.074246176,0.07064716,-0.02629178,-0.39892265,-0.36684853,0.0600174,-3.076896,0.62402225,-9.72707e-05,-0.09294271,0.019144107,0.00095152267,0.020907495,-0.012557763,-0.007177197,0.49393082,-1.3678677,1.886648,-2.0867345,-1.5722617,2.4685986,-0.108447686,0.13601352,-0.17897181,0.06381826,-0.012834841,-0.10114959,-0.19153613,0.47884035,-9.595961,0.8179876,47.683304,-1.125708,-2.1652966,-3.2262099,-0.34353584,-0.21426457,-0.36398244,24.25,24.625,24.0,25.3125,25.3125,25.5
0.20405228,-1.7762445,-2.6983829,-2.3366742,-0.060648624,0.061277162,-0.0125824595,-0.39911798,-0.36681017,0.060040705,-3.0768776,0.6239603,-7.708906e-06,-0.095394365,0.01892498,0.0011043734,0.019446753,-0.008616638,-0.008918987,0.49372682,-1.3676387,1.8863004,-2.0866406,-1.5723222,2.4683585,-0.10988019,0.13790204,-0.18060242,0.05939171,-0.013431587,-0.100837745,-0.11492168,0.47884035,-9.557653,0.83589023,47.67345,-1.0819036,-2.246068,-3.3579302,-0.33490345,-0.23345867,-0.40539035,24.25,24.625,24.0,25.3125,25.3125,25.5
0.20605254,-1.7762445,-2.6983829,-2.3366742,-0.060648624,0.061277162,-0.0125824595,-0.39911798,-0.36681017,0.060040705,-3.0768776,0.6239603,-7.708906e-06,-0.095394365,0.01892498,0.0011043734,0.019446753,-0.008616638,-0.008918987,0.49372682,-1.3676387,1.8863004,-2.0866406,-1.5723222,2.4683585,-0.10988019,0.13790204,-0.18060242,0.05939171,-0.013431587,-0.100837745,-0.11492168,0.47884035,-9.557653,0.83589023,47.67345,-1.0819036,-2.246068,-3.3579302,-0.33490345,-0.23345867,-0.40539035,24.25,24.625,24.0,25.3125,25.3125,25.5
0.20805247,-1.2852123,-2.0916326,-2.2425485,-0.0697887,0.07978541,-0.03056024,-0.39951745,-0.36673847,0.060040914,-3.076798,0.62409526,-5.018569e-05,-0.09716945,0.01845432,-0.0012378416,0.019854162,-0.009712881,-0.008781125,0.4932596,-1.3670597,1.8855599,-2.086426,-1.5723461,2.467986,-0.11066441,0.14509378,-0.18315576,0.055901404,-0.013299623,-0.101757295,-0.22984336,0.6512228,-9.576807,0.8493211,47.721813,-1.1541371,-2.227379,-3.3750446,-0.3069556,-0.23812729,-0.49405885,24.25,24.625,24.0,25.3125,25.3125,25.5
0.21005175,-1.3422436,-1.6857474,-1.8669913,-0.07968675,0.0849712,-0.03384565,-0.39969453,-0.3666991,0.0600179,-3.0767274,0.62403935,-0.00011560421,-0.09883034,0.018353092,-0.00062154356,0.017984409,-0.0069862385,-0.006570929,0.49305546,-1.3667474,1.8852123,-2.0863078,-1.5723819,2.4677563,-0.11214764,0.1452765,-0.18428598,0.053548474,-0.012968694,-0.10545007,-0.38307226,0.53630114,-9.481039,0.86945957,47.67614,-1.2289076,-2.2978227,-3.4287002,-0.31547433,-0.2614491,-0.49024993,24.25,24.625,24.0,25.3125,25.3125,25.5
0.21205191,-1.3422436,-1.6857474,-1.8669913,-0.07968675,0.0849712,-0.03384565,-0.39969453,-0.3666991,0.0600179,-3.0767274,0.62403935,-0.00011560421,-0.09883034,0.018353092,-0.00062154356,0.017984409,-0.0069862385,-0.006570929,0.49305546,-1.3667474,1.8852123,-2.0863078,-1.5723819,2.4677563,-0.11214764,0.1452765,-0.18428598,0.053548474,-0.012968694,-0.10545007,-0.38307226,0.53630114,-9.481039,0.86945957,47.67614,-1.2289076,-2.2978227,-3.4287002,-0.31547433,-0.2614491,-0.49024993,24.25,24.625,24.0,25.3125,25.3125,25.5
0.21405235,-1.7513709,-2.085175,-1.844553,-0.056755386,0.10216125,-0.029645152,-0.4001269,-0.3666538,0.06005488,-3.0767384,0.6240335,-1.2251257e-05,-0.102397494,0.01826947,-0.0016549699,0.01635536,-0.0036338693,0.0052947286,0.49261135,-1.366181,1.8844112,-2.0861304,-1.5724186,2.4673076,-0.11498274,0.15044627,-0.18673009,0.0470651,-0.013160605,-0.120149,-0.36391866,0.34476504,-9.5385,0.86945957,47.653748,-1.1160531,-2.3277478,-3.5910122,-0.2248432,-0.28105757,-0.40768898,24.25,24.625,24.0,25.3125,25.3125,25.5
0.21605256,-1.7513709,-2.085175,-1.844553,-0.056755386,0.10216125,-0.029645152,-0.4001269,-0.3666538,0.06005488,-3.0767384,0.6240335,-1.2251257e-05,-0.102397494,0.01826947,-0.0016549699,0.01635536,-0.0036338693,0.0052947286,0.49261135,-1.366181,1.8844112,-2.0861304,-1.5724186,2.4673076,-0.11498274,0.15044627,-0.18673009,0.0470651,-0.013160605,-0.120149,-0.36391866,0.34476504,-9.5385,0.86945957,47.653748,-1.1160531,-2.3277478,-3.5910122,-0.2248432,-0.28105757,-0.40768898,24.25,24.625,24.0,25.3125,25.3125,25.5
0.21805221,-1.712106,-1.7058427,-1.4702654,-0.061117396,0.11135468,-0.026550481,-0.4003024,-0.3666124,0.060023338,-3.0766912,0.62399834,-0.00011607003,-0.10403031,0.018481243,-0.0005081929,0.014641061,-0.0008469008,0.01312777,0.4923832,-1.3658692,1.8840884,-2.086035,-1.5724181,2.4670637,-0.11685007,0.14950639,-0.1880181,0.046006896,-0.012999945,-0.12984847,-0.49799395,0.24899697,-9.461885,0.87393653,47.67345,-1.0740613,-2.1591964,-3.581129,-0.19161007,-0.29809362,-0.30363563,24.25,24.625,24.0,25.3125,25.3125,25.5
0.22005247,-1.3972268,-0.07684213,-1.1131936,-0.0005061358,0.09943819,-0.03493429,-0.40076923,-0.36657733,0.060069785,-3.0767632,0.62383354,9.6384945e-05,-0.106665105,0.01760721,0.00027660516,0.012851652,0.0021851517,0.02081261,0.49194,-1.3652794,1.8832506,-2.0859158,-1.5724777,2.4665089,-0.117702365,0.15218264,-0.19274676,0.04451307,-0.012867094,-0.13838555,-0.47884035,-0.05746084,-9.232041,0.94331104,47.690468,-1.0571237,-2.3040264,-3.562899,-0.124256715,-0.32227796,-0.18659544,24.25,24.625,24.0,25.3125,25.3125,25.5
0.22205241,-1.3972268,-0.07684213,-1.1131936,-0.0005061358,0.09943819,-0.03493429,-0.40076923,-0.36657733,0.060069785,-3.0767632,0.62383354,9.6384945e-05,-0.106665105,0.01760721,0.00027660516,0.012851652,0.0021851517,0.02081261,0.49194,-1.3652794,1.8832506,-2.0859158,-1.5724777,2.4665089,-0.117702365,0.15218264,-0.19274676,0.04451307,-0.012867094,-0.13838555,-0.47884035,-0.05746084,-9.232041,0.94331104,47.690468,-1.0571237,-2.3040264,-3.562899,-0.124256715,-0.32227796,-0.18659544,24.25,24.625,24.0,25.3125,25.3125,25.5
0.22405194,-1.2449604,0.9295332,-1.1287857,0.021076918,0.08383257,-0.031323474,-0.40099195,-0.3665488,0.06007143,-3.076784,0.6238007,0.00015029398,-0.10980398,0.018246965,0.00092899345,0.012065539,0.0047403877,0.017027838,0.49169925,-1.3649784,1.8828787,-2.0858805,-1.5724901,2.4662452,-0.1212059,0.15418266,-0.19645819,0.04359863,-0.013386474,-0.13810164,-0.45968673,-0.15322891,-9.155427,0.92093146,47.703007,-1.119087,-2.2565804,-3.3896909,-0.09059657,-0.33074692,-0.16524188,24.25,24.625,24.0,25.3125,25.3125,25.5
0.22605194,-0.79633844,1.4511162,-1.1039383,0.04582593,0.07433379,-0.031059807,-0.40141672,-0.366485,0.060064748,-3.076766,0.6236253,0.00013651807,-0.11143538,0.017387496,0.0030795021,0.011679133,0.007952055,0.010058813,0.49123263,-1.3643421,1.8820885,-2.0856874,-1.5725268,2.4656718,-0.12037097,0.1540655,-0.20185941,0.046110306,-0.014562126,-0.13029219,-0.63206923,-0.2681506,-8.944737,0.8717007,47.65912,-1.1888967,-2.0307198,-3.4049854,-0.017720794,-0.34560144,-0.21768856,24.25,24.625,24.0,25.3125,25.3125,25.5
0.228052,-0.79633844,1.4511162,-1.1039383,0.04582593,0.07433379,-0.031059807,-0.40141672,-0.366485,0.060064748,-3.076766,0.6236253,0.00013651807,-0.11143538,0.017387496,0.0030795021,0.011679133,0.007952055,0.010058813,0.49123263,-1.3643421,1.8820885,-2.0856874,-1.5725268,2.4656718,-0.12037097,0.1540655,-0.20185941,0.046110306,-0.014562126,-0.13029219,-0.63206923,-0.2681506,-8.944737,0.8717007,47.65912,-1.1888967,-2.0307198,-3.4049854,-0.017720794,-0.34560144,-0.21768856,24.25,24.625,24.0,25.3125,25.3125,25.5
0.23005244,-0.73763674,1.0157905,-1.3561891,0.03891836,0.0732823,-0.031225823,-0.4016867,-0.3664288,0.06009282,-3.076731,0.6237545,0.00026413507,-0.11290069,0.017483713,0.0038210314,0.011536196,0.007636664,0.003598962,0.49093264,-1.3640413,1.8816456,-2.0856025,-1.5725864,2.4654572,-0.12193504,0.15554757,-0.20600821,0.048983943,-0.014275334,-0.12539656,-0.51714754,-0.3256114,-9.097966,0.8806493,47.661808,-1.1895206,-1.9693942,-3.2766964,0.0041923155,-0.35602707,-0.28551477,24.25,24.625,24.0,25.3125,25.3125,25.5
0.23205258,-0.944535,0.07559526,-1.8023989,-0.010812053,0.08495754,-0.029421309,-0.4020971,-0.3663355,0.06009421,-3.0766134,0.6237301,0.0002116664,-0.112413004,0.019940946,0.0018133926,0.017448023,0.00091814017,7.016842e-05,0.49045292,-1.3634396,1.8808564,-2.0853136,-1.5726594,2.4649777,-0.12420273,0.15900397,-0.2070973,0.055322185,-0.016323557,-0.12412779,-0.4405331,-0.1340753,-9.270349,0.8627467,47.67614,-1.122397,-2.0056956,-3.3054848,-0.046218794,-0.36198875,-0.34091204,24.25,24.625,24.0,25.3125,25.3125,25.5
0.23405263,-1.6434798,-1.2594215,-1.8718102,-0.017270215,0.086715795,-0.025709754,-0.40232542,-0.36629063,0.060085893,-3.076582,0.6237058,0.00020119503,-0.1142079,0.021855017,0.0017047612,0.019400023,3.9922772e-05,-0.0042882874,0.49018797,-1.3631027,1.8804497,-2.0852163,-1.5726837,2.464702,-0.12812254,0.16047657,-0.20918152,0.057626165,-0.017636158,-0.12368413,-0.49799395,-0.05746084,-9.32781,0.8537928,47.661808,-0.9274014,-1.9655166,-3.3095305,-0.05984007,-0.3599394,-0.36901888,24.25,24.625,24.0,25.3125,25.3125,25.5
0.23605171,-1.6434798,-1.2594215,-1.8718102,-0.017270215,0.086715795,-0.025709754,-0.40232542,-0.36629063,0.060085893,-3.076582,0.6237058,0.00020119503,-0.1142079,0.021855017,0.0017047612,0.019400023,3.9922772e-05,-0.0042882874,0.49018797,-1.3631027,1.8804497,-2.0852163,-1.5726837,2.464702,-0.12812254,0.16047657,-0.20918152,0.057626165,-0.017636158,-0.12368413,-0.49799395,-0.05746084,-9.32781,0.8537928,47.661808,-0.9274014,-1.9655166,-3.3095305,-0.05984007,-0.3599394,-0.36901888,24.25,24.625,24.0,25.3125,25.3125,25.5
0.23805201,-1.8359333,-1.4819129,-2.1796598,-0.040514693,0.10424907,-0.026325433,-0.4027823,-0.36618254,0.060087834,-3.0764542,0.6237291,0.00017394449,-0.114208825,0.021393765,0.00013392347,0.020480802,-0.004356217,0.0020671757,0.48964944,-1.362452,1.8796004,-2.0849283,-1.5727676,2.4641948,-0.12786447,0.1655114,-0.21229151,0.060053345,-0.0165488,-0.12978171,-0.45968673,0.11492168,-9.672575,0.85155696,47.695843,-1.0499157,-2.230096,-3.4000454,-0.06618847,-0.3655168,-0.3728862,24.25,24.625,24.0,25.3125,25.3125,25.5
0.24005212,-1.8359333,-1.4819129,-2.1796598,-0.040514693,0.10424907,-0.026325433,-0.4027823,-0.36618254,0.060087834,-3.0764542,0.6237291,0.00017394449,-0.114208825,0.021393765,0.00013392347,0.020480802,-0.004356217,0.0020671757,0.48964944,-1.362452,1.8796004,-2.0849283,-1.5727676,2.4641948,-0.12786447,0.1655114,-0.21229151,0.060053345,-0.0165488,-0.12978171,-0.45968673,0.11492168,-9.672575,0.85155696,47.695843,-1.0499157,-2.230096,-3.4000454,-0.06618847,-0.3655168,-0.3728862,24.25,24.625,24.0,25.3125,25.3125,25.5
0.24205257,-1.6196153,-1.4259615,-2.128924,-0.05195803,0.1010518,-0.0276202,-0.40301615,-0.36612782,0.060086872,-3.076364,0.62374526,0.00015655883,-0.11454828,0.022537814,-0.0016281471,0.022176646,-0.0073134336,0.0068120915,0.4893853,-1.362103,1.8791465,-2.084761,-1.5728272,2.4639525,-0.12991992,0.16854058,-0.21198165,0.060095947,-0.016677188,-0.13658045,-0.21068975,0.21068975,-9.634268,0.9030289,47.687782,-1.0179505,-2.0619216,-3.5055494,-0.058608286,-0.3846156,-0.30469233,24.25,24.625,24.0,25.3125,25.3125,25.5
0.24405262,-0.8744487,-1.4823703,-2.4620054,-0.039913055,0.06942509,-0.02307433,-0.4034811,-0.36603886,0.060081862,-3.0763266,0.6236113,0.00017996437,-0.116076715,0.02284898,-0.0021172704,0.023881977,-0.007895744,0.021267567,0.48885813,-1.3614411,1.8783206,-2.0845692,-1.5728878,2.463347,-0.1308603,0.17223936,-0.21569851,0.06138394,-0.01795215,-0.15197033,-0.11492168,0.28730422,-9.576807,0.900793,47.66808,-1.1229289,-2.2656765,-3.58772,-0.046220012,-0.36706334,-0.11273393,24.25,24.625,24.0,25.3125,25.3125,25.5
0.24605182,-0.5274155,-1.6687902,-2.4782004,-0.036143042,0.052746307,-0.02366414,-0.40370795,-0.36599386,0.06009157,-3.0763154,0.62349,0.00016894577,-0.1155323,0.023054218,-0.002822592,0.025468986,-0.01012869,0.025134811,0.488595,-1.3611282,1.8778905,-2.0844247,-1.5729116,2.4630098,-0.13041306,0.17357673,-0.21616024,0.0632107,-0.01831667,-0.15538856,-0.076614454,0.28730422,-9.749189,0.8717007,47.65912,-1.1650356,-2.2999349,-3.6588626,-0.06521035,-0.3787449,-0.06504536,24.25,24.625,24.0,25.3125,25.3125,25.5
0.24805191,-0.5274155,-1.6687902,-2.4782004,-0.036143042,0.052746307,-0.02366414,-0.40370795,-0.36599386,0.06009157,-3.0763154,0.62349,0.00016894577,-0.1155323,0.023054218,-0.002822592,0.025468986,-0.01012869,0.025134811,0.488595,-1.3611282,1.8778905,-2.0844247,-1.5729116,2.4630098,-0.13041306,0.17357673,-0.21616024,0.0632107,-0.01831667,-0.15538856,-0.076614454,0.28730422,-9.749189,0.8717007,47.65912,-1.1650356,-2.2999349,-3.6588626,-0.06521035,-0.3787449,-0.06504536,24.25,24.625,24.0,25.3125,25.3125,25.5
0.25005224,-0.6087369,-1.6740005,-2.0962017,-0.045760136,0.027019389,-0.017058114,-0.40419808,-0.36586258,0.060057256,-3.0761304,0.6234943,0.00014664354,-0.11605726,0.023806492,-0.0036484995,0.028609155,-0.014023763,0.0138436025,0.48801988,-1.3603832,1.8770169,-2.0841715,-1.5730442,2.4624617,-0.13137957,0.17743917,-0.2201778,0.06827534,-0.019273918,-0.145057,-0.1340753,0.30645782,-9.519346,0.9254084,47.66987,-1.2223909,-2.2487445,-3.609335,-0.10945788,-0.37485945,-0.10447808,24.25,24.625,24.0,25.3125,25.3125,25.5
0.2520524,0.36413786,-1.3648984,-2.0010042,-0.03729253,0.04158878,-0.022476193,-0.4044386,-0.36582187,0.060055215,-3.0760887,0.6234327,0.00016121766,-0.11725756,0.024322927,-0.002958051,0.029111287,-0.015325733,0.0046122093,0.48776713,-1.3600233,1.876562,-2.0840504,-1.5730923,2.462176,-0.13333137,0.1786242,-0.22417413,0.07247702,-0.0191034,-0.13777618,0.019153614,0.36391866,-9.461885,0.93436235,47.686886,-1.0769563,-2.2964768,-3.6014972,-0.13774177,-0.37837026,-0.17101677,24.25,24.625,24.0,25.3125,25.3125,25.5
0.25405255,0.36413786,-1.3648984,-2.0010042,-0.03729253,0.04158878,-0.022476193,-0.4044386,-0.36582187,0.060055215,-3.0760887,0.6234327,0.00016121766,-0.11725756,0.024322927,-0.002958051,0.029111287,-0.015325733,0.0046122093,0.48776713,-1.3600233,1.876562,-2.0840504,-1.5730923,2.462176,-0.13333137,0.1786242,-0.22417413,0.07247702,-0.0191034,-0.13777618,0.019153614,0.36391866,-9.461885,0.93436235,47.686886,-1.0769563,-2.2964768,-3.6014972,-0.13774177,-0.37837026,-0.17101677,24.25,24.625,24.0,25.3125,25.3125,25.5
0.2560521,-0.09957279,-0.72449875,-1.8332539,-0.02843482,0.024265999,-0.017194362,-0.40492693,-0.3657557,0.060101226,-3.0760605,0.62342954,0.00022062763,-0.120348364,0.024672287,-0.0013935657,0.027735777,-0.013706639,-0.008043071,0.48725167,-1.3593752,1.875614,-2.083763,-1.5731405,2.4616628,-0.13676627,0.18011752,-0.2301762,0.074915566,-0.018649265,-0.12855545,0.095768064,0.3256114,-9.289502,0.91421866,47.645687,-1.0634524,-2.1979353,-3.442495,-0.19073878,-0.39080936,-0.33999005,24.25,24.625,24.0,25.3125,25.3125,25.5
0.2580519,0.20015071,-1.2890712,-1.8728567,-0.01652492,0.02974459,-0.010764152,-0.40517494,-0.36570218,0.06009791,-3.075999,0.62347513,0.00020708684,-0.12072794,0.025634132,-0.0013762607,0.028925011,-0.01712654,-0.011991804,0.48696354,-1.3590152,1.8751587,-2.083629,-1.5731758,2.4614112,-0.1389504,0.1813178,-0.23285441,0.07996499,-0.018102927,-0.1267912,0.05746084,0.24899697,-9.251195,0.90750587,47.72002,-0.97393405,-2.1325068,-3.3573356,-0.23693171,-0.39028037,-0.38131878,24.25,24.625,24.0,25.3125,25.3125,25.5
0.2600523,0.20015071,-1.2890712,-1.8728567,-0.01652492,0.02974459,-0.010764152,-0.40517494,-0.36570218,0.06009791,-3.075999,0.62347513,0.00020708684,-0.12072794,0.025634132,-0.0013762607,0.028925011,-0.01712654,-0.011991804,0.48696354,-1.3590152,1.8751587,-2.083629,-1.5731758,2.4614112,-0.1389504,0.1813178,-0.23285441,0.07996499,-0.018102927,-0.1267912,0.05746084,0.24899697,-9.251195,0.90750587,47.72002,-0.97393405,-2.1325068,-3.3573356,-0.23693171,-0.39028037,-0.38131878,24.25,24.625,24.0,25.3125,25.3125,25.5
0.26205185,-0.95624995,-1.3527222,-1.6076442,-0.04017683,0.045568254,-0.023323117,-0.4056605,-0.36561492,0.06011817,-3.0758982,0.62351024,0.00017535087,-0.12359527,0.026007565,0.00017529215,0.028379908,-0.013398382,-0.013480069,0.4864239,-1.3583195,1.8742007,-2.0832937,-1.5732363,2.460907,-0.14114209,0.18188335,-0.23722076,0.0802013,-0.019398928,-0.12748756,-0.095768064,0.24899697,-9.3661175,0.9545008,47.701214,-1.0258831,-2.140396,-3.448125,-0.31501117,-0.39193934,-0.5167948,24.25,24.625,24.0,25.3125,25.3125,25.5
0.26405174,-0.98594785,-1.2756898,-1.5663899,-0.04620763,0.07797506,-0.022817118,-0.40586624,-0.36554545,0.060075235,-3.075792,0.62349993,-3.019779e-05,-0.1228313,0.024640862,8.623235e-06,0.028080387,-0.013309109,-0.002611139,0.48612565,-1.3579358,1.8737935,-2.0831025,-1.5732363,2.460616,-0.13821228,0.18273869,-0.23782179,0.0797021,-0.019223634,-0.13542388,-0.095768064,0.21068975,-9.289502,0.8873621,47.666286,-1.2266686,-1.999445,-3.4415774,-0.33527198,-0.4161234,-0.47437328,24.25,24.625,24.0,25.3125,25.3125,25.5
0.26605216,-0.98594785,-1.2756898,-1.5663899,-0.04620763,0.07797506,-0.022817118,-0.40586624,-0.36554545,0.060075235,-3.075792,0.62349993,-3.019779e-05,-0.1228313,0.024640862,8.623235e-06,0.028080387,-0.013309109,-0.002611139,0.48612565,-1.3579358,1.8737935,-2.0831025,-1.5732363,2.460616,-0.13821228,0.18273869,-0.23782179,0.0797021,-0.019223634,-0.13542388,-0.095768064,0.21068975,-9.289502,0.8873621,47.666286,-1.2266686,-1.999445,-3.4415774,-0.33527198,-0.4161234,-0.47437328,24.25,24.625,24.0,25.3125,25.3125,25.5
0.2680518,-1.1810429,-0.84586173,-1.46484,-0.035691723,0.106288426,-0.030792223,-0.4063745,-0.36545792,0.060077332,-3.075712,0.623393,-4.8672224e-05,-0.1273848,0.024557028,0.00089740416,0.025481492,-0.0063028433,0.014703909,0.48557383,-1.3571795,1.8728117,-2.0828059,-1.5733088,2.4600084,-0.14126295,0.18526778,-0.24160801,0.07348165,-0.020284954,-0.15578273,-0.019153614,0.1340753,-9.232041,0.95002913,47.703903,-1.213021,-1.8565278,-3.3990026,-0.29695988,-0.41389078,-0.30114755,24.25,24.625,24.0,25.3125,25.3125,25.5
0.2700519,-1.6181659,-0.6122468,-1.6227164,-0.026084997,0.088166416,-0.01253534,-0.40663823,-0.36540326,0.06009095,-3.075664,0.6233211,-2.1764492e-05,-0.12873663,0.024569385,4.992039e-05,0.024808142,-0.0060488195,0.01997565,0.48528588,-1.3568189,1.8723091,-2.082639,-1.5733684,2.459682,-0.14265206,0.18816477,-0.24269587,0.07109977,-0.01983913,-0.16244394,-0.15322891,0.17238252,-9.251195,0.87617236,47.667187,-1.1721367,-1.8855784,-3.549209,-0.29509318,-0.42439148,-0.2118218,24.25,24.625,24.0,25.3125,25.3125,25.5
0.27205187,-1.6181659,-0.6122468,-1.6227164,-0.026084997,0.088166416,-0.01253534,-0.40663823,-0.36540326,0.06009095,-3.075664,0.6233211,-2.1764492e-05,-0.12873663,0.024569385,4.992039e-05,0.024808142,-0.0060488195,0.01997565,0.48528588,-1.3568189,1.8723091,-2.082639,-1.5733684,2.459682,-0.14265206,0.18816477,-0.24269587,0.07109977,-0.01983913,-0.16244394,-0.15322891,0.17238252,-9.251195,0.87617236,47.667187,-1.1721367,-1.8855784,-3.549209,-0.29509318,-0.42439148,-0.2118218,24.25,24.625,24.0,25.3125,25.3125,25.5
0.27405244,-0.66973,-0.65111685,-2.0208423,-0.019678807,0.08340808,-0.028557578,-0.40718675,-0.36530286,0.060099736,-3.075609,0.62327194,5.882594e-05,-0.13347001,0.02516043,-0.00063160097,0.023818566,0.00021107675,0.013828173,0.48468593,-1.3560619,1.8713268,-2.0824144,-1.5734533,2.459059,-0.14633572,0.19294305,-0.2451576,0.06277257,-0.021909893,-0.15997083,-0.2873042,-0.038307227,-9.442732,0.88289046,47.63315,-1.0607603,-2.1079059,-3.619339,-0.16295476,-0.42591846,-0.1833792,24.25,24.625,24.0,25.3125,25.3125,25.5
0.2760526,-1.1027976,-1.2126805,-1.910544,-0.023236692,0.08206555,-0.02632093,-0.4074187,-0.36525837,0.060081594,-3.0755703,0.62313306,-9.547018e-06,-0.13414177,0.026359292,-0.0017387164,0.026563277,-0.0021652647,0.0060853683,0.48442197,-1.3556772,1.8708719,-2.08227,-1.5734776,2.4587135,-0.14802368,0.19586356,-0.24667555,0.06476322,-0.023232048,-0.1539087,-0.57460845,0.11492168,-9.442732,0.8717007,47.66987,-1.036031,-2.0740469,-3.62061,-0.16573817,-0.4083375,-0.23948069,24.25,24.625,24.0,25.3125,25.3125,25.5
0.2780517,-1.1027976,-1.2126805,-1.910544,-0.023236692,0.08206555,-0.02632093,-0.4074187,-0.36525837,0.060081594,-3.0755703,0.62313306,-9.547018e-06,-0.13414177,0.026359292,-0.0017387164,0.026563277,-0.0021652647,0.0060853683,0.48442197,-1.3556772,1.8708719,-2.08227,-1.5734776,2.4587135,-0.14802368,0.19586356,-0.24667555,0.06476322,-0.023232048,-0.1539087,-0.57460845,0.11492168,-9.442732,0.8717007,47.66987,-1.036031,-2.0740469,-3.62061,-0.16573817,-0.4083375,-0.23948069,24.25,24.625,24.0,25.3125,25.3125,25.5
0.28005216,-2.0274153,-1.1804799,-1.761233,-0.043415938,0.104647465,-0.027699908,-0.40795684,-0.36514598,0.060087103,-3.075439,0.6231253,3.0881827e-05,-0.1375996,0.026541669,-0.0017560843,0.026314188,0.0004679267,-0.0010639577,0.483834,-1.3549083,1.8698653,-2.081971,-1.5735978,2.4581382,-0.1505308,0.20021334,-0.2515882,0.0628648,-0.02425884,-0.14925903,-0.51714754,0.1340753,-9.557653,0.9634547,47.661808,-1.0380852,-2.2189004,-3.6266007,-0.08669582,-0.3996666,-0.3427006,24.25,24.625,24.0,25.3125,25.3125,25.5
0.28205228,-2.1146476,-1.747799,-1.6365978,-0.040721986,0.12409629,-0.026415257,-0.4082372,-0.36510015,0.06009804,-3.0753863,0.6231884,0.00010252357,-0.13612375,0.025950544,-0.0035399743,0.029289927,-0.003378303,0.0017433009,0.48354796,-1.3545239,1.8693498,-2.0818512,-1.5736583,2.4578986,-0.14762497,0.20378669,-0.2523583,0.06483809,-0.025103742,-0.14915699,-0.59376204,0.21068975,-9.461885,0.8851263,47.681515,-1.1414778,-2.068785,-3.679585,-0.09469898,-0.3791933,-0.3830517,24.25,24.625,24.0,25.3125,25.3125,25.5
0.28405237,-2.1146476,-1.747799,-1.6365978,-0.040721986,0.12409629,-0.026415257,-0.4082372,-0.36510015,0.06009804,-3.0753863,0.6231884,0.00010252357,-0.13612375,0.025950544,-0.0035399743,0.029289927,-0.003378303,0.0017433009,0.48354796,-1.3545239,1.8693498,-2.0818512,-1.5736583,2.4578986,-0.14762497,0.20378669,-0.2523583,0.06483809,-0.025103742,-0.14915699,-0.59376204,0.21068975,-9.461885,0.8851263,47.681515,-1.1414778,-2.068785,-3.679585,-0.09469898,-0.3791933,-0.3830517,24.25,24.625,24.0,25.3125,25.3125,25.5
0.28605184,-1.9686925,-1.3268313,-1.7631453,-0.027346639,0.10309441,-0.02917485,-0.40878305,-0.36500025,0.060077857,-3.075286,0.6231222,0.00011925111,-0.13978405,0.025948463,-0.0005088901,0.02798296,0.0025455302,0.0062841405,0.48296064,-1.3536963,1.8683432,-2.0816114,-1.5737547,2.4572835,-0.1496138,0.20317404,-0.25894436,0.066141576,-0.026742855,-0.15567717,-0.45968673,0.28730422,-9.385271,0.9298854,47.687782,-1.189266,-2.0570514,-3.6046636,-0.07382325,-0.35461313,-0.36610132,24.25,24.625,24.0,25.3125,25.3125,25.5
0.28805193,-1.4932731,-1.1665494,-1.7669983,-0.034984536,0.0930392,-0.034119964,-0.40908504,-0.3649571,0.060086798,-3.0752673,0.62305635,0.00020547531,-0.1415104,0.026064234,0.0002356339,0.027771892,0.0043055364,0.012204572,0.48266074,-1.3532766,1.867792,-2.0815036,-1.5738152,2.4569452,-0.15080146,0.20416203,-0.2619834,0.06649926,-0.027394654,-0.16278248,-0.45968673,0.15322891,-9.404425,1.0149267,47.675243,-1.2569398,-2.0394106,-3.5296717,-0.034920417,-0.32090294,-0.30041003,24.25,24.625,24.0,25.3125,25.3125,25.5
0.29005182,-1.4932731,-1.1665494,-1.7669983,-0.034984536,0.0930392,-0.034119964,-0.40908504,-0.3649571,0.060086798,-3.0752673,0.62305635,0.00020547531,-0.1415104,0.026064234,0.0002356339,0.027771892,0.0043055364,0.012204572,0.48266074,-1.3532766,1.867792,-2.0815036,-1.5738152,2.4569452,-0.15080146,0.20416203,-0.2619834,0.06649926,-0.027394654,-0.16278248,-0.45968673,0.15322891,-9.404425,1.0149267,47.675243,-1.2569398,-2.0394106,-3.5296717,-0.034920417,-0.32090294,-0.30041003,24.25,24.625,24.0,25.3125,25.3125,25.5
0.29205236,-1.2530236,-1.0439273,-1.5789263,-0.026340803,0.08238456,-0.03413617,-0.40934667,-0.3649119,0.060099367,-3.0752325,0.6229653,0.00022062905,-0.14176202,0.025870545,0.00021490881,0.027691869,0.0036620742,0.02161931,0.4823855,-1.3529047,1.8672765,-2.0813353,-1.5738634,2.4566178,-0.15079966,0.20518097,-0.26344356,0.067427814,-0.027054913,-0.17219567,-0.4213795,0.19153613,-9.289502,0.9768804,47.657326,-1.3014567,-2.0846727,-3.504709,-0.014453202,-0.30808935,-0.17891759,24.25,24.625,24.0,25.3125,25.3125,25.5
0.29405248,-0.6488153,-0.4739247,-1.6245867,-0.022546548,0.08608819,-0.03726294,-0.40965894,-0.36482185,0.06008775,-3.075142,0.62296313,0.00025413386,-0.14185569,0.026738815,-0.0008248204,0.030079652,0.0013327708,0.025943836,0.4820136,-1.3524716,1.8667501,-2.0812032,-1.5739478,2.4562566,-0.15155129,0.20740105,-0.26422256,0.06912109,-0.028110938,-0.17726643,-0.45968673,0.21068975,-9.3661175,0.9254084,47.660015,-1.2434293,-2.2149336,-3.5274687,-0.019595407,-0.29419708,-0.09933436,24.25,24.625,24.0,25.3125,25.3125,25.5
0.29605168,-1.2311475,-0.6344166,-1.5825851,-0.020743154,0.06825858,-0.02808044,-0.40995136,-0.36479074,0.06010819,-3.0751622,0.62285155,0.00027498402,-0.14328465,0.028485557,-0.0008987809,0.032319,-0.00049524504,0.02167503,0.4817132,-1.3520638,1.8661755,-2.0810463,-1.5739597,2.4558842,-0.15489092,0.20908403,-0.2670047,0.07287477,-0.029245729,-0.17633227,-0.4213795,0.095768064,-9.3661175,0.9254084,47.63315,-1.0642284,-2.1311822,-3.6070883,-0.012030862,-0.2620361,-0.07260605,24.25,24.625,24.0,25.3125,25.3125,25.5
0.29805198,-0.43233696,-0.15300128,-1.2148145,-0.013108242,0.07291595,-0.036233004,-0.41052058,-0.36466703,0.06008928,-3.0750258,0.62280744,0.00032084784,-0.14221315,0.028645264,-0.0017438793,0.0355578,-0.0075358525,0.010453114,0.48109055,-1.3512236,1.8651456,-2.0807912,-1.5740918,2.4552522,-0.15423226,0.21265024,-0.27150506,0.0815466,-0.028840456,-0.16444997,-0.24899697,0.038307227,-9.155427,0.947788,47.683304,-1.2524576,-2.0417109,-3.5339673,-0.09016392,-0.25075334,-0.17892122,24.25,24.625,24.0,25.3125,25.3125,25.5
0.30005208,-0.43233696,-0.15300128,-1.2148145,-0.013108242,0.07291595,-0.036233004,-0.41052058,-0.36466703,0.06008928,-3.0750258,0.62280744,0.00032084784,-0.14221315,0.028645264,-0.0017438793,0.0355578,-0.0075358525,0.010453114,0.48109055,-1.3512236,1.8651456,-2.0807912,-1.5740918,2.4552522,-0.15423226,0.21265024,-0.27150506,0.0815466,-0.028840456,-0.16444997,-0.24899697,0.038307227,-9.155427,0.947788,47.683304,-1.2524576,-2.0417109,-3.5339673,-0.09016392,-0.25075334,-0.17892122,24.25,24.625,24.0,25.3125,25.3125,25.5
0.30205178,-0.38886023,0.20693003,-1.2152722,-0.0008187395,0.056942906,-0.032696903,-0.41082627,-0.36460182,0.060098052,-3.0749578,0.62277657,0.00038470054,-0.14257489,0.029044991,-0.0013877247,0.036550213,-0.009159247,0.004921178,0.48076645,-1.3508034,1.8645824,-2.0806348,-1.5741757,2.454918,-0.1550109,0.21343182,-0.27418974,0.085342005,-0.028964605,-0.15969509,-0.17238253,0.0,-9.136273,0.93436235,47.66987,-1.3541737,-2.0341268,-3.6610978,-0.12690476,-0.21792284,-0.27564403,24.25,24.625,24.0,25.3125,25.3125,25.5
0.3040518,0.45419872,0.22039534,-1.2092506,0.0049483664,0.022636577,-0.027893,-0.41141263,-0.36447725,0.06008974,-3.0747635,0.622839,0.00036214013,-0.14382733,0.031232629,-0.0020986896,0.039577212,-0.013543523,-0.009686326,0.4801291,-1.3499155,1.8634433,-2.080262,-1.5743083,2.4543452,-0.15908729,0.21648443,-0.2777338,0.091121204,-0.02962672,-0.14915669,0.095768064,0.0,-9.155427,0.88960326,47.65106,-1.2840786,-2.0557272,-3.5477252,-0.21013358,-0.19025987,-0.44313163,24.25,24.625,24.0,25.3125,25.3125,25.5
0.30605188,-0.162455,-1.1874992,-1.2170088,0.008383678,-0.002177041,-0.020975946,-0.41170976,-0.36440966,0.060101885,-3.0746827,0.6227839,0.00042237373,-0.14588419,0.03140821,-0.00092673127,0.038855363,-0.011817493,-0.010917296,0.47981656,-1.3495072,1.8628811,-2.0800822,-1.5744041,2.454009,-0.16093603,0.21724474,-0.28168315,0.09242111,-0.02980368,-0.1497718,0.05746084,0.019153614,-8.944737,0.90527004,47.64658,-1.295001,-1.9804758,-3.4733114,-0.22211264,-0.15986669,-0.48860192,24.25,24.625,24.0,25.3125,25.3125,25.5
0.30805197,-0.162455,-1.1874992,-1.2170088,0.008383678,-0.002177041,-0.020975946,-0.41170976,-0.36440966,0.060101885,-3.0746827,0.6227839,0.00042237373,-0.14588419,0.03140821,-0.00092673127,0.038855363,-0.011817493,-0.010917296,0.47981656,-1.3495072,1.8628811,-2.0800822,-1.5744041,2.454009,-0.16093603,0.21724474,-0.28168315,0.09242111,-0.02980368,-0.1497718,0.05746084,0.019153614,-8.944737,0.90527004,47.64658,-1.295001,-1.9804758,-3.4733114,-0.22211264,-0.15986669,-0.48860192,24.25,24.625,24.0,25.3125,25.3125,25.5
0.3100524,0.3632479,-0.87292457,-1.4426965,-0.022246087,0.019544538,-0.04258412,-0.41227025,-0.3642699,0.060077954,-3.0745015,0.62277526,0.0003042535,-0.14759496,0.032144856,-0.0014256964,0.039008744,-0.012543117,0.0042519765,0.47915542,-1.3486433,1.8618029,-2.0796988,-1.5744995,2.4533665,-0.16345876,0.22010872,-0.28426075,0.09274959,-0.029703282,-0.16745855,0.11492168,0.13407528,-9.251195,0.96569055,47.64479,-1.0860796,-2.0413997,-3.4080563,-0.28824526,-0.12027388,-0.39896873,24.25,24.625,24.0,25.3125,25.3125,25.5
0.31205252,0.3632479,-0.87292457,-1.4426965,-0.022246087,0.019544538,-0.04258412,-0.41227025,-0.3642699,0.060077954,-3.0745015,0.62277526,0.0003042535,-0.14759496,0.032144856,-0.0014256964,0.039008744,-0.012543117,0.0042519765,0.47915542,-1.3486433,1.8618029,-2.0796988,-1.5744995,2.4533665,-0.16345876,0.22010872,-0.28426075,0.09274959,-0.029703282,-0.16745855,0.11492168,0.13407528,-9.251195,0.96569055,47.64479,-1.0860796,-2.0413997,-3.4080563,-0.28824526,-0.12027388,-0.39896873,24.25,24.625,24.0,25.3125,25.3125,25.5
0.3140521,-0.35339078,-1.5051233,-1.3196155,-0.04870558,0.040415008,-0.036955856,-0.41255578,-0.36422372,0.060076863,-3.0744252,0.6226952,0.00027257812,-0.1507325,0.030845376,-0.0006734633,0.035155434,-0.008288049,0.014641676,0.47886714,-1.3481863,1.8612036,-2.0794847,-1.5745591,2.4530385,-0.16474277,0.22288845,-0.2884978,0.08858731,-0.028316695,-0.1791345,0.095768064,0.17238252,-9.270349,0.9545008,47.66091,-1.156291,-2.2821627,-3.423031,-0.24059163,-0.10824473,-0.271043,24.25,24.625,24.0,25.3125,25.3125,25.5
0.31605232,-0.6550578,-1.7565475,-1.3142028,-0.065905094,0.061156984,-0.042175263,-0.41283235,-0.364164,0.060060203,-3.0743718,0.6225266,0.00016066372,-0.15295511,0.030217025,-0.0003535737,0.033233058,-0.0073076417,0.019169891,0.47854272,-1.34773,1.8606399,-2.0792692,-1.5745829,2.452616,-0.16622783,0.22593492,-0.29291865,0.08816574,-0.027117187,-0.1851484,-0.114921674,0.30645782,-9.212888,0.89631605,47.64479,-1.084377,-2.1583233,-3.2356067,-0.26521218,-0.11033754,-0.17878392,24.25,24.625,24.0,25.3125,25.3125,25.5
0.31805232,-1.5188653,-2.0740254,-1.6223304,-0.06407646,0.06966052,-0.033481024,-0.41313395,-0.36408252,0.06004519,-3.0742567,0.62259835,0.00011428668,-0.1539934,0.029589579,-0.0010433479,0.03140386,-0.00519977,0.018915739,0.47818276,-1.3472738,1.8600782,-2.0790799,-1.574643,2.452316,-0.1663235,0.227813,-0.29262516,0.08325892,-0.026496941,-0.18499038,-0.3256114,0.36391866,-9.346964,0.8627467,47.65912,-1.1120198,-2.2314875,-3.348987,-0.21294174,-0.10229121,-0.14957306,24.25,24.625,24.0,25.3125,25.3125,25.5
0.32005247,-1.8872315,-2.4911594,-1.7286056,-0.07171191,0.08971085,-0.027506249,-0.41344833,-0.36402896,0.06006189,-3.074234,0.6224837,0.00016988153,-0.15526508,0.029602006,-0.0007545278,0.029124286,-0.0030959975,0.0113793295,0.47785777,-1.3468425,1.8594798,-2.0789135,-1.5747021,2.4519227,-0.16794574,0.2277846,-0.29270777,0.080453806,-0.025435118,-0.17908108,-0.32561144,0.4213795,-9.500193,0.9947882,47.698532,-1.0483004,-2.1143522,-3.500917,-0.17416175,-0.12672508,-0.21655855,24.25,24.625,24.0,25.3125,25.3125,25.5
0.3220524,-2.6411898,-2.9783862,-1.4889519,-0.09237997,0.10897018,-0.04320154,-0.41406047,-0.36391938,0.0600382,-3.0740902,0.6224549,8.320261e-05,-0.15757293,0.028820397,-0.0007280934,0.025651248,-0.000246798,0.0020822035,0.47719774,-1.3458706,1.858271,-2.078544,-1.5747856,2.451264,-0.169422,0.23020518,-0.29494575,0.076139376,-0.023683459,-0.17126422,-0.7661445,0.51714754,-9.500193,0.9947882,47.67614,-1.1587082,-1.9628099,-3.8359342,-0.10539994,-0.12567429,-0.32416755,24.25,24.625,24.0,25.3125,25.3125,25.5
0.32405275,-2.6411898,-2.9783862,-1.4889519,-0.09237997,0.10897018,-0.04320154,-0.41406047,-0.36391938,0.0600382,-3.0740902,0.6224549,8.320261e-05,-0.15757293,0.028820397,-0.0007280934,0.025651248,-0.000246798,0.0020822035,0.47719774,-1.3458706,1.858271,-2.078544,-1.5747856,2.451264,-0.169422,0.23020518,-0.29494575,0.076139376,-0.023683459,-0.17126422,-0.7661445,0.51714754,-9.500193,0.9947882,47.67614,-1.1587082,-1.9628099,-3.8359342,-0.10539994,-0.12567429,-0.32416755,24.25,24.625,24.0,25.3125,25.3125,25.5
0.32605278,-2.629345,-2.5853245,-1.6464871,-0.081823654,0.10999068,-0.035906613,-0.41435245,-0.36385533,0.060009155,-3.0740147,0.6224231,1.09161265e-05,-0.15773824,0.02917042,-0.00046547872,0.025241299,-0.0020668607,-0.0021624386,0.47686133,-1.3453908,1.8577188,-2.0783865,-1.5748214,2.4509177,-0.17072941,0.23035522,-0.2964506,0.07891692,-0.022489699,-0.16833045,-0.82360536,0.4405331,-9.461885,0.89631605,47.66271,-1.09174,-1.9930594,-3.7158442,-0.10439852,-0.12653297,-0.3840654,24.25,24.625,24.0,25.3125,25.3125,25.5
0.32805178,-2.0305421,-1.4092811,-1.8852941,-0.024730073,0.098414175,-0.046936426,-0.41500637,-0.3637519,0.0600083,-3.0739563,0.62238556,8.388162e-05,-0.16083126,0.02721067,0.0010558503,0.02194331,0.0024475302,0.0052236156,0.47617754,-1.3444425,1.8565096,-2.0781238,-1.5749053,2.4502187,-0.17033122,0.23332955,-0.30334824,0.07725592,-0.021679217,-0.17531994,-0.7469909,0.28730422,-9.576807,1.0552088,47.685097,-1.2328744,-1.9951295,-3.7342372,-0.03174801,-0.15376924,-0.3825823,24.25,24.625,24.0,25.3125,25.3125,25.5
0.33005193,-1.718393,-0.81085587,-1.540034,-0.021868438,0.113081105,-0.04725109,-0.4153431,-0.36370894,0.060023166,-3.073955,0.6223766,0.00013124634,-0.160077,0.025468005,0.0010502902,0.022030005,0.0013485935,0.018853849,0.475831,-1.3439745,1.8558744,-2.0779798,-1.5749286,2.449867,-0.16687858,0.23519945,-0.3061278,0.079127274,-0.021286137,-0.1854991,-0.8236054,0.22984336,-9.423578,0.97240865,47.651955,-1.4275193,-2.1058362,-3.616712,-0.027320456,-0.15950957,-0.2807249,24.25,24.625,24.0,25.3125,25.3125,25.5
0.332052,-1.718393,-0.81085587,-1.540034,-0.021868438,0.113081105,-0.04725109,-0.4153431,-0.36370894,0.060023166,-3.073955,0.6223766,0.00013124634,-0.160077,0.025468005,0.0010502902,0.022030005,0.0013485935,0.018853849,0.475831,-1.3439745,1.8558744,-2.0779798,-1.5749286,2.449867,-0.16687858,0.23519945,-0.3061278,0.079127274,-0.021286137,-0.1854991,-0.8236054,0.22984336,-9.423578,0.97240865,47.651955,-1.4275193,-2.1058362,-3.616712,-0.027320456,-0.15950957,-0.2807249,24.25,24.625,24.0,25.3125,25.3125,25.5
0.33405232,-1.9437575,-0.60791314,-1.9551582,-0.006723875,0.102724575,-0.04451948,-0.41601467,-0.36360505,0.060018387,-3.0739095,0.62219,0.00017190304,-0.16293517,0.025996458,-0.00024330981,0.023330567,-0.0016067423,0.026483936,0.47513348,-1.3429767,1.8546041,-2.0776794,-1.575013,2.4490595,-0.16997917,0.24269952,-0.31312492,0.08177188,-0.02114619,-0.19622718,-0.26815057,0.0,-9.653421,0.9634547,47.655537,-1.458327,-2.2965405,-3.458969,0.009965586,-0.17379867,-0.12965806,24.25,24.625,24.0,25.3125,25.3125,25.5
0.33605245,-1.521391,-1.103602,-1.8067162,-0.008111044,0.090822324,-0.038771704,-0.41633442,-0.36356008,0.060001995,-3.0738635,0.6220682,0.00018142852,-0.16292842,0.027248964,-0.0009052351,0.025934286,-0.0043086014,0.020522136,0.47482127,-1.3424606,1.8539809,-2.077535,-1.5750731,2.4486775,-0.17125244,0.2440095,-0.31404617,0.08498281,-0.022216767,-0.19153258,-0.4596867,0.0,-9.595961,0.8672237,47.62867,-1.4473596,-2.4286375,-3.3605742,0.027882084,-0.17582391,-0.11606526,24.25,24.625,24.0,25.3125,25.3125,25.5
0.3380524,-1.521391,-1.103602,-1.8067162,-0.008111044,0.090822324,-0.038771704,-0.41633442,-0.36356008,0.060001995,-3.0738635,0.6220682,0.00018142852,-0.16292842,0.027248964,-0.0009052351,0.025934286,-0.0043086014,0.020522136,0.47482127,-1.3424606,1.8539809,-2.077535,-1.5750731,2.4486775,-0.17125244,0.2440095,-0.31404617,0.08498281,-0.022216767,-0.19153258,-0.4596867,0.0,-9.595961,0.8672237,47.62867,-1.4473596,-2.4286375,-3.3605742,0.027882084,-0.17582391,-0.11606526,24.25,24.625,24.0,25.3125,25.3125,25.5
0.3400519,-0.6417092,-0.58955795,-1.6714272,-0.015847309,0.07379584,-0.04065054,-0.41666025,-0.36349714,0.059990518,-3.0738103,0.62206167,0.00016338512,-0.1628606,0.029275542,-0.0026434306,0.02958684,-0.009764532,0.009788402,0.4744603,-1.3419682,1.853372,-2.0773776,-1.5751098,2.4483197,-0.17394856,0.2470405,-0.31487045,0.0893212,-0.022951597,-0.18349004,-0.4405331,-0.038307227,-9.442732,1.0507371,47.696735,-1.3750224,-2.4021287,-3.5817409,-0.008190075,-0.16341999,-0.18870312,24.25,24.625,24.0,25.3125,25.3125,25.5
0.34205192,0.8561394,-0.10142785,-1.7632036,-0.00021006567,0.035373006,-0.044243418,-0.41736707,-0.36336344,0.060003098,-3.0736954,0.6220657,0.00026405868,-0.16251408,0.032736648,-0.0036017,0.03511497,-0.01793725,-0.00765675,0.47371477,-1.3409723,1.8520545,-2.077039,-1.5752419,2.4475923,-0.17835139,0.2486819,-0.31728068,0.09990709,-0.024098935,-0.17044136,-0.05746084,-0.22984336,-9.385271,0.9791215,47.675243,-1.1761627,-2.5341814,-3.647381,-0.097271115,-0.14856778,-0.39977336,24.25,24.625,24.0,25.3125,25.3125,25.5
0.344052,0.8561394,-0.10142785,-1.7632036,-0.00021006567,0.035373006,-0.044243418,-0.41736707,-0.36336344,0.060003098,-3.0736954,0.6220657,0.00026405868,-0.16251408,0.032736648,-0.0036017,0.03511497,-0.01793725,-0.00765675,0.47371477,-1.3409723,1.8520545,-2.077039,-1.5752419,2.4475923,-0.17835139,0.2486819,-0.31728068,0.09990709,-0.024098935,-0.17044136,-0.05746084,-0.22984336,-9.385271,0.9791215,47.675243,-1.1761627,-2.5341814,-3.647381,-0.097271115,-0.14856778,-0.39977336,24.25,24.625,24.0,25.3125,25.3125,25.5
0.34605253,1.0015037,0.80676544,-1.5435724,0.01788797,-0.0050689685,-0.050107967,-0.41802943,-0.36322874,0.05997985,-3.0734954,0.62212026,0.00022006311,-0.16424309,0.033142813,-0.0026349288,0.03627424,-0.02052077,-0.011510071,0.47300652,-1.3399401,1.8507599,-2.0766418,-1.5753735,2.4469447,-0.18024623,0.25160834,-0.3249628,0.107460946,-0.023991864,-0.16847803,0.05746084,-0.19153613,-9.232041,0.9612189,47.64837,-1.1978327,-2.5151255,-3.4718742,-0.20737775,-0.14900307,-0.51956636,24.25,24.625,24.0,25.3125,25.3125,25.5
0.34805256,1.1712022,0.8753223,-1.4699115,0.035755664,0.001725876,-0.055822577,-0.41835448,-0.36315733,0.059984077,-3.0734222,0.62211764,0.00016359237,-0.16699614,0.03340781,0.0005065556,0.03392347,-0.015894458,-0.00361709,0.47263354,-1.3394612,1.8501123,-2.0764015,-1.5754098,2.44658,-0.18281369,0.24914218,-0.32960048,0.10931283,-0.024072938,-0.17893577,0.1340753,-0.17238252,-9.174581,1.0641627,47.684196,-1.103464,-2.3587854,-3.3331013,-0.23069888,-0.15008798,-0.46643478,24.25,24.625,24.0,25.3125,25.3125,25.5
0.3500526,1.1712022,0.8753223,-1.4699115,0.035755664,0.001725876,-0.055822577,-0.41835448,-0.36315733,0.059984077,-3.0734222,0.62211764,0.00016359237,-0.16699614,0.03340781,0.0005065556,0.03392347,-0.015894458,-0.00361709,0.47263354,-1.3394612,1.8501123,-2.0764015,-1.5754098,2.44658,-0.18281369,0.24914218,-0.32960048,0.10931283,-0.024072938,-0.17893577,0.1340753,-0.17238252,-9.174581,1.0641627,47.684196,-1.103464,-2.3587854,-3.3331013,-0.23069888,-0.15008798,-0.46643478,24.25,24.625,24.0,25.3125,25.3125,25.5
0.35205212,0.20273283,-0.29262,-1.5681279,9.1567344e-05,0.034538567,-0.055855297,-0.41901118,-0.36300954,0.059981424,-3.0732543,0.62197495,1.2531997e-05,-0.16927356,0.03399463,0.00033432583,0.031868804,-0.01526426,0.015679723,0.4718886,-1.3384538,1.848771,-2.0758755,-1.5755051,2.4457684,-0.18622802,0.25133425,-0.33172992,0.10760851,-0.022679532,-0.20164965,-0.038307227,-0.038307227,-9.32781,0.9254084,47.66987,-0.99736094,-2.2020974,-3.451549,-0.2555851,-0.17621702,-0.24197519,24.25,24.625,24.0,25.3125,25.3125,25.5
0.3540523,-0.77743345,-1.8172777,-1.9307091,-0.03609476,0.067818254,-0.045616843,-0.41933364,-0.36292902,0.059969492,-3.0731604,0.6219546,-9.182499e-05,-0.1708379,0.035207532,0.00041082076,0.031292744,-0.01401633,0.014015302,0.4715037,-1.3379501,1.8481268,-2.0756247,-1.5755414,2.4453833,-0.18933311,0.25142708,-0.3318142,0.106204644,-0.0227753,-0.20308764,-0.15322891,0.13407528,-9.404425,0.90750587,47.64658,-0.8891758,-2.1626654,-3.5029798,-0.25315848,-0.16966572,-0.18130419,24.25,24.625,24.0,25.3125,25.3125,25.5
0.3560524,-0.77743345,-1.8172777,-1.9307091,-0.03609476,0.067818254,-0.045616843,-0.41933364,-0.36292902,0.059969492,-3.0731604,0.6219546,-9.182499e-05,-0.1708379,0.035207532,0.00041082076,0.031292744,-0.01401633,0.014015302,0.4715037,-1.3379501,1.8481268,-2.0756247,-1.5755414,2.4453833,-0.18933311,0.25142708,-0.3318142,0.106204644,-0.0227753,-0.20308764,-0.15322891,0.13407528,-9.404425,0.90750587,47.64658,-0.8891758,-2.1626654,-3.5029798,-0.25315848,-0.16966572,-0.18130419,24.25,24.625,24.0,25.3125,25.3125,25.5
0.35805175,-2.8381174,-3.5751216,-2.150828,-0.097684234,0.124971196,-0.030336505,-0.41998273,-0.36278448,0.059945915,-3.0729976,0.6217523,-0.00025670358,-0.17235371,0.032577414,-0.0007916667,0.028622838,-0.009227212,0.0044532106,0.47077277,-1.3369178,1.8468097,-2.075137,-1.5756372,2.444548,-0.18604936,0.25621694,-0.33319408,0.09734241,-0.02260065,-0.19023737,-0.40222588,0.2681506,-9.768343,1.0037369,47.67614,-1.0510038,-2.2127848,-3.7777562,-0.18112308,-0.18161304,-0.26293328,24.25,24.625,24.0,25.3125,25.3125,25.5
0.36005172,-3.580786,-3.855017,-2.0770578,-0.095946364,0.12827793,-0.030682387,-0.42031765,-0.3627512,0.059953135,-3.072987,0.6217128,-0.00023729618,-0.17332439,0.03161428,-0.00095925515,0.027598752,-0.0065645063,0.0014425308,0.47044912,-1.3364133,1.8461393,-2.074971,-1.5756615,2.4442012,-0.18493679,0.2579346,-0.33425087,0.09385379,-0.022895506,-0.18611206,-0.57460845,0.4405331,-9.730036,0.9410752,47.647476,-1.2916958,-2.1929848,-3.773707,-0.1861022,-0.20814916,-0.35813773,24.25,24.625,24.0,25.3125,25.3125,25.5
0.36205196,-3.580786,-3.855017,-2.0770578,-0.095946364,0.12827793,-0.030682387,-0.42031765,-0.3627512,0.059953135,-3.072987,0.6217128,-0.00023729618,-0.17332439,0.03161428,-0.00095925515,0.027598752,-0.0065645063,0.0014425308,0.47044912,-1.3364133,1.8461393,-2.074971,-1.5756615,2.4442012,-0.18493679,0.2579346,-0.33425087,0.09385379,-0.022895506,-0.18611206,-0.57460845,0.4405331,-9.730036,0.9410752,47.647476,-1.2916958,-2.1929848,-3.773707,-0.1861022,-0.20814916,-0.35813773,24.25,24.625,24.0,25.3125,25.3125,25.5
0.36405253,-1.8009086,-2.2031014,-2.3886034,-0.0587175,0.121813275,-0.04693368,-0.42104423,-0.3626256,0.059975017,-3.0729024,0.62171257,-0.00014158552,-0.17681515,0.030276418,-0.00031122562,0.02610852,-0.0009482431,0.0017326343,0.4696935,-1.3353925,1.8447608,-2.0746129,-1.5757698,2.4434571,-0.18455844,0.26205072,-0.34010136,0.08987461,-0.024144536,-0.18601502,-0.30645782,0.57460845,-9.730036,0.96569055,47.650166,-1.391727,-2.3263226,-3.7984538,-0.09692919,-0.22027373,-0.42590994,24.25,24.625,24.0,25.3125,25.3125,25.5
0.36605248,-1.746456,-2.455619,-2.4051602,-0.038198195,0.07118365,-0.0358937,-0.421363,-0.3625555,0.05993406,-3.0728035,0.62162673,-0.00022055344,-0.178539,0.029495884,0.0007082087,0.024629919,0.0019535164,0.011630965,0.4693455,-1.3348409,1.8441385,-2.0744336,-1.5758303,2.4430687,-0.1845176,0.26301917,-0.34354103,0.089020565,-0.024213593,-0.19586895,-0.2873042,0.6703765,-9.710882,0.9791215,47.67614,-1.4133749,-2.277675,-3.8057075,-0.046773143,-0.20979337,-0.38248724,24.25,24.625,24.0,25.3125,25.3125,25.5
0.3680517,-1.746456,-2.455619,-2.4051602,-0.038198195,0.07118365,-0.0358937,-0.421363,-0.3625555,0.05993406,-3.0728035,0.62162673,-0.00022055344,-0.178539,0.029495884,0.0007082087,0.024629919,0.0019535164,0.011630965,0.4693455,-1.3348409,1.8441385,-2.0744336,-1.5758303,2.4430687,-0.1845176,0.26301917,-0.34354103,0.089020565,-0.024213593,-0.19586895,-0.2873042,0.6703765,-9.710882,0.9791215,47.67614,-1.4133749,-2.277675,-3.8057075,-0.046773143,-0.20979337,-0.38248724,24.25,24.625,24.0,25.3125,25.3125,25.5
0.37005213,-0.7172351,-2.022151,-2.2774875,-0.060617127,0.03305114,-0.040011004,-0.4221142,-0.36244902,0.0599514,-3.072785,0.6214603,-0.00012319017,-0.1799328,0.031110903,0.0005528974,0.027211675,-0.00029815314,0.025106307,0.46858853,-1.3337612,1.8427013,-2.074097,-1.5759147,2.442211,-0.18715668,0.26544857,-0.34742105,0.09353522,-0.025567926,-0.21197571,-0.36391866,0.49799395,-9.787497,1.0507371,47.63315,-1.4351969,-2.2384791,-3.7169995,-0.036178224,-0.21804327,-0.14179511,24.25,24.625,24.0,25.3125,25.3125,25.5
0.37205222,-0.7172351,-2.022151,-2.2774875,-0.060617127,0.03305114,-0.040011004,-0.4221142,-0.36244902,0.0599514,-3.072785,0.6214603,-0.00012319017,-0.1799328,0.031110903,0.0005528974,0.027211675,-0.00029815314,0.025106307,0.46858853,-1.3337612,1.8427013,-2.074097,-1.5759147,2.442211,-0.18715668,0.26544857,-0.34742105,0.09353522,-0.025567926,-0.21197571,-0.36391866,0.49799395,-9.787497,1.0507371,47.63315,-1.4351969,-2.2384791,-3.7169995,-0.036178224,-0.21804327,-0.14179511,24.25,24.625,24.0,25.3125,25.3125,25.5
0.37405175,-0.90831417,-2.533991,-2.248063,-0.060369037,0.03765277,-0.03298512,-0.4225043,-0.36237976,0.05995668,-3.0727146,0.62135106,-6.80264e-05,-0.18012735,0.031946767,0.00039326286,0.028730981,-0.0029160192,0.021997247,0.46820423,-1.3331852,1.841935,-2.07388,-1.5760106,2.441768,-0.18839858,0.26665634,-0.34954903,0.097458266,-0.025740426,-0.21010648,-0.36391866,0.38307226,-9.710882,1.0149267,47.668976,-1.3969066,-2.3163965,-3.7195377,-0.019252047,-0.21934953,-0.12691265,24.25,24.625,24.0,25.3125,25.3125,25.5
0.37605172,-0.50833845,-0.76525813,-1.7671027,-0.045866597,0.06925401,-0.048825085,-0.42324364,-0.36228308,0.05999108,-3.072695,0.6213378,-3.4640943e-05,-0.18039401,0.03452134,0.0013861223,0.031056935,-0.009710896,0.002368074,0.46744663,-1.3321303,1.840474,-2.0734808,-1.5760463,2.4410052,-0.19310984,0.26643813,-0.35454604,0.109836556,-0.024685027,-0.19519353,-0.19153613,0.0,-9.595961,0.9791215,47.684196,-1.2681684,-2.045134,-3.700656,-0.15361023,-0.22429529,-0.28162843,24.25,24.625,24.0,25.3125,25.3125,25.5
0.3780518,-0.832849,-0.11413609,-1.7855529,-0.0041825464,0.058779545,-0.03599505,-0.4236333,-0.3621909,0.05999296,-3.0726209,0.6212896,3.484916e-05,-0.1817724,0.035276845,0.0021232897,0.030165987,-0.011436817,-0.008858701,0.46702564,-1.3315903,1.8397669,-2.0732996,-1.5761412,2.4405642,-0.19625849,0.2673217,-0.3583412,0.11389723,-0.023089692,-0.18712303,-0.28730422,-0.095768064,-9.3661175,1.0328293,47.66271,-1.216559,-1.9734726,-3.6467752,-0.19909292,-0.26054043,-0.37467504,24.25,24.625,24.0,25.3125,25.3125,25.5
