Tylouw/Master_Thesis_Code/training_data/batch_1/rect_rod_t0.1/sample_14_session_1.csv
timestamp[s],tcp_force_x[N],tcp_force_y[N],tcp_force_z[N],tcp_force_rx[Nm?],tcp_force_ry[Nm?],tcp_force_rz[Nm?],tcp_pose_x[m],tcp_pose_y[m],tcp_pose_z[m],tcp_pose_rx[rot_vec_x],tcp_pose_ry[rot_vec_y],tcp_pose_rz[rot_vec_z],tcp_velo_x[m/s],tcp_velo_y[m/s],tcp_velo_z[m/s],tcp_velo_rx[rot_vec_x/s],tcp_velo_ry[rot_vec_y/s],tcp_velo_rz[rot_vec_z/s],q1[rad],q2[rad],q3[rad],q4[rad],q5[rad],q6[rad],qd1[rad/s],qd2[rad/s],qd3[rad/s],qd4[rad/s],qd5[rad/s],qd6[rad/s],tool_acc_x,tool_acc_y,tool_acc_z,current_of_whole_robot[A],voltage_of_whole_robot[V],current_J1[A],current_J2[A],current_J3[A],current_J4[A],current_J5[A],current_J6[A],temp_J1[C],temp_J2[C],temp_J3[C],temp_J4[C],temp_J5[C],temp_J6[C]
1.293e-06,-0.35165715,-1.0484413,-0.3463149,-0.014799516,0.024812574,0.00827894,-0.38931608,-0.36871195,0.059997678,-3.07869,0.62492543,0.00013841069,6.547681e-05,3.7626516e-05,-1.8255725e-05,-1.362905e-05,-0.00030930314,1.119384e-05,0.50503284,-1.3816559,1.9042348,-2.0918915,-1.5708417,2.4800253,-0.00010333335,-1.8008135e-05,-1.3945379e-06,0.00028288632,0.00016223686,-0.00011479975,0.17238252,0.22984336,-8.63828,0.76874626,47.744205,-0.23792854,-3.0521808,-2.2939878,-0.19725817,0.11422646,0.017581083,24.5,24.9375,24.25,25.8125,25.9375,26.1875
0.002054642,-0.5579453,-0.876531,-0.38962328,-0.020933405,0.022133302,0.008217891,-0.38934705,-0.3687203,0.060016975,-3.0787199,0.62493145,0.00025215777,-0.0013347986,-0.0007398975,-0.00059128256,-0.003511037,0.0059905336,1.0387976e-05,0.50503284,-1.3816559,1.9042,-2.0919316,-1.5708655,2.4800253,-0.00010139322,-2.416021e-07,0.003776651,-0.01071846,0.00015750444,-0.00011241006,0.038307227,0.2681506,-8.580819,0.6926589,47.703007,-0.18429779,-2.963295,-2.2714353,-0.15379272,0.11508608,0.029466256,24.5,24.9375,24.25,25.8125,25.9375,26.1875
0.004054452,-0.9223367,-1.2906188,-0.32457396,-0.012217808,0.017576149,0.011183533,-0.38933113,-0.36873457,0.06000601,-3.0787368,0.6248965,0.00021223575,-0.0014669728,-0.0008138318,-0.0018235737,-0.002906212,0.0048990357,1.0496058e-05,0.5050568,-1.3816429,1.9042124,-2.091944,-1.5708417,2.4800253,-9.952441e-05,0.0025771856,0.003854959,-0.0121263135,0.00015304008,-0.00011011772,0.095768064,0.15322891,-8.523358,0.76874626,47.71823,-0.17493924,-3.3624556,-2.6077347,-0.05785293,0.119757555,0.015957914,24.5,24.9375,24.25,25.8125,25.9375,26.1875
0.006053857,-0.050140057,-0.62810904,-0.33626735,-0.0029047308,0.019804552,0.0045522917,-0.38936803,-0.36873367,0.06001278,-3.0787508,0.62497616,0.00026648812,-0.00046098873,-0.0002537583,-0.0013206579,-0.00112167,0.0017031295,9.854476e-06,0.5050208,-1.3816192,1.9041766,-2.0919774,-1.5708417,2.4800372,-9.7723256e-05,0.0015769611,0.0025360133,-0.006146758,0.00014882223,-0.00010791691,-0.038307227,0.11492168,-8.523358,0.75084364,47.704796,-0.1527786,-3.1813855,-2.5413046,-0.07811844,0.10439138,0.033730872,24.5,24.9375,24.25,25.8125,25.9375,26.1875
0.008054419,0.35547233,0.12418698,-0.9159473,0.02449823,0.0050065606,-2.7490398e-05,-0.3893552,-0.36873636,0.060010735,-3.0787354,0.625011,0.00028009535,-0.00051796105,-0.0002844893,0.00032480498,-0.001172366,0.0018126704,9.690828e-06,0.50504476,-1.3816319,1.9041985,-2.0919878,-1.5708536,2.480085,-9.5986325e-05,-0.00039681006,0.00016608322,-0.0019234351,0.00014483051,-0.00010580252,0.019153614,0.19153613,-8.580819,0.7239871,47.711964,-0.22510982,-3.215663,-2.4126196,-0.11166772,0.102695145,0.03223122,24.5,24.9375,24.25,25.8125,25.9375,26.1875
0.010053931,0.13869268,0.32642546,-1.1230842,0.021669358,0.0045364904,0.0009976525,-0.38935506,-0.3687248,0.060005922,-3.0787175,0.6249309,0.00024741428,0.00033786363,0.00019798687,0.0002439245,0.00023336022,-0.00070642843,7.146293e-06,0.50503284,-1.38162,1.9041871,-2.0919507,-1.5708655,2.4800253,-0.000104654915,-0.0007569202,2.2282184e-06,0.0014853043,0.00014104713,-0.00011227918,0.019153614,0.19153613,-8.848969,0.7284641,47.703903,-0.64345807,-2.6390595,-2.9697347,-0.15656075,0.093752,-0.042152353,24.5,24.9375,24.25,25.8125,25.9375,26.1875
0.012054383,-0.7296877,-0.6438899,-1.1041322,-0.009021512,0.009441633,0.007089954,-0.3893314,-0.36870888,0.05998652,-3.078677,0.624942,0.00014966111,0.0008528248,0.0005076186,-0.00096448185,0.0018369486,-0.003593871,7.6451855e-05,0.5050208,-1.3816195,1.9042224,-2.091915,-1.5708536,2.4800253,-0.00014302788,0.0013406157,2.9894395e-08,0.0026928133,0.00013745681,-0.0002197563,0.11492168,0.19153613,-9.097966,0.7597976,47.682407,-0.82660675,-2.509947,-3.1862571,-0.1663649,0.09554458,-0.10821758,24.5,24.9375,24.25,25.8125,25.9375,26.1875
0.014054006,-1.3583497,-1.7911178,-1.2011753,-0.0346783,0.030622479,-0.00015369029,-0.3893141,-0.36868554,0.059945893,-3.0786016,0.6249056,2.9331764e-05,-0.004226643,0.0036345401,-0.005339766,0.0053967033,-0.010054813,0.00056177663,0.5050051,-1.3815666,1.9042443,-2.0918787,-1.5708655,2.4799964,-0.010163397,0.014450953,-0.0054718764,0.0024292732,0.0001340443,-0.010721105,0.038307227,0.19153613,-9.251195,0.7777002,47.704796,-0.4910369,-3.1227698,-3.1022863,-0.1449581,0.10323554,-0.09502247,24.5,24.9375,24.25,25.8125,25.9375,26.1875
0.016053602,-1.4300145,-1.7771226,-1.3311974,-0.060198553,0.060481925,-0.006436597,-0.38930982,-0.3686904,0.0599557,-3.0786145,0.6248475,3.1282412e-05,-0.0059957025,0.0025972265,-0.002884946,0.0027428074,-0.005265862,0.00780111,0.5050173,-1.3815793,1.9042314,-2.0918548,-1.5708655,2.4799707,-0.010070255,0.012695202,-0.008922244,0.0021590313,0.00013079749,-0.017866129,-0.11492168,0.24899697,-9.404425,0.7620334,47.661808,-0.5245029,-3.0722685,-3.0517428,-0.13228416,0.096742064,-0.0015380979,24.5,24.9375,24.25,25.8125,25.9375,26.1875
0.018054334,-1.9625624,-1.8772346,-1.6883755,-0.057812504,0.074678354,-0.010430247,-0.38930595,-0.36867836,0.059919696,-3.0785666,0.62489516,-6.647886e-05,-0.005725792,0.002834202,-0.0020442705,0.002558534,-0.0049213693,0.0084989015,0.50499314,-1.38152,1.9042434,-2.0918543,-1.5708536,2.4799824,-0.010213344,0.010627252,-0.008728968,0.0036431581,0.00012770401,-0.01870758,-0.38307226,0.2681506,-9.481039,0.6658024,47.65464,-0.6566072,-2.6805377,-3.3242695,-0.11821237,0.09151868,-0.012571186,24.5,24.9375,24.25,25.8125,25.9375,26.1875
0.020054618,-2.148101,-1.4142319,-1.8119634,-0.031708416,0.07690139,-0.027073784,-0.38933223,-0.36867133,0.059925742,-3.0785694,0.6248784,-6.764894e-05,-0.006179946,0.003268328,-0.002514847,0.0037822907,-0.007126621,0.0063387156,0.5049567,-1.3814954,1.9041947,-2.0918295,-1.5708536,2.4799352,-0.011367925,0.012735336,-0.010686587,0.006014914,0.00012475383,-0.017701086,-0.5554548,0.28730422,-9.557653,0.73741806,47.690468,-0.73667556,-2.605587,-3.4037013,-0.12424505,0.109199,-0.042219937,24.5,24.9375,24.25,25.8125,25.9375,26.1875
0.022054058,-2.0320654,-0.8660002,-1.8387759,-0.030501684,0.07926677,-0.050661523,-0.38932082,-0.3686808,0.059898317,-3.0785708,0.6247641,-0.00016490881,-0.0073877615,0.0033605732,-0.0028678174,0.0040104142,-0.007544261,0.004216221,0.5049684,-1.3814344,1.9041823,-2.0918171,-1.5708297,2.4798753,-0.012653281,0.015260156,-0.012905296,0.0061852178,0.00012193674,-0.016862659,-0.5554548,0.36391866,-9.595961,0.7284641,47.70838,-0.8912716,-2.6759424,-3.3927774,-0.14423084,0.09440102,-0.08703593,24.5,24.9375,24.25,25.8125,25.9375,26.1875
0.024054522,-2.119443,-1.2467409,-1.9763749,-0.038123157,0.08650873,-0.06612185,-0.3893511,-0.3686804,0.05990017,-3.0785723,0.62484205,-0.00016411813,-0.009201252,0.0038302464,-0.003474644,0.004244441,-0.007975354,0.0026153917,0.5049316,-1.3813971,1.9041342,-2.0918176,-1.5708174,2.479887,-0.015139632,0.018510707,-0.015277712,0.005797699,0.00011924385,-0.017746646,-0.6703765,0.2681506,-9.653421,0.7016076,47.709274,-0.86632884,-2.7347383,-3.3857088,-0.11667848,0.082485214,-0.10573523,24.5,24.9375,24.25,25.8125,25.9375,26.1875
0.026053851,-2.020039,-1.191753,-1.8703307,-0.04628945,0.097055055,-0.084458,-0.38934332,-0.36867324,0.05988167,-3.0785704,0.6247447,-0.00023196747,-0.009794419,0.004058445,-0.0036237042,0.004227611,-0.007945529,0.002129339,0.5049194,-1.3813729,1.9041451,-2.0918062,-1.5708054,2.4798143,-0.016077587,0.019286692,-0.015787307,0.0054972353,0.00011666748,-0.018198187,-0.63206923,0.24899697,-9.768343,0.7351769,47.684196,-0.89545476,-2.676231,-3.3937993,-0.12837118,0.08430947,-0.10122089,24.5,24.9375,24.25,25.8125,25.9375,26.1875
0.02805424,-2.1754153,-1.4787608,-1.9475657,-0.045710765,0.1009554,-0.073498756,-0.38937873,-0.36865515,0.059867974,-3.0785213,0.62477434,-0.00025130584,-0.01075204,0.0042018476,-0.0029557552,0.0038469415,-0.0072568273,0.00021688969,0.504871,-1.3813008,1.9040855,-2.0917819,-1.5708297,2.4797907,-0.017212128,0.019333554,-0.017581543,0.0064573814,0.000114200244,-0.01741964,-0.7661445,0.17238252,-9.864111,0.70608455,47.703903,-0.8724773,-2.728053,-3.4023638,-0.1105211,0.08132957,-0.115188316,24.5,24.9375,24.25,25.8125,25.9375,26.1875
0.03005373,-1.9449009,-1.0166615,-1.8852437,-0.04858745,0.11461329,-0.06992315,-0.38939258,-0.3686531,0.059862074,-3.0785265,0.62479585,-0.0002642059,-0.011176977,0.0044158776,-0.0032753746,0.004330691,-0.00812845,-0.0014115408,0.5048468,-1.3812764,1.9040726,-2.0917933,-1.5708174,2.4797792,-0.017968576,0.020665344,-0.01857834,0.007119587,0.000111835005,-0.016547104,-0.80445176,-0.019153614,-9.80665,0.7866488,47.661808,-0.9200269,-2.6807861,-3.4691038,-0.09614458,0.08409751,-0.13628921,24.5,24.9375,24.25,25.8125,25.9375,26.1875
0.03205415,-2.0703113,-0.44229618,-1.9679706,-0.027559241,0.10970659,-0.06765065,-0.38942853,-0.36864185,0.059837665,-3.0784864,0.6248843,-0.00033303245,-0.012136588,0.0042150626,-0.002861269,0.0040712147,-0.0076983846,-0.0026463198,0.5047868,-1.3811799,1.9040116,-2.0917814,-1.5708054,2.4797795,-0.018536638,0.021719102,-0.020953432,0.00793923,0.0001266098,-0.01587937,-0.7278373,0.0,-9.749189,0.7911258,47.657326,-0.94534636,-2.6585608,-3.4151304,-0.10001753,0.07266999,-0.16164845,24.5,24.9375,24.25,25.8125,25.9375,26.1875
0.03405406,-1.8171589,-0.061063435,-1.9070828,-0.004570001,0.11267525,-0.07917976,-0.389448,-0.36862472,0.059844375,-3.078444,0.6248375,-0.00033908084,-0.01385913,0.0040425123,-0.0019145597,0.002830085,-0.005464713,-0.0033376114,0.50476235,-1.3811558,1.9039515,-2.0917094,-1.5708417,2.4797313,-0.019855933,0.022120979,-0.023487385,0.007515322,0.00012520523,-0.016506232,-0.6895301,-0.038307227,-9.730036,0.71951014,47.71286,-0.9507725,-2.647856,-3.3668606,-0.08503409,0.08627151,-0.16981061,24.5,24.9375,24.25,25.8125,25.9375,26.1875
0.03605382,-1.4697703,0.2932215,-1.935112,-0.0003305981,0.10437954,-0.07505203,-0.38950285,-0.3686356,0.059858784,-3.0784895,0.6249038,-0.00029196288,-0.0150708435,0.0038855346,-0.0014456429,0.0020776228,-0.004107302,-0.0033659502,0.50471413,-1.3811076,1.9038671,-2.0917337,-1.5708174,2.4797187,-0.020721005,0.02284549,-0.02530913,0.0070608524,0.0001228364,-0.017342048,-0.4405331,-0.076614454,-9.615114,0.82694155,47.651955,-0.95753944,-2.6438055,-3.3421416,-0.08732009,0.07078028,-0.17434537,24.5,24.9375,24.25,25.8125,25.9375,26.1875
0.038054306,-1.16931,-0.36405233,-1.9331027,0.0021427458,0.09534629,-0.067132376,-0.38952598,-0.3686527,0.059872203,-3.0785284,0.62487316,-0.00026239952,-0.015925072,0.0040074615,-0.0015903068,0.002108662,-0.004164275,-0.003113488,0.50471383,-1.3810829,1.9038075,-2.0917337,-1.5708054,2.4796944,-0.021723118,0.024257723,-0.026647521,0.007051964,0.00012049206,-0.018595843,-0.4213795,-0.11492168,-9.615114,0.7553206,47.71554,-0.9544833,-2.6643698,-3.3895988,-0.06903423,0.061101656,-0.18079856,24.5,24.9375,24.25,25.8125,25.9375,26.1875
0.040053844,-1.5474285,-0.26734245,-1.8089393,-0.015438544,0.07054283,-0.059659008,-0.38956088,-0.3685898,0.05981507,-3.0784054,0.62490577,-0.00035616767,-0.017639678,0.0041253134,-0.0010583223,0.0014773302,-0.0029650577,-0.0032666218,0.50460535,-1.3809744,1.9038066,-2.0917218,-1.5708536,2.479622,-0.02350061,0.025417427,-0.029251285,0.0071400376,8.4464715e-05,-0.020218914,-0.34476504,-0.11492168,-9.653421,0.7933669,47.70211,-0.943756,-2.6791275,-3.338542,-0.0701369,0.0699416,-0.1814045,24.5,24.9375,24.25,25.8125,25.9375,26.1875
0.042053755,-0.6179804,-0.38386807,-1.8128855,-0.025604254,0.086764455,-0.07451717,-0.38958228,-0.36859578,0.059849236,-3.0784533,0.6248788,-0.0003372796,-0.018832842,0.004773682,-0.00090786617,0.0017251546,-0.0033445996,-0.0055085747,0.50458056,-1.3809981,1.903746,-2.0916736,-1.5708297,2.4795742,-0.025684975,0.026435861,-0.03108383,0.008406815,5.064487e-05,-0.020160481,-0.28730422,-0.038307227,-9.768343,0.7620334,47.67345,-0.82106686,-2.6276762,-3.2740107,-0.06285351,0.065573186,-0.19740221,24.5,24.9375,24.25,25.8125,25.9375,26.1875
0.04405403,-1.2758762,-1.0328101,-1.8187723,-0.016839387,0.057316195,-0.06345947,-0.38964012,-0.3685808,0.059844375,-3.0784366,0.62495196,-0.00031218966,-0.01921188,0.0048077847,-0.0009938651,0.0020665852,-0.003958013,-0.005181957,0.5045087,-1.3809257,1.903674,-2.091685,-1.5708417,2.4795501,-0.026091635,0.027510928,-0.032366775,0.009316399,4.7257734e-05,-0.020893157,-0.21068975,-0.019153614,-9.691729,0.77545905,47.703007,-0.8905711,-2.644309,-3.2826087,-0.059250407,0.07351283,-0.21933652,24.5,24.9375,24.25,25.8125,25.9375,26.1875
0.046054017,-1.0595971,-1.2055324,-1.7686713,-0.021182373,0.0606122,-0.056477226,-0.38967973,-0.36857954,0.059853725,-3.0784266,0.6249478,-0.0002744887,-0.019320035,0.0052246978,-0.0015004682,0.0026573134,-0.005024676,-0.0040747887,0.5044844,-1.3808774,1.9035901,-2.0916607,-1.5708655,2.4795246,-0.026891638,0.028381009,-0.032309424,0.009607471,4.5917794e-05,-0.022800243,-0.1340753,0.15322891,-9.5385,0.7866488,47.682407,-0.8876182,-2.5965922,-3.3752594,-0.064100355,0.07229136,-0.23244584,24.5,24.9375,24.25,25.8125,25.9375,26.1875
0.04805436,-0.75019336,-1.4247727,-1.8583604,-0.015659217,0.055302404,-0.062054202,-0.38974965,-0.36856386,0.05985824,-3.0784175,0.62502253,-0.0002349553,-0.020448018,0.005512797,-0.0010348512,0.002373292,-0.004513535,-0.003807229,0.5044001,-1.380805,1.9034942,-2.0916603,-1.5708774,2.4794881,-0.028425245,0.028852772,-0.034093533,0.010334484,4.4766886e-05,-0.024600683,-0.05746084,0.22984336,-9.481039,0.7418897,47.667187,-0.8499583,-2.6725311,-3.3923593,-0.066197336,0.062612996,-0.24594209,24.5,24.9375,24.25,25.8125,25.9375,26.1875
0.050054226,-0.6836816,-1.1694022,-1.8071324,-0.024322277,0.04245501,-0.0564877,-0.38977548,-0.36857408,0.05985023,-3.078442,0.6250081,-0.0003114822,-0.022399368,0.0056280377,-0.00020906325,0.0013119724,-0.0026046876,-0.003870051,0.50436336,-1.3807328,1.9034218,-2.091637,-1.5708297,2.4794393,-0.030439358,0.029549882,-0.03674773,0.010108443,4.3679927e-05,-0.02655076,-0.038307227,0.22984336,-9.481039,0.78888994,47.690468,-0.8807984,-2.5071821,-3.340983,-0.0720454,0.071296915,-0.24834353,24.5,24.9375,24.25,25.8125,25.9375,26.1875
0.052053686,-0.4649352,-1.1711893,-1.8611866,-0.037247244,0.03674682,-0.057911966,-0.38982183,-0.36852497,0.05984406,-3.0783842,0.624996,-0.00030522776,-0.023638867,0.0057511437,2.0147329e-05,0.0010396254,-0.0020883696,-0.003411135,0.50426716,-1.3806964,1.9033846,-2.0916007,-1.5708774,2.479343,-0.031791057,0.030752802,-0.038738344,0.010310968,2.683619e-05,-0.028360367,0.095768064,0.19153613,-9.461885,0.7351769,47.677036,-0.74033636,-2.5635724,-3.363288,-0.053803112,0.068700805,-0.24801445,24.5,24.9375,24.25,25.8125,25.9375,26.1875
0.054054044,-0.45578492,-1.7609934,-1.8119323,-0.044453204,0.03179025,-0.053193964,-0.3898416,-0.36851612,0.05983819,-3.0783706,0.6250698,-0.00036061145,-0.023884464,0.006091096,-9.378998e-05,0.0015983904,-0.0030897567,-0.002876867,0.50421894,-1.38066,1.9033493,-2.0915759,-1.5708536,2.4793425,-0.032587327,0.03143496,-0.039583314,0.011620994,2.1189013e-05,-0.02969058,0.019153614,0.28730422,-9.442732,0.7150385,47.640312,-0.79170334,-2.529072,-3.3567824,-0.04027424,0.065663815,-0.2527594,24.5,24.9375,24.25,25.8125,25.9375,26.1875
0.056054078,-1.1681564,-2.2676973,-1.8988059,-0.037744112,0.018628623,-0.051403668,-0.3899259,-0.36850572,0.059868705,-3.0783973,0.6251331,-0.00028976562,-0.02475275,0.006551883,9.1001195e-05,0.0017921324,-0.0034381878,-0.0033305914,0.5041227,-1.3806117,1.9032172,-2.0915515,-1.5708536,2.4792824,-0.034166384,0.032140784,-0.041117664,0.012848033,2.0381336e-05,-0.030815303,-0.038307227,0.28730422,-9.461885,0.7866488,47.690468,-0.76849556,-2.541594,-3.3405457,-0.058820777,0.06852614,-0.2542837,24.5,24.9375,24.25,25.8125,25.9375,26.1875
0.058054104,-1.176417,-2.2738006,-1.8825802,-0.036326755,0.028472928,-0.046674956,-0.38998824,-0.3685028,0.059866514,-3.0783918,0.62511146,-0.0002506671,-0.025797645,0.0067910845,0.0005540096,0.00162226,-0.0031335105,-0.0034469892,0.50407434,-1.3805156,1.9031085,-2.0915515,-1.5708774,2.4792213,-0.035539486,0.032691997,-0.04306258,0.013891954,1.9909023e-05,-0.03207124,0.038307227,0.38307226,-9.461885,0.72622824,47.681515,-0.7655258,-2.43336,-3.3374054,-0.07502873,0.07205755,-0.27710515,24.5,24.9375,24.25,25.8125,25.9375,26.1875
0.060054544,-0.9589506,-1.738908,-1.7134448,-0.040570788,0.04582316,-0.057867926,-0.39003006,-0.3685108,0.059886973,-3.07843,0.6250607,-0.0002872969,-0.026437758,0.006107091,0.001197011,0.0009149579,-0.0018600795,-0.001604364,0.5040265,-1.3804674,1.9029888,-2.09148,-1.5708417,2.479137,-0.03498228,0.033138845,-0.04508184,0.014008662,1.9476784e-05,-0.03335578,0.05746084,0.4213795,-9.500193,0.8247004,47.684196,-0.8291868,-2.4751186,-3.3168578,-0.07949904,0.06837573,-0.28356522,24.5,24.9375,24.25,25.8125,25.9375,26.1875
0.062053673,-1.3865253,-1.7533842,-1.5336659,-0.026320212,0.04280294,-0.05923168,-0.39007512,-0.36849222,0.05987048,-3.0784228,0.6251554,-0.0003535441,-0.027144864,0.0060818614,0.0013440304,0.000687242,-0.0014545791,-0.0012170715,0.5039305,-1.3803949,1.9029406,-2.09148,-1.5708054,2.479101,-0.035594963,0.03387503,-0.046291478,0.014018177,1.9064124e-05,-0.034355152,-0.038307227,0.30645782,-9.3661175,0.7642693,47.694946,-0.81462955,-2.4295497,-3.3066509,-0.06430184,0.06396574,-0.29007667,24.5,24.9375,24.25,25.8125,25.9375,26.1875
0.06405415,-1.156436,-1.2901709,-1.6216165,-0.028741693,0.05034465,-0.054750368,-0.39012107,-0.36848444,0.05987371,-3.0784216,0.6251164,-0.00034156675,-0.028616145,0.0065456037,0.0011884952,0.0006293252,-0.0013590694,-0.0015137313,0.5038819,-1.3803344,1.9028562,-2.0914562,-1.5708174,2.4790282,-0.037744593,0.035678476,-0.048032384,0.013843407,1.8668645e-05,-0.036207113,-0.076614454,0.24899697,-9.270349,0.78217715,47.689575,-0.81156486,-2.4606047,-3.3322954,-0.078833774,0.047204584,-0.30545983,24.5,24.9375,24.25,25.8125,25.9375,26.1875
0.066054225,-0.7318157,-1.1322601,-1.5429574,-0.02529832,0.05405381,-0.0565858,-0.3901995,-0.3684573,0.05987003,-3.078402,0.6250736,-0.0003052208,-0.029780967,0.0067841266,0.0012820092,0.00045395797,-0.0010480294,-0.0023144293,0.5037856,-1.3802377,1.9027475,-2.0914438,-1.5708536,2.4789078,-0.03922568,0.0368825,-0.04969502,0.013943559,1.828927e-05,-0.03688665,-0.038307227,0.2873042,-9.385271,0.7866488,47.672558,-0.7899085,-2.3902922,-3.3524854,-0.07163945,0.059248503,-0.32508826,24.5,24.9375,24.25,25.8125,25.9375,26.1875
0.068053566,-1.1514738,-0.8829775,-1.3607432,-0.022098267,0.043352313,-0.057796337,-0.3902582,-0.36846754,0.059888892,-3.078437,0.6251561,-0.00029995016,-0.030653981,0.0066154147,0.0016417393,2.3026172e-05,-0.0002713628,-0.0010434996,0.50372547,-1.3801774,1.9026278,-2.09142,-1.5708174,2.4788947,-0.039750006,0.037599098,-0.051381763,0.014026634,1.7924987e-05,-0.03868112,-0.1340753,0.17238252,-9.385271,0.75755644,47.679718,-0.8236743,-2.3623574,-3.306841,-0.0806001,0.058420666,-0.3345332,24.5,24.9375,24.25,25.8125,25.9375,26.1875
0.07005383,-0.9710292,-1.133257,-1.3572278,-0.010941906,0.056361683,-0.057568762,-0.39033294,-0.36846438,0.059919473,-3.0784721,0.6250855,-0.00020407408,-0.031139636,0.006428608,0.0017006659,7.949299e-05,-0.0003468295,0.000970142,0.5036656,-1.3801292,1.9024957,-2.0913956,-1.5708417,2.4787865,-0.039874036,0.03865867,-0.052893598,0.014571058,4.5351167e-06,-0.040818043,-0.17238252,0.17238252,-9.232041,0.76874626,47.62419,-0.8750605,-2.3128538,-3.2969847,-0.08531319,0.046559144,-0.334738,24.5,24.9375,24.25,25.8125,25.9375,26.1875
0.07205432,-1.285703,-0.78908086,-1.1995431,-0.0070105735,0.061082993,-0.06244277,-0.3903779,-0.36843202,0.059872106,-3.0783954,0.6251083,-0.00033504848,-0.03183564,0.0072306744,0.0005490509,0.0011573585,-0.0023062034,-0.00012973495,0.5035691,-1.3799841,1.9024237,-2.0913594,-1.5708417,2.478714,-0.041865576,0.041281063,-0.05341007,0.014701312,2.961107e-07,-0.0417091,-0.21068975,0.095768064,-9.232041,0.842603,47.668976,-0.78813875,-2.3948703,-3.3107328,-0.08626777,0.04775821,-0.34134775,24.5,24.9375,24.25,25.8125,25.9375,26.1875
0.07405392,-1.1116507,-0.4529053,-1.1827781,-0.012020426,0.0762217,-0.0620206,-0.390457,-0.3684259,0.059904955,-3.078434,0.625154,-0.00024849482,-0.033576958,0.0067581143,0.0019355953,-0.0002050329,0.00015963419,-0.0003953215,0.50348514,-1.3799479,1.9023036,-2.091348,-1.5708417,2.4786537,-0.04268524,0.04148489,-0.05691758,0.015187762,1.9333912e-08,-0.04226177,-0.22984336,0.0,-9.251195,0.82022345,47.667187,-0.85806894,-2.407639,-3.2418795,-0.09344212,0.04142766,-0.3831164,24.5,24.9375,24.25,25.8125,25.9375,26.1875
0.076053664,-1.4199117,-0.47311023,-1.1704017,-0.012646137,0.07252315,-0.06363763,-0.39051217,-0.36840832,0.05990458,-3.078456,0.62506044,-0.00030276293,-0.033902507,0.006942906,0.0011096925,0.00049574417,-0.0011205912,0.0026540514,0.50338894,-1.3798753,1.9022077,-2.0913002,-1.5708174,2.4784963,-0.04329367,0.04360073,-0.05753524,0.015149649,1.2623664e-09,-0.04591899,-0.3256114,-0.019153614,-9.270349,0.7732232,47.64121,-0.8348281,-2.3108528,-3.2400773,-0.11208071,0.036047198,-0.3564453,24.5,24.9375,24.25,25.8125,25.9375,26.1875
0.07805452,-1.3283023,-0.016953615,-1.2107744,-0.0178775,0.07316921,-0.063338526,-0.39058083,-0.36840066,0.059919726,-3.078472,0.62506235,-0.00030258618,-0.03437156,0.00773362,0.0007364877,0.00087806256,-0.001815262,0.0044387067,0.5033046,-1.3798028,1.9020766,-2.091252,-1.5708054,2.4784112,-0.045052618,0.04407826,-0.05726355,0.015193542,8.2423506e-11,-0.04946264,-0.34476504,-0.038307227,-9.174581,0.7553206,47.690468,-0.9175053,-2.40752,-3.4310412,-0.10046624,0.04258246,-0.35053268,24.5,24.9375,24.25,25.8125,25.9375,26.1875
0.08005416,-1.4331844,-0.5092476,-1.3416599,-0.007661381,0.07438034,-0.06556011,-0.3906611,-0.36837155,0.059892125,-3.0784125,0.6251448,-0.00032148405,-0.036427733,0.008020507,0.0007398918,0.00056642847,-0.0012708172,0.0060739457,0.50319594,-1.3796579,1.9019679,-2.091252,-1.5708297,2.4783616,-0.04744236,0.0466091,-0.060227573,0.014997773,5.381666e-12,-0.053486012,-0.36391866,-0.019153614,-9.212888,0.8179876,47.68062,-0.72043526,-2.3293886,-3.3843932,-0.10635801,0.024641685,-0.30860865,24.5,24.9375,24.25,25.8125,25.9375,26.1875
0.082054034,-1.02608,-0.16785283,-1.1881632,-0.0148177035,0.08248706,-0.06573112,-0.39073718,-0.36836255,0.059913993,-3.0784338,0.6250326,-0.00026709907,-0.037690323,0.0063536484,0.0026042478,-0.0012448091,0.0020056542,0.0074671656,0.5031248,-1.3795859,1.901822,-2.0912035,-1.5708536,2.4782178,-0.045806423,0.04673492,-0.06477462,0.015674,3.513843e-13,-0.053241506,-0.38307226,-0.05746084,-9.270349,0.77545905,47.67345,-0.9219972,-2.3593879,-3.1757355,-0.118663326,0.04246699,-0.32430255,24.5,24.9375,24.25,25.8125,25.9375,26.1875
0.084054135,-1.2533097,-0.5199112,-1.3776492,-0.0076948227,0.08303792,-0.060049023,-0.3908008,-0.36836085,0.059913084,-3.0784667,0.6250001,-0.00030765156,-0.037476208,0.0077999127,0.0009601236,0.0005355284,-0.0012229276,0.008859153,0.50304,-1.3794892,1.9017042,-2.0911796,-1.5708174,2.4781086,-0.0480314,0.048349075,-0.06302021,0.015993876,2.2942885e-14,-0.056858968,-0.38307226,0.038307227,-9.212888,0.85826975,47.68599,-0.8574263,-2.3892894,-3.3302224,-0.12917669,0.027765106,-0.30432826,24.5,24.9375,24.25,25.8125,25.9375,26.1875
0.086054154,-1.7160965,-0.9213622,-1.5982478,-0.006639144,0.07927598,-0.054440524,-0.39086553,-0.36833954,0.059900563,-3.078452,0.6249554,-0.0003512568,-0.03849785,0.008034192,0.00077937834,0.0008311638,-0.0017738082,0.011772813,0.50294393,-1.3793805,1.901596,-2.0911438,-1.5708174,2.4779866,-0.0493689,0.05023572,-0.06501188,0.016723583,1.4980066e-15,-0.061109107,-0.4213795,0.076614454,-9.270349,0.78217715,47.66808,-0.851336,-2.2838516,-3.361987,-0.14948693,0.027225576,-0.28140327,24.5,24.9375,24.25,25.8125,25.9375,26.1875
0.088053815,-1.8711493,-1.0247264,-1.5336158,-0.01903334,0.074931554,-0.05342266,-0.39096302,-0.36830556,0.059897956,-3.0784268,0.6249501,-0.0003405767,-0.04048963,0.008690134,0.0015293601,-8.7013344e-05,-0.000118544616,0.0120196445,0.50281113,-1.3792602,1.9014515,-2.091108,-1.5708417,2.4778538,-0.05231234,0.05044933,-0.06693481,0.016538128,9.780912e-17,-0.06429856,-0.4213795,0.1340753,-9.346964,0.7038487,47.681515,-0.75716984,-2.3627002,-3.3478284,-0.15526868,0.014245959,-0.24067509,24.5,24.9375,24.25,25.8125,25.9375,26.1875
0.09005401,-1.8555129,-1.5185338,-1.5934956,-0.020719973,0.07852097,-0.060202837,-0.3910527,-0.36829653,0.059922744,-3.078443,0.6248934,-0.0002749604,-0.04060395,0.008234997,0.0008529807,0.00056501915,-0.0013071203,0.01563757,0.5027273,-1.3791753,1.9012836,-2.09106,-1.5708655,2.4777327,-0.051643748,0.052956045,-0.06844779,0.016898073,6.3862363e-18,-0.06724693,-0.40222588,0.15322891,-9.3661175,0.85826975,47.690468,-0.7617804,-2.32519,-3.275415,-0.16033292,0.014669735,-0.19224524,24.5,24.9375,24.25,25.8125,25.9375,26.1875
0.092054166,-1.8152702,-1.3391881,-1.5137506,-0.032281432,0.08586384,-0.05838169,-0.39110592,-0.36827624,0.059907667,-3.0784125,0.62484664,-0.0003479277,-0.040956542,0.008092484,0.00027643354,0.0010366215,-0.0021806927,0.017878208,0.50264364,-1.3790663,1.9011754,-2.0909998,-1.5708655,2.4776237,-0.051725738,0.055036083,-0.06962341,0.016985998,4.169756e-19,-0.069568776,-0.4405331,0.19153613,-9.346964,0.7732232,47.690468,-0.97223186,-2.4597633,-3.355691,-0.17417803,0.0042301035,-0.16647723,24.5,24.9375,24.25,25.8125,25.9375,26.1875
0.09405359,-1.6463012,-1.5279332,-1.542726,-0.025485745,0.090686515,-0.059222035,-0.39118743,-0.36826038,0.059906334,-3.0784528,0.62479705,-0.00041047862,-0.04289165,0.008445792,0.0021847372,-0.0009322848,0.0013889768,0.01741159,0.50251114,-1.3789591,1.9010433,-2.090964,-1.5708174,2.4774551,-0.05410434,0.052927773,-0.071441956,0.016839353,2.7225525e-20,-0.071480356,-0.40222588,0.24899697,-9.308657,0.6926589,47.682407,-0.8059572,-2.3582957,-3.3327117,-0.20287433,0.0026396643,-0.12134495,24.5,24.9375,24.25,25.8125,25.9375,26.1875
0.09605351,-1.4631324,-1.2138681,-1.7166194,-0.02977784,0.08014625,-0.058502775,-0.39127287,-0.3682522,0.05990793,-3.0784771,0.62476313,-0.00043770255,-0.043481503,0.008702115,0.0014728912,-0.00019631103,4.510851e-05,0.01739021,0.502403,-1.3788382,1.9008883,-2.0909278,-1.5707935,2.4773228,-0.055072136,0.055266183,-0.072699025,0.01729186,1.7776323e-21,-0.072425954,-0.30645782,0.24899697,-9.385271,0.8090337,47.704796,-0.8362636,-2.2971537,-3.3863244,-0.20250824,0.014696376,-0.098006934,24.5,24.9375,24.25,25.8125,25.9375,26.1875
0.09805398,-1.697665,-1.3683616,-1.6850679,-0.035472594,0.05248578,-0.05162618,-0.39139947,-0.36820993,0.059917677,-3.0784612,0.62468255,-0.00032252748,-0.044003043,0.008620318,0.00049978564,0.00075943174,-0.0016951729,0.016556539,0.50225914,-1.378717,1.90072,-2.090916,-1.5708655,2.477131,-0.055404395,0.058597658,-0.07454837,0.017790096,1.1606668e-22,-0.07192333,-0.38307226,0.22984336,-9.423578,0.74413085,47.70659,-0.8556491,-2.367952,-3.3637643,-0.23241541,0.009077214,-0.07620431,24.5,24.9375,24.25,25.8125,25.9375,26.1875
0.10005405,-1.3921319,-1.7087725,-1.6806197,-0.02623355,0.055276964,-0.056902885,-0.391457,-0.36818737,0.059879802,-3.0784173,0.6245778,-0.00041206714,-0.04494635,0.008778152,0.00027843902,0.000576835,-0.0013832377,0.014999081,0.5021751,-1.3785603,1.9006127,-2.0908806,-1.5708774,2.4769871,-0.056538004,0.05995583,-0.07548442,0.017005892,7.578325e-24,-0.07149883,-0.2681506,0.21068975,-9.3661175,0.7284641,47.698532,-0.8838097,-2.5119238,-3.4138803,-0.21947268,0.011803276,-0.08154935,24.5,24.9375,24.25,25.8125,25.9375,26.1875
0.10205422,-0.7894011,-1.3003342,-1.8815278,-0.029030627,0.05880539,-0.05090082,-0.39156836,-0.36818635,0.059896458,-3.078488,0.6245159,-0.00036541565,-0.04578919,0.008504534,0.0015321205,-0.0005916979,0.00074901694,0.01372153,0.50205505,-1.3784406,1.900433,-2.0908802,-1.5708536,2.4768195,-0.056842856,0.058795508,-0.07703234,0.017284583,4.9481044e-25,-0.070525736,-0.1340753,0.21068975,-9.423578,0.77545905,47.71286,-0.960528,-2.241672,-3.398612,-0.22489642,0.007862474,-0.08132687,24.5,24.9375,24.25,25.8125,25.9375,26.1875
0.104053445,-0.4173267,-1.157743,-1.7613844,-0.036157474,0.060497466,-0.058285397,-0.39166784,-0.36816522,0.05991707,-3.0784938,0.6245559,-0.0003107499,-0.046969626,0.008705685,0.00068334024,0.00038630818,0.00016470271,0.01119894,0.5019349,-1.3783553,1.900277,-2.0908449,-1.570866,2.4767237,-0.057903577,0.062135726,-0.078965515,0.016861841,-0.0005782641,-0.06906144,-0.095768064,0.24899697,-9.519346,0.8179876,47.67166,-1.028581,-2.3832664,-3.4026144,-0.22460209,0.008278871,-0.10245611,24.5,24.9375,24.25,25.8125,25.9375,26.1875
0.10605341,-1.0405691,-1.5933008,-1.5305204,-0.030126274,0.03772963,-0.05066721,-0.3917473,-0.36814937,0.059902173,-3.078475,0.62449527,-0.0003968964,-0.047971718,0.008687234,0.0009807224,0.00012434745,0.0008840816,0.008590771,0.50182694,-1.378199,1.9001092,-2.090772,-1.5708541,2.4765804,-0.05871309,0.063013725,-0.08071836,0.01698151,-0.0007016179,-0.0672617,-0.11492168,0.28730422,-9.289502,0.73069996,47.683304,-0.9912329,-2.3833,-3.361663,-0.23145017,0.010717796,-0.12803562,24.5,24.9375,24.25,25.8125,25.9375,26.1875
0.10805367,-0.78171694,-1.5605345,-1.7357554,-0.023652107,0.032999214,-0.04348259,-0.39185148,-0.3681314,0.059905022,-3.0784862,0.62444025,-0.0003702078,-0.049404092,0.008204745,0.0016354995,-0.000792906,0.0024958423,0.0066331686,0.50170714,-1.3780664,1.8999404,-2.0907485,-1.5708655,2.476425,-0.059230085,0.064197496,-0.08357743,0.016801879,-0.0006775964,-0.065819815,-0.038307227,0.30645782,-9.289502,0.7642693,47.687782,-1.0291021,-2.3428783,-3.3662899,-0.22278021,0.008987701,-0.14894156,24.5,24.9375,24.25,25.8125,25.9375,26.1875
0.110054135,-0.38845882,-1.1192728,-1.865927,-0.026019901,0.028643178,-0.059881944,-0.3919519,-0.36812678,0.0599152,-3.078514,0.62446666,-0.00033939854,-0.050185736,0.008611787,0.0017846642,-0.00077937194,0.0023265318,0.0041174167,0.5015988,-1.3779461,1.899772,-2.0907366,-1.5708536,2.4763296,-0.060667716,0.06474663,-0.084750906,0.017581828,-0.00060569664,-0.06474139,0.05746084,0.2681506,-9.3661175,0.80679786,47.677036,-0.9920021,-2.362024,-3.2497637,-0.22341849,0.012801349,-0.1700311,24.5,24.9375,24.25,25.8125,25.9375,26.1875
0.11205422,-0.33705947,-1.4554635,-1.8086566,-0.016196826,0.022916626,-0.050376292,-0.39206153,-0.36809018,0.059914265,-3.0785003,0.624444,-0.0003448106,-0.050302267,0.008864344,7.163137e-05,0.0008503316,-0.00077549706,0.0027721114,0.50144297,-1.3778126,1.8996052,-2.090689,-1.5708655,2.4761615,-0.061222076,0.06869322,-0.085638165,0.018025104,-0.0005447654,-0.06394963,0.05746084,0.2873042,-9.423578,0.800085,47.667187,-1.0038168,-2.4768732,-3.3589091,-0.24754474,0.011366303,-0.19689606,24.5,24.9375,24.25,25.8125,25.9375,26.1875
0.11405419,-0.48316264,-1.3805227,-1.7837591,-0.026551746,0.021984132,-0.04806865,-0.39216074,-0.3680778,0.059911,-3.0784981,0.62450165,-0.0003572899,-0.053279668,0.008000725,0.0030503531,-0.0021223507,0.00464756,0.0012617692,0.50132275,-1.3776686,1.8994364,-2.0906641,-1.5708536,2.4760776,-0.06250521,0.067597024,-0.09124216,0.018541723,-0.00055517844,-0.0637204,0.019153614,0.22984336,-9.385271,0.7709874,47.677036,-1.0644827,-2.3349917,-3.140308,-0.25858366,-0.0055150436,-0.22623008,24.5,24.9375,24.25,25.8125,25.9375,26.1875
0.11605425,-0.48898837,-1.3915707,-1.8982946,-0.027134234,0.040529758,-0.05704943,-0.39225826,-0.36806273,0.059908565,-3.0784738,0.6244191,-0.0004037358,-0.053046737,0.00899737,0.0018805588,-0.0007792459,0.0021389853,0.0013225907,0.5012144,-1.3775004,1.8992208,-2.0905683,-1.5708655,2.475921,-0.06396579,0.06879419,-0.09013157,0.019078212,-0.00052732474,-0.065242164,-0.019153614,0.22984336,-9.481039,0.77545905,47.687782,-1.0320946,-2.2990348,-3.3175077,-0.28667045,-0.0022709933,-0.24658206,24.5,24.9375,24.25,25.8125,25.9375,26.1875
0.11805356,-0.9786395,-1.3074121,-1.8636558,-0.03922266,0.041449767,-0.057191096,-0.3923595,-0.3680634,0.059909582,-3.0785282,0.6243904,-0.00037430317,-0.05378648,0.008531527,0.0010355297,2.6661619e-05,0.0007059492,0.0024189886,0.5011068,-1.3773667,1.8990654,-2.0905917,-1.5708417,2.4757886,-0.06383996,0.07270913,-0.092991695,0.019668877,-0.0005478194,-0.06621102,0.0,0.21068975,-9.557653,0.74413085,47.695843,-1.096005,-2.5284665,-3.247439,-0.29073176,-0.008608562,-0.25073236,24.5,24.9375,24.25,25.8125,25.9375,26.1875
0.12005398,-1.0966517,-1.9205073,-1.7472357,-0.040350743,0.056877006,-0.05242547,-0.39247066,-0.3680139,0.059921194,-3.0784628,0.62441623,-0.00036738036,-0.055163827,0.008586063,0.0028576802,-0.0016105189,0.0036219046,9.452585e-06,0.50095063,-1.3772475,1.8988732,-2.090484,-1.5708898,2.475657,-0.06520498,0.07068899,-0.09487622,0.02022645,-0.0005167494,-0.06516619,-0.05746084,0.28730422,-9.500193,0.82022345,47.694946,-1.1203445,-2.298545,-3.1599498,-0.31246847,0.005678622,-0.30635703,24.5,24.9375,24.25,25.8125,25.9375,26.1875
0.12205437,-1.7879984,-2.3489013,-1.9969001,-0.02160015,0.05101752,-0.04051575,-0.392583,-0.36798313,0.059902076,-3.0784392,0.6244106,-0.0004133521,-0.05487849,0.00891596,0.0016464528,-0.00016352926,0.0009064178,0.0003170127,0.5007949,-1.3770665,1.8986939,-2.0904477,-1.5708898,2.4755008,-0.06549703,0.07300224,-0.09509861,0.021212082,-0.00048263167,-0.06576552,-0.17238252,0.3256114,-9.461885,0.7866488,47.657326,-1.180977,-2.2956605,-3.2916484,-0.33597398,0.00021499768,-0.3540585,24.5,24.9375,24.25,25.8125,25.9375,26.1875
0.12405369,-1.2160729,-1.6177509,-1.9908552,-0.032721944,0.07323028,-0.05214532,-0.39271644,-0.36798525,0.05992031,-3.0784807,0.62443656,-0.00032928018,-0.055818714,0.008776152,0.001905358,-0.000522379,0.0014996141,0.0014602648,0.5006749,-1.37691,1.898467,-2.0904477,-1.5708898,2.4753919,-0.06612824,0.07402834,-0.096942626,0.021336911,-0.00045233057,-0.06753921,-0.11492168,0.30645782,-9.500193,0.78888994,47.647476,-1.1986223,-2.343441,-3.2792034,-0.34011638,-0.00093613134,-0.35223818,24.5,24.9375,24.25,25.8125,25.9375,26.1875
0.12605353,-1.3889441,-1.152575,-1.9751016,-0.032988865,0.08097678,-0.049751855,-0.3928141,-0.36798266,0.059920277,-3.0785363,0.6243924,-0.00039187132,-0.056344997,0.009056826,0.001813006,-0.00060880533,0.0016020284,-0.0025196578,0.5005428,-1.3767656,1.8982877,-2.090412,-1.5708297,2.4752252,-0.067083314,0.074501924,-0.097233914,0.021027615,-0.00042558042,-0.06451421,-0.15322891,0.26815057,-9.5385,0.8537928,47.666286,-1.2409436,-2.2922232,-3.3486605,-0.34482145,-0.0062380647,-0.43943435,24.5,24.9375,24.25,25.8125,25.9375,26.1875
0.12805374,-1.1526936,-1.0115161,-1.831563,-0.022819337,0.090116404,-0.05626361,-0.39291212,-0.36797935,0.059913766,-3.0785484,0.62429684,-0.00040567093,-0.058848552,0.008676641,0.0030401705,-0.0023773657,0.0047617927,-0.0020433753,0.50044656,-1.376597,1.8980945,-2.0903761,-1.5708297,2.4750679,-0.06875607,0.0755429,-0.101089045,0.020220542,-0.00040182186,-0.066661544,-0.19153613,0.11492168,-9.500193,0.7597976,47.682407,-1.2821665,-2.2801757,-3.1893973,-0.3491058,0.0049498626,-0.46022734,24.5,24.9375,24.25,25.8125,25.9375,26.1875
0.13005377,-1.1099359,-0.82673144,-1.9514844,-0.021385448,0.08398977,-0.053637844,-0.3930458,-0.36794826,0.059921388,-3.07852,0.6244244,-0.0003824275,-0.059069417,0.009601897,0.0019057532,-0.0014767658,0.0030719994,-0.00037558496,0.5002781,-1.3764403,1.8978804,-2.0903285,-1.5708417,2.4749827,-0.0705024,0.0770154,-0.10015374,0.01972608,-0.00038057196,-0.070075825,-0.38307226,0.1340753,-9.5385,0.8090337,47.690468,-1.1166626,-2.2789066,-3.4173117,-0.33875072,-0.010945332,-0.4593997,24.5,24.9375,24.25,25.8125,25.9375,26.1875
0.1320538,-1.3527409,-0.9092397,-2.0231085,-0.014767209,0.07540138,-0.052842945,-0.39314532,-0.36792925,0.059910946,-3.0785308,0.62434614,-0.00042172067,-0.061011657,0.008064085,0.0038245642,-0.0036045155,0.0068976856,0.0035467967,0.5001468,-1.376284,1.8977107,-2.0902927,-1.5708297,2.4748013,-0.06970521,0.077617995,-0.10527741,0.019870063,-0.0003614627,-0.07319895,-0.40222588,0.038307227,-9.500193,0.78888994,47.67345,-1.3552096,-2.2376866,-3.186091,-0.3310584,-0.022832353,-0.4674,24.5,24.9375,24.25,25.8125,25.9375,26.1875
0.13405438,-1.5221349,-0.83099097,-1.9965061,-0.009621395,0.070513345,-0.053000912,-0.39331052,-0.36791813,0.059955712,-3.0785842,0.6243736,-0.00025723738,-0.061078385,0.009318434,0.0024919738,-0.0021737784,0.004187614,0.00780517,0.49999034,-1.3761514,1.8974489,-2.0902808,-1.5708536,2.4746554,-0.07187738,0.07924507,-0.104284294,0.020311242,-0.00030698002,-0.07962984,-0.49799395,0.038307227,-9.3661175,0.8090337,47.682407,-1.2736324,-2.1362948,-3.3837562,-0.34861305,-0.025223162,-0.4590658,24.5,24.9375,24.25,25.8125,25.9375,26.1875
0.13605435,-1.4621166,-0.7760844,-1.9085951,-0.0009095535,0.073444225,-0.05363035,-0.39343813,-0.36787918,0.05994015,-3.0785513,0.62432677,-0.00027756693,-0.06292271,0.009541574,0.00311216,-0.002865564,0.0053739278,0.009733617,0.4998219,-1.3759588,1.8972448,-2.0902326,-1.5708774,2.474462,-0.07394692,0.0803537,-0.10709999,0.020642875,-0.00027738645,-0.08362664,-0.4213795,0.0,-9.481039,0.83365434,47.64927,-1.1681952,-2.1912944,-3.258106,-0.35168195,-0.0385418,-0.400836,24.5,24.9375,24.25,25.8125,25.9375,26.1875
0.13805348,-1.0594982,-0.50409377,-1.8800414,-0.0048965625,0.09433637,-0.06256026,-0.39354026,-0.36786598,0.05992559,-3.0785546,0.62428486,-0.0003462091,-0.06289245,0.00917752,0.0026181394,-0.0025601096,0.0048602195,0.015507978,0.4996906,-1.3757781,1.8970526,-2.0901845,-1.5708536,2.4743042,-0.07326906,0.081828795,-0.10767169,0.020338105,-0.00030568833,-0.088722624,-0.45968673,-0.038307227,-9.500193,0.78888994,47.70211,-1.3967059,-2.1677594,-3.340547,-0.3508982,-0.031244375,-0.3801596,24.5,24.9375,24.25,25.8125,25.9375,26.1875
0.14005369,-1.7293634,-0.88442063,-1.8263966,-0.0034507108,0.081809446,-0.046619073,-0.39366415,-0.3678567,0.05995852,-3.078629,0.6241996,-0.00030082875,-0.06432262,0.009940668,0.0025696796,-0.0027700504,0.005222386,0.021415936,0.49954593,-1.3756696,1.8968381,-2.0901368,-1.5708297,2.474097,-0.07584976,0.0828289,-0.108657725,0.019906603,-0.00029509782,-0.09721074,-0.4213795,0.019153614,-9.423578,0.7642693,47.645687,-1.2779576,-2.2020054,-3.3567996,-0.33653992,-0.04891838,-0.30847466,24.5,24.9375,24.25,25.8125,25.9375,26.1875
0.14205387,-1.6323113,-0.90245247,-1.8958356,-0.010082442,0.084026515,-0.04990651,-0.39378995,-0.3678497,0.059965104,-3.078662,0.6240315,-0.00027495527,-0.065715574,0.010423071,0.0023699005,-0.0026701842,0.005092892,0.022354037,0.49942553,-1.3754888,1.8965977,-2.090089,-1.5708417,2.4738677,-0.077901386,0.08471789,-0.11048031,0.020000273,-0.0003236671,-0.100199446,-0.36391866,0.038307227,-9.3661175,0.83813137,47.675243,-1.2777119,-2.2277038,-3.3147087,-0.34640443,-0.050321154,-0.27284914,24.5,24.9375,24.25,25.8125,25.9375,26.1875
0.14405419,-1.4951308,-0.8696672,-1.7891942,-0.018317085,0.08743822,-0.046863582,-0.39392483,-0.3678192,0.059969526,-3.0786922,0.62401414,-0.00028651825,-0.06664444,0.010171527,0.0026686531,-0.0029862812,0.005719282,0.025619298,0.49923486,-1.3753322,1.8963937,-2.0900528,-1.5708174,2.4736624,-0.07828865,0.08586191,-0.11259026,0.020267082,-0.0003490125,-0.10385097,-0.40222588,0.076614454,-9.423578,0.8179876,47.668976,-1.3181273,-2.2282352,-3.3273878,-0.34848815,-0.06237039,-0.21094342,24.5,24.9375,24.25,25.8125,25.9375,26.1875
0.14605366,-1.8915917,-1.2914298,-1.7356508,-0.017414263,0.077404104,-0.04823802,-0.39405927,-0.36779475,0.059959922,-3.0786748,0.6239349,-0.00031845394,-0.06881914,0.011638607,0.0029501875,-0.0030591013,0.006187428,0.023708615,0.4990776,-1.3751159,1.8961424,-2.0899813,-1.5708297,2.473458,-0.08262136,0.08661189,-0.1142412,0.020721188,-0.00051536586,-0.10627199,-0.5363012,0.095768064,-9.461885,0.83589023,47.67614,-1.2518222,-2.2002754,-3.3464618,-0.34629023,-0.041308247,-0.16616665,24.5,24.9375,24.25,25.8125,25.9375,26.1875
0.14805391,-1.7150745,-1.1472709,-1.8070558,-0.019827912,0.08425551,-0.046463642,-0.3942081,-0.36777696,0.059965983,-3.0787103,0.62380767,-0.00021385399,-0.06889679,0.011405039,0.0018691871,-0.0021243938,0.0048640836,0.023603303,0.49893314,-1.3749348,1.8959163,-2.0899932,-1.570866,2.47323,-0.0821576,0.08940503,-0.11502179,0.020314828,-0.0006983489,-0.105701864,-0.51714754,0.17238252,-9.3661175,0.80456203,47.689575,-1.3771124,-2.1591196,-3.404074,-0.34260434,-0.052505955,-0.1654523,24.5,24.9375,24.25,25.8125,25.9375,26.1875
0.15005407,-1.968964,-0.9815512,-1.745779,-0.02264752,0.07894654,-0.044293307,-0.39435706,-0.36774158,0.05997425,-3.0787318,0.62379485,-0.00021073228,-0.07221408,0.012388156,0.0036638337,-0.004075044,0.008340299,0.016142799,0.49872896,-1.3747666,1.895687,-2.0899456,-1.5708536,2.473015,-0.08685122,0.08881245,-0.118412256,0.020313561,-0.0006521037,-0.10293386,-0.36391866,0.22984336,-9.289502,0.7978386,47.672558,-1.23778,-2.2977178,-3.3902173,-0.33311552,-0.049075156,-0.17864397,24.5,24.9375,24.25,25.8125,25.9375,26.1875
0.15205432,-1.4845984,-1.2676593,-1.7877192,-0.013765032,0.08518595,-0.047649197,-0.39448372,-0.36770952,0.05996547,-3.0787168,0.6237341,-0.00020358677,-0.071095124,0.01276126,0.002565118,-0.0029000754,0.0062003178,0.012591753,0.49857336,-1.3745863,1.8954848,-2.0899098,-1.5708774,2.4728236,-0.08641772,0.08921061,-0.116410725,0.020353386,-0.00065503584,-0.09895007,-0.45968673,0.15322891,-9.32781,0.8179876,47.674347,-1.1434792,-2.098824,-3.4554958,-0.3233593,-0.05779037,-0.20541161,24.5,24.9375,24.25,25.8125,25.9375,26.1875
0.15405418,-1.6392189,-0.96784097,-1.6365082,-0.019696234,0.08054815,-0.04860363,-0.3946518,-0.36767995,0.059976995,-3.078712,0.6238711,-0.00016245642,-0.07386772,0.012632672,0.0018931932,-0.00290605,0.006110781,0.006253886,0.49836916,-1.3743922,1.8952197,-2.0898736,-1.5708774,2.4727056,-0.088739,0.09480535,-0.12143247,0.019856645,-0.0006131879,-0.09493071,-0.47884035,0.19153613,-9.3661175,0.8179876,47.70032,-1.222956,-2.2473664,-3.3697298,-0.31425115,-0.06917583,-0.25879303,24.5,24.9375,24.25,25.8125,25.9375,26.1875
0.15605369,-1.5749227,-1.3421925,-1.4113519,-0.013239017,0.07968845,-0.046391882,-0.39476627,-0.36767432,0.05997055,-3.0787659,0.6237093,-0.00024145364,-0.07442244,0.013625632,0.0022181573,-0.0031407652,0.006513454,0.002729338,0.49822485,-1.3742007,1.8949932,-2.0898135,-1.5708297,2.4724536,-0.090893075,0.09354921,-0.12071282,0.019931875,-0.00059870555,-0.09356078,-0.40222588,0.19153614,-9.289502,0.842603,47.701214,-1.0772737,-2.1177068,-3.5154967,-0.30532116,-0.051338214,-0.3197611,24.5,24.9375,24.25,25.8125,25.9375,26.1875
0.15805401,-1.4779328,-0.9760587,-1.5435842,-0.008383043,0.07348194,-0.04537916,-0.39492872,-0.36761394,0.05996523,-3.0787125,0.6237952,-0.00022091846,-0.07634753,0.013927358,0.0025177659,-0.003551038,0.0072277915,0.001547786,0.49799648,-1.3740078,1.8947653,-2.0897658,-1.5708655,2.4722857,-0.09313553,0.095406145,-0.12368219,0.020217154,-0.00058516045,-0.0946203,-0.28730422,0.095768064,-9.32781,0.7866488,47.705692,-1.0501757,-2.1972494,-3.4343925,-0.3018247,-0.04744643,-0.3461323,24.5,24.9375,24.25,25.8125,25.9375,26.1875
0.1600543,-1.6068661,-1.0498568,-1.6982379,-0.0076856804,0.057865757,-0.054213192,-0.39511243,-0.36760503,0.059998177,-3.078777,0.6237686,-5.4765293e-05,-0.0779243,0.014415666,0.0024104856,-0.0036305021,0.007413788,0.0004778019,0.49782795,-1.373827,1.8944782,-2.0897777,-1.5708898,2.4720926,-0.09535178,0.0972779,-0.12565365,0.020113029,-0.00059639104,-0.095765576,-0.28730422,0.17238252,-9.289502,0.83813137,47.690468,-0.952064,-2.1941233,-3.332923,-0.28172764,-0.06852169,-0.33254462,24.5,24.9375,24.25,25.8125,25.9375,26.1875
0.1620545,-1.1972471,-1.1555412,-1.5415556,-0.010604271,0.06468689,-0.05140563,-0.39525655,-0.3675684,0.05998937,-3.0787852,0.623751,-0.0001361727,-0.07944473,0.014990657,0.0023680504,-0.003681362,0.007555814,-0.0013732234,0.49761173,-1.3736224,1.8942388,-2.0897062,-1.5708536,2.4718645,-0.09765329,0.09888105,-0.1275047,0.02021532,-0.0006251594,-0.09621507,-0.40222588,0.15322891,-9.212888,0.8224646,47.679718,-0.83825386,-2.1235876,-3.366332,-0.27206096,-0.07800102,-0.3426623,24.5,24.9375,24.25,25.8125,25.9375,26.1875
0.16405375,-1.3323734,-1.1153008,-1.702017,-0.01818688,0.06504543,-0.044438984,-0.39542672,-0.36753547,0.059992325,-3.0787919,0.6237908,-8.1195656e-05,-0.080725,0.014964,0.0028502794,-0.0040702596,0.008284808,-0.0021790096,0.49740782,-1.3734177,1.8939861,-2.0896943,-1.5708655,2.4716847,-0.09873493,0.09996443,-0.13005146,0.020851277,-0.0006301724,-0.09648987,-0.49799395,0.17238252,-9.232041,0.8112748,47.68062,-0.8074806,-2.2427897,-3.1896825,-0.26423076,-0.0898538,-0.40062854,24.5,24.9375,24.25,25.8125,25.9375,26.1875
0.16605356,-1.158787,-1.5612258,-1.6592923,-0.021881687,0.079037026,-0.057913467,-0.39557204,-0.36750668,0.059998933,-3.0787792,0.6238093,-9.831343e-05,-0.081611626,0.015494287,0.002631932,-0.0037330799,0.0076246606,-0.0036842367,0.49722627,-1.3732251,1.8937229,-2.0896099,-1.5708655,2.4715164,-0.10040906,0.101324745,-0.13134201,0.021522427,-0.00061259523,-0.09665818,-0.40222588,0.24899697,-9.3661175,0.8179876,47.666286,-0.8392525,-2.111917,-3.4647882,-0.25649154,-0.08430567,-0.40414977,24.5,24.9375,24.25,25.8125,25.9375,26.1875
0.1680541,-1.4020755,-1.4860905,-1.5946424,-0.024889922,0.09099504,-0.047540575,-0.39575312,-0.36747512,0.06000153,-3.078807,0.6237902,-8.500037e-05,-0.08205777,0.015631126,0.0019144309,-0.003085441,0.0064815707,-0.0015592679,0.49700004,-1.3729959,1.8934363,-2.089574,-1.5708536,2.4712749,-0.10098461,0.10352194,-0.13238037,0.021677995,-0.0006352891,-0.099357985,-0.34476504,0.22984336,-9.308656,0.800085,47.675243,-0.8341731,-2.3978417,-3.382347,-0.25336426,-0.08901481,-0.43944734,24.5,24.9375,24.25,25.8125,25.9375,26.1875
0.17005348,-1.636537,-1.5512177,-1.5707134,-0.018546732,0.08950997,-0.047588695,-0.39591065,-0.3674261,0.06000444,-3.0787575,0.6238538,-6.3520005e-05,-0.0833816,0.015227787,0.002467219,-0.0035353848,0.0075878184,0.004197507,0.4967963,-1.3728034,1.8931845,-2.089502,-1.5708903,2.4711173,-0.101392224,0.10497592,-0.13548973,0.022142146,-0.00077372545,-0.10552078,-0.22984336,0.22984336,-9.308656,0.7978386,47.660015,-0.84047985,-2.1589274,-3.2573605,-0.25834522,-0.09080139,-0.3660408,24.5,24.9375,24.25,25.8125,25.9375,26.1875
0.172054,-1.6870463,-1.5110964,-1.7264078,-0.009459909,0.08025705,-0.051968247,-0.39608055,-0.3674046,0.059992153,-3.0787804,0.62377703,-5.1550076e-05,-0.08469243,0.014487806,0.0025885708,-0.0038971829,0.00811955,0.009685344,0.49660474,-1.3725502,1.8929085,-2.0894897,-1.5708903,2.470875,-0.101341955,0.10772487,-0.13911393,0.022376297,-0.0007146798,-0.110956684,-0.19153613,0.15322891,-9.212888,0.8179876,47.66987,-0.90731,-2.2953959,-3.1904354,-0.2344332,-0.08726752,-0.35173792,24.5,24.9375,24.25,25.8125,25.9375,26.1875
0.17405427,-1.0942246,-1.3832085,-1.8601089,-0.008072803,0.06997302,-0.046964545,-0.3962387,-0.3673934,0.059989836,-3.0788538,0.6236358,-8.822077e-05,-0.08577003,0.014576296,0.00234952,-0.0038501883,0.0080517465,0.016180335,0.49641144,-1.3723214,1.8926333,-2.089454,-1.5708421,2.4705844,-0.102423094,0.109716944,-0.14094722,0.022303898,-0.00072637416,-0.11853182,-0.22984336,0.22984336,-9.289502,0.8090337,47.675243,-0.9496851,-2.3707137,-3.1492472,-0.19802526,-0.08544381,-0.2965069,24.5,24.9375,24.25,25.8125,25.9375,26.1875
0.17605384,-0.8101613,-1.3213794,-1.8003904,-0.018471302,0.060061388,-0.04928157,-0.39642146,-0.36736268,0.060009398,-3.0788627,0.6236514,-9.145717e-06,-0.086630166,0.014609768,0.0023471746,-0.0037771203,0.007936589,0.022777004,0.49620765,-1.3721167,1.8923343,-2.0894058,-1.570866,2.4703894,-0.10321204,0.11118195,-0.1428295,0.022853266,-0.0007323393,-0.1259166,-0.19153613,0.24899697,-9.251195,0.8291774,47.66091,-1.0429494,-2.3780868,-3.1807852,-0.19790465,-0.10295318,-0.21323718,24.5,24.9375,24.25,25.8125,25.9375,26.1875
0.17805411,-0.54611707,-1.2720474,-1.7411733,-0.027073866,0.05969721,-0.04829318,-0.39660496,-0.36729777,0.060001157,-3.078826,0.62356466,3.641642e-05,-0.086637296,0.013819391,0.0024554902,-0.003840219,0.008139267,0.025707334,0.49596837,-1.371888,1.8920702,-2.089358,-1.5709261,2.4701009,-0.1018166,0.11217484,-0.14435224,0.023167063,-0.000775526,-0.12745075,-0.19153613,0.30645782,-9.193734,0.7911258,47.704796,-0.9879647,-2.349419,-3.1493783,-0.19039327,-0.117913306,-0.12144025,24.5,24.9375,24.25,25.8125,25.9375,26.1875
0.18005423,-0.94959456,-1.5757034,-1.7972573,-0.023388363,0.057441242,-0.0380126,-0.39678583,-0.3672875,0.060021322,-3.0788856,0.6235184,4.0213832e-05,-0.088594735,0.014965697,0.0025676033,-0.0038306236,0.008492787,0.024260119,0.4957639,-1.3716595,1.8917359,-2.089286,-1.5708903,2.46986,-0.10536434,0.113384664,-0.1461303,0.023433693,-0.0009495361,-0.12955022,-0.28730422,0.24899697,-9.251195,0.83365434,47.68599,-1.0848248,-2.3220677,-3.181323,-0.17368552,-0.10807748,-0.086032525,24.5,24.9375,24.25,25.8125,25.9375,26.1875
0.18205367,-0.94628465,-1.4963665,-1.9624035,-0.029145552,0.06435822,-0.04872347,-0.39695337,-0.36725813,0.059997894,-3.0788858,0.62347984,2.4657415e-05,-0.08964943,0.014129056,0.0034015486,-0.004604312,0.009939155,0.020116204,0.49556178,-1.3713949,1.8914713,-2.0892737,-1.5708903,2.469634,-0.10486801,0.114423744,-0.14943287,0.024057686,-0.00096162636,-0.124908626,-0.19153613,0.22984336,-9.289502,0.8224646,47.690468,-0.9774496,-2.307445,-3.16807,-0.16009964,-0.11701572,-0.13382055,24.5,24.9375,24.25,25.8125,25.9375,26.1875
0.18405388,-1.1162337,-1.706784,-1.8118857,-0.032801516,0.06533422,-0.04340554,-0.39714134,-0.3672298,0.060004413,-3.0789073,0.62339014,8.7976354e-05,-0.08849829,0.015928889,0.0011752961,-0.002081554,0.005288061,0.013848974,0.49535757,-1.3711542,1.8911618,-2.089238,-1.5709141,2.4693713,-0.106787845,0.115652785,-0.14600483,0.024689613,-0.00095454167,-0.12056252,-0.17238252,0.22984336,-9.3661175,0.8023209,47.694946,-0.9976926,-2.3092175,-3.2706842,-0.14409053,-0.11737344,-0.17517796,24.5,24.9375,24.25,25.8125,25.9375,26.1875
0.18605365,-0.96154714,-1.3338331,-1.9796793,-0.037900966,0.06525938,-0.038598657,-0.39730114,-0.36720112,0.060002342,-3.0789216,0.6233766,1.9115187e-05,-0.08959132,0.016256655,0.0016061421,-0.0022381584,0.005866199,0.007781218,0.49514148,-1.3709257,1.8908752,-2.0891535,-1.5708779,2.469145,-0.108196616,0.11613269,-0.14773159,0.025358887,-0.0010950934,-0.11590266,-0.21068975,0.3256114,-9.308656,0.84708,47.684196,-0.96900654,-2.3397088,-3.2324946,-0.13655575,-0.11412962,-0.21840674,24.5,24.9375,24.25,25.8125,25.9375,26.1875
0.18805377,-0.29903728,-0.98953223,-1.8612624,-0.030345168,0.06678709,-0.05493388,-0.39746544,-0.36717513,0.060010754,-3.0789573,0.62327176,4.462421e-05,-0.089806534,0.016926091,-0.00047322077,-0.000101886166,0.0018706336,0.0028846324,0.4949483,-1.3707199,1.8906001,-2.0891058,-1.5708779,2.468882,-0.109482646,0.120668314,-0.14863487,0.026257709,-0.0010729897,-0.112291224,-0.095768064,0.24899697,-9.461885,0.8224646,47.704796,-1.1372256,-2.393303,-3.3318362,-0.12858504,-0.11739159,-0.2708594,24.5,24.9375,24.25,25.8125,25.9375,26.1875
0.19005439,-0.7660345,-1.275156,-2.2173755,-0.012888698,0.04144071,-0.0379121,-0.3976617,-0.36715057,0.06000008,-3.0789707,0.6232929,4.6258592e-05,-0.08956644,0.016303776,0.0012249249,-0.0013734075,0.0041739014,0.0024807414,0.49472108,-1.3704329,1.8902768,-2.0890815,-1.570866,2.4686666,-0.10817949,0.11764017,-0.14911738,0.02713894,-0.0010446294,-0.110584676,-0.019153614,0.19153613,-9.500193,0.83813137,47.690468,-1.04279,-2.2350786,-3.494986,-0.110287055,-0.12129265,-0.3375596,24.5,24.9375,24.25,25.8125,25.9375,26.1875
0.19205381,-0.24523464,-0.9019269,-2.043734,-0.011038625,0.042318758,-0.040812723,-0.39783892,-0.3671052,0.05999422,-3.0789244,0.6233408,6.56052e-05,-0.09185165,0.01702739,0.00046398057,-0.0009742268,0.0033734792,-0.0019638354,0.4945059,-1.370191,1.8899883,-2.0890214,-1.5709018,2.4684873,-0.111432865,0.12175712,-0.1523147,0.02710935,-0.0010236065,-0.109391674,0.038307227,0.19153613,-9.423578,0.91421866,47.683304,-1.126844,-2.4247165,-3.5417018,-0.09835081,-0.14328344,-0.40069622,24.5,24.9375,24.25,25.8125,25.9375,26.1875
0.19405442,-0.24503703,-0.7326836,-2.021157,-0.002952057,0.038705047,-0.038453568,-0.3980282,-0.36707255,0.05999998,-3.0789354,0.6233596,9.1395625e-05,-0.09023924,0.016980179,-0.00018472789,1.2184038e-05,0.001656154,-0.0013864267,0.49427915,-1.3699511,1.8896784,-2.0889733,-1.5709018,2.468271,-0.10980461,0.12118054,-0.1503033,0.027654525,-0.0010683527,-0.10834175,0.038307227,0.13407528,-9.442732,0.8179876,47.704796,-1.1316246,-2.227862,-3.6422672,-0.084850825,-0.122607544,-0.43992323,24.5,24.9375,24.25,25.8125,25.9375,26.1875
0.1960543,-0.2336964,-0.52592486,-2.0102937,-0.0011021896,0.040975463,-0.049895145,-0.39821088,-0.36702454,0.05997018,-3.078913,0.6233569,1.9550584e-05,-0.092005804,0.01701461,0.00043270693,-0.000551986,0.0027285342,-0.002878265,0.49402565,-1.3696623,1.8893908,-2.0889251,-1.5708903,2.4680188,-0.11139627,0.12259345,-0.15357004,0.028297838,-0.001090793,-0.10844014,0.05746084,0.076614454,-9.423578,0.85826975,47.68599,-1.1754544,-2.3070807,-3.4913964,-0.074617535,-0.13896249,-0.47791415,24.5,24.9375,24.25,25.8125,25.9375,26.1875
0.19805364,-0.4021447,-0.9442966,-2.1580124,0.004036143,0.04354415,-0.040346652,-0.39842406,-0.367013,0.060036764,-3.0789764,0.62332696,0.00021175365,-0.09389201,0.017192058,0.00196622,-0.001412269,0.0049374774,-0.0013370706,0.4938349,-1.3694822,1.8890084,-2.0888526,-1.5709261,2.4678016,-0.11317176,0.12225567,-0.15698566,0.029694812,-0.0013699326,-0.11175547,0.05746084,0.076614454,-9.404425,0.8537928,47.71554,-1.0647943,-2.2521853,-3.4925754,-0.07280622,-0.1310686,-0.49314,24.5,24.9375,24.25,25.8125,25.9375,26.1875
0.20005403,-0.24766156,-0.4413914,-2.1273892,-0.014366194,0.047357768,-0.050903134,-0.39858028,-0.36698645,0.060021777,-3.0789824,0.62332344,0.000102203194,-0.094139345,0.01761656,0.000397399,0.0005784322,0.0018788367,0.0050491276,0.4936189,-1.3692285,1.8887209,-2.0887687,-1.5708779,2.4675827,-0.11386722,0.12612739,-0.15831776,0.030797152,-0.0016789656,-0.11883562,0.0,0.095768064,-9.519346,0.8851263,47.692257,-1.1397903,-2.2885761,-3.4633708,-0.07726526,-0.1366272,-0.506831,24.5,24.9375,24.25,25.8125,25.9375,26.1875
0.20205426,-0.9173116,-1.2962012,-2.3375776,-0.013317614,0.041499678,-0.04612137,-0.39876914,-0.3669511,0.06001386,-3.07897,0.62325907,0.00011192627,-0.09541729,0.017791262,0.0019767773,-0.00050813006,0.004150704,0.010849229,0.49340314,-1.368953,1.8883966,-2.0887086,-1.5709018,2.4673285,-0.11518395,0.124618605,-0.1603755,0.03184427,-0.0018015238,-0.12595186,-0.05746084,0.21068975,-9.615114,0.8403672,47.666286,-1.1303235,-2.0901322,-3.438272,-0.05921551,-0.1340591,-0.42299846,24.5,24.9375,24.25,25.8125,25.9375,26.1875
0.20405348,-0.94685906,-1.6338491,-2.150656,-0.03114303,0.058789086,-0.04666694,-0.39892823,-0.36689642,0.059994806,-3.0789182,0.62318283,1.8561506e-05,-0.09571264,0.018279262,0.00089511374,0.0011811606,0.0015691706,0.021320567,0.49317533,-1.3686994,1.88811,-2.088588,-1.5709146,2.4670599,-0.116048254,0.12754723,-0.16179556,0.03340626,-0.0020785946,-0.13728608,-0.095768064,0.21068975,-9.615114,0.83589023,47.67345,-1.2025963,-2.393052,-3.503204,-0.067643896,-0.14268461,-0.33526224,24.5,24.9375,24.25,25.8125,25.9375,26.1875
0.20605382,-1.3284829,-1.9485637,-2.350059,-0.03538777,0.070273176,-0.046183255,-0.39913744,-0.3668779,0.060015686,-3.078973,0.6231524,7.652452e-05,-0.09697605,0.01859919,0.0012925725,0.0011352211,0.0021089592,0.02595198,0.4929472,-1.3684474,1.887751,-2.0885398,-1.5709022,2.466806,-0.11753284,0.12843364,-0.1639629,0.034190994,-0.0022887366,-0.14340104,-0.22984336,0.21068975,-9.691729,0.9231726,47.687782,-1.1502477,-2.1051576,-3.454032,-0.07281294,-0.13418598,-0.25573134,24.5,24.9375,24.25,25.8125,25.9375,26.1875
0.2080541,-1.6227221,-2.1048262,-2.2858245,-0.03889642,0.085863374,-0.04574671,-0.39934117,-0.3668447,0.060019284,-3.0790143,0.6230243,0.00010321725,-0.09791649,0.01958729,0.0004392212,0.0025872244,0.0005004849,0.02799939,0.4927072,-1.3681821,1.8874153,-2.0884922,-1.5709022,2.466481,-0.11965589,0.1308774,-0.16516857,0.035057634,-0.0028045266,-0.14757006,-0.19153613,0.30645782,-9.634268,0.82694155,47.72271,-1.1223165,-2.2700863,-3.4082665,-0.08213787,-0.143905,-0.20331055,24.5,24.9375,24.25,25.8125,25.9375,26.1875
0.2100542,-2.1220536,-2.2795234,-2.238419,-0.04645403,0.09726741,-0.03612816,-0.39953476,-0.36680266,0.060042348,-3.079041,0.6229714,0.000104917344,-0.10014865,0.019749627,0.0015716217,0.0021472336,0.0028681098,0.026620608,0.49245495,-1.3679657,1.8870801,-2.0883844,-1.5708913,2.4661925,-0.12142654,0.13174798,-0.16894452,0.035672396,-0.0035416447,-0.14795937,-0.38307226,0.36391866,-9.653421,0.8493211,47.690468,-1.1486801,-2.2157106,-3.2996507,-0.08130817,-0.12550789,-0.16874331,24.5,24.9375,24.25,25.8125,25.9375,26.1875
0.21205354,-2.2178268,-2.4881558,-2.3032165,-0.0352089,0.10475946,-0.028564585,-0.39973873,-0.3667665,0.06003218,-3.0790262,0.622856,0.00014981716,-0.10175931,0.019042725,0.0021245757,0.0016715279,0.004655848,0.02100889,0.49223948,-1.3676647,1.8867329,-2.0883362,-1.570939,2.465907,-0.12136837,0.13383864,-0.17270271,0.035534758,-0.0039755017,-0.14228714,-0.57460845,0.34476504,-9.557653,0.8247004,47.677036,-1.0555328,-2.2578511,-3.2488747,-0.07305913,-0.12714523,-0.18632585,24.5,24.9375,24.25,25.8125,25.9375,26.1875
0.21405408,-2.5143008,-1.3703429,-1.9827276,-0.044001136,0.101840705,-0.035944417,-0.3999462,-0.36673716,0.06004906,-3.0790832,0.622833,0.00012937166,-0.10285202,0.019918889,0.001992222,0.0026958932,0.0050961976,0.015212922,0.49197385,-1.367412,1.8863739,-2.0882528,-1.5708917,2.46562,-0.123065926,0.1347758,-0.17355657,0.03555778,-0.0050839824,-0.13818675,-0.6703765,0.30645782,-9.5385,0.8627467,47.660015,-1.0308871,-2.2823966,-3.2272713,-0.062260613,-0.09634906,-0.23049203,24.5,24.9375,24.25,25.8125,25.9375,26.1875
0.21605343,-2.0997894,-1.0257847,-1.9079067,-0.034226578,0.114628725,-0.04015472,-0.40015435,-0.36669555,0.060070764,-3.0790884,0.6228323,0.00016651208,-0.10375161,0.020812616,0.0011730662,0.0050615435,0.0039373045,0.009950627,0.49172372,-1.367171,1.8860148,-2.088156,-1.5709037,2.465369,-0.124358594,0.13746323,-0.1751783,0.036634203,-0.0066194464,-0.13421407,-0.68953013,0.2681506,-9.442732,0.8605109,47.660015,-1.2333897,-2.0307817,-3.2737956,-0.06962302,-0.09315922,-0.3086182,24.5,24.9375,24.25,25.8125,25.9375,26.1875
0.21805397,-1.5462465,-0.59035236,-1.7967887,-0.027935224,0.124166034,-0.050550077,-0.4003619,-0.36664355,0.0600778,-3.0790675,0.6228266,0.00021449557,-0.104261786,0.021357585,-0.00010140153,0.007974893,0.0025371206,0.009689605,0.49147215,-1.3669175,1.8856796,-2.088084,-1.5709404,2.4651167,-0.12448815,0.14093003,-0.17658019,0.03717923,-0.008527424,-0.1340789,-0.7469909,0.21068975,-9.308657,0.8291774,47.690468,-1.131491,-2.1945937,-3.27174,-0.06736278,-0.0498069,-0.333504,24.5,24.9375,24.25,25.8125,25.9375,26.1875
0.2200541,-2.1591973,-1.0362893,-1.5325079,-0.0075696744,0.10989893,-0.044822026,-0.40058762,-0.36662167,0.060084213,-3.0791113,0.62275827,0.00027002025,-0.10543662,0.021518448,-0.0012751386,0.009454127,0.0017972857,0.008527111,0.4912324,-1.3666155,1.8852962,-2.0880487,-1.5709409,2.464829,-0.12515445,0.14503868,-0.17872505,0.036567245,-0.009483108,-0.13358033,-0.80445176,0.21068975,-9.270349,0.80456203,47.67345,-1.2437313,-2.4274242,-3.1710343,-0.034152694,-0.053600326,-0.36104104,24.5,24.9375,24.25,25.8125,25.9375,26.1875
0.22205445,-1.6903064,-0.9611188,-1.3594425,-0.0028719923,0.11181719,-0.04653191,-0.40080133,-0.36657923,0.060074337,-3.079115,0.6227389,0.00026640456,-0.10562723,0.021703713,-0.00020817776,0.007894609,0.0020561889,0.007533507,0.49096864,-1.3663164,1.88495,-2.0879996,-1.5709404,2.4645529,-0.12633407,0.14303489,-0.17911607,0.037991527,-0.008228422,-0.13376848,-0.80445176,0.21068975,-9.32781,0.8179876,47.652847,-1.1731381,-2.1444712,-3.3886142,-0.04580771,-0.032386422,-0.38425156,24.5,24.9375,24.25,25.8125,25.9375,26.1875
0.22405382,-1.636916,-0.51861894,-1.3012035,-0.015069899,0.09508811,-0.052212358,-0.40104836,-0.36652458,0.060107384,-3.0791023,0.62279314,0.00040878847,-0.106553026,0.023237765,-0.0007415114,0.0075139706,-0.0009593047,0.0063302787,0.49069166,-1.3660638,1.8845567,-2.0879276,-1.571,2.4643116,-0.13074039,0.1440775,-0.17961949,0.039915208,-0.0064592245,-0.13697441,-0.53630114,0.05746084,-9.32781,0.85155696,47.657326,-1.1917926,-2.242783,-3.4644005,-0.07788252,-0.03940109,-0.3982604,24.5,24.9375,24.25,25.8125,25.9375,26.1875
0.22605404,-1.0003002,-1.0041386,-1.3799589,-0.013889775,0.08208629,-0.04066167,-0.40126553,-0.3664819,0.060094677,-3.0791082,0.622768,0.00037730084,-0.10532753,0.021776501,-0.0013327436,0.007191551,-0.0048091253,0.014984252,0.4904171,-1.3657506,1.8841971,-2.0878665,-1.5709871,2.4640207,-0.12841265,0.14652112,-0.18194868,0.043035787,-0.00436196,-0.14330249,-0.63206923,-0.076614454,-9.174581,0.9030289,47.666286,-1.1437669,-2.2089157,-3.3875723,-0.09471829,-0.0634305,-0.34038913,24.5,24.9375,24.25,25.8125,25.9375,26.1875
0.2280543,-0.35074654,-0.16002452,-0.860036,-0.01713546,0.08010466,-0.056162745,-0.40146995,-0.3664506,0.06008313,-3.079104,0.62262905,0.00034327985,-0.10662017,0.02328887,-0.0016782762,0.0071726767,-0.007147034,0.019710438,0.49018806,-1.3654256,1.8838128,-2.0877702,-1.5709985,2.4637058,-0.13271782,0.147822,-0.18322092,0.045051876,-0.0032492015,-0.15233481,-0.59376204,-0.11492168,-9.040505,0.83589023,47.687782,-0.95913494,-2.2153254,-3.404359,-0.12734282,-0.065817654,-0.2564215,24.5,24.9375,24.25,25.8125,25.9375,26.1875
0.23005353,-0.64740986,0.08818146,-0.9527449,0.012701707,0.06909519,-0.0468448,-0.4017342,-0.3664127,0.060109444,-3.0791917,0.6226781,0.00043309003,-0.1075673,0.022352058,-0.001873638,0.0057572927,-0.0068238187,0.029280033,0.48986492,-1.3651489,1.8834194,-2.0877588,-1.5709618,2.4634023,-0.13258731,0.15033177,-0.18556508,0.043933623,-0.0021456494,-0.16177441,-0.2873042,-0.17238252,-8.848969,0.91198283,47.7254,-1.0917006,-2.1944523,-3.4207623,-0.12762564,-0.069493316,-0.15094471,24.5,24.9375,24.25,25.8125,25.9375,26.1875
0.23205373,-0.16414075,0.9746484,-0.7907418,0.032604013,0.077043094,-0.054469917,-0.40193015,-0.3663655,0.060094874,-3.0791702,0.6225366,0.00039843604,-0.1083466,0.022083487,-0.0004234886,0.0040896833,-0.0048613185,0.031999107,0.4896251,-1.3648489,1.8830718,-2.087663,-1.5709862,2.463077,-0.13309798,0.14873421,-0.187133,0.0445758,-0.0016083656,-0.16500458,-0.1340753,-0.24899697,-8.848969,0.8224646,47.67614,-1.0767554,-2.1670842,-3.4206905,-0.09505441,-0.08779976,-0.09362613,24.5,24.9375,24.25,25.8125,25.9375,26.1875
0.23405379,-0.12004977,0.7123507,-0.77950704,0.04715656,0.06774811,-0.04447065,-0.40213957,-0.36631626,0.060080674,-3.0791972,0.6224665,0.00030219546,-0.10878908,0.022800358,-0.00034140126,0.0048558135,-0.006485495,0.027930455,0.48932546,-1.3645481,1.8827246,-2.0875776,-1.570938,2.4627304,-0.13466392,0.14936061,-0.18874063,0.047358572,-0.0015267234,-0.16250151,-0.1340753,-0.17238252,-8.695741,0.83589023,47.690468,-1.0739937,-2.2742598,-3.3961124,-0.12493332,-0.0984402,-0.059094246,24.5,24.9375,24.25,25.8125,25.9375,26.1875
0.23605426,0.18157916,0.6387191,-0.91821384,0.049798418,0.052465137,-0.04712592,-0.40236366,-0.36628857,0.060111906,-3.0792253,0.6223593,0.00034198587,-0.110039935,0.021988023,0.0010774626,0.0035927652,-0.004674388,0.022492403,0.48908576,-1.3642721,1.8822936,-2.087446,-1.5709499,2.4624205,-0.13450822,0.1496302,-0.19264817,0.04880247,-0.0012664928,-0.15690684,-0.1340753,-0.05746084,-8.695741,0.84484416,47.66271,-1.1351287,-1.9813228,-3.3334146,-0.16706769,-0.08855599,-0.11352571,24.5,24.9375,24.25,25.8125,25.9375,26.1875
0.23805366,0.2379164,0.545907,-1.0115563,0.033955485,0.037361316,-0.052454572,-0.4025823,-0.3662159,0.060092114,-3.0791423,0.6223459,0.00029974565,-0.1111169,0.022227934,0.001159422,0.0037689242,-0.005152417,0.012891822,0.48879823,-1.3639472,1.8819221,-2.0873253,-1.5709981,2.4621353,-0.13582772,0.15127099,-0.19515242,0.050164945,-0.0012133811,-0.14862475,-0.11492168,-0.05746084,-8.848969,0.779936,47.67345,-1.1499752,-1.9975407,-3.163558,-0.18593559,-0.09890417,-0.203405,24.5,24.9375,24.25,25.8125,25.9375,26.1875
0.24005395,0.45329037,-0.27004316,-1.2844402,0.0075722476,0.036773227,-0.050830625,-0.40279382,-0.36615103,0.060074586,-3.079092,0.622261,0.00026012235,-0.111350976,0.022523696,0.000785356,0.005127895,-0.006428634,0.007833658,0.48852256,-1.3636342,1.8815626,-2.087217,-1.5710338,2.4618132,-0.13608019,0.15284581,-0.19660394,0.051804576,-0.0018245243,-0.14381748,0.0,0.05746084,-9.040505,0.82694155,47.684196,-1.1776236,-1.9225085,-3.1607566,-0.21408686,-0.103133455,-0.2614091,24.5,24.9375,24.25,25.8125,25.9375,26.1875
0.24205352,-0.07511646,-0.96047676,-1.4157035,-0.017887995,0.039702103,-0.04204974,-0.403003,-0.36609226,0.060059324,-3.0790522,0.62230974,0.00014523069,-0.111740835,0.022988906,0.0005969103,0.0062423246,-0.007589606,0.0050175237,0.48822302,-1.3633214,1.8811926,-2.087085,-1.5710105,2.4615493,-0.13684897,0.15404828,-0.19807185,0.0536233,-0.0022761475,-0.14176877,-0.1340753,0.21068975,-9.174581,0.8403672,47.66987,-1.2387664,-1.9946021,-3.1344957,-0.24460682,-0.086294845,-0.35350433,24.5,24.9375,24.25,25.8125,25.9375,26.1875
0.24405375,-0.39692414,-1.4799095,-1.7234291,-0.039312474,0.056484006,-0.0421734,-0.40323037,-0.3660413,0.060064092,-3.0790172,0.6223631,9.8187265e-05,-0.1131919,0.02378674,0.00018491289,0.0069052475,-0.008163455,-0.0021846825,0.4879348,-1.3630086,1.8807744,-2.0869415,-1.5710105,2.461299,-0.13919267,0.15632933,-0.2000245,0.054114617,-0.0026033144,-0.1369087,-0.15322891,0.28730422,-9.308656,0.8806493,47.667187,-1.2498691,-2.0359948,-3.3322656,-0.2753787,-0.0728423,-0.4273799,24.5,24.9375,24.25,25.8125,25.9375,26.1875
0.24605423,-0.60014683,-2.1574564,-1.8618411,-0.053768933,0.07914616,-0.03787553,-0.4034483,-0.36600733,0.060061473,-3.0790095,0.6223214,6.635781e-05,-0.11308105,0.023401255,0.00034152635,0.0068591824,-0.008964917,-0.0027512698,0.48768353,-1.362684,1.8803667,-2.0868328,-1.5710105,2.4610229,-0.13862285,0.15690136,-0.20146304,0.055665895,-0.0021925352,-0.13577248,0.038307227,0.34476504,-9.442732,0.94331104,47.685097,-1.1875788,-2.0272882,-3.2835736,-0.34307003,-0.082161605,-0.49799326,24.5,24.9375,24.25,25.8125,25.9375,26.1875
0.24805352,-0.7871066,-2.5878944,-2.1822255,-0.07254912,0.091498144,-0.04427486,-0.40367296,-0.36592665,0.060050193,-3.07891,0.6223572,-1.9427727e-05,-0.11470267,0.024999877,-0.0010465655,0.007199378,-0.0109486105,-0.0017337629,0.4873704,-1.3623585,1.8799614,-2.0866535,-1.5710462,2.4607449,-0.14302745,0.15993197,-0.20181622,0.0548912,-0.0015852159,-0.14119488,-0.05746084,0.47884035,-9.615114,0.8224646,47.690468,-0.93426883,-2.1416743,-3.3696256,-0.3745755,-0.105103925,-0.5149164,24.5,24.9375,24.25,25.8125,25.9375,26.1875
0.25005358,-1.175508,-3.3032918,-2.3685913,-0.07882377,0.088014044,-0.044063624,-0.4039178,-0.36588517,0.06007037,-3.0789418,0.6222783,8.367567e-06,-0.11633804,0.02481552,-0.0020864722,0.0064341873,-0.010057559,0.007867983,0.48708302,-1.3620569,1.8795298,-2.0865471,-1.5710462,2.4604044,-0.14423552,0.16351698,-0.2029941,0.05133397,-0.0013401004,-0.15200402,-0.019153614,0.59376204,-9.710882,0.8940802,47.701214,-1.0556614,-2.2360575,-3.3870156,-0.3605731,-0.09582772,-0.44725782,24.5,24.9375,24.25,25.8125,25.9375,26.1875
0.25205436,-1.495411,-3.2526004,-2.438642,-0.09510138,0.06928507,-0.033858728,-0.4041436,-0.36583304,0.060052272,-3.0789204,0.62226725,-3.8297403e-05,-0.11745221,0.025337674,-0.0030658792,0.006271897,-0.009757485,0.017659198,0.48679492,-1.3617201,1.8791484,-2.0864646,-1.5710462,2.4601123,-0.14600275,0.16562626,-0.20273928,0.04862504,-0.0013553145,-0.16356209,0.076614454,0.61291564,-9.80665,0.91198283,47.675243,-0.9848653,-2.2194147,-3.5538678,-0.3476696,-0.09785494,-0.35513717,24.5,24.9375,24.25,25.8125,25.9375,26.1875
0.2540538,-0.66085523,-3.002296,-2.422824,-0.09787941,0.08511928,-0.03921182,-0.40437868,-0.36579818,0.060062293,-3.078961,0.622153,-3.80196e-05,-0.118685804,0.02430103,-0.002899767,0.0052776244,-0.008142375,0.027357846,0.48651996,-1.361407,1.8787283,-2.0863688,-1.5710338,2.4597611,-0.1453467,0.16793619,-0.20564142,0.047323443,-0.0012448276,-0.17260349,-0.095768064,0.5746084,-9.902418,0.9410752,47.675243,-1.0816491,-2.2329473,-3.5118327,-0.34710002,-0.099442676,-0.24625304,24.5,24.9375,24.25,25.8125,25.9375,26.1875
0.2560541,-0.56056523,-2.3324356,-2.4369528,-0.08635097,0.08871062,-0.038473748,-0.40461767,-0.3657595,0.06006064,-3.078984,0.6220404,-3.915647e-05,-0.11942163,0.023426015,-0.0028805977,0.0042575034,-0.0060628946,0.03311009,0.48624298,-1.3610702,1.8783091,-2.0862863,-1.5710338,2.4594111,-0.14439775,0.16915898,-0.2066274,0.044770226,-0.0013269024,-0.17740604,-0.15322891,0.5554548,-9.883265,0.9164598,47.666286,-1.0827041,-2.399232,-3.5450454,-0.3437953,-0.10124237,-0.17780341,24.5,24.9375,24.25,25.8125,25.9375,26.1875
0.25805342,-0.94468415,-2.031472,-2.5400248,-0.07509556,0.08465041,-0.036773615,-0.40486857,-0.36570498,0.06006454,-3.0789835,0.62198365,-3.5242422e-06,-0.121606715,0.024078641,-0.003260473,0.002880517,-0.0035739664,0.026280535,0.48594406,-1.3607455,1.8778919,-2.0862038,-1.5710582,2.4590771,-0.14735717,0.17066285,-0.20664003,0.040431675,-0.001281365,-0.1735356,-0.15322891,0.51714754,-9.864111,0.9164598,47.692257,-1.000494,-2.4764433,-3.6317465,-0.28927007,-0.0897601,-0.1660935,24.5,24.9375,24.25,25.8125,25.9375,26.1875
0.2600535,-1.3770992,-2.0413723,-2.184467,-0.07321544,0.083310895,-0.031500924,-0.40512583,-0.36566454,0.06005108,-3.0790174,0.6219917,5.469843e-07,-0.12307586,0.022761889,-0.0032532138,0.0015307985,-0.0010198328,0.020813761,0.48563343,-1.360385,1.8774842,-2.086181,-1.5710338,2.4587674,-0.14635597,0.17342368,-0.209371,0.03751899,-0.0012884118,-0.16706617,-0.17238252,0.36391866,-9.672575,0.91421866,47.688675,-1.2189747,-2.4457598,-3.6281567,-0.2496292,-0.105667606,-0.23254861,24.5,24.9375,24.25,25.8125,25.9375,26.1875
0.26205385,-1.1807419,-2.233033,-2.1273427,-0.04761965,0.08163787,-0.029638514,-0.40537176,-0.365627,0.060054433,-3.079052,0.621904,1.0108517e-06,-0.12487552,0.023171518,-0.0028720673,0.0006452857,0.00038030275,0.0140895285,0.48534542,-1.3600491,1.8770546,-2.086098,-1.5710219,2.4584205,-0.14861268,0.17439799,-0.21130408,0.036828864,-0.001161854,-0.1625981,-0.21068975,0.30645782,-9.595961,0.9164598,47.65106,-1.1176631,-2.3503482,-3.6456232,-0.22461283,-0.11042078,-0.3113318,24.5,24.9375,24.25,25.8125,25.9375,26.1875
0.26405406,-0.96652174,-1.4083079,-1.9601353,-0.03248387,0.070706025,-0.04064485,-0.40562278,-0.3655963,0.06005457,-3.0791042,0.6218198,5.934854e-06,-0.1275159,0.023014836,-0.0022665174,-0.00079855666,0.0028177425,0.010922801,0.48505726,-1.3597007,1.8766221,-2.0860384,-1.5709981,2.4580734,-0.15066832,0.17664137,-0.21515466,0.03561015,-0.0010281756,-0.16148558,-0.24899697,0.19153613,-9.615114,0.8784135,47.666286,-1.0653749,-2.418312,-3.5401895,-0.19751295,-0.08286321,-0.33959523,24.5,24.9375,24.25,25.8125,25.9375,26.1875
0.26605356,-0.6705995,-0.62062603,-1.8677024,-0.022108879,0.061781026,-0.048546944,-0.40588894,-0.36556473,0.060053524,-3.0791194,0.6218599,4.7867106e-05,-0.13037163,0.022616312,-9.5686104e-05,-0.003451898,0.0077876304,0.010388499,0.48476905,-1.3593292,1.8761672,-2.0859902,-1.5709981,2.4578085,-0.15243596,0.1760995,-0.21926999,0.034633163,-0.0010015606,-0.16271769,-0.26815057,0.1340753,-9.5385,0.8560339,47.645687,-1.0764906,-2.332253,-3.4238744,-0.13785084,-0.11402763,-0.3681482,24.5,24.9375,24.25,25.8125,25.9375,26.1875
0.268054,-0.65548116,-0.39898235,-1.8068451,0.002192898,0.05656735,-0.048574258,-0.4061497,-0.3655002,0.060058616,-3.079121,0.6218018,8.584105e-05,-0.13150662,0.02293558,0.000379768,-0.0038837583,0.008562918,0.008790538,0.4844455,-1.3590055,1.8757476,-2.0859067,-1.5710219,2.4574487,-0.15387578,0.17647335,-0.22094256,0.03504068,-0.00097839,-0.16255909,-0.28730422,0.095768064,-9.481039,0.8403672,47.67614,-1.0259964,-2.234149,-3.3905735,-0.10799092,-0.10870552,-0.40168023,24.5,24.9375,24.25,25.8125,25.9375,26.1875
0.27005428,-1.0392796,0.05717285,-1.8241918,0.015140471,0.0673989,-0.045277048,-0.4064152,-0.36547,0.060077544,-3.079185,0.6218084,0.00014778566,-0.13214575,0.02298172,0.0010300596,-0.0040936777,0.008726432,0.015415821,0.48414603,-1.3586818,1.8753046,-2.0858586,-1.5709981,2.4571455,-0.15447974,0.17657344,-0.22297147,0.03672863,-0.00085546717,-0.16978808,-0.4213795,0.0,-9.3661175,0.86498255,47.691364,-1.0490834,-2.1744084,-3.4163604,-0.09027789,-0.10632937,-0.3439668,24.5,24.9375,24.25,25.8125,25.9375,26.1875
0.2720536,-1.4643135,0.16099584,-1.7969555,0.014735495,0.092542216,-0.06325618,-0.4066683,-0.36539188,0.06004503,-3.079127,0.6217133,0.00011979571,-0.132494,0.024072345,0.00042268907,-0.0030031751,0.0066121416,0.02297383,0.4838218,-1.3582978,1.8748974,-2.0857737,-1.5710462,2.4567695,-0.15650639,0.17770378,-0.22339138,0.038385954,-0.00084310444,-0.17937262,-0.38307226,0.019153614,-9.423578,0.84484416,47.69763,-1.0941823,-2.2262323,-3.4742897,-0.08148749,-0.13152821,-0.25883067,24.5,24.9375,24.25,25.8125,25.9375,26.1875
0.27405384,-1.942295,-0.100272015,-1.6796507,-0.0046480205,0.115363255,-0.055104733,-0.40692133,-0.36538514,0.06007698,-3.0792663,0.62157977,0.00012037741,-0.13199297,0.023034707,0.00074757333,-0.0025395432,0.005774201,0.03393476,0.4835359,-1.3579856,1.8744301,-2.0856888,-1.5709618,2.4563828,-0.15422145,0.1786381,-0.22587037,0.040901363,-0.00084962527,-0.18804789,-0.49799395,0.05746084,-9.404425,0.8605109,47.668976,-1.2526561,-2.2094722,-3.4065905,-0.08343926,-0.124355964,-0.15861844,24.5,24.9375,24.25,25.8125,25.9375,26.1875
0.2760542,-2.199589,-0.3193842,-1.5932512,-0.015170022,0.1236901,-0.0526378,-0.40723607,-0.36533242,0.060101755,-3.079268,0.6215773,0.00023998198,-0.13275942,0.023322102,0.0012181096,-0.0023197376,0.005366309,0.03567656,0.4832002,-1.3576019,1.8738903,-2.0855925,-1.57101,2.4560456,-0.15525226,0.17924766,-0.22823131,0.043106277,-0.0008414648,-0.1908199,-0.59376204,-0.019153614,-9.423578,0.91421866,47.66271,-1.1395473,-2.021108,-3.4199367,-0.079165995,-0.1481399,-0.10298507,24.5,24.9375,24.25,25.8125,25.9375,26.1875
0.27805373,-1.9722999,-0.71035105,-1.7079253,-0.017538892,0.11916675,-0.050078087,-0.4074612,-0.3652829,0.060081664,-3.0792837,0.62139,0.00016688772,-0.13329242,0.02369415,0.0011445269,-0.0015941061,0.0043823184,0.03146633,0.48291218,-1.3572537,1.873495,-2.0854957,-1.5709981,2.455639,-0.1561255,0.18045482,-0.22996974,0.04484979,-0.0010345132,-0.187482,-0.6512228,-0.114921674,-9.519346,0.88960326,47.66539,-1.2123538,-2.0548148,-3.432747,-0.09533048,-0.1625959,-0.10345209,24.5,24.9375,24.25,25.8125,25.9375,26.1875
0.280054,-1.4374359,-0.5892131,-1.582128,-0.02349148,0.11173021,-0.054159645,-0.40774533,-0.36523,0.06010148,-3.0793018,0.6213961,0.0002605596,-0.13416637,0.023994863,0.0012046956,-0.0012304813,0.0041754437,0.02402297,0.48258874,-1.3569175,1.8730291,-2.0854242,-1.5710219,2.4553173,-0.15714402,0.18169643,-0.23188737,0.04587585,-0.0012499604,-0.18105622,-0.57460845,-0.13407528,-9.519346,0.9030289,47.6636,-1.276605,-1.9530988,-3.441382,-0.08943516,-0.12562388,-0.1515771,24.5,24.9375,24.25,25.8125,25.9375,26.1875
0.28205416,-1.0206847,-0.3003457,-1.6721694,-0.0031985447,0.09382237,-0.058399927,-0.40802935,-0.3651823,0.06008691,-3.0793178,0.6213261,0.00023330265,-0.13553643,0.025179956,0.00083340704,6.5998254e-05,0.004384596,0.014493885,0.48225275,-1.3564976,1.8725375,-2.0853403,-1.5710105,2.4549358,-0.15943593,0.18319067,-0.23290236,0.04582102,-0.0024986132,-0.17381673,-0.49799395,-0.21068975,-9.481039,0.86945957,47.67614,-1.2969553,-2.1081772,-3.5265687,-0.060958385,-0.12811464,-0.26124465,24.5,24.9375,24.25,25.8125,25.9375,26.1875
0.28405452,-0.61976343,0.38325873,-1.6160095,-0.0018681379,0.08035779,-0.057554793,-0.4082987,-0.36513108,0.060082603,-3.0793006,0.62130594,0.00028254063,-0.13597527,0.025030117,-0.00036324363,0.001697904,0.0036260646,0.008492579,0.48195344,-1.3561245,1.8720816,-2.0852687,-1.5710472,2.4546263,-0.15879096,0.18667111,-0.23429354,0.04515944,-0.0035944993,-0.16716793,-0.40222588,-0.1340753,-9.423578,0.8985519,47.66808,-1.2571212,-2.2226186,-3.5491476,-0.046166565,-0.11257458,-0.3399753,24.5,24.9375,24.25,25.8125,25.9375,26.1875
0.286054,-0.68544835,-0.12572207,-1.7882781,0.01304175,0.061934583,-0.05213105,-0.40857512,-0.36506066,0.060071692,-3.0792854,0.62134206,0.00026534713,-0.13723351,0.025560535,-0.0007757531,0.0024712665,0.0027768754,0.0027983605,0.48159376,-1.3557521,1.8716387,-2.0851848,-1.5710472,2.4542913,-0.16047417,0.18923582,-0.23673658,0.046149854,-0.003890895,-0.16315536,-0.34476504,0.0,-9.461885,0.9858343,47.655537,-1.1808465,-2.160232,-3.5127192,-0.035200007,-0.10615045,-0.43157625,24.5,24.9375,24.25,25.8125,25.9375,26.1875
0.2880543,-0.08982488,-0.46867102,-1.806932,0.001752627,0.067470305,-0.06240963,-0.4088504,-0.36502555,0.060102176,-3.079326,0.6213681,0.0003503936,-0.1375231,0.026209256,-0.0016806518,0.004470267,0.0010324606,0.0027970201,0.48129418,-1.3554277,1.8711594,-2.0851004,-1.5710472,2.454003,-0.16111012,0.19151948,-0.2377672,0.04737087,-0.0048427773,-0.16378836,-0.2681506,0.11492168,-9.423578,0.8806493,47.686886,-1.2268317,-2.1968277,-3.5120203,-0.027191892,-0.09918481,-0.4910218,24.5,24.9375,24.25,25.8125,25.9375,26.1875
0.2900538,-0.9311901,-1.3046355,-1.5640348,-0.012905875,0.05460408,-0.04863151,-0.40911952,-0.3649865,0.06011883,-3.0793517,0.6212702,0.00036224633,-0.13823128,0.02632454,-0.0017865468,0.00574738,0.0011483665,0.012455011,0.48099422,-1.3550674,1.8706573,-2.0849683,-1.5710481,2.453639,-0.16108221,0.19320512,-0.23981309,0.048219398,-0.006029358,-0.17341602,-0.22984336,0.24899697,-9.32781,0.8918391,47.6636,-1.3117299,-2.3130605,-3.640197,-0.007308524,-0.10109645,-0.45957363,24.5,24.9375,24.25,25.8125,25.9375,26.1875
0.29205406,-1.2197086,-1.8915018,-1.4127153,-0.038408037,0.068259515,-0.061216816,-0.40939525,-0.3648957,0.060082883,-3.0792513,0.6211841,0.00031737582,-0.14000241,0.026632642,-0.00013338507,0.006290161,0.004100111,0.023248835,0.4806461,-1.3546358,1.8701886,-2.0848362,-1.5711206,2.4532502,-0.16188389,0.19270699,-0.24343143,0.04995774,-0.007896709,-0.18500721,-0.15322891,0.2681506,-9.346964,0.92093146,47.674347,-1.3448241,-2.1440277,-3.5924268,-0.012133596,-0.057010576,-0.35875887,24.5,24.9375,24.25,25.8125,25.9375,26.1875
0.2940542,-1.0531287,-2.0882795,-1.4082545,-0.052624397,0.07094772,-0.051939238,-0.40966588,-0.3648559,0.06009487,-3.079323,0.6210792,0.00032112663,-0.14059056,0.028408337,-0.00042158793,0.008236462,0.0025706894,0.031280253,0.48032135,-1.3542881,1.8697227,-2.0847514,-1.5710844,2.452851,-0.16461551,0.19296776,-0.2436553,0.052181102,-0.008905075,-0.19576916,0.076614454,0.34476504,-9.3661175,0.8784135,47.65912,-1.299043,-2.3103564,-3.5535965,-0.030525401,-0.014743673,-0.24543211,24.5,24.9375,24.25,25.8125,25.9375,26.1875
0.29605374,-0.28496447,-2.2500672,-1.4494321,-0.04393824,0.06038897,-0.054056123,-0.40997234,-0.3648068,0.060104758,-3.079349,0.62102616,0.0003481651,-0.14208512,0.028844416,-0.00010522682,0.0077039865,0.0021283114,0.03283448,0.4799722,-1.35388,1.8691834,-2.0846431,-1.5710844,2.4524658,-0.16692168,0.1944602,-0.24660707,0.053780396,-0.008227202,-0.19962972,0.038307227,0.40222588,-9.308656,0.92764956,47.658226,-1.2415271,-2.131916,-3.5901928,-0.037250362,-0.020046249,-0.17392448,24.5,24.9375,24.25,25.8125,25.9375,26.1875
0.2980535,-0.31443706,-2.2166345,-1.2413939,-0.05116615,0.04703966,-0.05899913,-0.41025344,-0.3647328,0.060105626,-3.0793161,0.6209455,0.00043130422,-0.14285323,0.029570604,-0.0006137926,0.007742844,-0.00037821033,0.026930476,0.47964758,-1.3535199,1.8687276,-2.0845582,-1.5711559,2.4520953,-0.16936208,0.19644968,-0.24837072,0.055776767,-0.0071026324,-0.19616716,-0.095768064,0.4213795,-9.136273,0.92764956,47.691364,-1.0566001,-2.0708148,-3.5691788,-0.033868417,-0.016360799,-0.16314313,24.5,24.9375,24.25,25.8125,25.9375,26.1875
0.30005392,-0.7141251,-2.1193163,-1.3457916,-0.04082473,0.020019826,-0.040489055,-0.41052076,-0.36468497,0.06008406,-3.0792968,0.62084985,0.00035427813,-0.1443208,0.029952724,5.014958e-06,0.0063412474,-0.0012900535,0.017613437,0.4793348,-1.3530875,1.8682245,-2.0844257,-1.5711554,2.4517255,-0.17215753,0.19744024,-0.2515881,0.058160953,-0.0054530846,-0.18964662,-0.11492168,0.38307226,-9.212888,0.8806493,47.66539,-1.1864613,-2.092573,-3.4505458,-0.050315708,-0.022644415,-0.2476924,24.5,24.9375,24.25,25.8125,25.9375,26.1875
0.30205345,-0.19703257,-1.7114147,-1.3576729,-0.030453987,0.02146267,-0.0505013,-0.41082287,-0.36461955,0.060088355,-3.0793123,0.6208546,0.00038225861,-0.14437659,0.028783498,0.00085416023,0.004901933,-0.0018684383,0.014083304,0.47896284,-1.3527039,1.8677324,-2.0843413,-1.571155,2.4513547,-0.17106225,0.19795664,-0.25477555,0.060676508,-0.003907182,-0.18502271,-0.095768064,0.38307226,-9.251195,0.8985519,47.661808,-1.1305792,-1.9095151,-3.4287202,-0.071405135,-0.036364116,-0.3345195,24.5,24.9375,24.25,25.8125,25.9375,26.1875
0.30405384,-0.30397144,-1.4071653,-1.2311927,-0.029478146,0.027221493,-0.058672585,-0.41111243,-0.3645877,0.060108572,-3.0793684,0.62081075,0.00043928841,-0.14467575,0.029031264,0.001040167,0.0040243827,-0.0031526869,0.009137402,0.47865063,-1.3523324,1.8672184,-2.0842564,-1.5711426,2.4510083,-0.17244256,0.19812773,-0.2558378,0.06230105,-0.0025260537,-0.18145914,-0.11492168,0.36391866,-9.097966,0.8806493,47.677036,-1.1499832,-1.9707259,-3.4766397,-0.10308494,-0.041370712,-0.39264953,24.5,24.9375,24.25,25.8125,25.9375,26.1875
0.30605426,-0.49293154,-1.1641996,-1.1874285,-0.008313126,0.042383388,-0.06628521,-0.41138735,-0.36451754,0.060102142,-3.0793295,0.6207623,0.00037323355,-0.14381947,0.030203583,-0.00087617437,0.0062490012,-0.009497575,0.009113352,0.47830215,-1.3519355,1.8667153,-2.0840876,-1.571154,2.4506347,-0.17409487,0.20106064,-0.25598177,0.06616211,-0.001584886,-0.18308847,-0.17238252,0.22984336,-9.212888,0.8537928,47.66091,-1.084759,-1.9703891,-3.4068885,-0.12135467,-0.07065516,-0.3836032,24.5,24.9375,24.25,25.8125,25.9375,26.1875
0.30805355,-0.7548284,-0.3055788,-1.1285946,-0.011318875,0.064308405,-0.07150189,-0.41170382,-0.36445537,0.060123105,-3.0793684,0.62072974,0.00040297417,-0.14493987,0.031124478,-0.0011883455,0.006805257,-0.011482334,0.011934069,0.47791705,-1.3515512,1.866176,-2.0839674,-1.5711421,2.4502246,-0.17670597,0.20312844,-0.25837216,0.06850117,-0.0011636158,-0.18852006,-0.05746084,0.21068975,-9.212888,0.99702406,47.719128,-0.9550822,-2.022121,-3.5568,-0.20329113,-0.06688105,-0.38922432,24.5,24.9375,24.25,25.8125,25.9375,26.1875
0.31005427,-1.2219188,-0.9024612,-1.0811619,-0.0036661616,0.072425984,-0.06347622,-0.4120164,-0.3643987,0.06011449,-3.0793786,0.62064815,0.0003575717,-0.1466268,0.03175697,-0.0015256862,0.0069313804,-0.01209544,0.020291176,0.4775444,-1.3510945,1.8656133,-2.0838354,-1.5711297,2.4498,-0.17916624,0.20581,-0.26107568,0.06912327,-0.0010083168,-0.1993365,-0.1340753,0.076614454,-9.078813,0.9231726,47.68062,-1.0046961,-2.0596328,-3.4206386,-0.19904521,-0.061868936,-0.32085922,24.5,24.9375,24.25,25.8125,25.9375,26.1875
0.31205356,-1.449997,-0.7313969,-0.8504124,-0.0024916185,0.080269195,-0.06648565,-0.41230658,-0.3643463,0.06013849,-3.0793912,0.6205283,0.00039437768,-0.14558138,0.031388268,-0.0015757785,0.008015158,-0.014396876,0.033086244,0.47722092,-1.3507228,1.865074,-2.083679,-1.571154,2.4494004,-0.17757574,0.20621033,-0.26226506,0.07244478,-0.0009109324,-0.21054104,-0.22984336,0.019153614,-9.021352,0.9231726,47.66987,-1.0549577,-2.0336726,-3.4752197,-0.24363199,-0.08394927,-0.18931101,24.5,24.9375,24.25,25.8125,25.9375,26.1875
0.3140537,-1.2814133,-0.45302615,-1.0820332,0.006967315,0.0712655,-0.06200685,-0.41256747,-0.36428866,0.06009684,-3.0793688,0.6203883,0.00023420413,-0.14706853,0.03153346,-0.001231452,0.0077945343,-0.014114747,0.03405563,0.47688466,-1.3502662,1.8645834,-2.0835345,-1.5711297,2.4489799,-0.17899692,0.20791048,-0.26544544,0.073577195,-0.000877829,-0.21293044,-0.2681506,-0.019153614,-9.11712,0.8940802,47.645687,-1.0269403,-2.0819626,-3.5530457,-0.30225915,-0.071846895,-0.10787386,24.5,24.9375,24.25,25.8125,25.9375,26.1875
0.316054,-1.1033511,-0.28303573,-0.9253611,0.0019236705,0.062004175,-0.05905534,-0.4128689,-0.36421975,0.060101446,-3.07937,0.62029624,0.00025962005,-0.14815561,0.031191805,-0.0011253557,0.0068119015,-0.01223565,0.02724924,0.47652453,-1.349871,1.8640679,-2.0834162,-1.571154,2.4485624,-0.17922604,0.20895894,-0.2665662,0.07152641,-0.0008786045,-0.20635271,-0.30645782,-0.076614454,-9.059659,0.91198283,47.66987,-0.99283695,-2.0103369,-3.432858,-0.30902302,-0.08853013,-0.1286079,24.5,24.9375,24.25,25.8125,25.9375,26.1875
0.31805432,-0.84549475,0.043695677,-0.93458897,-0.0045704124,0.06205146,-0.064151175,-0.41315022,-0.36415124,0.06007843,-3.0793328,0.620273,0.00011589317,-0.14847326,0.030487055,-0.0016273574,0.0064759357,-0.011935502,0.019287646,0.47615314,-1.3494265,1.8635415,-2.0832374,-1.5711297,2.4481814,-0.17827249,0.21094814,-0.267616,0.070174046,-0.0007465548,-0.19743717,-0.4405331,-0.19153613,-9.021352,0.8985519,47.68062,-1.1812979,-1.9986203,-3.453085,-0.31705755,-0.07800921,-0.24009253,24.5,24.9375,24.25,25.8125,25.9375,26.1875
0.32005355,-0.47913912,-0.21324793,-0.90926385,0.0104666,0.09086613,-0.069852665,-0.41345078,-0.36408937,0.0600723,-3.079318,0.620176,0.00010877785,-0.14927335,0.028490515,-0.0016190935,0.005487424,-0.010041292,0.015082893,0.475806,-1.3489939,1.8630017,-2.0831058,-1.571154,2.4477758,-0.1755018,0.21403721,-0.2710561,0.068386465,-0.0007552633,-0.19046016,-0.53630114,-0.15322891,-9.136273,0.9030289,47.650166,-1.4256614,-2.0272732,-3.4658887,-0.30715927,-0.09014105,-0.32665798,24.5,24.9375,24.25,25.8125,25.9375,26.1875
0.32205394,-1.7340263,-0.3236568,-1.2581432,0.008670393,0.089065686,-0.062340766,-0.41370997,-0.36405095,0.06004906,-3.079324,0.6201602,-3.93439e-05,-0.15086018,0.027043963,-0.0004637026,0.0035741332,-0.0053298594,0.010311022,0.47548243,-1.3485622,1.8624991,-2.0829632,-1.5710939,2.4474418,-0.17404352,0.21463126,-0.27383226,0.065519266,-0.0012394026,-0.18422817,-0.47884035,-0.05746084,-9.136273,0.9030289,47.64389,-1.5030417,-2.0324614,-3.4562285,-0.29732877,-0.09432525,-0.41812336,24.5,24.9375,24.25,25.8125,25.9375,26.1875
0.3240551,-1.4702109,-0.5630056,-1.3557161,-0.000319359,0.10098431,-0.06606296,-0.4140339,-0.3639693,0.060072966,-3.0792916,0.62013525,7.174722e-06,-0.15262125,0.027825246,-0.0015212842,0.0039938986,-0.005264591,0.0071590757,0.47509736,-1.3481656,1.861924,-2.082785,-1.5711421,2.4470456,-0.17645298,0.21793973,-0.27508506,0.063590355,-0.0016520398,-0.18348412,-0.38307226,0.038307227,-9.289503,0.9410752,47.647476,-1.4176376,-2.187818,-3.4514284,-0.2704329,-0.095658205,-0.48614842,24.5,24.9375,24.25,25.8125,25.9375,26.1875
0.3260535,-1.7984895,-1.3612313,-1.3781679,-0.026996428,0.08905812,-0.06317941,-0.41434592,-0.36392087,0.060060464,-3.079293,0.6200924,-9.209277e-06,-0.15460524,0.028546294,-0.0016855696,0.0036245827,-0.004761361,0.01248611,0.47474876,-1.3476975,1.8613604,-2.0826771,-1.5711421,2.4466703,-0.17925645,0.22009145,-0.27728665,0.063020244,-0.0015668538,-0.19161388,-0.2681506,0.076614454,-9.308656,0.98135734,47.67614,-1.4699047,-2.1817477,-3.4883308,-0.28444982,-0.09156089,-0.4952839,24.5,24.9375,24.25,25.8125,25.9375,26.1875
0.32805362,-0.90818185,-1.80684,-1.5476823,-0.05440001,0.09895344,-0.08037449,-0.4146591,-0.3638772,0.06004905,-3.0793195,0.6199371,-5.2589017e-05,-0.15883791,0.027869804,-0.00012088971,0.00013394984,0.00206876,0.022295475,0.4743998,-1.3472167,1.8607739,-2.082547,-1.5711297,2.4462214,-0.18158276,0.22189176,-0.28205118,0.05831203,-0.0016140867,-0.20374763,-0.34476504,0.24899697,-9.404425,0.8985519,47.687782,-1.325736,-2.233718,-3.4656882,-0.24143997,-0.111815326,-0.39433938,24.5,24.9375,24.25,25.8125,25.9375,26.1875
0.33005378,-1.5526679,-2.3723803,-2.0613267,-0.06214692,0.07455715,-0.063705266,-0.4149751,-0.363796,0.060052868,-3.0792842,0.61990356,-4.498437e-05,-0.16037351,0.027386254,0.0004893921,-0.0011571588,0.0047945073,0.033646442,0.47401595,-1.3467972,1.8602213,-2.082392,-1.5711659,2.4458213,-0.18187064,0.22279459,-0.28421563,0.056547258,-0.0017263497,-0.21538553,-0.3256114,0.4405331,-9.442732,0.97240865,47.68599,-1.3823246,-2.1671286,-3.3495264,-0.20129067,-0.0845001,-0.26327854,24.5,24.9375,24.25,25.8125,25.9375,26.1875
0.33205417,-1.9110422,-3.0169895,-2.3321304,-0.060373668,0.0760124,-0.052558746,-0.41529617,-0.36371973,0.060038537,-3.079283,0.6198091,-2.5559091e-05,-0.15994239,0.028871214,-0.0012189212,0.0015236521,0.001354175,0.036080547,0.47362912,-1.346353,1.8596958,-2.082308,-1.5711902,2.445376,-0.18331392,0.22468306,-0.2829894,0.05771285,-0.002537532,-0.2192618,-0.3256114,0.49799395,-9.710882,0.8537928,47.690468,-1.3016236,-2.112381,-3.523366,-0.20486468,-0.08749558,-0.16443232,24.5,24.9375,24.25,25.8125,25.9375,26.1875
0.33405343,-1.748079,-3.1705897,-2.3323114,-0.06603124,0.087431066,-0.04649187,-0.41557714,-0.3636777,0.060017973,-3.0792997,0.61969936,-0.0001900569,-0.16116765,0.030181581,-0.0017707621,0.0018566293,0.0021566572,0.027406076,0.47328252,-1.3458853,1.8591341,-2.0821292,-1.5711302,2.444959,-0.18597582,0.2253632,-0.28220794,0.055706084,-0.0032185912,-0.21324803,-0.5746084,0.51714754,-9.768343,0.8985519,47.675243,-1.2272692,-2.1169994,-3.6489987,-0.18721852,-0.06401066,-0.17916138,24.5,24.9375,24.25,25.8125,25.9375,26.1875
0.3360539,-2.3012476,-3.3182027,-1.9162098,-0.08089028,0.09250025,-0.0577573,-0.41591975,-0.3636236,0.06001017,-3.0793157,0.6195523,-0.00012697424,-0.16301961,0.03083158,-0.0012243317,0.0007536628,0.005120718,0.018516403,0.47292206,-1.3453934,1.8585356,-2.0820458,-1.5711669,2.444505,-0.18824448,0.2251948,-0.2828063,0.053327158,-0.0035856378,-0.2066264,-0.5363012,0.61291564,-9.634268,0.9545008,47.642998,-1.2326409,-2.0930405,-3.776542,-0.14742991,-0.054285474,-0.26629138,24.5,24.9375,24.25,25.8125,25.9375,26.1875
0.33805346,-1.4745753,-2.5682073,-1.9796501,-0.08776153,0.114509344,-0.059311718,-0.41625586,-0.36353543,0.060004048,-3.079305,0.6195729,-0.00014250554,-0.16540577,0.031538807,-2.8632181e-05,0.00026585933,0.0069000623,0.011540391,0.47248894,-1.3449498,1.8579835,-2.0819256,-1.5711669,2.4440863,-0.191046,0.2258391,-0.28672066,0.054792754,-0.0039650444,-0.20245002,-0.4213795,0.47884035,-9.672575,0.900793,47.64389,-1.1337283,-2.029509,-3.8310728,-0.12845968,-0.05549959,-0.3558445,24.5,24.9375,24.25,25.8125,25.9375,26.1875
0.3400539,-1.1899575,-1.9896939,-2.2174387,-0.053683333,0.09342726,-0.05989555,-0.41658607,-0.3634674,0.060007576,-3.0792956,0.6195142,-9.465976e-05,-0.16674124,0.03203857,-0.0006225832,0.0002767019,0.0060961023,0.007405196,0.47211638,-1.3445051,1.8574079,-2.081806,-1.5712031,2.4436786,-0.19306089,0.22850618,-0.2887168,0.054833937,-0.0036080205,-0.20032959,-0.24899697,0.4405331,-9.691729,0.9321212,47.65912,-1.0743976,-2.0936508,-3.6929395,-0.123707406,-0.06453688,-0.4164406,24.5,24.9375,24.25,25.8125,25.9375,26.1875
0.3420541,-0.82127887,-1.2023875,-1.9046363,-0.042510446,0.08078818,-0.07384572,-0.41692498,-0.36342436,0.059993763,-3.0793147,0.6194953,-6.946646e-05,-0.16829228,0.031668816,0.00016807248,-0.0013102889,0.00815663,0.01132423,0.47175604,-1.3440012,1.8568105,-2.0817344,-1.5712026,2.4433043,-0.19388038,0.22921512,-0.2913276,0.054174583,-0.003133678,-0.20506835,-0.36391866,0.28730422,-9.500193,0.8873621,47.655537,-0.93476486,-2.2432423,-3.695149,-0.09887652,-0.07453911,-0.398571,24.5,24.9375,24.25,25.8125,25.9375,26.1875
0.34405434,-1.1266416,-0.77127147,-2.0551317,-0.025366114,0.06527437,-0.074051835,-0.41726828,-0.36337772,0.059991993,-3.0793748,0.6194042,-5.1789968e-05,-0.16939315,0.031408466,-0.0003971206,-0.0011841342,0.007484756,0.021351842,0.47137222,-1.3435206,1.8562111,-2.08165,-1.5711788,2.4428563,-0.19432208,0.2325498,-0.29426065,0.054428052,-0.0029405765,-0.21553689,-0.47884035,0.2681506,-9.461885,0.92093146,47.65912,-0.9457388,-2.1916184,-3.6986718,-0.05696875,-0.07532117,-0.30762947,24.5,24.9375,24.25,25.8125,25.9375,26.1875
0.346054,-0.7086348,-0.80030084,-2.3025615,0.00035468093,0.07535021,-0.070173204,-0.41762888,-0.3633147,0.060004923,-3.079406,0.6193092,2.8898263e-05,-0.17108041,0.031138543,-0.0002494235,-0.0015399329,0.0077807945,0.030410215,0.4709757,-1.343052,1.8555874,-2.0815427,-1.5712026,2.4423969,-0.19523317,0.23540463,-0.29834646,0.05522302,-0.0027549632,-0.2255053,-0.2681506,0.19153613,-9.5385,0.8806493,47.667187,-0.9131787,-2.3236852,-3.5072122,-0.02853622,-0.06617551,-0.18396723,24.5,24.9375,24.25,25.8125,25.9375,26.1875
0.34805563,-1.1170056,-0.29329848,-1.7466191,-0.02286394,0.08737063,-0.0641281,-0.41796595,-0.36323875,0.059986334,-3.0794196,0.6191745,-3.173303e-05,-0.17163855,0.030163808,0.00021412366,-0.0015322926,0.00802103,0.0346672,0.4705563,-1.3425598,1.8550004,-2.0814097,-1.5711902,2.441892,-0.19383302,0.2371998,-0.30207786,0.056949984,-0.0028813316,-0.22836062,-0.36391866,0.095768064,-9.634268,0.83589023,47.711964,-1.1755643,-2.4548738,-3.428324,-0.028148882,-0.07724397,-0.122901425,24.5,24.9375,24.25,25.8125,25.9375,26.1875
0.35005388,-1.633409,-0.83910197,-1.8133029,-0.01978842,0.093853466,-0.065556176,-0.4183316,-0.36318702,0.060006246,-3.0794678,0.61916745,5.616273e-05,-0.17154063,0.029693574,0.0010192501,-0.0015055405,0.008004192,0.030336417,0.47016066,-1.3420925,1.8543648,-2.0813138,-1.5711902,2.4414861,-0.19278288,0.23688564,-0.30416656,0.059381533,-0.0028753004,-0.22297959,-0.36391866,0.11492168,-9.461885,0.8717007,47.698532,-1.2842946,-2.3252125,-3.3587718,-0.008939727,-0.08335158,-0.13666353,24.5,24.9375,24.25,25.8125,25.9375,26.1875
0.35205334,-1.0221239,-0.27661234,-1.8998911,-0.01050332,0.095082775,-0.062192675,-0.4186561,-0.36312965,0.060007807,-3.0794823,0.6189825,0.00010100606,-0.17146717,0.0297673,0.00057862763,-0.00056274724,0.0054610376,0.02094025,0.46981272,-1.3416368,1.8537787,-2.0811923,-1.5712265,2.4410212,-0.19286926,0.23877998,-0.30621484,0.062224235,-0.0025552586,-0.21366973,-0.24899697,-0.095768064,-9.500193,0.99031126,47.6636,-1.2989463,-2.2898078,-3.4024096,-0.0316736,-0.07466936,-0.25311795,24.5,24.9375,24.25,25.8125,25.9375,26.1875
0.35405374,-0.6755781,-0.2183993,-1.8243191,0.0031669599,0.0740373,-0.060089927,-0.41900882,-0.363066,0.05998137,-3.0794559,0.61900645,2.55903e-05,-0.16984929,0.031303655,-0.0023689677,0.0031714954,-0.0019329962,0.010950476,0.46940172,-1.3410836,1.8531321,-2.0810483,-1.5712146,2.4406288,-0.19387048,0.2422743,-0.30464524,0.0654496,-0.002535724,-0.2046814,-0.24899697,-0.095768064,-9.519346,0.95002913,47.640312,-1.2858744,-2.4024963,-3.5308337,-0.038794626,-0.08508788,-0.3694789,24.5,24.9375,24.25,25.8125,25.9375,26.1875
0.3560544,-0.37912154,-0.80803,-1.910239,0.002957186,0.040009193,-0.058738537,-0.41936016,-0.36301732,0.05999445,-3.0794935,0.61895454,0.00010571918,-0.16939941,0.03272191,-0.0032986135,0.005213708,-0.005829494,0.0034122383,0.46903157,-1.3406157,1.8525103,-2.080951,-1.5712265,2.4402218,-0.1956325,0.24324031,-0.3045788,0.06881578,-0.0025760843,-0.19890542,-0.095768064,-0.17238252,-9.404425,0.9254084,47.658226,-1.2076132,-2.5511541,-3.626378,-0.06103784,-0.0875961,-0.4752879,24.5,24.9375,24.25,25.8125,25.9375,26.1875
0.35805383,0.33822092,-0.4915969,-1.6739717,-0.01080204,0.032178227,-0.061045703,-0.41969776,-0.3629619,0.06000774,-3.079532,0.61892164,0.00013481207,-0.17050974,0.032773472,-0.002949235,0.006019328,-0.0068481113,0.0045114984,0.4686478,-1.3401716,1.8519114,-2.0808303,-1.5712146,2.439813,-0.19632162,0.24548179,-0.30897412,0.072244264,-0.0028329296,-0.20069198,-0.038307227,-0.21068975,-9.404425,0.95226496,47.68599,-1.33809,-2.4018636,-3.6583142,-0.06677319,-0.0842195,-0.53492635,24.5,24.9375,24.25,25.8125,25.9375,26.1875
0.3600543,0.3529331,-0.06328947,-1.4064146,-0.0024281987,0.024397135,-0.06375927,-0.42007238,-0.36288548,0.060011227,-3.079499,0.618947,0.00016783531,-0.17137055,0.033622485,-0.0013887748,0.0063154977,-0.0061202804,0.014287125,0.46822718,-1.3396562,1.8512396,-2.0806735,-1.5712503,2.4394126,-0.19789469,0.24375229,-0.3113101,0.07578294,-0.0034289306,-0.21203953,-0.038307227,-0.24899697,-9.251195,0.9231726,47.68062,-1.2778374,-2.329781,-3.5604768,-0.10427885,-0.06227623,-0.4692394,24.5,24.9375,24.25,25.8125,25.9375,26.1875
0.36205336,0.472392,0.65120316,-1.7850113,0.023643203,0.024723617,-0.07331135,-0.4204423,-0.36282948,0.060024407,-3.0795739,0.61887753,0.00016396382,-0.172749,0.033886272,0.0002412033,0.006000614,-0.005025576,0.025792822,0.4677948,-1.3391651,1.8505806,-2.080541,-1.5712031,2.4389277,-0.19916049,0.24323858,-0.31523022,0.07910213,-0.003640984,-0.22480993,0.076614454,-0.15322891,-9.136273,0.9321212,47.64927,-1.355954,-2.211292,-3.4816847,-0.1485252,-0.061045304,-0.33408284,24.5,24.9375,24.25,25.8125,25.9375,26.1875
0.3640554,-0.054471664,0.61958843,-1.7014773,0.036186278,0.010746963,-0.061622288,-0.42075068,-0.36274788,0.059977278,-3.079493,0.618762,4.7359306e-05,-0.17463002,0.034813486,0.00084191904,0.0059524,-0.0057852124,0.031008352,0.4674218,-1.338637,1.8500046,-2.0803716,-1.5712384,2.438493,-0.2023189,0.24473333,-0.31924748,0.0822671,-0.0032896707,-0.23318289,0.019153614,-0.019153614,-9.174581,0.92764956,47.660015,-1.2057129,-2.2362309,-3.2893229,-0.18980867,-0.076067775,-0.23599839,24.5,24.9375,24.25,25.8125,25.9375,26.1875
0.36605427,0.32781017,0.5312052,-1.5078579,0.009211944,0.039111327,-0.07441298,-0.42108646,-0.3626475,0.059972674,-3.079444,0.6186792,-2.210574e-05,-0.17507334,0.036718704,0.0005884294,0.006371056,-0.008184745,0.02549144,0.4669885,-1.3381697,1.8493956,-2.0801556,-1.5712627,2.4380145,-0.2060694,0.24439181,-0.3188756,0.08455947,-0.0025970906,-0.23141797,-0.076614454,0.076614454,-9.289502,0.90750587,47.705692,-1.1497439,-2.071539,-3.314312,-0.2224757,-0.09690638,-0.21011613,24.5,24.9375,24.25,25.8125,25.9375,26.1875
0.36805418,-0.97120094,-0.94789106,-1.833004,0.0063375034,0.04587312,-0.044617757,-0.42141256,-0.36259532,0.059966493,-3.079443,0.6185285,-8.6444845e-05,-0.17538083,0.036415413,-0.00046351794,0.0071271444,-0.010667056,0.018475393,0.4666287,-1.3376648,1.8487495,-2.0799634,-1.5712627,2.437561,-0.20590763,0.24810214,-0.3214607,0.08599263,-0.0021702547,-0.22423972,-0.24899697,0.21068975,-9.270349,0.8224646,47.691364,-1.0579566,-2.1096158,-3.379046,-0.28453305,-0.09767276,-0.31278753,24.5,24.9375,24.25,25.8125,25.9375,26.1875
0.37005433,-1.4305525,-1.4817601,-2.1038585,-0.021959905,0.06864348,-0.05552647,-0.4217747,-0.36253306,0.05997733,-3.0794656,0.61848015,-0.00012736174,-0.17626446,0.03797338,-0.0008337899,0.00782036,-0.013076728,0.009728181,0.4662075,-1.3371608,1.8480657,-2.0797713,-1.5712379,2.437107,-0.20929797,0.24925394,-0.32272324,0.08857332,-0.0017088056,-0.21888342,-0.21068975,0.19153613,-9.481039,0.83365434,47.66987,-0.8777151,-2.2249796,-3.4874997,-0.30496678,-0.072772495,-0.37161267,24.5,24.9375,24.25,25.8125,25.9375,26.1875
0.37205365,-1.9970309,-2.4059212,-2.0084405,-0.06444612,0.08982792,-0.060541734,-0.4221172,-0.3624291,0.059977144,-3.0793893,0.6185427,-0.00019343801,-0.17753436,0.037944812,-0.00034991815,0.0062214714,-0.009882623,0.007164057,0.46576378,-1.3366934,1.8474439,-2.0795453,-1.5712622,2.4367123,-0.2100975,0.24893294,-0.32281736,0.085411824,-0.0017438973,-0.21711889,-0.15322891,0.24899697,-9.557653,0.9164598,47.696735,-0.92657655,-2.2016726,-3.4882889,-0.3373139,-0.08818135,-0.41983032,24.5,24.9375,24.25,25.8125,25.9375,26.1875
0.3740541,-1.8908765,-2.338434,-1.739413,-0.09016433,0.11506384,-0.06297894,-0.42247516,-0.36235535,0.059968032,-3.0793867,0.6184804,-0.00022519338,-0.17848088,0.03747478,-0.0010113108,0.005748015,-0.007829637,0.014926967,0.4653431,-1.336177,1.8467983,-2.0793912,-1.5712627,2.4362533,-0.20959906,0.25101924,-0.32312518,0.081584364,-0.0022660708,-0.22438207,-0.28730422,0.2873042,-9.557653,0.92093146,47.694946,-0.87356997,-2.255194,-3.68139,-0.3031596,-0.08156091,-0.4118554,24.5,24.9375,24.25,25.8125,25.9375,26.1875
