Tylouw/Master_Thesis_Code/test_recorded_data/trial_zebin_dev015/insertion_1_2026-01-26_10-20-01.csv
num_insertion,tcp_force_x[N],tcp_force_y[N],tcp_force_z[N],tcp_force_rx[Nm?],tcp_force_ry[Nm?],tcp_force_rz[Nm?],tcp_pose_x[m],tcp_pose_y[m],tcp_pose_z[m],tcp_pose_rx[rot_vec_x],tcp_pose_ry[rot_vec_y],tcp_pose_rz[rot_vec_z],tcp_velo_x[m/s],tcp_velo_y[m/s],tcp_velo_z[m/s],tcp_velo_rx[rot_vec_x/s],tcp_velo_ry[rot_vec_y/s],tcp_velo_rz[rot_vec_z/s],q1[rad],q2[rad],q3[rad],q4[rad],q5[rad],q6[rad],qd1[rad/s],qd2[rad/s],qd3[rad/s],qd4[rad/s],qd5[rad/s],qd6[rad/s],tool_acc_x,tool_acc_y,tool_acc_z,current_of_whole_robot[A],voltage_of_whole_robot[V],current_J1[A],current_J2[A],current_J3[A],current_J4[A],current_J5[A],current_J6[A],temp_J1[C],temp_J2[C],temp_J3[C],temp_J4[C],temp_J5[C],temp_J6[C]
1.0,1.4269465200460116,1.4010688170925634,0.3562618476574944,0.01968839049659411,-0.040016217933428515,-0.05419556259501626,-0.5387340873473393,-0.32440917873157327,0.06001009554717826,-3.0786459938272985,0.624798447839918,5.339393154053048e-05,0.0008044038675381115,-0.001293930845995674,0.001063699068595347,-0.0013767591582802131,0.004591762633241741,0.0004980957644956422,0.3265499174594879,-1.1521786612323304,1.6627972761737269,-2.0798641643919886,-1.571345631276266,2.301581621170044,0.0025005796924233437,-0.003654989879578352,0.0037846302147954702,-0.00491945818066597,-0.0001721122971503064,0.002000570995733142,0.5554547905921936,-0.325611412525177,-9.21288776397705,0.7351769208908081,47.68867492675781,-0.2109520435333252,-4.15670108795166,-2.6199567317962646,-0.41831639409065247,-0.02198481187224388,-0.16916503012180328,24.3125,25.125,24.125,26.4375,27.0,27.4375
1.0,2.1156922861817664,2.0071901850199483,0.18580689844969128,0.04918405065901901,-0.056592154955092816,-0.06893960388539688,-0.5387157460044449,-0.32442210161896673,0.06002135674115086,-3.0786684619059352,0.6248035849076297,7.85176771248152e-05,-0.0010756168588802058,-0.0014394989393148253,0.0018687802480656804,-0.002003242586444215,0.0064017462608281376,0.0003605226159153442,0.32657361030578613,-1.15219001591716,1.662772003804342,-2.0798636875548304,-1.571369473134176,2.3015694618225098,0.0017340994672849774,-0.0019916780292987823,-0.0005123160663060844,-0.004201198928058147,-0.0001675349922152236,0.001371771446429193,0.325611412525177,-0.1149216815829277,-9.174580574035645,0.8336543440818787,47.6895751953125,-0.14931908249855042,-4.33535099029541,-2.3948848247528076,-0.41206395626068115,-0.032786767929792404,-0.17522260546684265,24.3125,25.125,24.125,26.4375,27.0,27.4375
1.0,0.9334200700741526,1.1451223582134564,0.17089395940663682,0.022063777260058946,-0.045176960427302126,-0.06386515900028114,-0.5387104063134361,-0.32441215796178186,0.06002129845772197,-3.0786694793084983,0.624842091241235,2.7664647649268658e-05,-0.0011236900968348246,-0.0011829830249735335,0.0015580865244338876,-0.0015456286486293135,0.005042041117038542,0.0005744807075374709,0.3265495002269745,-1.1522017580321808,1.6627829710589808,-2.079839368859762,-1.571345631276266,2.3015692234039307,0.0013114160392433405,-0.0011058025993406773,-0.0013548940187320113,-0.002809994388371706,-0.0001631950435694307,0.0007357429713010788,0.019153613597154617,0.07661445438861847,-9.193734169006348,0.7418897151947021,47.66718673706055,-0.21155691146850586,-4.367158889770508,-2.2846152782440186,-0.4173584580421448,-0.028093863278627396,-0.16050061583518982,24.3125,25.125,24.125,26.4375,27.0,27.4375
1.0,-0.9097377178920197,-0.44357247370681835,0.20488475217889088,-0.03781488560513125,0.0034776695284929916,-0.05049642730057262,-0.538696676707079,-0.32441922522684213,0.06001853750973879,-3.0786545085936523,0.6248006975841474,3.2397150397810013e-06,-0.00022233530304458253,-0.0007801327275552071,0.0005625593493733854,-0.000563605049548532,0.0021818496448625397,0.0006644510716569512,0.3265734016895294,-1.1522015494159241,1.662783447896139,-2.0798150501646937,-1.571357552205221,2.3015692234039307,0.001167669310234487,-0.0005042364355176687,-0.00023120784317143261,-0.0015111822867766023,-0.00017023776308633387,0.0005027722218073905,-0.19153612852096558,0.2106897532939911,-9.21288776397705,0.7709873914718628,47.68867492675781,-0.18831400573253632,-4.017179489135742,-2.068340539932251,-0.47242408990859985,-0.024342920631170273,-0.17064711451530457,24.3125,25.125,24.125,26.4375,27.0,27.4375
1.0,-2.064411321996925,-1.9692005147794156,0.20657679128090647,-0.0756649555625848,0.06795498967578181,-0.04794798228023861,-0.5386955531360441,-0.32440723350349565,0.06001886473890633,-3.0786195237112266,0.6248510990908703,-2.4820986354061883e-05,0.003077202770776583,0.0004377630776669833,-0.0025491733662459768,0.0018869604166320863,-0.004981075141047666,0.0006109348211951063,0.3265613317489624,-1.1522015196136017,1.662774387990133,-2.079778333703512,-1.571369473134176,2.301593065261841,0.001028411672450602,-0.00039666282827965915,0.006496342830359936,-0.0007757901330478489,-0.0001765665947459638,0.0004180360701866448,-0.26815059781074524,0.3064578175544739,-9.308656692504883,0.7374180555343628,47.67524337768555,-0.21123725175857544,-3.9925918579101562,-2.308187961578369,-0.5294432044029236,-0.026767879724502563,-0.17916536331176758,24.3125,25.125,24.125,26.4375,27.0,27.4375
1.0,-2.583437049413519,-2.315110775184283,0.6481375857273095,-0.1097906255504178,0.10838684666728837,-0.056775713043017165,-0.5386844698659236,-0.32440340676474855,0.060018554860102574,-3.078615720494508,0.6248695370713503,-2.481872225361728e-05,0.0038854441093663992,0.0008056381354410857,-0.0035467739212212673,0.002579108342916067,-0.007023265528970654,0.0005239058479174674,0.3265612721443176,-1.1522253316691895,1.6628111044513147,-2.0797912083067835,-1.571369473134176,2.301604986190796,0.0008845388074405491,-2.3350112314801663e-05,0.008222393691539764,-0.0007188764284364879,-0.0001730096118990332,0.0003614422457758337,-0.363918662071228,0.3447650372982025,-9.346963882446289,0.7172743082046509,47.638519287109375,-0.2042076587677002,-3.973970413208008,-2.5286142826080322,-0.5601341724395752,-0.01789085753262043,-0.19743551313877106,24.3125,25.125,24.125,26.4375,27.0,27.4375
1.0,-1.822907121155128,-1.537484859207702,0.8821600815567048,-0.07957517917568045,0.09201944449032422,-0.053636065876136486,-0.538673542929112,-0.32443437039702155,0.06001012994718022,-3.0786677841567744,0.6248030231605481,-3.467730708385066e-05,0.0018814625439223635,0.0001208356022157309,-0.002054257383134328,0.0008903939697685056,-0.00208743303159162,0.0005653812605528788,0.32659727334976196,-1.1522132915309449,1.6628215948687952,-2.079827447930807,-1.5713337103473108,2.3015928268432617,0.0008844641852192581,-3.132715846732026e-07,0.005345061421394348,-0.003081320784986019,-0.0001689937198534608,0.00031864744960330427,-0.3064578175544739,0.3064578175544739,-9.21288776397705,0.8135106563568115,47.67255783081055,-0.17366144061088562,-3.8838038444519043,-2.3190484046936035,-0.590278685092926,-0.021594570949673653,-0.19289374351501465,24.3125,25.125,24.125,26.4375,27.0,27.4375
1.0,-0.40130714346040597,0.7241574915352917,0.5787839404397848,-0.017687365712220675,0.031709542792836554,-0.058200176173320135,-0.5386681187979087,-0.3244362509321452,0.060005568192987885,-3.078677551216685,0.6247860231290238,-5.514596110144712e-05,-0.001073032038290647,-0.0007359914228334031,-0.0005089892157366754,-0.001999322276173836,0.0063654503865035045,0.0003611468936105726,0.3265972137451172,-1.1522132915309449,1.6628325621234339,-2.079830308953756,-1.5713217894183558,2.3015809059143066,0.0006495551788248122,-4.202938441721926e-09,0.003430079435929656,-0.010099840350449085,-0.00016512084403075278,0.0002849522861652076,-0.40222588181495667,0.2106897532939911,-9.155426979064941,0.7329410910606384,47.64747619628906,-0.2258477807044983,-3.7706704139709473,-2.0723867416381836,-0.5198237895965576,-0.02211425080895424,-0.18085360527038574,24.3125,25.125,24.125,26.4375,27.0,27.4375
1.0,0.7997722801513674,1.703924933441903,0.706444443607002,0.02648464841742925,5.2332744796415934e-05,-0.06459234442833806,-0.5387106325603377,-0.3244509211331198,0.06003101987818038,-3.0787266799103676,0.6247770074396537,0.00014354257012960705,-0.0022776848274010985,-0.0011009776422667712,-7.620195104330824e-06,-0.0032866084878628047,0.010124107995321884,0.0007113557928217056,0.3266090750694275,-1.1522132915309449,1.6627967993365687,-2.0799271068968714,-1.571345631276266,2.3015809059143066,0.0005766674294136465,-5.638778333150185e-11,0.003123024944216013,-0.013765830546617508,-0.00016141882224474102,-0.00013967699487693608,-0.2298433631658554,0.15322890877723694,-9.078812599182129,0.7866488099098206,47.68240737915039,-0.2081911414861679,-3.6980719566345215,-2.012436628341675,-0.5073769092559814,-0.03737962618470192,-0.19535315036773682,24.3125,25.125,24.125,26.4375,27.0,27.4375
1.0,0.7853862754060342,1.2641567913453335,0.6421798309036341,0.028764801594221977,-0.013506262051255342,-0.057279994949245086,-0.5387122877594239,-0.3244364094589084,0.06002002517709337,-3.0786962491135164,0.6247516414995399,0.00019824468745259884,-0.002195534915605022,-0.0010560051950821337,-0.00036999590358650247,-0.003432154671520924,0.010538868638669678,0.0007227333716618298,0.3266090750694275,-1.1522132915309449,1.6628325621234339,-2.07997526744985,-1.5713933149920862,2.3015689849853516,0.0005487593589350581,-7.565139920756581e-13,0.0043103559873998165,-0.015392721630632877,-0.00015787931624799967,-0.00017950462643057108,-0.1149216815829277,0.09576806426048279,-8.944737434387207,0.8067978620529175,47.68419647216797,-0.17312046885490417,-3.663745403289795,-1.9989323616027832,-0.4963667392730713,-0.026843858882784843,-0.19786307215690613,24.3125,25.125,24.125,26.4375,27.0,27.4375
1.0,0.5176168382262063,1.0209851192185562,0.9666912534133205,-0.001425692233343315,0.001562208035401324,-0.06066070932890833,-0.5387272148831995,-0.3244297410993839,0.06001527095335851,-3.078690550110151,0.6247697341166145,0.00015556897384055946,-0.0012835821739795807,-0.0007663749217213161,-0.0011419286146810016,-0.002745299511576037,0.00851652149722571,0.0007415309847223128,0.32658514380455017,-1.15217740953479,1.6627853552447718,-2.0799395046629847,-1.5713813940631312,2.3015570640563965,0.0005802676896564662,-1.014960108959486e-14,0.005943887401372194,-0.014890455640852451,-0.0001544916012790054,-0.00016642919217702,-0.15322890877723694,-0.038307227194309235,-8.96389102935791,0.6971306204795837,47.64657974243164,-0.19257083535194397,-3.621401309967041,-2.045487403869629,-0.5298355221748352,-0.03187286853790283,-0.19520607590675354,24.3125,25.125,24.125,26.4375,27.0,27.4375
1.0,-0.10954962473053698,0.29226608823952027,0.8018366745411438,-0.010754564640631665,0.01670028350528408,-0.05563817396069477,-0.5386901439756155,-0.32444017555906185,0.05998521775562396,-3.0786900713286838,0.6247504409572587,6.977916499926417e-05,-0.0013726280868357993,-0.0007673198218510074,-0.002004552648208276,-0.0023288418276845345,0.007272791128358524,0.0006800381321286127,0.3266090750694275,-1.1521767538836976,1.6628578344928187,-2.079963346520895,-1.571357552205221,2.3015689849853516,0.0005323936347849667,0.0018157771555706859,0.005351328756660223,-0.014802083373069763,-0.00015124618948902935,-0.00015254321624524891,0.1149216815829277,-0.2106897532939911,-8.983044624328613,0.7911257743835449,47.660911560058594,-0.2489805817604065,-3.6926047801971436,-1.870314121246338,-0.5710015892982483,-0.04053863137960434,-0.2103608250617981,24.3125,25.125,24.125,26.4375,27.0,27.4375
1.0,0.9396084737923138,1.475170559222765,0.6926483447860351,0.022645205853205404,-0.006963433119370586,-0.06559757600974354,-0.5387092708196198,-0.3244309170297449,0.05999221167234248,-3.078726958179375,0.6247964724072358,0.00011735759597622244,-0.002261848223209912,-0.001023066072668208,-0.0022144434901993975,-0.0027159323577196724,0.008377853287678526,0.0006450340731380517,0.3265731632709503,-1.1521881383708497,1.6628688017474573,-2.0800119839110316,-1.5713337103473108,2.3015570640563965,0.00045536691322922707,0.003354240208864212,0.003991914447396994,-0.016152003780007362,-0.00014514777285512537,-0.00019501727365422994,0.2106897532939911,-0.24899697303771973,-8.944737434387207,0.7754590511322021,47.66628646850586,-0.21049442887306213,-3.5690298080444336,-1.7636067867279053,-0.5551387071609497,-0.03549155965447426,-0.1995256394147873,24.3125,25.125,24.125,26.4375,27.0,27.4375
1.0,1.2918401356699136,1.9019754674278226,0.5971742102875098,0.044135677770933995,-0.03151646051015594,-0.06014103197322418,-0.5387276055010893,-0.3244255895339532,0.05998645173073422,-3.078725381974262,0.6248727882926963,0.000190979229303263,-0.0018380185981388458,-0.0008594209550444074,-0.002691048579691111,-0.002657866238511524,0.008200603874315917,0.0006538708055305786,0.3265611231327057,-1.1521763366511841,1.6628816763507288,-2.0800839863219203,-1.571345631276266,2.3015928268432617,0.00042471260530874133,0.0030544535256922245,0.005781965795904398,-0.017455779016017914,-0.00014227959036361426,-0.00023491145111620426,0.26815059781074524,-0.2106897532939911,-8.925583839416504,0.7642692923545837,47.638519287109375,-0.19650870561599731,-3.5112926959991455,-1.7853047847747803,-0.5326051712036133,-0.02652783878147602,-0.18502461910247803,24.3125,25.125,24.125,26.4375,27.0,27.4375
1.0,1.6692651618947245,1.7341751810091668,0.5676340175497221,0.0398669185347649,-0.04190861067097913,-0.06378221726686677,-0.5387012978088931,-0.3244359527253069,0.05995946426374085,-3.078723856522297,0.6247767583421603,9.837417810618184e-05,-0.0006086373251456378,-0.0004236767817209948,-0.004040953813326727,-0.001655189532846121,0.0052500822325959595,0.0006475428930020014,0.3265850841999054,-1.1521522563746949,1.6629064718829554,-2.080071588555807,-1.5713337103473108,2.3015570640563965,0.0003978840832132846,0.003482114290818572,0.008175915107131004,-0.017161153256893158,-0.00013952220615465194,-0.00025498023023828864,0.28730422258377075,-0.19153612852096558,-9.040505409240723,0.6613254547119141,47.6680793762207,-0.2314840853214264,-3.424470901489258,-1.8251092433929443,-0.5313218832015991,-0.0253986157476902,-0.21706214547157288,24.3125,25.125,24.125,26.4375,27.0,27.4375
1.0,1.2098058043408377,0.9779607533365597,0.33281806059243263,0.018810342860786543,-0.04400293052611797,-0.052481110397135676,-0.5387089068996495,-0.32440789749942756,0.05994011002769459,-3.0786788961399476,0.6247868880259284,0.00013369219463272653,0.00019640844703763057,-0.00014229382923897798,-0.0054918463276794425,-0.0005518789688898414,0.0019267806835415809,0.0006355497875142149,0.3265610933303833,-1.1521394115737458,1.662943188344137,-2.0801192722716273,-1.5713813940631312,2.3015451431274414,0.0003742426633834839,0.0051516201347112656,0.008885197341442108,-0.016038451343774796,-0.00011401643860153854,-0.0002658774610608816,0.28730422258377075,-0.17238251864910126,-9.136273384094238,0.7687462568283081,47.64031219482422,-0.21664857864379883,-3.506625175476074,-1.9261794090270996,-0.5329107642173767,-0.032785627990961075,-0.20434336364269257,24.3125,25.125,24.125,26.4375,27.0,27.4375
1.0,0.720624227713616,0.1899165272293985,0.44220176288128754,-0.01432319953609426,-0.029088950904960425,-0.060322220379787364,-0.5387183158424006,-0.3244189029781007,0.05995493853449077,-3.0787022477811674,0.6247911282886462,0.00019752437260440884,0.0008639520135835419,0.00017514351620571565,-0.006579613911527192,0.0005274225439086903,-0.0012302504216080967,0.0006426567634961772,0.32657310366630554,-1.152151183491089,1.662931267415182,-2.0801426372923792,-1.5713813940631312,2.3015568256378174,0.00023777861497364938,0.006531296297907829,0.009016788564622402,-0.014213306829333305,-0.00011881363752763718,-0.0004084796237293631,0.26815056800842285,-0.019153613597154617,-9.21288776397705,0.6948947906494141,47.63225173950195,-0.24286621809005737,-3.477832317352295,-1.8667867183685303,-0.5640580058097839,-0.02929806336760521,-0.21572089195251465,24.3125,25.125,24.125,26.4375,27.0,27.4375
1.0,0.5124768866582834,-0.12343415311471764,0.29275968570537997,-0.03458078281078053,-0.008860044061736846,-0.056745356657240155,-0.5386908238666135,-0.32442478937911934,0.05993041044078265,-3.07869256235595,0.6247892415647054,9.67234862995468e-05,0.0012568197288572757,0.00036391845382711117,-0.006682539667339371,0.0008801850038246568,-0.002207914105079652,0.00064100800649484,0.32658499479293823,-1.1521389943412323,1.6629670302020472,-2.080130239526266,-1.571357552205221,2.3015687465667725,0.00016213580965995789,0.006259801331907511,0.009423702955245972,-0.013309500180184841,-0.00013620233221445233,-0.00048207928193733096,0.19153612852096558,0.038307227194309235,-9.27034854888916,0.7754590511322021,47.67255783081055,-0.22652176022529602,-3.4982285499572754,-1.833261489868164,-0.5836297273635864,-0.03509826213121414,-0.21954157948493958,24.3125,25.125,24.125,26.4375,27.0,27.4375
1.0,-0.01876243687172066,-0.21005737838147842,0.25718612258170626,-0.041150589655474794,-0.007079168456050956,-0.05493266971325632,-0.5386844116429207,-0.32440733885562306,0.0598913616308937,-3.0786426367766686,0.6247790360294168,3.366794948178161e-05,0.0022161925515984163,0.0007025380895592648,-0.007633815890880258,0.0016962291362146436,-0.004578596585434059,0.0006084435987890254,0.32657307386398315,-1.1520909827998658,1.6629913488971155,-2.080142160455221,-1.5713813940631312,2.3015568256378174,0.00014806001854594797,0.00651760958135128,0.011086533777415752,-0.012722943909466267,-0.00014350307174026966,-0.00046312669292092323,0.15322890877723694,0.19153612852096558,-9.366117477416992,0.8112748265266418,47.700321197509766,-0.21469682455062866,-3.3944687843322754,-1.8689333200454712,-0.6177428364753723,-0.03171853721141815,-0.22588211297988892,24.3125,25.125,24.125,26.4375,27.0,27.4375
1.0,0.28623058640979393,-0.2321800133837329,0.1163407793556116,-0.03377559802969133,0.0029950514671870185,-0.05915842754866948,-0.5386958829097287,-0.32441474687357047,0.059891421066077866,-3.078688427491673,0.6247687531825746,3.734311265874676e-05,0.0019856868230648376,0.000636054862773018,-0.007996691783882017,0.001588255862326343,-0.004217520583443278,0.000623127279359612,0.3265610337257385,-1.1520789128592988,1.6629799048053187,-2.0801664791502894,-1.571345631276266,2.301532506942749,0.0001367948279948905,0.007238425780087709,0.011172289960086346,-0.013906077481806278,-0.00015977161820046604,-0.0004894071607850492,0.24899697303771973,0.2298433631658554,-9.385271072387695,0.7374180555343628,47.67255783081055,-0.21998578310012817,-3.351532459259033,-1.8668596744537354,-0.6251645088195801,-0.023613840341567993,-0.21656066179275513,24.3125,25.125,24.125,26.4375,27.0,27.4375
1.0,0.052984454357014765,-0.5126952973089793,0.026374309210859058,-0.028304841664865393,-0.003839053005718549,-0.05172613582516299,-0.5386877020094712,-0.32439666703887965,0.05985872089488614,-3.0786429229894567,0.6247984901579885,7.425556297888382e-06,0.0020344707499107377,0.0007549126599799974,-0.009093781349835345,0.0020587470305363635,-0.00466212125246408,0.000586115804983959,0.32654908299446106,-1.1520543557456513,1.6630280653582972,-2.080203195611471,-1.571369473134176,2.3015449047088623,0.00012713084288407117,0.00861761812120676,0.012138052843511105,-0.01567787304520607,-0.000464948097942397,-0.00046197391930036247,0.17238251864910126,0.24899697303771973,-9.327810287475586,0.7777001857757568,47.679718017578125,-0.20060178637504578,-3.3877835273742676,-1.8826265335083008,-0.6222692728042603,-0.02283540740609169,-0.22912374138832092,24.3125,25.125,24.125,26.4375,27.0,27.4375
1.0,-0.24423966847650413,-0.8192231942777222,-0.08182144344652625,-0.026285943087509703,-0.017589313362985578,-0.04975341302297377,-0.5386545223469056,-0.32442385552479713,0.05983989612910404,-3.078669935364496,0.6247073582549264,-4.286501298847972e-05,0.001962242282024749,0.0008000952441084615,-0.00952021738062874,0.002042703214552727,-0.0039863722762563305,0.0005762611188498093,0.3265970051288605,-1.152054325943329,1.6630762259112757,-2.0802279911436976,-1.5713461081134241,2.301532506942749,0.00011874244955834001,0.008896201848983765,0.013153919018805027,-0.01761670596897602,-0.0006687004351988435,-0.0004608074959833175,0.17238251864910126,0.26815059781074524,-9.251194953918457,0.7351769208908081,47.700321197509766,-0.22186577320098877,-3.345316171646118,-1.8272790908813477,-0.6064713001251221,-0.03767382726073265,-0.2295326292514801,24.3125,25.125,24.125,26.4375,27.0,27.4375
1.0,0.15961207173810923,-1.0650571572803214,-0.0368524810107772,-0.033223446620997694,-0.01088575550218097,-0.04941325305305848,-0.5386838829426925,-0.32439934197970105,0.05984095816727794,-3.078634843124059,0.6248159589367275,3.2474350093466655e-05,0.0017365234382541975,0.0007051474917157478,-0.009800335598281055,0.0017940936878467278,-0.0034821273119439475,0.0005664614410028141,0.32656100392341614,-1.1520420175841828,1.6630647818194788,-2.080263753930563,-1.5713813940631312,2.3015687465667725,0.00011139264097437263,0.00944135244935751,0.013314755633473396,-0.018880348652601242,-0.0005978100816719234,-0.00045889688772149384,0.13407529890537262,0.28730422258377075,-9.385271072387695,0.8269415497779846,47.68598937988281,-0.21533505618572235,-3.29880428314209,-1.8363478183746338,-0.629868745803833,-0.03423406183719635,-0.21712663769721985,24.3125,25.125,24.125,26.4375,27.0,27.4375
1.0,0.2391291469990224,-0.8680708692746428,0.09281280089511576,-0.04145114241394843,-0.0022032264394603613,-0.05583812680534044,-0.5386491615324727,-0.3243990864268388,0.05981029698729584,-3.0786268380675645,0.6247568433861099,-5.7300987088913784e-05,0.001769054583967867,0.0006980555255561317,-0.010826984041240363,0.0019671592083032987,-0.004214613811844081,0.0005338541200229342,0.32657304406166077,-1.1520414513400574,1.6631363073932093,-2.0802766285338343,-1.571369473134176,2.3015449047088623,0.00010489999112905934,0.010944697074592113,0.01383699756115675,-0.02015688829123974,-0.0005286235827952623,-0.00043308056774549186,0.09576806426048279,0.325611412525177,-9.327810287475586,0.7463666796684265,47.6734504699707,-0.2927195727825165,-3.3786392211914062,-1.8390190601348877,-0.6112772822380066,-0.020487744361162186,-0.2244216501712799,24.3125,25.125,24.125,26.4375,27.0,27.4375
1.0,-0.4494709552017331,-1.2837618303628326,0.0792611391598672,-0.02366837281827492,-0.015576009300307492,-0.049384421550411575,-0.5386406026445418,-0.3244076937020284,0.05977782128985376,-3.078619209595558,0.6247553217730528,-0.00011563513229240534,0.0012203567673561276,0.0005180871497151255,-0.010635678811512228,0.0012838999046164152,-0.002385136390675676,0.0005788715670450485,0.32658496499061584,-1.1519935590079804,1.6631487051593226,-2.0803009472289027,-1.571357552205221,2.3015568256378174,6.666489935014397e-05,0.010924767702817917,0.013876670971512794,-0.022128822281956673,-0.0004730299406219274,-0.000517199921887368,0.05746084079146385,0.3447650372982025,-9.251194953918457,0.7530794739723206,47.67703628540039,-0.21352848410606384,-3.3512814044952393,-1.8082294464111328,-0.6327112317085266,-0.03522484749555588,-0.23274166882038116,24.3125,25.125,24.125,26.4375,27.0,27.4375
1.0,0.11559445147680572,-0.7345000373438358,0.2500267711844284,-0.019065584773091452,0.004589695891515256,-0.0560307465553828,-0.5386705663082116,-0.3243908536801633,0.059773350596948854,-3.0786313977696116,0.6247962254394143,-2.4733473503435553e-05,0.001281728040979105,0.0005368437842361346,-0.0116375106696347,0.0014750622325436918,-0.0030954700556140306,0.0006039874756996388,0.32654908299446106,-1.1519811612418671,1.6631606260882776,-2.0803853474059046,-1.571369473134176,2.3015449047088623,4.720358265331015e-05,0.012313785962760448,0.01450172159820795,-0.023408975452184677,-0.0004279784916434437,-0.0005621088203042746,0.17238251864910126,0.325611412525177,-9.155426979064941,0.7351769208908081,47.671661376953125,-0.3087983727455139,-3.312676191329956,-1.8428397178649902,-0.6043078303337097,-0.031055709347128868,-0.2267879843711853,24.3125,25.125,24.125,26.4375,27.0,27.4375
1.0,-0.1389170330405631,-0.1142862852520337,0.22231363406942228,-0.01412566091893764,-0.009080557023838226,-0.05194903730503951,-0.5386525866075281,-0.3244080333653336,0.05974035750998735,-3.0786238501586687,0.6247754102274582,-5.599086220517209e-05,0.00036038417056903345,0.00021249475803095905,-0.011022682872206875,0.00044861260421684104,-0.0002016925011698374,0.0006220520231475835,0.32658496499061584,-1.1519452792457123,1.6631963888751429,-2.0804339847960414,-1.571369473134176,2.3015687465667725,4.464703306439333e-05,0.01207629032433033,0.013956592418253422,-0.025696605443954468,-0.0003907682839781046,-0.0005837956559844315,0.2106897532939911,0.2106897532939911,-9.193734169006348,0.7239871025085449,47.668975830078125,-0.24629174172878265,-3.360614061355591,-1.8156259059906006,-0.6012446880340576,-0.02214820683002472,-0.22318151593208313,24.3125,25.125,24.125,26.4375,27.0,27.4375
1.0,0.22905248703094697,0.12704603320906932,0.28875831558933057,-0.009101471486331541,-0.009252971620770309,-0.05485128940947036,-0.5386518763519095,-0.3243962716550864,0.05971431271793254,-3.0786152980789825,0.6247347347655648,-6.334344996815529e-05,-0.0004937009185836483,-9.502781400498355e-05,-0.01134408161112018,-0.00032400187897246104,0.0018740716051491588,0.0011047249914695621,0.3265730142593384,-1.1519328516772767,1.6632326284991663,-2.080578943292135,-1.5713933149920862,2.301544666290283,4.061437721247785e-05,0.013207171112298965,0.013840273953974247,-0.028925413265824318,-0.0003328989550936967,-0.0010717599652707577,0.17238251864910126,0.1149216815829277,-9.251194953918457,0.7262282371520996,47.674346923828125,-0.2542354166507721,-3.363659381866455,-1.6941760778427124,-0.5779328346252441,-0.024776682257652283,-0.21799927949905396,24.3125,25.125,24.125,26.4375,27.0,27.4375
1.0,0.15289848901684783,0.056175773734857985,0.22066764575341863,-0.007778512627340814,-0.020242685528118958,-0.05469912376425387,-0.5386608244631155,-0.3243993483423368,0.05967281626089144,-3.0786262346882043,0.6247167532828533,-4.4635689663364444e-05,-0.0003531549844620086,-5.3134187465262263e-05,-0.011502275784517511,-0.0004872137283516752,0.002282747830572297,0.001223272758126274,0.3265730142593384,-1.1518609684756775,1.6632674376117151,-2.08059086422109,-1.5713813940631312,2.3015198707580566,3.886052218149416e-05,0.012869642116129398,0.014939185231924057,-0.03012632578611374,-0.00030995256383903325,-0.001192496158182621,0.15322890877723694,0.05746084079146385,-9.232041358947754,0.7060845494270325,47.68240737915039,-0.23773783445358276,-3.2929983139038086,-1.761504888534546,-0.5670005083084106,-0.03911041095852852,-0.22286488115787506,24.3125,25.125,24.125,26.4375,27.0,27.4375
1.0,0.4631946419903251,0.05912314604833589,0.3211085832996788,-0.009807584016172762,-0.008625694209630868,-0.06109991721890983,-0.5386737800984207,-0.3243921995995198,0.05964077258164946,-3.078606821882652,0.6247909665883673,-1.9372424408101338e-05,-0.0008784291580888734,-0.00023801435122096384,-0.01181289667052515,-0.0007235103709602021,0.0029047233994154106,0.0013747466906614192,0.32656097412109375,-1.1518125993064423,1.6632917563067835,-2.080675264398092,-1.5713933149920862,2.3015565872192383,3.7251884350553155e-05,0.0140438387170434,0.014274521730840206,-0.03130089119076729,-0.0002899681858252734,-0.001345970667898655,0.13407529890537262,-0.038307227194309235,-9.27034854888916,0.7172743082046509,47.66449737548828,-0.3102317452430725,-3.318477153778076,-1.6645004749298096,-0.5651547908782959,-0.02307451143860817,-0.2366732954978943,24.3125,25.125,24.125,26.4375,27.0,27.4375
1.0,0.31436309059695705,0.21073501308172124,0.3432741778455039,-0.010935698369486798,-0.0026521062940659786,-0.06696150468043664,-0.5386507704008812,-0.3243999148921073,0.05961190640514219,-3.078614230396908,0.624695237264892,-5.11243696414629e-05,-0.0010846816781881936,-0.00031297343395393656,-0.011743654783112768,-0.001097363786048651,0.003946241928325751,0.001430841729372442,0.32658493518829346,-1.1518006485751648,1.6633513609515589,-2.0807234249510707,-1.5713933149920862,2.3015198707580566,3.577133611543104e-05,0.013862195424735546,0.014668675139546394,-0.03261987864971161,-0.00027240614872425795,-0.0014040895039215684,0.13407529890537262,-0.05746084079146385,-9.232041358947754,0.7530794739723206,47.67255783081055,-0.22808560729026794,-3.2887489795684814,-1.6817550659179688,-0.5380682945251465,-0.02387838438153267,-0.22713813185691833,24.3125,25.125,24.125,26.4375,27.0,27.4375
1.0,0.30292568221885197,0.382601408944851,0.31765936134846345,-0.009344217042207382,0.002378727690576003,-0.060155822025340096,-0.5386557037101646,-0.32442847118440604,0.05961056690422076,-3.078660845798446,0.624744375913237,-1.3534871957350085e-05,-0.0014257876671223348,-0.0004338310806961436,-0.012198676671696378,-0.0011879132246160554,0.004154770634464435,0.0013576395291370047,0.32660889625549316,-1.1517883104136963,1.6633508841144007,-2.0807839832701625,-1.571357552205221,2.3015685081481934,3.440380169195123e-05,0.015020308084785938,0.014322413131594658,-0.03365828096866608,-0.0002568499476183206,-0.0013325628824532032,0.038307227194309235,-0.019153613597154617,-9.232041358947754,0.7553206086158752,47.6680793762207,-0.2653122842311859,-3.322643756866455,-1.6698112487792969,-0.5435786247253418,-0.01971638761460781,-0.23392143845558167,24.3125,25.125,24.125,26.4375,27.0,27.4375
1.0,0.1367138563261595,0.5416256401234553,0.23981236690161767,-0.005917860393399577,0.0015750668818453194,-0.06268507579083722,-0.538669229834697,-0.3243942500246997,0.059563575385373546,-3.078631676386625,0.6247961692488634,-6.31243843178524e-05,-0.001156297994965116,-0.00034533916340618334,-0.012529196615127415,-0.0012480159886817136,0.004289917596606957,0.0012949200184500453,0.32654905319213867,-1.1517284673503418,1.6633876005755823,-2.080844064752096,-1.571357552205221,2.301544666290283,3.313700290163979e-05,0.014746526256203651,0.01574438437819481,-0.03495381027460098,-0.0002429761952953413,-0.0012715477496385574,0.09576806426048279,0.019153613597154617,-9.232041358947754,0.6590895652770996,47.6949462890625,-0.27779096364974976,-3.2791354656219482,-1.7069346904754639,-0.5043069124221802,-0.025204593315720558,-0.23680686950683594,24.3125,25.125,24.125,26.4375,27.0,27.4375
1.0,0.527011342849117,0.6460283761116637,0.14559118266204482,-0.011223887917660765,0.013584143139424259,-0.06831253943549191,-0.5386410074396684,-0.32440019600365283,0.05951504575987743,-3.078614911561681,0.6247543760743485,-0.00012987001805201228,-0.0011816504149024995,-0.00035759968569647465,-0.013242024712079364,-0.0011233125966878716,0.0038772434628575702,0.00124194029463929,0.3265730142593384,-1.1516921681216736,1.6634605566607874,-2.0809041462340296,-1.571357552205221,2.301544666290283,3.196019315510057e-05,0.01584743522107601,0.01604750193655491,-0.03592700511217117,-0.00023052409233059734,-0.0012199424672871828,0.07661445438861847,0.05746084079146385,-9.27034854888916,0.7195101380348206,47.633148193359375,-0.32453927397727966,-3.3218045234680176,-1.6490381956100464,-0.5155184268951416,-0.03462620824575424,-0.2335210144519806,24.3125,25.125,24.125,26.4375,27.0,27.4375
1.0,-0.23737237878272766,0.6687378952248686,0.13420732931701196,-0.010180163302784581,-0.0066008244673807035,-0.06330408872454286,-0.5386370162204166,-0.32441063232783407,0.05949899463220887,-3.078612873034279,0.6247155458913893,-0.00011906393836240694,-0.0013680877098759313,-0.0004239751103597999,-0.013049745649108524,-0.0015253906407406727,0.005022807267534809,0.0012236782758207844,0.3265969753265381,-1.1516683858684083,1.6634720007525843,-2.080940385858053,-1.571369473134176,2.301544666290283,3.0864233849570155e-05,0.01542446855455637,0.016475766897201538,-0.03714635968208313,-0.00021928685600869358,-0.0012033123057335615,0.05746084079146385,0.019153613597154617,-9.251194953918457,0.7777001857757568,47.70927429199219,-0.2864638566970825,-3.275597095489502,-1.7173831462860107,-0.4941793382167816,-0.03141728788614273,-0.21985077857971191,24.3125,25.125,24.125,26.4375,27.0,27.4375
1.0,0.4136029068118978,0.7747757461086181,0.3604764115275427,-0.014571227246319885,0.010234093094756664,-0.07042554489053354,-0.5386835009403953,-0.32440689403641293,0.05950388584000585,-3.0786627911855806,0.6247636064666932,7.118093817145995e-07,-0.0013427829215964583,-0.0004184141408359964,-0.014069048971716586,-0.0012627691024246176,0.0042111201977116,0.0011946646961067345,0.32656097412109375,-1.1516435903361817,1.6634481588946741,-2.08103670696401,-1.571357552205221,2.30153226852417,2.9840952265658416e-05,0.01697845570743084,0.01686902530491352,-0.038240596652030945,-0.0002090946800308302,-0.0011755144223570824,-0.038307227194309235,0.09576806426048279,-9.232041358947754,0.7418897151947021,47.679718017578125,-0.35082870721817017,-3.3044795989990234,-1.6749776601791382,-0.4950629472732544,-0.018709609284996986,-0.217298224568367,24.3125,25.125,24.125,26.4375,27.0,27.4375
1.0,-0.05302162532131767,0.3716574743050747,0.09696932102824152,-0.010514804365905638,-0.0007227859359427722,-0.06232339983723875,-0.5386493370671824,-0.32439930340605644,0.05944526922860818,-3.078613064309592,0.6247731692188506,-8.828003364657926e-05,-0.001583645721245202,-0.0005029764043237637,-0.014020101121948007,-0.0014937705806118734,0.004857668709073976,0.0012884827210289374,0.3265730142593384,-1.1516077381423493,1.6635444800006312,-2.0810963116087855,-1.571369473134176,2.3015565872192383,2.888318158511538e-05,0.01710701733827591,0.016733938828110695,-0.03892061859369278,-0.00019980849174316972,-0.0012705606641247869,0.038307227194309235,0.05746084079146385,-9.251194953918457,0.7754590511322021,47.68598937988281,-0.2797544598579407,-3.2381062507629395,-1.665346622467041,-0.4626002311706543,-0.030475998297333717,-0.22284480929374695,24.3125,25.125,24.125,26.4375,27.0,27.4375
1.0,-0.47897036826774814,-0.05985431266677624,0.11004230655611487,0.00023416197024602554,-0.008521529613886419,-0.055862307702911396,-0.5386262943760188,-0.32440701942214334,0.05939541824126371,-3.0786010324716573,0.6247132306943217,-0.00015233988099721976,-0.0010968598161474083,-0.0003392390828667098,-0.014836407521836974,-0.0011506544490818191,0.003821868378149306,0.0013058204363615776,0.3265969753265381,-1.1515596073916932,1.6636040846454065,-2.0811568699278773,-1.571369473134176,2.301544666290283,2.7985070119029842e-05,0.017544033005833626,0.018146667629480362,-0.03967926651239395,-0.00019131173030473292,-0.0012888970086351037,-0.038307227194309235,0.019153613597154617,-9.327810287475586,0.7418897151947021,47.67792892456055,-0.30133265256881714,-3.2994160652160645,-1.6896042823791504,-0.4814419448375702,-0.01834745705127716,-0.2158840149641037,24.3125,25.125,24.125,26.4375,27.0,27.4375
1.0,-0.6092293527926322,0.12170629057205617,0.15674336619636442,-0.004321111951510059,-0.0036768095589663676,-0.05353825414262251,-0.5386494928893435,-0.3244031594187482,0.059380177542656565,-3.0786208653790914,0.6247557286344854,-0.000114815124840564,-0.0008768436653020186,-0.0002663377816320751,-0.015393208180057993,-0.0007512796076766144,0.002622315185500612,0.0012546024288190307,0.3265730142593384,-1.1515232783607026,1.6636040846454065,-2.0812279186644496,-1.571357552205221,2.301544666290283,2.7141086320625618e-05,0.018346017226576805,0.01819963939487934,-0.039269957691431046,-0.00018350839673075825,-0.0012382460990920663,-0.1149216815829277,0.09576806426048279,-9.327810287475586,0.6680382490158081,47.68867492675781,-0.2817692458629608,-3.2980072498321533,-1.6934309005737305,-0.4828565716743469,-0.03879772499203682,-0.2184009701013565,24.3125,25.125,24.125,26.4375,27.0,27.4375
1.0,-0.14324329966980923,0.4041440116295869,0.23110747393666173,-0.007194025473775897,0.007324778539140538,-0.058981012781674634,-0.5386438838458804,-0.32439749270181095,0.05933678331879913,-3.078618377990826,0.6247155033172567,-0.00010606883429643386,-0.0005031727448561563,-0.00014060024722838363,-0.015652530400933964,-0.0004718040712447517,0.0017815500778712854,0.0013447189521939963,0.3265730142593384,-1.1514875155738373,1.6636770407306116,-2.0813361606993617,-1.571369473134176,2.3015198707580566,2.6346608137828298e-05,0.018281787633895874,0.01879819855093956,-0.03891835734248161,-0.00017631694208830595,-0.0013289781054481864,0.0,0.019153613597154617,-9.327810287475586,0.7105615139007568,47.660911560058594,-0.3094243109226227,-3.2851274013519287,-1.7306513786315918,-0.4798811972141266,-0.0149778351187706,-0.2193000316619873,24.3125,25.125,24.125,26.4375,27.0,27.4375
1.0,-0.05553936285841683,0.03896531774909065,0.1203307368810311,-0.004401146882045924,0.0028142455764921664,-0.058429945901374715,-0.5386444236555126,-0.3244247593656732,0.05932040270791117,-3.078651239767626,0.624664725361768,-8.4048775181888e-05,4.932356650835017e-05,4.600976673666578e-05,-0.016528629116273206,9.704263199886032e-05,8.909225098722567e-05,0.001184776890588192,0.32660889625549316,-1.1514511865428467,1.6636770407306116,-2.081395765344137,-1.571357552205221,2.3015198707580566,2.5597288185963407e-05,0.018991177901625633,0.019772570580244064,-0.038816604763269424,-0.00016966791008599102,-0.0011695483699440956,0.038307227194309235,-0.019153613597154617,-9.308656692504883,0.6769921779632568,47.67524337768555,-0.3586224317550659,-3.308866024017334,-1.7682766914367676,-0.5038661956787109,-0.02937426045536995,-0.21458882093429565,24.3125,25.125,24.125,26.4375,27.0,27.4375
1.0,0.14388675146533345,0.3058241447679975,0.14959402368456098,-0.01337008890707763,-0.0008431732069595936,-0.06295652237924075,-0.5386570943407686,-0.3244253274026652,0.05930013469721129,-3.0786454215740835,0.6247032937240491,-4.195199575076352e-05,-0.0003067232771393085,-7.7281106710466e-05,-0.01672045599845212,7.239692277249622e-05,0.0001354813618609846,0.0011305642572551923,0.32660889625549316,-1.1514147383025666,1.6636884848224085,-2.0814677677550257,-1.571369473134176,2.301544666290283,2.4889390260796063e-05,0.019964735954999924,0.018883267417550087,-0.03895273432135582,-0.0001635025255382061,-0.0011160507565364242,-0.019153613597154617,0.1149216815829277,-9.193734169006348,0.7575564384460449,47.687782287597656,-0.3095308840274811,-3.282318115234375,-1.6852102279663086,-0.49677956104278564,-0.02071250043809414,-0.21974283456802368,24.3125,25.125,24.125,26.4375,27.0,27.4375
1.0,0.18792791688540375,-0.07934537850459158,0.17054924124774773,-0.005808641809571143,-0.008977056637189474,-0.05903708528794444,-0.5386775151104178,-0.32440901696356855,0.05926507163018391,-3.0786494068021804,0.6246836885939993,-4.24045416660324e-05,-0.00011043417015074832,-1.1714475274640878e-05,-0.01692491273287836,0.00023534477064022174,-0.0003602632215778127,0.0010870482481297196,0.3265730142593384,-1.151354895239212,1.6637008825885218,-2.0815397701659144,-1.571369473134176,2.3014960289001465,2.4219558326876722e-05,0.020039167255163193,0.01921743154525757,-0.03883953019976616,-0.0001577690854901448,-0.0010731249349191785,0.07661445438861847,0.07661445438861847,-9.193734169006348,0.7329410910606384,47.66001510620117,-0.38397255539894104,-3.297964572906494,-1.768892765045166,-0.5077989101409912,-0.022771358489990234,-0.22752398252487183,24.3125,25.125,24.125,26.4375,27.0,27.4375
1.0,0.29489456286189253,-0.042149639446280224,0.09479876194035673,-0.011097503155958465,-0.008760171803166211,-0.05279333081901667,-0.5386558024503775,-0.32440182370695664,0.059217225339065316,-3.078605360229086,0.6247339556045197,-5.752622890535163e-05,0.000310651645155268,0.00013054291754346797,-0.01747349152622873,0.0006088004541322463,-0.0014734220724133956,0.000961907275376467,0.32658493518829346,-1.151330755358078,1.6637972036944788,-2.081635137597555,-1.5713933149920862,2.3015449047088623,2.358489655307494e-05,0.020351914688944817,0.020011303946375847,-0.038772039115428925,-0.00015242428344208747,-0.0009484665933996439,0.1149216815829277,0.05746084079146385,-9.232041358947754,0.6702793836593628,47.64747619628906,-0.3269496560096741,-3.302107810974121,-1.6642769575119019,-0.5224530696868896,-0.032346874475479126,-0.22509020566940308,24.3125,25.125,24.125,26.4375,27.0,27.4375
1.0,0.42796316711174054,0.2560427300309629,0.3675457618913826,-0.017550458820379495,-0.006939348747595602,-0.05958673298395448,-0.5386609790194188,-0.3243996478777145,0.059159554040386725,-3.078626853657596,0.6246795584408606,-6.768234119557474e-05,0.0005231083285294915,0.0002148006449033318,-0.01839605214499866,0.001018692628638356,-0.002713555503954164,0.000795402341983782,0.3265730142593384,-1.1512583655169983,1.6638568083392542,-2.081766744653219,-1.5713813940631312,2.3014962673187256,3.617668653532746e-08,0.021603547036647797,0.02044629119336605,-0.03915257751941681,-0.00014275255671236664,-0.0008054400677792728,0.19153612852096558,0.09576806426048279,-9.251194953918457,0.7172743082046509,47.68061828613281,-0.3244627118110657,-3.241981029510498,-1.6698086261749268,-0.5619563460350037,-0.022876065224409103,-0.22096361219882965,24.3125,25.125,24.125,26.4375,27.0,27.4375
1.0,0.6913019030653721,0.28051738401181847,0.3595752276279878,-0.013277518985835866,-0.002073207627500246,-0.06334114102259121,-0.5386560779991727,-0.32440951076231117,0.05910798676876294,-3.0786256190013654,0.6247382357405779,-7.714674821301158e-05,0.0008426901053107264,0.0003222860635310362,-0.01901252189521402,0.001288413074383471,-0.003520815584618744,0.0006943414762444909,0.32658493518829346,-1.151198373442032,1.663917366658346,-2.0818873844542445,-1.571369473134176,2.3015449047088623,4.853564217199846e-10,0.022054726257920265,0.02132386341691017,-0.03963019698858261,-0.00013836281141266227,-0.0007044565281830728,0.19153612852096558,0.19153612852096558,-9.21288776397705,0.7597975730895996,47.6707649230957,-0.39568188786506653,-3.2637524604797363,-1.6708788871765137,-0.5764954090118408,-0.02536812610924244,-0.22005607187747955,24.3125,25.125,24.125,26.4375,27.0,27.4375
1.0,0.6245094331037331,-0.11983387534592421,0.24517655229583704,-0.00296814368525974,-0.009274900322829596,-0.057789914862640616,-0.5386672788018307,-0.32441335143070377,0.05907734212233495,-3.078641115037446,0.6247215590234192,-4.564558814361025e-05,0.000978769407825604,0.00036732424165915984,-0.019279522821428308,0.0014001571241512303,-0.0038625096188294027,0.0007093097664860635,0.32658493518829346,-1.1511501532844086,1.6639412085162562,-2.081982751885885,-1.571369473134176,2.301532506942749,6.511676614584516e-12,0.022251907736063004,0.021703841164708138,-0.03984789177775383,-0.000134235160658136,-0.0007194551872089505,0.17238251864910126,0.17238251864910126,-9.078812599182129,0.6904177665710449,47.64836883544922,-0.32049810886383057,-3.345046281814575,-1.6589655876159668,-0.5757624506950378,-0.021279484033584595,-0.2137182652950287,24.3125,25.125,24.125,26.4375,27.0,27.4375
1.0,0.4819239811816139,-0.13544651845618286,0.24055917140640393,-0.0007955113052175462,-0.01837183743790638,-0.05441046422862478,-0.5386601028231852,-0.32440695103586403,0.05903273048531796,-3.0786337717975476,0.6247193485391168,-0.00010362924645300111,0.001075051639645047,0.00039865422002266,-0.01987323690352259,0.0015335634560534263,-0.004270999699447637,0.000640963621438507,0.3265730142593384,-1.1511020523360749,1.6639888922320765,-2.0820428333678187,-1.571357552205221,2.3015201091766357,8.736244963124945e-14,0.022950857877731323,0.022264495491981506,-0.04067779704928398,-0.0001303466415265575,-0.0006512803374789655,0.2106897532939911,0.15322890877723694,-9.117119789123535,0.7463666796684265,47.66001510620117,-0.40261659026145935,-3.275416374206543,-1.708433985710144,-0.5975757837295532,-0.018959207460284233,-0.21777883172035217,24.3125,25.125,24.125,26.4375,27.0,27.4375
1.0,0.9118985910363585,0.13197125623204675,0.36665633933748365,-0.008565366927932047,-0.01141813479821793,-0.06295979190707447,-0.5386805541870288,-0.32439495212804725,0.05900288465643036,-3.078596579380744,0.6246734747612869,-3.955349994658071e-05,0.00044399291115723824,0.00018177762438527812,-0.020223303592361127,0.0010891387379257707,-0.002988583145975566,0.0005794844373650979,0.3265730142593384,-1.1510417026332398,1.6639888922320765,-2.0821153126158656,-1.5714176336871546,2.3014962673187256,1.1720788761478227e-15,0.024053014814853668,0.022024458274245262,-0.04289717227220535,-0.00012667699775192887,-0.0005905604339204729,0.2298433631658554,0.05746084079146385,-9.21288776397705,0.7799360156059265,47.69673538208008,-0.39676353335380554,-3.294501781463623,-1.7148101329803467,-0.6003704071044922,-0.03260166198015213,-0.20554813742637634,24.3125,25.125,24.1875,26.4375,27.0,27.4375
1.0,0.6815315971922218,0.11677111362108367,0.330788903535159,-0.01588198723126379,-0.016648523526010206,-0.05686109820637695,-0.5386646120259589,-0.32441229346066475,0.05896558816394318,-3.0786570608423465,0.6246859694795902,-9.792284631272979e-05,0.0006311623169530832,0.0002442929655056311,-0.020749002870865153,0.0013922346124797343,-0.003892364896044111,0.0005662570264871035,0.3265730142593384,-1.1510175329497834,1.6640613714801233,-2.0822111568846644,-1.571345631276266,2.3014962673187256,1.5724933400843346e-17,0.024737875908613205,0.022255217656493187,-0.0428595133125782,-0.00012320837413426489,-0.0005771922878921032,0.15322890877723694,0.07661445438861847,-9.117119789123535,0.7172743082046509,47.68061828613281,-0.39014020562171936,-3.3374314308166504,-1.6397640705108643,-0.608427882194519,-0.033693455159664154,-0.22000211477279663,24.3125,25.125,24.1875,26.4375,27.0,27.4375
1.0,0.18353023006903588,0.09738095566080342,0.31004456385954554,-0.008608523883973073,-0.02794055263252008,-0.049596911963521145,-0.5386769054438082,-0.32439340366293595,0.05893898799266595,-3.078617817088959,0.6247744557341463,-8.005418468248956e-05,0.0018665294650704566,0.0006646226172633895,-0.02164156332857273,0.0025473049596059375,-0.007288311457030849,0.0005557643197384488,0.32654905319213867,-1.1509815019420166,1.6640847365008753,-2.0822698078551234,-1.571369473134176,2.301532506942749,2.1097003708738862e-19,0.024885591119527817,0.0235995352268219,-0.04076455533504486,-0.00011992463987553492,-0.0005656950525008142,0.13407528400421143,0.15322890877723694,-9.155426979064941,0.7016075849533081,47.65374755859375,-0.38562411069869995,-3.2851204872131348,-1.694715142250061,-0.6583251357078552,-0.029600249603390694,-0.21448716521263123,24.3125,25.125,24.1875,26.4375,27.0,27.4375
1.0,0.5703260621554719,0.2872959078217777,0.3201366389213092,-0.01134050907832554,-0.010280975522504995,-0.05670927005035316,-0.5386558126523693,-0.32439034554237844,0.05885071100579026,-3.078561242161591,0.6247443880924513,-0.00013302047843541986,0.001436567722264171,0.0005170440909796148,-0.021313302073905204,0.002059861142049198,-0.005868096145808856,0.0005160960139164877,0.3265730142593384,-1.1508855682662507,1.6641810576068323,-2.0824018917479457,-1.5714057127581995,2.3015449047088623,2.830432322087815e-21,0.02469726838171482,0.023363199084997177,-0.04184144735336304,-0.00011681122850859538,-0.0005265210056677461,0.17238251864910126,0.09576806426048279,-9.251194953918457,0.6613254547119141,47.65911865234375,-0.39255452156066895,-3.3334503173828125,-1.6550445556640625,-0.6782474517822266,-0.022908108308911324,-0.21132998168468475,24.3125,25.125,24.1875,26.4375,27.0,27.4375
1.0,-0.11432564605399416,-0.0290632701822154,0.19912322445207972,-0.006930425792601198,-0.024192609370128224,-0.055438101516351534,-0.5386395776359272,-0.3244040088072253,0.058834181104066546,-3.0786108492168367,0.624657514222606,-0.0001616341520530885,0.0010081783117055357,0.00037548000408145856,-0.020801258451288333,0.0015026262681781632,-0.004188377935629665,0.00047981764819888894,0.32658493518829346,-1.1508857172778626,1.664229694996969,-2.0824505291380824,-1.571369473134176,2.3014962673187256,3.7973864400279736e-23,0.024147890508174896,0.02320939674973488,-0.042907893657684326,-0.00013073318405076861,-0.0004907554248347878,0.2106897532939911,0.09576806426048279,-9.232041358947754,0.6792280077934265,47.63225173950195,-0.3452919125556946,-3.199164867401123,-1.565058946609497,-0.6958751678466797,-0.026379402726888657,-0.20364689826965332,24.3125,25.125,24.1875,26.4375,27.0,27.4375
1.0,0.19368570860043582,-0.2658170907860173,-0.00646102442404514,-0.004247304879196803,-0.013066447326359296,-0.053730896482250906,-0.5386445018164336,-0.32440571259924655,0.05879107785701604,-3.0786038160906806,0.6246943394129822,-0.00016094098859006727,0.0009473151735988898,0.0003549131355539219,-0.02166178200153968,0.0015632170001346945,-0.004368682907277114,0.0004480812917293721,0.32658493518829346,-1.1508252781680604,1.664264980946676,-2.0825468502440394,-1.571369473134176,2.3015201091766357,5.094678690513967e-25,0.025377968326210976,0.023820478469133377,-0.04455883055925369,-0.00013287022011354566,-0.0004594297206494957,0.19153612852096558,0.15322890877723694,-9.193734169006348,0.7642692923545837,47.68419647216797,-0.3967084586620331,-3.27962327003479,-1.6289660930633545,-0.7184066772460938,-0.025404468178749084,-0.21077412366867065,24.3125,25.125,24.1875,26.4375,27.0,27.4375
1.0,0.001155781165266892,-0.220201001258028,0.2750482186853611,-0.008534251916521535,-0.016057639015724927,-0.05107541978103761,-0.5386382644417917,-0.3243998471807322,0.0587258841081616,-3.0785730763242576,0.6246689843826116,-0.0002189521066406859,0.0013980869979246546,0.0005072309344699544,-0.022908904795849963,0.002291015821824553,-0.006521615542444017,0.0003912908234421884,0.32658493518829346,-1.1507408183864136,1.664314095173971,-2.082630773583883,-1.5713813940631312,2.3015081882476807,6.835161580113255e-27,0.026989953592419624,0.024381276220083237,-0.04445899650454521,-0.00013002048945054412,-0.0004022872308269143,0.19153612852096558,0.1149216815829277,-9.251194953918457,0.7284641265869141,47.6367301940918,-0.42258477210998535,-3.268716812133789,-1.6227648258209229,-0.7368576526641846,-0.016155768185853958,-0.21625453233718872,24.3125,25.125,24.1875,26.4375,27.0,27.4375
1.0,0.5956282459703377,0.34635984693805166,0.21674917320471104,-0.021551404155652064,0.0032055854495692078,-0.07083557636626682,-0.5386323513372371,-0.32439387886285764,0.05867855888466739,-3.0785751299504582,0.6246507376528795,-0.00026077726503350254,0.002444055714962848,0.0008629626417332799,-0.023814815748035883,0.003334625376130653,-0.009591769297496774,0.00033600261566819314,0.3265730142593384,-1.1506927174380799,1.6643732229815882,-2.0827142200865687,-1.571369473134176,2.3014845848083496,9.170242605973801e-29,0.02739626355469227,0.025477468967437744,-0.04271881282329559,-0.0001269859349122271,-0.0003461187006905675,0.1149216815829277,0.13407529890537262,-9.232041358947754,0.7575564384460449,47.658226013183594,-0.4262050986289978,-3.3635382652282715,-1.6379152536392212,-0.7942694425582886,-0.045643772929906845,-0.21802625060081482,24.3125,25.125,24.1875,26.4375,27.0,27.4375
1.0,0.4857022801513282,0.20636561560041652,0.2508709270981012,-0.012473673374801339,-0.0012746260809358505,-0.06648109445055246,-0.5386452954898079,-0.32438705124113654,0.05865786212141458,-3.0785285699817577,0.624679384917574,-0.00018136724866151847,0.002104716597353248,0.0007460473745333443,-0.024174977242711795,0.002925912562307925,-0.00840747254016123,0.0003088874545688343,0.32658493518829346,-1.1506565076163788,1.6643860975848597,-2.0827866993346156,-1.5714295546161097,2.301520347595215,1.230305113333333e-30,0.027928119525313377,0.0260959193110466,-0.045121967792510986,-0.0001240696874447167,-0.0003198404738213867,0.1149216815829277,0.15322890877723694,-9.097966194152832,0.7374180555343628,47.700321197509766,-0.47437161207199097,-3.351961135864258,-1.6619449853897095,-0.8054201602935791,-0.03514092415571213,-0.210768461227417,24.3125,25.125,24.1875,26.4375,27.0,27.4375
1.0,-0.09305034478750766,-0.01982289879018319,0.1736998423642125,-0.010752198110936686,-0.007998184137064048,-0.06601263688178348,-0.5386282192186357,-0.32440428424286444,0.058620829831268484,-3.0785770537933943,0.6246509900327434,-0.00021897227706062914,0.001856908374282847,0.0006602431915785997,-0.024869537736915356,0.002650236553691359,-0.007615658779949919,0.00028670679689019957,0.3265969753265381,-1.1506322485259552,1.6644580999957483,-2.082883497277731,-1.5713813940631312,2.3015084266662598,1.6506113880726e-32,0.028859447687864304,0.026972662657499313,-0.04776843637228012,-0.00012128295929869637,-0.0002985021274071187,0.17238251864910126,0.038307227194309235,-9.155426979064941,0.6814691424369812,47.654640197753906,-0.4061526656150818,-3.3086767196655273,-1.6796679496765137,-0.8175793886184692,-0.04189770668745041,-0.21941179037094116,24.3125,25.125,24.1875,26.4375,27.0,27.4375
1.0,-0.18348952880517397,-0.4590061520859132,0.10012625152748088,-0.002703224182303618,-0.004403068434076818,-0.049945003030118236,-0.5386188819192107,-0.3243739874821898,0.05853781385556878,-3.0785278728991945,0.6246604895695049,-0.00030693979528339767,0.0016332235257805914,0.0005827956298876005,-0.02514124795160985,0.0024649661406311186,-0.00708620558784246,0.00030892871679689526,0.32656097412109375,-1.1505481165698548,1.664553467427389,-2.0829912624754847,-1.5713933149920862,2.3014845848083496,2.2145057719081936e-34,0.02939080260694027,0.027134420350193977,-0.049022477120161057,-0.00011861870007123798,-0.0003211338189430535,0.1149216815829277,0.019153613597154617,-9.28950309753418,0.7418897151947021,47.671661376953125,-0.44370758533477783,-3.357996940612793,-1.6495389938354492,-0.8286824226379395,-0.032713159918785095,-0.22097478806972504,24.3125,25.125,24.1875,26.4375,27.0,27.4375
1.0,-0.020535587397149488,-0.15536624546239663,0.004682293079233393,-0.011309968790927508,0.01002701582943567,-0.05738619764341354,-0.5386384428115762,-0.32436889116487677,0.05851070699911762,-3.078538124838793,0.6247201509586492,-0.0002855601740228784,0.0015236383576429148,0.0005442288965178471,-0.025735949470950013,0.0023886858597810664,-0.006877557973546555,0.00030257467362039997,0.32653701305389404,-1.1504998964122315,1.6645668188678187,-2.0830756626524867,-1.5713813940631312,2.3014965057373047,2.971042241420954e-36,0.03021256998181343,0.027702270075678825,-0.050634194165468216,-0.00011606900807237253,-0.0003152551653329283,0.1149216815829277,0.038307227194309235,-9.346963882446289,0.6926589012145996,47.68240737915039,-0.4506421983242035,-3.3735249042510986,-1.6663167476654053,-0.8327562808990479,-0.0338701456785202,-0.2052140086889267,24.3125,25.125,24.1875,26.4375,27.0,27.4375
1.0,0.6367031921497203,0.08540605274409735,0.23575328196590828,-0.015024123595004369,0.023389184073612866,-0.0713583816781603,-0.5386089986858505,-0.32440932643402653,0.05843380257246619,-3.078557657527455,0.624589882517432,-0.00034151547875468767,0.0008289879746958602,0.00030582559449232464,-0.025663557898477147,0.0011053234767405674,-0.0031289427228703448,0.00026834164377829853,0.32658493518829346,-1.1503562194160004,1.6646741072284144,-2.0833293400206507,-1.571369473134176,2.3015084266662598,5.347775329402799e-40,0.029670318588614464,0.029466552659869194,-0.05581843480467796,-0.0001112848985940218,-0.00028305151499807835,0.1149216815829277,0.019153613597154617,-9.232041358947754,0.7262282371520996,47.65016555786133,-0.44433721899986267,-3.223893880844116,-1.7167611122131348,-0.8584733009338379,-0.02004804089665413,-0.2092689573764801,24.3125,25.125,24.1875,26.4375,27.0,27.4375
1.0,-0.21940454729116973,-0.09954190243262724,0.20824709779022388,-0.012455352149153205,0.00855085988556736,-0.057810265599647734,-0.5386004161276154,-0.32439465690132224,0.05832187785037174,-3.078552572130854,0.6246082791542407,-0.000383065003897163,-0.00014785646509204,-2.9058933579461105e-05,-0.026801991988020118,0.0002794745351094059,-0.0007336491053976765,0.0002743073547540753,0.32658493518829346,-1.1502953928760071,1.6647947470294397,-2.0834504566588343,-1.571357552205221,2.3014726638793945,7.174648137343063e-42,0.03186076134443283,0.030241895467042923,-0.061317868530750275,-0.00010903777729254216,-0.0002908291353378445,0.1149216815829277,0.09576806426048279,-9.232041358947754,0.7060845494270325,47.6421012878418,-0.47430533170700073,-3.4536828994750977,-1.789222002029419,-0.805182695388794,-0.027078498154878616,-0.2066982239484787,24.3125,25.125,24.1875,26.4375,27.0,27.4375
1.0,0.19018035087599636,-0.11862543442778477,0.16240697820372635,-0.017347889638844392,0.023916320630182175,-0.06529639497173517,-0.5385969927449347,-0.32439729433659065,0.05825573196388842,-3.0785204507534845,0.6246981009830366,-0.00045739896737229064,8.515972612711105e-05,4.9770793186282456e-05,-0.026980620628206095,0.00039983081148538,-0.0010924281351625015,0.00028086775808128695,0.32658493518829346,-1.150199518804886,1.6648300329791468,-2.08353390316152,-1.571345631276266,2.301532745361328,9.668959403841238e-44,0.031759053468704224,0.03080928698182106,-0.06140512973070145,-0.00010687962640076876,-0.00029738841112703085,-0.019153613597154617,0.09576806426048279,-9.346963882446289,0.7351769208908081,47.65911865234375,-0.4868353009223938,-3.4135537147521973,-1.7330634593963623,-0.8042771816253662,-0.03769692778587341,-0.21323071420192719,24.3125,25.125,24.1875,26.4375,27.0,27.4375
1.0,-0.5625609370228083,-0.32365630243506516,0.0871551915745819,-0.01318729385911496,0.0030183197332953804,-0.05334224750585517,-0.5386115174287198,-0.3243794610423215,0.0581994614167273,-3.0784909026655627,0.624672176441093,-0.0004012691293858483,-0.0009533932510393002,-0.00030525422872417694,-0.026641067709864005,-0.0009057869034812714,0.0027265028283183627,0.0002669839062839443,0.3265730142593384,-1.150127725010254,1.6648905912982386,-2.08367981533193,-1.5713933149920862,2.3015084266662598,1.401298464324817e-45,0.031610772013664246,0.031217357143759727,-0.06570088118314743,-0.00010480515629751608,-0.00028524751542136073,0.038307227194309235,0.0,-9.27034854888916,0.6993717551231384,47.68061828613281,-0.45733973383903503,-3.4321513175964355,-1.7916111946105957,-0.7870520353317261,-0.027101391926407814,-0.19922640919685364,24.3125,25.125,24.1875,26.4375,27.0,27.4375
1.0,-0.17743386363761304,-0.31092335356610207,0.04641964000555667,-0.005825614741880804,0.016047235628385118,-0.057692811278375965,-0.5386380510101233,-0.3244153958089525,0.058191797611842594,-3.078590430652981,0.6246159550394407,-0.0002809116736679878,-0.0024796528180273964,-0.000826961054238794,-0.026550441845055322,-0.002706066726328012,0.007989672351251118,0.0002521025549223547,0.3265969753265381,-1.15009160459552,1.6648905912982386,-2.08382572750234,-1.571357552205221,2.3014845848083496,0.0,0.032043833285570145,0.03192203491926193,-0.07240115851163864,-0.00010280979768140242,-0.0002729725674726069,0.05746084079146385,0.038307227194309235,-9.327810287475586,0.7329410910606384,47.6734504699707,-0.49390625953674316,-3.344604730606079,-1.8048319816589355,-0.7455256581306458,-0.04447846859693527,-0.2015191912651062,24.3125,25.125,24.1875,26.4375,27.0,27.4375
1.0,-0.43541782282353836,-0.28870698751341506,0.11779612537798373,-0.013419930985898422,0.006706779710266721,-0.060560412581450375,-0.5386486221337922,-0.32439969731186363,0.058137921828307404,-3.078583470715624,0.6246912179805735,-0.00022236711718070257,-0.0024701575977652095,-0.0008245643938572317,-0.027210421285016814,-0.0027572935856563473,0.008128908826229075,0.0002402378607071818,0.3265730142593384,-1.150043473844864,1.6649864355670374,-2.084005971948141,-1.571369473134176,2.3015084266662598,0.0,0.03272611275315285,0.032873738557100296,-0.07418346405029297,-0.00010088885755976662,-0.00026163875008933246,-0.07661445438861847,0.05746084079146385,-9.308655738830566,0.7620334029197693,47.69673538208008,-0.4773634672164917,-3.4323625564575195,-1.8257761001586914,-0.6797547936439514,-0.037238121032714844,-0.2084750235080719,24.3125,25.125,24.1875,26.4375,27.0,27.4375
1.0,-0.24549988674311063,-0.21310842601210483,0.056588611938596205,-0.021495799418429315,0.00958613197890057,-0.059074139740317944,-0.5386324267614275,-0.32439015305390617,0.05806633403163328,-3.0785716568213877,0.6246508552438943,-0.0003126898351341126,-0.002929374745301437,-0.000981866996481671,-0.027215190023186564,-0.0033765004315035978,0.009936677928686431,0.00022885700234008733,0.32656097412109375,-1.1499715608409424,1.6650703589068812,-2.084102293054098,-1.571357552205221,2.3014726638793945,0.0,0.03278373181819916,0.0333610400557518,-0.07663925737142563,-9.903850150294602e-05,-0.0002512049104552716,0.0,0.1149216815829277,-9.27034854888916,0.7441308498382568,47.66986846923828,-0.48346102237701416,-3.4070358276367188,-1.84186851978302,-0.65772944688797,-0.029028907418251038,-0.20325300097465515,24.3125,25.125,24.1875,26.4375,27.0,27.4375
1.0,0.014696521080489359,0.0889804011487797,0.13291711179005833,-0.022035456909974573,0.006768036997296726,-0.058288781938068725,-0.5386443716439486,-0.3243789755086405,0.05801007806388292,-3.0785543597613767,0.6247237970577167,-0.0002455761839224831,-0.0035614216856014826,-0.001198275126679274,-0.027481872769786718,-0.0041547438774488495,0.012207383764718981,0.00021788188506036274,0.32654905319213867,-1.149911330347397,1.665154759083883,-2.084282537499899,-1.5713813940631312,2.3015084266662598,0.0,0.033277276903390884,0.03410213440656662,-0.08027426898479462,-9.725474228616804e-05,-0.00024157065490726382,0.09576806426048279,0.07661445438861847,-9.251194953918457,0.6837049722671509,47.692256927490234,-0.4855177402496338,-3.3491296768188477,-1.8459498882293701,-0.6090605854988098,-0.03916444629430771,-0.20504510402679443,24.3125,25.125,24.1875,26.4375,27.0,27.4375
1.0,-0.0017673226291143387,0.05587246359343661,-0.06816715900788396,-0.01479173826153677,0.0005305657389273301,-0.0664943298408396,-0.5386385329776049,-0.3243963492155181,0.0579385270949041,-3.078569768289146,0.6246695061345666,-0.00027184546356902415,-0.003786759233530997,-0.0012760479740961765,-0.027888397248050215,-0.004423560975723562,0.012984063770367555,0.0002082934807202554,0.3265730142593384,-1.1498151582530518,1.665215794240133,-2.0844274959959925,-1.571369473134176,2.3014965057373047,0.0,0.033839594572782516,0.034687355160713196,-0.08224368095397949,-9.553411655360833e-05,-0.00023264880292117596,0.038307227194309235,0.17238251864910126,-9.289502143859863,0.7351769208908081,47.66718673706055,-0.5049550533294678,-3.442753791809082,-1.8448853492736816,-0.5735368728637695,-0.04459305852651596,-0.20709970593452454,24.3125,25.125,24.1875,26.4375,27.0,27.4375
1.0,0.06413553098526964,-0.12148645304865335,0.021588178354309245,-0.014140052433261746,-0.0034254955228505005,-0.05830630067477252,-0.538662259710961,-0.32441219875577143,0.057917847221988034,-3.078621498580422,0.6247191101303512,-0.00010941668399860194,-0.004032377801832428,-0.001360615299656475,-0.02809042156528029,-0.004611793281709239,0.013526213188897712,0.00019962433616608962,0.32658493518829346,-1.1497909885695954,1.6652749220477503,-2.084630628625387,-1.571369473134176,2.301532745361328,0.0,0.03432842344045639,0.03471336141228676,-0.08333240449428558,-9.387344471178949e-05,-0.00022436166182160378,0.05746084079146385,0.09576806426048279,-9.308655738830566,0.6993717551231384,47.651058197021484,-0.535001814365387,-3.3628625869750977,-1.8478459119796753,-0.5214688777923584,-0.04785448685288429,-0.20265957713127136,24.3125,25.125,24.1875,26.4375,27.0,27.4375
1.0,0.22191974478194426,-0.2165714698970639,-0.009794111788103516,-0.0070134075260119355,-0.003976549380261982,-0.05607928292089853,-0.5386761313328949,-0.32440138448430084,0.0578266260475869,-3.0786167579528705,0.6246795217349329,-0.0001440754031777259,-0.0031661538226417734,-0.0009533685928709713,-0.029212494783319082,-0.003610205246370307,0.010581312576441938,1.9448282085326432e-05,0.326560914516449,-1.149658815269806,1.665335480366842,-2.0847979984679164,-1.571369473134176,2.3014845848083496,-0.0001731729571474716,0.03519795835018158,0.03578411415219307,-0.08216212689876556,-9.226939437212422e-05,-0.00021664520318154246,0.13407529890537262,0.038307227194309235,-9.327810287475586,0.6792280077934265,47.66628646850586,-0.483093798160553,-3.522308349609375,-1.867072582244873,-0.5089938044548035,-0.04507455974817276,-0.20494073629379272,24.3125,25.125,24.1875,26.4375,27.0,27.4375
1.0,0.7427867476825475,0.7219274016778067,0.18792105945550241,-0.020214138515230465,-9.850057226604581e-05,-0.06836548092524453,-0.5386690243312764,-0.3244030346262314,0.05776711191344866,-3.0786065497156243,0.624677293368888,-0.00013552992014236997,-0.0021783315577179846,-0.0005932831246561707,-0.030229215432119684,-0.002513879369300846,0.007358877434856344,4.337868881699536e-06,0.3265729546546936,-1.1495986145785828,1.6654189268695276,-2.0849410496153773,-1.5713813940631312,2.3014965057373047,-0.00020990871416870505,0.03592101112008095,0.03668283298611641,-0.08038008213043213,-9.071915701497346e-05,-0.0002373417082708329,0.019153613597154617,0.17238251864910126,-9.346963882446289,0.7038487195968628,47.64299774169922,-0.5256880521774292,-3.4334962368011475,-1.9401580095291138,-0.5076720118522644,-0.027673281729221344,-0.20650829374790192,24.3125,25.125,24.1875,26.4375,27.0,27.4375
1.0,0.7988953809874214,0.2581221545644681,0.17445621388137966,-0.0005299531869669906,-0.010657368310100276,-0.05902523853817447,-0.5386931906519308,-0.3244032623122853,0.05772569944709319,-3.0786482909957704,0.6247824726319938,-4.4063390819458665e-05,-0.0007378190369237016,-7.894759275584751e-05,-0.031364384711288947,-0.000844182171729947,0.0024918240349379,-3.064940230887374e-05,0.3265489637851715,-1.149550424223282,1.6654914061175745,-2.0851432285704554,-1.571357552205221,2.301532745361328,-0.00024079029390122741,0.036669351160526276,0.037381891161203384,-0.07668197154998779,-0.00010025894152931869,-0.00023152817448135465,0.09576806426048279,0.2106897532939911,-9.308656692504883,0.7508436441421509,47.65911865234375,-0.48784106969833374,-3.447492837905884,-1.9159984588623047,-0.5314390063285828,-0.030466172844171524,-0.1960781216621399,24.3125,25.125,24.1875,26.4375,27.0,27.4375
1.0,0.7373491942384429,0.30884104019893094,0.265727988204718,0.010069812803630876,-0.024770392481668325,-0.0570659023028097,-0.5386873861358554,-0.32440510336075373,0.05762430199990437,-3.078653454918343,0.6246873128722517,-0.00011943138629668099,-0.0008731977821681553,-0.00010893884980236631,-0.031136670920553496,-0.0004871306865922376,0.0014482937649282414,-6.10744329988012e-05,0.3265489637851715,-1.1494181019118805,1.66557485262026,-2.0853105984129847,-1.571345631276266,2.3014726638793945,-0.00026497867656871676,0.03724526986479759,0.035526491701602936,-0.07429955899715424,-0.00010214835492661223,-0.0002244294446427375,0.09576806426048279,0.19153612852096558,-9.21288776397705,0.6277561187744141,47.681514739990234,-0.47453051805496216,-3.521480083465576,-1.8205797672271729,-0.5348495841026306,-0.01494978554546833,-0.20486553013324738,24.3125,25.125,24.1875,26.4375,27.0,27.4375
1.0,0.8577897497281436,0.889932813578308,0.261780513528176,0.00234317735260343,-0.02536051872890362,-0.07122120709938888,-0.5386997081704891,-0.32442109977241806,0.057624338255435115,-3.078688033554647,0.6246750782324966,2.1373408706442085e-06,0.0003260050272925346,0.000295553316213103,-0.031838645942357996,0.0004892697909273942,-0.0014149698186718101,-6.0478929629484e-05,0.3265729248523712,-1.1494182807258149,1.6655991713153284,-2.085417409936422,-1.571357552205221,2.3014845848083496,-0.00025842260220088065,0.03697623312473297,0.037107765674591064,-0.07258663326501846,-0.00010074446618091315,-0.00021765213750768453,0.15322890877723694,0.05746084079146385,-9.155426979064941,0.7508436441421509,47.661808013916016,-0.49499452114105225,-3.487525224685669,-1.8555017709732056,-0.5820094347000122,-0.04006466269493103,-0.20601847767829895,24.3125,25.125,24.1875,26.4375,27.0,27.4375
1.0,0.41730435092538815,0.19892727793426915,0.3860882968592613,0.008665435739644792,-0.02624847695753751,-0.05089506144648194,-0.5386765592800677,-0.3243941203454312,0.05751107481507922,-3.0786085883285677,0.6246973188868349,-8.470595710870328e-05,0.0009215800502235391,0.0005115554418525852,-0.03280198895344846,0.0013530402761491387,-0.003959095381354683,-8.729894644637321e-05,0.3265608847141266,-1.1493100684932251,1.6657431761371058,-2.0855847797789515,-1.5713933149920862,2.3014965057373047,-0.0002795739274006337,0.038150541484355927,0.03738143667578697,-0.07134786248207092,-9.917351417243481e-05,-0.00021126537467353046,0.24899697303771973,0.0,-9.155426979064941,0.6792280077934265,47.64479064941406,-0.48695552349090576,-3.44958758354187,-1.8988840579986572,-0.5853579640388489,-0.03962438553571701,-0.19498416781425476,24.3125,25.125,24.1875,26.4375,27.0,27.4375
1.0,0.7299067172217844,0.38486129220387544,0.44327899585994507,-0.007173198185937449,-0.014858430305343073,-0.062039068589033644,-0.5386868494295963,-0.3244054739911181,0.05747081999746115,-3.078629332244946,0.6246823008469988,-3.859818402551387e-05,0.001458471974054168,0.0006891443973312037,-0.03442006023072259,0.002372227171563606,-0.006966535800607582,-8.60859143849933e-05,0.3265729248523712,-1.1492492717555542,1.6657794157611292,-2.0857159099974574,-1.5713933149920862,2.3014965057373047,-0.0002729502448346466,0.040469471365213394,0.037699755281209946,-0.07080966979265213,-9.763745765667409e-05,-0.00020524272986222059,0.2298433631658554,0.07661445438861847,-9.155426979064941,0.6881819367408752,47.660911560058594,-0.5195556879043579,-3.576181173324585,-1.8093440532684326,-0.6180051565170288,-0.041595518589019775,-0.20856046676635742,24.3125,25.125,24.1875,26.4375,27.0,27.4375
1.0,0.6106239130285877,0.2423028799162326,0.48439651200468814,-0.002631153906494662,-0.01581250187214358,-0.059824173736370626,-0.5386792923921552,-0.32439879093434926,0.057416284137908336,-3.0786219455286425,0.6247385802039493,-6.546560343625524e-05,0.0015693375572649396,0.0009682906910434446,-0.03349955617031928,0.0024870122791471245,-0.007301541577814788,-0.00046875395771095603,0.32656076550483704,-1.1490819317153473,1.6659348646747034,-2.085978170434469,-1.571357552205221,2.3014845848083496,-0.0006452401867136359,0.039091747254133224,0.03698339685797691,-0.06836146116256714,-9.470219083596021e-05,-0.0001941715891007334,0.19153612852096558,0.09576806426048279,-8.983044624328613,0.6546126008033752,47.64836883544922,-0.5334111452102661,-3.392559051513672,-1.7920417785644531,-0.6827067136764526,-0.010986601933836937,-0.19079555571079254,24.3125,25.125,24.1875,26.4375,27.0,27.4375
1.0,0.5063170207373001,0.13408462968144552,0.38405347730006645,0.010281528730643946,-0.03105773185121027,-0.05877020106761371,-0.5386769409516005,-0.3243862477929014,0.05727636877788361,-3.078604672234997,0.6247545476647195,-0.0001408243593365481,0.0019106733003920304,0.0010968826979716655,-0.03398446332636917,0.0030347647313517393,-0.008916087761152087,-0.0004931089174490769,0.32653677463531494,-1.1490336817554017,1.6660063902484339,-2.08609737972402,-1.571369473134176,2.3015084266662598,-0.0006650459254160523,0.039762306958436966,0.0368981808423996,-0.06724187731742859,-9.329965541837737e-05,-0.00018907242338173091,0.28730422258377075,0.09576806426048279,-8.983044624328613,0.6881819367408752,47.62240219116211,-0.5542640686035156,-3.5522074699401855,-1.7172420024871826,-0.6964904069900513,-0.029631976038217545,-0.19854643940925598,24.3125,25.125,24.1875,26.4375,27.0,27.4375
1.0,1.1069400483288303,0.38060498990505104,0.580878698354919,0.006764601963139261,-0.02067506265467034,-0.05677748413221457,-0.5386615804245141,-0.3243774263364897,0.05718212760558433,-3.0785634795240515,0.6247077148372284,-0.00016228520065078448,0.0026439323193188325,0.0013112577892744775,-0.035166416879374704,0.0035545174358391184,-0.010448373568150636,-0.0004441017446113234,0.32654884457588196,-1.1489376288703461,1.6661270300494593,-2.0862771473326625,-1.5714057127581995,2.3014965057373047,-0.0006110828835517168,0.040412288159132004,0.03891660273075104,-0.06829225271940231,-9.193813457386568e-05,-0.00018423408619128168,0.2106897532939911,0.05746084079146385,-9.040505409240723,0.7329410910606384,47.651058197021484,-0.5236820578575134,-3.4337782859802246,-1.7869222164154053,-0.7183611392974854,-0.0421266183257103,-0.18665027618408203,24.3125,25.125,24.1875,26.4375,27.0,27.4375
1.0,0.3877107648259381,0.32915794233061574,0.49303579285031174,-0.005541919419880146,-0.029533611885502346,-0.054197915160311236,-0.5386585212862836,-0.32439940406682194,0.057125361153861604,-3.0786018868362808,0.624696519267238,-0.00021765394489009157,0.0032160951526320927,0.0014706211466321165,-0.03607539135938063,0.00452820793209492,-0.01331445465631018,-0.0003937997037060287,0.3265607953071594,-1.148853139286377,1.6661623159991663,-2.086384435693258,-1.571357552205221,2.3014965057373047,-0.0005571624496951699,0.04178905859589577,0.03862140327692032,-0.06634685397148132,-9.061572927748784e-05,-0.00017963741265702993,0.09576806426048279,0.038307227194309235,-8.944737434387207,0.7172743082046509,47.64299774169922,-0.5352218151092529,-3.503582239151001,-1.8448543548583984,-0.7702730298042297,-0.03542444482445717,-0.2003287672996521,24.3125,25.125,24.1875,26.4375,27.0,27.4375
1.0,0.3737571775859799,0.3947764358280955,0.5348267624226253,-0.009556408984019523,-0.02777458010905523,-0.06498986146390572,-0.5386597141889478,-0.3243804974808972,0.05705417953968889,-3.0785556398444074,0.6247836747836294,-0.0002563888075417043,0.003187537715456303,0.0014744309913564497,-0.036534244198970015,0.0046117944760828205,-0.013550354106989914,-0.000417310375047856,0.32653680443763733,-1.1487690669349213,1.6662338415728968,-2.0865045986571253,-1.571369473134176,2.301532745361328,-0.0005761694046668708,0.042509522289037704,0.038810063153505325,-0.0670057162642479,-9.561829210724682e-05,-0.0001752643584040925,0.05746084079146385,0.07661445438861847,-8.96389102935791,0.7463666796684265,47.69673538208008,-0.5328192710876465,-3.571363925933838,-1.7991206645965576,-0.8186461925506592,-0.04760700464248657,-0.1972421258687973,24.3125,25.125,24.1875,26.4375,27.0,27.4375
1.0,0.6574377336271514,0.35601275404041133,0.5235920948125818,-0.018282533127418284,-0.011764550242916776,-0.06379726093436895,-0.5386375990504793,-0.3243847956383256,0.056973794553904805,-3.0785453950863926,0.6246659743098403,-0.0003098002102624752,0.0021035960969689642,0.0010837789646548216,-0.0352617702906931,0.0029671292808214726,-0.00870501565091184,-0.0003879779746959498,0.3265607953071594,-1.1486856204322358,1.6663301626788538,-2.086638113061422,-1.5713813940631312,2.3014845848083496,-0.0005409111035987735,0.040860068053007126,0.03906751796603203,-0.07073056697845459,-0.00010024238144978881,-0.0001710991928121075,0.07661445438861847,0.13407528400421143,-9.078812599182129,0.6881819367408752,47.70390319824219,-0.5229511260986328,-3.4463999271392822,-1.7646746635437012,-0.8186458945274353,-0.03606896474957466,-0.1911381483078003,24.3125,25.125,24.1875,26.4375,27.0,27.4375
1.0,0.4842948361683671,-0.14787060154389894,0.546956442152269,-0.024942859820859718,0.0038759531669718354,-0.06576356506723419,-0.5386292271564208,-0.3243935564733627,0.05691120615185663,-3.0785497755897255,0.6246667577501241,-0.0003354960911883009,0.0016885346665489367,0.0009173681660930577,-0.03508258888536351,0.0025225201413553375,-0.00740560804574245,-0.0003547741476506031,0.32657283544540405,-1.1486136776259919,1.6664016882525843,-2.0867697201170863,-1.571369473134176,2.3014965057373047,-0.0005032087210565805,0.0409037284553051,0.0388803668320179,-0.0719604417681694,-9.924943879013881e-05,-0.00016712740762159228,0.19153612852096558,0.2298433631658554,-9.078812599182129,0.7553206086158752,47.67882537841797,-0.5480284094810486,-3.4059274196624756,-1.7681818008422852,-0.821158230304718,-0.03645850718021393,-0.20233163237571716,24.3125,25.125,24.1875,26.4375,27.0,27.4375
1.0,-0.20951160655951506,-0.4243899871196667,0.5310371374894147,-0.023250429963742353,-0.002045000320366949,-0.06261645599723871,-0.538592944531647,-0.32439300975017166,0.05680453824633161,-3.0785032667357406,0.6245998096372855,-0.0004573921049925007,0.0017624724139161411,0.0009475419640322574,-0.03663166692934557,0.00274036670024877,-0.008062829697127754,-0.0003686428301690188,0.32659679651260376,-1.1485050183585663,1.6665223280536097,-2.0869022808470667,-1.5713813940631312,2.3014845848083496,-0.0005126614705659449,0.04291195049881935,0.04019676521420479,-0.0745927020907402,-9.792502532945946e-05,-0.0001633359061088413,0.13407528400421143,0.17238251864910126,-9.097966194152832,0.7038487195968628,47.63762283325195,-0.5682865381240845,-3.5240983963012695,-1.8037776947021484,-0.8359813690185547,-0.03693881630897522,-0.19296738505363464,24.3125,25.125,24.1875,26.4375,27.0,27.4375
1.0,-0.25854278023630584,-0.6656112741542083,0.23637662769294407,-0.02097501792420853,0.00783147732166064,-0.04964043016482366,-0.5386429004016667,-0.3243865207391075,0.05677945428074482,-3.07855341662827,0.6247060148813147,-0.00034337486091488823,0.0003848305583163679,0.0004465659215026365,-0.03627099111412316,0.0011991331739298011,-0.0035548149998900777,-0.0003275768684069969,0.32654890418052673,-1.148444877271988,1.6665337721454065,-2.087072034875387,-1.571357552205221,2.3014965057373047,-0.000465938588604331,0.04314292222261429,0.04018138721585274,-0.07957249134778976,-9.661267540650442e-05,-0.00015971246466506273,0.07661445438861847,0.19153612852096558,-9.155426979064941,0.6478998064994812,47.694053649902344,-0.5505569577217102,-3.5388050079345703,-1.7839627265930176,-0.8214616179466248,-0.041795723140239716,-0.20155897736549377,24.3125,25.125,24.1875,26.4375,27.0,27.4375
1.0,-0.526207664060347,-0.5072126269985477,0.30018002235152197,-0.03763597707367042,0.011971707012099337,-0.062334509786473265,-0.5386123720889054,-0.32436859159369735,0.05667216742721651,-3.0784729233380452,0.6247278924245435,-0.0004701762568616035,-0.00046428498447273356,0.00018044669786387868,-0.036378296008803934,2.5521317349824972e-05,-0.00012243465670409612,-0.0003701422472242533,0.32654887437820435,-1.1483370524695893,1.666654411946432,-2.0871931515135707,-1.5713813940631312,2.301520347595215,-0.0005031515611335635,0.043294865638017654,0.041332680732011795,-0.08450321108102798,-9.533351840218529e-05,-0.0001562466350151226,0.07661445438861847,0.19153612852096558,-9.251194953918457,0.7329410910606384,47.679718017578125,-0.5357793569564819,-3.49208402633667,-1.823138952255249,-0.7998383045196533,-0.0518622025847435,-0.19319170713424683,24.3125,25.125,24.1875,26.4375,27.0,27.4375
1.0,-0.6663124161073832,-0.8197236668964045,0.22767060559736796,-0.032708942730893885,0.02126783126785748,-0.05703534471161774,-0.5386112016411078,-0.3243795491884861,0.05660479665406337,-3.0785305074326055,0.6247206417410015,-0.0004342894296599329,-0.0012341934629014138,-0.00010883944994873508,-0.0366135362029265,-0.000883613805956982,0.002532334569672539,-0.00033501838103650673,0.32654890418052673,-1.1482768219760437,1.6667750517474573,-2.08742155651235,-1.571345631276266,2.3015084266662598,-0.00046319805551320314,0.04388509318232536,0.041957348585128784,-0.0885242223739624,-9.408775804331526e-05,-0.00015292772150132805,0.019153613597154617,0.2298433631658554,-9.308655738830566,0.7172743082046509,47.674346923828125,-0.5868080258369446,-3.524714946746826,-1.8773984909057617,-0.7682991027832031,-0.03818029165267944,-0.20318254828453064,24.3125,25.125,24.1875,26.4375,27.0,27.4375
1.0,-0.20401391318751277,-0.2863282976125417,0.21050930238019797,-0.04631645161487337,0.02889682613124717,-0.06536026838918077,-0.5386400043462034,-0.3243702802884617,0.05652581085969435,-3.0784960025717263,0.6247719440363176,-0.00038745126232215486,-0.0024857793234012884,-0.0005161291137392074,-0.03693756241076687,-0.0022733886769317653,0.006592727997838576,-0.0003720279089842125,0.3265368342399597,-1.1481446784785767,1.6668112913714808,-2.0876037083067835,-1.5713813940631312,2.301532745361328,-0.0004947612178511918,0.04483313485980034,0.04273218661546707,-0.09453875571489334,-9.287416469305754e-05,-0.00014974703663028777,-0.019153613597154617,0.2298433631658554,-9.346963882446289,0.7978386282920837,47.686885833740234,-0.596441924571991,-3.5427792072296143,-1.817121982574463,-0.7008428573608398,-0.04273290932178497,-0.1737886667251587,24.3125,25.125,24.1875,26.4375,27.0,27.4375
1.0,-0.9031377059000317,-0.9630312790925933,0.08800712257259476,-0.02717842887842567,0.015314943915665753,-0.04422236098541061,-0.5386280172868849,-0.3244011266103069,0.05646285757574376,-3.078544632246993,0.6246470037210913,-0.0003638577524710421,-0.002791018001042118,-0.0006425291294502775,-0.03690308705333661,-0.0028337574734898746,0.00823062581786375,-0.000342458687336958,0.3265847861766815,-1.1480728548816224,1.6668947378741663,-2.087783475915426,-1.571369473134176,2.3014965057373047,-0.0004612455959431827,0.0446290597319603,0.04344974830746651,-0.096783347427845,-9.169139957521111e-05,-0.0001466958929086104,-0.038307227194309235,0.2298433631658554,-9.366117477416992,0.7351769208908081,47.687782287597656,-0.6345558762550354,-3.5617265701293945,-1.9204767942428589,-0.6507651209831238,-0.027410559356212616,-0.18352161347866058,24.3125,25.125,24.1875,26.4375,27.0,27.4375
1.0,-0.44075474296554307,-0.4973305930678723,0.053821265567554365,-0.028081755231458047,0.023663348836840258,-0.06518621739384096,-0.5386094615547354,-0.3243754863752465,0.05636498542706303,-3.0785062342606415,0.6246394780386251,-0.00043255353454890456,-0.004133128947620154,-0.0010864835610995083,-0.037063454965143974,-0.004232063265986113,0.012316606682628534,-0.0003701156387000766,0.3265607953071594,-1.147989110355713,1.6670387426959437,-2.0879537067809046,-1.5713813940631312,2.3014726638793945,-0.00048384585534222424,0.04558001458644867,0.04375264048576355,-0.10235581547021866,-9.0538349468261e-05,-0.00014376669423654675,-0.019153613597154617,0.2298433631658554,-9.366117477416992,0.7553206086158752,47.67882537841797,-0.5867109894752502,-3.5666027069091797,-1.9005203247070312,-0.6091793775558472,-0.04314296692609787,-0.17613646388053894,24.3125,25.125,24.1875,26.4375,27.0,27.4375
1.0,-0.3790607890991984,-0.804697728370543,-0.23131810363154923,-0.008814560464670633,0.01146010688909227,-0.057024959618789645,-0.5386223931201313,-0.3243762010263582,0.056269460702236845,-3.0784943680605634,0.6246753032103621,-0.0004085868678498125,-0.004254649968590864,-0.001152397726625549,-0.03753363749100598,-0.004309583995572323,0.012454654635991718,-0.00034922970954872604,0.3265608251094818,-1.1478569370559235,1.6671226660357874,-2.0881806812682093,-1.5713933149920862,2.3014965057373047,-0.0004597336519509554,0.04635756462812424,0.04400791972875595,-0.10354436933994293,-6.367573223542422e-05,-0.0001409521501045674,-0.07661445438861847,0.1149216815829277,-9.385271072387695,0.7396538853645325,47.699424743652344,-0.6089044809341431,-3.5622668266296387,-1.8503732681274414,-0.5406924486160278,-0.03424173966050148,-0.19174689054489136,24.3125,25.125,24.1875,26.4375,27.0,27.4375
1.0,-0.5405408951023012,-0.13604517090894064,-0.13243962934986203,-0.014566872941097576,0.00048675082986970094,-0.052353368281560245,-0.5386256215433662,-0.32437734307305705,0.056188294860051585,-3.0784962915949796,0.6246948928977962,-0.00039383008416883007,-0.004004277773696251,-0.0010863311358008797,-0.03773804577170183,-0.003914364731133606,0.01128089212484099,-0.0003239416065611189,0.3265608251094818,-1.147760198717453,1.667218033467428,-2.088383813897604,-1.5713933149920862,2.3015084266662598,-0.00043222380918450654,0.046706877648830414,0.04372295364737511,-0.10237021744251251,-5.9287027397658676e-05,-0.00013824568304698914,0.019153613597154617,0.17238251864910126,-9.404424667358398,0.6904177665710449,47.705692291259766,-0.6158338785171509,-3.53701114654541,-1.8621851205825806,-0.5566677451133728,-0.041304148733615875,-0.18529459834098816,24.3125,25.125,24.1875,26.4375,27.0,27.4375
1.0,-0.10217990053261007,0.5700322132289408,0.19832532465799443,-0.017062631972211,-0.0021217603624652673,-0.051238246407418316,-0.5386299784159675,-0.3243711301135413,0.05610330557740714,-3.07850565063041,0.6246777876620281,-0.0003791257537626741,-0.002884148523018289,-0.000693322470390625,-0.03874977668239421,-0.0027423892237491455,0.007840226754175632,-0.00034301474114927096,0.32654890418052673,-1.1476648610881348,1.6673267523394983,-2.0885988674559535,-1.5713933149920862,2.3014845848083496,-0.0004497147165238857,0.04727902263402939,0.044772371649742126,-0.10035698860883713,-5.828729263157584e-05,-0.0001356411521555856,0.07661445438861847,0.13407529890537262,-9.461885452270508,0.7329410910606384,47.6707649230957,-0.647217333316803,-3.6002635955810547,-1.8947161436080933,-0.5382578372955322,-0.0314662866294384,-0.18730251491069794,24.3125,25.125,24.1875,26.4375,27.0,27.4375
1.0,0.303242812165963,0.5403958854513856,-0.03321667506118737,0.02005775040857439,-0.02352499186818844,-0.05069150199589163,-0.5386633410948504,-0.3243903313713801,0.055968944200073256,-3.0785556939181693,0.6246690541308781,-0.00025360262668074193,-0.0016713610397654823,-0.0002695671857912886,-0.03907219083048848,-0.000833628068254281,0.0022395538457586576,-0.0003614331180241164,0.3265608251094818,-1.1474725765040894,1.6674578825580042,-2.089015146295065,-1.5713933149920862,2.3014845848083496,-0.00046600171481259167,0.047987282276153564,0.04292444512248039,-0.09330032020807266,-5.679989772033878e-05,-0.00013071602734271437,0.15322890877723694,-0.019153613597154617,-9.289502143859863,0.7150384783744812,47.6627082824707,-0.6017698049545288,-3.617623805999756,-1.746584177017212,-0.610446572303772,-0.04447322338819504,-0.18267402052879333,24.3125,25.125,24.1875,26.4375,27.0,27.4375
1.0,0.8410427204374986,1.2494480599678353,0.1386803848173957,0.01602194960462828,-0.020342760790433498,-0.06618013835069221,-0.5386682802409365,-0.3243915754314977,0.05589096269163918,-3.078588094458174,0.6247142327004935,-0.00029331444329428786,-0.00048359543308538306,0.00014329804090205066,-0.04033306721893474,0.0005687818534735054,-0.0018793359369303642,-0.0003751778890259005,0.3265368640422821,-1.1473764938167115,1.6675413290606897,-2.0891934833922328,-1.571345631276266,2.3014845848083496,-0.00047868513502180576,0.04906352236866951,0.04373236000537872,-0.09083337336778641,-5.6091852457029745e-05,-0.0001283852179767564,0.15322890877723694,-0.038307227194309235,-9.308656692504883,0.7597975730895996,47.68061828613281,-0.6433314085006714,-3.680510997772217,-1.6707559823989868,-0.6454154253005981,-0.04134714603424072,-0.1807263195514679,24.3125,25.125,24.1875,26.4375,27.0,27.4375
1.0,0.7857685780177863,1.14823646718435,0.005537022856361377,0.018476105123447446,-0.022309984652848044,-0.05439424164773072,-0.5386695341849126,-0.3243960958617422,0.05580674033399036,-3.078585369018748,0.6246753314020868,-0.0002850259677421947,0.00045685054214190664,0.00045568456010234106,-0.04093238092867586,0.0014944189050662012,-0.004594245077920754,-0.0003639155479837577,0.32654890418052673,-1.1472684902003785,1.6676252524005335,-2.089384695092672,-1.571357552205221,2.3014726638793945,-0.0004660913546103984,0.04918057844042778,0.044481176882982254,-0.08883088082075119,-5.540129859582521e-05,-0.00012613597209565341,0.1149216815829277,-0.1149216815829277,-9.27034854888916,0.6434228420257568,47.67882537841797,-0.6153554320335388,-3.655367851257324,-1.782418966293335,-0.6739957332611084,-0.04281723499298096,-0.20015949010849,24.3125,25.125,24.1875,26.4375,27.0,27.4375
1.0,0.6556267467858369,0.9979009655161101,0.08048806309013178,0.013774123222759203,-0.017453354582799178,-0.05708751496686424,-0.5386673154236145,-0.32439933467093507,0.05572132258165205,-3.078561595209914,0.6247088094273192,-0.0002934548270874379,0.001209957659031973,0.0007304305301433458,-0.041194344654426895,0.002226808507177376,-0.0067402818964447985,-0.0003928651380590136,0.3265607953071594,-1.1471605461886902,1.6677091757403772,-2.0895635090269984,-1.571369473134176,2.3015084266662598,-0.0004937227349728346,0.048980437219142914,0.04489448294043541,-0.0867764800786972,-5.472750126500614e-05,-0.00012396428792271763,0.13407529890537262,-0.15322890877723694,-9.346963882446289,0.7687462568283081,47.65911865234375,-0.6606141328811646,-3.6201863288879395,-1.7280927896499634,-0.7199448347091675,-0.03785458207130432,-0.19327953457832336,24.3125,25.125,24.1875,26.4375,27.0,27.4375
1.0,0.31198570891979993,0.482092751613472,0.11696705516841863,0.019513339506612985,-0.022400992810100707,-0.05263621254277721,-0.5386570482027324,-0.32438435135069577,0.05561676553781014,-3.078517866978729,0.6247191106834685,-0.00036689387019382084,0.0018901208662810646,0.0010456284325368987,-0.04178275665432186,0.0032010180273147866,-0.009601280736445493,-0.0005225877549783894,0.32654884457588196,-1.1470404428294678,1.6678169409381312,-2.0897304020323695,-1.5713813940631312,2.3015084266662598,-0.0006224638200365007,0.04962978884577751,0.044762928038835526,-0.08427195996046066,-5.406995114753954e-05,-0.00012186599633423612,0.13407529890537262,-0.2106897532939911,-9.251194953918457,0.7620334029197693,47.66449737548828,-0.6483428478240967,-3.622469663619995,-1.7275240421295166,-0.7845990657806396,-0.05970154330134392,-0.20113274455070496,24.3125,25.125,24.1875,26.4375,27.0,27.4375
1.0,0.3479732274621825,1.0886209369152138,0.16500452773274513,0.011298423007754677,-0.02601102709921637,-0.05571799852318744,-0.5386594969786171,-0.32438114922199845,0.05555525103885711,-3.0785390486955087,0.6246664284183138,-0.0003769735687189253,0.0012972027098960223,0.0009144080089206985,-0.041228544722333615,0.002808249452698788,-0.008452132996499743,-0.0006344469863965979,0.32653677463531494,-1.146968589430191,1.6678889433490198,-2.0898739300169886,-1.571369473134176,2.3014607429504395,-0.0007321582525037229,0.04959431663155556,0.043546583503484726,-0.0842345580458641,-5.3427971579367295e-05,-0.00011983756121480837,0.19153612852096558,-0.24899697303771973,-9.308656692504883,0.7306999564170837,47.694053649902344,-0.5477803945541382,-3.585364818572998,-1.6439948081970215,-0.8187640905380249,-0.059315260499715805,-0.19717808067798615,24.3125,25.125,24.1875,26.4375,27.0,27.4375
1.0,-0.1654335080649021,0.38663623981427314,0.20595454726962883,0.022955173604778466,-0.03132452491157213,-0.056092392471268314,-0.5386467249553335,-0.3243923781401558,0.05546454964532169,-3.0785121090872267,0.624679970308359,-0.0004415189519193812,0.0008252954192480674,0.0008150459600513158,-0.040309794202820416,0.0019907769670768584,-0.006048591176186544,-0.0007316441560006587,0.32656070590019226,-1.1468491417220612,1.6679609457599085,-2.090017934838766,-1.571369473134176,2.3014965057373047,-0.0008266411605291069,0.04822409152984619,0.04366607591509819,-0.08552258461713791,-5.280108598526567e-05,-0.00011787559924414381,0.2106897532939911,-0.13407529890537262,-9.346963882446289,0.7530794739723206,47.6976318359375,-0.6549355983734131,-3.5789999961853027,-1.5551656484603882,-0.8403292894363403,-0.04383515194058418,-0.19119486212730408,24.3125,25.125,24.1875,26.4375,27.0,27.4375
1.0,0.016096284997828683,0.29453065467962725,0.041041965458365,0.00927865059307625,-0.013623943615562835,-0.04863128560435501,-0.5386387211447836,-0.3243665126844007,0.05540065779303546,-3.0784880701194535,0.6246945465806476,-0.0004231901548410734,0.0006443306790930799,0.0009527233826231007,-0.04084778179960727,0.0016825177958592551,-0.0051511342912278065,-0.001042262303037581,0.3265366554260254,-1.146812991505005,1.6680939833270472,-2.09018673519277,-1.5713933149920862,2.3014845848083496,-0.0011344641679897904,0.04857629910111427,0.044999584555625916,-0.08815722167491913,-5.218872684054077e-05,-0.00011597687989706174,0.15322890877723694,-0.05746084079146385,-9.327810287475586,0.7284641265869141,47.7164421081543,-0.6176478862762451,-3.451711654663086,-1.6043727397918701,-0.8667616844177246,-0.040738970041275024,-0.1804577112197876,24.3125,25.125,24.1875,26.4375,27.0,27.4375
1.0,-0.0840919977134253,0.2538825427416009,0.24939257596739417,-0.016766537305182787,0.0032454102411848063,-0.06195382193561177,-0.5386563578678867,-0.32436476347621374,0.0553125962117475,-3.0784818643447354,0.6247317727987292,-0.0004206617249990964,-0.0006165007435105481,0.0006839583579101697,-0.041549464581028914,0.0005596697314263516,-0.0018464012806533015,-0.0012913061983807188,0.32652461528778076,-1.1466805797866364,1.6681531111346644,-2.0903803310790003,-1.5713933149920862,2.3014965057373047,-0.0013796172570437193,0.05024227127432823,0.04556598141789436,-0.09387984871864319,-6.122695776866749e-05,-0.00011413833999540657,0.07661445438861847,-0.019153613597154617,-9.346963882446289,0.7642692923545837,47.72629165649414,-0.6160793900489807,-3.5825939178466797,-1.6417635679244995,-0.8232851028442383,-0.05540250614285469,-0.18063226342201233,24.3125,25.125,24.1875,26.4375,27.0,27.4375
1.0,-0.9132132089181113,-0.6593656081009925,0.06961634583349686,-0.025822149606553116,0.0048215590780759585,-0.0519230868012642,-0.5386363707455033,-0.3243617517707855,0.05522189238364844,-3.07847545394401,0.6247305751009921,-0.0004759264003703485,-0.0017728639661941134,0.0002599928316752671,-0.03928752005090544,-0.00148879598934793,0.004179086646599194,-0.0012479074894988426,0.32652461528778076,-1.1465978187373658,1.6682847181903284,-2.0905610523619593,-1.5713813940631312,2.3014965057373047,-0.0013325674226507545,0.04697386920452118,0.045731838792562485,-0.09714148193597794,-6.116228905739263e-05,-0.00011235723650315776,0.038307227194309235,0.038307227194309235,-9.385271072387695,0.7329410910606384,47.69673538208008,-0.5992614030838013,-3.4308013916015625,-1.609574317932129,-0.8343656063079834,-0.04297947138547897,-0.18179583549499512,24.3125,25.125,24.1875,26.4375,27.0,27.4375
1.0,-0.4767098833421086,-0.6796328033087488,-0.09498171794920712,-0.03888893889244804,0.030439788988364996,-0.05731924172327181,-0.5386274033111772,-0.3243740510893462,0.055138634280330195,-3.0784873121392042,0.624752134420288,-0.0005081125409626481,-0.004072722125201344,-0.0005706459226227142,-0.038820913560968694,-0.00419710719966704,0.012108418284775706,-0.0011832389260617556,0.3265365958213806,-1.1465009313872834,1.668380085621969,-2.090743680993551,-1.571357552205221,2.301520347595215,-0.0012624033261090517,0.04731058329343796,0.046307969838380814,-0.10643342137336731,-6.051793025108054e-05,-0.00011063077545259148,0.07661445438861847,0.17238251864910126,-9.442731857299805,0.7418897151947021,47.69584274291992,-0.5794718861579895,-3.2464540004730225,-1.5694061517715454,-0.7332886457443237,-0.050628095865249634,-0.18417617678642273,24.3125,25.125,24.1875,26.4375,27.0,27.4375
1.0,-1.0350880274544676,-1.0980676906868099,-0.08419363243633653,-0.04573106981177552,0.025798495673735905,-0.05003327744707321,-0.5386444452052752,-0.3243681287547603,0.05504625107355046,-3.078497744075052,0.6247545648440751,-0.0005174957924800463,-0.004880551179138086,-0.00086717706561176,-0.03918704316989627,-0.004982414677496771,0.014400436543101476,-0.00115480076959528,0.3265126347541809,-1.1463695925525208,1.6684530417071741,-2.0909482441344203,-1.571345631276266,2.3014965057373047,-0.00123091961722821,0.04832835868000984,0.046557243913412094,-0.11012328416109085,-5.984990639262833e-05,-0.00010895671584876254,0.038307227194309235,0.2106897532939911,-9.423578262329102,0.7777001857757568,47.67792892456055,-0.6064932942390442,-3.3071491718292236,-1.6155011653900146,-0.719967782497406,-0.05204014480113983,-0.17890121042728424,24.3125,25.125,24.1875,26.4375,27.0,27.4375
1.0,-0.9092358374919942,-1.4530227979290928,-0.16678239317661703,-0.045498294100848796,0.030870486872609685,-0.048383078850387146,-0.5386466044109461,-0.324357690247278,0.054985115877541235,-3.078470901447053,0.6247489284073003,-0.0004046728446293922,-0.005937859710154438,-0.0012113551549930237,-0.03991556982843436,-0.006031346751044264,0.017301253611885257,-0.001210052084969436,0.32652464509010315,-1.146320865755417,1.6685732046710413,-2.0911652050414027,-1.5714057127581995,2.3015084266662598,-0.0012825470184907317,0.04993610456585884,0.04717639088630676,-0.11543438583612442,-8.342872206412721e-06,-0.00010733238741522655,0.0,0.24899697303771973,-9.481039047241211,0.7172743082046509,47.66628646850586,-0.654317319393158,-3.4296131134033203,-1.642762541770935,-0.6649514436721802,-0.05563072860240936,-0.17186540365219116,24.3125,25.125,24.1875,26.4375,27.0,27.4375
1.0,-0.49913537675157504,-0.8085660146391247,-0.19496696804114189,-0.05515808437880908,0.03030107135665429,-0.05456050674226712,-0.538657123691757,-0.32436903028618785,0.05490146918669192,-3.0785223412359937,0.6247595323268748,-0.000340074883564345,-0.006811879970454779,-0.0015213410422511685,-0.03967546077726847,-0.007215208333921731,0.02074647535261373,-0.001198916543015293,0.32652467489242554,-1.1462250810912629,1.668692413960592,-2.0914422474303187,-1.5713813940631312,2.3015084266662598,-0.0012681352673098445,0.04976927116513252,0.04779749736189842,-0.11953160911798477,-5.447298576655157e-07,-0.00010575586202321574,0.0,0.3064578175544739,-9.481039047241211,0.7083203792572021,47.687782287597656,-0.6552897691726685,-3.3577470779418945,-1.5594197511672974,-0.5972342491149902,-0.038623083382844925,-0.1795385181903839,24.3125,25.125,24.1875,26.4375,27.0,27.4375
1.0,-0.6501357637182377,-1.4244240875241658,-0.44699622547726114,-0.033271378640951955,0.012522550365838537,-0.04195396128438306,-0.5386690615520793,-0.32438064243449627,0.05483153438445093,-3.0785491205754676,0.6248240726585221,-0.00031003244571448785,-0.0070583511247198395,-0.0015332711956435724,-0.03895174010312583,-0.007823761730755864,0.022537455169301262,-0.001311707365906347,0.32652461528778076,-1.1461297434619446,1.6687644163714808,-2.0916458568968714,-1.571357552205221,2.3015451431274414,-0.001378796761855483,0.048448193818330765,0.04822788015007973,-0.12053246051073074,-3.556696981377172e-08,-0.00010422499326523393,0.038307227194309235,0.3447650372982025,-9.519346237182617,0.7038487195968628,47.66360092163086,-0.6019651293754578,-3.213134765625,-1.595403790473938,-0.5625401139259338,-0.05970728397369385,-0.18542900681495667,24.3125,25.125,24.1875,26.4375,27.0,27.4375
1.0,-0.297459362448023,-0.7622859339951478,-0.399818378693389,-0.03821870777974306,0.008526522182020237,-0.05687266189693209,-0.5387035088144075,-0.3243772134310035,0.05475518425206294,-3.0785612097113986,0.6247294809853887,-0.0001798817589129543,-0.005485212376853307,-0.0010141119949547148,-0.04114063473399381,-0.005830575996589539,0.016680378395139608,-0.0012858818909585372,0.32652461528778076,-1.1460088652423401,1.668825928364889,-2.091896196404928,-1.5714057127581995,2.3014845848083496,-0.0013530994765460491,0.05072920396924019,0.04940546676516533,-0.11780412495136261,-2.3222690437307847e-09,-0.00010273778752889484,0.019153613597154617,0.28730422258377075,-9.500192642211914,0.6993717551231384,47.6734504699707,-0.6715540885925293,-3.281985282897949,-1.671847939491272,-0.5430562496185303,-0.05161245912313461,-0.19140782952308655,24.3125,25.125,24.1875,26.4375,27.0,27.4375
1.0,0.6489549193149611,-0.44100863531516143,-0.21203154702736013,-0.031462585166783866,0.011440273297007565,-0.054971234687069846,-0.5387214177793654,-0.3243833016446618,0.0546868133680343,-3.078592958062938,0.6247553120156639,-8.31950231345961e-05,-0.005031296987097889,-0.0006156816391199585,-0.04164910680208499,-0.004784833379415106,0.014214362756279398,-0.0015665544507302521,0.3265245258808136,-1.1459248524955292,1.6689208189593714,-2.0921465359129847,-1.5714057127581995,2.3014965057373047,-0.001633673906326294,0.05145055055618286,0.04903233423829079,-0.1154804602265358,-0.0001947448618011549,-0.00010129236034117639,0.0,0.26815059781074524,-9.500192642211914,0.7172743082046509,47.68419647216797,-0.5890246629714966,-3.334458589553833,-1.6055521965026855,-0.5997195839881897,-0.041039902716875076,-0.1863834112882614,24.3125,25.125,24.1875,26.4375,27.0,27.4375
