Tylouw/Master_Thesis_Code/test_recorded_data/real_test7/insertion_5_2026-02-24_18-55-15.csv
timestamp[s],tcp_force_x[N],tcp_force_y[N],tcp_force_z[N],tcp_force_rx[Nm?],tcp_force_ry[Nm?],tcp_force_rz[Nm?],tcp_pose_x[m],tcp_pose_y[m],tcp_pose_z[m],tcp_pose_rx[rot_vec_x],tcp_pose_ry[rot_vec_y],tcp_pose_rz[rot_vec_z],tcp_velo_x[m/s],tcp_velo_y[m/s],tcp_velo_z[m/s],tcp_velo_rx[rot_vec_x/s],tcp_velo_ry[rot_vec_y/s],tcp_velo_rz[rot_vec_z/s],q1[rad],q2[rad],q3[rad],q4[rad],q5[rad],q6[rad],qd1[rad/s],qd2[rad/s],qd3[rad/s],qd4[rad/s],qd5[rad/s],qd6[rad/s],tool_acc_x,tool_acc_y,tool_acc_z,current_of_whole_robot[A],voltage_of_whole_robot[V],current_J1[A],current_J2[A],current_J3[A],current_J4[A],current_J5[A],current_J6[A],temp_J1[C],temp_J2[C],temp_J3[C],temp_J4[C],temp_J5[C],temp_J6[C]
6.6800567e-07,0.46617895,0.3636682,1.2360234,-0.00077153544,0.014676723,-0.029983515,-0.38152108,-0.3495329,0.08491101,-3.078435,0.62487787,-0.00026162894,-0.0012215946,-0.00062372437,0.0003715276,-0.0022992156,0.0041564126,6.979093e-06,0.479166,-1.4235145,1.9549989,-2.1004398,-1.5707935,2.4541326,-9.350468e-05,-7.0378996e-06,0.00030795808,-0.0050497083,0.00011299617,-9.985858e-05,0.11492168,0.095768064,-8.63828,0.67475104,47.71017,-0.12199355,-3.1150756,-2.156415,-0.467177,0.07958156,-0.28499717,28.3125,29.375,28.5625,32.6875,35.25,36.375
0.005052039,1.0215509,1.0264922,1.1962384,0.035884213,-0.009895844,-0.03393229,-0.38151816,-0.3495489,0.08492325,-3.0784945,0.6248516,-0.00018824711,-0.0009586538,-0.0004924235,-0.0018238081,-0.0015806765,0.0027467862,5.3646895e-06,0.47918996,-1.4235494,1.9550246,-2.1005003,-1.5707816,2.4541326,-8.8887326e-05,0.0030088036,0.0027657528,-0.008941232,0.00012152714,-9.362237e-05,0.11492168,-0.076614454,-8.63828,0.7016076,47.70032,-0.14375585,-3.3921366,-2.5120084,-0.3502643,0.07988422,-0.26697206,28.3125,29.375,28.5625,32.6875,35.25,36.375
0.010052054,1.103453,1.9560697,0.36306283,0.049277924,-0.02342614,-0.04225932,-0.3815201,-0.34955135,0.08489859,-3.0784907,0.6248901,-0.00024117745,-0.00066236104,-0.0003376023,0.00024277002,-0.0012372284,0.0021119486,4.0936975e-06,0.47917792,-1.4235026,1.9550351,-2.1005342,-1.5707573,2.454145,-8.6054315e-05,7.0509986e-07,1.2286844e-06,-0.0024468983,0.000118506076,-8.988212e-05,0.11492168,0.038307227,-9.021352,0.70608455,47.658226,-0.3191936,-2.561022,-3.014177,-0.43370217,0.068975754,-0.2951566,28.3125,29.375,28.5625,32.6875,35.25,36.375
0.015052344,-0.7989395,-1.743574,-0.16281424,-0.05728577,0.057154126,-0.04524397,-0.3814832,-0.34953043,0.08485451,-3.0783787,0.6248281,-0.00047814578,-0.0067363977,0.0009119581,-0.0027560077,0.0021019026,-0.0043511074,0.00029806144,0.47917497,-1.4234371,1.9550308,-2.1004012,-1.5707573,2.4541175,-0.007935312,0.015917387,-0.012112767,0.001023829,0.00011293389,-0.008225207,-0.24899697,0.34476504,-9.576807,0.7732232,47.67345,-0.07681474,-2.8968434,-3.1193337,-0.42958087,0.08173689,-0.3237765,28.3125,29.375,28.5625,32.6875,35.25,36.375
0.020052547,-1.2310376,-1.7571274,-0.56616986,-0.07057446,0.098403424,-0.062408976,-0.3815314,-0.34953988,0.08486067,-3.0783954,0.6248666,-0.0004604206,-0.0071623437,-0.0009169528,-0.0017186245,0.0015906759,-0.0034315395,0.0067829196,0.47914016,-1.4233648,1.954934,-2.1004007,-1.5707458,2.4541047,-0.005102389,0.017531935,-0.016784597,0.003028907,0.0001354559,-0.011874985,-0.51714754,0.57460845,-9.710882,0.7396539,47.674347,-0.47326875,-2.6069107,-3.1730258,-0.46508506,0.07586945,-0.27481455,28.3125,29.375,28.5625,32.6875,35.25,36.375
0.02505315,-1.2824723,-1.3455279,-0.7180304,-0.08349476,0.069990695,-0.10160675,-0.38157278,-0.34954053,0.08484006,-3.0783734,0.6248247,-0.0005190657,-0.011032506,-0.0009554267,-0.0013678141,0.0001995286,-0.0009107912,0.004346378,0.47910288,-1.4232429,1.9548367,-2.1003773,-1.5707458,2.454044,-0.008653862,0.022071801,-0.022352923,0.0011787697,0.00019038642,-0.012986171,-0.47884035,0.6895301,-10.055647,0.72622824,47.681515,-0.51345557,-2.701735,-3.3431346,-0.42462334,0.0850991,-0.2762658,28.3125,29.375,28.5625,32.6875,35.25,36.375
0.030052029,-1.1816269,-0.9126701,-0.58543885,-0.041793138,0.060149476,-0.115299314,-0.38161248,-0.34955284,0.08482142,-3.0783908,0.62477285,-0.0005979578,-0.01436619,-0.0012890745,-5.5106793e-05,-0.0018167301,0.001832355,0.0016772165,0.47906592,-1.423122,1.9547385,-2.1003654,-1.5707091,2.4539726,-0.011456683,0.024594503,-0.028236317,0.0011743252,0.00070197607,-0.013117547,-0.5554548,0.3256114,-9.80665,0.784413,47.681515,-0.6423123,-2.5677483,-3.231175,-0.42904246,0.07718851,-0.3068526,28.3125,29.375,28.5625,32.6875,35.25,36.375
0.03505253,0.20701733,1.3250017,-0.16819815,0.019091219,0.064813256,-0.15696177,-0.38175774,-0.34957144,0.08485233,-3.0784404,0.62476295,-0.00039007614,-0.018280743,-0.001729468,0.0005344988,-0.0031208324,0.003632962,0.0014047816,0.4789928,-1.4229523,1.9544848,-2.1004136,-1.5707568,2.4538872,-0.014485725,0.029830376,-0.035538547,0.001039543,0.0010141039,-0.015870163,-0.30645782,0.038307227,-9.691729,0.80456203,47.694054,-0.58911467,-2.5538592,-3.1234052,-0.38276818,0.08948845,-0.30919555,28.3125,29.375,28.5625,32.6875,35.25,36.375
0.040052004,-0.3787704,0.6324098,-0.14931726,0.031041875,0.034959856,-0.16629443,-0.3818287,-0.34957278,0.084842876,-3.0784414,0.62485963,-0.0004407595,-0.020899205,-0.0020560022,0.001648462,-0.004603205,0.0059637884,-4.4930915e-05,0.478908,-1.4228194,1.9543518,-2.1004012,-1.570721,2.4538627,-0.016466169,0.03177803,-0.040335428,0.0011368217,0.0012454907,-0.016398678,-0.11492168,-0.11492168,-9.615114,0.7866488,47.694054,-0.5510027,-2.5254211,-3.0695524,-0.35233113,0.08510703,-0.30202633,28.3125,29.375,28.5625,32.6875,35.25,36.375
0.045052145,0.22127831,0.39345035,-0.21530819,0.011675503,0.04767346,-0.17027913,-0.3819497,-0.3496035,0.08487136,-3.0784774,0.6247711,-0.00031867975,-0.022483181,-0.002094954,0.0026139328,-0.003975308,0.005585766,-0.0008265682,0.47887173,-1.4226385,1.9540743,-2.100376,-1.5707568,2.4537668,-0.01762971,0.033637725,-0.045584735,0.005152065,0.00086164783,-0.01677766,-0.1340753,-0.019153614,-9.5385,0.7933669,47.716442,-0.551734,-2.4725027,-3.0905738,-0.35613507,0.09461357,-0.28323707,28.3125,29.375,28.5625,32.6875,35.25,36.375
0.050052453,-0.26397926,-0.5004209,-0.42287886,-0.0048417165,0.034711808,-0.15119384,-0.3820576,-0.3495864,0.08487964,-3.078472,0.6249235,-0.00033036663,-0.02365809,-0.002000258,0.0010215235,-0.0026148984,0.003006984,0.00028304546,0.47872725,-1.4225045,1.953894,-2.1003397,-1.570733,2.4537182,-0.01886405,0.03904473,-0.048145983,0.005222192,0.0008370062,-0.01911945,-0.095768064,0.22984336,-9.595961,0.78888994,47.692257,-0.5927692,-2.4647768,-3.2248778,-0.34863806,0.084670484,-0.26439872,28.3125,29.375,28.5625,32.6875,35.25,36.375
0.055052653,-0.39598158,-1.4154603,-0.41642264,-0.03765742,0.023123994,-0.14504096,-0.38218594,-0.3496002,0.084881924,-3.078479,0.6249055,-0.0003847312,-0.02542722,-0.0018604412,0.0013131504,-0.0022509506,0.0025871822,-3.9428938e-05,0.4786186,-1.4222634,1.9535941,-2.1002562,-1.5707091,2.4535975,-0.020659909,0.041719202,-0.052349195,0.0072920807,0.0007023696,-0.020590508,-0.11492168,0.51714754,-9.500193,0.683705,47.71465,-0.48129663,-2.292357,-3.3220148,-0.3262695,0.09754628,-0.23628211,28.3125,29.375,28.5625,32.6875,35.25,36.375
0.06005249,-0.09086008,-1.0898471,-0.3563893,-0.029935746,0.030366909,-0.15415844,-0.38230863,-0.34962082,0.08491036,-3.0785098,0.6248729,-0.00021985018,-0.028170967,-0.0027631645,0.0022867306,-0.003459804,0.0049483688,0.000113862865,0.47857037,-1.422106,1.9533519,-2.1002676,-1.5707573,2.4535253,-0.021577634,0.045035962,-0.058386095,0.00735859,0.0006770338,-0.02165791,0.0,0.47884035,-9.461885,0.73069996,47.70211,-0.5805971,-2.2320075,-3.2822976,-0.31037962,0.1085032,-0.23280895,28.3125,29.375,28.5625,32.6875,35.25,36.375
0.065052696,-0.22612447,-1.0977542,0.16336273,-0.027117476,0.024751171,-0.1492761,-0.38249823,-0.3496287,0.084929414,-3.0785294,0.6249725,-0.00017647707,-0.030636005,-0.0034281572,0.0025016342,-0.0051946878,0.004579096,0.0008479593,0.47840154,-1.4218284,1.9529799,-2.1002195,-1.5707449,2.4534163,-0.023681356,0.049349032,-0.06401062,0.00819301,0.002378244,-0.024495343,-0.05746084,0.34476504,-9.308656,0.7732232,47.652847,-0.5243151,-2.1373816,-3.3374834,-0.30957264,0.09429173,-0.20792048,28.3125,29.375,28.5625,32.6875,35.25,36.375
0.070051886,0.07481337,-0.28578362,0.36132556,-0.009343876,0.028342465,-0.14980105,-0.38264152,-0.3496723,0.08496218,-3.0786293,0.62497187,-0.00010853843,-0.032008596,-0.0040902016,0.002621193,-0.005660589,0.0050648474,0.0028402964,0.47831747,-1.4216231,1.9526676,-2.1002076,-1.5706967,2.4533193,-0.023878045,0.05212807,-0.067481175,0.008239376,0.0025634167,-0.026682314,-0.019153614,0.28730422,-9.232041,0.75084364,47.682407,-0.57872725,-2.104473,-3.3629892,-0.29104447,0.102825895,-0.16042915,28.3125,29.375,28.5625,32.6875,35.25,36.375
0.07505203,0.24411091,0.036186133,0.36433232,0.016127344,0.029691173,-0.15800188,-0.38286015,-0.349698,0.08498896,-3.0786986,0.62496763,2.0123638e-05,-0.034473117,-0.0046688127,0.0023497313,-0.0058820057,0.004371437,0.0008489932,0.47816104,-1.421309,1.952247,-2.100207,-1.5706967,2.4531517,-0.0254173,0.05766044,-0.073412016,0.009150218,0.0030723475,-0.026227163,-0.1340753,0.19153614,-9.078813,0.75755644,47.71017,-0.5211528,-1.9780898,-3.4777508,-0.25229496,0.083574675,-0.16676709,28.3125,29.375,28.5625,32.6875,35.25,36.375
0.08005219,0.24215563,0.15045863,0.12584415,0.004984768,0.03579727,-0.1527726,-0.38297606,-0.34972048,0.08499177,-3.078713,0.6250068,-5.992155e-05,-0.03509224,-0.0048226947,0.0016629637,-0.005677123,0.0017308674,0.003211447,0.4780647,-1.4210796,1.951959,-2.1001227,-1.5706481,2.453078,-0.02632241,0.060914997,-0.07597767,0.010897816,0.0041034576,-0.02949498,-0.15322891,0.15322891,-9.251195,0.80456203,47.677036,-0.56904143,-1.9088545,-3.5304465,-0.2564879,0.06865,-0.14494127,28.3125,29.375,28.5625,32.6875,35.25,36.375
0.08505223,-0.6200648,0.11577419,-0.16465235,-0.003032341,0.03614033,-0.1512273,-0.38318646,-0.34975532,0.08498373,-3.0787277,0.62489504,-7.633137e-05,-0.038624093,-0.005734287,0.00306915,-0.006605723,0.0049739904,0.0022772802,0.47793233,-1.4206579,1.9514784,-2.1000507,-1.5706486,2.4528744,-0.027542502,0.064776585,-0.08377759,0.011532354,0.0034211203,-0.029775603,-0.17238252,0.19153613,-9.3661175,0.7866488,47.658226,-0.6865308,-1.9227762,-3.441514,-0.25657922,0.06553249,-0.13431334,28.3125,29.375,28.5625,32.6875,35.25,36.375
0.0900525,-0.079453625,-0.39388,-0.20710099,-0.020471243,0.05775444,-0.16250043,-0.38333958,-0.34978107,0.084996864,-3.0787537,0.6248411,-5.0336377e-05,-0.04003305,-0.006524563,0.002112261,-0.0060543963,0.0030159547,0.0025581024,0.4778363,-1.4203916,1.9511298,-2.0999906,-1.5706481,2.4527416,-0.027673494,0.0705405,-0.08840049,0.012382466,0.0038253015,-0.030184967,-0.21068975,0.28730422,-9.519346,0.82694155,47.689575,-0.70252734,-1.9961354,-3.4115849,-0.25389123,0.052462295,-0.14560875,28.3125,29.375,28.5625,32.6875,35.25,36.375
0.0950519,-0.53141016,-0.87949765,-0.5528129,-0.043523524,0.07792606,-0.15663853,-0.38359734,-0.34981287,0.08502247,-3.078778,0.62486726,4.995121e-06,-0.043490548,-0.0060180877,0.0021006702,-0.005179272,0.004110273,-0.0010397081,0.4776551,-1.4199694,1.9505662,-2.0998948,-1.5706486,2.452574,-0.030959308,0.07548753,-0.09411219,0.012583025,0.0025355658,-0.029867373,-0.36391866,0.34476504,-9.80665,0.7597976,47.7254,-0.65652263,-1.6145346,-3.513657,-0.28642455,0.06804693,-0.16769466,28.3125,29.375,28.5625,32.6875,35.25,36.375
0.10005229,-0.9577734,-1.2620153,-0.4263564,-0.031586625,0.061367977,-0.15199293,-0.3838073,-0.34983775,0.08504062,3.0788026,-0.62491053,-7.904841e-05,-0.045890164,-0.0068207975,0.0015504834,-0.004669856,0.0043566646,-0.0016814289,0.4774989,-1.4196432,1.9501456,-2.099871,-1.5706371,2.452442,-0.031385064,0.081535265,-0.09970744,0.012148697,0.0019598478,-0.02964667,-0.30645782,0.38307226,-9.710882,0.7597976,47.689575,-0.6438991,-1.8022318,-3.4584773,-0.26094073,0.05780091,-0.17963651,28.3125,29.375,28.5625,32.6875,35.25,36.375
0.105052195,-1.2699728,-1.2682744,-0.24605809,-0.02456588,0.024472654,-0.14248838,-0.38406408,-0.3498723,0.08504171,3.0788147,-0.62489426,-8.832288e-05,-0.0502594,-0.007888939,0.0022165861,-0.0065358602,0.0073734513,-0.0032372114,0.47733024,-1.4191607,1.9495686,-2.0997756,-1.5706486,2.452262,-0.03363972,0.08770059,-0.108012475,0.010750651,0.0022112026,-0.030340677,-0.3256114,0.30645782,-9.576807,0.72622824,47.71017,-0.6056179,-1.7427603,-3.3658762,-0.21629143,0.07201034,-0.22332335,28.3125,29.375,28.5625,32.6875,35.25,36.375
0.11005194,-0.2192079,-0.43961385,-0.22957313,-0.024910614,0.05076594,-0.15626393,-0.38426673,-0.34991214,0.08504999,3.0787454,-0.6249372,-8.270938e-05,-0.053247,-0.008543131,0.0026530738,-0.00710279,0.0086859455,-0.0035028714,0.47718576,-1.4187986,1.9491237,-2.0997274,-1.5706009,2.4521532,-0.035140805,0.09239775,-0.11450808,0.011125063,0.0021013557,-0.031572085,-0.21068975,0.38307226,-9.5385,0.784413,47.71554,-0.68681943,-1.8576146,-3.3076775,-0.20051096,0.09170717,-0.24461073,28.3125,29.375,28.5625,32.6875,35.25,36.375
0.115052514,-0.4211436,-0.61748415,0.14855659,-0.02941269,0.040785328,-0.14937894,-0.38463464,-0.34996498,0.08509286,3.078683,-0.624942,-0.00031616812,-0.05582822,-0.009477596,0.0015029167,-0.006876363,0.0061576,-0.0017166144,0.47696927,-1.418231,1.948367,-2.0996916,-1.5706486,2.4519482,-0.03638927,0.10067756,-0.12171599,0.012398734,0.0030562335,-0.034603186,-0.19153613,0.36391866,-9.442732,0.7530795,47.707485,-0.6798929,-1.9535866,-3.1575308,-0.16488671,0.07766493,-0.26870477,28.3125,29.375,28.5625,32.6875,35.25,36.375
0.12005265,0.0061265775,-0.52184016,0.39004326,-0.03413387,0.05357459,-0.15847957,-0.38486668,-0.35002685,0.08513288,3.0785785,-0.6249001,-0.000410158,-0.057139803,-0.009587994,0.0013374536,-0.0063641565,0.005958741,0.00039183474,0.47683698,-1.4178698,1.947853,-2.099655,-1.5706009,2.4518032,-0.037153274,0.10353102,-0.12478889,0.013033418,0.0026933975,-0.037473127,-0.24899697,0.3256114,-9.32781,0.800085,47.70032,-0.6979507,-1.8667326,-3.1769598,-0.15662046,0.089967944,-0.27632225,28.3125,29.375,28.5625,32.6875,35.25,36.375
0.12505223,-0.17406556,-0.22420897,0.48771578,-0.0012248793,0.039108764,-0.15362187,-0.38522333,-0.35010222,0.08513667,3.078511,-0.62486506,-0.00045712397,-0.05909091,-0.0103568025,0.000788396,-0.006640575,0.004299258,0.0015459532,0.47662076,-1.4172071,1.9470729,-2.0996068,-1.5705642,2.451574,-0.03813749,0.10919232,-0.13039155,0.014321018,0.0036964493,-0.0396091,-0.22984336,0.3256114,-9.059659,0.75084364,47.675243,-0.76167005,-1.9136108,-3.2975526,-0.12766418,0.08792858,-0.30083367,28.3125,29.375,28.5625,32.6875,35.25,36.375
0.1300528,0.45942703,0.40685388,0.77147186,0.0055896975,0.03132602,-0.15540603,-0.3854844,-0.35014528,0.08515358,3.078482,-0.624839,-0.0005505294,-0.060416553,-0.0105279535,-0.0010112308,-0.0052812863,0.001182471,0.002524562,0.47646442,-1.4167606,1.9465107,-2.0995586,-1.5705761,2.4514055,-0.039148327,0.11571238,-0.13390489,0.014706827,0.003916031,-0.04159595,-0.11492168,0.11492168,-8.90643,0.7978386,47.694946,-0.82362485,-1.9510264,-3.2768576,-0.09574826,0.07757538,-0.34605744,28.3125,29.375,28.5625,32.6875,35.25,36.375
0.13505262,0.7479924,0.86053365,0.6792715,0.011174157,0.01356203,-0.15611461,-0.38586754,-0.35020655,0.08517172,3.078403,-0.6248988,-0.00058503146,-0.062463343,-0.0111828325,0.00030834746,-0.006268826,0.0025254267,0.0026237243,0.4762002,-1.4160873,1.9456714,-2.0994508,-1.5705403,2.451189,-0.03996459,0.11753054,-0.13958174,0.016921055,0.0041747265,-0.042508923,0.095768064,0.13407528,-8.887277,0.8537928,47.701214,-0.95329857,-1.7423172,-3.3569155,-0.043591604,0.072003044,-0.39130378,28.3125,29.375,28.5625,32.6875,35.25,36.375
0.14005198,0.6065211,0.23130868,0.455344,0.005392008,0.017708672,-0.16059095,-0.3861074,-0.35024542,0.08516169,3.0784328,-0.6247671,-0.0006067731,-0.06354101,-0.011756999,-1.6499505e-05,-0.004833735,-7.6831014e-07,0.007495793,0.4760562,-1.4156173,1.9451431,-2.0994012,-1.5705522,2.4509594,-0.03983747,0.12215823,-0.14506869,0.020684224,0.0040574544,-0.047251135,0.0,0.15322891,-9.002198,0.8403672,47.689575,-0.9452253,-1.7985709,-3.3136396,-0.06683409,0.071890116,-0.37554675,28.3125,29.375,28.5625,32.6875,35.25,36.375
0.14505213,0.0715086,-0.9125731,-0.06739393,-0.0314327,0.039236844,-0.16640934,-0.38644257,-0.35027722,0.085115194,3.0785127,-0.6247816,-0.00038412074,-0.06632209,-0.011453896,-0.0020680544,-0.002285589,-0.004700388,0.00859999,0.47579122,-1.4148691,1.9443396,-2.0991848,-1.5705279,2.4506938,-0.042785615,0.13178775,-0.15219736,0.023531359,0.003930628,-0.051299732,-0.019153614,0.38307226,-9.3661175,0.8247004,47.695843,-0.97677875,-1.969537,-3.3919797,-0.08534981,0.09105642,-0.37702447,28.3125,29.375,28.5625,32.6875,35.25,36.375
0.15005237,-0.35955647,-1.4392354,-0.31902194,-0.04611111,0.043238625,-0.15395607,-0.38672265,-0.3503454,0.085137606,3.078509,-0.624603,-0.00042660334,-0.065915674,-0.012628204,-0.0018021857,-0.003220555,-0.005097687,0.015763823,0.47564796,-1.4143524,1.9436697,-2.099077,-1.5705155,2.45044,-0.040911324,0.13232686,-0.15368713,0.024405258,0.004946702,-0.056589644,-0.30645782,0.5554548,-9.557653,0.7597976,47.691364,-1.1356362,-1.8934331,-3.4628773,-0.09031366,0.0749393,-0.31552994,28.3125,29.375,28.5625,32.6875,35.25,36.375
0.15505177,-0.8672749,-1.862038,-0.605464,-0.06366289,0.07045053,-0.15382534,-0.38712573,-0.35040146,0.08510677,3.0785642,-0.62442046,-0.00029848958,-0.07136404,-0.011633879,-0.0015088618,-0.0036216627,-0.0038777592,0.017090542,0.4753575,-1.4135215,1.9427456,-2.0989091,-1.5704798,2.4500291,-0.047430865,0.13891827,-0.16219875,0.02506279,0.004725821,-0.06443125,-0.36391866,0.57460845,-9.844957,0.7642693,47.711063,-1.0977721,-1.8174248,-3.3785605,-0.1057126,0.074191175,-0.2126964,28.3125,29.375,28.5625,32.6875,35.25,36.375
0.1600523,-0.45203343,-1.1655841,-0.42427033,-0.047230072,0.08185273,-0.16056217,-0.38744316,-0.35047883,0.085133836,3.0785022,-0.62436575,-0.00037583147,-0.07347764,-0.0137578575,3.811696e-05,-0.007201818,0.00089551776,0.021608707,0.47519004,-1.4129564,1.9420141,-2.0988262,-1.5704559,2.4498358,-0.04615734,0.14042737,-0.16693448,0.02240643,0.0057155984,-0.06767372,-0.40222588,0.40222588,-9.653421,0.82694155,47.71017,-1.1890152,-1.7158284,-3.3847775,-0.078448266,0.044915125,-0.1227376,28.3125,29.375,28.5625,32.6875,35.25,36.375
0.16505282,-0.67611796,0.26127702,-0.32187915,0.0043965876,0.059560414,-0.1525989,-0.38789517,-0.35057682,0.08513669,3.0784357,-0.62410533,-0.000388202,-0.07783712,-0.01342263,-0.0009979879,-0.0066582523,0.00043175239,0.015307405,0.47490066,-1.4121126,1.9410189,-2.0987542,-1.5703715,2.4493928,-0.05046728,0.14891851,-0.17438455,0.022034423,0.005432692,-0.06567694,-0.40222588,0.076614454,-9.653421,0.77545905,47.675243,-1.0799153,-1.9763755,-3.4492059,-0.023104887,0.051111728,-0.0692044,28.3125,29.375,28.5625,32.6875,35.25,36.375
0.1700532,-0.22602104,0.65453297,-0.09330962,0.011490805,0.062087923,-0.16515027,-0.38822144,-0.35062537,0.08511536,3.0784576,-0.6240543,-0.00039287345,-0.07864738,-0.012946334,-0.003019409,-0.0044413423,-0.003371372,0.009637491,0.4746962,-1.4114622,1.9403013,-2.0986822,-1.5703834,2.4491541,-0.05184285,0.154467,-0.17647943,0.022976981,0.005194935,-0.061380897,-0.36391866,0.0,-9.481039,0.7911258,47.70211,-1.1144127,-2.1373901,-3.516748,-0.0018562253,0.030829515,-0.10721238,28.3125,29.375,28.5625,32.6875,35.25,36.375
0.17505223,-0.4638918,0.3506615,0.1773246,0.011426097,0.051851135,-0.16044308,-0.38872382,-0.35071492,0.08514036,3.0783925,-0.62398714,-0.00048077852,-0.081835434,-0.01283774,-0.0027837662,-0.003955808,-0.0034355274,0.0009280235,0.47438326,-1.4105712,1.9391865,-2.09855,-1.5703601,2.4488082,-0.054591324,0.15954557,-0.18351762,0.025218593,0.0047838935,-0.055415615,-0.19153613,-0.076614454,-9.308656,0.7642693,47.681515,-1.155953,-2.0999923,-3.405561,0.026995987,0.039557498,-0.18806475,28.3125,29.375,28.5625,32.6875,35.25,36.375
0.18005311,-0.19011784,-0.12656689,0.24887837,0.016282322,0.049369555,-0.15618715,-0.3890653,-0.35075003,0.08511986,3.0783515,-0.6241141,-0.00038585902,-0.08528907,-0.013468185,-0.0013477667,-0.0050782305,-0.0007465222,-0.0017606848,0.47410658,-1.4099097,1.9384421,-2.0984294,-1.5703119,2.4486163,-0.056397002,0.16296117,-0.19113168,0.026516952,0.0045383833,-0.05452886,-0.30645782,0.13407528,-9.155427,0.779936,47.68599,-1.0889487,-2.0341103,-3.3519683,0.025362063,0.057452828,-0.2476618,28.3125,29.375,28.5625,32.6875,35.25,36.375
0.18505286,-0.5060669,-1.1603496,0.15486696,-0.026921567,0.04748774,-0.15943596,-0.38956404,-0.3508186,0.08511457,3.0783968,-0.62402666,-0.0003582468,-0.08701943,-0.013162147,-0.0009304492,-0.0037099116,-0.0033308102,-0.0035649508,0.47378188,-1.4089477,1.9372934,-2.098212,-1.5703238,2.448232,-0.058376607,0.1663983,-0.19754681,0.03242011,0.0044985325,-0.05470206,-0.4213795,0.40222588,-9.193734,0.8560339,47.721813,-1.076018,-1.7812982,-3.2963536,-0.00062842946,0.047741435,-0.29690698,28.3125,29.375,28.5625,32.6875,35.25,36.375
0.19005193,-0.7385824,-1.2465402,0.2125573,-0.04154585,0.06328717,-0.15966012,-0.38992885,-0.3508624,0.085112974,3.0783832,-0.6240631,-0.0003671168,-0.08932621,-0.012008095,-0.0009797158,-0.002433721,-0.0050694994,-0.0062474185,0.47352856,-1.408274,1.9364909,-2.0980914,-1.5703238,2.4480035,-0.06220366,0.16975757,-0.20220515,0.035851445,0.0041542165,-0.05584438,-0.30645782,0.47884035,-9.232041,0.8627467,47.678825,-1.0267045,-1.7919521,-3.38894,-0.048398837,0.05379176,-0.34366626,28.3125,29.375,28.5625,32.6875,35.25,36.375
0.19505249,-0.19385153,-0.042734507,0.2677053,-0.023845755,0.039762773,-0.1554687,-0.3904747,-0.350957,0.08509468,3.0783513,-0.6241341,-0.0003044942,-0.091383085,-0.011786213,-0.0015674038,-0.0031249565,-0.0078059183,-0.009197695,0.47317955,-1.4071913,1.9352363,-2.0978992,-1.5702876,2.4477036,-0.06542534,0.17439534,-0.20690049,0.03802679,0.006009131,-0.056115426,-0.1340753,0.2873042,-9.193734,0.9410752,47.7254,-0.8726565,-1.7779292,-3.4015713,-0.10569379,0.053520363,-0.4460471,28.3125,29.375,28.5625,32.6875,35.25,36.375
0.20005265,0.33713984,0.24531452,0.060783386,0.003558401,0.01700249,-0.16553015,-0.39086118,-0.35099125,0.08509116,3.0783384,-0.6242448,-0.00028266304,-0.09329171,-0.011542659,-0.0023996865,-0.0017909323,-0.009912103,-0.008190262,0.4728907,-1.4064802,1.9343857,-2.0977428,-1.5702876,2.447486,-0.06734467,0.17962354,-0.21162455,0.04000908,0.005774053,-0.059039626,-0.05746084,0.17238252,-9.308656,0.89631605,47.70838,-0.79399085,-1.9453173,-3.442949,-0.13461486,0.047071423,-0.461946,28.3125,29.375,28.5625,32.6875,35.25,36.375
0.20505236,-0.031800456,0.08829242,-0.119064845,0.010310336,0.041477665,-0.15598343,-0.39146113,-0.3510692,0.08507048,3.0783162,-0.62425464,-0.0001944592,-0.09544153,-0.01124306,-0.0039087525,0.00028880846,-0.014213186,-0.0017310581,0.47245812,-1.405325,1.9330453,-2.0975258,-1.5702394,2.447063,-0.06972104,0.1871701,-0.21793358,0.043556746,0.0058728163,-0.06787236,0.0,0.076614454,-9.32781,0.7866488,47.688675,-0.67494667,-1.9943013,-3.4378924,-0.21261409,0.0383314,-0.44649136,28.3125,29.375,28.5625,32.6875,35.25,36.375
0.21005177,0.035489496,-0.17322958,-0.09414338,0.011357912,0.046635725,-0.1537586,-0.39181086,-0.3511145,0.08503224,3.078367,-0.6241989,6.2574486e-06,-0.09795249,-0.011613567,-0.0037420676,-0.0007369594,-0.014094272,0.008600953,0.47219422,-1.4045669,1.932207,-2.0973217,-1.5701913,2.4467583,-0.07173874,0.19126803,-0.22337681,0.04433712,0.006714809,-0.08022099,-0.13407528,0.11492168,-9.32781,0.7933669,47.696735,-0.7190566,-2.1411145,-3.2772317,-0.26500332,0.023997575,-0.34634516,28.3125,29.375,28.5625,32.6875,35.25,36.375
0.21505213,-0.46260035,-0.36773503,-0.4220721,-0.0017286252,0.039423827,-0.15158191,-0.39241377,-0.35117295,0.08499139,3.0784569,-0.62403864,9.138427e-05,-0.10092152,-0.012176885,-0.0033452972,-0.0007653295,-0.011997166,0.01617288,0.47176194,-1.4033763,1.9308671,-2.0970948,-1.5702037,2.4462154,-0.07271094,0.19575213,-0.22969289,0.044297677,0.0057640136,-0.08876136,-0.22984336,0.21068975,-9.385271,0.8112748,47.693153,-0.688547,-2.1522775,-3.5075922,-0.32403165,0.024832673,-0.21428046,28.3125,29.375,28.5625,32.6875,35.25,36.375
0.220052,-0.4442759,-0.3092436,-0.30582795,-0.032433253,0.08105199,-0.1649211,-0.3927999,-0.3512154,0.084964424,3.0785117,-0.6239918,0.0003043025,-0.10349921,-0.013781376,-0.0024481427,-0.0034074376,-0.0075562513,0.017830621,0.4714613,-1.4025707,1.9299334,-2.096833,-1.5701555,2.445879,-0.07229602,0.19857667,-0.23443095,0.041060466,0.0060681896,-0.09000259,-0.40222588,0.28730422,-9.500193,0.7911258,47.681515,-0.7595639,-2.0817194,-3.4743052,-0.32934743,0.027948037,-0.14184365,28.3125,29.375,28.5625,32.6875,35.25,36.375
0.22505267,-1.3996685,-1.860373,-0.52355874,-0.05146653,0.08050803,-0.1496241,-0.39343193,-0.35127968,0.0849441,3.0785384,-0.62392473,0.00039585543,-0.10659141,-0.015328206,-0.0026143582,-0.005111619,-0.003964576,0.008350974,0.47099343,-1.4013673,1.9285215,-2.0965707,-1.5701317,2.4453666,-0.07211638,0.2042148,-0.23988856,0.03690688,0.0059272475,-0.08033995,-0.4213795,0.30645782,-9.653421,0.83813137,47.67614,-0.8454715,-2.0800233,-3.46392,-0.34047002,0.023525584,-0.1733796,28.3125,29.375,28.5625,32.6875,35.25,36.375
0.23005195,-0.56938523,-0.75934494,-0.80489314,-0.01680852,0.050480507,-0.15116207,-0.39388648,-0.35133937,0.084935635,3.0785346,-0.62388796,0.0003187495,-0.109809585,-0.016456854,-0.00096245104,-0.008126637,0.0022964966,0.00067795016,0.4707051,-1.4005263,1.9275411,-2.0964763,-1.5701555,2.4450564,-0.072809674,0.20558442,-0.2445863,0.03328464,0.0057585104,-0.07335723,-0.21068975,0.38307226,-9.653421,0.8314132,47.668976,-0.8535049,-1.9195373,-3.5729198,-0.29496887,0.033559617,-0.26094157,28.3125,29.375,28.5625,32.6875,35.25,36.375
0.23505253,0.38968158,-1.0835758,-0.55135053,-0.043487743,0.0389036,-0.16129358,-0.39456376,-0.35144225,0.084918246,3.0784342,-0.6239623,0.00034194713,-0.11369901,-0.017275073,-0.0013573638,-0.009019933,0.0049074395,-0.0010066594,0.47023758,-1.3992507,1.9260577,-2.096309,-1.5700835,2.4446487,-0.07443662,0.21244998,-0.25126907,0.030379342,0.0053560496,-0.0732949,-0.019153614,0.4405331,-9.634268,0.8314132,47.70032,-0.94829947,-2.0447247,-3.7762456,-0.22750404,0.037804924,-0.30885717,28.3125,29.375,28.5625,32.6875,35.25,36.375
0.24005267,0.571389,-1.2357419,-0.76978636,-0.03201146,0.018073715,-0.1568276,-0.39499983,-0.35151762,0.084898636,3.078448,-0.623848,0.00035872852,-0.117734455,-0.01837399,-0.00015889182,-0.010620517,0.008587049,-0.0016943715,0.4699732,-1.3983842,1.925063,-2.0961778,-1.5700716,2.4443119,-0.07585347,0.21726882,-0.25970298,0.029992783,0.0050995834,-0.07401955,0.11492168,0.30645782,-9.710882,0.88960326,47.687782,-0.9069839,-2.146043,-3.5203853,-0.19777757,0.05708338,-0.35084224,28.3125,29.375,28.5625,32.6875,35.25,36.375
0.24505237,0.474533,-1.3874447,-0.7640721,-0.022233834,0.008816955,-0.14673111,-0.3957379,-0.35163012,0.084902994,3.0783536,-0.6238255,0.00020377799,-0.120632105,-0.020353045,0.00020744678,-0.012134886,0.00898623,0.0017596765,0.4695054,-1.3970606,1.9234823,-2.0960581,-1.5700597,2.443843,-0.07547302,0.22386213,-0.26884118,0.031497795,0.0062699313,-0.07708958,0.1340753,0.45968673,-9.576807,0.8112748,47.739727,-1.0174856,-2.2435439,-3.4061084,-0.13086334,0.049442515,-0.38147676,28.3125,29.375,28.5625,32.6875,35.25,36.375
0.25005242,0.15255895,-0.75057364,-0.50293124,-0.031852555,0.015729252,-0.15805963,-0.39620546,-0.35169387,0.084886305,3.0783281,-0.623856,0.0002624936,-0.12363937,-0.019682664,0.0016928967,-0.013717593,0.010123647,0.005580596,0.4691798,-1.3961589,1.9224294,-2.0958893,-1.5700234,2.44354,-0.079693735,0.22497454,-0.27431333,0.0341344,0.0071668406,-0.08513062,0.05746084,0.47884035,-9.557653,0.82694155,47.69763,-0.8250003,-2.1762774,-3.3085136,-0.089696825,0.036564995,-0.33606195,28.3125,29.375,28.5625,32.6875,35.25,36.375
0.25505322,-0.5974425,-1.0994782,-0.41726992,-0.0198981,0.05399008,-0.15288955,-0.39691296,-0.35183668,0.08487607,3.078329,-0.6235968,0.00029288625,-0.12259295,-0.020137303,0.0012096005,-0.013176329,0.00670666,0.019565294,0.46877226,-1.3947659,1.9207677,-2.0956366,-1.5699748,2.4429715,-0.07841393,0.22603889,-0.27553603,0.037598044,0.008244419,-0.09783714,-0.11492168,0.30645782,-9.5385,0.86945957,47.685097,-1.0883075,-1.9467359,-3.6435304,-0.082959175,0.046143606,-0.16595808,28.3125,29.375,28.5625,32.6875,35.25,36.375
0.26005214,-0.84352285,-0.51202327,-0.5438503,-0.002817945,0.041816883,-0.14752449,-0.3974201,-0.35193276,0.08490024,3.0782378,-0.62340236,0.00022565214,-0.12514567,-0.020850943,0.002120945,-0.01363937,0.008146663,0.022057649,0.46844828,-1.3938756,1.9196442,-2.0955164,-1.5699028,2.4425383,-0.0791541,0.22949514,-0.28224277,0.039367992,0.008013095,-0.10106572,-0.15322891,0.22984336,-9.500193,0.79560274,47.68599,-1.1497569,-1.7864032,-3.6190462,-0.06566936,0.026223935,-0.08540438,28.3125,29.375,28.5625,32.6875,35.25,36.375
0.2650521,-0.35570884,-0.059078213,-0.66710263,0.023332037,0.045277283,-0.15571351,-0.39819148,-0.35203752,0.084901564,3.0782356,-0.6232899,0.00015424174,-0.12857433,-0.021446345,0.00048483475,-0.01197596,0.0047319005,0.012227228,0.46795553,-1.3924544,1.9179205,-2.0952642,-1.5699147,2.4419765,-0.08095894,0.24014965,-0.29194376,0.042209428,0.008062031,-0.093035005,-0.22984336,-0.019153614,-9.634268,0.8627467,47.71465,-1.0879667,-2.1347554,-3.5271692,-0.024105554,0.022111801,-0.11167176,28.3125,29.375,28.5625,32.6875,35.25,36.375
0.27005196,-1.4472792,-1.1381246,-0.44014204,-0.007162602,0.06519507,-0.14468409,-0.39873284,-0.35216054,0.08494345,3.0780969,-0.62320733,6.78293e-05,-0.13111192,-0.02080982,0.0010477351,-0.010884896,0.005095871,0.0031638187,0.46764293,-1.3915038,1.9166759,-2.0951078,-1.5698313,2.4416306,-0.08348342,0.24303365,-0.29745185,0.045009732,0.0069302297,-0.08649205,-0.5746084,0.21068975,-9.481039,0.8224646,47.692257,-1.1592412,-2.261367,-3.3609407,-0.023105603,0.022207245,-0.1981565,28.3125,29.375,28.5625,32.6875,35.25,36.375
0.27505246,-1.1358116,-1.1378362,-0.2321001,-0.026965939,0.08767354,-0.15199105,-0.39954564,-0.3522783,0.08496658,3.0780401,-0.6231999,-8.316041e-06,-0.13297999,-0.018140497,-0.00013513307,-0.007920152,-7.469645e-05,-0.006866383,0.46712467,-1.3900372,1.9148349,-2.0948064,-1.5698193,2.4411159,-0.0893217,0.2468687,-0.3008416,0.05051882,0.0066251117,-0.082298815,-0.59376204,0.19153614,-9.385271,0.8806493,47.69763,-0.9498664,-2.026911,-3.668776,-0.06513147,0.028927946,-0.31749484,28.3125,29.375,28.5625,32.6875,35.25,36.375
0.28005224,-0.9162139,0.03215946,0.07536959,0.0053318418,0.048524216,-0.14371958,-0.4000531,-0.3523529,0.08495252,3.0780325,-0.6231611,-2.498813e-06,-0.13464473,-0.01864724,0.0018860075,-0.008462283,0.0012621479,-0.010749586,0.46680087,-1.3890646,1.9136866,-2.0946372,-1.5698069,2.4407694,-0.08967858,0.24714589,-0.30700302,0.054966103,0.006503649,-0.07877076,-0.51714754,0.095768064,-9.289503,0.8627467,47.688675,-0.9688218,-1.7925282,-3.5961273,-0.11500186,0.035805948,-0.3976196,28.3125,29.375,28.5625,32.6875,35.25,36.375
0.28505233,0.29930136,0.98716944,-0.18500595,0.059230473,0.024878725,-0.1542635,-0.4009138,-0.35246825,0.08499957,3.0778902,-0.6232263,-9.48102e-05,-0.13915986,-0.018107016,0.0030599523,-0.008719029,0.0016593406,-0.011379072,0.4662112,-1.3875855,1.9117707,-2.0943244,-1.5697469,2.4402394,-0.09431663,0.25223142,-0.3170015,0.05942149,0.006558796,-0.08277488,-0.2681506,0.0,-9.32781,0.9835985,47.711964,-0.6743946,-1.6596892,-3.3725877,-0.16821745,0.0264013,-0.48905027,28.3125,29.375,28.5625,32.6875,35.25,36.375
0.29005244,-0.667658,-0.3010727,-0.3416968,0.00039191806,0.07162643,-0.15748839,-0.40142906,-0.3525176,0.084982075,3.0779483,-0.62328887,7.7055265e-05,-0.13824506,-0.017609963,-0.00029792287,-0.0044791684,-0.008239408,-0.0019118864,0.46583915,-1.3865618,1.9105271,-2.0939753,-1.5697354,2.4398997,-0.09459016,0.25967216,-0.31972882,0.065467045,0.0072229416,-0.09251591,-0.34476504,0.11492168,-9.308657,0.88289046,47.691364,-0.7180024,-1.9452928,-3.405479,-0.2689613,0.055999085,-0.4389866,28.3125,29.375,28.5625,32.6875,35.25,36.375
0.2950519,-1.0203894,-1.5010293,-0.42319715,-0.04307986,0.065800816,-0.15649082,-0.40228263,-0.3526242,0.08499332,3.0779386,-0.6232555,0.00011418805,-0.14008367,-0.019156251,-0.00011392628,-0.004670656,-0.00589764,0.01696773,0.46526408,-1.3849872,1.9085554,-2.093569,-1.5697111,2.439306,-0.09273661,0.26383835,-0.32525355,0.06467369,0.006336868,-0.10953917,-0.15322891,0.40222588,-9.442732,0.9298854,47.7254,-0.8488597,-1.8402245,-3.5831308,-0.34137267,0.075461335,-0.25325295,28.3125,29.375,28.5625,32.6875,35.25,36.375
0.30005172,0.1222978,-1.2254529,-0.24736078,-0.03865392,0.023327094,-0.14863408,-0.40289745,-0.35270074,0.085029386,3.0778952,-0.6231849,-2.4082477e-05,-0.14467661,-0.020345818,0.0012904765,-0.008402728,0.0021086736,0.022036279,0.46486747,-1.3839408,1.9071916,-2.0933554,-1.569723,2.4388716,-0.09432993,0.26699987,-0.33101606,0.05845395,0.006071725,-0.11619723,-0.019153614,0.4213795,-9.481039,0.9298854,47.68062,-0.8785145,-1.8837612,-3.5704854,-0.3270195,0.07579625,-0.16327442,28.3125,29.375,28.5625,32.6875,35.25,36.375
0.30505216,-0.0322642,-0.9726794,-0.37859604,-0.0364644,0.02457067,-0.15273377,-0.40377006,-0.35283604,0.08503614,3.0778592,-0.6229543,-5.734474e-05,-0.15019776,-0.02162832,0.0020603265,-0.012422859,0.009535598,0.0067420434,0.46431467,-1.3823296,1.9052051,-2.0930464,-1.5696753,2.4381804,-0.09676106,0.2727501,-0.33840564,0.05164796,0.0063081007,-0.10333014,0.038307227,0.5746084,-9.442732,0.8090337,47.703007,-0.8139764,-1.7385387,-3.5559988,-0.23498935,0.10414535,-0.21937206,28.3125,29.375,28.5625,32.6875,35.25,36.375
0.3100518,-0.7965506,-2.3479004,-0.11571823,-0.082751684,0.06500185,-0.15925041,-0.4043617,-0.3529095,0.085033245,3.0777984,-0.6230009,-5.9432936e-05,-0.15249158,-0.023561047,0.0037760634,-0.0159118,0.013168187,0.0028193516,0.46390697,-1.3812484,1.9038886,-2.0928428,-1.5696386,2.4378102,-0.09607309,0.27455565,-0.3446203,0.051243763,0.0077932365,-0.098717965,-0.13407528,0.53630114,-9.3661175,0.8672237,47.681515,-0.9033741,-1.5717446,-3.456677,-0.21064624,0.10371062,-0.2964437,28.3125,29.375,28.5625,32.6875,35.25,36.375
0.31505203,0.078529775,-0.7554533,-0.17181405,-0.019598588,0.038179517,-0.1509543,-0.40532914,-0.35308385,0.085072525,3.077654,-0.6229147,-0.0002475826,-0.15583132,-0.023554273,0.00043887433,-0.014886657,0.010553101,-0.0018050272,0.46334222,-1.3795265,1.9017013,-2.092569,-1.5695909,2.437211,-0.09880111,0.2857268,-0.35000408,0.04826069,0.008053534,-0.09681708,-0.019153614,0.49799395,-9.32781,1.0104496,47.652847,-0.9247749,-1.8795975,-3.580863,-0.100778684,0.118808426,-0.3780001,28.3125,29.375,28.5625,32.6875,35.25,36.375
0.32005203,0.39135715,-0.044502467,-0.0556742,0.006273747,0.017036725,-0.16165175,-0.40596262,-0.35318282,0.08505786,3.0776153,-0.6228467,-0.00031320128,-0.15731138,-0.024185749,0.0008178426,-0.014893192,0.010132473,0.0016476564,0.4629582,-1.3783361,1.9002899,-2.0924122,-1.5695785,2.4367902,-0.098895535,0.28882813,-0.35547993,0.051016618,0.00825792,-0.100362115,-0.019153614,0.36391866,-9.174581,0.9254084,47.65106,-1.0739493,-2.046117,-3.542736,-0.07335236,0.10323593,-0.38169044,28.3125,29.375,28.5625,32.6875,35.25,36.375
0.32505232,0.10620805,-0.6615256,0.17543855,-0.01446925,0.023532059,-0.15782733,-0.40689695,-0.35335127,0.085053295,3.0775118,-0.6227773,-0.0003224462,-0.15981132,-0.025293665,0.0017059856,-0.015737658,0.010598223,0.016276669,0.4623942,-1.3765692,1.8981355,-2.0921,-1.5694946,2.436197,-0.09915335,0.293048,-0.36371094,0.054263957,0.008829609,-0.11524604,-0.11492168,0.2681506,-9.002198,0.9097417,47.681515,-1.015389,-1.8651499,-3.4356346,0.010910183,0.10026753,-0.24823211,28.3125,29.375,28.5625,32.6875,35.25,36.375
0.3300523,-0.2763331,0.11663871,0.4130095,-0.008922927,0.042471323,-0.15535083,-0.40752348,-0.35344923,0.08501858,3.0775485,-0.6225879,-0.00025840357,-0.16110651,-0.02512803,0.0019676727,-0.015219735,0.009388106,0.024235416,0.4620097,-1.3753192,1.8966769,-2.0918596,-1.5694703,2.4356904,-0.10037974,0.29532856,-0.36814559,0.05774992,0.008917136,-0.12443055,-0.076614454,0.22984336,-9.040505,0.9992599,47.64121,-1.0231014,-1.7543945,-3.43362,0.003271454,0.1234959,-0.096935794,28.3125,29.375,28.5625,32.6875,35.25,36.375
0.33505186,-0.83559096,0.68838793,0.3120744,0.021087438,0.054353163,-0.15096979,-0.40847093,-0.35359666,0.08498656,3.0775201,-0.6223963,-0.00019865681,-0.16238785,-0.023673754,-0.00045940332,-0.012092488,0.0017157127,0.011954192,0.46140853,-1.3734913,1.8945016,-2.091522,-1.5693983,2.4349742,-0.10397843,0.30256397,-0.37308887,0.06372155,0.009535627,-0.11574679,-0.4405331,0.076614454,-9.136273,0.9545008,47.70032,-0.853878,-1.8054109,-3.6512518,0.030675603,0.1215049,-0.13021474,28.3125,29.375,28.5625,32.6875,35.25,36.375
0.34005168,-0.43428734,0.92427754,0.36969537,0.014310685,0.062554434,-0.15707825,-0.40914577,-0.35365593,0.084971614,3.077532,-0.62244195,-0.00018309926,-0.1642768,-0.023219092,-0.00021289938,-0.009979061,-0.0016561341,0.0010410048,0.4609399,-1.3722403,1.8929819,-2.091232,-1.5694107,2.4345334,-0.10588635,0.3069118,-0.38084537,0.071083486,0.009132919,-0.10673935,-0.5554548,0.038307227,-9.11712,0.9567419,47.68062,-0.7563842,-1.9966974,-3.4802966,-0.016836643,0.12518641,-0.20815423,28.3125,29.375,28.5625,32.6875,35.25,36.375
0.34505206,-0.7994378,0.5501649,-0.17385729,0.02430968,0.054948512,-0.1487405,-0.4100995,-0.35381618,0.0849577,3.0774972,-0.6224181,-3.8829996e-05,-0.1651939,-0.023115352,-0.00016194186,-0.0064975573,-0.0073751085,-0.0063072843,0.46035188,-1.3703767,1.890685,-2.0907495,-1.5693268,2.4339359,-0.10616589,0.31181014,-0.38975248,0.08176991,0.0085484,-0.09966878,-0.34476504,0.095768064,-9.2703495,0.9030289,47.728977,-0.9737744,-2.0890565,-3.4026296,-0.17331305,0.13398369,-0.36827433,28.3125,29.375,28.5625,32.6875,35.25,36.375
0.35005283,-0.63832474,-0.36648905,-0.27880567,-0.0014548503,0.065076865,-0.14797212,-0.4107685,-0.3538763,0.08491844,3.0775187,-0.62253815,0.000118531316,-0.16334587,-0.021210348,-0.003271607,-0.0014844693,-0.017687187,-0.009083948,0.4598715,-1.3690655,1.8891314,-2.0904,-1.5693029,2.4335284,-0.10763598,0.3157386,-0.38938278,0.08894233,0.00863655,-0.09836412,-0.53630114,0.17238252,-9.346964,0.95226496,47.691364,-0.97038585,-1.9862177,-3.7350645,-0.28970933,0.14765583,-0.47390357,28.3125,29.375,28.5625,32.6875,35.25,36.375
0.35505393,-0.5061238,-0.84793675,-0.7448344,-0.05230126,0.06715039,-0.15690044,-0.41176707,-0.35401207,0.08491224,3.0775266,-0.6225491,0.00024007373,-0.17053969,-0.022132006,-0.0019023222,-0.004746196,-0.009392804,0.0041017993,0.45923445,-1.367154,1.8867391,-2.0898511,-1.5692667,2.4328983,-0.1113448,0.32301912,-0.4006393,0.08407483,0.007846891,-0.115254365,-0.36391866,0.38307226,-9.595961,0.8672237,47.705692,-0.81884557,-2.0476665,-3.6083808,-0.3574726,0.17196599,-0.41639736,28.3125,29.375,28.5625,32.6875,35.25,36.375
0.36005324,-0.99013,-1.746237,-0.9855461,-0.05770844,0.07498884,-0.15276527,-0.41244137,-0.3541036,0.08489279,3.0775158,-0.6225002,0.0003894974,-0.17469579,-0.02372787,-0.00142401,-0.009208917,-0.0019484439,0.017662762,0.45877826,-1.3658432,1.885136,-2.0894954,-1.5691947,2.4324136,-0.11226519,0.3271392,-0.405181,0.075877704,0.008524484,-0.1297346,-0.11492168,0.45968673,-9.883265,0.9030289,47.73256,-0.8785647,-2.2932928,-3.5955994,-0.3015102,0.18261302,-0.23740754,28.3125,29.375,28.5625,32.6875,35.25,36.375
0.36505368,-0.81397754,-1.8373137,-1.0321531,-0.09184247,0.086665094,-0.14491232,-0.41353688,-0.35423547,0.084898986,3.0774736,-0.6223368,0.0002800226,-0.17846173,-0.025464676,-0.0011003844,-0.013381201,0.0073074154,0.019583942,0.45807046,-1.3638724,1.8826746,-2.089104,-1.5691828,2.4316103,-0.11185613,0.33040223,-0.40801963,0.06531884,0.008158197,-0.13124485,-0.21068975,0.59376204,-9.959879,0.95897776,47.65464,-0.8325316,-2.1001675,-3.8920777,-0.18839766,0.20580617,-0.15047935,28.3125,29.375,28.5625,32.6875,35.25,36.375
0.37005332,0.28632328,-0.624697,-1.2677795,-0.026177473,0.031108137,-0.1463466,-0.41426295,-0.35433522,0.084902234,3.077423,-0.62227386,0.00022250315,-0.18338083,-0.027749667,0.0018893919,-0.017795363,0.015922025,0.0077207037,0.45761445,-1.3625503,1.8810233,-2.0888412,-1.5691584,2.4311223,-0.11190676,0.33326462,-0.41806853,0.062815286,0.00828616,-0.119428426,-0.11492168,0.38307226,-9.825804,0.9030289,47.66808,-0.8672581,-1.9945064,-3.6941185,-0.089814395,0.2119944,-0.26320666,28.3125,29.375,28.5625,32.6875,35.25,36.375
0.37505245,1.3004756,-0.117843516,-1.2784771,-0.011503894,0.03884094,-0.15337762,-0.4153799,-0.35450354,0.08492139,3.077321,-0.6221969,2.9962934e-05,-0.18395849,-0.028187856,-0.00075545005,-0.016285228,0.009168732,0.002918441,0.4569545,-1.3605413,1.878488,-2.0884812,-1.569146,2.4304285,-0.11215658,0.34135816,-0.423261,0.06663549,0.009936859,-0.11487367,0.076614454,0.30645782,-10.036493,0.84708,47.689575,-1.0421951,-2.3930902,-3.7394378,-0.011725008,0.21089636,-0.3557788,28.3125,29.375,28.5625,32.6875,35.25,36.375
0.3800526,0.18166919,-1.5202317,-0.848975,-0.08136724,0.084056996,-0.14887173,-0.41612315,-0.35461256,0.084933475,3.0771954,-0.62222725,4.390072e-05,-0.1835834,-0.02738725,-0.002344452,-0.012621735,0.0019564137,0.003305853,0.45646232,-1.3591977,1.876778,-2.0881789,-1.5690502,2.429972,-0.11284985,0.34576672,-0.42707965,0.07415297,0.009852763,-0.11595314,-0.038307227,0.3256114,-9.749189,0.947788,47.682407,-0.8772585,-2.3195446,-3.8833284,-0.02845322,0.23022276,-0.3945393,28.3125,29.375,28.5625,32.6875,35.25,36.375
0.3850062,1.0578098,0.41596043,-0.6224319,-0.007866344,0.011532106,-0.15324809,-0.41726172,-0.35479605,0.08498992,3.0770693,-0.62207896,-0.00016519225,-0.18753369,-0.027332008,0.0023086525,-0.014823926,0.0041968436,0.015477504,0.45580092,-1.3571959,1.8741435,-2.087744,-1.569014,2.4292352,-0.11638253,0.34500882,-0.43971622,0.084601484,0.010891224,-0.13165334,-0.076614454,0.2873042,-9.5385,1.0417832,47.703903,-0.78604496,-1.8719277,-3.5385342,-0.06570281,0.22720769,-0.27656952,28.3125,29.375,28.5625,32.6875,35.25,36.375
0.3900523,1.5345991,1.320684,-0.369288,0.014782441,0.0132749695,-0.16082238,-0.41801763,-0.3549377,0.08500448,3.0769954,-0.6218258,-0.00022243315,-0.18622471,-0.027464243,-2.9335162e-05,-0.011309981,-0.004348498,0.025465386,0.45536944,-1.3558035,1.8723706,-2.0874665,-1.5689415,2.4286559,-0.11514047,0.35055608,-0.4431568,0.091743186,0.011534226,-0.14039738,0.038307227,0.095768064,-9.615114,1.0305934,47.657326,-0.9557842,-1.8743297,-3.739182,-0.13658601,0.23822232,-0.10724451,28.3125,29.375,28.5625,32.6875,35.25,36.375
0.39505264,-0.06048356,0.15815838,0.35629058,-0.027689677,0.09118189,-0.1583626,-0.4191348,-0.35509294,0.085025005,3.0769577,-0.62176496,-0.0001283924,-0.18679915,-0.028849319,2.8223472e-05,-0.009420261,-0.009377927,0.01638423,0.45466244,-1.3537271,1.8696755,-2.086829,-1.5688695,2.4279168,-0.11311422,0.3561667,-0.4528587,0.10117927,0.012026584,-0.12928791,-0.21068975,0.11492168,-9.308657,0.96569055,47.7254,-1.1380378,-2.0785346,-3.499846,-0.2774684,0.22820023,-0.16591832,28.3125,29.375,28.5625,32.6875,35.25,36.375
0.40005264,-0.63290215,-0.31786647,0.2893118,-0.010519628,0.053244773,-0.14377655,-0.41991398,-0.35520294,0.08505422,3.0769074,-0.6216439,-0.00017900373,-0.19139747,-0.029349267,0.00230195,-0.013805333,-0.0010996552,0.0047070263,0.45418173,-1.352335,1.8678445,-2.0864594,-1.5688332,2.4273677,-0.11592161,0.35699362,-0.45839977,0.09652353,0.012304365,-0.120416045,-0.2681506,0.21068975,-9.32781,0.8717007,47.70211,-1.0045518,-1.8592103,-3.6364682,-0.2767687,0.22309726,-0.3120176,28.3125,29.375,28.5625,32.6875,35.25,36.375
0.4050521,-0.90835345,-0.6871059,0.19733696,-0.021801298,0.049642235,-0.14293507,-0.4210971,-0.35539356,0.085075416,3.0767646,-0.62171584,-0.00024267385,-0.19821869,-0.030455988,0.0027553407,-0.018179404,0.010746246,-0.0057753962,0.45348465,-1.3501629,1.8650545,-2.0859492,-1.5687617,2.426735,-0.11848671,0.36324546,-0.46490043,0.084214516,0.0110058,-0.1124958,-0.47884035,0.30645782,-9.212888,0.9164598,47.711964,-1.0074861,-1.6448069,-3.6381397,-0.14408475,0.23524511,-0.48615557,28.3125,29.375,28.5625,32.6875,35.25,36.375
0.41005242,-1.068672,-0.89496285,0.49237683,-0.04080954,0.09678072,-0.15799761,-0.42184794,-0.35553616,0.08507569,3.076712,-0.62164116,-0.00018539521,-0.20053732,-0.03173645,0.0027074674,-0.020142538,0.0127679035,0.0016167363,0.4530649,-1.3487121,1.8632106,-2.0855668,-1.5686892,2.426276,-0.118440054,0.3675287,-0.4700519,0.08243112,0.011891509,-0.1198397,-0.51714754,0.45968673,-9.021352,0.9634547,47.68599,-0.97934306,-1.6407456,-3.7229877,-0.07900986,0.2550509,-0.5080892,28.3125,29.375,28.5625,32.6875,35.25,36.375
0.4150539,-0.8504405,-0.50018835,0.81635106,-0.021430375,0.057207104,-0.15559848,-0.4230836,-0.355691,0.08508113,3.076642,-0.6215186,-0.00030600379,-0.2058184,-0.03263704,0.0036079567,-0.02085965,0.015374054,0.021970902,0.4522963,-1.3464793,1.8603824,-2.085087,-1.5686659,2.425441,-0.12049562,0.37540674,-0.48293993,0.084845506,0.011445478,-0.14224479,-0.36391866,0.45968673,-9.040505,0.9634547,47.67345,-1.0477719,-1.7744884,-3.4871428,-0.016127393,0.24990623,-0.29023898,28.3125,29.375,28.5625,32.6875,35.25,36.375
0.420053,0.1703329,-0.1701175,0.7367655,-0.014610885,0.046072133,-0.15466107,-0.42388594,-0.35583767,0.08508324,3.076625,-0.62120473,-0.00036801957,-0.2062274,-0.032557495,0.002983764,-0.019663014,0.01458775,0.026755342,0.4518644,-1.3449672,1.8584684,-2.0847633,-1.5686296,2.4248161,-0.120246716,0.37751728,-0.48484093,0.08588904,0.010740042,-0.14678021,-0.45968673,0.4213795,-8.887277,1.0015011,47.686886,-1.0867416,-1.7052464,-3.6704593,0.03234402,0.26233083,-0.17197812,28.3125,29.375,28.5625,32.6875,35.25,36.375
0.4250523,0.13614862,0.04027145,0.7528338,-0.010108273,0.049023755,-0.1659039,-0.4251606,-0.35601738,0.0850606,3.0765338,-0.621232,-0.0003450331,-0.20677051,-0.03140202,0.00039181244,-0.0141569525,0.002120182,0.009082381,0.45108372,-1.3425666,1.8554748,-2.0842083,-1.5685576,2.4240654,-0.12235191,0.3869407,-0.49437684,0.09960611,0.011222556,-0.13120958,-0.49799395,0.34476504,-8.90643,0.9925471,47.69763,-1.0056791,-1.87167,-3.6399498,-0.038663965,0.26895005,-0.3035847,28.3125,29.375,28.5625,32.6875,35.25,36.375
0.43005216,0.054314144,-0.18098648,0.5888725,0.015104571,0.030598475,-0.15356001,-0.42599502,-0.35614875,0.085065395,3.0764925,-0.6211479,-0.000362727,-0.20700167,-0.030796975,-0.0004386823,-0.010916079,-0.005770125,0.0060810396,0.45060346,-1.3410066,1.853474,-2.08381,-1.5685214,2.4235387,-0.123501316,0.39183593,-0.50142765,0.11028056,0.011756566,-0.12935542,-0.11492168,0.19153613,-9.078813,0.98135734,47.652847,-0.9676739,-1.9954724,-3.494285,-0.14771175,0.27757713,-0.36060512,28.3125,29.375,28.5625,32.6875,35.25,36.375
0.43505207,0.8612719,-0.0444338,0.43815964,-0.009444055,0.023954924,-0.16659008,-0.42726305,-0.35631445,0.085027695,3.0765038,-0.6211643,-0.00019877424,-0.20730327,-0.030672261,-0.002261571,-0.008024664,-0.0122092785,0.0110703455,0.44982353,-1.3385465,1.8503984,-2.083101,-1.5684732,2.4227688,-0.12352205,0.39803687,-0.5072717,0.11700689,0.011952276,-0.13436587,0.05746084,0.095768064,-9.040505,1.1156347,47.707485,-1.1388123,-2.053426,-3.6319861,-0.28619185,0.2795196,-0.3868188,28.3125,29.375,28.5625,32.6875,35.25,36.375
0.4400527,0.57879394,0.37693426,-0.26024404,0.028542675,-0.0052011763,-0.15599428,-0.4281014,-0.35643125,0.08500507,3.0765278,-0.62106466,-9.189692e-05,-0.21234338,-0.032576796,-0.0005860812,-0.013018524,-0.0014287018,0.024913168,0.4493196,-1.3369154,1.8483495,-2.0826256,-1.5684375,2.4222004,-0.12395509,0.4011442,-0.51346165,0.10825581,0.011748326,-0.14864147,0.076614454,0.114921674,-9.251195,1.0552088,47.71017,-1.1061311,-2.1494627,-3.4538116,-0.24307486,0.30495858,-0.2485433,28.3125,29.375,28.5625,32.6875,35.25,36.375
0.44505242,-0.97206134,-2.5649242,-0.897712,-0.05180529,0.04978212,-0.14221197,-0.42934787,-0.35660473,0.084946655,3.0765998,-0.6208513,0.00016475316,-0.21640758,-0.032130305,-0.0039234953,-0.014277863,0.00029732077,0.02084153,0.44856203,-1.3344305,1.8452743,-2.081886,-1.568365,2.4213016,-0.12761903,0.41026947,-0.5160364,0.099622466,0.012088426,-0.14823537,-0.1340753,0.4213795,-9.768343,1.0037369,47.73256,-0.8582849,-2.3751519,-3.9204464,-0.10352737,0.3064912,-0.121031776,28.3125,29.375,28.5625,32.6875,35.25,36.375
0.45005184,-1.3708378,-2.0747838,-1.195335,-0.08962756,0.05957655,-0.15884827,-0.43019217,-0.3567179,0.08489731,3.0766637,-0.6206576,0.0002835189,-0.21943364,-0.032265157,-0.0032728252,-0.015395148,0.001712098,0.008448624,0.4480575,-1.3327507,1.8432273,-2.0814426,-1.5683411,2.4206688,-0.12965319,0.41383648,-0.5228373,0.10108081,0.012445673,-0.13787635,-0.15322891,0.49799395,-10.208876,0.95897776,47.695843,-0.9001423,-2.3601494,-3.8826327,-0.10892424,0.32830322,-0.22792564,28.3125,29.375,28.5625,32.6875,35.25,36.375
0.4550521,-0.565665,-0.80119,-1.319885,-0.04359614,0.054312672,-0.1662184,-0.43155113,-0.3569453,0.08491394,3.0764606,-0.6206044,0.00023545808,-0.22039746,-0.03188922,-0.0037996303,-0.015648905,-0.001331448,-0.0071263327,0.447265,-1.3302554,1.8399948,-2.0808547,-1.5681967,2.4198701,-0.13129927,0.4167486,-0.52703285,0.10498764,0.013992508,-0.12394574,-0.24899697,0.40222588,-10.113108,1.0328293,47.683304,-0.89902806,-2.1452293,-4.1074543,-0.056241643,0.30574268,-0.4384271,28.3125,29.375,28.5625,32.6875,35.25,36.375
0.46005255,-0.7622923,0.047114603,-1.2435603,-0.01213842,0.037199493,-0.16728266,-0.4324577,-0.35704228,0.08491158,3.0764005,-0.62080073,0.00020093504,-0.22057156,-0.031385522,-0.005549996,-0.011554304,-0.010628203,-0.0057332027,0.44670087,-1.3285991,1.8378633,-2.0804079,-1.5681967,2.4194372,-0.13205378,0.4236912,-0.53470325,0.1158819,0.014334882,-0.12609099,-0.30645782,0.24899697,-10.151415,1.0015011,47.695843,-0.86887026,-2.4631557,-3.9929268,-0.16500872,0.2989751,-0.50038326,28.3125,29.375,28.5625,32.625,35.25,36.375
0.4650522,-0.6761891,0.40949094,-0.6341695,0.028222363,0.022067653,-0.16475339,-0.4338035,-0.3572766,0.08489509,3.0763154,-0.6205963,0.0002361367,-0.22406006,-0.031712446,-0.0010058775,-0.013303593,-0.0077408077,0.017908882,0.44595626,-1.3260218,1.8345813,-2.079758,-1.5680884,2.418577,-0.13390811,0.42294952,-0.5473184,0.12597296,0.014714286,-0.1515854,0.038307227,-0.15322891,-9.749189,0.9925471,47.66539,-0.7932953,-2.1812723,-3.704701,-0.301316,0.2970283,-0.30402407,28.3125,29.375,28.5625,32.625,35.25,36.375
0.47005308,-0.17430173,0.94127965,-0.16967659,0.022517608,0.024439896,-0.1747473,-0.43469808,-0.35739616,0.0849137,3.0762846,-0.6204323,0.0002378413,-0.22738506,-0.033462614,-0.0015124573,-0.016153857,-0.0013420512,0.025060732,0.44541663,-1.3243896,1.832414,-2.0792582,-1.5680403,2.4179397,-0.13314454,0.42810112,-0.55130154,0.11783665,0.014518106,-0.15797304,-0.15322891,-0.22984336,-9.672575,0.9612189,47.689575,-0.9286047,-2.0632756,-3.8438215,-0.27394962,0.3056508,-0.17558718,28.3125,29.375,28.5625,32.625,35.25,36.375
0.4750524,-0.9140514,-0.63510084,0.041713137,-0.022465192,0.074089855,-0.17032002,-0.43604273,-0.35759324,0.08489446,3.0762525,-0.6202404,0.00029010675,-0.23499064,-0.037712026,0.002954332,-0.023927076,0.016882611,0.009871584,0.44463757,-1.3218347,1.8291444,-2.0785563,-1.5679687,2.417046,-0.13105726,0.43154564,-0.5642974,0.10756969,0.01361644,-0.14069529,-0.24899697,0.019153614,-9.385271,0.98807013,47.683304,-1.1886058,-2.0881526,-3.6884627,-0.04936171,0.30127394,-0.332628,28.3125,29.375,28.5625,32.625,35.25,36.375
0.48005277,-1.5013458,-1.177004,-0.34813643,-0.023420336,0.031593338,-0.15690078,-0.43696317,-0.35772678,0.08492766,3.0761507,-0.6201788,0.00022007123,-0.23416911,-0.038024038,0.0026365551,-0.023213807,0.015198296,0.009734147,0.44409811,-1.320192,1.8269323,-2.0780885,-1.5679086,2.416482,-0.12953615,0.43197677,-0.5652783,0.109958336,0.0137238735,-0.13903661,-0.47884035,0.49799395,-9.442732,1.0194036,47.642998,-1.3208072,-1.9029195,-3.960638,-0.0076932376,0.29388124,-0.38048232,28.3125,29.375,28.5625,32.625,35.25,36.375
0.4850524,-1.1919988,-2.7998443,-0.4130931,-0.09900948,0.031582337,-0.15814672,-0.43839654,-0.3579378,0.08498036,3.076053,-0.620039,-2.7629034e-05,-0.23824528,-0.03784758,0.0036956284,-0.02238829,0.01435726,0.016222024,0.44331726,-1.3176363,1.8234934,-2.0774033,-1.5679086,2.4156277,-0.13221975,0.4381571,-0.578053,0.11770668,0.013394877,-0.14820366,-0.63206923,1.1492168,-9.691729,1.0977321,47.652847,-1.2558337,-1.8302351,-3.8646035,-0.014681667,0.3029053,-0.33233565,28.3125,29.375,28.5625,32.625,35.25,36.375
0.49005187,-1.1962203,-2.9029765,-0.4279473,-0.085806064,0.046753176,-0.15496635,-0.43933904,-0.35810196,0.08499037,3.0759895,-0.6197871,2.757443e-05,-0.2361649,-0.03548474,0.0006250746,-0.016438786,-0.0012801449,0.028451575,0.4427886,-1.3158598,1.8211473,-2.0768712,-1.5678004,2.4149506,-0.13480304,0.44349402,-0.58188534,0.13294451,0.0147972535,-0.16301447,-0.13407528,1.091756,-9.481039,1.0462601,47.66091,-1.1127489,-2.0044856,-3.9209511,-0.15786529,0.3036091,-0.13780499,28.3125,29.375,28.5625,32.625,35.25,36.375
0.49505252,0.067072116,-0.20559841,0.6580123,-0.012296723,-0.016063321,-0.15467398,-0.44078794,-0.3583301,0.08500646,3.0759025,-0.61954474,-2.0193747e-05,-0.24003942,-0.036771636,0.0030366934,-0.018952573,-0.0011688719,0.01723525,0.44198418,-1.3131729,1.817602,-2.0761144,-1.567716,2.4140072,-0.13626543,0.44816786,-0.59606135,0.14125921,0.017008081,-0.15325499,-0.114921674,0.5554548,-8.925584,1.0798295,47.709274,-1.1292946,-1.7139869,-3.6182842,-0.29717046,0.2677616,-0.13267078,28.3125,29.375,28.5625,32.625,35.25,36.375
0.5000528,0.713094,0.9168178,0.9875347,0.03287086,-0.0047005303,-0.16658585,-0.44182032,-0.35852358,0.08507577,3.0756812,-0.6194498,-0.00019298459,-0.24484463,-0.03749816,0.00236114,-0.022561634,0.0058039124,0.0018632986,0.44143143,-1.3113728,1.8150986,-2.075639,-1.5675958,2.4134243,-0.13848628,0.4541049,-0.600517,0.1319165,0.01726464,-0.14009993,-0.057460837,0.26815057,-8.542512,1.0775883,47.667187,-1.0313828,-1.74448,-3.643961,-0.18994972,0.2487106,-0.2704836,28.3125,29.375,28.5625,32.625,35.25,36.375
0.5050521,-1.6561382,-0.24419767,1.1824696,-0.012131601,0.0615864,-0.16135773,-0.44328335,-0.35875955,0.0850783,3.0755625,-0.6194291,-0.00011962222,-0.24711858,-0.038656846,0.0031989785,-0.027639357,0.014005597,-0.009758027,0.44061592,-1.3086035,1.8114504,-2.0747921,-1.5674752,2.4126122,-0.13824803,0.45356908,-0.6008697,0.12320936,0.018323066,-0.12824187,-0.22984336,-0.019153614,-8.619126,0.7866488,47.72092,-0.68815756,-2.6053948,-2.6668966,-0.0050339405,0.19494885,-0.4433997,28.3125,29.375,28.5625,32.625,35.25,36.375
0.5100552,-0.96746224,0.8470589,0.9546821,0.02723311,0.05298778,-0.17014728,-0.44430435,-0.35892028,0.08506764,3.0753999,-0.6194436,-0.00015793399,-0.24044915,-0.039021,0.0029154206,-0.026948875,0.010266266,0.0047283694,0.4400298,-1.3067113,1.8090147,-2.0743601,-1.567367,2.4120567,-0.1325907,0.44493032,-0.5906884,0.12539665,0.01937121,-0.1370735,0.095768064,-0.47884035,-8.848969,0.89631605,47.694054,-0.86691594,-2.3238258,-3.1171556,0.0005125639,0.15869163,-0.4213572,28.3125,29.375,28.5625,32.625,35.25,36.375
0.51505363,2.6480784,4.340665,0.42797264,0.1507283,-0.06759681,-0.1886279,-0.44577122,-0.35913774,0.08504288,3.075298,-0.61927533,-0.00024280323,-0.2342487,-0.036730364,-0.002902098,-0.016087327,-0.0043596537,0.026342608,0.43921512,-1.3039658,1.805488,-2.0736988,-1.5672964,2.4111512,-0.12901655,0.44795966,-0.5844382,0.13407776,0.0158785,-0.1551197,0.7278373,-0.842759,-8.810662,0.87617236,47.68599,-0.9100187,-2.8092852,-3.0614471,-0.039710473,0.15132332,-0.15350178,28.3125,29.375,28.5625,32.625,35.25,36.375
0.5200527,2.8499217,3.305561,-0.024832914,0.15638089,-0.14455529,-0.16083089,-0.44670373,-0.35926494,0.08499687,3.0753717,-0.6191234,-0.00011771228,-0.23007566,-0.03387194,-0.004504901,-0.009616085,-0.013854732,0.017147053,0.43869922,-1.3021085,1.8031319,-2.073109,-1.567285,2.4105318,-0.12907006,0.44501427,-0.5801393,0.14405379,0.01404836,-0.14598404,0.80445176,-0.9768343,-8.90643,0.8493211,47.7245,-0.910171,-3.0444846,-3.014172,-0.16449685,0.14818557,-0.16514465,28.3125,29.375,28.5625,32.625,35.25,36.375
0.5250523,1.9535661,0.41037965,-0.9169906,0.024844337,-0.068788365,-0.16710538,-0.4480289,-0.35942617,0.08495568,3.0754204,-0.61915815,0.00019591961,-0.2291232,-0.03298686,-0.0033501536,-0.011104406,-0.0077960948,0.0029246155,0.43790734,-1.2994976,1.7997254,-2.0721176,-1.5672129,2.4097564,-0.12849414,0.4379679,-0.5736537,0.13846992,0.0127547,-0.13119522,1.3982139,-0.49799395,-9.557653,0.8873621,47.68062,-0.6666788,-2.8131351,-3.16394,-0.21295786,0.15306339,-0.3284366,28.3125,29.375,28.5625,32.625,35.25,36.375
0.53005207,0.8246988,-0.9668264,-1.306982,-0.04644585,-0.014262376,-0.17205237,-0.44889683,-0.35952902,0.08489493,3.0754905,-0.6191153,0.00042402104,-0.23019636,-0.03408825,-0.0023542005,-0.015175418,0.0016300803,0.00035150116,0.43739218,-1.2977365,1.7975124,-2.071511,-1.5671772,2.4092062,-0.12695803,0.43493846,-0.57040125,0.12798184,0.012400349,-0.12709193,1.0534487,-0.038307227,-9.959879,0.8784135,47.67345,-0.7181691,-3.1262813,-3.062673,-0.1179703,0.14796792,-0.37800172,28.3125,29.375,28.5625,32.625,35.25,36.375
0.53505266,0.95678395,-2.542005,-2.589761,-0.060530584,-0.028630994,-0.16893776,-0.4502237,-0.35970622,0.08486258,3.0754843,-0.61900765,0.00053537346,-0.22446343,-0.032673407,-0.0035768445,-0.015404747,0.00036207002,0.0167211,0.4366367,-1.2951871,1.7941936,-2.070698,-1.5671166,2.4083853,-0.124749124,0.42523968,-0.55548614,0.12388628,0.013201121,-0.14126027,0.9385271,0.68953013,-10.611102,1.0037369,47.682407,-0.6500733,-2.9123716,-3.7620974,-0.07450059,0.12332752,-0.24830109,28.3125,29.375,28.5625,32.625,35.25,36.375
0.540052,0.14432715,-3.5984342,-2.9116035,-0.08145933,-0.024287641,-0.15149388,-0.4511128,-0.35982445,0.08485395,3.0754619,-0.61886406,0.00059238734,-0.2235321,-0.031969525,-0.0013474094,-0.014540747,0.001694779,0.023295995,0.4361213,-1.2935115,1.7919797,-2.0701582,-1.567057,2.4077837,-0.12409926,0.41999123,-0.5555191,0.1283684,0.01188261,-0.14718866,0.17238252,0.8619126,-10.649409,0.9567419,47.696735,-0.68335724,-2.8410306,-3.59454,-0.1276145,0.14226869,-0.13973454,28.3125,29.375,28.5625,32.625,35.25,36.375
0.54505247,0.33943403,-1.0477359,-1.9071931,-0.051468384,0.018596085,-0.16129111,-0.4524387,-0.3600315,0.084885135,3.0753593,-0.6186982,0.0005739328,-0.21795079,-0.029365934,-0.004989391,-0.010096889,-0.01446337,0.006666764,0.43540087,-1.2910677,1.7886437,-2.069352,-1.5669602,2.4069738,-0.12503605,0.41939098,-0.55008906,0.14001538,0.014687767,-0.1314949,0.114921674,0.22984336,-10.457873,0.9164598,47.691364,-0.45000193,-3.0650768,-3.7166913,-0.33955735,0.10442446,-0.20406523,28.3125,29.375,28.5625,32.625,35.25,36.375
0.5500528,1.0550618,0.86491185,-1.2782505,0.04589044,-0.016596634,-0.15933242,-0.45333374,-0.3601965,0.08490729,3.0751798,-0.61866647,0.0005417073,-0.22105224,-0.03164274,0.0011236328,-0.018164031,0.0017092833,-0.0032488853,0.4349215,-1.2894285,1.7864178,-2.0688884,-1.5668281,2.4064982,-0.12358596,0.411383,-0.5525776,0.13242303,0.015148616,-0.120129794,0.4405331,-0.22984336,-9.959879,0.8403672,47.682407,-0.45671016,-2.946474,-3.2265837,-0.318048,0.06111537,-0.324627,28.3125,29.375,28.5625,32.625,35.25,36.375
0.55505204,0.21451956,1.461489,-0.34509397,0.07518007,-0.010649568,-0.15927158,-0.45467773,-0.36040944,0.08494514,3.0749893,-0.6186841,0.0003500506,-0.22117996,-0.034964595,0.0021654814,-0.024870027,0.01790639,-0.0064162477,0.43421575,-1.2870097,1.7831196,-2.0682132,-1.5667566,2.405829,-0.117409945,0.40607527,-0.54446477,0.1120871,0.014392558,-0.11079104,0.19153613,-0.51714754,-9.5385,0.87393653,47.67166,-0.7351005,-2.7731934,-3.3183208,-0.04597396,0.025985625,-0.502255,28.3125,29.375,28.5625,32.625,35.25,36.375
0.5600524,-0.4777906,1.5466077,-0.41820192,0.05562672,0.024089249,-0.16889535,-0.45554295,-0.3605652,0.08495757,3.0748727,-0.6185948,0.00029674364,-0.22042413,-0.036008116,0.003892663,-0.025105208,0.021129666,0.005941678,0.43377292,-1.2854046,1.7809547,-2.0677574,-1.5666727,2.405346,-0.11425835,0.40292796,-0.5450998,0.112905264,0.013301239,-0.11999946,0.36391866,-0.5363012,-9.2703495,0.8672237,47.681515,-0.7202171,-2.8037508,-3.1163054,0.029850692,0.017670875,-0.47044486,28.3125,29.375,28.5625,32.625,35.25,36.375
0.5650527,0.22155908,0.47716826,0.02486408,0.044709552,-0.0018417235,-0.15594614,-0.4568503,-0.36076412,0.08496651,3.074747,-0.6184221,0.00015644052,-0.21496993,-0.03357437,0.0030711414,-0.019285366,0.016002765,0.02644597,0.43307766,-1.2830108,1.7777508,-2.0671093,-1.5666021,2.4045599,-0.11199927,0.39558914,-0.5360037,0.118352704,0.010298571,-0.13825226,0.17238252,-0.1340753,-9.040505,0.8851263,47.657326,-0.8653243,-2.7249799,-3.2659287,0.07694259,0.03167669,-0.21237493,28.3125,29.375,28.5625,32.625,35.25,36.375
0.57005197,1.5041538,1.1330807,0.5323488,0.038710553,-0.01733419,-0.1618201,-0.45768538,-0.360898,0.08497237,3.0747256,-0.61818737,7.929333e-05,-0.21094748,-0.03032228,0.0041526533,-0.012952848,0.008273857,0.025891207,0.43265745,-1.2814556,1.7756575,-2.0666487,-1.5665787,2.4039965,-0.1126093,0.38857633,-0.53318125,0.13223259,0.007849765,-0.1383124,0.1340753,0.0,-8.829816,0.900793,47.63673,-0.8655068,-2.372864,-3.136156,-0.04143004,0.067244254,-0.11347233,28.3125,29.375,28.5625,32.625,35.25,36.375
0.5750526,2.2190042,0.99058914,0.9658905,0.0299214,-0.040401287,-0.17041005,-0.45899987,-0.3610705,0.08503474,3.0746229,-0.61817473,-0.00016530819,-0.20546752,-0.029983262,0.00205007,-0.007902312,-0.0027624546,0.00887679,0.43196315,-1.2791436,1.772405,-2.065892,-1.5665907,2.4033086,-0.108624846,0.38756138,-0.5302174,0.14233449,0.007879258,-0.11731343,0.53630114,-0.24899697,-8.446744,0.92764956,47.67793,-0.9130922,-2.714199,-2.9715738,-0.23287958,0.067655236,-0.28792012,28.3125,29.375,28.5625,32.625,35.25,36.375
0.58005285,2.104045,1.1349552,0.75790334,0.036441695,-0.062055483,-0.15480523,-0.45980263,-0.3611721,0.08497223,3.0747025,-0.61805797,-4.2370346e-05,-0.2061754,-0.029697096,0.001933408,-0.011871877,0.0046305517,0.0044845343,0.43153068,-1.2775142,1.7703513,-2.0653698,-1.5665907,2.4027936,-0.10956533,0.38416737,-0.5235477,0.13067046,0.00835735,-0.11386605,0.82360536,-0.17238252,-8.504205,0.90527004,47.678825,-0.78506905,-2.8352818,-3.068973,-0.14357169,0.070017464,-0.3187744,28.3125,29.375,28.5625,32.625,35.25,36.375
0.58505243,1.9942937,0.28557104,0.49684674,0.021233756,-0.048733804,-0.16139507,-0.4610549,-0.36133575,0.08495879,3.0745866,-0.61818606,-6.4092834e-05,-0.20729981,-0.030314893,0.003924636,-0.016935647,0.015867626,0.0048381407,0.43083504,-1.2751796,1.7672418,-2.0646555,-1.5665306,2.4021938,-0.10889749,0.37843144,-0.5189334,0.11947968,0.00826093,-0.1135567,0.7852981,-0.05746084,-8.63828,0.9298854,47.695843,-0.6926913,-2.6097083,-2.966879,0.022581093,0.08597323,-0.3599835,28.3125,29.375,28.5,32.625,35.25,36.375
0.59005183,2.2180145,1.3998574,-0.22886617,0.04495995,-0.053595178,-0.16607273,-0.46184975,-0.36145514,0.0849548,3.0745842,-0.6180262,-6.8580775e-05,-0.20399186,-0.02868273,0.00029038457,-0.01401741,0.008584081,0.014210362,0.43042713,-1.2736702,1.7652091,-2.0641525,-1.5665067,2.401687,-0.10901519,0.37880808,-0.5118599,0.11991342,0.008706758,-0.12304825,0.8236054,0.019153614,-9.040505,0.9567419,47.686886,-0.564885,-2.8627372,-3.0257382,0.046146333,0.076360956,-0.25128227,28.3125,29.375,28.5,32.625,35.25,36.375
0.5950523,0.80544025,-0.825231,-1.0783858,0.012742631,-0.029639652,-0.14715122,-0.463012,-0.36161184,0.08490129,3.0746603,-0.61780745,0.00016604022,-0.19774772,-0.025344031,-0.0012940151,-0.008068894,-0.0043174783,0.021056488,0.42979097,-1.2713472,1.7621621,-2.063286,-1.5664467,2.4009051,-0.10933742,0.37294942,-0.50443065,0.13259564,0.008735284,-0.13022043,0.49799395,0.05746084,-9.481039,0.9298854,47.73077,-0.41233894,-3.0513086,-3.2596066,-0.07815497,0.08044775,-0.07073869,28.3125,29.375,28.5,32.625,35.25,36.375
0.6000527,0.8697174,-0.45566347,-1.3466668,-0.019534528,0.0075042904,-0.16068363,-0.46377724,-0.36172074,0.0848851,3.074678,-0.61771905,0.00026842093,-0.19116746,-0.023962218,-0.0029797065,-0.0031478459,-0.016329477,0.0130364895,0.42938396,-1.2698512,1.7601546,-2.06272,-1.56641,2.4004412,-0.10672632,0.3684509,-0.4978013,0.14339386,0.009262067,-0.11959038,0.2681506,0.1340753,-9.998186,0.8918391,47.7254,-0.5465001,-3.0738468,-3.2931416,-0.24765629,0.10060095,-0.06934103,28.3125,29.375,28.5,32.625,35.25,36.375
0.60505235,0.19662413,0.1003163,-1.7107358,0.009729825,0.0088479575,-0.1566885,-0.46493256,-0.3618505,0.08484563,3.074674,-0.61770475,0.00048605286,-0.18883006,-0.025807938,-0.005305034,-0.0054418016,-0.014428475,0.0010096984,0.4287015,-1.2676104,1.7571787,-2.0618737,-1.5663255,2.399751,-0.102327034,0.3680509,-0.4906497,0.13389647,0.010479906,-0.10316756,0.45968673,-0.30645782,-10.151415,0.85155696,47.703903,-0.5712239,-3.3083782,-3.5299046,-0.324714,0.061128765,-0.22036111,28.3125,29.375,28.5,32.625,35.25,36.375
0.61005265,0.7596568,1.1851609,-1.5585506,0.029390058,0.011031748,-0.15796795,-0.46567982,-0.3619907,0.08486086,3.0745394,-0.61769956,0.00045889558,-0.19490804,-0.02739606,-0.0013495582,-0.014588421,0.0075405077,-0.007266983,0.4283292,-1.2662219,1.7552637,-2.0614378,-1.5662302,2.399393,-0.10353661,0.36398277,-0.490164,0.11367961,0.009611597,-0.0961056,0.28730422,-0.36391866,-10.113108,0.85155696,47.72092,-0.36011112,-3.4635801,-3.1835291,-0.14088307,0.08202487,-0.3626187,28.3125,29.375,28.5,32.625,35.25,36.375
0.6150526,0.103683695,0.032004323,-1.9597344,0.0096817855,0.009170802,-0.14558366,-0.46682107,-0.362168,0.08486262,3.074442,-0.6177355,0.00040292364,-0.18929696,-0.027386244,-0.0018631204,-0.013354331,0.008409213,-0.006113035,0.42775527,-1.26408,1.7523502,-2.0607445,-1.5661825,2.398855,-0.09834454,0.35511544,-0.4773182,0.10941972,0.008148837,-0.092074946,0.17238252,-0.22984336,-10.342952,0.86498255,47.68599,-0.6155107,-3.2122216,-3.535557,-0.023418592,0.08379666,-0.4600417,28.3125,29.375,28.5,32.625,35.25,36.375
0.62005186,0.3578664,0.055445243,-1.7532047,-0.0002061009,0.017101089,-0.14597449,-0.46759647,-0.36225808,0.084882304,3.0743995,-0.61772,0.00024742942,-0.18691844,-0.027113104,-0.00037606654,-0.0126141235,0.0075047635,0.0044058156,0.4273478,-1.262704,1.7504376,-2.0603125,-1.5662063,2.398444,-0.096680075,0.3497441,-0.47512254,0.113769926,0.007908925,-0.100930735,0.21068975,-0.095768064,-10.28549,0.8560339,47.684196,-0.63700414,-3.067966,-3.378773,-0.0120607605,0.10133278,-0.40506607,28.3125,29.375,28.5,32.625,35.25,36.375
0.6250523,1.0644078,1.1338545,-1.2684385,0.01578198,-0.0164838,-0.15624082,-0.46875632,-0.36244854,0.084967926,3.0742226,-0.6175774,8.964591e-06,-0.17954107,-0.02482505,-0.0021876171,-0.005876431,-0.0077097346,0.02169027,0.42677248,-1.260692,1.7474989,-2.0596244,-1.5661348,2.397803,-0.09476026,0.3448594,-0.46880373,0.12906033,0.008208361,-0.11629422,0.4213795,0.0,-10.055647,0.8672237,47.696735,-0.63521254,-3.2018554,-3.4299405,-0.17549333,0.10772962,-0.21678871,28.3125,29.375,28.5,32.625,35.25,36.375
0.63005275,1.9173874,0.3651403,-0.6282731,0.017315272,-0.043173656,-0.15287782,-0.4695223,-0.3625327,0.084998794,3.074205,-0.6174383,-0.00014899355,-0.1781099,-0.025091024,-0.00095182634,-0.005772785,-0.005781953,0.023723107,0.4263653,-1.2593517,1.7455987,-2.05917,-1.5661591,2.397312,-0.09262171,0.3407115,-0.46667525,0.1293712,0.0073321573,-0.11619147,0.7086837,-0.05746084,-9.672575,0.900793,47.701214,-0.6040453,-3.1108103,-3.2939003,-0.2358422,0.13528675,-0.14357916,28.3125,29.375,28.5,32.625,35.25,36.375
0.6350521,1.9934876,-0.09374342,-0.18777336,0.0003305411,-0.038584527,-0.15550153,-0.47060826,-0.3626913,0.08503343,3.0741422,-0.6172585,-0.00025523797,-0.17950457,-0.027588977,0.0037591418,-0.013676897,0.0108418325,0.010286291,0.42581457,-1.2573779,1.7428144,-2.0584686,-1.5661224,2.3966577,-0.08950266,0.33166155,-0.4631548,0.1164242,0.007590375,-0.09963951,0.8236054,-0.019153614,-9.270349,0.93436235,47.694946,-0.73455095,-2.7474837,-3.0028977,-0.1564426,0.1336833,-0.20708227,28.3125,29.375,28.5,32.625,35.25,36.375
0.6400527,1.3131578,-0.03646854,-0.0014995282,0.011447734,-0.033813987,-0.1496412,-0.47133565,-0.36281785,0.085092194,3.0739918,-0.61722964,-0.0004558283,-0.18016888,-0.028500784,0.005022925,-0.018063104,0.019127654,0.005842333,0.42546678,-1.2561328,1.7409858,-2.0580766,-1.5660747,2.3963118,-0.08862764,0.32774702,-0.4591112,0.10691731,0.008155556,-0.09432139,0.842759,0.0,-9.002198,0.91421866,47.679718,-0.7176695,-2.7612002,-2.9524784,0.0014972892,0.15061882,-0.29005414,28.3125,29.375,28.5,32.625,35.25,36.375
0.6450522,1.8513709,0.21369906,0.41951746,0.02266118,-0.04067865,-0.15349185,-0.47239074,-0.36298245,0.08511842,3.07387,-0.6171306,-0.00059106434,-0.1772553,-0.027031438,0.004389378,-0.0184332,0.017885607,0.00030415176,0.42493868,-1.2542173,1.7383112,-2.0574663,-1.5660146,2.3957381,-0.088989936,0.32200193,-0.45030567,0.10481753,0.009025529,-0.08914595,0.7086837,0.1340753,-8.791509,0.88289046,47.73883,-0.5892129,-2.7794652,-3.1432855,0.08245708,0.14171137,-0.3590079,28.3125,29.375,28.5,32.625,35.25,36.375
0.6500526,1.7764494,0.3574158,0.73339117,0.017778441,-0.03088735,-0.1584111,-0.47309336,-0.36308077,0.08512778,3.0738547,-0.6170672,-0.0006469492,-0.17414626,-0.025592223,0.0032614926,-0.0146687515,0.011477946,0.0016376395,0.42459095,-1.2529124,1.7364944,-2.0569975,-1.5660146,2.3953533,-0.08843878,0.32004362,-0.44695804,0.110827945,0.008272092,-0.08993062,0.4213795,0.21068975,-8.619126,0.87393653,47.72271,-0.49598047,-2.7843437,-2.9609623,0.09716877,0.16561405,-0.36705303,28.3125,29.375,28.5,32.625,35.25,36.375
0.65505254,1.6276898,1.0927413,1.0070319,0.04840828,-0.051775206,-0.14883631,-0.47410405,-0.36323673,0.08511075,3.0737503,-0.61703557,-0.00055424246,-0.1653791,-0.024851978,0.003041021,-0.009241951,-0.0026345896,0.018159118,0.42405272,-1.2509737,1.7338666,-2.0563214,-1.565894,2.3948092,-0.08356572,0.3120825,-0.44038132,0.12737945,0.009244555,-0.10157729,0.4405331,0.019153614,-8.580819,0.7911258,47.689575,-0.66186595,-2.633216,-2.9420156,-0.08224402,0.15421277,-0.2386885,28.3125,29.375,28.5,32.625,35.25,36.375
0.660052,1.7128398,1.2430644,0.93983424,0.07111892,-0.058379684,-0.15571651,-0.47475928,-0.36331975,0.08509754,3.0737767,-0.6169224,-0.0004808698,-0.16184035,-0.022672787,0.00077501,-0.004514915,-0.011102883,0.024311978,0.42370465,-1.2497039,1.7321342,-2.055817,-1.5658706,2.3943875,-0.08387993,0.31085774,-0.4354129,0.13334075,0.008464888,-0.10804752,0.59376204,-0.22984336,-8.63828,0.8672237,47.678825,-0.5904673,-2.8461318,-3.040947,-0.21262446,0.15548864,-0.10139451,28.3125,29.375,28.5,32.625,35.25,36.375
0.6650525,0.28358126,0.29415816,0.18591592,0.039585557,-0.035004176,-0.14365476,-0.47571346,-0.3634656,0.085072994,3.073887,-0.6166987,-0.00030313185,-0.16197829,-0.023668323,8.541354e-05,-0.007387087,-0.004095946,0.017972533,0.42324933,-1.2477753,1.7294925,-2.0549715,-1.5658587,2.3937788,-0.08200744,0.3093601,-0.42979383,0.12161572,0.008139768,-0.099841624,0.4405331,-0.095768064,-8.983045,0.88960326,47.678825,-0.6499541,-3.058311,-2.8072286,-0.19584864,0.17674038,-0.030732349,28.3125,29.375,28.5,32.625,35.25,36.375
0.67005306,0.023952218,-0.86146134,-0.08777472,-0.02406486,0.024906173,-0.15820336,-0.47632512,-0.36354786,0.08501682,3.0739057,-0.61665136,-5.5024917e-05,-0.16092779,-0.023310317,-0.002454123,-0.009222517,-0.0006029285,0.0075060125,0.42290154,-1.2464937,1.727836,-2.0544612,-1.5657748,2.3933992,-0.081743546,0.30783945,-0.41965574,0.10901457,0.008317926,-0.08911627,0.15322891,-0.21068975,-9.423578,0.82694155,47.699425,-0.6376288,-3.1860352,-3.1521988,-0.08781056,0.18559441,-0.12070455,28.3125,29.375,28.5,32.625,35.25,36.375
0.67505205,0.13079141,-0.17008781,-0.62676597,0.038818616,-0.012480528,-0.148269,-0.47725463,-0.3636809,0.08495016,3.0738997,-0.61665505,-2.7752843e-05,-0.1604684,-0.023915498,0.00050779805,-0.01351495,0.007656634,-0.003396161,0.42244604,-1.244639,1.7254461,-2.0539124,-1.5657629,2.3929474,-0.08047813,0.29972482,-0.41480312,0.10292312,0.008797201,-0.0769517,0.4213795,-0.11492168,-9.615114,0.7620334,47.701214,-0.56062055,-3.066762,-3.0571272,-0.033929437,0.19725762,-0.26285452,28.3125,29.375,28.5,32.625,35.25,36.375
0.6800525,1.5023006,1.5776763,-1.1676604,0.05666666,-0.035226375,-0.15405382,-0.47788033,-0.3637411,0.08491443,3.0739114,-0.61671543,9.223984e-05,-0.15682931,-0.022383632,-0.0014030387,-0.0104656,0.0007731103,-0.005150959,0.42208618,-1.2434057,1.7238101,-2.0534322,-1.5657386,2.3926241,-0.08015633,0.2975184,-0.40882128,0.10667059,0.008848588,-0.074876726,0.24899697,0.0,-9.768343,0.85826975,47.683304,-0.52126795,-3.2836978,-3.1669145,-0.018637972,0.19630831,-0.3097533,28.3125,29.375,28.5,32.625,35.25,36.375
0.6850529,1.0109805,0.2942806,-1.2035471,-0.0015965052,0.005076319,-0.15698536,-0.4787832,-0.363876,0.08486646,3.0738974,-0.6167718,0.00025449583,-0.14910455,-0.017922528,-0.0073677413,0.0004827886,-0.020605093,-0.009698255,0.42163002,-1.2415842,1.7213858,-2.0527446,-1.5656785,2.3922055,-0.08082678,0.29764035,-0.39938882,0.12109566,0.0076456163,-0.071002476,0.38307226,-0.28730422,-9.9790325,0.8717007,47.688675,-0.47418654,-3.6309347,-3.334868,-0.25999445,0.21259016,-0.41848436,28.3125,29.375,28.5,32.625,35.25,36.375
0.6900519,1.224162,0.19195472,-1.3466544,0.024730273,-0.012211603,-0.15566118,-0.47939092,-0.36394328,0.08485362,3.0738773,-0.6168401,0.00030869598,-0.14680594,-0.019733254,-0.0051162676,-0.0008259218,-0.017548094,-0.0029505068,0.4212957,-1.2404238,1.7197965,-2.0522897,-1.5656546,2.3919168,-0.07621729,0.29192552,-0.39730185,0.12141483,0.007594564,-0.073142864,0.6512228,-0.19153613,-9.902418,0.8291774,47.68599,-0.57252544,-3.549708,-3.181281,-0.3380847,0.22506192,-0.45218956,28.3125,29.375,28.5,32.625,35.25,36.375
0.6950524,1.6260538,0.5704865,-1.340686,0.01748604,-0.02842618,-0.165263,-0.48026857,-0.36406937,0.084837414,3.0738688,-0.61677146,0.00045918254,-0.14980806,-0.021497795,0.00032216465,-0.010308553,0.0040595834,0.012732822,0.42084002,-1.2387017,1.717419,-2.0515664,-1.5655831,2.3914196,-0.075274795,0.28132755,-0.39185715,0.10306162,0.00743001,-0.08789187,0.59376204,-0.17238252,-9.998186,0.842603,47.74868,-0.4621558,-3.3909988,-3.1704426,-0.24248856,0.2478002,-0.329687,28.3125,29.375,28.5,32.625,35.25,36.375
0.700052,0.008336477,-1.0695814,-1.2105764,-0.016712474,-0.0073747174,-0.15910807,-0.48086628,-0.3641614,0.0848566,3.0738595,-0.61663127,0.00038325202,-0.14826378,-0.021848764,0.0015450679,-0.013675653,0.010095138,0.019843528,0.42056453,-1.2376016,1.7158431,-2.0511496,-1.5655826,2.3910582,-0.07383458,0.2741899,-0.38373047,0.09521911,0.008066389,-0.09356492,0.5554548,0.0,-10.0748005,0.90527004,47.7245,-0.5169523,-3.3454964,-3.2355118,-0.1696509,0.23015517,-0.24180847,28.3125,29.375,28.5,32.625,35.25,36.375
0.70505273,1.2420746,-0.53834146,-1.5599028,0.0050266264,-0.013217572,-0.15690745,-0.4817415,-0.3642705,0.08484612,3.0738046,-0.61652255,0.00035413902,-0.1457188,-0.022933824,0.00024872003,-0.015226112,0.010842485,0.021463912,0.420098,-1.2359726,1.71361,-2.0506017,-1.565534,2.3905313,-0.07073612,0.27187786,-0.37686428,0.089346744,0.009185169,-0.092087224,0.49799395,0.13407528,-9.9790325,0.80456203,47.7254,-0.61822486,-3.5460644,-3.2912152,-0.05439295,0.2523749,-0.12007137,28.3125,29.375,28.5,32.625,35.25,36.375
0.7100522,1.2210056,-0.3117659,-1.3085834,0.0067340736,-0.053398456,-0.1594139,-0.4823279,-0.36437157,0.08485519,3.073761,-0.61632633,0.00024073724,-0.14369564,-0.022392679,2.8169825e-05,-0.013352419,0.010765388,0.0134121105,0.41983432,-1.2348955,1.7121052,-2.0502784,-1.5655111,2.390151,-0.069176845,0.26862833,-0.3722267,0.08875106,0.0074925395,-0.08248062,0.47884035,0.19153613,-9.864111,0.82022345,47.688675,-0.53654504,-3.4985542,-3.266573,-0.01711179,0.26708865,-0.14798966,28.3125,29.375,28.5,32.625,35.25,36.375
0.7150524,1.0524462,0.028104944,-0.62227917,0.0032584514,-0.037674233,-0.16212298,-0.48319632,-0.36451474,0.08491203,3.0736532,-0.61623085,3.8706934e-05,-0.13878334,-0.022042146,0.0023592985,-0.012037668,0.007134671,0.0047546844,0.41943938,-1.2333648,1.7098464,-2.0497253,-1.5654863,2.389711,-0.06626234,0.25917602,-0.3671814,0.096949816,0.0077766194,-0.07090762,0.7661445,0.076614454,-9.481039,0.80456203,47.664497,-0.60775965,-3.195685,-3.1303873,-0.043458324,0.27885568,-0.2615533,28.3125,29.375,28.5,32.625,35.25,36.375
0.7200527,1.6990737,0.90925026,-0.07345697,0.043052513,-0.048785213,-0.1661955,-0.4837468,-0.3646068,0.08491501,3.0735965,-0.6161821,2.8570506e-05,-0.13486257,-0.020268612,0.0033519184,-0.011013771,0.0013135903,0.0028040067,0.4191752,-1.232325,1.7083906,-2.049351,-1.5654382,2.3894238,-0.06690773,0.25184098,-0.36166584,0.104496114,0.009241865,-0.069598965,0.61291564,-0.13407528,-9.32781,0.83589023,47.681515,-0.5854643,-3.0016823,-3.1805987,-0.115927465,0.2737686,-0.29470995,28.3125,29.375,28.5,32.625,35.25,36.375
0.7250524,2.3398485,2.1544974,0.18984115,0.08672257,-0.09117132,-0.16355619,-0.48455954,-0.3647319,0.084965535,3.0734673,-0.61621106,-3.854677e-05,-0.13130286,-0.020572625,0.0025741644,-0.00895004,-0.002582752,0.003532584,0.41876882,-1.2308754,1.7062391,-2.048752,-1.5653661,2.3890526,-0.06365743,0.24935666,-0.35759512,0.107304476,0.00895592,-0.067077965,0.7278373,-0.45968673,-9.097966,0.7463667,47.694946,-0.6947887,-3.1631668,-2.8822155,-0.24622184,0.28129506,-0.3198548,28.3125,29.375,28.5,32.625,35.25,36.375
0.7300523,1.4681175,1.0008302,0.19080481,0.061491214,-0.05313159,-0.15077998,-0.48503852,-0.36483037,0.08495222,3.0735066,-0.61612344,7.5034e-05,-0.13145873,-0.021430556,0.0032489435,-0.01075061,0.0029354051,0.002368275,0.41857758,-1.2298695,1.704842,-2.048288,-1.5653428,2.3888018,-0.062035512,0.24712564,-0.35498765,0.10114436,0.008333392,-0.064296365,0.7086837,-0.3256114,-9.078813,0.7866488,47.686886,-0.7770563,-3.1142755,-2.8680913,-0.23592773,0.27116287,-0.3998508,28.3125,29.375,28.5,32.625,35.25,36.375
0.7350532,-0.2901479,-1.2248646,0.012059014,-0.012783957,0.013812987,-0.15645705,-0.48580998,-0.3649547,0.08501173,3.0734718,-0.6159951,-2.1170581e-05,-0.1296011,-0.020902652,0.0029688668,-0.013311718,0.010538201,0.008673553,0.41823074,-1.2284818,1.702742,-2.0476582,-1.5653313,2.3883798,-0.06105094,0.2395731,-0.34160703,0.08736561,0.0076119783,-0.06962447,0.36391866,-0.019153614,-9.270349,0.84708,47.695843,-0.72124326,-3.0469253,-3.1312554,-0.14468133,0.29893363,-0.3586442,28.3125,29.375,28.5,32.625,35.25,36.375
0.7400529,0.013373687,-1.302007,-0.21682464,-0.021497907,-0.00053678086,-0.16702679,-0.4862794,-0.3650333,0.084976025,3.073452,-0.6159296,0.00010787632,-0.12827066,-0.020547984,0.0029346524,-0.01418701,0.012577368,0.013624258,0.41799125,-1.2275127,1.701465,-2.0473006,-1.5652584,2.388102,-0.060580555,0.23574553,-0.33573338,0.08313367,0.0076051485,-0.07410784,0.24899697,0.30645782,-9.442732,0.8717007,47.695843,-0.73655987,-2.8801627,-3.224514,-0.06327408,0.28759968,-0.26497403,28.3125,29.375,28.5,32.625,35.25,36.375
0.7450523,0.75795525,-0.44594568,-0.60039335,-0.01370152,0.005441695,-0.16569427,-0.48707226,-0.36515808,0.085040815,3.073367,-0.6157351,-0.0001253898,-0.12815608,-0.019900957,0.004419366,-0.015514929,0.017639574,0.01959763,0.41763183,-1.2261479,1.6994098,-2.0467994,-1.5652469,2.3876326,-0.060944077,0.2306315,-0.3316256,0.07901784,0.006811754,-0.08044851,0.1340753,0.21068975,-9.5385,0.8717007,47.723602,-0.63375413,-2.970357,-3.0119133,0.0027447576,0.30408758,-0.11390902,28.3125,29.375,28.5,32.625,35.25,36.375
0.75005263,0.04260194,-0.4538617,-0.44312435,-0.019241171,0.028590191,-0.17200983,-0.48755708,-0.3652592,0.08503992,3.0733356,-0.6154967,-9.7047334e-05,-0.122558564,-0.02004739,0.0011792288,-0.013083888,0.0061182003,0.020584453,0.41741732,-1.225201,1.6980847,-2.04645,-1.565174,2.3872733,-0.058033608,0.23032781,-0.32546097,0.08466154,0.009286557,-0.07851747,0.038307227,0.15322891,-9.5385,0.8314132,47.703903,-0.8012607,-3.2713714,-3.0659342,-0.04132007,0.29971367,-0.05642123,28.3125,29.375,28.5,32.625,35.25,36.375
0.75505275,1.7180293,1.8822985,0.16009481,0.046173755,-0.017590428,-0.17667164,-0.48833898,-0.36535507,0.08507026,3.073203,-0.6154924,-0.00028675067,-0.116572246,-0.01766939,-0.00025398633,-0.007587624,-0.004279074,0.011265063,0.4170105,-1.223849,1.6961383,-2.0460274,-1.5651387,2.3868814,-0.057030942,0.22470814,-0.3171238,0.09362542,0.008485304,-0.068196,0.3256114,-0.28730422,-9.32781,0.8090337,47.695843,-0.6544563,-3.1767755,-3.140461,-0.15441775,0.2903666,-0.082336076,28.3125,29.375,28.5,32.625,35.25,36.375
0.76005226,2.807582,2.9154773,0.27264345,0.106091015,-0.07945668,-0.16583641,-0.48883572,-0.36541632,0.085052684,3.0731785,-0.6154921,-0.00030666942,-0.116706476,-0.016938085,0.0007884491,-0.007287347,-0.003076729,0.0014626366,0.41675857,-1.222903,1.694858,-2.045716,-1.5651273,2.3866327,-0.05775203,0.22249019,-0.3169063,0.09460033,0.0076880595,-0.059117213,0.6703765,-0.6703765,-9.021352,0.84484416,47.67166,-0.5944081,-3.3170207,-2.8858705,-0.1991187,0.29004854,-0.15101998,28.3125,29.375,28.5,32.625,35.25,36.375
0.7650521,2.192431,2.0342293,-0.07242713,0.092584044,-0.07113351,-0.1752651,-0.48949873,-0.3655406,0.08508729,3.0731559,-0.61541134,-0.00025651467,-0.113827996,-0.016034909,-0.0018448548,-0.005184866,-0.006664015,-0.0032034717,0.41647154,-1.2216331,1.6929606,-2.0450828,-1.5650791,2.3862984,-0.05681304,0.22144389,-0.30937073,0.09221588,0.007202541,-0.053515255,0.7278373,-0.59376204,-9.097966,0.7709874,47.681515,-0.5325176,-3.437192,-2.8022728,-0.23747754,0.29048276,-0.21857181,28.3125,29.375,28.5,32.625,35.25,36.375
0.770052,0.6447773,-0.14526114,0.044599395,-0.0045657926,0.003242163,-0.16291101,-0.4899232,-0.36556968,0.08506214,3.0731854,-0.61553365,-3.876178e-05,-0.11090484,-0.014606861,-0.0010283354,-0.0054952693,-0.0043693567,-0.005798991,0.41620803,-1.2207611,1.6917561,-2.044605,-1.5650429,2.3861077,-0.056594647,0.21261209,-0.29876047,0.08820273,0.0065519786,-0.050707497,0.59376204,-0.2681506,-9.270349,0.78888994,47.698532,-0.49554157,-3.3238635,-2.9086783,-0.23210755,0.30372065,-0.261939,28.3125,29.375,28.5,32.625,35.25,36.375
0.775052,-0.08069971,-1.3270708,-0.49939704,-0.0511261,0.023825893,-0.16871536,-0.49058005,-0.36565444,0.08508046,3.0731435,-0.61550564,-0.00010760648,-0.11159442,-0.01415617,0.0004053635,-0.010139707,0.006868446,-0.009090513,0.4158843,-1.2195644,1.6900257,-2.044132,-1.5650314,2.3857722,-0.057479277,0.20543459,-0.28944087,0.073894,0.006238918,-0.04830674,0.28730422,0.19153613,-9.653421,0.76874626,47.696735,-0.37277907,-3.2534697,-3.200258,-0.14600831,0.31860816,-0.32364595,28.3125,29.375,28.5,32.625,35.25,36.375
0.78005236,0.71016985,-0.70623827,-0.7398667,-0.004776172,-0.022203615,-0.16466244,-0.4909946,-0.36572254,0.085049994,3.073136,-0.6155027,-5.6122626e-05,-0.10989053,-0.01605246,0.00058366056,-0.011751541,0.010341576,-0.00701575,0.415694,-1.2187151,1.6889018,-2.043834,-1.5650071,2.3855813,-0.053377014,0.20275441,-0.2852276,0.06852268,0.0062995274,-0.046281528,0.21068975,0.40222588,-9.519346,0.82022345,47.681515,-0.4902677,-3.2139645,-3.0882607,-0.078006014,0.32286143,-0.36840194,28.3125,29.375,28.5,32.625,35.25,36.375
0.785052,0.33345824,-0.7550551,-0.5928642,-0.03297499,-0.020045778,-0.165516,-0.491645,-0.36581245,0.08501521,3.073073,-0.615526,-1.6836824e-05,-0.10699108,-0.015587786,-0.0003323956,-0.011101264,0.0084255645,-0.0057515875,0.41535917,-1.2174462,1.6872038,-2.0434158,-1.564947,2.3852694,-0.052103825,0.19918288,-0.2783942,0.067280635,0.006495185,-0.046273705,0.4405331,0.3256114,-9.615114,0.8247004,47.72719,-0.30800915,-3.4115996,-3.091958,-0.007791808,0.31504488,-0.4231178,28.3125,29.375,28.5,32.625,35.25,36.375
0.79005253,0.24573489,-1.0708994,-0.43420014,-0.01140271,-0.010846559,-0.15880299,-0.4921051,-0.3658798,0.085048065,3.072953,-0.61565286,-0.000121401434,-0.10485017,-0.014768422,-0.0010417129,-0.010009612,0.0054378407,-0.004283651,0.41513163,-1.2166562,1.6860188,-2.0431278,-1.5649108,2.3851368,-0.05194381,0.19684412,-0.2741243,0.068534225,0.006727307,-0.047580935,0.53630114,0.114921674,-9.519346,0.8537928,47.709274,-0.38744682,-3.5118337,-2.9087982,-0.0119298715,0.32724077,-0.4471596,28.3125,29.375,28.5,32.625,35.25,36.375
0.79505175,2.293683,1.7898903,0.062720224,0.06243326,-0.07855511,-0.17058368,-0.4927343,-0.36597922,0.08502893,3.0728827,-0.6155948,-0.00023117287,-0.09908018,-0.013399462,-0.0037912994,-0.005036197,-0.0049005626,0.0036316274,0.414845,-1.2154704,1.6844176,-2.042814,-1.5648869,2.3848233,-0.04987047,0.19410385,-0.26594192,0.074598715,0.006409398,-0.05342316,0.7852981,-0.3256114,-9.193734,0.7866488,47.7245,-0.30656636,-3.6303983,-2.9671874,-0.049849365,0.3252963,-0.38663924,28.3125,29.375,28.5,32.625,35.25,36.375
0.8000524,2.8522158,2.7784367,0.169489,0.09905678,-0.09757564,-0.17609246,-0.4931286,-0.36605227,0.08505511,3.072857,-0.61537206,-0.00031834203,-0.09656538,-0.013248805,-0.0012573872,-0.006188845,-0.0046804496,0.012257076,0.4146776,-1.214766,1.6833652,-2.0425498,-1.5648631,2.3845203,-0.048849635,0.18639503,-0.26217493,0.07792051,0.0074312096,-0.0610251,0.9959879,-0.49799395,-9.136273,0.7486078,47.699425,-0.3503645,-3.4462137,-2.9432514,-0.078000836,0.3229076,-0.31513458,28.3125,29.375,28.5,32.625,35.25,36.375
0.80505204,1.2547448,1.2221799,-0.12688832,0.06781948,-0.0575283,-0.16323729,-0.4936472,-0.36607105,0.08497246,3.0730052,-0.61543804,3.6276153e-05,-0.09012427,-0.012038079,-0.0014513338,-0.0014736812,-0.012478958,0.017087787,0.41435543,-1.2136062,1.6818703,-2.0419366,-1.5648631,2.3842204,-0.045685597,0.17878293,-0.25363243,0.086044274,0.006283148,-0.062697046,0.7661445,-0.49799395,-9.251195,0.6971306,47.71465,-0.43715978,-3.336845,-2.8991454,-0.23826997,0.32014382,-0.1985485,28.3125,29.375,28.5,32.625,35.25,36.375
0.81005263,0.69104105,-0.09002874,-0.3139433,0.037689913,-0.01713338,-0.1556782,-0.49399927,-0.3661212,0.084986426,3.0729895,-0.61533767,0.00018774517,-0.08851112,-0.012456147,-0.00082735036,-0.0030832428,-0.010827478,0.017910682,0.41415223,-1.2129244,1.6808423,-2.0415304,-1.5647792,2.3839564,-0.044306245,0.17464176,-0.24901286,0.083406426,0.0070876805,-0.062140465,0.6703764,-0.24899697,-9.385271,0.7709874,47.728977,-0.50252444,-3.560594,-2.8982224,-0.3204133,0.31291574,-0.12448035,28.3125,29.375,28.5,32.625,35.25,36.375
0.8150524,0.49572542,-0.6714865,-0.6351981,-0.014204011,0.0048338836,-0.16816068,-0.49447984,-0.36621267,0.08494295,3.0730612,-0.6150652,0.00038900934,-0.08773335,-0.01369098,-0.0009767641,-0.0048690676,-0.0010259568,0.016263258,0.41393784,-1.2118713,1.6794323,-2.0410569,-1.56472,2.3835626,-0.040662445,0.17031182,-0.23981951,0.06883161,0.0047346903,-0.056861468,0.57460845,0.019153614,-9.730036,0.73741806,47.694946,-0.6019432,-3.5031235,-3.0746357,-0.29417413,0.3307281,-0.079919785,28.3125,29.375,28.5,32.625,35.25,36.375
0.82005286,0.33685583,-1.20653,-1.1458186,-0.03675147,0.0007002133,-0.16498402,-0.49481583,-0.36625203,0.084927715,3.0731254,-0.6150039,0.00037541508,-0.08568906,-0.014293995,-0.002022491,-0.006753408,0.0014058376,0.011719969,0.41379482,-1.211201,1.6785129,-2.0407846,-1.5647672,2.3833733,-0.0386841,0.16698118,-0.23132595,0.060638748,0.00545339,-0.05034102,0.22984336,0.3256114,-9.825804,0.8023209,47.696735,-0.6639221,-3.7149453,-3.1813388,-0.23360956,0.33386612,-0.08266534,28.3125,29.375,28.5,32.625,35.25,36.375
0.8250522,0.015733235,-1.8867832,-0.6031913,-0.07416331,0.0058063306,-0.15909748,-0.4953255,-0.3663239,0.08488195,3.0731034,-0.6149847,0.00041838354,-0.084713064,-0.013913173,-0.0014656677,-0.00821549,0.0062643336,0.0024761206,0.41354343,-1.2101725,1.6771735,-2.0404642,-1.564732,2.383113,-0.038214892,0.16165055,-0.22402678,0.053577878,0.0047996445,-0.040632825,0.38307226,0.3256114,-9.672575,0.7038487,47.682407,-0.63835424,-3.6317463,-3.225497,-0.13126904,0.3510568,-0.16514829,28.3125,29.375,28.5,32.625,35.25,36.375
0.8300527,1.3802537,0.27053046,-0.50752527,0.008637245,-0.038688067,-0.17321377,-0.49568126,-0.36641914,0.084899426,3.0729895,-0.6148831,0.0002598147,-0.08464993,-0.016577264,0.00080513215,-0.0126188835,0.0136429705,0.002476875,0.4134249,-1.2095387,1.6762642,-2.0403464,-1.5646833,2.3829458,-0.034601554,0.15794691,-0.22285654,0.04756081,0.0058478117,-0.03701892,0.6512228,0.21068975,-9.5385,0.71279734,47.682407,-0.82173365,-3.5856714,-3.0593858,-0.033260696,0.33386275,-0.17498158,28.3125,29.375,28.5,32.625,35.25,36.375
0.8350519,2.161285,0.97037566,-0.39359418,0.057381213,-0.061767332,-0.16792218,-0.49617586,-0.36650753,0.08491123,3.0728946,-0.6149209,0.00016948482,-0.08219062,-0.015337573,0.0033027248,-0.01293516,0.014997332,0.0015257667,0.41320926,-1.208631,1.6749614,-2.0400465,-1.5646476,2.3827662,-0.03465991,0.14876212,-0.21661384,0.049133413,0.0056148213,-0.036127854,0.842759,-0.13407528,-9.423578,0.8403672,47.704796,-0.79548544,-3.5994468,-2.9173365,0.049671087,0.31717515,-0.22163136,28.3125,29.375,28.5,32.625,35.1875,36.4375
0.8400524,2.052988,1.2649244,-0.56059754,0.050827783,-0.044657543,-0.16508935,-0.49651262,-0.36656183,0.084901884,3.07285,-0.6148912,6.136141e-05,-0.08081172,-0.014806632,0.004000242,-0.012096163,0.013121763,0.0021865251,0.41306573,-1.2080088,1.6741227,-2.039914,-1.5646476,2.38261,-0.03450581,0.1460363,-0.21539712,0.052701272,0.005618614,-0.036633797,0.80445176,-0.34476504,-9.461885,0.7284641,47.674347,-0.7003577,-3.5198507,-2.8070197,0.026970644,0.3201361,-0.21992016,28.3125,29.375,28.5,32.625,35.1875,36.4375
0.8450521,1.3312261,1.0513989,-0.63165855,0.071528934,-0.06315303,-0.16527128,-0.49695665,-0.36663967,0.084912345,3.0727794,-0.6149149,0.00011621176,-0.073920995,-0.012744792,0.0018794162,-0.007656135,0.0025762876,0.001096489,0.4128505,-1.2071601,1.6728815,-2.0395286,-1.5645756,2.3824189,-0.033068072,0.1396308,-0.20360002,0.05873737,0.005816362,-0.03410529,0.8236054,-0.34476504,-9.461885,0.7665104,47.731667,-0.7669783,-3.6898112,-2.8758225,-0.017599797,0.30120105,-0.26283437,28.3125,29.375,28.5,32.625,35.1875,36.4375
0.8500528,1.4292129,0.91799533,-0.56729084,0.03689633,-0.053583995,-0.16342,-0.49720752,-0.36670327,0.084901154,3.0728602,-0.61475825,0.00016135417,-0.06911632,-0.010735585,0.0005765293,-0.0034020394,-0.0049059195,0.0011425277,0.4127908,-1.2065986,1.6720947,-2.039251,-1.5645994,2.382251,-0.032449987,0.13468201,-0.19535254,0.06399819,0.0049484423,-0.033535805,0.61291564,-0.2681506,-9.461885,0.7418897,47.694946,-0.71490836,-3.4259071,-3.066626,-0.1081633,0.3317944,-0.28385168,28.3125,29.375,28.5,32.625,35.1875,36.4375
0.8550519,1.2566777,0.27800986,-0.45646048,0.013616463,-0.0024929338,-0.16369304,-0.4975855,-0.36674768,0.08490338,3.0728724,-0.61479956,0.00030396922,-0.06478148,-0.009444592,-0.0014860528,0.00038443488,-0.011505289,0.00050732424,0.41258764,-1.2058444,1.6709837,-2.0388072,-1.5645641,2.3820722,-0.031067437,0.13175981,-0.18756822,0.066692166,0.0041376203,-0.031520855,0.4213795,-0.15322891,-9.595961,0.7016076,47.70659,-0.7326748,-3.6445415,-3.11729,-0.22601222,0.327904,-0.30047864,28.3125,29.375,28.5,32.625,35.1875,36.4375
0.8600522,0.18656187,0.08609414,-0.6835103,0.012189749,-0.0041615707,-0.16262433,-0.4978024,-0.36678055,0.0848548,3.0729542,-0.61473763,0.0005240228,-0.06322071,-0.0093234,-0.00076634804,-0.00033203317,-0.010559154,0.0013194935,0.41248032,-1.2052947,1.6702904,-2.0385087,-1.5645398,2.3819156,-0.030323511,0.12748754,-0.18324338,0.06548626,0.0044157505,-0.031590212,0.2873042,-0.038307227,-9.5385,0.69937176,47.72002,-0.7757869,-3.6504235,-3.042439,-0.3123067,0.3188541,-0.3115713,28.3125,29.375,28.5,32.625,35.1875,36.4375
0.86505204,-0.37715176,-0.6203698,-0.6528607,-0.004297546,0.0077091055,-0.16328157,-0.49818647,-0.36681965,0.08486582,3.0729399,-0.61481047,0.0005592145,-0.06377156,-0.010539285,0.002002783,-0.005004463,0.00041435822,0.0037058534,0.41227707,-1.2045779,1.669226,-2.0381415,-1.5645279,2.38176,-0.02874304,0.120865256,-0.17831203,0.05525805,0.004286773,-0.032400724,0.15322891,0.05746084,-9.500193,0.73741806,47.695843,-0.81669605,-3.5948834,-2.888707,-0.3259827,0.3165573,-0.29738486,28.3125,29.375,28.5,32.625,35.1875,36.4375
0.8700527,0.39904708,-0.34191278,-0.607271,-0.0050257016,0.022698458,-0.17071842,-0.49845323,-0.36689764,0.08491312,3.0728798,-0.61468214,0.0004381624,-0.0636242,-0.010784898,0.003011395,-0.0076614777,0.0059166336,0.004069802,0.41220534,-1.2041241,1.6684726,-2.0379527,-1.564504,2.3816159,-0.028363839,0.11663788,-0.1734208,0.048488487,0.0045151724,-0.032387134,0.1340753,0.076614454,-9.5385,0.6971306,47.681515,-0.7864087,-3.5395756,-2.8203678,-0.30814362,0.30192733,-0.2758642,28.3125,29.375,28.5,32.625,35.1875,36.4375
0.87505186,0.18575072,-0.52758306,-0.51690817,0.0028910025,-0.0067489524,-0.16297328,-0.49884525,-0.36693972,0.08491505,3.0728326,-0.6146904,0.00043623275,-0.061894547,-0.010089734,0.0023177103,-0.007993447,0.009764828,0.005439091,0.41199008,-1.2034066,1.6674455,-2.0376685,-1.5644687,2.381412,-0.027615026,0.11174287,-0.16346231,0.03977684,0.0032850269,-0.033014577,0.3256114,0.095768064,-9.5385,0.68146914,47.71017,-0.76319015,-3.5262341,-2.839994,-0.2255221,0.31440175,-0.25725836,28.3125,29.375,28.5,32.625,35.1875,36.4375
0.8800521,0.84186757,0.41542605,-0.30576292,0.010342745,-0.03019214,-0.16078797,-0.49910524,-0.3669635,0.084929176,3.0728168,-0.61466515,0.0002942384,-0.06102058,-0.010047301,0.0032756422,-0.009773201,0.014815397,0.007292574,0.41187054,-1.2029771,1.6668133,-2.0375507,-1.5645045,2.381279,-0.026883185,0.10642065,-0.15707056,0.033374734,0.0029021255,-0.034139946,0.51714754,-0.17238252,-9.423578,0.83365434,47.68062,-0.7394841,-3.4513092,-2.9438553,-0.14806637,0.30683252,-0.22701794,28.3125,29.375,28.5,32.625,35.1875,36.4375
0.88505256,1.8488424,1.1669295,-0.01939945,0.068911366,-0.061699785,-0.16736513,-0.49945527,-0.3670266,0.08494383,3.072735,-0.61457187,0.00017457444,-0.058068383,-0.009021324,0.0026860011,-0.009958983,0.013589826,0.0068364064,0.41171497,-1.2023679,1.6659311,-2.0373957,-1.5644683,2.3810759,-0.026776426,0.101050936,-0.14804205,0.030760247,0.0035809977,-0.033576492,0.80445176,-0.38307226,-9.308657,0.7866488,47.68599,-0.6300894,-3.4230788,-3.001817,-0.08663273,0.29935938,-0.17764118,28.3125,29.375,28.5,32.625,35.1875,36.4375
0.8900525,1.6274145,1.6408644,-0.24703552,0.056293707,-0.061013468,-0.1740954,-0.49968994,-0.3670746,0.08494698,3.072689,-0.61442584,0.00014071733,-0.055826496,-0.009515638,0.003457322,-0.009684429,0.013207117,0.010841063,0.41160786,-1.2019377,1.6653217,-2.0372756,-1.5644206,2.3808835,-0.024478825,0.09722958,-0.14493358,0.031947453,0.0035038316,-0.035284072,0.61291564,-0.3256114,-9.385271,0.77545905,47.67345,-0.6854098,-3.3535476,-2.998581,-0.06397891,0.27553934,-0.13334404,28.3125,29.375,28.5,32.625,35.1875,36.4375
0.8950526,1.1808211,0.49078965,-0.52666557,0.021137077,-0.020424707,-0.16058885,-0.5000284,-0.36711627,0.08501036,3.072612,-0.6144112,-1.493125e-06,-0.052269008,-0.0072755595,0.0028958623,-0.0067829895,0.00861927,0.0061357254,0.41143993,-1.2014242,1.6644377,-2.0370233,-1.5644087,2.3807166,-0.025073035,0.091682956,-0.13695422,0.034856725,0.0026919777,-0.031175297,0.59376204,-0.19153613,-9.442732,0.7239871,47.739727,-0.61471736,-3.3297133,-2.8392467,-0.063617855,0.28510237,-0.09158205,28.3125,29.375,28.5,32.625,35.1875,36.4375
0.9000522,0.295094,-0.32927296,-0.8787842,0.01950444,-0.03130403,-0.15247396,-0.50018805,-0.36715117,0.08499092,3.0726693,-0.61430854,4.804704e-05,-0.050141208,-0.0071318825,0.0024672982,-0.0063461675,0.007447063,0.00579857,0.41139245,-1.2010536,1.663947,-2.036856,-1.5644206,2.3805976,-0.023900598,0.08888288,-0.13210157,0.03404269,0.002761342,-0.02966636,0.49799395,0.05746084,-9.557653,0.7911258,47.721813,-0.6309647,-3.391324,-2.845765,-0.0630229,0.29427785,-0.061296504,28.3125,29.375,28.5,32.625,35.1875,36.4375
0.9050523,0.50038934,-1.0583994,-0.9106527,-0.0026495669,-0.008748249,-0.15481171,-0.5004739,-0.36718196,0.08500854,3.0726604,-0.61425006,3.7554812e-06,-0.047792014,-0.00658964,0.0016157985,-0.0054295002,0.0060715303,0.0027713706,0.4112491,-1.2005514,1.6631845,-2.0366294,-1.5644206,2.380419,-0.022992771,0.08588276,-0.12587026,0.032414086,0.0024650795,-0.02573317,0.30645782,0.19153613,-9.595961,0.71951014,47.70032,-0.5877004,-3.4674745,-2.8862572,-0.059974708,0.28587285,-0.023356963,28.3125,29.375,28.5,32.625,35.1875,36.4375
0.9100528,0.5908829,-0.92793804,-1.0083727,-0.01068755,-0.0021503011,-0.15901688,-0.5006689,-0.36721212,0.08502185,3.0725827,-0.61429286,-1.7137701e-05,-0.045712914,-0.0064391075,0.004224645,-0.0064882752,0.009911726,-0.00010318112,0.41114172,-1.2002188,1.6626829,-2.0365098,-1.5643729,2.3803484,-0.021540625,0.077313825,-0.11987044,0.031014487,0.0018927249,-0.021409959,0.30645782,0.19153613,-9.5385,0.8157518,47.70211,-0.6046411,-3.3511868,-2.731842,-0.048505142,0.30059955,-0.041484237,28.3125,29.375,28.5,32.625,35.1875,36.4375
0.91505206,1.1432155,-0.031922605,-0.6112336,0.018130984,-0.016510759,-0.16282196,-0.50094926,-0.36724842,0.08505391,3.072531,-0.61422396,-0.00022393117,-0.04304331,-0.005607624,0.0032152627,-0.00652534,0.008278222,-0.0017517419,0.4110221,-1.1997887,1.6620144,-2.0364153,-1.5643963,2.3801928,-0.02135118,0.07333936,-0.1117285,0.028314501,0.0025867,-0.019570816,0.36391866,0.0,-9.385271,0.7105615,47.70032,-0.53211164,-3.4968066,-2.7612271,-0.020504702,0.28781927,-0.034477405,28.3125,29.375,28.5,32.625,35.1875,36.4375
0.92005265,1.587339,1.4393722,-0.14411658,0.038163595,-0.02672989,-0.16497274,-0.5011326,-0.3672694,0.085071385,3.0724432,-0.61430264,-0.00028356584,-0.041392013,-0.005418926,0.0032590653,-0.0065410193,0.008373758,-0.0033131032,0.41091457,-1.1995022,1.6615733,-2.036332,-1.5643605,2.3801458,-0.020515325,0.07012293,-0.1072149,0.026908442,0.0025603573,-0.017174432,0.49799395,-0.21068975,-9.385271,0.7418897,47.695843,-0.49736825,-3.450815,-2.7351646,0.02081341,0.2871581,-0.052026182,28.3125,29.375,28.5,32.625,35.1875,36.4375
0.9250518,1.5184376,1.0619112,-0.062062733,0.05812129,-0.047842707,-0.16233441,-0.50136393,-0.36732364,0.085106015,3.0723875,-0.61427224,-0.00041809957,-0.036353238,-0.0043218764,0.0005069971,-0.004151855,0.0018277523,-0.004692934,0.4108432,-1.19912,1.6609548,-2.0362003,-1.5643605,2.3800628,-0.019038333,0.0664047,-0.09604716,0.026393732,0.002996397,-0.014316555,0.5554548,-0.30645782,-9.212888,0.75084364,47.681515,-0.48043978,-3.6303217,-2.814712,0.029797938,0.26317433,-0.061553255,28.3125,29.375,28.5,32.625,35.1875,36.4375
0.93005246,1.3719815,1.1800445,0.0759398,0.043395754,-0.0488498,-0.16642927,-0.50150394,-0.3673294,0.08510512,3.072354,-0.61434156,-0.00039649592,-0.033438258,-0.0031095317,-0.00012487934,-0.0016461873,-0.0015240993,-0.0047633457,0.41074762,-1.1988698,1.6605972,-2.036092,-1.5643371,2.380015,-0.018463653,0.0627001,-0.09011191,0.028236493,0.0020523798,-0.013674939,0.5746084,-0.2681506,-9.289502,0.78217715,47.64837,-0.4568472,-3.4806175,-2.8090088,0.0062958067,0.27650785,-0.052666686,28.3125,29.375,28.5,32.625,35.1875,36.4375
0.93505317,1.0205714,0.12100474,-0.15488672,0.029637672,-0.030938823,-0.15693884,-0.501647,-0.3673449,0.085079156,3.0724168,-0.614279,-0.00021912671,-0.02914794,-0.0019147367,-0.0010318301,0.0009568915,-0.0058510024,-0.0055205724,0.41066426,-1.1985121,1.6601213,-2.0358522,-1.5643128,2.3798842,-0.017099965,0.057345938,-0.081287034,0.029760715,0.0014045096,-0.011556921,0.5554548,-0.21068975,-9.174581,0.83589023,47.72271,-0.45184022,-3.544189,-2.8959231,-0.03961888,0.27966857,-0.06860371,28.3125,29.375,28.5,32.625,35.1875,36.4375
0.9400531,0.9941088,-0.037392236,-0.07252597,0.020911803,-0.034017213,-0.1636811,-0.50179523,-0.3673584,0.08512391,3.0723488,-0.61436063,-0.0002998395,-0.026310809,-0.0014091552,-0.0014740819,0.0015733144,-0.007952295,-0.005870243,0.4105807,-1.1983217,1.6597403,-2.0357325,-1.5643009,2.3798606,-0.01611706,0.05330938,-0.07484776,0.029520847,0.0016856372,-0.010223967,0.5363012,-0.11492168,-9.232041,0.75755644,47.675243,-0.47408444,-3.5785584,-2.8875725,-0.08881605,0.27175626,-0.07394615,28.3125,29.375,28.5,32.625,35.1875,36.4375
