Tylouw/Master_Thesis_Code/test_recorded_data/real_test7/insertion_1_2026-02-24_18-54-29.csv
timestamp[s],tcp_force_x[N],tcp_force_y[N],tcp_force_z[N],tcp_force_rx[Nm?],tcp_force_ry[Nm?],tcp_force_rz[Nm?],tcp_pose_x[m],tcp_pose_y[m],tcp_pose_z[m],tcp_pose_rx[rot_vec_x],tcp_pose_ry[rot_vec_y],tcp_pose_rz[rot_vec_z],tcp_velo_x[m/s],tcp_velo_y[m/s],tcp_velo_z[m/s],tcp_velo_rx[rot_vec_x/s],tcp_velo_ry[rot_vec_y/s],tcp_velo_rz[rot_vec_z/s],q1[rad],q2[rad],q3[rad],q4[rad],q5[rad],q6[rad],qd1[rad/s],qd2[rad/s],qd3[rad/s],qd4[rad/s],qd5[rad/s],qd6[rad/s],tool_acc_x,tool_acc_y,tool_acc_z,current_of_whole_robot[A],voltage_of_whole_robot[V],current_J1[A],current_J2[A],current_J3[A],current_J4[A],current_J5[A],current_J6[A],temp_J1[C],temp_J2[C],temp_J3[C],temp_J4[C],temp_J5[C],temp_J6[C]
9.0101094e-07,0.41393334,1.0076185,1.5429356,-0.018681923,0.009904554,-0.017801533,-0.38152158,-0.34955746,0.08495322,-3.0785265,0.62489665,-0.00025974624,-0.0013979776,-0.0007347567,0.0005493454,-0.0025218546,0.0045258575,6.246521e-05,0.479166,-1.4235744,1.9549626,-2.1004035,-1.5707215,2.4541326,-7.589978e-05,-2.7933709e-06,-9.592765e-05,-0.005080644,0.00013928683,-0.00013757017,0.11492168,0.038307227,-8.676587,0.8157518,47.695843,-0.1132138,-3.1175637,-2.2717922,-0.46363103,0.16937524,-0.22078891,28.3125,29.375,28.5,32.6875,35.25,36.375
0.005052554,0.51976746,1.3295556,1.7802516,-0.0028424463,0.004664153,-0.016333606,-0.38152203,-0.34956303,0.0849309,-3.0785182,0.6248764,-0.00022284905,-0.00076655194,-0.00041048642,-0.0014431053,-0.001953227,0.0034030317,5.6326448e-05,0.47918996,-1.4235377,1.9549884,-2.1004765,-1.5707458,2.454145,-7.2828865e-05,0.0016707223,0.0034456383,-0.009037243,0.00015078015,-0.00012911172,0.11492168,-0.05746084,-8.580819,0.76874626,47.704796,-0.16653624,-3.3533273,-2.5374308,-0.3487175,0.15912488,-0.22443953,28.3125,29.375,28.5,32.6875,35.25,36.375
0.010052068,1.2520087,2.1310859,0.559326,0.048179112,-0.031252988,-0.021246873,-0.3815404,-0.34956196,0.08492267,-3.0785172,0.6248755,-0.00019697643,-0.0016158668,-0.00085328164,0.0011911105,-0.0022757845,0.004045399,6.7569854e-05,0.47917792,-1.4235026,1.9549745,-2.10051,-1.5707573,2.4541326,-7.091615e-05,4.5248615e-07,-0.0021568874,-0.0024831546,0.00014393695,-0.00013717343,0.038307227,0.038307227,-8.983045,0.73741806,47.729877,-0.4368167,-2.4863687,-3.1149387,-0.40191597,0.14212817,-0.27017224,28.3125,29.375,28.5,32.6875,35.25,36.375
0.015052425,-1.271617,-1.4595084,0.0618891,-0.081301,0.043315794,-0.012691771,-0.38152644,-0.34954235,0.08490512,-3.0784469,0.62482136,-0.00032013014,-0.006027206,0.0010923726,-0.0033498984,0.0036093362,-0.0071500293,0.0017950346,0.47916347,-1.4234726,1.9549583,-2.1004126,-1.5707697,2.4540932,-0.007573071,0.016903594,-0.012459683,0.0035631014,7.125694e-05,-0.0093600135,-0.22984336,0.34476504,-9.519346,0.7530795,47.695843,-0.18832198,-2.9873424,-3.1943924,-0.43202186,0.13144599,-0.24809575,28.3125,29.375,28.5,32.6875,35.25,36.375
0.020051995,-1.7128481,-1.0521646,-0.2852965,-0.09989038,0.07567585,-0.03431779,-0.38151455,-0.34953797,0.08485594,-3.0783734,0.62482303,-0.00051893265,-0.0071715987,-0.0010942318,-0.0017947321,0.0020183702,-0.0041010315,0.0071056457,0.47915238,-1.4233644,1.9549335,-2.1003525,-1.5707458,2.4540925,-0.0047550136,0.018345755,-0.017755799,0.003977826,6.416523e-05,-0.011849769,-0.45968673,0.63206923,-9.902418,0.7486078,47.73256,-0.48924005,-2.6741748,-3.169084,-0.4328857,0.11434746,-0.22700948,28.3125,29.375,28.5,32.6875,35.25,36.375
0.025052128,-1.3308413,-1.0089843,-0.46091554,-0.08721444,0.074757636,-0.063780926,-0.38154247,-0.34954557,0.08484451,-3.0783668,0.6247835,-0.00054744375,-0.009341058,-0.0016302168,-0.0017385753,0.0013124989,-0.0027595714,0.0074249147,0.47913992,-1.4232793,1.9548596,-2.1003406,-1.5707458,2.4540563,-0.005814045,0.021915002,-0.021703586,0.0028403585,5.988642e-05,-0.013225302,-0.53630114,0.7086837,-9.998186,0.8090337,47.73883,-0.5540498,-2.5679154,-3.2977529,-0.41805422,0.11500068,-0.233091,28.3125,29.375,28.5,32.6875,35.25,36.375
0.03005253,-0.9370035,-0.32092318,-0.3856573,-0.055536743,0.05130764,-0.0916458,-0.3816374,-0.34955016,0.08483353,-3.0783582,0.6247832,-0.00053611986,-0.013226474,-0.0019048911,-0.00019352004,-5.7313933e-05,-2.3531544e-05,0.004472127,0.47906688,-1.4230978,1.9546775,-2.1003401,-1.5707573,2.4539843,-0.008890389,0.02522999,-0.029303957,0.004066337,4.841568e-07,-0.01334466,-0.57460845,0.40222588,-9.959879,0.75084364,47.728977,-0.58203554,-2.623249,-3.2128353,-0.3970524,0.10662253,-0.27802685,28.3125,29.375,28.5,32.6875,35.25,36.375
0.035052363,-0.8084817,1.0292469,-0.08152055,0.0074548447,0.039945755,-0.11837581,-0.38170764,-0.34956607,0.08483435,-3.07837,0.6247656,-0.00052122236,-0.016738677,-0.002308767,0.00019226615,-0.0010376485,0.0018304163,0.0037536267,0.47902995,-1.422964,1.9545201,-2.1003292,-1.5707573,2.453935,-0.011427554,0.030107357,-0.035608653,0.0033962561,2.0640365e-09,-0.015159277,-0.30645782,0.11492168,-9.653421,0.76874626,47.721813,-0.5766532,-2.6262121,-3.1058576,-0.34678677,0.07406625,-0.27713287,28.3125,29.375,28.5,32.6875,35.25,36.375
0.040052697,-0.3677476,1.3094007,0.23727116,0.0060437103,0.026657777,-0.14423661,-0.38180858,-0.3495804,0.084833525,-3.0783827,0.62473005,-0.0004810541,-0.01992919,-0.0024700314,0.0011522296,-0.0016653788,0.003015971,0.0025238588,0.47896916,-1.4227827,1.9543146,-2.1003282,-1.5707697,2.4538505,-0.014093885,0.033737242,-0.042359866,0.005175717,5.745321e-13,-0.016592253,-0.11492168,-0.22984336,-9.595961,0.7284641,47.70211,-0.6334285,-2.6488242,-3.0987308,-0.3085657,0.04997363,-0.24712469,28.3125,29.375,28.5,32.6875,35.25,36.375
0.045052625,-0.24979366,0.9182697,-0.045643657,-0.0055258977,0.028918779,-0.12672207,-0.38192794,-0.34960258,0.08485219,-3.0784144,0.62473726,-0.00047607822,-0.022758858,-0.0017558555,0.0022132571,3.9183797e-05,0.004533412,0.0010645541,0.47888416,-1.4225897,1.9540375,-2.1002672,-1.5707468,2.453766,-0.016646657,0.036099263,-0.04814081,0.008041652,-0.002217775,-0.017678656,-0.15322891,0.038307227,-9.519346,0.6971306,47.704796,-0.59755075,-2.4085064,-3.158549,-0.28707674,0.056136124,-0.23441564,28.3125,29.375,28.5,32.6875,35.25,36.375
0.05005195,-0.010633858,-0.017602582,-0.02253915,-0.025732929,0.03592242,-0.11988599,-0.38204554,-0.34958583,0.084858574,-3.078356,0.6247831,-0.00039339194,-0.023314761,-0.0020060742,0.001568391,0.00081398565,0.00145418,0.001878964,0.47878808,-1.4224203,1.9538211,-2.1002305,-1.5708178,2.4537063,-0.017149944,0.039739784,-0.05146355,0.010809422,-0.0014876879,-0.018996125,-0.21068975,0.17238252,-9.500193,0.80679786,47.67345,-0.60224056,-2.3301458,-3.282402,-0.29895893,0.033261582,-0.208383,28.3125,29.375,28.5,32.6875,35.25,36.375
0.055052307,-0.13968156,-0.42664054,0.076501906,-0.051510543,0.030596295,-0.122658364,-0.38214844,-0.3496056,0.08488808,-3.0784,0.6247527,-0.000322384,-0.02410969,-0.0020382148,0.0011970818,0.0014174456,-0.00021124585,0.0017106375,0.47872785,-1.4222871,1.9535931,-2.1001942,-1.5708178,2.4536216,-0.017962044,0.042479303,-0.054135095,0.0124965785,-0.0012571071,-0.019638997,-0.19153613,0.34476504,-9.557653,0.7709874,47.67345,-0.62480456,-2.2421777,-3.2634778,-0.32517207,0.020588897,-0.22269553,28.3125,29.375,28.5,32.6875,35.25,36.375
0.060052317,-0.38150293,-0.8731721,0.26222762,-0.05134812,0.032339927,-0.11153047,-0.3823168,-0.34963742,0.084922105,-3.078458,0.6247638,-0.00029740276,-0.029301988,-0.0033680066,0.0035294122,-0.0007415728,0.006885678,0.0029704827,0.47860724,-1.4220334,1.9532064,-2.1001108,-1.5707825,2.4535007,-0.019575665,0.046583075,-0.063763455,0.010732402,-0.0026341795,-0.022504212,-0.05746084,0.45968673,-9.481039,0.71279734,47.691364,-0.5742839,-2.2020066,-3.08254,-0.29673335,0.00047609583,-0.21329515,28.3125,29.375,28.5,32.6875,35.25,36.375
0.065052375,0.33396775,-0.18637988,0.5280544,-0.061265912,0.035612956,-0.116861686,-0.38242885,-0.34965533,0.084933765,-3.0784724,0.6248043,-0.00025654305,-0.03016611,-0.0036140212,0.0026571036,-0.0009129767,0.0053867567,0.0040832427,0.47853503,-1.4218521,1.952967,-2.100087,-1.5707821,2.453452,-0.020433595,0.05003512,-0.06565471,0.010419673,-0.0017960558,-0.024474991,-0.1340753,0.47884035,-9.3661175,0.7553206,47.667187,-0.53554904,-2.112274,-3.357814,-0.27292097,-0.005873853,-0.1809648,28.3125,29.375,28.5,32.6875,35.25,36.375
0.07005258,-0.087848395,0.36900082,0.5884792,-0.026937993,0.019744111,-0.11949139,-0.38262865,-0.34969166,0.08496742,-3.0785363,0.6247566,-0.00015546715,-0.03259914,-0.0043928344,0.002815344,-0.0015608212,0.005285215,0.0067185485,0.47841457,-1.4215503,1.9525341,-2.1000392,-1.5707821,2.453294,-0.021657143,0.05486808,-0.07181027,0.01153107,-0.0011832649,-0.028331485,-0.038307227,0.34476504,-9.289503,0.75755644,47.737934,-0.6071732,-1.9639734,-3.3759236,-0.22460404,-0.06904474,-0.14115055,28.3125,29.375,28.5,32.6875,35.25,36.375
0.07505175,-0.010803725,0.817354,0.7423024,-0.012946906,0.02820018,-0.11918788,-0.38284162,-0.3497144,0.08498387,-3.0785258,0.6246778,-5.558585e-05,-0.0352956,-0.004568395,0.0027251134,0.0014567687,0.0062407344,0.0062238555,0.47829443,-1.421188,1.9520653,-2.0999658,-1.5708431,2.4531264,-0.021955414,0.060586844,-0.07851318,0.013065421,-0.004311321,-0.028125878,-0.076614454,0.21068975,-9.212888,0.6971306,47.64927,-0.5889594,-1.9387004,-3.2942994,-0.20035154,-0.035517603,-0.1277643,28.3125,29.375,28.5,32.6875,35.25,36.375
0.080052316,0.33940336,0.93494016,0.7011116,-0.027641863,0.026885027,-0.113316074,-0.38297582,-0.34974492,0.084980145,-3.0785706,0.62458974,-6.645819e-05,-0.03758625,-0.005060323,0.0034436495,0.00028442242,0.006998304,0.0069964062,0.4782099,-1.4209228,1.951765,-2.099942,-1.5708188,2.4529815,-0.023597585,0.06348101,-0.08373484,0.01417817,-0.0036276134,-0.030539012,-0.095768064,0.17238252,-9.232041,0.79560274,47.71017,-0.5994813,-1.9388502,-3.38903,-0.18201423,-0.063862815,-0.09715921,28.3125,29.375,28.5,32.6875,35.25,36.375
0.08505248,0.040744375,0.7045822,0.49906117,-0.013464197,0.03303208,-0.11465521,-0.38314348,-0.34975758,0.08500668,-3.0785882,0.6245744,-3.8758964e-05,-0.039041217,-0.0048239254,0.0034167743,0.0024778692,0.0069592674,0.0060777552,0.47807777,-1.4206694,1.9513925,-2.0998456,-1.5708193,2.4528377,-0.024190217,0.066476114,-0.08753813,0.01603681,-0.005559542,-0.030207882,-0.26815057,0.17238252,-9.289503,0.75084364,47.694946,-0.6388329,-1.9033525,-3.4242396,-0.18887793,-0.05523727,-0.12451278,28.3125,29.375,28.5,32.6875,35.25,36.375
0.090052776,-1.0869064,-0.083899826,0.011448811,-0.03280726,0.047782816,-0.10830756,-0.38333654,-0.34977087,0.084989205,-3.0785112,0.62457716,-9.235722e-05,-0.0419694,-0.0047477484,0.0034533693,0.0061147865,0.008118776,0.00626498,0.47794557,-1.4202591,1.9509352,-2.099725,-1.5708569,2.4527173,-0.024757003,0.07219951,-0.09466852,0.018098785,-0.009334655,-0.030950923,-0.3256114,0.30645782,-9.5385,0.7709874,47.707485,-0.66083395,-1.8602352,-3.472178,-0.17476563,-0.005776398,-0.11493467,28.3125,29.375,28.5,32.6875,35.25,36.375
0.095052496,-0.37319404,-0.07584784,0.013557808,-0.07107347,0.056736525,-0.13429819,-0.38350776,-0.34981367,0.0850004,-3.0785277,0.62438905,-4.535031e-05,-0.043861352,-0.004645349,0.003040816,0.0070175542,0.00697077,0.0044083535,0.47788492,-1.4199212,1.9505037,-2.099641,-1.5708932,2.4525375,-0.026504004,0.07653347,-0.0990489,0.01957917,-0.009613757,-0.03083839,-0.36391866,0.38307226,-9.691729,0.78888994,47.711964,-0.69036984,-1.8203044,-3.4823363,-0.18721125,-0.014635521,-0.14203808,28.3125,29.375,28.5,32.6875,35.25,36.375
0.10005237,-0.582169,0.03154583,-0.18657409,-0.059786446,0.049271993,-0.11325347,-0.38379598,-0.34985396,0.08504414,-3.0785575,0.62441486,7.6074204e-05,-0.04722127,-0.0058553787,0.0016759161,0.0052740783,0.0046505746,0.0015655652,0.4777041,-1.4194736,1.9498667,-2.0995333,-1.570916,2.4523695,-0.028986067,0.08594816,-0.10661316,0.018975884,-0.0070133433,-0.030477496,-0.30645782,0.30645782,-9.749189,0.80679786,47.679718,-0.5904212,-1.7137738,-3.4054198,-0.15330982,-0.026201122,-0.179681,28.3125,29.375,28.5,32.6875,35.25,36.375
0.10505264,-0.8521917,0.028679047,0.18588729,-0.052848265,0.03680585,-0.11854722,-0.38399163,-0.34987628,0.08504327,-3.0785162,0.6244432,9.612154e-05,-0.050189063,-0.008212574,0.0027174302,0.0036130662,0.0071519543,0.0037674468,0.4775846,-1.4190995,1.9494208,-2.0994499,-1.5709518,2.4522731,-0.027718468,0.09153164,-0.11548999,0.019280948,-0.006706694,-0.031407088,-0.17238252,0.34476504,-9.615114,0.8627467,47.67614,-0.7585188,-1.7628112,-3.218848,-0.13296092,-0.0477489,-0.17262346,28.3125,29.375,28.5,32.6875,35.25,36.375
0.110052116,-0.6452843,-0.703942,-0.028426621,-0.05188277,0.024337014,-0.11610052,-0.38430697,-0.34993112,0.08508019,-3.0785377,0.6243508,0.00025075083,-0.053353995,-0.0069865743,0.00021356248,0.008594931,0.0036720966,0.0027752419,0.4774275,-1.4185672,1.9487017,-2.0993412,-1.5710129,2.4520562,-0.031079188,0.1014816,-0.121569455,0.02079682,-0.009539242,-0.033767466,-0.17238252,0.38307226,-9.500193,0.77545905,47.716442,-0.6810936,-2.0629163,-3.2105112,-0.06964334,-0.036695704,-0.2318838,28.3125,29.375,28.5,32.6875,35.1875,36.375
0.11505234,-0.38398832,-0.10659565,0.32640818,-0.051409874,0.040569652,-0.12174676,-0.38456365,-0.3499721,0.08513929,-3.0785942,0.62443763,0.0004211928,-0.054771286,-0.0070222346,0.00066301285,0.009812978,0.003611438,0.004346386,0.47727123,-1.4182181,1.94815,-2.0992687,-1.5710253,2.4519472,-0.031662777,0.103838325,-0.12592444,0.023409598,-0.010592376,-0.03591996,-0.22984336,0.4213795,-9.346964,0.80456203,47.686886,-0.6458981,-1.8738964,-3.2631698,-0.0811196,-0.0044185948,-0.23537058,28.3125,29.375,28.5,32.6875,35.1875,36.375
0.12005177,-0.45735833,0.032702796,0.81154656,-0.047698054,0.036516268,-0.1149822,-0.3849103,-0.3500604,0.08516609,-3.078667,0.6242966,0.0005292172,-0.056777466,-0.008146451,0.00051949656,0.00823191,0.0019291039,0.0070979125,0.47711495,-1.4175798,1.9473346,-2.0991724,-1.5710362,2.4516943,-0.032778498,0.1091003,-0.13207123,0.02505132,-0.008421739,-0.039787658,-0.30645782,0.3256114,-9.097966,0.7933669,47.696735,-0.67979133,-1.8947368,-3.27624,-0.033927847,-0.03302219,-0.24978614,28.3125,29.375,28.5,32.6875,35.1875,36.375
0.12505198,-0.24355376,0.3605368,0.82365483,-0.01807391,0.02117767,-0.11215726,-0.38513651,-0.3500759,0.085151,-3.0785906,0.62428,0.00052634877,-0.05805649,-0.0076849926,-0.00035076408,0.0103687635,0.0003784806,0.0061756773,0.47697058,-1.417122,1.9468192,-2.099064,-1.5710968,2.4515495,-0.03403031,0.11309163,-0.13501027,0.026358226,-0.009613868,-0.04011339,-0.1340753,0.22984336,-9.040505,0.8291774,47.705692,-0.696452,-1.8651891,-3.3676171,-0.023307942,-0.016351752,-0.28187233,28.3125,29.375,28.5,32.6875,35.1875,36.375
0.13005233,-0.11457564,1.357076,1.1653486,0.014428448,-0.0008822907,-0.114526294,-0.38551334,-0.35013977,0.08517906,-3.0786245,0.6241502,0.00065763947,-0.061572786,-0.008631963,0.00028838293,0.009690359,0.0027941458,0.008474456,0.47676608,-1.4164598,1.9459676,-2.0989444,-1.5711449,2.4512603,-0.035230737,0.11837943,-0.14256798,0.026166793,-0.010134179,-0.043608174,-0.05746084,0.1340753,-8.791509,0.81351066,47.71017,-0.6864196,-1.6651121,-3.3929434,0.052646518,0.00038412237,-0.3107162,28.3125,29.375,28.5,32.6875,35.1875,36.375
0.13505241,0.42063335,0.7659715,0.9324077,-0.0026999477,0.008474775,-0.12466784,-0.3858603,-0.3502032,0.08515869,-3.0785608,0.6240577,0.0005558981,-0.06305982,-0.0092918575,-0.00022413308,0.010945758,-0.0013647637,0.010386121,0.47657388,-1.4157007,1.9450926,-2.0987275,-1.5711688,2.451019,-0.0358548,0.124615885,-0.1498611,0.031487722,-0.009350084,-0.04614065,-0.11492168,0.11492168,-8.90643,0.79560274,47.67166,-0.7857918,-1.7938185,-3.3082342,0.059089072,-0.019292988,-0.34747773,28.3125,29.375,28.5,32.6875,35.1875,36.375
0.14005244,-0.34988672,-0.04928396,0.41248274,-0.021225816,0.015469478,-0.10907253,-0.38610393,-0.3502303,0.08515974,-3.0785353,0.6240125,0.0005184698,-0.063549004,-0.009141183,-0.0009734642,0.013590851,-0.005210868,0.013249556,0.4764059,-1.4152309,1.944517,-2.098582,-1.5711812,2.4508264,-0.036186337,0.1286938,-0.153949,0.036126867,-0.009937965,-0.049332693,-0.05746084,0.21068975,-9.174581,0.8560339,47.67166,-0.8531433,-1.7811518,-3.4170465,0.030184034,-0.033456743,-0.32402235,28.3125,29.375,28.5,32.6875,35.1875,36.375
0.14505267,-0.7712036,-0.27536273,0.27259436,-0.049457632,0.041131064,-0.116117194,-0.3863431,-0.35025412,0.085156925,-3.07845,0.6238377,0.0005250302,-0.065978475,-0.010413801,0.00045133714,0.011733912,-0.0024300907,0.01786807,0.47628576,-1.4147378,1.9439157,-2.0984027,-1.571277,2.4506085,-0.03635079,0.13104466,-0.16006024,0.036554303,-0.00958012,-0.054112405,-0.22984336,0.47884035,-9.404425,0.7978386,47.689575,-0.92102563,-1.7730455,-3.30905,0.017220367,-0.003328568,-0.33082893,28.3125,29.375,28.5,32.6875,35.1875,36.375
0.15005277,-0.910793,-1.4589219,-0.45850942,-0.07416322,0.042958252,-0.12128793,-0.38672918,-0.35031417,0.085136026,-3.0784018,0.6236298,0.00037914148,-0.06676863,-0.0102558145,-0.001879206,0.016151268,-0.009722084,0.025648406,0.4760457,-1.4139059,1.9429458,-2.0981371,-1.5712894,2.4502454,-0.036948144,0.13965586,-0.16610265,0.042484853,-0.010174631,-0.06248486,-0.21068975,0.6512228,-9.749189,0.9030289,47.681515,-1.0563173,-1.8790138,-3.40426,-0.047221977,-0.021064654,-0.22330275,28.3125,29.375,28.5,32.6875,35.1875,36.375
0.15505217,-0.84786564,-1.4084982,-0.39393798,-0.0775091,0.044530936,-0.11914465,-0.38698864,-0.35034,0.08509887,-3.078305,0.62337565,0.00024253812,-0.068078354,-0.010827396,-0.001968339,0.017202148,-0.0102625,0.03056817,0.47588968,-1.413292,1.9422749,-2.0979211,-1.5713495,2.4499435,-0.036684934,0.14343496,-0.17074284,0.044301726,-0.010881234,-0.06713615,-0.22984336,0.63206923,-9.691729,0.82022345,47.672558,-1.142724,-1.8063774,-3.4342947,-0.09654851,0.006862406,-0.18212119,28.3125,29.375,28.5,32.6875,35.1875,36.375
0.16005246,-0.14639135,0.06979186,-0.29303256,-0.038559895,0.03192446,-0.12673578,-0.3874716,-0.35041854,0.08512605,-3.0783594,0.62319314,0.0003294955,-0.07011573,-0.010875418,-0.002536089,0.01690594,-0.012893162,0.029837517,0.47560093,-1.4124254,1.9411734,-2.0977404,-1.5713729,2.4495347,-0.039255463,0.14852872,-0.17596132,0.04661832,-0.009421235,-0.06897659,-0.11492168,0.3256114,-9.5385,0.9030289,47.734352,-1.1518965,-1.7812059,-3.5206394,-0.15508339,-0.021347087,-0.072695285,28.3125,29.375,28.5,32.6875,35.1875,36.375
0.16505176,-0.02403788,0.886735,0.07079782,-0.004870671,0.007513702,-0.11374406,-0.38789877,-0.35050306,0.08509398,-3.078297,0.6229158,0.000247561,-0.07327188,-0.01026418,-0.004655076,0.018975927,-0.017749798,0.020268746,0.47539556,-1.4114732,1.9400944,-2.0975,-1.571433,2.4491649,-0.043363057,0.15825774,-0.18308128,0.04927194,-0.009057515,-0.063510835,-0.17238252,0.11492168,-9.404425,0.84484416,47.696735,-1.1547937,-2.1345851,-3.522905,-0.21796651,-0.025834281,-0.08979331,28.3125,29.375,28.5,32.6875,35.1875,36.375
0.1700519,-0.017483111,0.98405886,0.3991571,-0.0041749156,0.023681698,-0.12518063,-0.38819367,-0.35057276,0.08511018,-3.0782897,0.62274307,0.0002234612,-0.075600974,-0.011335019,-0.0031794724,0.01812526,-0.015452631,0.015550571,0.47526357,-1.4108719,1.9393147,-2.097284,-1.5714568,2.4489264,-0.043377746,0.16065364,-0.18971102,0.05107637,-0.009365816,-0.05880337,-0.19153613,0.05746084,-9.251195,0.7777002,47.71823,-1.2075536,-2.0010524,-3.6314898,-0.2635932,-0.05277773,-0.13427514,28.3125,29.375,28.5,32.6875,35.1875,36.375
0.17505218,-0.61812294,1.0907048,0.5772143,-0.011295014,0.03197173,-0.12266184,-0.3885017,-0.35059825,0.085093156,-3.0781868,0.62266564,0.00017300945,-0.07899439,-0.011390417,-0.0029934219,0.01812756,-0.014129577,0.011142635,0.47507063,-1.4102334,1.9385704,-2.0970805,-1.5715288,2.4486988,-0.045942914,0.16565208,-0.19603403,0.05122348,-0.00999534,-0.05695484,-0.22984336,0.17238252,-9.193734,0.85826975,47.67793,-1.1314571,-2.0915356,-3.406952,-0.28838468,-0.056579996,-0.18238148,28.3125,29.375,28.5,32.6875,35.1875,36.375
0.18005274,-1.1244197,-0.40576884,0.3542224,-0.059183545,0.06128887,-0.121800125,-0.38895378,-0.35068455,0.08508177,-3.078115,0.62247807,-1.3221584e-05,-0.08310598,-0.012378176,-0.001574876,0.015637621,-0.00938632,0.008619104,0.4748181,-1.4092474,1.9373735,-2.09671,-1.5715407,2.448339,-0.04787441,0.16937374,-0.2033135,0.049421877,-0.00998327,-0.056357242,-0.53630114,0.38307226,-9.251195,0.95226496,47.703903,-1.1405921,-1.8929607,-3.3435497,-0.310392,-0.041531783,-0.25272584,28.3125,29.375,28.5,32.6875,35.1875,36.375
0.18505177,-1.7195089,-1.3833392,0.46085125,-0.077589445,0.08210635,-0.119066425,-0.38932422,-0.35073766,0.08510574,-3.078117,0.62243915,3.3825392e-05,-0.08545609,-0.0124424305,-0.0023031454,0.01600917,-0.0079154195,0.007795733,0.47458968,-1.408585,1.9365128,-2.0965316,-1.5715655,2.4480865,-0.049225595,0.17389444,-0.20639679,0.046845626,-0.011001407,-0.056880664,-0.6895301,0.49799395,-9.32781,0.90527004,47.688675,-1.1297433,-1.9242676,-3.5197244,-0.30358645,-0.046410874,-0.2891176,28.3125,29.375,28.5,32.6875,35.1875,36.375
0.1900521,-1.2124878,-0.7853176,0.3794093,-0.03835274,0.06335333,-0.115695626,-0.38984823,-0.35081562,0.08505864,-3.0780067,0.62235886,-4.738941e-06,-0.091344714,-0.014095846,-0.0002629871,0.010035556,0.0027523683,0.005478832,0.4743007,-1.4074671,1.9352793,-2.0963194,-1.5716494,2.4477623,-0.051801052,0.1771227,-0.21295081,0.037943482,-0.010604096,-0.057134457,-0.5554548,0.40222588,-9.423578,0.8627467,47.690468,-1.0541116,-1.7384316,-3.4846742,-0.23053399,-0.04907468,-0.38516617,28.3125,29.375,28.5,32.6875,35.1875,36.375
0.195052,-0.753754,0.19070807,0.20830254,-0.016727574,0.015627174,-0.11173923,-0.39044386,-0.35090777,0.085069366,-3.0779972,0.62235564,9.0054775e-05,-0.09515779,-0.013524157,-0.0004109727,0.010439904,0.0029564006,0.0044718864,0.47395137,-1.40636,1.9339269,-2.0961154,-1.5716976,2.447413,-0.055859424,0.18289281,-0.21969992,0.038917784,-0.011070196,-0.060181808,-0.22984336,0.30645782,-9.32781,0.8605109,47.66091,-1.0526989,-1.907551,-3.535973,-0.15354435,-0.08300162,-0.4588615,28.3125,29.375,28.5,32.6875,35.1875,36.375
0.20005248,-0.85570735,0.2189023,0.10593945,-0.028501986,0.02355837,-0.10933626,-0.39084166,-0.35096428,0.085064694,-3.0779653,0.6223237,0.00010124861,-0.09716921,-0.014974894,-0.0013963622,0.010893874,0.0026107023,0.014141634,0.47371182,-1.4055887,1.9330062,-2.095948,-1.5717334,2.447158,-0.05490137,0.18998294,-0.22565727,0.038286604,-0.011339354,-0.06888903,-0.17238252,0.19153613,-9.346964,0.82694155,47.674347,-1.1234239,-1.9611981,-3.4448051,-0.070399955,-0.06543431,-0.41726807,28.3125,29.375,28.5,32.6875,35.1875,36.375
0.20505184,0.47883356,0.7424461,0.2095025,-0.015741382,0.04109358,-0.124593616,-0.39123034,-0.35101733,0.08503655,-3.0779243,0.62221545,9.664556e-05,-0.09914814,-0.013127856,-0.0027971198,0.013039406,-0.002559212,0.017083261,0.47348198,-1.4047943,1.9321193,-2.095815,-1.5717815,2.4468665,-0.060095288,0.19512577,-0.22954579,0.042595208,-0.010900079,-0.07702353,-0.05746084,0.15322891,-9.385271,0.84708,47.667187,-0.904227,-2.1056833,-3.4248123,-0.063719265,-0.09243095,-0.37509078,28.3125,29.375,28.5,32.6875,35.1875,36.375
0.21005216,-0.06521799,0.45638207,0.14559698,-0.020296277,0.006482012,-0.12778202,-0.3918213,-0.35110134,0.08501933,-3.0778894,0.62189364,0.000108486616,-0.10230667,-0.013775273,-0.0019363161,0.012750487,-0.0021645015,0.027943695,0.4731454,-1.4036156,1.9307312,-2.0955508,-1.5718654,2.4463344,-0.061713595,0.1999978,-0.23810048,0.045769688,-0.010852046,-0.08949809,-0.038307227,0.22984336,-9.385271,0.79560274,47.703903,-0.8940674,-2.1952267,-3.4836826,-0.029832765,-0.088746145,-0.20856328,28.3125,29.375,28.5,32.6875,35.1875,36.375
0.21505225,-0.27732766,-0.2903076,-0.10492066,-0.029716982,0.02055843,-0.112033784,-0.39224297,-0.35114452,0.08501411,-3.0778558,0.62174994,0.000102596685,-0.10378742,-0.013839161,-0.0016752926,0.013579683,-0.0035085876,0.029960385,0.47286925,-1.4028097,1.9297608,-2.0953453,-1.5719131,2.4459734,-0.06275754,0.20307983,-0.24324968,0.049400747,-0.010989541,-0.09255601,-0.28730422,0.2681506,-9.423578,0.83813137,47.675243,-0.73916537,-2.1596618,-3.4770594,-0.031628165,-0.094015375,-0.1260137,28.3125,29.375,28.5,32.6875,35.1875,36.375
0.22005261,-0.50963587,-0.4063655,0.09465059,-0.053073782,0.07084119,-0.11934632,-0.39285678,-0.351228,0.08497996,-3.0777953,0.6214723,-3.8856688e-05,-0.1062586,-0.013791958,-0.0010618031,0.01419249,-0.0050225677,0.020043282,0.4724844,-1.4015352,1.9282783,-2.0949962,-1.5719494,2.4454238,-0.06499498,0.20718351,-0.25081787,0.054494593,-0.010859385,-0.08487235,-0.2681506,0.34476504,-9.5385,0.8314132,47.717335,-0.7795063,-1.9898902,-3.545084,-0.047417767,-0.11534773,-0.1272132,28.3125,29.375,28.5,32.6875,35.1875,36.375
0.22505258,-0.46113202,0.94951826,-0.2075113,-0.0043681893,0.030729387,-0.11878515,-0.3934657,-0.35132408,0.08494829,-3.0777082,0.62126714,-0.00011338518,-0.10800234,-0.01321621,-0.00094300235,0.015668377,-0.0076745288,0.008185097,0.47214773,-1.4002607,1.9267944,-2.0946715,-1.5720214,2.444971,-0.06736105,0.21068211,-0.25661728,0.059832487,-0.010970263,-0.075376846,-0.24899697,0.22984336,-9.576807,0.8537928,47.73256,-0.6827632,-1.9515764,-3.6657395,-0.06346736,-0.13836825,-0.26424024,28.3125,29.375,28.5,32.6875,35.1875,36.375
0.23005217,-0.17918102,0.27259248,0.09978494,-0.0045214156,0.031840812,-0.11950205,-0.39392573,-0.35137036,0.08493629,-3.077686,0.6212036,-0.0001565478,-0.10773465,-0.012297116,-0.0023202114,0.019679956,-0.015161986,0.0077044102,0.47182325,-1.3993828,1.925753,-2.0944655,-1.5720333,2.4446104,-0.06851033,0.2150792,-0.26059908,0.06790544,-0.011138942,-0.07604358,-0.22984336,0.15322891,-9.3661175,0.8784135,47.711063,-0.6623455,-2.1260202,-3.8169227,-0.17184767,-0.13843335,-0.26393571,28.3125,29.375,28.5,32.6875,35.1875,36.375
0.23505245,-0.6009788,0.34163344,0.008709965,-0.013529812,0.033229962,-0.11428552,-0.3943352,-0.3513966,0.084898636,-3.0775037,0.62118536,-0.00027727245,-0.111068465,-0.013461242,-0.0007719444,0.019456325,-0.01327167,0.007918637,0.47155923,-1.398504,1.9247469,-2.0941646,-1.5721301,2.4443588,-0.0689606,0.21960878,-0.27036357,0.07134625,-0.011831758,-0.076699965,-0.17238252,0.17238252,-9.404425,0.8940802,47.693153,-0.592151,-2.1472988,-3.549981,-0.22738922,-0.15494575,-0.2957713,28.3125,29.375,28.5,32.6875,35.25,36.375
0.24005194,-0.623519,-0.12796344,-0.1918703,-0.025795644,0.032458477,-0.11672229,-0.39501756,-0.3514826,0.084895544,-3.0774121,0.621067,-0.00038924805,-0.1149551,-0.014933353,-0.000178118,0.01936764,-0.011801603,0.009648621,0.4711272,-1.3971566,1.9230822,-2.0937216,-1.5721778,2.4438655,-0.06933333,0.22694269,-0.28098506,0.07327443,-0.012460461,-0.07879431,-0.19153613,0.2873042,-9.32781,0.82694155,47.683304,-0.58536994,-2.1441832,-3.376854,-0.32347924,-0.17706391,-0.35766256,28.3125,29.375,28.5,32.6875,35.25,36.375
0.2450523,-0.9615066,-0.7084937,-0.15481876,-0.06485959,0.029949982,-0.1180269,-0.39548883,-0.35152072,0.084901564,-3.0773234,0.62098414,-0.00041604333,-0.11621617,-0.015679114,-0.00057274353,0.018753108,-0.009648623,0.018640608,0.47081557,-1.3962663,1.9219593,-2.0934117,-1.5722502,2.443514,-0.06876877,0.22957602,-0.28261656,0.07005412,-0.01292609,-0.0872182,-0.24899697,0.47884035,-9.442732,0.8627467,47.711063,-0.8098392,-2.1287704,-3.4602618,-0.32940924,-0.17752825,-0.32093447,28.3125,29.375,28.5,32.6875,35.25,36.375
0.25005227,-0.7079273,-1.47264,-0.14275841,-0.07908175,0.039306726,-0.1231556,-0.39617106,-0.35162795,0.08486293,-3.0772355,0.6206303,-0.0005212267,-0.11986909,-0.017353222,0.0012940222,0.014939955,-9.4906456e-05,0.032530118,0.47044364,-1.3948246,1.9202741,-2.0930192,-1.5723346,2.4429336,-0.06836179,0.23058543,-0.28674188,0.06289514,-0.013926364,-0.10069339,-0.076614454,0.4213795,-9.519346,0.8940802,47.711063,-0.88745594,-1.8272579,-3.758285,-0.2650269,-0.18744645,-0.13485025,28.3125,29.375,28.5,32.6875,35.25,36.375
0.25505224,0.28660753,-0.7507087,-0.7535691,-0.03631941,0.014384132,-0.11489293,-0.39696586,-0.35175055,0.084909216,-3.077304,0.62033546,-0.00030333336,-0.12543327,-0.019616885,0.0020226722,0.009867912,0.006752097,0.031626467,0.46999902,-1.393417,1.918455,-2.0927227,-1.5724181,2.4422972,-0.0699903,0.23769468,-0.2954915,0.056113485,-0.01253276,-0.10141903,0.038307227,0.47884035,-9.672575,0.9298854,47.686886,-0.8694029,-1.8958163,-3.6720283,-0.13395624,-0.20110567,-0.060891062,28.3125,29.375,28.5,32.6875,35.25,36.375
0.2600528,0.5889882,-0.60817564,-0.68607414,-0.053696577,0.0132999,-0.11826396,-0.39747083,-0.3518293,0.08489902,-3.077271,0.6201775,-0.00028376488,-0.12940617,-0.020285094,0.001597601,0.010804594,0.0073094736,0.023941267,0.46972266,-1.392417,1.9172558,-2.0924942,-1.5724782,2.4419272,-0.071587704,0.24600321,-0.30465174,0.05689806,-0.013630898,-0.09532276,0.1340753,0.34476504,-9.768343,0.87617236,47.72092,-0.9022795,-2.1300397,-3.4068985,-0.08532782,-0.21958134,-0.095332086,28.3125,29.375,28.5,32.6875,35.25,36.375
0.26505238,-0.42843112,-1.0331697,-0.68880635,-0.04384757,0.011174405,-0.10590534,-0.3979594,-0.35190398,0.08490573,-3.077231,0.6200551,-0.0002942562,-0.12899464,-0.021010462,0.00014177503,0.012731345,0.0035435648,0.019144045,0.46944734,-1.3914658,1.9160608,-2.0922062,-1.5725263,2.4415812,-0.06983941,0.25042367,-0.3072841,0.05934433,-0.013638293,-0.0887756,-0.076614454,0.4405331,-9.672575,0.8940802,47.677036,-1.0717887,-2.3158162,-3.5856304,-0.06874235,-0.21223807,-0.17948581,28.3125,29.375,28.5,32.6875,35.25,36.375
0.2700519,-0.67935663,-1.0640285,-0.19840859,-0.050783698,0.025613684,-0.109731264,-0.39875782,-0.352053,0.08492959,-3.0772614,0.6199259,-0.00017533665,-0.13018842,-0.02173288,0.00084517035,0.012244268,0.0017616809,0.015722893,0.46902725,-1.3899636,1.9141711,-2.0918815,-1.572574,2.4410777,-0.07016934,0.2530982,-0.3134808,0.06422774,-0.012391098,-0.08568745,-0.076614454,0.19153613,-9.481039,0.8493211,47.73256,-1.1477779,-2.133598,-3.7369127,-0.03878838,-0.25762677,-0.29539084,28.3125,29.375,28.5,32.6875,35.25,36.375
0.27505165,0.21997498,0.7613427,-0.034682326,0.0044169654,0.021791,-0.1108319,-0.39929485,-0.35214698,0.08494268,-3.0772524,0.6198117,-9.3712835e-05,-0.13429943,-0.022554835,0.004178291,0.008998148,0.0089012375,0.00994913,0.46875048,-1.3889436,1.9128894,-2.0916417,-1.5726336,2.4407315,-0.07203816,0.25297207,-0.32116058,0.064198434,-0.012730374,-0.081779025,-0.17238252,0.038307227,-9.3661175,0.9768804,47.666286,-1.0560864,-1.8363597,-3.5275342,0.041247442,-0.25789917,-0.3917616,28.3125,29.375,28.5,32.6875,35.25,36.375
0.28005195,-0.576972,1.221784,-0.15286016,0.030581908,0.01721804,-0.116225995,-0.4000854,-0.35229045,0.08496588,-3.0772479,0.6195748,-8.23959e-05,-0.13423681,-0.021414032,0.0019687437,0.015558224,-0.002078965,0.013845835,0.46833026,-1.3874159,1.91094,-2.0911949,-1.5726823,2.440165,-0.07323371,0.26075208,-0.32838318,0.07638443,-0.013623988,-0.086866215,-0.2873042,0.095768064,-9.385271,0.9858343,47.694946,-1.0987449,-1.8368194,-3.4631028,-0.0059270654,-0.31683338,-0.4649415,28.3125,29.375,28.5,32.6875,35.25,36.375
0.28505194,-1.7638836,-0.61315477,-0.11709103,-0.0134980315,0.05125562,-0.100349195,-0.40062135,-0.35235402,0.08499117,-3.0771754,0.61945677,-6.2858395e-05,-0.13200976,-0.019252189,-0.00038326168,0.022865998,-0.015586261,0.024310233,0.4680177,-1.3864169,1.9096249,-2.0908306,-1.5727667,2.4397888,-0.074618965,0.26486328,-0.3312884,0.090495594,-0.014053097,-0.09871424,-0.2681506,0.076614454,-9.481039,0.91198283,47.68062,-1.1185448,-1.9450006,-3.4879527,-0.15936115,-0.3150929,-0.38316777,28.3125,29.375,28.5,32.6875,35.25,36.375
0.29005244,-1.6750917,0.011942194,0.095254436,-0.0084540695,0.030280245,-0.11085065,-0.40143564,-0.3524899,0.0850098,-3.0771303,0.6191695,-0.00012202007,-0.13620384,-0.018158106,0.0007460655,0.023948785,-0.014810363,0.03605407,0.46757224,-1.3848186,1.9075783,-2.0902913,-1.5728267,2.4391708,-0.07916812,0.26895985,-0.34007895,0.09494357,-0.015427169,-0.114998594,-0.34476504,0.15322891,-9.232041,0.9321212,47.668976,-1.0704216,-1.8034353,-3.608175,-0.30955312,-0.3351091,-0.2020216,28.3125,29.375,28.5,32.6875,35.25,36.375
0.29505247,-0.51407766,0.22649188,0.08257647,-0.0061946977,0.025790183,-0.11797332,-0.40229812,-0.3526314,0.085069254,-3.077169,0.61871755,-5.165854e-05,-0.14268893,-0.018708024,0.0012074143,0.020995745,-0.006651331,0.032067064,0.46710283,-1.3832301,1.9054488,-2.0897548,-1.5728992,2.4384155,-0.0830263,0.27572933,-0.3477629,0.08723269,-0.016509896,-0.114862084,-0.36391866,0.2681506,-9.289503,0.90527004,47.707485,-0.8132385,-1.6501384,-3.4284663,-0.27828228,-0.3525755,-0.14471392,28.3125,29.375,28.5,32.6875,35.25,36.375
0.30005082,-1.6637369,-1.2655518,0.26672137,-0.08110428,0.06615236,-0.10474875,-0.40283903,-0.3526865,0.08503165,-3.077029,0.6185591,-0.00021135711,-0.14719978,-0.020112256,0.002475505,0.018196525,0.0014278205,0.020324212,0.46676686,-1.3820882,1.9040979,-2.0893624,-1.5729717,2.4379992,-0.083709866,0.27953118,-0.3540904,0.0812999,-0.017678065,-0.10379257,-0.40222588,0.30645782,-9.346964,0.9858343,47.704796,-0.9345857,-1.6047548,-3.4926703,-0.22751947,-0.35615194,-0.24556646,28.3125,29.375,28.5,32.6875,35.25,36.375
0.3050523,-1.9534891,-1.269343,0.23350376,-0.0666143,0.085085,-0.11715101,-0.403444,-0.3527833,0.08504602,-3.0769997,0.6184394,-0.00011064398,-0.15067798,-0.020382268,0.0032893408,0.014623203,0.007373027,0.015627438,0.46645394,-1.3809463,1.9026517,-2.0890768,-1.5730556,2.437616,-0.086390465,0.2810368,-0.35670343,0.075479425,-0.017175889,-0.10177722,-0.5363012,0.36391866,-9.270349,0.9321212,47.68599,-0.7628906,-1.5002184,-3.6149335,-0.14159216,-0.37863827,-0.2868085,28.3125,29.375,28.5,32.6875,35.25,36.375
0.3100526,-0.5006676,0.48261765,0.384118,-0.010404015,0.057175834,-0.120302744,-0.40439922,-0.3529056,0.085069194,-3.0769737,0.618336,9.0605376e-05,-0.15428771,-0.021545798,0.0012087829,0.015179061,0.0074360655,0.015235589,0.46590188,-1.3792137,1.9004635,-2.0886948,-1.5731758,2.437004,-0.08693023,0.29156193,-0.36423352,0.07265852,-0.017716812,-0.101920664,-0.57460845,0.30645782,-9.212888,0.8560339,47.688675,-0.7542543,-1.8923336,-3.6566787,-0.013096504,-0.40716636,-0.37786108,28.3125,29.375,28.5,32.6875,35.25,36.375
0.3150523,-0.80173403,0.16740553,0.3430922,-0.018025665,0.038758997,-0.11683435,-0.4049988,-0.35299975,0.08504689,-3.0769334,0.61816984,9.1574795e-05,-0.1563515,-0.021373708,0.0014763934,0.016582027,0.0073054177,0.021143507,0.46557745,-1.3780106,1.8990272,-2.0884182,-1.5732363,2.4365819,-0.08813365,0.29500428,-0.3699112,0.07561547,-0.018935518,-0.10902539,-0.34476504,0.30645782,-9.155427,0.9365982,47.68062,-0.73968685,-1.9458494,-3.6094904,0.047828913,-0.38866073,-0.3538622,28.3125,29.375,28.5,32.6875,35.25,36.375
0.3200526,0.3285974,-0.41964954,0.49143338,-0.045472316,0.028642993,-0.13189565,-0.40594816,-0.35311538,0.08503168,-3.0768104,0.6178639,0.00014500944,-0.15746498,-0.021240374,0.0017025524,0.021403896,0.0022049253,0.038529214,0.4650496,-1.3761599,1.8967537,-2.0879118,-1.5734047,2.43588,-0.08785318,0.30021366,-0.37962145,0.08677151,-0.020996949,-0.1261196,0.0,0.28730422,-9.002198,0.87617236,47.70659,-0.7384319,-1.8255081,-3.4531689,0.021093408,-0.3716005,-0.12208858,28.3125,29.375,28.5,32.6875,35.25,36.375
0.32505196,1.7396578,1.5035214,0.58252585,0.024844645,-0.013054313,-0.13175213,-0.40690902,-0.35324174,0.08502736,-3.0767524,0.6175266,0.00016160654,-0.15537983,-0.019711392,-0.0015647134,0.03019292,-0.013166841,0.036148198,0.46449772,-1.3743067,1.8944458,-2.0873911,-1.5735134,2.435126,-0.08782685,0.30791506,-0.38539305,0.10250805,-0.021952223,-0.123706646,0.019153614,0.095768064,-8.90643,1.0126908,47.694946,-0.852283,-1.8569058,-3.5916367,-0.13973007,-0.35581195,-0.07330231,28.3125,29.375,28.5,32.6875,35.25,36.375
0.33005664,0.21063486,1.0627254,0.53883696,0.028982425,-0.024310663,-0.110981956,-0.4075266,-0.35331044,0.08497301,-3.0765965,0.6173055,3.6122708e-06,-0.15734172,-0.020268999,-0.0013535221,0.031470343,-0.014900623,0.02728026,0.46413764,-1.3729839,1.8929023,-2.086971,-1.5736097,2.4346488,-0.08815261,0.31291735,-0.39334103,0.10758297,-0.022338495,-0.11515604,0.05746084,0.076614454,-8.887277,0.8940802,47.693153,-0.9594052,-2.045714,-3.4638112,-0.20411825,-0.3439919,-0.15987602,28.3125,29.375,28.5,32.6875,35.25,36.375
0.33505276,0.15193075,0.19293886,0.36362302,-0.020889856,0.014209591,-0.11182623,-0.4081491,-0.3533951,0.08495763,-3.0764413,0.61719906,-0.00010735418,-0.160784,-0.02124275,-0.00019406532,0.030922933,-0.01094764,0.020973332,0.46380147,-1.3716975,1.8912987,-2.0864923,-1.573706,2.4342668,-0.088512026,0.3169102,-0.40109423,0.10756767,-0.023647832,-0.109197006,0.095768064,0.17238252,-9.097966,0.9164598,47.71465,-0.9190506,-2.1829271,-3.3109822,-0.25433493,-0.32252625,-0.25682086,28.3125,29.375,28.5,32.6875,35.25,36.375
0.3400521,-1.4181764,-1.3766202,-0.31410888,-0.06949281,0.033475406,-0.09918186,-0.4091053,-0.35352287,0.08495642,-3.076276,0.6169947,-0.00019028492,-0.1635825,-0.022172907,-0.001224602,0.027975503,-0.0037572987,0.014183478,0.4632735,-1.3697988,1.8888863,-2.0858142,-1.5738381,2.4336336,-0.0886761,0.3202662,-0.4007098,0.096074626,-0.024263911,-0.102564774,-0.24899697,0.4405331,-9.461885,1.005978,47.681515,-0.97861934,-1.9493823,-3.7945766,-0.17939048,-0.27227622,-0.41545606,28.3125,29.375,28.5,32.6875,35.25,36.375
0.3450524,-0.79942423,-1.2284657,-0.7805082,-0.08147972,0.062461995,-0.11945713,-0.40974188,-0.35360909,0.08494321,-3.076148,0.6168508,-0.00023282587,-0.16786875,-0.02219955,-0.00070998905,0.026064172,0.000915834,0.015935024,0.46293652,-1.3685116,1.8872842,-2.0853841,-1.5739464,2.433224,-0.0918581,0.32427797,-0.40624887,0.09253403,-0.024691695,-0.10749168,-0.11492168,0.63206923,-9.921572,0.9925471,47.682407,-1.0330894,-2.111571,-3.8576891,-0.10690296,-0.26818407,-0.45355478,28.3125,29.375,28.5,32.6875,35.25,36.375
0.3500522,-1.3741469,-1.8292297,-1.1777645,-0.07432668,0.037975084,-0.10487113,-0.41074473,-0.35373658,0.08489956,-3.0760045,0.6165165,-0.00026620278,-0.17053567,-0.023857197,-0.0023137636,0.026766725,-0.0006151851,0.04110903,0.4623848,-1.3664908,1.8848432,-2.084822,-1.5741023,2.4324832,-0.09096595,0.33393478,-0.4148681,0.09306877,-0.024745578,-0.13176678,-0.24899697,0.6512228,-10.036493,1.0104496,47.652847,-1.0690906,-2.167396,-3.8708363,-0.058489814,-0.2341381,-0.26765624,28.3125,29.375,28.5,32.6875,35.25,36.375
0.35505253,-1.3535392,-1.3763905,-1.1073878,-0.07900492,0.048625376,-0.10924292,-0.4114478,-0.35384527,0.084903434,-3.0759904,0.6162233,-0.00017579297,-0.17122622,-0.022984944,-0.0032047732,0.028213229,-0.0033007043,0.04490325,0.46202424,-1.3651444,1.8831457,-2.0844738,-1.5741981,2.4319422,-0.09274935,0.33651024,-0.41688627,0.095520526,-0.024862094,-0.13734403,-0.17238252,0.40222588,-10.093954,0.9321212,47.657326,-1.0514652,-2.2796865,-3.999846,-0.027835418,-0.19823548,-0.13873644,28.3125,29.375,28.5,32.6875,35.25,36.375
0.36005253,0.08949964,1.3305864,-0.5684444,0.030028515,0.010854517,-0.110754415,-0.4125096,-0.35402635,0.08490285,-3.0760133,0.61577517,-7.800286e-05,-0.17551073,-0.02230661,0.0004551095,0.028475296,-0.0050779837,0.027619772,0.46148273,-1.3630899,1.8805722,-2.083966,-1.5742944,2.4311192,-0.0975332,0.3390476,-0.4321328,0.109954715,-0.024276715,-0.1248435,-0.17238252,0.076614454,-9.672575,0.9321212,47.691364,-0.83278394,-2.0361018,-3.69592,-0.14373325,-0.17696439,-0.19906318,28.3125,29.375,28.5,32.625,35.25,36.375
0.365053,0.53308284,2.6485105,-0.32626107,0.07202506,-0.00055870356,-0.111762114,-0.4132173,-0.3541224,0.08490485,-3.0759358,0.61560786,-6.4699954e-05,-0.17492995,-0.022226498,-0.0004020799,0.030231925,-0.012072262,0.021047661,0.46109885,-1.3617194,1.8788265,-2.083532,-1.5743898,2.4306417,-0.09782168,0.34244016,-0.43647727,0.11794885,-0.022724666,-0.11856457,-0.3256114,-0.19153613,-9.5385,0.94331104,47.66091,-0.9168411,-2.0691743,-3.6955218,-0.22562584,-0.16445693,-0.31733465,28.3125,29.375,28.5,32.625,35.25,36.375
0.37005225,-1.3021386,0.28225112,-0.12967202,-0.034819126,0.086892486,-0.11554055,-0.41427156,-0.35424712,0.084938794,-3.075783,0.6153616,-0.000111393856,-0.1769305,-0.022915116,-0.0022268624,0.033403035,-0.016034126,0.02368417,0.46049908,-1.3597126,1.8761591,-2.0827286,-1.5745343,2.429909,-0.09735365,0.35179853,-0.44514102,0.1221789,-0.023852156,-0.12072189,-0.2681506,-0.19153613,-9.5385,0.9388393,47.68062,-0.90258396,-2.235441,-3.739829,-0.30172932,-0.15133621,-0.3880214,28.3125,29.375,28.5,32.625,35.25,36.375
0.3750521,-0.6024427,0.4645216,-0.18978348,-0.048097633,0.0833592,-0.12176962,-0.41497907,-0.3543574,0.0849622,-3.075759,0.6151972,-0.000112963906,-0.18325028,-0.025567073,0.001000157,0.025340093,-0.0010624862,0.032020025,0.4601148,-1.3583688,1.8743862,-2.082266,-1.574582,2.429426,-0.09823614,0.3533239,-0.45214403,0.11061011,-0.023362072,-0.12993936,-0.40222588,0.15322891,-9.519346,0.9545008,47.688675,-0.96203434,-2.1002204,-3.6233282,-0.17966388,-0.13225222,-0.3215333,28.3125,29.375,28.5,32.625,35.25,36.375
0.3800526,-0.23437592,-0.66014695,-0.5907616,-0.07110048,0.04821358,-0.109483734,-0.41609576,-0.3544803,0.084981605,-3.0756419,0.61487705,1.5705407e-06,-0.18742172,-0.025569048,0.0023477213,0.021323161,0.006668008,0.042939037,0.45948967,-1.3562833,1.8716816,-2.0815985,-1.5747737,2.4286172,-0.10140188,0.35411993,-0.45541012,0.104274675,-0.023270173,-0.14402366,-0.40222588,0.4405331,-9.844957,1.0641627,47.696735,-0.77466553,-1.6768099,-3.9419775,-0.047511484,-0.109515935,-0.10476762,28.3125,29.375,28.5,32.625,35.25,36.375
0.3850519,-0.35982406,-0.9904647,-0.5453567,-0.077659935,0.059531588,-0.111183785,-0.41685858,-0.35458222,0.084997274,-3.075594,0.61467916,9.100858e-05,-0.18978587,-0.026192121,0.0011232957,0.021103693,0.003935003,0.036287464,0.459081,-1.3548537,1.8698257,-2.0811665,-1.574881,2.428092,-0.10286548,0.3614911,-0.46242878,0.10626714,-0.021859346,-0.1388396,-0.49799395,0.53630114,-9.864111,0.9835985,47.70659,-0.58504814,-1.9898684,-3.880827,-0.03771913,-0.08231655,-0.09229526,28.3125,29.375,28.5,32.625,35.25,36.375
0.39005205,0.22636715,-0.26704323,0.017787196,-0.052151512,0.05081648,-0.11226538,-0.41800135,-0.3547299,0.085021496,-3.0755312,0.6143445,0.00015317654,-0.18897367,-0.0272894,0.0019157884,0.02309528,-0.0054892665,0.023771575,0.45844594,-1.3527066,1.8670214,-2.080466,-1.5750126,2.4272573,-0.10129973,0.36526376,-0.4731536,0.122572124,-0.019425297,-0.124766305,-0.24899697,0.4213795,-9.519346,0.9858343,47.67166,-0.9441217,-1.8220141,-3.643041,-0.15786232,-0.12289625,-0.29721457,28.3125,29.375,28.5,32.625,35.25,36.375
0.3950523,1.0703511,0.89993715,0.62421155,-0.02861817,0.016661016,-0.11865754,-0.41877994,-0.3548504,0.08504704,-3.075525,0.61422956,0.0002667321,-0.18848658,-0.026788453,-0.00016816976,0.026885238,-0.013290393,0.017234562,0.45803797,-1.351266,1.8651303,-2.080057,-1.5750841,2.4267793,-0.10151001,0.370791,-0.47719544,0.12977079,-0.019348456,-0.11843981,-0.28730422,0.30645782,-9.11712,1.0574499,47.66271,-0.9078711,-1.7318625,-3.7570477,-0.23428705,-0.12398067,-0.41781098,28.3125,29.375,28.5,32.625,35.25,36.375
0.40005234,0.75402415,0.734454,1.1297609,-0.013126053,0.0106199635,-0.11914481,-0.41995278,-0.35503197,0.085086614,-3.0754583,0.614036,0.00031693466,-0.19541709,-0.029642064,0.002527864,0.020826418,-0.0021428491,0.025427584,0.45742583,-1.3490461,1.862182,-2.0792935,-1.5751923,2.4260561,-0.102314346,0.37657127,-0.48971647,0.12376931,-0.018924698,-0.12743498,0.05746084,0.076614454,-8.734048,1.0328293,47.67166,-1.0467135,-1.7076786,-3.5275369,-0.19708799,-0.13302824,-0.45612663,28.3125,29.375,28.5,32.625,35.25,36.375
0.4050525,0.21777153,0.30759084,1.0106784,-0.020313172,0.018313099,-0.120419316,-0.4207366,-0.35514253,0.08508387,-3.0754023,0.61380124,0.00031377442,-0.20027146,-0.03305324,0.0033927783,0.015577664,0.006774043,0.045133766,0.45700625,-1.3475212,1.8602303,-2.0788057,-1.5752758,2.425498,-0.10071641,0.3830162,-0.49812308,0.11531116,-0.018258434,-0.14554267,0.076614454,0.11492168,-8.7532015,0.9612189,47.66808,-1.1456013,-1.8800694,-3.2899153,-0.049519084,-0.14272338,-0.29893333,28.3125,29.375,28.5,32.625,35.25,36.375
0.41005266,0.17905481,-0.71314603,0.57850206,-0.06017475,0.029714543,-0.12000572,-0.4219064,-0.3553228,0.08506146,-3.0753171,0.61335933,0.00025858215,-0.20039298,-0.031034606,0.0020427436,0.019218827,0.0021787386,0.046059206,0.4564055,-1.3451827,1.8572754,-2.0780609,-1.5753964,2.4246335,-0.103073835,0.385157,-0.49959067,0.12033012,-0.019523513,-0.14881857,-0.22984336,0.45968673,-8.887277,1.0171678,47.660015,-1.0238962,-1.7170998,-3.7787633,0.020240538,-0.15640967,-0.1495177,28.3125,29.375,28.5,32.625,35.25,36.375
0.41505197,-0.7158439,-1.2311624,0.4500985,-0.08469702,0.04626739,-0.120720565,-0.42311332,-0.35549375,0.08505768,-3.075182,0.6129925,0.00022453399,-0.2031052,-0.031026362,0.0018718613,0.021963624,-0.0026017004,0.031319477,0.45578095,-1.3428063,1.8542084,-2.0772316,-1.5755528,2.4237986,-0.10470352,0.39288315,-0.51163644,0.13018042,-0.019866655,-0.13570115,-0.51714754,0.80445176,-9.136273,1.044019,47.68062,-0.93870234,-1.7278354,-3.598874,-0.007894471,-0.15216105,-0.33305582,28.3125,29.375,28.5,32.625,35.25,36.375
0.42005193,-0.8801713,-0.27335894,0.58235663,-0.046347536,0.03994204,-0.11912875,-0.42393523,-0.3556282,0.0850385,-3.0751257,0.6127505,0.00015509022,-0.19805062,-0.0286873,-0.0033303173,0.030922076,-0.023131182,0.029517343,0.4553611,-1.3411496,1.8521146,-2.0766995,-1.5756124,2.4232357,-0.10471841,0.39881516,-0.51124376,0.14622265,-0.01885682,-0.13391806,-0.7086837,0.4405331,-9.174581,0.9388393,47.686886,-0.9956564,-1.9973719,-3.8308616,-0.19222921,-0.18979512,-0.38994467,28.3125,29.375,28.5,32.625,35.25,36.375
0.42505214,-0.044117197,1.1387811,0.7339413,0.006180507,0.011000141,-0.13280787,-0.4247255,-0.35575712,0.085000105,-3.075024,0.6125511,-1.8422488e-05,-0.20208831,-0.02937451,-0.0020265093,0.030867143,-0.021718549,0.034742534,0.4549528,-1.3394935,1.8500532,-2.076124,-1.5756606,2.4227169,-0.10624505,0.40442738,-0.52264017,0.15067,-0.019505119,-0.14066043,0.095768064,0.15322891,-9.11712,1.0238806,47.67166,-1.0935054,-2.0481424,-3.684988,-0.27791405,-0.19992414,-0.3674423,28.3125,29.375,28.5,32.625,35.25,36.375
0.4300524,-0.48509187,1.0839667,0.10335067,0.015770627,-0.007260427,-0.123336926,-0.42597747,-0.3559517,0.08499473,-3.0749574,0.6120453,-6.442955e-05,-0.2092718,-0.032102365,-0.0015767612,0.02468957,-0.0059620216,0.053865075,0.45431688,-1.3370216,1.8468574,-2.075281,-1.5757812,2.4217749,-0.106281094,0.41123208,-0.5289701,0.1332081,-0.021036148,-0.15980783,0.038307227,-0.22984336,-9.232041,0.9791215,47.696735,-1.0614821,-2.1555805,-3.638516,-0.11742308,-0.20463428,-0.12332235,28.3125,29.375,28.5,32.625,35.25,36.375
0.43505314,-1.3152536,-0.773417,-0.022879722,-0.044079877,0.05961618,-0.12091999,-0.42680016,-0.35605037,0.084950686,-3.0748417,0.6117379,-0.0002491521,-0.21236475,-0.031730074,-0.003041282,0.024548195,-0.0052034887,0.04481119,0.45384797,-1.3353295,1.8447508,-2.07467,-1.5758532,2.4211297,-0.1089787,0.41733325,-0.53315455,0.13056058,-0.02127055,-0.15344538,-0.2681506,-0.095768064,-9.500193,0.9947882,47.707485,-0.9893574,-2.3343754,-3.776123,-0.03914123,-0.23330805,-0.12775733,28.3125,29.375,28.5,32.625,35.25,36.375
0.4400523,-1.2891405,-0.03229284,-0.8563197,-0.03351853,0.025791103,-0.12451488,-0.42807922,-0.35624254,0.08492372,-3.074714,0.6113377,-0.00028493247,-0.21408656,-0.02938613,-0.0037448965,0.028548405,-0.010521575,0.024694497,0.4532104,-1.3327739,1.841493,-2.07383,-1.5760096,2.42026,-0.11311915,0.42142808,-0.53951365,0.13940975,-0.022495879,-0.1374588,-0.36391866,0.24899697,-9.940725,1.0328293,47.681515,-0.7928442,-2.3990648,-3.7147717,-0.0486807,-0.24460739,-0.33266744,28.3125,29.375,28.5,32.625,35.25,36.375
0.445053,-0.74209553,-0.40541416,-1.0958416,-0.038445015,0.031890303,-0.13005465,-0.42934307,-0.35640967,0.08489426,-3.0745008,0.61113936,-0.0004444405,-0.21109805,-0.029525306,-0.0041138832,0.03468163,-0.02329366,0.021762121,0.45253965,-1.3302313,1.8382257,-2.0728776,-1.5761536,2.4194942,-0.110022664,0.42443952,-0.54763997,0.1586917,-0.022419203,-0.13142465,-0.4213795,0.17238252,-10.093954,1.0373062,47.683304,-1.0084057,-2.2102187,-4.0020094,-0.28259873,-0.2604121,-0.5181456,28.3125,29.375,28.5,32.625,35.25,36.375
0.45005193,-1.2959784,-0.5228781,-0.58709085,-0.055374984,0.03868657,-0.13261689,-0.4302281,-0.3565441,0.084904395,-3.074442,0.61102104,-0.0005012549,-0.21424219,-0.030180072,-0.005654825,0.034313984,-0.02275016,0.0354767,0.4520715,-1.3285148,1.8359507,-2.072244,-1.5762018,2.4189606,-0.11113807,0.4321329,-0.5537432,0.15635629,-0.022438569,-0.14625177,-0.11492168,0.19153613,-9.9790325,1.1268245,47.667187,-0.959595,-2.4320478,-3.885921,-0.32577786,-0.29007465,-0.4265123,28.3125,29.375,28.5,32.625,35.25,36.375
0.45505238,-1.0841825,-0.48005924,-0.6289108,-0.04887427,0.03943546,-0.13293022,-0.4310916,-0.35666203,0.08487134,-3.074365,0.6106301,-0.00055267924,-0.2214779,-0.0335558,-0.0008018057,0.023831727,-0.0026557457,0.052055664,0.45162734,-1.3267765,1.8337587,-2.071675,-1.5763091,2.418283,-0.111343876,0.43136495,-0.5612419,0.14184968,-0.021938145,-0.16303726,0.038307227,0.11492168,-9.940725,1.0037369,47.670765,-0.97694755,-2.2815201,-3.9264538,-0.19510017,-0.3054649,-0.22325504,28.3125,29.375,28.5,32.625,35.25,36.375
0.46005252,-0.24003033,0.14742807,-0.6707085,-0.034438096,-0.0019147788,-0.12208555,-0.43245575,-0.3568599,0.084914334,-3.0743363,0.6101314,-0.00030345272,-0.22705396,-0.03446732,0.0014291416,0.021693632,0.006998487,0.041115366,0.4509671,-1.3242449,1.8303584,-2.0708616,-1.5765141,2.4173162,-0.11256687,0.43482476,-0.5707328,0.13827781,-0.02420638,-0.15330651,-0.11492168,0.11492168,-9.749189,1.0775883,47.666286,-1.0094216,-2.0413585,-3.968679,-0.015857294,-0.31723064,-0.22820193,28.3125,29.375,28.5,32.625,35.25,36.375
0.46505207,-0.05742913,0.623085,-0.09440012,-0.018917507,-0.009095026,-0.13038786,-0.4333347,-0.35699552,0.08491026,-3.074317,0.60986114,-0.00028147973,-0.22792065,-0.035302017,0.0010280057,0.023442473,0.0024236527,0.033807598,0.45052344,-1.3225402,1.8281416,-2.0703204,-1.5765857,2.416707,-0.111793384,0.44045174,-0.5791575,0.14598,-0.023758128,-0.14522536,0.019153614,0.24899697,-9.710882,1.061927,47.650166,-1.0329238,-2.2709413,-3.6411958,0.00032607513,-0.3271808,-0.35700917,28.3125,29.375,28.5,32.625,35.25,36.375
0.47005257,-1.1063254,-0.13388048,-0.070487775,-0.02094231,-0.007509565,-0.127458,-0.43468398,-0.3571854,0.08492742,-3.0741963,0.6095427,-0.00033312925,-0.2247316,-0.03312058,0.001132297,0.032411695,-0.013760018,0.03859441,0.44982758,-1.3199275,1.8246449,-2.0693057,-1.5767187,2.4158292,-0.11173407,0.44176552,-0.5877538,0.17167833,-0.024803603,-0.14994287,-0.11492168,0.36391866,-9.3661175,1.1223475,47.655537,-1.1500922,-1.9281263,-4.041894,-0.23227279,-0.33559227,-0.3922614,28.3125,29.375,28.5,32.625,35.25,36.375
0.47505185,-1.414769,-2.263954,0.16806592,-0.09462023,0.06137871,-0.13333908,-0.4360451,-0.35739616,0.08496625,-3.0741138,0.60897607,-0.00037770072,-0.23274378,-0.033190023,0.0021308318,0.030044591,-0.002116142,0.0567468,0.44916618,-1.3172876,1.821041,-2.0682085,-1.5768636,2.4148257,-0.115788355,0.44870472,-0.59770745,0.16301727,-0.027915185,-0.17212637,-0.2873042,0.49799395,-9.385271,1.1178758,47.63852,-1.044421,-1.7683553,-3.8136435,-0.22821394,-0.33767098,-0.108288646,28.3125,29.375,28.5,32.625,35.25,36.375
0.48005265,-2.3784978,-2.3072426,0.51504594,-0.12820454,0.07669076,-0.12965932,-0.4369962,-0.35751578,0.084991194,-3.074071,0.608627,-0.00018536413,-0.24016297,-0.034577504,0.004126686,0.024845408,0.011444396,0.04833068,0.4486972,-1.3155348,1.8186821,-2.0676372,-1.577032,2.414145,-0.118373625,0.45353895,-0.60660094,0.15260309,-0.02913061,-0.16628775,-0.17238252,0.5363012,-9.385271,1.1715889,47.68062,-1.0091734,-1.8462491,-3.9102683,-0.058340672,-0.33526862,-0.07889108,28.3125,29.375,28.5,32.625,35.25,36.375
0.4850524,-1.1220193,-0.8316605,0.7189392,-0.059272792,0.04649749,-0.1306093,-0.4379851,-0.35769275,0.08503287,-3.0741115,0.60840976,4.2819982e-05,-0.24212809,-0.03637117,0.005419524,0.023661468,0.016236363,0.036809064,0.44825414,-1.3137125,1.816203,-2.0670984,-1.5771278,2.4135618,-0.11610029,0.45555764,-0.612577,0.15179187,-0.030071711,-0.15248999,-0.9002198,0.7278373,-9.059659,1.1089219,47.68062,-1.0585141,-1.7385436,-3.6348348,0.04660581,-0.30666855,-0.21741217,28.3125,29.375,28.5,32.625,35.25,36.375
0.49005243,-0.63357127,0.60365933,1.3325979,-0.019453395,0.011568347,-0.12844859,-0.4394583,-0.35792395,0.085075095,-3.0740712,0.6080425,0.00022652099,-0.23908862,-0.033602685,0.0025137197,0.03553862,-0.0051930365,0.02274162,0.447558,-1.3109397,1.8124431,-2.0661433,-1.5772966,2.4126427,-0.11693244,0.46310025,-0.622476,0.178653,-0.03139408,-0.13924514,-0.78529817,0.36391866,-8.6574335,1.0641627,47.62419,-1.1276625,-1.7359359,-3.7941294,-0.12536366,-0.29005542,-0.45798063,28.3125,29.375,28.5,32.625,35.25,36.375
0.4950519,-0.71438056,1.0499686,1.1229672,0.013453089,0.015625237,-0.12178829,-0.4404639,-0.35808665,0.085088335,-3.0740125,0.607811,0.00027991034,-0.2403973,-0.03218349,0.00041952962,0.04037826,-0.011732946,0.0327736,0.44708946,-1.308995,1.8098334,-2.065447,-1.5774058,2.412038,-0.119020686,0.47023457,-0.6290569,0.18598695,-0.03299851,-0.15135376,-0.34476504,0.038307227,-8.63828,1.0552088,47.652847,-1.0117174,-1.9110534,-3.5437567,-0.22120905,-0.27362975,-0.43239045,28.3125,29.375,28.5,32.625,35.25,36.375
0.500054,-1.6502098,1.2357247,1.3876475,-0.006891331,0.058015734,-0.12934919,-0.44196367,-0.35829,0.08510498,-3.0739183,0.60737634,0.00038473532,-0.24891531,-0.035764813,0.0032327329,0.030848453,0.008343721,0.05377072,0.4463453,-1.3061398,1.806002,-2.0644238,-1.5775975,2.4110358,-0.11912767,0.4747785,-0.63834804,0.16831772,-0.03325971,-0.17245646,-0.2681506,-0.38307226,-8.7532015,1.099968,47.634937,-0.8722628,-1.9855049,-3.5124972,0.023009453,-0.25201625,-0.1624052,28.3125,29.375,28.5,32.625,35.25,36.375
0.50505275,0.05819777,2.0748746,0.55921596,0.044241842,-0.0067455512,-0.11886389,-0.44342825,-0.3584998,0.08505698,-3.0737731,0.6068937,0.0003986636,-0.24420515,-0.033268515,-2.1579099e-05,0.03850148,-0.0030403635,0.03722349,0.44564983,-1.3032151,1.8022336,-2.063451,-1.5778021,2.4100587,-0.11789093,0.47464874,-0.6341787,0.1779239,-0.035166305,-0.15465926,-0.26815057,-0.24899697,-8.925584,0.9298854,47.694054,-0.6491511,-2.8168058,-2.946005,0.058859088,-0.17747387,-0.24772197,28.3125,29.375,28.5,32.625,35.25,36.375
0.510052,0.98334235,2.0112321,0.507479,0.015390878,-0.023487488,-0.12860826,-0.44440952,-0.35860193,0.085042045,-3.0735855,0.60664445,0.00042697616,-0.23431754,-0.03091961,-0.0017686333,0.04572461,-0.020099586,0.03334462,0.44515926,-1.3012997,1.7997025,-2.0627143,-1.5780057,2.4094374,-0.114090286,0.4663073,-0.6243337,0.19493161,-0.03426762,-0.14698577,0.095768064,-0.57460845,-9.136273,0.8918391,47.699425,-0.87291574,-2.5785103,-3.2969375,-0.15094702,-0.12982199,-0.3536154,28.3125,29.375,28.5,32.625,35.25,36.375
0.5150523,2.1979997,3.2768238,0.21656099,0.05034509,-0.06325154,-0.1438587,-0.44538102,-0.35872567,0.08501093,-3.0734432,0.6064768,0.00036358414,-0.23477902,-0.03190504,-0.00027466795,0.04434155,-0.015482929,0.037253838,0.44466826,-1.2993592,1.7971772,-2.0619977,-1.5781263,2.408861,-0.112049066,0.46439278,-0.6257669,0.19347297,-0.035059348,-0.14884625,0.8619126,-0.9959879,-9.11712,0.9701675,47.688675,-0.93688536,-2.6093507,-2.8430126,-0.23101765,-0.09782928,-0.33751935,28.3125,29.375,28.5,32.625,35.25,36.375
0.52005273,2.0196795,1.5737454,-0.9960738,0.06674448,-0.10339092,-0.12330059,-0.4467759,-0.3588751,0.08497612,-3.0732179,0.6060554,0.0002307266,-0.23533393,-0.03316483,-0.0042249113,0.03465295,-0.0064448486,0.052569836,0.44393596,-1.2965899,1.7935227,-2.0608695,-1.5783285,2.4078956,-0.11241241,0.46446887,-0.6123197,0.16743806,-0.03036863,-0.16455796,1.4939818,-0.5363012,-9.5385,0.86498255,47.72629,-0.7568127,-3.125137,-3.3432431,0.055045858,-0.10062888,-0.091551095,28.3125,29.375,28.5,32.625,35.25,36.375
0.52505195,1.8120623,-0.50037235,-1.8460717,-0.044754654,-0.097894885,-0.12961474,-0.4476912,-0.35897398,0.08496237,-3.073003,0.60570866,0.00025696037,-0.23290846,-0.03134874,-0.0019191571,0.03538658,-0.00887546,0.04523618,0.44351575,-1.294771,1.7910951,-2.0601118,-1.5785679,2.4072871,-0.11335139,0.45655242,-0.6100962,0.17563826,-0.029961959,-0.15816465,1.1875241,-0.076614454,-10.0748005,0.9097417,47.699425,-0.589388,-2.9747863,-3.20573,0.008281124,-0.06901201,-0.100677,28.3125,29.375,28.5,32.625,35.25,36.375
0.5300522,1.6210792,-1.4558847,-2.4316428,-0.08898852,-0.06660991,-0.123064324,-0.44899622,-0.3591282,0.08490527,-3.0727901,0.6053081,-0.0001240564,-0.22233093,-0.028313657,-0.0073428224,0.043372173,-0.035631686,0.02639422,0.4428084,-1.2920759,1.7875565,-2.0589082,-1.5786628,2.4063582,-0.11192199,0.45462406,-0.60106814,0.19624329,-0.025598569,-0.13791718,1.1492169,0.28730422,-10.553641,0.97464454,47.701214,-0.5147861,-2.9577222,-3.551288,-0.3365333,-0.06414174,-0.31379429,28.3125,29.375,28.5,32.625,35.25,36.375
0.5350522,0.91130847,-1.6266985,-2.2932827,-0.07786567,-0.011909331,-0.13001488,-0.4503408,-0.35932446,0.08490936,-3.0726466,0.6051284,-0.00017653729,-0.2264462,-0.031558733,-0.0027167012,0.026785312,-0.010593738,0.01778078,0.44216043,-1.2894428,1.7839822,-2.0578406,-1.5787934,2.4056177,-0.11161697,0.44466415,-0.59405285,0.1694822,-0.021365931,-0.12903489,0.93852705,0.40222588,-10.572795,0.98135734,47.677036,-0.36056018,-3.0293536,-3.6045287,-0.1657715,-0.10283533,-0.47931334,28.3125,29.375,28.5,32.625,35.25,36.375
0.54005283,-0.65616167,-2.1613207,-1.6262203,-0.12673299,0.0062593427,-0.1266051,-0.45124188,-0.35948837,0.08490227,-3.0726383,0.6048674,-0.00016114126,-0.22702889,-0.033004913,-0.0006654075,0.021561187,-0.0020233565,0.032442372,0.441765,-1.2876589,1.7816023,-2.0572212,-1.578853,2.405061,-0.109925084,0.4399054,-0.5916333,0.16171831,-0.020410202,-0.1420157,0.49799395,0.30645782,-10.304644,1.0037369,47.71465,-0.3622154,-2.8501005,-3.552808,-0.047267497,-0.12567532,-0.39693886,28.3125,29.375,28.5,32.625,35.25,36.375
0.5450526,0.25989193,-0.20711665,-0.9689062,-0.058291364,-0.0052481447,-0.12856372,-0.45214754,-0.3596387,0.084921636,-3.0726686,0.6045168,-3.8825052e-05,-0.2244857,-0.03398145,0.0009445795,0.020769548,-0.0015032747,0.05131058,0.44135848,-1.2859473,1.7792586,-2.0566332,-1.5789369,2.404432,-0.10631374,0.43458995,-0.5897148,0.16416351,-0.019996008,-0.15728001,0.17238252,0.15322891,-10.093954,0.9612189,47.71823,-0.5500261,-2.7792912,-3.2981734,-0.025130901,-0.1470369,-0.16301438,28.3125,29.375,28.5,32.625,35.25,36.375
0.55005234,0.89485496,2.9118187,0.44964898,0.06828634,-0.038046915,-0.116061635,-0.4534824,-0.3598848,0.08493394,-3.0727696,0.60404307,1.22709225e-05,-0.21666779,-0.03185479,-0.00045133874,0.027543362,-0.018584147,0.04243103,0.44074756,-1.2833726,1.7757667,-2.055753,-1.5789603,2.403513,-0.103985034,0.4295633,-0.5853685,0.18325394,-0.018714545,-0.14608353,-0.17238252,-0.30645782,-9.174581,0.91421866,47.711063,-0.5798444,-2.904766,-3.3103786,-0.20401332,-0.20480478,-0.16403164,28.3125,29.375,28.5,32.625,35.25,36.375
0.5550528,0.39484078,3.221842,0.966683,0.08967654,-0.034621403,-0.12913716,-0.45436278,-0.36002418,0.084962785,-3.072719,0.6038066,4.746341e-05,-0.21764942,-0.0332876,0.0041542025,0.022904843,-0.006248709,0.0328598,0.44035238,-1.2816855,1.7733983,-2.0550368,-1.5790566,2.4029772,-0.10159764,0.42135015,-0.5846954,0.17773929,-0.01973347,-0.13411973,0.40222588,-0.63206923,-8.810662,0.97240865,47.651955,-0.6074834,-2.5315468,-3.0264218,-0.19057381,-0.2236951,-0.28642192,28.3125,29.375,28.5,32.625,35.25,36.375
0.56005216,-0.04170869,2.4477782,1.5344582,0.05568096,0.025735786,-0.12998793,-0.45569682,-0.3602348,0.08498934,-3.0726755,0.60358566,0.00015935657,-0.2188111,-0.03506273,0.0051403907,0.017539155,0.008662449,0.03311971,0.4397414,-1.2791474,1.7698964,-2.054085,-1.5791773,2.4022348,-0.098391876,0.41670534,-0.57796234,0.15987787,-0.021244237,-0.13116917,0.19153613,-0.93852705,-8.42759,0.7978386,47.686886,-0.7620806,-2.606657,-3.0458636,0.052927297,-0.25195503,-0.33673394,28.3125,29.375,28.5,32.625,35.25,36.375
0.56505257,1.6195109,3.272233,1.2347807,0.074577786,-0.0992492,-0.123582065,-0.45697936,-0.3604418,0.08499613,-3.0726357,0.6030664,0.00021958476,-0.21260363,-0.033822782,0.005006273,0.023815414,-0.0019042072,0.052543566,0.4391788,-1.276645,1.7664765,-2.0531218,-1.5793217,2.4013536,-0.0946146,0.4112514,-0.574734,0.17417984,-0.022490526,-0.14680853,0.24899697,-0.61291564,-8.255207,0.8985519,47.666286,-0.93574286,-2.5552628,-2.9194965,-0.009798102,-0.2735989,-0.14032266,28.3125,29.375,28.5,32.625,35.25,36.375
0.5700519,2.7971675,2.4243493,0.5753208,0.0776946,-0.12057284,-0.1277943,-0.45783448,-0.36051148,0.08496113,-3.0724213,0.60282695,0.00016504544,-0.20461488,-0.029438576,0.00085588277,0.033702508,-0.019406697,0.0557671,0.43874693,-1.2749327,1.7642068,-2.052388,-1.5795144,2.4008005,-0.09450912,0.40721247,-0.56367296,0.18714482,-0.024000734,-0.1499141,0.49799395,-0.36391866,-8.580819,0.8672237,47.729877,-0.88996065,-2.4776468,-3.209502,-0.17981647,-0.26414248,-0.01194063,28.3125,29.375,28.5,32.625,35.25,36.375
0.5750525,1.0203626,0.0619796,0.6333518,-0.015653798,-0.056874685,-0.11743403,-0.45860583,-0.3606142,0.08492109,-3.07223,0.6024117,-0.00013793347,-0.20690577,-0.030268785,0.0014322174,0.029434655,-0.01203957,0.0419353,0.43838677,-1.2732551,1.761957,-2.0515053,-1.5796217,2.400206,-0.095057726,0.40714875,-0.56363195,0.17877465,-0.023255603,-0.13663156,0.5554548,-0.095768064,-8.887277,0.9388393,47.691364,-0.788008,-2.8514953,-3.0747447,-0.22504956,-0.27460042,-0.07727015,28.3125,29.375,28.5,32.625,35.25,36.375
0.58005244,-0.31683686,-1.9720932,-0.24048735,-0.1206688,0.019486325,-0.120527364,-0.45984605,-0.36077547,0.08492308,-3.0720654,0.60221326,-0.00027285487,-0.20506749,-0.031104822,-0.0005916655,0.024717938,-0.0051560625,0.02335581,0.43777576,-1.2708112,1.7585758,-2.0503857,-1.5797414,2.3994935,-0.09270908,0.40309098,-0.55107987,0.16219674,-0.021813413,-0.11571704,0.61291564,0.22984336,-9.576807,0.9545008,47.677036,-0.7954102,-2.9700193,-3.2760236,-0.07784927,-0.30605382,-0.3009297,28.3125,29.375,28.5,32.625,35.25,36.375
0.58505285,0.9471128,-0.71803296,-0.86214226,-0.06714279,-0.04632406,-0.112959504,-0.4606406,-0.36089554,0.08489217,-3.0719705,0.6020614,-0.0003278627,-0.20480582,-0.031326383,0.0016009744,0.021444164,0.0011210947,0.01808767,0.437416,-1.2691957,1.7564367,-2.0497649,-1.5798253,2.3990517,-0.0920869,0.39680746,-0.5475772,0.15793927,-0.021486288,-0.10983065,0.7278373,0.15322891,-9.883265,0.9410752,47.703903,-0.706498,-2.8522005,-3.3530622,-0.05043736,-0.304587,-0.40593743,28.3125,29.375,28.5,32.625,35.25,36.375
0.59005183,2.2615187,1.6029795,-1.561078,0.040450502,-0.11355035,-0.10997627,-0.46184808,-0.36107633,0.08487404,-3.0718727,0.60184187,-0.00039536797,-0.19571926,-0.026362697,-0.0064845113,0.03338111,-0.026729899,0.028044969,0.43685153,-1.2667986,1.7531866,-2.0488007,-1.5799206,2.3983636,-0.093304776,0.39952087,-0.5375058,0.17531516,-0.020548528,-0.12101298,0.8810662,-0.038307227,-10.093954,0.92764956,47.677036,-0.64794725,-3.4331903,-3.428625,-0.2050378,-0.3472671,-0.37963387,28.3125,29.375,28.5,32.625,35.25,36.375
0.5950523,0.44301715,0.1552811,-1.1603181,-0.053465832,-0.008891884,-0.112107605,-0.4630201,-0.36126223,0.08488573,-3.071781,0.60138917,-0.0005440979,-0.1975868,-0.028415859,-0.0011992517,0.024892244,-0.009784755,0.04767913,0.43632427,-1.264454,1.7498978,-2.047681,-1.580017,2.397566,-0.09126941,0.3895762,-0.5347719,0.16339855,-0.020204388,-0.13861819,0.842759,-0.5554548,-10.132261,0.8784135,47.66987,-0.506009,-3.199924,-3.228025,-0.22265077,-0.35859507,-0.15655054,28.3125,29.375,28.5,32.625,35.25,36.375
0.60005236,0.28061783,0.7614077,-1.5405045,-0.030655041,0.011586993,-0.11835318,-0.463789,-0.36136836,0.08488966,-3.0717359,0.60109407,-0.0005544108,-0.19832237,-0.030271035,0.0012214634,0.018028736,0.0039505176,0.043755412,0.4359653,-1.2629578,1.7478207,-2.0470393,-1.5801009,2.397029,-0.088873684,0.3825852,-0.52850085,0.14880803,-0.019774674,-0.13230643,0.47884035,-0.4213795,-10.457873,0.947788,47.66091,-0.6236455,-3.0651722,-3.2822025,-0.061817266,-0.4017981,-0.12152317,28.3125,29.375,28.5,32.625,35.25,36.375
0.6050529,-0.077724755,0.96440816,-1.5049016,0.020731492,-0.007764463,-0.10604812,-0.4645832,-0.36149284,0.08492621,-3.0717452,0.6009113,-0.00040364993,-0.19608113,-0.029000597,-0.0013948776,0.020865088,0.0004094564,0.030507619,0.4356175,-1.2614965,1.7457308,-2.0464766,-1.5801848,2.3965662,-0.08848933,0.38258246,-0.52282506,0.14765501,-0.020738745,-0.118668705,0.24899697,-0.53630114,-10.228029,0.90527004,47.655537,-0.55562055,-3.2031493,-3.505177,-0.003255045,-0.41147244,-0.22438174,28.3125,29.375,28.5,32.625,35.25,36.375
0.6100518,0.49132183,1.7185105,-0.7965764,0.035459667,-0.0047053355,-0.11640229,-0.4657478,-0.36167887,0.08496548,-3.0717416,0.6005101,-0.00027769868,-0.18829975,-0.024748845,-0.0021194972,0.031363573,-0.0153708095,0.024815973,0.43511382,-1.2592938,1.7426003,-2.045572,-1.5803064,2.3958127,-0.08768092,0.3748298,-0.5162496,0.16761537,-0.023500824,-0.11214612,-0.019153614,-0.4213795,-9.921572,0.93436235,47.695843,-0.53419065,-3.1828046,-3.4422274,-0.20169267,-0.4169225,-0.29824138,28.3125,29.375,28.5,32.625,35.1875,36.375
0.61505234,0.15090135,1.8638622,-0.13969158,0.01576655,0.0045790793,-0.12636517,-0.4664892,-0.36179227,0.08499286,-3.071657,0.60033864,-0.00031651306,-0.18761095,-0.023966927,0.0013657248,0.031580053,-0.009040939,0.023467835,0.43479013,-1.257847,1.7405084,-2.044842,-1.5803913,2.3953934,-0.08670934,0.36629626,-0.5135148,0.16778092,-0.026358832,-0.109802626,0.1340753,-0.51714754,-9.730036,0.93436235,47.67166,-0.5362508,-2.9282503,-3.3655753,-0.313903,-0.39747995,-0.3468237,28.3125,29.375,28.5,32.625,35.1875,36.375
0.6200523,-0.53340673,0.53287214,0.68111634,-0.022145338,0.04447055,-0.12852578,-0.46761778,-0.36193305,0.08499068,-3.0715263,0.6000896,-0.00023877826,-0.19130994,-0.027539797,0.0037659488,0.02218884,0.01247616,0.04138187,0.43427542,-1.2556673,1.7374982,-2.0439532,-1.5805715,2.3947406,-0.083127014,0.36251676,-0.5094322,0.14383925,-0.02706134,-0.12413477,0.2681506,-0.45968673,-9.289503,0.8717007,47.716442,-0.69165504,-2.9671984,-3.1066153,-0.07989255,-0.36618313,-0.19359764,28.3125,29.375,28.5,32.625,35.1875,36.375
0.62505305,1.5096985,1.8448069,0.78576046,0.028643837,-0.051371958,-0.12539001,-0.46882543,-0.36209357,0.08506832,-3.0715625,0.5996138,0.00022523158,-0.18953384,-0.027967997,0.0055329264,0.021405842,0.020227525,0.049118873,0.43376097,-1.2535491,1.7344145,-2.0432007,-1.5808004,2.3939242,-0.07950985,0.35471243,-0.50244284,0.13721988,-0.029610148,-0.1282442,0.30645782,-0.095768064,-8.963891,0.9321212,47.71554,-0.7160455,-2.6904674,-3.0033069,0.09433715,-0.30966908,-0.012042556,28.3125,29.375,28.5,32.625,35.1875,36.375
0.6300525,1.9098151,1.4521977,1.0435756,0.0052407375,-0.08882614,-0.12257468,-0.46953398,-0.36219245,0.08506857,-3.0715113,0.5993813,0.00026226943,-0.18450789,-0.023220876,0.0026088194,0.0292047,0.0061244587,0.034201488,0.43344772,-1.2521719,1.7325028,-2.0426333,-1.5808967,2.3934727,-0.08255914,0.35178596,-0.49504414,0.1489233,-0.030638339,-0.11636617,0.30645782,0.076614454,-8.734048,0.97240865,47.716442,-0.49943173,-2.7737684,-3.2409458,0.021010023,-0.26184288,-0.05979988,28.3125,29.375,28.5,32.625,35.1875,36.375
0.6350523,1.6959482,0.5918595,1.4193138,0.0071879337,-0.084665544,-0.12057461,-0.47026193,-0.3622709,0.08504904,-3.07136,0.5992012,0.00017009194,-0.17977853,-0.023064515,0.0052822665,0.03259549,-0.0017696314,0.024644898,0.43310085,-1.2507007,1.7304829,-2.0419333,-1.581016,2.3930333,-0.079334654,0.345148,-0.49653897,0.16574807,-0.030294769,-0.10358178,0.4213795,0.05746084,-8.542512,0.91198283,47.71017,-0.6267584,-2.5326846,-2.8996987,-0.17769837,-0.21131918,-0.17893311,28.3125,29.375,28.5,32.625,35.1875,36.375
0.64005184,0.9568578,-0.13674346,1.3427582,-0.021231635,-0.049099933,-0.111242086,-0.4713251,-0.36238426,0.08505503,-3.07114,0.5990644,0.00010344524,-0.17800927,-0.022395026,0.0017416622,0.029895501,-0.0026991684,0.014141531,0.43259653,-1.248616,1.7275323,-2.0408957,-1.5811952,2.3924727,-0.080302656,0.34472656,-0.48650232,0.1558987,-0.02741105,-0.09407076,0.842759,-0.076614454,-8.6574335,0.87617236,47.67793,-0.5155867,-2.7650366,-3.1109333,-0.1970011,-0.19255,-0.321855,28.3125,29.375,28.5,32.625,35.1875,36.375
0.6450523,1.356909,-0.0037500972,1.310277,-0.051912162,-0.03871594,-0.12879933,-0.47203845,-0.36247757,0.08504722,-3.071037,0.5989254,0.00019710066,-0.18012896,-0.026314313,0.003417853,0.022004563,0.012612701,0.016086847,0.43229827,-1.2472261,1.725622,-2.040352,-1.5813392,2.3921013,-0.07591282,0.34260574,-0.48407602,0.13838547,-0.026686588,-0.09163683,0.91937345,-0.21068975,-8.772355,0.900793,47.698532,-0.6680292,-2.9634516,-2.9117818,-0.013038205,-0.13975653,-0.41403112,28.3125,29.375,28.5,32.625,35.1875,36.375
0.65005213,2.6275594,1.6189538,0.30527246,0.03065873,-0.12041497,-0.12516905,-0.47307712,-0.3626405,0.0850095,-3.070947,0.598648,0.00021864827,-0.1742375,-0.025587386,0.0012112703,0.021562107,0.007126428,0.030546902,0.43186697,-1.2451314,1.722804,-2.039562,-1.5814704,2.3915088,-0.073878355,0.33611295,-0.47081274,0.13624932,-0.02406109,-0.10408971,0.842759,0.0,-9.021352,0.90750587,47.711964,-0.7255316,-2.996396,-2.9711704,0.093491524,-0.12084669,-0.36685985,28.3125,29.375,28.5,32.625,35.1875,36.375
0.65505564,1.7562594,1.2684278,-0.00027265714,0.012217111,-0.103660986,-0.122663565,-0.47375324,-0.36271128,0.08496803,-3.070817,0.5984613,7.37131e-05,-0.1668813,-0.022239055,-0.0018939623,0.030505976,-0.011609921,0.041352443,0.43153128,-1.2437304,1.720929,-2.038921,-1.5815543,2.3910737,-0.07344049,0.33346575,-0.4644924,0.15321144,-0.024390083,-0.11445038,0.8236054,-0.21068975,-9.289502,0.8717007,47.66539,-0.6767,-3.0206904,-3.2818897,-0.08762176,-0.09343958,-0.23058271,28.3125,29.375,28.5,32.625,35.1875,36.375
0.66005474,1.5696023,1.085168,-0.36143243,-0.0055604586,-0.033659916,-0.13332537,-0.47467205,-0.36284482,0.084881194,-3.0706315,0.59790367,-0.00038733633,-0.16231613,-0.022579955,-0.004350646,0.029615339,-0.021544764,0.043071643,0.43111178,-1.2416577,1.7181805,-2.0378435,-1.5816244,2.3903303,-0.07192697,0.33267748,-0.45953923,0.15766199,-0.019465221,-0.114694566,0.7469909,-0.40222588,-9.634268,0.85826975,47.70838,-0.63447857,-3.6307468,-3.043925,-0.3118126,-0.10004139,-0.07356871,28.3125,29.375,28.5,32.625,35.1875,36.375
0.66505265,0.8347621,1.0714151,-0.57142633,-0.027521912,-0.009007992,-0.13174994,-0.4753107,-0.36294362,0.084873654,-3.0705483,0.59766316,-0.00045585417,-0.1635807,-0.024259567,-0.003806526,0.022523278,-0.009569083,0.031470362,0.43084803,-1.2403525,1.7163533,-2.0372145,-1.5817078,2.3899274,-0.07084741,0.32906917,-0.45271385,0.14071795,-0.01796683,-0.10203055,0.47884032,-0.47884035,-9.921572,0.95897776,47.688675,-0.72131944,-3.553488,-3.2168794,-0.19825217,-0.117919445,-0.14955035,28.3125,29.375,28.5,32.625,35.1875,36.375
0.6700523,0.14427881,0.14772463,-1.214567,-0.027543856,-0.006025692,-0.11787954,-0.47626626,-0.36311123,0.08484255,-3.0704799,0.5973841,-0.0005137125,-0.16388261,-0.02480427,-0.00019650246,0.015040059,0.004747617,0.022974705,0.43046427,-1.2383915,1.7136792,-2.0364058,-1.5817918,2.3893785,-0.070444964,0.31785715,-0.44362995,0.12679106,-0.017097956,-0.09314533,0.26815057,-0.38307226,-10.189722,0.8403672,47.741516,-0.62525576,-3.3299708,-3.332281,-0.030427568,-0.12887454,-0.26765922,28.3125,29.375,28.5,32.625,35.1875,36.375
0.67505264,-0.04134765,1.0562369,-1.3093399,0.0027818799,-0.01628325,-0.13193206,-0.47723627,-0.3632424,0.084825,-3.0704167,0.59721893,-0.00048101763,-0.15871137,-0.023571497,-0.002338733,0.018773632,-0.003257093,0.018759046,0.43002117,-1.2364992,1.7110757,-2.035662,-1.5818881,2.388841,-0.06843684,0.31446314,-0.4358621,0.13130191,-0.017079292,-0.08692236,0.019153614,-0.24899697,-10.342952,0.9186956,47.695843,-0.6268562,-3.4216614,-3.4274,-0.014678935,-0.12919918,-0.34981674,28.3125,29.375,28.5,32.625,35.1875,36.375
0.6800517,-0.020065183,1.4949856,-1.1311842,0.014412977,-0.015696652,-0.12673347,-0.47787666,-0.36333627,0.084835015,-3.070371,0.5970352,-0.0004135942,-0.15341581,-0.021245562,-0.0040675555,0.023655964,-0.016685562,0.020942355,0.42975694,-1.2352659,1.709319,-2.0351303,-1.5819834,2.388468,-0.068715915,0.3115814,-0.43125114,0.14377056,-0.015906196,-0.08939542,0.11492168,-0.4213795,-10.228029,0.9164598,47.72719,-0.53222555,-3.4967008,-3.355163,-0.1740216,-0.106892854,-0.33022887,28.3125,29.375,28.5,32.625,35.1875,36.375
0.6850524,0.28402582,1.3658754,-0.5771383,0.010834737,-0.025703311,-0.12799482,-0.4784826,-0.36342254,0.084815696,-3.0703104,0.59688145,-0.000491803,-0.14913215,-0.02053575,-0.002865424,0.025436927,-0.020152189,0.03020451,0.42948195,-1.2340338,1.7076238,-2.034578,-1.5820316,2.3881052,-0.066507064,0.3040793,-0.4256483,0.14947817,-0.016129011,-0.096447155,0.30645782,-0.47884035,-10.01734,0.83813137,47.696735,-0.6608199,-3.4929428,-3.4426515,-0.30939582,-0.14097561,-0.25901714,28.3125,29.375,28.5,32.625,35.1875,36.375
0.6900524,1.2860819,2.144437,-0.062375348,0.02862824,-0.054126028,-0.13421142,-0.4794571,-0.3635765,0.08486617,-3.0703268,0.59651506,-0.00024472259,-0.15420257,-0.023660611,0.004977832,0.01288201,0.0072270194,0.040761374,0.4290984,-1.2322404,1.7049936,-2.0338433,-1.5821756,2.3874905,-0.06503382,0.29255536,-0.42408964,0.12920244,-0.016224524,-0.10553991,0.59376204,-0.68953013,-9.461885,0.84484416,47.67793,-0.6631948,-3.0579362,-3.0354128,-0.15253347,-0.13371421,-0.05408883,28.3125,29.375,28.5,32.625,35.1875,36.375
0.69505286,1.1950947,1.5268815,-0.25618434,0.015993342,-0.035721373,-0.1344882,-0.4800558,-0.36367354,0.08488431,-3.0703611,0.5962767,-0.00022051099,-0.15413886,-0.023281008,0.004150763,0.0111012915,0.011165247,0.036143623,0.4288342,-1.2311022,1.7033461,-2.0333436,-1.5821995,2.387073,-0.06545081,0.2906517,-0.41820344,0.12093865,-0.016213724,-0.10134234,0.4405331,-0.38307226,-9.500193,0.82694155,47.694946,-0.53616273,-3.1227438,-3.044474,-0.005746126,-0.13388601,-0.030434158,28.3125,29.375,28.5,32.625,35.1875,36.375
0.7000521,0.42872882,0.34594354,-0.31148702,-0.011498648,-0.04578255,-0.13123778,-0.48096198,-0.363767,0.08493346,-3.0702906,0.59607905,-5.5145632e-05,-0.14967392,-0.02034779,0.0019485387,0.014551566,0.0030690636,0.020265007,0.42841384,-1.2294624,1.70091,-2.0325758,-1.5823554,2.3865385,-0.0668039,0.28630057,-0.40876463,0.124790646,-0.015834788,-0.08682131,0.38307226,-0.05746084,-9.519346,0.9455522,47.682407,-0.35325813,-3.1905122,-3.2961287,-0.019895282,-0.15621588,-0.13197882,28.3125,29.375,28.5,32.625,35.1875,36.375
0.70505244,1.0724576,-0.10757252,-0.31892127,-0.028260045,-0.053279504,-0.12877458,-0.48181048,-0.36388087,0.084927954,-3.0702047,0.59577817,-0.00015877477,-0.14218047,-0.017788727,0.0014509332,0.021111023,-0.011801271,0.010913627,0.42803037,-1.2277616,1.6984962,-2.0317318,-1.5824393,2.3859785,-0.06543171,0.27928734,-0.40252864,0.14192826,-0.01549871,-0.076096825,0.17238252,0.24899697,-9.423578,0.8493211,47.686886,-0.39902085,-3.0888433,-3.1219125,-0.22265063,-0.14248836,-0.2385054,28.3125,29.375,28.5,32.625,35.1875,36.375
0.71005255,1.1106834,-0.53343594,0.34653506,-0.05535143,-0.022093888,-0.12963338,-0.48242345,-0.36398405,0.08500687,-3.0702238,0.59570396,3.1328924e-05,-0.13829081,-0.018607654,0.0024233863,0.020857409,-0.011842421,0.011012064,0.42779177,-1.2266982,1.696802,-2.0312054,-1.5825108,2.3856912,-0.061451856,0.27262163,-0.39621013,0.14224249,-0.015200973,-0.07222157,0.40222588,0.0,-9.232041,0.81351066,47.729877,-0.5193159,-2.809771,-3.2127771,-0.32582533,-0.12368778,-0.31044373,28.3125,29.375,28.5,32.625,35.1875,36.375
0.71505207,0.59594405,0.52900225,0.47286654,-0.017573537,-0.04691124,-0.13035423,-0.48301166,-0.36405537,0.08503619,-3.0701747,0.5957531,9.4407e-05,-0.14032565,-0.020166444,0.002139053,0.015363731,-0.0019036576,0.008220386,0.42751607,-1.2256187,1.6952003,-2.0306962,-1.5825704,2.385453,-0.060813908,0.27244252,-0.39231715,0.12723479,-0.014326425,-0.06880467,0.63206923,-0.19153613,-9.270349,0.8627467,47.670765,-0.4905988,-3.0124545,-3.1104407,-0.22360234,-0.14739403,-0.37572396,28.3125,29.375,28.5,32.625,35.1875,36.375
0.72005236,1.3338667,0.98765343,0.700668,0.035845984,-0.07544338,-0.12296939,-0.48385456,-0.36422002,0.08505466,-3.070206,0.595544,0.00021785103,-0.14313598,-0.023341523,0.0062177884,0.00587281,0.016827062,0.014708779,0.427205,-1.2239919,1.6928695,-2.0300553,-1.5826305,2.3850074,-0.058166713,0.26588795,-0.38934344,0.109780096,-0.013513998,-0.072661266,0.45968673,-0.3256114,-8.868123,0.92093146,47.733456,-0.5066568,-2.9983869,-2.772811,0.006783152,-0.17428759,-0.41425377,28.3125,29.375,28.5,32.625,35.1875,36.375
0.7250529,1.3495529,1.0480535,0.26391014,0.03701916,-0.07466345,-0.13070957,-0.48444167,-0.3643176,0.08511496,-3.0702527,0.5954917,0.00041464754,-0.13800572,-0.022185886,0.0024979569,0.010191428,0.009377629,0.022227366,0.42696586,-1.2229743,1.691295,-2.0296247,-1.5826787,2.3847296,-0.055793457,0.26420507,-0.3789639,0.109589495,-0.014366018,-0.07780226,0.59376204,-0.22984336,-9.174581,0.8560339,47.707485,-0.59321487,-3.0132165,-3.0127313,0.06464792,-0.18965262,-0.39602223,28.3125,29.375,28.5,32.625,35.1875,36.375
0.7300527,1.0116808,0.4642063,0.15995196,-0.009680152,-0.03160418,-0.13371162,-0.48520634,-0.36441395,0.085069306,-3.0701454,0.5951349,0.00030661543,-0.13177803,-0.020380164,0.0014250166,0.015138751,-0.0021866518,0.036616784,0.42663047,-1.2213813,1.6891316,-2.0289023,-1.5827864,2.3841853,-0.054155245,0.25886476,-0.37223876,0.12061631,-0.014156879,-0.09055434,0.6512229,-0.21068975,-9.174581,0.8851263,47.73256,-0.5985791,-3.335155,-2.985983,0.005360061,-0.19159153,-0.19820264,28.3125,29.375,28.5,32.625,35.1875,36.375
0.7350521,1.6054958,1.2296045,0.09752143,0.03479267,-0.090238474,-0.12080408,-0.48600042,-0.3645272,0.0850939,-3.0701199,0.5947444,0.00032811376,-0.12352995,-0.017956223,-6.450468e-05,0.021408938,-0.01711158,0.039214917,0.42629522,-1.2198503,1.6868833,-2.0281436,-1.5828823,2.3836093,-0.052206293,0.2516311,-0.36263925,0.13441011,-0.013651475,-0.0912072,0.49799395,-0.17238252,-9.155427,0.8314132,47.694946,-0.70522463,-3.0681362,-2.9724336,-0.21491408,-0.20596251,-0.061493956,28.3125,29.4375,28.5,32.625,35.25,36.375
0.740052,0.93957776,1.1841012,0.19316377,0.027642814,-0.08709555,-0.11034394,-0.4865043,-0.36462852,0.08510459,-3.0700932,0.5945521,0.00027649145,-0.12130052,-0.017838323,-0.0014138682,0.021702645,-0.018057922,0.0320581,0.42611563,-1.2188202,1.6853765,-2.0276062,-1.5829185,2.3833132,-0.050843995,0.24965566,-0.35655472,0.13137938,-0.013461307,-0.082690194,0.45968673,-0.24899697,-9.155427,0.9254084,47.690468,-0.70342124,-3.2199302,-2.9915786,-0.27095994,-0.19820371,-0.09280035,28.3125,29.4375,28.5,32.625,35.25,36.375
0.745052,0.21891665,0.33717147,0.25847682,-0.02973543,-0.013285966,-0.1249937,-0.4869685,-0.3647,0.0850695,-3.07003,0.59438914,0.00012570091,-0.12222056,-0.019259788,-0.0021473516,0.017395006,-0.009800471,0.024256552,0.42591217,-1.2178138,1.6840137,-2.0271204,-1.5829424,2.3830163,-0.049511112,0.24895367,-0.35118398,0.117513515,-0.012911132,-0.073562905,0.57460845,-0.4405331,-9.32781,0.86945957,47.705692,-0.71921885,-3.4771998,-2.9724228,-0.18671305,-0.22029725,-0.14108728,28.3125,29.4375,28.5,32.625,35.25,36.375
0.75005215,0.5546,1.0896798,0.17669022,-0.00047806615,-0.03481359,-0.12461462,-0.48771083,-0.36480382,0.0850511,-3.0699592,0.59418464,0.00012997621,-0.12232794,-0.019937495,-0.0012891665,0.0130640315,0.001003173,0.020113925,0.4256007,-1.2163297,1.6819447,-2.026479,-1.5830387,2.3825865,-0.048179504,0.24309623,-0.34248918,0.10310522,-0.013405464,-0.06808827,0.3256114,-0.21068975,-9.289502,0.85155696,47.739727,-0.7812549,-3.4335403,-3.1239948,-0.024750758,-0.22532688,-0.22351426,28.3125,29.4375,28.5,32.625,35.25,36.375
0.7550525,0.14757,-0.32169446,-0.3971315,-0.005660845,-0.051668063,-0.10970019,-0.48843083,-0.3649043,0.08503449,-3.0699165,0.5940253,8.3213155e-05,-0.119365335,-0.017236013,-0.0011315182,0.013838289,-0.001341265,0.013352264,0.42527604,-1.214894,1.6799353,-2.0258434,-1.5830864,2.382168,-0.050281458,0.23564973,-0.3334156,0.10398108,-0.01308728,-0.06343259,0.11492168,-0.21068975,-9.442732,0.86498255,47.68599,-0.59488463,-3.5192053,-3.1509469,0.037953675,-0.24589325,-0.2694919,28.3125,29.4375,28.5,32.625,35.25,36.375
0.76005256,0.8134611,0.3396505,-0.079937324,-0.017184813,-0.007517439,-0.13669461,-0.48889387,-0.36500615,0.08501845,-3.0698981,0.59394497,6.472073e-05,-0.11469395,-0.016901053,-0.0012341645,0.017369768,-0.008931784,0.013915639,0.42512098,-1.2139246,1.678595,-2.0254457,-1.5831102,2.3819654,-0.047454517,0.2317345,-0.3301184,0.11299477,-0.013128237,-0.061166994,0.28730422,-0.34476504,-9.557653,0.81351066,47.73614,-0.7028998,-3.3688176,-3.0018668,-0.0818598,-0.265816,-0.31284332,28.3125,29.4375,28.5,32.625,35.25,36.375
0.76505256,1.4331719,1.9131138,-0.14039445,0.035050165,-0.04011997,-0.13043474,-0.48933232,-0.3650405,0.08496425,-3.0697684,0.5938215,-8.369796e-05,-0.10978632,-0.013848457,-0.0045586955,0.0222889,-0.021576982,0.013687438,0.42490447,-1.212966,1.6773409,-2.0249884,-1.5831822,2.3816888,-0.049003016,0.22992504,-0.32204753,0.12025621,-0.012386212,-0.06249218,0.45968673,-0.45968673,-9.404425,0.80456203,47.711063,-0.5511325,-3.4560568,-3.2183948,-0.20270872,-0.27229875,-0.31566435,28.3125,29.4375,28.5,32.625,35.25,36.375
0.7700522,2.1913307,2.1207733,-0.13793057,0.05358334,-0.08221006,-0.13489814,-0.48999503,-0.36513796,0.08495481,-3.0696974,0.5935721,-0.00016162655,-0.1100026,-0.014376242,-0.0021929124,0.019176269,-0.01325348,0.019886164,0.42462897,-1.2116141,1.675414,-2.024309,-1.5832547,2.3812668,-0.047916096,0.2238824,-0.31802398,0.11334121,-0.013046133,-0.067600116,0.7278373,-0.59376204,-9.3661175,0.800085,47.74331,-0.48326316,-3.5973434,-2.9433851,-0.20909849,-0.2812633,-0.2699966,28.3125,29.4375,28.5,32.625,35.25,36.375
0.7750527,0.5687432,0.7935528,-0.23960079,0.0009956622,-0.051883515,-0.12699671,-0.49041656,-0.36516887,0.08492603,-3.069575,0.5935259,-0.00029464933,-0.110924006,-0.015876595,-0.0011258046,0.015179099,-0.004757522,0.023670223,0.42441344,-1.2107284,1.6741947,-2.023834,-1.5833143,2.3810387,-0.04624672,0.22130777,-0.3149961,0.10346691,-0.012951917,-0.069717824,0.6703765,-0.51714754,-9.481039,0.79560274,47.73525,-0.59740055,-3.797842,-2.8942385,-0.1684305,-0.28175646,-0.20969008,28.3125,29.4375,28.5,32.625,35.25,36.375
0.7800528,-0.26353392,-0.52922654,-0.5650045,-0.041777894,-0.01018551,-0.13054426,-0.4910366,-0.36524644,0.08489992,-3.069475,0.593138,-0.00036510927,-0.10761688,-0.015301597,-0.0012681488,0.013661446,-0.001732093,0.028909413,0.42416206,-1.2094368,1.6723908,-2.0231898,-1.5834345,2.3805578,-0.044792753,0.213185,-0.30234256,0.09549572,-0.012850884,-0.07350742,0.28730422,0.0,-9.768343,0.8940802,47.734352,-0.5337151,-3.6611004,-3.07346,-0.073372215,-0.28743193,-0.068457834,28.3125,29.4375,28.5,32.625,35.25,36.375
0.7850524,1.0759184,0.47075188,-0.85116917,-0.03588551,-0.03211981,-0.13603608,-0.49168482,-0.36532882,0.08489444,-3.069483,0.5929116,-0.0003286259,-0.10518547,-0.016012752,0.0008429456,0.010942037,0.0047179465,0.024888426,0.42386302,-1.2081935,1.6706322,-2.0226777,-1.5834826,2.3801162,-0.041877512,0.20404333,-0.29365924,0.08903615,-0.01296034,-0.06657329,0.30645782,-0.076614454,-9.730036,0.82022345,47.71823,-0.66162163,-3.4269636,-3.2593532,-0.0131582115,-0.2929272,-0.04274849,28.3125,29.4375,28.5,32.625,35.25,36.375
0.79005253,0.872003,0.5747284,-0.73491573,-0.014572473,-0.049872275,-0.13041553,-0.49207625,-0.36539242,0.084859334,-3.069429,0.59278834,-0.00041007978,-0.10427187,-0.015438266,0.002126376,0.010598349,0.005976494,0.018981548,0.4237071,-1.2073443,1.6694955,-2.0223057,-1.5835184,2.3798904,-0.041991405,0.1997639,-0.2910411,0.0894776,-0.013110381,-0.06077802,0.3256114,-0.095768064,-9.844957,0.84708,47.695843,-0.57627124,-3.3934073,-3.2228394,0.0093058385,-0.31601924,-0.06942506,28.3125,29.4375,28.5,32.625,35.25,36.375
0.79505193,1.0518224,0.9579274,-0.8181928,0.0143338675,-0.050319944,-0.12006521,-0.49247018,-0.3654888,0.08485218,-3.0694242,0.59256035,-0.00036408132,-0.10139209,-0.014638439,0.0024684886,0.012031199,0.0014054929,0.013441989,0.42361137,-1.2065185,1.6683348,-2.021969,-1.583578,2.3796527,-0.041499987,0.19587998,-0.2879688,0.09511357,-0.012462147,-0.054752767,0.5363012,-0.11492168,-9.902418,0.83813137,47.67345,-0.63926756,-3.4196653,-2.9628253,-0.04099108,-0.2935279,-0.10671493,28.3125,29.4375,28.5,32.625,35.25,36.375
0.8000518,1.6685511,1.2346648,-0.4280644,9.542497e-06,-0.04959446,-0.12877731,-0.49309433,-0.36555877,0.08487324,-3.0693634,0.59251237,-0.00033370042,-0.09276266,-0.011071102,-0.0029601878,0.02196721,-0.019177996,0.008072206,0.4233235,-1.2053444,1.6665896,-2.0213778,-1.5836505,2.379343,-0.040644746,0.19434927,-0.2768738,0.108470745,-0.0129535645,-0.04851886,0.59376204,-0.40222588,-9.653421,0.8291774,47.72092,-0.49701336,-3.7979572,-3.0800776,-0.24018174,-0.3028105,-0.18133485,28.3125,29.4375,28.5,32.625,35.25,36.375
0.8050523,1.4621943,2.0488813,-0.1896984,0.012850063,-0.057734303,-0.12703083,-0.49349564,-0.36558703,0.08488883,-3.0692847,0.59249634,-0.00029301917,-0.091521,-0.011014737,-0.0032730657,0.021007473,-0.017473806,0.0074032317,0.4231319,-1.2046025,1.6654772,-2.0209844,-1.5837344,2.3791518,-0.039914463,0.19142915,-0.27141353,0.10399331,-0.012770195,-0.047123235,0.6895301,-0.5554548,-9.385271,0.8291774,47.687782,-0.53009707,-3.745678,-2.985598,-0.27150548,-0.3125409,-0.20312478,28.3125,29.4375,28.5,32.625,35.25,36.375
0.8100525,0.98426443,1.513807,-0.024303801,0.017076315,-0.037942372,-0.13283697,-0.4940333,-0.36570463,0.084906146,-3.0692663,0.59241474,-0.00031415903,-0.09494181,-0.013457026,0.0026226135,0.010477863,0.004241217,0.0069006025,0.42295232,-1.2035154,1.6638626,-2.020429,-1.5837582,2.378924,-0.038825616,0.18142585,-0.26742154,0.085895516,-0.012107466,-0.04554544,0.5363012,-0.5554548,-9.442732,0.75084364,47.716442,-0.45652452,-3.5580192,-2.9233966,-0.19276278,-0.333086,-0.27669257,28.3125,29.4375,28.5,32.625,35.25,36.375
0.8150528,-0.19562358,0.28748628,-0.28788814,-0.0076967794,-0.01905764,-0.11978053,-0.4945522,-0.3657663,0.084904656,-3.0691435,0.59225667,-0.00033506818,-0.09386806,-0.013928963,0.005145744,0.006518148,0.014060015,0.0042102775,0.42274892,-1.202464,1.6623338,-2.0198567,-1.5838779,2.3786378,-0.037116982,0.17200235,-0.25836673,0.07573546,-0.012492529,-0.041145626,0.076614454,-0.26815057,-9.576807,0.83813137,47.717335,-0.5263102,-3.3386714,-2.848501,-0.056865368,-0.30916306,-0.351121,28.3125,29.4375,28.5,32.625,35.25,36.375
0.82005185,0.029423097,0.5650966,-0.18432836,-0.031410575,0.0050427285,-0.12875031,-0.49494275,-0.36580876,0.084941834,-3.0691621,0.5923166,-0.00027814182,-0.09040861,-0.012962422,0.004449256,0.0075709196,0.0113630695,0.0056985416,0.4225453,-1.2017946,1.661281,-2.0195224,-1.5838779,2.3784695,-0.036236707,0.1670263,-0.25015122,0.07537671,-0.012330709,-0.04175729,0.076614454,-0.15322891,-9.672575,0.7978386,47.71465,-0.5534217,-3.2891588,-2.916239,-0.059661727,-0.33287632,-0.3849498,28.3125,29.4375,28.5,32.625,35.25,36.375
0.8250523,-0.11846223,0.17011651,-0.47134838,-0.009750725,-0.020649295,-0.11645137,-0.49529624,-0.3658539,0.084955975,-3.069125,0.5922912,-0.00014825864,-0.088448755,-0.012072512,0.003994701,0.008123981,0.01104796,0.0046207956,0.42241332,-1.2011484,1.6603264,-2.0192597,-1.5839623,2.3783264,-0.036027107,0.16330831,-0.24376793,0.07323854,-0.012682117,-0.040468123,0.19153614,-0.19153613,-9.653421,0.85155696,47.70032,-0.448727,-3.1726427,-3.0656674,-0.027655851,-0.29302773,-0.42218402,28.3125,29.4375,28.5,32.625,35.25,36.375
0.8300524,0.5746117,1.2188689,0.02797215,-0.00060932385,-0.05789194,-0.12640336,-0.49583435,-0.3659153,0.08497821,-3.069111,0.5921698,1.9516116e-05,-0.08526261,-0.010833091,0.0033708557,0.010407394,0.0071270675,0.010522996,0.42218563,-1.2001792,1.6588911,-2.0188634,-1.5840586,2.3780246,-0.03541164,0.15930982,-0.23762393,0.07553202,-0.013182931,-0.045751505,0.38307226,-0.3256114,-9.404425,0.8672237,47.695843,-0.41794088,-3.3300653,-3.0320923,-0.0051410673,-0.27263644,-0.41226655,28.3125,29.4375,28.5,32.625,35.25,36.375
0.83505285,1.783738,1.9551063,-0.1025206,0.033703256,-0.085956424,-0.12312588,-0.49617705,-0.36597547,0.0850125,-3.0691135,0.5920915,0.00011362615,-0.08119466,-0.009841922,0.002443,0.013213846,0.00030413235,0.014764529,0.42206588,-1.1995572,1.6579121,-2.0185502,-1.5841063,2.3778555,-0.03421118,0.1558352,-0.2321104,0.0808228,-0.012948269,-0.04879533,0.4213795,-0.34476504,-9.308657,0.7777002,47.731667,-0.40523446,-3.3061965,-2.9149342,-0.07219814,-0.27255753,-0.3879086,28.3125,29.4375,28.5,32.625,35.25,36.375
0.8400518,1.3320197,1.147218,0.046624962,0.012153395,-0.0800836,-0.12156555,-0.4966462,-0.36603716,0.08504197,-3.0690575,0.59188443,8.8519664e-05,-0.07641508,-0.008064933,-0.000619928,0.017695315,-0.010284314,0.020435402,0.42187423,-1.1986465,1.6565017,-2.017986,-1.5841783,2.3775418,-0.03369701,0.15453933,-0.22482887,0.08625807,-0.012722908,-0.053953312,0.7278373,-0.4213795,-9.346964,0.80679786,47.72002,-0.37508464,-3.5741937,-2.8357902,-0.22042623,-0.24685833,-0.2689485,28.3125,29.4375,28.5,32.625,35.25,36.375
0.8450523,1.257457,0.66257656,0.010817145,0.00587744,-0.05286388,-0.11703166,-0.49707913,-0.36609015,0.08505987,-3.0690312,0.5916101,3.283231e-05,-0.07447731,-0.008156658,9.385955e-05,0.013844478,-0.007881756,0.02173382,0.42168215,-1.197798,1.6552109,-2.0174735,-1.5842255,2.3771815,-0.03343846,0.14819469,-0.21683784,0.08081518,-0.010204655,-0.055022392,0.68953013,-0.3256114,-9.270349,0.82022345,47.696735,-0.25738686,-3.4947178,-2.786809,-0.28101242,-0.23610058,-0.19053672,28.3125,29.4375,28.5,32.625,35.25,36.375
0.8500519,0.8114856,0.25562137,0.059871394,-0.021388218,-0.042094775,-0.12521288,-0.4973765,-0.36613834,0.085072085,-3.069027,0.591436,7.255683e-05,-0.07172069,-0.009722738,2.0101023e-05,0.0115635395,-0.0042752153,0.023563495,0.42157573,-1.1972244,1.6543511,-2.0171888,-1.5842732,2.3769667,-0.029477015,0.14316402,-0.20831898,0.07312497,-0.009580395,-0.052900326,0.45968673,-0.15322891,-9.270349,0.79560274,47.70211,-0.43564373,-3.4252906,-2.984686,-0.23583278,-0.24928987,-0.13811634,28.3125,29.4375,28.5,32.625,35.25,36.375
0.8550522,0.74468225,-0.082185045,-0.029253377,-0.038735107,-0.027724745,-0.12680782,-0.49767196,-0.36616835,0.08508623,-3.069037,0.59140223,7.26786e-05,-0.07223077,-0.00981441,0.0019671717,0.0071939053,0.0048052375,0.018296855,0.42141968,-1.1966873,1.6535386,-2.0169175,-1.5842732,2.3767884,-0.029804688,0.13677004,-0.201964,0.063153185,-0.009273052,-0.047968157,0.38307226,0.038307227,-9.3661175,0.81351066,47.689575,-0.39146164,-3.2923474,-3.0356076,-0.16471916,-0.2044835,-0.13516836,28.3125,29.4375,28.5,32.625,35.25,36.375
0.86005247,0.7813867,0.1427526,-0.049685407,-0.016632104,-0.038012214,-0.11329443,-0.49810427,-0.366233,0.085101895,-3.06903,0.5911942,0.0001865968,-0.07052142,-0.010259445,0.001959547,0.0044024587,0.009080916,0.012327294,0.42126414,-1.195874,1.6523327,-2.0165608,-1.5843567,2.3765035,-0.028361382,0.13162735,-0.19328704,0.054665376,-0.008405236,-0.04056753,0.3256114,-0.095768064,-9.404425,0.74413085,47.71465,-0.37653252,-3.4077582,-2.9893413,-0.071118765,-0.1940414,-0.119535536,28.3125,29.4375,28.4375,32.625,35.25,36.375
0.86505216,0.17275617,0.28346938,-0.43601954,0.0056385286,-0.06967466,-0.111160554,-0.49838808,-0.36627805,0.08510931,-3.0690227,0.5911551,0.00024599995,-0.06736839,-0.010667171,0.002167272,0.004686223,0.007364583,0.011051496,0.42115694,-1.1953363,1.6515435,-2.0163333,-1.5843929,2.3763728,-0.025822395,0.1273085,-0.18820219,0.05562837,-0.007912247,-0.03675827,0.4405331,-0.17238252,-9.385271,0.7396539,47.705692,-0.46193343,-3.2677066,-2.980305,-0.050877914,-0.22004572,-0.14707012,28.3125,29.4375,28.4375,32.625,35.25,36.375
0.8700522,1.0822961,0.9230247,-0.23931138,-0.0011479763,-0.03913727,-0.12467736,-0.49878424,-0.3663298,0.085125,-3.0690188,0.5910809,0.00032693497,-0.06483665,-0.0099399565,0.001621112,0.0048647528,0.0064619803,0.005665911,0.42098922,-1.1946065,1.6504563,-2.0160105,-1.5844406,2.3761592,-0.025299344,0.12303424,-0.18084817,0.053520344,-0.0076390267,-0.03085354,0.57460845,-0.34476504,-9.481039,0.82022345,47.703007,-0.45776552,-3.4749937,-2.9387672,-0.005280616,-0.20500587,-0.19961217,28.3125,29.4375,28.4375,32.625,35.25,36.375
0.8750527,1.3627301,1.2673792,-0.269257,0.018689103,-0.04710644,-0.11587983,-0.49901828,-0.36638027,0.08513122,-3.0690396,0.5910473,0.00035178068,-0.061916046,-0.010096714,-0.00073503674,0.005791758,0.0030534645,0.0048850835,0.42090604,-1.1941515,1.6497883,-2.0158198,-1.5844401,2.3760524,-0.023351433,0.12240229,-0.17427923,0.05110679,-0.007057749,-0.028131688,0.45968673,-0.57460845,-9.423578,0.7553206,47.694946,-0.46911877,-3.6031237,-2.858212,0.02740411,-0.18093246,-0.2399959,28.3125,29.4375,28.4375,32.625,35.25,36.375
0.88005185,0.8827018,0.3965009,-0.42251128,0.030019881,-0.056513846,-0.116548054,-0.49939895,-0.3664527,0.08512612,-3.0690367,0.5909111,0.00044298513,-0.057761997,-0.00922464,-0.0015650894,0.0076479497,-0.0020100642,0.006538902,0.42078638,-1.1933981,1.6487249,-2.0155432,-1.5845002,2.3758478,-0.022016048,0.117732055,-0.16675715,0.05362677,-0.0066625895,-0.028454728,0.47884035,-0.4405331,-9.385271,0.87617236,47.72092,-0.53722537,-3.6724968,-2.9774394,0.03001983,-0.1802332,-0.24165449,28.3125,29.4375,28.4375,32.625,35.25,36.375
0.8850525,0.5733134,0.46714178,-0.15476945,0.00916943,-0.066380486,-0.11455029,-0.4996318,-0.36648637,0.08515476,-3.0690353,0.590853,0.000475081,-0.054112863,-0.00838468,-0.0014753751,0.009505718,-0.0053546065,0.0074759237,0.4206909,-1.1929806,1.648044,-2.015291,-1.584524,2.3757162,-0.020638749,0.11229078,-0.16024804,0.056376446,-0.006967373,-0.02801134,0.63206923,-0.2681506,-9.289502,0.8157518,47.695843,-0.54178226,-3.5860167,-2.865575,-0.0006435644,-0.17468955,-0.24875599,28.3125,29.4375,28.4375,32.625,35.25,36.375
0.8900517,0.77558315,0.96553797,-0.14501506,0.002232871,-0.05453591,-0.12066642,-0.49991694,-0.36654353,0.08513323,-3.0689583,0.5908174,0.00035067843,-0.04893355,-0.0067900075,-0.001838081,0.0116930995,-0.011081066,0.0077295857,0.42059532,-1.192324,1.6471261,-2.0149186,-1.5845479,2.3756087,-0.019695789,0.10481933,-0.1501869,0.05991385,-0.006592466,-0.027325384,0.38307226,-0.3256114,-9.346964,0.80456203,47.705692,-0.5615045,-3.4305935,-2.9332657,-0.10464068,-0.161248,-0.25765702,28.3125,29.4375,28.4375,32.625,35.25,36.375
0.8950523,0.85489476,1.0378705,0.11412765,0.008672465,-0.054790128,-0.12571861,-0.50020635,-0.36657846,0.085100174,-3.0689163,0.5906746,0.00025579828,-0.044177916,-0.0055793873,-0.0046246005,0.01424313,-0.018701153,0.007475004,0.42046356,-1.1916895,1.6462792,-2.0146196,-1.5845717,2.3753932,-0.01868125,0.10203769,-0.14053787,0.061056267,-0.005778177,-0.02606443,0.40222588,-0.2873042,-9.212888,0.78888994,47.685097,-0.5556426,-3.7343209,-3.1251597,-0.2037369,-0.17328516,-0.26640016,28.3125,29.4375,28.4375,32.625,35.25,36.375
0.9000519,0.9702761,1.2182524,0.09087295,0.020881345,-0.06672101,-0.11966943,-0.50037515,-0.36658683,0.085078776,-3.0688117,0.59063435,0.00017061183,-0.043029375,-0.00508638,-0.0038678665,0.013686222,-0.016714638,0.005856089,0.42039174,-1.1912957,1.6457418,-2.0143688,-1.5846323,2.37531,-0.018493876,0.09758187,-0.13572341,0.05868043,-0.0060629807,-0.02425567,0.61291564,-0.40222588,-9.155427,0.8112748,47.71465,-0.54392385,-3.6241875,-3.0138726,-0.26758564,-0.13832515,-0.29211646,28.3125,29.4375,28.4375,32.625,35.25,36.375
0.90505254,0.9971701,1.1811087,0.15009423,0.029626524,-0.065465614,-0.11710335,-0.50053704,-0.36662433,0.08505573,-3.0687807,0.590532,8.687834e-05,-0.04139519,-0.00538981,-0.0044523836,0.012509143,-0.015557955,0.0062150066,0.4203441,-1.190901,1.6452168,-2.014167,-1.5846437,2.3752024,-0.01722535,0.09482157,-0.12969857,0.05388896,-0.0054526455,-0.023354094,0.59376204,-0.36391866,-9.232041,0.76874626,47.686886,-0.47251165,-3.816599,-2.9433155,-0.28398144,-0.15594415,-0.29314083,28.3125,29.4375,28.4375,32.625,35.25,36.375
0.9100525,0.42437518,0.3035717,0.036453605,-0.030633051,-0.024387913,-0.121713206,-0.5007613,-0.366626,0.08503512,-3.0686405,0.5905028,-7.43699e-05,-0.040147763,-0.005634538,-0.0027130307,0.009437469,-0.009201883,0.005987641,0.42022458,-1.1903887,1.6444892,-2.0137866,-1.5847038,2.3750832,-0.016106147,0.087360136,-0.121952504,0.046563573,-0.0052349097,-0.022012323,0.36391866,-0.17238252,-9.32781,0.74413085,47.707485,-0.53470147,-3.6742444,-2.9422476,-0.29518414,-0.15347783,-0.33042789,28.3125,29.4375,28.4375,32.625,35.25,36.375
0.9150524,-0.49636933,-0.2827357,-0.055858165,-0.035925977,-0.021532651,-0.116590776,-0.50089645,-0.36665896,0.085007705,-3.0685828,0.59047127,-0.000184098,-0.040556427,-0.0057120738,-0.0016255178,0.006625944,-0.003473145,0.005589896,0.4201885,-1.1900302,1.6440228,-2.0135858,-1.5847157,2.375035,-0.016367653,0.083601885,-0.11788187,0.039874397,-0.0050131506,-0.02188074,0.36391866,-0.076614454,-9.481039,0.78888994,47.678825,-0.5160705,-3.6853945,-2.8725033,-0.27871516,-0.11575739,-0.3247371,28.3125,29.4375,28.4375,32.625,35.25,36.375
0.9200526,0.06764665,0.30958432,-0.5615255,-0.014814293,-0.028909996,-0.11414596,-0.50114393,-0.36667922,0.08498871,-3.068544,0.59042513,-0.00019906432,-0.039966624,-0.006720053,0.00022808711,0.0018691231,0.005124513,0.006122365,0.4200691,-1.1895293,1.6433429,-2.0133736,-1.584751,2.374892,-0.014851971,0.07658991,-0.110355176,0.029578336,-0.00417619,-0.0209109,0.19153613,-0.114921674,-9.557653,0.683705,47.711063,-0.47361863,-3.6623814,-2.8205643,-0.22593273,-0.1402758,-0.33704284,28.3125,29.4375,28.4375,32.625,35.25,36.375
0.9250523,0.826468,0.708692,-0.7119483,-0.011745459,-0.021278072,-0.12553677,-0.50133884,-0.3667272,0.08494127,-3.0685492,0.59025335,-0.0002657006,-0.037165474,-0.0062522385,-0.0002977486,0.0015345326,0.0055967174,0.0074138837,0.4200094,-1.1890516,1.6427721,-2.0132315,-1.584751,2.3747241,-0.01371362,0.07131662,-0.101109214,0.025035277,-0.0040557743,-0.021067422,0.34476504,-0.36391866,-9.749189,0.7665104,47.711063,-0.514078,-3.7564042,-2.8557208,-0.16078411,-0.13992156,-0.3140251,28.3125,29.4375,28.4375,32.625,35.25,36.375
0.9300522,0.18241742,0.87216926,-0.6750251,0.0153882755,-0.06418819,-0.111114636,-0.50150186,-0.36676842,0.08496294,-3.0686011,0.5903023,-0.00019910312,-0.034739677,-0.0056097545,-0.001149376,0.0020300997,0.0038407003,0.006800718,0.4199495,-1.1887771,1.642332,-2.0131361,-1.5847272,2.3746881,-0.013175424,0.0680748,-0.094518945,0.023507189,-0.0037683372,-0.019920303,0.45968673,-0.4405331,-9.634268,0.76874626,47.707485,-0.4728511,-3.8318894,-2.909321,-0.13430253,-0.11181083,-0.3119116,28.3125,29.4375,28.4375,32.625,35.25,36.375
0.93505234,0.79336613,1.2007712,-0.6140069,0.033537224,-0.06232457,-0.12109145,-0.50162405,-0.36679578,0.08494022,-3.0686233,0.59013456,-0.00019274485,-0.0320242,-0.0049990187,-0.0019362977,0.0029900493,0.0013242358,0.0078772325,0.41991395,-1.1885027,1.6419986,-2.013076,-1.5847391,2.3745446,-0.012334656,0.06477721,-0.08826715,0.023237994,-0.0036078,-0.020158414,0.61291564,-0.45968673,-9.576807,0.7463667,47.693153,-0.47774166,-3.8265362,-2.798026,-0.12601188,-0.13226669,-0.2799882,28.3125,29.4375,28.4375,32.625,35.25,36.375
0.9400521,0.25939104,0.6857812,-0.55424696,0.025498537,-0.0719357,-0.10456987,-0.50182444,-0.36681834,0.084964454,-3.0686233,0.59013504,-9.986825e-05,-0.02918599,-0.004501217,-0.00032196016,0.0019300095,0.0031188396,0.007901677,0.4198302,-1.18817,1.6414617,-2.0129216,-1.5847749,2.3744612,-0.011286334,0.056373935,-0.08012514,0.021440426,-0.0033465158,-0.019139275,0.45968673,-0.36391866,-9.5385,0.7866488,47.694946,-0.5155119,-3.7794013,-2.9126067,-0.072506934,-0.12083951,-0.28519076,28.3125,29.4375,28.4375,32.625,35.25,36.375
