Tylouw/Master_Thesis_Code/test_recorded_data/trial5/insertion_7_2026-01-23_15-22-24.csv
num_insertion,tcp_force_x[N],tcp_force_y[N],tcp_force_z[N],tcp_force_rx[Nm?],tcp_force_ry[Nm?],tcp_force_rz[Nm?],tcp_pose_x[m],tcp_pose_y[m],tcp_pose_z[m],tcp_pose_rx[rot_vec_x],tcp_pose_ry[rot_vec_y],tcp_pose_rz[rot_vec_z],tcp_velo_x[m/s],tcp_velo_y[m/s],tcp_velo_z[m/s],tcp_velo_rx[rot_vec_x/s],tcp_velo_ry[rot_vec_y/s],tcp_velo_rz[rot_vec_z/s],q1[rad],q2[rad],q3[rad],q4[rad],q5[rad],q6[rad],qd1[rad/s],qd2[rad/s],qd3[rad/s],qd4[rad/s],qd5[rad/s],qd6[rad/s],tool_acc_x,tool_acc_y,tool_acc_z,current_of_whole_robot[A],voltage_of_whole_robot[V],current_J1[A],current_J2[A],current_J3[A],current_J4[A],current_J5[A],current_J6[A],temp_J1[C],temp_J2[C],temp_J3[C],temp_J4[C],temp_J5[C],temp_J6[C]
1.0,0.951459595080513,0.6767222687970161,-0.6624204732100484,0.015338736538266177,-0.05273766849788223,-0.11600972610698028,-0.5387975016753483,-0.3241273508190782,0.25999537369725384,-3.078658157514724,0.6247033288172147,-1.2218957559019786e-06,0.0015751905958930116,-0.0007868730004683302,0.0012527689164723108,-0.0018670587720218648,0.005785429920506374,-0.00030778037539143507,0.3260226249694824,-1.1523585778525849,1.6630843321429651,-2.0799485645689906,-1.571369473134176,2.300957202911377,0.002052146941423416,-0.003979675937443972,0.00409504771232605,-0.006193303037434816,-8.97078134585172e-05,0.0023573569487780333,0.5937620401382446,-0.4596867263317108,-9.155426979064941,0.7127973437309265,47.723602294921875,-0.2629204988479614,-4.353957653045654,-2.5910885334014893,-0.4231911897659302,-0.002186721423640847,0.009668043814599514,28.0625,30.0,28.5,32.3125,34.8125,36.0
1.0,0.9996409716840297,0.9315666686622152,-0.8006184538050692,0.03288394013817834,-0.0674492642614992,-0.10974576174887796,-0.5387753977820645,-0.3241418666198387,0.25996967246716174,-3.078620027847338,0.6246567437140528,-8.959322076121547e-05,0.0007064454547492967,-0.000866009624083127,0.0015428707738681605,-0.0019466346269822702,0.006005624932996795,-0.0002014874488891179,0.3260585069656372,-1.152346060877182,1.6631196180926722,-2.079924245873922,-1.5713813940631312,2.300968885421753,0.0017184886382892728,-0.002679782919585705,0.0013600101228803396,-0.004992296919226646,-8.824170799925923e-05,0.0019178246147930622,0.40222588181495667,-0.26815056800842285,-9.136273384094238,0.7418897151947021,47.704795837402344,-0.25477010011672974,-4.40785026550293,-2.4102132320404053,-0.41210275888442993,-0.004778051283210516,0.013265065848827362,28.0625,30.0,28.5,32.3125,34.8125,36.0
1.0,1.0814649150453899,0.948767668643146,-1.0131878704067596,0.00840354111080649,-0.03896431688366054,-0.11862619590409038,-0.5387787482860312,-0.3241739433553464,0.26000881251968266,-3.0786798297969793,0.6245730406547381,2.3376701886655487e-05,-8.336577317344249e-05,-0.0008670332069813374,0.0020623392628753017,-0.002033648116186267,0.006250225081941021,-0.00012645079548171084,0.32610616087913513,-1.1523578029922028,1.6630471388446253,-2.079923292199606,-1.5713813940631312,2.3009567260742188,0.001305631478317082,-0.001874150475487113,-0.001294192741625011,-0.0034034017007797956,-8.682296174811199e-05,0.0014304217183962464,0.05746084079146385,0.05746084079146385,-9.155426979064941,0.7732232213020325,47.7164421081543,-0.2588560879230499,-4.397771835327148,-2.263465642929077,-0.4181314706802368,-0.013849963434040546,-0.012533431872725487,28.0625,30.0,28.5,32.3125,34.8125,36.0
1.0,-2.1874108715836416,-2.647987428925488,-0.9378602969036894,-0.11213895248057237,0.08051823923230432,-0.10884251725362502,-0.5387873014936864,-0.3241367778944363,0.2599931776635478,-3.0786115382402626,0.6246736954472589,-6.56722132794535e-05,0.00034897437320824745,-0.0005369918494035436,0.0009647750636740944,-0.0007151525720780859,0.00236999217123031,8.984852946490238e-05,0.326046347618103,-1.1523576539805909,1.6630714575396937,-2.0798751316466273,-1.5713933149920862,2.3009684085845947,0.001023626304231584,-0.0013793379766866565,-2.448048508085776e-05,-0.0010698869591578841,-8.411801536567509e-05,0.0009332631016150117,-0.325611412525177,0.325611412525177,-9.366117477416992,0.7172743082046509,47.699424743652344,-0.2570083439350128,-3.969295024871826,-2.036011219024658,-0.5348577499389648,-0.013295833952724934,0.013784247450530529,28.0625,30.0,28.5,32.3125,34.8125,36.0
1.0,-3.367598365083353,-3.5715326890525403,-0.7113251173933225,-0.15536056504246254,0.13175946988605236,-0.10030660827646849,-0.5387620882674475,-0.3241475023001716,0.2599953452321779,-3.0786356254166414,0.6246402536512384,-0.00013118784323050533,0.0025568070590611266,0.00022843407730246658,-0.0035913774413396955,0.0025023447666705297,-0.007088558051943933,0.00020799855948674462,0.32607030868530273,-1.152393178348877,1.6631105581866663,-2.079851289788717,-1.571357552205221,2.3009684085845947,0.001002572593279183,-4.317739512771368e-05,0.008372042328119278,-0.0008118034456856549,-8.282773342216387e-05,0.0007952178712002933,-0.28730422258377075,0.3064578175544739,-9.423578262329102,0.7351769208908081,47.7244987487793,-0.26152294874191284,-4.015707015991211,-2.5189907550811768,-0.5766624212265015,0.0005476680817082524,0.015253514982759953,28.0625,30.0,28.5,32.3125,34.8125,36.0
1.0,-3.061043081981157,-3.445537589125797,-0.4301755714760574,-0.13429139769521647,0.13444345332365748,-0.10112196136806047,-0.5387601329080669,-0.3241493879579945,0.2599921556989242,-3.078618661814446,0.6246370755655408,-2.762718413186185e-05,0.0018867386293280584,0.00013694057940160861,-0.0026541991529090403,0.001834553637387822,-0.005132313646965763,9.949023465897751e-05,0.3260820209980011,-1.152393178348877,1.6631339232074183,-2.0799228153624476,-1.5714057127581995,2.30098032951355,0.0007918952032923698,-5.792799129267223e-07,0.006170948036015034,-0.0007203743443824351,-8.157650154316798e-05,0.0006928655784577131,-0.2298433631658554,0.2298433631658554,-9.232041358947754,0.7530794739723206,47.70121383666992,-0.27540162205696106,-3.909113883972168,-2.4581692218780518,-0.5972020030021667,-0.021456584334373474,0.010274233296513557,28.0625,30.0,28.5,32.3125,34.8125,36.0
1.0,-1.8281522832916566,-1.4691015778809469,-0.5511894999842789,-0.0693480391864737,0.07666411837539536,-0.10800240076100147,-0.5387497789302911,-0.3241677353627514,0.25998303666857736,-3.078660867342244,0.6246073166486305,-0.00011949201029162869,0.0006252656241867831,-0.0003153109007961045,-0.0009314161695299304,-0.0009738303780919616,0.0031045308067535536,0.00021063082782607349,0.3261060118675232,-1.1523811382106324,1.6631329695331019,-2.0799013576903285,-1.571345631276266,2.30098032951355,0.0008268252131529152,-7.771778776088922e-09,0.003669843776151538,-0.006922344211488962,-8.036254439502954e-05,0.000613912648987025,-0.17238251864910126,0.17238251864910126,-9.174580574035645,0.7396538853645325,47.71017074584961,-0.2283700853586197,-3.8430662155151367,-2.176558256149292,-0.5824049115180969,-0.012090224772691727,-2.6778841856867075e-05,28.0625,30.0,28.5,32.3125,34.8125,36.0
1.0,-0.6042909446279487,-0.055792303484723665,-0.5490892266110162,0.005065958331934491,0.013031272913353473,-0.1029272668174191,-0.5387506063927128,-0.3241577779139229,0.25997379093559414,-3.0786576413681073,0.6245875347395649,-6.435466483718375e-05,-0.00016322252056737206,-0.0006045578906378556,1.4056868865355895e-05,-0.003301838566121265,0.00993118489874156,0.0003025876277285471,0.3260940909385681,-1.1523811382106324,1.6631677786456507,-2.0799628696837367,-1.571369473134176,2.3009564876556396,0.0008587121847085655,-1.0426833008114755e-10,0.0030075865797698498,-0.013472778722643852,-7.91840793681331e-05,0.0005511398776434362,-0.3064578175544739,0.26815059781074524,-9.002198219299316,0.7687462568283081,47.699424743652344,-0.2603774666786194,-3.797990560531616,-2.058028221130371,-0.5354339480400085,-0.005726843141019344,0.0023698362056165934,28.0625,30.0,28.5,32.3125,34.8125,36.0
1.0,0.24178557552912766,0.5807916379166824,-0.36134281729053563,0.0021606420254447084,-0.008001706447789548,-0.10573118625405531,-0.5387593268949766,-0.32418018578536095,0.2599911179122999,-3.078734915153852,0.6245454928927583,5.37211789484644e-06,-0.0002437260717798696,-0.001019063236102003,0.000298144340623802,-0.004267362579972129,0.012759141601930197,0.0009485926026031702,0.32611826062202454,-1.1523690980723877,1.6631200949298304,-2.0799995861449183,-1.5713337103473108,2.3009445667266846,0.0014548341277986765,-1.39889272041116e-12,0.0030479782726615667,-0.01650143601000309,-7.803971675457433e-05,0.0005000359960831702,-0.24899697303771973,0.24899697303771973,-8.944737434387207,0.7508436441421509,47.699424743652344,-0.3431861102581024,-3.7676520347595215,-2.012491226196289,-0.5102132558822632,-0.020034916698932648,-0.0036001503467559814,28.0625,30.0,28.5,32.3125,34.8125,36.0
1.0,0.46012795587689614,0.3783813860436259,-0.2221683387372013,-0.03248982545609104,0.011577698757515813,-0.11760278832447604,-0.5387811211472809,-0.3241540552637611,0.25999689820846184,-3.0787105162646533,0.6247134879975221,0.00010514647382520715,3.991934520701622e-05,-0.0008540708069956491,-0.00020336269247086365,-0.003862805310599426,0.011570069366949636,0.0008856397356802666,0.3260704278945923,-1.1523690980723877,1.6631205717669886,-2.080059667626852,-1.571357552205221,2.301004648208618,0.001349287573248148,-1.8767930934945713e-14,0.0041480897925794125,-0.016345538198947906,-7.692795770708472e-05,0.0004576090432237834,-0.15322890877723694,0.038307227194309235,-8.925583839416504,0.6881819367408752,47.69584274291992,-0.3444325029850006,-3.6834311485290527,-1.9910703897476196,-0.5075924396514893,-0.015148874372243881,-0.007522649131715298,28.0625,30.0,28.5,32.3125,34.8125,36.0
1.0,-0.5344734459712535,-0.7368176405892652,-0.17669581049964964,-0.047093474448884384,0.02383371866117641,-0.10402496267386115,-0.5387658595428191,-0.32415130536378894,0.26000100425289996,-3.078738690299348,0.6246422092136992,6.727452249443661e-05,0.00017102608379814798,-0.0006625817447794501,-0.002531666671212092,-0.002242146277975694,0.006810208814823326,0.0006975013597674078,0.3260703384876251,-1.1524042052081604,1.6631572882281702,-2.0800472698607386,-1.5713337103473108,2.3009564876556396,0.0011243816697970033,0.0026951171457767487,0.005434615071862936,-0.015298980288207531,-8.207608334487304e-05,0.000421829434344545,-0.07661445438861847,-0.2106897532939911,-8.983044624328613,0.6568484306335449,47.703006744384766,-0.2678985595703125,-3.74475359916687,-1.994600772857666,-0.5291298627853394,-0.006854303181171417,-0.0078597916290164,28.0625,30.0,28.5,32.3125,34.8125,36.0
1.0,-0.5659313966482404,-0.7790345228643432,-0.2518526817046682,-0.04988741797127515,0.04195380513601652,-0.10057765138914718,-0.5387638186747644,-0.32417116486551834,0.25997739921065327,-3.078709620743535,0.6246175244992113,5.1359667884953506e-05,-0.00021939875267598663,-0.0003592777327226055,-0.0033872266635329392,-0.001585278235129016,0.0048858281288771035,5.763680672997933e-05,0.32610586285591125,-1.1523556870273133,1.6631458441363733,-2.0800587139525355,-1.571357552205221,2.30098032951355,0.0004533528408501297,0.004241904243826866,0.005016250070184469,-0.014393983408808708,-8.684435306349769e-05,0.00039124113391153514,0.09576806426048279,-0.2298433631658554,-8.96389102935791,0.7754590511322021,47.651954650878906,-0.23914498090744019,-3.7966465950012207,-1.9160428047180176,-0.5751699209213257,-0.028779884800314903,0.0075692725367844105,28.0625,30.0,28.5,32.3125,34.8125,36.0
1.0,-0.555585197969233,-0.4935016523325556,-0.2482731310343711,-0.0072998748550278745,0.016703446031706468,-0.09969158663317074,-0.5387749639995432,-0.324160594596494,0.25996290130829974,-3.078722904283125,0.62463971359253,6.0921807428382396e-05,-0.0005072945225498758,-0.0002846178075374866,-0.0023588030188565917,-0.002550360919594758,0.007723087922425468,-0.00018299073037140448,0.3260818123817444,-1.1523320835879822,1.663156811391012,-2.080107351342672,-1.571345631276266,2.3009684085845947,0.0001870572887128219,0.003224533051252365,0.0044138007797300816,-0.015771079808473587,-8.60434738569893e-05,0.0003647942212410271,0.15322890877723694,-0.3447650671005249,-9.002198219299316,0.7329410910606384,47.699424743652344,-0.3321009874343872,-3.7203612327575684,-1.8604317903518677,-0.5794031023979187,-0.010958366096019745,-0.005032273940742016,28.0625,30.0,28.5,32.3125,34.8125,36.0
1.0,0.05054990376436641,0.7373752525922511,-0.32804771903827284,0.013941472161108717,-0.00942812168913875,-0.10022022850029352,-0.5387778356264509,-0.3241603384984415,0.2599468786010649,-3.078717330491881,0.6246194164785062,7.231983950164064e-05,-0.0005898423592931624,-0.00035065893569049704,-0.0020205294803053828,-0.0032178831465497263,0.009680610490412354,-0.00010246687492481527,0.3260818421840668,-1.1523082715323945,1.6631682554828089,-2.080144067803854,-1.571357552205221,2.3009564876556396,0.00024527570349164307,0.0028694169595837593,0.004561861045658588,-0.01763223297894001,-8.49090502015315e-05,0.0003416963736526668,0.13407529890537262,-0.3447650372982025,-8.983044624328613,0.7239871025085449,47.70121383666992,-0.2805509865283966,-3.528252601623535,-1.782392978668213,-0.5493561029434204,-0.0349823459982872,0.009181724861264229,28.0625,30.0,28.5,32.3125,34.8125,36.0
1.0,0.4465798724305752,1.040811714049518,-0.5645562050681492,0.028552251039262566,-0.039609874527851856,-0.10954892997510028,-0.538767114038384,-0.3241607525368203,0.25993100960109694,-3.0787038066344024,0.624558729594792,0.00011558301392209997,-0.00023099165013468372,-0.0002348809933605773,-0.002614584711958826,-0.0030177312795919738,0.009088965619907338,-7.26543777121174e-05,0.3260938823223114,-1.1523082715323945,1.663217846547262,-2.0802046261229457,-1.5713933149920862,2.3009324073791504,0.00025497155729681253,0.0028376637492328882,0.006164345424622297,-0.01857837475836277,-8.37815459817648e-05,0.00032135253422893584,0.2106897532939911,-0.2298433631658554,-9.040505409240723,0.6680382490158081,47.730770111083984,-0.29455605149269104,-3.5694313049316406,-1.8325718641281128,-0.5222235918045044,-0.019461460411548615,0.0023033320903778076,28.0625,30.0,28.5,32.3125,34.8125,36.0
1.0,0.6185330183039626,0.16535089587760762,-0.7453906848396336,0.019762797991043638,-0.044952939453704654,-0.09883460419263163,-0.5387659454975542,-0.3241537891009681,0.25992356137707506,-3.0786782548449065,0.6246691494069304,7.014684564362911e-05,3.0101469928954083e-05,-0.00012560593734490456,-0.004957708052147314,-0.0013587154306868225,0.004198520469001557,-8.471529492742704e-05,0.3260818421840668,-1.1523074966720124,1.6632307211505335,-2.080191751519674,-1.5713813940631312,2.300992488861084,0.00022384546173270792,0.005417027045041323,0.007628851570188999,-0.01745806820690632,-8.268208330264315e-05,0.000303295673802495,0.28730419278144836,-0.19153612852096558,-9.078812599182129,0.7060845494270325,47.70927429199219,-0.31383752822875977,-3.533376932144165,-1.8133904933929443,-0.5312843322753906,-0.019119715318083763,-0.0017799226334318519,28.0625,30.0,28.5,32.3125,34.8125,36.0
1.0,0.7496883578035289,0.09778745692075905,-0.8093607206048601,-0.03554911132222003,-0.02038518375216344,-0.11409982524371282,-0.5387685029624306,-0.3241608715361949,0.2599278293095485,-3.078770155540678,0.6245917734598674,8.534262719811218e-05,0.00025905668112937347,2.5170290044213315e-05,-0.006497536681766644,-1.3433566196938979e-05,0.00023597371275029834,-0.00017966336358109388,0.326081782579422,-1.1523068708232422,1.6632307211505335,-2.080238481561178,-1.5713217894183558,2.3009324073791504,0.00011174266546731815,0.006993509829044342,0.008539238944649696,-0.015760276466608047,-8.161106961779296e-05,0.00028716036467812955,0.2106897532939911,-0.09576806426048279,-9.097966194152832,0.7262282371520996,47.73524856567383,-0.28632548451423645,-3.6508989334106445,-1.930544376373291,-0.5481802225112915,-0.008381372317671776,-0.00370693183504045,28.0625,30.0,28.5,32.3125,34.8125,36.0
1.0,0.08596307551222743,-1.410245337282755,-0.9412116952420053,-0.07215399767080091,0.03321065231427381,-0.11040493842027012,-0.5387738053668556,-0.32412006014906464,0.25989594392096327,-3.0786668050591035,0.624704846328991,-1.5319957682487132e-05,0.0006100787865143492,0.00021593186540817965,-0.007339434290473427,0.001040822283643947,-0.0028329782554038945,-0.0002593848171381014,0.3260219097137451,-1.152294711475708,1.6632779280291956,-2.080202718774313,-1.571357552205221,2.3009562492370605,3.4486877211747924e-06,0.00741679547354579,0.009418489411473274,-0.013817822560667992,-9.072107059182599e-05,0.0002595463301986456,0.19153612852096558,0.0,-9.289502143859863,0.7597975730895996,47.674346923828125,-0.2699616253376007,-3.54115629196167,-1.8215206861495972,-0.5845892429351807,-0.015994908288121223,-0.0034466655924916267,28.0625,30.0,28.5,32.3125,34.8125,36.0
1.0,-0.43580308437755955,-1.5174841764825855,-1.0107922842686867,-0.06857546111333543,0.03266777744568343,-0.10725733971543885,-0.5387716292314522,-0.32412463150669535,0.2598778906987284,-3.0786442205482345,0.62468091439654,-1.3573534406743225e-05,0.0008844259587998563,0.0003124633907557627,-0.008090167829742687,0.001332351257188387,-0.003665916596410661,-0.0002510246066893937,0.32603394985198975,-1.1522706311992188,1.663290802632467,-2.080227037469381,-1.5713813940631312,2.3009562492370605,4.626854277489656e-08,0.007763597182929516,0.010834415443241596,-0.014698080718517303,-9.900693112285808e-05,0.0002476412046235055,0.19153612852096558,0.15322890877723694,-9.366117477416992,0.7060845494270325,47.730770111083984,-0.30539676547050476,-3.540724277496338,-1.8408417701721191,-0.6087144613265991,0.003180288476869464,0.007368090562522411,28.0625,30.0,28.5,32.3125,34.8125,36.0
1.0,-0.36559852986455194,-1.2875480491440703,-0.9827155699044301,-0.06708934917398171,0.0347851657052127,-0.10312421284263301,-0.5387607449981692,-0.32414173987230543,0.2598465341436916,-3.0786344700490598,0.624621208775884,4.253423946670427e-06,0.0009313097816582279,0.00032852644772057973,-0.008948388470651216,0.0015113591285151227,-0.004200642847055738,-0.00024049270610285777,0.3260699510574341,-1.1522343021682282,1.6633275190936487,-2.08029903988027,-1.5714057127581995,2.3009562492370605,6.207515057532476e-10,0.008704906329512596,0.011763365939259529,-0.016004446893930435,-9.821423736866564e-05,0.00023677974240854383,0.09576806426048279,0.24899697303771973,-9.385271072387695,0.6926589012145996,47.70748519897461,-0.28761300444602966,-3.519512414932251,-1.9001359939575195,-0.6173712015151978,-0.008271714672446251,-0.007639538496732712,28.0625,30.0,28.5,32.3125,34.8125,36.0
1.0,-0.3625589663109266,-1.2304893004549273,-1.014326207282247,-0.07188692268572702,0.019559280597214283,-0.11092371497249433,-0.5387517517796968,-0.32415013512041574,0.2598130661155965,-3.0786342143386274,0.6246023019357756,-0.0001196582724284303,0.0007857309216432465,0.0002788871372047786,-0.009549779012035988,0.001263115835554718,-0.0034856667345220553,-0.0002312443202478652,0.3260817527770996,-1.1521980625442048,1.6633504072772425,-2.080288072625631,-1.571369473134176,2.3009562492370605,8.328173220495394e-12,0.009650140069425106,0.012320390902459621,-0.018263548612594604,-9.620394121157005e-05,0.00022683132556267083,0.038307227194309235,0.24899697303771973,-9.423578262329102,0.6904177665710449,47.703006744384766,-0.3095022737979889,-3.5491695404052734,-1.8279246091842651,-0.622483491897583,-0.024935724213719368,-0.002804935909807682,28.0625,30.0,28.5,32.3125,34.8125,36.0
1.0,-0.3651495011120418,-1.5731440001639394,-1.1880137905550276,-0.0721799423647673,0.01033847903898984,-0.109774358699113,-0.5387581271873534,-0.32413682902375396,0.2598078066239749,-3.0786548770034363,0.6245874274253008,-7.318967930120773e-05,0.0011052867080745092,0.00038747122220843933,-0.010162771498388913,0.0013776199497326186,-0.0038293018561096656,-0.00022245851977706693,0.32605791091918945,-1.15219800293956,1.6633756796466272,-2.0803476772704066,-1.571369473134176,2.3009204864501953,1.1173308507800642e-13,0.009696025401353836,0.01393818762153387,-0.01956503465771675,-9.419600974069908e-05,0.00021768549049738795,0.09576806426048279,0.325611412525177,-9.346963882446289,0.7239871025085449,47.72092056274414,-0.2568974494934082,-3.4547781944274902,-1.8376281261444092,-0.6077024340629578,-0.016986077651381493,0.0021236457396298647,28.0625,30.0,28.5,32.3125,34.8125,36.0
1.0,-0.21405619195758574,-1.5597891499064607,-1.144362150975334,-0.08537827762802527,0.01725521767973539,-0.10950128159157006,-0.5387529592737482,-0.3241350649518377,0.2597692502265441,-3.078626475559746,0.6246389915913249,-0.00012075187732019561,0.0007376496227356473,0.0002632330709086603,-0.010777719647957004,0.0012229380166314538,-0.003364102708163439,-0.00021448111055157244,0.32605791091918945,-1.1521615546992798,1.6634233633624476,-2.0803967914977015,-1.571369473134176,2.3009562492370605,1.4990419582383368e-15,0.011164332740008831,0.013670590706169605,-0.021255960687994957,-0.00010134190961252898,0.00020924856653437018,0.05746084079146385,0.3064578175544739,-9.327810287475586,0.7642692923545837,47.7164421081543,-0.3248300850391388,-3.5094802379608154,-1.8336853981018066,-0.6066134572029114,-0.012895867228507996,-0.0004734494723379612,28.0625,30.0,28.5,32.3125,34.8125,36.0
1.0,-0.285056235402699,-1.7508301278888685,-1.002637607787026,-0.08221155389380176,0.023495148224561894,-0.10405220166844187,-0.538763236391759,-0.32413351182546996,0.25977334186607826,-3.0785900164792195,0.6246696967844126,-5.051437541291478e-05,0.0007374864415013001,0.0002639315777460803,-0.011215037526728715,0.001049904143604853,-0.0028399125636847915,-0.00020722633239969568,0.32605791091918945,-1.1521493953517457,1.6633999983416956,-2.080409189263815,-1.5714176336871546,2.3009800910949707,2.0111559870356982e-17,0.011619863100349903,0.014424293301999569,-0.02301716059446335,-0.00010788132931338623,0.0002014415367739275,0.13407528400421143,0.28730422258377075,-9.366117477416992,0.6702793836593628,47.730770111083984,-0.30677473545074463,-3.49422550201416,-1.9110937118530273,-0.5961002111434937,-0.014539571478962898,-5.0268245104234666e-06,28.0625,30.0,28.5,32.3125,34.8125,36.0
1.0,-0.6056507121271122,-1.489329815411518,-0.7938827867944556,-0.07215233618025631,0.02824402353685861,-0.10708716422457591,-0.5387561645894682,-0.3241374028842293,0.2597523199101068,-3.0786471629128855,0.624681479016724,-8.082937269536937e-05,0.00045178139062249377,0.00016645614149999496,-0.010476223930939431,0.00020343192420508197,-0.0003572684512609053,-0.00020071831364388355,0.32605791091918945,-1.1521374446204682,1.6634472052203577,-2.0804811916747035,-1.571357552205221,2.3009800910949707,2.698222574599173e-19,0.01115419715642929,0.013729851692914963,-0.024480052292346954,-0.00010631667100824416,0.00019419622549321502,0.19153614342212677,0.3064578175544739,-9.366117477416992,0.6859408020973206,47.703006744384766,-0.3787185251712799,-3.5144946575164795,-1.8382818698883057,-0.5958105325698853,-0.017252955585718155,-0.010044733062386513,28.0625,30.0,28.5,32.3125,34.8125,36.0
1.0,-0.5628259612150184,-1.32470655485692,-0.9067417025720282,-0.06205788857907216,0.03334777397338135,-0.10378472100652675,-0.5387248887906589,-0.32415004230691113,0.25970162699849836,-3.0786189549292784,0.6245800145537885,-0.00020961828559746493,0.0002770951884600999,0.00010692172121996162,-0.011128172832752692,4.6140914624519265e-05,8.967703864947318e-05,-0.00019454773972641683,0.32609379291534424,-1.1521130961230774,1.6635311285602015,-2.080494543115133,-1.571357552205221,2.3009562492370605,3.620010144099492e-21,0.012248232960700989,0.014129260554909706,-0.02644728682935238,-0.00010429960093460977,0.00018745363922789693,0.1149216815829277,0.28730419278144836,-9.251194953918457,0.7262282371520996,47.6976318359375,-0.32648587226867676,-3.513155937194824,-1.8187413215637207,-0.5900298357009888,-0.01351140346378088,0.0013957787305116653,28.0625,30.0,28.5,32.3125,34.8125,36.0
1.0,-0.46146506253361347,-1.104558218935915,-0.9888756444488072,-0.05614613619687149,0.02171126659762352,-0.10561484651875716,-0.5387785269048141,-0.32412945209748606,0.25970608365689063,-3.0786498573039744,0.6247013710652467,-6.373755204163215e-05,-3.541002600459139e-05,3.037071058413205e-07,-0.010575999619489717,-0.0008524781139254158,0.0027221975701543105,-0.00018919515792905256,0.32603394985198975,-1.1520533722690125,1.663459602986471,-2.080590387383932,-1.571357552205221,2.3009681701660156,4.8567051511603884e-23,0.012040632776916027,0.013636764138936996,-0.028528867289423943,-0.00010232562635792419,0.00018116399587597698,0.19153614342212677,0.19153612852096558,-9.308655738830566,0.7262282371520996,47.68240737915039,-0.32568663358688354,-3.51064395904541,-1.8002936840057373,-0.5628775358200073,-0.011034175753593445,-0.0006474823458120227,28.0625,30.0,28.5,32.3125,34.8125,36.0
1.0,-0.012411042482475432,-1.154562295179805,-0.9709243093412366,-0.05086828671426026,0.018358577178039827,-0.11117518449958244,-0.5387536807004342,-0.3241352974872068,0.2596850275037098,-3.0786241887692265,0.6247158237497191,-8.646324509203417e-05,-1.3711965151286315e-05,7.610662416414445e-06,-0.01140028457276042,-0.0008046754346267368,0.0025684760479640517,-0.0001837689615181783,0.32605791091918945,-1.1520649057677765,1.6635316053973597,-2.0806271038451136,-1.571369473134176,2.301004409790039,6.515890497360142e-25,0.012962395325303078,0.014614115469157696,-0.030267054215073586,-0.00010042275243904442,0.00017528263560961932,0.13407529890537262,0.2298433631658554,-9.308656692504883,0.6232790946960449,47.693153381347656,-0.28104788064956665,-3.4358792304992676,-1.7799208164215088,-0.5422923564910889,-0.00831163302063942,-0.0012630638666450977,28.0625,30.0,28.5,32.3125,34.8125,36.0
1.0,0.06868848628154633,-1.0662764597882992,-1.0618841017220368,-0.047757314215278936,0.00942541766103211,-0.11137580429508293,-0.5387535800771301,-0.32413002084881176,0.25964883508635367,-3.078646012379225,0.6246813639288827,-0.00012192841788443643,-0.000237160977681588,-6.863861404612862e-05,-0.011142771995428579,-0.0013050291911434486,0.004030869547296202,-0.00017878163342838587,0.3260459899902344,-1.1520289343646546,1.6635797659503382,-2.0806991062560023,-1.571345631276266,2.3009681701660156,8.741898477046705e-27,0.013014710508286953,0.014233601279556751,-0.03148448467254639,-9.85891601885669e-05,0.00016977133054751903,0.19153612852096558,0.17238251864910126,-9.193734169006348,0.6008995771408081,47.7244987487793,-0.3660050630569458,-3.4546077251434326,-1.7689173221588135,-0.5357577800750732,-0.03119759075343609,0.0022629753220826387,28.0625,30.0,28.5,32.3125,34.8125,36.0
1.0,-0.041720518003503626,-1.1003550549255132,-0.8736017017033142,-0.04665661701760239,0.007758384282676195,-0.10798735703048418,-0.5387469485513947,-0.32414081371329106,0.25963518477469216,-3.0786686661816103,0.6245902416124066,-3.68190470225132e-05,-0.00010551370149973774,-2.390562138762426e-05,-0.012028349182483303,-0.0010299232692737772,0.0032112356813661837,-0.0001738005365801826,0.3260699510574341,-1.1520167154124756,1.6636155287372034,-2.0807959041991175,-1.571369473134176,2.3009324073791504,1.1728372897227623e-28,0.013831126503646374,0.015343321487307549,-0.03254605457186699,-9.682150994194672e-05,0.00016459634935017675,0.13407529890537262,0.1149216815829277,-9.232041358947754,0.6501356363296509,47.718231201171875,-0.36538708209991455,-3.422553062438965,-1.8005160093307495,-0.5168454647064209,-0.011615796014666557,-0.013707194477319717,28.0625,30.0,28.5,32.3125,34.8125,36.0
1.0,-0.41074246413325916,-0.8806906280956103,-0.9275967980482384,-0.046965696320975754,0.0033960056722050144,-0.10685057345824028,-0.538741598028302,-0.324129921812715,0.2595886054360651,-3.0786224131227384,0.6246765673496625,-7.572667454766967e-05,-0.0002452099938644401,-7.160610788427388e-05,-0.012059693757958517,-0.0013115597230203776,0.0040305041084318215,-0.0001693298699107645,0.32605791091918945,-1.1519806248000641,1.6636870543109339,-2.080867906610006,-1.5713813940631312,2.3009800910949707,1.573511001598282e-30,0.014096779748797417,0.015288877300918102,-0.0336235873401165,-9.511614189250395e-05,0.00015972698747646064,0.09576806426048279,0.19153612852096558,-9.251194953918457,0.7016075849533081,47.690467834472656,-0.35135799646377563,-3.433506965637207,-1.7507531642913818,-0.5022521018981934,-0.01452774740755558,-0.002821366535499692,28.0625,30.0,28.5,32.3125,34.8125,36.0
1.0,-0.3698898949515861,-0.8053036198560952,-0.9776606149627415,-0.04408462316906621,0.013915087151278285,-0.10666894967253308,-0.5387440276764829,-0.3241540370843177,0.2595896262471926,-3.0786699190244247,0.6245905316696078,3.292848701828155e-06,-0.0001984893804129751,-5.57916518103287e-05,-0.012718298248723555,-0.0011941434086814038,0.0036748621241259553,-0.00016500128678495165,0.32609379291534424,-1.1519564253142853,1.6636646429644983,-2.08092798809194,-1.5713813940631312,2.3009562492370605,2.1110658965379306e-32,0.014790629036724567,0.016061287373304367,-0.03471533954143524,-9.346969454782084e-05,0.00015513789549004287,0.13407529890537262,0.09576806426048279,-9.174580574035645,0.7329410910606384,47.72808074951172,-0.36128896474838257,-3.4030754566192627,-1.8596041202545166,-0.4866812825202942,-0.018586117774248123,0.001503267791122198,28.0625,30.0,28.5,32.3125,34.8125,36.0
1.0,-0.39558177359295693,-0.6351347721576043,-0.8581694728203262,-0.03891160825307119,0.01292825090386831,-0.10715562934525269,-0.5387569147145302,-0.3241298895707908,0.2595464980619431,-3.0786675151984473,0.6246476338460204,-4.715126615770545e-05,-0.0004598390725632482,-0.00014491853009423244,-0.012341969343249591,-0.0016470650749764633,0.004999781085199172,-0.0001610247870789414,0.3260459899902344,-1.1519084733775635,1.6637118498431605,-2.0809999905028285,-1.571357552205221,2.3009443283081055,2.832264328286288e-34,0.014801421202719212,0.015353413298726082,-0.03541846200823784,-9.187941759591922e-05,0.00015080501907505095,0.13407529890537262,0.05746084079146385,-9.232041358947754,0.7105615139007568,47.651954650878906,-0.34142911434173584,-3.443392038345337,-1.703700304031372,-0.4674314260482788,-0.02298179641366005,-0.012485207989811897,28.0625,30.0,28.5,32.3125,34.8125,36.0
1.0,-0.7343253435560871,-1.0006804484663914,-1.1398675021694191,-0.031572645388306335,0.0017837016199987125,-0.09773192168203723,-0.538766022375917,-0.3241447817230792,0.2594929864351265,-3.0786450673744943,0.6246046328501902,-1.8652815302718692e-05,-0.00040341533123796806,-0.0001259718190242808,-0.012871332175062597,-0.0016012059001150616,0.00485131795570243,-0.000153341124747853,0.3260699510574341,-1.1518123608878632,1.6637237707721155,-2.0811082325377406,-1.5713933149920862,2.3009443283081055,5.097975941516557e-38,0.015308172442018986,0.01609387807548046,-0.03651035577058792,-8.88556896825321e-05,0.00014282700431067497,0.07661445438861847,0.05746084079146385,-9.366117477416992,0.6523714661598206,47.71733474731445,-0.4118679165840149,-3.3683793544769287,-1.7549819946289062,-0.4690157175064087,-0.01928570866584778,-0.0050183567218482494,28.0625,30.0,28.5,32.3125,34.8125,36.0
1.0,-0.5129723566311075,-0.5473070212363761,-0.9036096762902487,-0.04537143452671347,0.009727977411630223,-0.10722272210016463,-0.5387558829485024,-0.3241489906933293,0.2594873430877783,-3.078668586604864,0.6246096521913842,4.607965984546927e-05,-0.0003932280018662122,-0.0001225181498086404,-0.01384233084730541,-0.001142744903856436,0.003492086964153964,-0.000149560799124452,0.3260817527770996,-1.1518238347819825,1.6637714544879358,-2.0811921558775843,-1.5713933149920862,2.3009562492370605,6.839583661538356e-40,0.016539111733436584,0.016663886606693268,-0.03687684237957001,-8.741729106986895e-05,0.00013914640294387937,0.09576806426048279,0.019153613597154617,-9.327810287475586,0.6523714661598206,47.654640197753906,-0.4243829846382141,-3.4340052604675293,-1.747924566268921,-0.4613097906112671,-0.011709408834576607,-0.005158273037523031,28.0625,30.0,28.5,32.3125,34.8125,36.0
1.0,-1.2156464932564812,-0.885899792823736,-1.0193600803821403,-0.035174939553569914,-0.002198177969519377,-0.09541692798203899,-0.5387591909565418,-0.32412814675472995,0.2594341352263478,-3.0786378755456547,0.6247188725232702,-1.397046728756277e-05,-0.00018233926545620612,-5.0901398022029106e-05,-0.013842590393001189,-0.0011859463791715902,0.0036180826821770153,-0.00014623100943331158,0.3260459899902344,-1.1517761212638398,1.663844410573141,-2.08127560238027,-1.5713813940631312,2.300992488861084,9.175702344398902e-42,0.01607237011194229,0.01740732230246067,-0.03728673979640007,-8.602457091910765e-05,0.00013565077097155154,0.07661445438861847,-0.038307227194309235,-9.327810287475586,0.7083203792572021,47.66718673706055,-0.3829587697982788,-3.4140124320983887,-1.752987027168274,-0.4496569037437439,-0.0199931301176548,0.012151386588811874,28.0625,30.0,28.5,32.3125,34.8125,36.0
1.0,-0.7594520399535425,-0.9645988672701737,-0.9726194172171587,-0.03328169992126185,0.019985117653274154,-0.09738082365126918,-0.5387677220081163,-0.3241425353781399,0.2594263106760508,-3.0786951700748966,0.6246534188129826,-9.615582675069928e-06,-0.00018591654271920524,-5.2128091659069874e-05,-0.014767681320613839,-0.0005964971943382551,0.0018747785660309542,-0.0001425637178993812,0.32605791091918945,-1.1517397624305268,1.6638196150409144,-2.081311365167135,-1.571345631276266,2.3009562492370605,1.233142648605839e-43,0.017315775156021118,0.0177046749740839,-0.036987245082855225,-8.467563020531088e-05,0.0001323264732491225,0.0,-0.038307227194309235,-9.27034854888916,0.7060845494270325,47.6949462890625,-0.41014623641967773,-3.4155731201171875,-1.7460557222366333,-0.4718191921710968,-0.012700555846095085,-0.010492092929780483,28.0625,30.0,28.5,32.3125,34.8125,36.0
1.0,-0.5104154223070935,-0.37752839143805794,-0.90464808498804,-0.04452530179145522,0.021405955953763635,-0.10540013949158003,-0.5387421977054733,-0.3241638798634648,0.2593514546371274,-3.0786117030946683,0.6245786168282051,-8.793621989373957e-06,9.760624449343852e-05,4.4257126751284734e-05,-0.015150020594143016,-0.00021436054684047704,0.0007493968539108066,-0.00013916737857020024,0.32611775398254395,-1.1516679686358948,1.6639164129840296,-2.0814315281310023,-1.5714295546161097,2.3009800910949707,1.401298464324817e-45,0.017253229394555092,0.018572639673948288,-0.03660416230559349,-8.336841710843146e-05,0.00012916119885630906,0.0,0.019153613597154617,-9.289502143859863,0.6859408020973206,47.72897720336914,-0.402357816696167,-3.3887722492218018,-1.8154103755950928,-0.47151464223861694,-0.0037806290201842785,-0.0026524474378675222,28.0625,30.0,28.5,32.3125,34.8125,36.0
1.0,-0.8042779139267421,-0.5695347222195928,-1.077785243554434,-0.037667719687933685,0.014135307312617569,-0.10095521465424538,-0.5387796378208543,-0.3241365301155909,0.2593684947682851,-3.0786180974105974,0.6246758349289832,9.70830171220851e-05,0.00014376982982334323,5.9873545312710115e-05,-0.015489108477364089,2.384894370111314e-06,0.00010686040639096388,-0.00013605009861800043,0.32605791091918945,-1.1516556304744263,1.6638687292682093,-2.0814672909178675,-1.5714414755450647,2.3009800910949707,0.0,0.017604853957891464,0.018836570903658867,-0.036541614681482315,-8.210093801608309e-05,0.00012614383012987673,0.0,0.038307227194309235,-9.289502143859863,0.6523714661598206,47.704795837402344,-0.44304025173187256,-3.382491111755371,-1.7637726068496704,-0.4798399806022644,-0.008083526976406574,0.012087350711226463,28.0625,30.0,28.5,32.3125,34.8125,36.0
1.0,-0.6453142580832325,-0.36911303437708065,-0.808790454541072,-0.04210915428796687,0.015080309998450777,-0.10563192908475695,-0.5387454202120064,-0.32414274499077717,0.25931300080750425,-3.078657748263214,0.6246846836871168,-9.231106513242077e-05,8.969361922882866e-05,4.1458003985772285e-05,-0.01625083762458014,0.0003403509692330004,-0.0008968636738619237,-0.0001330891968131166,0.3260699510574341,-1.1516431731036683,1.66398793855776,-2.081515451470846,-1.571345631276266,2.300992488861084,0.0,0.01870366372168064,0.019104450941085815,-0.03684922680258751,-8.087136666290462e-05,0.00012326441355980933,0.038307227194309235,0.0,-9.366117477416992,0.7262282371520996,47.733455657958984,-0.44019967317581177,-3.356333017349243,-1.7468767166137695,-0.47518202662467957,-0.011595690622925758,-0.0003481021849438548,28.0625,30.0,28.5,32.3125,34.8125,36.0
1.0,0.20291028846537112,-0.5442770468192055,-0.8834406231567906,-0.04289946466683206,0.02998559413062634,-0.12297852135948491,-0.5387638099325196,-0.32414118558762567,0.2593029694428285,-3.0787066580183122,0.6246559001730045,2.0912188991835632e-05,0.00023403493472808903,9.044580296548914e-05,-0.01629099821222247,0.00045886394252696435,-0.0012468012331274358,-0.00013025100245897162,0.32605791091918945,-1.1516074997237702,1.66398793855776,-2.081634660760397,-1.571345631276266,2.3009562492370605,0.0,0.018470408394932747,0.019465340301394463,-0.03660740330815315,-7.96780368546024e-05,0.0001205133885378018,0.05746084079146385,0.09576806426048279,-9.308655738830566,0.6434228420257568,47.718231201171875,-0.4487597942352295,-3.396745204925537,-1.778613805770874,-0.49385082721710205,-0.02329176664352417,-0.01414657011628151,28.0625,30.0,28.5,32.3125,34.8125,36.0
1.0,-0.4112205045798416,-0.7598698164405289,-0.9687910509349034,-0.04399132924834871,0.01579726541053712,-0.10122097829885038,-0.5387538164147618,-0.32413402685018167,0.25924600452864965,-3.078640172021466,0.624642320229898,-5.059055137389119e-05,0.00019726107398138678,7.788018379683927e-05,-0.0167743427660335,0.0008124887231999413,-0.0022934960102364557,-0.00011277531858897685,0.32605791091918945,-1.1515591901591797,1.664060417805807,-2.081681867639059,-1.5713813940631312,2.3009562492370605,0.0,0.019213151186704636,0.019440652802586555,-0.03622064366936684,-7.85195516073145e-05,0.00010331100202165544,0.09576806426048279,-0.019153613597154617,-9.346963882446289,0.6680382490158081,47.69673538208008,-0.4258870780467987,-3.4122328758239746,-1.7404685020446777,-0.5219410061836243,-0.011796865612268448,-0.0018023280426859856,28.0625,30.0,28.5,32.3125,34.8125,36.0
1.0,-0.9399958776617161,-0.9586443919523946,-0.9405317013244133,-0.040038604599984304,0.0001608351157266815,-0.09845107679627177,-0.5387583383070552,-0.32413681050743404,0.25921357616418905,-3.0786622476581496,0.6245895430070263,-5.8135485792024796e-05,0.0002522830386476608,9.657362784202278e-05,-0.01740984111866183,0.0011734998199340629,-0.0033618444938777244,-0.00010579212461059264,0.32605791091918945,-1.151511089210846,1.6640833059894007,-2.081754346887106,-1.571369473134176,2.3009204864501953,0.0,0.019932841882109642,0.01988806203007698,-0.036260053515434265,-7.739417924312875e-05,9.646795660955831e-05,0.05746084079146385,0.09576806426048279,-9.251194953918457,0.6523714661598206,47.731666564941406,-0.4358643889427185,-3.3436927795410156,-1.7175319194793701,-0.5319945216178894,-0.014660535380244255,-0.005342085380107164,28.0625,30.0,28.5,32.3125,34.8125,36.0
1.0,-0.33029385283397594,-0.9786870859412408,-0.8630806488154114,-0.046719396766015206,0.018190810577465334,-0.1089423776253819,-0.5387533051847304,-0.3241325917909104,0.2591727110236325,-3.0786243163058846,0.6246391379355368,-5.762525632835302e-05,0.0004140924803526927,0.00015155347467603268,-0.01769673692727226,0.0012021569728867495,-0.0034496591900609512,-0.0001036840850160289,0.32605791091918945,-1.1514751476100464,1.6641448179828089,-2.0818382702269496,-1.5713933149920862,2.3009562492370605,0.0,0.01992519572377205,0.02071346901357174,-0.036985449492931366,-7.630063919350505e-05,9.414736268809065e-05,0.13407528400421143,0.05746084079146385,-9.346963882446289,0.6814691424369812,47.70838165283203,-0.4786684513092041,-3.3449950218200684,-1.765984058380127,-0.5548075437545776,-0.025067705661058426,-0.001511625712737441,28.0625,30.0,28.5,32.3125,34.8125,36.0
1.0,-0.6871454650509785,-1.2300504829885444,-0.8639736288900257,-0.037377047517508595,0.0058732759835281815,-0.10445502391045636,-0.5387577256000751,-0.3241288573922754,0.25916371563123675,-3.078646745479176,0.6246628731860301,-6.017252048831384e-05,0.0002978404067845967,0.00011192253760612837,-0.017946259923128132,0.001197052592070179,-0.003442123287429316,-0.00010184987781684346,0.3260459899902344,-1.1514629286578675,1.6641562620746058,-2.081874033013815,-1.571369473134176,2.3009562492370605,0.0,0.020467324182391167,0.02063009701669216,-0.03745298832654953,-7.523748354287818e-05,9.219862840836868e-05,0.09576806426048279,0.13407528400421143,-9.327810287475586,0.6926589012145996,47.71464920043945,-0.46093058586120605,-3.370295524597168,-1.7405526638031006,-0.5549232959747314,-0.027831362560391426,0.015926100313663483,28.0625,30.0,28.5,32.3125,34.8125,36.0
1.0,-0.34578341131816714,-0.93424014324176,-0.8800569961008139,-0.04752349921437922,0.014781434758186862,-0.09938670947582948,-0.5387422512893244,-0.3241390949126452,0.25909313424391045,-3.078604917709137,0.624654288066962,-0.0001755462494718928,0.000193981222609617,0.00019291642190765793,-0.018883147481246178,0.0016539784638700998,-0.004795684370840086,-0.00027903309512848065,0.3260698914527893,-1.1513903600028534,1.6642287413226526,-2.0819341144957484,-1.571369473134176,2.3009800910949707,-0.00017918793309945613,0.02178572118282318,0.02097150683403015,-0.03768419474363327,-7.420367910526693e-05,9.034614777192473e-05,0.07661445438861847,0.1149216815829277,-9.308655738830566,0.7105615139007568,47.704795837402344,-0.4312230348587036,-3.4145264625549316,-1.7126718759536743,-0.5617249608039856,-0.023299474269151688,-0.0013554636389017105,28.0625,30.0,28.5,32.3125,34.8125,36.0
1.0,-0.6132476771031782,-0.931639662261652,-0.8206031472073577,-0.051294870034655576,0.008358030279881898,-0.10378405913581532,-0.5387592094605236,-0.3241202268551342,0.2590778114724765,-3.078607808863157,0.6247126497858945,-9.980870423607991e-05,0.0001122923328028571,0.00019324001147887207,-0.01916380529819992,0.0015373601992229725,-0.004460608974602839,-0.0003210190381693316,0.3260338604450226,-1.1513663095286866,1.6642516295062464,-2.082029958764547,-1.5713813940631312,2.3009800910949707,-0.00022261549020186067,0.022228283807635307,0.021230289712548256,-0.03874032199382782,-7.319787255255505e-05,8.856781641952693e-05,0.09576806426048279,0.13407529890537262,-9.21288776397705,0.7396538853645325,47.702110290527344,-0.44384336471557617,-3.372098445892334,-1.702324628829956,-0.592890739440918,-0.010898230597376823,-0.01337640080600977,28.0625,30.0,28.5,32.3125,34.8125,36.0
1.0,-0.4370839800558556,-1.27561476568396,-0.8578133261817174,-0.04284503124503396,0.006805037103054093,-0.10268049689540236,-0.5387604856669074,-0.3241387060174147,0.25903340762073396,-3.0786562497278123,0.6246077632695562,-0.0001030393222827431,5.710512213983343e-05,0.00017681303958580136,-0.018935142017507272,0.000793237426779077,-0.002277563111221967,-0.00032413630484266645,0.3260578215122223,-1.151294545536377,1.6642769018756312,-2.0821386776366175,-1.571357552205221,2.3009324073791504,-0.00022642889234703034,0.021878808736801147,0.02176065929234028,-0.04122760519385338,-7.221881242003292e-05,8.68582064867951e-05,0.038307227194309235,0.09576806426048279,-9.174580574035645,0.6613254547119141,47.71554183959961,-0.4329259991645813,-3.3253602981567383,-1.6836483478546143,-0.5884232521057129,-0.026716500520706177,-0.0031356222461909056,28.0625,30.0,28.5,32.3125,34.8125,36.0
1.0,-0.31358001840849664,-0.8887703637214562,-0.7212989582910107,-0.047776250232741624,0.0023494778107794496,-0.1104964732849235,-0.5387672616208612,-0.3241372548082436,0.2589911952018057,-3.078624311077434,0.6246394555106702,-5.935784085061509e-05,0.00011953414318309137,0.00021294411693821398,-0.01934722545701225,0.0010274550900533736,-0.002970894475530457,-0.0003454234891185499,0.3260578215122223,-1.1512343746474762,1.6643131414996546,-2.0822464428343714,-1.5713933149920862,2.3009562492370605,-0.00024943394237197936,0.02227369137108326,0.022159354761242867,-0.04128935933113098,-7.126583659555763e-05,8.521354175172746e-05,0.1149216815829277,0.17238251864910126,-9.232041358947754,0.7441308498382568,47.72718811035156,-0.44629931449890137,-3.39351224899292,-1.6560618877410889,-0.6169643402099609,-0.021820999681949615,-0.009302642196416855,28.0625,30.0,28.5,32.3125,34.8125,36.0
1.0,-0.45800066525245053,-0.8170021224072094,-0.8302168041683442,-0.04390766749448992,-0.005512117729845962,-0.10013394936621262,-0.538752512768106,-0.32415019920977045,0.2589103205140268,-3.07862078240767,0.6246388404608415,-0.00014389169149665998,0.00016383969325598228,0.000237725931255973,-0.020671590097748167,0.0019456637097597321,-0.005683164821707541,-0.0003566836231127506,0.32608166337013245,-1.1511498850635071,1.6644085089312952,-2.0823780498900355,-1.571369473134176,2.3009800910949707,-0.0002643933112267405,0.02396531216800213,0.022654840722680092,-0.04061299189925194,-6.94331101840362e-05,8.210395753849298e-05,0.2106897532939911,0.038307227194309235,-9.155426979064941,0.6904177665710449,47.69853210449219,-0.4705427885055542,-3.358416795730591,-1.7151706218719482,-0.6789655685424805,-0.024985287338495255,-0.006970743183046579,28.0625,30.0,28.5,32.3125,34.8125,36.0
1.0,0.30111839424987835,-0.4470777332532071,-0.6760577937856648,-0.05758131443453891,0.02016244532203345,-0.11491138804426199,-0.5387624798232413,-0.3241381116091017,0.2588817046700706,-3.078640247885156,0.6246046297040706,-0.00011119801972257236,0.0003191852264040462,0.00028679024493665395,-0.020874104938013536,0.0017673885735500613,-0.0051626500984644115,-0.00034996246456084796,0.3260578215122223,-1.15111397326503,1.6644452253924769,-2.0824748478331507,-1.571369473134176,2.3009324073791504,-0.0002586575283203274,0.023820655420422554,0.02362689934670925,-0.04199059307575226,-6.855178071418777e-05,8.063270797720179e-05,0.2106897532939911,0.07661445438861847,-9.193734169006348,0.7217512726783752,47.685096740722656,-0.5053125619888306,-3.2782349586486816,-1.7369165420532227,-0.6901630759239197,-0.019441166892647743,-0.018796388059854507,28.0625,30.0,28.5,32.3125,34.8125,36.0
1.0,-0.4624040224555717,-1.0345555988069939,-0.648087566885389,-0.049345516227184374,0.005133420838184341,-0.09941743702497746,-0.5387489232871736,-0.32412575368665375,0.25882347532384636,-3.0785939076450317,0.6246525484418408,-0.00020799935866524366,0.00022592979532980184,0.0002496951357274183,-0.021271597371832502,0.0015645559945919887,-0.004575159274843245,-0.00034086396039070805,0.3260459005832672,-1.1510779422572632,1.6645405928241175,-2.0825349293150843,-1.571369473134176,2.3009562492370605,-0.00025045013171620667,0.024441024288535118,0.024039924144744873,-0.043645501136779785,-6.769241736037657e-05,7.921335782157257e-05,0.19153612852096558,0.13407529890537262,-9.155426979064941,0.6411817073822021,47.692256927490234,-0.5079942941665649,-3.2858633995056152,-1.6765397787094116,-0.6929571628570557,-0.025522448122501373,-0.00945299956947565,28.0625,30.0,28.5,32.3125,34.8125,36.0
1.0,0.10361057562898507,-0.9490088324456436,-0.7681234251418219,-0.04990885626305237,0.019908169820259572,-0.10712797892102817,-0.5387555522029506,-0.32413443161580074,0.2587809254612198,-3.0785778639809553,0.6246494305517628,-0.0002153605350463366,8.54790059490875e-05,0.0003911588489811598,-0.021981466043270306,0.0017899366245240286,-0.005246459755164224,-0.0006311240332722383,0.3260577321052551,-1.1510055524161835,1.6645525137530726,-2.082606931725973,-1.5713813940631312,2.3009681701660156,-0.000542004534509033,0.0254314374178648,0.024419697001576424,-0.04430756717920303,-6.685429252684116e-05,7.784303306834772e-05,0.17238251864910126,0.13407529890537262,-9.21288776397705,0.7105615139007568,47.70927429199219,-0.4383586645126343,-3.3798940181732178,-1.7092974185943604,-0.7147678136825562,6.219581700861454e-05,-0.005091685336083174,28.0625,30.0,28.5,32.3125,34.8125,36.0
1.0,-0.3463596648044898,-0.7046133233689195,-0.728883825837857,-0.046693737563018575,0.0008705881561727399,-0.0972130670219545,-0.5387571772394394,-0.3241219240211172,0.2587199632538523,-3.078587937842368,0.6246708864093892,-0.000252088030845684,0.0002066103531690471,0.00039713071639347345,-0.02273725751598258,0.002581827834071569,-0.007579764052999057,-0.0005747681287429742,0.3260337710380554,-1.150945321922638,1.6646364370929163,-2.082738061944479,-1.571357552205221,2.3009562492370605,-0.0004876985331065953,0.026309439912438393,0.02459305338561535,-0.04289490729570389,-6.603680230909958e-05,7.651939085917547e-05,0.13407529890537262,0.1149216815829277,-9.078812599182129,0.6926589012145996,47.69584274291992,-0.4817243218421936,-3.3859219551086426,-1.6897485256195068,-0.7565021514892578,-0.0164292361587286,0.0021583642810583115,28.0625,30.0,28.5,32.3125,34.8125,36.0
1.0,0.06358903949648684,-0.6148085213743696,-0.7726882696078169,-0.04353738781319766,0.007779804910844512,-0.11403946205908251,-0.538762455719975,-0.3241327972406528,0.25867672697124955,-3.0785877715702883,0.6246897747671382,-0.00028007608414138844,0.0002940549997378398,0.00039594978870608985,-0.023225650470783368,0.0022890196869820153,-0.006725825833613519,-0.0005266452886533751,0.32604584097862244,-1.1508731108954926,1.6646502653705042,-2.0828105411925257,-1.571345631276266,2.3009800910949707,-0.000440042931586504,0.026643697172403336,0.025783071294426918,-0.04532192647457123,-6.523896445287392e-05,7.523993554059416e-05,0.13407529890537262,0.1149216815829277,-9.155426979064941,0.7217512726783752,47.71017074584961,-0.4315531253814697,-3.452302932739258,-1.7106856107711792,-0.7805807590484619,0.0010597812943160534,-0.012084937654435635,28.0625,30.0,28.5,32.3125,34.8125,36.0
1.0,-0.0767244843289416,-0.5831828911709008,-0.879972980943401,-0.04933798230639168,0.00912069062972273,-0.10649901334566239,-0.5387610766950762,-0.324133760043778,0.2586450548730765,-3.0785649884841852,0.6246086338478131,-0.00019671729337575114,0.00024386481509624768,0.0003532787123025622,-0.02270901707868043,0.001334745992081942,-0.003922801306122134,-0.0004873595154768906,0.3260577619075775,-1.150837467317917,1.664696995412008,-2.082919260064596,-1.5714057127581995,2.3009443283081055,-0.0004008326795883477,0.025921311229467392,0.02622414194047451,-0.048001620918512344,-6.446024781325832e-05,7.40025716368109e-05,0.1149216815829277,0.07661445438861847,-9.27034854888916,0.7038487195968628,47.71464920043945,-0.5415233969688416,-3.3243560791015625,-1.7642202377319336,-0.7853342294692993,-0.00817815586924553,-0.0017940145917236805,28.0625,30.0,28.5,32.3125,34.8125,36.0
1.0,-0.8302057106679573,-1.3786386775145272,-0.9500273614962793,-0.036522046047082986,0.002010237530702159,-0.10061628198684357,-0.5387538536643834,-0.32412736147005483,0.258616753244817,-3.078582065401364,0.6246504264647705,-0.0002423382802921891,0.0002542169496170499,0.0003826134512619029,-0.023491030891515993,0.0015095304208140095,-0.004445339735325081,-0.0005261259315299159,0.32604584097862244,-1.1508250695518036,1.6647575537311,-2.082979818383688,-1.571369473134176,2.3009562492370605,-0.00044056432670913637,0.026831548660993576,0.02698340080678463,-0.04912013188004494,-6.369990296661854e-05,7.280528370756656e-05,0.19153612852096558,0.038307227194309235,-9.193734169006348,0.7150384783744812,47.71554183959961,-0.5046120882034302,-3.375805377960205,-1.7265536785125732,-0.8076666593551636,-0.011217133142054081,-0.011792863719165325,28.0625,30.0,28.5,32.3125,34.8125,36.0
1.0,-0.68697376651883,-1.3280237348012403,-1.0009954556206695,-0.04046262397173413,0.005429898285361773,-0.09540074665994873,-0.5387616194838315,-0.3241299938551425,0.2585510951806323,-3.078564064803413,0.6246468010131231,-0.0002924427610847299,0.00011175140689503552,0.0003132171864156481,-0.024412692577123765,0.001625409348126378,-0.004798624566512142,-0.0004929710453225348,0.32604584097862244,-1.1507286590388794,1.6647937933551233,-2.0830756626524867,-1.571369473134176,2.3009562492370605,-0.0004082322120666504,0.02827410213649273,0.027401084080338478,-0.05060858651995659,-6.295723142102361e-05,7.164612907217816e-05,0.15322890877723694,0.019153613597154617,-9.232041358947754,0.7642692923545837,47.72897720336914,-0.48372822999954224,-3.3659582138061523,-1.7943205833435059,-0.8164039850234985,-0.022990409284830093,-0.010042531415820122,28.0625,30.0,28.5,32.3125,34.8125,36.0
1.0,-0.561810579511022,-1.1238730981332492,-1.0720854222535947,-0.044265002054081785,0.011144654028691043,-0.09802373788195426,-0.5387635177330031,-0.3241137736649032,0.25850824487586793,-3.0785508542189475,0.6246635786819358,-0.00028148672892830753,5.5796250932190546e-05,0.0002754990083445049,-0.0245359034193741,0.0011368227750144753,-0.0033689269629414583,-0.00046398767701402125,0.32602179050445557,-1.1506926280311127,1.6648653189288538,-2.083184381524557,-1.5713813940631312,2.3009443283081055,-0.00037954351864755154,0.028430478647351265,0.027969365939497948,-0.05284412205219269,-6.223170930752531e-05,7.052330329315737e-05,0.13407529890537262,0.019153613597154617,-9.232041358947754,0.7038487195968628,47.692256927490234,-0.5293394327163696,-3.3951492309570312,-1.8058114051818848,-0.8168182373046875,-0.006243793293833733,-0.020935148000717163,28.0625,30.0,28.5,32.3125,34.8125,36.0
1.0,-0.39424226956294484,-1.1367676740119141,-1.0379033572957914,-0.047352719783283884,0.018698344270614457,-0.1032188916705461,-0.5387476348112344,-0.32414340148495213,0.2584522750146375,-3.0785162213852786,0.6246178978177845,-0.00028483985354296016,2.3314679746261015e-05,0.0002482842434583942,-0.02509001987267271,0.0009695748603350023,-0.00288528715260355,-0.0004385764486305832,0.32608163356781006,-1.150620387201645,1.6649134794818323,-2.083281179467672,-1.5714176336871546,2.3009800910949707,-0.00035461585503071547,0.029123317450284958,0.028698844835162163,-0.05477817356586456,-6.152268178993836e-05,6.943517655599862e-05,0.2106897532939911,0.09576806426048279,-9.27034854888916,0.7083203792572021,47.699424743652344,-0.5319821238517761,-3.402662754058838,-1.7828385829925537,-0.8245857954025269,-0.0015100203454494476,-0.0025889831595122814,28.0625,30.0,28.5,32.3125,34.8125,36.0
1.0,-0.9722376974790818,-1.2735582322083059,-1.0125198631007228,-0.04520672975370032,0.014171467366289096,-0.09853166380632102,-0.5387544971001225,-0.32412881817523453,0.2584044154105622,-3.078559059092988,0.6247039964518003,-0.00031341817871529504,-0.0003810576103439451,0.00013105150631892074,-0.0256997875955395,-0.00018327988681835161,0.0004852031563225613,-0.00047087774711202554,0.3260458707809448,-1.1505721074393769,1.6649850050555628,-2.0834151707091273,-1.571357552205221,2.300992488861084,-0.0003859249409288168,0.030379153788089752,0.0296339001506567,-0.060531266033649445,-6.082961044739932e-05,6.83800462866202e-05,0.07661445438861847,0.09576806426048279,-9.270349502563477,0.7239871025085449,47.692256927490234,-0.5537360906600952,-3.3748369216918945,-1.8341178894042969,-0.7896270751953125,-0.010871372185647488,-0.02151595428586006,28.0625,30.0,28.5,32.3125,34.8125,36.0
1.0,-1.1725640742478656,-1.494147525996584,-1.024692767770523,-0.04405915041958915,0.019044210856081083,-0.10645237587046914,-0.5387532041796083,-0.3241336065221079,0.25834609614597404,-3.0785452528810135,0.6246622142713807,-0.00029847011539615363,-0.00022278760141523633,0.00017171812317369418,-0.026065087407621732,-0.00010794783840746001,0.0002607346678022349,-0.0004497692391287174,0.3260577917098999,-1.1505001348308106,1.665046517048971,-2.083545824090475,-1.5713813940631312,2.3009800910949707,-0.0003656515618786216,0.030502507463097572,0.030450882390141487,-0.06123483180999756,-6.0152051446493715e-05,6.735649367328733e-05,0.05746084079146385,0.15322890877723694,-9.193734169006348,0.7262282371520996,47.72629165649414,-0.4899072051048279,-3.470071792602539,-1.8273451328277588,-0.7683511972427368,-0.009426072239875793,-0.005023307632654905,28.0625,30.0,28.5,32.3125,34.8125,36.0
1.0,-0.7141223105113952,-1.4746931057562191,-0.8973674550636335,-0.048521241999897755,0.03275848966045816,-0.10782342159410833,-0.5387442029737031,-0.32414210287035344,0.2583076121885746,-3.0785803795947424,0.6246501835310561,-0.0003239917603049379,-0.0003650163915595074,0.00010716442731862096,-0.025954894994623567,-0.001022334445050774,0.002850645316309815,-0.00043007117434661687,0.32606983184814453,-1.1504641634276886,1.6651056448565882,-2.0836430988707484,-1.571345631276266,2.3009800910949707,-0.0003456184931565076,0.030461467802524567,0.030993670225143433,-0.06448304653167725,-3.0154238629620522e-05,6.63631726638414e-05,0.07661445438861847,0.15322890877723694,-9.27034854888916,0.6948947906494141,47.71017074584961,-0.5585119724273682,-3.4495961666107178,-1.8355035781860352,-0.7741814851760864,-0.024584652855992317,-0.004982945043593645,28.0625,30.0,28.5,32.3125,34.8125,36.0
1.0,-0.9939684404088267,-1.4317227912499417,-1.1365931838503978,-0.04990298595715766,0.02977983321943907,-0.10478045055805191,-0.5387588999572575,-0.32412122587845954,0.2582312083559015,-3.078549323705176,0.6246442578941829,-0.00033554027394644555,-0.0006613677846319618,2.0796371553837914e-05,-0.025398970510717867,-0.0029112548182832158,0.008309957695152484,-0.0004585519188841753,0.3260338306427002,-1.150368408565857,1.6651786009417933,-2.0837894878783167,-1.571369473134176,2.3009443283081055,-0.00037252638139761984,0.02993929758667946,0.03184116631746292,-0.0705852061510086,-1.968856167877675e-06,6.53987008263357e-05,-0.05746084079146385,0.17238251864910126,-9.308656692504883,0.7418897151947021,47.70748519897461,-0.5904881954193115,-3.373899221420288,-1.849055290222168,-0.7146739363670349,-0.017117634415626526,-0.01653190702199936,28.0625,30.0,28.5,32.3125,34.8125,36.0
1.0,-1.208622802731203,-1.312067363697298,-0.9924516629188281,-0.056868393425194175,0.036844199155189813,-0.10245174104489327,-0.5387369671917005,-0.3241396233146205,0.25818988874350846,-3.0785839366885557,0.6246709149197271,-0.000304514702258514,-0.0009010205158279625,-7.170497385953024e-05,-0.025679537801588926,-0.0034610237295825915,0.009910862178677933,-0.00044194323288143623,0.32606983184814453,-1.1503442388824006,1.6652739683734339,-2.0839458904662074,-1.571345631276266,2.300992488861084,-0.0003559084434527904,0.030655233189463615,0.03208140283823013,-0.07323405146598816,-1.2855224440500024e-07,6.446188490372151e-05,0.0,0.2106897532939911,-9.289502143859863,0.7217512726783752,47.723602294921875,-0.5522556900978088,-3.315931797027588,-1.8429419994354248,-0.6660333871841431,-0.03160907328128815,0.004543188028037548,28.0625,30.0,28.5,32.3125,34.8125,36.0
1.0,-1.1558446946974135,-1.0949066143545112,-1.1487492098311693,-0.05981080010240992,0.02617376475299419,-0.10641738587649084,-0.5387558972140444,-0.32412674223714666,0.2580542530466703,-3.078544089944237,0.624681388822644,-0.00029398401943487044,-0.0009766470914485085,-0.00011786384026693464,-0.027937481568604632,-0.0035933272851950706,0.010277373233644815,-0.00040978138666928477,0.3260458707809448,-1.1501634877971192,1.6653950850116175,-2.0842348537840785,-1.5713813940631312,2.3009800910949707,-0.00032390712294727564,0.0334530808031559,0.03459683805704117,-0.07893691956996918,-5.480383369338426e-10,6.266653508646414e-05,-0.1149216815829277,0.19153612852096558,-9.385271072387695,0.5807611346244812,47.74509811401367,-0.5384870767593384,-3.427492141723633,-1.9465023279190063,-0.602712094783783,-0.022398702800273895,-0.008516698144376278,28.0625,30.0,28.5,32.3125,34.8125,36.0
1.0,-1.1266838995888555,-1.2980540556127211,-1.2071672746224487,-0.053657154662551006,0.02560624520328237,-0.10102253836440041,-0.5387561814124061,-0.32414240360402247,0.25801313300301765,-3.0785928328508283,0.6245956092698881,-0.00021189696128039637,-0.0011362368709893365,-0.00019910180885423463,-0.027998441609018196,-0.004043999941187311,0.011596346668294637,-0.00036811728382305994,0.3260698616504669,-1.1501034659198304,1.6654427687274378,-2.084403177300924,-1.5713813940631312,2.3009443283081055,-0.00028241894324310124,0.033783525228500366,0.03468625992536545,-0.08075062930583954,-3.5782987684029877e-11,6.180579657666385e-05,-0.038307227194309235,0.2106897532939911,-9.366117477416992,0.6523714661598206,47.68867492675781,-0.5484122633934021,-3.434612512588501,-2.0320000648498535,-0.5708771347999573,-0.011854644864797592,-0.005461919121444225,28.0625,30.0,28.5,32.3125,34.8125,36.0
1.0,-1.3171108739723432,-1.6385685023989547,-1.194871428303454,-0.04659488527356809,0.01823901707430682,-0.09350574842695927,-0.5387567555308865,-0.32412703509423557,0.2579301653139299,-3.078568493293826,0.6246291300212774,-0.0002587991262201502,-0.0016903606517657255,-0.00039906532589926617,-0.027439467834448106,-0.004831229321695327,0.01390525486059177,-0.0003503910324669357,0.3260459005832672,-1.150019423370697,1.665549103413717,-2.0845591030516566,-1.5713813940631312,2.3009443283081055,-0.0002648771624080837,0.03414442390203476,0.03322025015950203,-0.08208493888378143,-2.3363734991815877e-12,6.096844299463555e-05,0.0,0.15322890877723694,-9.346963882446289,0.6568484306335449,47.71733474731445,-0.5503479242324829,-3.4289040565490723,-1.925623893737793,-0.5311132669448853,-0.042167920619249344,-0.012191832065582275,28.0625,30.0,28.5,32.3125,34.8125,36.0
1.0,-0.8184877247986635,-1.349506639985766,-1.1927898596156996,-0.04410028404481732,0.019313187415578113,-0.10760737687874233,-0.5387593948404388,-0.324139417519284,0.2579138039081048,-3.07866637933463,0.6246301098123807,-0.0001119081614247498,-0.0014101865083848797,-0.00028208121880015757,-0.028240840495360575,-0.004023966166170803,0.011531699388897471,-0.00038216793437050544,0.3260578215122223,-1.1499951642802735,1.665598217641012,-2.084761758843893,-1.571345631276266,2.3009443283081055,-0.0002981082652695477,0.034672513604164124,0.03404254838824272,-0.0809282511472702,-1.5254847894868168e-13,6.0153452068334445e-05,0.0,0.17238251864910126,-9.404424667358398,0.7306999564170837,47.72002029418945,-0.6025179028511047,-3.40655255317688,-1.872124433517456,-0.5023131370544434,-0.03600569814443588,0.003370008897036314,28.0625,30.0,28.5,32.3125,34.8125,36.0
1.0,-0.7860900581892143,-0.7879948152515079,-1.0998085041082315,-0.049328492246794184,0.008294539707216327,-0.10416789918579494,-0.5387782096127567,-0.3241317514279991,0.2578437008057672,-3.0786193349930544,0.6246587590478563,-3.4301081018390316e-05,-0.0007298151911604574,-3.9229088188409625e-05,-0.02934135580476538,-0.0028478329165624802,0.008079156567667554,-0.0003977938323364442,0.3260458707809448,-1.1498871904662629,1.665647331868307,-2.0849410496153773,-1.5714057127581995,2.3009562492370605,-0.0003153753641527146,0.03479675576090813,0.03601725399494171,-0.07937981933355331,-9.960324801267309e-15,5.9359968872740865e-05,0.0,0.038307227194309235,-9.385271072387695,0.7441308498382568,47.702110290527344,-0.641960620880127,-3.488555431365967,-2.020723342895508,-0.5078551173210144,-0.01711495779454708,-0.015212807804346085,28.0625,30.0,28.5,32.3125,34.8125,36.0
1.0,-0.36260086057116514,-0.5429604473328735,-1.12691119350537,-0.04170790374730387,0.00934144583603503,-0.11464250474101283,-0.5387698680335133,-0.3241093344446097,0.25775314782002934,-3.0786040588069374,0.6246752621039987,-0.00017920503612033352,-0.0006655104384008958,1.6169536402568324e-06,-0.030077713346596015,-0.001682523632672777,0.0046529101180141225,-0.00042473399510104735,0.3260098695755005,-1.1498150390437623,1.665778938923971,-2.0850593052306117,-1.571369473134176,2.3009324073791504,-0.0003444354224484414,0.03582702949643135,0.035569485276937485,-0.07634332776069641,-6.503380796768997e-16,5.858715303475037e-05,0.038307227194309235,0.038307227194309235,-9.327810287475586,0.6478998064994812,47.734352111816406,-0.5989326238632202,-3.3890881538391113,-1.9439423084259033,-0.5138896107673645,-0.01829064078629017,-0.007596913725137711,28.0625,30.0,28.5,32.3125,34.8125,36.0
1.0,-0.31921572050818003,-0.6576768065665073,-1.015784159043334,-0.029307793481046014,-0.0029550390759181654,-0.10336066775889596,-0.5387626868138488,-0.32413673812201055,0.25771175848813344,-3.0786235132062854,0.6246788914523448,-8.932651579839856e-05,-0.00033428123416919805,0.00011337096685208698,-0.031183756317678817,-0.0003592709754888254,0.0007621909887225155,-0.0004211005612551774,0.3260577917098999,-1.1497547191432496,1.6658266226397913,-2.085226675073141,-1.5713813940631312,2.3009800910949707,-0.0003428037161938846,0.03676772490143776,0.036194074898958206,-0.0737990289926529,-4.246243000779302e-17,5.78342005610466e-05,0.07661445438861847,0.05746084079146385,-9.251194953918457,0.6702793836593628,47.702110290527344,-0.6103928685188293,-3.4917678833007812,-1.9401931762695312,-0.5407103300094604,-0.02822471410036087,-0.006273510865867138,28.0625,30.0,28.5,32.3125,34.8125,36.0
1.0,0.36674807771874773,-0.20848640049784942,-0.9479604885210065,-0.02653765574820785,0.004639834583922855,-0.11050818123576774,-0.5387843818468148,-0.3241116783838614,0.2576476109599899,-3.078616170932274,0.6247544642615538,-3.1817936414760034e-05,-0.00033777978047297354,0.00031990528303482295,-0.031204658412018214,-4.247938230835198e-05,-0.00016659131358268874,-0.0007399578151531351,0.32600975036621094,-1.149670587187149,1.6658981482135218,-2.0854178867735804,-1.5713933149920862,2.3009800910949707,-0.0006628344999626279,0.03667118027806282,0.03611719608306885,-0.07264427840709686,-2.7724935191378724e-18,5.710030745831318e-05,0.09576806426048279,-0.05746084079146385,-9.251194953918457,0.7127973437309265,47.71375274658203,-0.6534447073936462,-3.5660524368286133,-1.9349780082702637,-0.5365684032440186,-0.036713555455207825,0.004443400539457798,28.0625,30.0,28.5,32.3125,34.8125,36.0
1.0,0.1767682351045491,-0.2770471947539704,-0.869908561951717,-0.02350608489657208,-0.0012865162480120915,-0.10736024064383003,-0.5387866034854141,-0.3241407751121775,0.25760270656644996,-3.07868668515046,0.6246730839224168,-3.863387093146309e-05,-0.0005615428774494221,0.000321631138015819,-0.03097209589466671,3.9131877876397595e-05,-0.0004067453287292693,-0.0008588906250055099,0.3260457217693329,-1.149586783056595,1.6659100691424769,-2.085536619225973,-1.571345631276266,2.3009562492370605,-0.0007828397210687399,0.03682968020439148,0.035122498869895935,-0.07155444473028183,-1.810240051120435e-19,5.638486618408933e-05,0.17238251864910126,0.0,-9.232041358947754,0.7195101380348206,47.70658874511719,-0.5739455223083496,-3.4595537185668945,-1.8251452445983887,-0.5674519538879395,-0.02651292271912098,-0.011142408475279808,28.0625,30.0,28.5,32.3125,34.8125,36.0
1.0,-0.2620889154873205,-0.40979035913215583,-0.7358194180995751,-0.026408069316892904,-0.014944479280245901,-0.10647055986725731,-0.5387853590649874,-0.3241312791086803,0.2575503157944957,-3.078671184948829,0.6247274874559569,-1.3666435046150622e-05,-0.0005399779635122384,0.00033870957739241814,-0.03153682174425022,0.0004901816610834818,-0.0017358637060428943,-0.0008727437774580998,0.32603368163108826,-1.1495386821082612,1.6659944693194788,-2.0856806240477503,-1.571357552205221,2.3009800910949707,-0.0007977330242283642,0.03756341710686684,0.03526439890265465,-0.071026511490345,-1.1819574887040976e-20,5.568714186665602e-05,0.2298433631658554,0.0,-9.136273384094238,0.6971306204795837,47.694053649902344,-0.6007401347160339,-3.5631189346313477,-1.7784696817398071,-0.5865015983581543,-0.04088423028588295,-0.007797348313033581,28.0625,30.0,28.5,32.3125,34.8125,36.0
1.0,0.0025476053465026682,-0.41470439109210516,-0.7336891424598261,-0.027577144894200222,-0.0038298511921956817,-0.10897273397135579,-0.5387647722109251,-0.324129580614388,0.25748844545543975,-3.078650185172407,0.6246657128373876,-2.8128068619800508e-05,-0.00019408008692631956,0.00043085162263199837,-0.03276930386237999,0.0016029153263691109,-0.005009066830242463,-0.0008316563347209411,0.3260457217693329,-1.1495022040656586,1.6661136786090296,-2.085811754266256,-1.5713813940631312,2.3009562492370605,-0.0007581598474644125,0.03859322518110275,0.03631902486085892,-0.06965377181768417,-7.717338135791263e-22,5.5006446928018704e-05,0.2106897532939911,-0.05746084079146385,-9.232041358947754,0.6590895652770996,47.745994567871094,-0.5761123299598694,-3.4905402660369873,-1.8520158529281616,-0.6038120985031128,-0.025602707639336586,-0.003932062070816755,28.0625,30.0,28.5,32.3125,34.8125,36.0
1.0,-0.10584293869338507,-0.7804524284917868,-0.7271406163133594,-0.0204091371355618,-0.008550084042315397,-0.11549453154505769,-0.5387945622346033,-0.32411219636778404,0.25741615748801855,-3.0786495514502286,0.6247620055987506,-9.05927230262571e-05,-0.0002157503856281013,0.0006343049473830843,-0.03266872420637238,0.0019178460346764793,-0.005932433083448808,-0.0011553074338662883,0.32599756121635437,-1.1493823689273377,1.6661375204669397,-2.085930486718649,-1.571345631276266,2.3009681701660156,-0.0010829975362867117,0.03838970512151718,0.036046940833330154,-0.06820257008075714,-5.038869858027111e-23,5.434215199784376e-05,0.19153612852096558,-0.07661445438861847,-9.136273384094238,0.6747510433197021,47.704795837402344,-0.5558652281761169,-3.5821878910064697,-1.7657350301742554,-0.6350730657577515,-0.01908266171813011,-0.01440936978906393,28.0625,30.0,28.5,32.3125,34.8125,36.0
1.0,-0.13193528927157727,-0.763689394869245,-0.7373943274860991,-0.020291024513749038,-0.018272791571308677,-0.09949131893225711,-0.5387684126374294,-0.32412667110152843,0.2573115898658053,-3.0786347073758096,0.6246822024853821,-0.0001731656719848478,7.621715995168727e-06,0.0006929721776111411,-0.033342573100384125,0.0026909767111102183,-0.008204706305476228,-0.0011271650970667276,0.3260335922241211,-1.1492863458446045,1.666281525288717,-2.086109777490133,-1.571345631276266,2.3009562492370605,-0.001056203036569059,0.03893788903951645,0.03650043532252312,-0.06680405139923096,-3.2900219108081677e-24,5.3693776862928644e-05,0.2298433631658554,-0.019153613597154617,-9.155426979064941,0.6881819367408752,47.71464920043945,-0.5656813979148865,-3.4427895545959473,-1.7770438194274902,-0.676872968673706,-0.04486466199159622,-0.007203405722975731,28.0625,30.0,28.5,32.3125,34.8125,36.0
1.0,0.5653427952280802,-0.04291066212557773,-0.7232157301270408,-0.037354182659840314,-0.0016658449717488633,-0.11847012843033829,-0.5387858248059059,-0.3241016723328362,0.2572732880031096,-3.078590822295634,0.6246735695989348,-6.962642263743495e-05,-7.487996696155328e-05,0.0006504240410954484,-0.03516369900572359,0.0036712628123485255,-0.01110221565135888,-0.0011033968201383001,0.32599759101867676,-1.1492371720126648,1.6663296858416956,-2.086241384545797,-1.5714176336871546,2.3009204864501953,-0.001033505774103105,0.04153519868850708,0.03702934458851814,-0.06687141954898834,-2.148149349678633e-25,5.306068487698212e-05,0.2298433631658554,0.019153613597154617,-9.21288776397705,0.7239871025085449,47.71017074584961,-0.6261188983917236,-3.6884236335754395,-1.7945667505264282,-0.7129555940628052,-0.03919351473450661,-0.008846991695463657,28.0625,30.0,28.5,32.3125,34.8125,36.0
1.0,-0.25408202176412537,-1.1976790363222394,-0.8463329735513309,-0.023518134666938677,-0.016446698199097158,-0.10993391158151358,-0.5387740003785924,-0.3241338731638634,0.2572210535596751,-3.0786374433901713,0.6246826377359211,-9.242777753395656e-05,7.414168116731324e-07,0.000675776282157258,-0.034758807413303075,0.0035619844736902557,-0.010774854217089907,-0.0011022305905799747,0.3260456323623657,-1.1491656762412568,1.6663783232318323,-2.0863729916014613,-1.571369473134176,2.3009681701660156,-0.0010330030927434564,0.04087648168206215,0.0369388647377491,-0.06646734476089478,-1.4025879102095547e-26,5.244229396339506e-05,0.19153612852096558,0.15322890877723694,-9.155426979064941,0.7374180555343628,47.693153381347656,-0.5954541563987732,-3.611556053161621,-1.78562331199646,-0.7240816950798035,-0.0252450630068779,-0.016067910939455032,28.0625,30.0,28.5,32.3125,34.8125,36.0
1.0,-0.08403573655060428,-0.6334462714106921,-0.7857804359791278,-0.05063052973906353,-0.00535392333309447,-0.10539490117996866,-0.538774154697466,-0.32412078416520085,0.257133686351009,-3.0786027916037315,0.624714264501398,-0.00024182742618483294,0.0004571006106698413,0.0008368953286446712,-0.034845641849154604,0.004022697416941917,-0.012122476421217398,-0.001110219455993473,0.32602155208587646,-1.1490701001933594,1.666462246571676,-2.086456438104147,-1.571345631276266,2.3009681701660156,-0.0010420643957331777,0.04011936113238335,0.037924133241176605,-0.06527129560709,-9.157897033918415e-28,5.183820758247748e-05,0.2106897532939911,0.13407529890537262,-9.21288776397705,0.6613254547119141,47.71375274658203,-0.5791386961936951,-3.532076120376587,-1.8156278133392334,-0.788000762462616,-0.035826366394758224,-0.006008910946547985,28.0625,30.0,28.5,32.3125,34.8125,36.0
1.0,-0.6835054551718016,-1.6061645670044,-0.9166043397798526,-0.06378946314755679,0.012069295975073238,-0.09971973534008109,-0.5387780537976301,-0.3241170891681034,0.2569871937235887,-3.0785433533878086,0.6246830804296606,-0.00026806850699502414,-0.00013056837801330833,0.0006262553785274269,-0.035667537776713075,0.0028920262816996773,-0.008819355624511083,-0.001094437358645235,0.32602155208587646,-1.1488895875266572,1.6666057745562952,-2.086733480493063,-1.5713933149920862,2.3009562492370605,-0.0010253634536638856,0.042083971202373505,0.038396332412958145,-0.07119937241077423,-3.9041552814538536e-30,5.067082747700624e-05,0.07661445438861847,0.2106897532939911,-9.155426979064941,0.6926589012145996,47.72629165649414,-0.6430745720863342,-3.507115364074707,-1.8101308345794678,-0.7886083126068115,-0.038343966007232666,0.005680878181010485,28.0625,30.0,28.5,32.3125,34.8125,36.0
1.0,-0.9874021982983752,-1.6051338590803885,-0.7662982715872599,-0.07530292247569953,0.020164399722439493,-0.10547687672947806,-0.53877969313919,-0.3241098632082347,0.2569329918198224,-3.0785199556949285,0.6247357767846988,-0.0003020183278438199,-0.0002009625312130219,0.0007352449471461556,-0.03698546126648909,0.003548906946584179,-0.010610968777551005,-0.0012904057370671147,0.3260095715522766,-1.1488288801959534,1.6666658560382288,-2.0868293247618617,-1.5713933149920862,2.3009800910949707,-0.0012221132637932897,0.043812453746795654,0.03909831866621971,-0.07172203809022903,-4.827591692446731e-05,5.010658423998393e-05,0.07661445438861847,0.2106897532939911,-9.174580574035645,0.6904177665710449,47.67792892456055,-0.6034591197967529,-3.72279691696167,-1.8295931816101074,-0.816798985004425,-0.036831069737672806,0.007089491002261639,28.0625,30.0,28.5,32.3125,34.8125,36.0
1.0,-0.41901265529849374,-1.7037670711488855,-0.8585059536809752,-0.07038632913309711,0.04279529257204556,-0.11046174094416727,-0.5387730432855854,-0.3241075879678199,0.2568421023947116,-3.078504677586387,0.6246945203871306,-0.00036511026253003263,-0.0004938370143923598,0.0006091267310163416,-0.03693080547565519,0.002276638799790454,-0.006832342586766407,-0.0012240295525337132,0.3260095715522766,-1.148732916717865,1.666774098073141,-2.086987157861227,-1.5713933149920862,2.3009562492370605,-0.0011788549600169063,0.044079411774873734,0.03970570117235184,-0.07658340036869049,-6.35214673820883e-05,2.5119021302089095e-05,0.038307227194309235,0.3064578175544739,-9.193734169006348,0.7351769208908081,47.65374755859375,-0.6089316606521606,-3.6190319061279297,-1.7731187343597412,-0.8104987144470215,-0.019617406651377678,-0.00910893827676773,28.0625,30.0,28.5,32.3125,34.8125,36.0
1.0,-0.7157743531488213,-1.7479243387626036,-0.966370889408186,-0.06527066865640162,0.03757815946483745,-0.10982153750922241,-0.5387719540336579,-0.3241072274104808,0.2567782133096182,-3.0785115760332866,0.6246959528992357,-0.000346745025054143,-0.00063759761065262,0.0005472621851978847,-0.03523779849256144,-1.8339636420690817e-05,-8.031039972630054e-05,-0.0011834424877259118,0.326009601354599,-1.1486616891673584,1.6668580214129847,-2.087155958215231,-1.5713933149920862,2.3009562492370605,-0.0011592115042731166,0.041811179369688034,0.040252167731523514,-0.08199304342269897,-6.366271554725245e-05,1.6400924778281478e-06,-0.019153613597154617,0.24899697303771973,-9.21288776397705,0.6411817073822021,47.745994567871094,-0.6336970329284668,-3.5527164936065674,-1.9028924703598022,-0.7818485498428345,-0.03002109006047249,0.0037462133914232254,28.0625,30.0,28.5,32.3125,34.8125,36.0
1.0,-0.870271663353688,-2.041945450281474,-1.0579639236854592,-0.060073896244642225,0.036533415299591004,-0.10489722825814705,-0.538764865020301,-0.3241281117952859,0.25669572052910894,-3.0785121029187845,0.6246385673688443,-0.0003768591884783655,-0.0010627167507045005,0.0005142266852793387,-0.036314977395576396,-0.0008276685610411978,0.0022775897422628007,-0.0013555978121437332,0.32604551315307617,-1.1485533279231568,1.6669300238238733,-2.0873142681517542,-1.5713933149920862,2.3009562492370605,-0.0013310621725395322,0.043668653815984726,0.041340604424476624,-0.0874318778514862,-6.28415000392124e-05,1.0708632203204616e-07,0.1149216815829277,0.24899697303771973,-9.232041358947754,0.6859408020973206,47.668975830078125,-0.6270612478256226,-3.532668113708496,-1.7802528142929077,-0.7466604709625244,-0.04010072350502014,-0.00842287391424179,28.0625,30.0,28.5,32.3125,34.8125,36.0
1.0,-0.9759902213581508,-1.8604695011869015,-1.0768239061201215,-0.060230687452752965,0.028129384090290206,-0.1008904544378783,-0.5387664707070624,-0.3241311685034632,0.2566346107394132,-3.078559917881227,0.6246292876780207,-0.00033066870670959124,-0.00163279993653133,0.0002658695535295666,-0.03639837880406466,-0.001936320212952956,0.005520003130933933,-0.0012733609286535857,0.32604554295539856,-1.1484808188727875,1.667013947163717,-2.0875188312926234,-1.571369473134176,2.3009443283081055,-0.0012473470997065306,0.04477394372224808,0.04092204198241234,-0.09154531359672546,-6.198040500748903e-05,6.991971890357718e-09,0.09576806426048279,0.15322890877723694,-9.327810287475586,0.6904177665710449,47.71196365356445,-0.5709811449050903,-3.645374298095703,-1.832850456237793,-0.7136795520782471,-0.020849157124757767,-0.00462231645360589,28.0625,30.0,28.5,32.3125,34.8125,36.0
1.0,-0.9270883001812531,-1.6304273145723318,-1.1561529224408886,-0.06050431515017863,0.03115573235417557,-0.10615597612196916,-0.5387720336886395,-0.32412121113411085,0.25656838511007357,-3.0786009152400187,0.624676300737912,-0.0003094657461059972,-0.001969292755658514,9.109071327506638e-05,-0.036586331161675215,-0.0031246103346339975,0.008999368232561726,-0.0011823439531826892,0.3260215222835541,-1.1484087866595765,1.6671102682696741,-2.0877238712706507,-1.5713337103473108,2.3009443283081055,-0.0011544576846063137,0.04548107832670212,0.041485775262117386,-0.09649286419153214,-6.113864219514653e-05,4.5652578939403554e-10,-0.038307227194309235,0.2106897532939911,-9.28950309753418,0.6948947906494141,47.704795837402344,-0.6474077701568604,-3.6764426231384277,-1.8489173650741577,-0.6377658247947693,-0.042855311185121536,-0.00280944025143981,28.0625,30.0,28.5,32.3125,34.8125,36.0
1.0,-0.6530813016640531,-1.4433984470237247,-1.144087791527978,-0.06798288959952288,0.041571259009034064,-0.1093231350545382,-0.5387856232914738,-0.3241118535396707,0.25648138403443066,-3.0785309055599686,0.6247383879436756,-0.0002760701387836769,-0.0021460820610393295,-4.7452198490199116e-05,-0.035916137262272836,-0.004189019021792435,0.012125316799436436,-0.0010629691031017257,0.3260096311569214,-1.1482890111259003,1.6671817938434046,-2.087905069390768,-1.5713933149920862,2.3009800910949707,-0.0010338847059756517,0.04489044472575188,0.0413798987865448,-0.0990985557436943,-6.031919110682793e-05,2.980787144890584e-11,0.019153613597154617,0.2298433631658554,-9.27034854888916,0.7239871025085449,47.71375274658203,-0.6474682688713074,-3.621753215789795,-1.8485431671142578,-0.6079497337341309,-0.03336257115006447,-0.012831846252083778,28.0625,30.0,28.5,32.3125,34.8125,36.0
1.0,-0.8771296862225666,-1.3814750069848416,-1.196552848500844,-0.054576457067916855,0.033138698162065605,-0.10609921162343276,-0.5387879727096107,-0.32411268018030365,0.2564034185610894,-3.078546426781362,0.6246651018844671,-0.0002751438900102951,-0.0020673109417001217,-0.00011275417170830617,-0.037151284557066386,-0.004607874910097274,0.013341506379395266,-0.00092242267080112,0.32600969076156616,-1.1481925708106537,1.6672652403460901,-2.088085790673727,-1.5713933149920862,2.3009324073791504,-0.0008918381645344198,0.04616919904947281,0.043454840779304504,-0.10373853892087936,-5.952136416453868e-05,1.946240911487873e-12,-0.038307227194309235,0.15322890877723694,-9.404424667358398,0.6814691424369812,47.730770111083984,-0.6742935180664062,-3.612269401550293,-1.7980831861495972,-0.5265628695487976,-0.024043986573815346,-0.006224527955055237,28.0625,30.0,28.5,32.3125,34.8125,36.0
1.0,-0.7017384681564187,-1.0719575654638926,-1.1882543232091147,-0.05297840851178841,0.02694450832363593,-0.10493910075833508,-0.5387900587195424,-0.3241003432740715,0.2563041659072628,-3.07853529867253,0.6247586567385314,-0.0003295372884497889,-0.001909648642405671,-9.155778141846687e-05,-0.03767473184395235,-0.004004569416306267,0.011565765080562873,-0.000871859848581566,0.32598575949668884,-1.1480845671943207,1.6673858801471155,-2.0882884464659632,-1.571369473134176,2.3009681701660156,-0.0008418300421908498,0.046658340841531754,0.043709930032491684,-0.10260733962059021,-5.8744339185068384e-05,1.270756232445852e-13,0.019153613597154617,0.1149216815829277,-9.366117477416992,0.7038487195968628,47.71196365356445,-0.6509691476821899,-3.6363072395324707,-1.9299191236495972,-0.5211731791496277,-0.03678860515356064,-0.012364150956273079,28.0625,30.0,28.5,32.3125,34.8125,36.0
1.0,-0.6855080762833523,-0.7516370181132693,-1.1070541831060843,-0.0478443487605808,0.01591394297204056,-0.10463976006718691,-0.5387933729555573,-0.3241235006015668,0.2562428912473855,-3.0785742268174574,0.6247282579954124,-0.00020683699613039774,-0.0024421172786088436,-0.0003216558297329745,-0.036933133456502544,-0.00417502879766173,0.012061216500311618,-0.0007963805170742329,0.32602164149284363,-1.147988424902298,1.6674450079547327,-2.088527341882223,-1.5713813940631312,2.3009800910949707,-0.0007667872123420238,0.04696248471736908,0.04122850298881531,-0.10095401108264923,-5.798735219286755e-05,8.297130716587286e-15,-0.019153613597154617,0.07661445438861847,-9.385271072387695,0.7105615139007568,47.73883056640625,-0.686409592628479,-3.6644387245178223,-1.7358198165893555,-0.5077816247940063,-0.0348203219473362,-0.007857675664126873,28.0625,30.0,28.5,32.3125,34.8125,36.0
1.0,-0.0557791960504605,-0.9185847510744075,-1.2030803722791727,-0.024161005947993523,0.014398495576069486,-0.10945272118303762,-0.5387910377516537,-0.32411620461464885,0.25614268586881195,-3.0785696256532233,0.6247083219758793,-0.0002676203181168665,-0.0018896456019899908,-0.00012253665389727231,-0.03858256220542157,-0.0023314818589944795,0.0066702424932438545,-0.0008101115921098907,0.32600972056388855,-1.147880182867386,1.6675646940814417,-2.088717599908346,-1.571369473134176,2.3009562492370605,-0.000782162242103368,0.04820319265127182,0.042535874992609024,-0.09780459851026535,-6.720639794366434e-05,5.417432677620965e-16,0.07661445438861847,0.038307227194309235,-9.366117477416992,0.6881819367408752,47.73883056640625,-0.6951802968978882,-3.6883647441864014,-1.7352945804595947,-0.5303996801376343,-0.03201030567288399,-0.004591390490531921,28.0625,30.0,28.5,32.3125,34.8125,36.0
1.0,-0.017183327273105203,-0.6505932008715067,-1.2613206159094545,-0.02190030246105321,0.005821074284358448,-0.10459075649306744,-0.538797672087109,-0.3241236932307167,0.256105522314983,-3.078574856538257,0.6247285162283628,-0.00016925517767221293,-0.0013674973750855079,6.359076745531895e-05,-0.03883193654751872,-0.0012107967418579254,0.003386713474726983,-0.000821706552460497,0.32602164149284363,-1.1478205782226105,1.6676009337054651,-2.088872095147604,-1.5713933149920862,2.3009800910949707,-0.0007951557636260986,0.047664910554885864,0.04306834936141968,-0.09432928264141083,-6.77390635246411e-05,3.5371966837164024e-17,0.1149216815829277,-0.019153613597154617,-9.289502143859863,0.6859408020973206,47.70748519897461,-0.72596275806427,-3.61849308013916,-1.7836942672729492,-0.5636674761772156,-0.03440767899155617,-0.00261649745516479,28.0625,30.0,28.5,32.3125,34.8125,36.0
1.0,0.11008899227965534,-0.41207179840244085,-1.0003676108907977,-0.021798871037886736,0.006922532673400189,-0.10713754071692641,-0.5388130074520111,-0.3241030345890976,0.2559907968578564,-3.078532062456922,0.6247391940887395,-0.00020174093004396687,-0.0010496286647529302,0.00018692092295465515,-0.03972223349334679,0.00011927271844247723,-0.0005243120326518914,-0.000843612340402822,0.32598572969436646,-1.1476762753776093,1.667708698903219,-2.089086195031637,-1.5714176336871546,2.3009562492370605,-0.0008184710168279707,0.04838478937745094,0.04339130222797394,-0.09124110639095306,-6.698859215248376e-05,2.3095366603138876e-18,0.15322890877723694,-0.038307227194309235,-9.251194953918457,0.6031407117843628,47.730770111083984,-0.6635199189186096,-3.659740447998047,-1.7709623575210571,-0.5990474820137024,-0.033931780606508255,-0.0030714799650013447,28.0625,30.0,28.5,32.3125,34.8125,36.0
1.0,-0.23433419386229448,0.05065100346644322,-1.04386158960147,-0.018833547962195413,-0.011864577847530991,-0.10844866469259751,-0.5388228188394765,-0.3241035959279823,0.2559116999768819,-3.07856700789634,0.6248040043601517,-0.00022580340619500898,-0.0007813840970460909,0.00028844401358383686,-0.0405004085115218,0.0012812935609814034,-0.003942342300590312,-0.0008581813500605154,0.3259736895561218,-1.1475681525519867,1.6677807013141077,-2.0892769298949183,-1.571369473134176,2.3009800910949707,-0.0008342774235643446,0.04903498664498329,0.04364098608493805,-0.08853083103895187,-6.617353210458532e-05,1.5079624058994163e-19,0.1149216815829277,-0.19153612852096558,-9.366117477416992,0.6658024191856384,47.71464920043945,-0.7419077157974243,-3.68984317779541,-1.7579013109207153,-0.6359714865684509,-0.03052731230854988,-0.006733285263180733,28.0625,30.0,28.5,32.3125,34.8125,36.0
1.0,-0.011137851533884358,-0.21618915122848661,-1.208537669534757,-0.009873384208599107,-0.0033890683281412913,-0.10808047584760024,-0.5388052421306101,-0.3241209687875144,0.2558030848366763,-3.0785558045374013,0.6247058810564197,-0.00030874080964629977,-0.0009335875229682051,0.00024223477924217724,-0.040516487075957786,0.0017460484780162332,-0.005311343752418233,-0.0008661615014298171,0.32600969076156616,-1.1474480491927643,1.6679003874408167,-2.0894557438292445,-1.571369473134176,2.3009562492370605,-0.0008430551970377564,0.04952302202582359,0.04253276810050011,-0.08646491169929504,-6.537286390084773e-05,9.845916290934483e-21,0.13407528400421143,-0.24899697303771973,-9.28950309753418,0.6971306204795837,47.72718811035156,-0.6785176992416382,-3.6986207962036133,-1.6573758125305176,-0.6961080431938171,-0.026577718555927277,-0.0055383797734975815,28.0625,30.0,28.5,32.3125,34.8125,36.0
1.0,-0.16108896460472272,-0.3862601309196907,-1.138109472055669,-0.006300828940696888,0.0008161329970313791,-0.10462976885837821,-0.5388130497030426,-0.3241170530945228,0.255756589025018,-3.0785782517092843,0.6247680650974125,-0.00025393839166892244,-0.000761456136103936,0.00030567370379174923,-0.04055750760123397,0.002183909653990025,-0.006597493433857551,-0.000873204290835906,0.32599765062332153,-1.1473882359317322,1.6679604689227503,-2.089623113671774,-1.571357552205221,2.3009800910949707,-0.0008506915182806551,0.04932078346610069,0.04256417602300644,-0.08493544161319733,-6.459095311583951e-05,6.428679699700206e-22,0.17238251864910126,-0.26815059781074524,-9.27034854888916,0.6792280077934265,47.685096740722656,-0.7001712322235107,-3.710580825805664,-1.5159345865249634,-0.7529003620147705,-0.025932205840945244,0.0028419974260032177,28.0625,30.0,28.5,32.3125,34.8125,36.0
1.0,0.07000036042106562,-0.03184931635548452,-1.149010098065691,-0.019716288221471142,0.006816371011202016,-0.11314989321616666,-0.5388078718538091,-0.32409968568825653,0.25564709377108247,-3.078528368541743,0.6247964806050713,-0.0003710559197101443,-0.0003440723779874089,0.0005749444030236274,-0.041615886975729086,0.00325474734909498,-0.009747742282286032,-0.001068434830685647,0.32597362995147705,-1.1472801131061097,1.668093506489889,-2.08977808574819,-1.571357552205221,2.3009800910949707,-0.001046747318468988,0.04983247071504593,0.043933428823947906,-0.08348910510540009,-6.382747960742563e-05,4.197467976619121e-23,0.2106897532939911,-0.15322890877723694,-9.327810287475586,0.7083203792572021,47.69136428833008,-0.6664069890975952,-3.7251791954040527,-1.654258131980896,-0.7983207702636719,-0.04269813373684883,-0.014278972521424294,28.0625,30.0,28.5,32.3125,34.8125,36.0
1.0,-0.8985926494936054,-0.8053976213533913,-1.1883564089328684,-0.02300727480205003,0.0017847624225587697,-0.09998293770396353,-0.5388131035974573,-0.32411324698932864,0.2555048316397805,-3.0785197225523446,0.62471817262218,-0.0003258625422037514,-0.000483924452013086,0.0005277526628294713,-0.04175922955087801,0.0026977148155005897,-0.00811956273699947,-0.001070178320018797,0.32599759101867676,-1.1470882159522553,1.668225113545553,-2.090114255944723,-1.5713933149920862,2.3009562492370605,-0.0010475392919033766,0.050181638449430466,0.04433714970946312,-0.08596282452344894,-6.235346518224105e-05,1.7894462842060705e-25,0.15322890877723694,-0.13407528400421143,-9.404424667358398,0.6926589012145996,47.7164421081543,-0.7530194520950317,-3.699491500854492,-1.606966495513916,-0.8466863036155701,-0.044894542545080185,-0.011114942841231823,28.0625,30.0,28.5,32.3125,34.8125,36.0
1.0,-0.46922796234173747,-0.8392417340931452,-1.2564090464649937,-0.03908224199234732,0.024996154510503816,-0.10439703812481711,-0.5388081226889929,-0.324113985184223,0.2554374339755099,-3.078533118929968,0.6247020450252906,-0.0003740044390139628,-0.0009795328096501932,0.0005190291136287962,-0.0411004128881344,0.0009302125313390428,-0.0029321277192319514,-0.001318981695208812,0.3259975016117096,-1.147016243343689,1.6683080832110804,-2.09024777034902,-1.571369473134176,2.3009443283081055,-0.0012940875021740794,0.04984546825289726,0.04451873525977135,-0.09128852933645248,-6.164175283629447e-05,1.1683805000532806e-26,0.09576806426048279,-0.07661445438861847,-9.423578262329102,0.7217512726783752,47.71017074584961,-0.6906789541244507,-3.686974048614502,-1.5752499103546143,-0.8385530710220337,-0.038921058177948,-0.013357103802263737,28.0625,30.0,28.5,32.3125,34.8125,36.0
1.0,-0.7907495929828758,-1.0739492688679972,-1.203190496794832,-0.05708620974726322,0.03621224867536238,-0.11099898845638007,-0.5388170657126518,-0.3241092754574431,0.2553357678925073,-3.0785127964948886,0.6247744331092101,-0.00038986207968168474,-0.0010795427769855039,0.00047751663497433785,-0.040754319796500245,-7.333098826256781e-07,-0.00019929874498132155,-0.0013088476258156206,0.3259855806827545,-1.1468845766833802,1.6684044043170374,-2.090464254418844,-1.571369473134176,2.3009800910949707,-0.0012827020836994052,0.04943224415183067,0.04497724026441574,-0.0942208543419838,-6.094601849326864e-05,7.628690361740478e-28,0.07661445438861847,0.0,-9.461885452270508,0.7038487195968628,47.700321197509766,-0.6902822852134705,-3.583142042160034,-1.599714756011963,-0.830041766166687,-0.03160470351576805,-0.006975981872528791,28.0625,30.0,28.5,32.3125,34.8125,36.0
1.0,-1.0337381487524802,-1.30304708719027,-1.342793150510885,-0.06907126462957015,0.046627531031442106,-0.109136988286572,-0.5388100984310624,-0.3241146510777665,0.25525768053742276,-3.078531939071242,0.6247210538022473,-0.0003686568716088296,-0.0015193936831055755,0.0003116843744547824,-0.040266126132606335,-0.0023581859901415213,0.006745434265431304,-0.0012859816404930525,0.325997531414032,-1.1468006831458588,1.668511692677633,-2.0906712017455042,-1.571369473134176,2.3009562492370605,-0.0012565228389576077,0.04920991510152817,0.04603290930390358,-0.10238813608884811,-6.900181324454024e-05,4.9809892817449594e-29,0.13407529890537262,0.09576806426048279,-9.557653427124023,0.7553206086158752,47.71017074584961,-0.7175041437149048,-3.494901180267334,-1.579156756401062,-0.7963976860046387,-0.027381334453821182,-0.022144928574562073,28.0625,30.0,28.5,32.3125,34.8125,36.0
1.0,-1.487676229769475,-2.280647232686352,-1.3334979802502624,-0.06641415747994946,0.05229813555010863,-0.103763297641657,-0.5388189151312832,-0.3240917721733581,0.25518013329150147,-3.07850566497393,0.624716112501661,-0.00036701414484548937,-0.0022832446170551403,0.000260206799589553,-0.041074605082838764,-0.0032579523544391115,0.009372494523856688,-0.001608338594077073,0.32596153020858765,-1.1467160743526001,1.6686080137835901,-2.09083952526235,-1.5713933149920862,2.3009204864501953,-0.0015771773178130388,0.051366616040468216,0.04596515744924545,-0.10725394636392593,-6.944871711311862e-05,3.2522298760697356e-30,0.019153613597154617,0.15322890877723694,-9.519346237182617,0.6881819367408752,47.72808074951172,-0.701603889465332,-3.596017360687256,-1.5941340923309326,-0.7156549692153931,-0.01964537799358368,0.004351074807345867,28.0625,30.0,28.5,32.3125,34.8125,36.0
1.0,-1.2249258261929485,-1.7721767021257067,-1.3467354471960598,-0.09278609982401839,0.06521253601243243,-0.11211489668516283,-0.5388194985805854,-0.32409195628552584,0.2550792279944476,-3.0784901035670518,0.6248284674104513,-0.0003488460927161438,-0.0021836274990135194,0.0002667418460475548,-0.039409992943969456,-0.0054249178361001444,0.015551104593223059,-0.0015795312695110815,0.32596153020858765,-1.146597073679306,1.6687286535846155,-2.091092725793356,-1.5713933149920862,2.300992488861084,-0.0015458596171811223,0.04867175221443176,0.04707399755716324,-0.11221534758806229,-4.53450456916471e-06,2.1234736508338826e-31,-0.05746084079146385,0.24899697303771973,-9.53849983215332,0.6568484306335449,47.70121383666992,-0.6943010091781616,-3.423262596130371,-1.6176141500473022,-0.6745729446411133,-0.04555580019950867,0.005949633661657572,28.0625,30.0,28.5,32.3125,34.8125,36.0
1.0,-1.6131059478628336,-1.9175103092677657,-1.4165246870058945,-0.08725955798152893,0.043882995047523896,-0.09663081542201173,-0.5388253803548635,-0.3241016074316855,0.2550130224114858,-3.078519960930938,0.6247767375801533,-0.0002985973183152235,-0.0023368785113366186,0.0004458860609673864,-0.03930093489242448,-0.006678628670989451,0.01921910455157497,-0.0019385119138366751,0.3259733319282532,-1.1465012294105072,1.6687892119037073,-2.0912863216795863,-1.5713933149920862,2.3009681701660156,-0.0019028771203011274,0.04830417037010193,0.048449624329805374,-0.11709973961114883,-2.9607073770421266e-07,1.3864764850116873e-32,-0.038307227194309235,0.26815059781074524,-9.53849983215332,0.6769921779632568,47.71375274658203,-0.6916478872299194,-3.306068181991577,-1.6598429679870605,-0.6116070747375488,-0.037422358989715576,-0.023956917226314545,28.0625,30.0,28.5,32.3125,34.8125,36.0
1.0,-1.1982756584049779,-1.878942300069228,-1.3729631762617507,-0.08152503551510412,0.04507407304646577,-0.11087979967426839,-0.5388425019082429,-0.3241099624795333,0.2549640380426873,-3.0786153456330854,0.6247771341506471,-0.00012194597625895153,-0.00262942735556993,0.00024921948883100157,-0.03939762618193335,-0.007257948876069115,0.020913384676666456,-0.0017896546026296464,0.32597339153289795,-1.1464171570590516,1.6688483397113245,-2.0915738544859828,-1.571369473134176,2.3009562492370605,-0.0017531531630083919,0.04901542887091637,0.04818633943796158,-0.11933829635381699,-1.933130455711307e-08,9.052700564163292e-34,0.019153613597154617,0.26815059781074524,-9.557653427124023,0.6881819367408752,47.7244987487793,-0.6788887977600098,-3.3463268280029297,-1.4939295053482056,-0.5539681911468506,-0.04306300729513168,-0.007704673334956169,28.0625,30.0,28.5,32.3125,34.8125,36.0
1.0,-0.5420969777161924,-1.7233827594045377,-1.4020761112656075,-0.07711576255089138,0.044536135852935754,-0.10422001621257586,-0.5388412722538292,-0.324104481780707,0.2548769161861581,-3.078566639591869,0.6248054321332349,-8.596201689279841e-05,-0.0023443610262770375,0.00032924566364138987,-0.0414633361356451,-0.006358991567015941,0.018258255257901892,-0.0017631772554233878,0.32597339153289795,-1.1463202697089692,1.668957535420553,-2.091778417626852,-1.5714176336871546,2.3009800910949707,-0.0017266517970710993,0.05111352354288101,0.05027147755026817,-0.1207183450460434,-1.2621960143732736e-09,5.910766139271666e-35,0.0,0.24899697303771973,-9.557653427124023,0.7060845494270325,47.70658874511719,-0.685052752494812,-3.4398837089538574,-1.5868384838104248,-0.5360550880432129,-0.034196287393569946,-0.017058882862329483,28.0625,30.0,28.5,32.3125,34.8125,36.0
1.0,-0.49239865417562556,-1.2887003793570033,-1.2892234806975182,-0.06743522763071756,0.020932053426860893,-0.10282726197958991,-0.5388317154542035,-0.3241077799853737,0.2547635290961421,-3.0785691357320215,0.6247676401064749,-6.344597214824153e-05,-0.0014655346551737316,0.000639402905910987,-0.04266693621749031,-0.004013497785361699,0.011372051841741618,-0.001777705112975617,0.3259854316711426,-1.1462003749660035,1.669112507496969,-2.092063089410299,-1.5714295546161097,2.3009681701660156,-0.001743795583024621,0.05127151310443878,0.05144977569580078,-0.11477994173765182,-8.241237553496816e-11,3.859307446177663e-36,0.05746084079146385,0.2298433631658554,-9.557653427124023,0.6859408020973206,47.7244987487793,-0.6854236721992493,-3.4361538887023926,-1.6046563386917114,-0.5698575377464294,-0.05187363922595978,-0.004859541077166796,28.0625,30.0,28.5,32.3125,34.8125,36.0
1.0,-0.11344861825920521,-0.8172298676317429,-1.2498372449447526,-0.040221059381039335,-0.0021410675514619507,-0.1012053495458846,-0.5388450316295177,-0.32409267270221387,0.2546854471614246,-3.0786102051089843,0.624814917415086,-4.3552073647318074e-05,-0.0013809097739457747,0.0008652980962045637,-0.04146551153695498,-0.004331612150021006,0.012623575186204702,-0.0020656567606381023,0.3259493410587311,-1.1461052757552643,1.669208828602926,-2.092290540734762,-1.5713933149920862,2.3009562492370605,-0.002031923271715641,0.04936855658888817,0.051179688423871994,-0.1138940155506134,-9.741916437633336e-05,2.5198521170360985e-37,0.17238251864910126,0.15322890877723694,-9.385271072387695,0.6881819367408752,47.704795837402344,-0.6540266275405884,-3.2744102478027344,-1.5550525188446045,-0.5672356486320496,-0.058386579155921936,-0.010384079068899155,28.0625,30.0,28.5,32.3125,34.8125,36.0
1.0,1.0771999037392204,0.10661189900974627,-1.1864637550635113,-0.033098009892542544,-0.0006238999902732755,-0.1141409694489573,-0.5388475095417057,-0.32411278359174966,0.2545747351888398,-3.0786405266356582,0.6247828979560617,-9.335070593127904e-05,-0.0010837094688973664,0.0010717257586950826,-0.043605757481613196,-0.0018817956467287171,0.005580309530452803,-0.0022164635316510163,0.3259732723236084,-1.1459485751441498,1.6692927519427698,-2.092515607873434,-1.571357552205221,2.3009562492370605,-0.002185150282457471,0.051804136484861374,0.05160723999142647,-0.10930006206035614,-0.0001510536385467276,1.6452831642333432e-38,0.17238251864910126,0.13407528400421143,-9.366117477416992,0.7127973437309265,47.711063385009766,-0.6499525308609009,-3.3823089599609375,-1.600250482559204,-0.6208176016807556,-0.02914835885167122,-0.018249791115522385,28.0625,30.0,28.5,32.3125,34.8125,36.0
1.0,0.807018153875625,0.24128702416813552,-0.7945458997523566,-0.021087607521535923,-0.02569248614157011,-0.11263885728084948,-0.5388493577066377,-0.32407592071035507,0.2545137144949743,-3.07858636388146,0.6248488514612238,-1.4051931838985196e-05,-0.0010592065165422066,0.0012173751894867441,-0.04409359695424375,-0.001265965877413963,0.0037652263821932553,-0.0024275233277096966,0.32592523097991943,-1.1459123355201264,1.6694243589984339,-2.0927068195738734,-1.5714176336871546,2.3009562492370605,-0.002396842697635293,0.05235976353287697,0.05164710059762001,-0.10797884315252304,-0.000149743354995735,1.0742522183329767e-39,0.24899697303771973,-0.07661445438861847,-9.28950309753418,0.7239871025085449,47.702110290527344,-0.658495306968689,-3.4252662658691406,-1.531156063079834,-0.6398603320121765,-0.04410366341471672,-0.009029151871800423,28.0625,30.0,28.5,32.3125,34.8125,36.0
