Tylouw/Master_Thesis_Code/training_data/batch_1/big_rod_t0.2/sample_11_session_1.csv
timestamp[s],tcp_force_x[N],tcp_force_y[N],tcp_force_z[N],tcp_force_rx[Nm?],tcp_force_ry[Nm?],tcp_force_rz[Nm?],tcp_pose_x[m],tcp_pose_y[m],tcp_pose_z[m],tcp_pose_rx[rot_vec_x],tcp_pose_ry[rot_vec_y],tcp_pose_rz[rot_vec_z],tcp_velo_x[m/s],tcp_velo_y[m/s],tcp_velo_z[m/s],tcp_velo_rx[rot_vec_x/s],tcp_velo_ry[rot_vec_y/s],tcp_velo_rz[rot_vec_z/s],q1[rad],q2[rad],q3[rad],q4[rad],q5[rad],q6[rad],qd1[rad/s],qd2[rad/s],qd3[rad/s],qd4[rad/s],qd5[rad/s],qd6[rad/s],tool_acc_x,tool_acc_y,tool_acc_z,current_of_whole_robot[A],voltage_of_whole_robot[V],current_J1[A],current_J2[A],current_J3[A],current_J4[A],current_J5[A],current_J6[A],temp_J1[C],temp_J2[C],temp_J3[C],temp_J4[C],temp_J5[C],temp_J6[C]
1.0259682e-06,-0.3982152,-0.8136875,-0.43723124,-0.036913205,0.027049301,0.00053102965,-0.3728866,-0.32820812,0.059952125,-3.0784469,0.6248973,-0.0002477672,0.0028043722,0.0013373345,-0.0043891533,0.004059112,-0.008779097,3.875555e-05,0.44815025,-1.4708847,2.0095737,-2.1076672,-1.5706977,2.4230914,-7.1692295e-05,0.004614883,0.0049851295,7.0387185e-05,0.00015638713,-0.00011301794,0.038307227,0.21068975,-8.848969,0.7083204,47.66091,-0.19286491,-2.8841124,-2.4318807,-0.5013335,0.09155083,-0.078903474,26.125,27.0,26.125,29.1875,30.25,30.6875
0.002055462,-0.69258684,-0.8557371,-0.4519658,-0.025438301,0.018613148,0.00059249636,-0.37288034,-0.3281923,0.05992689,-3.0784287,0.6248551,-0.0003016137,-0.0003118567,-0.00017028386,-0.0034624517,-0.0005208949,0.0006983089,4.272617e-05,0.44812617,-1.4708607,2.009609,-2.1076834,-1.5706977,2.4230433,-6.894625e-05,0.004882577,0.0050446317,-0.010782848,0.00015308271,-0.000111026246,0.05746084,0.17238252,-8.848969,0.73069996,47.728977,-0.15375184,-2.7131503,-2.3805466,-0.47843236,0.07940367,-0.0877424,26.125,27.0,26.125,29.1875,30.25,30.6875
0.004056994,-0.04651625,-0.26207143,-0.54313004,-0.02850802,0.028068218,-0.0071381596,-0.372901,-0.3282215,0.059944645,-3.0784895,0.6248485,-0.00018128048,-0.001385995,-0.000690206,-0.0031158505,-0.0019464551,0.0036522227,4.456527e-05,0.4481623,-1.4708607,2.0095847,-2.1077554,-1.5706977,2.4230676,-6.6402536e-05,0.005144975,0.004690015,-0.013970543,0.00014989669,-0.0001091034,0.038307227,0.15322891,-8.848969,0.71951014,47.737934,-0.22128458,-3.0693731,-2.6330335,-0.3532601,0.09242658,-0.0812456,26.125,27.0,26.125,29.1875,30.25,30.6875
0.0060564037,0.17682587,-0.24930084,-0.45360702,-0.0035825793,0.017291116,0.0033413623,-0.37291035,-0.3282263,0.05993245,-3.0784993,0.62487,-0.00024697924,-0.00087868114,-0.00044465833,-0.0020263155,-0.001152287,0.0020263349,4.4379623e-05,0.4481382,-1.4708134,2.0095603,-2.1077535,-1.5706614,2.4230556,-6.404015e-05,0.0035049426,0.0027634013,-0.0085944235,0.00014683962,-0.000107246015,0.019153614,0.15322891,-8.887277,0.6546126,47.709274,-0.19330838,-3.0356424,-2.4615688,-0.38833475,0.10065943,-0.07850666,26.125,27.0,26.125,29.1875,30.25,30.6875
0.008055597,0.76663166,0.59486455,-1.0418378,0.023089115,-0.00059564103,-0.00470182,-0.37288654,-0.32821476,0.059906173,-3.0784712,0.62482536,-0.00032227626,-0.0003206812,-0.0001745775,-0.0013311902,-0.00042292086,0.0005320092,4.4012395e-05,0.4481382,-1.4708018,2.0096076,-2.107752,-1.5706614,2.4230313,-6.183965e-05,0.0021785921,0.0016991508,-0.0045410087,0.00014390484,-0.00010545101,0.038307227,0.11492168,-8.983045,0.75084364,47.709274,-0.20693426,-2.9319258,-2.4292932,-0.42807,0.073733345,-0.0879097,26.125,27.0,26.125,29.1875,30.25,30.6875
0.010055737,0.7424589,0.6686787,-1.3712074,0.03953078,-0.00444745,0.0065309694,-0.37290752,-0.32819703,0.059902895,-3.0784404,0.62491566,-0.00028458398,-7.478039e-05,-5.141514e-05,-0.0010721477,-5.665648e-05,-0.00018951148,5.133962e-05,0.4481022,-1.4707901,2.0096076,-2.1077754,-1.5706857,2.4230556,-5.9785823e-05,0.0016984184,0.001230662,-0.002783317,0.00012942289,-0.00011101037,-0.038307227,0.05746084,-9.2703495,0.75755644,47.69763,-0.5417621,-2.2591748,-3.0702941,-0.44814128,0.08357663,-0.15994506,26.125,27.0,26.125,29.1875,30.25,30.6875
0.012054842,0.095234446,-0.052305255,-1.5524827,0.018569427,0.0020592404,-0.005562562,-0.37287343,-0.32821062,0.0598846,-3.0784385,0.62485725,-0.00043719218,-0.00028506326,-5.430942e-05,-0.0034417629,0.0022899427,-0.0050440994,-3.4444445e-05,0.44812614,-1.4707634,2.0096066,-2.1077158,-1.5706376,2.4230433,-0.00024107091,0.008417075,-0.0008847917,-0.001994504,0.00011516635,-0.00020438741,0.076614454,0.0,-9.423578,0.7530795,47.692257,-0.64031345,-2.4297376,-3.2085667,-0.4597065,0.06843658,-0.20676401,26.125,27.0,26.125,29.1875,30.25,30.6875
0.014054665,-0.70247126,-0.65214276,-1.6906931,-0.02417223,0.019925203,-0.0035837796,-0.37288752,-0.32818797,0.05987284,-3.0783617,0.6247829,-0.0003750082,-0.00569466,0.0012401998,-0.0037702082,0.002439914,-0.005393714,0.000407039,0.44813564,-1.4707249,2.0095913,-2.1077158,-1.5707334,2.4230163,-0.0076030185,0.016500074,-0.00911739,-0.0014666427,0.00011159511,-0.008001735,-0.019153614,0.038307227,-9.500193,0.7463667,47.734352,-0.44248825,-2.8037362,-2.949842,-0.46872175,0.089204475,-0.16794387,26.125,27.0,26.125,29.1875,30.25,30.6875
0.016054234,-1.2837446,-1.6627505,-1.8638141,-0.04829186,0.05155114,-0.009380826,-0.372876,-0.32820803,0.05985931,-3.0783958,0.6247891,-0.0004900366,-0.006017248,0.0018776177,-0.004104268,0.0029741626,-0.006501559,0.002964387,0.44813502,-1.4706888,2.00958,-2.1077034,-1.5706614,2.423015,-0.00909425,0.017258108,-0.009342082,-0.0007700967,0.00010884874,-0.012050265,-0.3256114,0.22984336,-9.672575,0.8023209,47.71554,-0.34055462,-2.718614,-3.0952659,-0.45514727,0.07316169,-0.1429621,26.125,27.0,26.125,29.1875,30.25,30.6875
0.018055208,-1.8745781,-1.8706586,-1.7971016,-0.08212857,0.08684627,-0.016700523,-0.3728614,-0.32819474,0.059839033,-3.0783496,0.6247984,-0.0005802447,-0.0051855063,0.0019257106,-0.004548209,0.0036510925,-0.00789815,0.0037151484,0.44812334,-1.4706647,2.0095918,-2.1076672,-1.5706614,2.423015,-0.00842627,0.017249405,-0.00847198,-7.95056e-05,0.00010627506,-0.012133779,-0.40222588,0.28730422,-9.787497,0.7329411,47.717335,-0.5217235,-2.4336529,-3.423616,-0.48228395,0.07945692,-0.15206091,26.125,27.0,26.125,29.1875,30.25,30.6875
0.020055942,-2.3643162,-2.064259,-1.7242489,-0.08386125,0.10942361,-0.03394069,-0.3728751,-0.32818648,0.059834003,-3.0783377,0.62479585,-0.0006361818,-0.006573989,0.001419849,-0.0039963014,0.0030542142,-0.006667338,0.0034837192,0.44808722,-1.4706283,2.009555,-2.1076314,-1.5706495,2.4229789,-0.008737772,0.018892268,-0.011556913,-5.191147e-06,0.00010382271,-0.012211757,-0.38307226,0.40222588,-9.787497,0.8157518,47.71554,-0.6623701,-2.3811774,-3.469017,-0.4709526,0.0822692,-0.17671517,26.125,27.0,26.125,29.1875,30.25,30.6875
0.022056244,-2.0331903,-2.064635,-1.8867794,-0.06505226,0.11550795,-0.038476665,-0.3728722,-0.3281781,0.059819616,-3.0782886,0.624748,-0.00066150184,-0.008007075,0.001654196,-0.004202444,0.003150711,-0.0068765027,0.0026269027,0.44809863,-1.4705914,2.0095422,-2.1076076,-1.5706857,2.4229667,-0.010483371,0.021435339,-0.013875117,-3.389448e-07,0.000101481346,-0.013098745,-0.6512229,0.40222588,-9.768343,0.77545905,47.707485,-0.67357606,-2.4911504,-3.4301448,-0.47173092,0.081781775,-0.20492628,26.125,27.0,26.125,29.1875,30.25,30.6875
0.024056274,-2.303919,-1.5861436,-1.9510607,-0.04231655,0.08211724,-0.04569006,-0.372894,-0.32818228,0.05981521,-3.0783165,0.62479126,-0.0006814055,-0.009452782,0.0018019428,-0.0034692443,0.002389384,-0.005344638,0.0039024062,0.4480621,-1.4705554,2.0095184,-2.1076314,-1.5706495,2.4229536,-0.012087359,0.02172971,-0.015880277,-2.2130672e-08,0.00011776657,-0.01597702,-0.6703765,0.38307226,-9.80665,0.78217715,47.693153,-0.69166225,-2.4274888,-3.4574318,-0.47546756,0.08226967,-0.206085,26.125,27.0,26.125,29.1875,30.25,30.6875
0.026055548,-1.4369837,-1.1555811,-1.954967,-0.039712667,0.084337465,-0.079955615,-0.3729495,-0.32818985,0.059837356,-3.0783637,0.62478065,-0.00059072505,-0.010445715,0.0018716035,-0.0024244995,0.0013843237,-0.003290167,0.005121164,0.44802573,-1.4705199,2.009434,-2.1076553,-1.5706495,2.4229047,-0.0131280925,0.02060127,-0.017039308,-1.4449748e-09,0.0001308389,-0.018236013,-0.68953013,0.38307226,-9.730036,0.7642693,47.67166,-0.70521593,-2.2799544,-3.43523,-0.47416377,0.08787936,-0.19114472,26.125,27.0,26.125,29.1875,30.25,30.6875
0.02805446,-1.7327003,-1.1773932,-1.6341618,-0.038166527,0.075424485,-0.09879206,-0.37294486,-0.3281809,0.059807472,-3.0783284,0.6247356,-0.0006811055,-0.01189553,0.0019967577,-0.0023184516,0.0013262887,-0.003189887,0.0050003114,0.44801313,-1.4704591,2.009433,-2.107643,-1.5706495,2.4228685,-0.014685617,0.022718944,-0.019705242,0.00043251802,0.00013273761,-0.01967089,-0.6703765,0.34476504,-9.595961,0.7553206,47.723602,-0.81270957,-2.3503368,-3.4991033,-0.4581537,0.07644769,-0.15783295,26.125,27.0,26.125,29.1875,30.25,30.6875
0.030055238,-1.523876,-0.99921507,-1.6761549,-0.039427917,0.08701745,-0.11010499,-0.3729766,-0.3281919,0.05980653,-3.0783548,0.62474144,-0.00068735547,-0.013234861,0.002031336,-0.0023184079,0.0011952496,-0.0029434506,0.003322124,0.44798875,-1.4703985,2.0093715,-2.1076553,-1.5706257,2.4228444,-0.015973821,0.024827348,-0.021998474,0.0003389622,0.000139453,-0.019279182,-0.7086837,0.22984336,-9.595961,0.73741806,47.696735,-0.7403693,-2.354661,-3.4370713,-0.46103615,0.084734604,-0.18047762,26.125,27.0,26.125,29.1875,30.25,30.6875
0.032055017,-2.210917,-0.95249844,-1.5894833,-0.029837955,0.07143699,-0.114450544,-0.37301674,-0.32817912,0.05980288,-3.078326,0.6248133,-0.0006235148,-0.014496155,0.002202431,-0.0019703477,0.00078435306,-0.0021092002,0.0012100947,0.44795233,-1.4703504,2.0093353,-2.107691,-1.5706614,2.4228566,-0.017445879,0.02574336,-0.023790384,0.0002843478,0.00014529738,-0.018637983,-0.6512228,0.15322891,-9.595961,0.8560339,47.711063,-0.729539,-2.3425312,-3.3972607,-0.47276735,0.074284144,-0.18482786,26.125,27.0,26.125,29.1875,30.25,30.6875
0.034054525,-1.6676447,-0.40868145,-1.3569583,-0.009675104,0.08449309,-0.13611412,-0.37306252,-0.32818633,0.05980781,-3.0783718,0.6247464,-0.00059011136,-0.015521983,0.0017999647,-0.0016208485,0.0002668969,-0.0012890876,0.001242825,0.44791615,-1.4702901,2.0092633,-2.1077154,-1.5706495,2.422773,-0.017693065,0.027084932,-0.02605651,0.00024539043,0.0002520601,-0.01891653,-0.53630114,0.019153614,-9.5385,0.7642693,47.70659,-0.77948755,-2.266361,-3.3695135,-0.45589095,0.07736356,-0.19043154,26.125,27.0,26.125,29.1875,30.25,30.6875
0.036054138,-1.1028148,-0.24203353,-1.410621,0.02109048,0.08365695,-0.15349191,-0.3730918,-0.32817918,0.059797578,-3.0783489,0.6247991,-0.000645683,-0.016718036,0.001571122,-0.00079155946,-0.00068304053,0.00040791248,0.0010592074,0.44786796,-1.4702181,2.0092022,-2.107691,-1.5706376,2.4227605,-0.018427126,0.027237646,-0.02812096,0.00021587788,0.00036791948,-0.019465957,-0.45968673,-0.1340753,-9.423578,0.8179876,47.70211,-0.73907816,-2.2414825,-3.3890033,-0.4497379,0.0759632,-0.19407615,26.125,27.0,26.125,29.1875,30.25,30.6875
0.038055003,-0.9144438,-0.1891237,-1.3976798,0.04247798,0.063397996,-0.15645838,-0.3731326,-0.32817742,0.059796426,-3.0783582,0.6248397,-0.00064167485,-0.018042866,0.0016670101,-0.00027272114,-0.0012507074,0.001553208,0.0008007642,0.44781944,-1.470158,2.0091417,-2.107703,-1.5706257,2.4227362,-0.019817544,0.027944986,-0.030083226,0.0001927186,0.00037907352,-0.020596657,-0.28730422,-0.076614454,-9.442732,0.7911258,47.696735,-0.733325,-2.1738534,-3.3903308,-0.43388137,0.09291616,-0.18564925,26.125,27.0,26.125,29.1875,30.25,30.6875
0.040054478,-0.30622435,0.54256463,-1.234642,0.02855214,0.04880889,-0.15963866,-0.3731479,-0.32817405,0.059788205,-3.0783389,0.6248167,-0.0006595865,-0.019154375,0.0013567237,-0.00018230334,-0.0014641646,0.0019170827,0.0010707976,0.44780722,-1.4701093,2.0091045,-2.107691,-1.5706376,2.422712,-0.020264858,0.029975764,-0.032516204,0.00017405378,0.00040782383,-0.021312289,-0.15322891,-0.17238252,-9.442732,0.7978386,47.699425,-0.6941263,-2.1993413,-3.4046333,-0.42722416,0.0567251,-0.17478102,26.125,27.0,26.125,29.1875,30.25,30.6875
0.04205562,0.19438732,0.2190845,-1.3159059,0.01845909,0.040185023,-0.13557929,-0.37319076,-0.3281649,0.059782363,-3.078327,0.62475646,-0.00067790627,-0.02041816,0.0011667445,5.7386762e-05,-0.0017708831,0.0025830572,0.0011973118,0.44775906,-1.4700248,2.0090196,-2.1076672,-1.5706495,2.422628,-0.021042716,0.031713832,-0.03497232,0.00015868977,0.00038975573,-0.022214884,-0.095768064,-0.1340753,-9.32781,0.8291774,47.672558,-0.67955077,-2.2345352,-3.2924995,-0.41029987,0.07477095,-0.18371549,26.125,27.0,26.125,29.1875,30.25,30.6875
0.044054538,-0.4808315,-0.47368062,-1.3405023,0.0028710454,0.020334065,-0.13138485,-0.3732247,-0.3281641,0.05978993,-3.0783489,0.6247802,-0.0006861369,-0.021594312,0.001314802,0.0006050442,-0.0022999935,0.0037267478,0.0016409466,0.44771054,-1.4699888,2.00896,-2.1076553,-1.5706257,2.4225914,-0.022372482,0.032062825,-0.03662154,0.00019931313,0.00036748056,-0.023987204,-0.076614454,0.019153614,-9.385271,0.7866488,47.696735,-0.69120574,-2.1409667,-3.3418384,-0.4102308,0.08770834,-0.18440929,26.125,27.0,26.125,29.1875,30.25,30.6875
0.046037786,-0.019725777,-1.0460732,-1.38586,-0.0111137545,0.03620274,-0.13860999,-0.373301,-0.32814938,0.059806522,-3.0783281,0.62481296,-0.0005283265,-0.022490993,0.0014946077,0.00087142066,-0.0025596407,0.004309976,0.0026856312,0.44766223,-1.4699286,2.0088642,-2.107691,-1.5706977,2.4225664,-0.023507576,0.032620363,-0.037853718,0.00023375824,0.00034724706,-0.026166102,-0.095768064,0.1340753,-9.423578,0.76874626,47.67345,-0.7046302,-2.082523,-3.3484378,-0.40672833,0.08674323,-0.16180564,26.125,27.0,26.125,29.1875,30.25,30.6875
0.04808625,-0.6186504,-1.4844365,-1.529376,-0.018035373,0.025041208,-0.12230829,-0.3733584,-0.3281667,0.059825342,-3.0784004,0.62484723,-0.0005244037,-0.023559067,0.0014861313,0.0014030554,-0.0030922238,0.005455099,0.003018681,0.44760185,-1.4698685,2.008755,-2.107691,-1.5706376,2.4225183,-0.024445083,0.033041015,-0.0395361,0.00023416874,0.00032910277,-0.027435534,0.038307227,0.21068975,-9.461885,0.7329411,47.6636,-0.66203594,-2.0553944,-3.3735266,-0.38527995,0.077178136,-0.13872835,26.125,27.0,26.125,29.1875,30.25,30.6875
0.05009314,0.55848265,-1.1219754,-1.4059561,-0.034249395,0.053094674,-0.14564247,-0.3733656,-0.32815516,0.05981028,-3.0783646,0.6247817,-0.0005621158,-0.024462331,0.0014158338,0.0016194469,-0.0032973432,0.0059082117,0.0033014726,0.44758976,-1.4698203,2.0087311,-2.1076672,-1.5706614,2.4224699,-0.025122821,0.034138683,-0.04127068,0.00037308657,0.00031275937,-0.028394878,0.038307227,0.24899697,-9.481039,0.7665104,47.687782,-0.6568029,-2.0133023,-3.400384,-0.37720895,0.10119374,-0.13744017,26.125,27.0,26.125,29.1875,30.25,30.6875
0.052088212,-0.2145152,-1.7708513,-1.6636776,-0.020206915,0.025634166,-0.1285158,-0.37342462,-0.3281324,0.0597912,-3.078335,0.6248523,-0.0005937717,-0.024241617,0.002088602,0.0010666928,-0.0016865471,0.0025963238,0.0034900063,0.44749328,-1.4697123,2.0086586,-2.1076777,-1.5706614,2.4224212,-0.026172746,0.035644807,-0.04241881,0.0036977907,0.00029796318,-0.029633371,0.05746084,0.34476504,-9.442732,0.7978386,47.711964,-0.63672334,-2.008362,-3.3971806,-0.401729,0.09003947,-0.1387441,26.125,27.0,26.125,29.1875,30.25,30.6875
0.054094408,-0.05567828,-1.3490412,-1.7386045,-0.0362675,0.023376737,-0.12960617,-0.37345687,-0.32814363,0.059797022,-3.0783653,0.62480044,-0.000615573,-0.025238156,0.0021582555,0.0014930454,-0.001932035,0.0031307875,0.004077084,0.44746894,-1.469652,2.0085738,-2.1076539,-1.5706376,2.4223607,-0.027197486,0.036358032,-0.044317983,0.004296229,0.00028450275,-0.03124409,0.038307227,0.36391866,-9.519346,0.7038487,47.682407,-0.5932121,-1.9566462,-3.481927,-0.40647632,0.080468684,-0.12032758,26.125,27.0,26.125,29.1875,30.25,30.6875
0.05609287,-0.1766661,-2.1493623,-1.7963532,-0.026292492,0.023517348,-0.12515797,-0.37352896,-0.32814437,0.059814613,-3.078407,0.62478924,-0.0005673709,-0.02623423,0.0019901118,0.0017274265,-0.0024388453,0.0042069154,0.0048281276,0.44739673,-1.4695797,2.008454,-2.1076543,-1.5706257,2.4222763,-0.02777165,0.03733685,-0.045768585,0.0035788373,0.00027220734,-0.03256803,-0.038307227,0.38307226,-9.576807,0.7732232,47.71017,-0.62337744,-1.9575067,-3.4347134,-0.39774466,0.088482104,-0.10798865,26.125,27.0,26.125,29.1875,30.25,30.6875
0.05805557,-0.37867075,-2.0488582,-1.710538,-0.05343676,0.038703136,-0.12172152,-0.373569,-0.32814232,0.059818767,-3.0783894,0.624747,-0.0005590426,-0.027633935,0.0016161017,0.0021407816,-0.0032401304,0.0058848164,0.005391026,0.4473726,-1.4695072,2.0083568,-2.107618,-1.5706495,2.422228,-0.028329609,0.038694452,-0.047979865,0.0025722156,0.0002609316,-0.03368704,-0.095768064,0.45968673,-9.634268,0.77545905,47.70659,-0.5971447,-1.8793995,-3.5014937,-0.3834328,0.090301394,-0.09027207,26.125,27.0,26.125,29.1875,30.25,30.6875
0.060055103,-0.98121965,-2.1114852,-1.5969837,-0.056013558,0.03255117,-0.11805345,-0.37364385,-0.32815284,0.059835233,-3.0784216,0.6247332,-0.00050025986,-0.028647168,0.001567916,0.002065339,-0.0032973357,0.006020184,0.0066387616,0.44732437,-1.4694109,2.0082133,-2.107618,-1.5706495,2.4221673,-0.029146662,0.04054721,-0.04980447,0.0023970378,0.00025055133,-0.035750367,-0.05746084,0.47884035,-9.634268,0.78217715,47.703903,-0.69453514,-1.880317,-3.5295732,-0.36749884,0.103221774,-0.05565453,26.125,27.0,26.125,29.1875,30.25,30.6875
0.062054794,-0.9169237,-2.4183886,-1.6927828,-0.03868635,0.04635019,-0.11635033,-0.37370968,-0.32812923,0.05983598,-3.0784323,0.624775,-0.0005235909,-0.029164186,0.0017145107,0.0016381578,-0.0026039076,0.004557257,0.005636964,0.44720405,-1.469338,2.008129,-2.1076062,-1.5706257,2.4220717,-0.029889636,0.042750943,-0.051501807,0.003510479,0.0002578195,-0.035490524,-0.1340753,0.45968673,-9.653421,0.77545905,47.685097,-0.6527202,-1.9285989,-3.5198135,-0.3630593,0.09338901,-0.063769326,26.125,27.0,26.125,29.1875,30.25,30.6875
0.06405443,-0.5469965,-1.3294264,-1.4474488,-0.038116883,0.048348866,-0.12831634,-0.37377676,-0.32813615,0.059850927,-3.0784714,0.6247636,-0.0004494954,-0.029515466,0.0015582148,0.0015432673,-0.0021338859,0.0035669918,0.0045988597,0.44715616,-1.4692658,2.0080206,-2.1076295,-1.5706257,2.4220119,-0.029914152,0.044375043,-0.053378128,0.0048589655,0.00026409634,-0.034475952,-0.095768064,0.4405331,-9.519346,0.6948948,47.67345,-0.6956811,-1.8781004,-3.5159917,-0.37072605,0.093023,-0.08357555,26.125,27.0,26.125,29.1875,30.25,30.6875
0.06605356,-0.18642445,-1.1238642,-1.507294,-0.01678646,0.052652564,-0.12788606,-0.37383917,-0.3281192,0.059857022,-3.0784411,0.62485385,-0.00041258227,-0.03078973,0.0013958379,0.0020266655,-0.0026094327,0.004529282,0.0045908466,0.44708374,-1.4691935,2.0079243,-2.1076171,-1.5706495,2.4219997,-0.030764895,0.045561556,-0.05583784,0.0050579174,0.00027243342,-0.0353171,-0.21068975,0.3256114,-9.442732,0.82022345,47.686886,-0.6658155,-1.8634615,-3.4741273,-0.38810992,0.09032723,-0.098736,26.125,27.0,26.125,29.1875,30.25,30.6875
0.06805496,-0.7805415,-0.85120475,-1.3681195,-0.009923169,0.04002366,-0.12289046,-0.37388304,-0.32811472,0.059830584,-3.0784247,0.6247925,-0.00047194483,-0.032118775,0.0013286511,0.0019885702,-0.002846344,0.0049228813,0.004687705,0.44703546,-1.4690609,2.0078394,-2.1076176,-1.5706495,2.4219153,-0.03186481,0.047747415,-0.05806195,0.0046385527,0.0003082453,-0.036512174,-0.21068975,0.3256114,-9.404425,0.7239871,47.686886,-0.6636858,-1.8360672,-3.497526,-0.37115392,0.112901434,-0.074690916,26.125,27.0,26.125,29.1875,30.25,30.6875
0.07005511,-1.0203525,-0.97882336,-1.2116126,-0.009321606,0.04204384,-0.1255706,-0.37394384,-0.32812065,0.059845116,-3.0784519,0.62468165,-0.00043180902,-0.032697257,0.0010434673,0.0020317258,-0.0031549952,0.0054287743,0.0053432323,0.4469995,-1.4689767,2.0077083,-2.1075938,-1.5706614,2.4218068,-0.031887002,0.048772566,-0.05917617,0.0041372906,0.0003651292,-0.03718903,-0.19153613,0.2681506,-9.346964,0.7329411,47.679718,-0.7379952,-1.8756468,-3.5507097,-0.34448442,0.104364306,-0.06856442,26.125,27.0,26.125,29.1875,30.25,30.6875
0.072054945,-0.8453896,-0.7803353,-0.92968774,-0.02145004,0.05627123,-0.12432594,-0.3740262,-0.3281263,0.059853856,-3.078491,0.6246891,-0.0003823865,-0.035171177,0.00032123367,0.0032090172,-0.004832215,0.007884105,0.006371518,0.446927,-1.4688681,2.0075743,-2.1076176,-1.570649,2.421734,-0.03306419,0.050785452,-0.06408005,0.0040878262,0.00080728665,-0.039392065,-0.2681506,0.17238252,-9.32781,0.76874626,47.70211,-0.73223054,-1.8434303,-3.4137888,-0.35072255,0.08199504,-0.058910474,26.125,27.0,26.125,29.1875,30.25,30.6875
0.074054055,-1.2361934,-0.9208434,-1.0006108,-0.012338214,0.04941447,-0.121443875,-0.3740791,-0.32813695,0.059861194,-3.0785031,0.6246733,-0.00039592787,-0.03423711,0.00069652626,0.0011741233,-0.003177805,0.0029789528,0.0051789824,0.4468909,-1.4687711,2.0074427,-2.1075814,-1.5706371,2.4216866,-0.033347283,0.054206196,-0.06341854,0.005142337,0.001439618,-0.038483985,-0.30645782,0.19153613,-9.404425,0.7709874,47.68599,-0.7344862,-1.9640803,-3.4046144,-0.33695126,0.09953413,-0.05860696,26.125,27.0,26.125,29.1875,30.25,30.6875
0.07605451,-0.98524237,-0.600899,-0.8614858,-0.0092500495,0.05393353,-0.12838623,-0.374165,-0.3281275,0.059861958,-3.0785277,0.6247374,-0.00041426628,-0.035157368,0.00034263227,0.0029964147,-0.0048857275,0.005334662,0.0028224108,0.4467708,-1.4686522,2.0073102,-2.107581,-1.5706009,2.4216034,-0.03385683,0.05212872,-0.06564981,0.0065885535,0.0019623826,-0.036637355,-0.2681506,0.21068975,-9.308657,0.76874626,47.683304,-0.725059,-1.758601,-3.5272021,-0.34489948,0.10934453,-0.10787968,26.125,27.0,26.125,29.1875,30.25,30.6875
0.07805449,-0.8119204,-0.29631358,-0.966101,-0.0017135101,0.04983256,-0.12708,-0.3742556,-0.32814324,0.059895936,-3.0785882,0.6246328,-0.00027190318,-0.037518755,-0.00055977644,0.0040666587,-0.0060000755,0.007458821,0.00408658,0.44673464,-1.4685674,2.0071418,-2.1075928,-1.5706252,2.4214945,-0.03434844,0.0547574,-0.07108889,0.0070005255,0.0020422982,-0.038389552,-0.30645782,0.076614454,-9.232041,0.7933669,47.692257,-0.789829,-1.8072042,-3.2882328,-0.3536207,0.06633077,-0.10667538,26.125,27.0,26.125,29.1875,30.25,30.6875
0.08005451,-0.8930637,-0.1776333,-1.1176897,0.002007049,0.048587326,-0.1282909,-0.3742959,-0.32813478,0.059880037,-3.0785365,0.62464195,-0.00040474295,-0.03723101,0.00040085937,0.0019327548,-0.0037682632,0.003403065,0.0039106566,0.4466741,-1.4684343,2.0070102,-2.1074975,-1.5706133,2.4214463,-0.035711005,0.058414876,-0.07025408,0.007131574,0.0017798371,-0.039575875,-0.40222588,0.1340753,-9.308657,0.70608455,47.695843,-0.8092434,-1.7703757,-3.3301053,-0.33138725,0.08793156,-0.11535567,26.125,27.0,26.125,29.1875,30.25,30.6875
0.08205435,-1.2497429,-0.5944209,-0.91526,0.0031301884,0.04511885,-0.11839981,-0.37438524,-0.32814565,0.0598952,-3.0785837,0.6246334,-0.00031352165,-0.039235123,0.00052896683,0.002438679,-0.0040861997,0.0045122607,0.002230687,0.44661358,-1.4683257,2.0068643,-2.1075332,-1.5706133,2.4213746,-0.037624862,0.060401812,-0.07366979,0.0074234353,0.0015840236,-0.039807025,-0.30645782,0.095768064,-9.3661175,0.7620334,47.672558,-0.7786155,-2.0114896,-3.4176173,-0.33954343,0.08982072,-0.12530412,26.125,27.0,26.125,29.1875,30.25,30.6875
0.08405381,-0.9792051,-0.7829748,-0.97920257,-0.011809674,0.05344484,-0.12434673,-0.3744822,-0.3281413,0.059915442,-3.0786045,0.6246756,-0.0002543974,-0.040489465,1.1784062e-05,0.0043227472,-0.0055451207,0.007916762,0.0024201055,0.44651753,-1.4682187,2.0066974,-2.1075208,-1.5706133,2.4213023,-0.037669607,0.058716442,-0.07627663,0.008015645,0.0014279431,-0.04003974,-0.38307226,0.17238252,-9.289502,0.84484416,47.683304,-0.76523185,-1.5998311,-3.264865,-0.33500355,0.070714146,-0.14697519,26.125,27.0,26.125,29.1875,30.25,30.6875
0.086054586,-1.2242235,-1.0973996,-1.1421131,-0.015788995,0.052111715,-0.11862288,-0.37455845,-0.32816133,0.059923913,-3.0786526,0.62460726,-0.0002489298,-0.040663637,-0.0002518798,0.00312396,-0.0040283934,0.004978463,0.0035115161,0.4464696,-1.4680854,2.0065286,-2.1075084,-1.570589,2.4212058,-0.037258714,0.062988654,-0.0785253,0.009298645,0.0013279378,-0.040718425,-0.3256114,0.28730422,-9.32781,0.8717007,47.70659,-0.7703834,-1.859082,-3.1953564,-0.34793103,0.09120537,-0.14793515,26.125,27.0,26.125,29.1875,30.25,30.6875
0.08805456,-0.9635332,-1.3414563,-1.1099178,-0.02464018,0.05786115,-0.12747206,-0.37464854,-0.32812756,0.05991967,-3.0786064,0.6246176,-0.00024503516,-0.041446403,0.00048436338,0.0026816102,-0.0032543691,0.0038657144,0.0022044936,0.44634914,-1.467953,2.0063846,-2.1074727,-1.5706252,2.4210978,-0.039188903,0.06465572,-0.07949936,0.009942926,0.0011090754,-0.0413406,-0.2681506,0.24899697,-9.32781,0.7530795,47.689575,-0.87648594,-1.8191105,-3.2719922,-0.3587466,0.087891206,-0.16264936,26.125,27.0,26.125,29.1875,30.25,30.6875
0.09005361,-1.0080992,-1.4390223,-1.1764946,-0.029992979,0.06090747,-0.12518673,-0.3747478,-0.3281452,0.059952058,-3.0786588,0.6245711,-0.00012752016,-0.04350255,9.941901e-05,0.003406165,-0.0040856167,0.005523229,0.0013353758,0.44630048,-1.4678444,2.006191,-2.1074727,-1.5706371,2.4210136,-0.040335786,0.06675748,-0.083482966,0.009970259,0.0011387721,-0.04161564,-0.19153613,0.22984336,-9.32781,0.74413085,47.68062,-0.7397481,-1.8769438,-3.162038,-0.35882077,0.09040964,-0.1846401,26.125,27.0,26.125,29.1875,30.25,30.6875
0.09205381,-1.3744648,-1.5894427,-1.2758795,-0.034824267,0.046185024,-0.11476332,-0.3747977,-0.32811576,0.059905957,-3.078581,0.6245947,-0.00030753564,-0.043256067,0.0012591507,0.0019605563,-0.0024572045,0.0021109246,0.0002163454,0.44619194,-1.4676641,2.0060847,-2.107412,-1.5706252,2.4209297,-0.04228244,0.06871721,-0.08253743,0.010846473,0.0011411576,-0.042443953,-0.30645782,0.22984336,-9.404425,0.7665104,47.684196,-0.7499956,-1.8566366,-3.3246758,-0.36572212,0.09675492,-0.21554944,26.125,27.0,26.125,29.1875,30.25,30.6875
0.09405379,-0.78101313,-1.2052591,-1.0977072,-0.046592727,0.056621138,-0.12489497,-0.37490082,-0.3281183,0.05992586,-3.0785956,0.6245783,-0.00022351471,-0.04540638,0.00093145407,0.0027501627,-0.003628501,0.0041134483,-0.0006618209,0.44611946,-1.4675317,2.0058906,-2.1073997,-1.570649,2.4208453,-0.043724027,0.070507765,-0.08623119,0.01043611,0.0013271674,-0.043005064,-0.24899697,0.26815057,-9.404425,0.8560339,47.71286,-0.6590525,-1.8338218,-3.3086329,-0.3710487,0.08948984,-0.2308565,26.125,27.0,26.125,29.1875,30.25,30.6875
0.09605453,-0.61308587,-1.727111,-1.1391577,-0.03305753,0.06566376,-0.12172807,-0.3750042,-0.3281491,0.059966736,-3.0786846,0.6245759,-0.00013748689,-0.045694884,0.0004518872,0.0022508956,-0.0036981185,0.0039182343,0.0028368346,0.44605964,-1.4674232,2.005675,-2.1073887,-1.5706133,2.4207728,-0.043171242,0.072464906,-0.08701061,0.009405282,0.001474084,-0.045949996,-0.22984336,0.34476504,-9.270349,0.7665104,47.66987,-0.6939086,-1.901748,-3.164716,-0.35525927,0.090377316,-0.24262375,26.125,27.0,26.125,29.1875,30.25,30.6875
0.098054,-0.9812505,-1.3636135,-1.0779672,-0.025726264,0.04655352,-0.11891417,-0.37508187,-0.32811826,0.059922628,-3.0786178,0.62463766,-0.00021802235,-0.046786807,-3.7669513e-05,0.0024681669,-0.0043516527,0.0043845866,0.0039551924,0.44593957,-1.4672309,2.0055673,-2.1074002,-1.5706252,2.4206998,-0.04348265,0.07433044,-0.08957374,0.009398385,0.0018539942,-0.047378737,-0.22984336,0.30645782,-9.423578,0.8023209,47.70838,-0.8081037,-1.843672,-3.304459,-0.34385747,0.08112711,-0.23859963,26.125,27.0,26.125,29.1875,30.25,30.6875
0.10005416,-0.6716245,-0.9750589,-1.0162345,-0.026150994,0.05105403,-0.12556814,-0.3751826,-0.32812816,0.059953324,-3.0786712,0.62463176,-0.00020664283,-0.04862078,0.0005444788,0.002406542,-0.004634547,0.0045704967,0.00025817312,0.44584265,-1.4671104,2.0053508,-2.107341,-1.570589,2.4205925,-0.04633197,0.07651769,-0.09178687,0.009135901,0.0020262597,-0.046529543,-0.22984336,0.34476504,-9.3661175,0.7911258,47.70032,-0.64139843,-1.9671917,-3.1863647,-0.34128883,0.07280612,-0.2710687,26.125,27.0,26.125,29.1875,30.25,30.6875
0.1020544,-0.47128844,-0.9891304,-1.0968691,-0.019394489,0.03868393,-0.12369139,-0.37530845,-0.32813317,0.059972905,-3.07868,0.62461317,-7.333378e-05,-0.049394432,0.00016199125,0.002656483,-0.0052143172,0.0050727604,0.0013234625,0.4457705,-1.4669421,2.0051234,-2.1073525,-1.5706366,2.420508,-0.046503328,0.07764028,-0.09360409,0.009124084,0.0023324755,-0.047765315,-0.21068975,0.30645782,-9.32781,0.8403672,47.711964,-0.73598987,-1.8927436,-3.1849394,-0.31825423,0.06614369,-0.2913223,26.125,27.0,26.125,29.1875,30.25,30.6875
0.10405433,-0.35395557,-0.78847253,-0.9894658,-0.025294043,0.033013143,-0.124698766,-0.3754097,-0.32813075,0.059970062,-3.078698,0.62467426,-0.00010572143,-0.05016635,6.062154e-05,0.0023380711,-0.004874609,0.0047471304,0.0021760233,0.4456504,-1.4667739,2.0049422,-2.107341,-1.5706009,2.4204237,-0.046878483,0.079859406,-0.09531389,0.009057545,0.0021632193,-0.048991397,-0.24899697,0.24899697,-9.404425,0.76874626,47.734352,-0.76723534,-1.9511931,-3.1623714,-0.33295304,0.06921312,-0.30616546,26.125,27.0,26.125,29.1875,30.25,30.6875
0.10605443,-0.79236466,-0.94634765,-0.99847144,-0.019962871,0.024854971,-0.122769356,-0.3754876,-0.3281236,0.059960987,-3.078727,0.62460214,-0.00017182315,-0.05134387,-0.00013556171,0.002632484,-0.0051873033,0.0053038006,0.0037496104,0.44554216,-1.4666296,2.0047987,-2.1073167,-1.5705646,2.4202669,-0.047582842,0.08143581,-0.09779682,0.00932878,0.002199888,-0.05126784,-0.17238252,0.19153613,-9.270349,0.78888994,47.71554,-0.7448259,-1.7469463,-3.154148,-0.31719047,0.07166022,-0.31678537,26.125,27.0,26.125,29.1875,30.25,30.6875
0.108054675,-0.27326408,-1.0010743,-1.0975235,-0.019869752,0.042167984,-0.1264082,-0.37560737,-0.32812324,0.0599732,-3.078697,0.62463516,-0.00012452052,-0.051817775,-0.00015570334,0.0018888131,-0.0044397106,0.004086093,0.0020815374,0.44545817,-1.4664367,2.0045474,-2.1072686,-1.5706013,2.4202075,-0.04785435,0.0841509,-0.09909768,0.009334537,0.0020485155,-0.04986984,-0.11492168,0.24899697,-9.232041,0.8247004,47.691364,-0.8053192,-2.0826507,-3.1799588,-0.30753338,0.08295657,-0.34577054,26.125,27.0,26.125,29.1875,30.25,30.6875
0.110054076,-0.9622804,-0.97006774,-1.0552249,-0.022505078,0.03136268,-0.11523977,-0.37568778,-0.3281217,0.059962206,-3.0787015,0.62463593,-0.00014945497,-0.052481227,-0.0003370092,0.0029247124,-0.005080923,0.005176775,0.00094049325,0.44537398,-1.4662814,2.0044014,-2.107268,-1.5705885,2.4201233,-0.04817051,0.08344133,-0.10101509,0.010701522,0.0021564637,-0.049044553,-0.24899697,0.28730422,-9.308656,0.8090337,47.71465,-0.83377105,-1.8146347,-3.1324422,-0.33966702,0.06251545,-0.4112777,26.125,27.0,26.125,29.1875,30.25,30.6875
0.112054646,-0.70559955,-0.909914,-0.94502485,-0.02522659,0.044258013,-0.1218615,-0.3758028,-0.32814938,0.05998373,-3.0787773,0.62463063,-0.00012237485,-0.052549336,-0.0003692751,0.0004670835,-0.003100145,0.00097583403,0.0032015666,0.44529003,-1.4661115,2.0041625,-2.1072571,-1.5705408,2.4200265,-0.048171535,0.089612335,-0.10208904,0.010251338,0.0021781025,-0.051304847,-0.095768064,0.19153613,-9.270349,0.8157518,47.709274,-0.8094127,-2.043639,-3.177706,-0.31695434,0.059294175,-0.42142248,26.125,27.0,26.125,29.1875,30.25,30.6875
0.11405435,-0.662608,-0.6149359,-1.0676316,-0.032730985,0.04501874,-0.11650364,-0.3759298,-0.3281377,0.059979837,-3.078753,0.62458676,-0.00012919294,-0.053743944,-0.00043770394,0.0019273582,-0.0046885363,0.0041211345,0.0047360477,0.44516963,-1.4658848,2.0039108,-2.107209,-1.5705646,2.419882,-0.049146138,0.087766364,-0.10331939,0.009803618,0.0022523734,-0.053813584,-0.038307227,0.22984336,-9.270349,0.7486078,47.69763,-0.9196695,-1.8691303,-3.195516,-0.31665695,0.07217611,-0.42857015,26.125,27.0,26.125,29.1875,30.25,30.6875
0.116054885,-0.7396909,-1.182465,-1.0927186,-0.01816333,0.035226874,-0.110336244,-0.37605247,-0.32814735,0.06001125,-3.0787997,0.62459594,3.590689e-10,-0.053822625,2.762802e-05,0.0003026035,-0.0035209828,0.00064583257,0.005391795,0.44508526,-1.4657516,2.0036948,-2.1072204,-1.5705765,2.4197977,-0.050374456,0.0914161,-0.103714965,0.0101867085,0.0027003086,-0.055697437,0.0,0.24899697,-9.3661175,0.7777002,47.70032,-0.8673637,-1.9707825,-3.3147368,-0.3244592,0.053014148,-0.4293893,26.125,27.0,26.125,29.1875,30.25,30.6875
0.11805483,-0.12622799,-0.61453235,-1.0731432,-0.024879377,0.037181675,-0.12298259,-0.37613642,-0.32813698,0.059989948,-3.078815,0.624519,-9.512061e-05,-0.054259863,-0.0011546982,0.00076241617,-0.0039998465,0.002160707,0.010563153,0.44496608,-1.4655715,2.0035398,-2.107197,-1.5705408,2.4196286,-0.048381306,0.09248268,-0.1058435,0.009678274,0.0024720507,-0.058873884,-0.076614454,0.17238252,-9.270349,0.7709874,47.72002,-1.0070488,-1.9760232,-3.279124,-0.30829477,0.05584382,-0.4511546,26.125,27.0,26.125,29.1875,30.25,30.6875
0.12005448,-0.3360786,-0.47827226,-1.0648242,-0.021675913,0.029136773,-0.12524089,-0.37626505,-0.32813853,0.059995197,-3.0787873,0.6244916,-7.423882e-06,-0.056500062,-0.0014634504,0.0014799938,-0.0048758066,0.0044245943,0.013095341,0.4448936,-1.4653552,2.0032866,-2.1071851,-1.5706009,2.4195428,-0.049671274,0.09450817,-0.10957474,0.0089605795,0.002280356,-0.062693,-0.019153614,0.24899697,-9.232041,0.800085,47.709274,-1.0848815,-2.021358,-3.316917,-0.3081974,0.062672086,-0.43584913,26.125,27.0,26.125,29.1875,30.25,30.6875
0.122054785,-0.43506157,-0.7478674,-1.223347,-0.013110833,0.023453696,-0.11568266,-0.3763796,-0.32814208,0.060014687,-3.0788336,0.6244423,6.664571e-05,-0.055561535,-0.0007788305,-0.00012633101,-0.0029472967,0.0012882538,0.016505525,0.4447975,-1.4652109,2.003083,-2.1071846,-1.5706013,2.4194102,-0.04983351,0.09620908,-0.10783126,0.009178472,0.0018974147,-0.06626557,-0.038307227,0.22984336,-9.251196,0.7978386,47.70032,-1.0469224,-2.0165715,-3.3699093,-0.2966956,0.062173717,-0.42313784,26.125,27.0,26.125,29.1875,30.25,30.6875
0.12405495,-1.0166826,-1.0139539,-1.2037898,-0.0083625475,0.009973858,-0.10929289,-0.37649295,-0.32815582,0.060010433,-3.0788617,0.6244269,-8.657862e-06,-0.05785173,-0.00056527526,0.0011573071,-0.0038485937,0.0033255825,0.01880949,0.44468874,-1.4649831,2.0028307,-2.107137,-1.5705532,2.4192884,-0.0522235,0.09687053,-0.11176077,0.010223159,0.0018272102,-0.070957385,0.019153614,0.19153614,-9.385271,0.8717007,47.709274,-1.0633526,-1.9140172,-3.4066553,-0.28524652,0.058568537,-0.40212604,26.125,27.0,26.125,29.1875,30.25,30.6875
0.12605377,-0.5858486,-1.0651784,-1.1842798,-0.017504664,0.02704191,-0.12312362,-0.37657738,-0.32816693,0.060016837,-3.0789182,0.6242811,-1.82237e-05,-0.057064984,-0.0008579384,0.00038540593,-0.003172688,0.0019915428,0.02476995,0.4446172,-1.4648392,2.002652,-2.1071131,-1.5705289,2.419119,-0.05093071,0.0978604,-0.11105037,0.010019899,0.0017928431,-0.07562522,-0.038307227,0.11492168,-9.289503,0.7777002,47.699425,-1.1013829,-1.8901477,-3.4584901,-0.2919639,0.068528,-0.3373484,26.125,27.0,26.125,29.1875,30.25,30.6875
0.12805392,-1.1604568,-0.9927758,-1.1394708,-0.0304998,0.019383827,-0.11842237,-0.37671453,-0.32815772,0.060003795,-3.078909,0.6242383,-2.3986275e-05,-0.057769023,-0.00060708844,5.175752e-05,-0.002823781,0.0011343558,0.027900644,0.44448495,-1.4645867,2.0024006,-2.1071007,-1.5705413,2.4189613,-0.05204315,0.09968518,-0.11243147,0.0104992315,0.0018438024,-0.07986754,-0.076614454,0.21068975,-9.308657,0.8023209,47.72719,-1.2032659,-2.0031931,-3.4867384,-0.2785723,0.033617005,-0.30601373,26.125,27.0,26.125,29.1875,30.25,30.6875
0.1300544,-1.0091553,-1.2022842,-1.3791484,-0.020193394,0.026691936,-0.11673503,-0.37684402,-0.32814893,0.060013384,-3.0789475,0.6240912,-6.83235e-06,-0.05896086,-0.00018050142,0.0010118699,-0.0035807895,0.00275933,0.03042666,0.44435212,-1.4643956,2.0021598,-2.107065,-1.5705413,2.418732,-0.05387552,0.0987926,-0.11376349,0.010931509,0.001828222,-0.0842254,-0.019153614,0.22984336,-9.346964,0.7777002,47.701214,-1.156363,-1.8041756,-3.5422058,-0.28389448,0.05740715,-0.2391091,26.125,27.0,26.125,29.1875,30.25,30.6875
0.13205445,-0.7213978,-0.9799384,-1.3413702,-0.019477673,0.027338617,-0.11999146,-0.37696213,-0.3281478,0.0600032,-3.0789475,0.6240905,-8.424109e-06,-0.06002818,-0.00035835456,-0.0002932984,-0.002473861,0.00030266785,0.03199432,0.4442439,-1.4641777,2.0019429,-2.107065,-1.5705413,2.4186234,-0.054515928,0.10423046,-0.11687671,0.011300821,0.0018790662,-0.086431004,-0.11492168,0.19153613,-9.461885,0.78888994,47.689575,-1.1720216,-1.9638736,-3.407662,-0.30371934,0.056259274,-0.19397125,26.125,27.0,26.125,29.1875,30.25,30.6875
0.1340545,-0.6520439,-1.0628536,-1.3630433,-0.018139549,0.03156509,-0.11585924,-0.37707844,-0.3281414,0.060006566,-3.0789719,0.623922,1.347054e-06,-0.061174423,-0.00020252155,0.00084569695,-0.0032916714,0.0021667185,0.03235326,0.44413546,-1.4639866,2.001716,-2.1070282,-1.5705532,2.418407,-0.055769097,0.10329709,-0.11862243,0.011944725,0.001814366,-0.08804236,-0.21068975,0.22984336,-9.385271,0.8023209,47.670765,-1.1737266,-1.7945955,-3.6210985,-0.28366578,0.059591718,-0.1629141,26.125,27.0,26.125,29.1875,30.25,30.6875
0.13605401,-1.2683928,-0.88638395,-1.255094,-0.015134473,0.02514016,-0.12016693,-0.37721726,-0.3281544,0.060018845,-3.0790107,0.6238535,2.0296333e-05,-0.062164996,-0.00017196474,0.0005198806,-0.003203944,0.0020749792,0.031086862,0.44402725,-1.4637583,2.001428,-2.106993,-1.5705413,2.4182513,-0.056661513,0.10549058,-0.120207675,0.011458482,0.0017725785,-0.087666914,-0.22984336,0.22984336,-9.385271,0.842603,47.682407,-1.174712,-1.7784388,-3.3912873,-0.27236652,0.07292515,-0.16886261,26.125,27.0,26.125,29.1875,30.25,30.6875
0.13805404,-0.93454045,-0.8893746,-1.3829609,-0.0093669,0.041856468,-0.12369376,-0.37734005,-0.3281684,0.06003832,3.0790117,-0.62375945,-3.0423891e-05,-0.06431575,-0.0004552078,0.0011162242,-0.003859322,0.003619933,0.02793092,0.44391882,-1.4635776,2.0011756,-2.1069572,-1.570505,2.4180841,-0.057983503,0.10790655,-0.12424621,0.011408037,0.0016956005,-0.08583006,-0.17238252,0.2681506,-9.385271,0.7620334,47.686886,-1.0805247,-1.8938452,-3.418792,-0.27792293,0.063572004,-0.14857234,26.125,27.0,26.125,29.1875,30.25,30.6875
0.14005436,-1.3187635,-1.2104942,-1.4436854,-0.009878517,0.041676488,-0.120839305,-0.37744954,-0.32814357,0.060000487,-3.0790284,0.6236672,-2.3294888e-05,-0.065602094,-0.00068262185,0.001820229,-0.0047290483,0.005050054,0.027057288,0.4437985,-1.4633262,2.000982,-2.1069453,-1.5705413,2.4179044,-0.05879554,0.10854364,-0.12660034,0.011456626,0.0018567224,-0.085767426,-0.24899697,0.28730422,-9.461885,0.79560274,47.678825,-1.1837815,-1.779681,-3.3924103,-0.27315155,0.04590947,-0.13510455,26.125,27.0,26.125,29.1875,30.25,30.6875
0.14205372,-1.713935,-1.265466,-1.4447399,-0.027012821,0.050492793,-0.11906394,-0.37758714,-0.32815796,0.06003974,3.0790722,-0.6236025,-6.400071e-05,-0.06715469,-0.0005844959,0.0026066762,-0.0053049913,0.006587503,0.01892693,0.44370213,-1.463158,2.0006955,-2.1068966,-1.5705413,2.4177623,-0.060250107,0.109127745,-0.12913497,0.0117721995,0.0017185906,-0.07908986,-0.34476507,0.22984336,-9.461885,0.83813137,47.672558,-1.1175408,-1.6836246,-3.3496294,-0.2716078,0.070625395,-0.18589413,26.125,27.0,26.125,29.1875,30.25,30.6875
0.1440539,-2.0470812,-1.6569462,-1.6711051,-0.025912974,0.05065405,-0.113641635,-0.3777093,-0.3281546,0.060007352,-3.079072,0.62354696,-5.0118975e-05,-0.06726837,-0.00028330003,0.0020083305,-0.004436972,0.004632366,0.015262481,0.44356993,-1.4628699,2.0004432,-2.1068604,-1.570517,2.4175956,-0.060923133,0.11091342,-0.13005947,0.013051497,0.001770057,-0.07609824,-0.5363012,0.24899697,-9.5385,0.8717007,47.679718,-1.1438816,-1.6721625,-3.4485378,-0.29422376,0.042749844,-0.24320829,26.125,27.0,26.125,29.1875,30.25,30.6875
0.14605382,-1.4149334,-1.0529208,-1.5004548,-0.044052396,0.08096838,-0.12934668,-0.37784904,-0.32816792,0.060032498,3.0790763,-0.6234715,-1.3088913e-05,-0.068611294,-0.00039495702,0.0018723172,-0.004450657,0.0046064514,0.014538717,0.44346172,-1.4626774,2.0001676,-2.106837,-1.570505,2.41744,-0.061904095,0.11361326,-0.13275202,0.01306282,0.0017930258,-0.076353416,-0.47884035,0.24899697,-9.634268,0.87617236,47.687782,-1.229393,-1.7580153,-3.3563762,-0.27645096,0.040121954,-0.23389715,26.125,27.0,26.125,29.1875,30.25,30.6875
0.14805408,-2.443682,-1.4588863,-1.6344827,-0.031608734,0.059284836,-0.11786389,-0.37798887,-0.32814026,0.060029253,3.0791035,-0.62342066,-8.280616e-06,-0.07003865,-5.697725e-05,0.0024275468,-0.0052424497,0.005982683,0.010298603,0.44329286,-1.4624617,1.9999288,-2.1068013,-1.570517,2.417236,-0.06385963,0.113905884,-0.13429436,0.012728731,0.0019139911,-0.07406805,-0.5363012,0.28730422,-9.691729,0.8560339,47.679718,-1.1934817,-1.4524368,-3.4277608,-0.2659245,0.053082593,-0.29512113,26.125,27.0,26.125,29.1875,30.25,30.6875
0.15005377,-2.2087665,-1.3610238,-1.59249,-0.03367588,0.06543359,-0.11731063,-0.37811643,-0.32816887,0.060039323,3.0790555,-0.623373,-3.1597276e-05,-0.07080199,0.0006007738,0.00041381412,-0.0034085151,0.0022741167,0.010101054,0.44320816,-1.4622439,1.9996651,-2.1068013,-1.5704812,2.4171278,-0.065704875,0.1193595,-0.13576718,0.012887817,0.0018489726,-0.07571394,-0.53630114,0.21068975,-9.672575,0.8247004,47.70838,-1.1549041,-1.8126044,-3.3578384,-0.27459443,0.037899412,-0.3300898,26.125,27.0,26.125,29.1875,30.25,30.6875
0.15205365,-1.7115817,-1.0136387,-1.5236565,-0.040739894,0.06993664,-0.12490635,-0.3782718,-0.32817462,0.060059555,3.0790648,-0.6232969,-7.4001546e-05,-0.0720057,0.0006501709,0.0003499978,-0.0037093647,0.0028850902,0.010477725,0.443088,-1.462004,1.9993399,-2.1067412,-1.5704931,2.4169593,-0.066844724,0.121069275,-0.13735373,0.01208305,0.0018560549,-0.07722907,-0.47884035,0.19153613,-9.576807,0.8112748,47.686886,-1.1778982,-1.6449097,-3.366167,-0.26727033,0.06054628,-0.3177436,26.125,27.0,26.125,29.1875,30.25,30.6875
0.15405399,-1.9351461,-1.2202215,-1.5246929,-0.02935444,0.065087326,-0.11758424,-0.37842426,-0.32814014,0.06004284,3.0791085,-0.62330705,-0.00010471637,-0.074430585,0.00014820744,0.0019498783,-0.005306481,0.0065559824,0.00936478,0.4429196,-1.4617522,1.9991001,-2.1067417,-1.5705413,2.416792,-0.06794043,0.1216127,-0.14157347,0.011755382,0.0017158809,-0.077209085,-0.47884035,0.17238252,-9.481039,0.7597976,47.68062,-1.1656603,-1.6918471,-3.27206,-0.25289917,0.040357508,-0.33716655,26.125,27.0,26.125,29.1875,30.25,30.6875
0.15605484,-1.7109052,-1.0251144,-1.5162404,-0.018167363,0.06432893,-0.12461684,-0.3785989,-0.3281636,0.060077522,3.0790112,-0.6233058,-0.00017715103,-0.07512749,0.0004387231,0.0009723282,-0.004533011,0.005281278,0.009115004,0.44277513,-1.4615237,1.9987653,-2.1067297,-1.5704931,2.416659,-0.0689668,0.12459611,-0.14253682,0.011223096,0.0015684437,-0.07798421,-0.40222588,0.19153613,-9.442732,0.76874626,47.711063,-1.1067648,-1.7403083,-3.384963,-0.23842719,0.05351638,-0.37349033,26.125,27.0,26.125,29.1875,30.25,30.6875
0.15805416,-1.9705225,-0.95718235,-1.343091,-0.01128207,0.046536505,-0.11788637,-0.37876227,-0.32819018,0.060091283,3.078974,-0.62316394,-0.00021748077,-0.0760874,0.000776922,0.0005173225,-0.0040795216,0.0046218983,0.008608499,0.4426549,-1.4612594,1.9984416,-2.1067297,-1.5704573,2.4164553,-0.070334695,0.12685522,-0.14403048,0.01125129,0.0014435885,-0.078844205,-0.38307226,0.2681506,-9.404425,0.82022345,47.67166,-1.1536121,-1.7318692,-3.361928,-0.22032535,0.051604554,-0.35212004,26.125,27.0,26.125,29.1875,30.25,30.6875
0.16005461,-1.5123532,-0.5195243,-1.085514,-0.016165493,0.052906793,-0.1243948,-0.37889412,-0.32814384,0.06006427,3.0790722,-0.62318313,-0.00019382723,-0.07700316,0.00045624742,0.00074481964,-0.0043184124,0.0052564535,0.009140419,0.4424987,-1.4610072,1.9982136,-2.1066816,-1.5705289,2.4162989,-0.0704756,0.12825447,-0.14613655,0.011277266,0.0013786547,-0.07951568,-0.40222588,0.22984336,-9.289502,0.86498255,47.678825,-1.1562192,-1.7586586,-3.380917,-0.19779739,0.048735753,-0.40366024,26.125,27.0,26.125,29.1875,30.25,30.6875
0.16205376,-1.2137599,-0.4910401,-1.1528611,-0.010975581,0.051519975,-0.120234646,-0.37907487,-0.32816514,0.060084242,3.0789878,-0.6232031,-0.00026377686,-0.07933659,0.0018297478,0.00044260474,-0.0039351806,0.0046064574,0.010651079,0.4423533,-1.4607427,1.997878,-2.1066935,-1.5704931,2.4161768,-0.07503415,0.13111176,-0.1487553,0.011793783,0.001315109,-0.08558294,-0.4213795,0.11492168,-9.346964,0.83589023,47.71554,-1.0462465,-1.6776321,-3.3935874,-0.18820114,0.048866495,-0.37219226,26.125,27.0,26.125,29.1875,30.25,30.6875
0.16405405,-1.1058654,-0.28484094,-1.0549258,-0.011936734,0.044684093,-0.124067776,-0.3792498,-0.3281696,0.0601138,3.078973,-0.6231209,-0.00038941097,-0.07849186,0.0013541155,-0.0007254851,-0.0027747082,0.001984212,0.014713629,0.44222176,-1.4605142,1.9975547,-2.106681,-1.570517,2.415996,-0.07341059,0.13358279,-0.14898546,0.012417485,0.0013979696,-0.088021636,-0.4213795,0.095768064,-9.270349,0.800085,47.711964,-1.044539,-1.8592467,-3.308671,-0.17571315,0.047153488,-0.34920824,26.125,27.0,26.125,29.1875,30.25,30.6875
0.16605428,-1.0921425,-0.4459705,-1.029277,-0.008960139,0.04710529,-0.126256,-0.37940747,-0.32816318,0.060108244,3.0789912,-0.623045,-0.00031983276,-0.080423534,0.0013378027,-0.0014743827,-0.0022176206,0.00092680403,0.018292876,0.4420533,-1.4602249,1.9972309,-2.1066096,-1.5704931,2.4157782,-0.075018644,0.13868475,-0.15297374,0.012500704,0.0013371495,-0.0932059,-0.47884035,0.038307227,-9.251195,0.82022345,47.721813,-1.0928203,-1.8858926,-3.25536,-0.16649702,0.043499433,-0.3074117,26.125,27.0,26.125,29.1875,30.25,30.6875
0.16805427,-1.2551832,-0.5150235,-0.9132154,-0.011216999,0.043830592,-0.11962513,-0.37958845,-0.32815856,0.060136,3.0789273,-0.6230706,-0.00043931475,-0.08203244,0.003086877,-0.0011131926,-0.0021884248,0.0009888221,0.018851252,0.4418836,-1.4600095,1.9969314,-2.106621,-1.5704931,2.4156327,-0.07963809,0.138374,-0.15371555,0.013510357,0.0012960782,-0.098383516,-0.28730422,0.15322891,-9.174581,0.8537928,47.72719,-0.9660529,-1.8958039,-3.428318,-0.17029381,0.041998245,-0.23773943,26.125,27.0,26.125,29.1875,30.25,30.6875
0.17005417,-1.1339597,-0.9241822,-1.0041066,-0.006126887,0.04435057,-0.12088179,-0.37971634,-0.328145,0.060093805,3.079038,-0.6228956,-0.0003144438,-0.08161965,0.0020887733,-0.0014525411,-0.0020007445,5.477656e-05,0.026503542,0.44175243,-1.4596856,1.9966558,-2.1065614,-1.570505,2.4153786,-0.07752231,0.14010622,-0.15501183,0.013997459,0.0015151745,-0.103919625,-0.28730422,0.17238252,-9.174581,0.8224646,47.709274,-0.9375538,-1.8391905,-3.3447635,-0.16956525,0.04973447,-0.18011889,26.125,27.0,26.125,29.1875,30.25,30.6875
0.17205456,-1.2647954,-0.9643962,-0.7039684,-0.013872437,0.041960027,-0.11648506,-0.3799185,-0.32813588,0.060092796,3.0790262,-0.6228343,-0.00033098567,-0.083281614,0.0025485607,-0.0011131769,-0.0021140017,0.00040446347,0.028563783,0.4415477,-1.4593614,1.9962963,-2.1065485,-1.5704931,2.4151373,-0.079769835,0.1416696,-0.1577495,0.014809203,0.0014679028,-0.10822579,-0.3256114,0.21068975,-9.097966,0.7732232,47.678825,-0.96554625,-1.8396533,-3.3703034,-0.15866345,0.06628861,-0.12033202,26.125,27.0,26.125,29.1875,30.25,30.6875
0.1740536,-1.5573263,-0.90391123,-0.7443624,-0.012722779,0.03519015,-0.113632664,-0.3800788,-0.32815197,0.060104664,3.0790207,-0.62269837,-0.00036642049,-0.08507958,0.0025786606,6.146695e-05,-0.0033286382,0.0030744006,0.028290138,0.44142726,-1.4590981,1.995972,-2.1065252,-1.5704812,2.414933,-0.08135086,0.14149582,-0.16021511,0.014517437,0.0014241271,-0.10953168,-0.30645782,0.11492168,-9.078813,0.8157518,47.687782,-0.9176166,-1.7482376,-3.3102958,-0.13141961,0.059336796,-0.06764084,26.125,27.0,26.125,29.1875,30.25,30.6875
0.17605385,-1.1865768,-0.56399393,-0.7167978,-0.0088968165,0.032846566,-0.12096792,-0.38024807,-0.32812718,0.06010261,3.0790255,-0.6227011,-0.0004163152,-0.08593566,0.0030686664,-0.00025094242,-0.0028973827,0.0020907996,0.025407206,0.44124666,-1.4588461,1.9956974,-2.1065247,-1.570505,2.4147537,-0.082997955,0.14330214,-0.16170913,0.015276316,0.0014555235,-0.10829498,-0.30645782,0.17238252,-9.174581,0.8179876,47.7245,-0.80157286,-1.7718682,-3.3595963,-0.12987006,0.065886065,-0.06487864,26.125,27.0,26.125,29.1875,30.25,30.6875
0.17805398,-1.4327714,-0.30386153,-0.6247432,-0.0068775103,0.020406052,-0.10987494,-0.38044333,-0.3281276,0.060114074,3.0789776,-0.62259763,-0.00043146563,-0.08678001,0.0034201862,-0.0004542268,-0.00263275,0.0016683709,0.021293087,0.44104227,-1.4585581,1.9953493,-2.1065128,-1.5704573,2.414491,-0.08430696,0.14483349,-0.16305149,0.015587882,0.0013990875,-0.1054889,-0.34476507,0.19153613,-9.11712,0.82022345,47.67345,-0.89035976,-1.6743846,-3.3877354,-0.11012838,0.06194171,-0.060582586,26.125,27.0,26.125,29.125,30.25,30.6875
0.18005426,-1.1708102,-0.40934938,-0.80121195,-0.00114238,0.025073983,-0.111002006,-0.3806196,-0.32811227,0.06011831,3.0789886,-0.62260306,-0.00046820912,-0.08850464,0.00365112,-0.00036027667,-0.002701785,0.0015425689,0.015569772,0.44087332,-1.4582818,1.995025,-2.1064765,-1.5704812,2.4143243,-0.08629129,0.14740762,-0.16634065,0.016384458,0.0015101439,-0.10174801,-0.34476507,0.21068975,-9.11712,0.85826975,47.682407,-0.6323824,-1.6874487,-3.41497,-0.11220261,0.06686806,-0.09994362,26.125,27.0,26.125,29.125,30.25,30.6875
0.18205424,-0.79468274,-0.21785486,-0.8805533,-0.0059201205,0.03452517,-0.11602592,-0.38078266,-0.32809767,0.060114056,3.079036,-0.6225373,-0.00045892998,-0.08833714,0.0036876667,0.00012000054,-0.0031372777,0.0021468743,0.011999697,0.44071746,-1.4579947,1.9947027,-2.1064165,-1.570505,2.4141216,-0.08625324,0.14597973,-0.16597128,0.016707962,0.0016442122,-0.09814069,-0.30645782,0.13407528,-9.212888,0.8403672,47.70032,-0.7117026,-1.6666336,-3.445649,-0.10967453,0.04892867,-0.14015068,26.125,27.0,26.125,29.125,30.25,30.6875
0.1840543,-0.5944892,-0.9244824,-0.9480554,-0.001073397,0.045033354,-0.11671777,-0.3809444,-0.32809448,0.060081128,3.0790825,-0.62247443,-0.0003550371,-0.09070281,0.004851438,-0.00020293622,-0.003508842,0.0013115662,0.0041154944,0.44055992,-1.4576339,1.994367,-2.1063688,-1.5704926,2.4139192,-0.0909232,0.14900127,-0.1687057,0.017016925,0.0023237206,-0.09492549,-0.30645782,0.095768064,-9.155427,0.8247004,47.69763,-0.6040094,-1.7270696,-3.361637,-0.11293674,0.055579603,-0.18661267,26.125,27.0,26.125,29.125,30.25,30.6875
0.18605463,-1.0471461,-0.7534932,-0.92318904,-0.008976944,0.040692434,-0.11829624,-0.38113204,-0.328105,0.0601072,3.0790093,-0.6224577,-0.0003849043,-0.09034802,0.0033626745,0.0002904066,-0.0036779894,0.001532534,0.0052878624,0.44038123,-1.4573703,1.9940065,-2.106332,-1.5704445,2.4137394,-0.08782089,0.14981179,-0.1710636,0.018297018,0.00238586,-0.09299443,-0.21068975,0.05746084,-9.2703495,0.8224646,47.68062,-0.7874123,-1.5758703,-3.4080048,-0.10012871,0.05632204,-0.24389832,26.125,27.0,26.125,29.125,30.25,30.6875
0.18805465,-1.1486247,-0.59920615,-1.1831424,-0.007523701,0.037566826,-0.11439025,-0.3812899,-0.32809165,0.06008276,3.0790262,-0.62242454,-0.00029981296,-0.09129288,0.0035882397,0.0005692466,-0.003654796,0.0015726698,0.0029509855,0.44020072,-1.4570587,1.9937085,-2.1062963,-1.5704206,2.4135363,-0.088996395,0.15075587,-0.17302108,0.019286767,0.002341387,-0.09183222,-0.22984336,0.15322891,-9.32781,0.8560339,47.711964,-0.70699096,-1.5781498,-3.379652,-0.11327149,0.058951914,-0.2685269,26.125,27.0,26.125,29.125,30.25,30.6875
0.19005397,-0.91589653,-0.45643976,-1.2207506,-0.004894627,0.04688098,-0.12082429,-0.38151208,-0.32805324,0.060095284,3.079077,-0.6224541,-0.00043309238,-0.091055416,0.0037328566,0.00018822002,-0.0029547978,0.00045627385,0.00078009546,0.43999684,-1.456747,1.9933256,-2.1062596,-1.5705165,2.4133449,-0.08889129,0.15144594,-0.17312232,0.019998465,0.002187948,-0.0895561,-0.30645782,0.21068975,-9.251195,0.7978386,47.701214,-0.7704944,-1.5046049,-3.4772396,-0.09761234,0.048371162,-0.3153945,26.125,27.0,26.125,29.125,30.25,30.6875
0.19205388,-0.96299636,-0.5330353,-1.6696562,-0.005159788,0.040910758,-0.11736158,-0.38169006,-0.32805845,0.06009326,3.0790493,-0.6224657,-0.00035703415,-0.09165159,0.003218754,-0.00046387865,-0.002107012,-0.0011429777,0.0033010133,0.4398171,-1.4564217,1.9929527,-2.106188,-1.5704683,2.413176,-0.08834631,0.1552069,-0.17608485,0.021013321,0.0020965326,-0.09153007,-0.17238252,0.21068975,-9.442732,0.84484416,47.658226,-0.86910295,-1.7721943,-3.3443391,-0.09999843,0.07074396,-0.3346752,26.125,27.0,26.125,29.125,30.25,30.6875
0.19405383,-1.1755029,-1.0532634,-1.7064707,-0.010882796,0.03638595,-0.11695536,-0.3818605,-0.3280554,0.060074825,3.079035,-0.62246567,-0.00029123464,-0.09222069,0.0029066738,-0.0014178164,-0.0012385598,-0.0032462848,-0.00021129962,0.43963704,-1.4560972,1.9926289,-2.1061637,-1.5704325,2.412998,-0.088284574,0.15924783,-0.17861253,0.021776011,0.0021987383,-0.08795442,-0.21068975,0.21068975,-9.576807,0.8537928,47.677036,-0.86804706,-1.6478417,-3.4269977,-0.09933322,0.07527903,-0.415932,26.125,27.0,26.125,29.125,30.25,30.6875
0.19605392,-0.9407279,-1.1865917,-1.8713309,-0.030407121,0.034107696,-0.109993756,-0.38203663,-0.32804427,0.06007929,3.0790358,-0.6224061,-0.00025143404,-0.09247362,0.0025688978,-0.0014634241,-0.00088225707,-0.0035966842,0.0019027409,0.43944526,-1.4558094,1.9922823,-2.1060913,-1.5704092,2.412769,-0.087706104,0.16057976,-0.18019721,0.022500874,0.0020223765,-0.08948898,-0.114921674,0.24899697,-9.615114,0.90527004,47.70838,-1.0203133,-1.7030909,-3.471136,-0.11076318,0.07204726,-0.45356685,26.125,27.0,26.125,29.125,30.25,30.6875
0.19805393,-0.96897054,-1.7486738,-1.9760115,-0.048614744,0.033387307,-0.11889517,-0.38224617,-0.32803586,0.060096417,3.0790315,-0.62248063,-0.00035408186,-0.09316715,0.0028111727,-0.002407729,8.491683e-05,-0.0056829876,0.0034761399,0.439277,-1.4554967,1.9918875,-2.106055,-1.5704573,2.4126482,-0.08872121,0.16403028,-0.18208615,0.023235152,0.0020364427,-0.092076086,-0.05746084,0.24899697,-9.672575,0.8985519,47.650166,-0.941261,-1.7404861,-3.4322793,-0.11904534,0.07557238,-0.4706906,26.125,27.0,26.125,29.125,30.25,30.6875
0.20005427,-0.9445285,-1.9576489,-1.9516623,-0.05839897,0.029442672,-0.11184782,-0.38242742,-0.32802278,0.060081527,3.079072,-0.62240744,-0.00026677462,-0.093927816,0.002719621,-0.0031098726,0.0007239864,-0.00676112,0.010880072,0.43908462,-1.4551481,1.991515,-2.1059716,-1.570445,2.4124053,-0.089079365,0.16718651,-0.18405738,0.023300527,0.0019079226,-0.099836655,0.038307227,0.2873042,-9.787497,0.842603,47.685097,-0.960806,-1.972048,-3.5105474,-0.13230526,0.060096256,-0.4395576,26.125,27.0,26.125,29.125,30.25,30.6875
0.20205468,-1.4200358,-2.1709714,-1.9684377,-0.054067053,0.016758107,-0.11090546,-0.38262033,-0.32803845,0.060081918,3.079061,-0.62232757,-0.00025861047,-0.095450446,0.00308702,-0.0029303222,0.00028718708,-0.0059532267,0.013080783,0.438928,-1.4548004,1.9911193,-2.1059353,-1.5704211,2.4122005,-0.091078065,0.16851425,-0.18591233,0.022913912,0.001956506,-0.104034856,0.05746084,0.34476504,-9.653421,0.81351066,47.691364,-0.94278,-1.8763446,-3.5142887,-0.13121834,0.067060955,-0.4092417,26.125,27.0,26.125,29.125,30.25,30.6875
0.20405456,-0.7274025,-1.8868237,-1.8990054,-0.045440137,0.024901459,-0.121186286,-0.3828163,-0.32800436,0.06007651,3.0790994,-0.6222898,-0.0003185755,-0.097180516,0.0027110197,-0.0025386282,-0.00028643225,-0.004336042,0.022624858,0.43872395,-1.4545006,1.9907955,-2.105924,-1.5704688,2.4119682,-0.09172382,0.17062517,-0.18904911,0.022229007,0.0017838582,-0.11422227,0.076614454,0.36391866,-9.595961,0.8403672,47.693153,-0.99767333,-1.9892974,-3.3082342,-0.111005634,0.082467094,-0.34320235,26.125,27.0,26.125,29.125,30.25,30.6875
0.20605402,-0.7425181,-1.7409903,-1.8290017,-0.039643597,0.0120728295,-0.112100765,-0.38300392,-0.3280112,0.060070526,3.0791135,-0.62215674,-0.00028071695,-0.098692186,0.002192847,-0.0013386258,-0.0016262683,-0.0013986235,0.02705661,0.4385558,-1.4541531,1.9904116,-2.1058757,-1.570445,2.4117155,-0.092001185,0.17057742,-0.19167322,0.021676237,0.0017420676,-0.11892986,0.019153614,0.4405331,-9.557653,0.8291774,47.705692,-1.0397682,-1.8967943,-3.3777974,-0.09701279,0.071778044,-0.27590233,26.125,27.0,26.125,29.125,30.25,30.6875
0.20805459,-0.6647942,-1.1542681,-1.8852267,-0.046528842,0.0149997575,-0.11281561,-0.38319844,-0.32802555,0.06007888,3.0791163,-0.62196183,-0.00026044974,-0.09910984,0.0023571711,-0.0015339418,-0.0014818485,-0.0017740867,0.031151654,0.43838766,-1.4538169,1.9900049,-2.1058161,-1.5704092,2.4114256,-0.092632964,0.17155796,-0.1924091,0.021838041,0.0017720822,-0.123656295,0.076614454,0.4213795,-9.5385,0.83365434,47.682407,-1.0240079,-1.9279279,-3.4484115,-0.08938371,0.08284416,-0.21869832,26.125,27.0,26.125,29.125,30.25,30.6875
0.21005373,-0.5687383,-1.6402798,-1.9097412,-0.039486095,0.018326474,-0.10586833,-0.38340074,-0.3280118,0.060080405,3.0791535,-0.62185293,-0.000320486,-0.098940946,0.0021688857,-0.002577448,-0.00071150344,-0.0043328837,0.03341888,0.43820798,-1.4534925,1.9896349,-2.1057923,-1.5704445,2.4111736,-0.092335746,0.1744031,-0.19342706,0.022649638,0.0021630868,-0.12562601,-0.019153614,0.45968673,-9.557653,0.85826975,47.68599,-1.0593807,-1.997936,-3.5326414,-0.09017992,0.08527976,-0.16543114,26.125,27.0,26.125,29.125,30.25,30.6875
0.212054,-0.74905294,-2.2383785,-1.7597466,-0.039002124,0.017904498,-0.11298219,-0.3836248,-0.32800275,0.060086366,3.079166,-0.6218376,-0.00033178896,-0.10067464,0.002579932,-0.0024065298,-0.0012843657,-0.0039037182,0.030125905,0.4380028,-1.4531208,1.9891909,-2.1057203,-1.5704569,2.4109576,-0.09476956,0.17616647,-0.19584979,0.022675151,0.002493708,-0.124765724,-0.019153614,0.3256114,-9.557653,0.90527004,47.685097,-0.9059714,-1.8456748,-3.4317384,-0.08160422,0.08519417,-0.16129498,26.125,27.0,26.125,29.125,30.25,30.6875
0.21405461,-1.4729731,-1.9564766,-1.4043136,-0.06374837,0.014919593,-0.105985746,-0.3838301,-0.3280096,0.060099203,3.0791523,-0.6217594,-0.00039099215,-0.10119112,0.0015159774,-0.0015866596,-0.0020526333,-0.0023694506,0.028196948,0.4378355,-1.4527973,1.9887956,-2.105696,-1.5704569,2.4107435,-0.09321252,0.17657182,-0.19830947,0.023014309,0.0025386056,-0.12127842,-0.17238252,0.3256114,-9.519346,0.80679786,47.701214,-1.1805634,-1.8546393,-3.562223,-0.08385354,0.07381631,-0.17510873,26.125,27.0,26.125,29.125,30.25,30.6875
0.21605392,-1.0896208,-1.5600941,-1.2821777,-0.0494252,0.036197077,-0.112032704,-0.38401863,-0.32799876,0.060074095,3.0791674,-0.62167126,-0.0002678229,-0.10290908,0.0025498564,-0.0017894976,-0.0023102504,-0.0029539443,0.019812113,0.43761808,-1.452425,1.9884247,-2.105636,-1.5704087,2.4104693,-0.096881606,0.17846079,-0.20008436,0.023324665,0.003007309,-0.116562285,-0.24899697,0.28730422,-9.3661175,0.83365434,47.687782,-1.0102199,-1.8219413,-3.5546417,-0.058199793,0.06970044,-0.22867145,26.125,27.0,26.125,29.125,30.25,30.6875
0.21805394,-0.5864454,-0.5674921,-1.3149791,-0.0345056,0.05422755,-0.11736977,-0.3842255,-0.32801524,0.060086697,3.0791337,-0.62158674,-0.00030597192,-0.10318594,0.0013124862,-0.0012774835,-0.0032899966,-0.0019799087,0.018480636,0.43745103,-1.4520899,1.988017,-2.1056125,-1.5703839,2.410254,-0.09507712,0.17927052,-0.20222315,0.023357674,0.0034819397,-0.11342551,-0.17238252,0.28730422,-9.3661175,0.8918391,47.672558,-1.2344327,-1.6887524,-3.5435905,-0.06728678,0.061872467,-0.28450286,26.125,27.0,26.125,29.125,30.25,30.6875
0.2200541,-1.2724111,-0.7960517,-1.2464427,1.6483726e-05,0.032726347,-0.108185776,-0.38443792,-0.32801163,0.06008192,3.0791688,-0.62151825,-0.0003555824,-0.10514701,0.0010896529,0.0006540692,-0.005399763,0.0016150051,0.016176445,0.43728256,-1.4517189,1.9876088,-2.1055882,-1.5704201,2.4100387,-0.096566,0.1779842,-0.20532645,0.023592332,0.0038657908,-0.11260924,-0.17238252,0.1340753,-9.232041,0.8605109,47.705692,-1.2085292,-1.563673,-3.487043,-0.063148916,0.06344553,-0.3127096,26.125,27.0,26.125,29.125,30.25,30.6875
0.22205436,-0.71855307,-0.03625569,-1.0633894,0.0041924263,0.038159948,-0.114333674,-0.3846624,-0.3280029,0.06008211,3.079136,-0.621511,-0.0003622247,-0.10645753,0.00048753634,0.0011100542,-0.0065015587,0.0025042067,0.015759973,0.4370543,-1.4513589,1.9872016,-2.1055644,-1.5703963,2.4098103,-0.09692742,0.17971912,-0.20837602,0.023636473,0.004484663,-0.112552926,-0.2681506,0.076614454,-9.251195,0.8291774,47.668976,-1.1264262,-1.5707163,-3.431665,-0.03938869,0.03592471,-0.35942864,26.125,27.0,26.125,29.125,30.25,30.6875
0.22405434,-0.28564426,0.43571493,-1.380231,0.017528865,0.04111388,-0.1239337,-0.38486287,-0.32799307,0.060073856,3.0791636,-0.6214433,-0.00033173055,-0.109652035,0.00137053,0.002128189,-0.007640998,0.0044560772,0.010240012,0.4368609,-1.4509991,1.9868053,-2.1055043,-1.5703963,2.4095714,-0.101414844,0.18129718,-0.21262412,0.024055991,0.0046810214,-0.11151833,-0.21068975,0.05746084,-9.232041,0.85155696,47.70659,-1.0230839,-1.5526372,-3.36619,-0.03033014,0.036773957,-0.39101747,26.125,27.0,26.125,29.125,30.25,30.6875
0.22605376,-0.5454819,0.59092784,-1.4308928,0.011936607,0.036372814,-0.11728035,-0.38508105,-0.3280037,0.06008029,3.0791152,-0.62144935,-0.0003003912,-0.108963,-0.00015628518,0.0020657384,-0.007298325,0.0037860016,0.015817106,0.43665814,-1.4506272,1.9863619,-2.1054442,-1.5703481,2.4093788,-0.09788983,0.1829092,-0.21460067,0.025179625,0.0046557053,-0.11356941,-0.30645782,-0.076614454,-9.442732,0.92764956,47.70032,-1.1735443,-1.3519671,-3.3851461,-0.028978866,0.0430211,-0.38694656,26.125,27.0,26.125,29.125,30.25,30.6875
0.22805402,-1.0671997,-0.15558496,-1.3214301,0.0020610993,0.048496153,-0.113088004,-0.38529932,-0.32799757,0.060077358,3.0791447,-0.62132275,-0.00032187326,-0.11012868,0.002125348,0.00033833107,-0.0051448746,-0.00023146627,0.011295195,0.43646425,-1.4502543,1.9859442,-2.105408,-1.5703601,2.4091024,-0.1028997,0.18655036,-0.2151004,0.02659008,0.004407018,-0.11405671,-0.30645782,-0.019153614,-9.385271,0.8493211,47.73256,-1.1014292,-1.6330783,-3.3812466,-0.032901827,0.0523102,-0.424475,26.125,27.0,26.125,29.125,30.25,30.6875
0.2300541,-1.6330719,-0.45994207,-1.4242364,-0.0015909004,0.0587836,-0.11796605,-0.38549343,-0.32800078,0.060090143,3.079156,-0.6212425,-0.0002679139,-0.110438086,0.0011044352,-0.0004909287,-0.003896245,-0.0021349501,0.019711673,0.43628517,-1.4499178,1.9855117,-2.1052873,-1.5703362,2.4088721,-0.10099074,0.19109507,-0.21861877,0.027822802,0.004074912,-0.120561734,-0.3256114,0.076614454,-9.346964,0.84484416,47.70659,-1.1657518,-1.6237159,-3.2940981,-0.058874235,0.04460243,-0.38509837,26.125,27.0,26.125,29.125,30.25,30.6875
0.23205422,-2.0040426,-1.0240148,-1.5894088,0.0019728749,0.072678484,-0.114362024,-0.385713,-0.3279869,0.060092296,3.0791705,-0.6211656,-0.0002680601,-0.112173624,0.0017848705,0.00027152343,-0.0039033028,-0.0016216155,0.023955867,0.43606818,-1.4495584,1.9850916,-2.1052272,-1.5703362,2.4086056,-0.10354377,0.19190001,-0.2217537,0.029687786,0.0038645286,-0.12735747,-0.49799395,0.13407528,-9.442732,0.8537928,47.71554,-1.092253,-1.6377945,-3.208026,-0.07404235,0.024437571,-0.3316679,26.125,27.0,26.125,29.125,30.25,30.6875
0.2340544,-1.8765196,-0.94286966,-1.3489438,-0.016501792,0.10211141,-0.1154435,-0.3859441,-0.3279723,0.06007839,3.079211,-0.6211135,-0.00029786734,-0.11232545,0.0026451375,-0.00032126944,-0.0030046024,-0.0035061382,0.028891433,0.4358637,-1.4491502,1.9846619,-2.1052034,-1.570372,2.4083638,-0.105181366,0.19290526,-0.22186917,0.03088342,0.0038500852,-0.13393086,-0.47884035,0.1340753,-9.308657,0.800085,47.689575,-1.0854101,-1.7948109,-3.27991,-0.09405796,0.036966644,-0.2558718,26.125,27.0,26.125,29.125,30.25,30.6875
0.2360541,-2.4835045,-0.9088404,-1.4793541,-0.024267925,0.08819337,-0.11318328,-0.38614076,-0.32795405,0.06004719,3.079255,-0.6210414,-0.0001398102,-0.11274352,0.0035537393,-0.00087979314,-0.0023730823,-0.0049615446,0.033998754,0.4356351,-1.4487426,1.9842557,-2.1051066,-1.5703362,2.4080849,-0.10717171,0.19395836,-0.22199643,0.03155081,0.003881225,-0.14102903,-0.5746084,0.17238252,-9.32781,0.86498255,47.683304,-1.0036889,-1.6540295,-3.391605,-0.113288656,0.022841342,-0.15617147,26.125,27.0,26.125,29.125,30.25,30.6875
0.2380544,-2.1702545,-1.2277362,-1.5584899,-0.019815827,0.07972361,-0.102587216,-0.38639063,-0.3279477,0.060076926,3.0792685,-0.62083423,-0.00019715971,-0.113470495,0.0043970547,-0.0020784521,-0.0010799397,-0.007628307,0.03314827,0.43540624,-1.4483817,1.983765,-2.1050227,-1.5703362,2.4077253,-0.10924887,0.19731832,-0.22327982,0.032439124,0.0038388106,-0.1422546,-0.5746084,0.13407528,-9.404425,0.9567419,47.687782,-0.8124119,-1.7870262,-3.4493551,-0.10443039,0.029358663,-0.11388769,26.125,27.0,26.125,29.125,30.25,30.6875
0.24005471,-1.8372595,-0.9473459,-1.2627954,-0.033841033,0.077875935,-0.10980209,-0.3866062,-0.3279557,0.06008089,3.0792308,-0.6207516,-0.00018143155,-0.11310874,0.0053206403,-0.0035702677,0.00080568163,-0.0114333145,0.029560974,0.435202,-1.448022,1.9833454,-2.1049864,-1.5702881,2.4074745,-0.1105002,0.19979736,-0.22306292,0.033996034,0.0037383279,-0.1399187,-0.7086837,0.19153613,-9.423578,0.88289046,47.684196,-0.8220552,-1.7672739,-3.6250439,-0.14474833,0.01603808,-0.10167618,26.125,27.0,26.125,29.125,30.25,30.6875
0.24205406,-1.5859594,-1.2148759,-1.3446375,-0.021072948,0.07904322,-0.10780009,-0.38684347,-0.32793707,0.060064945,3.0793014,-0.6206917,-0.00015311695,-0.11423518,0.00557829,-0.0028006244,0.0005477648,-0.009788184,0.024272406,0.43498564,-1.447579,1.9828671,-2.1049025,-1.5703243,2.4072123,-0.11155459,0.19954231,-0.22468558,0.03426979,0.0032657322,-0.13568354,-0.57460845,0.24899697,-9.423578,0.90750587,47.66808,-0.8509108,-1.6412628,-3.7422104,-0.15460263,0.03363387,-0.14293021,26.125,27.0,26.125,29.125,30.25,30.6875
0.24405468,-1.3888357,-0.4501316,-1.3553022,-0.023224125,0.071928196,-0.11507696,-0.38709727,-0.32793456,0.06009085,3.0792568,-0.62066597,-0.00019186507,-0.1163924,0.005347312,-0.0024874413,-0.00020618954,-0.0075013647,0.018184016,0.43474525,-1.4472067,1.982375,-2.1048315,-1.5703005,2.4069617,-0.11271012,0.20192248,-0.2277471,0.032563496,0.002978634,-0.13074785,-0.51714754,0.22984336,-9.346964,0.8537928,47.68599,-0.80120504,-1.7004898,-3.63593,-0.15325527,0.039827008,-0.18855134,26.125,27.0,26.125,29.125,30.25,30.6875
0.24605386,-1.6801412,-1.0229757,-1.3098054,-0.009815697,0.05924216,-0.09979612,-0.3873263,-0.3279293,0.060077246,3.079258,-0.6206108,-0.00017907949,-0.11807071,0.004820435,-0.0017860555,-0.0007928544,-0.005331211,0.013852948,0.43452924,-1.4467987,1.981944,-2.1048076,-1.5702885,2.4067113,-0.11284103,0.20350924,-0.23110703,0.032123886,0.0025859533,-0.12654522,-0.57460845,0.22984336,-9.3661175,0.90750587,47.72629,-0.85749644,-1.5787787,-3.6235962,-0.15714377,0.037604153,-0.23457587,26.125,27.0,26.125,29.125,30.25,30.6875
0.24805407,-1.2366558,-0.9074641,-1.1741878,-0.016291436,0.07011962,-0.11060139,-0.38758525,-0.3279143,0.060072564,3.0792608,-0.6206323,-0.00016139455,-0.11854414,0.0045588384,-0.002182626,-0.000107975975,-0.006733592,0.010794152,0.43427745,-1.4463547,1.9814409,-2.1047351,-1.5702885,2.406473,-0.11264456,0.20618331,-0.23359522,0.033498496,0.0025485812,-0.123288676,-0.61291564,0.24899697,-9.232041,0.8403672,47.68062,-0.8939109,-1.6650486,-3.5300035,-0.17841405,0.043601938,-0.31606382,26.125,27.0,26.125,29.125,30.25,30.6875
0.25005424,-1.0803624,-0.7722996,-1.1719638,-0.01260639,0.06868573,-0.11469971,-0.3878365,-0.32790625,0.06008824,3.0792267,-0.62064487,-0.0001942079,-0.1201537,0.003588676,-0.00073542143,-0.0015653787,-0.0040178993,0.008483374,0.43403754,-1.4459713,1.9809617,-2.1046746,-1.5702766,2.4062455,-0.11225954,0.20672396,-0.23769727,0.03398401,0.0027229981,-0.120590925,-0.36391866,0.19153613,-9.174581,0.84484416,47.677036,-0.9613718,-1.634628,-3.54914,-0.18436447,0.03107745,-0.3725909,26.125,27.0,26.125,29.125,30.25,30.6875
0.252054,-0.42504728,-0.76211643,-1.228325,-0.013012574,0.060098596,-0.120399915,-0.38805157,-0.3278743,0.060046084,3.079275,-0.6206764,-4.631923e-05,-0.1216824,0.0037524994,-7.644228e-05,-0.0017252106,-0.0037151433,0.0043572183,0.43378478,-1.4455271,1.9805411,-2.1045907,-1.5702647,2.4060066,-0.113792196,0.20810598,-0.24126321,0.03582757,0.0027229167,-0.117996186,-0.24899697,0.15322891,-9.193734,0.9231726,47.686886,-0.77685523,-1.7496998,-3.420214,-0.19586039,0.0370379,-0.44532138,26.125,27.0,26.125,29.125,30.25,30.6875
0.25405443,-0.72598433,-0.8946989,-1.2403864,-0.019182628,0.031159796,-0.11452317,-0.38830018,-0.3278888,0.06005948,3.0792782,-0.6205992,-0.000101142825,-0.1225101,0.0036308966,-0.00023786827,-0.0014469444,-0.0046800314,0.0044841017,0.43360487,-1.4451072,1.9800261,-2.1045306,-1.5702766,2.4057784,-0.11429596,0.21050592,-0.24396247,0.037118282,0.002876771,-0.11862556,-0.15322891,0.24899697,-9.174581,0.842603,47.707485,-1.0241559,-1.711824,-3.3349092,-0.21820867,0.04700838,-0.49336797,26.125,27.0,26.125,29.125,30.25,30.6875
0.25605437,-0.07789647,-0.7978473,-1.4942094,-0.009969782,0.018854644,-0.11232333,-0.3885565,-0.32787395,0.060073625,3.0792763,-0.6205783,-0.00014342261,-0.12477481,0.0033121149,0.0012465687,-0.002925627,-0.0006693436,0.0066545787,0.43336436,-1.4447123,1.9795345,-2.104459,-1.5702885,2.4055254,-0.11532664,0.21059385,-0.24730618,0.0361148,0.0025281708,-0.12182434,-0.11492168,0.3256114,-9.212888,0.8493211,47.690468,-0.8022768,-1.5739114,-3.1447563,-0.24209493,0.032701604,-0.4988311,26.125,27.0,26.125,29.125,30.25,30.6875
0.25805447,-0.1167554,-1.1573857,-1.6015041,-0.002176929,0.016663732,-0.114488564,-0.38879618,-0.32787082,0.060050283,3.0792572,-0.62060654,-9.825829e-06,-0.12542874,0.0034081605,0.0007552262,-0.0027949188,-0.00043013753,0.016840054,0.43311235,-1.4442439,1.9790434,-2.1043756,-1.5702285,2.4052937,-0.11581653,0.2122064,-0.24779612,0.034842476,0.0023005295,-0.13249896,-0.076614454,0.30645782,-9.308657,0.8717007,47.71286,-0.9216175,-1.5561267,-3.3045483,-0.24038835,0.04282359,-0.43710363,26.125,27.0,26.125,29.125,30.25,30.6875
0.26005387,-0.06570156,-1.1884792,-1.5097525,-0.03310523,0.03876455,-0.11718263,-0.38906008,-0.3278315,0.060063653,3.0793293,-0.62057596,-6.0614195e-05,-0.12617105,0.0033772488,0.0016221727,-0.0031186154,0.0005792733,0.026481852,0.4328602,-1.443837,1.9785289,-2.1042554,-1.5703005,2.4050138,-0.116208896,0.21185665,-0.24975309,0.036091454,0.0021705618,-0.14253247,-0.038307227,0.2681506,-9.32781,0.80456203,47.686886,-0.939431,-1.6986797,-3.2813282,-0.24375477,0.046045832,-0.37857914,26.125,27.0,26.125,29.125,30.25,30.6875
0.26205388,-0.7770955,-1.7612484,-1.7918961,-0.0406912,0.038743105,-0.11797327,-0.38930145,-0.32782206,0.060053177,3.0793447,-0.6204796,-3.750164e-06,-0.12592974,0.005225963,-0.001150837,-1.4852041e-05,-0.005914004,0.032754052,0.43261945,-1.4434044,1.9780506,-2.104183,-1.5702766,2.4047112,-0.119259015,0.2165844,-0.24925916,0.03807324,0.0020791763,-0.15185492,0.15322891,0.2681506,-9.423578,0.8873621,47.705692,-0.93199587,-1.5638778,-3.3237147,-0.29080105,0.04957134,-0.26049024,26.125,27.0,26.125,29.125,30.25,30.6875
0.26405397,-0.65505314,-1.8645762,-1.6193898,-0.047895223,0.042147942,-0.11043109,-0.38954267,-0.32781163,0.06002764,3.079436,-0.6202812,1.1686221e-05,-0.12462602,0.0039726705,-0.0030731922,0.0014230582,-0.0097131785,0.04159197,0.43241656,-1.4429361,1.9775718,-2.1041348,-1.5703124,2.4043734,-0.11592416,0.22098337,-0.24998745,0.03845021,0.0023591013,-0.15735762,0.17238252,0.24899697,-9.442732,0.842603,47.716442,-1.0071489,-1.6934322,-3.4782903,-0.3187821,0.06280328,-0.17948397,26.125,27.0,26.125,29.125,30.25,30.6875
0.2660541,-0.27036762,-1.3318977,-1.4654045,-0.058546502,0.039798997,-0.11329255,-0.38980216,-0.32780987,0.060033318,3.0794282,-0.6201859,2.043197e-05,-0.12695967,0.0049857697,-0.0032147025,0.00055677624,-0.0092167845,0.038109075,0.4321748,-1.4425037,1.9770569,-2.1040633,-1.5702885,2.4040735,-0.12006848,0.22319184,-0.25200903,0.0374524,0.002930744,-0.15801828,0.17238252,0.2681506,-9.3661175,0.8247004,47.71017,-0.88259125,-1.9106511,-3.5480733,-0.33561665,0.056743853,-0.14881268,26.125,27.0,26.125,29.125,30.25,30.6875
0.26805452,0.1700586,-0.7879292,-1.3824023,-0.053952307,0.021814613,-0.118582524,-0.39005834,-0.32779947,0.060026344,3.079463,-0.62008005,5.143441e-05,-0.12718782,0.003516344,-0.003256691,-0.0001515844,-0.008065091,0.03501124,0.43193594,-1.4420483,1.9765419,-2.1039798,-1.5702885,2.4037645,-0.11754895,0.22500813,-0.2537219,0.03600535,0.003078123,-0.15239982,0.15322891,0.28730422,-9.32781,0.8157518,47.672558,-1.1049364,-1.762418,-3.4255533,-0.3163352,0.040535178,-0.15284485,26.125,27.0,26.125,29.125,30.25,30.6875
0.27005368,0.36179885,-1.2256868,-1.553452,-0.029722176,0.0025977918,-0.109496444,-0.39029577,-0.32778177,0.059994575,3.0795248,-0.6199986,0.00011726443,-0.12937298,0.0032580667,-0.0021875685,-0.0016435628,-0.0045365663,0.028457707,0.43170765,-1.4415805,1.976075,-2.1039207,-1.5703005,2.403478,-0.1187525,0.22561249,-0.256591,0.034439214,0.0029356414,-0.14704804,0.15322891,0.30645782,-9.3661175,0.8023209,47.667187,-1.0312116,-1.8588219,-3.5406082,-0.3020869,0.06674982,-0.2234035,26.125,27.0,26.125,29.125,30.25,30.6875
0.2720551,0.5633844,-0.8842192,-1.4844393,-0.037225395,0.0048458874,-0.10890728,-0.39056394,-0.32777804,0.059994586,3.0795257,-0.61992484,5.913954e-05,-0.13160677,0.0029948899,-0.0013225547,-0.0027836792,-0.0019900731,0.022516223,0.43147904,-1.4411371,1.975571,-2.1038978,-1.5703124,2.4032035,-0.12004924,0.22716951,-0.2602624,0.03376178,0.0029009192,-0.14240097,0.038307227,0.3256114,-9.289502,0.8940802,47.696735,-0.973019,-1.7979858,-3.6149168,-0.29841664,0.054582655,-0.28637218,26.125,27.0,26.125,29.125,30.25,30.6875
0.27405417,-0.011713832,-1.3590903,-1.5594829,-0.03050554,-0.007320967,-0.104343936,-0.39080936,-0.32775936,0.059961755,3.0795622,-0.61983573,0.00022723219,-0.13374552,0.0021404363,-8.423477e-06,-0.004234627,0.001111469,0.021775782,0.43120328,-1.4406453,1.975068,-2.1037896,-1.5702647,2.4028678,-0.12018991,0.22846743,-0.26479506,0.03358009,0.0028984766,-0.14179903,-0.076614454,0.40222588,-9.32781,0.8918391,47.705692,-1.0749872,-1.7933512,-3.450418,-0.29677856,0.062092908,-0.32888263,26.125,27.0,26.125,29.125,30.25,30.6875
0.27605423,-0.3520632,-1.8089024,-1.685328,-0.037641395,0.013026437,-0.102477685,-0.39109415,-0.32776108,0.05996643,3.0795462,-0.61983335,0.00019682123,-0.135207,0.0017888454,0.00017796723,-0.004937207,0.0016218424,0.020596683,0.4309628,-1.4401658,1.9745039,-2.10373,-1.5702642,2.4026282,-0.1209541,0.23079066,-0.26796085,0.033664804,0.0033211347,-0.14138283,-0.1340753,0.45968673,-9.308656,0.947788,47.683304,-1.0420753,-1.6934485,-3.371716,-0.29735953,0.062232055,-0.3651878,26.125,27.0,26.125,29.125,30.25,30.6875
0.2780539,-1.1759534,-2.0456488,-1.5232773,-0.067381606,0.039146505,-0.10923163,-0.39134234,-0.32776508,0.05998285,3.0795805,-0.61966735,0.00020078868,-0.1355414,0.0021969872,-0.00036973783,-0.0051836777,-7.758175e-05,0.019679425,0.43075827,-1.439746,1.973966,-2.1036093,-1.5702642,2.402316,-0.12250666,0.23217052,-0.26848745,0.03425052,0.0042552566,-0.1420193,-0.2681506,0.49799395,-9.308656,0.94331104,47.701214,-1.0153614,-1.722333,-3.3610628,-0.30667257,0.069231704,-0.38160422,26.125,27.0,26.125,29.125,30.25,30.6875
0.2800541,-1.7692517,-2.5301654,-1.8181086,-0.07605559,0.072872005,-0.10945903,-0.39160272,-0.32776174,0.059959933,3.07963,-0.6195987,0.00027868338,-0.13699178,0.0020986022,0.00022597158,-0.0061185784,0.00097411004,0.022219671,0.43052998,-1.4392303,1.9734157,-2.103514,-1.5702642,2.402039,-0.12371493,0.23322365,-0.27123016,0.034595124,0.004652622,-0.14576736,-0.24899697,0.47884035,-9.461885,0.91421866,47.701214,-1.0619128,-1.7700628,-3.4103804,-0.31611186,0.042683173,-0.3746876,26.125,27.0,26.125,29.125,30.25,30.6875
0.2820543,-1.7359116,-2.3301575,-1.6098396,-0.083518885,0.104250915,-0.11744954,-0.3918655,-0.32775524,0.05995765,3.079636,-0.6194989,0.00031788368,-0.13799101,0.0020703983,0.0007245607,-0.0070843566,0.0021313592,0.028147595,0.43027776,-1.4387753,1.9728888,-2.10343,-1.5702394,2.401724,-0.12465566,0.23346363,-0.27268976,0.034366045,0.005042962,-0.152636,-0.2873042,0.47884035,-9.481039,0.85826975,47.66987,-1.0248152,-1.7070618,-3.418645,-0.31837893,0.04405834,-0.32937583,26.125,27.0,26.125,29.125,30.25,30.6875
0.28405452,-2.3871815,-2.040734,-1.5040965,-0.082137465,0.11584073,-0.110063024,-0.3921589,-0.32776442,0.0599785,3.0795786,-0.61940664,0.0002871218,-0.13887247,0.0017568223,0.0013991469,-0.008036633,0.0040593804,0.03607844,0.4300136,-1.43832,1.9723142,-2.1033704,-1.5701917,2.4014099,-0.1247461,0.23335141,-0.27405524,0.03370599,0.00511107,-0.16065647,-0.63206923,0.36391866,-9.500193,0.9410752,47.67793,-0.9991867,-1.6073987,-3.3900437,-0.32525268,0.04675469,-0.22424912,26.125,27.0,26.125,29.125,30.25,30.6875
0.28605366,-2.5168643,-1.4024528,-1.6337916,-0.047933586,0.114774406,-0.11351588,-0.392416,-0.32774788,0.05992889,3.079624,-0.6192972,0.00040285813,-0.14059936,0.0022923085,0.00046361968,-0.008102803,0.003935295,0.04029289,0.42974877,-1.4377921,1.971824,-2.1033351,-1.5701679,2.4010713,-0.12714514,0.23685418,-0.2755514,0.031792432,0.0052052047,-0.16726896,-0.61291564,0.28730422,-9.461885,0.7553206,47.696735,-0.86583126,-1.6258237,-3.5917015,-0.3030578,0.0274488,-0.12566021,26.125,27.0,26.125,29.125,30.25,30.6875
0.28805414,-1.9142723,-0.5487775,-1.6904657,-0.013642039,0.11250127,-0.110779285,-0.39270836,-0.3277444,0.059939843,3.0796402,-0.619163,0.00031921844,-0.14111231,0.0007806047,0.00035905538,-0.009441965,0.0052770297,0.04526573,0.4295097,-1.4373242,1.9712604,-2.1032884,-1.5701917,2.4007468,-0.12511379,0.23895368,-0.27730113,0.029661419,0.0058652563,-0.17020965,-0.63206923,0.21068975,-9.481039,0.900793,47.705692,-1.0752027,-1.6486914,-3.5974226,-0.26821476,0.0251521,-0.06017927,26.125,27.0,26.125,29.125,30.25,30.6875
0.29005364,-1.755988,-0.08128095,-1.4543709,0.0044109276,0.11163576,-0.11083964,-0.3930138,-0.3277889,0.059941117,3.0795722,-0.61896074,0.00034999158,-0.1423022,0.0011984766,-0.00017169991,-0.010061052,0.005787081,0.039103195,0.42926902,-1.4367726,1.9706267,-2.1032531,-1.5700954,2.4003887,-0.1269942,0.24064313,-0.2776543,0.027618473,0.006220041,-0.16592713,-0.6703765,-0.038307227,-9.423578,0.9365982,47.651955,-0.96072185,-1.7231648,-3.5815659,-0.2540244,0.017104918,-0.07734063,26.125,27.0,26.125,29.125,30.25,30.6875
0.29205403,-1.624601,0.41132107,-1.584856,0.0279851,0.09611849,-0.108509816,-0.3933004,-0.32776475,0.059922867,3.0796258,-0.6188779,0.000333992,-0.14415835,2.2542921e-05,0.00021648263,-0.0109246485,0.007944491,0.034114353,0.4290054,-1.4362682,1.9700879,-2.1032054,-1.5701317,2.400067,-0.1262008,0.24378896,-0.2819424,0.026433406,0.0060959286,-0.16014203,-0.61291564,-0.076614454,-9.442732,0.90527004,47.6636,-1.1441135,-1.7962323,-3.6657434,-0.20495436,-0.011489337,-0.13648753,26.125,27.0,26.125,29.125,30.25,30.6875
0.2940542,-1.002456,0.75644636,-1.4295713,0.04058562,0.08364253,-0.11642047,-0.39357603,-0.32777143,0.059931822,3.0795867,-0.61879706,0.00034809136,-0.1463774,0.0007521977,5.8038928e-05,-0.010234225,0.0080297,0.025461968,0.42875266,-1.4358118,1.9695352,-2.103134,-1.5700835,2.399769,-0.12886113,0.24708943,-0.28553098,0.026940037,0.005432325,-0.15414687,-0.5746084,-0.11492168,-9.442732,0.9791215,47.701214,-1.0820591,-1.9503675,-3.474472,-0.17598215,-0.011580597,-0.20519283,26.125,27.0,26.125,29.125,30.25,30.6875
0.29605407,-0.77582824,0.86243176,-1.3851838,0.027275309,0.07607921,-0.11602567,-0.39389747,-0.3277403,0.059922677,3.079591,-0.61884195,0.00031280928,-0.14842299,0.0015069658,0.00046283696,-0.009868234,0.009285565,0.014698508,0.42843983,-1.4352841,1.9689487,-2.1030853,-1.5701083,2.3994842,-0.13126872,0.24866259,-0.28843758,0.02728054,0.0045765312,-0.14578836,-0.61291564,-0.095768064,-9.404425,0.9164598,47.703007,-0.99627113,-1.9704311,-3.4161148,-0.16578317,-0.0099514155,-0.30431756,26.125,27.0,26.125,29.125,30.25,30.6875
0.2980538,-0.72877103,0.123253465,-1.5457792,0.02302062,0.066227496,-0.10934583,-0.39416108,-0.32775268,0.0599226,3.0796041,-0.618751,0.00027136013,-0.14972259,0.0012967676,0.0012859539,-0.009602151,0.011705733,0.011506838,0.4282478,-1.4348167,1.9684094,-2.1030376,-1.5701207,2.399234,-0.13105232,0.2492076,-0.29103926,0.027248375,0.0033292198,-0.14237729,-0.5363012,-0.038307227,-9.481039,0.91421866,47.64389,-0.95846903,-1.9869118,-3.3994398,-0.13006164,0.0019692108,-0.37680343,26.125,27.0,26.125,29.125,30.25,30.6875
0.30005425,-0.7884201,0.010227757,-1.5445411,-0.016282687,0.072791845,-0.111481875,-0.3944819,-0.32773843,0.0599114,3.0796106,-0.6187344,0.00024930286,-0.15033035,0.002937552,-0.000117096344,-0.0076511754,0.008488205,0.0059783836,0.4279586,-1.4342649,1.9677995,-2.102989,-1.5701326,2.3989341,-0.13414949,0.25199607,-0.29142207,0.028579826,0.0028969052,-0.13994536,-0.6512229,-0.05746084,-9.481039,0.9567419,47.677036,-0.8098445,-2.036962,-3.473433,-0.11313982,0.022480704,-0.4601108,26.125,27.0,26.125,29.125,30.25,30.6875
0.30205464,-0.7914505,-0.96874106,-1.5998111,-0.03406616,0.082903296,-0.113111906,-0.39477336,-0.32771778,0.05990036,3.0796013,-0.61874914,0.00030260047,-0.15067805,0.002507178,0.00031640526,-0.0068312176,0.008016715,0.009771585,0.42765924,-1.4337612,1.9672354,-2.1029046,-1.5701088,2.3986454,-0.1331528,0.25325602,-0.294568,0.031242741,0.0023458027,-0.1427402,-0.36391866,0.038307227,-9.481039,0.94331104,47.701214,-0.9320286,-1.9581559,-3.464614,-0.11019041,0.035632577,-0.5027448,26.125,27.0,26.125,29.125,30.25,30.6875
0.30405426,-1.3038315,-1.0346977,-1.597731,-0.038768616,0.075728536,-0.10840538,-0.39507824,-0.32771176,0.059888728,3.0795932,-0.61874145,0.00031793353,-0.15086785,0.0024884432,0.001174065,-0.00646701,0.007555092,0.018574012,0.4273832,-1.4332224,1.966638,-2.1028435,-1.5700964,2.398366,-0.1330507,0.2528906,-0.29701903,0.034637745,0.0022114858,-0.15144017,-0.3256114,0.076614454,-9.519346,0.86498255,47.692257,-0.9642433,-1.8863827,-3.4102187,-0.12540367,0.02972218,-0.47474426,26.125,27.0,26.125,29.125,30.25,30.6875
0.30605412,-0.90952414,-1.1359185,-1.515066,-0.018310891,0.081862636,-0.11759392,-0.39538282,-0.32770953,0.059904236,3.0796158,-0.61856717,0.0002615578,-0.15092768,0.0030856077,0.0005846423,-0.0059371437,0.006139386,0.028885584,0.42713088,-1.4327314,1.9660271,-2.1027596,-1.5701088,2.3980024,-0.134137,0.25378227,-0.29691708,0.03515614,0.002326465,-0.16283843,-0.2681506,0.17238252,-9.461885,0.88960326,47.705692,-0.9682808,-1.8469242,-3.385562,-0.11982458,0.029057998,-0.3627832,26.125,27.0,26.125,29.125,30.25,30.6875
0.30805433,-1.3424573,-0.85694015,-1.6818659,-0.010648684,0.06376276,-0.107055075,-0.39572158,-0.32770148,0.05991987,3.0796235,-0.6184663,0.0001416775,-0.15180494,0.0029649206,0.0009502435,-0.0064751715,0.0063664345,0.038350068,0.42685476,-1.4322039,1.9653825,-2.1027114,-1.5701445,2.3976629,-0.13477139,0.25472596,-0.29914263,0.03600673,0.0027348753,-0.17293683,-0.19153613,0.28730422,-9.500193,0.88960326,47.679718,-1.021082,-1.7805291,-3.5885425,-0.11331029,0.024984583,-0.23132223,26.125,27.0,26.125,29.125,30.25,30.6875
0.31005448,-0.56700486,-0.7122728,-1.674195,-0.011822631,0.064804606,-0.109819315,-0.39598688,-0.32770914,0.05990723,3.0796459,-0.618258,0.00023207265,-0.15283625,0.0028560972,0.0016714797,-0.007547129,0.007532583,0.042146303,0.42661446,-1.4317006,1.9648188,-2.1026156,-1.5700964,2.39729,-0.13563049,0.25480658,-0.30108926,0.036377348,0.0032214664,-0.17759223,-0.15322891,0.19153613,-9.557653,0.8940802,47.67345,-1.0082575,-1.7499506,-3.6323004,-0.111467436,0.024598224,-0.16305614,26.125,27.0,26.125,29.125,30.25,30.6875
0.3120542,0.20501904,-0.7902221,-1.4506838,-0.031817287,0.05935414,-0.10880117,-0.3963312,-0.3276814,0.05990389,3.0796564,-0.6182609,0.00019360954,-0.15335986,0.0025015469,0.00069206447,-0.0073124575,0.0068798386,0.041095223,0.4262907,-1.4311368,1.9641708,-2.1025445,-1.5701207,2.3969672,-0.13529772,0.25793403,-0.30224228,0.035090532,0.0032775127,-0.17620736,-0.21068975,0.17238252,-9.5385,0.9701675,47.68062,-1.0360185,-1.692553,-3.5094132,-0.09830503,0.027512947,-0.14233169,26.125,27.0,26.125,29.125,30.25,30.6875
0.31405443,-0.047606535,-1.0104064,-1.7037781,-0.036798015,0.037887838,-0.10266595,-0.39665815,-0.3276666,0.05992226,3.0795898,-0.61823195,0.0001392818,-0.15556917,0.0023579155,0.001834159,-0.008327056,0.009637125,0.033312038,0.42596608,-1.430657,1.9635733,-2.1024964,-1.5700845,2.3966331,-0.13658759,0.25891268,-0.30605978,0.03500455,0.0030672264,-0.16971171,-0.1340753,0.19153613,-9.557653,0.9298854,47.705692,-0.9663074,-1.8173642,-3.579566,-0.050542068,0.036559127,-0.20356938,26.125,27.0,26.125,29.125,30.25,30.6875
0.3160545,-0.25024658,-1.0003109,-1.5997034,-0.037263416,0.02692723,-0.1038367,-0.39693022,-0.3276532,0.059891,3.079645,-0.6181704,0.0002331212,-0.1562079,0.0032287783,0.0009638575,-0.00670546,0.00685951,0.02555562,0.42571378,-1.4301171,1.9630097,-2.1023996,-1.5700845,2.3963358,-0.13836694,0.2618418,-0.30804598,0.03726028,0.002727849,-0.16373372,-0.095768064,0.22984336,-9.576807,0.9030289,47.691364,-1.0872977,-1.7961609,-3.5601473,-0.0416667,0.05124729,-0.29701677,26.125,27.0,26.125,29.125,30.25,30.6875
0.31805456,-0.3604191,-1.3292919,-1.782469,-0.026132427,0.016234925,-0.10877574,-0.39726835,-0.32763976,0.059893385,3.0796416,-0.6181298,0.00017959585,-0.15636122,0.0024953764,0.00086995674,-0.006167796,0.0064109573,0.025961464,0.42541423,-1.4295651,1.9623636,-2.1023395,-1.5700964,2.3960118,-0.13680196,0.26375076,-0.310377,0.038312547,0.002428568,-0.16257316,0.13407528,0.28730422,-9.5385,0.89631605,47.68599,-1.0307647,-1.8732213,-3.4801621,-0.034310617,0.034093797,-0.32103676,26.125,27.0,26.125,29.125,30.25,30.6875
0.32005414,0.016223652,-1.2507001,-1.7458855,-0.032246236,0.014284944,-0.10518674,-0.3975905,-0.32764146,0.059911568,3.079639,-0.6179982,0.00012040629,-0.15817918,0.0042757043,0.00010501334,-0.0054654954,0.0045668655,0.020805866,0.4251483,-1.4290495,1.961717,-2.1022556,-1.5700964,2.3956645,-0.14151157,0.26650771,-0.3121048,0.03925327,0.0025575173,-0.16212639,0.15322891,0.2681506,-9.461885,0.91198283,47.71465,-0.7796352,-1.9120414,-3.543646,-0.041250467,0.06758934,-0.359409,26.125,27.0,26.125,29.125,30.25,30.6875
0.32205424,-0.10304982,-1.1745976,-1.6644464,-0.037089497,0.0092851985,-0.10556794,-0.39791024,-0.32766074,0.059937626,3.0796006,-0.6178925,2.7965572e-05,-0.15893847,0.0033165242,-0.00036927933,-0.0052646096,0.003588091,0.021422269,0.4249091,-1.4285452,1.9610704,-2.102195,-1.5700845,2.3953645,-0.14039826,0.27038673,-0.3157202,0.039966,0.0027863772,-0.16162752,0.0,0.4213795,-9.423578,0.9388393,47.733456,-0.96339536,-1.9242144,-3.5512679,-0.020477848,0.053752035,-0.38279876,26.125,27.0,26.125,29.125,30.25,30.6875
0.3240547,0.09069243,-1.7715911,-1.558126,-0.036090903,0.020689385,-0.117143326,-0.39825213,-0.32764548,0.059939075,3.0796227,-0.617779,2.9829229e-05,-0.15942018,0.004204934,-0.0004334937,-0.0052555837,0.0024459898,0.025256908,0.42459634,-1.4279698,1.9603881,-2.1020873,-1.5700845,2.3949785,-0.14256236,0.2705898,-0.31626946,0.041359197,0.0032541987,-0.1676271,0.05746084,0.49799395,-9.461885,0.9455522,47.71554,-0.8196433,-2.0166354,-3.5785577,-0.022150565,0.047289275,-0.36435822,26.125,27.0,26.125,29.125,30.25,30.6875
0.32605416,-0.7905521,-2.1282966,-1.3997654,-0.06087761,0.016530331,-0.11038646,-0.3985495,-0.3276303,0.059928685,3.079656,-0.61768305,6.3386724e-05,-0.15992829,0.0029603045,0.0003784174,-0.0064296075,0.0028640204,0.03598494,0.42432076,-1.4274428,1.9597901,-2.101991,-1.570084,2.3946393,-0.1411494,0.27158305,-0.3197643,0.042999297,0.0041480954,-0.17694199,0.17238252,0.5554548,-9.346964,1.0238806,47.70032,-0.89768755,-1.8261561,-3.5521765,-0.02160529,0.060276978,-0.30436566,26.125,27.0,26.125,29.125,30.25,30.6875
0.32805434,-0.25709724,-1.9265281,-1.4311053,-0.071188994,0.023502732,-0.12327178,-0.3988482,-0.32762998,0.05989655,3.0796902,-0.6175502,0.00014695813,-0.16083567,0.0029634177,0.0010142486,-0.006620989,0.0032884006,0.04552287,0.42405623,-1.4268553,1.9591783,-2.101919,-1.5700601,2.3942878,-0.14176072,0.27209973,-0.32231933,0.04458327,0.004141641,-0.18709072,0.15322891,0.4213795,-9.404425,0.83589023,47.70211,-0.83818865,-1.8257253,-3.492122,-0.028355315,0.05480071,-0.16920677,26.125,27.0,26.125,29.125,30.25,30.6875
0.3300546,-0.66637075,-1.9487045,-1.3154768,-0.051770363,0.0032555151,-0.10573687,-0.39919496,-0.32762125,0.059934773,3.0796874,-0.61741346,2.0703745e-05,-0.16225845,0.0038584645,0.0023846917,-0.00725765,0.005412606,0.047399458,0.4237679,-1.4263531,1.9584969,-2.1018221,-1.570084,2.393915,-0.14423135,0.27035907,-0.32383555,0.045642417,0.0038662164,-0.19143732,0.038307227,0.4213795,-9.3661175,0.8247004,47.668976,-1.0447731,-1.6737906,-3.5167444,-0.039696213,0.048760023,-0.07484262,26.125,27.0,26.125,29.125,30.25,30.6875
0.33205387,-0.63914305,-1.7889279,-1.3157719,-0.03532665,0.012511191,-0.102629036,-0.3995419,-0.32761675,0.059944462,3.079669,-0.61729556,-2.403478e-06,-0.162403,0.0027817779,0.0028470699,-0.0072019906,0.0056261686,0.0463142,0.42345637,-1.4257896,1.9578136,-2.1017382,-1.5700601,2.3935325,-0.14213145,0.27153113,-0.326724,0.047191896,0.003733048,-0.18825088,-0.21068975,0.34476507,-9.270349,0.83365434,47.653748,-1.0597608,-1.5584548,-3.533224,-0.036254194,0.062113643,-0.04992346,26.125,27.0,26.125,29.125,30.25,30.6875
0.33405396,0.14409973,-0.6107246,-1.1130332,-0.023664977,0.028574456,-0.115249574,-0.39985132,-0.3276232,0.059957035,3.0796895,-0.617111,-2.7505107e-06,-0.16181451,0.0034514286,0.001645009,-0.0064860485,0.0016665988,0.03800597,0.423204,-1.4252621,1.9571561,-2.1016176,-1.5700482,2.3931627,-0.14335737,0.27319816,-0.32646278,0.049163975,0.0047123944,-0.18117017,-0.019153614,0.19153614,-9.32781,0.90750587,47.642998,-1.0361074,-1.6230688,-3.6356401,-0.07194647,0.04005712,-0.13004085,26.125,27.0,26.125,29.125,30.25,30.6875
0.336054,0.33098942,0.03785205,-1.0578079,-0.015745396,0.03067508,-0.12614137,-0.40016615,-0.32761452,0.05991765,3.079691,-0.6170987,9.688973e-05,-0.16220947,0.003672412,0.0007489807,-0.005917246,-0.0016943698,0.027062438,0.42290375,-1.4246494,1.9565333,-2.1015565,-1.5700115,2.392855,-0.14448263,0.27650437,-0.32890236,0.051595196,0.0055619,-0.17135218,-0.05746084,0.1340753,-9.289502,0.8157518,47.67793,-1.0459214,-1.6502507,-3.5897436,-0.098694384,0.041647837,-0.23509146,26.125,27.0,26.125,29.125,30.25,30.6875
0.3380543,-0.18141559,-0.41870853,-1.0893484,-0.00053497776,0.034267716,-0.1172239,-0.4005089,-0.32760516,0.05994276,3.0796769,-0.61702144,3.6193185e-05,-0.16380322,0.0035876778,0.0016451448,-0.006898864,-0.0009936455,0.020526329,0.42260337,-1.4241225,1.95585,-2.1014483,-1.5700115,2.3925085,-0.14587404,0.27758715,-0.33270204,0.053267177,0.006171821,-0.16620643,-0.34476504,0.019153614,-9.251195,0.84708,47.678825,-0.9528514,-1.6646421,-3.505968,-0.09669143,0.046551015,-0.3185783,26.125,27.0,26.125,29.125,30.25,30.6875
0.3400545,-0.0750837,0.35735852,-1.113159,0.01044332,0.038761243,-0.12772049,-0.4008369,-0.32762796,0.05997676,3.0795991,-0.6169323,2.8942515e-05,-0.16443406,0.003769632,0.00061312,-0.0054564136,-0.0040203813,0.015494948,0.4223271,-1.4236062,1.9551557,-2.1013286,-1.569939,2.3921866,-0.14652315,0.28176093,-0.3357547,0.0555095,0.006103407,-0.1618223,-0.22984336,-0.019153614,-9.212888,0.9298854,47.703007,-0.93612003,-1.8044188,-3.4552047,-0.13103467,0.012278438,-0.40877438,26.125,27.0,26.125,29.125,30.25,30.6875
0.34205365,-0.2753955,0.28186387,-1.2564304,0.027283998,0.05737165,-0.11934196,-0.40115556,-0.3275772,0.05994258,3.0796793,-0.6169857,9.756832e-05,-0.16490586,0.0039493456,-0.00071710226,-0.0039238827,-0.007744457,0.013775135,0.422003,-1.4230162,1.9545325,-2.1012075,-1.5699872,2.3918862,-0.14715175,0.28639218,-0.33869714,0.057839204,0.0062145516,-0.16073035,-0.21068975,0.038307227,-9.251195,0.9455522,47.687782,-0.94637084,-1.9731839,-3.4329863,-0.16107553,0.029745976,-0.46914673,26.125,27.0,26.125,29.125,30.25,30.6875
0.3440537,-0.8822725,0.5898154,-1.0153522,0.016007748,0.05993296,-0.13590038,-0.40147823,-0.3276068,0.05998357,3.0796616,-0.6167282,1.5639973e-05,-0.16516846,0.0031023102,0.0010337716,-0.0050741737,-0.0055721076,0.0200111,0.42177564,-1.4225129,1.9538392,-2.1010993,-1.5699633,2.3915007,-0.14578861,0.28438947,-0.3409541,0.059654076,0.006388022,-0.1656027,-0.21068975,-0.095768064,-9.32781,0.8537928,47.691364,-1.042678,-1.8399206,-3.4228065,-0.17459734,0.007103497,-0.48372787,26.125,27.0,26.125,29.125,30.25,30.6875
0.34605393,-1.1718614,0.0058533144,-1.1866535,0.026550492,0.06194166,-0.12412202,-0.40181363,-0.32758194,0.059973404,3.0796635,-0.616762,0.000101599966,-0.165998,0.0038058416,-0.0002446549,-0.0031390016,-0.008345294,0.029130664,0.421439,-1.421923,1.9531554,-2.1009557,-1.5699395,2.3911853,-0.1471663,0.2885768,-0.34332886,0.06117948,0.0057498356,-0.17609839,-0.38307226,-0.019153614,-9.270349,0.86498255,47.67166,-0.97974217,-1.9302838,-3.4463518,-0.2200234,0.0023151832,-0.40248296,26.125,27.0,26.125,29.125,30.25,30.6875
0.34805435,-1.1654364,0.01627305,-1.3643594,0.0028914567,0.080380015,-0.13461132,-0.40211767,-0.32757372,0.059947785,3.0797505,-0.6166197,0.00023072032,-0.1665301,0.005665603,-0.0010085887,-0.0018024145,-0.009983707,0.0387488,0.42117402,-1.4213104,1.952475,-2.1007874,-1.5699395,2.390821,-0.1504723,0.2891507,-0.34257397,0.061904937,0.005187552,-0.18902324,-0.45968673,-0.038307227,-9.308656,0.8560339,47.675243,-0.98730034,-1.7214165,-3.495065,-0.25788784,0.012481747,-0.27691466,26.125,27.0,26.125,29.125,30.25,30.6875
0.3500544,-1.349972,-0.6680326,-1.2157005,-0.017882386,0.09372638,-0.12920903,-0.40246585,-0.32757294,0.059972644,3.079756,-0.6164604,0.00017655961,-0.16467828,0.0053671068,-0.0018726502,0.00011648835,-0.013378528,0.04836448,0.42088678,-1.4207578,1.9517583,-2.1006663,-1.5699395,2.390434,-0.14801814,0.28980258,-0.3421348,0.06470443,0.004838591,-0.19618513,-0.34476504,0.15322891,-9.481039,0.900793,47.658226,-1.1456571,-1.682584,-3.6575823,-0.31096974,0.012591369,-0.18634368,26.125,27.0,26.125,29.125,30.25,30.6875
0.3520543,-2.0406492,-1.636138,-1.5035096,-0.033670478,0.08519644,-0.11735944,-0.40279445,-0.32755187,0.059970453,3.079808,-0.6163183,0.00019666029,-0.1667528,0.004865664,-0.000746217,-0.001289456,-0.0090677105,0.047328968,0.42058703,-1.4201925,1.9510864,-2.1005356,-1.5699519,2.3900394,-0.14832129,0.2902226,-0.34483442,0.06247558,0.004342231,-0.19545083,-0.49799395,0.05746084,-9.519346,0.947788,47.67345,-1.090531,-1.707788,-3.796259,-0.33825356,0.019049142,-0.15703154,26.125,27.0,26.125,29.125,30.25,30.6875
0.3540543,-1.6463187,-1.4575865,-1.3192036,-0.05321728,0.097596176,-0.12307986,-0.4031481,-0.32756948,0.060009427,3.0797715,-0.61612284,0.0001654006,-0.16894536,0.0047298283,0.0007709983,-0.0026951418,-0.0041251685,0.039346457,0.42029855,-1.4196403,1.9503325,-2.100393,-1.5699042,2.389634,-0.1492177,0.28954515,-0.34720996,0.060451232,0.0036055755,-0.18836257,-0.7086837,0.17238252,-9.461885,0.9388393,47.694946,-1.1623788,-1.5468891,-3.7798996,-0.33430207,0.028247382,-0.22103953,26.125,27.0,26.125,29.125,30.25,30.6875
0.35605362,-1.6747487,-1.8278929,-1.7012028,-0.037772648,0.08972759,-0.12383187,-0.40348002,-0.3275464,0.060003374,3.0797966,-0.61603653,0.00018382761,-0.17146625,0.0055173184,0.00049433124,-0.002781142,-0.003316719,0.029542012,0.4199854,-1.4190749,1.949674,-2.1002858,-1.5699047,2.389264,-0.15236619,0.29283965,-0.3502812,0.059452377,0.0033395048,-0.1817045,-0.63206923,0.22984336,-9.442732,0.8940802,47.67345,-1.1573824,-1.4491092,-3.7380717,-0.3340214,0.035392217,-0.30122823,26.125,27.0,26.125,29.125,30.25,30.6875
0.35805383,-1.021338,-0.9698308,-1.8617632,-0.049966097,0.08892121,-0.13503166,-0.40379634,-0.3275286,0.05997016,3.0798814,-0.61595863,0.0002721347,-0.17369561,0.0043699853,0.0004801046,-0.003404941,-0.0015225739,0.02712553,0.41970995,-1.4184487,1.9490021,-2.1001546,-1.5699285,2.3889298,-0.1518217,0.29736006,-0.3552848,0.058038533,0.003147037,-0.17874055,-0.47884032,0.19153613,-9.730036,0.9186956,47.679718,-1.2675052,-1.6264966,-3.7248824,-0.3525896,0.024575874,-0.34893972,26.125,27.0,26.125,29.125,30.25,30.6875
0.36005428,-1.5114992,-1.5562202,-1.6976758,-0.04390843,0.07040366,-0.11688137,-0.40415674,-0.32751396,0.059992015,3.0798519,-0.61593246,0.00026444768,-0.17660132,0.0033147202,0.0010849764,-0.0061248955,0.004258567,0.0267333,0.41937387,-1.4178834,1.9482716,-2.100013,-1.5699047,2.3885815,-0.1521597,0.2995094,-0.3579524,0.052174315,0.0032620572,-0.17868403,-0.51714754,0.22984336,-9.615114,0.92093146,47.704796,-1.1833286,-1.8746142,-3.543698,-0.3029405,0.050434895,-0.39628237,26.125,27.0,26.125,29.125,30.25,30.6875
0.36205477,-1.7689446,-1.4198931,-1.930586,-0.04428468,0.07180337,-0.123455785,-0.40450552,-0.32751194,0.060001433,3.0798538,-0.6158173,0.0002233316,-0.17738432,0.0030323523,0.00020343755,-0.00643087,0.004429402,0.028378278,0.4190856,-1.4173056,1.9475654,-2.0999177,-1.5699042,2.3882215,-0.15224624,0.30224878,-0.35873827,0.049942162,0.0034733957,-0.18041483,-0.49799395,0.34476507,-9.615114,0.83589023,47.692257,-1.1619383,-1.7008662,-3.6346116,-0.28523096,0.03147971,-0.42137945,26.125,27.0,26.125,29.125,30.25,30.6875
0.36405426,-1.4224733,-1.5170124,-1.9450712,-0.051822703,0.0923901,-0.13195556,-0.40487587,-0.32750222,0.06001914,3.0798564,-0.6157152,0.00015536246,-0.1777926,0.0026744213,-0.0006921094,-0.006495133,0.003967313,0.037029248,0.41877416,-1.4167161,1.946824,-2.0998108,-1.5699161,2.3878465,-0.15190685,0.30484855,-0.35952446,0.04852888,0.0037283082,-0.18872587,-0.51714754,0.47884035,-9.672575,1.0194036,47.709274,-1.2946048,-1.8878131,-3.7236786,-0.26536524,0.044715654,-0.36309028,26.125,27.0,26.125,29.125,30.25,30.6875
0.36605358,-2.0213244,-2.533378,-1.7575344,-0.07092489,0.082696676,-0.13267939,-0.40523484,-0.32750645,0.060018662,3.0798514,-0.61553395,0.00013397374,-0.178781,0.0027580776,-0.00019761891,-0.0075380667,0.0058311974,0.04640368,0.41847458,-1.4161038,1.9461054,-2.0997388,-1.5698923,2.3874347,-0.15280797,0.3046006,-0.36029437,0.04743269,0.003932073,-0.1990014,-0.30645782,0.49799395,-9.730036,0.8247004,47.70838,-1.2814541,-1.7929236,-3.802991,-0.25018513,0.04061559,-0.25606555,26.125,27.0,26.125,29.125,30.25,30.6875
0.36805382,-1.3428515,-2.6951692,-1.287294,-0.10495476,0.092979126,-0.13547835,-0.40559942,-0.32748666,0.060031995,3.079863,-0.6154186,8.017999e-05,-0.18033914,0.0032052484,-0.000539028,-0.007798637,0.006584149,0.05025384,0.4181504,-1.4155265,1.9453872,-2.099632,-1.5699042,2.3870375,-0.15465198,0.3067399,-0.36181906,0.046027854,0.003869829,-0.20469445,-0.28730422,0.5363012,-9.576807,1.1111577,47.694946,-1.2127492,-1.7163831,-3.7937856,-0.20666727,0.032141134,-0.14579776,26.125,27.0,26.125,29.125,30.25,30.6875
0.37005392,-0.9720508,-2.4761462,-1.3890964,-0.091058575,0.073146656,-0.12356985,-0.40599144,-0.32749182,0.060046427,3.0798266,-0.61525804,-1.0249934e-06,-0.18322001,0.0030405887,-0.00014278346,-0.0085148215,0.009137814,0.047384728,0.4178265,-1.4149008,1.9446214,-2.099573,-1.5698804,2.3866184,-0.15624334,0.31012002,-0.36648726,0.044698384,0.0034937586,-0.20341344,-0.36391866,0.38307226,-9.442732,0.900793,47.67345,-1.1631767,-1.6174951,-3.8505352,-0.17291957,0.058287706,-0.13474932,26.125,27.0,26.125,29.125,30.25,30.6875
0.372054,-0.49081117,-1.7697319,-1.4271985,-0.06390645,0.040465426,-0.12687899,-0.40635136,-0.3274932,0.060051344,3.0798318,-0.61509126,-6.0047645e-05,-0.18670127,0.0037626133,0.0011407227,-0.009949541,0.013063559,0.03623669,0.41753775,-1.4143,1.9439029,-2.0995014,-1.5698808,2.3862252,-0.15999681,0.3112427,-0.3706165,0.04353152,0.003210134,-0.1960165,-0.11492168,0.34476504,-9.481039,0.92764956,47.685097,-1.074661,-1.7489679,-3.7265506,-0.12785253,0.066265106,-0.19684544,26.125,27.0,26.125,29.125,30.25,30.6875
0.37405503,0.14883696,-1.0778315,-1.2114022,-0.03093813,0.01347594,-0.1322595,-0.40671584,-0.32749137,0.060045432,3.0798326,-0.61497825,-0.00010337478,-0.18715394,0.0024318667,0.001778892,-0.010978906,0.014846853,0.029848687,0.41723934,-1.4136752,1.9431838,-2.0994418,-1.5698804,2.3858566,-0.15790352,0.311912,-0.3729337,0.043126322,0.0034288818,-0.18753445,-0.05746084,0.36391866,-9.32781,0.9545008,47.703903,-1.1319435,-1.5832591,-3.5652065,-0.07986562,0.060133804,-0.30182257,26.125,27.0,26.125,29.125,30.25,30.6875
0.376054,0.57537204,-0.5413018,-1.4556322,-0.013897646,-0.0010092604,-0.13652784,-0.4071248,-0.32747492,0.060063787,3.0798001,-0.61489785,-0.00020549823,-0.1889495,0.0024095622,0.002639108,-0.012193444,0.016260708,0.021544691,0.41687927,-1.4130502,1.9424056,-2.0993688,-1.5698804,2.3854508,-0.15944268,0.31292105,-0.37638864,0.04378234,0.00397772,-0.18076852,-0.2681506,0.5554548,-9.270349,0.95226496,47.6636,-1.0918363,-1.5013988,-3.5656943,-0.03892678,0.059218094,-0.41355488,26.125,27.0,26.125,29.125,30.25,30.6875
