Tylouw/Master_Thesis_Code/training_data/batch_1/big_rod_t0.2/sample_49_session_1.csv
timestamp[s],tcp_force_x[N],tcp_force_y[N],tcp_force_z[N],tcp_force_rx[Nm?],tcp_force_ry[Nm?],tcp_force_rz[Nm?],tcp_pose_x[m],tcp_pose_y[m],tcp_pose_z[m],tcp_pose_rx[rot_vec_x],tcp_pose_ry[rot_vec_y],tcp_pose_rz[rot_vec_z],tcp_velo_x[m/s],tcp_velo_y[m/s],tcp_velo_z[m/s],tcp_velo_rx[rot_vec_x/s],tcp_velo_ry[rot_vec_y/s],tcp_velo_rz[rot_vec_z/s],q1[rad],q2[rad],q3[rad],q4[rad],q5[rad],q6[rad],qd1[rad/s],qd2[rad/s],qd3[rad/s],qd4[rad/s],qd5[rad/s],qd6[rad/s],tool_acc_x,tool_acc_y,tool_acc_z,current_of_whole_robot[A],voltage_of_whole_robot[V],current_J1[A],current_J2[A],current_J3[A],current_J4[A],current_J5[A],current_J6[A],temp_J1[C],temp_J2[C],temp_J3[C],temp_J4[C],temp_J5[C],temp_J6[C]
9.670039e-07,-0.7127002,-0.62429637,0.52882415,-0.019664887,0.0039935345,-0.021686783,-0.37286973,-0.3282194,0.0599382,-3.0784733,0.6248453,-0.00030926595,0.0017902227,0.00086103607,-0.0032858422,0.0033445659,-0.0072309445,-1.839255e-05,0.4481623,-1.4708726,2.0095952,-2.1076791,-1.5706614,2.4230676,-7.874835e-05,0.0046341103,0.0021906178,0.0011409018,0.00012617728,-6.150593e-05,0.019153614,0.2681506,-9.002198,0.800085,47.72629,-0.32793495,-2.9701357,-2.2705004,-0.49341956,0.15303156,-0.12745771,26.5625,27.5,26.5625,29.8125,31.1875,31.6875
0.0020551141,-0.48222387,-0.535995,0.5130053,-0.010269631,0.011502808,-0.031704612,-0.37285832,-0.32821357,0.05992287,-3.078436,0.6248183,-0.00030207002,0.00019545577,9.056702e-05,-0.00351407,0.00025060313,-0.0008275514,-1.6815571e-05,0.44818625,-1.4708608,2.009621,-2.1076949,-1.5706977,2.4230795,-7.777624e-05,0.004687044,0.004912473,-0.008745572,0.00012329602,-6.081331e-05,0.05746084,0.21068975,-9.002198,0.679228,47.723602,-0.28553787,-2.7999363,-2.4069417,-0.4777348,0.16759951,-0.12122016,26.5625,27.5,26.5625,29.8125,31.1875,31.6875
0.004054668,-0.35558203,-0.47012532,0.40073594,-0.0058937473,0.014386367,-0.02485187,-0.37285897,-0.3282057,0.059899792,-3.0784526,0.6248606,-0.00037635345,-0.000787934,-0.0003910909,-0.0026966345,-0.0013996257,0.0025529403,-1.5757705e-05,0.4481382,-1.4708372,2.0096562,-2.107731,-1.5706495,2.4230556,-7.682779e-05,0.0038172775,0.004575472,-0.011300571,0.00013929248,-6.0136015e-05,0.095768064,0.095768064,-9.059659,0.7329411,47.73614,-0.2164233,-3.0622268,-2.6168876,-0.3734774,0.15177348,-0.11581248,26.5625,27.5,26.5625,29.8125,31.1875,31.6875
0.006054391,0.0227079,0.21455745,0.3136063,0.005870206,0.00430765,-0.031990297,-0.37284884,-0.32819626,0.05988514,-3.0784006,0.62484956,-0.00036094655,-0.0004311597,-0.00021821354,-0.001780342,-0.00075193314,0.0012246631,-4.5277513e-05,0.4481623,-1.4708257,2.0096796,-2.1077416,-1.5706977,2.4230795,-7.590223e-05,0.0025846856,0.0028034027,-0.0068181423,0.00013747565,-3.0146151e-05,0.095768064,0.038307227,-9.002198,0.7329411,47.711063,-0.27433342,-3.0118241,-2.5235727,-0.39086205,0.15709782,-0.117492646,26.5625,27.5,26.5625,29.8125,31.1875,31.6875
0.008053857,-0.024831597,0.3670556,-0.32280728,0.047148492,-0.026292037,-0.017306115,-0.37286952,-0.32819775,0.059905592,-3.0784233,0.6248928,-0.00032848894,-0.00040794004,-0.00020648309,-0.000927461,-0.00037085378,0.00044751843,-7.2490286e-05,0.4481382,-1.4708378,2.0096428,-2.1077278,-1.5706857,2.4230795,-7.4998585e-05,0.0019009294,0.0007831118,-0.0032485484,0.0001346181,-1.9683282e-06,-0.019153614,0.019153614,-9.11712,0.75084364,47.693153,-0.27138776,-2.9581473,-2.4433706,-0.4322607,0.13666296,-0.1287427,26.5625,27.5,26.5625,29.8125,31.1875,31.6875
0.010054461,0.12041711,0.99039334,-0.5406784,0.04187024,-0.028066875,-0.021195088,-0.37286872,-0.32822543,0.05989154,-3.0784776,0.62486553,-0.00038584552,-0.00012731033,-6.641347e-05,-0.0007888462,1.8826102e-05,-0.00034989617,-8.076158e-05,0.44815025,-1.4707901,2.009631,-2.1077635,-1.5706257,2.4230676,-8.109001e-05,0.0015391888,0.0005158572,-0.0017320231,0.00013180675,-1.2851775e-07,0.038307227,0.019153614,-9.385271,0.7530795,47.65912,-0.71011645,-2.336028,-3.0252972,-0.47060806,0.15279475,-0.178565,26.5625,27.5,26.5625,29.8125,31.1875,31.6875
0.012054047,-0.25104135,0.15806164,-0.6301509,0.01791888,-0.008051762,-0.03186488,-0.37286583,-0.32820264,0.05988542,-3.0784214,0.62489265,-0.00042632423,0.0004783369,0.00022594557,-0.004491817,0.0034641167,-0.007511109,-1.6935055e-05,0.44812617,-1.4707873,2.009631,-2.1077158,-1.5706495,2.4230676,-8.374587e-05,0.009673729,1.293146e-05,-0.0014167482,0.00012910573,-6.510927e-05,0.17238252,0.0,-9.481039,0.7463667,47.693153,-0.8149622,-2.4133549,-3.1937118,-0.48306793,0.16957775,-0.22111967,26.5625,27.5,26.5625,29.8125,31.1875,31.6875
0.014053834,-0.6811853,-0.50874406,-0.7403698,-0.018571611,0.0119379815,-0.029981663,-0.37287414,-0.3282092,0.059871368,-3.0784283,0.6247982,-0.00048255277,-0.0051458394,0.0027079056,-0.0045819734,0.0033827522,-0.0073737646,-0.0028848357,0.4481228,-1.4707253,2.0095923,-2.1077034,-1.5706376,2.4230044,-0.009873314,0.015676977,-0.0064280964,-0.0011389292,0.00012651322,-0.0069820313,-0.05746084,0.095768064,-9.519346,0.800085,47.658226,-0.48807025,-2.7949347,-3.136923,-0.48388368,0.1603413,-0.21871924,26.5625,27.5,26.5625,29.8125,31.1875,31.6875
0.016054625,-1.0435408,-1.2666916,-0.858951,-0.032437842,0.038939673,-0.033804994,-0.37284386,-0.32819867,0.05984958,-3.0783787,0.624767,-0.0005337576,-0.006062549,0.002395256,-0.003863955,0.002715771,-0.0060155136,0.001461943,0.4481467,-1.4707253,2.0096395,-2.1076915,-1.5706614,2.423015,-0.010124942,0.015895078,-0.0083583845,-0.0009407876,0.00013273922,-0.011579323,-0.36391866,0.17238252,-9.730036,0.7105615,47.72002,-0.48144332,-2.7405539,-3.1284904,-0.48196003,0.16032158,-0.17259407,26.5625,27.5,26.5625,29.8125,31.1875,31.6875
0.018054094,-1.7116543,-1.5364547,-0.849249,-0.05135666,0.06381542,-0.040463407,-0.37282667,-0.32817534,0.05981645,-3.0783105,0.6246753,-0.00064677006,-0.0055786907,0.0023768395,-0.004114414,0.0030479834,-0.0067211585,0.0033179882,0.44813493,-1.4706774,2.009652,-2.107643,-1.5706857,2.4229548,-0.00965428,0.015876671,-0.007823877,-0.00067752996,0.0001385624,-0.012965136,-0.53630114,0.24899697,-9.749189,0.7777002,47.69763,-0.6347015,-2.4513495,-3.4406862,-0.50414944,0.18928729,-0.16568322,26.5625,27.5,26.5625,29.8125,31.1875,31.6875
0.020054545,-2.0046148,-1.3364353,-0.97921985,-0.04833358,0.08626774,-0.04844082,-0.37286213,-0.32818222,0.05981073,-3.078338,0.6248151,-0.00068971195,-0.0062707905,0.002254813,-0.0045694765,0.0034079337,-0.007516705,0.0035094065,0.44807482,-1.4706165,2.0096037,-2.1076672,-1.5706257,2.4229784,-0.010066383,0.01838599,-0.009555558,-0.00058155746,0.00015466432,-0.013567279,-0.5363012,0.24899697,-9.787497,0.7172743,47.68599,-0.7443666,-2.470086,-3.5653744,-0.5088564,0.16598952,-0.18628266,26.5625,27.5,26.5625,29.8125,31.1875,31.6875
0.02205377,-1.833367,-0.5973367,-0.75789803,-0.04916929,0.09020515,-0.074459024,-0.372859,-0.3281698,0.059804343,-3.0783224,0.6247739,-0.0007085825,-0.008155189,0.0019995135,-0.0038867486,0.0015757312,-0.0065183495,0.0024884595,0.44806206,-1.4706161,2.0096152,-2.1076553,-1.5706371,2.422942,-0.01212298,0.019894434,-0.012780073,-0.00056370324,0.001365598,-0.014603349,-0.61291564,0.3256114,-9.787497,0.7530795,47.729877,-0.7767794,-2.38385,-3.4317102,-0.52513576,0.17263922,-0.20310251,26.5625,27.5,26.5625,29.8125,31.1875,31.6875
0.024053926,-1.5698324,-0.3526555,-0.7969253,-0.035952225,0.07472697,-0.08401693,-0.37289912,-0.32818493,0.059812766,-3.0783613,0.6247242,-0.00062230363,-0.009325054,0.0016323525,-0.0031758554,-0.00088009896,-0.00587705,0.0022665071,0.44806144,-1.4705681,2.0095541,-2.107703,-1.5706481,2.4229054,-0.013804878,0.02017861,-0.014726895,-0.0005502995,0.0032971045,-0.016066013,-0.7278373,0.3256114,-9.749189,0.7530795,47.688675,-0.7886123,-2.4084072,-3.4550319,-0.511672,0.16691284,-0.20435041,26.5625,27.5,26.5625,29.8125,31.1875,31.6875
0.02605423,-1.6690272,-0.9001012,-0.9251786,-0.01830222,0.06288447,-0.09553611,-0.37289432,-0.3281846,0.059792887,-3.0783296,0.6247948,-0.0007192665,-0.010221494,0.0018548969,-0.0027237788,-0.0019435924,-0.0052928994,0.001761684,0.44804898,-1.4705203,2.0095417,-2.1076791,-1.5706242,2.422941,-0.015514651,0.02006753,-0.015653586,-0.0005019851,0.0039988994,-0.017272135,-0.7469909,0.24899697,-9.787497,0.81351066,47.723602,-0.8685036,-2.3611317,-3.4896674,-0.5245148,0.14865221,-0.22664228,26.5625,27.5,26.5625,29.8125,31.1875,31.6875
0.028054511,-1.7440639,-0.7032252,-0.8112836,-0.024954626,0.06365254,-0.11764825,-0.3729257,-0.3281783,0.05977757,-3.0783176,0.6247925,-0.000776013,-0.011664615,0.0020620853,-0.0023597989,-0.0018713039,-0.004228391,0.002279767,0.44800043,-1.4704359,2.0094817,-2.1076672,-1.5706123,2.4228926,-0.016855793,0.021332838,-0.017887482,-0.00045942087,0.0034658755,-0.01912882,-0.6512228,0.1340753,-9.749189,0.779936,47.72002,-0.79904056,-2.2872014,-3.5290504,-0.51150113,0.15536469,-0.18973482,26.5625,27.5,26.5625,29.8125,31.1875,31.6875
0.030053752,-1.7015128,-0.4579139,-0.62390035,-0.028899627,0.07441712,-0.13167062,-0.37295336,-0.32818487,0.05979775,-3.0783603,0.62480205,-0.000684629,-0.013015312,0.0022450672,-0.0019718762,-0.0019933756,-0.0031889474,0.0010657066,0.44798794,-1.4704477,2.0094564,-2.107703,-1.5706128,2.4228806,-0.01819592,0.022367824,-0.019912828,-0.0004575529,0.0031226473,-0.019252531,-0.6895301,0.17238252,-9.653421,0.779936,47.71554,-0.80942667,-2.2803516,-3.4882731,-0.5342575,0.17459396,-0.18005809,26.5625,27.5,26.5625,29.8125,31.1875,31.6875
0.032053992,-1.9814136,-0.73223233,-0.5488037,-0.0069445735,0.07382445,-0.14042558,-0.37300128,-0.3281787,0.059787612,-3.078351,0.62487704,-0.0007373796,-0.013904151,0.001855032,-0.001533209,-0.002716512,-0.0023015295,0.00010284782,0.44791588,-1.4703516,2.0093715,-2.107691,-1.570588,2.4228566,-0.018447073,0.02321395,-0.021842385,-0.0004873657,0.003385833,-0.018540159,-0.63206923,0.19153613,-9.595961,0.7597976,47.679718,-0.8412348,-2.2965047,-3.4626474,-0.5331559,0.16713399,-0.18929076,26.5625,27.5,26.5625,29.8125,31.1875,31.6875
0.034053672,-1.8857169,-0.16803461,-0.4090706,0.008567604,0.07153011,-0.15388907,-0.3730109,-0.328164,0.059768453,-3.078326,0.6248538,-0.00079803675,-0.014978538,0.0015776476,-0.0012984168,-0.0036595436,-0.0020724998,-0.0009684802,0.4478795,-1.470303,2.0093596,-2.1076791,-1.570588,2.422809,-0.019408047,0.02467806,-0.024007574,-0.0004036696,0.004131421,-0.018430082,-0.53630114,0.076614454,-9.461885,0.8023209,47.677036,-0.83672285,-2.2735639,-3.4383917,-0.5299891,0.16130942,-0.20086548,26.5625,27.5,26.5625,29.8125,31.1875,31.6875
0.03605391,-0.95879734,0.26911807,-0.3736889,0.028027946,0.07544882,-0.17455633,-0.37308738,-0.3281882,0.05981391,-3.0784264,0.62479776,-0.0006193185,-0.016191473,0.0011708874,-0.0006911004,-0.005434752,-0.0012702333,-0.0020779378,0.44785511,-1.4702786,2.0092394,-2.1077268,-1.5705875,2.422737,-0.020590056,0.025464501,-0.026256261,-0.0004376943,0.0053819073,-0.01850309,-0.4596867,0.0,-9.576807,0.82022345,47.66987,-0.8448936,-2.3356156,-3.412092,-0.536487,0.15533626,-0.1973215,26.5625,27.5,26.5625,29.8125,31.1875,31.6875
0.038054325,-1.0417391,0.26149213,-0.45451912,0.03875208,0.04088906,-0.17990303,-0.37311777,-0.32818177,0.05978226,-3.0784283,0.6248752,-0.0007081271,-0.017885383,0.0005890822,8.943566e-05,-0.0073204986,0.0018211271,-0.0020430577,0.44778296,-1.4701827,2.009215,-2.107764,-1.5705398,2.4227128,-0.021271344,0.026057916,-0.028181465,-0.0027089773,0.005733064,-0.019218257,-0.28730422,-0.11492168,-9.461885,0.784413,47.70032,-0.8371385,-2.2060165,-3.393598,-0.52247477,0.13907035,-0.18884891,26.5625,27.5,26.5625,29.8125,31.1875,31.6875
0.040053703,-0.81908935,0.50565124,-0.4082739,0.029692251,0.015941879,-0.18758497,-0.37316495,-0.32818317,0.05980499,-3.0784285,0.6248944,-0.00063892285,-0.019361189,0.0003001666,0.00027571278,-0.008665632,0.0034982965,-0.0019802607,0.44775856,-1.4701463,2.0091178,-2.1077406,-1.5705632,2.4227004,-0.022392204,0.02748286,-0.029721014,-0.0046906844,0.0062118983,-0.020400936,-0.19153613,-0.095768064,-9.385271,0.7665104,47.709274,-0.7820711,-2.211095,-3.4425597,-0.48829362,0.13240258,-0.18855122,26.5625,27.5,26.5625,29.8125,31.1875,31.6875
0.042053733,-0.7412765,0.16274078,-0.58964837,0.026997905,0.003922365,-0.17562146,-0.3731562,-0.32816154,0.059758846,-3.078375,0.62492216,-0.00079675263,-0.020342259,0.0007197577,9.925273e-05,-0.008122775,0.0028662346,-0.0024038125,0.44770995,-1.4700738,2.0091412,-2.1077282,-1.5705398,2.4226758,-0.02392461,0.029301496,-0.03148631,-0.003937719,0.0059915204,-0.021508873,-0.15322891,-0.11492168,-9.461885,0.842603,47.707485,-0.784459,-2.2399244,-3.4283602,-0.47593427,0.14074253,-0.19472173,26.5625,27.5,26.5625,29.8125,31.1875,31.6875
0.04405396,-0.4240334,0.02789988,-0.51779675,0.018721221,-0.0005650173,-0.16251889,-0.3732237,-0.3281556,0.05979018,-3.0783968,0.6249266,-0.0006584867,-0.021100305,0.0010710807,0.00028517106,-0.0075958753,0.0023058867,-0.0023828265,0.44766164,-1.4700495,2.0090454,-2.1077402,-1.5705756,2.4226277,-0.025114067,0.030316787,-0.03339938,-0.0023064548,0.0057601267,-0.022717513,-0.095768064,-0.095768064,-9.461885,0.7284641,47.694946,-0.70477223,-2.2158062,-3.3697395,-0.5010372,0.1288746,-0.18428099,26.5625,27.5,26.5625,29.8125,31.1875,31.6875
0.04605381,-0.8125327,-0.62336016,-0.6364989,0.013512551,-0.007606519,-0.15561828,-0.37327102,-0.32816368,0.059790917,-3.0784383,0.6249155,-0.00070463587,-0.021855138,0.0015991962,0.00047641929,-0.006968561,0.002478506,-0.0019434408,0.44760114,-1.4699655,2.0089486,-2.1077273,-1.5705274,2.422555,-0.02635466,0.03076657,-0.034512278,-0.0015237222,0.005118658,-0.024395674,-0.095768064,0.05746084,-9.519346,0.7642693,47.692257,-0.7357156,-2.1978934,-3.4899497,-0.5025721,0.15419349,-0.17019428,26.5625,27.5,26.5625,29.8125,31.1875,31.6875
0.048054103,-0.38042888,-0.4525573,-0.59126824,-0.01046071,0.010605806,-0.17198582,-0.3732854,-0.32813594,0.05976467,-3.0783412,0.62493414,-0.0007365879,-0.022910615,0.0017110083,0.0009780173,-0.0071055656,0.003498508,-0.0015973704,0.44757685,-1.4698935,2.0089242,-2.1077034,-1.570588,2.4225547,-0.027304502,0.03124803,-0.03625898,-0.0012375971,0.004795215,-0.025690235,-0.019153614,0.19153613,-9.500193,0.79560274,47.70211,-0.6778746,-2.1080794,-3.4493222,-0.5146668,0.14219467,-0.14505008,26.5625,27.5,26.5625,29.8125,31.1875,31.6875
0.050054062,-0.26396874,-0.7452781,-0.59977895,-0.020916183,0.018775584,-0.15963838,-0.37336567,-0.32814723,0.059787694,-3.0784318,0.62497157,-0.0006632746,-0.024050126,0.0016416549,0.0015616743,-0.007910005,0.004515654,-0.0015102457,0.44749248,-1.4698335,2.0088165,-2.1077511,-1.5705398,2.4224823,-0.02839444,0.031755865,-0.03819277,-0.0010761287,0.0050789076,-0.026866226,0.038307227,0.17238252,-9.519346,0.779936,47.672558,-0.6977662,-2.0407774,-3.4629853,-0.5196766,0.14960967,-0.14342628,26.5625,27.5,26.5625,29.8125,31.1875,31.6875
0.052054267,-0.58207685,-1.0122299,-0.7170409,-0.026169136,0.0060646636,-0.16196658,-0.37340048,-0.32812124,0.059771936,-3.0783832,0.6250196,-0.00071146403,-0.024700064,0.0019200287,0.0013556198,-0.007746204,0.0040594013,-0.0013020483,0.44742003,-1.4697611,2.0087678,-2.1077273,-1.5705518,2.422446,-0.02953674,0.033012282,-0.039141905,-0.00090137875,0.005125461,-0.02821635,-0.05746084,0.2681506,-9.5385,0.67475104,47.698532,-0.6967005,-2.0280387,-3.49857,-0.525203,0.16036876,-0.12368589,26.5625,27.5,26.5625,29.8125,31.1875,31.6875
0.0540545,-0.2994428,-1.3102343,-0.759325,-0.025106873,0.011330797,-0.16103388,-0.37344748,-0.32812902,0.05979151,-3.078444,0.6249156,-0.00066236017,-0.025778733,0.0017342949,0.0016092119,-0.008289555,0.004484737,-0.0005104334,0.44738388,-1.4697248,2.008683,-2.1077273,-1.5705398,2.4223373,-0.030368678,0.034408513,-0.041286338,-0.00077232864,0.0054278006,-0.0298388,0.019153614,0.3256114,-9.5385,0.7418897,47.709274,-0.708745,-1.9738901,-3.5331817,-0.5270486,0.157108,-0.11590855,26.5625,27.5,26.5625,29.8125,31.1875,31.6875
0.056054126,-0.5529614,-1.4556957,-0.78423715,-0.03125868,-0.0019745375,-0.15632446,-0.37350753,-0.32811952,0.059794564,-3.0784354,0.62502944,-0.0006334409,-0.026626801,0.0018354079,0.0017685397,-0.008210573,0.0049506077,-0.00041301138,0.44731146,-1.4696527,2.0085995,-2.1077392,-1.5705398,2.422337,-0.031137448,0.035346612,-0.04270581,-0.0006754608,0.005153073,-0.03070335,0.038307227,0.36391866,-9.615114,0.8023209,47.68062,-0.7093067,-2.0254583,-3.419353,-0.5307454,0.16261435,-0.10210127,26.5625,27.5,26.5625,29.8125,31.1875,31.6875
0.058054224,-0.571457,-1.0595529,-0.77461505,-0.03960959,0.0006977095,-0.1626643,-0.37358317,-0.32812014,0.059818212,-3.0784829,0.62507695,-0.0005815374,-0.027745645,0.0015394012,0.0021810809,-0.008814459,0.0057800887,-0.00052194553,0.44722745,-1.4695921,2.0084789,-2.1077392,-1.5705155,2.4222767,-0.031713743,0.036565386,-0.045008365,-0.0006002172,0.0053364285,-0.031169211,-0.05746084,0.3256114,-9.595961,0.779936,47.694946,-0.7034496,-1.9485502,-3.5146942,-0.5489892,0.16847242,-0.1108671,26.5625,27.5,26.5625,29.8125,31.1875,31.6875
0.060054623,-0.52039707,-1.5025383,-0.7894688,-0.033580553,0.014250071,-0.1603527,-0.37363487,-0.32810432,0.05981484,-3.0784469,0.6250496,-0.0006030014,-0.028450334,0.001384116,0.0022598966,-0.009214315,0.005918058,0.0008882399,0.44716716,-1.469496,2.0083702,-2.107691,-1.5705398,2.422204,-0.032257527,0.037688714,-0.0464249,-0.000605879,0.0056327432,-0.033122938,-0.095768064,0.4213795,-9.672575,0.7978386,47.701214,-0.71733123,-1.8907723,-3.498055,-0.5369867,0.1614627,-0.085560106,26.5625,27.5,26.5625,29.8125,31.1875,31.6875
0.062053878,-0.21455865,-1.126221,-0.79536283,-0.042179443,0.035472438,-0.15900487,-0.37367618,-0.3281162,0.05981013,-3.0784955,0.6250781,-0.0006195748,-0.029311482,0.00093847245,0.0023154626,-0.010089271,0.0058043855,0.0020507763,0.4471191,-1.4694237,2.0083096,-2.1077268,-1.5704912,2.4221675,-0.03276214,0.03946216,-0.048509967,-0.00057115674,0.006466928,-0.03479007,-0.076614454,0.34476504,-9.787497,0.7777002,47.733456,-0.70961463,-1.870099,-3.5060554,-0.532426,0.15695137,-0.08529058,26.5625,27.5,26.5625,29.8125,31.1875,31.6875
0.06405413,-1.4217716,-1.0701592,-0.7015723,-0.041647658,0.01796391,-0.15261585,-0.37373653,-0.32811767,0.059818316,-3.0785449,0.6249935,-0.0005871962,-0.029927785,0.00072961615,0.0018892601,-0.011149051,0.0044310237,0.00043909196,0.44705862,-1.4693509,2.0082138,-2.1077392,-1.5704788,2.422048,-0.033971563,0.04157101,-0.049853377,-0.00056112494,0.008015457,-0.034389418,-0.19153613,0.3256114,-9.634268,0.7530795,47.672558,-0.7028713,-1.9813471,-3.5461192,-0.526603,0.15311454,-0.07808693,26.5625,27.5,26.5625,29.8125,31.1875,31.6875
0.066054374,-1.2571279,-1.1218938,-0.5354749,-0.025731424,0.029736524,-0.15075357,-0.37379667,-0.32812786,0.059821863,-3.0785623,0.62505454,-0.0006215202,-0.030605309,0.0003569673,0.0021804648,-0.011781851,0.0049572275,-0.00054537953,0.44699863,-1.4692429,2.0080817,-2.1077154,-1.5704426,2.422024,-0.034109913,0.04242116,-0.051461004,-0.0005512314,0.008356151,-0.033542864,-0.21068975,0.3256114,-9.634268,0.77545905,47.67793,-0.8389086,-1.9168851,-3.5113034,-0.5408313,0.14203538,-0.090542056,26.5625,27.5,26.5625,29.8125,31.1875,31.6875
0.06805382,-1.4220549,-0.78190917,-0.56458473,-0.016114682,0.024923407,-0.14834252,-0.3738435,-0.3281247,0.05981988,-3.0785842,0.62498206,-0.0006074144,-0.03188248,0.00037621416,0.0023796654,-0.01220631,0.0052852165,-0.00050277583,0.44695023,-1.4691705,2.0080092,-2.1077268,-1.5704426,2.4219277,-0.035460316,0.044017825,-0.0537147,-0.00037378332,0.008593015,-0.034934685,-0.11492168,0.28730422,-9.423578,0.7777002,47.692257,-0.7640133,-1.8914597,-3.534142,-0.55015016,0.13452443,-0.08852368,26.5625,27.5,26.5625,29.8125,31.1875,31.6875
0.07005385,-0.98825,-0.35366428,-0.45679086,-0.0064155636,0.035295475,-0.1556301,-0.3739168,-0.3281239,0.059840504,-3.0786054,0.625083,-0.0005851923,-0.032963414,3.1508247e-05,0.0023970671,-0.012298577,0.0055714534,-5.94405e-05,0.44686604,-1.4690977,2.0078766,-2.107703,-1.5704187,2.4219038,-0.035755187,0.046237927,-0.056184854,-0.00041993972,0.008548987,-0.035670664,-0.19153613,0.3256114,-9.461885,0.7933669,47.694946,-0.8468733,-1.908865,-3.420459,-0.54289633,0.15131989,-0.07741949,26.5625,27.5,26.5625,29.8125,31.1875,31.6875
0.07205382,-0.9548941,-0.41006818,-0.4053383,0.0062398966,0.03671597,-0.15826385,-0.37399447,-0.32812315,0.059851106,-3.0786421,0.6250891,-0.00051011523,-0.03356355,-0.000166648,0.0026632464,-0.013136783,0.0059495666,0.00016569102,0.44679385,-1.4690138,2.0077684,-2.1077392,-1.5704182,2.421831,-0.036319017,0.046698373,-0.05729052,-0.0004792996,0.009141697,-0.03645944,-0.2681506,0.21068975,-9.442732,0.78217715,47.698532,-0.79443055,-1.8789254,-3.4462652,-0.5429883,0.10763958,-0.07946886,26.5625,27.5,26.5625,29.8125,31.1875,31.6875
0.07405399,-0.865539,-0.32378495,-0.28883663,0.00724511,0.04093371,-0.15403576,-0.37407583,-0.3281261,0.059863664,-3.0787,0.6250428,-0.00047314545,-0.035246756,-0.0006623457,0.0031376677,-0.013764675,0.008103665,0.0014659654,0.44670984,-1.4689173,2.0076363,-2.1077511,-1.5703949,2.4217107,-0.0366528,0.048522018,-0.06010684,-0.0016974441,0.008770837,-0.03809009,-0.3256114,0.19153613,-9.461885,0.7486078,47.72002,-0.8764778,-1.8314756,-3.5019593,-0.5284084,0.121248275,-0.077407755,26.5625,27.5,26.5625,29.8125,31.1875,31.6875
0.07605366,-1.7141224,-0.42678353,-0.35239133,0.008112947,0.024163675,-0.15076154,-0.37413743,-0.32814106,0.05986263,-3.0787385,0.6250519,-0.0005183089,-0.037306163,-0.00087406486,0.0029186388,-0.0143293785,0.008515204,-0.0010035575,0.44664916,-1.4687964,2.0075033,-2.1077402,-1.5703462,2.421651,-0.0383332,0.05229108,-0.063532114,-0.002655224,0.009094006,-0.03729862,-0.28730422,0.17238252,-9.3661175,0.76874626,47.71017,-0.80062246,-1.9184222,-3.321445,-0.50935537,0.11970112,-0.07783887,26.5625,27.5,26.5625,29.8125,31.1875,31.6875
0.07805364,-1.4201257,-0.23420586,-0.39187542,0.0005386265,0.028549397,-0.14663407,-0.37424502,-0.32813513,0.059895415,-3.0787733,0.6250993,-0.00033555896,-0.03726701,-0.00025370496,0.0032260981,-0.014718756,0.008666834,-0.003872822,0.44656473,-1.4687251,2.0073607,-2.1077878,-1.570382,2.4215918,-0.03964827,0.050635513,-0.062490333,-0.0023481536,0.0093885,-0.03574481,-0.4213795,0.095768064,-9.346964,0.7418897,47.655537,-0.80636966,-1.867871,-3.5201383,-0.5179669,0.10863798,-0.10637072,26.5625,27.5,26.5625,29.8125,31.1875,31.6875
0.080053836,-1.3139302,-0.28781822,-0.20671552,0.0087063825,0.032523353,-0.15556268,-0.3742945,-0.32814646,0.0598785,3.0787487,-0.6250551,0.0004488919,-0.038299333,-0.00022742178,0.003276343,-0.014281281,0.0087758945,-0.0032724398,0.44649243,-1.4685926,2.007251,-2.107775,-1.57031,2.421495,-0.040323686,0.052468706,-0.06474417,-0.0018318507,0.008942679,-0.037018728,-0.40222588,0.095768064,-9.270349,0.78888994,47.694946,-0.8443648,-1.7137702,-3.4401913,-0.5241754,0.107407555,-0.11360523,26.5625,27.5,26.5625,29.8125,31.1875,31.6875
0.08205364,-1.3170831,0.0039954204,-0.26492095,0.014101626,0.028486483,-0.1553766,-0.37436685,-0.32813263,0.059872903,3.0787563,-0.6250943,0.00044999988,-0.04057462,-0.0017592658,0.004996804,-0.015913872,0.01224957,-0.0014907694,0.44640896,-1.4684722,2.007129,-2.1077635,-1.5703219,2.421435,-0.039471216,0.05421548,-0.070698,-0.0014622707,0.008904412,-0.037944246,-0.34476504,0.17238252,-9.308656,0.7732232,47.67166,-0.94799995,-1.8187035,-3.246416,-0.5111174,0.11599776,-0.11419991,26.5625,27.5,26.5625,29.8125,31.1875,31.6875
0.08405405,-0.9236164,-0.1291165,-0.18766883,0.012426651,0.037507188,-0.15675974,-0.3744564,-0.32814986,0.05991318,3.0786762,-0.6250985,0.00038254008,-0.039647166,-0.00026114294,0.0019494983,-0.013278114,0.006008456,-0.003504834,0.44633603,-1.4683989,2.0069506,-2.1077397,-1.5702862,2.421375,-0.04165691,0.05831118,-0.068273164,-0.0012144472,0.009230989,-0.038116556,-0.28730422,0.21068975,-9.212888,0.800085,47.68062,-0.84598196,-1.8860136,-3.3596382,-0.51884586,0.10145946,-0.12700152,26.5625,27.5,26.5625,29.8125,31.1875,31.6875
0.086053774,-1.6303006,-0.5943798,-0.26635563,0.00922173,0.02393676,-0.14751135,-0.37451616,-0.3281293,0.059891533,3.0787206,-0.6250688,0.0004288344,-0.042361487,-0.00056033523,0.004615422,-0.015248855,0.011515979,-0.004464526,0.44625163,-1.4682678,2.0068533,-2.1077273,-1.5702986,2.4212666,-0.04312807,0.05663005,-0.07258403,-0.0010385528,0.008622094,-0.03862521,-0.17238252,0.1340753,-9.308657,0.7732232,47.675243,-0.8800813,-1.8463024,-3.3858554,-0.5158719,0.118148066,-0.14087583,26.5625,27.5,26.5625,29.8125,31.1875,31.6875
0.08805384,-1.3662348,-0.7001731,-0.30622807,-0.0039402354,0.032279015,-0.1516338,-0.37461913,-0.32814443,0.059906688,3.0786648,-0.6251163,0.0003670056,-0.043767225,5.2506453e-05,0.003981042,-0.014472658,0.0105190985,-0.0059531764,0.4461788,-1.4681228,2.0066621,-2.1077397,-1.5702866,2.4212306,-0.045355078,0.059773464,-0.07462222,-0.00090729306,0.008351433,-0.039360978,-0.30645782,0.17238252,-9.308657,0.76874626,47.694946,-0.7525605,-1.7119045,-3.297863,-0.5196658,0.10296221,-0.1627287,26.5625,27.5,26.5625,29.8125,31.1875,31.6875
0.09005406,-1.3014832,-0.8899559,-0.25227815,-0.011308151,0.033984758,-0.14670977,-0.3747179,-0.32814312,0.05991866,3.078617,-0.62510645,0.00032995138,-0.044764493,-0.00031124873,0.003878607,-0.014973479,0.010198402,-0.00612447,0.44607058,-1.4680023,2.0065048,-2.1077511,-1.5702623,2.4211223,-0.045957215,0.062130127,-0.0770075,-0.0008055562,0.008940338,-0.039790582,-0.38307226,0.17238252,-9.32781,0.7642693,47.65912,-0.793005,-1.8541733,-3.2736201,-0.50873065,0.10806015,-0.1735804,26.5625,27.5,26.5625,29.8125,31.1875,31.6875
0.09205453,-0.8808036,-0.859009,-0.46817824,-0.021555163,0.04850303,-0.15866554,-0.37482455,-0.3281478,0.05994876,3.078547,-0.62518775,0.0002526913,-0.044514205,-0.00069550064,0.0032576122,-0.01452163,0.008965105,-0.0046955054,0.44597486,-1.467894,2.006314,-2.1077397,-1.5702504,2.4210863,-0.04508115,0.06386005,-0.07751,-0.0007243716,0.009068079,-0.040342502,-0.36391866,0.19153613,-9.32781,0.842603,47.674347,-0.87298095,-1.8150103,-3.2633374,-0.5326736,0.108261466,-0.18893093,26.5625,27.5,26.5625,29.8125,31.1875,31.6875
0.094053745,-1.7388699,-1.4711815,-0.5741881,-0.008438154,0.02462134,-0.13721332,-0.37488517,-0.32814908,0.059917,3.078541,-0.6251683,0.00035789463,-0.046466738,-0.00025318746,0.0037232207,-0.014440891,0.0103176115,-0.0061024823,0.44589016,-1.4677258,2.0062044,-2.1077507,-1.5702027,2.4209902,-0.04721711,0.06539848,-0.08029485,-0.0006580744,0.008405429,-0.041069053,-0.30645782,0.22984336,-9.423578,0.7418897,47.685097,-0.85084105,-1.8790565,-3.094006,-0.52068245,0.11719571,-0.21063209,26.5625,27.5,26.5625,29.8125,31.1875,31.6875
0.09605482,-1.4969102,-1.1883757,-0.41260797,-0.02186923,0.025654836,-0.14916784,-0.37497014,-0.32814744,0.05992987,3.0785346,-0.6250704,0.00027517366,-0.04619789,0.0002874911,0.0024028574,-0.013574078,0.0075650034,-0.0065736254,0.44581798,-1.4676292,2.0060742,-2.1077745,-1.5702142,2.420858,-0.04825459,0.06747292,-0.079568274,-0.00060290657,0.008815405,-0.041635644,-0.22984336,0.34476504,-9.404425,0.73741806,47.63136,-0.8097569,-1.8317947,-3.3063345,-0.52549416,0.12323938,-0.23344842,26.5625,27.5,26.5625,29.8125,31.1875,31.6875
0.09805391,-0.73658955,-0.86123735,-0.25114,-0.03515092,0.034826815,-0.15805593,-0.37510446,-0.32813737,0.05996191,3.078439,-0.6251855,0.00019103229,-0.0482705,-0.00055605016,0.0033260747,-0.015086411,0.009398391,-0.005486035,0.4456617,-1.4675087,2.0058682,-2.1077745,-1.5701903,2.4207857,-0.04890576,0.06967182,-0.084119104,-0.000556281,0.009385869,-0.043371417,-0.30645782,0.3256114,-9.270349,0.8247004,47.68599,-0.8309859,-1.8757205,-3.3093052,-0.5117564,0.121159285,-0.23631752,26.5625,27.5,26.5625,29.8125,31.1875,31.6875
0.10005419,-1.2852114,-1.092246,-0.4225914,-0.020391792,0.014971623,-0.15017496,-0.37517095,-0.32811803,0.05992884,3.0784855,-0.6252129,0.00029777377,-0.048348885,-0.00025921894,0.002593379,-0.014726768,0.007857443,-0.004078819,0.44556525,-1.4673283,2.0057375,-2.1077392,-1.5701903,2.4207006,-0.04974962,0.07117637,-0.08411765,-0.00051635475,0.009723296,-0.04562359,-0.22984336,0.38307226,-9.270349,0.7911258,47.71286,-0.7992479,-1.9271102,-3.155253,-0.5149755,0.119722426,-0.24197471,26.5625,27.5,26.5625,29.8125,31.1875,31.6875
0.102054425,-0.6447841,-0.513741,-0.5803601,-0.020557258,0.021393288,-0.15149947,-0.37528732,-0.32815087,0.05995484,3.0783923,-0.6251753,0.00024986579,-0.049506314,-0.0004929691,0.002587267,-0.014565502,0.008161554,-0.0049690725,0.44548124,-1.467172,2.0055087,-2.1077507,-1.5701302,2.420605,-0.050150763,0.07349463,-0.086671025,-0.00048177983,0.009446286,-0.045131434,-0.13407528,0.34476507,-9.308657,0.77545905,47.705692,-0.9167379,-1.868138,-3.2519317,-0.5097856,0.120781034,-0.25921303,26.5625,27.5,26.5625,29.8125,31.1875,31.6875
0.10405444,-1.3812982,-0.74722356,-0.18273976,-0.011985401,0.0024756975,-0.13857555,-0.37538028,-0.32814854,0.05995863,3.0784009,-0.62515754,0.00019849653,-0.05056297,-0.00075407245,0.002902248,-0.015442051,0.008660624,-0.0055509326,0.44540906,-1.4670278,2.0053413,-2.1077507,-1.5701541,2.4205208,-0.050987326,0.07471113,-0.08874813,-0.0004515473,0.010020017,-0.045385305,-0.05746084,0.21068975,-9.174581,0.79560274,47.709274,-0.8589374,-1.9433964,-3.214697,-0.5051281,0.115574,-0.2936437,26.5625,27.5,26.5625,29.8125,31.1875,31.6875
0.10605385,-0.69123787,-0.10621691,-0.2506532,-0.012523332,0.01193978,-0.15325065,-0.37550196,-0.3281476,0.059981816,3.0782912,-0.6252499,0.00013970178,-0.051336743,-0.0012014131,0.002833015,-0.01567182,0.0085930815,-0.004223035,0.44526497,-1.4669074,2.005161,-2.1077745,-1.5701059,2.4204483,-0.050984394,0.07677131,-0.09086962,-0.00042488927,0.010258153,-0.04670818,-0.095768064,0.19153613,-9.11712,0.72622824,47.64927,-0.9312098,-1.8897907,-3.1601238,-0.51325136,0.11886542,-0.29499567,26.5625,27.5,26.5625,29.8125,31.1875,31.6875
0.10805415,-0.50265366,-0.3133963,-0.14774963,-0.0041402555,0.018915946,-0.15357988,-0.3755845,-0.32815322,0.05998193,3.0782955,-0.6252118,0.0001658325,-0.05207892,-0.0008672291,0.0025382813,-0.015241072,0.008217058,-0.0034332518,0.44519266,-1.4667511,2.0049808,-2.1077392,-1.5700935,2.4203517,-0.052112754,0.0783049,-0.09189906,-0.00040120108,0.01003005,-0.04862533,-0.095768064,0.24899697,-9.232041,0.8179876,47.690468,-0.9421472,-1.9552708,-3.1542544,-0.50763613,0.118935704,-0.32569638,26.5625,27.5,26.5625,29.8125,31.1875,31.6875
0.11005397,-1.2873083,-0.9282977,-0.40471807,0.0016080514,0.0012009281,-0.14007944,-0.37570527,-0.32814696,0.059988923,3.0782602,-0.62520576,9.2179704e-05,-0.053113203,-0.00068257697,0.00210373,-0.01522195,0.007394336,-0.0041048033,0.44507208,-1.4665946,2.0048006,-2.1077745,-1.5700935,2.420232,-0.053598493,0.0807844,-0.09364857,-0.00038001768,0.010368069,-0.049437948,-0.076614454,0.24899697,-9.289502,0.784413,47.677036,-0.8729876,-1.8615141,-3.0799372,-0.49961495,0.11225754,-0.32510936,26.5625,27.5,26.5625,29.8125,31.1875,31.6875
0.11205411,-0.84069866,-0.71283823,-0.37421456,-0.0089594945,0.007352584,-0.15080261,-0.37580666,-0.32812354,0.059964735,3.0782614,-0.625262,0.00014851596,-0.053070817,-0.0019309163,0.0027887763,-0.015712023,0.008905933,-0.0039062477,0.44492903,-1.4664025,2.0046446,-2.1077745,-1.5700821,2.420124,-0.05105537,0.08081649,-0.095273234,-0.00036095871,0.010156046,-0.047092564,-0.076614454,0.2681506,-9.270349,0.779936,47.691364,-1.1426787,-2.083254,-3.143334,-0.5087365,0.12094172,-0.3792162,26.5625,27.5,26.5625,29.8125,31.1875,31.6875
0.11405454,-1.2782897,-1.4167306,-0.43240654,0.0026262824,-0.002503778,-0.13671084,-0.3759083,-0.32814452,0.059986282,3.0782402,-0.6251999,0.00011315002,-0.054194253,-0.001625859,0.003418581,-0.016466826,0.010119949,-0.004048727,0.44486842,-1.4662473,2.0044162,-2.1077392,-1.5700697,2.4200275,-0.05272948,0.080605604,-0.09649892,-0.00034372235,0.010315423,-0.04862335,0.0,0.24899697,-9.385271,0.7463667,47.63852,-1.1078215,-1.7976668,-3.1982067,-0.48966604,0.117843464,-0.41765815,26.5625,27.5,26.5625,29.8125,31.1875,31.6875
0.116054386,-0.5945083,-0.52883434,-0.37671268,-0.021022046,0.013205317,-0.15776473,-0.37604344,-0.32817525,0.060016714,3.078137,-0.62519735,2.679136e-05,-0.05440797,-0.0014374638,0.0009466241,-0.014720994,0.005381399,-0.0027620823,0.44477212,-1.4660774,2.004165,-2.107763,-1.570022,2.4199429,-0.053571194,0.08685352,-0.097731106,-0.0003280574,0.010783042,-0.050749466,-0.038307227,0.24899697,-9.346964,0.81351066,47.66987,-1.1158067,-2.1353688,-3.211342,-0.49733394,0.10517551,-0.43677416,26.5625,27.5,26.5625,29.8125,31.1875,31.6875
0.11805451,-0.85189205,-0.7231067,-0.45682463,-0.01222807,0.0047330335,-0.1472669,-0.37617064,-0.3281572,0.060022775,3.0780761,-0.6253006,-2.1364043e-05,-0.055608913,-0.00092125894,0.0020897018,-0.01537131,0.0077737486,-0.0024872334,0.44461545,-1.4659222,2.0039856,-2.107787,-1.5700096,2.4198585,-0.05529559,0.08530358,-0.09866651,-0.0002772155,0.010344253,-0.052747466,-0.076614454,0.24899697,-9.270349,0.8224646,47.685097,-1.0677874,-1.8745627,-3.2090466,-0.48203886,0.10725802,-0.43950444,26.5625,27.5,26.5625,29.8125,31.1875,31.6875
0.120054476,-0.9966138,-0.8689342,-0.44335335,-0.0065395487,-0.0039882003,-0.14660905,-0.3762356,-0.32816526,0.060004283,3.0781085,-0.6252281,7.770345e-05,-0.054827593,-0.0012560618,0.0003995017,-0.014068593,0.004497806,0.0007674822,0.44455603,-1.4657413,2.0038178,-2.1077392,-1.5699857,2.4197497,-0.0541118,0.08872323,-0.0985802,-0.00026324557,0.010575502,-0.05481883,-0.095768064,0.24899697,-9.3661175,0.8314132,47.689575,-1.2525665,-2.065153,-3.2987988,-0.49201527,0.094651,-0.46117988,26.5625,27.5,26.5625,29.8125,31.1875,31.6875
0.12205424,-0.6214717,-0.53294665,-0.44506866,-0.0020412337,0.010304875,-0.15384206,-0.37637326,-0.32816473,0.060024023,3.0780606,-0.625199,7.5738875e-08,-0.056591667,-0.00068727334,0.00055501657,-0.013873712,0.0051981406,0.0018551726,0.4444232,-1.4655731,2.0035899,-2.1077507,-1.5699738,2.419605,-0.05641738,0.090506546,-0.10091708,-0.0002525358,0.0101001235,-0.05820922,-0.1340753,0.22984336,-9.346964,0.79560274,47.713753,-1.218323,-2.010611,-3.3000622,-0.46400845,0.12129863,-0.4615869,26.5625,27.5,26.5625,29.8125,31.1875,31.6875
0.12405444,-1.2233307,-0.51339585,-0.61890393,0.009011896,-0.0028756808,-0.14285494,-0.376519,-0.32817027,0.060032237,3.0780263,-0.6251893,-7.428026e-05,-0.057165653,-6.802597e-05,-0.00015983781,-0.012771162,0.0041489713,0.0043371497,0.44430286,-1.4653566,2.003338,-2.1077745,-1.5699743,2.4194832,-0.05770431,0.09246886,-0.101462685,-0.0002427914,0.0095609175,-0.06197641,-0.038307227,0.21068975,-9.308657,0.842603,47.701214,-1.1492335,-2.0769644,-3.3685246,-0.4765906,0.108172856,-0.4380909,26.5625,27.5,26.5625,29.8125,31.1875,31.6875
0.12605405,-1.1992075,-0.5272861,-0.5264627,0.0071659693,0.0039481334,-0.14796707,-0.37659,-0.32817897,0.06002214,3.0780013,-0.6251251,3.779778e-05,-0.05861641,-0.00067652966,0.000530882,-0.014545288,0.00521404,0.0076387445,0.44420648,-1.4652005,2.0031812,-2.1077392,-1.5699018,2.41935,-0.05861736,0.09376088,-0.10448391,-0.0002337803,0.010699329,-0.066190615,-0.05746084,0.22984336,-9.385271,0.8403672,47.686886,-1.2092555,-1.9905431,-3.2091374,-0.4666567,0.12093355,-0.42155528,26.5625,27.5,26.5625,29.8125,31.1875,31.6875
0.12805441,-1.3115366,-1.0615977,-0.4461661,0.009425976,0.006949509,-0.14825134,-0.37672853,-0.32816195,0.060024634,3.0779736,-0.62515616,-4.759019e-06,-0.05816441,0.00019309821,-0.0006199594,-0.013214635,0.0030559483,0.010867896,0.44405016,-1.4650087,2.0029666,-2.1077507,-1.5699018,2.4192166,-0.05963372,0.09473304,-0.102938674,-0.000225414,0.01043408,-0.0704363,-0.076614454,0.1340753,-9.289502,0.8247004,47.66091,-1.2481554,-1.9814312,-3.4956696,-0.45829815,0.10880159,-0.37943637,26.5625,27.5,26.5625,29.8125,31.1875,31.6875
0.13005413,-1.3745908,-0.676038,-0.42011878,-0.0015647903,0.016166616,-0.15191475,-0.37685782,-0.32815722,0.06002383,3.0779746,-0.6250979,4.0541395e-06,-0.060893532,0.0001934573,0.0010528327,-0.0141840195,0.006845964,0.01320734,0.44391748,-1.4647931,2.0027254,-2.1077268,-1.5698904,2.4190476,-0.06154486,0.09516265,-0.107282005,-0.00014305982,0.009675947,-0.074683554,-0.17238252,0.21068975,-9.32781,0.7709874,47.672558,-1.1775002,-1.8750474,-3.2922788,-0.45711714,0.12313172,-0.33545536,26.5625,27.5,26.5625,29.8125,31.1875,31.6875
0.1320544,-1.1032156,-0.42860255,-0.5154761,-0.0072885756,0.03309234,-0.15547286,-0.3769403,-0.3281629,0.06000134,3.0779493,-0.6250702,6.8662215e-05,-0.060605593,0.00029501144,-0.0002331689,-0.01349904,0.0041602035,0.016916577,0.4438213,-1.4646121,2.0025828,-2.1077507,-1.5698417,2.4189374,-0.061821073,0.097713366,-0.10718262,-6.810288e-05,0.01021284,-0.07866941,-0.1340753,0.19153613,-9.3661175,0.80456203,47.692257,-1.1810561,-2.0991573,-3.474155,-0.46954024,0.12218549,-0.30114162,26.5625,27.5,26.5625,29.8125,31.1875,31.6875
0.13405356,-1.4424367,-0.4545966,-0.4667077,-0.009485971,0.03047368,-0.15383603,-0.37709045,-0.32815987,0.060029272,3.0779414,-0.624933,-3.464478e-05,-0.061833445,0.000495014,0.0011696416,-0.014879859,0.006868706,0.019492209,0.443689,-1.4644333,2.002319,-2.1077392,-1.5698537,2.4187207,-0.06332556,0.09589096,-0.10840323,-6.122556e-05,0.01030388,-0.08274848,-0.15322891,0.05746084,-9.423578,0.83365434,47.67345,-1.2233402,-1.7663805,-3.5055215,-0.45174426,0.118301824,-0.24808028,26.5625,27.5,26.5625,29.8125,31.1875,31.6875
0.13605395,-1.9118679,-0.58059275,-0.46743548,0.006182799,0.014384376,-0.14532784,-0.37722084,-0.32815358,0.060021058,3.0779417,-0.6249129,-7.368655e-05,-0.062572,0.00086982857,-0.00082480186,-0.012806725,0.0034680713,0.02054263,0.4435686,-1.4642155,2.002103,-2.107763,-1.5698661,2.418588,-0.06438825,0.1016775,-0.110242106,-4.44824e-05,0.009891416,-0.08485904,-0.24899697,0.076614454,-9.385271,0.82022345,47.687782,-1.1612726,-2.0357795,-3.5590935,-0.4545586,0.13844535,-0.18572544,26.5625,27.5,26.5625,29.8125,31.1875,31.6875
0.13805418,-1.8658122,-0.24875073,-0.35566926,0.019046286,0.018661562,-0.14860916,-0.3773444,-0.32816574,0.060013007,3.0779104,-0.6248307,-4.5023673e-05,-0.06359406,0.00059513963,0.0007474328,-0.0150747895,0.006155185,0.020746473,0.4434482,-1.4639889,2.0018742,-2.1077745,-1.5698179,2.4184203,-0.065362625,0.09961219,-0.111589186,-2.9498826e-05,0.010787196,-0.08603753,-0.30645782,0.095768064,-9.32781,0.800085,47.72002,-1.2234735,-1.765187,-3.4757993,-0.445379,0.13489427,-0.15446526,26.5625,27.5,26.5625,29.8125,31.1875,31.6875
0.14005432,-1.4601154,0.07428001,-0.4041289,0.01621638,0.03815956,-0.1570953,-0.37747818,-0.3281657,0.06002572,3.0778685,-0.62474567,-7.048462e-05,-0.065726556,0.00023044515,0.0011450923,-0.015667638,0.007246663,0.018844688,0.44330388,-1.4638082,2.0016458,-2.1077745,-1.5697817,2.4182284,-0.06660203,0.10261846,-0.115833506,-2.770545e-05,0.010850973,-0.08537177,-0.17238252,0.05746084,-9.270349,0.8179876,47.686886,-1.2224349,-1.8306962,-3.5228517,-0.4313738,0.12330504,-0.14865243,26.5625,27.5,26.5625,29.8125,31.1875,31.6875
0.14205427,-1.7164481,-0.20392859,-0.4052974,0.012408127,0.03489957,-0.14497416,-0.37761995,-0.32818404,0.060052373,3.0778253,-0.6246429,-0.00013811598,-0.066223234,0.0008095998,0.00062197115,-0.015402375,0.006192563,0.015165074,0.44319522,-1.4636161,2.0013702,-2.107763,-1.5697578,2.4180613,-0.06824725,0.103892714,-0.116064966,-3.5473854e-06,0.011069109,-0.08333649,-0.32561144,0.076614454,-9.423578,0.85155696,47.682407,-1.2107847,-1.8866603,-3.5299358,-0.42727286,0.13329814,-0.14800283,26.5625,27.5,26.5625,29.8125,31.1875,31.6875
0.14405449,-1.935793,-0.42204845,-0.5436739,0.008676762,0.030424787,-0.14601949,-0.37772405,-0.32815883,0.060011685,3.0778382,-0.6246657,-3.9170744e-05,-0.068279326,0.0004891849,0.001581406,-0.016516414,0.008281486,0.01309557,0.44303882,-1.463388,2.0012143,-2.1077745,-1.569734,2.4179175,-0.06952513,0.10528055,-0.11981815,-2.3161893e-07,0.011168457,-0.082543254,-0.5554548,0.1340753,-9.3661175,0.7978386,47.709274,-1.3587153,-1.720651,-3.3328629,-0.4235515,0.13246594,-0.14939931,26.5625,27.5,26.5625,29.8125,31.1875,31.6875
0.14605594,-2.0323007,-0.70482475,-0.72700405,0.0012234461,0.037246954,-0.14812303,-0.37788296,-0.32815766,0.06004173,3.0777876,-0.6245827,-8.1929604e-05,-0.06994811,0.0010348299,0.002134276,-0.016686128,0.009699136,0.004865524,0.44287014,-1.4631963,2.0009258,-2.1077392,-1.5696977,2.4177036,-0.07169213,0.10593683,-0.12182668,-1.512306e-08,0.0107133705,-0.07647794,-0.57460845,0.22984336,-9.461885,0.82694155,47.650166,-1.2397788,-1.7593,-3.3571434,-0.40897924,0.12839125,-0.20634219,26.5625,27.5,26.5625,29.8125,31.1875,31.6875
0.14805396,-1.5575837,-0.72854674,-0.7825375,-0.018356929,0.052875,-0.15305103,-0.37798268,-0.3281584,0.06001985,3.0777743,-0.62456334,1.0996642e-05,-0.07127163,0.0012679865,0.0025351604,-0.017541721,0.0104193855,-1.1538703e-05,0.4427496,-1.4629803,2.0007346,-2.1077268,-1.5696491,2.4175727,-0.07359154,0.1066714,-0.12357782,-9.874278e-10,0.011171289,-0.07349997,-0.47884035,0.22984336,-9.595961,0.80456203,47.6421,-1.1739897,-1.6996859,-3.321127,-0.41075855,0.12020941,-0.2527825,26.5625,27.5,26.5625,29.8125,31.1875,31.6875
0.15005375,-1.8595514,-1.1056099,-0.75121224,-0.022961728,0.050565995,-0.14529623,-0.37814304,-0.32812956,0.06002801,3.0777729,-0.62460136,-4.01169e-05,-0.07150336,0.00207389,0.0012636357,-0.015065185,0.0072296592,-0.0006602142,0.44256905,-1.4627635,2.0004709,-2.107702,-1.5696739,2.4174163,-0.074686304,0.11005233,-0.12484073,0.0018287699,0.010305834,-0.07394441,-0.49799395,0.19153613,-9.672575,0.83365434,47.681515,-1.1353819,-1.5539564,-3.397169,-0.42720002,0.16014487,-0.24939615,26.5625,27.5,26.5625,29.8125,31.1875,31.6875
0.1520534,-1.881599,-0.93932647,-0.793011,-0.032938316,0.052694753,-0.15463187,-0.37826878,-0.32814905,0.060008314,3.077734,-0.6245951,3.7555626e-06,-0.072594196,0.0017454715,0.0013121684,-0.014983663,0.007624684,-0.002961615,0.44246107,-1.4624991,2.0002296,-2.1077263,-1.5696262,2.4173095,-0.074849136,0.11224669,-0.12741865,0.0018939228,0.0100577185,-0.07180387,-0.68953013,0.24899697,-9.576807,0.7530795,47.711964,-1.2384181,-1.6693835,-3.3684144,-0.4257084,0.16210788,-0.31312656,26.5625,27.5,26.5625,29.8125,31.1875,31.6875
0.15405348,-2.3918545,-1.28504,-0.71515983,-0.016946139,0.045004304,-0.14313537,-0.3784437,-0.3281357,0.060044408,3.0776668,-0.62464035,-0.0001117917,-0.0737988,0.0031628318,-0.001196271,-0.014120239,0.00253604,-0.0058369422,0.4422794,-1.4623173,1.9999436,-2.107715,-1.5696253,2.4171648,-0.07947689,0.11819033,-0.1282191,0.0017177508,0.0114636235,-0.07355495,-0.57460845,0.30645782,-9.557653,0.82022345,47.686886,-1.0181057,-1.8322382,-3.3845615,-0.411137,0.14930588,-0.32159755,26.5625,27.5,26.5625,29.8125,31.1875,31.6875
0.15605377,-2.569654,-1.0796682,-0.85638773,-0.019852515,0.04108257,-0.14858782,-0.37859178,-0.32814702,0.060051862,3.0776114,-0.62456876,-0.00012838736,-0.07464443,0.0015809232,0.001155066,-0.016973978,0.007258991,-0.0023695715,0.44213614,-1.4620908,1.999679,-2.1077263,-1.5695771,2.416984,-0.077607274,0.11560892,-0.130671,0.0012659807,0.012022001,-0.07515142,-0.47884035,0.2681506,-9.615114,0.85826975,47.684196,-1.2000372,-1.6661897,-3.394728,-0.41753876,0.14566308,-0.32066783,26.5625,27.5,26.5625,29.8125,31.1875,31.6875
0.1580536,-2.3943806,-1.1894934,-0.61874986,-0.012595216,0.034084085,-0.14899059,-0.37873247,-0.32813877,0.060038462,3.0775957,-0.62458646,-8.944501e-05,-0.07565644,0.0025605974,-0.00052023475,-0.015730705,0.004381918,-0.004647184,0.4419792,-1.4618376,1.9994272,-2.107715,-1.5695533,2.4168403,-0.08037518,0.11994375,-0.13159102,0.0009874084,0.012127775,-0.07564071,-0.40222588,0.30645782,-9.557653,0.7732232,47.653748,-1.128654,-1.8726653,-3.380978,-0.39722753,0.1752389,-0.33840513,26.5625,27.5,26.5625,29.8125,31.1875,31.6875
0.16005418,-1.910877,-0.809077,-0.5484177,-0.017165836,0.034017187,-0.13837118,-0.37890324,-0.32812765,0.06005145,3.0775647,-0.6245806,-0.00012355116,-0.07882663,0.0025975734,0.0011247244,-0.01705593,0.008133275,-0.0069521987,0.44179824,-1.4615978,1.9991268,-2.1076906,-1.5695413,2.4166598,-0.08294346,0.121004425,-0.13654223,0.0009250636,0.011715999,-0.07590028,-0.40222588,0.28730422,-9.461885,0.80456203,47.72271,-0.86866546,-1.7425294,-3.310655,-0.3980004,0.17316416,-0.36563486,26.5625,27.5,26.5625,29.8125,31.1875,31.6875
0.16205402,-1.8711637,-0.49283585,-0.4362246,-0.016148165,0.021511683,-0.14852831,-0.37906694,-0.32811567,0.06006413,3.0775476,-0.6245952,-0.00024626634,-0.07792363,0.0033680766,-0.0004412654,-0.015090957,0.005384985,-0.005265915,0.44165435,-1.4613818,1.9988645,-2.107715,-1.5695776,2.4165275,-0.08314399,0.122430556,-0.13453497,0.0008190876,0.011127475,-0.07778691,-0.38307226,0.19153613,-9.385271,0.8291774,47.711063,-1.0086253,-1.8030295,-3.4777565,-0.3863479,0.17574754,-0.3604614,26.5625,27.5,26.5625,29.8125,31.1875,31.6875
0.16405419,-1.179916,-0.15462977,-0.30969596,-0.014425381,0.026251411,-0.15805383,-0.3792094,-0.3281063,0.060033903,3.077496,-0.62470156,-0.00011689447,-0.07994256,0.0033654133,3.9743652e-05,-0.016540516,0.0061874283,-0.008030761,0.44146144,-1.4610937,1.9986123,-2.1077025,-1.5695051,2.4164076,-0.085533425,0.12434552,-0.13778643,0.00081474194,0.012086344,-0.07741051,-0.3256114,0.21068975,-9.32781,0.70608455,47.704796,-0.9596635,-1.7741908,-3.302957,-0.39024442,0.1918608,-0.39017314,26.5625,27.5,26.5625,29.8125,31.1875,31.6875
0.16605413,-1.7422969,-0.3824546,-0.31334248,0.0010221032,0.003693708,-0.14768903,-0.37942466,-0.3281101,0.06008745,3.077407,-0.624624,-0.00030038762,-0.08094617,0.00348366,-0.00022888128,-0.016723413,0.005703226,-0.004894456,0.4412691,-1.4608773,1.9982532,-2.107715,-1.5694932,2.4161785,-0.086848535,0.12643385,-0.13950382,0.0008100593,0.012473772,-0.08185898,-0.3256114,0.19153613,-9.32781,0.8627467,47.721813,-0.9903327,-1.7784314,-3.3500803,-0.37227446,0.18939215,-0.39170256,26.5625,27.5,26.5625,29.8125,31.1875,31.6875
0.16805488,-1.3426409,-0.43707967,-0.19688863,0.014272124,0.009093342,-0.15331134,-0.37959126,-0.32811663,0.060089435,3.0773232,-0.6246619,-0.00032885824,-0.08168265,0.0030932284,-0.0016871019,-0.016308486,0.0029813282,-0.0017537152,0.44110093,-1.460624,1.9979767,-2.1077507,-1.569445,2.4160447,-0.087259434,0.13164493,-0.14192903,0.00066980225,0.01326582,-0.08540801,-0.28730422,0.17238252,-9.289503,0.8247004,47.705692,-0.8834427,-1.960365,-3.2620049,-0.37560654,0.21133721,-0.33621088,26.5625,27.5,26.5625,29.8125,31.1875,31.6875
0.17005351,-1.062126,0.028874721,0.025581548,0.002458495,0.020278553,-0.15710545,-0.37974843,-0.32809865,0.060071662,3.0773234,-0.62464345,-0.0003026765,-0.084627435,0.0037502765,0.00060417614,-0.018762568,0.007449842,-0.0023539858,0.4409194,-1.4603493,1.9977134,-2.1077507,-1.5694326,2.4158518,-0.09125745,0.12972061,-0.14507563,0.00065840146,0.013575785,-0.0888046,-0.28730422,0.11492168,-9.193734,0.7866488,47.695843,-0.7252778,-1.841752,-3.1239119,-0.35126233,0.19609433,-0.33613986,26.5625,27.5,26.5625,29.8125,31.1875,31.6875
0.17205362,-1.4771363,-0.3044903,-0.18434899,0.021957345,0.020842584,-0.15162152,-0.37992436,-0.32810333,0.060098313,3.077291,-0.624575,-0.000365686,-0.084551305,0.003175326,-0.0007062191,-0.017951721,0.004963469,0.004371805,0.44076395,-1.460108,1.9973773,-2.107715,-1.5694207,2.415658,-0.09029593,0.13366465,-0.14648701,0.0007288363,0.013914319,-0.09456685,-0.2681506,0.11492168,-9.232041,0.88960326,47.701214,-0.8504058,-2.1045513,-3.3782988,-0.33726382,0.19958042,-0.2834164,26.5625,27.5,26.5625,29.8125,31.1875,31.6875
0.17405413,-1.6729497,-0.305271,-0.11111166,0.020467268,0.02386154,-0.1509516,-0.38009056,-0.32809606,0.060083374,3.0772507,-0.6245089,-0.00034758344,-0.085493304,0.0050279447,-0.0016573641,-0.016858054,0.002211879,0.0049485583,0.44057032,-1.4598322,1.9971141,-2.1077497,-1.569372,2.4154284,-0.094668664,0.13549425,-0.14667428,0.0020541616,0.014111184,-0.09951615,-0.24899697,0.095768064,-9.212888,0.75084364,47.66987,-0.6638347,-1.9644276,-3.3262367,-0.35603383,0.19878353,-0.20120168,26.5625,27.5,26.5625,29.8125,31.1875,31.6875
0.17605366,-1.3073803,-0.3967358,-0.10062271,0.009682145,0.036715783,-0.15721789,-0.38024956,-0.3280779,0.060087882,3.0772219,-0.62455636,-0.00032410378,-0.08488335,0.003946218,-0.0013583989,-0.016873168,0.0020429764,0.011527807,0.4403795,-1.4595925,1.9968275,-2.107702,-1.5693482,2.415271,-0.09212083,0.135753,-0.14794265,0.003219709,0.014203048,-0.10354724,-0.30645782,0.05746084,-9.11712,0.80679786,47.694946,-0.80523014,-1.8849071,-3.3547792,-0.35455865,0.21768007,-0.14546406,26.5625,27.5,26.5625,29.8125,31.1875,31.6875
0.17805365,-1.2221434,-0.19485243,-0.06438634,0.006134346,0.034865446,-0.15405254,-0.3804393,-0.32806495,0.060080238,3.07719,-0.6244924,-0.0003204477,-0.08625699,0.004049167,-0.0011630618,-0.017056871,0.0026455356,0.012633456,0.44016293,-1.4592925,1.9965156,-2.1077144,-1.569312,2.4150188,-0.093410626,0.13740833,-0.15027699,0.0032854988,0.014114893,-0.10594082,-0.3256114,0.17238252,-9.021352,0.8224646,47.668976,-0.83667374,-1.9085774,-3.381393,-0.33613488,0.21653098,-0.09075159,26.5625,27.5,26.5625,29.8125,31.1875,31.6875
0.18005331,-1.3318331,-0.697332,-0.21040232,0.008981494,0.026921894,-0.14891057,-0.38063928,-0.3280698,0.060101867,3.07712,-0.6244006,-0.00040779245,-0.08715913,0.0033656736,-0.0004886531,-0.01849629,0.0040279557,0.012032749,0.43997103,-1.4590287,1.9961795,-2.1077383,-1.5692762,2.4147787,-0.09335472,0.13790067,-0.15232977,0.0029852933,0.014834567,-0.10528175,-0.21068975,0.19153613,-9.097966,0.79560274,47.689575,-0.8462477,-1.843395,-3.3589725,-0.35596436,0.22298747,-0.076255575,26.5625,27.5,26.5625,29.8125,31.1875,31.6875
0.18205394,-1.4962541,-0.7205493,-0.10863125,0.0040037846,0.010163893,-0.14388795,-0.38080555,-0.32805222,0.060084995,3.0771337,-0.62440497,-0.0003768098,-0.08804496,0.002796902,-0.00044376063,-0.0188544,0.0044659507,0.010078568,0.43979105,-1.4587286,1.99588,-2.1077144,-1.5692762,2.4146,-0.09311254,0.13990465,-0.15463701,0.0027392919,0.014963391,-0.10308416,-0.24899697,0.11492168,-9.078813,0.8157518,47.694946,-0.89202607,-1.8534443,-3.294993,-0.32339257,0.23185745,-0.05664988,26.5625,27.5,26.5625,29.8125,31.1875,31.6875
0.1840537,-1.0858948,-0.4587129,-0.42691964,0.006257073,0.008606192,-0.15276526,-0.38098475,-0.32803637,0.06009499,3.0771437,-0.6243317,-0.00041764812,-0.0885685,0.003077405,-0.0009369632,-0.01808575,0.0037188567,0.0060737976,0.43961105,-1.4584646,1.9955562,-2.1076782,-1.5692881,2.4143732,-0.09379125,0.14172797,-0.15559672,0.0028776473,0.014584432,-0.09975694,-0.17238252,0.17238252,-9.155427,0.82022345,47.694946,-0.97398233,-1.8207388,-3.3921921,-0.32158768,0.24782416,-0.0829891,26.5625,27.5,26.5625,29.8125,31.1875,31.6875
0.18605417,-1.5874447,-0.9168624,-0.5470929,0.019777589,-0.0144144595,-0.13860534,-0.38113895,-0.32805595,0.060085613,3.0770826,-0.6242637,-0.00035038783,-0.08846145,0.00300634,-0.0022635027,-0.016528793,0.0009635558,0.0027195297,0.43945512,-1.458176,1.9952577,-2.1076777,-1.5692042,2.4141827,-0.09335669,0.14530905,-0.15673546,0.0035977808,0.014344657,-0.095967,-0.095768064,0.076614454,-9.232041,0.8560339,47.692257,-1.0861943,-1.7916576,-3.3678775,-0.33961117,0.24987507,-0.12508085,26.5625,27.5,26.5625,29.8125,31.1875,31.6875
0.1880541,-0.92599505,-0.87965226,-0.54173195,0.0056620897,-0.007062283,-0.14466614,-0.38133532,-0.32803512,0.06009201,3.0770087,-0.62434644,-0.0004048926,-0.090150684,0.0023166884,0.0010034391,-0.019751206,0.006276413,-0.00086989516,0.43922696,-1.4579139,1.9949578,-2.107701,-1.5691804,2.4140158,-0.093933284,0.1412407,-0.15999717,0.0047481693,0.015001272,-0.09295256,-0.1340753,0.21068975,-9.251195,0.842603,47.679718,-1.0205419,-1.675842,-3.333403,-0.32254967,0.2506476,-0.16616073,26.5625,27.5,26.5625,29.8125,31.1875,31.6875
0.19005352,-0.6527733,-0.8971842,-0.8023282,-0.00449453,-0.01121851,-0.14884993,-0.3815151,-0.328045,0.06009958,3.076983,-0.6243047,-0.00041018633,-0.09039251,0.0028228709,0.000109455454,-0.01884822,0.00428337,-0.0050970805,0.43907046,-1.4576135,1.9945992,-2.1076653,-1.569156,2.4138367,-0.09505714,0.1433726,-0.16048016,0.005287428,0.015031432,-0.08984852,0.038307227,0.3256114,-9.289502,0.88960326,47.691364,-1.0568511,-1.7491944,-3.4950466,-0.32356483,0.27621606,-0.22238275,26.5625,27.5,26.5625,29.8125,31.1875,31.6875
0.19205426,-0.8224564,-1.454548,-0.7603977,-0.0150693655,-0.01295065,-0.14362413,-0.38171536,-0.3280086,0.060093608,3.0769467,-0.6244318,-0.00039949294,-0.09165245,0.003107841,-0.00011234251,-0.018731562,0.0038452945,-0.0062851915,0.438818,-1.4573135,1.9942745,-2.107641,-1.5691441,2.4136684,-0.09668488,0.14570832,-0.16267699,0.0055999574,0.015111576,-0.09028671,0.076614454,0.30645782,-9.442732,0.85826975,47.67345,-1.0406227,-1.6385467,-3.3638425,-0.33904302,0.28167203,-0.2507283,26.5625,27.5,26.5625,29.8125,31.1875,31.6875
0.19405386,-0.7446339,-1.5450083,-0.8589876,-0.03132608,-0.016840285,-0.1404141,-0.3818804,-0.32802203,0.0600798,3.0769145,-0.6244078,-0.00038098346,-0.09255748,0.003057834,-0.0002109254,-0.01879998,0.0040355334,-0.009667015,0.4386737,-1.4570014,1.9939626,-2.1076534,-1.5691084,2.4135134,-0.0973219,0.14738542,-0.16429746,0.0053437036,0.015087632,-0.08754056,0.019153614,0.30645782,-9.404425,0.87393653,47.691364,-1.006663,-1.7070298,-3.3987055,-0.32112706,0.28739768,-0.27254125,26.5625,27.5,26.5625,29.8125,31.1875,31.6875
0.19605382,-0.22403803,-1.0456327,-0.9578354,-0.03244962,-0.006729528,-0.14783406,-0.38206545,-0.3279914,0.06006232,3.076922,-0.62439096,-0.00033907715,-0.09383419,0.0027762044,0.0007407835,-0.020356981,0.005383489,-0.011386649,0.43844536,-1.4566897,1.9936513,-2.1076295,-1.569096,2.4132738,-0.09841276,0.14753002,-0.16678476,0.005805656,0.015920535,-0.08691104,0.019153614,0.38307226,-9.519346,0.92093146,47.711964,-1.0379202,-1.6299595,-3.3767948,-0.32634306,0.3014731,-0.3423093,26.5625,27.5,26.5625,29.8125,31.1875,31.6875
0.19805336,-0.56012833,-1.1643018,-1.0767661,-0.022969538,-0.01335014,-0.14752069,-0.38225952,-0.3279822,0.060078885,3.0768545,-0.624454,-0.00038858544,-0.09297285,0.002815233,-0.0007979947,-0.019126844,0.001492925,-0.011241007,0.4382415,-1.4564251,1.9933165,-2.1076167,-1.5690721,2.4131181,-0.09803183,0.1502868,-0.16661935,0.00693147,0.016467873,-0.08667493,-0.05746084,0.40222588,-9.595961,0.88289046,47.67166,-1.1301069,-1.801235,-3.4500866,-0.3443394,0.3124658,-0.35073686,26.5625,27.5,26.5625,29.8125,31.1875,31.6875
0.20005384,-0.41532874,-1.1831124,-1.3354529,-0.012291799,-0.010907528,-0.14853942,-0.38244852,-0.32799822,0.06007766,3.0767572,-0.62451416,-0.00033863273,-0.09504809,0.0035298828,-0.0015389731,-0.01989019,-0.00017809434,-0.01741547,0.43804815,-1.4561006,1.9929565,-2.1076052,-1.5689868,2.4129748,-0.10205455,0.15425076,-0.16936521,0.0069051143,0.017862843,-0.08452077,0.076614454,0.38307226,-9.710882,0.85155696,47.681515,-1.0111209,-1.7662363,-3.3785117,-0.35231093,0.30745685,-0.43982697,26.5625,27.5,26.5625,29.8125,31.1875,31.6875
0.2020534,-0.71188605,-1.3144184,-1.4767526,-0.017786806,-0.012391222,-0.14507054,-0.3826218,-0.32798606,0.06007164,3.076739,-0.62450767,-0.0003154524,-0.094952635,0.0017831419,-0.0011368396,-0.020891689,0.0006179208,-0.012383662,0.4378573,-1.4558129,1.9926451,-2.107581,-1.5689629,2.4127824,-0.099040136,0.15540187,-0.17159101,0.006840876,0.018431813,-0.08653684,0.11492168,0.38307226,-9.672575,0.7911258,47.689575,-1.154266,-1.7332268,-3.4021401,-0.3416612,0.30669764,-0.46685082,26.5625,27.5,26.5625,29.8125,31.1875,31.6875
0.20405415,-0.9918807,-1.4601313,-1.2506254,-0.036356967,0.0070851543,-0.14257473,-0.3828202,-0.32797572,0.06007009,3.0766823,-0.6245728,-0.00030908806,-0.09673922,0.0033307385,-0.002060402,-0.020361051,-0.0013480147,-0.01381254,0.43763968,-1.4555001,1.9922985,-2.107569,-1.5689267,2.412613,-0.10366033,0.15855233,-0.17311427,0.007230313,0.018790498,-0.08972662,-0.019153614,0.3256114,-9.634268,0.800085,47.694054,-1.0593039,-1.9054022,-3.4221764,-0.36076987,0.29220054,-0.47588664,26.5625,27.5,26.5625,29.8125,31.1875,31.6875
0.20605408,-1.403312,-1.6486732,-1.1143599,-0.040793404,0.026055511,-0.15008579,-0.38298488,-0.32798117,0.060066827,3.076682,-0.6244896,-0.00021588552,-0.09625681,0.001864045,-0.0029254775,-0.020286221,-0.003408808,-0.0027740737,0.4374728,-1.4551877,1.9919394,-2.1074846,-1.568878,2.4123943,-0.100995235,0.16201559,-0.17514138,0.007711163,0.019602103,-0.098099306,-0.038307227,0.28730422,-9.749189,0.8985519,47.65106,-1.2425146,-1.9529153,-3.366445,-0.35636282,0.29777917,-0.44060892,26.5625,27.5,26.5625,29.8125,31.1875,31.6875
0.20805344,-1.3254178,-1.2559958,-1.0434561,-0.045721117,0.03878742,-0.15319379,-0.38318446,-0.32795435,0.0600513,3.076651,-0.6245407,-0.00019438405,-0.09740427,0.0022788728,-0.0026596051,-0.02048173,-0.003108744,-0.00038843017,0.437232,-1.454864,1.9916152,-2.1074846,-1.5688542,2.4121895,-0.10273754,0.16285643,-0.176857,0.008245255,0.01965686,-0.10222641,-0.11492168,0.3256114,-9.653421,0.92093146,47.696735,-1.1451521,-1.985683,-3.4470553,-0.3757706,0.31295228,-0.41082793,26.5625,27.5,26.5625,29.8125,31.1875,31.6875
0.21005309,-1.4330376,-1.3605522,-0.9446523,-0.028952187,0.035380438,-0.15558814,-0.38341483,-0.32797894,0.060061354,3.076536,-0.6244901,-0.00026355838,-0.0986833,0.0018744213,-0.0022233177,-0.021545578,-0.0017038869,0.0092874365,0.43702784,-1.4545163,1.9912194,-2.1075451,-1.5687822,2.4119687,-0.10328816,0.16406122,-0.17909577,0.0075842496,0.020047525,-0.11244929,-0.21068975,0.28730422,-9.653421,0.83813137,47.713753,-1.1051643,-1.9336863,-3.432372,-0.37216002,0.29817706,-0.358647,26.5625,27.5,26.5625,29.8125,31.1875,31.6875
0.21205376,-1.297002,-1.1869452,-0.8840392,-0.0142419,0.03483984,-0.14687908,-0.38359907,-0.3279919,0.06006505,3.0765164,-0.62431395,-0.0002505651,-0.10223416,0.0020201888,-0.00053760415,-0.024550343,0.0026299374,0.009597967,0.43685853,-1.4542046,1.9908589,-2.1075218,-1.568734,2.4116921,-0.107191816,0.16461848,-0.18325573,0.0060021477,0.020934563,-0.116660185,-0.2681506,0.2681506,-9.481039,0.80456203,47.737934,-1.0416795,-1.8633494,-3.3416095,-0.36187723,0.29810914,-0.2780689,26.5625,27.5,26.5625,29.8125,31.1875,31.6875
0.21405333,-0.93874526,-0.30921018,-0.7431903,-0.008492478,0.039812364,-0.15914363,-0.38379258,-0.32796094,0.06005557,3.0765176,-0.6243481,-0.00023256877,-0.10181387,0.00035244593,-0.0007000843,-0.025057694,0.0028394242,0.01701435,0.43663165,-1.4538921,1.9905246,-2.1074855,-1.568734,2.4114866,-0.10390263,0.16630392,-0.18465257,0.0053201313,0.021308653,-0.120786555,-0.24899697,0.15322891,-9.442732,0.85155696,47.70838,-1.2453191,-1.9043037,-3.4293394,-0.3379051,0.30727974,-0.20125483,26.5625,27.5,26.5625,29.8125,31.1875,31.6875
0.21605408,-1.8684665,-0.78782964,-0.8099964,0.012533174,0.02450851,-0.13986918,-0.3840172,-0.32797515,0.060076,3.0764413,-0.624182,-0.00027020386,-0.10361684,0.0023739915,-0.0016499092,-0.024347473,0.0010769642,0.013490824,0.43641376,-1.4535686,1.9901179,-2.1074855,-1.568662,2.411175,-0.10923278,0.16880447,-0.18533483,0.0054157814,0.021424482,-0.122590795,-0.4405331,0.21068975,-9.481039,0.8493211,47.72092,-1.0851656,-1.8705075,-3.3477995,-0.33370185,0.3013159,-0.17814922,26.5625,27.5,26.5625,29.8125,31.1875,31.6875
0.21805325,-1.6014862,-0.012532574,-0.52761954,-0.0066448916,0.053286057,-0.15584527,-0.38420555,-0.3279823,0.06006459,3.0763907,-0.6241505,-0.00022892904,-0.10360066,0.0016426756,-0.0013088579,-0.024766847,0.0017946706,0.0141740395,0.4362225,-1.4532328,1.9897703,-2.1074855,-1.568602,2.4109707,-0.10784156,0.16893403,-0.18632148,0.005455102,0.021501716,-0.121882096,-0.51714754,0.11492168,-9.385271,0.84484416,47.73256,-1.1871402,-1.7999603,-3.4038486,-0.3409609,0.28343606,-0.16220543,26.5625,27.5,26.5625,29.8125,31.1875,31.6875
0.22005418,-1.8649276,-0.5271996,-0.38484335,-0.0023657177,0.07322177,-0.14776903,-0.3844237,-0.32797027,0.060069673,3.076339,-0.62416285,-0.00026726027,-0.105533406,0.0018621568,-0.00037463108,-0.025551153,0.00340708,0.008349834,0.43599385,-1.4529092,1.9893984,-2.107485,-1.5685781,2.4107566,-0.10987256,0.16971883,-0.18952742,0.0060838307,0.021528542,-0.11808621,-0.7469909,0.095768064,-9.423578,0.8717007,47.70838,-1.1459824,-1.8344951,-3.4742966,-0.328584,0.30854762,-0.19439971,26.5625,27.5,26.5625,29.8125,31.1875,31.6875
0.22205374,-1.9369293,0.025429685,0.045417786,-0.014959553,0.08957986,-0.1523806,-0.3846397,-0.32796365,0.060083568,3.076285,-0.62411726,-0.0002399089,-0.10568744,0.002591905,-0.0013494361,-0.024813669,0.0010695057,0.0018451272,0.43575317,-1.4525852,1.9889921,-2.1074255,-1.568518,2.4104946,-0.11149144,0.17156824,-0.18954751,0.006686264,0.02184568,-0.11319981,-0.61291564,0.019153614,-9.289503,0.88289046,47.694946,-1.1061625,-1.7369685,-3.528925,-0.34661603,0.31690386,-0.24343994,26.5625,27.5,26.5625,29.8125,31.1875,31.6875
0.2240541,-2.269392,-0.096998245,-0.09945986,0.0098178,0.07694451,-0.14616112,-0.3848655,-0.32796595,0.060071632,3.0762086,-0.62416136,-0.00028285495,-0.10800491,0.002573162,0.0006580897,-0.026888143,0.005395331,-0.0033251923,0.4355366,-1.4522146,1.9886202,-2.107485,-1.5684818,2.4103155,-0.11342398,0.1702015,-0.19258521,0.0062956037,0.021897707,-0.109959245,-0.59376204,0.0,-9.2703495,0.90750587,47.70211,-1.0114886,-1.6138463,-3.4528708,-0.33564204,0.28800455,-0.29471838,26.5625,27.5,26.5625,29.8125,31.1875,31.6875
0.2260542,-1.8616974,0.61302173,-0.06586641,0.024058372,0.06874192,-0.15179653,-0.38506827,-0.32797673,0.060079455,3.0761442,-0.624073,-0.00026184018,-0.10952244,0.00306035,0.0007679622,-0.02753893,0.0059142024,-0.006756893,0.43533182,-1.4518906,1.9882358,-2.1074617,-1.5684093,2.410064,-0.11581799,0.17149587,-0.19424467,0.0059247585,0.022270046,-0.10891954,-0.7086837,-0.05746084,-9.270349,0.8717007,47.698532,-0.931691,-1.6630254,-3.3773308,-0.31955066,0.28532705,-0.33352458,26.5625,27.5,26.5625,29.8125,31.1875,31.6875
0.22805385,-1.2312393,0.91238344,-0.0043667722,0.036316134,0.062386863,-0.15543471,-0.38529694,-0.3279543,0.06007393,3.0760868,-0.62417734,-0.00024165654,-0.11078237,0.0031355014,0.00066075684,-0.028010003,0.006325142,-0.00790962,0.43506745,-1.4515303,1.9878415,-2.1074378,-1.5683736,2.4098723,-0.117130525,0.1733737,-0.19599307,0.00523346,0.02252456,-0.10907774,-0.68953013,-0.17238252,-9.212888,0.83365434,47.701214,-0.92294586,-1.5247188,-3.3864014,-0.30644035,0.29648894,-0.34163415,26.5625,27.5,26.5625,29.8125,31.1875,31.6875
0.23005328,-0.9492936,0.7773025,-0.18835011,0.049040362,0.053645935,-0.15515263,-0.3855512,-0.32795668,0.06010428,3.0760102,-0.62412333,-0.00042293378,-0.11269385,0.0031336546,0.0013231401,-0.02852225,0.008178499,-0.010390917,0.43485093,-1.4512066,1.9874219,-2.1074855,-1.5683736,2.4096322,-0.11849093,0.17482673,-0.19913213,0.005026504,0.022218402,-0.10795187,-0.6703765,-0.19153613,-9.155427,0.9321212,47.707485,-0.8911853,-1.5655837,-3.363722,-0.31041405,0.29481268,-0.36694026,26.5625,27.5,26.5625,29.8125,31.1875,31.6875
0.23205397,-1.4556569,0.88880926,-0.44440827,0.05201063,0.031297266,-0.14941093,-0.38576072,-0.327936,0.060094602,3.075993,-0.62411964,-0.0003336234,-0.113167405,0.0030983803,0.0014176231,-0.028228369,0.008330739,-0.00855179,0.43459883,-1.4508469,1.9870266,-2.107414,-1.5683259,2.4093802,-0.11853122,0.17567027,-0.20046148,0.0055141994,0.021890558,-0.10983164,-0.6512229,-0.17238252,-9.232041,0.8493211,47.701214,-0.8722494,-1.4682131,-3.3066847,-0.28180197,0.29129776,-0.38274902,26.5625,27.5,26.5625,29.8125,31.1875,31.6875
0.23405354,-1.5309111,0.17389451,-0.52057356,0.046794586,0.035730742,-0.14932998,-0.38597026,-0.32792616,0.06006328,3.0759492,-0.624168,-0.00024467078,-0.11334273,0.003267974,0.00042079345,-0.027043758,0.0058931406,-0.009618273,0.43435884,-1.4504508,1.9866561,-2.1074135,-1.5682658,2.409176,-0.11888049,0.17865147,-0.20183088,0.006622681,0.021841738,-0.10911423,-0.4213795,-0.05746084,-9.289502,0.83365434,47.71286,-0.9065958,-1.4849743,-3.205512,-0.29673752,0.31099126,-0.4154817,26.5625,27.5,26.5625,29.8125,31.1875,31.6875
0.23605427,-1.7851821,-0.16567527,-0.5448907,0.029085701,0.041004088,-0.15354834,-0.38619936,-0.32792965,0.0600746,3.075854,-0.62420136,-0.00023772397,-0.11362118,0.0031318,-0.0003969073,-0.026001394,0.003365195,-0.0024928318,0.4341189,-1.4501021,1.9862355,-2.1073892,-1.5681938,2.4089694,-0.118871264,0.18202539,-0.20418493,0.008364217,0.021981113,-0.11622814,-0.38307226,0.05746084,-9.308657,0.86945957,47.70032,-0.8919853,-1.6675575,-3.259092,-0.3161403,0.30543238,-0.3759162,26.5625,27.5,26.5625,29.8125,31.1875,31.6875
0.23805383,-1.5415095,-0.51010704,-0.710909,0.014418496,0.040351573,-0.14753312,-0.38644776,-0.3278896,0.06008828,3.0758266,-0.6242338,-0.00028058054,-0.11582934,0.0041775093,-0.001047072,-0.024777008,0.002116714,-0.0013252508,0.4338295,-1.449765,1.9858168,-2.107341,-1.5681938,2.408704,-0.12223982,0.18631107,-0.2077636,0.009323976,0.02140626,-0.120761566,-0.24899697,0.11492168,-9.442732,0.92093146,47.678825,-0.8419832,-1.9388955,-3.3050127,-0.32285547,0.3281616,-0.32617277,26.5625,27.5,26.5625,29.8125,31.1875,31.6875
0.2400534,-1.0300837,-1.258174,-0.8658834,-0.0018745305,0.046178266,-0.14756171,-0.3866953,-0.32789364,0.06008855,3.0758011,-0.6241644,-0.00033066398,-0.11547618,0.0027785336,-0.0016375895,-0.024418348,0.0008702056,0.008614423,0.43361482,-1.4493574,1.985361,-2.107341,-1.5681819,2.4084496,-0.11939345,0.18928204,-0.20991582,0.009809281,0.021623667,-0.1278524,-0.11492168,0.24899697,-9.442732,0.8717007,47.686886,-1.0748602,-1.744765,-3.2605138,-0.32550508,0.3243682,-0.26991796,26.5625,27.5,26.625,29.8125,31.1875,31.6875
0.24205422,-1.4195075,-1.5229757,-0.9080761,-0.04081634,0.028802576,-0.14555794,-0.3868948,-0.32788032,0.060090035,3.0757601,-0.62413514,-0.00030070674,-0.11683831,0.0036904474,-0.00039917088,-0.025013346,0.002798007,0.013109685,0.43338567,-1.4490465,1.9850019,-2.1073043,-1.5681337,2.4082077,-0.122007445,0.18760629,-0.21114373,0.010742875,0.021371868,-0.13496155,-0.15322891,0.36391866,-9.500193,0.9097417,47.68062,-0.84761643,-1.8138336,-3.1635604,-0.34077471,0.3453191,-0.18446909,26.5625,27.5,26.625,29.8125,31.1875,31.6875
0.24405399,-0.7984045,-1.7422327,-1.2613704,-0.054253127,0.02068627,-0.14959583,-0.38713136,-0.32785243,0.06006846,3.0757751,-0.62411845,-0.0002436803,-0.11736232,0.003526108,-0.00048396128,-0.025767408,0.0029010423,0.013916825,0.43312168,-1.4486269,1.9845713,-2.1072567,-1.5681218,2.4079316,-0.12248102,0.18854164,-0.21194823,0.010210217,0.022011075,-0.13624217,-0.076614454,0.47884035,-9.481039,0.8672237,47.685097,-0.9573701,-1.6253898,-3.2064333,-0.3642469,0.33734593,-0.13025959,26.5625,27.5,26.625,29.8125,31.1875,31.6875
0.2460536,-1.0459113,-2.6725488,-1.2844102,-0.057520002,0.0020142356,-0.13606197,-0.387363,-0.32783514,0.060063057,3.0757365,-0.62414855,-0.00018235465,-0.118140295,0.0035721536,-0.00080332044,-0.025864093,0.0029898938,0.014230569,0.43285742,-1.4482424,1.9841403,-2.107197,-1.5680732,2.4076912,-0.1231725,0.19020553,-0.21297756,0.009469334,0.022061357,-0.13724682,-0.24899697,0.5554548,-9.557653,0.9298854,47.682407,-0.9894829,-1.8069743,-3.4668756,-0.34052902,0.34878352,-0.08336185,26.5625,27.5,26.625,29.8125,31.1875,31.6875
0.24805412,-0.9189902,-2.264761,-0.8510358,-0.07840836,0.010144386,-0.14620416,-0.38761085,-0.32782248,0.06006569,3.0756857,-0.62412244,-0.00023541236,-0.119348444,0.0046001845,-0.0015414055,-0.025634507,0.0018150174,0.0067304154,0.43260443,-1.4478705,1.9837211,-2.107209,-1.5680493,2.4074287,-0.12620476,0.1924161,-0.21377032,0.009211179,0.02234562,-0.13277677,-0.05746084,0.6512228,-9.385271,0.9254084,47.651955,-0.9286153,-1.7820106,-3.4814138,-0.34042364,0.35516188,-0.11997186,26.5625,27.5,26.625,29.8125,31.1875,31.6875
0.2500535,-0.8706359,-1.9119748,-1.0531207,-0.061506197,0.0053075324,-0.13633272,-0.3878704,-0.3278467,0.06010481,3.0755749,-0.6239845,-0.00033432897,-0.11839458,0.0025482483,-0.002041815,-0.026167024,0.001037605,0.00688724,0.43237805,-1.4475226,1.9832429,-2.1072094,-1.5679773,2.4071307,-0.12202346,0.19458778,-0.21501426,0.008767592,0.023162637,-0.12874785,0.019153614,0.6512228,-9.423578,0.9186956,47.687782,-1.15389,-1.7070642,-3.5652323,-0.33639693,0.3717916,-0.16600296,26.5625,27.5,26.625,29.8125,31.1875,31.6875
0.25205353,-0.7275339,-1.9029621,-0.9781445,-0.04309103,-0.0058367695,-0.1386733,-0.38809693,-0.32782605,0.060092997,3.075528,-0.62401766,-0.00028767932,-0.119993865,0.0034731894,-0.0028720254,-0.027578332,-0.00025702242,-0.0017812549,0.43211228,-1.4471506,1.982848,-2.1071856,-1.5679282,2.4068918,-0.12621288,0.19711708,-0.21573034,0.0075332103,0.024975333,-0.124266595,0.0,0.63206923,-9.461885,0.89631605,47.707485,-0.9200511,-1.7101111,-3.5857651,-0.31562367,0.33954817,-0.21754092,26.5625,27.5,26.625,29.8125,31.1875,31.6875
0.25405404,-0.12504655,-1.6415725,-0.8903749,-0.03520509,-0.0021949352,-0.14049,-0.3883477,-0.32781965,0.06007086,3.0754876,-0.62403107,-0.00026939425,-0.12093853,0.002059396,-0.0024075734,-0.029898223,0.00052355515,-0.0047650584,0.43186074,-1.4467065,1.9824046,-2.107198,-1.567892,2.4066541,-0.12547487,0.19893967,-0.21881565,0.0071105864,0.026744133,-0.120541334,0.05746084,0.53630114,-9.385271,0.83589023,47.696735,-1.1075974,-1.8121758,-3.6488142,-0.28771138,0.3255598,-0.29168704,26.5625,27.5,26.625,29.8125,31.1875,31.6875
0.2560536,-0.012192284,-1.0013077,-0.8993189,-0.02612542,-0.019967398,-0.14378934,-0.3885911,-0.32782447,0.060065117,3.075422,-0.6239989,-0.00025854007,-0.12244912,0.0018703289,-0.002300888,-0.031035574,0.00093771756,-0.008833597,0.43162045,-1.4462987,1.9819611,-2.107198,-1.5678314,2.4064023,-0.12688535,0.20107836,-0.22144811,0.0067558736,0.027598947,-0.11788002,0.019153614,0.38307226,-9.270349,0.8985519,47.67166,-1.0648025,-1.7699375,-3.5393004,-0.29101422,0.32606557,-0.3373987,26.5625,27.5,26.625,29.8125,31.1875,31.6875
0.25805384,-0.026367089,-1.1535087,-0.9923986,-0.010816141,-0.020385223,-0.13783349,-0.38883778,-0.32782167,0.060066115,3.0753253,-0.62403846,-0.00025311895,-0.123878874,0.0017250029,-0.001578545,-0.032437082,0.0020840499,-0.012044424,0.4313559,-1.445915,1.9815291,-2.107198,-1.5677594,2.4061751,-0.12825924,0.20177302,-0.22400229,0.0069959867,0.028393004,-0.116039865,0.11492168,0.30645782,-9.32781,0.83813137,47.677036,-1.0537438,-1.8169856,-3.4946918,-0.29224935,0.3303369,-0.3916735,26.5625,27.5,26.625,29.8125,31.1875,31.6875
0.26005358,-0.22318445,-0.60097915,-0.8133503,-0.019363608,-0.026928542,-0.14414538,-0.38908616,-0.32782665,0.060061786,3.0752351,-0.62411743,-0.00021378764,-0.12465856,0.00090265163,-0.001300784,-0.034616366,0.0017802743,-0.01437528,0.43110386,-1.4454948,1.9810628,-2.1071742,-1.5676864,2.4059842,-0.12868986,0.20322907,-0.22641964,0.007325267,0.03049749,-0.11413602,0.11492168,0.34476504,-9.289502,0.88289046,47.678825,-0.99977124,-1.8573616,-3.5240433,-0.28336704,0.28624153,-0.45255023,26.5625,27.5,26.625,29.8125,31.1875,31.6875
0.2620533,-0.3480203,-0.9905621,-0.52465224,-0.019405777,-0.010794526,-0.14485809,-0.38934138,-0.3278232,0.060061697,3.075139,-0.62405914,-0.00018508511,-0.12608007,0.0008265253,-0.0009322327,-0.035481367,0.0023056043,-0.014400079,0.43081543,-1.4450994,1.9806198,-2.1071737,-1.5675906,2.4056718,-0.13002902,0.20478474,-0.22916408,0.007697179,0.031072006,-0.11544704,0.0,0.34476504,-9.232041,0.83589023,47.72002,-1.0692081,-1.8474271,-3.453449,-0.27858323,0.26246712,-0.49451673,26.5625,27.5,26.625,29.8125,31.1875,31.6875
0.26405388,-0.26366875,-0.46402407,-0.38127512,-0.014384233,0.018271,-0.14860655,-0.3895914,-0.32781756,0.060055826,3.0751,-0.6241451,-0.0001659492,-0.12804425,0.00027639713,0.00084163307,-0.03680771,0.005374263,-0.010713487,0.43057525,-1.4446684,1.9801391,-2.107126,-1.5675668,2.4054906,-0.13053906,0.20480698,-0.23356967,0.008761527,0.031003423,-0.11964175,0.0,0.24899697,-9.193734,0.90527004,47.672558,-1.0346982,-1.6083446,-3.3846998,-0.29031673,0.25847614,-0.51598924,26.5625,27.5,26.625,29.8125,31.1875,31.6875
0.26605362,-1.1611744,-0.4036537,-0.8338941,0.01183065,0.0060973116,-0.15489928,-0.38983455,-0.3278474,0.060065914,3.0749943,-0.6240601,-0.00016601328,-0.13002245,0.00019598631,0.001673865,-0.038323265,0.0066279103,-0.0027495224,0.43035853,-1.4442723,1.9796718,-2.1071255,-1.56747,2.4052346,-0.13255858,0.20613684,-0.23715682,0.009293353,0.03188793,-0.1296205,0.019153614,0.1340753,-9.308657,0.87393653,47.696735,-1.0529025,-1.6777029,-3.1566086,-0.2769402,0.248898,-0.43471384,26.5625,27.5,26.625,29.8125,31.1875,31.6875
0.26805365,-0.9447316,-0.25066546,-0.7486619,0.014775766,0.025672896,-0.14999653,-0.39009163,-0.32783833,0.060046654,3.0749145,-0.6240573,-7.7399345e-05,-0.1300257,-8.945571e-05,0.0022166844,-0.040566687,0.0068072635,0.007833786,0.43005824,-1.4438297,1.9792165,-2.1071131,-1.5673732,2.404943,-0.1332283,0.20488146,-0.23710461,0.0094491495,0.03388622,-0.14087227,-0.1340753,0.17238252,-9.404425,0.8672237,47.71286,-0.9843827,-1.6467841,-3.2513282,-0.27302176,0.21302837,-0.35677153,26.5625,27.5,26.625,29.8125,31.1875,31.6875
0.2700541,-1.6177078,-0.7401322,-0.822098,0.0068135583,0.037634507,-0.14565256,-0.39035097,-0.32782766,0.060054492,3.0748885,-0.6239719,-7.158793e-05,-0.13091302,0.00091296673,0.0006549663,-0.039904937,0.0030633267,0.011985619,0.42979327,-1.4434212,1.9787263,-2.1070526,-1.5673369,2.4046283,-0.13637044,0.20900816,-0.23846342,0.010394667,0.034870572,-0.14816369,-0.30645782,0.17238252,-9.404425,0.94331104,47.69763,-0.9481133,-1.541002,-3.3800998,-0.29680857,0.16857903,-0.2604053,26.5625,27.5,26.625,29.8125,31.1875,31.6875
0.27205387,-1.7168429,-0.70048374,-0.7844045,-0.00842856,0.060958806,-0.15020078,-0.39060652,-0.32785717,0.060062412,3.0747838,-0.62388843,-7.145898e-05,-0.12991945,-0.00021844251,-0.0012353164,-0.03768504,-0.0006224017,0.020036623,0.4295666,-1.4430002,1.9782356,-2.1070526,-1.5672411,2.4043632,-0.1330241,0.21402408,-0.24006835,0.011298665,0.034412283,-0.15286526,-0.40222588,0.095768064,-9.423578,0.8784135,47.71465,-1.1456662,-1.7886909,-3.4510746,-0.27508682,0.15142158,-0.18170379,26.5625,27.5,26.625,29.8125,31.1875,31.6875
0.27405372,-2.5882607,-0.6948765,-0.5621669,-0.011741636,0.0687596,-0.14629926,-0.3908612,-0.3278373,0.0600534,3.074731,-0.62382174,-2.0512465e-05,-0.13022341,0.00092460326,-0.0025251599,-0.036200717,-0.0029923616,0.01844748,0.42926583,-1.4425923,1.9777926,-2.1070287,-1.5671695,2.4040277,-0.13503793,0.21629162,-0.23981614,0.011575817,0.0340574,-0.15329002,-0.59376204,0.038307227,-9.3661175,0.9612189,47.73077,-0.9396517,-1.7442551,-3.4626288,-0.27615967,0.14793323,-0.14847581,26.5625,27.5,26.625,29.8125,31.1875,31.6875
0.27605358,-2.0124583,-0.39053762,-0.43078452,-0.0024270953,0.086288445,-0.15694563,-0.39113507,-0.32783577,0.06004168,3.0746691,-0.62381274,7.1710715e-06,-0.13019535,0.0006684132,-0.0031394544,-0.036003925,-0.004307162,0.012884285,0.42899,-1.4421244,1.977291,-2.1070168,-1.567109,2.4037545,-0.13465488,0.218117,-0.24061657,0.0118253445,0.03441588,-0.1473422,-0.61291564,0.019153614,-9.3661175,0.89631605,47.698532,-1.161793,-1.9019754,-3.527636,-0.2993684,0.107316,-0.15777792,26.5625,27.5,26.625,29.8125,31.1875,31.6875
0.27805334,-1.6059372,0.18160185,-0.39596307,0.012078643,0.07974182,-0.14591086,-0.39138225,-0.32782984,0.060023542,3.0746264,-0.62378764,3.5311066e-05,-0.1321592,0.0010855,-0.0023402832,-0.03699715,-0.001699192,0.0050281594,0.4287372,-1.4416932,1.976848,-2.1070173,-1.5670608,2.4034917,-0.1368489,0.21833207,-0.24252088,0.010726527,0.034218628,-0.14167875,-0.51714754,0.038307227,-9.32781,0.8537928,47.68599,-1.0890331,-1.7048335,-3.669818,-0.2645485,0.095013805,-0.20908158,26.5625,27.5,26.625,29.8125,31.1875,31.6875
0.2800541,-1.572188,0.39227027,-0.04065373,0.02237551,0.06497514,-0.14965758,-0.39167517,-0.32782692,0.060039293,3.0745237,-0.62379014,9.671119e-06,-0.13534603,0.001700395,-0.0016148074,-0.037987538,0.0011352327,-0.0036048316,0.42843628,-1.4412606,1.9763201,-2.1069934,-1.5669898,2.4032059,-0.14036122,0.22041129,-0.2463116,0.009451539,0.03393175,-0.13655353,-0.7086837,0.038307227,-9.270349,0.99702406,47.679718,-1.0756822,-1.9730685,-3.5757935,-0.26383048,0.08650109,-0.31321532,26.5625,27.5,26.625,29.8125,31.1875,31.6875
0.28205344,-0.9823837,0.6804083,-0.24174042,0.016269121,0.069298714,-0.14701109,-0.39192945,-0.32782695,0.060008023,3.0744805,-0.62374073,8.984569e-05,-0.13530375,0.00068559597,-0.0013963731,-0.037651308,0.0028037846,-0.0013385697,0.42817315,-1.4407818,1.9758533,-2.106994,-1.5669178,2.4029176,-0.13767575,0.22095738,-0.24732257,0.008559116,0.03293053,-0.13613527,-0.59376204,0.095768064,-9.232041,0.9164598,47.664497,-1.1072111,-1.8359118,-3.6855233,-0.25217417,0.07028457,-0.3409921,26.5625,27.5,26.625,29.8125,31.1875,31.6875
0.2840543,-0.9846342,0.012056694,-0.3242024,0.022060758,0.05982047,-0.15461239,-0.39220572,-0.3278272,0.06002367,3.074403,-0.6237456,5.6204117e-05,-0.13841486,0.0008448052,0.0006271272,-0.039130285,0.007496553,-0.0036761903,0.42790806,-1.4403628,1.9753379,-2.1069582,-1.5668701,2.4026659,-0.1400814,0.22084253,-0.2518501,0.008335913,0.032331746,-0.13619982,-0.59376204,0.11492168,-9.251195,0.9231726,47.661808,-0.8907238,-1.7043068,-3.5715413,-0.22691959,0.05559142,-0.3567423,26.5625,27.5,26.625,29.8125,31.1875,31.6875
0.28605342,-1.8492833,-0.631446,-0.2353053,0.013241351,0.046140034,-0.13712144,-0.3924651,-0.32779613,0.059989523,3.0743768,-0.6237211,0.00018136961,-0.1401154,0.0008213689,0.001508024,-0.03863772,0.009705588,-0.003867392,0.42758417,-1.4398955,1.9748815,-2.1069214,-1.5667986,2.4023302,-0.1404433,0.22196122,-0.25536495,0.008952168,0.03096268,-0.13637196,-0.7661445,0.22984336,-9.097966,0.9231726,47.684196,-1.0790992,-1.6236238,-3.3916993,-0.22401029,0.04436315,-0.38241252,26.5625,27.5,26.625,29.8125,31.1875,31.6875
0.2880541,-2.0595489,-0.7688382,-0.45977116,0.002482408,0.05372057,-0.13686214,-0.3927401,-0.32779804,0.05998143,3.0742774,-0.62385267,0.00021924496,-0.14048192,0.0013877222,0.00018617263,-0.03628568,0.0069701956,-0.0014785388,0.42730802,-1.4394271,1.974367,-2.106897,-1.566727,2.4021492,-0.14101629,0.22575118,-0.25703147,0.010326382,0.02997278,-0.13933343,-0.7278373,0.24899697,-9.212888,0.8560339,47.679718,-1.1002432,-1.7577741,-3.2839637,-0.23742779,0.047371484,-0.37602425,26.5625,27.5,26.625,29.8125,31.1875,31.6875
0.29005364,-1.6500043,-0.9733438,-0.69770557,-0.014387833,0.081397966,-0.14883262,-0.39301834,-0.3277949,0.059976935,3.074217,-0.62381685,0.00026930877,-0.14189556,0.0012666236,0.0010862085,-0.036440134,0.00849376,0.003847289,0.42701986,-1.4389595,1.9738396,-2.1068494,-1.566655,2.4018466,-0.14154145,0.22652999,-0.26031685,0.011425736,0.02950097,-0.14518334,-0.51714754,0.2681506,-9.385271,0.88289046,47.68062,-1.1315328,-1.7146509,-3.362863,-0.2591172,0.04433794,-0.33455807,26.5625,27.5,26.625,29.8125,31.1875,31.6875
0.29205415,-1.959025,-1.2543455,-0.4848069,-0.036018837,0.100916356,-0.14865744,-0.39331093,-0.32775941,0.05996139,3.074196,-0.6238466,0.00023812137,-0.14310224,0.0013903801,0.001978505,-0.0367418,0.010132082,0.011669106,0.42670757,-1.4384923,1.9733485,-2.106849,-1.566655,2.401556,-0.14239974,0.22649588,-0.2625858,0.012157334,0.029127853,-0.15386252,-0.4213795,0.24899697,-9.404425,0.9365982,47.664497,-1.1323166,-1.6797354,-3.3261948,-0.2607421,0.045129072,-0.25184876,26.5625,27.5,26.625,29.8125,31.1875,31.6875
0.2940538,-1.8190838,-0.91851133,-0.61425734,-0.040635623,0.09759509,-0.15275306,-0.39360482,-0.3277738,0.059971258,3.074122,-0.62373006,0.00025455176,-0.14330655,0.0019289666,0.0012949151,-0.03532665,0.009254587,0.019964406,0.4264315,-1.4380127,1.9727744,-2.1068013,-1.5665716,2.401217,-0.14284047,0.22799754,-0.26287445,0.012387917,0.028239708,-0.16259839,-0.40222588,0.3256114,-9.308656,0.8918391,47.682407,-1.1067548,-1.6535568,-3.352788,-0.25810286,0.0422258,-0.14218454,26.5625,27.5,26.625,29.8125,31.1875,31.6875
0.29605335,-1.4948571,-0.98518056,-0.7587415,-0.013164351,0.07913491,-0.13562205,-0.39389002,-0.32776037,0.05996888,3.0740843,-0.62366444,0.00024236254,-0.14483072,0.0023801224,0.00080982863,-0.03444678,0.009824771,0.02195701,0.42614308,-1.4375566,1.9722599,-2.1067774,-1.5665358,2.4008927,-0.14414535,0.23079944,-0.26479906,0.011386331,0.027217586,-0.16589484,-0.2873042,0.3256114,-9.385271,0.94331104,47.684196,-1.1149377,-1.656993,-3.5124376,-0.24576098,0.032578096,-0.092465565,26.5625,27.5,26.625,29.8125,31.1875,31.6875
0.2980534,-0.87440926,-0.86264205,-0.7154235,-0.014210029,0.061476786,-0.14156751,-0.39416525,-0.32774895,0.05993441,3.0740492,-0.6235818,0.00032516764,-0.14501955,0.0023273877,-0.0002214171,-0.033075072,0.00891871,0.018625155,0.4258433,-1.4370519,1.9717692,-2.1067774,-1.5664638,2.400546,-0.14348999,0.2335579,-0.2655269,0.010754567,0.02633329,-0.16190842,-0.05746084,0.30645782,-9.404425,0.90527004,47.65912,-1.184128,-1.8810165,-3.5572379,-0.23307323,0.062761635,-0.07239209,26.5625,27.5,26.625,29.8125,31.1875,31.6875
0.3000532,-0.17652315,-0.55688316,-0.7135361,-0.00778531,0.03864898,-0.146569,-0.39447668,-0.32772538,0.05992841,3.074017,-0.6236175,0.00030397103,-0.14686887,0.0029812239,9.5277144e-05,-0.03284526,0.010759969,0.01202389,0.42553067,-1.436549,1.971207,-2.1067421,-1.5664524,2.4002602,-0.1454533,0.23473614,-0.26751655,0.009978462,0.025355695,-0.15726992,-0.076614454,0.22984336,-9.346964,0.900793,47.672558,-1.0639937,-1.8466513,-3.6132226,-0.21055588,0.06061081,-0.10203153,26.5625,27.5,26.625,29.8125,31.1875,31.6875
0.30205384,-0.12768099,-0.6717649,-0.9227052,-0.0006241084,0.0045156665,-0.13227344,-0.39477122,-0.32773873,0.059922766,3.0739477,-0.6234372,0.00030260152,-0.1484625,0.00506731,-0.0010382915,-0.03141044,0.010017878,-6.209023e-05,0.42525327,-1.4360572,1.9706677,-2.106755,-1.5663689,2.3998795,-0.14981876,0.23692086,-0.26722914,0.008765737,0.024346834,-0.14954902,-0.019153614,0.22984336,-9.442732,0.8717007,47.68599,-1.1297486,-1.873541,-3.5725863,-0.19613272,0.08414212,-0.18122804,26.5625,27.5,26.625,29.8125,31.1875,31.6875
0.30405632,0.3810629,-0.24230424,-0.6537824,-0.02036935,0.0043941922,-0.14188048,-0.39507696,-0.32771936,0.05992509,3.0738626,-0.6235176,0.000286065,-0.15010932,0.0038720833,-0.00017648577,-0.03167422,0.012096808,-0.004340809,0.4249298,-1.4355892,1.9701279,-2.1067302,-1.5663208,2.3996174,-0.14843643,0.23941916,-0.27224165,0.009270548,0.02371839,-0.14388502,-0.076614454,0.17238252,-9.500193,0.95226496,47.696735,-1.0162857,-1.9986856,-3.6643429,-0.18032868,0.10982627,-0.23456576,26.5625,27.5,26.625,29.8125,31.1875,31.6875
0.30606046,0.52848667,-0.1538603,-0.63087153,-0.0140842395,-0.0038688076,-0.1503496,-0.39539513,-0.32770655,0.059924234,3.0737848,-0.6235426,0.00022663064,-0.15245144,0.004843225,-6.745965e-05,-0.031437177,0.012766021,-0.01092633,0.42461672,-1.4350973,1.9695767,-2.1067421,-1.5662855,2.3993304,-0.15170084,0.24180913,-0.27535263,0.009479617,0.02322847,-0.14056125,0.095768064,0.19153614,-9.385271,0.9030289,47.666286,-0.9678792,-1.9943972,-3.4462337,-0.17382812,0.11842146,-0.33658564,26.5625,27.5,26.625,29.8125,31.1875,31.6875
0.30805594,0.34069553,-0.42722192,-0.8369676,-0.0044832677,-0.008273983,-0.13762152,-0.39571393,-0.32772514,0.059951436,3.0736845,-0.62352526,0.00013521021,-0.15321238,0.004283815,0.00010346461,-0.031548455,0.012821597,-0.016104938,0.42435268,-1.4346176,1.9689668,-2.1067178,-1.5662373,2.3990688,-0.15120894,0.24369156,-0.27816778,0.010304007,0.023306932,-0.13488683,0.15322891,0.2681506,-9.385271,0.98135734,47.678825,-0.9125767,-1.9540745,-3.3741643,-0.16212788,0.13283153,-0.42221302,26.5625,27.5,26.625,29.8125,31.1875,31.6875
0.31005383,0.737294,-0.07806931,-0.7128214,-0.018322365,0.0047276337,-0.15551712,-0.39599818,-0.32770166,0.059915368,3.0736516,-0.6235561,0.0002093465,-0.15451004,0.00412775,0.00043001687,-0.031993575,0.012657444,-0.017406669,0.42404023,-1.4341018,1.9684628,-2.1067054,-1.5661887,2.39878,-0.15216534,0.2456969,-0.28163108,0.011739219,0.023779312,-0.13453983,0.15322891,0.34476504,-9.442732,0.94331104,47.716442,-0.8936854,-2.035286,-3.3879657,-0.1697509,0.13824975,-0.4800954,26.5625,27.5,26.625,29.8125,31.1875,31.6875
0.31205443,0.4151309,-1.035195,-0.86182094,-0.016222015,0.0020976246,-0.14747348,-0.39631096,-0.32770383,0.059919674,3.0735655,-0.623613,0.00017920151,-0.15435676,0.005187166,-0.0007684063,-0.03119041,0.009850513,-0.014428818,0.42375195,-1.4335984,1.9678777,-2.106681,-1.566141,2.3985388,-0.15412292,0.247096,-0.28073958,0.012371306,0.024234544,-0.13947396,0.038307227,0.3256114,-9.5385,0.88960326,47.72271,-1.032781,-2.0001159,-3.4111056,-0.16908744,0.14890152,-0.48448664,26.5625,27.5,26.625,29.8125,31.1875,31.6875
0.31405336,-0.37884796,-1.2830839,-0.75669926,-0.0449198,0.0056065205,-0.14485833,-0.39661807,-0.3276823,0.059910085,3.0735466,-0.62360156,0.00020004605,-0.15451847,0.004369889,-0.00021462802,-0.03117558,0.010322143,-0.002993781,0.42344046,-1.4330833,1.9673027,-2.106621,-1.5661167,2.398223,-0.15248878,0.24770285,-0.28313932,0.013795937,0.02406204,-0.14927456,0.076614454,0.40222588,-9.481039,0.9164598,47.711063,-1.0539994,-1.8839993,-3.5045893,-0.15187702,0.1508072,-0.4179065,26.5625,27.5,26.625,29.8125,31.1875,31.6875
0.31605464,-0.15075752,-1.1068926,-0.8575332,-0.050050326,0.03318356,-0.15431122,-0.3969207,-0.32768783,0.059922244,3.0734644,-0.6235033,0.00017435888,-0.15578935,0.004739631,-0.00022725073,-0.031102218,0.010214424,0.0062059816,0.42315185,-1.432615,1.966739,-2.1065962,-1.5660452,2.397884,-0.15408617,0.24955814,-0.28547516,0.014471668,0.024086563,-0.16006912,0.05746084,0.28730422,-9.481039,0.9254084,47.678825,-1.0041742,-1.9018302,-3.4623182,-0.16785395,0.17320149,-0.33158997,26.5625,27.5,26.625,29.8125,31.1875,31.6875
0.3180538,-0.19067216,-0.75726825,-1.1529354,-0.039956525,0.032037046,-0.15401466,-0.3972115,-0.32764524,0.059869748,3.0734918,-0.6235804,0.00033285478,-0.15714237,0.004491318,0.001369728,-0.033012696,0.012468423,0.013825666,0.42281568,-1.4320407,1.9661888,-2.1065123,-1.5660204,2.3975925,-0.15513812,0.2484723,-0.28827733,0.0155691225,0.024916675,-0.16874143,0.0,0.30645782,-9.653421,0.9388393,47.678825,-0.96941817,-1.8619574,-3.4550922,-0.17180236,0.1861306,-0.21640976,26.5625,27.5,26.625,29.8125,31.1875,31.6875
0.32005462,-1.0926865,-0.9921347,-0.96114665,-0.032191917,0.03047313,-0.13384679,-0.39753956,-0.3276602,0.059886824,3.0734217,-0.6234112,0.00023977405,-0.15686153,0.005302735,-0.00020171356,-0.032622144,0.009575115,0.016380407,0.42253906,-1.4315369,1.9655789,-2.1065128,-1.5659722,2.3972197,-0.15679799,0.2503611,-0.2868304,0.015063941,0.025786849,-0.17295273,-0.2681506,0.21068975,-9.730036,0.900793,47.70211,-1.0023339,-1.8121248,-3.4859657,-0.18172672,0.18316945,-0.16980281,26.5625,27.5,26.625,29.8125,31.1875,31.6875
0.32205403,-1.2697763,-0.6065299,-0.92091835,-0.021790463,0.04532751,-0.1367892,-0.39782563,-0.32765123,0.059878193,3.073335,-0.62339795,0.0003392112,-0.15822834,0.0053729364,-0.00037838065,-0.03316336,0.009683131,0.01095897,0.42221457,-1.4310567,1.9650406,-2.1064532,-1.565864,2.3968983,-0.15818664,0.25265837,-0.28905588,0.01467844,0.026224744,-0.16891795,-0.21068975,0.24899697,-9.634268,1.0216395,47.684196,-0.8972818,-1.7901846,-3.571836,-0.1521181,0.17193605,-0.16113642,26.5625,27.5,26.625,29.8125,31.1875,31.6875
0.32405952,-1.1555256,-0.3996193,-0.9245389,-0.004551059,0.0631202,-0.14198641,-0.39816377,-0.3276358,0.0598805,3.0732553,-0.62344235,0.00025291214,-0.16007079,0.0050082826,0.0010610092,-0.03502938,0.012886234,0.0029445132,0.4218905,-1.430542,1.964454,-2.106465,-1.5658401,2.3966126,-0.1591174,0.25237566,-0.29203725,0.0142337885,0.026606621,-0.16183005,-0.15322891,0.19153613,-9.653421,1.0574499,47.687782,-0.93891245,-1.8181138,-3.6867228,-0.13439535,0.16874732,-0.22395968,26.5625,27.5,26.625,29.8125,31.1875,31.6875
0.32605577,-1.7319336,-0.33263743,-0.538147,-0.007311787,0.07566913,-0.13670908,-0.39848882,-0.32766134,0.059904937,3.0731475,-0.62334615,0.00020557403,-0.16166994,0.0056076273,0.00082893367,-0.033979196,0.012598908,-0.0032202534,0.42161375,-1.4300382,1.9638184,-2.1064293,-1.5657567,2.39629,-0.16082652,0.25521567,-0.2950511,0.015102099,0.025769372,-0.15737192,-0.45968673,0.15322891,-9.519346,0.900793,47.684196,-0.89898366,-1.8300464,-3.5362654,-0.13695845,0.19939014,-0.2834387,26.5625,27.5,26.625,29.8125,31.1875,31.6875
0.32805437,-1.6274472,-0.02998187,-0.54092956,0.0013261283,0.07584427,-0.1454651,-0.3988185,-0.32764223,0.059894767,3.073075,-0.6233874,0.00023125682,-0.16143437,0.004696983,0.00044255538,-0.034618884,0.011710743,-0.0030761631,0.42126673,-1.4294983,1.9632205,-2.106393,-1.5656961,2.3959785,-0.15940672,0.2568054,-0.2961076,0.015126753,0.02672198,-0.15609343,-0.45968673,0.095768064,-9.519346,0.98807013,47.696735,-1.1325282,-1.8883632,-3.5849862,-0.12655929,0.21060239,-0.30505052,26.5625,27.5,26.625,29.8125,31.1875,31.6875
0.33005443,-1.3672643,0.23163864,-0.62561643,0.005967362,0.07753473,-0.15079616,-0.39914155,-0.3276198,0.059893712,3.0730383,-0.6233227,0.0001910593,-0.16174649,0.0038273218,0.00018693418,-0.0356271,0.010705427,-0.0024499497,0.4209427,-1.4289949,1.9626454,-2.1063693,-1.5656713,2.3956192,-0.15877688,0.25902835,-0.29827216,0.01558175,0.028064743,-0.15608492,-0.49799395,0.11492168,-9.519346,0.8672237,47.70032,-1.0961592,-1.8312409,-3.5738478,-0.13141124,0.20389874,-0.36376226,26.5625,27.5,26.625,29.8125,31.1875,31.6875
0.33205402,-1.3724717,-0.02617204,-0.6822894,0.009405062,0.06736683,-0.14045368,-0.39946273,-0.32762608,0.059900485,3.0729358,-0.62335956,0.00018170592,-0.16288054,0.003940633,-0.00092878286,-0.034511182,0.00917226,-0.0045582308,0.42064244,-1.4284781,1.9620346,-2.106333,-1.5655993,2.3953555,-0.15950035,0.2634937,-0.30094826,0.015662035,0.027678033,-0.15469757,-0.49799395,0.038307227,-9.519346,0.98135734,47.686886,-1.1223067,-2.0138276,-3.587842,-0.12017062,0.21805942,-0.39298218,26.5625,27.5,26.625,29.8125,31.1875,31.6875
0.33405417,-0.9815013,-0.28946775,-0.59377193,0.009942725,0.061735332,-0.14897102,-0.3998002,-0.32762426,0.059923105,3.0728507,-0.62333786,0.00011683155,-0.16424714,0.0040031597,0.00022380485,-0.034638632,0.01194959,0.0011063121,0.42033035,-1.4279749,1.9613999,-2.1062849,-1.5655521,2.3950412,-0.15992454,0.26307335,-0.30327228,0.015869267,0.02669774,-0.16078545,-0.36391866,0.19153613,-9.442732,0.8784135,47.67345,-1.1121715,-1.9940268,-3.4952111,-0.11888951,0.229054,-0.36086616,26.5625,27.5,26.625,29.8125,31.1875,31.6875
0.3360544,-1.1390526,-0.13764976,-0.5032828,-0.0033239382,0.053239685,-0.14988492,-0.40012014,-0.3276144,0.05989847,3.0728161,-0.62326866,0.00014402407,-0.16614504,0.004667864,0.0006390784,-0.03563837,0.012735712,0.0066082147,0.4200174,-1.4274119,1.9608129,-2.106273,-1.5655035,2.3946898,-0.16293426,0.26420963,-0.30570236,0.016095119,0.027324988,-0.16929464,-0.4213795,0.21068975,-9.461885,0.95226496,47.6636,-1.2076509,-1.8713622,-3.4977636,-0.091027,0.25815585,-0.2780152,26.5625,27.5,26.625,29.8125,31.1875,31.6875
0.3380537,-1.3709358,-0.10811255,-0.48185033,-0.02020347,0.046598837,-0.14683144,-0.4004499,-0.32760274,0.059910156,3.0727558,-0.6231921,0.00011061534,-0.16689765,0.00383688,0.0010627082,-0.036098856,0.013379101,0.017565494,0.41969374,-1.4269081,1.9602021,-2.1062248,-1.5654553,2.3943264,-0.161991,0.2657776,-0.30875468,0.0168723,0.027532823,-0.17930555,-0.4405331,0.15322891,-9.461885,0.9679317,47.661808,-1.2961545,-1.8659335,-3.4876652,-0.10027103,0.2572903,-0.17732313,26.5625,27.5,26.625,29.8125,31.1875,31.6875
0.34005395,-1.2078928,-0.5762693,-0.48970053,-0.02223791,0.05057585,-0.14440773,-0.40079015,-0.32758236,0.059893444,3.0727477,-0.6231119,9.023441e-05,-0.16752476,0.00440406,0.0024420423,-0.03691949,0.015305914,0.020926183,0.41936946,-1.4263339,1.9595808,-2.1062005,-1.5654434,2.3939536,-0.16335432,0.2631343,-0.309292,0.01799459,0.02752896,-0.1840298,-0.19153613,0.19153613,-9.404425,0.90750587,47.66091,-1.1461836,-1.7421869,-3.4350462,-0.09384452,0.27743053,-0.08910653,26.5625,27.5,26.625,29.8125,31.1875,31.6875
0.34205437,-1.2587181,-0.5426228,-0.33441144,-0.015868634,0.05197337,-0.1375601,-0.40112376,-0.32757756,0.059906937,3.0726383,-0.6230915,7.0764625e-05,-0.1693346,0.004284947,0.003548029,-0.03758405,0.017858457,0.01808395,0.419033,-1.4258307,1.958969,-2.1061652,-1.56536,2.3936188,-0.16415866,0.2636883,-0.31260797,0.018170126,0.027106302,-0.1819895,-0.3256114,0.21068975,-9.289502,0.9388393,47.66808,-1.225098,-1.6859857,-3.483202,-0.08687821,0.3002599,-0.05322763,26.5625,27.5,26.625,29.8125,31.1875,31.6875
0.34405422,-1.3508778,-0.19740973,-0.45478812,0.0050415695,0.03097738,-0.14082366,-0.40149245,-0.32756558,0.05995044,3.0725412,-0.62303525,-6.5265376e-05,-0.16981521,0.0034493334,0.0035705832,-0.038869087,0.017603781,0.010924964,0.4186858,-1.425339,1.9582986,-2.106117,-1.5653237,2.3932495,-0.16365764,0.26534414,-0.31468135,0.018268919,0.02838503,-0.17432192,-0.34476504,0.076614454,-9.423578,0.8784135,47.67614,-1.2366499,-1.6668773,-3.4737408,-0.08458282,0.33149576,-0.107818924,26.5625,27.5,26.625,29.8125,31.1875,31.6875
0.3460538,-1.1510702,-0.040267266,-0.6209504,0.008672606,0.033467904,-0.15003137,-0.40183195,-0.3275813,0.05993929,3.0724392,-0.62300014,-3.8875827e-05,-0.17017013,0.0033484497,0.0026889031,-0.03922722,0.015021873,0.001064998,0.418374,-1.4247514,1.9576515,-2.1061046,-1.5652269,2.3929293,-0.16445953,0.26829335,-0.31639305,0.019217318,0.029742712,-0.1652584,-0.3256114,0.095768064,-9.423578,0.99031126,47.666286,-1.3020797,-1.6132548,-3.4830074,-0.08030814,0.323947,-0.2031523,26.5625,27.5,26.625,29.8125,31.1875,31.6875
0.34805378,-0.775988,-0.11773225,-0.45160344,-0.0013465285,0.029466838,-0.1521942,-0.40215662,-0.32754904,0.05992675,3.0723925,-0.6230491,-1.8145623e-05,-0.16965352,0.0042458773,0.0006158336,-0.03877385,0.01021365,-0.005505671,0.41802594,-1.424223,1.9570664,-2.1060565,-1.5651897,2.3926182,-0.16648535,0.2711793,-0.31520027,0.019703275,0.03127801,-0.1607101,-0.19153613,0.21068975,-9.423578,0.93436235,47.642998,-1.2134693,-1.7889504,-3.5959306,-0.067581564,0.30991262,-0.30008668,26.5625,27.5,26.625,29.8125,31.1875,31.6875
0.35005373,-0.58613646,-0.3874392,-0.5419981,-0.0017137888,0.02046487,-0.14319071,-0.4025123,-0.3275515,0.05995789,3.0722723,-0.62308514,-0.00010169425,-0.1708938,0.004504609,0.0003884996,-0.038338624,0.009694818,-0.012363013,0.41770205,-1.4237072,1.956396,-2.1060078,-1.5651306,2.3923328,-0.16765326,0.27374107,-0.31791753,0.020498833,0.031089056,-0.15501653,-0.15322891,0.11492168,-9.385271,0.9231726,47.657326,-1.1564531,-1.8442676,-3.6393056,-0.063224494,0.317759,-0.40604144,26.5625,27.5,26.625,29.8125,31.1875,31.6875
0.35205367,-0.7289565,-0.6716102,-0.46444932,-0.0032561775,0.008477275,-0.14656937,-0.4028821,-0.32755193,0.059975434,3.0721643,-0.6231203,-0.00022102185,-0.17311767,0.0045392937,0.00011167502,-0.037996527,0.009387868,-0.01575605,0.41737807,-1.4231546,1.9557251,-2.1060073,-1.5650944,2.3920453,-0.1692143,0.2782876,-0.32279214,0.021252602,0.030910507,-0.15317874,-0.038307227,0.038307227,-9.3661175,0.9298854,47.689575,-1.0203661,-1.9132377,-3.5898995,-0.06968644,0.339684,-0.4717961,26.5625,27.5,26.625,29.8125,31.1875,31.6875
0.35405368,-0.38380885,-0.23744395,-0.38810867,-0.01115343,0.010270166,-0.16038643,-0.4032066,-0.32751408,0.059953175,3.0721447,-0.6231156,-0.00020014292,-0.17514896,0.0054494203,0.0008023188,-0.039324675,0.010756792,-0.01695323,0.41702938,-1.4226136,1.95515,-2.105972,-1.56507,2.3916965,-0.17276843,0.27857202,-0.32482806,0.021239804,0.03158365,-0.15553331,-0.05746084,0.11492168,-9.289502,0.8873621,47.68062,-0.939123,-1.9459274,-3.516502,-0.05311083,0.35316867,-0.5013823,26.5625,27.5,26.625,29.8125,31.1875,31.6875
0.35605344,-0.55677086,-0.5827746,-0.6741404,-0.0028712333,0.00078404415,-0.1567749,-0.4035839,-0.3275085,0.059957225,3.0720348,-0.62314105,-0.00019979935,-0.17614059,0.0049396055,0.0010215518,-0.040170044,0.011107102,-0.0061899773,0.4166584,-1.4220127,1.9544433,-2.105924,-1.5649861,2.391356,-0.1728743,0.28035054,-0.32761043,0.021664856,0.032273345,-0.16639794,0.0,0.3256114,-9.404425,0.9410752,47.657326,-1.0241301,-1.8645618,-3.3679657,-0.05780083,0.3508913,-0.44964078,26.5625,27.5,26.625,29.8125,31.1875,31.6875
0.35805348,-0.5676776,-0.7858636,-0.43178144,-0.02070255,0.0106364805,-0.15656178,-0.40391472,-0.32749066,0.05994905,3.0719504,-0.623194,-0.00016320286,-0.1773301,0.004850093,0.0017419123,-0.04150915,0.012036897,0.004805568,0.4163106,-1.4214721,1.953833,-2.1058753,-1.5649136,2.3910525,-0.1740663,0.28076893,-0.33002827,0.022362065,0.033181842,-0.17858195,-0.15322891,0.34476504,-9.346964,0.9545008,47.678825,-0.9813141,-1.927038,-3.3849561,-0.05725143,0.34864503,-0.34970105,26.5625,27.5,26.625,29.8125,31.1875,31.6875
0.36005354,-1.0235555,-0.9775063,-0.53139484,-0.032164354,0.013126491,-0.15944518,-0.40427697,-0.32751057,0.059993997,3.071836,-0.6230304,-0.00025618527,-0.1780079,0.004594546,0.0029038815,-0.042576194,0.013529204,0.0130270375,0.4159991,-1.4209558,1.9531268,-2.1058156,-1.5648297,2.390654,-0.17423062,0.27980703,-0.33197558,0.023547512,0.033621203,-0.18696232,-0.15322891,0.34476504,-9.346964,0.95002913,47.70659,-0.91839516,-1.7073169,-3.3866673,-0.046637405,0.3571232,-0.23790334,26.5625,27.5,26.625,29.8125,31.1875,31.6875
0.3620535,-0.959041,-1.4357275,-0.8615931,-0.045322016,0.025951482,-0.1567709,-0.4046016,-0.32750487,0.060002357,3.071794,-0.6229249,-0.00023053992,-0.17762771,0.0053294823,0.0014174085,-0.04183962,0.009803697,0.014435204,0.41568688,-1.4204273,1.9524812,-2.1057193,-1.5647691,2.3902817,-0.17562762,0.28205228,-0.3315359,0.024603533,0.03448027,-0.18976489,-0.076614454,0.47884035,-9.500193,0.90750587,47.7254,-0.89789057,-1.5896671,-3.5145104,-0.074608415,0.37719277,-0.16875768,26.5625,27.5,26.625,29.8125,31.1875,31.6875
0.36405396,-1.31609,-1.5988706,-0.6932074,-0.06567554,0.032238085,-0.15256353,-0.40497315,-0.32749766,0.060020216,3.0717015,-0.6228114,-0.00028661167,-0.17766118,0.006261291,0.0013567726,-0.041932654,0.008893519,0.007848881,0.41532698,-1.4198742,1.9517993,-2.105683,-1.5646971,2.3898633,-0.17742927,0.28129616,-0.3308779,0.025493111,0.034941696,-0.18497667,-0.2873042,0.40222588,-9.5385,0.9567419,47.690468,-0.8424735,-1.5053835,-3.6383996,-0.079278246,0.38397935,-0.17214915,26.5625,27.5,26.625,29.8125,31.1875,31.6875
0.36605403,-1.5294846,-1.9364915,-0.5685801,-0.06527438,0.03864969,-0.15036125,-0.405321,-0.32746714,0.0599845,3.071659,-0.6229013,-0.00014319773,-0.17881599,0.0056829834,0.0018299089,-0.043337714,0.009810871,0.00078950333,0.41494393,-1.4192371,1.9511293,-2.1055872,-1.5646247,2.389542,-0.1776647,0.282603,-0.3336219,0.025507111,0.03581991,-0.17815107,-0.45968673,0.36391866,-9.5385,0.947788,47.686886,-1.0008928,-1.5177767,-3.7339358,-0.070852175,0.3694219,-0.2492548,26.5625,27.5,26.625,29.8125,31.1875,31.6875
0.36805388,-1.4208477,-1.2392665,-0.70028305,-0.049389623,0.03982805,-0.14904115,-0.40573144,-0.3274358,0.060032446,3.0715425,-0.62293595,-0.00034818109,-0.18028517,0.00524951,0.0017335595,-0.044862796,0.0097590005,-0.005642352,0.41454822,-1.4187199,1.9504222,-2.1055639,-1.5646123,2.3891838,-0.17874336,0.2854101,-0.33666426,0.025154699,0.037245154,-0.17278588,-0.28730422,0.3256114,-9.500193,1.0104496,47.68062,-0.93288255,-1.5912212,-3.640087,-0.06607789,0.36565238,-0.3192484,26.5625,27.5,26.625,29.8125,31.1875,31.6875
0.37005386,-1.0679016,-0.75623006,-0.9996194,-0.010644261,0.035870284,-0.154068,-0.40607592,-0.32747906,0.060050882,3.071365,-0.62286204,-0.00034177996,-0.18095532,0.00449701,4.1483887e-05,-0.04542479,0.0066784304,-0.00817167,0.41424876,-1.4181654,1.9497398,-2.10554,-1.5644559,2.3888614,-0.17885375,0.2910439,-0.3393214,0.024788795,0.03900763,-0.17035577,-0.36391866,0.2681506,-9.691729,1.0082139,47.68599,-0.9047352,-1.7589521,-3.6500783,-0.06689185,0.35763326,-0.3697495,26.5625,27.5,26.625,29.8125,31.1875,31.6875
0.37205425,-0.8251045,-0.53552306,-0.56204385,-0.006164076,0.0387082,-0.16166715,-0.40641442,-0.32745934,0.060031205,3.0713246,-0.62284976,-0.00027204741,-0.18197222,0.0031147934,0.00024559983,-0.047101445,0.007228146,-0.005401262,0.41390184,-1.417576,1.9490923,-2.105468,-1.5643953,2.3885124,-0.1778098,0.29366803,-0.34290925,0.024604805,0.040327325,-0.17207691,-0.24899697,0.24899697,-9.730036,0.97240865,47.677036,-1.0376793,-1.7543619,-3.4460664,-0.05637011,0.3138584,-0.37815368,26.5625,27.5,26.625,29.8125,31.1875,31.6875
