Tylouw/Master_Thesis_Code/training_data/batch_1/big_rod_t0.2/sample_95_session_4.csv
timestamp[s],tcp_force_x[N],tcp_force_y[N],tcp_force_z[N],tcp_force_rx[Nm?],tcp_force_ry[Nm?],tcp_force_rz[Nm?],tcp_pose_x[m],tcp_pose_y[m],tcp_pose_z[m],tcp_pose_rx[rot_vec_x],tcp_pose_ry[rot_vec_y],tcp_pose_rz[rot_vec_z],tcp_velo_x[m/s],tcp_velo_y[m/s],tcp_velo_z[m/s],tcp_velo_rx[rot_vec_x/s],tcp_velo_ry[rot_vec_y/s],tcp_velo_rz[rot_vec_z/s],q1[rad],q2[rad],q3[rad],q4[rad],q5[rad],q6[rad],qd1[rad/s],qd2[rad/s],qd3[rad/s],qd4[rad/s],qd5[rad/s],qd6[rad/s],tool_acc_x,tool_acc_y,tool_acc_z,current_of_whole_robot[A],voltage_of_whole_robot[V],current_J1[A],current_J2[A],current_J3[A],current_J4[A],current_J5[A],current_J6[A],temp_J1[C],temp_J2[C],temp_J3[C],temp_J4[C],temp_J5[C],temp_J6[C]
6.859773e-07,0.13075493,-0.6328356,-0.1576882,-0.03830797,0.034693092,-0.017243912,-0.3728792,-0.3282284,0.059936482,-3.078506,0.6248715,-0.00035636354,0.002424731,0.0010579815,-0.0038520133,0.003189519,-0.0073457146,-2.5543652e-06,0.44813824,-1.470849,2.0095732,-2.1076796,-1.5706137,2.4230556,0.0,0.0039677834,0.0046114875,-0.0005780571,0.00031670538,-0.0,0.076614454,0.2681506,-8.868123,0.7239871,47.71554,-0.22906548,-2.8721657,-2.5239725,-0.4834482,0.016231235,0.018235033,27.25,28.3125,27.4375,30.9375,32.75,33.375
0.002052512,0.3768088,-0.24310564,-0.14358376,-0.034403984,0.040377427,-0.023453774,-0.37289113,-0.32824698,0.059950143,-3.07856,0.6247659,-0.00029057486,-0.00039919117,-0.0003001965,-0.002733175,-0.0011615788,0.0017023569,2.2939204e-07,0.44816232,-1.4708492,2.0095484,-2.1077073,-1.5706137,2.423007,0.0,0.003532749,0.0047467416,-0.010318137,0.0002958681,-0.0,0.095768064,0.22984336,-8.925584,0.69041777,47.719128,-0.19787574,-2.7825637,-2.35694,-0.46148697,0.022788238,-0.011226169,27.25,28.3125,27.4375,30.9375,32.75,33.375
0.004051893,-0.22295202,-0.16689074,-0.26951408,-0.024815915,0.03157405,-0.013774523,-0.37289828,-0.32822695,0.05992202,-3.0785065,0.6249099,-0.00030909386,-0.0012404298,-0.000700496,-0.0024127734,-0.0023499061,0.004201992,1.126506e-06,0.4481262,-1.4708134,2.0095847,-2.1077554,-1.5706257,2.4230676,0.0,0.0035487008,0.0045957877,-0.012950763,0.00027760502,-0.0,0.076614454,0.11492168,-8.925584,0.7642693,47.716442,-0.19862169,-2.987692,-2.5410442,-0.36217004,0.020502355,-0.0049711396,27.25,28.3125,27.4375,30.9375,32.75,33.375
0.006052142,0.15572031,-0.013098823,-0.371575,-0.003696497,0.019926777,-0.0059665544,-0.37288395,-0.32823306,0.059915997,-3.0785315,0.624857,-0.00037426682,-0.0004691438,-0.000321557,-0.0019120679,-0.001056798,0.0015697437,3.222598e-07,0.4481262,-1.4708138,2.0095956,-2.1077416,-1.5705894,2.4230313,0.0,0.002697164,0.0031991329,-0.007769887,0.00026146724,-0.0,0.05746084,0.05746084,-8.925584,0.7665104,47.72002,-0.22675492,-3.0574205,-2.5019088,-0.4019395,-0.003403788,0.0070599485,27.25,28.3125,27.4375,30.9375,32.75,33.375
0.008052501,0.78899354,0.7743627,-0.6443445,0.017845491,0.006515724,-0.018830102,-0.37287718,-0.32822743,0.059910577,-3.0785046,0.6248513,-0.00036802955,0.00015943982,-1.2260035e-05,-0.0015404903,-5.026294e-05,-0.00047478973,-3.53107e-07,0.44813824,-1.470814,2.009608,-2.1077402,-1.5706137,2.4230433,0.0,0.0019856584,0.0022219692,-0.0038023945,0.00024710372,-0.0,0.076614454,0.11492168,-9.097966,0.6635613,47.73077,-0.20877685,-2.893895,-2.4943495,-0.4288664,-0.0002585454,0.015244589,27.25,28.3125,27.375,30.9375,32.75,33.375
0.010052331,0.5279931,0.85082763,-1.2247424,0.027949523,-0.0040725837,-0.012915098,-0.37285227,-0.32822818,0.05988771,-3.0784764,0.624807,-0.00044313035,0.0002676601,4.47666e-05,-0.0012165102,0.00018502578,-0.0009294385,-4.7537475e-07,0.44816232,-1.4707901,2.0096314,-2.1077273,-1.5706137,2.4230433,0.0,0.0015835032,0.0015608087,-0.0022273331,0.00023423726,-0.0,-0.076614454,0.0,-9.32781,0.7732232,47.707485,-0.52796775,-2.3081205,-3.1385634,-0.45018288,0.006354358,-0.034948483,27.25,28.3125,27.375,30.9375,32.75,33.375
0.0120522175,0.18424918,0.37176937,-1.3890705,-0.0014458232,0.012823971,-0.013860283,-0.3728642,-0.32821688,0.05986703,-3.07843,0.62483615,-0.0004945849,0.00042487378,0.00016824673,-0.004608521,0.003429861,-0.0076567847,-0.00011067359,0.4481382,-1.4707271,2.009607,-2.1077158,-1.5706257,2.4230433,-8.751109e-05,0.010060671,-0.00011040865,-0.0015642289,0.00022264411,2.4855328e-05,0.019153614,-0.019153614,-9.423578,0.779936,47.75316,-0.66848385,-2.3629823,-3.2869468,-0.438171,-0.011025418,-0.07539109,27.25,28.3125,27.375,30.9375,32.75,33.375
0.014052126,-0.64251864,-0.48084527,-1.6183175,-0.037645612,0.029174136,-0.014093268,-0.3728663,-0.3282167,0.059867445,-3.0784261,0.62485874,-0.0004931336,-0.0058689816,0.0006399433,-0.003214832,0.0019458081,-0.0045932424,-0.00669391,0.448136,-1.4707249,2.0096037,-2.1077158,-1.5706257,2.4230556,-0.0067010345,0.016407961,-0.010387367,-0.001038606,0.00021214502,1.6228753e-06,-0.076614454,0.05746084,-9.634268,0.73069996,47.71554,-0.4489773,-2.7907777,-2.9633274,-0.44047564,-0.038261954,-0.10018386,27.25,28.3125,27.375,30.9375,32.75,33.375
0.016051725,-0.73781645,-1.2387304,-1.4950116,-0.06449145,0.071640365,-0.022958815,-0.37287533,-0.32822308,0.05987461,-3.0784476,0.624843,-0.0005178079,-0.005741945,0.0012090984,-0.0037285793,0.0026059048,-0.0059413654,-0.0057754833,0.44812357,-1.4707129,2.0095685,-2.107691,-1.5706018,2.4230306,-0.0076494985,0.016890297,-0.00984802,-0.0005594145,0.00020259191,-0.0018656387,-0.19153613,0.24899697,-9.749189,0.6769922,47.690468,-0.37231618,-2.6370242,-3.1936746,-0.44666666,-0.042557504,-0.14422134,27.25,28.3125,27.375,30.9375,32.75,33.375
0.018052164,-1.1694621,-1.5356774,-1.5971409,-0.097843245,0.10808719,-0.026750838,-0.3728648,-0.32818612,0.059846796,-3.0783627,0.6248989,-0.00057396165,-0.0052475375,0.0009609091,-0.003805141,0.0031122859,-0.0068943053,0.00026434418,0.4480879,-1.4707009,2.0096161,-2.1076787,-1.5706376,2.4230406,-0.0067028515,0.017159741,-0.010241905,0.00064270204,0.0001577347,-0.0069588195,-0.3256114,0.36391866,-9.883265,0.7038487,47.723602,-0.5223178,-2.4631371,-3.4813178,-0.44890893,-0.053471822,-0.08142033,27.25,28.3125,27.375,30.9375,32.75,33.375
0.020052036,-2.0809186,-1.5940056,-1.5643412,-0.105109505,0.107748926,-0.023625579,-0.37286943,-0.32822484,0.05985935,-3.078407,0.6248314,-0.00063692016,-0.005287888,0.0009780454,-0.0041268207,0.004521223,-0.0097576175,0.0007338776,0.44812378,-1.470652,2.0095198,-2.1076176,-1.5705894,2.4230287,-0.0067557404,0.019522777,-0.012890206,0.004119403,0.0001306685,-0.0074802483,-0.47884035,0.45968673,-9.844957,0.7597976,47.72002,-0.65872824,-2.4091377,-3.4363053,-0.47494775,-0.05803869,-0.097001165,27.25,28.3125,27.375,30.9375,32.75,33.375
0.022051826,-1.8669088,-1.5536617,-1.5505865,-0.08635596,0.10515048,-0.021571593,-0.3728663,-0.32818463,0.05981123,-3.078315,0.62485164,-0.0007211533,-0.006471887,0.00091394904,-0.0042287232,0.0044002947,-0.009467633,-0.0013261272,0.44807556,-1.4705913,2.0095665,-2.10763,-1.5706257,2.4230049,-0.00769907,0.021634478,-0.014871603,0.0036752974,0.00010833927,-0.0063618813,-0.57460845,0.4405331,-9.80665,0.78888994,47.73614,-0.6990317,-2.5385911,-3.4150796,-0.46604854,-0.06646358,-0.1375047,27.25,28.3125,27.375,30.9375,32.75,33.375
0.024051614,-1.6601882,-0.7658161,-1.6791812,-0.08263796,0.09044054,-0.038003754,-0.37289637,-0.32821384,0.059813805,-3.0783663,0.6248435,-0.00068290945,-0.008471089,0.00095102814,-0.0031860832,0.0029787458,-0.0065145935,-0.0028776608,0.44808692,-1.4705316,2.009506,-2.1076782,-1.5706018,2.4230046,-0.009584046,0.021724517,-0.017104115,0.002540518,0.00010308415,-0.006693618,-0.57460845,0.5554548,-9.80665,0.7642693,47.72002,-0.70145106,-2.3716044,-3.4773839,-0.45401877,-0.0817113,-0.1714803,27.25,28.3125,27.375,30.9375,32.75,33.375
0.026052114,-1.614381,-1.4258832,-1.613802,-0.060329236,0.07439514,-0.031815756,-0.37290448,-0.328192,0.059791174,-3.07831,0.62487036,-0.0007862091,-0.010071749,0.001073808,-0.002043307,0.0017178938,-0.0035610187,-0.0027731373,0.44803843,-1.4704719,2.0094817,-2.107631,-1.5706018,2.42298,-0.011168418,0.020929022,-0.018656908,0.0016809315,-4.7323305e-05,-0.008381139,-0.5554548,0.4213795,-9.787497,0.7351769,47.71554,-0.7127743,-2.273113,-3.5079489,-0.4397236,-0.08189158,-0.19379503,27.25,28.3125,27.375,30.9375,32.75,33.375
0.028051844,-1.1266211,-0.8549549,-1.4834777,-0.06295278,0.07970655,-0.05288783,-0.3729477,-0.32821265,0.059824407,-3.0783393,0.62487555,-0.00063234684,-0.011279466,0.00091674906,-0.002049652,0.0015998039,-0.0031566182,-0.0013639334,0.44806215,-1.470459,2.0093968,-2.1076548,-1.5706376,2.4230034,-0.0119222365,0.023045044,-0.0208979,0.00138994,-0.00012190688,-0.010542242,-0.6512229,0.30645782,-9.730036,0.7933669,47.70838,-0.77433217,-2.3060322,-3.4903178,-0.42465445,-0.10558378,-0.19358216,27.25,28.3125,27.375,30.9375,32.75,33.375
0.030051813,-0.8611797,-0.044599954,-1.2846735,-0.0608012,0.094146565,-0.07387811,-0.37298736,-0.3282187,0.05983573,-3.0783703,0.624901,-0.00065072766,-0.013014872,0.0012588839,-0.00202298,0.0020872564,-0.0024606066,-0.0011780639,0.44801348,-1.4704102,2.009312,-2.107631,-1.5706023,2.4229667,-0.013637749,0.02540771,-0.023516035,0.0012321149,-0.0008698332,-0.012440088,-0.63206923,0.30645782,-9.672575,0.7105615,47.72002,-0.8180997,-2.2766483,-3.4062696,-0.42446682,-0.09745468,-0.19006397,27.25,28.3125,27.375,30.9375,32.75,33.375
0.032051794,-1.1591693,-0.20322376,-1.1789258,-0.03302136,0.09499104,-0.07994404,-0.3729856,-0.32823285,0.059803717,-3.0783842,0.62478846,-0.0007326361,-0.014595451,0.0013212012,-0.0014237637,0.0020152833,-0.000559163,-0.0012247943,0.44802517,-1.4703262,2.0092986,-2.1076548,-1.570578,2.4229064,-0.014674976,0.026382605,-0.025881335,0.0008805582,-0.001635643,-0.013427253,-0.5746084,0.076614454,-9.672575,0.7463667,47.71823,-0.80222106,-2.296979,-3.4499588,-0.3970627,-0.099162504,-0.19265567,27.25,28.3125,27.375,30.9375,32.75,33.375
0.034051824,-1.4076515,0.09734551,-1.1437362,-0.011530415,0.08264448,-0.08600729,-0.3730329,-0.3282065,0.059793856,-3.0783265,0.6249495,-0.0007528781,-0.01623186,0.0014533557,-0.00092972774,0.0014577549,0.00048041955,-0.0013184291,0.44794065,-1.4702538,2.009239,-2.1076424,-1.5705899,2.4229298,-0.016440948,0.027660942,-0.028442394,0.0009841871,-0.001590134,-0.015097941,-0.40222588,0.038307227,-9.576807,0.7486078,47.728977,-0.78440386,-2.2438302,-3.4893765,-0.37685448,-0.10848303,-0.188611,27.25,28.3125,27.375,30.9375,32.75,33.375
0.036052007,-0.86692476,0.16472697,-0.9739527,0.009729754,0.073862776,-0.10071122,-0.37308374,-0.32821828,0.059810475,-3.0783665,0.6249386,-0.00067652867,-0.017196791,0.0011528427,6.0905045e-06,0.0009886455,0.0016438494,-0.000869448,0.44791648,-1.4702059,2.0091536,-2.1076663,-1.5705899,2.4228938,-0.01669503,0.027826983,-0.031041307,0.0021654386,-0.0016735048,-0.015799692,-0.40222588,-0.095768064,-9.557653,0.66803825,47.72092,-0.7759107,-2.1537423,-3.3818676,-0.37327498,-0.10627684,-0.18763417,27.25,28.3125,27.375,30.9375,32.75,33.375
0.038051922,-0.80396044,0.63415515,-1.2101607,0.015404499,0.053597916,-0.112501055,-0.3731084,-0.3282191,0.05980881,-3.0783572,0.62493753,-0.0006637306,-0.018301884,0.0012159619,0.00029893743,0.00074700447,0.001740669,-0.0018385919,0.447904,-1.4701576,2.0091045,-2.1076663,-1.5706023,2.4228818,-0.017935637,0.029111883,-0.033302974,0.0029494213,-0.001500781,-0.016070187,-0.4405331,-0.019153614,-9.500193,0.6948948,47.71554,-0.73175037,-2.1138055,-3.3511925,-0.36504835,-0.120327935,-0.18829244,27.25,28.3125,27.375,30.9375,32.75,33.375
0.0400519,-0.50602865,1.0392596,-1.078532,0.0114103155,0.041776583,-0.12959331,-0.3731768,-0.3282203,0.05983672,-3.0783925,0.62494445,-0.00058992393,-0.01909424,0.0010739748,0.00018567716,0.0008830884,0.0013477283,-0.0024301095,0.447844,-1.470109,2.0089843,-2.1076539,-1.5706023,2.4228218,-0.01841729,0.03109373,-0.035321925,0.0033994045,-0.001455466,-0.01595911,-0.17238252,-0.095768064,-9.500193,0.73741806,47.677036,-0.75451493,-2.14675,-3.3583496,-0.356635,-0.16497612,-0.18879202,27.25,28.3125,27.375,30.9375,32.75,33.375
0.042051956,-0.7121833,0.39046922,-1.1621832,0.0076691546,0.03373391,-0.13329111,-0.37318492,-0.32820743,0.059806425,-3.0783577,0.62499505,-0.00070322247,-0.019807065,0.00097271206,0.00018689301,0.0011810914,0.0013589915,-0.0022534588,0.44779587,-1.4700365,2.0089715,-2.1076415,-1.570578,2.4228096,-0.018686496,0.03261193,-0.037073884,0.0037533292,-0.0017332629,-0.0164031,-0.15322891,-0.076614454,-9.481039,0.7620334,47.664497,-0.7327248,-2.2142434,-3.3805346,-0.34582132,-0.15081467,-0.18639445,27.25,28.3125,27.375,30.9375,32.75,33.375
0.044052545,-0.3518268,0.03658837,-1.1141862,-0.0058283587,0.041260056,-0.14554858,-0.37323433,-0.32819653,0.059817053,-3.0783212,0.6249688,-0.00063088356,-0.021205606,0.0015519735,0.0007925887,0.0022014065,0.002948835,-0.0029423465,0.44777146,-1.4699764,2.0088756,-2.1076176,-1.5706385,2.4227736,-0.019953879,0.03309073,-0.039122656,0.004336645,-0.0033444916,-0.016977143,-0.19153613,0.0,-9.346964,0.7284641,47.66091,-0.7276974,-2.1561384,-3.4201899,-0.3391357,-0.124333054,-0.18206507,27.25,28.3125,27.375,30.9375,32.75,33.375
0.04605171,0.10962833,-0.122370146,-1.1275018,-0.014298196,0.05257846,-0.16691081,-0.37327918,-0.32820076,0.059812352,-3.0783498,0.6249932,-0.00062305765,-0.022234756,0.0021896716,0.001177822,0.004066404,0.004136933,-0.002213027,0.4477231,-1.4699044,2.0088155,-2.1076534,-1.5706156,2.422737,-0.020597318,0.033680867,-0.040858634,0.0052268812,-0.0055419984,-0.018344605,-0.11492168,0.1340753,-9.423578,0.8112748,47.71286,-0.7283053,-2.0783763,-3.3624015,-0.32867733,-0.11970517,-0.18426612,27.25,28.3125,27.375,30.9375,32.75,33.375
0.048052754,-0.67314106,-0.7766372,-1.3834821,-0.018560557,0.029474514,-0.16879073,-0.37332815,-0.3281965,0.05983008,-3.0783343,0.624971,-0.000600768,-0.022821436,0.002627395,0.0014605814,0.005518411,0.0035413739,-0.0020464687,0.447687,-1.4698442,2.008695,-2.1075923,-1.57064,2.422689,-0.021240007,0.034557074,-0.0430328,0.0076932944,-0.0065925336,-0.01915098,-0.038307227,0.11492168,-9.461885,0.800085,47.721813,-0.7447759,-1.974092,-3.4558823,-0.33799788,-0.11795848,-0.183651,27.25,28.3125,27.375,30.9375,32.75,33.375
0.05005247,-0.20455843,-0.6167845,-1.1980237,-0.034453947,0.02657319,-0.1811292,-0.37335876,-0.32816812,0.059808273,-3.0782456,0.62502986,-0.0006303239,-0.023486068,0.0033738997,0.0011014489,0.0075460537,0.0026131368,-0.0021685949,0.44763866,-1.4697598,2.0086467,-2.107568,-1.5706886,2.4226887,-0.022279693,0.036352478,-0.044499293,0.009082542,-0.008020295,-0.020064374,0.0,0.21068975,-9.5385,0.7866488,47.709274,-0.726354,-1.9937111,-3.4476283,-0.35426638,-0.094998546,-0.17744151,27.25,28.3125,27.375,30.9375,32.75,33.375
0.052052177,-0.18419012,-0.66240335,-1.4081984,-0.0466902,0.027789967,-0.16763341,-0.37341896,-0.32818437,0.059828024,-3.078306,0.62506074,-0.0005890468,-0.024926677,0.0037770031,0.00164502,0.0085236775,0.004069959,-0.0020859928,0.4475903,-1.4696995,2.008538,-2.10758,-1.5706528,2.422652,-0.02331662,0.03729817,-0.046920385,0.009673374,-0.009535409,-0.021179855,-0.05746084,0.2681506,-9.557653,0.7978386,47.71554,-0.68207157,-1.969177,-3.4422266,-0.36586285,-0.073662,-0.16110092,27.25,28.3125,27.375,30.9375,32.75,33.375
0.054052036,-0.08746338,-0.9693658,-1.4590253,-0.046943285,0.03284282,-0.16917863,-0.37346536,-0.32817435,0.059830144,-3.0782595,0.6250701,-0.0005843731,-0.0255477,0.0042229025,0.0017982363,0.0098112365,0.004284841,-0.0012375223,0.4475541,-1.4696153,2.0084298,-2.1075318,-1.5706896,2.4226277,-0.023866327,0.03796179,-0.048234593,0.010690606,-0.01079099,-0.02257461,0.019153614,0.34476504,-9.615114,0.7150385,47.728977,-0.6879042,-1.9184084,-3.4384878,-0.3599355,-0.055233218,-0.1636815,27.25,28.3125,27.375,30.9375,32.75,33.375
0.056052625,-0.033924274,-1.0442103,-1.3821533,-0.06066565,0.03937252,-0.14951,-0.37349457,-0.32816485,0.059829388,-3.0782273,0.62496674,-0.0005683942,-0.02635349,0.004129389,0.0015209491,0.009911712,0.0032318612,-0.00054233614,0.44754192,-1.4695548,2.0083568,-2.107496,-1.5707372,2.4225552,-0.024666885,0.04038805,-0.050439857,0.011459511,-0.010430291,-0.024069382,0.019153614,0.45968673,-9.672575,0.7978386,47.72808,-0.75653946,-1.872529,-3.4552555,-0.36847532,-0.044816725,-0.17077371,27.25,28.3125,27.375,30.9375,32.75,33.375
0.05805264,-0.4115933,-1.8503774,-1.5154557,-0.06634239,0.039215073,-0.14695436,-0.37353715,-0.32815608,0.059818916,-3.0782323,0.6249675,-0.00062433735,-0.027041001,0.0032186,0.0017167648,0.0073227747,0.0025863573,0.00018697925,0.4474696,-1.4694704,2.0082853,-2.1074836,-1.570712,2.4224827,-0.025340768,0.041868716,-0.05253393,0.01152484,-0.007822851,-0.025476394,-0.038307227,0.51714754,-9.615114,0.7463667,47.74331,-0.69843847,-1.8818935,-3.4969263,-0.34581137,-0.06528195,-0.13465808,27.25,28.3125,27.375,30.9375,32.75,33.375
0.06005254,-0.80472094,-1.7805859,-1.3108294,-0.07910948,0.03503841,-0.14248233,-0.37364987,-0.32817444,0.059863184,-3.0782835,0.6250354,-0.00046344945,-0.027475717,0.0025575005,0.0015972989,0.0059750983,0.001474084,0.00082057767,0.44740948,-1.469374,2.0080807,-2.1074955,-1.5707234,2.4224586,-0.025633836,0.043701034,-0.05437129,0.011942568,-0.006127039,-0.02640614,-0.076614454,0.5363012,-9.461885,0.7620334,47.71554,-0.66843706,-1.8183911,-3.5164332,-0.3672409,-0.09683387,-0.13061193,27.25,28.3125,27.375,30.9375,32.75,33.375
0.06205251,-0.44900855,-1.4286785,-1.2336191,-0.07863662,0.040000793,-0.14634125,-0.37368822,-0.32815886,0.059867896,-3.0782392,0.6251216,-0.0004563642,-0.028168455,0.0019096972,0.0016806329,0.0045935516,0.00083471416,0.0014490939,0.44736144,-1.4693253,2.0080082,-2.1074593,-1.5707473,2.42247,-0.026070017,0.045465287,-0.056602173,0.012381359,-0.0046095555,-0.02747234,-0.1340753,0.38307226,-9.500193,0.7709874,47.734352,-0.66443187,-1.8855913,-3.4969587,-0.3745662,-0.1156132,-0.12528405,27.25,28.3125,27.375,30.9375,32.75,33.375
0.06405249,-0.41331425,-0.96359736,-1.2453474,-0.07023429,0.046214722,-0.15042363,-0.37372318,-0.32816303,0.059841465,-3.078237,0.6250247,-0.0005952892,-0.029498177,0.0014861887,0.0021081485,0.003440414,0.0015847547,0.0016899385,0.44731292,-1.4691811,2.0078995,-2.1074116,-1.570711,2.4223614,-0.026956087,0.047015436,-0.05928061,0.012332617,-0.003903147,-0.028598506,-0.15322891,0.38307226,-9.500193,0.779936,47.716442,-0.72058797,-1.8418005,-3.4968357,-0.36905172,-0.11336877,-0.11040585,27.25,28.3125,27.375,30.9375,32.75,33.375
0.06605209,-0.4138452,-1.0208061,-1.2485743,-0.0448582,0.053514775,-0.15222983,-0.3737965,-0.32816854,0.059857022,-3.078249,0.62502766,-0.0005396769,-0.030460125,0.0013138251,0.002080392,0.003180914,0.0017842123,0.0017853846,0.44726476,-1.4690846,2.007755,-2.1073992,-1.5707229,2.4223137,-0.02759747,0.048787553,-0.061114766,0.012101386,-0.0037592761,-0.029334335,-0.05746084,0.34476504,-9.442732,0.76874626,47.690468,-0.6710304,-1.8621368,-3.409707,-0.36864674,-0.13742055,-0.10916005,27.25,28.3125,27.375,30.9375,32.75,33.375
0.06805197,-0.58743256,-0.51384485,-1.0228572,-0.042028688,0.052704927,-0.14826998,-0.37387726,-0.3281541,0.059876807,-3.078263,0.6250488,-0.0004396705,-0.032147087,0.0006354945,0.0026901758,0.002049186,0.0042280722,0.0025321837,0.44718078,-1.4690241,2.0076463,-2.1074126,-1.5707473,2.4222412,-0.027816243,0.050365604,-0.0639122,0.010626731,-0.003803584,-0.030297702,-0.15322891,0.3256114,-9.404425,0.7553206,47.701214,-0.7253539,-1.8031948,-3.5315304,-0.36061823,-0.14289048,-0.07370417,27.25,28.3125,27.375,30.9375,32.75,33.375
0.070051916,-0.72681826,-0.64652574,-1.0676748,-0.038370315,0.059997283,-0.14382371,-0.3739148,-0.32813612,0.05983365,-3.0781875,0.62501365,-0.00057869003,-0.03413259,0.00023568091,0.0035283274,0.0011939899,0.006537058,0.002943189,0.44712055,-1.4688559,2.0075495,-2.1073644,-1.5707587,2.4221687,-0.028699705,0.05190903,-0.067429386,0.0101486975,-0.004043637,-0.03158874,-0.22984336,0.3256114,-9.3661175,0.7866488,47.737934,-0.73544073,-1.7971652,-3.3354506,-0.34667915,-0.152133,-0.077797696,27.25,28.3125,27.375,30.9375,32.75,33.375
0.07205186,-1.1358873,-0.66352284,-0.98358625,-0.037140336,0.054993663,-0.14045884,-0.37398684,-0.32816625,0.059868716,-3.0782235,0.6250022,-0.00047857416,-0.03390268,0.00086409407,0.0014349073,0.0031641682,0.0026506875,0.002495596,0.4471202,-1.4687707,2.0073702,-2.107341,-1.5707711,2.4221568,-0.029606543,0.055930644,-0.06703839,0.010092091,-0.004137118,-0.032047667,-0.22984336,0.30645782,-9.308657,0.8493211,47.72002,-0.7272892,-1.8323209,-3.5095868,-0.34303528,-0.13797142,-0.06883928,27.25,28.3125,27.375,30.9375,32.75,33.375
0.074051805,-0.5279223,-0.34718364,-0.76894265,-0.042201653,0.0687733,-0.14833806,-0.37408584,-0.32818016,0.05989768,-3.0783145,0.6250017,-0.00041880162,-0.035626218,0.00051908445,0.0033479398,0.0026247567,0.006945911,0.0022448918,0.44702423,-1.4686753,2.0072014,-2.107352,-1.5707234,2.422049,-0.02957996,0.054763623,-0.070197865,0.010318412,-0.005510735,-0.0317664,-0.30645782,0.22984336,-9.3661175,0.784413,47.734352,-0.7576932,-1.8112957,-3.4963539,-0.35657644,-0.16404274,-0.071122885,27.25,28.3125,27.375,30.9375,32.75,33.375
0.07605224,-0.5254944,-0.2416528,-0.7985168,-0.042457104,0.066326976,-0.14563553,-0.3741705,-0.32815865,0.059896287,-3.078242,0.62502533,-0.00033748444,-0.0381298,2.4232622e-05,0.0046687187,0.0027277994,0.010098658,0.0011377182,0.4469641,-1.4685428,2.0070565,-2.1073406,-1.5708078,2.422013,-0.02992266,0.056757398,-0.075551234,0.01088202,-0.0069757276,-0.030995721,-0.30645782,0.19153613,-9.32781,0.75755644,47.67345,-0.759942,-1.7037177,-3.2008395,-0.33118692,-0.16556364,-0.06857692,27.25,28.3125,27.375,30.9375,32.75,33.375
0.078052185,-0.8327011,-0.018990697,-0.7231922,-0.030827494,0.06350151,-0.15320244,-0.37420383,-0.32816625,0.059897963,-3.0782678,0.6250116,-0.00041523526,-0.03797073,0.0010100135,0.0027346665,0.005455406,0.007324888,0.0011867085,0.44691584,-1.4684699,2.0069616,-2.107293,-1.5707601,2.421953,-0.03077422,0.059980813,-0.07453764,0.010330665,-0.008236661,-0.03189352,-0.3256114,0.17238252,-9.270349,0.8493211,47.73256,-0.7982669,-1.7404453,-3.4666104,-0.3191758,-0.13245592,-0.07807614,27.25,28.3125,27.375,30.9375,32.75,33.375
0.080052,-1.1438477,-0.13488166,-0.84723854,-0.021663647,0.06178803,-0.1449031,-0.3742732,-0.32814163,0.059883244,-3.0781798,0.62501264,-0.00040586194,-0.039614096,0.0005089157,0.002773079,0.005692488,0.007447174,0.0011954164,0.44685566,-1.4683248,2.0068276,-2.1072567,-1.5708326,2.4219048,-0.031131135,0.063601695,-0.078744985,0.010907376,-0.008512386,-0.032255296,-0.28730422,0.15322891,-9.2703495,0.779936,47.707485,-0.80512047,-1.8953066,-3.2356882,-0.30976313,-0.13188422,-0.055402458,27.25,28.3125,27.375,30.9375,32.75,33.375
0.0820523,-1.1114277,-0.40141612,-0.8677422,-0.017020542,0.065256126,-0.14458942,-0.37438077,-0.3281807,0.059934407,-3.078284,0.6249758,-0.00030365057,-0.041332774,0.00049046386,0.00492848,0.0047182404,0.011851238,0.00038770188,0.44680735,-1.4682178,2.0065873,-2.1072323,-1.5707968,2.4218204,-0.03194782,0.061367318,-0.08133435,0.011342893,-0.009537522,-0.03226217,-0.40222588,0.22984336,-9.308657,0.800085,47.72002,-0.8722565,-1.6833966,-3.1913872,-0.33058798,-0.12798315,-0.079021186,27.25,28.3125,27.375,30.9375,32.75,33.375
0.084052086,-1.0763528,0.06980719,-1.0551662,-0.029908117,0.06926836,-0.15296964,-0.37447295,-0.3281633,0.059950147,-3.0782545,0.625104,-0.00028036514,-0.041690875,0.0007427137,0.0033115523,0.006540121,0.008993398,0.001111868,0.44669917,-1.4681084,2.00642,-2.1071842,-1.5708088,2.421796,-0.032459095,0.06583109,-0.08257205,0.011480999,-0.009947699,-0.033495523,-0.4405331,0.22984336,-9.346964,0.7866488,47.72271,-0.826064,-1.7414294,-3.2285552,-0.33858663,-0.11446455,-0.05745458,27.25,28.3125,27.375,30.9375,32.75,33.375
0.08605229,-0.8838653,-0.18288843,-1.0064584,-0.03781643,0.073183656,-0.14368933,-0.37455553,-0.32817072,0.05994889,-3.0782487,0.6250264,-0.00023088351,-0.043544527,0.00041406247,0.004043866,0.0052945856,0.009708641,-0.0002579517,0.44666278,-1.4679519,2.0062506,-2.1071837,-1.570845,2.4217122,-0.034059826,0.067718334,-0.08653896,0.012373015,-0.009139197,-0.03372572,-0.38307226,0.24899697,-9.3661175,0.7217513,47.71823,-0.87404144,-1.8601818,-3.1422777,-0.33154127,-0.119524136,-0.06456452,27.25,28.3125,27.375,30.9375,32.75,33.375
0.088052146,-0.9455259,-0.8330304,-0.959351,-0.04276108,0.07029126,-0.13885774,-0.374621,-0.32816175,0.05993023,-3.0782287,0.62506264,-0.00028959624,-0.043007813,0.0011779699,0.0023276971,0.00648882,0.0058738627,-0.0030481934,0.44657817,-1.4678074,2.006132,-2.1071723,-1.5708326,2.4216528,-0.035393234,0.070134126,-0.08535708,0.012747848,-0.0085568065,-0.03227013,-0.45968673,0.2681506,-9.385271,0.8023209,47.701214,-0.7585014,-1.812326,-3.3166642,-0.33230782,-0.13179052,-0.08863163,27.25,28.3125,27.375,30.9375,32.75,33.375
0.090052076,-1.1865075,-0.6905243,-0.98101276,-0.062987715,0.063584715,-0.138453,-0.37471086,-0.3281582,0.05993473,-3.0782113,0.6250202,-0.00028143235,-0.043963976,0.0006341535,0.0025823307,0.006149539,0.006288844,-0.0028092442,0.4465062,-1.4676511,2.0059388,-2.107124,-1.5708565,2.4215567,-0.035310164,0.07195583,-0.08802916,0.013075563,-0.008435174,-0.03242439,-0.47884035,0.21068975,-9.461885,0.7620334,47.693153,-0.78165066,-1.8499079,-3.3744574,-0.31009454,-0.1471352,-0.10061199,27.25,28.3125,27.375,30.9375,32.75,33.375
0.0920517,-1.05816,-1.1864525,-0.92278993,-0.055435684,0.06448216,-0.1436753,-0.3748296,-0.32817698,0.059958514,-3.0782332,0.6249847,-0.00015813408,-0.045058217,3.5506993e-05,0.0027549742,0.0061272806,0.006841662,-0.0010499437,0.44645846,-1.4674826,2.005699,-2.107124,-1.5708927,2.4214842,-0.035015676,0.07428631,-0.09103715,0.013243512,-0.008657946,-0.0338873,-0.36391866,0.24899697,-9.3661175,0.7709874,47.68062,-0.85094,-1.8680844,-3.112766,-0.31454813,-0.13687514,-0.09662406,27.25,28.3125,27.375,30.9375,32.75,33.375
0.09405253,-0.6937213,-0.362885,-1.024935,-0.06109234,0.06489731,-0.14873877,-0.37489644,-0.32816845,0.059954733,-3.0782204,0.62502205,-0.00020054542,-0.046314012,0.0005509224,0.0025791165,0.006683059,0.006912186,-0.0027790472,0.44637385,-1.4673622,2.0055668,-2.1070879,-1.5708808,2.4214246,-0.036746807,0.07613355,-0.092665024,0.01320209,-0.009193811,-0.03388684,-0.24899697,0.28730422,-9.3661175,0.7172743,47.709274,-0.8628038,-1.8612642,-3.2260218,-0.3071984,-0.14541337,-0.09794095,27.25,28.3125,27.375,30.9375,32.75,33.375
0.09605179,-0.6533717,-0.44836205,-1.0546153,-0.037559405,0.053129353,-0.14802065,-0.37502328,-0.32816923,0.05998483,-3.0782192,0.62504196,-3.9389255e-05,-0.04792021,0.00086091965,0.0024974474,0.007391372,0.0071142484,-0.0046072146,0.4463012,-1.4672177,2.005339,-2.1070879,-1.5709409,2.4213648,-0.03827556,0.07878745,-0.095468916,0.0134756155,-0.009922119,-0.033584874,-0.22984336,0.2681506,-9.461885,0.7709874,47.716442,-0.7779144,-1.868068,-3.1642642,-0.29426312,-0.12595166,-0.1206824,27.25,28.3125,27.375,30.9375,32.75,33.375
0.09805167,-0.42507446,-0.43549693,-1.0576502,-0.03544238,0.050828457,-0.14115928,-0.37509763,-0.3281558,0.059964653,-3.0781734,0.62510943,-0.00016637701,-0.04910156,0.0011756909,0.002504026,0.007984469,0.007753825,-0.005451962,0.4461929,-1.4670374,2.0051706,-2.1070163,-1.5709175,2.4213045,-0.03936884,0.0803307,-0.09715602,0.013301037,-0.010739706,-0.033829756,-0.24899697,0.2681506,-9.385271,0.7732232,47.713753,-0.8219764,-1.8880398,-3.254632,-0.28689075,-0.112320125,-0.14435661,27.25,28.3125,27.375,30.9375,32.75,33.375
0.10005251,-0.57215655,-0.64529234,-0.95225745,-0.029713882,0.044871405,-0.14739309,-0.3752026,-0.3281781,0.059981275,-3.0782125,0.6250402,-5.3257903e-05,-0.050389495,0.0019574293,0.0023029556,0.009179141,0.007468442,-0.0068307,0.44615623,-1.4668808,2.0049655,-2.1070402,-1.5709418,2.4212198,-0.041343614,0.08229724,-0.09902473,0.01397815,-0.011694377,-0.034423612,-0.22984336,0.30645782,-9.232041,0.800085,47.71465,-0.70683765,-1.8826345,-3.1409154,-0.27576435,-0.101903,-0.14212434,27.25,28.3125,27.375,30.9375,32.75,33.375
0.102052286,-0.40280628,-0.5787562,-1.043268,-0.0333647,0.04834197,-0.14221844,-0.37529442,-0.32815814,0.059966575,-3.0781336,0.62510127,-9.5338706e-05,-0.05144571,0.0013920199,0.0031274583,0.008570067,0.009506295,-0.0063819927,0.4460602,-1.4666889,2.0047743,-2.10698,-1.570978,2.4211721,-0.040995542,0.082727924,-0.10135777,0.013778116,-0.012031345,-0.034521423,-0.22984336,0.3256114,-9.251195,0.81351066,47.70838,-0.708035,-1.8441112,-3.1719136,-0.25221765,-0.08203508,-0.1597271,27.25,28.3125,27.375,30.9375,32.75,33.375
0.10405203,-0.13236095,-0.15346926,-0.8634992,-0.05070292,0.056737274,-0.14772548,-0.37542716,-0.3281669,0.060005892,-3.0781536,0.62510407,6.823704e-05,-0.051466435,0.00097802,0.0014918004,0.00992037,0.00582171,-0.0054053557,0.44598854,-1.4665437,2.0045216,-2.1069677,-1.5710253,2.4211,-0.040476464,0.08780145,-0.10340402,0.014653432,-0.011659092,-0.034979057,-0.21068975,0.24899697,-9.346964,0.75084364,47.704796,-0.8358865,-1.9841182,-3.1567574,-0.2663679,-0.098022364,-0.16281071,27.25,28.3125,27.375,30.9375,32.75,33.375
0.1060519,-0.78780466,-0.7037489,-0.9363684,-0.050842542,0.04289121,-0.14550997,-0.37550485,-0.32818285,0.059991676,-3.078168,0.62504995,-5.0261442e-05,-0.052397072,0.0012401153,0.00274613,0.008401535,0.007642411,-0.006373722,0.44591603,-1.4663407,2.004317,-2.106908,-1.5709776,2.420992,-0.04218615,0.08588061,-0.10429996,0.015170902,-0.011077007,-0.035720743,-0.15322891,0.2681506,-9.289502,0.78217715,47.74062,-0.79865676,-1.8890247,-3.2646613,-0.2449946,-0.10205109,-0.1830156,27.25,28.3125,27.375,30.9375,32.75,33.375
0.10805178,-0.4414385,-0.9163945,-1.1084226,-0.045590956,0.04456696,-0.1419039,-0.37562636,-0.3281603,0.060008,-3.078121,0.6251941,3.5881825e-05,-0.052975472,0.0010425994,0.0018588117,0.008604206,0.00506488,-0.0062503163,0.44579586,-1.4661956,2.0041144,-2.1068838,-1.5710248,2.4209678,-0.042946663,0.08960898,-0.106608555,0.016157351,-0.01014989,-0.03660508,-0.095768064,0.19153613,-9.270349,0.75084364,47.74868,-0.70867157,-1.8663535,-3.2028265,-0.2676169,-0.08189689,-0.2133654,27.25,28.3125,27.375,30.9375,32.75,33.375
0.1100525,-0.6369054,-0.7258933,-0.8150082,-0.04745082,0.039536703,-0.13862237,-0.3757556,-0.32818365,0.060012825,-3.0781329,0.62509996,0.00011401148,-0.053267304,0.0013111865,0.0011969291,0.009111104,0.003719816,-0.0066888346,0.44574738,-1.4659553,2.0038388,-2.1068838,-1.571061,2.4208593,-0.04378178,0.09140531,-0.107124634,0.016306832,-0.010026914,-0.037001755,-0.17238252,0.21068975,-9.232041,0.779936,47.704796,-0.73611355,-2.0130353,-3.2901504,-0.25591725,-0.10846913,-0.20525911,27.25,28.3125,27.375,30.9375,32.75,33.375
0.1120524,-0.15037271,-0.7623443,-0.66259664,-0.040655293,0.051604744,-0.15006612,-0.37585336,-0.32817084,0.06002115,-3.0781121,0.6252106,8.698214e-05,-0.053631887,0.0015983597,0.0005304112,0.010765808,0.002456273,-0.005201601,0.44562745,-1.4658107,2.0036466,-2.1068237,-1.5710496,2.4208112,-0.043991406,0.09377752,-0.10839381,0.01705894,-0.010977508,-0.038695887,-0.095768064,0.2681506,-9.270349,0.800085,47.744205,-0.8170742,-1.9203331,-3.3084617,-0.2518408,-0.10210456,-0.21411762,27.25,28.3125,27.375,30.9375,32.75,33.375
0.1140525,-0.20423292,-0.060234126,-0.8145624,-0.03095162,0.04653719,-0.15098318,-0.37595963,-0.32816637,0.06000521,-3.0780966,0.62516767,6.749309e-05,-0.054630768,0.0012733053,0.00062003307,0.010064912,0.0031037626,-0.0040388783,0.44553122,-1.4655948,2.0034425,-2.1068113,-1.5710615,2.4206903,-0.044499714,0.09529689,-0.110141926,0.016397715,-0.010631052,-0.040365867,-0.17238252,0.19153613,-9.174581,0.7396539,47.752266,-0.8233186,-1.9180719,-3.3467376,-0.22772397,-0.08868658,-0.22395201,27.25,28.3125,27.375,30.9375,32.75,33.375
0.11605188,-0.29107696,0.41470757,-0.63376117,-0.026712349,0.046015974,-0.15044463,-0.37607822,-0.32816792,0.060033444,-3.0780923,0.62518615,0.0001883144,-0.056920912,0.00042161977,0.0016506187,0.008464228,0.0056127077,-0.005069301,0.44545907,-1.4654502,2.0032132,-2.1067874,-1.5711087,2.4206305,-0.045190793,0.09739616,-0.11471977,0.015918767,-0.010275966,-0.040024657,-0.1340753,0.17238252,-9.289503,0.7486078,47.72719,-0.83443016,-2.008508,-3.2240927,-0.20372713,-0.094624735,-0.22779578,27.25,28.3125,27.375,30.9375,32.75,33.375
0.11805164,-0.27546036,-0.03438086,-0.8750549,-0.016533148,0.044840444,-0.14747581,-0.37618122,-0.32818106,0.060028564,-3.0780954,0.6251872,0.00013313536,-0.055715024,0.0010911745,-0.00018028879,0.010607601,0.001722793,-0.0059387684,0.445375,-1.465234,2.0029752,-2.1067398,-1.5710853,2.4205468,-0.04517271,0.0993775,-0.112864874,0.016517872,-0.010529843,-0.03913738,-0.1340753,0.19153613,-9.32781,0.73069996,47.71554,-0.8867823,-1.8624322,-3.376781,-0.19624647,-0.10866766,-0.25888225,27.25,28.3125,27.375,30.9375,32.75,33.375
0.12005249,-0.2441984,0.014480832,-0.90560657,-0.022732742,0.037451148,-0.14071843,-0.3762909,-0.32817623,0.060030513,-3.0780687,0.6252187,0.00018370575,-0.057128973,-2.6520586e-06,0.00096938736,0.008864884,0.0036974372,-0.0038033205,0.44529122,-1.465054,2.0027697,-2.1067278,-1.5711211,2.4204862,-0.04486199,0.100335225,-0.1166345,0.016791126,-0.009815257,-0.040961266,-0.05746084,0.21068975,-9.212888,0.78217715,47.71554,-0.9505478,-1.9567995,-3.2787836,-0.17791393,-0.107332245,-0.27623874,27.25,28.3125,27.375,30.9375,32.75,33.375
0.12205236,-0.67969847,-0.14817043,-0.8591505,-0.036003657,0.02789424,-0.13911024,-0.37641576,-0.32817835,0.060046922,-3.0780678,0.62525725,0.00019686925,-0.05734798,0.00048071484,0.0006350393,0.009640724,0.0024019224,-0.004121536,0.4451827,-1.4648618,2.0025065,-2.1066678,-1.5711211,2.420402,-0.045849163,0.101344846,-0.11725305,0.017902475,-0.009956206,-0.04162991,-0.095768064,0.17238252,-9.289502,0.78888994,47.716442,-0.9979705,-1.9081162,-3.4510722,-0.17777273,-0.104879394,-0.30063275,27.25,28.3125,27.375,30.9375,32.75,33.375
0.12405215,-0.40214422,-0.74311256,-0.9451485,-0.033095695,0.031231748,-0.1408429,-0.37654167,-0.32816806,0.06003171,-3.0780218,0.625228,0.00018392155,-0.058106527,0.0010249869,-0.00028767082,0.011538338,0.0006162794,-0.0032484694,0.44507447,-1.4646089,2.0022542,-2.106631,-1.5711573,2.4202816,-0.04689344,0.10468476,-0.11904658,0.018784393,-0.010904422,-0.043543886,-0.038307227,0.17238252,-9.251195,0.7866488,47.71554,-0.904284,-2.0580487,-3.478073,-0.15089728,-0.09778169,-0.3005649,27.25,28.3125,27.375,30.9375,32.75,33.375
0.12605236,-0.5791869,-0.34630603,-1.152488,-0.040299963,0.019389397,-0.13203563,-0.3766785,-0.32816368,0.060051344,-3.0780084,0.62526274,0.00026322057,-0.059071478,-0.00042936584,0.0020721557,0.009660676,0.0047221472,-0.0021643778,0.4449672,-1.464418,2.0019906,-2.1065948,-1.5711931,2.420198,-0.04496345,0.10279753,-0.122602254,0.019711208,-0.01098096,-0.042696763,-0.038307227,0.11492168,-9.32781,0.73069996,47.7451,-1.0650047,-1.7580363,-3.4779274,-0.17178345,-0.09667413,-0.31614423,27.25,28.3125,27.375,30.9375,32.75,33.375
0.12805237,-0.121863276,-0.069227226,-0.95281214,-0.039679997,0.032091595,-0.13951999,-0.37677112,-0.32817143,0.060044087,-3.07799,0.62525976,0.0002556324,-0.05821406,0.0006057344,-0.0013333901,0.013034737,-0.0021726466,-0.0050001894,0.4449067,-1.4642242,2.001788,-2.106571,-1.5712055,2.4201381,-0.046070505,0.10879113,-0.12158003,0.020371381,-0.011055659,-0.040967584,-0.076614454,0.17238252,-9.385271,0.8851263,47.70838,-1.1303791,-1.9573448,-3.5261662,-0.16049427,-0.09152973,-0.39479718,27.25,28.3125,27.375,30.9375,32.75,33.375
0.13005254,-0.5714175,-0.7158779,-1.0180813,-0.023478195,0.02928644,-0.13445754,-0.3768676,-0.32816225,0.06001801,-3.0779293,0.62526613,0.00016425895,-0.06075596,-0.00052076846,0.0014201218,0.0099192085,0.0031752156,-0.0036672894,0.4448107,-1.4639853,2.0015705,-2.1065109,-1.5712174,2.420054,-0.04656096,0.10753163,-0.12653427,0.020412488,-0.010559642,-0.042788323,-0.15322891,0.15322891,-9.423578,0.81351066,47.723602,-1.1330814,-1.773824,-3.3729067,-0.14474812,-0.07943687,-0.39064443,27.25,28.3125,27.375,30.9375,32.75,33.375
0.13205244,-0.10924064,-0.15969132,-0.97315234,-0.03440605,0.042544145,-0.15031125,-0.37699732,-0.32817718,0.060027327,-3.077915,0.6252436,0.00018653997,-0.06233779,-0.00033431375,0.0012728304,0.0100155,0.0031420332,-0.0032107555,0.44473806,-1.4637446,2.00127,-2.1064513,-1.5712413,2.4199693,-0.048259187,0.11025246,-0.12923422,0.020459972,-0.010638879,-0.04494099,-0.11492168,0.2681506,-9.385271,0.80456203,47.68599,-1.1308059,-1.8237407,-3.3817754,-0.13230997,-0.091590986,-0.40062058,27.25,28.3125,27.375,30.9375,32.75,33.375
0.13405232,0.0073256907,-0.4058818,-1.1520303,-0.036307827,0.052510582,-0.14303175,-0.37711906,-0.32817793,0.060041565,-3.0779405,0.62519014,0.00021523976,-0.062783316,-0.00040244148,0.0010144159,0.010922724,0.0024527162,-0.0017009235,0.44463,-1.4635644,2.0010302,-2.106415,-1.5712413,2.4198248,-0.048158236,0.11217869,-0.13097496,0.021286769,-0.0111628715,-0.0463481,-0.21068975,0.30645782,-9.442732,0.800085,47.70659,-1.1126213,-1.8176521,-3.393446,-0.1248429,-0.09863053,-0.4202755,27.25,28.3125,27.375,30.9375,32.75,33.375
0.13605243,-0.91638255,-1.3161571,-1.4577532,-0.040399455,0.040892143,-0.13474363,-0.37724537,-0.32816812,0.06004201,-3.0778737,0.6252323,0.000188291,-0.063418634,-0.001088637,0.0015853005,0.009945803,0.0025972852,0.0002271012,0.44452226,-1.4633245,2.0007427,-2.1063192,-1.571277,2.4197521,-0.04797047,0.11307928,-0.13355996,0.022413481,-0.010349224,-0.048088077,-0.19153613,0.3256114,-9.519346,0.800085,47.707485,-1.267207,-1.775114,-3.3661294,-0.12699293,-0.093422696,-0.43585873,27.25,28.3125,27.375,30.9375,32.75,33.375
0.13805225,-1.4987797,-1.3966146,-1.5053533,-0.057995778,0.04321674,-0.13612631,-0.37737185,-0.32817084,0.0600416,-3.0778418,0.6252061,0.00020415253,-0.063974395,-0.00077761296,0.001582824,0.009960229,0.0014611512,0.00092255505,0.44443774,-1.4630847,2.0004675,-2.10627,-1.5713128,2.4196556,-0.049349714,0.114090346,-0.13503687,0.023905389,-0.009875253,-0.050162986,-0.15322891,0.38307226,-9.5385,0.8717007,47.69763,-1.2190095,-1.7190036,-3.4216843,-0.12939307,-0.10527815,-0.44167566,27.25,28.3125,27.375,30.9375,32.75,33.375
0.14005202,-1.3121158,-1.5770133,-1.5357506,-0.06619891,0.052278973,-0.13539523,-0.37751296,-0.32816523,0.06005035,-3.0778222,0.6252778,0.0002573676,-0.064848706,-0.0003276786,0.0015621615,0.011130906,0.0011729362,0.002742522,0.44431734,-1.4628685,2.0002034,-2.1062462,-1.5713376,2.4195826,-0.05032161,0.11559825,-0.1369416,0.025064373,-0.010810093,-0.05295235,-0.21068975,0.40222588,-9.634268,0.88289046,47.686886,-1.1827149,-1.6921816,-3.367539,-0.13266695,-0.10487999,-0.41902882,27.25,28.3125,27.375,30.9375,32.75,33.375
0.14205201,-0.77705795,-1.5751759,-1.5994532,-0.07596819,0.069588326,-0.13983783,-0.37762535,-0.3281723,0.06004067,-3.077797,0.6252704,0.00016902354,-0.0655114,-0.00042657793,0.001110237,0.011460396,-0.00017276675,0.004963912,0.4442213,-1.4626162,1.9999279,-2.1061623,-1.5713252,2.4194853,-0.050894845,0.11824141,-0.13903758,0.025870323,-0.010536805,-0.055745494,-0.22984336,0.45968673,-9.615114,0.80679786,47.682407,-1.2052354,-1.7066283,-3.376444,-0.15220231,-0.101630315,-0.41710335,27.25,28.3125,27.375,30.9375,32.75,33.375
0.14405182,-1.5045567,-1.4608006,-1.4681699,-0.079002045,0.0632856,-0.14343074,-0.37776804,-0.32817617,0.06005869,-3.0778017,0.62521225,0.00024780034,-0.066588186,-0.0004920088,0.00075650617,0.011498866,-0.00062116084,0.007951467,0.44412494,-1.4623998,1.9996394,-2.106126,-1.5713614,2.4193523,-0.051817134,0.12090056,-0.14116137,0.025749568,-0.010383861,-0.059654366,-0.2681506,0.3256114,-9.595961,0.89631605,47.678825,-1.154879,-1.6469643,-3.4251778,-0.13376933,-0.09880726,-0.39812386,27.25,28.3125,27.375,30.9375,32.75,33.375
0.14605229,-1.0242926,-0.7545427,-1.5357084,-0.08039132,0.07824146,-0.14487983,-0.37791196,-0.32816792,0.060071275,-3.0777805,0.62528324,0.00023256202,-0.06782128,-0.00018168915,0.001028432,0.011358143,0.00044929908,0.010498901,0.44398046,-1.4621717,1.9993395,-2.1060426,-1.5713614,2.419255,-0.053243194,0.12168432,-0.14258757,0.025361344,-0.01072378,-0.06362608,-0.28730422,0.22984336,-9.710882,0.8672237,47.70659,-1.2114947,-1.6727166,-3.4326935,-0.1383861,-0.092849836,-0.34030446,27.25,28.3125,27.375,30.9375,32.75,33.375
0.14805214,-1.2338191,-0.7908813,-1.3629953,-0.065967485,0.070654996,-0.1463211,-0.37803122,-0.32819727,0.060052417,-3.0778039,0.6250368,0.00023742352,-0.06942354,-0.00060714816,0.00018563855,0.011714833,-0.0010320412,0.012989816,0.44394413,-1.4618825,1.9990629,-2.1060421,-1.5713848,2.4190621,-0.05407201,0.12703735,-0.1466522,0.025558108,-0.010420385,-0.06694317,-0.28730422,0.24899697,-9.653421,0.83813137,47.7254,-1.2489228,-1.6638346,-3.2749786,-0.11711857,-0.121271506,-0.32026008,27.25,28.3125,27.375,30.9375,32.75,33.375
0.1500519,-1.1112151,-0.63615197,-1.3198943,-0.067273736,0.062769674,-0.15041764,-0.37817377,-0.32818398,0.060060065,-3.0777872,0.6250316,0.00023092951,-0.07049525,-0.00031237432,2.3075572e-05,0.01155615,-0.0012595172,0.014516584,0.4437996,-1.4616542,1.9987768,-2.1059706,-1.5713967,2.4189167,-0.055709235,0.1287102,-0.14814574,0.02551025,-0.010185971,-0.07010639,-0.28730422,0.3256114,-9.461885,0.80456203,47.71554,-1.2587001,-1.7495419,-3.4608822,-0.105765864,-0.1246371,-0.27112973,27.25,28.3125,27.375,30.9375,32.75,33.375
0.15205199,-1.2315503,-0.5693762,-1.2395954,-0.04939977,0.05692928,-0.14076754,-0.37834236,-0.32817844,0.060073163,-3.0777645,0.6250455,0.00034653262,-0.07145575,0.00030003,-0.00017654631,0.012068026,-0.0016809375,0.015727386,0.443679,-1.4614022,1.9984654,-2.1059582,-1.5714573,2.418808,-0.05749204,0.13013262,-0.14938512,0.025920399,-0.010467807,-0.07309917,-0.34476504,0.28730422,-9.461885,0.8403672,47.705692,-1.2180827,-1.796066,-3.3972945,-0.096887946,-0.10184531,-0.23937598,27.25,28.3125,27.375,30.9375,32.75,33.375
0.15405254,-0.40783978,0.0017714232,-1.0198457,-0.04560272,0.06811134,-0.15795262,-0.3784882,-0.3281928,0.060078025,-3.0777853,0.62493354,0.00037108126,-0.07252763,-0.0004557934,-9.8396056e-05,0.010936516,-0.0018544528,0.016935794,0.44358298,-1.4611377,1.9981536,-2.1059225,-1.5714687,2.4186397,-0.05774397,0.13262238,-0.15239312,0.026102642,-0.009377735,-0.074559666,-0.3256114,0.19153613,-9.442732,0.78888994,47.691364,-1.2072992,-1.7212491,-3.431889,-0.070009895,-0.12520295,-0.19889617,27.25,28.3125,27.375,30.9375,32.75,33.375
0.15605249,-1.1583303,0.15245968,-0.87014157,-0.044885095,0.049022213,-0.14239278,-0.378651,-0.32820615,0.060096785,-3.0778112,0.62488097,0.00040210361,-0.074753575,-0.00062971713,0.00091184024,0.010893895,0.0005294245,0.016925754,0.4434627,-1.4608736,1.997805,-2.1058629,-1.5714692,2.4184835,-0.05870965,0.13434495,-0.15675129,0.02656826,-0.010369601,-0.07551109,-0.40222588,0.17238252,-9.289503,0.8560339,47.749577,-1.238385,-1.723252,-3.3640041,-0.07054928,-0.12883024,-0.15999727,27.25,28.3125,27.375,30.9375,32.75,33.375
0.15805225,-0.7177965,0.39902353,-0.856772,-0.02987037,0.061520226,-0.1444374,-0.3788029,-0.32821238,0.0601031,-3.0778153,0.62490124,0.000384553,-0.07396802,0.00035521554,-0.0019118338,0.013479779,-0.0055460115,0.015337758,0.4433302,-1.4606082,1.9974831,-2.1058023,-1.5714568,2.4183633,-0.06000077,0.13905802,-0.15572868,0.027428845,-0.0100960815,-0.07521483,-0.4213795,0.15322891,-9.308657,0.74413085,47.694946,-1.2317196,-1.899457,-3.3638935,-0.058789127,-0.12246807,-0.14343807,27.25,28.3125,27.375,30.9375,32.75,33.375
0.16005227,-1.1164457,0.18019766,-0.8766242,-0.015328986,0.054432657,-0.13689922,-0.37896279,-0.32819015,0.06010251,-3.077774,0.6248364,0.00042748367,-0.07547504,-0.00011304899,-0.00056807406,0.011549302,-0.0035650511,0.013350142,0.44318587,-1.4603449,1.9971823,-2.1057546,-1.5715164,2.418184,-0.061031904,0.1388975,-0.15880354,0.028038703,-0.009208673,-0.0742584,-0.38307226,0.17238252,-9.270349,0.8403672,47.74331,-1.2785702,-1.8774543,-3.2917457,-0.05559827,-0.122258276,-0.12049557,27.25,28.3125,27.375,30.9375,32.75,33.375
0.1620522,-1.1102656,0.3206767,-0.7652005,-0.023296516,0.060646944,-0.14768697,-0.37908474,-0.32821393,0.06009948,-3.0777981,0.6246893,0.00038407493,-0.07597134,0.0003275664,-0.0015792329,0.013618263,-0.0054422384,0.009952471,0.4431136,-1.4600801,1.9968823,-2.105694,-1.571505,2.4180171,-0.061559383,0.14216447,-0.16033223,0.028890299,-0.010275562,-0.07138485,-0.4213795,0.038307227,-9.212888,0.8537928,47.679718,-1.2105105,-1.9390597,-3.396681,-0.050456554,-0.14374226,-0.13659303,27.25,28.3125,27.375,30.9375,32.75,33.375
0.16405241,-0.9110275,0.29258627,-0.50563186,-0.023240061,0.06824515,-0.14912264,-0.37926868,-0.32821792,0.06010895,-3.077787,0.6247073,0.00046151277,-0.077162474,0.00086728594,-0.0016718275,0.014749043,-0.0056963745,0.008049578,0.4429812,-1.45978,1.9965228,-2.1056697,-1.5715412,2.4178977,-0.06297853,0.14415193,-0.16258383,0.029868674,-0.011189585,-0.07089849,-0.3256114,0.095768064,-9.193734,0.8717007,47.71554,-1.1962082,-1.9341179,-3.4373932,-0.038794886,-0.14433324,-0.13121526,27.25,28.3125,27.375,30.9375,32.75,33.375
0.1660523,-1.4393971,-0.08680529,-0.5857657,-0.01559353,0.05168576,-0.13573433,-0.37942976,-0.3281938,0.060107753,-3.0777345,0.62477636,0.00041376866,-0.07832805,0.0006432025,-0.0012815138,0.013812248,-0.005701097,0.0010624289,0.44280082,-1.4595044,1.9961985,-2.1055744,-1.5715536,2.4177673,-0.064123586,0.1456125,-0.16533828,0.03076557,-0.01034777,-0.06505598,-0.4213795,0.19153613,-9.155427,0.80456203,47.72271,-1.1943419,-1.8410242,-3.317091,-0.039809465,-0.13798082,-0.18175466,27.25,28.3125,27.375,30.9375,32.75,33.375
0.16805209,-0.9773756,0.23364116,-0.57241243,-0.020742647,0.057883576,-0.13831335,-0.3795967,-0.3281963,0.060108114,-3.077712,0.62481153,0.0004742765,-0.07964436,0.0008364683,-0.00079019263,0.0141659295,-0.004685069,-0.0025852602,0.4426806,-1.4592162,1.9958757,-2.1055615,-1.5715894,2.4176722,-0.06511336,0.14666669,-0.16782269,0.031431265,-0.011105183,-0.06239552,-0.34476504,0.1340753,-9.174581,0.75755644,47.744205,-1.1919729,-1.8637247,-3.30204,-0.033382446,-0.13340363,-0.23677278,27.25,28.3125,27.375,30.9375,32.75,33.375
0.17005198,-0.87164587,-0.03477972,-0.39403474,-0.012393682,0.053160693,-0.14635982,-0.37976375,-0.32822004,0.06013573,-3.0777638,0.624765,0.0004968136,-0.0806148,0.0012221186,-0.0007007579,0.014573689,-0.0046197777,-0.0029487684,0.4425601,-1.4589524,1.9955038,-2.10549,-1.5715655,2.4175162,-0.066392645,0.14780837,-0.16947111,0.03205435,-0.011503051,-0.06331008,-0.34476504,0.019153614,-9.174581,0.8806493,47.7254,-1.1199123,-1.8282475,-3.3758554,-0.0320031,-0.14925544,-0.22872087,27.25,28.3125,27.375,30.9375,32.75,33.375
0.17205195,-1.0961176,0.17395306,-0.65575826,-0.009312234,0.034561403,-0.14470315,-0.37993345,-0.32821742,0.06013159,-3.0777209,0.6247952,0.0005130934,-0.08065648,0.0014087231,-0.001015856,0.015172989,-0.005761602,-0.0049346937,0.44242796,-1.4586406,1.9951566,-2.1054413,-1.5716013,2.4174087,-0.06670433,0.14878738,-0.1700895,0.03298048,-0.0115565825,-0.06163542,-0.36391866,0.11492168,-9.059659,0.83589023,47.749577,-1.1979394,-1.7681055,-3.3991914,-0.056012493,-0.16830014,-0.25165033,27.25,28.3125,27.375,30.9375,32.75,33.375
0.17405207,-0.60943884,0.2538264,-0.65417475,-0.009572289,0.04249507,-0.14953966,-0.38006574,-0.3281916,0.0600923,-3.0776198,0.62473834,0.00040789202,-0.08275263,0.0026415808,-0.0004001724,0.0152208805,-0.0050717504,-0.009657035,0.44229463,-1.4583172,1.9948691,-2.1053574,-1.5716499,2.417253,-0.07059897,0.14948477,-0.17259133,0.034179673,-0.011906267,-0.06080451,-0.4405331,0.22984336,-9.097966,0.8537928,47.757637,-0.9783072,-1.6669183,-3.3499885,-0.040065102,-0.13981315,-0.30665553,27.25,28.3125,27.375,30.9375,32.75,33.375
0.17605214,-0.7674026,-0.07272013,-0.6682356,-0.017087096,0.044775546,-0.13989565,-0.38024107,-0.3281922,0.0600947,-3.0775752,0.6247454,0.00040973065,-0.08280803,0.0014424071,-9.013391e-05,0.01523993,-0.005688822,-0.0053474074,0.44216338,-1.4579929,1.9944848,-2.105273,-1.5716852,2.4171321,-0.068535596,0.15126033,-0.17576183,0.036133405,-0.01166591,-0.06304948,-0.30645782,0.21068975,-9.097966,0.83589023,47.713753,-1.1168535,-1.7846174,-3.3270838,-0.032733265,-0.13534203,-0.30075306,27.25,28.3125,27.375,30.9375,32.75,33.375
0.1780522,-0.8659064,-0.09275046,-0.63787013,-0.021971002,0.04607979,-0.14994965,-0.3803962,-0.3282055,0.060113497,-3.0775793,0.6247657,0.0003946575,-0.08366945,0.0026930515,-0.0008857687,0.016837716,-0.008208465,-0.006652833,0.44204253,-1.4577283,1.9941262,-2.1051762,-1.5716738,2.4170237,-0.07134942,0.15374868,-0.17716414,0.038007326,-0.012033394,-0.06455649,-0.21068975,0.15322891,-9.270349,0.8627467,47.745995,-1.1177312,-1.714701,-3.363689,-0.05768577,-0.16261926,-0.2845871,27.25,28.3125,27.375,30.9375,32.75,33.375
0.18005206,-0.89541256,-0.48895317,-0.93674505,-0.015561497,0.04233542,-0.13576129,-0.38056168,-0.32818905,0.06011365,-3.0775309,0.624739,0.0004088397,-0.08556657,0.0036534115,0.00016018473,0.016040046,-0.0068889325,-0.010488402,0.44189706,-1.4574413,1.993791,-2.1051037,-1.5717219,2.416868,-0.074881695,0.15330444,-0.1793593,0.039107855,-0.011882355,-0.06425241,-0.2681506,0.1340753,-9.32781,0.7709874,47.72271,-0.90900666,-1.560466,-3.3422952,-0.07511561,-0.16583766,-0.32259974,27.25,28.3125,27.375,30.9375,32.75,33.375
0.18205188,-0.71013945,-0.24105506,-1.0726144,-0.026772827,0.037444606,-0.13622701,-0.3807764,-0.32818455,0.06011196,-3.0775032,0.62482864,0.00041823997,-0.08476209,0.0032621282,-0.0006391267,0.01807356,-0.009859847,-0.009255645,0.44170594,-1.4570692,1.9933709,-2.105055,-1.5717338,2.4167366,-0.073006704,0.15575658,-0.18090841,0.041759808,-0.012450157,-0.06360855,-0.22984336,0.095768064,-9.385271,0.7911258,47.734352,-1.0371425,-1.5829885,-3.3586197,-0.10777405,-0.15758386,-0.348189,27.25,28.3125,27.375,30.9375,32.75,33.375
0.18405177,-0.6490595,-0.49341714,-1.1000714,-0.0292712,0.04008586,-0.14036822,-0.38092968,-0.32818195,0.060109444,-3.0774438,0.6248541,0.0003364184,-0.086429976,0.0039375625,0.00022824835,0.017992938,-0.009334973,-0.009284996,0.44157302,-1.4567573,1.9930004,-2.104923,-1.5717458,2.4166274,-0.07559588,0.15623838,-0.18393855,0.043794308,-0.012611942,-0.06616595,-0.2681506,0.19153613,-9.423578,0.8112748,47.72002,-0.9208272,-1.5532327,-3.4019535,-0.13845797,-0.13628389,-0.36086103,27.25,28.3125,27.375,30.9375,32.75,33.375
0.18605195,-0.8775026,-0.6739463,-1.4649876,-0.025672542,0.03886994,-0.13780205,-0.38106844,-0.32814044,0.060063265,-3.0773036,0.62484515,0.00016915824,-0.087360874,0.0038890385,-0.0007730236,0.018255852,-0.010552472,-0.010392693,0.44140476,-1.4564085,1.992689,-2.1047919,-1.5717939,2.4164717,-0.07646862,0.1599156,-0.1855942,0.04297998,-0.0123486165,-0.06592783,-0.19153613,0.21068975,-9.500193,0.83589023,47.698532,-0.90860105,-1.7795886,-3.4269762,-0.15417773,-0.16775492,-0.34617925,27.25,28.3125,27.375,30.9375,32.75,33.375
0.18805265,-1.1835798,-0.9822274,-1.495541,-0.03488152,0.040601723,-0.1412146,-0.38127074,-0.32812706,0.060082994,-3.0772817,0.6248782,0.0002296229,-0.08778769,0.004609105,-0.0020057107,0.020147989,-0.014001759,-0.0104225,0.4412244,-1.4561082,1.9922937,-2.104719,-1.5718297,2.416315,-0.07797623,0.16357139,-0.18733312,0.04498457,-0.012588524,-0.06740442,-0.21068975,0.22984336,-9.519346,0.85826975,47.737934,-0.8592291,-1.6187298,-3.4521503,-0.16354677,-0.16740136,-0.3613574,27.25,28.3125,27.375,30.9375,32.75,33.375
0.19005261,-1.0528369,-0.81755716,-1.5738649,-0.051232465,0.049637187,-0.14244826,-0.38143682,-0.3281177,0.06008337,-3.0772097,0.6248994,0.0002146228,-0.088484205,0.0044355867,-0.0018547488,0.019873668,-0.014550717,-0.0059816563,0.44109204,-1.4557961,1.9919218,-2.1046116,-1.5718778,2.4162054,-0.07854295,0.16497526,-0.18955693,0.046170555,-0.012118321,-0.0724114,-0.21068975,0.1340753,-9.576807,0.8403672,47.723602,-0.85094905,-1.7025295,-3.4266934,-0.21213418,-0.169857,-0.36202124,27.25,28.3125,27.375,30.9375,32.75,33.375
0.19205259,-1.4740896,-0.91830856,-1.6103196,-0.048243124,0.041061696,-0.14007074,-0.3816122,-0.32811263,0.060082193,-3.0771842,0.6249715,0.00012673922,-0.08939765,0.00567218,-0.0031235213,0.0220716,-0.017948883,-0.006307222,0.440911,-1.4554715,1.9915389,-2.1045024,-1.5718535,2.4160728,-0.08123839,0.16885814,-0.19148369,0.048224144,-0.012664997,-0.0747783,-0.21068975,0.1340753,-9.710882,0.82022345,47.70032,-0.670684,-1.8186531,-3.5292192,-0.2566891,-0.15885861,-0.30918753,27.25,28.3125,27.375,30.9375,32.75,33.375
0.1940526,-1.3364762,-0.4210455,-1.4770328,-0.050007164,0.05636665,-0.14428005,-0.3818001,-0.32810977,0.06008076,-3.077167,0.62492645,0.00013377426,-0.08972013,0.004961621,-0.0037242598,0.022110043,-0.018996757,-0.0030128032,0.44075567,-1.455135,1.9911546,-2.1044428,-1.5718778,2.415892,-0.08042153,0.17176425,-0.19338094,0.04817095,-0.012263992,-0.07725522,-0.19153613,0.076614454,-9.634268,0.8224646,47.716442,-0.83211935,-1.9124031,-3.4970255,-0.28851283,-0.18074432,-0.31732807,27.25,28.3125,27.375,30.9375,32.75,33.375
0.19605172,-1.0124538,-0.17972718,-1.3959681,-0.05348869,0.06547392,-0.15049343,-0.3819717,-0.32809186,0.060065035,-3.077079,0.6249461,2.168186e-05,-0.0929128,0.00518221,-0.0029846954,0.02007179,-0.01531171,-0.0017193482,0.44058645,-1.4547751,1.9907578,-2.1042998,-1.5719017,2.4157465,-0.08376397,0.17350407,-0.19639942,0.04523621,-0.01202246,-0.08188778,-0.30645782,0.13407528,-9.634268,0.83589023,47.677036,-0.7252089,-1.9148121,-3.3025374,-0.28368625,-0.18767685,-0.2759572,27.25,28.3125,27.375,30.9375,32.75,33.375
0.19805259,-1.1379902,-0.5140748,-1.4448781,-0.044021033,0.06317084,-0.14888443,-0.38215613,-0.3280743,0.060050506,-3.07704,0.62489545,-1.8763465e-05,-0.093086995,0.0040443493,-0.0028196652,0.020048002,-0.015048653,0.0048742644,0.440407,-1.4544271,1.9903878,-2.1042283,-1.571926,2.4155407,-0.08167789,0.17517056,-0.19879574,0.04570805,-0.012129956,-0.08639307,-0.30645782,0.22984336,-9.634268,0.7553206,47.691364,-0.6847539,-1.9317442,-3.306263,-0.2871177,-0.18521011,-0.20735803,27.25,28.3125,27.375,30.9375,32.75,33.375
0.20005259,-1.3740395,-1.025789,-1.4898154,-0.035672914,0.06117741,-0.14021538,-0.38231558,-0.32807484,0.060033906,-3.0769958,0.62488484,-0.00017946785,-0.09304746,0.004250257,-0.0030856743,0.020424739,-0.016346063,0.00794945,0.44025093,-1.4540676,1.989993,-2.1040843,-1.5719017,2.4153838,-0.0821104,0.17588829,-0.19929746,0.046821117,-0.01193335,-0.08989999,-0.34476504,0.28730422,-9.5385,0.8179876,47.68062,-0.86684954,-1.7740788,-3.468364,-0.30511168,-0.20658329,-0.16369833,27.25,28.3125,27.375,30.9375,32.75,33.375
0.20205262,-1.5511378,-0.93782204,-1.4192305,-0.050662085,0.063168526,-0.13503383,-0.3825092,-0.32807407,0.060039796,-3.0769684,0.6247429,-0.00013885422,-0.093849525,0.0044867867,-0.0027084218,0.02122059,-0.015202005,0.0105009675,0.4401189,-1.4537201,1.9895738,-2.1040003,-1.5719622,2.415167,-0.082396254,0.17626701,-0.20071614,0.04715858,-0.013150581,-0.092733346,-0.4213795,0.3256114,-9.5385,0.8179876,47.657326,-0.7954121,-1.8517679,-3.5541887,-0.35543564,-0.20510744,-0.09972733,27.25,28.3125,27.375,30.9375,32.75,33.375
0.20405255,-1.2246468,-1.0762259,-1.4563262,-0.061594248,0.07747928,-0.14760229,-0.3827333,-0.32805994,0.060077984,-3.0769637,0.6247217,-3.5039015e-05,-0.094572894,0.0039393078,-0.0030526158,0.020696051,-0.01486999,0.011144593,0.43992686,-1.4534198,1.9891304,-2.103905,-1.5720099,2.4149628,-0.08217337,0.17843948,-0.20209537,0.045832954,-0.012823781,-0.0931542,-0.3256114,0.28730422,-9.5385,0.8314132,47.684196,-0.83997244,-1.8256984,-3.5239205,-0.36604035,-0.20300959,-0.05142345,27.25,28.3125,27.375,30.9375,32.75,33.375
0.20605163,-1.5691007,-1.4749181,-1.2279744,-0.067005165,0.074046165,-0.14626868,-0.3829035,-0.32802665,0.060034618,-3.076852,0.6247191,-0.0001420828,-0.09638217,0.0032387648,-0.0028467386,0.02038516,-0.012335503,0.009961067,0.43974707,-1.4530358,1.9887832,-2.1038215,-1.5720581,2.4147959,-0.08186689,0.18110669,-0.2051332,0.043776445,-0.013645984,-0.09165789,-0.28730422,0.24899697,-9.500193,0.88960326,47.707485,-0.9469924,-1.8703241,-3.484137,-0.36287624,-0.19241086,-0.049814336,27.25,28.3125,27.375,30.9375,32.75,33.375
0.20805249,-1.9055158,-1.4624848,-1.2132176,-0.07277144,0.06138758,-0.13344774,-0.38309395,-0.3280373,0.06003912,-3.0768244,0.624695,-0.00014759843,-0.098437205,0.0023098788,-0.0011306575,0.018077582,-0.0076262904,0.00717984,0.4396152,-1.4526765,1.9883512,-2.103727,-1.5720824,2.4146528,-0.08194633,0.18072496,-0.2083199,0.042101342,-0.013573864,-0.088953964,-0.2681506,0.22984336,-9.423578,0.83589023,47.71286,-1.0115647,-1.7405318,-3.5678682,-0.34769368,-0.20510449,-0.055079408,27.25,28.3125,27.375,30.9375,32.75,33.375
0.21005245,-0.9775625,-0.75425386,-1.1344227,-0.056775443,0.06221186,-0.14064002,-0.3833417,-0.32804275,0.060061138,-3.0768824,0.6247085,-5.6593275e-05,-0.10007459,0.0016742157,-0.0003337459,0.017081056,-0.0044564204,0.0044027823,0.43939933,-1.4523165,1.9878968,-2.1037152,-1.5720705,2.4144382,-0.0818342,0.18164916,-0.21085621,0.04042513,-0.014022135,-0.08606281,-0.19153613,0.3256114,-9.270349,0.98807013,47.729877,-1.098931,-1.7997231,-3.533858,-0.33264023,-0.20743448,-0.07133829,27.25,28.3125,27.375,30.9375,32.75,33.375
0.21205233,-0.8501667,-0.43139535,-1.2076306,-0.03691958,0.035472568,-0.14039804,-0.38351914,-0.32802105,0.06003671,-3.0767593,0.6246464,-8.701184e-05,-0.10201638,0.0012584162,0.00017542586,0.015738051,-0.0020359117,0.000168538,0.43926674,-1.451933,1.987501,-2.103608,-1.5721663,2.414283,-0.082835265,0.18332759,-0.2135644,0.03868766,-0.013851321,-0.0828267,0.019153614,0.30645782,-9.308657,0.8918391,47.705692,-1.0817736,-1.6969292,-3.4767327,-0.31258217,-0.20867214,-0.11336401,27.25,28.3125,27.375,30.9375,32.75,33.375
0.21405245,0.2443219,-0.26618892,-1.1067941,-0.02980609,0.033023626,-0.14790991,-0.3837235,-0.32804024,0.060026456,-3.0767987,0.62463653,-0.00010657958,-0.10385491,0.00075669924,0.00082781224,0.015140191,0.0006871748,-0.0031831465,0.43909886,-1.451549,1.9870938,-2.103597,-1.5721306,2.4141042,-0.083043456,0.18495268,-0.2166554,0.03744268,-0.014473766,-0.07967949,-0.019153614,0.2681506,-9.346964,0.86498255,47.672558,-1.0539749,-1.5868263,-3.3816693,-0.29019344,-0.19742927,-0.12517738,27.25,28.3125,27.375,30.9375,32.75,33.375
0.21605249,-0.375759,-0.575818,-1.3926215,-0.015708406,0.0006376477,-0.13669394,-0.3839517,-0.32804254,0.060063068,-3.0767846,0.6246161,9.796649e-06,-0.104819894,0.00088085484,0.0003364966,0.0149833225,0.00056546764,-0.006547197,0.43894234,-1.451213,1.9866136,-2.1035016,-1.5721902,2.413937,-0.08418902,0.18709387,-0.21774675,0.036432408,-0.014279023,-0.07746115,0.019153614,0.3256114,-9.32781,0.8873621,47.67345,-1.0726928,-1.5833366,-3.3722084,-0.26873288,-0.21097001,-0.17544615,27.25,28.3125,27.375,30.9375,32.75,33.375
0.21805213,-0.025112245,-0.6964462,-1.6392512,-0.025074108,0.009861789,-0.13900062,-0.38415256,-0.32802317,0.060058534,-3.076697,0.6246763,-2.147371e-05,-0.10658307,0.00042044965,0.0015790091,0.013636853,0.0031228694,-0.009553022,0.43876213,-1.4508413,1.9861821,-2.1033819,-1.5722383,2.413806,-0.08490125,0.18751116,-0.2211449,0.036523372,-0.014156372,-0.07516525,0.0,0.28730422,-9.442732,0.83365434,47.705692,-1.0963027,-1.5330833,-3.3629246,-0.25356984,-0.22157879,-0.20768619,27.25,28.3125,27.375,30.9375,32.75,33.375
0.22005188,-0.32160947,-1.5659924,-1.6209879,-0.03533734,0.0130797075,-0.13656847,-0.3843572,-0.32800335,0.060042143,-3.0766187,0.624774,-4.9826274e-05,-0.10782164,-0.00010054405,0.0015643471,0.01325781,0.0028800855,-0.008566127,0.4385699,-1.450457,1.9857744,-2.1033099,-1.5722746,2.413685,-0.0852463,0.1904183,-0.2245506,0.037071608,-0.013722146,-0.07649566,0.019153614,0.34476504,-9.385271,0.87617236,47.687782,-1.0684264,-1.5609708,-3.3753476,-0.25757927,-0.21906056,-0.23058939,27.25,28.3125,27.375,30.9375,32.75,33.375
0.22205174,-0.6573389,-1.6232425,-1.6902583,-0.050757986,0.029088305,-0.13323571,-0.38457197,-0.32802296,0.06003192,-3.0766196,0.62471825,-4.307771e-05,-0.108718894,5.6441047e-05,0.0005345762,0.014809439,0.0013096075,-0.011445437,0.4384259,-1.4500364,1.98532,-2.1032736,-1.5722865,2.4135065,-0.08577262,0.19446616,-0.22686836,0.037426174,-0.014462027,-0.07413888,0.0,0.36391866,-9.461885,0.82694155,47.701214,-1.0793365,-1.6059554,-3.3238626,-0.25176936,-0.22334957,-0.28367,27.25,28.3125,27.375,30.9375,32.75,33.375
0.22405162,-0.9709977,-1.323077,-1.8273764,-0.06694558,0.034030657,-0.13710228,-0.3847948,-0.32800344,0.06005078,-3.076536,0.62481606,-2.0449852e-05,-0.109357,-0.00045088233,-0.00024618683,0.015287092,0.00024805346,-0.011882744,0.43823412,-1.4496751,1.9848408,-2.10313,-1.5723461,2.4133868,-0.085331924,0.19805005,-0.22910619,0.03723853,-0.0144510055,-0.07325883,-0.038307227,0.34476504,-9.481039,0.84484416,47.694946,-1.1305082,-1.9200429,-3.3230119,-0.23268723,-0.22719504,-0.31322637,27.25,28.3125,27.375,30.9375,32.75,33.375
0.22605257,-0.60893303,-1.47902,-1.686608,-0.0805585,0.05635293,-0.15044267,-0.38497216,-0.32803032,0.06003364,-3.0765455,0.6247217,-0.00010567575,-0.11052485,0.0010557327,-0.00088706904,0.015765103,-0.0013944815,-0.01344735,0.43811277,-1.4492795,1.9844216,-2.1030576,-1.5723222,2.4132056,-0.08926389,0.19961965,-0.22960833,0.037856244,-0.014194431,-0.07562602,0.019153614,0.38307226,-9.461885,0.84484416,47.69763,-1.0168643,-1.9018497,-3.4487472,-0.22604463,-0.2431972,-0.3210333,27.25,28.3125,27.375,30.9375,32.75,33.375
0.2280523,-1.1683382,-1.6263103,-1.6194032,-0.09125934,0.053866114,-0.14003222,-0.38520327,-0.3280191,0.060033645,-3.0764823,0.6248441,-6.124351e-05,-0.110191114,-0.0006977589,-0.0006942391,0.014638478,-0.0008424662,-0.014006297,0.43792182,-1.4488841,1.9839662,-2.102998,-1.5723704,2.4130995,-0.0861748,0.20067175,-0.2312027,0.037418455,-0.013409028,-0.07197925,-0.095768064,0.3256114,-9.500193,0.83365434,47.66271,-1.2071633,-1.7653329,-3.5206945,-0.21533525,-0.25235617,-0.3921941,27.25,28.3125,27.375,30.9375,32.75,33.375
0.2300521,-1.0635706,-2.0017676,-1.5694919,-0.08219559,0.04823773,-0.13420057,-0.38545007,-0.32801417,0.060051095,-3.076462,0.6248203,1.0851164e-05,-0.111495234,0.00038013374,-0.0019480223,0.015577075,-0.0015585343,-0.015506767,0.43772894,-1.448488,1.9834646,-2.102915,-1.5724186,2.4128947,-0.08886979,0.20371853,-0.23140123,0.035610493,-0.013961572,-0.073171616,-0.19153613,0.4405331,-9.442732,0.8672237,47.667187,-1.229069,-1.685007,-3.6490755,-0.17828897,-0.2603862,-0.4221716,27.25,28.3125,27.375,30.9375,32.75,33.375
0.232052,-0.9197799,-1.415865,-1.6041005,-0.07706107,0.05235904,-0.142028,-0.3856652,-0.32801846,0.06004443,-3.0764549,0.6248939,2.3784763e-05,-0.1122355,6.211907e-05,-0.0013191618,0.01516426,-0.00043762667,-0.0123108,0.43754897,-1.4481045,1.9830455,-2.1028907,-1.5724186,2.412762,-0.08878584,0.20398128,-0.23331277,0.036061272,-0.014070569,-0.076282665,-0.24899697,0.4405331,-9.5385,0.83589023,47.679718,-1.0520366,-1.6292527,-3.6616364,-0.1485194,-0.2612498,-0.43753353,27.25,28.3125,27.375,30.9375,32.75,33.375
0.23405184,-0.9668646,-1.1075879,-1.2685025,-0.06560123,0.044030976,-0.1408231,-0.38589472,-0.3280445,0.06005585,-3.0764527,0.6248914,4.7173482e-05,-0.11284717,0.00037203077,-0.0015538359,0.01581801,-0.0010422218,-0.010652593,0.43740472,-1.4476848,1.9825305,-2.1028063,-1.5724305,2.4126167,-0.08960101,0.20544259,-0.23464887,0.03675445,-0.01441151,-0.07875461,-0.15322891,0.34476504,-9.404425,0.84708,47.684196,-1.2412674,-1.6676121,-3.6670296,-0.12796707,-0.2870844,-0.44719782,27.25,28.3125,27.375,30.9375,32.75,33.375
0.23605256,-0.506882,-0.5985492,-1.3089095,-0.05189048,0.052727018,-0.13942398,-0.3861256,-0.328028,0.060052417,-3.0763936,0.62487566,7.205782e-05,-0.11445962,0.00016729318,-0.0012114272,0.015128616,-0.0006500209,-0.004810644,0.4372123,-1.447277,1.9820632,-2.1027234,-1.5724901,2.4124224,-0.09084644,0.2076421,-0.23810947,0.03734571,-0.013972198,-0.085841,-0.05746084,0.3256114,-9.385271,0.9612189,47.687782,-1.2095244,-1.6682699,-3.5807495,-0.0981835,-0.27989477,-0.41955227,27.25,28.3125,27.375,30.9375,32.75,33.375
0.23805243,-0.7213384,-0.3368028,-1.2000517,-0.032785926,0.040315058,-0.13911785,-0.3863664,-0.32802692,0.06006645,-3.07637,0.6248689,0.00014432572,-0.1152445,-0.00029874235,-0.00074479723,0.015257051,-0.0011312757,-0.0017902404,0.43703237,-1.4468809,1.9815711,-2.10265,-1.5725383,2.4122417,-0.09064894,0.20936635,-0.241725,0.039714992,-0.013890355,-0.08866295,-0.4213795,0.28730422,-9.346964,0.9768804,47.687782,-1.1817609,-1.6571196,-3.618046,-0.090261266,-0.2909972,-0.3878843,27.25,28.3125,27.375,30.9375,32.75,33.375
0.24005234,-0.62771076,0.09323449,-1.0655084,-0.031378865,0.053265356,-0.151534,-0.38658792,-0.3280311,0.060039476,-3.0763206,0.6248362,8.880304e-05,-0.11694852,0.00065367605,-0.0010683632,0.015456704,-0.0019104365,0.0020700502,0.43686324,-1.4464127,1.9810923,-2.1025784,-1.5725626,2.4120588,-0.09390882,0.21177703,-0.24390034,0.040251013,-0.013761832,-0.09578143,-0.36391866,0.26815057,-9.270349,0.91421866,47.694054,-1.0061302,-1.748225,-3.5705614,-0.09697741,-0.30453765,-0.3430381,27.25,28.3125,27.375,30.9375,32.75,33.375
0.24205233,-1.2552928,0.014982926,-1.1464672,-0.022472186,0.05551271,-0.14046252,-0.38684103,-0.32804486,0.06007768,-3.076396,0.6247711,0.00018231153,-0.118177496,-0.0013027771,-0.00014394386,0.014218248,0.00097292516,0.009518396,0.4366603,-1.446053,1.9805883,-2.1025188,-1.5725502,2.4118059,-0.09120554,0.21379761,-0.24814273,0.039325763,-0.013870121,-0.10052464,-0.40222588,0.15322891,-9.251195,0.86945957,47.70211,-1.3198524,-1.7578578,-3.569888,-0.047395125,-0.32616055,-0.25034326,27.25,28.3125,27.375,30.9375,32.75,33.375
0.24405211,-1.8376617,0.0041233776,-1.1370702,-0.013521203,0.053601306,-0.1349365,-0.38704735,-0.32803053,0.060034916,-3.076294,0.6247317,4.6265508e-05,-0.12127936,0.0003596668,0.00084655295,0.014301562,0.0017498321,0.00748257,0.4364783,-1.4455732,1.980121,-2.1023977,-1.5725864,2.4116127,-0.09661929,0.2151374,-0.25255376,0.041716855,-0.014297399,-0.10389766,-0.38307226,0.0,-9.251196,0.8403672,47.6636,-1.1353762,-1.705037,-3.3987656,-0.018156298,-0.3273266,-0.2115393,27.25,28.3125,27.375,30.9375,32.75,33.375
0.24605197,-1.4604492,0.10778276,-0.92144245,-0.0069939694,0.07583175,-0.14173558,-0.38732046,-0.3280556,0.06007621,-3.0763762,0.6247643,0.00013184878,-0.121469945,-0.0011422206,0.0014075992,0.013911514,0.001778159,0.012459483,0.43626338,-1.4451773,1.9795688,-2.1023376,-1.5725502,2.411408,-0.09414524,0.21679217,-0.2561777,0.04349023,-0.013954002,-0.10640122,-0.5554548,0.1340753,-9.155427,0.88289046,47.68599,-1.1976045,-1.7599496,-3.2115965,-0.02958386,-0.32235837,-0.17145671,27.25,28.3125,27.375,30.9375,32.75,33.375
0.24805182,-1.786211,0.29485044,-1.0736753,0.00049873954,0.07432716,-0.14182864,-0.38754275,-0.32806212,0.06005952,-3.076346,0.62462455,0.00010380841,-0.12213266,-0.00026611905,0.0022237906,0.014250053,0.002448664,0.010687012,0.43610674,-1.4447228,1.9790782,-2.1022532,-1.5725869,2.4111683,-0.09587347,0.21542889,-0.25700048,0.04520789,-0.014547711,-0.10635499,-0.6703765,0.1340753,-9.232041,0.8224646,47.721813,-1.1687818,-1.4975866,-3.2819448,-0.028364044,-0.35933053,-0.138598,27.25,28.3125,27.375,30.9375,32.75,33.375
0.25005174,-2.0076323,-0.26557785,-1.1819018,0.0036693427,0.08694406,-0.12744188,-0.38777617,-0.32805884,0.0600496,-3.0762732,0.6245915,9.4549265e-05,-0.123184405,0.0005338597,0.0013878269,0.015503403,0.00026548578,0.0072820545,0.43593788,-1.4442662,1.9785641,-2.102145,-1.572647,2.4109886,-0.09804329,0.21868904,-0.25915512,0.046605356,-0.014767651,-0.105117336,-0.59376204,0.15322891,-9.289502,0.9634547,47.70838,-1.1178145,-1.6490116,-3.3466911,-0.022287853,-0.3814636,-0.13520323,27.25,28.3125,27.375,30.9375,32.75,33.375
0.25205165,-1.954204,-0.23350027,-0.99447584,-0.022362394,0.08962341,-0.13395864,-0.38805804,-0.3280373,0.060059614,-3.0762634,0.62463063,0.00011867032,-0.12283956,0.0016962055,0.001705387,0.016737595,4.5759763e-05,0.00240435,0.43566176,-1.443824,1.9780258,-2.1020606,-1.5726589,2.4107385,-0.09911367,0.21660714,-0.25801337,0.04827217,-0.015782597,-0.10130875,-0.5363012,0.076614454,-9.308657,0.8806493,47.70211,-1.053615,-1.5093429,-3.3346484,-0.031045973,-0.37921447,-0.18120101,27.25,28.3125,27.375,30.9375,32.75,33.375
0.2540526,-1.4382001,-0.11447299,-1.0359602,-0.029171372,0.09284403,-0.13948508,-0.38831186,-0.32803664,0.060100272,-3.076239,0.6246484,0.00023237463,-0.12370125,0.0031832745,-0.000406261,0.019939508,-0.0042915554,-0.004582876,0.43548077,-1.4434508,1.9774865,-2.1019409,-1.5727195,2.410572,-0.10182088,0.2219983,-0.25965524,0.04981041,-0.016846552,-0.09702516,-0.49799395,-0.038307227,-9.289502,0.9097417,47.692257,-0.9348148,-1.5252868,-3.500444,-0.047619276,-0.37530628,-0.21246068,27.25,28.3125,27.375,30.9375,32.75,33.375
0.25605163,-1.2381637,0.3278917,-0.9961916,-0.020086905,0.082379855,-0.13826302,-0.38854724,-0.32803193,0.060063813,-3.0761685,0.6246935,0.00013261875,-0.124124385,0.0040129637,-0.0020803865,0.021967499,-0.007700868,-0.009811758,0.43527627,-1.4429464,1.9769844,-2.1018565,-1.5727314,2.4104052,-0.103366576,0.2260938,-0.26074475,0.050756045,-0.01725351,-0.09333852,-0.51714754,-0.038307227,-9.251195,0.93436235,47.70211,-0.86518013,-1.6203868,-3.556489,-0.02794846,-0.38107586,-0.26517475,27.25,28.3125,27.375,30.9375,32.75,33.375
0.2580517,-1.0407685,0.7742963,-0.9249682,-0.0007381516,0.06264235,-0.13738139,-0.38878033,-0.32802814,0.060061775,-3.0760992,0.6247568,7.636035e-05,-0.12600558,0.0042552385,-0.0019043065,0.022791639,-0.0072110305,-0.012152049,0.43508378,-1.4425021,1.976457,-2.101712,-1.5727557,2.4102614,-0.10471792,0.2289295,-0.26464844,0.051727474,-0.018220838,-0.09234345,-0.4213795,-0.019153614,-9.270349,0.84708,47.701214,-0.820188,-1.7826047,-3.5776591,-0.03550319,-0.38374993,-0.28932217,27.25,28.3125,27.375,30.9375,32.75,33.375
0.26005253,-0.7993094,0.637466,-1.1223202,0.019000074,0.043043755,-0.13750537,-0.38903984,-0.32802626,0.060046166,-3.076055,0.62465173,0.00012662078,-0.12652256,0.0041001583,-0.0018978883,0.023047231,-0.008621871,-0.012118708,0.43490365,-1.4420109,1.9759296,-2.1016638,-1.5728277,2.4100218,-0.10502908,0.23079492,-0.26737624,0.053965256,-0.01786354,-0.092687815,-0.30645782,-0.095768064,-9.155427,0.9231726,47.67345,-0.82950056,-1.7517616,-3.6954503,-0.037300162,-0.40031195,-0.2990469,27.25,28.3125,27.375,30.9375,32.75,33.375
0.26205236,0.2373007,1.068659,-1.029045,0.00852027,0.04608911,-0.15030578,-0.38928553,-0.32799396,0.06003854,-3.0759447,0.624782,7.6260985e-05,-0.12723468,0.0039273254,-0.0011900661,0.023694238,-0.009142108,-0.011917558,0.43466377,-1.441567,1.9754151,-2.1015189,-1.5728759,2.4098778,-0.104981944,0.2318953,-0.27109063,0.05731608,-0.018242974,-0.09283815,-0.28730422,0.15322891,-9.155427,0.88960326,47.70032,-0.880679,-1.7704129,-3.583312,-0.06906472,-0.38691792,-0.32157397,27.25,28.3125,27.375,30.9375,32.75,33.375
0.26405215,-0.9589789,-0.38708028,-0.90003055,0.009522304,0.02263031,-0.13211703,-0.3895218,-0.32796133,0.06001096,-3.0758154,0.6247362,-2.4363684e-05,-0.12833108,0.0040555946,-0.00065529,0.024812626,-0.009579078,-0.013532297,0.43444765,-1.4410754,1.9748873,-2.1013505,-1.5729483,2.40965,-0.10551891,0.23360439,-0.2750496,0.060428265,-0.019089224,-0.091753796,-0.30645782,0.32561144,-9.155427,0.8940802,47.711063,-0.8641774,-1.6186687,-3.436829,-0.09925585,-0.38722622,-0.33539796,27.25,28.3125,27.375,30.9375,32.75,33.375
0.266052,-0.31943375,-0.22535907,-1.0511361,-0.022475285,0.042319205,-0.13880134,-0.3898037,-0.32796338,0.06002766,-3.075786,0.6248056,3.3663135e-05,-0.12809798,0.003886656,-0.0004887183,0.025301805,-0.011899987,-0.011619853,0.43423185,-1.440608,1.9743007,-2.1012528,-1.5729836,2.4094818,-0.10525932,0.23449028,-0.27738208,0.064173125,-0.018558102,-0.09340848,-0.34476504,0.36391866,-9.155427,0.900793,47.7451,-0.9510709,-1.7560638,-3.356698,-0.15284428,-0.40367007,-0.36479688,27.25,28.3125,27.375,30.9375,32.75,33.375
0.26805183,-0.8219023,-1.1076596,-1.1750573,-0.054884948,0.042283528,-0.14153986,-0.39004534,-0.3279631,0.060015,-3.075717,0.6249067,-0.000101322985,-0.12898348,0.0040588914,-0.0006246135,0.026994977,-0.013265183,-0.012344449,0.43401572,-1.4401157,1.9737371,-2.1010845,-1.5729722,2.409338,-0.10560512,0.23729888,-0.2809577,0.06689252,-0.019534705,-0.09302313,-0.21068975,0.40222588,-9.251195,0.8247004,47.729877,-1.0500833,-1.6109531,-3.4145737,-0.19804887,-0.40670493,-0.397007,27.25,28.3125,27.375,30.9375,32.75,33.375
0.27005172,-1.2274497,-2.3248472,-1.1424657,-0.08281628,0.053801794,-0.13512407,-0.3903023,-0.32793343,0.06001029,-3.0756342,0.62480843,-0.0001275039,-0.12927483,0.0041335933,-0.00031210322,0.028522838,-0.013835107,-0.0067071156,0.4337878,-1.4396482,1.9731859,-2.100928,-1.5730447,2.4090598,-0.105130255,0.23820348,-0.28340068,0.069570705,-0.020702679,-0.09817964,-0.17238252,0.4405331,-9.251195,0.8985519,47.71554,-0.85102785,-1.7131269,-3.34231,-0.23717824,-0.38006186,-0.40170968,27.25,28.3125,27.375,30.9375,32.75,33.375
0.27205247,-1.2557651,-2.6126716,-1.1282194,-0.09156515,0.052814808,-0.13567808,-0.39054105,-0.32792324,0.059995543,-3.0755374,0.62484384,-0.00019034737,-0.13011824,0.0045720437,-0.0007424315,0.028756313,-0.014618387,-0.0040077036,0.43359548,-1.4391688,1.9726471,-2.1007845,-1.5730928,2.4089024,-0.10663846,0.24004541,-0.28464094,0.06975845,-0.020609159,-0.1023852,-0.21068975,0.53630114,-9.32781,0.87617236,47.73077,-1.0245017,-1.6163783,-3.4965966,-0.28739506,-0.39123583,-0.33978242,27.25,28.3125,27.375,30.9375,32.75,33.375
0.2740525,-0.96781653,-1.9460208,-1.1758615,-0.09923492,0.05927787,-0.13560808,-0.39082032,-0.3279081,0.05999195,-3.0754697,0.6248265,-0.00018374632,-0.13046728,0.004469804,-6.049078e-05,0.028420588,-0.014556761,0.0011769105,0.43336734,-1.4386654,1.9720606,-2.100664,-1.5731529,2.4086726,-0.10681903,0.23975542,-0.2864045,0.071589686,-0.02035057,-0.107750334,-0.11492168,0.53630114,-9.423578,0.8605109,47.709274,-0.8888398,-1.6169403,-3.5048785,-0.3120417,-0.39796126,-0.29920614,27.25,28.3125,27.375,30.9375,32.75,33.375
0.27605227,-0.8145148,-1.9252653,-1.3385385,-0.078416236,0.05846239,-0.13693023,-0.3910861,-0.32791236,0.05998204,-3.0754359,0.6247587,-0.00022409928,-0.13147911,0.004515259,-0.0009093934,0.027823359,-0.013895893,0.0060640755,0.43316287,-1.4381497,1.971475,-2.1005461,-1.5731767,2.4084306,-0.10782942,0.24200901,-0.28641328,0.068471655,-0.020115772,-0.11364697,-0.076614454,0.38307226,-9.32781,0.88960326,47.716442,-0.9628416,-1.5313807,-3.5751944,-0.3355093,-0.40083605,-0.2221745,27.25,28.3125,27.375,30.9375,32.75,33.375
0.27805218,-0.96159685,-0.9872716,-1.2907369,-0.057220213,0.04844207,-0.13414262,-0.3913789,-0.32787296,0.05997911,-3.0753562,0.62475836,-0.00020416256,-0.13334066,0.00405983,-0.0008334167,0.026837738,-0.0110926125,0.011144124,0.4328868,-1.4376578,1.9708999,-2.1004274,-1.5732487,2.408165,-0.10826595,0.24416737,-0.28842387,0.06533866,-0.020431047,-0.11915987,-0.11492168,0.3256114,-9.251195,0.87617236,47.694946,-0.9279031,-1.5995734,-3.5978122,-0.30927187,-0.3861705,-0.14783312,27.25,28.3125,27.375,30.9375,32.75,33.375
0.2800522,-0.5156847,-0.2228324,-1.1573501,-0.043687116,0.05125505,-0.13590626,-0.3916183,-0.3278933,0.05995858,-3.0753374,0.62463963,-0.00029887058,-0.13460894,0.0039435853,-0.0018608427,0.02699362,-0.011984304,0.010155294,0.43271875,-1.437141,1.9703363,-2.1003077,-1.5732483,2.4079256,-0.10919367,0.24835038,-0.2906738,0.064276695,-0.020218119,-0.11909622,-0.1340753,0.3256114,-9.212888,0.9365982,47.691364,-1.0325006,-1.7748876,-3.6449995,-0.2845919,-0.39594054,-0.1000379,27.25,28.3125,27.375,30.9375,32.75,33.375
0.28205225,-0.3640408,-0.380827,-1.1441267,-0.019435389,0.04829457,-0.13764164,-0.3918969,-0.32790557,0.05996972,-3.0753002,0.6246492,-0.00027952742,-0.13638197,0.0023638457,-0.00047626343,0.025045259,-0.0069856723,0.012923748,0.43252707,-1.4366381,1.9697136,-2.1001775,-1.573285,2.4077451,-0.10747906,0.24889295,-0.29398558,0.06168134,-0.020565363,-0.12014642,0.095768064,0.28730422,-9.11712,0.88289046,47.68599,-1.0417047,-1.740974,-3.5207665,-0.29750055,-0.4041303,-0.08964357,27.25,28.3125,27.375,30.9375,32.75,33.375
0.28405198,0.47538552,-0.039506078,-1.4509546,-0.009032347,0.041236013,-0.14524728,-0.39217973,-0.3278824,0.059939843,-3.0752106,0.6246155,-0.0003579148,-0.1402951,0.0023379729,0.00035525425,0.023151511,-0.00075947016,0.0048944294,0.43227437,-1.4360743,1.9691156,-2.1000478,-1.5733331,2.4074833,-0.110062815,0.251102,-0.29731116,0.056358695,-0.021476801,-0.11469244,0.19153613,0.30645782,-9.32781,0.9365982,47.69763,-1.1321145,-1.8561554,-3.4978566,-0.22816905,-0.40260768,-0.12339954,27.25,28.3125,27.375,30.9375,32.75,33.375
0.28605193,0.11459538,-0.23010872,-1.4036704,-0.028963586,0.028003043,-0.13540114,-0.39247623,-0.32787278,0.059945937,-3.0751863,0.6246107,-0.0002876246,-0.14146215,0.0011389868,0.00070984656,0.023054056,0.00064138,0.0025783735,0.43203512,-1.4355822,1.9685291,-2.0999753,-1.5733813,2.4072447,-0.108418204,0.25377852,-0.30125487,0.05631553,-0.021974402,-0.1107281,0.076614454,0.2873042,-9.385271,0.86498255,47.687782,-1.0781286,-1.8679985,-3.4918983,-0.20981163,-0.39618552,-0.14548343,27.25,28.3125,27.375,30.9375,32.75,33.375
0.2880518,0.058466546,-0.5129485,-1.5734181,-0.04851554,0.025348349,-0.14247555,-0.39271757,-0.32784772,0.0599057,-3.0750601,0.6246644,-0.00043768084,-0.14195919,0.0016564445,-0.00050256663,0.024228176,-0.0010745206,-0.002265589,0.43180662,-1.4350545,1.9679893,-2.09982,-1.5734171,2.4070663,-0.10945939,0.25674045,-0.3018945,0.05604641,-0.022333413,-0.106920205,0.019153614,0.30645782,-9.3661175,0.9634547,47.694946,-1.0906122,-1.8865639,-3.4552703,-0.1907613,-0.39477086,-0.1966964,27.25,28.3125,27.375,30.9375,32.75,33.375
0.29005185,-0.3125984,-1.6515661,-1.8334982,-0.060151834,0.030774044,-0.1338531,-0.39302748,-0.32786292,0.059929796,-3.0750506,0.624587,-0.0003661303,-0.1433067,0.002239627,-0.0009796771,0.0254762,-0.00073836313,-0.0072352556,0.43160218,-1.4345263,1.967307,-2.0996883,-1.5734657,2.4068153,-0.11073358,0.25924835,-0.30364236,0.05550897,-0.023603633,-0.10321913,-0.019153614,0.34476504,-9.481039,0.91198283,47.70211,-1.0798202,-1.9683592,-3.5974765,-0.17868581,-0.38014972,-0.23434518,27.25,28.3125,27.375,30.9375,32.75,33.375
0.29205167,-0.9679081,-1.9252405,-1.9428792,-0.07689187,0.03891829,-0.12545261,-0.39329585,-0.32782868,0.059898645,-3.0749147,0.62461823,-0.00038660385,-0.1449867,0.0023394683,-0.000655486,0.026115732,0.0013286463,-0.010241614,0.43137395,-1.433999,1.9667572,-2.0995805,-1.573562,2.4066246,-0.111285925,0.26096585,-0.30630323,0.05483967,-0.025061429,-0.10075581,-0.076614454,0.28730422,-9.500193,0.84484416,47.664497,-1.1083245,-1.9626765,-3.5608606,-0.15051869,-0.3782367,-0.27894655,27.25,28.3125,27.375,30.9375,32.75,33.375
0.29405248,-1.0947957,-1.7455829,-1.9404025,-0.07262112,0.042698767,-0.1311956,-0.39357632,-0.32783642,0.059891544,-3.0748746,0.6246296,-0.0004354392,-0.14605112,0.0023247842,-0.0006328895,0.026367692,0.0020356015,-0.012722176,0.43115792,-1.4334592,1.9661325,-2.0994494,-1.5735749,2.4064212,-0.11170759,0.2626126,-0.3083136,0.05466801,-0.025592119,-0.098692566,-0.17238252,0.28730422,-9.672575,0.9186956,47.651955,-1.1246997,-1.993758,-3.5065122,-0.12658748,-0.34829944,-0.31125754,27.25,28.3125,27.375,30.9375,32.75,33.375
0.29605272,-1.5113404,-1.5718418,-1.9665395,-0.06391918,0.04286266,-0.12649183,-0.3938721,-0.32784757,0.059903156,-3.0748487,0.62458664,-0.00035573344,-0.14617144,0.0025485011,-0.0013257965,0.026606489,0.00081028865,-0.014508631,0.43096566,-1.4329426,1.9654993,-2.099354,-1.573634,2.406206,-0.11230846,0.26405373,-0.30847025,0.054588612,-0.02529447,-0.09750867,-0.3256114,0.38307226,-9.710882,0.91198283,47.64389,-1.1045165,-1.9491974,-3.7002783,-0.11236815,-0.34597537,-0.3707014,27.25,28.3125,27.375,30.9375,32.75,33.375
0.2980524,-0.94187546,-1.137644,-2.0454414,-0.04952746,0.07453184,-0.13447736,-0.39415917,-0.32783422,0.059873577,-3.074744,0.6247581,-0.0004422748,-0.14758298,0.00263026,-3.644989e-05,0.02530834,0.0032772177,-0.017454982,0.4307133,-1.4323684,1.9648889,-2.0992334,-1.5736583,2.4060745,-0.113627546,0.2630865,-0.3105235,0.054821543,-0.025155466,-0.0958793,-0.34476504,0.28730422,-9.749189,0.89631605,47.66808,-1.1276476,-1.9968636,-3.703824,-0.105601296,-0.33971322,-0.42241108,27.25,28.3125,27.375,30.9375,32.75,33.375
0.30005246,-1.4549924,-0.8149502,-2.1136112,-0.042187925,0.06487391,-0.1279029,-0.39445546,-0.32784712,0.059889592,-3.0747244,0.6247538,-0.000394512,-0.14905976,0.00281419,0.0008535198,0.024850244,0.0049286787,-0.01827119,0.43050894,-1.4318538,1.9642419,-2.0991142,-1.5736941,2.4058704,-0.11492121,0.26332125,-0.31309864,0.055461206,-0.025434023,-0.09635502,-0.36391866,0.21068975,-9.768343,0.99702406,47.66808,-1.1177869,-1.7842455,-3.6607065,-0.08498174,-0.35394603,-0.48747814,27.25,28.3125,27.375,30.9375,32.75,33.375
0.30205238,-1.1537634,-0.52987856,-1.7420893,-0.045816943,0.082804054,-0.13587564,-0.39477232,-0.32785183,0.059906363,-3.0747042,0.62476647,-0.00030831684,-0.150747,0.002904068,0.0017560307,0.02429584,0.0067188535,-0.016654572,0.43028054,-1.4313263,1.9635834,-2.0990179,-1.5737423,2.405653,-0.11622553,0.26394415,-0.31611913,0.055982098,-0.025687696,-0.09927459,-0.4405331,0.1340753,-9.825804,0.9679317,47.689575,-0.98225546,-1.9015591,-3.6321745,-0.038141813,-0.3354951,-0.49668282,27.25,28.3125,27.375,30.9375,32.75,33.375
0.30405235,-0.8689159,0.19807532,-1.8529433,-0.041517027,0.08793512,-0.1463237,-0.39507446,-0.32783255,0.05989777,-3.074611,0.62472576,-0.00027042374,-0.15068461,0.003244605,0.0003726508,0.02663137,0.002481276,-0.0117872255,0.43005237,-1.4307745,1.9629496,-2.0988972,-1.5738386,2.405412,-0.116438136,0.2680216,-0.31839344,0.058974095,-0.026059825,-0.10435123,-0.5554548,0.076614454,-9.710882,0.91198283,47.691364,-1.0036132,-1.7932922,-3.7010484,-0.04250284,-0.31613657,-0.47750068,27.25,28.3125,27.375,30.9375,32.75,33.375
0.30605233,-1.6364127,0.24843483,-1.6536913,-0.01962623,0.07829037,-0.13996977,-0.3954078,-0.3278182,0.05990544,-3.0745618,0.624884,-0.00018357806,-0.1528733,0.0035995885,0.00066869915,0.025146421,0.0039195213,-0.0063056173,0.4297754,-1.4302346,1.962303,-2.0988262,-1.5738863,2.4052405,-0.119271286,0.26969123,-0.32083496,0.057777904,-0.025337212,-0.11266844,-0.47884035,0.038307227,-9.768343,0.9254084,47.711964,-0.92382574,-1.8167299,-3.6673913,-0.022990057,-0.31447577,-0.40629417,27.25,28.3125,27.375,30.9375,32.75,33.375
0.30805254,-1.459447,0.5396074,-1.5915904,-0.01002703,0.094303854,-0.14503467,-0.39568877,-0.32781553,0.05988216,-3.0744894,0.6248231,-0.00020599148,-0.15304014,0.0021403073,0.0007502873,0.025672853,0.004291627,0.005493318,0.42957255,-1.4296708,1.9616917,-2.0987184,-1.5739468,2.4050095,-0.11619712,0.27203223,-0.3239674,0.058411755,-0.02600712,-0.12138753,-0.34476504,-0.095768064,-9.653421,0.9030289,47.70032,-1.0811219,-1.9614098,-3.6925774,0.01062711,-0.32401204,-0.35914892,27.25,28.3125,27.375,30.9375,32.75,33.375
0.31005174,-1.6376836,0.5681459,-1.5927176,-0.0023527697,0.094743356,-0.13986212,-0.39600685,-0.32785204,0.05991101,-3.0745392,0.6248131,-0.00017188261,-0.15480092,0.0034288955,0.0006633148,0.027243434,0.0036027483,0.009300827,0.4293555,-1.4291309,1.9609846,-2.0985973,-1.5739235,2.4047801,-0.11915789,0.27432507,-0.32695124,0.060362097,-0.027163656,-0.12815118,-0.4213795,0.038307227,-9.557653,0.97464454,47.686886,-0.9530487,-1.9160149,-3.565557,0.02338842,-0.3054613,-0.22978672,27.25,28.3125,27.375,30.9375,32.75,33.375
0.31205255,-1.9695829,0.07011637,-1.619777,0.003648827,0.09970252,-0.13698016,-0.3963254,-0.3278294,0.059902485,-3.0744693,0.6247938,-0.00014193261,-0.15393183,0.0029884225,-0.0006165612,0.029284196,-0.00074501266,0.015287858,0.42909217,-1.4285669,1.9603385,-2.0984886,-1.573995,2.4045143,-0.11745249,0.27791741,-0.32897812,0.06356902,-0.027224215,-0.1324313,-0.5363012,0.0,-9.461885,0.90750587,47.698532,-1.1452585,-2.0796988,-3.6225457,-0.010141531,-0.29174185,-0.15536758,27.25,28.3125,27.375,30.9375,32.75,33.375
0.31405237,-1.578694,-0.0725453,-1.5491085,-0.0132129695,0.11158912,-0.13542998,-0.39661336,-0.3278114,0.059885606,-3.0743663,0.6246956,-0.00021417948,-0.15615302,0.0033615506,0.00022351109,0.029058795,0.0016649788,0.014681263,0.42886358,-1.4279915,1.9596795,-2.0982974,-1.574067,2.4042382,-0.11934754,0.27900228,-0.33225897,0.06346266,-0.028049432,-0.13371192,-0.49799395,0.019153614,-9.576807,0.91198283,47.70659,-1.0617762,-2.0175898,-3.600689,0.02530599,-0.27280676,-0.11958181,27.25,28.3125,27.375,30.9375,32.75,33.375
0.31605232,-1.9607936,-0.8154461,-1.5680841,-0.020396627,0.08563955,-0.12516735,-0.39696196,-0.32782975,0.05994466,-3.074425,0.62466913,2.2846458e-05,-0.15657945,0.003948168,0.0008529147,0.030760106,0.0010748588,0.012680254,0.42863554,-1.4275124,1.9589852,-2.0982358,-1.5741156,2.4039865,-0.11980982,0.27909005,-0.33474234,0.06709969,-0.029326534,-0.13217205,-0.38307226,0.076614454,-9.481039,0.9768804,47.691364,-1.0494764,-2.0045257,-3.4916072,0.011259011,-0.22721973,-0.124641836,27.25,28.3125,27.375,30.9375,32.75,33.375
0.31805217,-1.0551449,-0.5937812,-1.2833604,-0.038320985,0.08072046,-0.12520058,-0.39726472,-0.32778957,0.0599014,-3.0742784,0.6246079,-6.095863e-05,-0.15730302,0.005586387,0.0001805024,0.032861616,-0.0022259357,0.0006830675,0.4283703,-1.426889,1.9583391,-2.098079,-1.574212,2.4037025,-0.1229323,0.28124732,-0.33664453,0.070734076,-0.029859925,-0.12329097,-0.57460845,0.15322891,-9.3661175,0.90750587,47.69763,-0.8699635,-1.824609,-3.565074,0.0011259029,-0.2236605,-0.19059728,27.25,28.3125,27.375,30.9375,32.75,33.375
0.3200521,0.09774545,0.100286044,-1.4537749,-0.03342295,0.067068346,-0.1366651,-0.39759058,-0.32778007,0.05989552,-3.074236,0.62458014,-7.4056156e-06,-0.15735565,0.0056017935,0.0017518061,0.03302087,-0.0018460802,-0.0026042077,0.42811847,-1.4263145,1.9576792,-2.097994,-1.574272,2.4034393,-0.12267803,0.27920926,-0.33900014,0.07484785,-0.030152548,-0.1197485,-0.59376204,0.19153613,-9.423578,0.84708,47.677036,-1.0714926,-1.7788391,-3.5529609,-0.035480075,-0.21192317,-0.21190268,27.25,28.3125,27.375,30.9375,32.75,33.375
0.32205197,-0.1263982,-0.20584103,-1.4201149,-0.018394383,0.042229023,-0.13525723,-0.39791414,-0.32776716,0.05992103,-3.0741425,0.62465936,4.805363e-05,-0.15683132,0.0066964547,0.0012022646,0.03453499,-0.0054542897,-0.008433449,0.42787808,-1.4257753,1.956963,-2.0978014,-1.574356,2.403261,-0.12419147,0.27971315,-0.3392915,0.07854533,-0.030019075,-0.11543361,-0.32561144,0.095768064,-9.461885,0.9634547,47.696735,-0.7824502,-1.6832396,-3.6603312,-0.06671886,-0.17654204,-0.2787043,27.25,28.3125,27.375,30.9375,32.75,33.375
0.3240518,0.15594536,-0.08653819,-0.999582,-0.01627067,0.026350172,-0.13039659,-0.39827028,-0.32775572,0.059963074,-3.0741234,0.6247318,0.0001625871,-0.1572735,0.006476141,0.001604619,0.035340615,-0.0070612854,-0.008346417,0.42759013,-1.4252478,1.9562324,-2.097656,-1.5744041,2.403021,-0.123968594,0.28138375,-0.34315214,0.0825187,-0.030083552,-0.11529811,-0.21068975,-0.038307227,-9.193734,0.9410752,47.691364,-0.9377179,-1.5972958,-3.6244888,-0.109782055,-0.16344178,-0.31019953,27.25,28.3125,27.375,30.9375,32.75,33.375
0.32605192,0.22888452,0.5814972,-1.12492,-0.0021129178,0.026347276,-0.1447424,-0.39858475,-0.3277555,0.059964348,-3.074078,0.62470293,0.00014620782,-0.15840212,0.0062103723,0.0021373965,0.035515416,-0.007949469,-0.00866676,0.42735007,-1.4246713,1.9555367,-2.0974996,-1.5744404,2.4027693,-0.12442636,0.2835453,-0.347733,0.08580648,-0.029886581,-0.11543359,-0.19153613,-0.11492168,-9.212888,0.9768804,47.686886,-0.93672657,-1.6641939,-3.441284,-0.16317725,-0.15257084,-0.32833987,27.25,28.3125,27.375,30.9375,32.75,33.375
0.32805187,0.47972938,0.9411442,-1.0786817,0.017558267,0.024308573,-0.13465829,-0.3988948,-0.3277316,0.059938207,-3.0739477,0.62475264,4.4550652e-05,-0.15895574,0.006432648,0.0017861668,0.03556144,-0.0107296305,-0.010783248,0.4270856,-1.4240482,1.954842,-2.097307,-1.5744995,2.4025533,-0.12587073,0.28593865,-0.35048303,0.088696934,-0.028794106,-0.114761755,-0.11492168,-0.038307227,-9.174581,0.88289046,47.687782,-0.85576195,-1.7097325,-3.429216,-0.21274896,-0.14397456,-0.34154916,27.25,28.3125,27.375,30.9375,32.75,33.375
0.330052,0.85811514,1.3172369,-1.1648813,0.015978603,0.030703112,-0.1404428,-0.39920327,-0.32770938,0.059940662,-3.0738585,0.6247906,5.8539677e-05,-0.15870921,0.006130396,0.000167294,0.037073918,-0.015415129,-0.009355605,0.4268339,-1.4235076,1.9541839,-2.0971506,-1.574571,2.4023373,-0.12534417,0.29078847,-0.35304672,0.091281384,-0.028243942,-0.1156629,0.05746084,-0.019153614,-9.193734,0.95002913,47.70211,-0.9466901,-1.8482602,-3.4056742,-0.2522392,-0.1277263,-0.36615634,27.25,28.3125,27.375,30.9375,32.75,33.375
0.33205208,0.48891833,0.62347996,-1.0766002,-0.0021243985,0.032983657,-0.1423993,-0.39954123,-0.32770193,0.059956,-3.0738034,0.6248344,8.431809e-05,-0.16121125,0.005202343,0.001886519,0.034569845,-0.012158592,-0.0068267765,0.42656958,-1.4229306,1.953452,-2.0969832,-1.5746192,2.402108,-0.12618251,0.29179847,-0.3583536,0.09154801,-0.027341316,-0.119031265,0.076614454,0.11492168,-9.174581,0.8784135,47.698532,-0.9874047,-1.9748133,-3.2422888,-0.29197183,-0.13014656,-0.36324432,27.25,28.3125,27.375,30.9375,32.75,33.375
0.33405203,-0.22686552,-0.46104366,-1.1080388,-0.02445277,0.023878353,-0.13143241,-0.39985985,-0.327684,0.05996998,-3.0737274,0.6247373,6.6946646e-05,-0.16075584,0.0052428134,0.0006101253,0.03487899,-0.013633639,-0.0008225609,0.42631775,-1.4223666,1.9527243,-2.0967562,-1.5746907,2.4018059,-0.12593511,0.29339102,-0.35708177,0.09011482,-0.027044136,-0.12478821,-0.019153614,0.22984336,-9.232041,0.88289046,47.687782,-1.0162966,-1.7753072,-3.3725858,-0.29859716,-0.12576753,-0.31242287,27.25,28.3125,27.375,30.9375,32.75,33.375
0.33605197,-0.78881043,-1.5102668,-1.3964428,-0.056782983,0.029431839,-0.1370107,-0.4001853,-0.32766435,0.059950396,-3.0735965,0.6248212,4.664011e-05,-0.1609075,0.0052621546,-0.0009371541,0.035553426,-0.014930078,0.00658573,0.42606574,-1.4217407,1.9520186,-2.0966012,-1.5747751,2.4016237,-0.12588322,0.29647788,-0.3568016,0.088159844,-0.027164545,-0.13214184,0.076614454,0.34476504,-9.404425,0.88960326,47.66987,-1.0176952,-1.860129,-3.6041756,-0.30793154,-0.100478016,-0.22910957,27.25,28.3125,27.375,30.9375,32.75,33.375
0.33805186,-0.8270875,-2.322248,-1.4663954,-0.099487394,0.047472812,-0.13535997,-0.4004913,-0.32765555,0.059970777,-3.0735412,0.62472844,1.1614367e-05,-0.16200805,0.004397251,-0.00045223857,0.03364976,-0.011536028,0.014019028,0.42582607,-1.4212002,1.9513,-2.0963633,-1.5748228,2.4013338,-0.12527968,0.29670718,-0.3575548,0.08476412,-0.02687787,-0.13897067,0.095768064,0.30645782,-9.385271,0.9679317,47.675243,-1.0850351,-1.7634797,-3.5960898,-0.32248905,-0.08537206,-0.1403571,27.25,28.3125,27.375,30.9375,32.75,33.375
0.340052,-1.1260083,-3.076904,-1.5994424,-0.116429746,0.052981522,-0.13084814,-0.40082505,-0.32765415,0.059976224,-3.0735128,0.6246646,-1.7971657e-05,-0.16513418,0.0032594898,0.00086381903,0.029541576,-0.004577418,0.013551267,0.42556164,-1.4205986,1.950559,-2.096186,-1.5748466,2.4010336,-0.12620157,0.29729035,-0.36000806,0.0785853,-0.026041599,-0.13942552,0.019153614,0.40222588,-9.481039,0.94331104,47.6636,-0.9826342,-1.7077799,-3.7362227,-0.2442365,-0.098732635,-0.08428828,27.25,28.3125,27.375,30.9375,32.75,33.375
0.34205198,-0.67777336,-2.85879,-1.8120903,-0.12045548,0.054485306,-0.12774745,-0.40116522,-0.32764062,0.0600056,-3.0734653,0.6246366,8.7039116e-05,-0.16802138,0.0032705802,0.0026226337,0.02631081,-0.00030031125,0.011449608,0.4253088,-1.4200591,1.949839,-2.09603,-1.5749301,2.40077,-0.12922268,0.29682946,-0.36332127,0.077104285,-0.024877528,-0.14034943,-0.038307227,0.5363012,-9.576807,1.0350704,47.67793,-1.1037419,-1.5915555,-3.6773663,-0.21021676,-0.119472735,-0.048162952,27.25,28.3125,27.375,30.9375,32.75,33.375
0.34405178,-1.0265496,-2.7443674,-1.8766869,-0.11584994,0.04931155,-0.12460383,-0.4014848,-0.3276092,0.059963427,-3.0733664,0.6245593,2.9131757e-05,-0.17018317,0.0015277299,0.0037534798,0.022405239,0.004888865,0.007663892,0.42503303,-1.4194221,1.9491795,-2.0959127,-1.5750016,2.4004593,-0.1286067,0.29771546,-0.36610514,0.072661996,-0.023478037,-0.13594995,-0.24899697,0.63206923,-9.730036,0.9410752,47.657326,-0.99023736,-1.4687328,-3.6721926,-0.18341783,-0.116961405,-0.069563985,27.25,28.3125,27.375,30.9375,32.75,33.375
0.34605232,-0.6459226,-2.2942984,-1.9318013,-0.10554175,0.056074254,-0.13637899,-0.40182552,-0.3276146,0.059983145,-3.0733588,0.6245044,1.558567e-05,-0.1730129,0.00079212955,0.004108815,0.020159114,0.0071580997,0.0010795763,0.42476833,-1.4188315,1.9484142,-2.0957215,-1.5750135,2.4001617,-0.13017699,0.3013454,-0.3708189,0.07076323,-0.02236896,-0.13093777,-0.21068975,0.6512228,-9.691729,0.9567419,47.658226,-0.97595763,-1.5910122,-3.479862,-0.1242819,-0.111592434,-0.108888164,27.25,28.3125,27.375,30.9375,32.75,33.375
0.3480525,-0.7154372,-1.6718153,-2.0555775,-0.082899265,0.048807543,-0.13438055,-0.40217534,-0.3276288,0.059993625,-3.0733318,0.6245594,7.25005e-05,-0.17351769,0.0011932933,0.002054999,0.021068957,0.003925471,-0.007265981,0.42452785,-1.4182181,1.9476599,-2.0956018,-1.5750493,2.3999596,-0.13151146,0.30615175,-0.37167025,0.070148245,-0.021845482,-0.1239286,-0.21068975,0.6703765,-9.844957,0.88960326,47.672558,-0.8609272,-1.6603727,-3.5098748,-0.10380946,-0.12230301,-0.16085032,27.25,28.3125,27.375,30.9375,32.75,33.375
0.3500524,-0.6095502,-1.7503874,-2.1025865,-0.07805787,0.06717057,-0.1305765,-0.40252525,-0.32761726,0.06000154,-3.073258,0.62462205,0.00012994804,-0.17317048,0.001089465,0.0007397473,0.021898707,0.0013210179,-0.01045819,0.4242643,-1.4176161,1.9469188,-2.0954583,-1.5751213,2.3997452,-0.13109295,0.3089239,-0.37210107,0.07052288,-0.021520214,-0.12031908,-0.36391866,0.6703765,-9.844957,0.88960326,47.677036,-1.0309755,-1.7986627,-3.7080839,-0.07619601,-0.12526628,-0.23426867,27.25,28.3125,27.375,30.9375,32.75,33.375
0.3520523,-0.90185636,-2.0388079,-1.9064773,-0.09389421,0.082958795,-0.12843016,-0.40289176,-0.3276347,0.06002842,-3.073286,0.62461007,0.00020939596,-0.17238916,0.00019721115,-0.00020514712,0.022400573,-0.0012356931,-0.014261934,0.42400083,-1.4170151,1.9461402,-2.0953376,-1.5751327,2.399471,-0.12907027,0.3114327,-0.37327078,0.071738064,-0.020902777,-0.11449625,-0.17238252,0.47884035,-9.825804,0.9321212,47.66539,-1.0316505,-1.8137541,-3.743981,-0.06665592,-0.13882779,-0.32051277,27.25,28.3125,27.375,30.9375,32.75,33.375
0.35405216,-1.2277641,-1.8848333,-1.6513178,-0.096427254,0.076097995,-0.12884074,-0.40321884,-0.32762003,0.060010664,-3.0732,0.6246908,0.00018465819,-0.17303051,0.0015690322,-0.0010768259,0.023136588,-0.0036582747,-0.018736273,0.42373565,-1.4164015,1.9454464,-2.0952055,-1.5751809,2.399268,-0.13214366,0.31313464,-0.37368983,0.07296069,-0.02058006,-0.11309589,-0.2873042,0.40222588,-9.710882,0.9835985,47.67345,-1.090477,-1.8782773,-3.8534765,-0.0472863,-0.14428426,-0.37106308,27.25,28.3125,27.375,30.9375,32.75,33.375
0.35605213,-1.0074699,-1.564324,-1.4604311,-0.079869285,0.07677329,-0.12977938,-0.4035496,-0.32763475,0.060027592,-3.0731654,0.6246633,0.00022148916,-0.17385574,0.00013978327,-0.00032971904,0.022525005,-0.0021128107,-0.018754598,0.42352062,-1.4158124,1.944693,-2.0950382,-1.5752286,2.3990407,-0.13004215,0.3147234,-0.3775299,0.07355235,-0.020661108,-0.110973984,-0.34476504,0.36391866,-9.519346,1.0126908,47.704796,-1.1219149,-1.8214211,-3.8762286,-0.039098278,-0.13831972,-0.4505431,27.25,28.3125,27.375,30.9375,32.75,33.375
0.3580524,-0.5041411,-0.19270904,-1.4255644,-0.06024655,0.06932862,-0.1352948,-0.4039417,-0.3276426,0.060046606,-3.0731537,0.6248127,0.0002888447,-0.17637107,2.790564e-05,0.0014703221,0.021852901,0.000111618014,-0.018219676,0.4232203,-1.4151639,1.9438766,-2.094917,-1.575241,2.3988357,-0.1315266,0.31572938,-0.3836163,0.07631327,-0.020973172,-0.11299074,-0.15322891,0.21068975,-9.442732,0.95002913,47.703903,-1.1093909,-1.740869,-3.73004,-0.003257466,-0.16626853,-0.48340556,27.25,28.3125,27.375,30.9375,32.75,33.375
0.36005232,0.075867966,0.24517164,-1.4379108,-0.018097922,0.045651447,-0.13346016,-0.40430105,-0.32766265,0.060057864,-3.0731475,0.62478906,0.00038764867,-0.17764984,-0.00041611333,0.0019149303,0.020935845,0.0001489086,-0.013546497,0.42299208,-1.4145383,1.9431099,-2.0948217,-1.5752887,2.398594,-0.13213758,0.31763923,-0.38732263,0.0776619,-0.020170221,-0.11827816,0.019153614,0.076614454,-9.500193,0.95226496,47.68062,-1.0788949,-1.7681485,-3.4759936,-0.0052518505,-0.16784453,-0.47611713,27.25,28.3125,27.375,30.9375,32.75,33.375
0.3620522,-0.23570855,0.48413453,-1.0430539,-0.00077880995,0.022512646,-0.13088645,-0.4046583,-0.32765922,0.06006257,-3.0730836,0.62477195,0.00043109918,-0.17900331,0.00039365582,0.0021210208,0.02158978,-0.0013138044,-0.007724196,0.42273906,-1.4139012,1.9423307,-2.0946643,-1.5753607,2.398339,-0.1345374,0.31952995,-0.39088634,0.08088503,-0.020196013,-0.12649901,-0.34476504,0.05746084,-9.442732,0.9298854,47.684196,-1.0392888,-1.646352,-3.526977,-0.0066232053,-0.18163207,-0.41717654,27.25,28.3125,27.375,30.9375,32.75,33.375
0.36405239,-0.37783733,0.8805575,-0.81612635,-0.0058617536,0.033037342,-0.13652954,-0.40504405,-0.32766393,0.0600945,-3.0731025,0.62478894,0.00050462334,-0.17742643,0.0015565328,0.0011869529,0.02598331,-0.009223979,0.0015684697,0.4224391,-1.4132878,1.9415182,-2.0945175,-1.5753726,2.3980477,-0.1346736,0.32171166,-0.39358234,0.09036639,-0.020969132,-0.13592601,-0.28730422,0.019153614,-9.174581,0.9612189,47.71465,-1.048774,-1.6316833,-3.4246511,-0.08489421,-0.18400934,-0.32700798,27.25,28.3125,27.375,30.9375,32.75,33.375
0.3660523,-0.79072267,0.5998032,-1.0732187,0.028643046,0.027344445,-0.11917692,-0.40539995,-0.3276661,0.06010748,-3.073063,0.6247959,0.0005150501,-0.17692545,0.0024770573,0.00014260688,0.028254054,-0.01343242,0.008456121,0.422175,-1.4126621,1.9407271,-2.0943367,-1.5754088,2.3977935,-0.13552819,0.32370394,-0.3944999,0.09401533,-0.021340352,-0.1436667,-0.30645782,-0.05746084,-9.136273,1.044019,47.711063,-0.99265206,-1.5927944,-3.5122747,-0.1285809,-0.20359701,-0.24094033,27.25,28.3125,27.375,30.9375,32.75,33.375
0.36805224,-0.33024186,1.1191589,-0.8676046,0.023301128,0.0555423,-0.13264392,-0.40573582,-0.32765877,0.06010758,-3.0730028,0.6246851,0.00043152212,-0.17565303,0.0037069502,-0.0008702157,0.030935325,-0.01867917,0.0118253855,0.42191064,-1.4120256,1.9399389,-2.094096,-1.5754455,2.3974683,-0.13635106,0.32451293,-0.39442927,0.098990865,-0.02165857,-0.14785677,-0.30645782,-0.11492168,-9.289502,0.95226496,47.73077,-0.99017304,-1.5952909,-3.6553855,-0.18178838,-0.19626737,-0.16751596,27.25,28.3125,27.375,30.9375,32.75,33.375
0.37005216,-1.0614622,0.6506992,-0.7524797,0.016103826,0.061106805,-0.12939104,-0.40609702,-0.3276719,0.06013692,-3.0729709,0.62463945,0.00046567345,-0.17665738,0.0047430145,-0.0018635141,0.032554135,-0.021980654,0.010612428,0.42166987,-1.4114,1.9391016,-2.0938795,-1.5754932,2.3972037,-0.13879661,0.32824937,-0.39728153,0.10176425,-0.021795888,-0.14908761,-0.34476507,-0.095768064,-9.11712,0.9612189,47.701214,-1.025378,-1.6751416,-3.6981363,-0.2272534,-0.2070367,-0.13884795,27.25,28.3125,27.375,30.9375,32.75,33.375
0.37205204,-1.190717,0.3051708,-0.40474042,-0.005612609,0.092051186,-0.13456893,-0.40645683,-0.3276627,0.06013081,-3.07292,0.6245932,0.00042951287,-0.17683901,0.0029341201,-0.002094726,0.033762686,-0.022396943,0.0077524423,0.42138335,-1.4107378,1.938311,-2.0936992,-1.5755299,2.3968954,-0.13491505,0.33213878,-0.40178218,0.10327499,-0.02273063,-0.14233844,-0.51714754,-0.19153613,-9.021352,0.9164598,47.711063,-1.1664125,-1.7151668,-3.6550941,-0.26644814,-0.21097519,-0.16103494,27.25,28.3125,27.375,30.9375,32.75,33.375
0.374052,-0.5784683,0.8042281,-0.4352718,-0.01636716,0.10195317,-0.1452465,-0.40679073,-0.3276498,0.06010034,-3.0728168,0.62455666,0.00031511538,-0.17961147,0.0028729842,-0.00055749697,0.03237697,-0.018425472,-0.00037908205,0.42111847,-1.4100529,1.9375442,-2.093496,-1.5755776,2.3966217,-0.13666493,0.33278868,-0.40615648,0.102829084,-0.02310531,-0.13595042,-0.40222588,-0.15322891,-9.002198,0.90750587,47.683304,-0.9581301,-1.824601,-3.4664934,-0.2949655,-0.23057702,-0.2041488,27.25,28.3125,27.375,30.9375,32.75,33.375
