Tylouw/Master_Thesis_Code/training_data/batch_1/big_rod_t0.2/sample_19_session_1.csv
timestamp[s],tcp_force_x[N],tcp_force_y[N],tcp_force_z[N],tcp_force_rx[Nm?],tcp_force_ry[Nm?],tcp_force_rz[Nm?],tcp_pose_x[m],tcp_pose_y[m],tcp_pose_z[m],tcp_pose_rx[rot_vec_x],tcp_pose_ry[rot_vec_y],tcp_pose_rz[rot_vec_z],tcp_velo_x[m/s],tcp_velo_y[m/s],tcp_velo_z[m/s],tcp_velo_rx[rot_vec_x/s],tcp_velo_ry[rot_vec_y/s],tcp_velo_rz[rot_vec_z/s],q1[rad],q2[rad],q3[rad],q4[rad],q5[rad],q6[rad],qd1[rad/s],qd2[rad/s],qd3[rad/s],qd4[rad/s],qd5[rad/s],qd6[rad/s],tool_acc_x,tool_acc_y,tool_acc_z,current_of_whole_robot[A],voltage_of_whole_robot[V],current_J1[A],current_J2[A],current_J3[A],current_J4[A],current_J5[A],current_J6[A],temp_J1[C],temp_J2[C],temp_J3[C],temp_J4[C],temp_J5[C],temp_J6[C]
1.0509975e-06,-0.8778433,-1.1847169,0.32857722,0.00073147385,0.002491866,-0.0071920943,-0.37289843,-0.32819897,0.05992616,-3.0784352,0.6248955,-0.00030345703,0.0022671518,0.0011032729,-0.0037261643,0.0035222417,-0.0076157,-3.0502579e-05,0.44811413,-1.470825,2.0095732,-2.107691,-1.5706857,2.4230556,-0.00010526057,0.004270731,0.0037821212,0.00033650067,0.00013390336,-7.670113e-05,0.019153614,0.22984336,-8.944737,0.70608455,47.716442,-0.29211825,-2.9020343,-2.3952694,-0.5002446,0.148872,-0.13740903,26.25,27.125,26.25,29.3125,30.5,30.9375
0.002053445,-0.6599694,-0.8142278,0.16902913,0.0072477655,0.0011870501,-0.019829525,-0.3728718,-0.328229,0.059929136,-3.078505,0.6247937,-0.00032846644,-0.00042263386,-0.00019752754,-0.0030588033,-0.00057945476,0.0008732261,-2.6851732e-05,0.4481623,-1.4708488,2.009596,-2.1077068,-1.5706376,2.4230313,-0.00010324814,0.0044749603,0.004358279,-0.00987181,0.00013066313,-7.562687e-05,-0.019153614,0.17238252,-8.887277,0.7866488,47.71554,-0.257829,-2.8986034,-2.3267617,-0.46849096,0.14698435,-0.12505917,26.25,27.125,26.25,29.3125,30.5,30.9375
0.004052665,-0.25603223,-0.3155348,0.14966281,0.0005204272,0.010200817,-0.027185034,-0.37290883,-0.32820398,0.059933048,-3.078448,0.62491727,-0.00026810818,-0.00087204366,-0.00041452117,-0.0029073819,-0.0015535031,0.0028968283,-2.5685707e-05,0.44811413,-1.4708252,2.0095613,-2.1077073,-1.5706857,2.4230676,-0.00010131111,0.0040595043,0.005040014,-0.012383905,0.0001275761,-7.458239e-05,0.019153614,0.17238252,-8.925584,0.7642693,47.701214,-0.32968283,-3.0792403,-2.6416235,-0.38365427,0.14097667,-0.122529805,26.25,27.125,26.25,29.3125,30.5,30.9375
0.006051961,-0.57758206,-0.10000694,0.2833591,0.009127962,-0.0106545305,-0.016273446,-0.3728846,-0.32822883,0.059919674,-3.078501,0.6248121,-0.00032935332,-0.00037178645,-0.0001786255,-0.0019768826,-0.00097512966,0.0016750036,-2.5635474e-05,0.44815025,-1.4708139,2.0095847,-2.1077297,-1.5706376,2.4230313,-9.944532e-05,0.0023845942,0.003760849,-0.008078099,0.00014267309,-7.35663e-05,0.038307227,0.076614454,-9.059659,0.7329411,47.709274,-0.31958783,-2.9983797,-2.6012979,-0.39774027,0.1427728,-0.13632378,26.25,27.125,26.25,29.3125,30.5,30.9375
0.008052695,0.117526636,0.380895,-0.1599145,0.042546175,-0.023822412,-0.019140108,-0.3728712,-0.32822445,0.059893537,-3.0784595,0.62482333,-0.00037806827,0.00010675062,6.0677394e-05,-0.0013617481,-0.00029471327,0.0002756823,-4.1093346e-05,0.4481623,-1.4707782,2.009608,-2.1077406,-1.5706495,2.4230556,-0.00011327128,0.001286504,0.0027090108,-0.0043722014,0.00014194472,-7.257762e-05,-0.038307227,0.019153614,-9.097966,0.73069996,47.70032,-0.2395038,-2.932601,-2.4998507,-0.44061217,0.13657366,-0.13952184,26.25,27.125,26.25,29.3125,30.5,30.9375
0.010051955,0.37353018,0.5459301,-0.72801673,0.063075386,-0.028197756,-0.020183204,-0.3728668,-0.32823092,0.05988809,-3.078475,0.6248067,-0.00041545727,0.00011873136,6.6839166e-05,-0.0009103464,-0.00017275715,3.3066604e-05,-3.4810073e-05,0.4481623,-1.4707665,2.0096076,-2.1077402,-1.5706257,2.4230433,-0.00011188957,0.0008153796,0.0018178938,-0.002738445,0.00013897577,-7.7497105e-05,-0.019153614,0.095768064,-9.32781,0.6926589,47.672558,-0.6091015,-2.2668543,-3.0324244,-0.47650832,0.14498952,-0.18373258,26.25,27.125,26.25,29.3125,30.5,30.9375
0.012052363,0.35213837,0.6470572,-0.6108436,0.027639776,-0.008825914,-0.027354866,-0.37287316,-0.32821468,0.059882663,-3.0784411,0.6248191,-0.0003860375,0.00024482395,0.00019617514,-0.0042303256,0.0030310142,-0.006628461,-5.5765413e-05,0.4481502,-1.4707638,2.0096195,-2.1077511,-1.5706614,2.4230433,-0.00024450122,0.009193922,6.637785e-05,-0.001973587,0.00013598682,-0.00018698831,0.1340753,0.05746084,-9.423578,0.6725152,47.699425,-0.83443403,-2.4205246,-3.2056847,-0.48148972,0.11697839,-0.2095119,26.25,27.125,26.25,29.3125,30.5,30.9375
0.014052614,-0.47805345,-0.67333317,-0.98241407,0.0076687746,-9.842084e-07,-0.02854069,-0.37285042,-0.32818517,0.059844315,-3.0783522,0.62495553,-0.0005715289,-0.006124426,0.0014066519,-0.0034959733,0.0021322742,-0.0048054955,-0.001813082,0.4480992,-1.4707252,2.0096514,-2.1076915,-1.5706376,2.4230886,-0.008321927,0.016231194,-0.0094329165,-0.0015447751,0.00013311392,-0.0065004057,0.0,0.15322891,-9.595961,0.71279734,47.66539,-0.45264328,-2.8402143,-2.8697329,-0.47245967,0.14666083,-0.22793412,26.25,27.125,26.25,29.3125,30.5,30.9375
0.016052496,-1.4365598,-1.7612453,-1.0757471,-0.021387052,0.022751419,-0.028204277,-0.37285578,-0.32820043,0.059851192,-3.0783675,0.62487984,-0.000572002,-0.0059122965,0.0019600682,-0.0036275017,0.0024294474,-0.005416912,0.0023804624,0.44812304,-1.4707015,2.0096042,-2.1076677,-1.5706376,2.4230633,-0.009167425,0.015592827,-0.008525083,-0.0011350994,0.00013035968,-0.011540213,-0.26815057,0.30645782,-9.615114,0.7665104,47.672558,-0.43735033,-2.7103043,-3.1575525,-0.46996933,0.13463041,-0.16621897,26.25,27.125,26.25,29.3125,30.5,30.9375
0.01805213,-1.7902166,-2.3084784,-0.99614066,-0.06371362,0.077176556,-0.03933701,-0.37289882,-0.3282001,0.059862345,-3.0783772,0.62487996,-0.0004904778,-0.0051817754,0.0018938485,-0.004283159,0.0033192416,-0.0072570266,0.004838727,0.44809934,-1.4706651,2.0095441,-2.107691,-1.5706614,2.4230385,-0.008376132,0.016506989,-0.008211295,-0.0003196161,0.0001277169,-0.013207457,-0.36391866,0.30645782,-9.787497,0.7351769,47.615234,-0.61357224,-2.479642,-3.4114075,-0.48513275,0.15103987,-0.15696453,26.25,27.125,26.25,29.3125,30.5,30.9375
0.02005199,-2.638157,-2.0524414,-0.98587394,-0.07611627,0.08973335,-0.047248464,-0.37287435,-0.3281559,0.05980862,-3.0782573,0.6248561,-0.00064924307,-0.00679349,0.0017757697,-0.0036111516,0.0026790595,-0.0059582186,0.0037303169,0.44806296,-1.4706049,2.0095904,-2.107643,-1.5706977,2.4230025,-0.009626631,0.01773635,-0.011162995,-4.574817e-05,0.00013397646,-0.013347693,-0.47884032,0.34476504,-9.825804,0.74413085,47.679718,-0.745706,-2.3795648,-3.396851,-0.504596,0.13879243,-0.16270989,26.25,27.125,26.25,29.3125,30.5,30.9375
0.022052284,-2.2601914,-1.7528125,-1.0948621,-0.049032256,0.09587233,-0.062996954,-0.3728855,-0.32818472,0.05981465,-3.0783305,0.62479466,-0.0006514156,-0.008197962,0.001976292,-0.0039605754,0.0029075951,-0.0064585106,0.0029790984,0.4480744,-1.4705799,2.0095546,-2.1076672,-1.5706495,2.4229662,-0.011287635,0.02065951,-0.013578519,-2.9870284e-06,0.00013968763,-0.014255582,-0.7469909,0.4405331,-9.864111,0.7038487,47.68599,-0.74725854,-2.4547575,-3.3884473,-0.49446625,0.15813136,-0.1837804,26.25,27.125,26.25,29.3125,30.5,30.9375
0.024052504,-2.0084622,-1.1404781,-1.0732019,-0.025480704,0.072448894,-0.072055414,-0.37290928,-0.32817253,0.059811838,-3.0783105,0.6248097,-0.0006553459,-0.009549703,0.0020789367,-0.0032235566,0.0021318817,-0.004937404,0.0023537437,0.4480379,-1.4705439,2.0095189,-2.1076553,-1.5706614,2.4229417,-0.012734055,0.020852953,-0.015482186,-1.9503162e-07,0.00017491043,-0.01507555,-0.7086837,0.4213795,-9.768343,0.6859408,47.678825,-0.7772341,-2.4579988,-3.3969893,-0.4963477,0.15474832,-0.20413709,26.25,27.125,26.25,29.3125,30.5,30.9375
0.026052222,-1.8885639,-1.1097026,-1.0749321,-0.007958141,0.052258946,-0.08827331,-0.3729117,-0.32816714,0.05977752,-3.0782685,0.6248015,-0.00074376847,-0.010449325,0.0022059262,-0.0022589143,0.0011718097,-0.0030691721,0.0018259394,0.4480255,-1.4704604,2.009506,-2.1076553,-1.5706614,2.4229295,-0.013826149,0.019683875,-0.016413303,-1.2734171e-08,0.00022742731,-0.015639598,-0.6703765,0.34476504,-9.710882,0.73069996,47.651955,-0.82575595,-2.2935183,-3.4438305,-0.51284707,0.15752566,-0.1990946,26.25,27.125,26.25,29.3125,30.5,30.9375
0.028052248,-2.3084447,-1.2030025,-0.91540956,-0.00418286,0.030172626,-0.098324746,-0.37295458,-0.32817715,0.059810262,-3.0783162,0.62481195,-0.0007065624,-0.012060863,0.002279324,-0.0020691103,0.00032521287,-0.0027858624,0.0009576197,0.44798878,-1.4704478,2.0094087,-2.107619,-1.5706371,2.4228933,-0.015860165,0.021623198,-0.018976754,-8.314503e-10,0.00086219714,-0.01680479,-0.7086837,0.24899697,-9.710882,0.7329411,47.713753,-0.7869562,-2.300344,-3.447491,-0.49657238,0.16098887,-0.2021082,26.25,27.125,26.25,29.3125,30.5,30.9375
0.03005225,-1.4441174,-0.81733215,-0.914744,-0.013552609,0.05930026,-0.11857217,-0.37300697,-0.3282045,0.059831236,-3.078402,0.6248105,-0.0005953423,-0.013196098,0.0021467935,-0.0021913967,-0.00027416216,-0.0031453124,0.000966321,0.44797644,-1.470411,2.0093367,-2.107691,-1.5706133,2.4228692,-0.017112186,0.023859518,-0.021150928,-5.4287762e-11,0.0015545839,-0.018065164,-0.7661445,0.17238252,-9.615114,0.7665104,47.72002,-0.8203664,-2.3255463,-3.4747465,-0.4975075,0.13470897,-0.1982998,26.25,27.125,26.25,29.3125,30.5,30.9375
0.03205244,-2.095884,-0.8320286,-0.70009947,-0.0012325436,0.060864232,-0.12338053,-0.3730282,-0.3281826,0.05980952,-3.0783575,0.62478197,-0.0006048773,-0.01423115,0.0020831388,-0.0018818425,-0.00056953554,-0.002388998,0.00093148265,0.4479401,-1.470351,2.0093234,-2.107703,-1.570649,2.4228208,-0.017888805,0.02487819,-0.022979686,-3.5446028e-12,0.0014882078,-0.018805604,-0.68953013,0.038307227,-9.672575,0.7284641,47.72271,-0.7987037,-2.2991905,-3.368112,-0.51346505,0.14794292,-0.17360927,26.25,27.125,26.25,29.3125,30.5,30.9375
0.03405205,-2.0081985,-0.47441608,-0.6420295,0.018219935,0.06849038,-0.14752865,-0.37304485,-0.32817996,0.059804134,-3.0783403,0.62485576,-0.00067178137,-0.0154780205,0.0018799922,-0.0012985177,-0.0011934554,-0.0011103107,-0.00025835968,0.4479038,-1.4703028,2.0092747,-2.1076672,-1.5706252,2.4228327,-0.01864254,0.025736839,-0.025260553,-2.314372e-13,0.0014915168,-0.018368052,-0.53630114,0.0,-9.5385,0.68818194,47.703903,-0.7952,-2.298266,-3.3548937,-0.49224603,0.1495505,-0.19359607,26.25,27.125,26.25,29.3125,30.5,30.9375
0.03605257,-1.628729,0.10546143,-0.6443397,0.03675747,0.063680016,-0.16034372,-0.37308946,-0.3281739,0.059794284,-3.078349,0.62489694,-0.00066831295,-0.016937584,0.0016390599,-0.00012347165,-0.0022994033,0.0013257858,-0.0016434796,0.4478437,-1.4702308,2.0092266,-2.107703,-1.5706133,2.4227972,-0.019471426,0.025508111,-0.027705986,-1.5111198e-14,0.001428862,-0.017810242,-0.36391866,-0.038307227,-9.423578,0.7172743,47.672558,-0.79499984,-2.2057595,-3.3486335,-0.4903937,0.1532716,-0.19909826,26.25,27.125,26.25,29.3125,30.5,30.9375
0.03805257,-1.3142707,0.69588447,-0.6848301,0.046576038,0.04490778,-0.17335668,-0.37311953,-0.3281949,0.05980128,-3.0783849,0.62490517,-0.00068708265,-0.01797245,0.001734109,6.823074e-05,-0.002475082,0.0018491133,-0.0023772398,0.44783118,-1.4701706,2.0091417,-2.107691,-1.570577,2.4227853,-0.020541621,0.026596433,-0.029341202,-9.866532e-16,0.0013571907,-0.01814536,-0.22984336,-0.076614454,-9.461885,0.69041777,47.65912,-0.74658734,-2.1969404,-3.3175857,-0.48347807,0.14739613,-0.17714424,26.25,27.125,26.25,29.3125,30.5,30.9375
0.040052515,-1.2304397,0.015480362,-0.73594487,0.06414277,0.009544958,-0.16892183,-0.37315637,-0.32818273,0.05978116,-3.0783615,0.6248615,-0.00072191114,-0.019003078,0.0016564187,0.00019185164,-0.0027418067,0.002197216,-0.002756659,0.4477829,-1.4700743,2.009082,-2.107691,-1.570589,2.4227128,-0.021388622,0.02807095,-0.031245481,-6.44214e-17,0.0014420305,-0.0186118,-0.21068975,-0.038307227,-9.481039,0.74413085,47.675243,-0.81164265,-2.2046828,-3.3404157,-0.48443288,0.15791237,-0.18609482,26.25,27.125,26.25,29.3125,30.5,30.9375
0.04205245,-0.45873478,0.012309929,-0.5383773,0.045926183,0.008183948,-0.18740255,-0.3731954,-0.32816938,0.059796564,-3.0783474,0.62489694,-0.0006417457,-0.020060321,0.0015290665,0.00018752496,-0.002751733,0.002391844,-0.0025721644,0.44774678,-1.4700617,2.009033,-2.107691,-1.5706252,2.4227006,-0.022055488,0.030020183,-0.03337489,-4.206257e-18,0.001362486,-0.019461356,-0.11492168,0.0,-9.461885,0.7284641,47.705692,-0.7911784,-2.224112,-3.2979937,-0.47249424,0.1451964,-0.18431824,26.25,27.125,26.25,29.3125,30.5,30.9375
0.044052426,-0.4412995,-0.35129252,-0.7687064,0.027338555,0.0028123904,-0.16899794,-0.3732494,-0.32816768,0.05979453,-3.0783608,0.62491804,-0.0006374038,-0.021299312,0.0015254281,0.00083313254,-0.0032177737,0.0038618492,-0.002148035,0.44768637,-1.4699776,2.008948,-2.107703,-1.5706133,2.4226518,-0.023021532,0.030462185,-0.035342805,-2.7463852e-19,0.0011417149,-0.020849813,-0.019153614,0.019153614,-9.423578,0.80456203,47.683304,-0.7557955,-2.155066,-3.378263,-0.47239402,0.16494721,-0.17674014,26.25,27.125,26.25,29.3125,30.5,30.9375
0.046052232,-0.5064823,-0.78249377,-0.6440947,0.007610074,0.007052479,-0.16598833,-0.37329575,-0.32814497,0.059802055,-3.078336,0.6249335,-0.00058898167,-0.022504251,0.0017215486,0.0011368366,-0.0035201649,0.0045907805,-0.0023398034,0.4476258,-1.4699415,2.0088885,-2.107691,-1.570649,2.422604,-0.024450744,0.031397972,-0.03706727,-1.7931933e-20,0.0010949794,-0.022085967,-0.095768064,0.05746084,-9.404425,0.7709874,47.72002,-0.7263104,-2.0716407,-3.3593183,-0.47432178,0.16841096,-0.16897711,26.25,27.125,26.25,29.3125,30.5,30.9375
0.048053008,-0.9537273,-1.0701964,-0.76773673,-0.0048941444,0.00226371,-0.1586458,-0.37334064,-0.32815376,0.059798166,-3.0783327,0.62495226,-0.00058859267,-0.023199163,0.0020294676,0.0010134125,-0.0033207953,0.0044883136,-0.0026082657,0.44760144,-1.4698452,2.0087917,-2.107691,-1.570649,2.422592,-0.025565527,0.032433294,-0.037923526,-1.1708272e-21,0.0009574387,-0.022931335,-0.019153614,0.21068975,-9.442732,0.73069996,47.72092,-0.71248114,-2.0283003,-3.3287082,-0.47382545,0.15709393,-0.15096882,26.25,27.125,26.25,29.3125,30.5,30.9375
0.050052434,-1.1918697,-1.3629779,-0.88121057,-0.006827159,0.006076299,-0.1507541,-0.3733881,-0.3281447,0.05980678,-3.0783668,0.62499785,-0.0005936421,-0.02426289,0.0021118817,0.0012421082,-0.0034446458,0.005130364,-0.0028409674,0.44751704,-1.4698089,2.008732,-2.107691,-1.5706133,2.4225316,-0.026567925,0.03351528,-0.039636493,-7.644665e-23,0.000788193,-0.02369947,-0.05746084,0.30645782,-9.461885,0.7530795,47.711063,-0.68564844,-2.0447402,-3.4391642,-0.44397753,0.18897888,-0.14815022,26.25,27.125,26.25,29.3125,30.5,30.9375
0.05205254,-1.0129615,-1.7323234,-0.9908381,-0.0065030027,0.0023465853,-0.15551877,-0.3734443,-0.32814825,0.059816852,-3.0783617,0.62501556,-0.0005663037,-0.025528807,0.0021858623,0.0015784202,-0.003889695,0.0058942116,-0.0026396804,0.44748068,-1.4697245,2.008611,-2.1076672,-1.5706252,2.422507,-0.027898127,0.03462159,-0.041624684,-4.99142e-24,0.0008543922,-0.025229722,0.05746084,0.36391866,-9.423578,0.7351769,47.699425,-0.64576375,-1.9778101,-3.4572935,-0.4582054,0.18381712,-0.12800816,26.25,27.125,26.25,29.3125,30.5,30.9375
0.054052543,-1.1379739,-1.9750361,-0.9550756,-0.0087930495,-0.011894,-0.14463803,-0.37348354,-0.32812238,0.059795257,-3.0783327,0.62508583,-0.0005966281,-0.02629908,0.0022199885,0.002020924,-0.0043951534,0.00678851,-0.0021154727,0.4473964,-1.4696528,2.0085871,-2.107691,-1.5706252,2.4224703,-0.028701626,0.034701973,-0.04273033,-3.2590405e-25,0.0009200949,-0.026556915,0.038307227,0.34476504,-9.5385,0.7530795,47.677036,-0.64754033,-1.9801223,-3.4504528,-0.44438434,0.1936488,-0.12909263,26.25,27.125,26.25,29.3125,30.5,30.9375
0.056051776,-0.72291386,-1.9080641,-0.90744543,-0.01970796,-0.0061642276,-0.15442282,-0.37352574,-0.32812792,0.059815247,-3.07839,0.6249996,-0.0005477882,-0.027168375,0.0017366038,0.0023354776,-0.005493175,0.0071867323,-0.0013277439,0.44736037,-1.4696285,2.0085146,-2.107691,-1.5706133,2.4223733,-0.029130537,0.035876893,-0.04474199,-2.1279207e-26,0.0017344754,-0.02777374,-0.05746084,0.40222588,-9.595961,0.7150385,47.701214,-0.6585156,-1.9028028,-3.4724221,-0.4412973,0.17799087,-0.10749555,26.25,27.125,26.25,29.3125,30.5,30.9375
0.05805182,-0.9693366,-1.9813735,-0.88438535,-0.026182935,-0.008538386,-0.14472006,-0.37358597,-0.32812077,0.05980624,-3.078373,0.6250355,-0.0005381759,-0.027940536,0.0015364141,0.0021054533,-0.0060762763,0.006539067,-0.0012593747,0.44729996,-1.4695199,2.0084188,-2.107703,-1.5706247,2.4223375,-0.029994082,0.037866525,-0.04640309,-1.3893802e-27,0.0025368573,-0.02870595,-0.05746084,0.40222588,-9.576807,0.73741806,47.677036,-0.67569387,-1.8950553,-3.5155659,-0.43212426,0.17696491,-0.110048845,26.25,27.125,26.25,29.3125,30.5,30.9375
0.060051993,-1.0535941,-2.0721238,-0.8995407,-0.025506437,0.0019615414,-0.14917311,-0.37365806,-0.3281236,0.059836753,-3.0784054,0.62502265,-0.00047794948,-0.028791416,0.0013270557,0.0022096557,-0.0065590353,0.006722037,-0.0012057207,0.4472398,-1.4694594,2.0082743,-2.1076672,-1.5706247,2.4222653,-0.030606652,0.039237846,-0.048149362,-9.07166e-29,0.0028908867,-0.029371481,-0.05746084,0.40222588,-9.595961,0.78217715,47.694054,-0.6449096,-1.8298433,-3.4798367,-0.41829252,0.17540658,-0.10239051,26.25,27.125,26.25,29.3125,30.5,30.9375
0.06205223,-1.2792702,-1.8572057,-0.8471594,-0.027841978,0.012738426,-0.14448957,-0.3737039,-0.32812887,0.05983908,-3.078432,0.62502766,-0.00048571514,-0.02953853,0.0010011421,0.0020656362,-0.0069836937,0.0063672764,-0.00048729934,0.4471916,-1.469387,2.0081894,-2.1076672,-1.5706004,2.422217,-0.03102903,0.041200437,-0.04997688,-5.923146e-30,0.0034235928,-0.030511875,-0.11492168,0.4405331,-9.615114,0.7642693,47.66808,-0.71305007,-1.8549562,-3.506754,-0.4168769,0.17416006,-0.08590934,26.25,27.125,26.25,29.3125,30.5,30.9375
0.06405222,-0.9687305,-1.461809,-0.7768891,-0.022676865,0.02356564,-0.14860716,-0.3737759,-0.3281125,0.05984257,-3.0784237,0.62506455,-0.00048803014,-0.029903725,0.000857467,0.0018714503,-0.0071390225,0.0046321065,0.0001648117,0.44709545,-1.4692905,2.0080698,-2.1076424,-1.5706004,2.422145,-0.03168593,0.043021463,-0.051899664,0.0015962295,0.0043135914,-0.031821646,-0.15322891,0.40222588,-9.595961,0.7642693,47.684196,-0.67770135,-1.9456925,-3.4855828,-0.40998593,0.15528049,-0.07183358,26.25,27.125,26.25,29.3125,30.5,30.9375
0.066052124,-1.3223385,-1.2624907,-0.7498893,-0.0034918084,0.014855273,-0.14687082,-0.37383988,-0.32813302,0.059851807,-3.0784688,0.6250921,-0.00045009138,-0.030988446,0.00072044664,0.0022187817,-0.007787553,0.0051136697,-0.0007682206,0.44705912,-1.4691944,2.0079486,-2.1076667,-1.5705756,2.42212,-0.032660346,0.044157397,-0.05400523,0.0018508584,0.004688126,-0.031862166,-0.19153613,0.36391866,-9.557653,0.7978386,47.72002,-0.6989958,-1.8493354,-3.4287539,-0.40923366,0.14666821,-0.058980368,26.25,27.125,26.25,29.3125,30.5,30.9375
0.06805212,-1.2040188,-0.62757367,-0.71530616,-0.0007706075,0.015465621,-0.15000056,-0.37390298,-0.32813165,0.05986593,-3.078497,0.62509924,-0.00039077693,-0.031925928,-0.00025753793,0.0025022577,-0.009234377,0.005580324,-0.0012759359,0.44699928,-1.4691337,2.0078523,-2.1076787,-1.5705756,2.4220612,-0.032410882,0.046065383,-0.056690894,0.0015786998,0.00578704,-0.031104796,-0.21068975,0.36391866,-9.481039,0.7553206,47.690468,-0.7515284,-1.9282118,-3.441398,-0.39638263,0.14545536,-0.08031818,26.25,27.125,26.25,29.3125,30.5,30.9375
0.07005202,-0.9956714,-0.5102854,-0.42067602,0.0014443456,0.018671202,-0.15125018,-0.37394667,-0.3281464,0.059854537,-3.0785224,0.62504745,-0.00045489802,-0.032600306,4.849866e-07,0.0019418487,-0.00918757,0.0046364944,-0.0026387495,0.4469628,-1.4690135,2.0077436,-2.1076667,-1.5705394,2.4219892,-0.033748895,0.04803151,-0.057507817,0.0013008773,0.0061500203,-0.031079937,-0.24899697,0.19153613,-9.404425,0.7396539,47.678825,-0.79061425,-1.8921626,-3.4226384,-0.40168574,0.12147198,-0.08423059,26.25,27.125,26.25,29.3125,30.5,30.9375
0.07205218,-1.0905842,-1.0539037,-0.38803378,0.008972899,0.02632391,-0.14855681,-0.37404662,-0.32814547,0.059889134,-3.0785775,0.6250198,-0.00032412907,-0.034790263,-0.0005749296,0.003297053,-0.010631389,0.0076621613,-0.0016569371,0.44687846,-1.4689412,2.0075877,-2.1076787,-1.5705513,2.4218807,-0.034634773,0.04894087,-0.06157021,0.0011015304,0.0061385524,-0.032944396,-0.2681506,0.21068975,-9.32781,0.7732232,47.71554,-0.7951834,-1.8244061,-3.4647236,-0.39020765,0.1306978,-0.06162586,26.25,27.125,26.25,29.3125,30.5,30.9375
0.07405212,-1.6081623,-0.5895906,-0.27726322,0.0052143573,0.015742894,-0.14237098,-0.37409782,-0.32814878,0.05987629,-3.0785868,0.6250205,-0.00033563026,-0.03560237,-0.0006867582,0.0025309767,-0.009574638,0.006782027,-0.001592955,0.44683045,-1.4688323,2.0075028,-2.1077025,-1.5705398,2.421832,-0.034766704,0.052398976,-0.06357178,0.00089810876,0.005561634,-0.033137504,-0.28730422,0.11492168,-9.32781,0.7911258,47.684196,-0.8148076,-1.9089789,-3.2372036,-0.3559457,0.11600398,-0.076653175,26.25,27.125,26.25,29.3125,30.5,30.9375
0.07605243,-1.8970599,-0.65970737,-0.28833887,0.010673977,0.014577323,-0.14262882,-0.37418658,-0.32812548,0.05988652,-3.078556,0.62514883,-0.00028349616,-0.035760388,-0.00053083204,0.00242477,-0.009301139,0.0066606337,-0.0011282491,0.44672233,-1.4687362,2.0073712,-2.1076906,-1.5705637,2.421808,-0.035061266,0.052756295,-0.06373271,0.0009298463,0.005368836,-0.033896174,-0.3256114,0.038307227,-9.289502,0.7530795,47.66987,-0.8417771,-1.9262455,-3.4613962,-0.3542757,0.125244,-0.077294506,26.25,27.125,26.25,29.3125,30.5,30.9375
0.07805238,-0.9413782,-0.24171108,-0.14841925,0.010895336,0.041433748,-0.15613744,-0.37426594,-0.32815766,0.059908412,-3.078656,0.62513024,-0.0002765702,-0.037160005,-0.00066242676,0.0036058323,-0.009753794,0.008424038,-0.0010135055,0.44666216,-1.4686284,2.0072024,-2.10769,-1.5704917,2.4217236,-0.03583214,0.052838948,-0.06681249,0.0021451162,0.005014048,-0.03477939,-0.30645782,0.038307227,-9.232041,0.7620334,47.66539,-0.8519204,-1.7222044,-3.392907,-0.35499758,0.114997506,-0.073461965,26.25,27.125,26.25,29.3125,30.5,30.9375
0.080052294,-1.1736791,-0.12987638,-0.28475693,0.023037322,0.029784527,-0.1531047,-0.3743666,-0.32814822,0.059934955,-3.0786602,0.625152,-0.00016667914,-0.03942814,-0.0005234326,0.004436763,-0.009999269,0.0092104655,-0.004168309,0.4465774,-1.4685318,2.0070326,-2.1076777,-1.5705274,2.421652,-0.038054638,0.055014253,-0.071498275,0.0038399247,0.004892965,-0.033843946,-0.28730422,0.076614454,-9.193734,0.75755644,47.70838,-0.83083105,-1.8098681,-3.1874852,-0.35986775,0.10783854,-0.08171857,26.25,27.125,26.25,29.3125,30.5,30.9375
0.08205188,-1.166872,-0.2616798,-0.3191931,0.02459201,0.0327188,-0.15164934,-0.37440827,-0.32814905,0.059907213,-3.0786617,0.6251333,-0.00026357747,-0.038126975,0.00021991771,0.0015907936,-0.0070346254,0.0032704398,-0.0054937014,0.4465173,-1.4683985,2.0069497,-2.1076777,-1.5704921,2.42158,-0.038198486,0.059345435,-0.06990656,0.0045567523,0.0047883266,-0.03266296,-0.40222588,0.095768064,-9.289502,0.75755644,47.71465,-0.8206185,-1.8706753,-3.4530072,-0.36175168,0.12088978,-0.096825965,26.25,27.125,26.25,29.3125,30.5,30.9375
0.08405197,-1.2928611,-0.48102573,-0.19988705,0.012797193,0.036616247,-0.15414578,-0.37447917,-0.32814506,0.059901055,-3.0786448,0.625187,-0.0002767344,-0.0400102,-0.000789617,0.0036861408,-0.008721884,0.0079696495,-0.003230325,0.44644552,-1.4682671,2.0068166,-2.1076658,-1.5704921,2.421544,-0.037648138,0.058544267,-0.07376688,0.0042533595,0.004272123,-0.03437293,-0.3256114,0.19153613,-9.308657,0.7172743,47.716442,-0.88145053,-1.8997877,-3.2604675,-0.36088133,0.12513629,-0.122523084,26.25,27.125,26.25,29.3125,30.5,30.9375
0.08605241,-1.4133201,-0.9261457,-0.3711887,0.0017059231,0.035226762,-0.15344515,-0.37456638,-0.3281445,0.059927568,-3.0786746,0.6252126,-0.00026961914,-0.041845024,-0.0005635114,0.0041945614,-0.008646496,0.009441316,-0.0036920107,0.44634905,-1.4681708,2.0066364,-2.1076062,-1.5704678,2.42146,-0.03924265,0.060098894,-0.076655194,0.0042959694,0.0035644805,-0.03550254,-0.24899697,0.22984336,-9.346964,0.76874626,47.709274,-0.9109324,-1.7006605,-3.2688513,-0.33284557,0.11995187,-0.115403876,26.25,27.125,26.25,29.3125,30.5,30.9375
0.08805248,-1.5930167,-0.9134934,-0.53839,-0.010293178,0.03215283,-0.14605823,-0.37466383,-0.3281225,0.059927635,-3.078642,0.6252452,-0.00019638905,-0.042513307,8.9511756e-05,0.0032338882,-0.007201993,0.0073595634,-0.0052159224,0.44625244,-1.468038,2.0064929,-2.1076171,-1.5705165,2.421388,-0.040789362,0.063107066,-0.0779472,0.00508122,0.003160887,-0.035523605,-0.28730422,0.22984336,-9.251195,0.77545905,47.69763,-0.86276126,-1.8841423,-3.2112784,-0.33437803,0.12597536,-0.117097005,26.25,27.125,26.25,29.3125,30.5,30.9375
0.09005252,-1.8196012,-1.5574113,-0.48729035,-0.00549114,0.021186048,-0.14190029,-0.37474442,-0.32815045,0.059937004,-3.078697,0.6251803,-0.00017451194,-0.043847363,0.000637222,0.0031739792,-0.00675688,0.006952277,-0.0070515447,0.44621584,-1.4678936,2.0063126,-2.1076171,-1.5704926,2.421304,-0.04286178,0.065049484,-0.08013881,0.0058917124,0.002933901,-0.035758566,-0.36391866,0.24899697,-9.346964,0.7911258,47.70211,-0.7936076,-1.7972994,-3.262453,-0.3483392,0.1403561,-0.14815018,26.25,27.125,26.25,29.3125,30.5,30.9375
0.09205262,-1.2087675,-1.2415589,-0.6276715,-0.007977787,0.030194674,-0.14856209,-0.3748403,-0.32815176,0.059943564,-3.0787287,0.6251671,-0.00011734497,-0.04396678,0.0011747536,0.002334218,-0.0060740034,0.0048051476,-0.007856735,0.44613123,-1.467761,2.0061572,-2.1076405,-1.5704921,2.4212072,-0.04417818,0.06681375,-0.080307245,0.006526673,0.0032477733,-0.03626995,-0.30645782,0.30645782,-9.289502,0.7351769,47.72002,-0.7250763,-1.8484017,-3.186834,-0.3567233,0.13337395,-0.1420269,26.25,27.125,26.25,29.3125,30.5,30.9375
0.094051614,-0.92792606,-1.2963717,-0.52808505,-0.0025041292,0.02999771,-0.14889552,-0.37490892,-0.32814458,0.059952527,-3.0787241,0.6251656,-0.00015875457,-0.043942697,0.0006958776,0.0018849345,-0.0060873777,0.0038478712,-0.0066398294,0.4460476,-1.4676528,2.0060012,-2.107569,-1.5704802,2.4211233,-0.043533396,0.06852362,-0.08116624,0.006532854,0.0036706557,-0.036842052,-0.34476504,0.3256114,-9.404425,0.7463667,47.66539,-0.8188417,-1.8817976,-3.3688674,-0.35924542,0.13351528,-0.17101282,26.25,27.125,26.25,29.3125,30.5,30.9375
0.09605224,-1.3886129,-1.3886567,-0.48133177,-0.0023596028,0.021909803,-0.14365603,-0.37501508,-0.32814255,0.05996214,-3.0787258,0.6253196,-0.00012518466,-0.046584498,-0.0004981817,0.0032594493,-0.0077172997,0.0067118136,-0.006437156,0.44593942,-1.4675081,2.00582,-2.107569,-1.5704678,2.421111,-0.04381611,0.07112921,-0.08723009,0.0067043365,0.003895432,-0.037323702,-0.38307226,0.3256114,-9.346964,0.7709874,47.69763,-0.87459433,-1.8627254,-3.100284,-0.34809875,0.1274537,-0.17668733,26.25,27.125,26.25,29.3125,30.5,30.9375
0.09805243,-1.02842,-0.9866435,-0.5533787,-0.009845435,0.031547464,-0.15382713,-0.3751141,-0.3281277,0.059950426,-3.0787082,0.6253556,-0.000114796014,-0.0464919,0.0010627056,0.0016732676,-0.0064637843,0.0034068928,-0.008618433,0.4458304,-1.4673399,2.0056646,-2.107581,-1.5704802,2.421027,-0.04684838,0.07272421,-0.085378565,0.006779163,0.0041945768,-0.038176056,-0.38307226,0.30645782,-9.404425,0.7978386,47.701214,-0.8339207,-1.8539591,-3.3024697,-0.3565709,0.14062494,-0.19525215,26.25,27.125,26.25,29.3125,30.5,30.9375
0.100052364,-1.2302607,-1.2680173,-0.6326516,-0.0022679963,0.016277768,-0.14406955,-0.37523106,-0.32812446,0.059956357,3.0787113,-0.62539417,0.000110351924,-0.048144706,0.0005137222,0.002170021,-0.0070114625,0.0042913817,-0.008094799,0.4457103,-1.4671595,2.0054471,-2.107557,-1.5704678,2.4209306,-0.047364794,0.075148225,-0.08930263,0.0072456948,0.004301321,-0.03921366,-0.17238252,0.30645782,-9.423578,0.75755644,47.67345,-0.71849716,-1.9220135,-3.2256877,-0.34583247,0.12493019,-0.21656077,26.25,27.125,26.25,29.3125,30.4375,30.9375
0.10205263,-1.0489391,-1.2024752,-0.46560797,-0.0055253175,0.019106157,-0.14382765,-0.37531924,-0.32815623,0.059989717,3.0786586,-0.6252686,1.3863642e-05,-0.048883244,0.00036332876,0.0022376885,-0.0069163023,0.0046203085,-0.008019409,0.44567412,-1.4670631,2.0052674,-2.107569,-1.570444,2.4208229,-0.047584705,0.076470025,-0.09092956,0.0072969967,0.004074318,-0.039507084,-0.17238252,0.24899697,-9.270349,0.7284641,47.685097,-0.8552227,-1.9727157,-3.1981616,-0.34922788,0.13283494,-0.24215609,26.25,27.125,26.25,29.3125,30.4375,30.9375
0.104051836,-1.0615956,-0.82100356,-0.44493774,-0.0078883385,0.005685069,-0.1474272,-0.375417,-0.32812828,0.059973087,3.0786738,-0.62538576,6.206972e-05,-0.0497655,0.0005658269,0.002037606,-0.00665873,0.0043655587,-0.006431989,0.4455418,-1.466883,2.005099,-2.1075332,-1.5704564,2.4207618,-0.04865805,0.07819478,-0.09240347,0.0073877196,0.0039477893,-0.042166766,-0.1340753,0.24899697,-9.212888,0.7351769,47.71554,-0.8141228,-1.9218886,-3.1836917,-0.3485158,0.13275221,-0.22970632,26.25,27.125,26.25,29.3125,30.4375,30.9375
0.106051765,-1.0827793,-1.193507,-0.6822059,0.010919245,0.0040196683,-0.13085021,-0.3755394,-0.3281383,0.059988536,3.0786486,-0.6253399,-3.699886e-05,-0.050494086,0.00029978078,0.0021246313,-0.0068957238,0.004503536,-0.0055101113,0.44545782,-1.4667147,2.004884,-2.107557,-1.5704678,2.4206526,-0.04890295,0.07959105,-0.09418861,0.007549339,0.0041024033,-0.04333228,-0.1340753,0.22984336,-9.308657,0.77545905,47.701214,-0.8743305,-1.9245546,-3.207168,-0.33622226,0.14810145,-0.24157749,26.25,27.125,26.25,29.3125,30.4375,30.9375
0.10805178,-0.30544943,-0.5031672,-0.4989623,-0.008367848,0.024707587,-0.15299873,-0.37563866,-0.32814118,0.059990525,3.0786111,-0.6254499,2.6374802e-05,-0.051281646,0.00019119194,0.001064693,-0.006197768,0.0026287467,-0.007107878,0.44534954,-1.4665337,2.0046666,-2.1074975,-1.5704321,2.4206178,-0.04951058,0.08367919,-0.096271165,0.0075376537,0.0042753867,-0.04234063,-0.19153613,0.21068975,-9.32781,0.7038487,47.69763,-0.81531954,-1.8913037,-3.1889217,-0.3310477,0.14811848,-0.26204652,26.25,27.125,26.25,29.3125,30.4375,30.9375
0.11005187,-1.0757469,-0.8177398,-0.4264907,-0.00059735466,0.008416868,-0.14782196,-0.37569958,-0.328156,0.059995923,3.0785966,-0.6253683,8.875881e-05,-0.051597312,-0.00035332938,0.0020905782,-0.0072347545,0.0042260056,-0.0057372763,0.44528985,-1.4664142,2.0045116,-2.1074488,-1.5703839,2.420509,-0.048928082,0.08253173,-0.097473666,0.008000992,0.004521537,-0.04312877,-0.11492168,0.21068975,-9.32781,0.71951014,47.683304,-0.93223596,-2.0191033,-3.1974454,-0.33422124,0.12071985,-0.30034342,26.25,27.125,26.25,29.3125,30.4375,30.9375
0.11205193,-0.86967856,-0.92579556,-0.59064656,-0.004059034,0.015803384,-0.14153117,-0.37583718,-0.32814074,0.059990812,3.07858,-0.6253852,3.215248e-05,-0.052627556,-8.861952e-05,0.0022755768,-0.0078979535,0.004491468,-0.0061422535,0.4451452,-1.4662104,2.004307,-2.1074846,-1.5703958,2.4203773,-0.050654944,0.08327644,-0.09873035,0.007986397,0.0050057517,-0.044450343,-0.15322891,0.24899697,-9.404425,0.7553206,47.68062,-0.93507063,-1.7988496,-3.1857727,-0.33233947,0.13133992,-0.30698258,26.25,27.125,26.25,29.3125,30.4375,30.9375
0.1140523,-1.2707866,-0.98781514,-0.57579696,-0.006178093,0.010208287,-0.14033715,-0.37593105,-0.32813665,0.059981875,3.0785892,-0.62550044,6.841369e-05,-0.052987315,6.1448416e-05,0.0002686631,-0.005948225,0.0006570508,-0.005090359,0.44506094,-1.4660168,2.0041034,-2.107437,-1.5704077,2.420364,-0.0511722,0.08890026,-0.10042635,0.0083593475,0.0048929523,-0.046017766,-0.05746084,0.24899697,-9.423578,0.7105615,47.696735,-0.9038596,-2.1560595,-3.1933064,-0.32383904,0.11923474,-0.3232833,26.25,27.125,26.25,29.3125,30.4375,30.9375
0.11605172,-1.5131388,-1.0077645,-0.6482738,-0.004706389,0.00027294407,-0.13759549,-0.376061,-0.32814404,0.060007885,3.0785558,-0.62545455,-4.8491598e-05,-0.052555062,-0.0008843259,0.00075538777,-0.006256936,0.0013893781,-0.0024345822,0.44496575,-1.4658614,2.0038755,-2.1074488,-1.5704197,2.4202445,-0.04896739,0.088482454,-0.101180464,0.00873749,0.004859878,-0.046468034,-0.095768064,0.2681506,-9.423578,0.7642693,47.650166,-1.096513,-1.8841598,-3.286408,-0.33405358,0.13365236,-0.34324613,26.25,27.125,26.25,29.3125,30.4375,30.9375
0.11805165,-0.769524,-1.1302418,-0.5196235,-0.0026300405,0.016036326,-0.15000504,-0.37616935,-0.32813627,0.060000014,3.0785217,-0.6255069,3.0200632e-05,-0.053591523,-0.00024799502,-0.00024297604,-0.005495914,-0.00014093246,-0.0066727,0.44482115,-1.4656684,2.0036728,-2.107413,-1.5703715,2.420137,-0.051050216,0.09166538,-0.10234599,0.008431731,0.0048273853,-0.04431158,-0.095768064,0.15322891,-9.442732,0.83365434,47.687782,-1.110106,-2.0587602,-3.3555918,-0.33404,0.13821124,-0.37863433,26.25,27.125,26.25,29.3125,30.4375,30.9375
0.120051645,-0.6606482,-1.1039361,-0.44066504,0.0062505826,0.008619042,-0.14250623,-0.37627548,-0.32812074,0.060007006,3.0785494,-0.6255695,-4.339012e-05,-0.054411594,-0.00038347548,0.00021329107,-0.006031741,0.0006164569,-0.005716221,0.44473696,-1.4655126,2.0034797,-2.1073892,-1.5704316,2.4200885,-0.051622298,0.09212592,-0.1039685,0.008676804,0.004983292,-0.045839358,-0.038307227,0.17238252,-9.423578,0.8157518,47.65912,-1.1664667,-1.9909029,-3.2846909,-0.3266338,0.13167277,-0.4118812,26.25,27.125,26.25,29.3125,30.4375,30.9375
0.12205181,-1.1651332,-1.0301807,-0.65428615,0.015851313,-0.015933534,-0.1443982,-0.37640032,-0.3281334,0.06002106,3.0785084,-0.6255419,-0.000106168525,-0.05678758,-0.00083523407,0.0012479115,-0.007997109,0.0030239455,-0.0052760877,0.44464034,-1.4653323,2.0032513,-2.1074007,-1.5704197,2.41998,-0.053384285,0.09365088,-0.10789281,0.008056021,0.005715638,-0.048039448,-0.11492168,0.24899697,-9.32781,0.81351066,47.69763,-1.1065234,-2.068621,-3.2682583,-0.3351112,0.12541473,-0.42138487,26.25,27.125,26.25,29.3125,30.4375,30.9375
0.124052055,-0.86791843,-0.72371644,-0.4453928,0.005714126,-0.012603946,-0.14741999,-0.376498,-0.3281488,0.060013253,3.0784628,-0.6255506,-6.549976e-06,-0.055497784,-0.0009773946,-0.00013201841,-0.0069422093,0.00017599302,-0.0020954534,0.44453278,-1.4651283,2.0030363,-2.107365,-1.5703477,2.4198837,-0.052125495,0.09518386,-0.10645179,0.008110277,0.005990877,-0.049962465,-0.1340753,0.17238252,-9.32781,0.800085,47.67166,-1.2101004,-2.0178955,-3.4140363,-0.32177925,0.11938249,-0.42941105,26.25,27.125,26.25,29.3125,30.4375,30.9375
0.12605241,-0.5042989,-0.7312379,-0.46799654,0.004417206,0.002190548,-0.14486498,-0.376608,-0.32814357,0.060010385,3.0784595,-0.62553024,-2.1082367e-05,-0.05788359,-0.00092197896,0.0007055994,-0.007521989,0.0020117161,-0.0021379895,0.44442406,-1.4649479,2.002844,-2.107365,-1.5703477,2.4197628,-0.054168947,0.09707581,-0.11053888,0.008400753,0.005718277,-0.05196036,-0.076614454,0.19153613,-9.3661175,0.7620334,47.691364,-1.1843551,-1.9724205,-3.362043,-0.31222075,0.106793456,-0.43140608,26.25,27.125,26.25,29.3125,30.4375,30.9375
0.12805231,-0.8610835,-1.0973566,-0.47391468,0.012537265,0.0019320091,-0.14448509,-0.3767245,-0.32813317,0.060006745,3.078457,-0.62556726,2.1447942e-05,-0.057535432,-0.0001280548,-0.0003930064,-0.006082797,-0.0003130236,-0.0005635913,0.4442918,-1.464744,2.0026166,-2.1073167,-1.5703357,2.4196541,-0.055120148,0.09839122,-0.10959737,0.0088644335,0.0054207514,-0.05448622,-0.038307227,0.15322891,-9.32781,0.7911258,47.687782,-1.1242918,-1.8799177,-3.4789076,-0.32292145,0.12089373,-0.44812602,26.25,27.125,26.25,29.3125,30.4375,30.9375
0.13005246,-0.9934725,-1.0635397,-0.5853119,0.0041146115,0.0038594254,-0.14502457,-0.3768412,-0.32814625,0.06001228,3.0784595,-0.6255271,-2.0017835e-05,-0.05836573,-3.176342e-05,0.00031555226,-0.0066677644,0.00064017554,0.0019973782,0.44421947,-1.4645405,2.0023768,-2.1073048,-1.5703477,2.4195566,-0.056105927,0.09807275,-0.11103583,0.009509242,0.0055397134,-0.058032423,-0.05746084,0.21068975,-9.270349,0.7709874,47.701214,-1.1591749,-1.9696107,-3.4943652,-0.3132292,0.12090819,-0.43285063,26.25,27.125,26.25,29.3125,30.4375,30.9375
0.13205254,-1.0566049,-0.7991025,-0.26990607,-0.005616813,0.006786792,-0.15021391,-0.37694976,-0.32814705,0.060009398,3.0784166,-0.6255557,-2.0724829e-07,-0.059352003,-9.2221584e-05,0.00078205374,-0.0076787444,0.0012201665,0.0037334627,0.44409907,-1.4643606,2.002185,-2.1073048,-1.5703114,2.4194596,-0.057300635,0.09857087,-0.11272378,0.009742018,0.0062019257,-0.060963053,-0.05746084,0.11492168,-9.251195,0.77545905,47.728977,-1.156878,-1.7438581,-3.5444582,-0.31954983,0.11243087,-0.42077878,26.25,27.125,26.25,29.3125,30.4375,30.9375
0.13405268,-1.4306066,-0.8643926,-0.4884844,0.004397681,-0.0020018585,-0.14135228,-0.37708864,-0.32813877,0.060026158,3.0784087,-0.6254948,-7.071298e-05,-0.060530912,7.444125e-05,0.000120489574,-0.0075556724,-0.0001352825,0.0064911,0.4439666,-1.4641796,2.0019443,-2.107293,-1.5703229,2.4192903,-0.05896166,0.101914905,-0.11494989,0.00990034,0.0066730077,-0.06538026,-0.11492168,0.15322891,-9.289503,0.7933669,47.723602,-1.2099298,-2.046241,-3.3806314,-0.3335528,0.09322399,-0.3940103,26.25,27.125,26.25,29.3125,30.4375,30.9375
0.1360522,-1.1715715,-0.7741595,-0.6800516,0.012766266,0.00877051,-0.15405877,-0.37720093,-0.3281669,0.060019627,3.0783992,-0.62539506,-3.7031463e-05,-0.061962496,-0.0002852084,0.0010710423,-0.008457275,0.0021603978,0.010072462,0.44389442,-1.4639403,2.0016925,-2.107281,-1.5702871,2.4191573,-0.05943173,0.102277055,-0.11748548,0.009617822,0.006496361,-0.0694299,-0.11492168,0.22984336,-9.32781,0.78217715,47.692257,-1.1578208,-1.8013327,-3.6026196,-0.31201115,0.10750599,-0.35360578,26.25,27.125,26.25,29.3125,30.4375,30.9375
0.1380522,-1.4609523,-0.4150137,-0.35413724,0.004200298,0.009317013,-0.15090959,-0.37734407,-0.32816046,0.06004841,3.078357,-0.62536496,-7.217703e-05,-0.062496707,0.00012886037,-0.00021571062,-0.0071883495,-8.692003e-05,0.012854909,0.44373798,-1.463771,2.0014288,-2.1072328,-1.5702633,2.4189875,-0.060536385,0.10585145,-0.11850315,0.009639926,0.0063180677,-0.07331536,-0.15322891,0.21068975,-9.3661175,0.78217715,47.690468,-1.2003691,-1.8578645,-3.4276242,-0.29696488,0.115308456,-0.31342548,26.25,27.125,26.25,29.3125,30.4375,30.9375
0.14005233,-1.9599544,-0.9100415,-0.64135075,0.014512161,0.0063248267,-0.1426618,-0.3774529,-0.3281461,0.060028095,3.0783834,-0.6253689,1.5322385e-05,-0.06444635,3.2276603e-05,0.0009504272,-0.008078076,0.0017767382,0.014706973,0.44360545,-1.4635432,2.0012128,-2.1071842,-1.5702513,2.4188542,-0.062072996,0.10663546,-0.122274056,0.010564366,0.006312477,-0.076702386,-0.2873042,0.15322891,-9.32781,0.74413085,47.66539,-1.1752646,-1.8579128,-3.3897336,-0.3211721,0.11034007,-0.2779965,26.25,27.125,26.25,29.3125,30.4375,30.9375
0.1420523,-1.7626466,-1.2588607,-0.7184742,0.017632106,0.03236525,-0.13647214,-0.37758586,-0.32814133,0.060018882,3.0784128,-0.62533575,3.1866268e-05,-0.0654839,-0.0003571793,0.0014393859,-0.009038073,0.0028521593,0.016961075,0.4434854,-1.4632914,2.0009482,-2.1071494,-1.5702633,2.41871,-0.06251484,0.107492104,-0.12432145,0.010370958,0.0067127342,-0.07939766,-0.36391866,0.2873042,-9.519346,0.80679786,47.755844,-1.1935536,-1.740504,-3.4139533,-0.31385192,0.09926177,-0.21028422,26.25,27.125,26.25,29.3125,30.4375,30.9375
0.14405224,-2.4760194,-1.4675443,-0.7119238,0.008122041,0.030298112,-0.14093235,-0.37769204,-0.32814297,0.06000833,3.0784197,-0.62524104,7.140923e-05,-0.066984996,-0.00041141766,0.0020372118,-0.009620719,0.0039352,0.01710603,0.44337696,-1.4630873,2.000744,-2.1071365,-1.570239,2.4185417,-0.06377085,0.10866487,-0.12709175,0.01074312,0.0067692557,-0.080797136,-0.38307226,0.3256114,-9.557653,0.81351066,47.709274,-1.2303969,-1.6953928,-3.3497875,-0.32134265,0.10181688,-0.19350342,26.25,27.125,26.25,29.3125,30.4375,30.9375
0.14605197,-2.0928235,-1.5478396,-0.74115306,-0.0048254714,0.052858863,-0.149008,-0.3778573,-0.3281299,0.060037423,3.0783753,-0.6252316,8.9005125e-06,-0.06734965,1.355142e-05,0.0015434839,-0.009064917,0.002673789,0.016465725,0.44319656,-1.4628952,2.000457,-2.1071007,-1.570227,2.4183612,-0.06488449,0.11012988,-0.12772237,0.011288859,0.0068142237,-0.081269726,-0.51714754,0.30645782,-9.481039,0.8224646,47.71554,-1.3058267,-1.708225,-3.3846302,-0.32588002,0.10191132,-0.16872835,26.25,27.125,26.25,29.3125,30.4375,30.9375
0.14805217,-2.726366,-1.5278598,-0.70701945,-0.020394607,0.04101418,-0.14015053,-0.37797517,-0.32814097,0.06002894,3.0784082,-0.6251056,2.525364e-05,-0.06887059,0.00050821237,0.0009802697,-0.008413705,0.001810788,0.013358346,0.4431118,-1.4626545,2.0002053,-2.107077,-1.570227,2.4181938,-0.0669963,0.11344533,-0.13016191,0.011472959,0.0065904288,-0.080272116,-0.57460845,0.28730422,-9.595961,0.7911258,47.717335,-1.2433476,-1.6123841,-3.411843,-0.32103026,0.092325345,-0.14260052,26.25,27.125,26.25,29.3125,30.4375,30.9375
0.15005228,-2.4258795,-1.443635,-0.7581458,-0.022694495,0.047566675,-0.14181007,-0.3781031,-0.32814842,0.06002653,3.0783782,-0.6250634,7.1747876e-05,-0.06979043,0.0010536825,0.00023062361,-0.0075254105,0.0004428751,0.009261903,0.44297925,-1.4624263,1.9999532,-2.107052,-1.5701793,2.4180388,-0.06866177,0.11621775,-0.13159725,0.011757229,0.0063719093,-0.07783973,-0.5554548,0.24899697,-9.595961,0.8179876,47.717335,-1.1984532,-1.5842514,-3.400639,-0.3328997,0.10769619,-0.14056495,26.25,27.125,26.25,29.3125,30.4375,30.9375
0.15205225,-2.690083,-1.708977,-0.8628412,-0.006477289,0.0372389,-0.14144178,-0.37826407,-0.328146,0.060037356,3.0783856,-0.625047,1.8971341e-05,-0.07117319,0.000759313,0.00030749434,-0.008470701,0.0010149707,0.0076019634,0.44284683,-1.4621736,1.9996413,-2.1070173,-1.5702032,2.4178956,-0.069718055,0.118312016,-0.13396682,0.011107228,0.0069765775,-0.07723484,-0.49799395,0.24899697,-9.653421,0.7777002,47.666286,-1.1708809,-1.8171985,-3.323339,-0.33315474,0.087663695,-0.14085983,26.25,27.125,26.25,29.3125,30.4375,30.9375
0.15405215,-2.0316455,-0.8224331,-0.5617195,-0.023798546,0.048256066,-0.15380268,-0.37839428,-0.32814813,0.060039323,3.078366,-0.624987,-1.3534037e-05,-0.07235631,0.0010470889,-0.00030202023,-0.008106968,0.0011178217,0.00049751764,0.44272646,-1.4619694,1.9994138,-2.1070292,-1.5701913,2.4177403,-0.07102945,0.1208632,-0.13510527,0.009758633,0.0066000884,-0.0714397,-0.45968673,0.28730422,-9.5385,0.7553206,47.701214,-1.2503064,-1.7691863,-3.4159622,-0.3201971,0.08599873,-0.20690617,26.25,27.125,26.25,29.3125,30.4375,30.9375
0.15605232,-2.1300128,-1.2263087,-0.63837725,-0.0077371057,0.043498576,-0.14192666,-0.37857547,-0.3281746,0.060063377,3.0782447,-0.6250237,-2.7019176e-05,-0.07492299,0.0006364403,0.0013333008,-0.009618288,0.00511396,-0.0033284042,0.4425581,-1.4617058,1.9990648,-2.1070178,-1.5701078,2.4176104,-0.07227013,0.121363856,-0.13930742,0.009209098,0.00624939,-0.06885097,-0.57460845,0.30645782,-9.423578,0.80679786,47.71823,-1.2298737,-1.7452159,-3.3057861,-0.30746022,0.08910059,-0.2576554,26.25,27.125,26.25,29.3125,30.4375,30.9375
0.15805236,-1.6037323,-0.8728735,-0.42784208,-0.007102114,0.054860618,-0.1533704,-0.37872982,-0.32814518,0.06006117,3.078259,-0.625065,-7.289384e-05,-0.07540448,0.0016598285,-0.00020199137,-0.008502647,0.0029540667,-0.0045014177,0.44238943,-1.4614773,1.9988145,-2.1070058,-1.5701436,2.417466,-0.0745189,0.12414894,-0.13867095,0.008216482,0.0061674034,-0.069926284,-0.5554548,0.2681506,-9.423578,0.8403672,47.703007,-1.1962898,-1.7948782,-3.4007735,-0.29235396,0.098298915,-0.26436257,26.25,27.125,26.25,29.3125,30.4375,30.9375
0.16005239,-1.8998817,-0.39481094,-0.51390105,-0.0046036737,0.036316577,-0.14624833,-0.3788959,-0.32815582,0.060080178,3.0782042,-0.625056,-0.00012448158,-0.07711835,0.0015634587,0.0002861106,-0.009633667,0.0042542014,-0.008858355,0.44224483,-1.461237,1.9985026,-2.106994,-1.5701193,2.4173229,-0.07613578,0.12557511,-0.14128605,0.007746188,0.006630515,-0.067184545,-0.5363012,0.21068975,-9.423578,0.800085,47.73256,-0.99179363,-1.7579851,-3.281054,-0.29197624,0.088343725,-0.28375107,26.25,27.125,26.25,29.3125,30.4375,30.9375
0.16205266,-1.4658366,-0.43034413,-0.24724281,0.007090583,0.041487932,-0.1577385,-0.37903708,-0.32813978,0.060071528,3.078219,-0.62501884,-0.00010819552,-0.07786944,0.0009329355,-0.00013894142,-0.009444643,0.0037274598,-0.007094849,0.44208905,-1.4609964,1.9982508,-2.10697,-1.5701193,2.4171422,-0.07562432,0.12872446,-0.14381003,0.0076792287,0.0066803517,-0.06843481,-0.49799395,0.076614454,-9.423578,0.77545905,47.687782,-1.2257831,-1.8294554,-3.3554673,-0.2666386,0.0824492,-0.3100024,26.25,27.125,26.25,29.3125,30.4375,30.9375
0.164052,-1.2367392,-0.20872061,-0.28691044,0.010354801,0.03196987,-0.15881477,-0.37921423,-0.32814205,0.060086958,3.0781748,-0.62506837,-0.00020901355,-0.079810865,0.002421453,-0.00038476964,-0.00894417,0.0034885847,-0.009556706,0.4419438,-1.4607444,1.9979395,-2.106982,-1.5701317,2.4170337,-0.07985659,0.1305212,-0.14529252,0.007797108,0.006333991,-0.070203364,-0.4213795,0.1340753,-9.385271,0.800085,47.683304,-1.0303532,-1.718293,-3.3347027,-0.27170494,0.07753341,-0.30871207,26.25,27.125,26.25,29.3125,30.4375,30.9375
0.16605234,-1.896107,-0.27815437,-0.4831731,0.024066592,0.00711871,-0.14794458,-0.37938735,-0.32814533,0.060087968,3.0781322,-0.6251558,-0.00022766234,-0.08075094,0.0019681097,-0.0005506575,-0.008644657,0.003800945,-0.008924983,0.44178778,-1.4604558,1.9976152,-2.1069705,-1.5701197,2.4169378,-0.0795291,0.13306174,-0.14769371,0.0075069396,0.005926813,-0.070505254,-0.2681506,0.11492168,-9.3661175,0.7329411,47.637623,-0.99113214,-1.9560575,-3.198296,-0.25640845,0.09197503,-0.32075152,26.25,27.125,26.25,29.3125,30.4375,30.9375
0.16805243,-1.2834691,-0.46312347,-0.32795516,0.02167248,0.017939396,-0.1459379,-0.37955222,-0.3281295,0.060074665,3.078113,-0.6251538,-0.00020270463,-0.08240216,0.00186266,-0.0011289126,-0.008391513,0.0028973077,-0.011013665,0.44159523,-1.4601789,1.9973391,-2.10697,-1.5700954,2.4167466,-0.08085566,0.13738859,-0.15122433,0.007637914,0.006077816,-0.069740675,-0.36391866,0.1340753,-9.308657,0.78217715,47.672558,-1.0418905,-1.9187884,-3.2648952,-0.23124579,0.10322983,-0.34462225,26.25,27.125,26.25,29.3125,30.4375,30.9375
0.17005178,-1.069368,-0.62833345,-0.38226497,0.01627811,0.025425635,-0.15259941,-0.37973595,-0.32813337,0.060097326,3.0780883,-0.62516564,-0.0002462163,-0.08248463,0.0025549291,-0.0009226981,-0.008665042,0.0023284545,-0.010209562,0.44143873,-1.4599037,1.9969691,-2.1069105,-1.570095,2.416601,-0.08250576,0.13636456,-0.1508343,0.0086697135,0.0065760277,-0.072195895,-0.30645782,0.13407528,-9.212888,0.81351066,47.664497,-0.88295996,-1.934199,-3.4020321,-0.24207726,0.09409863,-0.35017413,26.25,27.125,26.25,29.3125,30.4375,30.9375
0.17205271,-1.3213288,-0.77043253,-0.30616245,0.020296259,0.01865537,-0.15064475,-0.37987697,-0.32811463,0.06007629,3.0780523,-0.62529445,-0.00014030546,-0.083304055,0.0028826646,-0.0011825752,-0.00814617,0.0013121987,-0.012256554,0.44124642,-1.4596395,1.9967164,-2.1068738,-1.5700473,2.4164937,-0.08377432,0.13833351,-0.15269047,0.009701993,0.0065364945,-0.07141671,-0.30645782,0.15322891,-9.136273,0.8493211,47.66987,-0.9227475,-1.955678,-3.422276,-0.23874554,0.097572245,-0.37024158,26.25,27.125,26.25,29.3125,30.4375,30.9375
0.17405266,-1.6783063,-0.5392433,-0.18929476,0.010391056,0.009769785,-0.14839292,-0.3800464,-0.32811797,0.060095068,3.0780282,-0.6252311,-0.00021488142,-0.084019095,0.002985619,-0.0016528945,-0.0075595356,0.00042679944,-0.01124756,0.4411022,-1.4593992,1.9964045,-2.1068618,-1.5700473,2.4163132,-0.084456645,0.14070651,-0.15435167,0.01004368,0.0063870666,-0.07310633,-0.30645782,0.19153613,-9.11712,0.85826975,47.65106,-0.92832774,-1.9283525,-3.352838,-0.23766842,0.07800794,-0.40510917,26.25,27.125,26.25,29.3125,30.4375,30.9375
0.17605254,-2.151887,-0.71122086,-0.111403845,0.013068443,0.0064570205,-0.13876301,-0.3802365,-0.3280938,0.06009189,3.0780013,-0.6253398,-0.00025598367,-0.08651768,0.0038663757,-0.00057425327,-0.0084299175,0.0027581947,-0.008378398,0.4408967,-1.4591116,1.9960932,-2.1068618,-1.5700597,2.4161792,-0.08811986,0.14091362,-0.15710554,0.0101148905,0.0061796657,-0.07963686,-0.28730422,0.22984336,-9.193734,0.83589023,47.682407,-0.6940116,-1.8248222,-3.371502,-0.23627305,0.08637687,-0.37449712,26.25,27.125,26.25,29.3125,30.4375,30.9375
0.17805254,-1.1667787,-0.212245,-0.32092616,0.0044785705,0.036969196,-0.15328,-0.3803944,-0.3281178,0.060088485,3.0779424,-0.6252688,-0.00021641864,-0.086409986,0.0036368344,-0.0011305398,-0.007733682,0.001681305,-0.0065615186,0.44075316,-1.4588236,1.9957818,-2.1068614,-1.5699877,2.415999,-0.08743828,0.14259493,-0.15780088,0.010407859,0.006011883,-0.08077137,-0.30645782,0.13407528,-9.11712,0.800085,47.677036,-0.897086,-1.8455744,-3.3503046,-0.22282249,0.09942469,-0.32471454,26.25,27.125,26.25,29.3125,30.4375,30.9375
0.18005253,-1.6564214,-0.48770303,-0.3574653,0.01997748,0.011598004,-0.14664622,-0.38058445,-0.32809818,0.060081225,3.0779235,-0.62536025,-0.000214449,-0.088646024,0.004683033,-0.00081404444,-0.008754697,0.0021903054,-0.0067581753,0.4405478,-1.4585118,1.9954475,-2.106838,-1.5699872,2.4158533,-0.09178377,0.14385268,-0.15996473,0.010419246,0.0067170574,-0.0849195,-0.17238252,0.1340753,-9.212888,0.8112748,47.70838,-0.68037117,-1.7904993,-3.4140763,-0.21159884,0.099993736,-0.3127025,26.25,27.125,26.25,29.3125,30.4375,30.9375
0.18204993,-1.6724261,-0.4059139,-0.3400015,0.015680838,0.011111791,-0.14415522,-0.380757,-0.32807103,0.060078073,3.0779603,-0.62528664,-0.00026332686,-0.087660186,0.003979539,-0.0019060487,-0.0077265026,-0.00035752327,0.00073233614,0.44036853,-1.4582477,1.995159,-2.1068256,-1.5700234,2.4156237,-0.08965885,0.14623033,-0.16029754,0.011117836,0.0068790927,-0.090284854,-0.22984336,0.17238252,-9.11712,0.78217715,47.701214,-0.7570689,-1.7149515,-3.45002,-0.21208332,0.08948253,-0.25836414,26.25,27.125,26.25,29.3125,30.4375,30.9375
0.184052,-1.8508556,-0.9401488,-0.5207383,0.01934104,0.006859696,-0.14047082,-0.38091964,-0.32808375,0.060084626,3.0779471,-0.625205,-0.00022816226,-0.089216456,0.0039678393,-0.00013994286,-0.009244981,0.0027320094,0.0042120414,0.44022405,-1.4579606,1.9948119,-2.106765,-1.5699872,2.41543,-0.09100169,0.14460665,-0.1627188,0.011727503,0.0069356295,-0.09510658,-0.2681506,0.17238252,-9.193734,0.8291774,47.694946,-0.8637283,-1.6703043,-3.4190404,-0.19996163,0.102121025,-0.20018479,26.25,27.125,26.25,29.3125,30.4375,30.9375
0.18605255,-1.3254399,-0.7753347,-0.6667456,0.010317158,0.016328981,-0.14653055,-0.3811086,-0.32806838,0.06007029,3.0779517,-0.62520295,-0.00018719806,-0.09057587,0.0032767153,0.00011292089,-0.009618952,0.0034956736,0.0081158085,0.44002014,-1.457624,1.9944633,-2.1067297,-1.5699753,2.4152246,-0.090862066,0.14719501,-0.16623448,0.011809335,0.006942564,-0.09886859,-0.22984336,0.30645782,-9.232041,0.779936,47.67614,-0.8389739,-1.773467,-3.3886085,-0.20716652,0.11213313,-0.14576727,26.25,27.125,26.25,29.3125,30.4375,30.9375
0.1880527,-0.9856931,-0.23291862,-0.57558835,-0.009336452,0.023523375,-0.15900533,-0.3812998,-0.32805827,0.060103744,3.0779085,-0.6252122,-0.0003022009,-0.09064502,0.0028704728,0.00019754459,-0.009972604,0.002920846,0.010532379,0.43984032,-1.4573963,1.9941286,-2.1067054,-1.5699872,2.4150562,-0.09049429,0.14793827,-0.16748372,0.012684076,0.0075174416,-0.100916766,-0.17238252,0.076614454,-9.346964,0.8403672,47.67793,-0.92602885,-1.6857884,-3.410693,-0.1987274,0.095763,-0.061524067,26.25,27.125,26.25,29.3125,30.4375,30.9375
0.1900525,-1.3322726,-0.7490845,-0.6164597,-0.007815487,0.01204596,-0.15401748,-0.38147998,-0.32803637,0.060067974,3.0779288,-0.62519807,-0.00020235169,-0.091580786,0.002626171,0.0004557495,-0.009925232,0.003893727,0.009670288,0.4396243,-1.4570366,1.9938058,-2.106681,-1.5699633,2.414829,-0.090494335,0.14919566,-0.1695004,0.012588492,0.0070507573,-0.100053504,-0.11492168,0.15322891,-9.461885,0.83365434,47.711063,-0.90482306,-1.6619871,-3.420036,-0.18554986,0.09421547,-0.06780509,26.25,27.125,26.25,29.3125,30.4375,30.9375
0.19205256,-1.6873273,-1.2634679,-0.9306468,0.0039210487,-0.0037375807,-0.13531467,-0.38164356,-0.3280283,0.06004703,3.0779428,-0.6251439,-0.00016196602,-0.09212656,0.0020829227,0.0011425394,-0.010179709,0.005194868,0.008111355,0.43945655,-1.4567251,1.9935054,-2.1066697,-1.5699509,2.414626,-0.08969322,0.14937462,-0.17142093,0.0130466195,0.0067221127,-0.097692415,-0.11492168,0.22984336,-9.481039,0.87617236,47.692257,-1.0336437,-1.6667781,-3.3648796,-0.19838569,0.0985098,-0.056990035,26.25,27.125,26.25,29.3125,30.4375,30.9375
0.19405268,-1.3230321,-1.2552127,-1.2119652,-0.0008673945,-0.005723567,-0.13462366,-0.3818252,-0.32804757,0.060071286,3.077906,-0.6251002,-0.00022346797,-0.09338547,0.0022407675,0.00035906667,-0.009320128,0.004018141,0.0037835948,0.4393242,-1.456448,1.9931339,-2.1066334,-1.569939,2.4144711,-0.09086234,0.15327163,-0.17402558,0.013186112,0.006444289,-0.09453118,-0.095768064,0.40222588,-9.442732,0.83365434,47.70032,-1.0223141,-1.7878184,-3.5105066,-0.19766694,0.12631357,-0.08547641,26.25,27.125,26.25,29.3125,30.4375,30.9375
0.1960518,-0.8970686,-1.6091368,-1.1893349,-0.0038713939,-0.005852807,-0.14701544,-0.38203093,-0.32801163,0.060060143,3.0779293,-0.62510693,-0.00020236615,-0.09370266,0.0025661879,-0.001384888,-0.007843555,0.00062263804,-0.00080875854,0.43908378,-1.4561112,1.9927744,-2.1065853,-1.5699509,2.4142323,-0.09175177,0.1578083,-0.17520002,0.013522996,0.0065466887,-0.090827316,0.0,0.36391866,-9.595961,0.88960326,47.689575,-1.0487273,-1.6235552,-3.520952,-0.18470344,0.115379006,-0.10619473,26.25,27.125,26.25,29.3125,30.4375,30.9375
0.1980519,-0.71062326,-1.4428139,-1.3466629,-0.023844343,-0.009561928,-0.1408314,-0.38222075,-0.32802382,0.060070984,3.0778568,-0.6251711,-0.00022966614,-0.09491541,0.002803039,-0.00072407076,-0.008982909,0.0016148031,-0.0056711943,0.43891534,-1.4558119,1.9924144,-2.1065733,-1.5699152,2.4141133,-0.09360854,0.15777743,-0.17677356,0.013745502,0.0071566775,-0.08782111,-0.05746084,0.30645782,-9.653421,0.8112748,47.71554,-1.0321537,-1.6923552,-3.4361014,-0.18028322,0.11751148,-0.13712779,26.25,27.125,26.25,29.3125,30.4375,30.9375
0.200052,-1.0188375,-2.0352392,-1.3185084,-0.030454047,-0.024627706,-0.13924778,-0.38240442,-0.328014,0.060059205,3.077883,-0.6251207,-0.00019526828,-0.09548378,0.0025001988,-0.0017156475,-0.008300493,-0.0005880771,-0.008336409,0.4387353,-1.455475,1.9920558,-2.1065247,-1.5699152,2.4138987,-0.09369741,0.16181767,-0.17919795,0.0144124385,0.007467965,-0.085243486,-0.019153614,0.38307226,-9.768343,0.8224646,47.684196,-1.0275317,-1.7887756,-3.4567113,-0.17811072,0.1223101,-0.18479857,26.25,27.125,26.25,29.3125,30.4375,30.9375
0.20205179,-0.88555187,-1.9485512,-1.1566538,-0.043047767,-0.009695298,-0.14243484,-0.38262224,-0.32801795,0.060083784,3.0778027,-0.6251434,-0.0003185342,-0.09599616,0.0027531516,-0.0027003225,-0.0069702943,-0.0018313,-0.0104669295,0.43854308,-1.4551867,1.9916848,-2.106549,-1.5699033,2.413731,-0.09410554,0.16477406,-0.18022054,0.014172953,0.006797226,-0.083518796,0.05746084,0.40222588,-9.787497,0.9321212,47.683304,-1.0174063,-1.9436569,-3.5096521,-0.18469235,0.14131595,-0.2574229,26.25,27.125,26.25,29.3125,30.4375,30.9375
0.20405276,-1.0579516,-2.2963188,-1.0923828,-0.0343291,0.003860479,-0.14249589,-0.3828111,-0.32799736,0.060080513,3.077812,-0.6252035,-0.0002728509,-0.097449034,0.002676907,-0.002305463,-0.0075676762,-0.00096938526,-0.011766052,0.4383387,-1.4548627,1.9913129,-2.106465,-1.5699033,2.4135633,-0.095289335,0.16627778,-0.18287398,0.014289502,0.006964054,-0.08340224,0.15322891,0.36391866,-9.5385,0.90750587,47.70211,-1.0319875,-1.957339,-3.4469295,-0.16785604,0.14627072,-0.25231943,26.25,27.125,26.25,29.3125,30.4375,30.9375
0.20605184,-0.74115676,-1.4334503,-1.0902444,-0.0327255,0.0046757567,-0.14451763,-0.38298094,-0.32798952,0.060059253,3.0778089,-0.62526196,-0.00018935988,-0.09895326,0.0021422906,-0.0016431707,-0.009222772,0.00059189263,-0.015334102,0.43815857,-1.4545269,1.9909772,-2.1064174,-1.5698789,2.4134202,-0.0961078,0.16743182,-0.18560271,0.013746769,0.007787963,-0.08065192,0.076614454,0.4213795,-9.481039,0.8247004,47.67345,-1.1816528,-1.87237,-3.5111604,-0.15133226,0.14078328,-0.31026477,26.25,27.125,26.25,29.3125,30.4375,30.9375
0.20805246,-1.0052717,-1.8619583,-0.9637667,-0.013253873,-0.002218669,-0.13649996,-0.38319868,-0.32798713,0.060074974,3.0777538,-0.62526757,-0.00026672223,-0.099069044,0.001588104,-0.0013599384,-0.00978894,0.0009380977,-0.01288965,0.4379547,-1.4542154,1.9905947,-2.1064174,-1.5698665,2.413227,-0.095356554,0.16771029,-0.18666263,0.013977091,0.008159938,-0.08234438,0.0,0.40222588,-9.5385,0.77545905,47.696735,-1.0262645,-1.909184,-3.5095801,-0.14680536,0.14937386,-0.33747768,26.25,27.125,26.25,29.3125,30.4375,30.9375
0.21005227,-0.8585926,-1.4123815,-0.82471406,-0.01845502,0.0029038736,-0.13808638,-0.38340825,-0.32797623,0.06007065,3.0777352,-0.6253238,-0.00028014838,-0.10014263,0.0012864972,-0.0014539409,-0.01006679,0.0009779603,-0.01627926,0.43775055,-1.453867,1.9902114,-2.1063936,-1.5698665,2.4130607,-0.095822394,0.17003562,-0.18907608,0.013910307,0.008389159,-0.07941907,-0.05746084,0.45968673,-9.461885,0.83589023,47.67166,-1.201422,-1.9968152,-3.4543722,-0.13589913,0.14815287,-0.39066,26.25,27.125,26.25,29.3125,30.4375,30.9375
0.21205209,-1.5216742,-1.7591022,-0.92577875,-0.0028056002,-0.006904787,-0.14111638,-0.38357472,-0.32800713,0.06005813,3.0776641,-0.6253298,-0.00020097762,-0.10142194,0.0019134695,-0.0021213372,-0.009933589,-0.0003885681,-0.018791078,0.43760577,-1.4535308,1.9898633,-2.1063821,-1.5697821,2.4129288,-0.098358005,0.17288336,-0.19081795,0.014105019,0.008845074,-0.07944194,-0.1340753,0.4213795,-9.346964,0.87617236,47.66987,-1.0703516,-1.9168105,-3.452505,-0.12844867,0.14690226,-0.45675611,26.25,27.125,26.25,29.3125,30.4375,30.9375
0.21405213,-1.0275699,-1.082222,-0.79748935,-0.025076693,0.016028995,-0.14756061,-0.3838034,-0.3280008,0.060075305,3.077632,-0.6253602,-0.00028553462,-0.10163104,0.0014282721,-0.0015955119,-0.010885226,0.00014066893,-0.016037272,0.43740195,-1.4531956,1.9894451,-2.1063573,-1.5697945,2.4127483,-0.097994156,0.17265543,-0.19192596,0.014558846,0.0094888555,-0.081831485,-0.11492168,0.4213795,-9.346964,0.80456203,47.692257,-1.2321237,-1.7926803,-3.5486937,-0.11176905,0.116192475,-0.4817686,26.25,27.125,26.25,29.3125,30.4375,30.9375
0.21605228,-1.457414,-1.391682,-0.7044572,-0.022187345,0.021957086,-0.14103767,-0.3840154,-0.3279905,0.060075387,3.077614,-0.62541175,-0.00030083908,-0.10237122,0.0021764433,-0.0017798104,-0.009892274,-0.00053366757,-0.014213009,0.43719748,-1.4528481,1.9890498,-2.1063216,-1.569795,2.4125786,-0.09955544,0.1738173,-0.19309518,0.01560429,0.008879305,-0.08521607,-0.11492168,0.3256114,-9.404425,0.8403672,47.686886,-1.1702433,-1.8293822,-3.5587983,-0.12774968,0.14291763,-0.46670285,26.25,27.125,26.25,29.3125,30.4375,30.9375
0.21805228,-1.2983516,-1.1703714,-0.44396368,-0.0133131975,0.034899987,-0.14771052,-0.3841985,-0.32799286,0.060074322,3.077589,-0.6254215,-0.0002515346,-0.10380796,0.0015063285,-0.0015146695,-0.010334468,0.00043077386,-0.0063925083,0.43701753,-1.452524,1.9886774,-2.1062615,-1.5697588,2.412408,-0.09949818,0.17637014,-0.19657065,0.015476899,0.008869723,-0.092977144,-0.19153614,0.21068975,-9.270349,0.85155696,47.70659,-1.2361028,-1.6947627,-3.5014236,-0.12841037,0.14960977,-0.42701656,26.25,27.125,26.25,29.3125,30.4375,30.9375
0.2200521,-1.2489091,-0.45904788,-0.4259588,0.003848256,0.0396886,-0.15323707,-0.38444158,-0.32799518,0.060090877,3.0775144,-0.62544423,-0.00035951717,-0.105806306,0.0015547264,0.00023672098,-0.013068435,0.0035949938,-0.0053477837,0.43680048,-1.4521768,1.9882582,-2.1062853,-1.5697454,2.412215,-0.102012634,0.17492159,-0.19898371,0.015316821,0.01001592,-0.096535124,-0.28730422,0.0,-9.232041,0.87393653,47.72719,-1.0608612,-1.547982,-3.5103178,-0.09908775,0.13655359,-0.40066636,26.25,27.125,26.25,29.3125,30.4375,30.9375
0.22205183,-1.7255309,0.06421575,-0.3965352,0.02065384,0.024130058,-0.14663187,-0.38464704,-0.32799733,0.060070727,3.0774908,-0.62535435,-0.00028936757,-0.10600018,0.00022847556,0.0007690934,-0.0139203565,0.0049915533,0.006422383,0.4365856,-1.4517936,1.9878744,-2.1062734,-1.5696863,2.4119473,-0.09976867,0.17556423,-0.20090689,0.014987081,0.0102015175,-0.106060445,-0.19153613,0.019153614,-9.232041,0.8784135,47.651955,-1.2985603,-1.550744,-3.479229,-0.08615044,0.115936816,-0.3334785,26.25,27.125,26.25,29.3125,30.4375,30.9375
0.22405256,-1.257238,0.29046234,-0.2362746,0.04145181,0.035068363,-0.14172675,-0.38486025,-0.32799733,0.060084343,3.0774925,-0.62526166,-0.00038612427,-0.10891274,0.0017330289,0.0012092307,-0.014240778,0.0058189183,0.0049335035,0.4364154,-1.4514694,1.9874791,-2.1062615,-1.5697101,2.4117193,-0.10499612,0.1773402,-0.20406143,0.0154830655,0.010148065,-0.1097966,-0.24899697,0.019153614,-9.212888,0.8605109,47.687782,-1.0467451,-1.5653476,-3.3880873,-0.09062764,0.14155073,-0.26161265,26.25,27.125,26.25,29.3125,30.4375,30.9375
0.2260525,-1.2405626,1.054438,-0.2939511,0.046151508,0.03175465,-0.15093635,-0.38507065,-0.32798648,0.06007742,3.0774713,-0.62525284,-0.0003382535,-0.10945688,0.0009881392,0.0014989182,-0.014768485,0.006336261,0.009685233,0.43618792,-1.4511096,1.9870828,-2.1062138,-1.5696744,2.4114892,-0.10418282,0.17858331,-0.20622616,0.015721697,0.010408602,-0.11373408,-0.45968673,0.019153614,-9.193734,0.8493211,47.651955,-1.2139741,-1.5603564,-3.4227648,-0.059019577,0.10907991,-0.20118392,26.25,27.125,26.25,29.3125,30.4375,30.9375
0.22805236,-1.4213469,0.85483736,-0.40123525,0.054507956,0.035159055,-0.1480106,-0.3853124,-0.32800266,0.06009738,3.0774014,-0.6252392,-0.00039160112,-0.1101737,0.002123605,0.0011362889,-0.013342618,0.004600416,0.009033181,0.4359832,-1.4507377,1.9866165,-2.106189,-1.5696381,2.4112852,-0.10646745,0.18002728,-0.2075405,0.017777568,0.0098629575,-0.11536539,-0.49799395,-0.15322891,-9.270349,0.87617236,47.694946,-1.1626391,-1.4608314,-3.3448362,-0.054314017,0.12329131,-0.16343528,26.25,27.125,26.25,29.3125,30.4375,30.9375
0.23005255,-1.870155,0.36938655,-0.3596523,0.051662065,0.036918428,-0.14881307,-0.3854909,-0.32798022,0.060073636,3.0773995,-0.6252406,-0.00026805504,-0.11128846,0.002839052,0.0006426397,-0.0122985225,0.0025926603,0.0061535425,0.43575445,-1.4504012,1.9862813,-2.106128,-1.5695904,2.4110577,-0.10862252,0.18292327,-0.21015733,0.019766824,0.009757165,-0.1146401,-0.5554548,-0.11492168,-9.308657,0.842603,47.694946,-1.085228,-1.4851078,-3.2853165,-0.074959405,0.124016084,-0.15559529,26.25,27.125,26.25,29.3125,30.4375,30.9375
0.23205233,-1.446009,0.42417893,-0.59357196,0.027770134,0.06283875,-0.15278818,-0.38571373,-0.3279724,0.060077325,3.0774467,-0.62513644,-0.00027548865,-0.11314878,0.0029891967,0.0007624041,-0.012285527,0.0024585908,0.0014949645,0.43556193,-1.4500171,1.985825,-2.106044,-1.5696143,2.4107945,-0.110465534,0.18587269,-0.21403114,0.020814763,0.00979359,-0.111822456,-0.61291564,-0.11492168,-9.3661175,0.75084364,47.717335,-0.98897564,-1.5836186,-3.2901063,-0.08481301,0.1147123,-0.15674731,26.25,27.125,26.25,29.3125,30.4375,30.9375
0.23405229,-2.171249,-0.21084715,-0.7250344,0.0127534475,0.05427372,-0.13813291,-0.3859425,-0.32796064,0.060076624,3.0773797,-0.62520385,-0.00025749573,-0.11392237,0.0041280505,-5.7644957e-06,-0.010669595,0.000757233,-0.005246366,0.4353092,-1.4496564,1.9854182,-2.1060197,-1.5695661,2.4105926,-0.11266295,0.18801616,-0.21496587,0.021836376,0.009046139,-0.107277475,-0.7086837,-0.076614454,-9.423578,0.8291774,47.71554,-0.94100857,-1.8451288,-3.3601975,-0.07438182,0.12943223,-0.20754847,26.25,27.125,26.25,29.3125,30.4375,30.9375
0.23605227,-2.2003508,-1.3003458,-0.50902414,0.0071814638,0.072175786,-0.14058614,-0.3861749,-0.32794836,0.060072403,3.0773888,-0.6252078,-0.00026818956,-0.11504587,0.004544481,-0.00031878447,-0.009536756,5.2171872e-05,-0.010407118,0.43509278,-1.4492606,1.9849747,-2.1059716,-1.5695785,2.4103777,-0.11383706,0.1905871,-0.21742342,0.022839407,0.008310374,-0.10328908,-0.7661445,0.15322891,-9.423578,0.800085,47.7254,-0.9246055,-1.7980189,-3.2776217,-0.09464341,0.13006258,-0.25337297,26.25,27.125,26.25,29.3125,30.4375,30.9375
0.23805209,-2.4998322,-1.4268492,-0.99529845,-0.0034010333,0.072617844,-0.13323544,-0.3864125,-0.32792127,0.06007948,3.0773683,-0.6253008,-0.00023853428,-0.11501084,0.005159601,-0.0014142739,-0.008455901,-0.0024022942,-0.013294791,0.43482846,-1.448889,1.9845213,-2.1058753,-1.5695666,2.4101744,-0.11488839,0.19263998,-0.21742369,0.02346976,0.008363339,-0.10145287,-0.6895301,0.28730422,-9.442732,0.83365434,47.693153,-0.8418269,-1.6826365,-3.3941274,-0.11424439,0.14453861,-0.3025682,26.25,27.125,26.25,29.3125,30.4375,30.9375
0.24005197,-2.161979,-1.1471916,-0.9159262,-0.014619102,0.069126785,-0.14751758,-0.38665435,-0.3279243,0.06010318,3.0773327,-0.62529343,-0.0003138342,-0.115711205,0.005031291,-0.002185099,-0.007576801,-0.0032992112,-0.012899396,0.43462437,-1.4485283,1.984053,-2.1058276,-1.5695666,2.4099705,-0.11489455,0.19586168,-0.21929027,0.023302086,0.00794596,-0.10185228,-0.68953013,0.24899697,-9.481039,0.842603,47.703007,-0.8843293,-1.7256455,-3.4501367,-0.10389468,0.16390263,-0.32274717,26.25,27.125,26.25,29.3125,30.4375,30.9375
0.24205193,-2.1280184,-1.3231903,-0.5769118,-0.030800907,0.07082176,-0.14687447,-0.3869055,-0.32791835,0.060095664,3.077272,-0.6253766,-0.00031007928,-0.11650638,0.0052418727,-0.0017185841,-0.007480916,-0.0012720294,-0.013222917,0.43437234,-1.4481093,1.9835991,-2.1058161,-1.5695313,2.4097784,-0.11525035,0.19548361,-0.21980937,0.022409888,0.007005103,-0.10188367,-0.7278373,0.2681506,-9.423578,0.83813137,47.694946,-0.9480498,-1.607708,-3.500357,-0.1116571,0.17472339,-0.35859376,26.25,27.125,26.25,29.3125,30.4375,30.9375
0.2440518,-2.3330975,-1.794495,-0.6575231,-0.017596588,0.058926936,-0.1396304,-0.38712236,-0.32791397,0.06008167,3.0772614,-0.6254137,-0.00028208835,-0.116898224,0.005118383,-0.0022513266,-0.007451246,-0.001874528,-0.01447253,0.43416825,-1.4477137,1.9831804,-2.1057804,-1.5695189,2.409599,-0.11542588,0.19734758,-0.220643,0.021939544,0.0072267666,-0.100809075,-0.5363012,0.2681506,-9.461885,0.83365434,47.67793,-0.95675015,-1.6620367,-3.7027621,-0.09663206,0.18012106,-0.37265712,26.25,27.125,26.25,29.3125,30.4375,30.9375
0.24605162,-1.7113879,-1.4010264,-0.84455806,-0.008775018,0.04292823,-0.14410524,-0.3873804,-0.327898,0.060096573,3.0772102,-0.6254804,-0.00035756757,-0.11921708,0.005430838,-0.0019099285,-0.009184363,-0.0009899854,-0.0153267,0.43391523,-1.4473416,1.9827245,-2.105757,-1.5695184,2.4093945,-0.1187041,0.19938944,-0.22364794,0.021371605,0.008428601,-0.103231244,-0.38307226,0.2681506,-9.442732,0.94331104,47.72092,-0.8658106,-1.663315,-3.7065015,-0.087428495,0.17314038,-0.38952538,26.25,27.125,26.25,29.3125,30.4375,30.9375
0.24805242,-0.50796515,-0.93068016,-0.6175842,-0.016208595,0.038362782,-0.15784879,-0.38762605,-0.32788154,0.060082898,3.0771894,-0.6255305,-0.0003466775,-0.11983691,0.0035018122,-0.0013890413,-0.00951863,0.0010293226,-0.012323318,0.43366456,-1.4469213,1.9822801,-2.1057332,-1.5695065,2.409178,-0.11520611,0.20161952,-0.22728892,0.020814652,0.007874557,-0.10273408,-0.24899697,0.28730422,-9.346964,0.80456203,47.691364,-1.0316064,-1.7044036,-3.6438525,-0.076738715,0.19254097,-0.43023413,26.25,27.125,26.25,29.3125,30.4375,30.9375
0.25005215,-0.5224133,-1.2281082,-0.6444154,-0.010357618,0.0135359615,-0.14923029,-0.38784054,-0.32786593,0.060055036,3.0772357,-0.62550026,-0.0002940865,-0.121910475,0.0054080435,-0.0021508252,-0.008631455,0.00033564237,-0.00972742,0.4334587,-1.4465013,1.9818624,-2.105685,-1.5695189,2.4089477,-0.120098285,0.20412819,-0.22833596,0.020365318,0.0073607448,-0.110221416,-0.17238252,0.34476504,-9.270349,0.83365434,47.675243,-0.8210237,-1.6964495,-3.561867,-0.050088212,0.20669818,-0.37149954,26.25,27.125,26.25,29.3125,30.4375,30.9375
0.25205207,-0.4216849,-1.2307724,-0.69833285,-0.0033916365,-0.004790872,-0.1373499,-0.38810995,-0.32785565,0.060069736,3.0771632,-0.6255982,-0.00030617637,-0.12260028,0.004385357,-0.0016373992,-0.009402159,0.0013972234,-0.0043450524,0.43318328,-1.4460934,1.9813584,-2.1056254,-1.5694827,2.408743,-0.11886187,0.20540404,-0.23105617,0.020532371,0.0076185446,-0.11436575,-0.13407528,0.36391866,-9.232041,0.8806493,47.699425,-0.9522274,-1.8043141,-3.4986763,-0.050038412,0.20479545,-0.34933525,26.25,27.125,26.25,29.3125,30.4375,30.9375
0.254052,-0.40225402,-1.223588,-0.9254372,0.0026275634,-0.009832623,-0.14774847,-0.38835815,-0.32783282,0.060082663,3.077122,-0.6256425,-0.0003405013,-0.124169774,0.003418786,-0.0007613001,-0.011247334,0.0025117288,0.0021761013,0.4329193,-1.4457338,1.980915,-2.1055777,-1.5694708,2.408512,-0.11912563,0.20718303,-0.23527263,0.02119061,0.008831134,-0.12114861,-0.05746084,0.3256114,-9.251195,0.90527004,47.683304,-0.94683135,-1.7180147,-3.4689775,-0.028885435,0.20665824,-0.2866561,26.25,27.125,26.25,29.3125,30.4375,30.9375
0.25605193,-0.93971324,-1.2951248,-0.6340067,-0.0006059388,-0.016056426,-0.13781127,-0.38859677,-0.32783997,0.060061492,3.077123,-0.62552464,-0.00029054328,-0.12553236,0.0034726858,-0.00017719947,-0.011704477,0.0035233565,0.0069614914,0.43270305,-1.4452783,1.9804472,-2.105553,-1.5694345,2.4082224,-0.120297045,0.20809165,-0.2378476,0.021760095,0.008823948,-0.12710433,0.038307227,0.30645782,-9.212888,0.8985519,47.698532,-1.0709099,-1.6157799,-3.4239902,-0.032547064,0.19741721,-0.22046539,26.25,27.125,26.25,29.3125,30.4375,30.9375
0.25805208,-0.40459678,-0.99662757,-0.6386694,-0.0044510695,-0.004608382,-0.14081994,-0.38887057,-0.3278291,0.060065534,3.0770786,-0.625511,-0.0003547429,-0.12668945,0.0022785484,0.0011931384,-0.013071602,0.005887578,0.010173628,0.43243924,-1.4448587,1.9799675,-2.105553,-1.5694221,2.4079561,-0.119142115,0.20847438,-0.24165495,0.022470705,0.0090799015,-0.12915933,0.019153614,0.3256114,-9.193734,0.9321212,47.693153,-1.0068598,-1.6818185,-3.2201457,-0.03231226,0.22494358,-0.14584605,26.25,27.125,26.25,29.3125,30.4375,30.9375
0.2600521,-0.42485365,-0.73390406,-0.6126601,-0.0007463842,-0.0052059586,-0.14774856,-0.3891144,-0.3278205,0.06006872,3.0770805,-0.6254764,-0.00030046995,-0.12858483,0.0034890443,0.0012269546,-0.013103996,0.0055106496,0.008024751,0.43219808,-1.4444392,1.9794649,-2.1054447,-1.5693983,2.4076934,-0.12302711,0.21014254,-0.24389392,0.02337702,0.009265665,-0.13089468,0.019153614,0.45968673,-9.251195,0.83813137,47.737038,-1.0388732,-1.5141429,-3.1656165,-0.025268942,0.21787047,-0.11557772,26.25,27.125,26.25,29.3125,30.4375,30.9375
0.26205263,-0.13269942,-1.0235821,-0.73251325,-0.0055781994,0.0081657935,-0.15126945,-0.38935134,-0.32781205,0.060064144,3.0770805,-0.6254966,-0.0002587088,-0.12790143,0.0022166197,0.0014405606,-0.0131364865,0.005021487,0.0062744105,0.43197107,-1.4440199,1.9789857,-2.1053607,-1.5693864,2.4074793,-0.12014427,0.21076794,-0.24548736,0.024773244,0.009493974,-0.12626137,0.019153614,0.45968673,-9.346964,0.83589023,47.686886,-1.0818865,-1.5101316,-3.266375,-0.026635887,0.22918925,-0.13250206,26.25,27.125,26.25,29.3125,30.4375,30.9375
0.26405263,-1.1503,-1.6010357,-1.1380243,-0.014668318,-0.013235818,-0.1297005,-0.38962594,-0.3277923,0.060057513,3.077108,-0.62548596,-0.0003302193,-0.1281955,0.0031698523,0.00035849266,-0.011442175,0.0025709567,0.00043171088,0.43173048,-1.4435637,1.9784831,-2.105336,-1.569434,2.407229,-0.12171258,0.2131281,-0.24600396,0.025857812,0.008982353,-0.12198639,0.11492168,0.3256114,-9.346964,0.8717007,47.668976,-1.0833035,-1.4999305,-3.224026,-0.054890282,0.24064666,-0.17395051,26.25,27.125,26.25,29.3125,30.4375,30.9375
0.26605245,-0.6728312,-1.7219801,-0.9486239,-0.02922229,0.0025756517,-0.13562919,-0.38988838,-0.32780507,0.06006664,3.07699,-0.62554234,-0.00029746338,-0.12786628,0.004144024,-0.0020481956,-0.009594577,-0.0027144914,-0.005469444,0.43146592,-1.4431428,1.9779814,-2.1053002,-1.5693382,2.4070148,-0.12347305,0.21744207,-0.24563745,0.026758311,0.0095198825,-0.117845416,0.019153614,0.34476504,-9.385271,0.8940802,47.703007,-1.0032694,-1.7659794,-3.3696306,-0.06807174,0.22460026,-0.21554561,26.25,27.125,26.25,29.3125,30.4375,30.9375
0.26805243,-0.7850832,-1.7855941,-0.88895464,-0.030821696,-0.0017288481,-0.13805342,-0.39011717,-0.32778564,0.06003824,3.0770655,-0.6254826,-0.00022611064,-0.12797064,0.0043923804,-0.0035735336,-0.008134503,-0.0058996566,-0.009722538,0.43124977,-1.4426866,1.9775146,-2.1052158,-1.569362,2.406752,-0.12392482,0.22131008,-0.24676566,0.027517233,0.00951178,-0.11404394,0.038307227,0.2681506,-9.385271,0.8717007,47.672558,-1.0236864,-1.8440483,-3.5409775,-0.07494747,0.24787056,-0.27922833,26.25,27.125,26.25,29.3125,30.4375,30.9375
0.2700523,-0.78196084,-1.4133502,-0.80527616,-0.00982049,-0.010344889,-0.13397512,-0.3903978,-0.32776806,0.060048163,3.077,-0.6255664,-0.00026321533,-0.12874061,0.004314099,-0.0035257577,-0.008341799,-0.005942452,-0.0129692145,0.43096158,-1.4422668,1.977012,-2.10518,-1.5693382,2.406525,-0.1244544,0.22267434,-0.24859153,0.027932705,0.0097167585,-0.11132557,0.0,0.2681506,-9.32781,0.95002913,47.670765,-1.0573263,-1.9002545,-3.549045,-0.07209345,0.24878162,-0.30768865,26.25,27.125,26.25,29.3125,30.4375,30.9375
0.2720522,-0.45531568,-0.6621375,-0.8371852,0.005159969,-0.0065693175,-0.14611396,-0.39065492,-0.327757,0.060031477,3.076991,-0.6256049,-0.00026198727,-0.12980944,0.004467351,-0.003275781,-0.009704112,-0.0057794605,-0.01708234,0.43072107,-1.4418116,1.9765328,-2.1051557,-1.5693377,2.4063098,-0.12631007,0.22336593,-0.25004676,0.027975012,0.010880509,-0.10906786,-0.019153614,0.34476504,-9.251195,0.94331104,47.70211,-0.9575975,-1.8708327,-3.5316145,-0.06911653,0.22849277,-0.36797082,26.25,27.125,26.25,29.3125,30.4375,30.9375
0.2740527,-0.54055905,-0.6857538,-0.8062679,0.023262057,-0.0021794592,-0.14067829,-0.39090732,-0.32774988,0.059997264,3.0769787,-0.6257002,-0.00015019918,-0.13102366,0.0046465728,-0.0042017647,-0.008906815,-0.0075897183,-0.020595478,0.4304688,-1.4413068,1.9760298,-2.1050956,-1.569302,2.4061189,-0.12758052,0.22760089,-0.25295088,0.028625913,0.010897169,-0.106824,-0.076614454,0.24899697,-9.232041,0.94331104,47.70211,-1.024026,-1.9644115,-3.6906614,-0.08177948,0.23343454,-0.41636604,26.25,27.125,26.25,29.3125,30.4375,30.9375
0.27605256,-0.45803484,-0.294557,-0.53126055,0.015587823,0.002969193,-0.14270651,-0.39114153,-0.32777765,0.060017247,3.076951,-0.6255987,-0.00012211877,-0.13264573,0.004484917,-0.00259203,-0.009841816,-0.005383352,-0.022364674,0.43028846,-1.4408997,1.9755014,-2.1049879,-1.5692538,2.405879,-0.12852004,0.22720604,-0.25666744,0.030348495,0.010822481,-0.10599282,-0.095768064,0.28730422,-9.174581,0.9164598,47.681515,-0.97837174,-1.927699,-3.6022992,-0.09261556,0.24314025,-0.47796184,26.25,27.125,26.25,29.3125,30.4375,30.9375
0.27805248,-0.99530566,-0.27148044,-0.28148103,0.0022997854,0.011815542,-0.14264321,-0.39141208,-0.3277787,0.060011107,3.0768573,-0.62569344,-8.507076e-05,-0.13443626,0.003417064,-0.00021176493,-0.012098121,-0.0015483437,-0.019469643,0.43001238,-1.4404448,1.9749979,-2.104963,-1.5691818,2.4056742,-0.1282506,0.22615933,-0.26132202,0.03163613,0.011272666,-0.10861652,-0.3830723,0.24899697,-9.11712,0.8784135,47.70838,-0.94875705,-1.7492423,-3.454484,-0.12322801,0.25229117,-0.5068662,26.25,27.125,26.25,29.3125,30.4375,30.9375
0.28005245,-1.5568199,-0.48675063,-0.5877481,-0.006538374,0.027667806,-0.14172497,-0.39168268,-0.3277602,0.060000114,3.0768566,-0.62572896,-6.936018e-05,-0.13640861,0.0034378122,0.0011901009,-0.013097378,0.0010459501,-0.015135199,0.42974782,-1.4399772,1.9744829,-2.1049035,-1.5691818,2.4054322,-0.12973422,0.22619855,-0.26483393,0.03234598,0.011100057,-0.11443317,-0.6512229,0.2681506,-9.212888,0.8157518,47.70032,-0.8675226,-1.8206918,-3.2804387,-0.13394189,0.24383968,-0.49803352,26.25,27.125,26.25,29.3125,30.4375,30.9375
0.28205222,-1.906768,-1.3510342,-0.7331073,-0.008669686,0.05875901,-0.14496458,-0.39193076,-0.3277425,0.059985623,3.0768461,-0.62583345,8.4437874e-05,-0.13626814,0.0034028124,0.000113207956,-0.012567639,-0.0018092031,-0.0068352274,0.42947218,-1.4395097,1.9739565,-2.104759,-1.5691332,2.4052234,-0.1299018,0.22894807,-0.26581365,0.033411074,0.011807849,-0.12290154,-0.49799395,0.2681506,-9.32781,0.96569055,47.687782,-1.1317415,-1.7551675,-3.3772216,-0.15796924,0.24736938,-0.41607356,26.25,27.125,26.25,29.3125,30.4375,30.9375
0.28405237,-2.2705226,-1.3812497,-0.6731492,-0.022726627,0.08673026,-0.14323163,-0.3921974,-0.3277241,0.0599675,3.0768378,-0.6258848,0.00015261007,-0.13644151,0.0031006234,-1.1900577e-05,-0.01183982,-0.0032390621,0.004884431,0.4291963,-1.4390297,1.9734405,-2.1046865,-1.5691098,2.404981,-0.12933418,0.2308402,-0.26826474,0.035595976,0.011747807,-0.13405313,-0.6512228,0.21068975,-9.308656,0.8537928,47.70659,-1.0858754,-1.8076794,-3.3942041,-0.19928019,0.24701095,-0.35364243,26.25,27.125,26.25,29.3125,30.4375,30.9375
0.2860522,-2.7509966,-1.1397783,-0.37495744,-0.024147073,0.09547257,-0.14542076,-0.3925014,-0.32771435,0.059973758,3.0768597,-0.6258482,9.031178e-05,-0.13747856,0.0032253896,0.0006876844,-0.012528005,-0.0016765028,0.010096316,0.42894375,-1.438527,1.972843,-2.104615,-1.5691456,2.4047031,-0.13030548,0.23060076,-0.269698,0.035568766,0.011730171,-0.14023556,-0.7852981,0.2681506,-9.289502,0.8918391,47.670765,-1.194475,-1.6648414,-3.3817062,-0.22192499,0.24576217,-0.24451411,26.25,27.125,26.25,29.3125,30.4375,30.9375
0.28805196,-2.709616,-0.74476707,-0.7091562,-0.0029678766,0.09115493,-0.13674343,-0.39273518,-0.32773477,0.059971254,3.0768206,-0.6256652,0.00015573329,-0.13770029,0.0033633455,0.00014529286,-0.012593384,-0.0031447066,0.013790385,0.42872757,-1.4381071,1.9723643,-2.1045663,-1.5690612,2.404378,-0.1310872,0.2321507,-0.27040884,0.036056716,0.012406106,-0.14471127,-0.7086837,0.22984336,-9.308657,0.8940802,47.65643,-1.1179549,-1.6033803,-3.4298766,-0.23351863,0.22710288,-0.17702444,26.25,27.125,26.25,29.3125,30.4375,30.9375
0.29005185,-1.655173,0.046224106,-0.65182215,0.0090442365,0.102062516,-0.15476893,-0.39302215,-0.3277031,0.059934273,3.076851,-0.6256932,0.0002341155,-0.13906752,0.005142996,-0.0007984377,-0.011174127,-0.0053046895,0.009445543,0.4284261,-1.4375672,1.971826,-2.1045063,-1.5690612,2.4040904,-0.13512404,0.23476881,-0.27158213,0.037171263,0.012003925,-0.1444033,-0.6703765,0.17238252,-9.461885,0.85826975,47.696735,-1.0070395,-1.664898,-3.5521297,-0.25262383,0.22643146,-0.13878553,26.25,27.125,26.25,29.3125,30.4375,30.9375
0.2920517,-1.6961176,0.19739667,-0.62302464,0.0106995925,0.07558692,-0.1405612,-0.39331073,-0.32771868,0.059936173,3.076812,-0.6256645,0.00023723651,-0.13946263,0.004144885,-0.0015572421,-0.0112149315,-0.0051532844,0.0061413143,0.42818698,-1.4370629,1.971239,-2.1044476,-1.5690254,2.4038386,-0.13347726,0.23783825,-0.27301657,0.035382286,0.011969643,-0.13945058,-0.6703765,0.05746084,-9.404425,0.900793,47.723602,-1.0626979,-1.8073359,-3.621636,-0.28211504,0.23838961,-0.14798759,26.25,27.125,26.25,29.3125,30.4375,30.9375
0.29405257,-1.634714,0.2965776,-0.5046579,0.0160692,0.05744917,-0.14292088,-0.3936006,-0.3276924,0.05994851,3.0767787,-0.625742,0.00023238825,-0.14114584,0.0047266497,-0.0020003794,-0.011326586,-0.003587019,-0.0007315751,0.42788604,-1.4366193,1.9706882,-2.1043527,-1.569014,2.4035907,-0.13546787,0.23979978,-0.27368838,0.032620985,0.011410487,-0.13456681,-0.6703765,0.019153614,-9.32781,0.8090337,47.667187,-0.89585984,-1.8937845,-3.6067102,-0.2592048,0.25075394,-0.22621182,26.25,27.125,26.25,29.3125,30.4375,30.9375
0.2960523,-1.0263091,-0.19459908,-0.7944395,0.035878103,0.060044263,-0.13523825,-0.3938852,-0.32766455,0.059914645,3.0768175,-0.6257525,0.00025739957,-0.14313838,0.0043997313,-0.0011333234,-0.011735446,-0.0012642627,-0.007223303,0.4276101,-1.4360917,1.9701613,-2.1043165,-1.5690378,2.4033167,-0.13602042,0.24144253,-0.27765688,0.032656796,0.01080075,-0.12862563,-0.57460845,0.0,-9.346964,0.8940802,47.684196,-1.0404297,-1.8709728,-3.6777575,-0.26649493,0.2583005,-0.28416803,26.25,27.125,26.25,29.3125,30.4375,30.9375
0.29805225,-0.86035085,0.3838096,-0.60602206,0.023378244,0.050394017,-0.1494998,-0.39419192,-0.32768106,0.059931718,3.076767,-0.625705,0.00022920297,-0.14507201,0.0039490657,0.00013945275,-0.012846783,0.00088680204,-0.009031723,0.42735782,-1.4355884,1.9695371,-2.1042445,-1.5690016,2.4030416,-0.13676511,0.24242531,-0.28200945,0.03361388,0.0109195495,-0.12755947,-0.30645782,-0.095768064,-9.346964,0.88289046,47.68599,-1.0372419,-2.0035958,-3.4404664,-0.27330247,0.24959955,-0.33004308,26.25,27.125,26.25,29.3125,30.4375,30.9375
0.30005231,-0.43906364,0.32390395,-0.78851295,0.03181406,0.041079015,-0.14589158,-0.39446104,-0.3276517,0.059890106,3.0767448,-0.6258334,0.00036713542,-0.14623265,0.0038561358,-0.00042608567,-0.012341698,0.00024835172,-0.009239552,0.42704576,-1.4350722,1.969035,-2.1041849,-1.5689539,2.4028127,-0.13730207,0.2458586,-0.2847437,0.033716165,0.010711321,-0.1278876,-0.28730422,0.0,-9.3661175,0.90527004,47.64658,-1.0062364,-1.9465244,-3.403977,-0.30326325,0.25360757,-0.34244058,26.25,27.125,26.25,29.3125,30.4375,30.9375
0.3020521,-0.4819106,0.0455544,-0.91997635,0.025984563,0.030907206,-0.14208047,-0.39474607,-0.32763007,0.059880726,3.0767741,-0.6258207,0.00036201024,-0.14758343,0.003325745,0.00012059203,-0.013286777,0.0014943761,-0.010006717,0.42678165,-1.4345802,1.9684833,-2.104112,-1.5689777,2.4025373,-0.13755584,0.24735889,-0.2878157,0.033760354,0.011048551,-0.12737297,-0.28730422,0.11492168,-9.385271,0.8784135,47.672558,-1.0510969,-1.9078867,-3.4285336,-0.29240876,0.27178812,-0.35558692,26.25,27.125,26.25,29.3125,30.4375,30.9375
0.3040521,-0.2733866,-0.41911417,-0.94304186,0.004533885,0.033118777,-0.14826511,-0.3950662,-0.32760668,0.059888363,3.0767164,-0.62592226,0.00038242934,-0.14714767,0.0036452443,-0.0012548993,-0.012238044,-0.0009828982,-0.0084554395,0.42644572,-1.4340765,1.9678744,-2.104017,-1.5689415,2.4022725,-0.13767178,0.24951728,-0.2872206,0.033707153,0.011124605,-0.12904036,-0.1340753,0.19153613,-9.423578,0.98807013,47.672558,-1.0705633,-2.0263958,-3.4525428,-0.31566733,0.28271988,-0.38278422,26.25,27.125,26.25,29.3125,30.4375,30.9375
0.30605194,-0.37421742,-1.2225716,-1.1317445,-0.014357839,0.020959016,-0.14764963,-0.39536768,-0.32760066,0.05988976,3.0767026,-0.6259176,0.0003534604,-0.14843924,0.003914328,-0.0014298088,-0.011637668,-0.0009415917,-0.0052944897,0.42618135,-1.4335726,1.967287,-2.1039565,-1.5689415,2.4020073,-0.13874727,0.25187963,-0.28969148,0.03403845,0.01056416,-0.13327493,0.0,0.2681506,-9.519346,0.8605109,47.66539,-1.0788432,-1.9780103,-3.5286655,-0.33442378,0.283529,-0.3512649,26.25,27.125,26.25,29.3125,30.4375,30.9375
0.30805257,-0.4383025,-2.023876,-1.0329404,-0.03956778,0.020419547,-0.14059481,-0.3956437,-0.327598,0.059878543,3.076701,-0.62589335,0.00040542553,-0.14957997,0.003476924,-0.00074171874,-0.0127299735,0.00044307072,0.0013093153,0.42592916,-1.4330696,1.9667238,-2.103873,-1.5689176,2.4017406,-0.13904835,0.2525718,-0.2921943,0.034152936,0.010985596,-0.1401792,-0.05746084,0.28730422,-9.500193,0.8247004,47.650166,-1.1255916,-1.8893197,-3.4617336,-0.3306468,0.27228197,-0.29452932,26.25,27.125,26.25,29.3125,30.4375,30.9375
0.3100526,-0.7023032,-2.0696733,-1.244991,-0.050300233,0.013216527,-0.14385225,-0.39594227,-0.32759207,0.059868906,3.0766451,-0.625918,0.00046061416,-0.15126947,0.0038665847,-6.0145416e-05,-0.013258825,0.0022177144,0.0062174858,0.42562866,-1.4325546,1.9661487,-2.1038134,-1.5688576,2.4014628,-0.14086863,0.2531039,-0.29446137,0.034077752,0.01073711,-0.14690654,-0.038307227,0.3256114,-9.5385,0.8314132,47.64389,-1.0107815,-1.8776371,-3.4755564,-0.3368184,0.28858325,-0.20741935,26.25,27.125,26.25,29.3125,30.4375,30.9375
0.31205237,0.067288496,-1.4918818,-1.3030771,-0.04089702,0.027304742,-0.14813848,-0.39628133,-0.32757893,0.059886616,3.0766287,-0.6259073,0.0003902572,-0.15105295,0.004220387,-0.00045083044,-0.013303404,0.0017696335,0.011348489,0.4253288,-1.4320273,1.9654917,-2.10373,-1.56887,2.4011588,-0.14133623,0.25294653,-0.29340094,0.03357493,0.010977957,-0.15250555,0.038307227,0.45968673,-9.576807,0.86945957,47.65643,-1.1528802,-1.8845401,-3.5947328,-0.36381528,0.32636088,-0.10500355,26.25,27.125,26.25,29.3125,30.4375,30.9375
0.31405243,-0.67588633,-1.5598602,-1.3634146,-0.039823107,0.014580873,-0.14306396,-0.39658222,-0.3275611,0.059881017,3.076623,-0.6258317,0.00041377233,-0.15254155,0.0037335092,-0.0007433721,-0.015041306,0.0019311332,0.013291029,0.42502823,-1.4315233,1.9649166,-2.1036584,-1.5688452,2.4008121,-0.14253023,0.2558857,-0.29588634,0.03226474,0.012491194,-0.15564115,0.0,0.4405331,-9.730036,0.8627467,47.65464,-0.95252955,-1.836858,-3.6246514,-0.34003192,0.30819252,-0.077215046,26.25,27.125,26.25,29.3125,30.4375,30.9375
0.3160534,-0.82075125,-1.7583982,-1.1391555,-0.041346762,0.023705456,-0.1276083,-0.39688656,-0.32755947,0.05988005,3.0765724,-0.62584466,0.0004432452,-0.1553876,0.0036521528,0.00033135084,-0.016981266,0.0054735597,0.0063917856,0.42473948,-1.4310074,1.9643172,-2.103587,-1.568797,2.4005382,-0.14480028,0.25722882,-0.29961595,0.030626118,0.012786875,-0.15100977,-0.15322891,0.40222588,-9.5385,0.91198283,47.678825,-0.9911981,-1.90637,-3.621377,-0.3193076,0.31487313,-0.068253905,26.25,27.125,26.25,29.3125,30.4375,30.9375
0.31805232,-0.7324548,-1.2155964,-1.1855536,-0.035678227,0.02979784,-0.14005208,-0.39720067,-0.32755387,0.059890915,3.0765574,-0.62582594,0.00037340028,-0.15626629,0.0039223395,0.00020019837,-0.017981354,0.0055403225,-0.00014949481,0.42447484,-1.4305041,1.9637073,-2.1035268,-1.5688089,2.4002643,-0.14645836,0.25813326,-0.30030462,0.029927565,0.013672872,-0.14612603,-0.038307227,0.38307226,-9.5385,0.92093146,47.658226,-0.8689573,-1.8541007,-3.487346,-0.3124562,0.30399084,-0.09592696,26.25,27.125,26.25,29.3125,30.4375,30.9375
0.32005206,-0.5077585,-1.0944246,-1.2319227,-0.029467953,0.03582281,-0.13729896,-0.3974892,-0.32752746,0.05986442,3.0765662,-0.6257357,0.00045251494,-0.15810482,0.004195749,-0.00017723971,-0.018029153,0.0059748585,-0.008802131,0.42416227,-1.4299884,1.963169,-2.1034682,-1.5687727,2.3998945,-0.14824183,0.26126662,-0.30291322,0.02898498,0.013521763,-0.13925554,-0.15322891,0.47884035,-9.634268,0.9701675,47.667187,-0.94701827,-1.8758097,-3.6701014,-0.30121577,0.31989694,-0.1635035,26.25,27.125,26.25,29.3125,30.4375,30.9375
0.3220518,-1.0609033,-1.5542572,-1.4820433,-0.01285772,0.0039710393,-0.12450259,-0.39783797,-0.3275619,0.059891734,3.0764492,-0.62576956,0.00041367917,-0.15782122,0.0019587248,0.00020274216,-0.019218972,0.007007989,-0.010009113,0.42388785,-1.4294248,1.9624499,-2.1033957,-1.5687007,2.3996565,-0.14418043,0.26257834,-0.30533478,0.028665386,0.014184872,-0.13398515,-0.019153614,0.4405331,-9.710882,0.8851263,47.668976,-1.1193937,-1.9649076,-3.6149554,-0.29572394,0.29536843,-0.22947636,26.25,27.125,26.25,29.3125,30.4375,30.9375
0.32405183,-0.5815921,-1.4560163,-1.0258098,-0.02855646,0.013471465,-0.13621654,-0.3981365,-0.32753122,0.059853643,3.0764518,-0.6258889,0.00040786853,-0.1595058,0.0023516386,-0.00047521456,-0.018531963,0.0068365308,-0.016030483,0.42359924,-1.4288845,1.961923,-2.1033962,-1.568725,2.3994424,-0.14578517,0.26622802,-0.30793095,0.02804546,0.013619815,-0.12956671,-0.038307227,0.30645782,-9.557653,0.88960326,47.64837,-0.9829883,-1.9842206,-3.6154122,-0.26978314,0.31261864,-0.33334565,26.25,27.125,26.25,29.3125,30.4375,30.9375
0.3260517,-1.0118951,-1.2536634,-0.9629476,-0.024686202,0.007615694,-0.1295577,-0.3984895,-0.32754257,0.059885047,3.0763657,-0.6258929,0.00029408655,-0.1606286,0.002309968,-0.00055070594,-0.018992849,0.00723237,-0.020865832,0.4233109,-1.428357,1.9612406,-2.1033485,-1.5687007,2.399168,-0.14664637,0.2680219,-0.30982608,0.027595341,0.013885561,-0.12559018,-0.17238252,0.34476504,-9.481039,0.900793,47.664497,-1.0677264,-2.1096547,-3.5711648,-0.26078346,0.31338978,-0.38757622,26.25,27.125,26.25,29.3125,30.4375,30.9375
0.3280525,-0.36190936,-1.0798743,-1.2185829,-0.0058726757,0.024097297,-0.14054608,-0.39879617,-0.3275215,0.05986932,3.0763206,-0.62601817,0.00038365374,-0.16225646,0.0022151794,0.00037826138,-0.020030973,0.009232873,-0.023247497,0.42298657,-1.427818,1.9606417,-2.1032531,-1.5686525,2.398928,-0.14773715,0.26851994,-0.3126769,0.027705697,0.0140038105,-0.12429865,-0.05746084,0.3256114,-9.557653,0.9321212,47.650166,-1.0490923,-2.0518928,-3.5862203,-0.24397871,0.31782106,-0.46637347,26.25,27.125,26.25,29.3125,30.4375,30.9375
0.33005232,-0.8614436,-1.0861473,-0.9572323,-0.028527837,0.025516737,-0.13578078,-0.39912397,-0.32754284,0.05989799,3.0762415,-0.62603945,0.00025867362,-0.16323356,0.0024865796,0.0002900142,-0.02066822,0.009303289,-0.02223969,0.42274603,-1.4273142,1.9599947,-2.103217,-1.5686406,2.3987112,-0.14925964,0.2696958,-0.31387004,0.027405325,0.014573067,-0.12682708,-0.095768064,0.30645782,-9.500193,0.9164598,47.681515,-1.0867171,-1.9352064,-3.4908223,-0.22862586,0.31788242,-0.49695784,26.25,27.125,26.25,29.3125,30.4375,30.9375
0.3320523,-0.7179769,-0.99359393,-0.5259956,-0.050492503,0.047068555,-0.14368448,-0.39946052,-0.32753694,0.059888143,3.0761633,-0.6260948,0.00031145578,-0.16546886,0.0021869272,0.0024209418,-0.02232776,0.013869704,-0.014942449,0.4224098,-1.4267397,1.9593495,-2.1031568,-1.5685686,2.3984199,-0.15015449,0.26860055,-0.3176497,0.027467076,0.0142235765,-0.13501759,-0.076614454,0.22984336,-9.32781,0.9545008,47.711063,-0.9983734,-1.9016353,-3.55155,-0.20349352,0.31782052,-0.4559167,26.25,27.125,26.25,29.3125,30.4375,30.9375
0.33405197,-1.2506663,-1.1167152,-0.7843424,-0.0068297554,0.037175,-0.13887285,-0.3997809,-0.32755244,0.059888247,3.076142,-0.6259516,0.00027124767,-0.16654848,0.0024088293,0.0034046029,-0.023743618,0.01490793,-0.0064331824,0.42215732,-1.426189,1.9587139,-2.103121,-1.5685443,2.398081,-0.15187256,0.26789138,-0.31945756,0.028481895,0.015113165,-0.1452442,-0.17238252,0.19153613,-9.3661175,0.9298854,47.73077,-0.9677863,-1.7064896,-3.512741,-0.19957682,0.32259798,-0.3666401,26.25,27.125,26.25,29.3125,30.4375,30.9375
0.33605182,-1.0205371,-0.121720456,-0.9882415,0.0109611675,0.04176287,-0.13681278,-0.40011835,-0.32755572,0.059897233,3.0760536,-0.6259656,0.00025191225,-0.16684745,0.0020030006,0.0030049023,-0.02376806,0.014396581,0.0037936287,0.42184556,-1.4256495,1.9580678,-2.103073,-1.5684842,2.3977897,-0.1513714,0.26979047,-0.32083696,0.028452147,0.015370312,-0.1549684,-0.22984336,0.114921674,-9.519346,0.93436235,47.683304,-0.93892187,-1.5701845,-3.566471,-0.19365704,0.30642104,-0.25887713,26.25,27.125,26.25,29.3125,30.4375,30.9375
0.33805165,-1.404682,0.040613215,-0.67305404,0.0110341245,0.0505455,-0.13726337,-0.40043923,-0.32754698,0.05991069,3.0760171,-0.6259548,0.00020453028,-0.16818033,0.0019481564,0.0033280265,-0.025295366,0.015788224,0.00875164,0.42155683,-1.4251457,1.9574465,-2.1030014,-1.5684718,2.3974993,-0.15275143,0.2705839,-0.3223374,0.027281502,0.016210867,-0.16130504,-0.19153613,-0.076614454,-9.500193,0.9164598,47.68599,-0.8803109,-1.6958513,-3.7220914,-0.16526291,0.2884975,-0.18013969,26.25,27.125,26.25,29.3125,30.4375,30.9375
0.34005252,-1.1447113,0.14623031,-0.55664855,0.017924415,0.061805986,-0.13704127,-0.40076628,-0.3275298,0.05989114,3.0760047,-0.62597054,0.0002817667,-0.16914904,0.002238839,0.003380603,-0.025003385,0.016977327,0.009669952,0.42123303,-1.4245579,1.9567989,-2.1029065,-1.5684365,2.3971872,-0.15341605,0.27142507,-0.32340452,0.02655912,0.01545854,-0.16288802,-0.24899697,-0.114921674,-9.404425,0.9298854,47.692257,-1.1063786,-1.7219605,-3.741197,-0.122410566,0.30217633,-0.14189121,26.25,27.125,26.25,29.3125,30.4375,30.9375
0.34205234,-1.1759533,0.97719866,-0.6835651,0.018119179,0.05807563,-0.13903357,-0.40115058,-0.32755196,0.05993822,3.07588,-0.6258711,7.282414e-05,-0.16950703,0.0013874572,0.0024582478,-0.02438983,0.013952451,0.004749177,0.42093343,-1.4240301,1.9560918,-2.1029174,-1.5683998,2.396842,-0.15242752,0.27612573,-0.3272945,0.028755335,0.016160795,-0.15697384,-0.47884035,-0.19153613,-9.404425,0.96569055,47.705692,-1.1315422,-1.7263954,-3.6171017,-0.09988046,0.28906828,-0.16998634,26.25,27.125,26.25,29.3125,30.4375,30.9375
0.34409103,-1.2812157,0.54414785,-0.88461626,0.0413421,0.0449379,-0.12934275,-0.40146643,-0.32754263,0.05993044,3.0758502,-0.62590766,0.0001242159,-0.16975203,0.0015920813,0.0010602217,-0.022483256,0.010026537,-0.002989919,0.42063323,-1.4234779,1.9554571,-2.1028206,-1.5683635,2.3965688,-0.15274459,0.280651,-0.3299938,0.031286288,0.016016763,-0.14955081,-0.40222588,-0.22984336,-9.32781,0.8717007,47.690468,-1.066203,-1.8915663,-3.5164878,-0.10749857,0.30859035,-0.2181575,26.25,27.125,26.25,29.3125,30.4375,30.9375
0.34604064,-0.9923474,0.14430451,-0.7556289,0.044912446,0.053243015,-0.13990912,-0.40180844,-0.3275379,0.059935085,3.0757704,-0.6259509,6.899317e-05,-0.17106162,0.0014142026,0.0017981947,-0.022800727,0.011167501,-0.0071985503,0.420321,-1.422937,1.9548234,-2.1027963,-1.5683283,2.396294,-0.15320635,0.28164846,-0.33319688,0.032323357,0.015846457,-0.14580166,-0.4405331,0.019153614,-9.404425,0.89631605,47.66987,-1.172647,-2.0647504,-3.5121422,-0.08652754,0.2932946,-0.2992074,26.25,27.125,26.25,29.3125,30.4375,30.9375
0.3480456,-1.2686642,0.3279136,-0.7446484,0.04069811,0.031207792,-0.14399783,-0.40213537,-0.32753497,0.05994403,3.075752,-0.6258712,6.115649e-05,-0.1730099,0.0025387402,0.002596433,-0.022582334,0.011806291,-0.011654511,0.4200321,-1.422397,1.9541639,-2.1027,-1.5683044,2.3959582,-0.15638512,0.28227302,-0.33633977,0.034354527,0.015391296,-0.14452326,-0.40222588,0.095768064,-9.404425,0.93436235,47.705692,-1.149864,-1.836015,-3.430448,-0.08649951,0.3019795,-0.32709593,26.25,27.125,26.25,29.3125,30.4375,30.9375
0.3500396,-1.1618208,-0.06989675,-0.8258198,0.02724504,0.03129626,-0.13380888,-0.4025058,-0.3275283,0.059950005,3.0756714,-0.62600857,-1.7288769e-05,-0.17351955,0.0014435537,0.00276621,-0.02192306,0.01178438,-0.010488683,0.41970882,-1.4218072,1.9534677,-2.1026638,-1.5682925,2.3957314,-0.15424189,0.28483975,-0.34017673,0.035920296,0.014808338,-0.14354329,-0.36391866,0.17238252,-9.385271,0.9186956,47.701214,-1.2197778,-1.9311833,-3.3820922,-0.09328692,0.2893356,-0.36658472,26.25,27.125,26.25,29.3125,30.4375,30.9375
0.35203966,-1.438994,-0.5930313,-0.54809475,-0.010647146,0.04734654,-0.14404729,-0.4028375,-0.32751438,0.059959896,3.0756474,-0.6260027,-5.77963e-06,-0.17306863,0.0023338094,0.0018368637,-0.020685552,0.010155862,-0.0112073235,0.4193967,-1.4212666,1.9527997,-2.102544,-1.5682687,2.3954191,-0.15502127,0.2852618,-0.33870968,0.03603264,0.014351899,-0.14360505,-0.47884032,0.2681506,-9.404425,0.91198283,47.68599,-1.1838597,-1.7581432,-3.5222924,-0.08732085,0.32131565,-0.38801095,26.25,27.125,26.25,29.3125,30.4375,30.9375
0.35404557,-1.8158469,-1.3227756,-0.60368425,-0.030469965,0.05554235,-0.14575437,-0.4032039,-0.3275072,0.059991427,3.0755973,-0.626046,-9.249486e-05,-0.17303565,0.0029661972,0.0011104493,-0.019373378,0.008506203,-0.0054696267,0.4190843,-1.4207135,1.9520701,-2.1024354,-1.5682687,2.3951406,-0.15563506,0.28657535,-0.33892262,0.036994416,0.013852573,-0.14995599,-0.3256114,0.24899697,-9.481039,1.0216395,47.694946,-1.2497764,-1.703877,-3.7624912,-0.06844701,0.31930834,-0.3521426,26.25,27.125,26.25,29.3125,30.4375,30.9375
0.35604724,-1.2882842,-1.6557459,-0.88812596,-0.040813096,0.07022982,-0.1456087,-0.40352574,-0.32751897,0.059986316,3.075564,-0.6259195,-2.34748e-05,-0.17282617,0.0033535296,0.0016539779,-0.019091526,0.007859232,0.0007668317,0.41879654,-1.4201372,1.9514002,-2.102339,-1.5681967,2.3947785,-0.15601379,0.28540736,-0.33956245,0.039538898,0.013878159,-0.15657198,-0.28730422,0.3256114,-9.557653,0.98135734,47.690468,-1.2872107,-1.6090181,-3.8181767,-0.07356799,0.33882144,-0.31018263,26.25,27.125,26.25,29.3125,30.4375,30.9375
0.3580531,-0.78806394,-1.1217631,-0.63672,-0.059860628,0.06806526,-0.1540084,-0.4038817,-0.3275025,0.059981976,3.075504,-0.62597805,-6.035323e-05,-0.17430969,0.0032074363,0.0026185368,-0.020187821,0.009731891,0.008923854,0.41846108,-1.4195611,1.9507421,-2.1023028,-1.5681728,2.3944876,-0.15693621,0.2857465,-0.34238768,0.039898362,0.014141939,-0.16564977,-0.24899697,0.28730422,-9.615114,1.005978,47.694946,-1.3647659,-1.4843731,-3.7947664,-0.090608984,0.3232472,-0.21754068,26.25,27.125,26.25,29.3125,30.4375,30.9375
0.36004478,-0.50167954,-1.4488889,-0.84016037,-0.038284305,0.04811777,-0.15317015,-0.40422848,-0.32747987,0.05998161,3.0755491,-0.62586874,-0.000106204985,-0.1761389,0.0034544454,0.002094317,-0.020010753,0.009391381,0.013060616,0.41816077,-1.4189831,1.9500588,-2.1022074,-1.5682086,2.3941138,-0.15868676,0.28955546,-0.34568703,0.039784707,0.014128302,-0.17153509,-0.15322891,0.30645782,-9.461885,1.0126908,47.69763,-1.2362025,-1.4458647,-3.7468119,-0.0641172,0.33416215,-0.110540405,26.25,27.125,26.25,29.3125,30.4375,30.9375
0.3620432,-0.4000264,-1.0333182,-0.9131826,-0.023322994,0.029247569,-0.1476912,-0.40460882,-0.32748234,0.060030248,3.0754182,-0.6258994,-0.00024136157,-0.17812096,0.0037566768,0.0010869879,-0.019857895,0.008118865,0.010721365,0.41782477,-1.4184645,1.9493397,-2.1021473,-1.5681599,2.393814,-0.1609008,0.29460147,-0.34925607,0.03954447,0.014526006,-0.17140552,-0.095768064,0.2681506,-9.519346,0.9701675,47.685097,-1.2117635,-1.6985925,-3.6888027,-0.041928224,0.35480058,-0.073851526,26.25,27.125,26.25,29.3125,30.4375,30.9375
0.36404318,0.0857587,-0.8251012,-0.7315233,-0.030093264,0.0281566,-0.15145022,-0.4049547,-0.32747996,0.06002448,3.0753992,-0.62586147,-0.00023306588,-0.18095605,0.0038218559,0.0020476382,-0.021711146,0.009961713,0.0023716313,0.4175242,-1.4178635,1.9486445,-2.1020634,-1.5681361,2.3934927,-0.16373451,0.29670373,-0.35408884,0.0398306,0.015458544,-0.16588664,-0.1340753,0.2681506,-9.557653,0.9365982,47.677036,-1.0173762,-1.7958956,-3.42455,-0.035151936,0.31705374,-0.082961574,26.25,27.125,26.25,29.3125,30.4375,30.9375
0.36603907,-0.455513,-0.836016,-0.7329863,-0.03248957,0.010103354,-0.14242782,-0.40532166,-0.32747853,0.06003029,3.075343,-0.6258511,-0.0002603488,-0.18210165,0.0038867183,0.0021798322,-0.021556683,0.010241674,-0.0052146334,0.41720095,-1.4172621,1.947925,-2.101992,-1.5681003,2.3931706,-0.16441368,0.29843327,-0.35669822,0.04051184,0.0151994135,-0.15897794,-0.24899697,0.2873042,-9.576807,0.90527004,47.66539,-1.1652007,-1.8267548,-3.415261,-0.021488598,0.33560127,-0.17194799,26.25,27.125,26.25,29.3125,30.4375,30.9375
0.36804244,-0.780074,-1.2800814,-0.6853474,-0.027881581,0.009911805,-0.14234225,-0.4057174,-0.32746568,0.060050152,3.075262,-0.625916,-0.00033868008,-0.18102722,0.004477949,-0.00021644484,-0.019293271,0.0047067665,-0.014244737,0.41684157,-1.4166604,1.9471725,-2.1019194,-1.568076,2.3928626,-0.16451517,0.30225384,-0.35615408,0.04211079,0.015375911,-0.15004838,-0.34476504,0.45968673,-9.385271,0.947788,47.66091,-1.090698,-1.7887461,-3.544808,-0.017845526,0.34220386,-0.2781395,26.25,27.125,26.25,29.3125,30.4375,30.9375
0.37004414,-1.0445557,-1.6014297,-0.57874745,-0.033263825,0.025335178,-0.14597724,-0.40606892,-0.3274583,0.06006027,3.0751877,-0.62594074,-0.00032583193,-0.1820743,0.004576973,0.0012351378,-0.020394513,0.0062143174,-0.018933488,0.41650558,-1.416096,1.9464792,-2.1018226,-1.5680164,2.392552,-0.16559634,0.30101675,-0.35863462,0.044007774,0.01577327,-0.14643978,-0.11492168,0.4405331,-9.385271,0.947788,47.678825,-1.0071418,-1.8649445,-3.70366,-0.03408121,0.34208533,-0.3358127,26.25,27.125,26.25,29.3125,30.4375,30.9375
0.37203902,-1.0039508,-1.5791107,-0.32365018,-0.04443989,0.043284245,-0.15184264,-0.4064191,-0.3274596,0.060069855,3.0751173,-0.6259855,-0.00032449473,-0.18187535,0.005234347,0.0004138266,-0.019626347,0.0029471915,-0.023876268,0.4161938,-1.4155195,1.945773,-2.1017263,-1.5679678,2.3922775,-0.16683531,0.30262306,-0.35931143,0.046377268,0.016396696,-0.14273526,-0.019153614,0.30645782,-9.385271,0.98807013,47.65464,-0.9777185,-1.5680976,-3.703442,-0.054429606,0.34899968,-0.40786222,26.25,27.125,26.25,29.3125,30.4375,30.9375
0.37404412,-0.7860814,-1.3678719,-0.24371427,-0.031442728,0.037619755,-0.14651892,-0.4067734,-0.32743835,0.060067747,3.0751002,-0.62603945,-0.00033620297,-0.18356551,0.0061796177,-0.00032551115,-0.018842109,0.0006738688,-0.028298397,0.41586953,-1.4149294,1.9450773,-2.1016295,-1.5679678,2.3919895,-0.1698429,0.30659926,-0.36280373,0.048290856,0.016596114,-0.14131886,-0.05746084,0.2681506,-9.289502,1.0015011,47.677036,-0.9888747,-1.664855,-3.6511478,-0.06182274,0.32498842,-0.484011,26.25,27.125,26.25,29.3125,30.4375,30.9375
