Tylouw/Master_Thesis_Code/training_data/batch_1/big_rod_t0.2/sample_71_session_3.csv
timestamp[s],tcp_force_x[N],tcp_force_y[N],tcp_force_z[N],tcp_force_rx[Nm?],tcp_force_ry[Nm?],tcp_force_rz[Nm?],tcp_pose_x[m],tcp_pose_y[m],tcp_pose_z[m],tcp_pose_rx[rot_vec_x],tcp_pose_ry[rot_vec_y],tcp_pose_rz[rot_vec_z],tcp_velo_x[m/s],tcp_velo_y[m/s],tcp_velo_z[m/s],tcp_velo_rx[rot_vec_x/s],tcp_velo_ry[rot_vec_y/s],tcp_velo_rz[rot_vec_z/s],q1[rad],q2[rad],q3[rad],q4[rad],q5[rad],q6[rad],qd1[rad/s],qd2[rad/s],qd3[rad/s],qd4[rad/s],qd5[rad/s],qd6[rad/s],tool_acc_x,tool_acc_y,tool_acc_z,current_of_whole_robot[A],voltage_of_whole_robot[V],current_J1[A],current_J2[A],current_J3[A],current_J4[A],current_J5[A],current_J6[A],temp_J1[C],temp_J2[C],temp_J3[C],temp_J4[C],temp_J5[C],temp_J6[C]
6.259652e-07,-0.379121,-0.65244955,0.25944418,-0.017266888,0.011758269,-0.019038657,-0.3729143,-0.3282218,0.05996845,-3.078507,0.62489086,-0.00022264084,0.003285642,0.0015856662,-0.0045493436,0.0046322076,-0.0098665375,-7.503073e-05,0.44812617,-1.4708729,2.009526,-2.1076791,-1.5706614,2.4230556,-7.222686e-05,0.004345827,0.005399576,0.0011535547,0.00011418408,-2.9653884e-07,0.076614454,0.24899697,-8.944737,0.7239871,47.728977,-0.21976936,-2.9403574,-2.5166063,-0.5076552,0.14895505,-0.10045024,27.0625,28.1875,27.125,30.625,32.3125,32.9375
0.002052977,-0.03799541,-0.4773667,0.31423646,-0.0050843,0.017969595,-0.02078837,-0.37288454,-0.3282202,0.059934217,-3.0784783,0.6248656,-0.00029120958,-0.00027576037,-0.00013637047,-0.0029888367,-0.00050808495,0.0007719231,-7.070192e-05,0.44815025,-1.470849,2.0095847,-2.1077068,-1.5706614,2.4230676,-7.127359e-05,0.004108934,0.0045260726,-0.009551271,0.00011135834,-1.9361869e-08,0.095768064,0.19153613,-8.887277,0.6948948,47.705692,-0.24190238,-2.7965107,-2.3142223,-0.48735207,0.13128701,-0.09612459,27.0625,28.1875,27.125,30.625,32.3125,32.9375
0.0040517338,-0.8140297,-0.7266311,0.1444168,0.011031711,-0.0034846507,-0.012385837,-0.3729075,-0.32821184,0.05994007,-3.0784724,0.6248255,-0.0002256355,-0.0011910454,-0.0005784182,-0.0026722546,-0.0020734202,0.004016574,-6.8983405e-05,0.4481382,-1.4708371,2.0095613,-2.1077201,-1.5706977,2.4230313,-7.034504e-05,0.0038255,0.0049700653,-0.013314327,0.00010866905,-1.2641918e-09,0.038307227,0.13407528,-8.887277,0.7083204,47.716442,-0.18664072,-3.0465646,-2.5540106,-0.36000603,0.15183455,-0.11436238,27.0625,28.1875,27.125,30.625,32.3125,32.9375
0.006051778,0.004576761,-0.29185495,0.08202435,0.016536796,0.00075592106,-0.018842341,-0.37291393,-0.32823208,0.059933275,-3.0784914,0.62484884,-0.00020856442,-0.0002654297,-0.00012999111,-0.0020311545,-0.0007635685,0.0013212032,-6.920668e-05,0.4481623,-1.4708018,2.0095484,-2.1077654,-1.5706857,2.4230676,-6.944047e-05,0.002447612,0.0037296668,-0.007699262,0.00010610652,-8.2542695e-11,0.038307227,0.1340753,-8.963891,0.75084364,47.752266,-0.21266136,-2.923881,-2.5193217,-0.39306778,0.13666372,-0.09586444,27.0625,28.1875,27.125,30.625,32.3125,32.9375
0.0080519095,0.22508433,0.6550477,-0.10973426,0.03670355,-0.024256153,-0.025777137,-0.37288862,-0.32822648,0.059914164,-3.0784976,0.6248504,-0.0002896555,6.0788963e-05,2.828947e-05,-0.0013492339,-0.00012852675,1.8630339e-05,-6.869048e-05,0.44815025,-1.4708141,2.009608,-2.1077754,-1.5706495,2.4230556,-6.8558904e-05,0.0015863102,0.0022446238,-0.0039037936,0.00010366215,-5.389448e-12,0.038307227,0.11492168,-9.097966,0.784413,47.757637,-0.21743792,-2.9565616,-2.4952283,-0.43924332,0.14045978,-0.11599748,27.0625,28.1875,27.125,30.625,32.3125,32.9375
0.0100521,0.6965766,0.9449032,-0.5240296,0.05628938,-0.019825675,-0.032109186,-0.3728892,-0.328203,0.05991081,-3.0784354,0.62485695,-0.00028787108,0.0004128262,0.00020270338,-0.0012499328,0.0007008058,-0.0016913185,-7.54711e-05,0.4481382,-1.4708141,2.0096076,-2.1077397,-1.5706977,2.4230556,-7.513027e-05,0.0016987231,0.0012610665,-0.001132194,0.00010132784,-3.5189242e-13,0.038307227,0.11492168,-9.289503,0.75755644,47.739727,-0.5754323,-2.2472777,-3.1371584,-0.4522344,0.11636448,-0.1522769,27.0625,28.1875,27.125,30.625,32.3125,32.9375
0.012052559,-0.19335449,-0.14704594,-0.7214822,0.044220444,-0.015325385,-0.014928671,-0.3728856,-0.32819057,0.059886802,-3.0783918,0.6248674,-0.0003410664,7.6565186e-05,7.9107645e-05,-0.004794416,0.0039805816,-0.008520094,-0.00010239215,0.44812614,-1.4707744,2.009619,-2.1077392,-1.5707096,2.4230556,-0.00015453534,0.011675467,-0.0016761203,-0.0005961981,9.909634e-05,-4.929009e-05,0.095768064,0.11492168,-9.442732,0.6926589,47.73077,-0.6000074,-2.4399157,-3.2223105,-0.44899684,0.11707969,-0.18714465,27.0625,28.1875,27.125,30.625,32.3125,32.9375
0.014051919,-0.5064421,-0.87491757,-0.98896176,0.01025292,0.0140491035,-0.024311064,-0.3728718,-0.32820004,0.05986634,-3.0783916,0.6248481,-0.0004746416,-0.00585698,0.00071915134,-0.0033552095,0.0023679032,-0.0052087717,-0.0027737706,0.4481239,-1.4707248,2.0096033,-2.107703,-1.5706614,2.4230413,-0.0067614345,0.016912295,-0.010755823,-0.00043705208,9.696128e-05,-0.0039785686,0.019153614,0.17238252,-9.500193,0.7486078,47.71823,-0.39087707,-2.8141637,-2.8998203,-0.4470635,0.09949715,-0.18236658,27.0625,28.1875,27.125,30.625,32.3125,32.9375
0.016051749,-1.5084891,-1.8397076,-1.1523998,-0.015432347,0.033513285,-0.022318477,-0.37288675,-0.328194,0.059871856,-3.0783563,0.62483895,-0.00045593816,-0.0055891806,0.0015821874,-0.004148181,0.003262667,-0.0070639155,0.0012274395,0.4481234,-1.4707007,2.009556,-2.1076672,-1.5706977,2.4230397,-0.008139653,0.01740107,-0.009559252,-6.392012e-05,9.491586e-05,-0.009358748,-0.32561144,0.21068975,-9.634268,0.7105615,47.679718,-0.3124779,-2.6764007,-3.2093632,-0.45616513,0.10446946,-0.15210551,27.0625,28.1875,27.125,30.625,32.3125,32.9375
0.018052284,-1.8544693,-1.9552116,-1.0251359,-0.05739387,0.08022245,-0.033973742,-0.3728645,-0.32818776,0.05984767,-3.0783417,0.62473905,-0.000557193,-0.0057539474,0.0008283139,-0.0039405613,0.003052955,-0.006595105,0.0032204941,0.44812384,-1.4706765,2.0095794,-2.107643,-1.5706857,2.4229796,-0.0068605198,0.01826417,-0.010995441,-4.173527e-06,7.680323e-05,-0.010071657,-0.4405331,0.30645782,-9.768343,0.70608455,47.7451,-0.4925214,-2.4162905,-3.5049515,-0.43160465,0.09120491,-0.14287768,27.0625,28.1875,27.125,30.625,32.3125,32.9375
0.02005253,-1.6587691,-1.8906193,-1.0337082,-0.07016323,0.11536804,-0.04650571,-0.37287754,-0.328205,0.05985004,-3.0783749,0.62476534,-0.000604343,-0.005864747,0.0010492037,-0.004101359,0.0043164995,-0.009207992,0.0024666847,0.4481117,-1.47064,2.0095308,-2.10763,-1.5706376,2.4229796,-0.0073757586,0.020048972,-0.01338538,0.0035038572,7.301837e-05,-0.009832394,-0.40222588,0.36391866,-9.80665,0.77545905,47.728977,-0.6834823,-2.4286056,-3.4192092,-0.46769866,0.07316369,-0.17103139,27.0625,28.1875,27.125,30.625,32.3125,32.9375
0.022052765,-1.7762498,-1.5281569,-1.0199038,-0.05941717,0.10628493,-0.054369785,-0.37288082,-0.32818943,0.059823148,-3.0783372,0.6247574,-0.0006532505,-0.006390028,0.0010979973,-0.004499607,0.004892014,-0.0104090795,0.0033390478,0.4480875,-1.4705913,2.0095417,-2.1076415,-1.5706495,2.4229553,-0.0079460945,0.022205928,-0.015023979,0.0043170312,7.142409e-05,-0.011274007,-0.6703765,0.40222588,-9.825804,0.7396539,47.746887,-0.7174864,-2.488106,-3.4034595,-0.48970383,0.07317514,-0.17467764,27.0625,28.1875,27.125,30.625,32.3125,32.9375
0.024052085,-1.8720723,-1.3935184,-1.1550179,-0.03911387,0.08361635,-0.06372086,-0.37290633,-0.32819483,0.05982647,-3.0783129,0.62477136,-0.00060301257,-0.008398484,0.00095018046,-0.0034650064,0.0033488404,-0.007180999,0.0031591542,0.448099,-1.4705434,2.0094817,-2.107642,-1.5706857,2.4229786,-0.009484356,0.022430448,-0.01729429,0.002784254,5.4813823e-05,-0.012630489,-0.6703765,0.45968673,-9.844957,0.74413085,47.766594,-0.7971127,-2.414388,-3.4207225,-0.46124122,0.065340355,-0.18852824,27.0625,28.1875,27.125,30.625,32.3125,32.9375
0.0260517,-1.6912282,-1.3800286,-0.9696628,-0.034834962,0.069177166,-0.07043489,-0.3729297,-0.32819557,0.059830066,-3.0783496,0.6248375,-0.000657744,-0.010311925,0.001010934,-0.0021778739,0.0017460723,-0.003856625,0.002142092,0.44803837,-1.4705197,2.009445,-2.107631,-1.5706257,2.4229546,-0.011335886,0.02176649,-0.019281017,0.0017450373,5.173274e-05,-0.013463556,-0.59376204,0.4213795,-9.710882,0.78888994,47.72002,-0.69218135,-2.2917619,-3.5043766,-0.4328162,0.050691187,-0.18591732,27.0625,28.1875,27.125,30.625,32.3125,32.9375
0.028052565,-1.1638929,-1.1831365,-1.1931232,-0.02560027,0.0687826,-0.09161082,-0.3729472,-0.32819527,0.05981253,-3.0783243,0.62479347,-0.0006656097,-0.011416621,0.0010759428,-0.0021779414,0.0016254974,-0.003325708,0.0015081946,0.448038,-1.4704472,2.0094082,-2.1076424,-1.5706495,2.42293,-0.012378398,0.023298202,-0.02085005,0.0012516816,-7.462219e-05,-0.013870576,-0.7086837,0.36391866,-9.710882,0.7463667,47.757637,-0.7703787,-2.2613094,-3.461319,-0.4153598,0.04800023,-0.19068038,27.0625,28.1875,27.125,30.625,32.3125,32.9375
0.030051637,-1.2422317,-1.0635006,-1.100102,-0.011600538,0.06630057,-0.10082874,-0.37297636,-0.32819846,0.059801403,-3.07833,0.62471867,-0.0006540555,-0.012979768,0.0010968129,-0.0021556406,0.0014917353,-0.002953295,0.00090053474,0.4480255,-1.4703746,2.0093596,-2.1076667,-1.5706614,2.4228702,-0.0138086425,0.025729341,-0.023539023,0.001115787,-0.00012196407,-0.014691022,-0.6703765,0.21068975,-9.749189,0.7665104,47.745995,-0.76767814,-2.330095,-3.4631565,-0.39195538,0.034143172,-0.19865727,27.0625,28.1875,27.125,30.625,32.3125,32.9375
0.032052696,-1.7302624,-0.80612916,-1.0329534,0.0054936595,0.066534586,-0.11064178,-0.37304112,-0.32818905,0.059811957,-3.0783215,0.6248125,-0.0005704749,-0.014289787,0.00090197776,-0.001580419,0.00091833883,-0.0017023649,0.0013340163,0.44796526,-1.4703143,2.0092747,-2.1076906,-1.5706857,2.4228697,-0.01461147,0.0267305,-0.025970474,0.0011697437,-0.00015221338,-0.015925674,-0.47884035,0.1340753,-9.595961,0.74413085,47.729877,-0.78516066,-2.3431203,-3.4431243,-0.38567722,0.029431067,-0.20234863,27.0625,28.1875,27.125,30.625,32.3125,32.9375
0.034052502,-1.7892627,-0.54936516,-0.86479425,0.029634448,0.053675227,-0.11843203,-0.37303728,-0.3281976,0.05979105,-3.0783226,0.62481266,-0.00069159956,-0.016391398,0.001475455,-0.0009638865,0.001207855,0.000197547,0.00039592196,0.44795254,-1.4702538,2.0092509,-2.1076667,-1.5706381,2.4228568,-0.016862692,0.027966216,-0.0287274,0.0011084031,-0.0012438955,-0.017234609,-0.3256114,0.1340753,-9.519346,0.68818194,47.729877,-0.7177336,-2.3275168,-3.397044,-0.36459336,0.041194014,-0.18002436,27.0625,28.1875,27.125,30.625,32.3125,32.9375
0.036052387,-1.5727552,-0.121531434,-0.84243596,0.046339247,0.04148142,-0.13731618,-0.37306795,-0.32816088,0.05979211,-3.078249,0.6248174,-0.0006525611,-0.016890062,0.0013674414,-0.0004068755,0.0012869469,-9.34857e-05,0.00017309067,0.44790432,-1.4702297,2.0092137,-2.10763,-1.5707101,2.422821,-0.017148986,0.028420517,-0.030981777,0.0032035513,-0.0011896314,-0.017297352,-0.38307226,-0.05746084,-9.500193,0.73069996,47.71286,-0.7095945,-2.19265,-3.3701415,-0.36082536,0.0043529053,-0.17382506,27.0625,28.1875,27.125,30.625,32.3125,32.9375
0.038052335,-0.67915946,0.17892942,-0.591174,0.049339063,0.038433675,-0.15030615,-0.37312657,-0.32819593,0.059804797,-3.0783217,0.6248907,-0.0006622341,-0.017621642,0.0013400274,-0.00021925692,0.001391436,-0.00059145497,-0.0008281747,0.4478681,-1.4701335,2.0090816,-2.1076415,-1.5706381,2.4228213,-0.017842406,0.02975125,-0.03318753,0.0045734895,-0.0010687548,-0.01698869,-0.3256114,-0.076614454,-9.481039,0.7463667,47.723602,-0.7473681,-2.2438889,-3.3368816,-0.36506003,0.014884116,-0.16722158,27.0625,28.1875,27.125,30.625,32.3125,32.9375
0.04005218,-0.96811885,0.1365286,-0.71087974,0.051760804,0.014184531,-0.16478708,-0.37316293,-0.32821134,0.059798755,-3.0783427,0.6248762,-0.000657343,-0.018825721,0.0011014754,-0.00011212943,0.0011770796,-0.00028535965,-0.0017237106,0.4478559,-1.4700489,2.0090082,-2.1076658,-1.5706261,2.4227974,-0.01852627,0.031835668,-0.035747565,0.004680388,-0.0010129345,-0.016775316,-0.11492168,-0.038307227,-9.461885,0.7777002,47.737038,-0.7224165,-2.221776,-3.323262,-0.37153533,0.011596156,-0.18111143,27.0625,28.1875,27.125,30.625,32.3125,32.9375
0.042052373,-0.046672594,0.22979373,-0.6155498,0.03268416,0.027064368,-0.18495063,-0.37321952,-0.32819182,0.059808426,-3.0783095,0.62494624,-0.00063423894,-0.020075772,0.00059223705,0.00048673426,0.00019036763,0.0015156486,-0.0013666627,0.4477838,-1.4699888,2.0089118,-2.10763,-1.57065,2.4227734,-0.018771691,0.032757323,-0.037960764,0.003920341,-0.0009101184,-0.017376307,-0.13407528,-0.019153614,-9.442732,0.7486078,47.728977,-0.73828197,-2.1329324,-3.3993783,-0.34745717,0.0027692998,-0.18303725,27.0625,28.1875,27.125,30.625,32.3125,32.9375
0.044052344,-0.32240376,-0.3904553,-0.6565335,0.02348548,0.023840021,-0.18746178,-0.3732539,-0.32819757,0.059825994,-3.0783508,0.6248777,-0.00054810406,-0.021128679,0.00077303924,0.0008979175,-1.7762959e-05,0.0023599586,-0.0018991049,0.44777143,-1.4699767,2.0088637,-2.1076539,-1.5706619,2.422713,-0.019945381,0.03329709,-0.03953898,0.004107935,-0.0010902778,-0.018016268,-0.038307227,0.076614454,-9.481039,0.784413,47.72808,-0.70987576,-2.1369987,-3.3944612,-0.3189941,-0.034772072,-0.18209872,27.0625,28.1875,27.125,30.625,32.3125,32.9375
0.0460523,-0.2985877,-0.8214891,-0.6109477,0.020545602,0.027332867,-0.18843965,-0.37329844,-0.32819322,0.05980663,-3.0783186,0.624852,-0.0006232243,-0.021821762,0.0014603679,0.0008448481,0.0018910851,0.001795794,-0.0019135822,0.447723,-1.4698445,2.0087545,-2.1076167,-1.5706624,2.4226527,-0.020864839,0.03460932,-0.04126073,0.005857514,-0.002567978,-0.018917382,-0.038307227,0.1340753,-9.481039,0.7105615,47.71554,-0.68802977,-2.0625558,-3.4143677,-0.31890094,-0.024413666,-0.16339938,27.0625,28.1875,27.125,30.625,32.3125,32.9375
0.048052356,-0.2623728,-0.8446294,-0.91037595,0.0038326485,0.024148356,-0.18676074,-0.37330565,-0.3281687,0.05977493,-3.078253,0.624819,-0.0007057528,-0.02201262,0.0019392736,0.00073847955,0.0041161883,0.000112032794,-0.0012218155,0.44768706,-1.4697721,2.008742,-2.1075919,-1.5706872,2.4226046,-0.02107479,0.036074605,-0.043332554,0.008948973,-0.003844522,-0.01981555,-0.038307227,0.19153613,-9.481039,0.69937176,47.7245,-0.71539426,-2.0362988,-3.4742172,-0.3440445,-0.021015044,-0.16877095,27.0625,28.1875,27.125,30.625,32.3125,32.9375
0.050051905,-0.4122336,-1.329821,-0.91917795,0.009794111,0.008380741,-0.1811376,-0.37338293,-0.3281632,0.059799526,-3.0782437,0.62489384,-0.00057066313,-0.022863341,0.0020742505,0.00085930247,0.004177216,6.127098e-05,-0.0012191897,0.44763875,-1.4697118,2.0086224,-2.1076043,-1.5707349,2.4226043,-0.022074409,0.037237383,-0.0450249,0.00954949,-0.003879075,-0.020816978,0.076614454,0.24899697,-9.481039,0.74413085,47.699425,-0.68024933,-2.0761108,-3.492589,-0.34469676,-0.030562624,-0.16656145,27.0625,28.1875,27.125,30.625,32.3125,32.9375
0.052051906,-0.45399404,-1.7619416,-1.0913999,0.0036760767,-0.010176476,-0.1594139,-0.3734099,-0.32818267,0.059811976,-3.0782647,0.62489825,-0.00062070077,-0.023573903,0.002048423,0.0013316068,0.0035245789,0.00018048236,-0.0010841804,0.44762626,-1.4696518,2.0085142,-2.1075437,-1.5706986,2.422592,-0.023031624,0.037543647,-0.04666034,0.010487292,-0.0033446527,-0.021909535,0.0,0.30645782,-9.5385,0.7709874,47.695843,-0.64295197,-1.9634513,-3.465219,-0.34634954,-0.046829835,-0.15441251,27.0625,28.1875,27.125,30.625,32.3125,32.9375
0.054051828,-0.21209681,-1.6633689,-0.8273465,-0.015892714,-0.0050593135,-0.16164714,-0.37345085,-0.3281662,0.05980958,-3.0782347,0.6248914,-0.00065356673,-0.02442478,0.0019657412,0.0013572195,0.0033693558,-0.00017045814,-0.0007266581,0.44756612,-1.4695795,2.0084293,-2.107496,-1.5707105,2.4225314,-0.02384127,0.039204996,-0.048684947,0.011098014,-0.003057389,-0.02307591,-0.019153614,0.38307226,-9.576807,0.8023209,47.716442,-0.62538403,-1.8945433,-3.5073361,-0.33688423,-0.040008314,-0.13918288,27.0625,28.1875,27.125,30.625,32.3125,32.9375
0.05605235,-0.5140694,-1.9423063,-0.9125061,-0.02136346,0.0024275146,-0.16186978,-0.37350878,-0.32815546,0.05981922,-3.078209,0.6249057,-0.0006062022,-0.025285503,0.001958926,0.0015936885,0.0036910558,-0.00020659207,-0.00017001318,0.4475178,-1.4695069,2.008322,-2.1074717,-1.5707468,2.4224954,-0.024419425,0.04055525,-0.050962854,0.012197202,-0.003334701,-0.0242089,0.019153614,0.38307226,-9.634268,0.8314132,47.729877,-0.66479546,-1.8979721,-3.5123634,-0.35445255,-0.056048814,-0.1295028,27.0625,28.1875,27.125,30.625,32.3125,32.9375
0.058052458,-0.6324419,-2.0483475,-0.7728617,-0.025652437,0.018180538,-0.15916573,-0.37357515,-0.32817486,0.059836034,-3.0782807,0.62491965,-0.00054887653,-0.026130157,0.002181146,0.001565366,0.004709642,-0.00016519982,0.00019944413,0.44746974,-1.4694347,2.0082123,-2.1075075,-1.570711,2.422447,-0.024965366,0.042151097,-0.052800864,0.012846685,-0.004272201,-0.025121449,0.076614454,0.47884035,-9.595961,0.83589023,47.74868,-0.6799228,-1.8474674,-3.4785523,-0.35258687,-0.069148496,-0.11233373,27.0625,28.1875,27.125,30.625,32.3125,32.9375
0.0600523,-0.9685003,-1.7904729,-0.75962687,-0.02767052,0.023919126,-0.15820356,-0.37359107,-0.32813966,0.05980811,-3.0781925,0.6249388,-0.00068795873,-0.027087327,0.0023848738,0.0012551997,0.0057344204,-0.00022382647,0.00058355735,0.44739747,-1.46935,2.0081642,-2.1074235,-1.5707234,2.4223979,-0.02560267,0.044394173,-0.054558925,0.012860295,-0.005178373,-0.026138976,-0.019153614,0.4405331,-9.5385,0.7620334,47.71465,-0.6655848,-1.8757682,-3.4965806,-0.35400867,-0.033850368,-0.11350989,27.0625,28.1875,27.125,30.625,32.3125,32.9375
0.062052544,-0.9762631,-1.5409434,-0.7237673,-0.020449,0.037659593,-0.16283113,-0.37367013,-0.328148,0.05982897,-3.0782118,0.6249425,-0.0006167123,-0.02833407,0.0021568716,0.0014561481,0.0058493847,0.00051526236,0.0016895509,0.44734937,-1.4692535,2.0080078,-2.1074116,-1.5707353,2.4223497,-0.026011113,0.046365432,-0.05720075,0.012914877,-0.005607098,-0.027650876,-0.038307227,0.40222588,-9.5385,0.83365434,47.72092,-0.6727701,-1.8584574,-3.5270073,-0.3640328,-0.056638114,-0.09098385,27.0625,28.1875,27.125,30.625,32.3125,32.9375
0.064052634,-0.67213154,-1.5323578,-0.8490245,-0.012112655,0.045706633,-0.16692452,-0.37374967,-0.32815224,0.059860114,-3.0782292,0.6249454,-0.0005190352,-0.029911289,0.0016965579,0.002095788,0.005068659,0.0026216109,0.0016777313,0.44730118,-1.4691811,2.0078514,-2.1073878,-1.5707592,2.4223013,-0.026427664,0.047682036,-0.05992743,0.012087888,-0.0058205905,-0.028053425,-0.05746084,0.36391866,-9.576807,0.779936,47.7451,-0.6499889,-1.8228291,-3.515888,-0.36098835,-0.05495789,-0.09300524,27.0625,28.1875,27.125,30.625,32.3125,32.9375
0.06605204,-0.79533726,-1.2586191,-0.74531585,-0.011488891,0.035045356,-0.1609621,-0.37379104,-0.32814837,0.05984223,-3.0781987,0.62490106,-0.0005665374,-0.031091547,0.0019085353,0.0018004542,0.0061495346,0.0037319032,0.0017505226,0.44726503,-1.4690605,2.0077546,-2.107364,-1.570772,2.4222414,-0.026905077,0.049782965,-0.061269127,0.010799618,-0.0072828177,-0.028598748,-0.19153614,0.34476504,-9.576807,0.7284641,47.70032,-0.6641103,-1.8251548,-3.4679978,-0.36539418,-0.047019448,-0.08761241,27.0625,28.1875,27.125,30.625,32.3125,32.9375
0.06805221,-0.86174,-1.3105075,-0.51677215,-0.0027057878,0.038019706,-0.16584492,-0.37386876,-0.3281472,0.05986154,-3.0782192,0.6249809,-0.0004900841,-0.033240873,0.0017390583,0.0030038578,0.0064998507,0.0073931967,0.0030945223,0.44719294,-1.4689885,2.007634,-2.1073759,-1.570773,2.4222167,-0.027239282,0.05070321,-0.064955406,0.010421774,-0.009189862,-0.030271007,-0.17238252,0.38307226,-9.385271,0.7866488,47.77286,-0.6863605,-1.7841048,-3.4634619,-0.34252656,-0.032186083,-0.06736992,27.0625,28.1875,27.125,30.625,32.3125,32.9375
0.07005234,-0.9499147,-1.0705737,-0.42161125,-0.00470183,0.035690118,-0.16036569,-0.3739326,-0.32815692,0.05985159,-3.0782237,0.62490493,-0.00054507435,-0.034363028,0.0015371337,0.0024860974,0.006902669,0.007042499,0.0029094932,0.44714478,-1.4688318,2.0074766,-2.107341,-1.5707606,2.4221206,-0.027725918,0.053984433,-0.06727299,0.009949184,-0.009408475,-0.030569816,-0.24899697,0.34476504,-9.32781,0.74413085,47.7254,-0.73594797,-1.8336431,-3.382462,-0.33083242,-0.030801488,-0.044340968,27.0625,28.1875,27.125,30.625,32.3125,32.9375
0.07205246,-0.7135616,-0.7606769,-0.3034255,-0.0065104445,0.045925923,-0.17119591,-0.37401277,-0.32815707,0.059881587,-3.078226,0.6249256,-0.000439692,-0.03464408,0.0016916095,0.0015059067,0.0074232672,0.004917058,0.0014394209,0.44709647,-1.4687588,2.007322,-2.1073167,-1.5707964,2.422085,-0.028570712,0.056719303,-0.06808206,0.010162005,-0.00895793,-0.029945146,-0.26815057,0.2681506,-9.289502,0.77545905,47.71554,-0.73741174,-1.9111183,-3.4939704,-0.32374033,-0.041739896,-0.057300713,27.0625,28.1875,27.125,30.625,32.3125,32.9375
0.07405252,-0.5751593,-1.0174873,-0.30344698,0.00298456,0.06026718,-0.16606769,-0.37407205,-0.32814947,0.059885148,-3.078207,0.62494093,-0.0004415992,-0.036379106,0.0007755743,0.0037688764,0.005058979,0.009047519,0.0010254092,0.44703647,-1.4686636,2.007201,-2.1072805,-1.5708083,2.4220371,-0.028645199,0.055249903,-0.071749546,0.010550244,-0.008618492,-0.029604394,-0.28730422,0.24899697,-9.346964,0.7463667,47.737934,-0.7909409,-1.692877,-3.5031266,-0.33801782,-0.031294648,-0.059203096,27.0625,28.1875,27.125,30.625,32.3125,32.9375
0.07605218,-0.76354504,-0.5774427,-0.13652706,-0.00019048862,0.051816303,-0.171384,-0.37414858,-0.32813755,0.059878618,-3.0781953,0.6249189,-0.00044538025,-0.03787527,-9.6566555e-06,0.0043446147,0.003605549,0.009674339,0.001568888,0.44695234,-1.468531,2.0070674,-2.107268,-1.5708197,2.4219408,-0.029217087,0.057370223,-0.07550705,0.010988863,-0.007586223,-0.030719357,-0.30645782,0.21068975,-9.385271,0.7284641,47.737038,-0.796437,-1.731262,-3.2786002,-0.31199753,-0.041144967,-0.06454939,27.0625,28.1875,27.125,30.625,32.3125,32.9375
0.07805219,-1.2969687,-0.7478921,-0.24902143,0.008116823,0.039732743,-0.15022996,-0.37423086,-0.32815802,0.05990175,-3.0782464,0.62494946,-0.0004227838,-0.03744919,0.00034957638,0.001938115,0.0052022673,0.0043802885,0.0008514714,0.446892,-1.4684215,2.0068886,-2.1072443,-1.570784,2.4218931,-0.03007569,0.062342163,-0.0755907,0.011562317,-0.0067353575,-0.030861944,-0.36391866,0.17238252,-9.423578,0.7642693,47.71465,-0.77669156,-1.8513095,-3.4387007,-0.3108868,-0.066483945,-0.057918258,27.0625,28.1875,27.125,30.625,32.3125,32.9375
0.08005232,-0.8568296,-0.5529959,-0.23812166,0.002818891,0.04926544,-0.16445467,-0.37428945,-0.3281649,0.0598955,-3.0782406,0.62485147,-0.00041354925,-0.03942139,-0.00035206415,0.003796239,0.0036316987,0.008259916,0.000884567,0.44686788,-1.4682899,2.0067556,-2.1072323,-1.5708078,2.4218087,-0.030357786,0.06195371,-0.07944662,0.011629296,-0.007004055,-0.03117432,-0.28730422,0.19153613,-9.346964,0.82022345,47.741516,-0.75796413,-1.9109881,-3.2892752,-0.31653568,-0.07308832,-0.074523434,27.0625,28.1875,27.125,30.625,32.3125,32.9375
0.082052164,-1.2660345,-0.9223754,-0.28671718,0.012173365,0.03818152,-0.15754907,-0.3743667,-0.3281677,0.059906323,-3.0782351,0.62488806,-0.00034620822,-0.040928256,-0.00045060134,0.0044003935,0.00413388,0.00979594,0.0016548076,0.44681987,-1.4681815,2.0066116,-2.1072319,-1.5708326,2.4217844,-0.030772889,0.06345771,-0.08260084,0.012113842,-0.00812549,-0.032355715,-0.40222588,0.24899697,-9.346964,0.7978386,47.741516,-0.80044115,-1.6824781,-3.245363,-0.31849492,-0.09824632,-0.06316924,27.0625,28.1875,27.125,30.625,32.3125,32.9375
0.08405207,-1.2738093,-1.0857072,-0.3684368,0.012503565,0.040510617,-0.15808295,-0.37444445,-0.3281561,0.059896655,-3.0781898,0.6248796,-0.00041157092,-0.041491,-6.438806e-05,0.0032196098,0.0059530884,0.00798148,0.00085445505,0.4467356,-1.4680127,2.0064318,-2.1071599,-1.5708445,2.4217007,-0.031418417,0.06702331,-0.08384812,0.012219966,-0.008985984,-0.032197375,-0.36391866,0.22984336,-9.385271,0.75755644,47.729877,-0.7828763,-1.821531,-3.2809868,-0.30761173,-0.07554579,-0.06514797,27.0625,28.1875,27.125,30.625,32.3125,32.9375
0.08605264,-1.2801913,-0.63084584,-0.38361803,0.00334232,0.044869892,-0.16143623,-0.37453973,-0.32819316,0.059933018,-3.0782497,0.6248918,-0.00031405283,-0.043893516,-0.0002195958,0.004363995,0.006133184,0.010748533,-0.0012210222,0.44671136,-1.4678923,2.0062134,-2.1071484,-1.5708336,2.4216766,-0.03237351,0.06876376,-0.08850664,0.012725729,-0.010349078,-0.031072201,-0.45968673,0.21068975,-9.346964,0.7530795,47.72092,-0.7803645,-1.822193,-3.1606836,-0.2953492,-0.071340606,-0.077394575,27.0625,28.1875,27.125,30.625,32.3125,32.9375
0.08805256,-1.0951445,-0.9280522,-0.43688214,-0.001087041,0.049549192,-0.15618747,-0.374633,-0.32816088,0.059939086,-3.0781925,0.6248812,-0.00024940062,-0.043868408,0.0010436837,0.0028985457,0.00790667,0.0076566483,-0.0035834413,0.44661465,-1.4677716,2.0060585,-2.1071117,-1.5709051,2.4215808,-0.03453553,0.07090054,-0.0876262,0.013260946,-0.010609393,-0.030871624,-0.38307226,0.24899697,-9.346964,0.7642693,47.723602,-0.7917282,-1.8111682,-3.3312404,-0.2793514,-0.043440092,-0.099172115,27.0625,28.1875,27.125,30.625,32.3125,32.9375
0.09005248,-1.1445234,-1.1021578,-0.4753586,-0.0036096051,0.0488205,-0.16088764,-0.37470192,-0.32817712,0.059924133,-3.0781875,0.6248983,-0.00031590668,-0.045470167,0.00041071945,0.0036207512,0.007208034,0.008994658,-0.0016727328,0.44656652,-1.4675914,2.0058892,-2.1070879,-1.5708812,2.421544,-0.034818742,0.07278701,-0.09147181,0.013710842,-0.010566336,-0.033062834,-0.38307226,0.21068975,-9.385271,0.74413085,47.701214,-0.7672288,-1.8077357,-3.2469172,-0.29492947,-0.067491785,-0.09898077,27.0625,28.1875,27.125,30.625,32.3125,32.9375
0.092052616,-1.3399687,-0.99892676,-0.31661,-0.0155012375,0.041110896,-0.15704301,-0.37479517,-0.32816884,0.05991912,-3.078169,0.6248566,-0.0003104859,-0.044724178,0.0007444467,0.0021020295,0.008519304,0.0054297517,-0.0013501166,0.4464823,-1.467423,2.00571,-2.107064,-1.5709046,2.4214363,-0.035002712,0.07516258,-0.09077662,0.014418595,-0.010206964,-0.033570275,-0.36391866,0.24899697,-9.289502,0.7463667,47.687782,-0.7639265,-1.8694139,-3.216868,-0.29894432,-0.057534844,-0.10214953,27.0625,28.1875,27.125,30.625,32.3125,32.9375
0.09405182,-0.6115137,-1.0434171,-0.5250124,-0.008460909,0.051720597,-0.16049473,-0.37489522,-0.3281589,0.05993757,-3.0781467,0.6249285,-0.0002304735,-0.04671233,0.00045220196,0.0029769011,0.00865438,0.008013841,-0.0017245668,0.4463982,-1.4673024,2.0055296,-2.1070402,-1.5709418,2.4214,-0.035399973,0.076814815,-0.09457978,0.014299356,-0.0114514595,-0.03358845,-0.34476504,0.22984336,-9.308657,0.7911258,47.737934,-0.8071807,-1.8579458,-3.177964,-0.2849492,-0.04316245,-0.1117838,27.0625,28.1875,27.125,30.625,32.3125,32.9375
0.09605226,-0.58396024,-0.8437709,-0.54953814,-0.00034751344,0.0434918,-0.16200684,-0.37499607,-0.32817316,0.059952553,-3.078157,0.62485474,-0.00018007073,-0.048173588,0.0009221875,0.0027579463,0.008763266,0.0072767437,-0.004110151,0.44634947,-1.4671341,2.0053017,-2.1070035,-1.5709652,2.4213042,-0.037739772,0.07930841,-0.0969721,0.014907882,-0.01123423,-0.03354174,-0.22984336,0.19153613,-9.385271,0.77545905,47.693153,-0.8079034,-1.9151518,-3.137663,-0.27779654,-0.046432406,-0.13060792,27.0625,28.1875,27.125,30.625,32.3125,32.9375
0.09805265,-1.450094,-1.2684605,-0.5148428,0.008546241,0.00989378,-0.14789787,-0.37513435,-0.3281604,0.059972946,-3.0781581,0.62497026,-6.683223e-05,-0.049172163,0.0010825266,0.0025724494,0.009643372,0.007603296,-0.0046740663,0.44621727,-1.4669776,2.0050857,-2.1070158,-1.57099,2.4212441,-0.038292125,0.08129356,-0.09870389,0.014740868,-0.012170368,-0.033527855,-0.1340753,0.3256114,-9.289502,0.7284641,47.71286,-0.7461447,-1.8482192,-3.1533604,-0.27535188,-0.04912983,-0.15295956,27.0625,28.1875,27.125,30.625,32.3125,32.9375
0.10005257,-0.8290249,-0.84284145,-0.42666122,0.0021201572,0.024982547,-0.15466917,-0.37519827,-0.32816747,0.059961032,-3.078121,0.6249627,-0.00011542423,-0.0506623,0.0014812272,0.002578632,0.010130528,0.008230216,-0.005305036,0.44618067,-1.4668094,2.004917,-2.1069677,-1.5710019,2.4212077,-0.039895322,0.0832022,-0.10079145,0.014565738,-0.012887151,-0.034496557,-0.21068975,0.30645782,-9.289503,0.71279734,47.70032,-0.67470926,-1.9068165,-3.1616652,-0.25360468,-0.05044268,-0.15187623,27.0625,28.1875,27.125,30.625,32.3125,32.9375
0.10205269,-0.32191116,-0.8407134,-0.40160722,0.0033199624,0.03497935,-0.16558006,-0.3753175,-0.32816935,0.05999278,-3.0781262,0.6249637,-7.438588e-05,-0.051373065,0.0014466798,0.002768821,0.009866199,0.008135527,-0.005522647,0.44608444,-1.4666532,2.0046532,-2.1068842,-1.5710138,2.4211116,-0.04064376,0.08417042,-0.10245652,0.015231076,-0.012608972,-0.035027303,-0.2681506,0.34476504,-9.289502,0.7866488,47.686886,-0.65203655,-1.799718,-3.227073,-0.24257325,-0.04355239,-0.15991402,27.0625,28.1875,27.125,30.625,32.3125,32.9375
0.10405193,-0.5065616,-0.8793395,-0.38222986,-0.0038142004,0.028821371,-0.16292311,-0.37539372,-0.3281805,0.059975106,-3.0781367,0.6248689,-9.164152e-05,-0.051407058,0.0011457201,0.001625434,0.011699903,0.005532632,-0.0040781554,0.4460368,-1.466472,2.0044968,-2.1068952,-1.5710143,2.4210036,-0.03974296,0.08816317,-0.104523025,0.016445184,-0.013142626,-0.03556832,-0.19153613,0.30645782,-9.32781,0.78217715,47.709274,-0.7366662,-2.0880938,-3.1137805,-0.24526785,-0.023818817,-0.19188559,27.0625,28.1875,27.125,30.625,32.3125,32.9375
0.10605177,-0.88615286,-1.4964693,-0.6480174,-0.0007731055,0.018577514,-0.1493891,-0.37551412,-0.3281658,0.059977315,-3.0780687,0.624932,-5.0084123e-05,-0.052187487,0.0009363049,0.0031098216,0.010204776,0.0077246693,-0.003909457,0.44594064,-1.4662691,2.0042574,-2.106847,-1.5710739,2.4209557,-0.040307414,0.086241014,-0.10600185,0.017218424,-0.012741299,-0.036301784,-0.15322891,0.3256114,-9.346964,0.7978386,47.721813,-0.8150981,-1.831753,-3.2863111,-0.22767998,-0.029589456,-0.19319227,27.0625,28.1875,27.125,30.625,32.3125,32.9375
0.10805168,-1.2858442,-1.8120956,-0.6310488,-0.00034260258,0.008003888,-0.14404446,-0.3756168,-0.32815918,0.0599827,-3.078061,0.6249508,-2.6326472e-05,-0.0529329,0.002117725,0.00046423706,0.013325515,0.0028771546,-0.0059315567,0.44584388,-1.4661113,2.0040658,-2.1068232,-1.5710863,2.4208717,-0.04269293,0.09277958,-0.10724883,0.017646987,-0.013467878,-0.036662303,-0.038307227,0.36391866,-9.32781,0.8247004,47.72629,-0.6933819,-2.03111,-3.277344,-0.23442851,-0.027366504,-0.20980173,27.0625,28.1875,27.125,30.625,32.3125,32.9375
0.1100518,-0.5393759,-1.3590512,-0.65597004,-0.017743086,0.021961026,-0.1590077,-0.3757454,-0.32817215,0.06000705,-3.0780642,0.62500757,3.161554e-05,-0.053779792,0.0016133052,0.0018410182,0.011561289,0.005522204,-0.004772009,0.44575974,-1.4659203,2.0037887,-2.106775,-1.5710977,2.4208229,-0.042794473,0.09124603,-0.10869207,0.017472684,-0.013019305,-0.03792413,-0.05746084,0.24899697,-9.32781,0.75084364,47.71554,-0.7404721,-1.8030784,-3.3235302,-0.23601219,-0.01867064,-0.22885758,27.0625,28.1875,27.125,30.625,32.3125,32.9375
0.112052,-0.69340974,-1.4556156,-0.52109814,-0.008939028,0.018525226,-0.15038553,-0.37583706,-0.32816252,0.059990562,-3.0780165,0.6250349,9.743653e-06,-0.054502975,0.0014469125,0.0010327379,0.012213587,0.004672121,-0.0026249185,0.44567567,-1.4657276,2.003609,-2.1067522,-1.5711225,2.420762,-0.042967677,0.0944934,-0.110297605,0.016876495,-0.013248625,-0.04024192,-0.11492168,0.24899697,-9.308656,0.75084364,47.692257,-0.7930888,-1.9752848,-3.3641047,-0.19146958,-0.022962902,-0.22042172,27.0625,28.1875,27.125,30.625,32.3125,32.9375
0.11405226,-0.8091241,-0.812485,-0.5662699,0.0020106554,0.011617455,-0.15435302,-0.37595618,-0.32817748,0.06000941,-3.0780635,0.6250057,2.7284897e-05,-0.054982934,0.0011411343,0.00081342005,0.0118070245,0.0036877717,-0.0025789693,0.44557956,-1.4655471,2.0033586,-2.1067154,-1.5710977,2.420642,-0.04334226,0.09634817,-0.11197713,0.017410934,-0.012458824,-0.040663283,-0.05746084,0.24899697,-9.346964,0.78888994,47.716442,-0.76662105,-1.965813,-3.44351,-0.18699366,-0.027522642,-0.24021703,27.0625,28.1875,27.125,30.625,32.3125,32.9375
0.11605168,-0.72732556,-0.9910951,-0.4588983,0.024564782,0.014608594,-0.14625928,-0.37608656,-0.32816952,0.060020726,-3.0780253,0.6250167,0.0001406339,-0.055580232,0.0010249168,0.00040298424,0.012261912,0.0029421637,-0.0034646955,0.4454956,-1.4653546,2.0031178,-2.1067035,-1.5711697,2.42057,-0.04358517,0.09864139,-0.11363244,0.017638681,-0.012549454,-0.040019516,-0.095768064,0.22984336,-9.270349,0.7642693,47.734352,-0.8128334,-1.985106,-3.2871876,-0.17693761,-0.024414323,-0.25401437,27.0625,28.1875,27.125,30.625,32.3125,32.9375
0.118051775,-0.9881065,-0.66984487,-0.46382478,0.019812778,0.009803638,-0.15115805,-0.37618494,-0.32814825,0.06001317,-3.077948,0.6250966,0.00014061901,-0.05673679,0.0005565399,0.0012875616,0.011202944,0.0048196563,-0.002271635,0.44539946,-1.4651748,2.002926,-2.1066554,-1.5712179,2.4205337,-0.04382711,0.098895274,-0.11593073,0.017527925,-0.012410095,-0.041452937,-0.076614454,0.1340753,-9.232041,0.83365434,47.77286,-0.854131,-1.9261291,-3.429854,-0.15789643,-0.012102099,-0.28189185,27.0625,28.1875,27.125,30.625,32.3125,32.9375
0.12005162,-0.47247174,-0.8537282,-0.5363574,0.026750073,0.020869814,-0.15153109,-0.37632543,-0.32817298,0.06004518,-3.0780072,0.62501234,0.0002559226,-0.056753457,0.0008657117,6.534302e-05,0.012587469,0.0018639466,-0.0023744905,0.44532728,-1.4649822,2.0026376,-2.106643,-1.5712298,2.4204016,-0.04442264,0.10199763,-0.11680288,0.01855975,-0.012382661,-0.041946024,-0.11492168,0.19153613,-9.289502,0.79560274,47.734352,-0.85989356,-1.9754246,-3.3844743,-0.15431166,-0.04583129,-0.30149722,27.0625,28.1875,27.125,30.625,32.3125,32.9375
0.122052714,-0.6406832,-0.6661031,-0.27210483,0.010136585,0.018817218,-0.16218705,-0.3764386,-0.3281677,0.060039554,-3.077991,0.6250262,0.0001979696,-0.05689853,0.0005433557,9.607466e-05,0.013465894,0.00134419,0.0005297043,0.44520772,-1.4647663,2.0023987,-2.1065829,-1.5712184,2.4202929,-0.043544713,0.103313915,-0.11866242,0.019950073,-0.012955193,-0.04396991,-0.11492168,0.21068975,-9.346964,0.7911258,47.752266,-0.9866619,-1.8452127,-3.4277458,-0.14578217,-0.025994785,-0.3038311,27.0625,28.1875,27.125,30.625,32.3125,32.9375
0.12405179,-0.89587224,-0.763361,-0.2794431,0.0014447169,0.012932023,-0.15509956,-0.37655354,-0.32816473,0.060026985,-3.0779145,0.6250509,0.00023692888,-0.057875693,0.0011976765,0.00044676822,0.013063886,0.0017333111,-0.0021188238,0.44514677,-1.4645265,2.002158,-2.106559,-1.5712899,2.4202573,-0.045763433,0.103205785,-0.11945503,0.020322252,-0.012761864,-0.043539878,-0.11492168,0.19153613,-9.346964,0.8291774,47.728977,-0.8994944,-1.8750942,-3.5047593,-0.1433481,-0.015043565,-0.3353461,27.0625,28.1875,27.125,30.625,32.3125,32.9375
0.12605235,-0.031369776,-0.70495933,-0.30349782,-0.0009907553,0.034776855,-0.15944856,-0.37666008,-0.32816252,0.060028184,-3.0779018,0.62508756,0.00019567135,-0.059255254,0.00052151957,0.0010736384,0.01304847,0.0030893723,-0.0035598485,0.44503897,-1.4643344,2.0019295,-2.106499,-1.5712785,2.4201741,-0.04533123,0.10519299,-0.12322916,0.020881236,-0.013339187,-0.041662917,-0.076614454,0.21068975,-9.270349,0.70608455,47.741516,-0.9227772,-1.7154505,-3.380628,-0.120690085,-0.013985519,-0.36875707,27.0625,28.1875,27.125,30.625,32.3125,32.9375
0.1280522,-0.72090244,-0.5347771,-0.3129757,0.0019359639,0.018236566,-0.15892206,-0.3767565,-0.32816666,0.06000713,-3.077873,0.6250024,0.00012987513,-0.05948772,-0.00085178297,0.0014819377,0.012228492,0.0034662457,-0.00016163632,0.4449676,-1.4640944,2.001702,-2.1064508,-1.5712899,2.4200535,-0.04333936,0.10660978,-0.12587322,0.02141085,-0.012769099,-0.043067988,-0.15322891,0.17238252,-9.385271,0.7732232,47.746887,-1.1161661,-1.8346589,-3.5574822,-0.108699396,-0.025847824,-0.40667498,27.0625,28.1875,27.125,30.625,32.3125,32.9375
0.13005258,-0.37240466,-0.60343844,-0.39293185,0.0075486545,0.024190329,-0.15834439,-0.37690312,-0.32817262,0.060029443,-3.077904,0.62506616,0.00021830807,-0.060277026,-1.3383394e-05,0.0005506223,0.013208719,0.001399791,-0.00046079047,0.44484693,-1.4639018,2.0014384,-2.1064508,-1.5712899,2.4199688,-0.045598637,0.10929842,-0.12685724,0.021990351,-0.012763472,-0.04502823,-0.11492168,0.2681506,-9.289502,0.8157518,47.73256,-1.0790907,-1.7834759,-3.4559724,-0.11033997,0.0021106387,-0.4103315,27.0625,28.1875,27.125,30.625,32.3125,32.9375
0.13205253,-0.5903504,-0.40649942,-0.38696212,0.0066681867,0.016581694,-0.16434844,-0.37699628,-0.3281661,0.060003087,-3.077797,0.6249851,0.0001514153,-0.06175717,-0.0012892269,0.0012611848,0.011478308,0.0023616906,0.0015396987,0.444799,-1.4636372,2.0011852,-2.106355,-1.5713614,2.4198842,-0.0452927,0.111678384,-0.13122281,0.022353776,-0.011629671,-0.046720896,-0.17238252,0.24899697,-9.346964,0.7597976,47.716442,-1.1662768,-1.8428788,-3.3561027,-0.08520738,-0.027520712,-0.41426516,27.0625,28.1875,27.125,30.625,32.3125,32.9375
0.13405259,-0.7833439,-0.7455824,-0.5169527,0.0009463714,0.009073437,-0.15707053,-0.3771464,-0.3281801,0.060036153,-3.0778208,0.6250477,0.00022476327,-0.06289295,-0.000642043,0.0017195833,0.011293849,0.0019322047,0.00035566848,0.4446903,-1.4634335,2.0008733,-2.1063058,-1.5713614,2.4198117,-0.047736082,0.1121819,-0.13327253,0.024204794,-0.011276674,-0.047980897,-0.19153613,0.2681506,-9.442732,0.8157518,47.69763,-1.1234043,-1.8096225,-3.3314304,-0.10014811,-0.040192757,-0.43298626,27.0625,28.1875,27.125,30.625,32.3125,32.9375
0.13605216,-1.2716321,-0.85544914,-0.42593715,-0.019294312,0.0024519754,-0.15981747,-0.3772598,-0.32818133,0.060050547,-3.0778031,0.6250038,0.00023150445,-0.063266166,-0.0014515094,0.0022197517,0.011644571,0.0021007804,0.0037909735,0.44460675,-1.4632415,2.0006092,-2.1062214,-1.5713853,2.4197032,-0.046274506,0.11347274,-0.13624606,0.025883812,-0.011670085,-0.049952295,-0.19153613,0.28730422,-9.500193,0.84484416,47.71554,-1.1258365,-1.7486819,-3.3240163,-0.09902242,-0.01821894,-0.44045705,27.0625,28.1875,27.125,30.625,32.3125,32.9375
0.13805234,-1.0133257,-1.6210304,-0.80360395,-0.019552317,0.017569866,-0.15803073,-0.3773816,-0.3281625,0.06004217,-3.0777571,0.6250123,0.00023474921,-0.06396265,-0.0013498223,0.0023370197,0.011653935,0.0014627341,0.0064029386,0.44448647,-1.4630255,2.0003817,-2.1061857,-1.5714215,2.4195943,-0.04724344,0.114665166,-0.13814703,0.027165098,-0.011408663,-0.053532533,-0.1340753,0.3256114,-9.500193,0.78888994,47.71465,-1.2438228,-1.637738,-3.3239975,-0.10622388,-0.041861318,-0.42400655,27.0625,28.1875,27.125,30.625,32.3125,32.9375
0.1400523,-1.0835406,-1.2674776,-0.88648576,-0.042126197,0.029411789,-0.16071063,-0.37751228,-0.3281691,0.06005283,-3.0777411,0.62496865,0.0002146968,-0.06511424,-0.00062656356,0.0018471088,0.013234459,0.0006414029,0.0073447595,0.44438985,-1.462785,2.0000699,-2.1060894,-1.5714339,2.4194727,-0.0488819,0.11727669,-0.14010943,0.027936846,-0.012488037,-0.056109097,-0.1340753,0.34476504,-9.634268,0.80456203,47.70838,-1.111381,-1.6819241,-3.3461702,-0.09652905,-0.031417556,-0.41340077,27.0625,28.1875,27.125,30.625,32.3125,32.9375
0.14205249,-1.3488213,-1.9704806,-0.81972283,-0.038237043,0.035262674,-0.1610001,-0.37763897,-0.32819793,0.060052905,-3.0777571,0.62489307,0.0002133016,-0.06570126,-0.0008440742,0.002091471,0.012365896,0.00015780261,0.010359729,0.44432965,-1.4625211,1.99977,-2.106053,-1.5714334,2.4193635,-0.049646914,0.11813645,-0.14186683,0.028890079,-0.011499785,-0.05989021,-0.15322891,0.34476504,-9.557653,0.8179876,47.72719,-1.1443049,-1.6539625,-3.3512003,-0.11166091,-0.022768512,-0.40171492,27.0625,28.1875,27.125,30.625,32.3125,32.9375
0.14405248,-1.0783371,-2.133973,-0.9427447,-0.039570704,0.04999569,-0.1623399,-0.3777762,-0.32815638,0.060043212,-3.0776637,0.6248335,0.00021517613,-0.06633241,-0.00075237657,0.00026877582,0.013725622,-0.0031984525,0.013426591,0.44418532,-1.4622794,1.9995064,-2.1059697,-1.5715173,2.4191942,-0.05049765,0.123599574,-0.14376116,0.028924892,-0.011295937,-0.063805625,-0.15322891,0.34476504,-9.519346,0.7597976,47.713753,-1.1948973,-1.7862151,-3.3568296,-0.10529404,-0.02397072,-0.37515455,27.0625,28.1875,27.125,30.625,32.3125,32.9375
0.14605205,-1.2983087,-1.2343687,-0.8715885,-0.045724016,0.041801445,-0.1603763,-0.37791508,-0.32817578,0.06007128,-3.0777059,0.6248219,0.00026399465,-0.06799747,-0.00088784174,0.0021264667,0.012415112,0.0006138676,0.01578309,0.44408906,-1.4620767,1.9992069,-2.1059215,-1.5715054,2.4190855,-0.051400673,0.12197602,-0.14627658,0.029056478,-0.011754998,-0.06706365,-0.19153613,0.4213795,-9.634268,0.83365434,47.71286,-1.1362214,-1.5829153,-3.4653082,-0.107644625,-0.043802064,-0.32533342,27.0625,28.1875,27.125,30.625,32.3125,32.9375
0.148052,-1.5105423,-1.0248835,-0.7833394,-0.028707227,0.032461077,-0.15811779,-0.37806967,-0.32820252,0.060078602,-3.0777338,0.62472916,0.00034342863,-0.06811937,-0.00042946136,-8.1669714e-05,0.013412829,-0.0038080816,0.017312486,0.4440165,-1.4617993,1.9988836,-2.1059215,-1.5715293,2.4189517,-0.053016152,0.12681724,-0.14657156,0.02892284,-0.010756157,-0.070210114,-0.22984336,0.34476504,-9.576807,0.80679786,47.71554,-1.1362449,-1.7477895,-3.4107018,-0.097205505,-0.0411371,-0.28820133,27.0625,28.1875,27.125,30.625,32.3125,32.9375
0.15005216,-1.5158577,-1.4561001,-0.7773181,-0.0093565695,0.03167745,-0.1457126,-0.37822026,-0.32817808,0.060079455,-3.0776887,0.6247001,0.00033199374,-0.06986456,-0.0009258851,0.00014176614,0.013171001,-0.0028882232,0.019695327,0.4438603,-1.4615469,1.9985837,-2.105838,-1.5715655,2.4187834,-0.05349221,0.12979895,-0.15038483,0.028813383,-0.010946586,-0.073065594,-0.22984336,0.28730422,-9.442732,0.80456203,47.678825,-1.1613315,-1.7214,-3.3032413,-0.078646526,-0.04180269,-0.22952244,27.0625,28.1875,27.125,30.625,32.3125,32.9375
0.15205243,-1.5526471,-0.78644395,-0.43528906,-0.007299863,0.019086951,-0.152835,-0.37831667,-0.32818562,0.060056508,-3.0776763,0.6245435,0.00024061474,-0.0705553,-0.0007275674,-0.00029392136,0.013241024,-0.003881978,0.019934494,0.443788,-1.4612948,1.9983438,-2.105778,-1.5715655,2.418615,-0.054701153,0.1317473,-0.15162116,0.029025385,-0.010592046,-0.07451274,-0.38307226,0.30645782,-9.461885,0.8023209,47.66987,-1.2338243,-1.789424,-3.3627462,-0.08264108,-0.051140316,-0.19426695,27.0625,28.1875,27.125,30.625,32.3125,32.9375
0.15405254,-1.2324538,-1.0039954,-0.50852364,0.005290551,0.02856201,-0.15204237,-0.3785027,-0.32820377,0.06011183,-3.0777168,0.62449414,0.0003933278,-0.07219115,-0.00039114506,-0.0006167669,0.012985506,-0.004249935,0.018697219,0.44367915,-1.4610662,1.997948,-2.1057065,-1.5716008,2.4184706,-0.057021104,0.13457128,-0.15397567,0.028772283,-0.010203311,-0.07559537,-0.34476504,0.26815057,-9.442732,0.8560339,47.70659,-1.2174112,-1.6921165,-3.3849015,-0.050433896,-0.056560725,-0.18012823,27.0625,28.1875,27.125,30.625,32.3125,32.9375
0.15605247,-0.86720216,-0.32769915,-0.30646163,0.0042738356,0.040608726,-0.16354902,-0.37864873,-0.32821134,0.06009722,-3.077728,0.62449676,0.00035474845,-0.07395389,-0.0006057159,0.00056452624,0.0127612045,-0.0015013505,0.018180018,0.44354692,-1.4607786,1.9976605,-2.105694,-1.5715774,2.4183388,-0.057501804,0.13507934,-0.157346,0.02905978,-0.01118898,-0.07555491,-0.34476504,0.19153613,-9.289502,0.8537928,47.71554,-1.1756524,-1.7926736,-3.256493,-0.043957468,-0.06619734,-0.14249286,27.0625,28.1875,27.125,30.625,32.3125,32.9375
0.15805258,-1.6000928,-0.552105,-0.3964141,0.009206839,0.032827545,-0.15695803,-0.3788156,-0.32821822,0.060104843,-3.07772,0.6244766,0.00039032137,-0.07530077,-0.00073296664,0.00028425455,0.013035577,-0.0023641454,0.015905323,0.4434266,-1.4604897,1.9973124,-2.105646,-1.5716013,2.4182072,-0.05851487,0.13849208,-0.16071065,0.029906629,-0.011071258,-0.07429145,-0.47884032,0.15322891,-9.251195,0.89631605,47.73256,-1.171901,-1.9286973,-3.3005114,-0.032306843,-0.078780815,-0.13952686,27.0625,28.1875,27.125,30.625,32.3125,32.9375
0.1600526,-1.4127829,-0.5598443,-0.23022807,0.014479748,0.044914838,-0.1580177,-0.3789563,-0.32820594,0.06011447,-3.077676,0.6243734,0.00041306092,-0.07498353,0.00015490105,-0.0023318357,0.01619397,-0.0077931946,0.012292444,0.44331828,-1.4602485,1.9970015,-2.1055496,-1.5716614,2.4180403,-0.059513178,0.14385168,-0.16093694,0.031031583,-0.0115949875,-0.071674936,-0.51714754,0.114921674,-9.289502,0.8717007,47.709274,-1.1885703,-1.8530104,-3.3690827,-0.026199251,-0.10530245,-0.15743583,27.0625,28.1875,27.125,30.625,32.3125,32.9375
0.16205198,-1.315693,-0.12071853,-0.07173156,0.013575203,0.05099825,-0.16246687,-0.3791064,-0.32824096,0.06012008,-3.0777357,0.62425226,0.00042172414,-0.07599665,0.000557923,-0.0013953879,0.016361114,-0.0062086135,0.011198619,0.44323385,-1.4599614,1.9966654,-2.1055257,-1.571638,2.417873,-0.060581822,0.14313178,-0.162546,0.03200457,-0.012426158,-0.071647935,-0.38307226,0.095768064,-9.212888,0.8179876,47.692257,-1.1788204,-1.8787847,-3.3964334,-0.037365805,-0.077582166,-0.14437664,27.0625,28.1875,27.125,30.625,32.3125,32.9375
0.16405195,-1.4920489,-0.69318306,0.049765658,0.029300151,0.046141807,-0.15636756,-0.3792799,-0.3282145,0.06011714,-3.0776675,0.62425977,0.0004721012,-0.077045634,0.0002907687,-0.0011211261,0.015874058,-0.00599261,0.0049830237,0.44307786,-1.4596733,1.9963421,-2.105477,-1.57171,2.4177306,-0.061211936,0.14469944,-0.16507638,0.032561686,-0.012082944,-0.06606149,-0.45968673,0.019153614,-9.289502,0.8873621,47.698532,-1.2278047,-1.8933954,-3.3423567,-0.03665083,-0.081029326,-0.19583155,27.0625,28.1875,27.125,30.625,32.3125,32.9375
0.16605207,-1.4778203,-0.4239499,0.11914065,0.02174635,0.03695044,-0.15226331,-0.37944254,-0.32821038,0.06011365,-3.077611,0.6243461,0.0004226921,-0.07854666,0.00058634253,-0.00093278894,0.016856393,-0.005291282,0.0013387399,0.44293335,-1.459361,1.9959825,-2.1053817,-1.5717224,2.4176474,-0.062263183,0.14673509,-0.16794705,0.03318903,-0.013279274,-0.06346372,-0.4213795,0.095768064,-9.097966,0.82022345,47.70838,-1.1943398,-1.8291854,-3.2977905,-0.03001411,-0.08058562,-0.24390058,27.0625,28.1875,27.125,30.625,32.3125,32.9375
0.16805187,-0.79274875,-0.080450505,0.19846462,0.029036582,0.040558275,-0.16380861,-0.37958783,-0.32823503,0.060115356,-3.0776484,0.6242758,0.0003722922,-0.079045564,0.0007326168,-0.00076000975,0.01672797,-0.0059048864,0.0013819574,0.44282514,-1.4590735,1.9956464,-2.1053212,-1.5716857,2.4174907,-0.0632006,0.14737207,-0.16938572,0.034488574,-0.012903055,-0.06444447,-0.36391866,0.05746084,-9.136273,0.8784135,47.747787,-1.1189916,-1.8320127,-3.4099412,-0.02477241,-0.09463132,-0.2425293,27.0625,28.1875,27.125,30.625,32.3125,32.9375
0.17005229,-1.2904353,-0.3215723,-0.10266639,0.04165707,0.011072674,-0.16331299,-0.3797446,-0.3282107,0.060101785,-3.0775604,0.624356,0.00038207558,-0.08005416,0.001409455,-0.00081176736,0.018030062,-0.0063319667,-0.0019397063,0.44268066,-1.4587855,1.9953474,-2.105273,-1.5717462,2.4174078,-0.06465692,0.14893597,-0.17134434,0.035827167,-0.013900901,-0.06257564,-0.36391866,0.17238252,-8.983045,0.7709874,47.72092,-1.1109061,-1.7723001,-3.3070364,-0.02432743,-0.08845675,-0.26913872,27.0625,28.1875,27.125,30.625,32.3125,32.9375
0.17205139,-0.99760926,-0.14461103,-0.108304806,0.03961423,0.00874887,-0.15447216,-0.37990156,-0.3282189,0.060105257,-3.0775385,0.6242939,0.00037322895,-0.08160661,0.0011795982,-0.00040377924,0.018091222,-0.0061026164,-0.0031538038,0.44257233,-1.4584852,1.9949874,-2.1051886,-1.5717705,2.4172637,-0.06546928,0.15137094,-0.17533226,0.037197188,-0.014062529,-0.062170994,-0.28730422,0.076614454,-8.983045,0.8605109,47.728977,-1.1064113,-1.7522924,-3.3989515,-0.045371,-0.09083575,-0.30566877,27.0625,28.1875,27.125,30.625,32.3125,32.9375
0.17405236,-0.9913981,-0.07303337,-0.09917805,0.033836454,0.0074462015,-0.15571287,-0.380101,-0.32822388,0.060138643,-3.0775483,0.62431383,0.00049318967,-0.08118478,0.0020620574,-0.0022737049,0.02057518,-0.010649483,-0.0020395822,0.44242805,-1.4582083,1.994593,-2.1051404,-1.5718063,2.417131,-0.0665014,0.15488411,-0.17536922,0.03888768,-0.014355702,-0.06431767,-0.2681506,0.15322891,-9.021352,0.87617236,47.72002,-1.1607057,-1.8028417,-3.441608,-0.058490757,-0.10732889,-0.3018727,27.0625,28.1875,27.125,30.625,32.3125,32.9375
0.1760526,-1.1603997,-0.47801557,-0.13969542,0.025035726,0.014068682,-0.16014463,-0.3802287,-0.32820278,0.060102396,-3.0774133,0.62428766,0.00032830753,-0.08266492,0.0028413134,0.00037790232,0.018418482,-0.008339885,-0.004391434,0.44230694,-1.4578625,1.9942569,-2.1049836,-1.571854,2.417011,-0.06987098,0.15082812,-0.17778003,0.04233451,-0.013406099,-0.0653354,-0.24899697,0.11492168,-9.11712,0.7866488,47.71286,-0.93452823,-1.6351023,-3.4045494,-0.08410353,-0.11756839,-0.29860163,27.0625,28.1875,27.125,30.625,32.3125,32.9375
0.17805263,-1.074833,-0.5483853,-0.37912813,0.02675619,0.015231568,-0.15495445,-0.38040027,-0.32818827,0.060109034,-3.0773847,0.6242802,0.0003598369,-0.08202722,0.0022390834,-0.00012161786,0.019989427,-0.01040953,-0.002033225,0.44215155,-1.4575864,1.9939216,-2.104923,-1.5718902,2.4168549,-0.067784265,0.15289138,-0.17945302,0.044484243,-0.013941772,-0.06560507,-0.21068975,0.095768064,-9.212888,0.7665104,47.7451,-1.1520057,-1.615626,-3.4604623,-0.120953426,-0.103308484,-0.333607,27.0625,28.1875,27.125,30.625,32.3125,32.9375
0.1800516,-1.4188994,-0.74093133,-0.42306438,0.022313366,0.015595543,-0.14935201,-0.38053927,-0.3281638,0.06007747,-3.077271,0.62433594,0.00024249886,-0.08450215,0.002759245,0.00010207079,0.020033726,-0.009512118,-0.0054828636,0.44200662,-1.4572619,1.9936093,-2.1048152,-1.5719265,2.4167595,-0.070620626,0.15574698,-0.1832028,0.044584345,-0.014383425,-0.06498662,-0.21068975,0.095768064,-9.174581,0.91198283,47.73077,-1.0403957,-1.5841069,-3.3305664,-0.14074059,-0.105269834,-0.3500204,27.0625,28.1875,27.125,30.625,32.3125,32.9375
0.18205257,-1.2352523,-0.6045997,-0.49168032,0.01317917,0.019388968,-0.15169154,-0.3807277,-0.32816482,0.06010291,-3.0772493,0.6243882,0.0002503427,-0.085017666,0.0048486125,-0.00075539324,0.022458587,-0.012247341,-0.0062627797,0.44184935,-1.456962,1.9931906,-2.1046941,-1.5719389,2.416638,-0.0742397,0.15691294,-0.18308002,0.046801783,-0.015405782,-0.06782393,-0.24899697,0.19153614,-9.251195,0.8247004,47.7451,-0.80439204,-1.5579504,-3.510419,-0.15361515,-0.11024189,-0.3622899,27.0625,28.1875,27.125,30.625,32.3125,32.9375
0.18405265,-1.0260735,-0.76056844,-0.8006887,0.0127411205,0.021596815,-0.15717964,-0.380898,-0.3281541,0.060094506,-3.0772069,0.62436,0.00021198517,-0.08515828,0.00351432,-0.0012307469,0.022384757,-0.013537968,-0.005403777,0.44169414,-1.4566377,1.9928311,-2.1046112,-1.5719627,2.4164708,-0.07224572,0.16033825,-0.18598084,0.047408003,-0.014797568,-0.06668772,-0.21068975,0.17238252,-9.346964,0.8537928,47.729877,-1.0166048,-1.451982,-3.4678988,-0.18738505,-0.102879465,-0.36953765,27.0625,28.1875,27.125,30.625,32.3125,32.9375
0.18605207,-1.2291168,-0.8818586,-0.9534272,0.0019361421,0.014306815,-0.16389328,-0.38105413,-0.32815292,0.060070504,-3.0771623,0.6243119,0.00012963015,-0.0856603,0.004747569,-0.0007489054,0.023515932,-0.014776131,-0.005784206,0.44156134,-1.4562904,1.9924835,-2.1045372,-1.5719746,2.416314,-0.0746142,0.15976696,-0.18729542,0.050892968,-0.015295753,-0.068673834,-0.17238252,0.30645782,-9.519346,0.7642693,47.703007,-0.919193,-1.5354781,-3.3797536,-0.23516624,-0.113222316,-0.3805856,27.0625,28.1875,27.125,30.625,32.3125,32.9375
0.18805212,-1.5151699,-1.2140659,-1.0012813,-0.009720312,0.01811885,-0.15779161,-0.38123524,-0.32814026,0.060075816,-3.077081,0.62429273,0.0001086167,-0.08727267,0.0043985434,-0.00136955,0.022930436,-0.015207256,-0.0012280738,0.44141695,-1.4559536,1.9920648,-2.1043947,-1.5720342,2.4161682,-0.07581305,0.16385964,-0.1902364,0.049863588,-0.014604318,-0.07442714,-0.22984336,0.2681506,-9.576807,0.8179876,47.707485,-0.8454111,-1.7114725,-3.4367552,-0.27623442,-0.11747486,-0.3553613,27.0625,28.1875,27.125,30.625,32.3125,32.9375
0.19005215,-1.2198406,-1.4982736,-1.2159463,-0.014870479,0.025594031,-0.16066612,-0.3813765,-0.32811475,0.06004959,-3.0769908,0.62435067,-8.4173524e-05,-0.08820312,0.0048366394,-0.0027776968,0.024159972,-0.016526127,-0.0012842661,0.44123653,-1.4556288,1.9917287,-2.1042392,-1.5720228,2.4160357,-0.07703023,0.16780606,-0.19114295,0.048539992,-0.015174189,-0.07558313,-0.11492168,0.24899697,-9.768343,0.8918391,47.689575,-0.7874032,-1.7666351,-3.4836378,-0.27355766,-0.13396901,-0.3347925,27.0625,28.1875,27.125,30.625,32.3125,32.9375
0.19205219,-1.0953425,-1.1790142,-0.8910586,-0.046711076,0.046647895,-0.16560146,-0.38158515,-0.32809368,0.060055353,-3.076926,0.62429637,-2.286192e-05,-0.08845652,0.004592896,-0.0035828387,0.024969919,-0.019247226,0.0022259532,0.44106862,-1.4552803,1.991309,-2.1041548,-1.5721067,2.4158425,-0.077031374,0.17124319,-0.1935822,0.05033277,-0.014755511,-0.079094075,-0.21068975,0.21068975,-9.730036,0.842603,47.70211,-0.8194593,-1.8292421,-3.460021,-0.30134088,-0.13707703,-0.31220815,27.0625,28.1875,27.125,30.625,32.3125,32.9375
0.19405258,-1.7567668,-1.8528237,-0.92169136,-0.017950626,0.041062854,-0.1522061,-0.38175267,-0.3280973,0.060049005,-3.0768988,0.6243479,-0.00012201536,-0.09170976,0.005301432,-0.0026839003,0.024523186,-0.017115273,0.0030849236,0.44091114,-1.454944,1.9909252,-2.104047,-1.5720829,2.415721,-0.08082539,0.173523,-0.19830224,0.050648678,-0.015285725,-0.08374188,-0.28730422,0.2681506,-9.634268,0.82694155,47.683304,-0.59548104,-1.922931,-3.5038977,-0.3286659,-0.1358083,-0.27001485,27.0625,28.1875,27.125,30.625,32.3125,32.9375
0.19605176,-1.1572647,-0.8607405,-1.1111553,-0.007829009,0.04432841,-0.16873612,-0.3819456,-0.32810563,0.06005887,-3.0768876,0.62418807,-2.6418138e-05,-0.09203686,0.0041779983,-0.0027357808,0.023476342,-0.01670931,0.008825278,0.44080362,-1.4546083,1.9905185,-2.1039994,-1.5721544,2.4155154,-0.079489715,0.17520708,-0.19990535,0.049736485,-0.014523909,-0.088147685,-0.28730422,0.3256114,-9.634268,0.84708,47.701214,-0.8022323,-1.8313661,-3.5367465,-0.3381757,-0.16599149,-0.20791501,27.0625,28.1875,27.125,30.625,32.3125,32.9375
0.19805174,-1.4564557,-0.96068144,-1.1341033,-0.005414047,0.041826084,-0.160441,-0.38213754,-0.32809094,0.060065676,-3.076849,0.62414044,-6.4552725e-05,-0.094103366,0.0047413222,-0.0026688047,0.02273908,-0.014226388,0.010100394,0.44062284,-1.4542723,1.9900993,-2.1038687,-1.5721787,2.4153101,-0.082031004,0.17645688,-0.20084983,0.04686154,-0.01493825,-0.0919609,-0.3256114,0.3256114,-9.672575,0.800085,47.71286,-0.6907679,-1.8831191,-3.4955134,-0.35538456,-0.16006677,-0.13849992,27.0625,28.1875,27.125,30.625,32.3125,32.9375
0.2000518,-1.6288999,-1.1885767,-0.9010246,-0.025326176,0.046185024,-0.15962604,-0.38233522,-0.32807752,0.060056187,-3.0768158,0.6241507,-9.9879166e-05,-0.094674416,0.0039786734,-0.003211596,0.022361223,-0.013859198,0.013282662,0.44043118,-1.453912,1.989704,-2.1037977,-1.5721906,2.4151294,-0.08117287,0.1789868,-0.20207094,0.045051225,-0.014770449,-0.09428353,-0.36391866,0.30645782,-9.595961,0.8224646,47.687782,-0.5973068,-1.9053198,-3.5104861,-0.34994996,-0.16279802,-0.09593006,27.0625,28.1875,27.125,30.625,32.3125,32.9375
0.20205183,-2.0140831,-1.5873941,-0.9840068,-0.031616267,0.044626415,-0.1540788,-0.38249382,-0.32807958,0.060041174,-3.0767598,0.62404215,-0.00019756776,-0.09642746,0.0031510724,-0.002799432,0.02228916,-0.011391427,0.014012935,0.44031146,-1.453552,1.9893078,-2.103666,-1.5722154,2.4149494,-0.08046681,0.18160045,-0.20570007,0.043803215,-0.01577937,-0.09430077,-0.4213795,0.3256114,-9.634268,0.87393653,47.709274,-0.8071991,-1.8719635,-3.5190554,-0.3316661,-0.15619142,-0.07100203,27.0625,28.1875,27.125,30.625,32.3125,32.9375
0.20405254,-2.129127,-2.2356145,-0.9003257,-0.037781913,0.0495618,-0.14790137,-0.3827077,-0.32805216,0.06004114,-3.0766904,0.6240295,-0.00016196688,-0.09764454,0.0029600908,-0.0020402186,0.020828992,-0.00927164,0.011101099,0.44011918,-1.4531924,1.9888886,-2.1035826,-1.5722865,2.4147584,-0.081396945,0.18144366,-0.20710215,0.042814612,-0.015369968,-0.092319,-0.40222588,0.2681506,-9.5385,0.9164598,47.696735,-0.73028755,-1.8385334,-3.655474,-0.3559869,-0.18766814,-0.04653494,27.0625,28.1875,27.125,30.625,32.3125,32.9375
0.20605274,-1.4230158,-1.6091186,-0.74456364,-0.055016927,0.07231939,-0.16675146,-0.38291112,-0.32806036,0.06006027,-3.0767126,0.62397814,-0.00010807677,-0.09843368,0.0026108695,-0.0019660168,0.0203298,-0.007830349,0.008264241,0.43996328,-1.4528689,1.9884709,-2.103523,-1.5722989,2.414568,-0.081278846,0.1823922,-0.20803723,0.041286904,-0.01553306,-0.089363135,-0.4405331,0.24899697,-9.5385,0.8627467,47.71017,-0.86139774,-1.8598199,-3.5882888,-0.33254293,-0.1795055,-0.062669136,27.0625,28.1875,27.125,30.625,32.3125,32.9375
0.2080518,-1.7416236,-1.5174739,-0.69000065,-0.028817201,0.051967796,-0.14879127,-0.38310403,-0.32805726,0.060039017,-3.0766695,0.6239696,-0.00017164281,-0.099906944,0.0016165476,-0.0016137675,0.01921144,-0.005825539,0.0056853383,0.4397954,-1.4524729,1.9880623,-2.103452,-1.5723108,2.4144006,-0.08077088,0.18460794,-0.21104151,0.039786674,-0.015387929,-0.0862735,-0.30645782,0.3256114,-9.576807,0.947788,47.709274,-0.9008335,-1.6848208,-3.5565453,-0.291527,-0.19135873,-0.0942363,27.0625,28.1875,27.125,30.625,32.3125,32.9375
0.21005183,-0.8228685,-0.36236334,-0.39070296,-0.019949183,0.052859087,-0.16569106,-0.38334435,-0.32806343,0.060078874,-3.0766776,0.62399197,-2.194871e-05,-0.102231264,0.0007939757,-0.00016962191,0.017476464,-0.0010282684,0.0021078486,0.4396274,-1.4521372,1.9875835,-2.1033928,-1.572359,2.4142458,-0.0809073,0.1851099,-0.2144802,0.037645284,-0.015862212,-0.08282992,-0.30645782,0.24899697,-9.404425,0.88289046,47.68062,-0.8897042,-1.61362,-3.5374427,-0.2797014,-0.18850803,-0.11241921,27.0625,28.1875,27.125,30.625,32.3125,32.9375
0.21205187,-0.90365905,-0.5808666,-0.57054627,0.018183835,0.022297552,-0.15773478,-0.38352478,-0.32805422,0.060049206,-3.0766423,0.6239092,-9.934256e-05,-0.10411547,-0.00045458018,0.0014878135,0.015334898,0.0037078864,0.00015696845,0.43945974,-1.4517543,1.9872111,-2.1033337,-1.5723714,2.4140313,-0.08012945,0.18504433,-0.21787855,0.0359137,-0.01595363,-0.08009763,-0.26815057,0.21068975,-9.346964,0.8717007,47.694054,-0.9704121,-1.614558,-3.3721628,-0.2567202,-0.2168034,-0.15101457,27.0625,28.1875,27.125,30.625,32.3125,32.9375
0.2140521,-0.74908423,-0.3032718,-0.7586424,0.023916354,0.002068645,-0.15601666,-0.38375747,-0.3280437,0.06006397,-3.0765939,0.6239972,-4.0028266e-05,-0.10660514,-0.0012625256,0.0025406128,0.013203446,0.007019584,-0.0030163552,0.43926734,-1.451382,1.9867433,-2.1032507,-1.572419,2.4139004,-0.081090376,0.18682204,-0.22197802,0.034327272,-0.015441765,-0.07788408,-0.17238252,0.24899697,-9.346964,0.85155696,47.701214,-1.0042868,-1.5798364,-3.4051282,-0.22398457,-0.21936601,-0.20569934,27.0625,28.1875,27.125,30.625,32.3125,32.9375
0.21605207,0.14015435,-0.38579148,-0.6194169,0.019902667,0.00878126,-0.15849076,-0.38396892,-0.32806614,0.060060132,-3.0765834,0.6239374,5.7012558e-06,-0.107503116,-0.00088226266,0.0020687792,0.0144342,0.006950719,-0.005269713,0.43914726,-1.4509741,1.9862889,-2.1032145,-1.5724553,2.4137447,-0.08180824,0.18899459,-0.22334191,0.03410655,-0.01652686,-0.0763446,-0.11492168,0.19153613,-9.404425,0.83813137,47.737038,-1.0509577,-1.5618104,-3.3483086,-0.16941115,-0.22025055,-0.23066668,27.0625,28.1875,27.125,30.625,32.3125,32.9375
0.21805236,-0.09039756,-0.5585945,-0.7726871,-0.0011340615,-0.0018854124,-0.16092688,-0.3841829,-0.32804212,0.06004062,-3.076512,0.6239419,1.5296499e-05,-0.1082666,-0.00041979377,0.002214612,0.0154993925,0.0061995974,-0.0056809066,0.43895474,-1.4505785,1.9858812,-2.1031663,-1.5725154,2.4135644,-0.082839854,0.19024318,-0.22563277,0.036274947,-0.01717545,-0.07696177,-0.11492168,0.17238252,-9.481039,0.88960326,47.77286,-1.0298015,-1.5141263,-3.3208275,-0.1603437,-0.23911256,-0.24025492,27.0625,28.1875,27.125,30.625,32.3125,32.9375
0.22005235,-0.53669447,-1.3245349,-0.77836365,-0.0015398384,-0.004481231,-0.15341909,-0.38437,-0.32806793,0.060063757,-3.0764947,0.62397856,2.5072062e-05,-0.10920403,-8.418277e-05,0.0011936325,0.01772777,0.0040529612,-0.008851524,0.43884662,-1.4502416,1.9854249,-2.1030462,-1.5725278,2.4134817,-0.08350212,0.19463487,-0.22858691,0.037733737,-0.018280108,-0.074448325,0.038307227,0.21068975,-9.423578,0.8090337,47.723602,-1.0853662,-1.6607745,-3.2434921,-0.15534751,-0.23707601,-0.3047829,27.0625,28.1875,27.125,30.625,32.3125,32.9375
0.2220526,-0.31207532,-1.1087519,-0.912103,-0.018956607,0.007190991,-0.15528491,-0.38460785,-0.32804874,0.06006527,-3.0764718,0.623953,2.6866603e-05,-0.11002599,-9.3249546e-05,-0.0007077798,0.018713465,0.0009770063,-0.008356837,0.4386183,-1.4498441,1.9849585,-2.1029623,-1.5725516,2.4132407,-0.084400944,0.20038505,-0.23060551,0.037195526,-0.017875802,-0.07584075,0.019153614,0.2681506,-9.404425,0.83365434,47.741516,-1.0238104,-1.757576,-3.174474,-0.1366166,-0.23864001,-0.33981532,27.0625,28.1875,27.125,30.625,32.3125,32.9375
0.22405195,-0.71050394,-1.2918987,-1.0001042,-0.03198629,0.01519932,-0.16340998,-0.38479805,-0.32803518,0.060040396,-3.0763555,0.6239873,-1.2263663e-05,-0.10972118,-0.00015658823,-0.001095533,0.01901943,-0.0008556485,-0.009138788,0.4384743,-1.4494369,1.9845389,-2.102866,-1.5726236,2.4131334,-0.08429313,0.20140614,-0.23125705,0.03860731,-0.01737895,-0.074951,0.038307227,0.28730422,-9.481039,0.81351066,47.72719,-1.0596224,-1.7072446,-3.3234801,-0.10651814,-0.23719308,-0.34751773,27.0625,28.1875,27.125,30.625,32.3125,32.9375
0.22605237,-1.0488573,-1.8822415,-0.7378586,-0.035668705,0.021398377,-0.15015088,-0.38503927,-0.32804763,0.060067326,-3.0763772,0.62401175,7.11264e-05,-0.11018737,0.00010552103,-0.00074945006,0.019674836,-0.00080659427,-0.011408087,0.43829414,-1.4490653,1.9840482,-2.1028054,-1.5726355,2.412966,-0.08471116,0.20164372,-0.23271638,0.040065005,-0.0179875,-0.0730986,-0.038307227,0.3256114,-9.3661175,0.8179876,47.728977,-1.0414009,-1.7298157,-3.4124193,-0.107615426,-0.2582754,-0.42700642,27.0625,28.1875,27.125,30.625,32.3125,32.9375
0.22805226,-0.56120694,-1.6984705,-1.0194554,-0.033267934,0.024250584,-0.16078873,-0.38526395,-0.3280584,0.060070004,-3.0763485,0.6241015,7.948301e-05,-0.110518426,0.0007632001,-0.0007470064,0.019642776,-0.0019060872,-0.011268389,0.43812564,-1.448658,1.9835705,-2.1027334,-1.5726479,2.4128575,-0.08647926,0.20172058,-0.23320045,0.041444678,-0.017494438,-0.07500808,-0.076614454,0.38307226,-9.385271,0.8717007,47.752266,-1.0347717,-1.7144761,-3.496698,-0.09567624,-0.2666245,-0.44497558,27.0625,28.1875,27.125,30.625,32.3125,32.9375
0.23005238,-0.6402077,-1.9303752,-0.9771831,-0.021383714,0.0059078545,-0.14434022,-0.38546973,-0.32806104,0.06005562,-3.0762913,0.6240474,6.110687e-05,-0.110043876,0.00029588497,-0.0010433004,0.020750796,-0.003624473,-0.006704498,0.43798223,-1.4482385,1.9831151,-2.1026485,-1.5726956,2.412688,-0.08495423,0.2032123,-0.23473808,0.043505263,-0.017777512,-0.07804485,-0.038307227,0.40222588,-9.461885,0.8985519,47.723602,-1.084546,-1.7360654,-3.630958,-0.11334969,-0.26669168,-0.45831275,27.0625,28.1875,27.125,30.625,32.3125,32.9375
0.23205242,-0.6395116,-1.4394503,-0.649206,-0.04159315,0.0099154,-0.14974253,-0.38571474,-0.32805344,0.06006654,-3.076257,0.62407607,9.404805e-05,-0.111850224,-0.0003407619,-0.0006487233,0.019834245,-0.0014198154,-0.0021544206,0.43777812,-1.4478302,1.982612,-2.102554,-1.5727319,2.4125066,-0.08519526,0.20541516,-0.23784414,0.04200688,-0.01790194,-0.082833335,-0.13407528,0.38307226,-9.404425,0.84708,47.707485,-1.2311715,-1.7110081,-3.563393,-0.06907977,-0.2742017,-0.4441259,27.0625,28.1875,27.125,30.625,32.3125,32.9375
0.23405229,-0.89443713,-1.5624253,-0.68583757,-0.02733081,0.0090913735,-0.15069671,-0.3859278,-0.3280519,0.060064048,-3.076199,0.6241017,0.00010773928,-0.114290535,0.00029597446,-2.80208e-05,0.018752951,0.00048251028,-9.763407e-05,0.43762085,-1.4474348,1.9821562,-2.1024702,-1.5727795,2.412373,-0.08854058,0.20659672,-0.24050042,0.0412811,-0.017748035,-0.08823385,-0.095768064,0.24899697,-9.404425,0.8493211,47.704796,-0.9554251,-1.5883846,-3.5013952,-0.03161972,-0.28972375,-0.39457846,27.0625,28.1875,27.125,30.625,32.3125,32.9375
0.2360525,-0.98638564,-1.2469289,-0.8414825,-0.010009648,0.003939215,-0.15255632,-0.38615155,-0.32805407,0.06006497,-3.076186,0.62397903,0.000121367055,-0.11374917,-0.00010479809,-0.00050480873,0.020349933,-0.0017432455,0.005635878,0.43745363,-1.447027,1.9816784,-2.1023853,-1.5728158,2.4121313,-0.08692258,0.20854765,-0.24222966,0.04373865,-0.018258922,-0.09234708,-0.15322891,0.3256114,-9.461885,0.89631605,47.723602,-1.2382332,-1.6285274,-3.5219426,-0.031243399,-0.30475906,-0.3841654,27.0625,28.1875,27.125,30.625,32.3125,32.9375
0.23805256,-0.9264192,-0.9807173,-0.5822421,-0.010279913,0.024858726,-0.15872833,-0.38637027,-0.32807484,0.06005824,-3.0761795,0.62385744,8.5210966e-05,-0.11497601,-0.00021979515,-0.0006888691,0.020384628,-0.002797309,0.013694128,0.43730924,-1.4465826,1.9811743,-2.1022894,-1.5728277,2.4119122,-0.0879754,0.21157181,-0.24557038,0.044999056,-0.017867818,-0.10145692,-0.15322891,0.28730422,-9.423578,0.8717007,47.7245,-1.1941478,-1.6745837,-3.5257957,-0.017498512,-0.31429887,-0.2923687,27.0625,28.1875,27.125,30.625,32.3125,32.9375
0.24005231,-1.0961155,-1.0204165,-0.52124894,0.004311213,0.030766549,-0.15822083,-0.38662535,-0.32805443,0.06004916,-3.0761232,0.62390333,0.000110114925,-0.11572607,3.3316705e-05,-0.0010513313,0.020514838,-0.004445872,0.014720129,0.43708083,-1.4461385,1.9806842,-2.1022289,-1.5728754,2.41172,-0.08939213,0.21378006,-0.24761581,0.046368517,-0.017297223,-0.10390025,-0.19153613,0.22984336,-9.32781,0.86498255,47.709274,-1.1441792,-1.657699,-3.518591,-0.020873997,-0.32424343,-0.26052436,27.0625,28.1875,27.125,30.625,32.3125,32.9375
0.24205251,-0.8349449,-0.37651932,-0.6394215,0.01623354,0.040237173,-0.16091353,-0.3868532,-0.32806817,0.060063194,-3.0761325,0.62380725,0.00015008432,-0.11946976,-0.00015327364,0.0015496281,0.018724862,0.0008658661,0.015495943,0.43692398,-1.4457433,1.9801902,-2.102145,-1.5728997,2.4115024,-0.091805674,0.2140416,-0.25408715,0.04699793,-0.017941125,-0.10708462,-0.28730422,0.11492168,-9.251195,0.8717007,47.723602,-1.176663,-1.6500285,-3.2993865,-0.011495499,-0.3394592,-0.19456293,27.0625,28.1875,27.125,30.625,32.3125,32.9375
0.24405183,-1.2186576,0.07236853,-0.44080287,0.01651631,0.036788713,-0.15208724,-0.38710728,-0.3280822,0.06007715,-3.0761254,0.6237849,0.00018521426,-0.12004669,-0.0013014104,0.002200157,0.018616207,0.0013869375,0.018390337,0.4367447,-1.4453,1.9796394,-2.102049,-1.5729235,2.4113104,-0.09002259,0.21561904,-0.25780034,0.048607845,-0.018069217,-0.108194046,-0.40222588,0.05746084,-9.174581,0.83813137,47.70211,-1.1960366,-1.5223248,-3.2001889,0.015151596,-0.3702883,-0.14829686,27.0625,28.1875,27.125,30.625,32.3125,32.9375
0.24605171,-1.1589311,0.2125934,-0.5330458,0.030113347,0.046622973,-0.15978794,-0.38732898,-0.32809085,0.060085915,-3.0761237,0.62359333,0.00013215392,-0.1199844,-0.0003433178,0.0018269754,0.020095447,-0.00056505896,0.016290253,0.43657643,-1.4448801,1.979113,-2.1018922,-1.5729364,2.4110231,-0.09132623,0.21609206,-0.258054,0.050782394,-0.018585185,-0.10739559,-0.59376204,0.19153613,-9.212888,0.98135734,47.731667,-1.3067309,-1.4774845,-3.3125799,0.0027480477,-0.35027587,-0.13543203,27.0625,28.1875,27.125,30.625,32.3125,32.9375
0.24805251,-1.6663609,0.026839947,-0.49673492,0.029598285,0.05225455,-0.15870231,-0.3875708,-0.328085,0.06009027,-3.0760896,0.6236274,0.00013550608,-0.12129041,0.00038740068,0.0016419996,0.021214273,-0.002036928,0.011399367,0.4363714,-1.4444602,1.9786099,-2.1017954,-1.5729603,2.410844,-0.09346958,0.21868114,-0.26114488,0.053092904,-0.018977184,-0.10464521,-0.59376204,0.22984336,-9.270349,0.73741806,47.709274,-1.0022029,-1.4907566,-3.2874422,-0.0038477562,-0.36890662,-0.15481436,27.0625,28.1875,27.125,30.625,32.3125,32.9375
0.2500526,-1.8116505,-0.05722261,-0.3526195,0.008777155,0.070573,-0.15588616,-0.38780737,-0.3280816,0.06007902,-3.0760164,0.6236145,0.00010039536,-0.12047339,0.0010859829,0.00057338673,0.023503048,-0.006058677,0.0068824,0.43619135,-1.4439925,1.9780835,-2.1016748,-1.573008,2.4106658,-0.093732156,0.22040297,-0.26145312,0.056295063,-0.01934695,-0.10038899,-0.6703765,0.11492168,-9.212888,0.80456203,47.657326,-1.2010865,-1.4923877,-3.3104315,-0.026124587,-0.39343166,-0.19726382,27.0625,28.1875,27.125,30.625,32.3125,32.9375
0.25205156,-1.8946917,-0.95693296,-0.4627047,0.018135132,0.07874288,-0.15438443,-0.38805768,-0.3280818,0.060085747,-3.0759792,0.62361026,0.00011500605,-0.120303035,0.002756586,3.9441686e-05,0.026148949,-0.009010386,0.00070185045,0.43599883,-1.443549,1.9775456,-2.101566,-1.5730447,2.4104757,-0.095832616,0.22079797,-0.26156092,0.059807938,-0.0204883,-0.09630585,-0.6703765,-0.05746084,-9.232041,0.92093146,47.696735,-1.1338713,-1.3261926,-3.5180118,-0.07778303,-0.3975721,-0.2455282,27.0625,28.1875,27.125,30.625,32.3125,32.9375
0.2540528,-1.9755307,-0.5748077,-0.27822763,0.031933516,0.065323435,-0.14944342,-0.3882885,-0.32805762,0.06007187,-3.0758848,0.62364864,9.151639e-05,-0.12065115,0.0038337975,-0.001991295,0.02973562,-0.013584994,-0.0024108482,0.43579426,-1.4431158,1.9770664,-2.1014578,-1.5731052,2.4103076,-0.09717033,0.2260524,-0.26341248,0.062065672,-0.021814214,-0.09452413,-0.59376204,-0.095768064,-9.212888,0.89631605,47.682407,-1.026753,-1.6557055,-3.4715223,-0.10883486,-0.3916812,-0.26613835,27.0625,28.1875,27.125,30.625,32.3125,32.9375
0.25605166,-1.206391,0.30637848,-0.33865714,0.045461796,0.059629466,-0.15662882,-0.38853064,-0.3280474,0.060054597,-3.075829,0.623561,3.0594947e-05,-0.12099493,0.0047365157,-0.0032730983,0.031458464,-0.016946565,-0.004189552,0.43558964,-1.4426359,1.9765395,-2.1013372,-1.5731415,2.4100559,-0.09895073,0.22923885,-0.26454958,0.06378383,-0.021968383,-0.094523214,-0.4405331,-0.15322891,-9.212888,0.8627467,47.741516,-1.0036747,-1.6424509,-3.5011144,-0.11543321,-0.39051655,-0.28798616,27.0625,28.1875,27.125,30.625,32.3125,32.9375
0.2580518,-0.74710184,0.903785,-0.3276858,0.04959486,0.04750396,-0.15997328,-0.38876078,-0.32804036,0.060057454,-3.0757494,0.62358356,-2.7981582e-06,-0.12292658,0.004928932,-0.0024107734,0.031544346,-0.015796496,-0.0056038336,0.43540907,-1.442204,1.9760121,-2.1011813,-1.5731891,2.4099,-0.10051601,0.23072936,-0.2686539,0.06538453,-0.02254768,-0.09466903,-0.36391866,-0.15322891,-9.174581,0.93436235,47.703007,-0.8989972,-1.7322716,-3.591215,-0.15733539,-0.42780656,-0.30770466,27.0625,28.1875,27.125,30.625,32.3125,32.9375
0.26005176,-0.44191137,0.4074839,-0.26514846,0.072103366,0.025020763,-0.16037162,-0.389016,-0.3280339,0.060039528,-3.075674,0.6236074,6.9867997e-06,-0.12453092,0.005464042,-0.0019992604,0.03230565,-0.015019445,-0.0079954695,0.4352165,-1.4417124,1.9754843,-2.1011093,-1.5732497,2.4097323,-0.10212417,0.23218259,-0.27158234,0.066472076,-0.023576604,-0.09387987,-0.36391866,-0.095768064,-9.059659,0.8112748,47.709274,-0.839327,-1.6103109,-3.4450042,-0.17324287,-0.40415943,-0.34661484,27.0625,28.1875,27.125,30.625,32.3125,32.9375
0.2620518,-0.5115523,0.16862881,-0.32668206,0.061439347,0.021016164,-0.15887344,-0.38926458,-0.32802442,0.0600561,-3.0756125,0.62355596,1.3371866e-05,-0.12642848,0.0056100353,-0.0011007783,0.03296156,-0.012956029,-0.008573035,0.43502426,-1.4412802,1.9749221,-2.100941,-1.5733103,2.4095163,-0.10296984,0.23347235,-0.27538812,0.06738793,-0.02505648,-0.094140075,-0.51714754,0.076614454,-9.059659,0.90750587,47.701214,-0.8215413,-1.8025277,-3.4369383,-0.18562464,-0.38180146,-0.3780826,27.0625,28.1875,27.125,30.625,32.3125,32.9375
0.264052,-1.2901756,-0.6363213,-0.50917345,0.037684623,0.009965781,-0.14475939,-0.38950935,-0.32800424,0.06003598,-3.0755155,0.6235941,-0.00014323865,-0.12647936,0.0064983945,-0.0017138685,0.034904644,-0.01489327,-0.009208087,0.434784,-1.4407771,1.9743584,-2.1007488,-1.5733227,2.4093127,-0.10392358,0.23475935,-0.2759611,0.06924505,-0.02601907,-0.09445215,-0.4213795,0.17238252,-9.078813,0.85155696,47.711964,-0.7750426,-1.7271979,-3.2836132,-0.22791097,-0.40422708,-0.38744736,27.0625,28.1875,27.125,30.625,32.3125,32.9375
0.26605195,-1.4328976,-1.4966221,-0.52374566,0.001903213,0.032602433,-0.15934741,-0.38974845,-0.3279624,0.060004015,-3.0753584,0.62363505,-0.00023361854,-0.12770514,0.0058594337,-0.0007497118,0.035483405,-0.014078253,-0.0060616205,0.43455637,-1.440286,1.9738435,-2.1005924,-1.573407,2.4091313,-0.10312468,0.23647018,-0.280791,0.071851455,-0.02691587,-0.09679092,-0.40222588,0.21068975,-9.212888,0.88960326,47.71554,-0.8399769,-1.6259911,-3.4465022,-0.2810442,-0.38076746,-0.40220135,27.0625,28.1875,27.125,30.625,32.3125,32.9375
0.2680519,-1.5450553,-2.0707834,-0.28142688,-0.04664182,0.061719168,-0.15360245,-0.39001527,-0.3279572,0.060004637,-3.0753157,0.62356496,-0.0002620362,-0.1297998,0.0051238462,0.00046567782,0.03429315,-0.010502036,-7.119244e-05,0.4343405,-1.4397944,1.973256,-2.1004493,-1.5734428,2.4088776,-0.10317476,0.23751695,-0.28464293,0.07088683,-0.027376156,-0.10282624,-0.59376204,0.2681506,-9.193734,0.97464454,47.73077,-0.93274343,-1.4769651,-3.3577824,-0.30274943,-0.38029492,-0.3342958,27.0625,28.1875,27.125,30.625,32.3125,32.9375
0.27005184,-2.1675591,-2.6814494,-0.6069584,-0.04933023,0.07310622,-0.1424985,-0.39025173,-0.3279244,0.05998599,-3.0751424,0.62362283,-0.00031466415,-0.13073368,0.005265749,-0.0003009673,0.03557359,-0.010532173,0.0043121446,0.4341481,-1.4393141,1.9727172,-2.10027,-1.5735515,2.408744,-0.10337939,0.24049267,-0.286127,0.06993551,-0.028558772,-0.10740509,-0.40222588,0.2681506,-9.232041,0.8784135,47.72719,-0.8691376,-1.606004,-3.467134,-0.3089242,-0.36458716,-0.30216265,27.0625,28.1875,27.125,30.625,32.3125,32.9375
0.27205193,-1.7264105,-2.3283296,-0.8590225,-0.0413463,0.08804082,-0.15558915,-0.39052588,-0.3279303,0.06000488,-3.0751233,0.62359625,-0.00033716604,-0.13274835,0.0062723784,-0.00019537394,0.036109257,-0.009374099,0.007410992,0.43393132,-1.4388345,1.9720954,-2.1001027,-1.5735639,2.4085135,-0.106204875,0.24210781,-0.28820917,0.06955565,-0.02955975,-0.11332357,-0.34476504,0.40222588,-9.32781,0.8560339,47.716442,-0.93952644,-1.6826706,-3.4414241,-0.33011872,-0.3447153,-0.25035438,27.0625,28.1875,27.125,30.625,32.3125,32.9375
0.2740522,-2.0573134,-2.5622025,-0.62496656,-0.03862543,0.08413899,-0.15675955,-0.39079002,-0.3279177,0.059974227,-3.0750148,0.6234542,-0.00034149695,-0.13350788,0.0043892195,0.00037185312,0.033360142,-0.0035375578,0.015295328,0.43375233,-1.4382837,1.9715208,-2.0999973,-1.5736722,2.4082603,-0.10330412,0.24165967,-0.28762946,0.062939845,-0.02955837,-0.11830398,-0.24899697,0.4213795,-9.385271,0.84708,47.694054,-1.0271662,-1.4836419,-3.545814,-0.29932994,-0.33228692,-0.20520289,27.0625,28.1875,27.125,30.625,32.3125,32.9375
0.27605218,-1.1176918,-1.4742283,-0.5441105,-0.041822582,0.07607282,-0.16246922,-0.39104348,-0.32789403,0.059954047,-3.0749438,0.623363,-0.00040544735,-0.13669151,0.005628707,-0.0002370469,0.0333374,-0.00162154,0.013186891,0.43352288,-1.4377912,1.970982,-2.0998666,-1.5737203,2.4079835,-0.10768109,0.24532954,-0.28973168,0.05960751,-0.030374702,-0.120564505,-0.2681506,0.4405331,-9.404425,0.900793,47.67345,-0.91616404,-1.5662999,-3.6304574,-0.26246718,-0.34052375,-0.1181084,27.0625,28.1875,27.125,30.625,32.3125,32.9375
0.27805194,-0.7844233,-1.3823895,-0.92755646,-0.016257117,0.042391468,-0.15470612,-0.3913183,-0.32788578,0.059937887,-3.0748928,0.6233696,-0.0004176592,-0.13786523,0.004249882,4.3709642e-05,0.033011127,0.0018926507,0.01678732,0.4332958,-1.4372756,1.9704183,-2.0997841,-1.5737566,2.4077675,-0.10525882,0.24731888,-0.2920589,0.056608655,-0.031576823,-0.12173469,-0.21068975,0.4213795,-9.442732,0.90527004,47.70659,-0.90645826,-1.7010996,-3.7302647,-0.213417,-0.30789766,-0.10268875,27.0625,28.1875,27.125,30.625,32.3125,32.9375
0.28005183,-0.15660647,-1.441322,-0.91260946,-0.011230314,0.036585096,-0.15532877,-0.39164358,-0.3278854,0.059959583,-3.074866,0.62332803,-0.00024185567,-0.14013977,0.003931704,-5.9252856e-05,0.032188438,0.004214711,0.011542296,0.4330794,-1.4367595,1.9697727,-2.099725,-1.5738524,2.407529,-0.10636346,0.2505126,-0.2949166,0.05381591,-0.031800445,-0.117593214,-0.19153613,0.40222588,-9.32781,0.98807013,47.678825,-0.91751814,-1.6419595,-3.5134368,-0.18477201,-0.28987563,-0.10004459,27.0625,28.1875,27.125,30.625,32.3125,32.9375
0.28205186,-0.48859435,-1.1582692,-1.1062589,-0.0018210687,0.0076792324,-0.14921016,-0.3919108,-0.32786867,0.059928954,-3.0747805,0.62331194,-0.00030465206,-0.142025,0.0028070915,0.0007715478,0.030017529,0.0070512523,0.007979746,0.43285146,-1.4362199,1.9692091,-2.0996177,-1.5739006,2.4073026,-0.1063114,0.2521878,-0.29848072,0.052215926,-0.031033251,-0.11397694,-0.1340753,0.34476504,-9.3661175,0.8918391,47.71554,-0.88120097,-1.7627664,-3.5333881,-0.11658172,-0.2834045,-0.112523615,27.0625,28.1875,27.125,30.625,32.3125,32.9375
0.28405207,-0.17415957,-0.67714286,-1.2226644,-0.0028362288,0.013451043,-0.15872066,-0.39217693,-0.32784683,0.05992079,-3.0746624,0.6232907,-0.00031047402,-0.14403112,0.0035682272,0.0004786338,0.030931655,0.0067703137,0.0010286407,0.4326466,-1.4357153,1.9686226,-2.0994623,-1.5739964,2.4071002,-0.10885722,0.25548458,-0.30180413,0.05288156,-0.03174851,-0.1095645,-0.076614454,0.34476504,-9.481039,0.9254084,47.703903,-0.9972954,-1.9333414,-3.5037336,-0.09011009,-0.26322475,-0.15751298,27.0625,28.1875,27.125,30.625,32.3125,32.9375
0.2860522,-0.70031303,-1.4650619,-1.3058631,0.0007944787,0.011352967,-0.15166718,-0.39250168,-0.32785085,0.05994138,-3.0746355,0.6232655,-0.0001588649,-0.1439584,0.00223825,0.0010388944,0.031779952,0.007922207,0.00060359185,0.4324319,-1.4351882,1.9679631,-2.0993898,-1.5740808,2.4068737,-0.10542543,0.25642565,-0.30451947,0.053967793,-0.03298936,-0.105703294,-0.076614454,0.3256114,-9.653421,0.91198283,47.66987,-1.0961514,-1.9781647,-3.5045056,-0.07530373,-0.24134968,-0.2358788,27.0625,28.1875,27.125,30.625,32.3125,32.9375
0.2880522,-0.63570917,-1.5116813,-1.3971355,-0.02026976,0.02312735,-0.15061837,-0.39275512,-0.32786337,0.05992453,-3.0745826,0.6232393,-0.00028461343,-0.14510691,0.004171288,-0.00021486191,0.03342212,0.005059543,-0.006296297,0.4322384,-1.4346485,1.9673532,-2.099222,-1.5740808,2.406671,-0.10966386,0.25922045,-0.30520964,0.055154752,-0.033284236,-0.1030371,-0.05746084,0.3256114,-9.576807,0.8717007,47.686886,-1.0294139,-1.9646235,-3.532825,-0.049286526,-0.20709749,-0.27454174,27.0625,28.1875,27.125,30.625,32.3125,32.9375
0.29005232,-1.0438174,-1.4388711,-1.2545604,-0.04532879,0.015314545,-0.1479258,-0.39306498,-0.32784483,0.05991033,-3.0745065,0.6233567,-0.00020693992,-0.14483549,0.0022590472,-0.0002985782,0.033435833,0.0042509492,-0.005170249,0.43198764,-1.4341083,1.9667662,-2.0991852,-1.5741533,2.406504,-0.10602325,0.2620258,-0.30863243,0.056504574,-0.032956775,-0.100522615,0.0,0.28730422,-9.576807,0.8940802,47.685097,-1.1224307,-2.0151298,-3.5152636,-0.046667594,-0.2122981,-0.33452302,27.0625,28.1875,27.125,30.625,32.3125,32.9375
0.29205233,-0.3048851,-1.7547867,-1.2825406,-0.039343093,0.022478541,-0.15618454,-0.39333102,-0.32782692,0.05990092,-3.0744114,0.6232413,-0.0002369625,-0.14658071,0.0025328211,0.0003263638,0.03340102,0.0052864845,-0.007834568,0.43178305,-1.4335928,1.9661664,-2.0990174,-1.5742372,2.40624,-0.107640915,0.26339215,-0.31196168,0.05750285,-0.033370893,-0.09946999,0.0,0.34476504,-9.634268,0.8537928,47.67345,-1.1318237,-2.0443747,-3.4686909,-0.027916517,-0.18431455,-0.37878314,27.0625,28.1875,27.125,30.625,32.3125,32.9375
0.29405278,-0.20546854,-1.5879583,-1.2299054,-0.027138108,0.0035366134,-0.15258928,-0.39364317,-0.3278303,0.05991173,-3.0743508,0.6232688,-0.00013443513,-0.14543828,0.0039246147,-0.0014949199,0.035935763,-0.00050921825,-0.011263635,0.43157852,-1.4330533,1.9655088,-2.0989206,-1.5743212,2.406061,-0.10920195,0.26541364,-0.31095853,0.060794406,-0.03323364,-0.097604476,-0.019153614,0.19153613,-9.615114,0.8784135,47.679718,-1.0585281,-1.933505,-3.5343666,-0.049071282,-0.16895683,-0.4388259,27.0625,28.1875,27.125,30.625,32.3125,32.9375
0.2960518,-0.2625945,-1.0764294,-1.4497594,-0.011352603,-0.013405288,-0.15032773,-0.3939363,-0.32783362,0.059913877,-3.0742714,0.6233477,-0.00011219115,-0.14664373,0.003295736,-0.0011434234,0.034494035,0.0013153169,-0.011287535,0.43137452,-1.4325135,1.9648627,-2.0987895,-1.5743812,2.405917,-0.109316155,0.2665561,-0.31284916,0.059267703,-0.03270033,-0.097695105,-0.038307227,0.22984336,-9.749189,0.9612189,47.701214,-1.1051917,-1.9610133,-3.6136756,-0.0096532805,-0.14401756,-0.4679448,27.0625,28.1875,27.125,30.625,32.3125,32.9375
0.29805228,0.09084213,-0.79161096,-1.4368165,0.0035766154,-0.00105177,-0.15693228,-0.3942314,-0.3278182,0.059894316,-3.0741937,0.62338656,-0.000105270716,-0.14824578,0.0026998294,0.00049735355,0.03243751,0.0045070793,-0.008789988,0.4311345,-1.4319628,1.9642643,-2.0987055,-1.5744408,2.4057117,-0.10980391,0.26580003,-0.3158927,0.059281453,-0.032187793,-0.10068038,-0.076614454,0.11492168,-9.730036,0.9388393,47.71554,-1.0766604,-1.9015868,-3.6129951,0.027525937,-0.14252406,-0.50584716,27.0625,28.1875,27.125,30.625,32.3125,32.9375
0.30005223,-0.464407,-0.84001666,-1.1768519,0.013544087,0.0068110344,-0.1541604,-0.39454454,-0.3278239,0.05991274,-3.0741746,0.6233802,5.6399776e-06,-0.14857398,0.002804164,0.00015488827,0.032689426,0.0024150065,-0.004034143,0.43091816,-1.431447,1.9636182,-2.0986211,-1.5745004,2.4054942,-0.110572554,0.26771465,-0.31787053,0.061314102,-0.031555653,-0.10620856,-0.11492168,0.05746084,-9.634268,0.88289046,47.66539,-1.1085622,-1.8711342,-3.595633,0.046156853,-0.117999025,-0.48748657,27.0625,28.1875,27.125,30.625,32.3125,32.9375
0.3020522,-0.33775634,-0.25032648,-1.2639127,0.026296178,0.029992847,-0.1649848,-0.39481375,-0.32780892,0.059885755,-3.0740912,0.62337583,-0.00011279532,-0.14908807,0.0029682282,0.00040763142,0.032348126,0.0003334087,0.003216186,0.4306779,-1.4308957,1.9630188,-2.0984643,-1.5745243,2.4052625,-0.11194427,0.26883644,-0.32061812,0.064641,-0.030414721,-0.11483181,-0.038307227,0.11492168,-9.672575,0.842603,47.684196,-1.0449362,-1.9238944,-3.6126583,0.011564318,-0.12784523,-0.42039025,27.0625,28.1875,27.125,30.625,32.3125,32.9375
0.30405235,-0.45007473,-0.0052789496,-1.1848595,0.01994028,0.043058503,-0.16415092,-0.39514372,-0.32781795,0.059892517,-3.0740585,0.6232879,-3.5359823e-05,-0.15045759,0.0029058014,0.00047418044,0.031419836,0.00039410364,0.010772251,0.4304613,-1.4303082,1.9623121,-2.0983565,-1.5745953,2.4049957,-0.11338173,0.27080703,-0.3231807,0.064737126,-0.02962992,-0.123828016,-0.038307227,0.05746084,-9.595961,0.95226496,47.672558,-0.96791744,-1.8744147,-3.6137166,0.04814004,-0.12430996,-0.35300654,27.0625,28.1875,27.125,30.625,32.3125,32.9375
0.30605233,-1.2739574,-0.56423587,-1.0726721,0.017280793,0.04564732,-0.15341738,-0.39541182,-0.32781935,0.059887506,-3.0740252,0.62321985,-0.00010613497,-0.15061855,0.003140891,7.801813e-05,0.03219577,-0.0033532225,0.016531594,0.43024492,-1.4297924,1.9617022,-2.0981996,-1.5746077,2.4047415,-0.114383675,0.2732709,-0.32615742,0.06894157,-0.028799899,-0.13059054,-0.17238252,0.05746084,-9.557653,0.9388393,47.679718,-0.9585761,-1.914912,-3.6454487,0.03211184,-0.124530755,-0.24207199,27.0625,28.1875,27.125,30.625,32.3125,32.9375
0.3080526,-1.7644192,-0.73638755,-1.1144173,0.020443963,0.032454785,-0.15203375,-0.39575186,-0.32780457,0.05989465,-3.0739603,0.6231849,-7.972761e-06,-0.14998335,0.0034808784,-0.00074828777,0.034037992,-0.008158527,0.01990545,0.42999294,-1.4292165,1.961007,-2.09809,-1.5747036,2.4044766,-0.11455038,0.27568007,-0.32822824,0.073703945,-0.028478334,-0.13413279,-0.3256114,0.05746084,-9.576807,1.0104496,47.705692,-0.9663762,-1.9445139,-3.5617676,-0.0047154585,-0.12760717,-0.17981626,27.0625,28.1875,27.125,30.625,32.3125,32.9375
0.31005254,-1.1589803,-0.39967382,-0.92436194,0.013294556,0.057684474,-0.16158387,-0.39608106,-0.32782072,0.059935883,-3.073968,0.6230909,9.086642e-05,-0.15107587,0.0046803397,-0.00059787236,0.035054486,-0.010462607,0.018074125,0.42977583,-1.4286885,1.960277,-2.097933,-1.5747517,2.4042003,-0.1175654,0.27713647,-0.3312928,0.077812865,-0.028441682,-0.1353173,-0.38307226,0.05746084,-9.576807,1.0261165,47.66987,-0.85610497,-2.1045005,-3.6561198,-0.053517696,-0.12366491,-0.12370757,27.0625,28.1875,27.125,30.625,32.3125,32.9375
0.31205234,-0.9298386,-0.5209067,-0.79553044,0.01060793,0.068929486,-0.15014865,-0.3963631,-0.32780805,0.05992133,-3.073876,0.62297374,3.2631066e-05,-0.1493859,0.0032683064,-0.0012175242,0.03609916,-0.014789995,0.019522073,0.42956126,-1.4281257,1.9596294,-2.0977523,-1.5748233,2.403925,-0.11400576,0.2794228,-0.33361688,0.08221037,-0.027595853,-0.13320643,-0.34476504,0.05746084,-9.557653,0.98807013,47.68062,-1.062388,-2.0672188,-3.5703988,-0.099198356,-0.116907075,-0.112742886,27.0625,28.1875,27.125,30.625,32.3125,32.9375
0.31405255,-1.4232836,-0.59558094,-0.5903145,0.012429047,0.049980022,-0.14540717,-0.39665216,-0.32779464,0.059929807,-3.0738032,0.6229477,2.2226031e-05,-0.15054822,0.0043477407,-0.00015349976,0.035954986,-0.015410754,0.007249839,0.42933187,-1.4276106,1.9589833,-2.0975716,-1.5748829,2.4036891,-0.1171065,0.2787766,-0.33633026,0.08609834,-0.027187938,-0.12403516,-0.4213795,0.15322891,-9.385271,0.98807013,47.695843,-0.93136936,-1.905545,-3.5058315,-0.16978139,-0.120444566,-0.20161745,27.0625,28.1875,27.125,30.625,32.3125,32.9375
0.3160526,-0.9646961,-0.15422644,-0.38356546,0.011483688,0.056621324,-0.15595254,-0.39696503,-0.32779527,0.059923396,-3.0737433,0.62291616,-2.7327887e-05,-0.14987236,0.0036910735,-0.000517496,0.03678724,-0.018363383,0.0044263997,0.42909274,-1.4270115,1.9582776,-2.0974023,-1.5749186,2.4034386,-0.11552586,0.28071037,-0.33862448,0.089496754,-0.02671426,-0.1196311,-0.59376204,0.11492168,-9.193734,0.9186956,47.713753,-1.1457276,-1.8539214,-3.5656824,-0.20959589,-0.12276764,-0.2381295,27.0625,28.1875,27.125,30.625,32.3125,32.9375
0.31805262,-0.66261846,0.04879315,-0.5711318,0.031084184,0.04423393,-0.15838225,-0.3972662,-0.3277851,0.05991383,-3.0736606,0.62291974,-7.693774e-05,-0.15056543,0.004340242,0.00021983564,0.036080725,-0.018614506,-0.00022640862,0.4288521,-1.4264364,1.9576067,-2.0972345,-1.5749668,2.4032114,-0.117653914,0.27987158,-0.33999255,0.09163472,-0.025973517,-0.11710812,-0.5363012,0.019153614,-9.308656,1.0305934,47.721813,-1.0542768,-1.6591029,-3.5265632,-0.2502483,-0.12629007,-0.30143544,27.0625,28.1875,27.125,30.625,32.3125,32.9375
0.3200516,-0.74694794,-0.5080781,-0.5919754,0.034232885,0.034197625,-0.14759015,-0.39757317,-0.32775185,0.059907086,-3.0735345,0.62295073,-0.00011107343,-0.1508517,0.0044971067,0.0003212527,0.036438357,-0.018967096,-0.0007568029,0.428588,-1.4258732,1.9569372,-2.0970423,-1.5750507,2.4029834,-0.11792674,0.2803449,-0.3411708,0.092794515,-0.026169823,-0.116847314,-0.36391866,-0.019153614,-9.270349,0.9925471,47.709274,-1.0088183,-1.5752559,-3.6560163,-0.28198212,-0.12829149,-0.31686848,27.0625,28.1875,27.125,30.625,32.3125,32.9375
0.32205254,-0.2708781,-0.29571337,-0.24845484,0.0012563235,0.043999232,-0.16239178,-0.39790398,-0.32776764,0.059931885,-3.0735075,0.6229669,-3.789713e-05,-0.15472355,0.005035707,0.001769933,0.03445084,-0.014772392,-0.0050063743,0.42837036,-1.4253097,1.9562057,-2.0968993,-1.5750989,2.4027798,-0.12206057,0.28176585,-0.34596702,0.091517895,-0.026121404,-0.11672987,-0.40222588,0.038307227,-9.212888,0.91421866,47.737934,-0.8314396,-1.5708971,-3.6071951,-0.30753064,-0.1318742,-0.33003914,27.0625,28.1875,27.125,30.625,32.3125,32.9375
0.32405272,-0.2555009,-0.5135474,-0.4449522,0.0043641077,0.039829317,-0.15178801,-0.39821637,-0.32775903,0.05993607,-3.0734215,0.6229088,-9.1044676e-05,-0.15646367,0.0032155605,0.0020586848,0.03291338,-0.0112574175,-0.0030844943,0.4281313,-1.4247218,1.9554747,-2.0966733,-1.5751585,2.4025161,-0.12001524,0.28484645,-0.34953755,0.08815984,-0.026213406,-0.11660124,-0.30645782,0.038307227,-9.174581,0.94331104,47.68062,-1.014255,-1.533375,-3.5198927,-0.30494764,-0.1285477,-0.35253444,27.0625,28.1875,27.125,30.625,32.3125,32.9375
0.32605174,0.057190403,-0.03750257,-0.62092257,-8.332154e-05,0.047849894,-0.16669671,-0.3985443,-0.3277714,0.059959877,-3.0734103,0.6229627,-2.2763267e-07,-0.15908365,0.0032174492,0.0027587565,0.031823922,-0.008043081,-0.0028895172,0.4279026,-1.4241823,1.9547805,-2.096566,-1.5751947,2.402323,-0.121845946,0.2866323,-0.3529138,0.086355776,-0.026574189,-0.118624434,-0.24899697,0.019153614,-9.251195,0.9030289,47.677036,-0.7780008,-1.6512622,-3.3624501,-0.28095144,-0.13520229,-0.35585377,27.0625,28.1875,27.125,30.625,32.3125,32.9375
0.3280516,-0.66346014,-0.2881414,-0.7096519,0.013333284,0.034745246,-0.14659624,-0.3988504,-0.32774776,0.059943818,-3.0733283,0.62298155,-7.557608e-05,-0.16135973,0.002410785,0.0019467996,0.029995589,-0.0052424218,0.0006561108,0.42762655,-1.4236054,1.9541215,-2.096401,-1.5752305,2.4020698,-0.12244072,0.29080063,-0.35467604,0.08061095,-0.02611873,-0.12276265,-0.11492168,0.0,-9.423578,0.86498255,47.70032,-0.9071567,-1.7575449,-3.3453012,-0.24586181,-0.13270952,-0.34672835,27.0625,28.1875,27.125,30.625,32.3125,32.9375
0.33005247,-1.4476035,-1.1129603,-1.0186745,0.022928819,0.033026148,-0.14027116,-0.39918908,-0.32775006,0.05995782,-3.0733113,0.6229344,-7.3598276e-05,-0.16386384,0.000843707,0.0017734282,0.027730042,-0.00211003,0.00727044,0.42736295,-1.4230161,1.9533786,-2.0962346,-1.5752543,2.4017794,-0.12200246,0.29530337,-0.35858983,0.076191545,-0.025401263,-0.12893885,-0.21068975,0.1340753,-9.346964,0.9164598,47.694946,-0.9493726,-1.8814269,-3.3624988,-0.18701614,-0.1498081,-0.28762382,27.0625,28.1875,27.125,30.625,32.3125,32.9375
0.3320524,-0.82520634,-1.0819151,-0.9921793,-0.0064817434,0.06992282,-0.14868946,-0.39947408,-0.3277406,0.059945274,-3.0732265,0.6228555,-0.00013324262,-0.16367665,0.0012851371,0.0021610162,0.027292687,-0.0021969255,0.013727821,0.42714635,-1.4224527,1.9527229,-2.0960543,-1.5753139,2.401525,-0.122786485,0.29369584,-0.35798955,0.077048294,-0.025003769,-0.13618128,-0.30645782,0.24899697,-9.404425,0.91198283,47.711063,-0.97791064,-1.8170304,-3.408965,-0.19273922,-0.16200683,-0.19048876,27.0625,28.1875,27.125,30.625,32.3125,32.9375
0.3340526,-1.3136191,-1.4660437,-1.0780168,-0.014694177,0.07027541,-0.15930617,-0.39980578,-0.32770684,0.0599511,-3.0731246,0.62279093,-0.00012497617,-0.16374686,0.0011020458,4.468616e-05,0.028063029,-0.0037058974,0.020849612,0.4268706,-1.421875,1.9520038,-2.0958521,-1.5754102,2.4012227,-0.12229417,0.29780716,-0.3572892,0.07387812,-0.025121776,-0.14280829,-0.17238252,0.3256114,-9.461885,0.97240865,47.691364,-1.0278287,-1.8027201,-3.6893528,-0.14041731,-0.15749952,-0.10721374,27.0625,28.1875,27.125,30.625,32.3125,32.9375
0.33605236,-1.7782711,-2.2448802,-1.2356108,-0.03873898,0.070105836,-0.1474677,-0.40014693,-0.32771805,0.059970874,-3.0731206,0.62269443,-8.311297e-05,-0.16410506,0.0017385093,-0.00026611908,0.029043842,-0.0042159883,0.019882644,0.4266304,-1.4212862,1.95125,-2.0956962,-1.575447,2.4009233,-0.12316582,0.29857132,-0.3577364,0.07442355,-0.025805341,-0.14270988,-0.24899697,0.51714754,-9.634268,0.90527004,47.67166,-0.9840189,-1.780709,-3.8214102,-0.11691635,-0.16544458,-0.088525236,27.0625,28.1875,27.125,30.625,32.3125,32.9375
0.33805236,-1.5463057,-2.9246523,-1.119756,-0.06411601,0.06846873,-0.14868237,-0.40048522,-0.32769126,0.059959207,-3.0730188,0.6227121,-7.257397e-05,-0.16529368,0.0013667975,0.00010813784,0.028966997,-0.0029795526,0.01818093,0.4263544,-1.4206731,1.9505428,-2.0955522,-1.5755309,2.400672,-0.123040095,0.30013245,-0.36057547,0.074536,-0.02625751,-0.14087763,-0.38307226,0.49799395,-9.730036,0.9298854,47.70032,-1.0148387,-1.7048266,-3.8235722,-0.09963167,-0.15053388,-0.055053964,27.0625,28.1875,27.125,30.625,32.3125,32.9375
0.34005225,-1.0044116,-2.6221066,-1.2684547,-0.0764565,0.057484798,-0.14474952,-0.40082237,-0.32769218,0.059984304,-3.072981,0.62268746,-8.449249e-06,-0.16719879,0.000925119,0.0023344408,0.027639009,0.0013378143,0.013523923,0.42611456,-1.4201086,1.9498013,-2.0953848,-1.575591,2.400422,-0.12331083,0.29877102,-0.36443532,0.075286716,-0.026825782,-0.13648747,-0.36391866,0.49799395,-9.730036,0.99031126,47.687782,-1.052716,-1.7017756,-3.738727,-0.08589351,-0.16135243,-0.08845416,27.0625,28.1875,27.125,30.625,32.3125,32.9375
0.34205222,-0.8294128,-2.506002,-1.4312656,-0.06254499,0.038681235,-0.13891494,-0.40114465,-0.32769042,0.059977997,-3.07294,0.6225846,-1.6750371e-05,-0.16821273,-5.1601505e-06,0.003054139,0.02694959,0.0028222485,0.008987038,0.42587474,-1.4195079,1.9490951,-2.0952408,-1.5756391,2.4001238,-0.12234,0.30001983,-0.36779144,0.07577247,-0.026804995,-0.13097739,-0.36391866,0.57460845,-9.787497,0.99702406,47.683304,-1.0988035,-1.4734042,-3.6327817,-0.07979039,-0.14165604,-0.13036232,27.0625,28.1875,27.125,30.625,32.3125,32.9375
0.3440524,-0.7504269,-2.0688565,-1.4923074,-0.05224522,0.020946173,-0.13822645,-0.40147462,-0.32768053,0.059977435,-3.0728812,0.6225578,1.6111313e-06,-0.17096454,0.00042158394,0.0028876162,0.027367728,0.0033470644,0.0004722231,0.42562178,-1.4189174,1.9483875,-2.0950973,-1.5756992,2.3998623,-0.12487277,0.30440295,-0.37263912,0.075950116,-0.027396249,-0.12498885,-0.15322891,0.49799395,-9.768343,0.947788,47.66987,-0.98810756,-1.551577,-3.5436134,-0.038338397,-0.15002494,-0.21885306,27.0625,28.1875,27.125,30.625,32.3125,32.9375
0.34605178,-0.29671556,-1.6886911,-1.6005969,-0.023453182,0.013564004,-0.13758947,-0.40185586,-0.32768765,0.060001325,-3.072873,0.62263495,7.6210745e-05,-0.17113885,0.000294701,0.0016339978,0.029177733,0.0015315877,-0.0035207055,0.4253344,-1.418292,1.9475859,-2.0949652,-1.5757235,2.3996246,-0.124052405,0.30809677,-0.37425956,0.07629476,-0.028278043,-0.120171234,-0.095768064,0.5363012,-9.864111,0.9925471,47.719128,-1.1510842,-1.7820804,-3.628939,-0.03424362,-0.14088845,-0.27799618,27.0625,28.1875,27.125,30.625,32.3125,32.9375
0.34805182,-0.48971587,-1.5419948,-1.4130881,-0.013718272,0.018113313,-0.14190042,-0.40218344,-0.32767242,0.059996743,-3.072772,0.62269187,7.077205e-05,-0.17031886,0.0013627537,-7.56276e-05,0.030480884,-0.005239853,-0.007514419,0.42508137,-1.4176904,1.9468683,-2.094796,-1.5757946,2.3994207,-0.12621273,0.31094766,-0.37478322,0.08066209,-0.02666617,-0.11834519,-0.24899697,0.4405331,-9.787497,0.947788,47.71554,-0.887236,-1.8493917,-3.6983006,-0.056953955,-0.16067827,-0.33775094,27.0625,28.1875,27.125,30.625,32.3125,32.9375
0.35005188,-0.8432667,-1.53775,-1.1979867,-0.027321646,0.031852804,-0.14266823,-0.4025587,-0.32767653,0.060027596,-3.0727506,0.62272894,0.0001943838,-0.1705885,0.0017742761,-0.0006641469,0.030462516,-0.008116501,-0.013620604,0.424817,-1.4170895,1.9460782,-2.0946639,-1.5758542,2.3991828,-0.12781307,0.31291384,-0.37638023,0.0829118,-0.02544363,-0.11384675,-0.076614454,0.3256114,-9.595961,0.97240865,47.658226,-1.0204071,-1.8257918,-3.763822,-0.039606962,-0.19136715,-0.40531108,27.0625,28.1875,27.125,30.625,32.3125,32.9375
0.35205188,-0.3868215,-1.114763,-0.91975564,-0.023210602,0.041266706,-0.15432271,-0.40289196,-0.32770717,0.06002528,-3.0727482,0.6226322,0.00020564772,-0.16951045,0.0027375384,-0.0013277199,0.032392446,-0.014879321,-0.015551592,0.4246125,-1.416452,1.9453238,-2.0945413,-1.575878,2.3989186,-0.12920396,0.31436327,-0.37841788,0.09044885,-0.024405964,-0.11331238,0.019153614,0.24899697,-9.519346,1.0350704,47.65912,-0.913703,-1.999303,-3.770868,-0.092813164,-0.19992465,-0.4712157,27.0625,28.1875,27.125,30.625,32.3125,32.9375
0.35405192,-0.05371061,-1.0696967,-0.6280823,0.005007569,0.017067783,-0.14633577,-0.4032438,-0.32768965,0.060039833,-3.07267,0.62265104,0.00023441546,-0.17015067,0.0021357003,-0.0008775231,0.033182032,-0.016014263,-0.0113843465,0.42433685,-1.4158509,1.9445566,-2.0943487,-1.57595,2.3986654,-0.12831005,0.31662393,-0.38305497,0.094153754,-0.024682172,-0.11658221,0.2873042,0.15322891,-9.423578,0.9254084,47.6636,-0.9354658,-1.8328776,-3.7848017,-0.15662944,-0.21364728,-0.4827567,27.0625,28.1875,27.125,30.625,32.3125,32.9375
0.35605186,0.52760327,-0.014613551,-0.585133,0.028714772,-0.002202271,-0.15307903,-0.4035838,-0.32772693,0.060064986,-3.072667,0.62264687,0.00025478998,-0.17171974,0.002556128,0.0003562623,0.034043457,-0.014874166,-0.0054029827,0.42413235,-1.4152379,1.9437536,-2.094168,-1.5759629,2.3984592,-0.12939405,0.31702822,-0.38719648,0.09716716,-0.02596902,-0.123640195,0.1340753,0.019153614,-9.232041,0.9835985,47.745995,-0.9016297,-1.7324195,-3.579614,-0.17629677,-0.21930195,-0.4472909,27.0625,28.1875,27.125,30.625,32.3125,32.9375
0.3580518,1.4280782,1.0902017,-0.80552614,0.059878264,-0.01879003,-0.15980297,-0.40393546,-0.32767895,0.06005617,-3.0725272,0.62263006,0.00026468403,-0.17237379,0.001810361,0.001116876,0.0335295,-0.014368659,0.0037931672,0.42383304,-1.414613,1.9430121,-2.0939758,-1.5760826,2.398168,-0.12855798,0.31783065,-0.3904225,0.098850034,-0.025760312,-0.1319987,0.15322891,0.038307227,-9.193734,0.9768804,47.73525,-1.1004698,-1.9364228,-3.5678115,-0.2179558,-0.22367586,-0.38868672,27.0625,28.1875,27.125,30.625,32.3125,32.9375
0.36005175,0.9282266,0.6600595,-0.68933153,0.069045916,-0.033256747,-0.14752568,-0.4043045,-0.32768393,0.060079116,-3.0725107,0.6226207,0.00034689857,-0.17256093,0.0012413367,0.00066429,0.033987883,-0.016125306,0.014021249,0.42356923,-1.4139997,1.9422215,-2.0938318,-1.5761303,2.397901,-0.1276958,0.32052574,-0.39304423,0.100501284,-0.025495382,-0.14136605,-0.038307227,0.11492168,-9.078813,0.94331104,47.752266,-1.071945,-1.6073835,-3.4329271,-0.2330672,-0.22711357,-0.31426376,27.0625,28.1875,27.125,30.625,32.3125,32.9375
0.36205176,-0.082870856,-0.21035385,-0.38053486,0.04012181,-0.0018627493,-0.15091424,-0.40462443,-0.32770675,0.06008701,-3.0724833,0.6225158,0.00020779886,-0.17417993,0.0020517788,0.00031250346,0.035434287,-0.016416337,0.018958459,0.42334053,-1.4133619,1.9414071,-2.0935566,-1.5761193,2.397611,-0.12954581,0.32337976,-0.39589494,0.10132093,-0.026745124,-0.14814308,-0.05746084,0.038307227,-9.193734,0.9186956,47.65912,-1.0924262,-1.6422739,-3.4082026,-0.26458132,-0.25295183,-0.21839076,27.0625,28.1875,27.125,30.625,32.3125,32.9375
0.3640521,-0.662006,-0.6351979,-0.21869014,0.006108402,0.03214002,-0.14566733,-0.40498382,-0.32770485,0.06011926,-3.0724297,0.6224849,0.0002672627,-0.17449176,0.0025464841,7.5579774e-05,0.036320344,-0.016884297,0.020119507,0.42308843,-1.4127617,1.9405936,-2.093341,-1.5761913,2.397347,-0.13013563,0.32412127,-0.39653182,0.10198244,-0.02737525,-0.14989074,-0.095768064,0.17238253,-9.136273,0.97240865,47.728977,-1.0910152,-1.4720123,-3.4645553,-0.28828052,-0.25009564,-0.15123731,27.0625,28.1875,27.125,30.625,32.3125,32.9375
0.36605197,-1.7050965,-1.5273708,-0.30199167,-0.031823423,0.061211884,-0.141585,-0.40533364,-0.32770485,0.06010433,-3.072321,0.6224056,0.0001879723,-0.17608632,0.0024710158,0.00043575792,0.034723394,-0.014688837,0.016807456,0.42284787,-1.412052,1.9397563,-2.0931022,-1.5762633,2.3970716,-0.131496,0.32492223,-0.39805755,0.10004196,-0.026844094,-0.14793822,-0.28730422,0.17238252,-9.193734,1.0194036,47.709274,-1.0309222,-1.5178208,-3.6176224,-0.28666735,-0.2866336,-0.14417647,27.0625,28.1875,27.125,30.625,32.3125,32.9375
0.36805192,-1.9700911,-1.9266376,-0.19434856,-0.048413705,0.08705552,-0.14825715,-0.40568694,-0.32768866,0.060123034,-3.0722756,0.62239826,0.00020823147,-0.1771519,0.0023181716,-0.0009777964,0.0340723,-0.014814006,0.01124422,0.42255974,-1.4114627,1.938991,-2.0929115,-1.5763105,2.3967853,-0.13234355,0.3286335,-0.3985237,0.096654266,-0.026199538,-0.14322455,-0.34476507,0.17238252,-9.193734,1.0753525,47.7254,-1.0202421,-1.634721,-3.7783008,-0.27456814,-0.29430372,-0.20184097,27.0625,28.1875,27.125,30.625,32.3125,32.9375
0.3700519,-2.0159216,-1.8618829,-0.06753342,-0.04489776,0.099423446,-0.14984304,-0.4060383,-0.32768577,0.060101163,-3.0722106,0.6224093,0.00013424298,-0.18128957,0.0019299864,-0.0003131278,0.032325167,-0.009419694,0.00145545,0.42228302,-1.4107767,1.9382123,-2.092746,-1.5763353,2.3965244,-0.13445835,0.3324529,-0.40370837,0.09241891,-0.026825216,-0.1355418,-0.36391866,0.19153613,-9.212888,0.8985519,47.717335,-0.9177379,-1.5270469,-3.66747,-0.21428236,-0.3120266,-0.26709116,27.0625,28.1875,27.125,30.625,32.3125,32.9375
