Tylouw/Master_Thesis_Code/training_data/batch_1/big_rod_t0.2/sample_22_session_1.csv
timestamp[s],tcp_force_x[N],tcp_force_y[N],tcp_force_z[N],tcp_force_rx[Nm?],tcp_force_ry[Nm?],tcp_force_rz[Nm?],tcp_pose_x[m],tcp_pose_y[m],tcp_pose_z[m],tcp_pose_rx[rot_vec_x],tcp_pose_ry[rot_vec_y],tcp_pose_rz[rot_vec_z],tcp_velo_x[m/s],tcp_velo_y[m/s],tcp_velo_z[m/s],tcp_velo_rx[rot_vec_x/s],tcp_velo_ry[rot_vec_y/s],tcp_velo_rz[rot_vec_z/s],q1[rad],q2[rad],q3[rad],q4[rad],q5[rad],q6[rad],qd1[rad/s],qd2[rad/s],qd3[rad/s],qd4[rad/s],qd5[rad/s],qd6[rad/s],tool_acc_x,tool_acc_y,tool_acc_z,current_of_whole_robot[A],voltage_of_whole_robot[V],current_J1[A],current_J2[A],current_J3[A],current_J4[A],current_J5[A],current_J6[A],temp_J1[C],temp_J2[C],temp_J3[C],temp_J4[C],temp_J5[C],temp_J6[C]
7.089693e-07,-0.57770216,-1.3833605,-0.45568326,-0.027492289,0.024520062,-0.00057132216,-0.3728975,-0.32823074,0.05996,-3.0785174,0.62485445,-0.00024721137,0.0025823268,0.0012313678,-0.0033827776,0.0036545885,-0.007979041,3.2103726e-05,0.44815025,-1.4708732,2.0095484,-2.1076906,-1.5706495,2.4230556,-8.6778055e-05,0.0032874034,0.003754045,0.0017325567,0.00017546453,-0.000121441975,0.05746084,0.2681506,-8.983045,0.7911258,47.709274,-0.15667278,-2.8413842,-2.4154358,-0.50568414,0.07549021,-0.099427104,26.25,27.1875,26.25,29.375,30.5,31.0
0.002052889,-0.5346955,-1.3650689,-0.7013134,-0.023402466,0.0316443,-0.00504823,-0.37287256,-0.32823157,0.05992943,-3.078509,0.62487197,-0.00034993587,-0.00070576416,-0.00035831615,-0.0022741195,-0.0013565193,0.0023951815,3.421581e-05,0.44815025,-1.4708494,2.009596,-2.1077073,-1.5706137,2.4230676,-8.473551e-05,0.0031491937,0.0040243748,-0.009920649,0.00017070984,-0.00011825062,0.05746084,0.21068975,-8.944737,0.7150385,47.7254,-0.20753154,-2.7129288,-2.3017826,-0.4914077,0.09266202,-0.10206671,26.25,27.1875,26.25,29.375,30.5,31.0
0.004052273,-0.77290523,-1.1101639,-0.5352453,-0.021595515,0.020499099,0.00022854461,-0.37288684,-0.3282192,0.05993551,-3.0784628,0.62491995,-0.000331025,-0.0015055949,-0.0007446374,-0.002294103,-0.0025547957,0.0048815245,3.3992346e-05,0.4481382,-1.4708372,2.0095608,-2.107672,-1.5706495,2.4230914,-8.2786886e-05,0.003526554,0.0044752043,-0.013508862,0.0001662056,-0.000115222545,0.11492168,0.17238252,-9.002198,0.7463667,47.703903,-0.19917291,-3.0276928,-2.5838914,-0.36460644,0.08312485,-0.09822309,26.25,27.1875,26.25,29.375,30.5,31.0
0.006052185,-0.33779672,-0.61861753,-0.65193087,-0.011201009,0.0125293685,-0.0009963468,-0.37290394,-0.32821444,0.059919517,-3.0784698,0.62488306,-0.00023836477,-0.0005934878,-0.0003028708,-0.0018844751,-0.0010401708,0.0017635082,5.301149e-05,0.4481382,-1.4708138,2.0095956,-2.1077769,-1.5706857,2.4230676,-8.092589e-05,0.0027691324,0.0030856894,-0.007895508,0.00016193354,-0.00013331005,0.019153614,0.17238252,-9.002198,0.77545905,47.698532,-0.16077168,-2.9765232,-2.5390973,-0.393979,0.08673074,-0.10568705,26.25,27.1875,26.25,29.375,30.5,31.0
0.008052113,0.41390312,-0.16608728,-1.0872172,0.019445324,0.0017087122,0.0036351192,-0.37288317,-0.32820672,0.059903577,-3.0784378,0.624915,-0.00035316788,0.00023155798,9.6783e-05,-0.0015778098,0.00025936624,-0.0009106914,5.2021558e-05,0.44812617,-1.470802,2.009608,-2.1077278,-1.5706614,2.4230795,-7.914667e-05,0.0020728053,0.0020788559,-0.0032191065,0.0001578754,-0.00013143288,0.0,0.11492168,-9.097966,0.7732232,47.69763,-0.14398947,-2.9444275,-2.4507487,-0.447581,0.08111122,-0.10097217,26.25,27.1875,26.25,29.375,30.5,31.0
0.01005226,0.36470783,0.18458486,-1.5411059,0.032618295,-0.0023899334,-0.0005772147,-0.37288994,-0.32821432,0.059895918,-3.078458,0.6249001,-0.0003491477,0.00038355103,0.00017754223,-0.0014045122,0.00057726685,-0.0015580832,3.781773e-05,0.44812617,-1.470778,2.0096076,-2.1077635,-1.5706495,2.4230676,-9.01798e-05,0.0018810411,0.0015665154,-0.0017937755,0.0001540155,-0.00012839676,0.038307227,0.095768064,-9.289503,0.70608455,47.642998,-0.5314108,-2.26335,-3.0524735,-0.46525213,0.052927233,-0.16519198,26.25,27.1875,26.25,29.375,30.5,31.0
0.012051887,0.32990122,-0.357245,-1.7704908,0.011214354,0.017623713,-0.012830367,-0.3728504,-0.32821006,0.059864953,-3.0784066,0.6248127,-0.00045843542,0.00023285013,0.0001917423,-0.0034180502,0.00248555,-0.005524072,1.652069e-05,0.44816223,-1.4707526,2.0096424,-2.1077273,-1.5706614,2.4230556,-0.00025561015,0.0074080983,2.7543152e-05,-0.0013806738,0.0001503403,-0.00027085526,0.15322891,0.076614454,-9.481039,0.72622824,47.670765,-0.67309827,-2.1929114,-3.1792898,-0.48300037,0.07494073,-0.18337905,26.25,27.1875,26.25,29.375,30.5,31.0
0.0140516795,-0.4148288,-1.1811501,-1.8927542,-0.02317091,0.032106355,-0.00829022,-0.37286043,-0.32820517,0.05986228,-3.0783725,0.62488174,-0.00053022575,-0.005265382,0.0011777135,-0.0041824677,0.0029229887,-0.006476904,4.3565975e-05,0.4481358,-1.4707129,2.0095913,-2.1076677,-1.5706495,2.4230766,-0.007119391,0.017093047,-0.008910489,-0.0010803075,0.00014683575,-0.007154857,-0.019153614,0.1340753,-9.5385,0.7083204,47.703903,-0.4948093,-2.8319597,-2.971039,-0.48263696,0.068400405,-0.17770475,26.25,27.1875,26.25,29.375,30.5,31.0
0.016052388,-1.4639195,-1.6452596,-1.9510643,-0.05410571,0.047799993,-0.012448708,-0.3728811,-0.32820398,0.05988874,-3.0784276,0.6248156,-0.0004147424,-0.005902589,0.0022387651,-0.004317869,0.003188273,-0.0070209233,0.00137684,0.4481228,-1.4707608,2.0095913,-2.107703,-1.5706614,2.4230154,-0.009692332,0.01711574,-0.008712326,-0.0006965997,0.00014349121,-0.011061281,-0.26815057,0.24899697,-9.595961,0.7396539,47.686886,-0.2655813,-2.7564197,-3.167921,-0.47760755,0.075521305,-0.12808461,26.25,27.1875,26.25,29.375,30.5,31.0
0.018051768,-2.0465622,-2.4055216,-1.698774,-0.078547165,0.08543286,-0.01869495,-0.3728719,-0.3281846,0.05984885,-3.07833,0.62483376,-0.0005419372,-0.0053345524,0.0018656251,-0.0039700833,0.0029824118,-0.0065854117,0.002782304,0.44811118,-1.4706774,2.0095804,-2.1076553,-1.5706857,2.4230275,-0.008470822,0.015952138,-0.0082940655,-0.0004332514,0.0001402959,-0.011245763,-0.4405331,0.34476504,-9.787497,0.7284641,47.65912,-0.52294284,-2.4390233,-3.439404,-0.47119427,0.069061264,-0.121640176,26.25,27.1875,26.25,29.375,30.5,31.0
0.020051641,-2.287298,-2.487099,-1.8030919,-0.08117403,0.112575546,-0.02289423,-0.37288105,-0.32819596,0.05982048,-3.0783505,0.62487674,-0.0006702595,-0.006773788,0.0011181943,-0.0035781786,0.0026764236,-0.00595857,0.0018156386,0.44807535,-1.4705925,2.009555,-2.1076672,-1.5706137,2.4230158,-0.008374503,0.018662496,-0.012304202,0.0001699382,0.00013723958,-0.010180117,-0.51714754,0.34476504,-9.787497,0.6635613,47.68599,-0.5928769,-2.372832,-3.4999511,-0.4812562,0.08904594,-0.18947886,26.25,27.1875,26.25,29.375,30.5,31.0
0.022052463,-2.9275393,-2.0163457,-1.8190212,-0.056024894,0.09776166,-0.030622011,-0.3728977,-0.32817775,0.059825964,-3.0783057,0.62484777,-0.0005858697,-0.00808667,0.0014282165,-0.0037438774,0.0028001585,-0.006219563,0.0009902733,0.44807476,-1.4705918,2.0095417,-2.1076672,-1.5706857,2.423003,-0.010151939,0.020861804,-0.014372583,0.00032694542,0.00013431336,-0.011130633,-0.5746084,0.3256114,-9.749189,0.8291774,47.694946,-0.6867332,-2.4209647,-3.387342,-0.47925943,0.07276208,-0.20338589,26.25,27.1875,26.25,29.375,30.5,31.0
0.024051698,-2.129132,-1.9715605,-1.9828347,-0.024482122,0.09149657,-0.044334788,-0.37289232,-0.32818136,0.05979556,-3.078295,0.6248274,-0.000710475,-0.009721429,0.0019071215,-0.003099306,0.0021254132,-0.0048444737,0.0002541082,0.44806185,-1.4705199,2.0095298,-2.1076553,-1.5706495,2.4229786,-0.012544963,0.021203905,-0.01622131,0.00030204403,0.00014075058,-0.012786346,-0.7278373,0.2681506,-9.768343,0.7732232,47.66987,-0.65597135,-2.3752244,-3.4701648,-0.49074745,0.0763139,-0.20065206,26.25,27.1875,26.25,29.375,30.5,31.0
0.026051618,-1.4932877,-1.4017876,-1.8489116,-0.033332452,0.09089981,-0.072251685,-0.3729281,-0.3281987,0.059817173,-3.0783503,0.6247408,-0.00063421426,-0.010206991,0.0017682404,-0.0025095814,0.0015170468,-0.0035976784,0.0022137347,0.44806182,-1.470496,2.0094569,-2.1076672,-1.5706495,2.4229176,-0.012728151,0.020652058,-0.016943138,0.00018811166,0.00014660004,-0.014928785,-0.6512228,0.28730422,-9.710882,0.7866488,47.689575,-0.7671946,-2.345938,-3.459126,-0.4886914,0.060815886,-0.21678084,26.25,27.1875,26.25,29.375,30.5,31.0
0.028052585,-2.0164716,-1.7643441,-1.965901,-0.029138455,0.06753946,-0.06801198,-0.3729504,-0.32819003,0.059814204,-3.078328,0.6248132,-0.0006498467,-0.011704178,0.0018910328,-0.002420817,0.0013312101,-0.003220656,0.002177129,0.44802523,-1.4704593,2.0094206,-2.1076553,-1.5706495,2.422929,-0.014320325,0.022699954,-0.019388797,0.00016534557,0.00014423275,-0.01648255,-0.6703765,0.2681506,-9.615114,0.7911258,47.675243,-0.7512282,-2.2706032,-3.4583325,-0.4684947,0.062352102,-0.20838156,26.25,27.1875,26.25,29.375,30.5,31.0
0.030052587,-2.1183078,-1.6746544,-1.7795093,-0.025232919,0.076234244,-0.08490347,-0.37297562,-0.32817864,0.059808597,-3.0783262,0.6247747,-0.0006387669,-0.012884149,0.0018844918,-0.0022751815,0.0011306717,-0.0028093348,0.0025542092,0.4479889,-1.470423,2.0093963,-2.1076672,-1.5706614,2.422869,-0.015379743,0.024296762,-0.021484736,0.00020647327,0.0001414364,-0.017917544,-0.6512228,0.1340753,-9.730036,0.78217715,47.657326,-0.7710977,-2.2869668,-3.5002563,-0.4731533,0.082762085,-0.19904524,26.25,27.1875,26.25,29.375,30.5,31.0
0.032052338,-1.9327999,-1.3778865,-1.4949881,-0.023779785,0.09139268,-0.10849549,-0.3730266,-0.32817745,0.059808478,-3.078326,0.6248525,-0.0006075155,-0.014316774,0.0022041707,-0.0019672145,0.0007767014,-0.0020754375,0.0008777287,0.44794026,-1.4703507,2.009323,-2.107691,-1.5706614,2.422869,-0.017280713,0.025406593,-0.023410631,0.00020772107,0.00013871398,-0.018140694,-0.5554548,0.1340753,-9.653421,0.80456203,47.698532,-0.7247584,-2.2631342,-3.5000312,-0.45533422,0.077063695,-0.18850558,26.25,27.1875,26.25,29.375,30.5,31.0
0.034051806,-1.805079,-1.0160449,-1.3493036,-0.008496861,0.08787223,-0.12355521,-0.37305188,-0.328194,0.059813656,-3.0783389,0.6248356,-0.0006198355,-0.015491694,0.0017441299,-0.0013244427,9.051038e-05,-0.00065307325,0.00015887686,0.44794023,-1.4702905,2.0092394,-2.1076672,-1.5706495,2.4228568,-0.01748222,0.02636148,-0.02593065,0.00019391849,0.00013609222,-0.017621677,-0.47884035,0.076614454,-9.576807,0.7530795,47.68599,-0.7049917,-2.2382603,-3.4479485,-0.43677253,0.06745684,-0.16619404,26.25,27.1875,26.25,29.375,30.5,31.0
0.036052573,-1.054221,-0.5094369,-1.2436787,0.007878622,0.09449107,-0.14504063,-0.3730722,-0.328191,0.05981295,-3.0783632,0.62486076,-0.00065307936,-0.016845854,0.0015245926,-0.0004778767,-0.000773679,0.0011395101,-0.0004769305,0.4478919,-1.4702665,2.0092146,-2.1076672,-1.5706137,2.422821,-0.018297866,0.026747193,-0.028292822,0.00018098378,0.00013356756,-0.01780003,-0.40222588,0.095768064,-9.461885,0.7597976,47.66539,-0.7121372,-2.2250557,-3.3466606,-0.43739313,0.07080635,-0.18375911,26.25,27.1875,26.25,29.375,30.5,31.0
0.038052365,-1.3724934,-0.40316492,-1.4479066,0.028049584,0.056842916,-0.14334835,-0.3731119,-0.32818022,0.05978887,-3.0783443,0.6247995,-0.00068638264,-0.017945278,0.0017156948,-9.8370154e-05,-0.0011803192,0.0019828368,-0.0017534319,0.4478435,-1.4701585,2.009154,-2.1076791,-1.5706257,2.422737,-0.019653318,0.027307112,-0.02977782,0.00016961405,0.00013113492,-0.017878003,-0.2873042,0.0,-9.442732,0.8090337,47.658226,-0.72696805,-2.1998782,-3.3668683,-0.4375382,0.06703224,-0.20032935,26.25,27.1875,26.25,29.375,30.5,31.0
0.040052358,-0.86354077,-0.8105902,-1.54258,0.03728605,0.040067643,-0.1528479,-0.37315002,-0.32815373,0.059774633,-3.0782657,0.6249381,-0.00069597317,-0.019037448,0.0014452948,8.461148e-05,-0.0014413327,0.002518539,-0.0017963499,0.44778323,-1.470086,2.0091045,-2.1076672,-1.5706614,2.4227731,-0.020135008,0.029023787,-0.032081053,0.0001595838,0.00012878916,-0.018315122,-0.21068975,-0.095768064,-9.500193,0.800085,47.670765,-0.7054108,-2.1454153,-3.4469697,-0.42399478,0.06903763,-0.19748834,26.25,27.1875,26.25,29.375,30.5,31.0
0.042052116,-0.36015093,-0.079899415,-1.3525233,0.008086896,0.030009365,-0.17557727,-0.37318262,-0.32815027,0.059784047,-3.0782952,0.6248666,-0.00066608406,-0.02016347,0.0013196748,8.0783306e-05,-0.0015289508,0.002695245,-0.0017447075,0.44774708,-1.4700613,2.0090559,-2.1076672,-1.5706614,2.4226887,-0.020920206,0.031062791,-0.034308486,0.00015067487,0.00012652599,-0.019150293,-0.17238252,0.019153614,-9.461885,0.7284641,47.687782,-0.72006965,-2.159567,-3.378689,-0.42009512,0.06854303,-0.18509057,26.25,27.1875,26.25,29.375,30.5,31.0
0.044052377,-0.62997043,-0.88247526,-1.3691245,-0.0019671235,0.026141247,-0.16250688,-0.37325513,-0.3281745,0.05981519,-3.078378,0.6248453,-0.0005693319,-0.021501428,0.0013457974,0.0006462649,-0.002124954,0.003934284,-0.001990744,0.4477105,-1.4700011,2.0089238,-2.107691,-1.5706376,2.4226284,-0.022179985,0.031783957,-0.036396276,0.00014270788,0.00012434078,-0.020162653,-0.076614454,0.019153614,-9.481039,0.75084364,47.67793,-0.6705402,-2.1506429,-3.3880432,-0.40031558,0.06853032,-0.18351349,26.25,27.1875,26.25,29.375,30.5,31.0
0.04605238,-0.06564776,-1.0835159,-1.5287491,-0.022091124,0.03807099,-0.14154714,-0.3732935,-0.32817787,0.059822056,-3.0783596,0.6248797,-0.00053124124,-0.022386193,0.0015751764,0.0007076656,-0.0022106972,0.004111386,-0.0022351078,0.44769806,-1.469941,2.0088394,-2.1076791,-1.5706614,2.4226398,-0.023412492,0.032773647,-0.037637357,0.00019670953,0.00012222992,-0.02114991,-0.076614454,0.15322891,-9.595961,0.7597976,47.682407,-0.726806,-2.055425,-3.4053347,-0.3959181,0.07334116,-0.17314647,26.25,27.1875,26.25,29.375,30.5,31.0
0.048052166,-0.17990993,-1.3631285,-1.4427257,-0.03053698,0.038102023,-0.15201668,-0.37335247,-0.32813367,0.05979963,-3.0783074,0.6249646,-0.000539315,-0.023321262,0.0016254706,0.0008056771,-0.002320965,0.004336736,-0.0018630902,0.44757783,-1.4698566,2.0088036,-2.107703,-1.5706857,2.4225793,-0.0243504,0.03404662,-0.039291855,0.00032664312,0.00012018952,-0.022458684,0.095768064,0.17238252,-9.519346,0.75084364,47.686886,-0.68354034,-2.0935478,-3.4377408,-0.39858425,0.07291894,-0.16523848,26.25,27.1875,26.25,29.375,30.5,31.0
0.05005261,-0.63945144,-1.4087753,-1.5489739,-0.035440013,0.026811153,-0.14484714,-0.37339213,-0.32814878,0.059823394,-3.0783377,0.62495136,-0.00054702297,-0.023977352,0.0016552584,0.0013113554,-0.0023342802,0.004366738,-0.001261529,0.44755366,-1.4698085,2.0086825,-2.1076424,-1.5706614,2.422543,-0.024998615,0.034449365,-0.04123999,0.0018395927,0.000118216245,-0.023707671,0.019153614,0.22984336,-9.5385,0.800085,47.71465,-0.65648484,-2.0525732,-3.4724615,-0.38156277,0.07926131,-0.14904766,26.25,27.1875,26.25,29.375,30.5,31.0
0.052052144,-0.784893,-1.7452677,-1.5818806,-0.029918397,0.014757231,-0.13592023,-0.3734503,-0.32815522,0.059813928,-3.0783617,0.6248411,-0.00048101114,-0.024253847,0.0020372986,0.0012515369,-0.001577435,0.0027995904,-0.0010900286,0.44752932,-1.4697005,2.008599,-2.1077015,-1.5706857,2.422447,-0.02596388,0.035454385,-0.042713486,0.0040476383,0.0001163065,-0.024844043,0.05746084,0.30645782,-9.615114,0.7486078,47.729877,-0.63343966,-2.039976,-3.444664,-0.40542844,0.089463085,-0.15664846,26.25,27.1875,26.25,29.375,30.5,31.0
0.054052446,-0.68909454,-1.8717414,-1.7174824,-0.0319488,0.018883621,-0.13419344,-0.37347567,-0.32813537,0.059821673,-3.0783186,0.6249474,-0.0005249434,-0.0254193,0.001936947,0.0016970834,-0.0021610793,0.0040060193,-0.00056414335,0.44746894,-1.4696763,2.0085385,-2.10763,-1.5706857,2.4224584,-0.026829973,0.036250487,-0.044538856,0.003736486,0.000114457514,-0.026234712,0.05746084,0.4213795,-9.557653,0.8179876,47.686886,-0.61195594,-1.9206653,-3.5209377,-0.4046428,0.070218585,-0.13696387,26.25,27.1875,26.25,29.375,30.5,31.0
0.05605231,-1.0000688,-1.970455,-1.6923786,-0.045102235,0.012827917,-0.13842629,-0.3735389,-0.32814026,0.059813824,-3.0783339,0.6249109,-0.00050952804,-0.026430396,0.0018349328,0.0015023627,-0.0023049163,0.0042983005,-0.00025413223,0.44742063,-1.4695559,2.0084298,-2.1076543,-1.5706857,2.4223855,-0.0275512,0.038231872,-0.04610222,0.0029925578,0.00011266665,-0.027264487,-0.05746084,0.49799395,-9.634268,0.7933669,47.685097,-0.62333417,-1.9144425,-3.4906392,-0.37983263,0.0866442,-0.13132147,26.25,27.1875,26.25,29.375,30.5,31.0
0.058052022,-1.0634174,-2.425931,-1.8312427,-0.0510622,0.021014342,-0.1316459,-0.373595,-0.32812473,0.059812892,-3.0782955,0.6250177,-0.0005132669,-0.027794035,0.0014960945,0.0019894438,-0.0031286029,0.0060023884,0.00045371772,0.44734854,-1.4694715,2.008334,-2.107631,-1.5706977,2.422385,-0.028146321,0.03935499,-0.048259325,0.0021332826,0.00011093077,-0.028565742,-0.019153614,0.40222588,-9.481039,0.7463667,47.687782,-0.6325985,-1.887336,-3.509613,-0.36333543,0.079648316,-0.10709354,26.25,27.1875,26.25,29.375,30.5,31.0
0.06005176,-1.2382847,-2.4112809,-1.626288,-0.050774913,0.032967,-0.13464595,-0.37364775,-0.32812238,0.059819706,-3.0783482,0.6249521,-0.00046480136,-0.028831549,0.0015017939,0.0019592291,-0.0032155912,0.006181374,0.0002697207,0.44728813,-1.469423,2.0082734,-2.1076667,-1.5706857,2.422277,-0.029093413,0.041075565,-0.05005189,0.0020064975,0.00010924759,-0.029327448,0.0,0.4213795,-9.595961,0.8112748,47.67166,-0.62609327,-1.9067751,-3.4829888,-0.35733044,0.089466356,-0.09810555,26.25,27.1875,26.25,29.375,30.5,31.0
0.062052444,-0.8449561,-1.8897115,-1.5502044,-0.049104106,0.0500542,-0.13391249,-0.37369207,-0.3281334,0.059832435,-3.0783591,0.6249925,-0.0004896201,-0.029290995,0.0014801722,0.0015629604,-0.0026472944,0.00499623,0.00065312773,0.44725212,-1.4693503,2.0081532,-2.107618,-1.5706614,2.4222648,-0.029465947,0.04321302,-0.05167605,0.002808169,0.00010761458,-0.030082317,0.0,0.38307226,-9.595961,0.7105615,47.705692,-0.6537467,-1.9261322,-3.5537057,-0.34235105,0.09281541,-0.09077513,26.25,27.1875,26.25,29.375,30.5,31.0
0.0640526,-1.1934173,-1.521507,-1.5687108,-0.037388597,0.0427822,-0.13369101,-0.37376902,-0.32812983,0.059844244,-3.0783691,0.62495506,-0.00042196808,-0.029572818,0.0014944479,0.0015504583,-0.0019597483,0.0035946856,0.0021283033,0.44719198,-1.469254,2.0080202,-2.1076171,-1.5706857,2.4221802,-0.02973439,0.0446245,-0.05369603,0.0049767382,9.498825e-05,-0.031825118,-0.019153614,0.40222588,-9.519346,0.7530795,47.694946,-0.64673084,-1.8986009,-3.5567255,-0.35570544,0.08037267,-0.093730405,26.25,27.1875,26.25,29.375,30.5,31.0
0.06605256,-0.77459204,-1.2566793,-1.3398367,-0.019931378,0.05142148,-0.1337279,-0.37383553,-0.32813662,0.05985057,-3.0784042,0.625001,-0.00042673072,-0.030724173,0.0013533129,0.002087787,-0.0023423072,0.004392985,0.0022080112,0.4471198,-1.4691578,2.0079,-2.1076171,-1.5706495,2.4221323,-0.030504756,0.045606066,-0.056142468,0.005557446,9.1579575e-05,-0.032673743,-0.17238252,0.38307226,-9.423578,0.78888994,47.71554,-0.70381045,-1.8539569,-3.5210948,-0.37046212,0.081929214,-0.0571791,26.25,27.1875,26.25,29.375,30.5,31.0
0.06805228,-0.5766219,-0.70725703,-1.1625237,-0.026123414,0.05463183,-0.13982262,-0.37388888,-0.328143,0.05985325,-3.0784333,0.6249315,-0.00039687654,-0.032103322,0.0012529509,0.0018957757,-0.0024529856,0.004617223,-6.649221e-05,0.44708332,-1.4690732,2.0078037,-2.1076295,-1.5706495,2.4220488,-0.031562384,0.048266407,-0.058502212,0.005006987,8.965847e-05,-0.031454876,-0.2681506,0.30645782,-9.423578,0.76874626,47.695843,-0.66660863,-1.8872564,-3.4583852,-0.35611573,0.06999354,-0.079261,26.25,27.1875,26.25,29.375,30.5,31.0
0.070052005,-1.4008098,-1.2297044,-1.197527,-0.016674187,0.043414246,-0.12982121,-0.37395698,-0.32812697,0.059862077,-3.0784135,0.62498456,-0.00038460532,-0.03295669,0.00087768317,0.0023196603,-0.003130959,0.005988354,-0.00038091303,0.44699946,-1.4689891,2.007683,-2.1075938,-1.5706614,2.4220006,-0.031633463,0.048855547,-0.059978127,0.004363914,0.00010431017,-0.031210408,-0.17238252,0.11492168,-9.3661175,0.78217715,47.728977,-0.7272339,-1.8170714,-3.550242,-0.34522498,0.09499251,-0.09393877,26.25,27.1875,26.25,29.375,30.5,31.0
0.07205172,-1.7893789,-1.3313067,-1.0946193,-0.019145712,0.041559853,-0.12646072,-0.37402564,-0.32813877,0.059878346,-3.0784612,0.62505215,-0.00038460278,-0.0352946,0.0002731224,0.003344991,-0.004224165,0.008251092,0.000119908436,0.44692707,-1.4689045,2.00755,-2.1075819,-1.5706137,2.4219644,-0.03260948,0.050996654,-0.06470003,0.004433089,0.00010338318,-0.03268411,-0.24899697,0.076614454,-9.423578,0.7530795,47.70838,-0.7708117,-1.8362441,-3.4025688,-0.33824468,0.09579642,-0.0847148,26.25,27.1875,26.25,29.375,30.5,31.0
0.074051626,-0.8785431,-1.1182704,-1.077113,-0.01638365,0.063914575,-0.13691542,-0.37411326,-0.3281447,0.059880994,-3.0784872,0.6250193,-0.0003155195,-0.034579854,0.0010076179,0.0014218182,-0.002004726,0.0036380757,-0.00018617098,0.4468668,-1.4687716,2.007406,-2.1076171,-1.5706257,2.4218805,-0.033333704,0.05421937,-0.06414402,0.0057731243,0.00010150961,-0.03310247,-0.28730422,0.17238252,-9.346964,0.7866488,47.67166,-0.7474139,-1.9577229,-3.4371424,-0.33939302,0.08852076,-0.0820137,26.25,27.1875,26.25,29.375,30.5,31.0
0.07605291,-1.058607,-0.47288874,-1.025407,-0.019937446,0.05614285,-0.13568665,-0.37417737,-0.3281286,0.059892464,-3.0784693,0.6249765,-0.00030786303,-0.03549436,0.00078900025,0.0028479595,-0.002949838,0.005574481,-3.783615e-05,0.44679457,-1.4686882,2.0072744,-2.107557,-1.5706495,2.421784,-0.033752598,0.05297234,-0.06634149,0.00706204,0.00011514323,-0.033669,-0.34476504,0.19153613,-9.32781,0.7150385,47.684196,-0.71537983,-1.7862335,-3.4459643,-0.34586418,0.090230495,-0.07790106,26.25,27.1875,26.25,29.375,30.5,31.0
0.07805206,-1.1165732,-0.8619688,-1.0928534,-0.0015329848,0.052898593,-0.14000581,-0.3742412,-0.3281254,0.059880976,-3.0784543,0.6250299,-0.00034803918,-0.037452124,-1.8988629e-05,0.003935744,-0.0036486608,0.0069827107,0.0011865166,0.44672254,-1.4685558,2.0071523,-2.1075447,-1.5706376,2.4217472,-0.034010947,0.05523049,-0.07166412,0.00855476,0.00012824088,-0.035148643,-0.28730422,0.21068975,-9.346964,0.779936,47.693153,-0.7111814,-1.7740791,-3.3788662,-0.34011745,0.09087916,-0.06947828,26.25,27.1875,26.25,29.375,30.5,31.0
0.0800522,-1.0623727,-0.50659686,-0.95826745,-0.004936106,0.043912232,-0.13790892,-0.37432644,-0.32815152,0.059898436,-3.0785167,0.6249852,-0.00027160003,-0.037344076,0.000499055,0.002270729,-0.0022880293,0.0041487953,-5.6748566e-05,0.44668627,-1.4684349,2.006985,-2.1075685,-1.5706257,2.4216752,-0.03487951,0.05832685,-0.07114939,0.008087782,0.00012819961,-0.034773625,-0.32561144,0.21068975,-9.289503,0.7642693,47.683304,-0.7912086,-1.7556295,-3.2997875,-0.32926142,0.09428821,-0.06809474,26.25,27.1875,26.25,29.375,30.5,31.0
0.08205177,-1.4985436,-0.7605929,-1.0697328,-0.011538654,0.03580049,-0.12113272,-0.3743787,-0.32813594,0.059890404,-3.0784929,0.6250404,-0.0003287171,-0.039251428,0.00055813236,0.0022663681,-0.002800498,0.0044788164,-0.0034247085,0.44660154,-1.4683379,2.0068886,-2.1075327,-1.5706137,2.421628,-0.0369219,0.06119255,-0.07422363,0.0077767842,0.0004402236,-0.03344626,-0.36391866,0.1340753,-9.3661175,0.784413,47.71286,-0.76696205,-1.9148352,-3.4291883,-0.32330003,0.08059153,-0.09211233,26.25,27.1875,26.25,29.375,30.5,31.0
0.08405239,-1.4350044,-1.088081,-1.0158839,-0.016916698,0.046074912,-0.13384005,-0.3744772,-0.32813868,0.059927065,-3.0785255,0.62510437,-0.00023649223,-0.040634654,-2.904073e-05,0.004484176,-0.004743451,0.00841096,-0.003252634,0.4465175,-1.4682549,2.006708,-2.107509,-1.5706137,2.4215798,-0.037093177,0.05894801,-0.07698574,0.00839762,0.00049304357,-0.033788573,-0.24899697,0.17238252,-9.308657,0.77545905,47.69763,-0.75265527,-1.691735,-3.326951,-0.30870855,0.07644178,-0.11663988,26.25,27.1875,26.25,29.375,30.5,31.0
0.08605212,-1.4054651,-0.9491714,-0.850955,-0.026360756,0.0527483,-0.13232201,-0.37456644,-0.3281433,0.059918776,-3.0785124,0.625024,-0.00020462369,-0.04084069,-0.00016970288,0.00312499,-0.0031158929,0.00507902,-0.001735667,0.44646946,-1.4680737,2.0065277,-2.1075084,-1.5706495,2.4214835,-0.03698858,0.06352371,-0.07922324,0.009766256,0.00046209438,-0.03519925,-0.3256114,0.2681506,-9.251195,0.75084364,47.647476,-0.75504243,-1.7823999,-3.2828083,-0.3393191,0.09026508,-0.10193163,26.25,27.1875,26.25,29.375,30.5,31.0
0.088051796,-1.0780671,-0.78090376,-1.1071829,-0.035873774,0.060098283,-0.14024578,-0.37463835,-0.32812455,0.059928067,-3.0784993,0.62506,-0.00024752363,-0.041248884,0.00027953085,0.0025024232,-0.0023110555,0.0034788516,-0.002437501,0.44636112,-1.4679772,2.0063837,-2.107436,-1.5706376,2.4213994,-0.038166773,0.0654472,-0.08008265,0.010493566,0.00042632472,-0.035674967,-0.36391866,0.24899697,-9.404425,0.7396539,47.674347,-0.87690777,-1.8578649,-3.3020859,-0.34769273,0.08335286,-0.11363356,26.25,27.1875,26.25,29.375,30.5,31.0
0.09005159,-1.2619992,-1.4820172,-1.1909387,-0.030227147,0.055687908,-0.12481138,-0.37473032,-0.32814947,0.05992128,-3.0785463,0.6250131,-0.00026595988,-0.043471593,0.00027648406,0.0032586514,-0.0030693812,0.0049782414,-0.0043081013,0.4463004,-1.4677849,2.0061905,-2.1074479,-1.5706018,2.4213035,-0.04018083,0.067313455,-0.083954886,0.010820901,0.00045636957,-0.03581599,-0.36391866,0.2681506,-9.251195,0.8112748,47.67345,-0.7327312,-1.858541,-3.1074944,-0.35079774,0.1060622,-0.13307574,26.25,27.1875,26.25,29.375,30.5,31.0
0.09205231,-1.8340675,-1.8136647,-1.2367799,-0.028930875,0.033334486,-0.12277106,-0.3748042,-0.32813162,0.059912585,-3.0784905,0.6251172,-0.00027504406,-0.043265633,0.0010217476,0.0017524345,-0.0017780124,0.002343886,-0.0053768726,0.4462161,-1.4676524,2.0060594,-2.107424,-1.5706257,2.4212914,-0.041365728,0.06956374,-0.08290128,0.010450014,0.0004292553,-0.035932265,-0.28730422,0.28730422,-9.404425,0.6971306,47.689575,-0.7605406,-1.8621371,-3.3701634,-0.35095257,0.08586698,-0.1537689,26.25,27.1875,26.25,29.375,30.5,31.0
0.09405166,-0.7337832,-1.8262048,-1.1049918,-0.040594567,0.060099207,-0.13341387,-0.37489513,-0.32812175,0.059922088,-3.078498,0.62506163,-0.00022141244,-0.0458327,0.00083018903,0.0028382041,-0.0029898756,0.004822981,-0.0068765217,0.4461314,-1.467532,2.0059025,-2.1074126,-1.5706495,2.4211712,-0.0433247,0.07124858,-0.08722243,0.010326054,0.00044438703,-0.03638875,-0.30645782,0.2681506,-9.404425,0.7866488,47.657326,-0.6860696,-1.8491614,-3.3201308,-0.3482333,0.0921306,-0.1654686,26.25,27.1875,26.25,29.375,30.5,31.0
0.0960525,-1.2842754,-1.7956976,-0.954762,-0.037679233,0.05414479,-0.13749434,-0.37499297,-0.32813308,0.059948113,-3.0785506,0.62514836,-0.00023557748,-0.045479797,0.00076789514,0.0018576802,-0.0021477304,0.0030967128,-0.0058751674,0.4460236,-1.4674116,2.0056994,-2.1073644,-1.5705894,2.4211109,-0.042865064,0.0731762,-0.08706627,0.010165227,0.00043099167,-0.03693019,-0.22984336,0.28730422,-9.3661175,0.83365434,47.67793,-0.6851438,-1.9176967,-3.2456994,-0.3377732,0.09389868,-0.17562756,26.25,27.1875,26.25,29.375,30.5,31.0
0.09805245,-0.83521616,-1.0894787,-1.2264721,-0.038959228,0.057359725,-0.13279614,-0.37508786,-0.32812086,0.05993896,-3.0784836,0.6251539,-0.00018320562,-0.04666236,0.00025311785,0.002098552,-0.0023851674,0.0035299321,-0.0051667904,0.4459635,-1.4672312,2.0055192,-2.107352,-1.5706614,2.421063,-0.042971537,0.075401165,-0.0901651,0.010543015,0.00045217882,-0.037743025,-0.21068975,0.3256114,-9.442732,0.8560339,47.70211,-0.7850091,-1.9170774,-3.2097015,-0.34961528,0.08971658,-0.18409777,26.25,27.1875,26.25,29.375,30.5,31.0
0.10005242,-0.69120467,-1.04576,-0.9759783,-0.03232896,0.055865884,-0.1448602,-0.37518626,-0.3281338,0.059942666,-3.0785196,0.62510455,-0.00016269508,-0.048061825,0.00069659256,0.0019192448,-0.0024401967,0.003642461,-0.006595877,0.44589072,-1.4670628,2.0053256,-2.1073525,-1.5706495,2.420955,-0.045052614,0.07732742,-0.0917878,0.010114622,0.0004499958,-0.038393635,-0.11492168,0.2681506,-9.3661175,0.8157518,47.72092,-0.7043708,-1.9545398,-3.2059302,-0.3360535,0.08464689,-0.20574228,26.25,27.1875,26.25,29.375,30.5,31.0
0.10205208,-0.96654236,-1.1203063,-1.1438936,-0.030291244,0.031264257,-0.13707367,-0.375293,-0.328121,0.05996111,-3.0785222,0.6252011,-0.00011796018,-0.04951317,0.000507536,0.0022911609,-0.0029584365,0.0046291677,-0.007092703,0.44577038,-1.4669424,2.0051453,-2.1073287,-1.5706495,2.4208946,-0.046016674,0.078988045,-0.09445039,0.010002747,0.0004880693,-0.038859062,-0.15322891,0.3256114,-9.346964,0.74413085,47.71554,-0.6984713,-1.9045165,-3.1076994,-0.32347006,0.08030261,-0.20710787,26.25,27.1875,26.25,29.375,30.5,31.0
0.10405205,-0.72612786,-1.3277459,-1.1574539,-0.026966969,0.02504297,-0.13274072,-0.37538412,-0.32812867,0.05996449,-3.078538,0.6251842,-0.00015620182,-0.05032309,0.00037383562,0.0024499942,-0.003058419,0.0047624833,-0.0058435,0.44568628,-1.4667743,2.0049417,-2.107281,-1.5706257,2.420798,-0.04650239,0.08028929,-0.096361086,0.010449496,0.0005173852,-0.040592853,-0.15322891,0.2681506,-9.232041,0.7105615,47.687782,-0.68563896,-1.9399285,-3.1851745,-0.33356637,0.09393147,-0.24663413,26.25,27.1875,26.25,29.375,30.5,31.0
0.106052175,-0.94041157,-1.5628949,-1.2906413,-0.022292376,0.027884835,-0.12492308,-0.37550765,-0.3281197,0.059969924,-3.0785499,0.6252236,-8.5432184e-05,-0.051095035,0.00030626435,0.002063037,-0.002902814,0.004385798,-0.004170055,0.445566,-1.4666061,2.0047495,-2.1073048,-1.5706376,2.420701,-0.04706674,0.082491204,-0.09783791,0.010130641,0.00053769734,-0.042829372,-0.19153613,0.17238252,-9.251195,0.7709874,47.71017,-0.74912274,-1.8270986,-3.1383548,-0.32472098,0.10505539,-0.24250662,26.25,27.1875,26.25,29.375,30.5,31.0
0.10805209,-1.161137,-1.4559083,-1.1813579,-0.025968695,0.028631657,-0.121944055,-0.3756144,-0.3281349,0.059982937,-3.0785716,0.62524736,-9.4883755e-05,-0.05186654,6.753933e-05,0.002257889,-0.0030086858,0.004286884,-0.0046823295,0.44548202,-1.4664258,2.0045102,-2.1072567,-1.5706137,2.4206293,-0.04739057,0.08393864,-0.100084335,0.01097389,0.00067392125,-0.042639855,-0.17238252,0.19153613,-9.308656,0.80679786,47.707485,-0.8008015,-2.0631995,-3.1381893,-0.3195327,0.10995798,-0.24319498,26.25,27.1875,26.25,29.375,30.5,31.0
0.110051945,-1.0539957,-1.7740698,-1.263749,-0.015682619,0.040237114,-0.12161485,-0.37570924,-0.3281251,0.059973013,-3.0785415,0.62527984,-0.00011371159,-0.052273296,1.7514085e-05,0.0028015038,-0.0036570507,0.005257612,-0.005523078,0.44538578,-1.4662464,2.00433,-2.1072323,-1.5706252,2.4205573,-0.047758278,0.083288126,-0.100639865,0.011023654,0.00083934487,-0.042166926,-0.11492168,0.2681506,-9.385271,0.7463667,47.694054,-0.79465115,-1.7651694,-3.2520146,-0.33763838,0.101756975,-0.28099272,26.25,27.1875,26.25,29.375,30.5,31.0
0.11205173,-1.0692149,-1.5513035,-1.1704768,-0.025298692,0.045546576,-0.13092978,-0.3757819,-0.32810456,0.059955083,-3.0784996,0.6252512,-0.00018071664,-0.052797314,-7.6091084e-05,0.0004270221,-0.0017973725,0.0013034956,-0.00387895,0.44528976,-1.4660883,2.004186,-2.1071842,-1.5706371,2.4204488,-0.048057333,0.090072095,-0.102571815,0.010540469,0.0008564401,-0.04410786,-0.15322891,0.2681506,-9.404425,0.7709874,47.71554,-0.8130245,-2.1335983,-3.175364,-0.31100538,0.100679055,-0.29826045,26.25,27.1875,26.25,29.375,30.5,31.0
0.11405233,-1.2746065,-1.5822418,-1.2560014,-0.027586877,0.040372685,-0.124727674,-0.37593362,-0.32812855,0.059987865,-3.0785398,0.6252966,-5.0015533e-05,-0.053008366,-0.00022028426,0.0013786707,-0.0026572833,0.0030606051,-0.0027050148,0.445206,-1.4658854,2.0038874,-2.1071842,-1.570649,2.4203885,-0.04796964,0.088239916,-0.10276777,0.010611822,0.0008798049,-0.045194294,-0.076614454,0.22984336,-9.385271,0.82022345,47.705692,-0.9661559,-1.8171681,-3.3394887,-0.33005688,0.10551223,-0.30133778,26.25,27.1875,26.25,29.375,30.5,31.0
0.116052434,-1.1168175,-1.4026748,-1.2636722,-0.028318565,0.037177376,-0.13361593,-0.3760378,-0.32813767,0.05999475,-3.0785713,0.625265,-3.104215e-05,-0.054464765,0.00015445967,0.00045286413,-0.0025135828,0.0019154801,-0.0033899671,0.4451211,-1.4657164,2.0036829,-2.1071732,-1.5706371,2.42028,-0.05020998,0.092010744,-0.10462818,0.009795978,0.0012386015,-0.046748333,0.038307227,0.15322891,-9.3661175,0.779936,47.72719,-0.8191973,-2.0076902,-3.305543,-0.31491435,0.092381194,-0.31528074,26.25,27.1875,26.25,29.375,30.5,31.0
0.11805223,-0.748577,-1.0497878,-1.0239584,-0.024063589,0.03076437,-0.12806244,-0.376136,-0.32812765,0.05998145,-3.078557,0.62530077,-4.6624995e-05,-0.054233544,-0.0008522801,0.00011518786,-0.0024423667,0.0015358648,-0.0030382704,0.44501385,-1.4655359,2.0035145,-2.1071732,-1.5706371,2.420197,-0.048163276,0.093789,-0.10576965,0.009532517,0.0013346513,-0.0450525,-0.05746084,0.21068975,-9.346964,0.7777002,47.66271,-0.96981883,-2.0527735,-3.319239,-0.30597335,0.09752436,-0.35790163,26.25,27.1875,26.25,29.375,30.5,31.0
0.120051935,-0.82869875,-1.1065702,-1.2341132,-0.0154973455,0.019055609,-0.12826072,-0.3762613,-0.3281259,0.059977133,-3.0785515,0.6253183,-2.0584654e-05,-0.05622612,-0.0016389656,0.00088905444,-0.0034991936,0.0035756787,-0.0038302387,0.44490573,-1.4653196,2.0032861,-2.1071732,-1.570649,2.4201007,-0.04850725,0.09605771,-0.109981686,0.009179224,0.0014018178,-0.044601694,-0.076614454,0.21068975,-9.385271,0.6948948,47.70032,-1.0921952,-2.1116254,-3.275323,-0.2968576,0.09449826,-0.40545684,26.25,27.1875,26.25,29.375,30.5,31.0
0.12205176,-0.22978316,-0.8159959,-1.4265488,-0.013174188,0.03306581,-0.13960277,-0.37636003,-0.3281476,0.059994698,-3.0785787,0.6253617,-4.1086234e-05,-0.055787902,-0.00087962067,8.421461e-05,-0.0026717724,0.0019601823,-0.0024876748,0.44483337,-1.4651518,2.0030472,-2.1071131,-1.5706133,2.420052,-0.049486984,0.09629256,-0.10841479,0.009193487,0.0013540101,-0.046924826,-0.038307227,0.095768064,-9.385271,0.7911258,47.701214,-1.0645467,-1.990655,-3.4189792,-0.2839494,0.0863239,-0.42184347,26.25,27.1875,26.25,29.375,30.5,31.0
0.12405209,-1.0024437,-0.94392943,-1.2971927,-0.0083874455,0.013756694,-0.12374501,-0.37651145,-0.32812804,0.060014978,-3.0785964,0.6254033,7.295033e-05,-0.05797735,-0.0008838697,0.00057805935,-0.00317444,0.0030119116,-0.002285334,0.44467664,-1.4649832,2.0028179,-2.1071255,-1.5706371,2.4199193,-0.051418785,0.09877681,-0.11236887,0.009496533,0.0013514843,-0.04905626,-0.019153614,0.13407528,-9.404425,0.800085,47.704796,-1.0873065,-2.0866365,-3.3419347,-0.2740692,0.10405606,-0.43885058,26.25,27.1875,26.25,29.375,30.5,31.0
0.1260519,-0.38431904,-0.7306051,-1.1655205,-0.030257901,0.036850583,-0.13584305,-0.37660578,-0.32814783,0.060010202,-3.078604,0.62528837,3.9895036e-05,-0.057357058,-0.0006865238,-0.00022405051,-0.0021167898,0.0010097517,-0.00016567559,0.44462878,-1.4647675,2.00258,-2.1070774,-1.5706371,2.4197989,-0.051155422,0.09981165,-0.111855835,0.01021128,0.0012593527,-0.05091284,-0.019153614,0.24899697,-9.385271,0.8224646,47.696735,-1.0688615,-1.9640346,-3.5053933,-0.28596172,0.09784426,-0.42652306,26.25,27.1875,26.25,29.375,30.5,31.0
0.1280517,-0.7416717,-1.2066795,-1.1187673,-0.02996233,0.036539186,-0.12872083,-0.3767158,-0.32814732,0.059996508,-3.0785851,0.6253216,-1.6986154e-05,-0.05782175,-0.0008992054,0.00021018152,-0.0023360017,0.0015637379,0.0019114128,0.44452086,-1.4645398,2.002352,-2.1070411,-1.5706252,2.4197142,-0.05112452,0.100026295,-0.113241136,0.010788247,0.001215555,-0.052958366,0.0,0.28730422,-9.308657,0.8179876,47.682407,-1.1970394,-2.022631,-3.5121586,-0.27690744,0.08637394,-0.44406182,26.25,27.1875,26.25,29.375,30.5,31.0
0.13005187,-0.5173257,-0.9477744,-1.1901314,-0.03789365,0.044542875,-0.13990499,-0.37686297,-0.32814288,0.060013223,-3.0786188,0.625366,9.967595e-05,-0.0589255,-0.00049174577,0.00055881904,-0.0026446774,0.0020403862,0.0034441254,0.4443883,-1.46436,2.0021236,-2.107077,-1.5706371,2.4196053,-0.052903157,0.10052751,-0.11469928,0.0111810425,0.0012918786,-0.056268938,0.038307227,0.17238253,-9.308657,0.7978386,47.66808,-1.1087962,-1.8013585,-3.5586061,-0.27941993,0.09062083,-0.4563353,26.25,27.1875,26.25,29.375,30.5,31.0
0.13205162,-0.9694246,-1.3397882,-1.3945179,-0.021513514,0.033294924,-0.12928203,-0.37696978,-0.32814917,0.060007766,-3.07863,0.6253463,1.9979301e-05,-0.059949987,-0.00055879954,6.18646e-05,-0.002405683,0.00081637665,0.0057849656,0.44428003,-1.464143,2.0018833,-2.1070173,-1.5706013,2.4194834,-0.05388253,0.10372402,-0.11723226,0.0117262425,0.0015961474,-0.059587866,-0.019153614,0.17238252,-9.3661175,0.8247004,47.678825,-1.1422417,-2.0330348,-3.4832463,-0.2888463,0.08360013,-0.4229898,26.25,27.1875,26.25,29.375,30.5,31.0
0.13405181,-1.0921823,-1.2874634,-1.349845,-0.020978857,0.022074006,-0.1268003,-0.37711215,-0.32815737,0.06003078,-3.0786698,0.62527627,0.0001330561,-0.06194531,-0.0009602111,0.0013291998,-0.003876137,0.003662062,0.008704796,0.4441836,-1.4639515,2.001619,-2.1070173,-1.5706252,2.4193385,-0.054964855,0.104221985,-0.1206354,0.011427972,0.0016977406,-0.063587934,-0.05746084,0.19153613,-9.423578,0.8224646,47.70032,-1.1981685,-1.78952,-3.5663643,-0.27218324,0.0722344,-0.41358376,26.25,27.1875,26.25,29.375,30.5,31.0
0.13605163,-1.0365431,-1.2444718,-1.2565478,-0.015218831,0.02249138,-0.13305917,-0.37721384,-0.328155,0.060017817,-3.0786777,0.62527585,5.2072188e-05,-0.062475957,-0.0008755065,0.00040189092,-0.0037193447,0.0018842814,0.011636324,0.44406316,-1.4637465,2.0014145,-2.106981,-1.5705885,2.4192169,-0.055994064,0.10711182,-0.12168179,0.011257332,0.0023155187,-0.06754857,-0.19153614,0.21068975,-9.385271,0.7642693,47.677036,-1.1261866,-1.8932545,-3.4912047,-0.25939906,0.08277286,-0.36884415,26.25,27.1875,26.25,29.375,30.5,31.0
0.13805248,-1.151149,-1.0469897,-1.4803516,-0.01570982,0.028958019,-0.12675366,-0.37733966,-0.32815072,0.06002043,-3.0786653,0.6251954,8.689353e-05,-0.06476196,-0.0009979963,0.001622185,-0.0048111607,0.00447164,0.013757452,0.44396663,-1.4635308,2.0011623,-2.1069453,-1.5706247,2.419072,-0.057701346,0.108034424,-0.1255488,0.011394147,0.002182571,-0.07137446,-0.2681506,0.24899697,-9.423578,0.80456203,47.683304,-1.1211003,-1.8706372,-3.3799858,-0.2634681,0.08446891,-0.33094138,26.25,27.1875,26.25,29.375,30.5,31.0
0.14005229,-1.4370006,-1.3884696,-1.5615181,-0.015613645,0.03710931,-0.12572086,-0.37745348,-0.32815412,0.060008764,-3.0786734,0.625156,-8.375587e-06,-0.06558233,-0.0010736873,0.0019637197,-0.0050368584,0.0047510657,0.016439361,0.44384646,-1.4632909,2.0009105,-2.1068852,-1.5705885,2.4189262,-0.058322664,0.10890553,-0.12748101,0.0121083865,0.002261005,-0.0746769,-0.21068975,0.2681506,-9.404425,0.784413,47.67166,-1.1469307,-1.7599264,-3.3943129,-0.25468978,0.07584295,-0.27837303,26.25,27.1875,26.25,29.375,30.5,31.0
0.14205211,-2.2052352,-1.6562899,-1.5755473,-0.026915066,0.040072557,-0.11583496,-0.37758788,-0.32815206,0.060020085,-3.0787122,0.625124,2.5493056e-05,-0.066919535,-0.0010813484,0.002670107,-0.0054428573,0.0057545453,0.01877006,0.44371408,-1.4630989,2.0006697,-2.1068728,-1.5705765,2.4187691,-0.059433784,0.10969315,-0.13017781,0.012938266,0.00219653,-0.07811712,-0.30645782,0.24899697,-9.481039,0.7665104,47.682407,-1.137776,-1.7717283,-3.3607998,-0.25766876,0.06424144,-0.22941436,26.25,27.1875,26.25,29.375,30.5,31.0
0.14405231,-2.1657324,-1.8674563,-1.4813429,-0.038078822,0.052959684,-0.1261373,-0.37772617,-0.328156,0.060022056,-3.0787246,0.6250502,4.978235e-05,-0.06763405,-0.0007671104,0.002317321,-0.005047219,0.0049536335,0.019189319,0.44360554,-1.4628588,2.0003946,-2.1068485,-1.5705885,2.4186132,-0.060625266,0.11146145,-0.1314345,0.0133191645,0.002182755,-0.079726964,-0.47884035,0.30645782,-9.634268,0.800085,47.677036,-1.1425427,-1.6641529,-3.4031677,-0.2523274,0.07946646,-0.19269939,26.25,27.1875,26.25,29.375,30.5,31.0
0.14605258,-2.2069757,-1.8422809,-1.5934862,-0.049950358,0.065119535,-0.13125925,-0.37785015,-0.32815343,0.06001707,-3.0787368,0.6250135,-4.296081e-06,-0.06835522,-0.0011477903,0.002153875,-0.0049315826,0.003934645,0.020014258,0.44347367,-1.4626305,2.0001428,-2.1068003,-1.5705646,2.418457,-0.060752593,0.11401996,-0.13417345,0.014470671,0.002511176,-0.08067815,-0.45968673,0.38307226,-9.634268,0.8179876,47.667187,-1.2702829,-1.7438574,-3.352643,-0.26803875,0.07122741,-0.17931509,26.25,27.1875,26.25,29.375,30.5,31.0
0.14805217,-2.2771506,-2.040493,-1.5739838,-0.043567862,0.071055844,-0.12551042,-0.37797394,-0.32814148,0.060006306,-3.0787137,0.6248752,-1.5605146e-05,-0.06978673,-0.00061308447,0.0019378142,-0.0052985633,0.004176474,0.016765881,0.44336486,-1.4623904,1.9998916,-2.106753,-1.5706009,2.418265,-0.06315584,0.1157264,-0.13539253,0.013604112,0.0027321354,-0.079832286,-0.49799395,0.36391866,-9.595961,0.85155696,47.689575,-1.193254,-1.7051585,-3.3746285,-0.2600797,0.069311745,-0.15481175,26.25,27.1875,26.25,29.375,30.5,31.0
0.15005198,-2.0249932,-1.8404647,-1.6228256,-0.04256172,0.07207215,-0.13593128,-0.3781449,-0.328161,0.06005514,-3.0788097,0.6248963,0.00012508269,-0.07101695,-0.0002692931,0.0017397578,-0.0051803193,0.0042395676,0.013874806,0.4432321,-1.4622098,1.9995803,-2.106753,-1.5705765,2.4181335,-0.06477719,0.117645964,-0.137008,0.013296635,0.0026052683,-0.07856074,-0.4213795,0.30645782,-9.634268,0.7866488,47.69763,-1.1778107,-1.8017956,-3.3663607,-0.26176462,0.05206179,-0.1447793,26.25,27.1875,26.25,29.375,30.5,31.0
0.15205173,-2.6398344,-2.0469356,-1.607843,-0.028910164,0.047287617,-0.11902967,-0.37830517,-0.32817334,0.060060732,3.0788264,-0.6248044,-0.00015395085,-0.07186302,-1.5351214e-05,0.0005792436,-0.004388146,0.0030289397,0.012147168,0.4431118,-1.4619334,1.9992565,-2.1067293,-1.5705765,2.417954,-0.06584208,0.12115967,-0.13802068,0.012230104,0.0024065685,-0.07789628,-0.5363012,0.3256114,-9.615114,0.79560274,47.683304,-1.1467721,-1.5434368,-3.3949676,-0.26065084,0.06657539,-0.1516029,26.25,27.1875,26.25,29.375,30.5,31.0
0.15405221,-1.7564509,-1.0571831,-1.4547783,-0.040159456,0.064383194,-0.127502,-0.37840062,-0.32816118,0.06002203,-3.0788221,0.6248066,1.7015062e-05,-0.073588446,-0.000299715,0.001203343,-0.0049816133,0.0047845226,0.0065892646,0.44297963,-1.4616933,1.9990743,-2.1067054,-1.5705408,2.4178238,-0.06667131,0.12273167,-0.14115374,0.011954714,0.0021771633,-0.07316539,-0.51714754,0.21068975,-9.5385,0.7150385,47.66539,-1.1550502,-1.6685984,-3.2898068,-0.20656654,0.049928512,-0.16701654,26.25,27.1875,26.25,29.375,30.5,31.0
0.15605216,-1.877462,-1.0945758,-1.3168334,-0.02316578,0.061178107,-0.12575947,-0.37860358,-0.32817438,0.06007022,3.078776,-0.6248,-0.00016336793,-0.075443335,-0.0003823454,0.0013249934,-0.0051885056,0.005415951,0.0010698935,0.44282308,-1.4614526,1.9986924,-2.106681,-1.5705408,2.4176693,-0.068073526,0.12556739,-0.14457853,0.0118854,0.0020951568,-0.06904547,-0.5363012,0.22984336,-9.500193,0.7911258,47.693153,-1.2390659,-1.7536931,-3.4186296,-0.22693077,0.05513031,-0.23655725,26.25,27.1875,26.25,29.375,30.5,31.0
0.15805207,-1.6162755,-1.0936838,-1.3637489,-0.007577975,0.060553316,-0.1292815,-0.37876633,-0.3281642,0.060073737,3.0787847,-0.6248404,-0.0002515743,-0.075808026,9.394309e-05,0.0003659074,-0.0044563785,0.0036177356,-1.999362e-05,0.44269076,-1.4612004,1.9984053,-2.106681,-1.5705885,2.4175613,-0.06932828,0.12787835,-0.14497215,0.011903197,0.0022064657,-0.06920989,-0.40222588,0.21068975,-9.404425,0.8247004,47.691364,-1.1203954,-1.7347772,-3.3570416,-0.18749472,0.047198754,-0.26696953,26.25,27.1875,26.25,29.375,30.5,31.0
0.16005199,-1.7867001,-0.96298903,-1.0894414,-0.015247335,0.055323232,-0.12665579,-0.37892818,-0.32817498,0.06009778,3.0787501,-0.62477726,-0.0003162215,-0.07711088,-1.3760134e-05,0.0006593202,-0.0047373828,0.004226386,-0.002558628,0.44255847,-1.4609722,1.9980925,-2.1066573,-1.5705765,2.4173942,-0.07024654,0.12953763,-0.1475676,0.012170319,0.0021993527,-0.06758774,-0.40222588,0.15322891,-9.385271,0.7777002,47.696735,-1.1208475,-1.7779975,-3.3406549,-0.18268451,0.03938865,-0.26592374,26.25,27.1875,26.25,29.375,30.5,31.0
0.16205178,-1.6955833,-1.134362,-1.0731242,-0.0024365874,0.047947515,-0.12900883,-0.37904924,-0.32818553,0.060070284,3.0787508,-0.62475926,-0.0001949353,-0.07926579,1.947285e-05,0.00044188226,-0.004650219,0.004147934,-0.005241513,0.4424378,-1.4606835,1.9978279,-2.1066215,-1.5705284,2.4172623,-0.07216066,0.1336026,-0.15162809,0.012277834,0.0021422766,-0.06681614,-0.4213795,0.038307227,-9.289502,0.80456203,47.721813,-1.1804199,-1.7279422,-3.2993543,-0.16626723,0.043633565,-0.31146893,26.25,27.1875,26.25,29.375,30.5,31.0
0.16405189,-2.0920663,-0.8726319,-0.9176556,-0.0023802354,0.032477133,-0.12633795,-0.3792489,-0.32818583,0.060094785,3.0786982,-0.6247862,-0.00032379304,-0.07894315,0.0011590588,-0.00016749521,-0.0037434753,0.0024314984,-0.004924558,0.4422691,-1.4604201,1.9974831,-2.1066334,-1.5705413,2.4171174,-0.073903605,0.13329777,-0.1500896,0.012983384,0.0020699669,-0.06887697,-0.45968673,0.17238252,-9.270349,0.7597976,47.692257,-0.9585548,-1.7870505,-3.3437717,-0.15942088,0.04465675,-0.31485412,26.25,27.1875,26.25,29.375,30.5,31.0
0.16605194,-1.88759,-0.7977728,-0.79103756,-0.0040436033,0.04117385,-0.11907908,-0.3793992,-0.3281829,0.06009444,3.0786688,-0.6248369,-0.00029782465,-0.07965169,0.0008737085,-0.0018236899,-0.0019889527,-0.0005766458,-0.003389241,0.4421134,-1.4601659,1.9971942,-2.1065967,-1.570517,2.4169972,-0.07376206,0.13926126,-0.1530342,0.013437248,0.0017667094,-0.070267916,-0.45968673,0.095768064,-9.212888,0.8023209,47.71823,-1.1969551,-2.1140008,-3.207753,-0.16462567,0.046374112,-0.30140635,26.25,27.1875,26.25,29.375,30.5,31.0
0.16805194,-0.98171365,-0.368925,-0.7519071,-0.01827882,0.060276717,-0.13393995,-0.37958974,-0.32818937,0.060116306,3.0786397,-0.6248324,-0.00045286713,-0.08106603,0.0019287012,-0.0012219083,-0.0019962806,5.7871577e-05,-0.006270659,0.44198018,-1.4599029,1.9968585,-2.1066206,-1.5705532,2.416865,-0.07677083,0.1390613,-0.15446635,0.014491389,0.0015081392,-0.070394374,-0.28730422,0.019153614,-9.193734,0.78888994,47.69763,-1.0922378,-1.8930917,-3.3746047,-0.15831707,0.04340446,-0.3301471,26.25,27.1875,26.25,29.375,30.5,31.0
0.17005192,-1.4249939,-0.31880093,-0.78033274,-0.02444426,0.04948736,-0.13534653,-0.37974995,-0.32817572,0.060117483,3.0786288,-0.62481105,-0.00038778863,-0.08220142,0.001959682,-0.0010329859,-0.0021127628,0.0007358356,-0.0073649893,0.44178787,-1.4596388,1.9965471,-2.106549,-1.570517,2.416661,-0.07766381,0.1404041,-0.15640692,0.014430098,0.0013176712,-0.07019157,-0.34476504,0.17238252,-9.212888,0.7978386,47.696735,-0.84484506,-1.8660016,-3.3806307,-0.13335453,0.038478926,-0.36827317,26.25,27.1875,26.25,29.375,30.5,31.0
0.1720516,-1.5545576,-0.8750897,-0.72141767,-0.014800813,0.040875793,-0.13017254,-0.37990385,-0.3281805,0.060106006,3.078638,-0.62484974,-0.00038246033,-0.083057694,0.0019233174,-0.00092706416,-0.0018339657,0.000513069,-0.00531821,0.44166785,-1.4593385,1.9962353,-2.1065247,-1.5705289,2.4165642,-0.0782125,0.1420331,-0.15872511,0.015439827,0.0011582698,-0.07278564,-0.36391866,0.19153614,-9.097966,0.779936,47.672558,-1.033667,-1.8833404,-3.3506248,-0.12532926,0.04135613,-0.35773093,26.25,27.1875,26.25,29.375,30.5,31.0
0.17405224,-1.8359699,-0.9060062,-0.7571143,-0.009633141,0.031536274,-0.11914062,-0.38008606,-0.32816812,0.0601203,3.0786097,-0.62486565,-0.0004012499,-0.08516265,0.0023318178,7.501479e-05,-0.002794031,0.0026655435,-0.009120353,0.44147488,-1.4590753,1.9959,-2.106477,-1.570517,2.416385,-0.08075365,0.1424032,-0.16146912,0.015458787,0.001102357,-0.071522996,-0.28730422,0.076614454,-9.11712,0.83365434,47.701214,-0.9434744,-1.7761458,-3.346671,-0.12924457,0.038441077,-0.39353478,26.25,27.1875,26.25,29.375,30.5625,31.0
0.176052,-1.3200095,-0.5646325,-0.7239155,-0.003611379,0.037929997,-0.13313417,-0.38026652,-0.32816592,0.060129095,3.0786054,-0.62486315,-0.00044124946,-0.085562244,0.0027251956,-0.0003896327,-0.0021210555,0.0016789668,-0.006675934,0.44131848,-1.4587872,1.9955524,-2.1064408,-1.5705289,2.4162278,-0.08167108,0.14386205,-0.16215375,0.015864154,0.0009181104,-0.07488419,-0.30645782,0.17238252,-9.021352,0.77545905,47.71465,-0.9019893,-1.7904699,-3.4052193,-0.110694066,0.047066003,-0.38561866,26.25,27.125,26.25,29.375,30.5625,31.0
0.17805195,-1.2991229,-0.7748789,-0.7653789,0.006270395,0.022267023,-0.13058998,-0.38042852,-0.328153,0.060119472,3.0786026,-0.624878,-0.0004395542,-0.086435154,0.00248102,-0.00041107973,-0.002077884,0.0020077862,-0.0013181369,0.4411506,-1.4585111,1.9952658,-2.1064293,-1.5705289,2.4160697,-0.081822775,0.14566088,-0.16410904,0.015742626,0.00073647517,-0.08039212,-0.24899697,0.15322891,-9.078813,0.72622824,47.694946,-0.9020244,-1.7546511,-3.337521,-0.097757936,0.0492931,-0.3315698,26.25,27.125,26.25,29.375,30.5625,31.0
0.1800526,-1.1706253,-0.5674981,-0.73598176,-0.0037877383,0.033846147,-0.12709504,-0.3806053,-0.32814395,0.06011323,3.078589,-0.6248964,-0.00042677484,-0.08898532,0.0038560324,-0.0010399218,-0.0014591743,0.00066094944,-0.004482496,0.44096887,-1.4582105,1.9949411,-2.1064045,-1.570517,2.4159014,-0.08660319,0.14974895,-0.16740115,0.016429912,0.00074731937,-0.082005925,-0.22984336,0.1340753,-9.136273,0.84708,47.723602,-0.7103617,-1.7834957,-3.3314776,-0.08501673,0.03432734,-0.33225185,26.25,27.125,26.25,29.375,30.5625,31.0
0.1820523,-1.3064568,-1.0912983,-0.8028592,0.002896216,0.0361788,-0.13058965,-0.38076073,-0.32812804,0.060089465,3.0786626,-0.6249261,-0.000356339,-0.089005806,0.0026959202,0.0012361477,-0.0031477753,0.0041841846,0.002636971,0.44082564,-1.4578763,1.9946059,-2.1063206,-1.5705532,2.4157677,-0.08442533,0.14622724,-0.1690403,0.01768092,0.00076522096,-0.08694768,-0.24899697,0.076614454,-9.078813,0.7530795,47.686886,-0.7947333,-1.660273,-3.4486642,-0.079750165,0.03683861,-0.28032935,26.25,27.125,26.25,29.375,30.5625,31.0
0.18405242,-1.1466779,-0.8611972,-1.12145,0.0011812522,0.03729792,-0.12870923,-0.3809386,-0.32812428,0.060092907,3.078652,-0.62484556,-0.0003467408,-0.0898517,0.0037487915,0.0007582213,-0.0023584708,0.0024851817,0.0047851517,0.44064474,-1.457588,1.9942697,-2.106284,-1.5705289,2.415538,-0.087093316,0.14786345,-0.17009772,0.018977828,0.000779874,-0.09176343,-0.17238252,0.15322891,-9.136273,0.7665104,47.7254,-0.8028111,-1.6931005,-3.4292233,-0.09128098,0.05185139,-0.23425281,26.25,27.125,26.25,29.375,30.5625,31.0
0.18605185,-1.236808,-1.2207912,-1.0805339,-0.0024914744,0.04091605,-0.12894744,-0.38113523,-0.32811013,0.060089868,3.0785975,-0.62490964,-0.00036781,-0.090256356,0.0040241284,0.0001703613,-0.0014435989,0.00035159526,0.007904521,0.44042838,-1.4572878,1.9939464,-2.1062958,-1.570505,2.4153688,-0.087963,0.15029554,-0.17187388,0.020644194,0.00086706766,-0.095751695,-0.22984336,0.15322891,-9.2703495,0.8112748,47.70211,-0.598498,-1.6303673,-3.4025435,-0.10266736,0.037038513,-0.18061724,26.25,27.125,26.25,29.375,30.5625,31.0
0.1880526,-1.1596122,-0.7474636,-1.2158933,-0.016429393,0.038268905,-0.13441364,-0.38132024,-0.32811224,0.060094733,3.0786388,-0.6248004,-0.00038965448,-0.091167316,0.0033146117,0.00076108024,-0.001796627,0.0010391448,0.011992564,0.44028452,-1.456964,1.9935621,-2.1062353,-1.5705289,2.4151518,-0.087412156,0.15171766,-0.17508206,0.021655692,0.0008900827,-0.099287234,-0.17238252,0.15322891,-9.289502,0.89631605,47.694946,-0.81291217,-1.6388828,-3.4434714,-0.07850377,0.03280931,-0.10444611,26.25,27.125,26.25,29.375,30.5625,31.0
0.19005238,-1.1398971,-0.81410044,-1.2570999,-0.010815468,0.04128858,-0.12534346,-0.38149834,-0.3280871,0.060082044,3.078632,-0.62483674,-0.00029260764,-0.09094206,0.0039108507,-4.341019e-05,-0.0009659785,-0.00071524177,0.011797511,0.4400563,-1.4566523,1.9932288,-2.1061637,-1.5704931,2.4149473,-0.08826033,0.15265183,-0.17439765,0.021982132,0.00088368385,-0.09994082,-0.21068975,0.19153613,-9.346964,0.784413,47.686886,-0.7566718,-1.5204828,-3.5167,-0.093800575,0.036832318,-0.071107484,26.25,27.125,26.25,29.375,30.5625,31.0
0.19205229,-1.6492397,-1.0398122,-1.5824093,-0.015553132,0.03608702,-0.122361004,-0.3816817,-0.32807305,0.060079,3.078677,-0.6248084,-0.00033685405,-0.09196896,0.0034889518,0.00034680817,-0.001220866,-8.880734e-05,0.010181522,0.4399003,-1.45634,1.9928807,-2.1061275,-1.5705413,2.4147682,-0.08830318,0.1541802,-0.1771607,0.022537062,0.0008424007,-0.09836606,-0.2681506,0.24899697,-9.519346,0.86498255,47.7245,-0.7921549,-1.6771407,-3.480707,-0.09232421,0.038772915,-0.058486685,26.25,27.125,26.25,29.375,30.5625,31.0
0.19405252,-1.5670503,-1.9631109,-1.771443,-0.017908722,0.039049633,-0.11722675,-0.38187504,-0.3280725,0.060093533,3.0786247,-0.62483776,-0.00030434268,-0.09235682,0.0032458059,-0.0012026151,0.0003251625,-0.0032778697,0.0077773565,0.43969634,-1.4560388,1.9924964,-2.106055,-1.5704931,2.4145894,-0.08810546,0.1593705,-0.17960726,0.023342215,0.0007978982,-0.09576221,-0.15322891,0.28730422,-9.653421,0.7642693,47.703007,-0.8941755,-1.8079033,-3.4059136,-0.11042115,0.042192593,-0.07122222,26.25,27.125,26.25,29.375,30.5625,31.0
0.19605234,-1.7165265,-2.1763368,-1.9558556,-0.031358562,0.035936523,-0.11460007,-0.3820417,-0.32806784,0.060075823,3.0786679,-0.62477064,-0.00024176047,-0.09286036,0.0029153342,-0.0011792379,0.00040692042,-0.0034371845,0.004958292,0.43954057,-1.455703,1.9921502,-2.1059954,-1.5704931,2.4143865,-0.08787576,0.16082564,-0.1814611,0.023920015,0.0007831457,-0.09271244,-0.15322891,0.24899697,-9.691729,0.7329411,47.66091,-0.94096804,-1.7231121,-3.455343,-0.103909396,0.04662361,-0.082654834,26.25,27.125,26.25,29.375,30.5625,31.0
0.1980521,-0.9584993,-1.962233,-1.9834455,-0.055798866,0.04439793,-0.12637712,-0.38224092,-0.32805908,0.060087,3.0786812,-0.62477523,-0.0003045304,-0.09322653,0.0029420273,-0.0026745372,0.0016536643,-0.0061118975,0.0013080594,0.43937245,-1.4553903,1.9917663,-2.1059477,-1.5705289,2.4142199,-0.08819923,0.16513667,-0.18289362,0.02398938,0.00079045247,-0.08938429,-0.1340753,0.24899697,-9.672575,0.77545905,47.692257,-1.0041275,-1.8510095,-3.5094228,-0.11136231,0.04789274,-0.12332304,26.25,27.125,26.25,29.375,30.5625,31.0
0.20005187,-0.7649312,-2.3468146,-1.9923797,-0.06168083,0.048448313,-0.123762466,-0.3824432,-0.32805154,0.06009835,3.0786664,-0.6247746,-0.00033376386,-0.09436763,0.0027434954,-0.002957913,0.0016977086,-0.006047443,-0.0025606626,0.43918023,-1.4550779,1.991382,-2.1058996,-1.5705289,2.4140294,-0.08872601,0.16780145,-0.1851561,0.023547966,0.00071732415,-0.08604052,-0.076614454,0.2681506,-9.710882,0.78217715,47.68062,-1.0899796,-1.9776707,-3.4501863,-0.10308798,0.053055182,-0.1554938,26.25,27.125,26.25,29.375,30.5625,31.0
0.20205161,-0.85064054,-1.9446232,-1.7053345,-0.05753451,0.025882356,-0.12531647,-0.38260183,-0.3280384,0.06007503,3.0787048,-0.62474465,-0.00029797934,-0.095307805,0.0026335702,-0.003018494,0.0014727851,-0.005610384,-0.0058478904,0.43902424,-1.4547659,1.991083,-2.1058753,-1.5705413,2.41385,-0.0893065,0.16940036,-0.18672732,0.023028161,0.00072576606,-0.08333265,-0.05746084,0.30645782,-9.768343,0.7732232,47.73077,-1.0373411,-1.9344006,-3.4735026,-0.09062095,0.052363418,-0.21478248,26.25,27.125,26.25,29.375,30.5625,31.0
0.2040524,-0.39075464,-2.0247216,-1.8122689,-0.044010885,0.019629776,-0.12084784,-0.38281795,-0.32803282,0.060070734,3.0787177,-0.62476605,-0.0002933367,-0.096367165,0.0025153775,-0.0028121388,0.001110489,-0.0047040987,-0.006220706,0.43883196,-1.4543822,1.9906524,-2.1058161,-1.5705537,2.4136698,-0.08991122,0.17060244,-0.188509,0.022632882,0.00066184934,-0.08356331,-0.019153614,0.40222588,-9.595961,0.8179876,47.666286,-1.062082,-2.0003228,-3.413413,-0.08389616,0.05700069,-0.24256705,26.25,27.125,26.25,29.375,30.5625,31.0
0.20605221,-0.7200083,-1.7391291,-1.6916276,-0.044531625,0.0076489793,-0.11975442,-0.3829975,-0.3280338,0.060059913,3.078691,-0.6248204,-0.00022865391,-0.09799726,0.0022986268,-0.0020823514,0.00032045736,-0.0030437424,-0.009301821,0.43865165,-1.4540465,1.9902929,-2.1057684,-1.5705174,2.413527,-0.09088301,0.17173734,-0.1915026,0.022656078,0.00066225894,-0.08145225,-0.019153614,0.40222588,-9.519346,0.7732232,47.694054,-1.0086441,-1.7793819,-3.4147406,-0.08454648,0.051253155,-0.26824,26.25,27.125,26.25,29.375,30.5625,31.0
0.20805189,-0.47247967,-2.0149848,-1.7604384,-0.035338357,0.014846648,-0.1256602,-0.38320994,-0.3280459,0.06006981,3.078632,-0.6248292,-0.00028176417,-0.099111795,0.0018531268,-0.0010202767,-0.00077369774,-0.0006233201,-0.01121634,0.4384716,-1.4537113,1.9898971,-2.1057684,-1.5704936,2.41336,-0.09094241,0.17140895,-0.19356252,0.02239064,0.0006241838,-0.07959599,-0.05746084,0.47884035,-9.595961,0.784413,47.703903,-1.088838,-1.8439521,-3.4087076,-0.06348975,0.06472926,-0.32406604,26.25,27.125,26.25,29.375,30.5625,31.0
0.21005248,-0.8027322,-1.9073248,-1.6416126,-0.05196581,0.023984795,-0.120743595,-0.38341096,-0.32804185,0.060097095,3.078638,-0.62482774,-0.00033148492,-0.09926379,0.0022044582,-0.0017967123,4.7581267e-05,-0.002473659,-0.009576243,0.4383034,-1.453411,1.9894785,-2.1056721,-1.5705174,2.4131906,-0.091699205,0.17336422,-0.19416347,0.023058522,0.00066843675,-0.08199255,0.095768064,0.47884035,-9.481039,0.83365434,47.709274,-1.0303105,-1.9376743,-3.5294704,-0.059492204,0.07039097,-0.33459368,26.25,27.125,26.25,29.375,30.5625,31.0
0.21205224,-0.41195592,-1.9133468,-1.5865753,-0.061831642,0.034380466,-0.13406275,-0.38362014,-0.3280326,0.060092192,3.0786638,-0.6248565,-0.0003898455,-0.10028383,0.003254011,-0.0026951444,0.0009100942,-0.0044564693,-0.016313605,0.43813437,-1.4530507,1.9890832,-2.1056483,-1.5705651,2.4130366,-0.094521925,0.1760244,-0.19526729,0.023659797,0.0007269837,-0.07807721,0.019153614,0.4213795,-9.5385,0.88960326,47.768383,-1.0337185,-1.8572736,-3.4636276,-0.06946539,0.060476065,-0.4239944,26.25,27.125,26.25,29.375,30.5625,31.0
0.2140522,-1.2839603,-2.3313828,-1.3999399,-0.055178173,0.026363922,-0.12575617,-0.38383198,-0.32802764,0.060088832,3.0786388,-0.6249643,-0.00036262826,-0.100876,0.0017173912,-0.0012474697,-0.00036074652,-0.0018483421,-0.012693931,0.4379314,-1.4526795,1.9886636,-2.1055877,-1.5705532,2.4129043,-0.092142984,0.17574781,-0.19846632,0.024235548,0.00076481956,-0.07931653,-0.076614454,0.34476504,-9.442732,0.8157518,47.707485,-1.1653063,-1.8145936,-3.5236888,-0.06621163,0.07444172,-0.47011787,26.25,27.125,26.25,29.375,30.5625,31.0
0.21605198,-0.95702505,-1.6206912,-1.2107571,-0.048556525,0.038177907,-0.122280955,-0.38402122,-0.3280435,0.06008063,3.0786164,-0.624842,-0.00033198702,-0.10247314,0.0015363395,-0.00029578753,-0.0018498014,-0.0003622286,-0.010936396,0.4377629,-1.4523317,1.9882921,-2.1055763,-1.570505,2.4126625,-0.09361971,0.17625858,-0.20136687,0.024649732,0.001479834,-0.082550146,-0.095768064,0.30645782,-9.385271,0.9254084,47.69763,-1.2412446,-1.8100475,-3.4893236,-0.059504986,0.073166505,-0.47229964,26.25,27.125,26.25,29.375,30.5625,31.0
0.21805161,-0.91917425,-0.46067804,-1.1773785,-0.039097328,0.037708927,-0.12712246,-0.3842413,-0.32802212,0.060086094,3.0786028,-0.62493324,-0.0003827945,-0.10375801,0.0015506385,-0.0002892573,-0.0020641438,-6.8758895e-06,-0.007415308,0.43754634,-1.4519956,1.9878968,-2.10554,-1.5705289,2.412505,-0.09472681,0.17823818,-0.20361075,0.024499718,0.0015217104,-0.08717686,-0.038307227,0.17238252,-9.289502,0.9298854,47.688675,-1.0347657,-1.7772207,-3.5257902,-0.042513296,0.083403505,-0.46525648,26.25,27.125,26.25,29.375,30.5625,31.0
0.22005232,-0.6780069,-0.55599815,-1.2805587,0.005958688,0.04004081,-0.12957455,-0.3844213,-0.32804012,0.060074452,3.0785816,-0.6249064,-0.00030942893,-0.10540286,0.0010111898,0.00063317525,-0.0036202138,0.0020438258,-0.0018910026,0.43739018,-1.4516363,1.987512,-2.1054928,-1.5704807,2.412335,-0.09545926,0.17912236,-0.20669822,0.024189278,0.0020553838,-0.09343246,-0.019153614,0.21068975,-9.232041,0.9186956,47.693153,-1.1767007,-1.5487515,-3.4402046,-0.02085542,0.052234724,-0.40475565,26.25,27.125,26.25,29.375,30.5625,31.0
0.22205222,-0.74702287,0.0049394635,-1.1303197,0.010889924,0.034535915,-0.1245439,-0.38465798,-0.32803947,0.06009512,3.0785258,-0.62495106,-0.00037153251,-0.10682652,0.0008594496,0.0011159679,-0.004350396,0.0027336972,0.0010765466,0.4371738,-1.4512886,1.9870685,-2.105456,-1.5704683,2.4121537,-0.096590534,0.18059711,-0.20962508,0.024707979,0.0024274,-0.09752998,-0.076614454,0.076614454,-9.174581,0.8179876,47.694054,-1.1846592,-1.5219672,-3.2909114,-0.023233213,0.057232976,-0.39875114,26.25,27.125,26.25,29.375,30.5625,31.0
0.2240521,-0.76749665,0.19940744,-1.2382063,0.017088873,0.029501753,-0.13193099,-0.38487026,-0.32803807,0.060090628,3.07857,-0.6248183,-0.00036700122,-0.1076621,0.0006735905,0.0015112977,-0.00447084,0.0031600648,0.0106061995,0.4369939,-1.4509047,1.986637,-2.105396,-1.5704807,2.4118857,-0.0968593,0.18158002,-0.21188432,0.025547316,0.0023560429,-0.10732729,-0.17238252,0.05746084,-9.251195,0.947788,47.70211,-1.2014351,-1.5709367,-3.2553163,-0.0072136945,0.043436922,-0.30577123,26.25,27.125,26.25,29.375,30.5625,31.0
0.22605184,-1.018344,-0.21414147,-1.2594283,0.0111632245,0.037642613,-0.1274386,-0.3850669,-0.32801166,0.0600681,3.0786176,-0.6247902,-0.00034114218,-0.10825866,0.0014708895,0.0009218011,-0.0034877616,0.0009617343,0.0116195455,0.43678907,-1.4505446,1.9862784,-2.1053598,-1.5705045,2.4116576,-0.0988163,0.18362617,-0.21328418,0.027306901,0.0023940392,-0.11029725,-0.24899697,0.019153614,-9.346964,0.84484416,47.698532,-1.0801672,-1.4768112,-3.3411222,-0.01764901,0.057359993,-0.23939957,26.25,27.125,26.25,29.375,30.5625,31.0
0.22805166,-1.2870423,-0.5291182,-1.4237977,-0.0009290285,0.049645875,-0.122371994,-0.38530484,-0.32801586,0.060108144,3.078568,-0.62479603,-0.0003781606,-0.10856928,0.0005230442,0.00035535576,-0.0022628936,-0.0008968075,0.016461538,0.4365738,-1.4502081,1.9857863,-2.1052516,-1.5704812,2.4114525,-0.097038314,0.18769726,-0.21701713,0.029175531,0.0020729483,-0.11335866,-0.30645782,-0.019153614,-9.3661175,0.85155696,47.71823,-1.3334131,-1.6053182,-3.3416126,-0.038383134,0.05313801,-0.21603595,26.25,27.125,26.25,29.375,30.5625,31.0
0.23005243,-1.1322151,-0.5733798,-1.4096886,-0.009700724,0.07410759,-0.1307867,-0.38551453,-0.32803363,0.060103368,3.0785806,-0.62468565,-0.00036355646,-0.11012154,0.0029152553,-0.0017550281,0.00035416428,-0.005761108,0.01225195,0.4364156,-1.449811,1.9853429,-2.1052034,-1.5704688,2.4112241,-0.10255121,0.19292021,-0.21849829,0.030951472,0.0017583983,-0.11466057,-0.47884035,0.019153614,-9.3661175,0.87393653,47.694946,-1.0365301,-1.8135501,-3.2183814,-0.05904428,0.04604138,-0.18449955,26.25,27.125,26.25,29.375,30.5625,31.0
0.23205225,-2.4090252,-0.85718215,-1.4577041,-0.010456653,0.06392131,-0.11587439,-0.38569865,-0.3280106,0.060082503,3.0786443,-0.6246604,-0.00024010467,-0.11026808,0.0019480729,-0.0012332017,0.00020428612,-0.0054078167,0.012779519,0.43621248,-1.4494394,1.984948,-2.1050828,-1.5704688,2.4109974,-0.100800045,0.19371954,-0.2209416,0.032212418,0.0017300237,-0.11343609,-0.4405331,0.05746084,-9.461885,0.7911258,47.65464,-1.2509319,-1.6686484,-3.159863,-0.08157544,0.05390113,-0.1580568,26.25,27.125,26.25,29.375,30.5625,31.0
0.23405215,-1.9791032,-1.0555803,-1.476861,-0.025963547,0.09480654,-0.121107236,-0.3859389,-0.32801503,0.06010133,3.0786264,-0.6245826,-0.00024550338,-0.110807374,0.0030487387,-0.0012484975,0.00059372344,-0.0065334938,0.0066376124,0.4359957,-1.4490561,1.9844574,-2.1049979,-1.570445,2.4107347,-0.10330796,0.19373575,-0.22135733,0.033799183,0.0018555687,-0.10980253,-0.59376204,0.21068975,-9.461885,0.7709874,47.688675,-1.2206771,-1.7238234,-3.3334475,-0.105229095,0.046857513,-0.18042713,26.25,27.125,26.25,29.375,30.5625,31.0
0.23605183,-2.008099,-1.3928334,-1.4846578,-0.027598446,0.10336445,-0.11867001,-0.38615242,-0.3279854,0.06009049,3.0786638,-0.6246514,-0.00023256098,-0.11106083,0.003760841,-0.0012383917,0.0010486178,-0.0078037945,0.0004996017,0.43577912,-1.4486847,1.9840506,-2.1049259,-1.5704812,2.4105566,-0.104851015,0.19388896,-0.22204934,0.035677396,0.0019757343,-0.105207995,-0.7278373,0.22984336,-9.615114,0.7486078,47.703903,-1.1091095,-1.6302304,-3.5382843,-0.13426892,0.04553833,-0.23920165,26.25,27.125,26.25,29.375,30.5625,31.0
0.23805158,-2.3766072,-1.5346704,-1.7230918,-0.0352442,0.08398363,-0.11486292,-0.38636163,-0.32799274,0.060076024,3.0786536,-0.6245931,-0.00017939635,-0.11177179,0.004383304,-0.0016769742,0.0013123264,-0.009162025,-0.004690938,0.4355865,-1.4482884,1.9836324,-2.1048896,-1.5704445,2.410329,-0.10676558,0.195514,-0.22311662,0.036465164,0.0023055223,-0.10193197,-0.6895301,0.19153613,-9.595961,0.8291774,47.705692,-1.1053325,-1.7112287,-3.5234587,-0.16205955,0.051370762,-0.28911242,26.25,27.125,26.25,29.375,30.5625,31.0
0.24005227,-2.687572,-2.1246471,-1.357584,-0.029484145,0.07613762,-0.112065494,-0.3866081,-0.32797182,0.060083717,3.0786695,-0.62465554,-0.00021320223,-0.11372056,0.004906552,-0.0018451897,0.0008912049,-0.007881261,-0.008208391,0.43535775,-1.4478927,1.9831532,-2.1048067,-1.5704807,2.4101377,-0.10922659,0.19763044,-0.22475852,0.034649253,0.0021373003,-0.100873776,-0.68953013,0.17238252,-9.3661175,0.8247004,47.690468,-0.957686,-1.7130945,-3.6212697,-0.16593878,0.03824118,-0.31226218,26.25,27.125,26.25,29.375,30.5625,31.0
0.24205206,-2.0135937,-1.666275,-1.4899627,-0.026980897,0.08298193,-0.1141816,-0.38684875,-0.3279525,0.060095634,3.078616,-0.6247985,-0.00023120739,-0.11533157,0.0048951125,-0.0015939468,0.00069860806,-0.0069632437,-0.008766096,0.43510532,-1.4475329,1.9827098,-2.1047466,-1.5704688,2.4099815,-0.110366225,0.1996658,-0.22767065,0.03461511,0.0019192753,-0.101453595,-0.61291564,0.19153613,-9.346964,0.89631605,47.668976,-0.9230176,-1.6088378,-3.6834188,-0.16213149,0.033013284,-0.33083242,26.25,27.125,26.25,29.375,30.5625,31.0
0.24405181,-1.7971567,-1.5786602,-1.3346109,-0.012403036,0.07797822,-0.123919226,-0.38707057,-0.32796097,0.060078543,3.0786295,-0.62470585,-0.00017680881,-0.11704597,0.004925299,-0.0013127596,0.0005015213,-0.0063202446,-0.010426475,0.4349128,-1.4471009,1.9822544,-2.1046984,-1.570445,2.4097297,-0.11175904,0.20188503,-0.23097788,0.035040207,0.0018170886,-0.101184055,-0.61291564,0.15322891,-9.3661175,0.7911258,47.70211,-0.83447057,-1.6617728,-3.5769095,-0.1932175,0.061684404,-0.35199624,26.25,27.125,26.25,29.375,30.5625,31.0
0.24605255,-1.7821304,-0.9563922,-1.2723695,-0.011847314,0.06472126,-0.11187102,-0.38731778,-0.32796198,0.060092613,3.0785809,-0.6247736,-0.00018447415,-0.11757509,0.004922488,-0.00179727,0.0010578143,-0.00691407,-0.011298046,0.43468478,-1.4467051,1.9817628,-2.104627,-1.5704211,2.4095504,-0.11195028,0.20397167,-0.23228015,0.035032548,0.0015606749,-0.10050248,-0.5746084,0.19153613,-9.232041,0.7418897,47.67345,-0.84932387,-1.7030566,-3.5430079,-0.20766175,0.038900137,-0.38149032,26.25,27.125,26.25,29.375,30.5625,31.0
0.2480524,-1.6685013,-1.0132253,-1.232645,-0.00028857728,0.06024056,-0.1226667,-0.38753283,-0.3279264,0.060052868,3.0786479,-0.6248434,-0.00010880479,-0.11824726,0.004772745,-0.0020951878,0.0017138753,-0.008395733,-0.010750293,0.43445677,-1.4462727,1.9813555,-2.1045659,-1.5704573,2.4093578,-0.11218425,0.20671533,-0.23515618,0.03678197,0.0015769616,-0.101282954,-0.47884035,0.22984336,-9.232041,0.82694155,47.684196,-0.9293333,-1.6978958,-3.4678721,-0.20534758,0.052741308,-0.38317394,26.25,27.125,26.25,29.375,30.5625,31.0
0.25005212,-1.2782966,-0.790315,-1.2664572,-0.0065285093,0.06629031,-0.12239225,-0.38777286,-0.32791954,0.0600651,3.0786054,-0.62485296,-6.372122e-05,-0.11966066,0.0042521893,-0.0009270032,0.00039400448,-0.0063212467,-0.009051627,0.43420467,-1.4458895,1.9808763,-2.1044705,-1.5704092,2.4091172,-0.11255638,0.20696148,-0.23828149,0.0372285,0.0018941964,-0.10335269,-0.38307226,0.19153613,-9.270349,0.9365982,47.72808,-0.98058593,-1.6874192,-3.435473,-0.22805135,0.05103895,-0.4260627,26.25,27.125,26.25,29.375,30.5625,31.0
0.25205192,-1.1639807,-1.3157088,-1.3215882,-0.0017455022,0.056317613,-0.12660894,-0.38802522,-0.32792053,0.06004622,3.0786104,-0.6248894,-3.539686e-05,-0.122542255,0.0034632168,0.0008485323,-0.0019952308,-0.0015876382,-0.003808035,0.4339884,-1.4454099,1.9803714,-2.1044233,-1.5704092,2.4089234,-0.1135973,0.20771486,-0.2429728,0.035867944,0.0020556282,-0.109634645,-0.17238252,0.19153613,-9.155427,0.90527004,47.694054,-1.0223317,-1.6689842,-3.2739863,-0.23480447,0.04096944,-0.35396624,26.25,27.125,26.25,29.375,30.5625,31.0
0.25405258,-0.73926187,-1.1286185,-1.1712677,-0.021989394,0.052029334,-0.12636967,-0.38831306,-0.32790804,0.060087692,3.0786047,-0.6248256,-0.00019977556,-0.123537526,0.0023081524,0.0015589453,-0.002782289,0.00039579504,0.0029766902,0.43374878,-1.4450262,1.9798325,-2.1043632,-1.5704573,2.4086452,-0.112139806,0.2090362,-0.2460729,0.035512537,0.0019402493,-0.11495972,-0.17238252,0.19153613,-9.078813,0.88960326,47.67166,-0.97667897,-1.7017627,-3.214816,-0.24434623,0.042752042,-0.3202361,26.25,27.125,26.25,29.375,30.5625,31.0
0.25605235,-1.2114557,-1.8375148,-1.3139405,-0.007737137,0.02373456,-0.10715254,-0.38855478,-0.32791418,0.06009916,3.0785923,-0.62480175,-0.00020088528,-0.12507783,0.0038203713,0.0014511843,-0.0020616697,-0.00089207914,0.0055147703,0.4335434,-1.4446186,1.97933,-2.1042788,-1.570445,2.4084268,-0.11609699,0.21053903,-0.24803372,0.037445135,0.001830608,-0.121454164,-0.17238252,0.2681506,-9.212888,0.8873621,47.69763,-1.0306513,-1.6049652,-3.1963887,-0.24671677,0.043247867,-0.2422941,26.25,27.125,26.25,29.375,30.5625,31.0
0.2580521,-0.72732556,-1.6701645,-1.5970645,-0.015538534,0.026645025,-0.114376105,-0.38879514,-0.32789025,0.060064863,3.078638,-0.6248264,-9.1988986e-05,-0.12393547,0.0036063562,0.0008184652,-0.00065099186,-0.0034473552,0.0133997295,0.43329203,-1.4441392,1.9788512,-2.104194,-1.570445,2.4081852,-0.11448139,0.21144721,-0.24819791,0.039614752,0.001618324,-0.1277239,-0.019153614,0.30645782,-9.174581,0.8806493,47.711063,-0.9988471,-1.5453997,-3.2745643,-0.28770357,0.048732568,-0.18495646,26.25,27.125,26.25,29.375,30.5625,31.0
0.2600518,-0.19741563,-1.3580796,-1.4123446,-0.043104474,0.037772343,-0.12310046,-0.38903356,-0.32786685,0.060055852,3.0786855,-0.6248167,-2.7584998e-05,-0.124746144,0.0038640131,0.0011605291,-0.0010569255,-0.0020663808,0.012564212,0.43305174,-1.4437083,1.978361,-2.1040752,-1.5704573,2.4079332,-0.11541183,0.2112684,-0.24869598,0.03886761,0.0013961582,-0.12781839,0.0,0.2681506,-9.289502,0.8940802,47.716442,-0.9702556,-1.4543885,-3.3322525,-0.32014906,0.053405415,-0.11340697,26.25,27.125,26.25,29.375,30.5625,31.0
0.26205248,-0.7183641,-2.4691284,-1.6168426,-0.029770218,0.03402937,-0.10854635,-0.3892968,-0.32787445,0.060064718,3.0786119,-0.6248006,-2.6960455e-05,-0.12543903,0.0036599576,-0.0013445037,0.0008264163,-0.005446763,0.013849586,0.4327997,-1.4432864,1.9778589,-2.1040394,-1.5703973,2.4076807,-0.115334824,0.21838927,-0.2507815,0.037700374,0.0011025205,-0.12902395,-0.019153614,0.2681506,-9.308656,0.8851263,47.729877,-1.0547115,-1.6026288,-3.422626,-0.34008732,0.06380271,-0.07771845,26.25,27.125,26.25,29.375,30.5625,31.0
0.26405215,-0.9444153,-2.1662304,-1.2755897,-0.04084759,0.037926607,-0.109351106,-0.38954452,-0.32784,0.06003911,3.0787258,-0.6248478,4.409153e-05,-0.12694374,0.004701208,-0.0025479828,0.0015704884,-0.006787934,0.00637154,0.4325704,-1.4427938,1.9773315,-2.1038964,-1.5704688,2.407467,-0.11836669,0.22198947,-0.2519742,0.036813702,0.00096924324,-0.124576494,0.038307227,0.2873042,-9.212888,0.8784135,47.694946,-0.8471859,-1.8087851,-3.4685776,-0.33716512,0.06844381,-0.1062813,26.25,27.125,26.25,29.375,30.5625,31.0
0.26605204,-0.6917557,-1.7197478,-1.5142249,-0.032290567,0.027268458,-0.120782435,-0.38979208,-0.32782373,0.060045872,3.0787349,-0.624792,-2.2569904e-05,-0.1265598,0.0031807113,-0.0031636907,0.0014431457,-0.006790049,0.00524581,0.4323438,-1.44241,1.9768766,-2.1038606,-1.5704931,2.4072046,-0.115211844,0.22432674,-0.25295147,0.03539894,0.0010829285,-0.12029499,0.15322891,0.28730422,-9.251195,0.88960326,47.689575,-1.1062949,-1.87971,-3.62506,-0.3166657,0.0670966,-0.15107435,26.25,27.125,26.25,29.375,30.5625,31.0
0.26805183,-0.5353013,-1.8079493,-1.4686996,-0.017499533,0.006309066,-0.107727796,-0.39002478,-0.32782048,0.0600036,3.078751,-0.62477887,0.00010287471,-0.12917127,0.003461695,-0.0027324285,-8.316682e-05,-0.005081063,-0.0016590118,0.4321146,-1.4419179,1.9764093,-2.1038134,-1.5704573,2.4069655,-0.1183016,0.22651462,-0.25626096,0.03433142,0.0017334061,-0.1164788,0.1340753,0.2681506,-9.32781,0.91198283,47.71554,-0.92169356,-1.8199992,-3.5160937,-0.32385537,0.08301394,-0.19352153,26.25,27.125,26.25,29.375,30.5625,31.0
0.2700519,-0.23148297,-1.5823796,-1.489787,-0.02522796,-0.0043723113,-0.10959827,-0.39030245,-0.32781345,0.060011305,3.0787287,-0.62477535,5.8514215e-05,-0.12965375,0.0024126,-0.0029807775,-0.0009838267,-0.0047169994,-0.00405986,0.4318633,-1.4414743,1.9758819,-2.1037657,-1.5704569,2.4067152,-0.11710692,0.22870235,-0.25798112,0.03315415,0.002395472,-0.11288282,0.1340753,0.36391866,-9.270349,0.8940802,47.701214,-1.1044542,-1.8968768,-3.529007,-0.30119112,0.07789121,-0.25914305,26.25,27.125,26.25,29.375,30.5625,31.0
0.27205175,-0.11064183,-2.064551,-1.751225,-0.018392362,-0.010202082,-0.10741743,-0.39056417,-0.3278285,0.060016986,3.0787075,-0.624754,4.0216346e-05,-0.13158132,0.002228655,-0.0022261012,-0.002280941,-0.0024867116,-0.00809083,0.43165877,-1.4410188,1.9753431,-2.1037066,-1.5704445,2.4065003,-0.118473314,0.22982207,-0.2608887,0.032374505,0.0026342066,-0.11021682,0.076614454,0.4405331,-9.270349,0.8605109,47.686886,-1.1721969,-1.7916892,-3.59633,-0.28971988,0.043332554,-0.3047424,26.25,27.125,26.25,29.375,30.5625,31.0
0.27405247,-0.13777955,-2.147809,-1.7765137,-0.023708096,-0.0052977744,-0.101206265,-0.39078972,-0.32779843,0.059984636,3.0787494,-0.6248407,0.00013478273,-0.13378584,0.0017356293,-0.00042313433,-0.003948125,0.0015889212,-0.011140301,0.4314185,-1.4405756,1.9748992,-2.1036227,-1.5704569,2.4063091,-0.11921381,0.2295333,-0.26472262,0.032097798,0.0024260285,-0.107905895,0.019153614,0.51714754,-9.308656,0.8940802,47.68599,-1.0627433,-1.8381474,-3.4666867,-0.2844693,0.07604998,-0.3654253,26.25,27.125,26.25,29.375,30.5625,31.0
0.27605227,-0.48234674,-1.775976,-1.6785914,-0.04810329,0.016138243,-0.121666074,-0.39109027,-0.32780316,0.059997965,3.0787156,-0.62487346,0.00014525016,-0.13512951,0.0016089317,-0.00031521427,-0.0038567823,0.0018197106,-0.013761062,0.43115428,-1.4400715,1.9742764,-2.1035144,-1.5704325,2.40607,-0.119885266,0.23188615,-0.26787198,0.032726716,0.0022431638,-0.105954625,-0.114921674,0.57460845,-9.346964,0.8403672,47.694054,-1.167984,-1.8248506,-3.4483361,-0.27910328,0.057336576,-0.42545873,26.25,27.125,26.25,29.375,30.5625,31.0
0.278052,-1.4433373,-2.589237,-1.6573926,-0.06130792,0.040190537,-0.11011243,-0.3913426,-0.32780048,0.05997093,3.078731,-0.6248562,0.000203124,-0.13616274,0.0014846767,0.00036706944,-0.004016562,0.0030538307,-0.014467732,0.43092635,-1.4395801,1.9737738,-2.1034667,-1.5704211,2.4058297,-0.12018496,0.23237629,-0.27025607,0.033435874,0.001866152,-0.10554621,-0.2681506,0.51714754,-9.481039,0.8873621,47.716442,-1.1919308,-1.825786,-3.457356,-0.28588852,0.07414948,-0.4799598,26.25,27.125,26.25,29.375,30.5625,31.0
0.2800517,-1.80962,-3.1456008,-1.9111556,-0.06409126,0.07763465,-0.11644044,-0.3915934,-0.32779688,0.059973367,3.0787375,-0.62491447,0.00027565405,-0.13741966,0.0017464261,0.00022965456,-0.0040662913,0.0030272303,-0.013422823,0.43069786,-1.4391246,1.9732221,-2.1033227,-1.5704092,2.405637,-0.121665105,0.23438065,-0.27231497,0.033495944,0.0019138147,-0.10807026,-0.34476504,0.61291564,-9.461885,0.94331104,47.65912,-1.1344923,-1.825289,-3.4371352,-0.29330927,0.06504758,-0.49844342,26.25,27.125,26.25,29.375,30.5625,31.0
0.2820524,-1.8978964,-2.6868532,-1.768273,-0.07493683,0.10391322,-0.11570786,-0.3918706,-0.32779238,0.05997847,3.0787024,-0.62496257,0.0002582051,-0.13871318,0.0018783655,0.0010525316,-0.0057371343,0.0048285224,-0.0089353705,0.43044516,-1.4386693,1.9726838,-2.1032631,-1.5703968,2.405419,-0.123394504,0.23389217,-0.27362567,0.03296132,0.002679707,-0.11428774,-0.28730422,0.49799395,-9.5385,0.9097417,47.691364,-1.1563097,-1.7579113,-3.4736946,-0.30819952,0.064424396,-0.50801754,26.25,27.125,26.25,29.375,30.5625,31.0
0.2840521,-2.3639226,-2.3174584,-1.6437961,-0.07635529,0.09997719,-0.12008188,-0.3921307,-0.32780635,0.059946947,3.0787096,-0.624939,0.000300551,-0.14027216,0.0013243867,0.0017906963,-0.007902757,0.0067032846,-0.0016422148,0.43024084,-1.4381422,1.9721559,-2.1032393,-1.5703839,2.4051995,-0.124368556,0.23472266,-0.27616477,0.032062307,0.003856362,-0.12255544,-0.4213795,0.3256114,-9.634268,0.9097417,47.655537,-1.0977051,-1.6588569,-3.509255,-0.2797566,0.045976188,-0.42184895,26.25,27.125,26.25,29.375,30.5625,31.0
0.28605184,-2.2174761,-2.0635328,-1.779579,-0.047478545,0.102022134,-0.12342521,-0.39242253,-0.3277957,0.059952244,3.078703,-0.6248921,0.00030085098,-0.1400933,0.0009799587,0.00016107017,-0.0076866923,0.0047688964,0.009994444,0.42996517,-1.4376621,1.9715832,-2.1031559,-1.570372,2.4048958,-0.12385817,0.23802456,-0.27587357,0.030320432,0.004465568,-0.13368212,-0.4405331,0.21068975,-9.576807,0.8940802,47.657326,-1.1191823,-1.674633,-3.5782962,-0.26441473,0.038273647,-0.3404166,26.25,27.125,26.25,29.375,30.5625,31.0
0.28805164,-2.1825285,-0.8646805,-1.6082919,-0.0299363,0.09070237,-0.11340443,-0.39270556,-0.32778686,0.05992183,3.0786989,-0.6249665,0.00035915172,-0.14156298,0.0013623593,-0.00064072333,-0.0074870237,0.00416955,0.013819852,0.42970046,-1.4371217,1.971032,-2.1031086,-1.5703601,2.4046783,-0.12572566,0.24145131,-0.2778448,0.029497014,0.004523935,-0.13937378,-0.57460845,0.15322891,-9.519346,0.91198283,47.679718,-1.009945,-1.80094,-3.665265,-0.2329672,0.030678786,-0.24677357,26.25,27.125,26.25,29.375,30.5625,31.0
0.2900526,-1.3767794,-0.26211095,-1.4611595,-0.0037245995,0.114814565,-0.12630515,-0.3929882,-0.32777804,0.059923567,3.0786798,-0.6249022,0.00032592684,-0.14283484,0.0012701123,-0.0007371714,-0.007532773,0.005222728,0.017773172,0.4294365,-1.4366657,1.9705051,-2.1030734,-1.5703481,2.404377,-0.12625055,0.24347071,-0.2797659,0.028427733,0.004126758,-0.14384988,-0.5746084,0.05746084,-9.423578,0.97240865,47.672558,-1.231577,-1.882376,-3.6828744,-0.21336953,0.027662987,-0.17109784,26.25,27.125,26.25,29.375,30.5625,31.0
0.29205224,-1.9030739,0.33518678,-1.6240753,0.019132953,0.090026215,-0.1269794,-0.3933082,-0.32780376,0.059948895,3.0786154,-0.62483114,0.0002278433,-0.14508793,0.00037332973,0.0005010896,-0.0091182925,0.009085731,0.017542468,0.42919645,-1.4361622,1.9698704,-2.103038,-1.5703238,2.4041011,-0.12627298,0.24473064,-0.28382412,0.027058918,0.0039646653,-0.1436386,-0.45968673,0.0,-9.5385,0.9410752,47.668976,-1.1289462,-1.9021492,-3.5122344,-0.1680615,0.011260438,-0.13000306,26.25,27.125,26.25,29.375,30.5625,31.0
0.29405192,-1.7301782,0.2267988,-1.433183,0.03167707,0.089393094,-0.10762331,-0.39357075,-0.32782218,0.059932023,3.078618,-0.6247199,0.00025173745,-0.14690584,0.00017782496,0.0008884325,-0.00997138,0.01125489,0.011615895,0.42899212,-1.4356586,1.9693316,-2.1030023,-1.5703,2.4038274,-0.12725475,0.24636796,-0.28635186,0.025625478,0.003831707,-0.13869198,-0.59376204,-0.19153614,-9.500193,0.9231726,47.67345,-1.2117785,-1.9930805,-3.5260096,-0.12431083,0.014551293,-0.14603084,26.25,27.125,26.25,29.375,30.5625,31.0
0.29605216,-1.3579143,-0.019761266,-1.7303344,0.029627644,0.07432394,-0.11142847,-0.39388195,-0.327802,0.059922352,3.0786202,-0.6247042,0.00025266586,-0.14800425,0.000100874895,0.0011166715,-0.010283949,0.010896031,0.0056094113,0.42869166,-1.4351312,1.9687437,-2.1029418,-1.5703,2.4035172,-0.12818617,0.24816507,-0.28934765,0.02701908,0.004266139,-0.13361628,-0.6512228,-0.24899697,-9.481039,0.83589023,47.703007,-1.1547486,-1.9843504,-3.3841324,-0.100086845,0.0035638455,-0.21699642,26.25,27.125,26.25,29.375,30.5625,31.0
0.29805243,-1.2633953,-0.41877145,-1.6934404,0.011027765,0.05284676,-0.121045,-0.39418906,-0.3277859,0.059920292,3.0786092,-0.6248042,0.0001784884,-0.1492392,0.0022426038,0.00015506706,-0.0077647846,0.006923408,-0.0049940143,0.4284262,-1.4346269,1.9681696,-2.1029046,-1.5703362,2.403316,-0.13261557,0.25132298,-0.29172418,0.030895198,0.0036366628,-0.1274406,-0.5554548,-0.17238252,-9.519346,0.8717007,47.67793,-1.0617731,-1.9909236,-3.4901505,-0.10446569,0.021290308,-0.27871314,26.25,27.125,26.25,29.375,30.5625,31.0
0.30005217,-1.2496244,-0.92058545,-1.6410823,-0.013579752,0.051991995,-0.112012975,-0.3944577,-0.32778797,0.05991367,3.078608,-0.62478304,0.00023347487,-0.14830473,0.0014072763,-0.00036210497,-0.0059656636,0.004898515,-0.0033238805,0.42818743,-1.4341353,1.9676064,-2.1028078,-1.5703124,2.4030645,-0.12965421,0.25325674,-0.29337534,0.033208437,0.002841458,-0.12614793,-0.5554548,-0.095768064,-9.5385,0.8717007,47.693153,-1.1709175,-2.0061927,-3.4969392,-0.106994085,0.010371375,-0.3213021,26.25,27.125,26.25,29.375,30.5625,31.0
0.3020519,-1.6225388,-1.1944699,-1.7122704,-0.018809827,0.04314175,-0.1121781,-0.3947669,-0.3277682,0.059905495,3.0786564,-0.6247741,0.0002049032,-0.14962411,0.0028868373,-0.00021764143,-0.0045271246,0.004109269,-0.0058974163,0.4279221,-1.4335961,1.9669956,-2.1027238,-1.570361,2.402788,-0.13270436,0.25420702,-0.2954728,0.035669237,0.001861517,-0.12662272,-0.47884035,-0.05746084,-9.442732,0.8493211,47.71286,-0.9449008,-1.9699328,-3.4501567,-0.10345678,0.036385834,-0.3350416,26.25,27.125,26.25,29.375,30.5625,31.0
0.30405167,-1.4550825,-1.2637777,-1.6685536,-0.015379688,0.06423464,-0.10767368,-0.395091,-0.32777962,0.05992491,3.0785713,-0.6247958,0.0001344053,-0.1504271,0.0028630246,0.00028887522,-0.004370529,0.004260885,-0.006962315,0.42764616,-1.4330928,1.9663728,-2.1026871,-1.5703248,2.4025366,-0.13306394,0.2550182,-0.29805955,0.03737772,0.0016663797,-0.12591615,-0.34476504,-0.038307227,-9.481039,0.8560339,47.67166,-1.0577464,-1.8382783,-3.4902241,-0.11363879,0.04445908,-0.36190626,26.25,27.125,26.25,29.375,30.5625,31.0
0.30605236,-1.372908,-1.0086879,-1.515989,-0.006141374,0.07947778,-0.11573887,-0.39540148,-0.3277738,0.059907075,3.0785592,-0.6248675,0.00020600462,-0.1511251,0.0024556564,0.0004569893,-0.00474344,0.0053445254,-0.005144096,0.42735848,-1.4325173,1.9657396,-2.1025913,-1.5703009,2.4022956,-0.13268413,0.25599462,-0.2995487,0.03675431,0.0015487672,-0.12735371,-0.34476507,0.038307227,-9.3661175,0.9612189,47.693153,-1.122561,-1.9191117,-3.5528626,-0.0913613,0.03863011,-0.38591775,26.25,27.125,26.25,29.375,30.5625,31.0
0.30805212,-0.70726424,-0.46559057,-1.7207701,-0.014193886,0.0900079,-0.12714987,-0.39570788,-0.32776996,0.05991557,3.0785418,-0.624805,0.00014518054,-0.15211388,0.002944859,0.00073455623,-0.0052921046,0.0065005007,-0.0021526476,0.42709377,-1.4320261,1.9651526,-2.102544,-1.5703009,2.4019945,-0.13428971,0.2559369,-0.30007958,0.036065448,0.0015749253,-0.13195057,-0.17238252,0.076614454,-9.423578,0.8918391,47.689575,-1.0579388,-1.8741815,-3.5838075,-0.07312275,0.046372913,-0.34637988,26.25,27.125,26.25,29.375,30.5625,31.0
0.31005177,-0.9321645,-0.98451054,-1.5812035,-0.015302417,0.0788925,-0.11433121,-0.3959819,-0.32774296,0.059898436,3.0785675,-0.62484384,0.0002519822,-0.15196545,0.002882336,9.964321e-05,-0.0047622193,0.0038121752,0.0045293113,0.4268059,-1.4315226,1.9645904,-2.102411,-1.5702885,2.401728,-0.13432686,0.25805378,-0.30163217,0.03816977,0.0021995094,-0.1386703,-0.15322891,0.13407528,-9.442732,1.0194036,47.716442,-1.149282,-1.7894683,-3.6442275,-0.053241808,0.03474909,-0.29343122,26.25,27.125,26.25,29.375,30.5625,31.0
0.31205246,-0.88599193,-1.0783759,-1.7303106,-0.025476424,0.055243786,-0.11393668,-0.39630166,-0.32772794,0.059893366,3.0786026,-0.6247898,0.00017764389,-0.15346867,0.0025593755,0.0007070961,-0.0056105307,0.004655609,0.010786454,0.42654157,-1.4309831,1.9639791,-2.1023633,-1.5703367,2.4014258,-0.13513143,0.2596597,-0.3051566,0.038963895,0.0026221494,-0.14573096,-0.05746084,0.15322891,-9.519346,1.0238806,47.70211,-1.1292244,-1.8745894,-3.6425085,-0.071510114,0.036063347,-0.20484912,26.25,27.125,26.25,29.375,30.5625,31.0
0.3140523,0.086995944,-0.84022504,-1.7490457,-0.02962739,0.053904433,-0.12408612,-0.39663005,-0.32772964,0.059924044,3.0785496,-0.62473613,0.0001104166,-0.154195,0.0026306855,0.0010141163,-0.005536039,0.005154461,0.016572198,0.4262535,-1.4304917,1.963332,-2.102279,-1.5703124,2.4011114,-0.13554691,0.2602765,-0.30682173,0.03959615,0.0023588338,-0.15193109,-0.095768064,0.15322891,-9.5385,0.9410752,47.70838,-1.0983888,-1.8531528,-3.6070285,-0.048635453,0.024419494,-0.10795249,26.25,27.125,26.25,29.375,30.5625,31.0
0.3160522,0.09452767,-1.109306,-1.7226284,-0.030161558,0.04790541,-0.11705887,-0.39695597,-0.3277361,0.059943248,3.0784967,-0.6247243,5.8410187e-05,-0.1554955,0.0026958357,0.00070614787,-0.0049138847,0.004791351,0.018863443,0.4259772,-1.4299753,1.9626855,-2.1022074,-1.570289,2.4008348,-0.13633846,0.2633132,-0.3098198,0.0401522,0.0019484201,-0.15501161,-0.019153614,0.22984336,-9.500193,0.95226496,47.698532,-1.1462755,-1.897183,-3.6177115,-0.0503434,0.02550875,-0.06506872,26.25,27.125,26.25,29.375,30.5625,31.0
0.31805196,-0.17445044,-1.2657895,-1.643886,-0.029868733,0.028994214,-0.110320754,-0.3972782,-0.32769546,0.059903935,3.0785627,-0.6247033,6.3494124e-05,-0.15684387,0.003285493,0.0004470712,-0.0044321595,0.0044231843,0.01223092,0.4256647,-1.4293877,1.9620994,-2.1021707,-1.5703372,2.4005013,-0.138199,0.26555094,-0.3120346,0.040656853,0.0016534466,-0.15023826,0.095768064,0.26815057,-9.423578,0.9030289,47.679718,-1.1505446,-1.8538597,-3.594275,-0.050785877,0.045701876,-0.059548214,26.25,27.125,26.25,29.375,30.5625,31.0
0.32005182,0.27248207,-1.005943,-1.7634963,-0.03300547,0.035730135,-0.116969585,-0.397577,-0.32768768,0.059906542,3.0785322,-0.6247756,0.00012985298,-0.15665543,0.0024737658,-0.00066742784,-0.0030389195,0.001996814,0.0091429055,0.42537722,-1.4288714,1.9614767,-2.102039,-1.5703009,2.400263,-0.13623738,0.2695385,-0.31442162,0.041847143,0.0013804872,-0.14518699,0.0,0.28730422,-9.461885,0.8537928,47.672558,-1.1414037,-1.9452578,-3.5759244,-0.0327451,0.041454032,-0.09574262,26.25,27.125,26.25,29.375,30.5625,31.0
0.3220526,-0.121434,-1.3980597,-1.7745612,-0.037680745,0.02829865,-0.11362853,-0.39789242,-0.3276844,0.059903555,3.0785718,-0.624713,0.00012595896,-0.15826525,0.0041632173,-0.00084902026,-0.0021748669,0.0011059506,-0.0022890691,0.4251235,-1.4283077,1.9608177,-2.1019304,-1.5703248,2.3999658,-0.14025053,0.27093562,-0.31606036,0.043253407,0.00095849106,-0.13776717,-0.05746084,0.40222588,-9.423578,0.86498255,47.686886,-0.9045042,-2.127181,-3.5122442,-0.0403369,0.046165187,-0.16294897,26.25,27.125,26.25,29.375,30.5625,31.0
0.3240523,0.019805806,-2.1855295,-1.7558538,-0.03965581,0.023018098,-0.10519756,-0.39823925,-0.32768053,0.059930835,3.0785015,-0.6247778,7.156731e-05,-0.15950818,0.004158738,0.00048174118,-0.002848781,0.0025437302,-0.0077613937,0.42481178,-1.427781,1.9601344,-2.1018345,-1.5703009,2.3997037,-0.14112824,0.2705154,-0.3192088,0.04523679,0.0009858614,-0.1331717,0.05746084,0.40222588,-9.423578,0.947788,47.66987,-1.0573229,-1.9942036,-3.6202693,-0.032947958,0.061014302,-0.23788746,26.25,27.125,26.25,29.375,30.5625,31.0
0.326052,-0.3817851,-2.3294148,-1.3734112,-0.068238065,0.027442725,-0.106191956,-0.39852747,-0.3276825,0.059910253,3.078529,-0.62476677,9.6016105e-05,-0.15991394,0.0050701345,-0.000496127,-0.0015025734,-0.00049351034,-0.014690244,0.42458308,-1.4272289,1.9595364,-2.1017616,-1.5703129,2.399465,-0.14301462,0.27311778,-0.32054812,0.047293257,0.001008636,-0.12812895,0.019153614,0.4213795,-9.346964,0.8627467,47.66271,-0.9098068,-1.9065776,-3.4906783,-0.05633488,0.066631466,-0.3370384,26.25,27.125,26.25,29.375,30.5625,31.0
0.328052,-0.44258904,-1.9107146,-1.2826124,-0.06116035,0.02149507,-0.109392375,-0.3988717,-0.32766214,0.059930846,3.0784805,-0.6248926,5.065006e-05,-0.16046968,0.004140794,0.0016775836,-0.0032273012,0.0020567456,-0.01718539,0.42425963,-1.4267031,1.958866,-2.1016533,-1.5703129,2.3992267,-0.14195138,0.2708071,-0.32353252,0.04955195,0.0015334655,-0.124570824,0.019153614,0.34476504,-9.251195,0.97240865,47.677036,-1.0838795,-1.9435248,-3.5168018,-0.07212958,0.066070735,-0.39077848,26.25,27.125,26.25,29.375,30.5625,31.0
0.3300519,0.027257228,-1.2308037,-1.5594398,-0.042442616,0.019377742,-0.11059162,-0.39919147,-0.32765654,0.059927892,3.0784824,-0.624912,6.736873e-05,-0.16065335,0.003688424,0.0022145873,-0.003691555,0.0015075443,-0.018280843,0.42398342,-1.4261403,1.958207,-2.101545,-1.5703124,2.3989627,-0.14154845,0.27117294,-0.32583082,0.051791966,0.0021818224,-0.12307288,0.019153614,0.3256114,-9.32781,0.8784135,47.67614,-1.0006766,-1.6542027,-3.5606213,-0.09463641,0.06355964,-0.4491042,26.25,27.125,26.25,29.375,30.5625,31.0
0.33205166,-0.16869438,-1.0462092,-1.4684526,-0.03200594,0.018995691,-0.112046085,-0.39950916,-0.32765377,0.059931707,3.0784593,-0.62494516,6.735455e-05,-0.16060607,0.0048723915,0.0012507321,-0.0026879879,-0.0016390841,-0.01760643,0.42370695,-1.4256003,1.9575609,-2.1014483,-1.5703005,2.3987103,-0.14376871,0.2724985,-0.32569227,0.053610694,0.0025675274,-0.12596858,-0.05746084,0.28730422,-9.385271,0.9365982,47.682407,-1.073167,-1.5751884,-3.5496676,-0.11721712,0.057944067,-0.48307344,26.25,27.125,26.25,29.375,30.5625,31.0
0.33405238,0.3824935,-0.44543457,-1.2002589,-0.03355007,0.040056955,-0.12183086,-0.39984044,-0.32764018,0.059934627,3.0784502,-0.62495553,5.5621564e-05,-0.16032946,0.0039881608,0.0012412629,-0.0027821097,-0.0028131308,-0.008736855,0.42340758,-1.4250491,1.9569038,-2.1013525,-1.5703005,2.398419,-0.14213875,0.27382615,-0.32772174,0.055345405,0.0031376462,-0.13320833,0.019153614,0.22984336,-9.308657,0.95002913,47.703903,-1.1560922,-1.6316954,-3.6617427,-0.13306196,0.063816614,-0.4560179,26.25,27.125,26.25,29.375,30.5625,31.0
0.3360522,-0.11117495,-0.4387451,-1.3000481,-0.0049766074,0.034171987,-0.11640804,-0.40016043,-0.32763627,0.059935402,3.0784779,-0.62489855,6.102144e-05,-0.1621644,0.00393887,0.0021795107,-0.0033920857,-0.0017542406,-0.00041913378,0.4231432,-1.4244857,1.956232,-2.1012318,-1.5703124,2.3981159,-0.1434924,0.27520475,-0.3319579,0.056988932,0.0032531612,-0.1428782,0.0,0.19153613,-9.308656,0.94331104,47.692257,-1.1271975,-1.6602137,-3.7109132,-0.15223344,0.0370159,-0.3830698,26.25,27.125,26.25,29.375,30.5625,31.0
0.33805245,-0.4630978,-0.25254586,-1.2868757,0.0034092993,0.03378708,-0.11314038,-0.40047854,-0.32764822,0.059951592,3.0784395,-0.6249045,8.0497855e-05,-0.16372433,0.0041936417,0.0013149404,-0.0023326655,-0.003841452,0.0078107826,0.42287865,-1.4239453,1.9555482,-2.1010997,-1.5702766,2.3978603,-0.14502339,0.28010035,-0.3360658,0.05854924,0.0031415112,-0.15263672,0.076614454,-0.038307227,-9.289502,0.9545008,47.692257,-1.1085759,-1.7085463,-3.4641366,-0.18531272,0.037760094,-0.28902614,26.25,27.125,26.25,29.375,30.5625,31.0
0.34005198,-0.03586028,-0.09946337,-1.4648333,8.6454755e-05,0.045038342,-0.113520205,-0.4008213,-0.3276322,0.059965275,3.0784192,-0.62489796,3.8744834e-05,-0.16451009,0.0046868254,0.00037259306,-0.0015409887,-0.0063481536,0.013206356,0.42256603,-1.4234049,1.9548782,-2.101004,-1.5702761,2.3975465,-0.14660405,0.28348702,-0.33824298,0.05995321,0.0034517336,-0.15961221,-0.019153614,-0.05746084,-9.32781,0.9164598,47.678825,-0.9881701,-1.8699467,-3.4751296,-0.21336049,0.047832295,-0.1871742,26.25,27.125,26.25,29.375,30.5625,31.0
0.34205258,-0.80898255,-0.6985898,-1.0468221,0.0025292723,0.051905964,-0.10523509,-0.4011304,-0.3276356,0.059959512,3.0784407,-0.6247661,9.429129e-05,-0.16580613,0.0046942644,0.00068809144,-0.0022535368,-0.0056975284,0.015034138,0.42230162,-1.4228405,1.9542192,-2.1008837,-1.5702523,2.3971975,-0.14777698,0.284784,-0.34064832,0.06018082,0.0038253323,-0.16261247,-0.17238252,0.076614454,-9.251195,0.947788,47.65912,-0.98564804,-1.9783509,-3.4416473,-0.25582537,0.051695585,-0.1332365,26.25,27.125,26.25,29.375,30.5625,31.0
0.3440523,-0.41057506,0.16559184,-1.2663345,-0.0043081264,0.07226767,-0.11654289,-0.4014434,-0.32762355,0.059946626,3.0784683,-0.62479544,0.00020257443,-0.1667184,0.004289981,0.0011426068,-0.0023698662,-0.0059378473,0.008997035,0.42201367,-1.4222512,1.9535369,-2.1007154,-1.5702399,2.3969247,-0.14775723,0.28647003,-0.34424695,0.062265538,0.0040127235,-0.15655486,-0.3256114,0.11492168,-9.385271,0.8918391,47.672558,-0.98191315,-1.8176303,-3.3527489,-0.2800176,0.037557952,-0.1560513,26.25,27.125,26.25,29.375,30.5625,31.0
0.34605208,-0.63160783,-0.2582459,-1.4018066,-0.0018760537,0.0799685,-0.12201382,-0.40178442,-0.32760862,0.059966385,3.0784645,-0.6247982,0.00016521693,-0.16646118,0.004584034,-0.00021020691,-0.0012042013,-0.007915033,0.0019312901,0.42171377,-1.42171,1.9528431,-2.1005838,-1.5702523,2.3966274,-0.14775017,0.28875163,-0.34381208,0.06182817,0.0037593965,-0.14948173,-0.36391866,0.17238252,-9.423578,0.8403672,47.65912,-1.156651,-1.8956857,-3.3851976,-0.31161872,0.035485573,-0.20647459,26.25,27.125,26.25,29.375,30.5625,31.0
0.34805167,-1.576333,-0.9290777,-1.1913491,-0.039114796,0.097649515,-0.11674487,-0.40211695,-0.32763112,0.059979573,3.078428,-0.6247146,0.000183626,-0.16646054,0.00432978,-0.00032602483,-0.0014024501,-0.0069883172,-0.0014546199,0.42145002,-1.4211332,1.9521259,-2.1004646,-1.5702041,2.3963165,-0.14699721,0.28879014,-0.34344676,0.060505196,0.0035595566,-0.1453428,-0.6512228,0.15322891,-9.442732,0.9634547,47.679718,-1.0626704,-1.7202203,-3.7062426,-0.31631014,0.03231975,-0.30196112,26.25,27.125,26.25,29.375,30.5625,31.0
0.35005236,-1.7395419,-1.5902795,-1.4373722,-0.048186503,0.1161198,-0.119003735,-0.4024264,-0.32759407,0.059953775,3.078466,-0.62478155,0.00036145066,-0.16798039,0.005075728,0.0003235351,-0.0024207581,-0.0049218866,-0.004810557,0.42111304,-1.4205443,1.9514674,-2.1002734,-1.5701803,2.3960168,-0.14947186,0.28824592,-0.34425226,0.05955715,0.0036205042,-0.1444619,-0.59376204,0.22984336,-9.404425,0.9254084,47.675243,-1.0203737,-1.7496973,-3.7727952,-0.3286634,0.0120032765,-0.31630883,26.25,27.125,26.25,29.375,30.5625,31.0
0.35205206,-1.9434154,-1.687547,-1.5424304,-0.06089031,0.11351095,-0.11439582,-0.40275154,-0.32758313,0.059938986,3.0785122,-0.6247338,0.00034661774,-0.16836616,0.004511723,0.0006917266,-0.0028057385,-0.0049680118,-0.00570491,0.4208495,-1.4199563,1.9508089,-2.1001894,-1.5702161,2.395718,-0.14884382,0.28914347,-0.34657994,0.06086628,0.0039857817,-0.1429394,-0.51714754,0.19153613,-9.634268,1.0216395,47.70659,-1.2062906,-1.563196,-3.7674122,-0.3646598,0.03207291,-0.34475714,26.25,27.125,26.25,29.375,30.5625,31.0
0.354052,-2.2074451,-1.9105617,-1.4943689,-0.06272461,0.10941941,-0.11386916,-0.40311342,-0.32758543,0.05996191,3.0784461,-0.6247956,0.00026767954,-0.17171772,0.0035135068,0.002338069,-0.0058556795,0.0025336677,-0.006011954,0.42054942,-1.4193914,1.9500908,-2.1001074,-1.5702041,2.3954654,-0.14940794,0.2897321,-0.34996057,0.055569496,0.0036968747,-0.1431934,-0.6512229,0.21068975,-9.615114,0.87617236,47.672558,-1.1619406,-1.4821665,-3.7544808,-0.3455308,0.020005161,-0.35289007,26.25,27.125,26.25,29.375,30.5625,31.0
0.3560518,-1.3922778,-1.1657279,-1.7752258,-0.062139556,0.1201205,-0.12379492,-0.4034508,-0.32757214,0.059977423,3.0784369,-0.62484777,0.00027185158,-0.17383763,0.0025061674,0.0019950445,-0.006578942,0.0052353153,5.0230883e-06,0.42024946,-1.4188368,1.9493846,-2.099953,-1.5702046,2.3951995,-0.14884803,0.29385182,-0.35322857,0.0519614,0.0032409178,-0.14864726,-0.53630114,0.24899697,-9.749189,1.0216395,47.691364,-1.2161996,-1.5256329,-3.7890682,-0.28371495,0.02957883,-0.3738479,26.25,27.125,26.25,29.375,30.5625,31.0
0.3580516,-2.078868,-1.3248671,-2.1327982,-0.04240662,0.08623347,-0.11201119,-0.40377814,-0.32754275,0.05996163,3.0784872,-0.62481767,0.0003381402,-0.17697386,0.0030635556,0.0016568913,-0.0070046447,0.0066050407,0.00224852,0.41993615,-1.4182473,1.9487122,-2.0998104,-1.5702165,2.3948615,-0.15212823,0.29823962,-0.35724497,0.050168216,0.003051854,-0.15416828,-0.4213795,0.2681506,-9.825804,0.95226496,47.675243,-1.0600333,-1.7098923,-3.4787233,-0.28740972,0.021545902,-0.30826724,26.25,27.125,26.25,29.375,30.5625,31.0
0.36005247,-1.6814593,-1.5172163,-1.9306779,-0.04539877,0.0879458,-0.13210067,-0.4041548,-0.32755968,0.059970304,3.0784135,-0.62475914,0.00025404207,-0.17890792,0.0029990643,0.0013988714,-0.007627453,0.00833371,0.010145102,0.41963625,-1.417634,1.9479836,-2.0997875,-1.5701808,2.3945348,-0.15331651,0.30105644,-0.3595224,0.047807675,0.002923751,-0.1632511,-0.34476504,0.30645782,-9.864111,0.947788,47.705692,-1.2207758,-1.8231106,-3.5337458,-0.24798134,0.019662453,-0.22047998,26.25,27.125,26.25,29.375,30.5625,31.0
0.36205235,-1.4445995,-1.741781,-1.7451075,-0.049718507,0.097402126,-0.12355,-0.40453887,-0.32756054,0.060009375,3.0783741,-0.6247072,0.00015019644,-0.17926262,0.0023649102,0.0005528301,-0.0076054595,0.008488972,0.01828573,0.41932467,-1.4170566,1.9472045,-2.0996678,-1.5701808,2.3941963,-0.15221612,0.30365235,-0.36028555,0.04584675,0.0028522692,-0.17029026,-0.59376204,0.47884035,-9.749189,0.98807013,47.703007,-1.1751598,-1.8021047,-3.6100554,-0.19687478,0.015739636,-0.11756327,26.25,27.125,26.25,29.375,30.5625,31.0
0.3640521,-1.8302411,-1.6514415,-1.9731405,-0.06258703,0.10071881,-0.122662306,-0.404863,-0.32753873,0.060007527,3.078408,-0.62467515,0.00014794679,-0.17977998,0.0023637293,0.00062741997,-0.00773683,0.008992455,0.019333793,0.41903645,-1.4165035,1.9465464,-2.099548,-1.5702046,2.3938842,-0.1524108,0.3042218,-0.36123827,0.045714602,0.002765811,-0.17153274,-0.4405331,0.38307226,-9.844957,0.98135734,47.67793,-1.2555335,-1.9726957,-3.7749205,-0.17097682,0.0342304,-0.058884174,26.25,27.125,26.25,29.375,30.5625,31.0
0.36605197,-1.8084105,-2.3867798,-1.7662922,-0.08548803,0.10121675,-0.117736995,-0.40527228,-0.3275458,0.060045037,3.0783217,-0.6246205,5.944212e-06,-0.18053405,0.0020165143,0.0003131832,-0.0077750934,0.008972638,0.015217409,0.41870105,-1.4159025,1.9457568,-2.0994885,-1.5701808,2.393526,-0.15222654,0.3064839,-0.3632293,0.045449466,0.0028283873,-0.16723084,-0.30645782,0.38307226,-9.768343,0.9567419,47.692257,-1.2834499,-1.7303524,-3.7919147,-0.14879104,0.024914615,-0.06315257,26.25,27.125,26.25,29.375,30.5625,31.0
0.36805165,-1.3179798,-2.7220972,-1.2799082,-0.089567415,0.090506285,-0.10965349,-0.40563196,-0.3275439,0.06005176,3.078308,-0.62456423,-7.679404e-05,-0.18245023,0.0020703117,0.0012499389,-0.0085004205,0.011054445,0.0062894765,0.4184131,-1.4153132,1.9450506,-2.0994284,-1.5701927,2.3932052,-0.15358119,0.3073691,-0.36662474,0.045759372,0.0026485685,-0.15965588,-0.38307226,0.40222588,-9.481039,0.9992599,47.67614,-1.2609634,-1.7525587,-3.813448,-0.12849759,0.029200919,-0.13772556,26.25,27.125,26.25,29.375,30.5625,31.0
0.3700524,-0.6987274,-1.4448472,-1.2921922,-0.0697476,0.06281186,-0.12296748,-0.40600163,-0.3275373,0.060043618,3.0782864,-0.6246031,-0.00010355534,-0.18402219,0.0025208455,0.0014227035,-0.0086598955,0.012135358,-0.0037375174,0.4181012,-1.4146761,1.9443201,-2.099357,-1.5701927,2.3929207,-0.15528919,0.30874982,-0.3687133,0.045413367,0.0023544484,-0.15133567,-0.32561144,0.30645782,-9.423578,0.99031126,47.67166,-1.2160909,-1.7747669,-3.7048926,-0.104112774,0.044768207,-0.21360861,26.25,27.125,26.25,29.375,30.5625,31.0
0.37205207,-0.09703634,-1.1736146,-1.265887,-0.028774213,0.029072233,-0.117857374,-0.40638644,-0.32753718,0.060064428,3.0782309,-0.62463063,-0.00020785387,-0.18643261,0.0023571604,0.0020085603,-0.009406622,0.014094659,-0.0088260835,0.41778922,-1.414075,1.9435648,-2.099285,-1.5701927,2.3926334,-0.15667613,0.31131917,-0.37312117,0.045158073,0.002247017,-0.1476316,-0.038307227,0.3256114,-9.442732,0.8806493,47.72808,-1.1016502,-1.57985,-3.5531337,-0.069599524,0.044080876,-0.2814209,26.25,27.125,26.25,29.375,30.5625,31.0
0.37405178,0.43979383,-1.0247996,-1.358662,-0.00025500107,0.0133014275,-0.12146197,-0.406785,-0.32752702,0.06008592,3.0781476,-0.62471306,-0.00031603605,-0.18850352,0.0029455088,0.0022835976,-0.009731379,0.014650174,-0.016170444,0.4174407,-1.4134736,1.9428099,-2.0992253,-1.5701808,2.3923473,-0.15925246,0.31344453,-0.37651214,0.045784753,0.0023296445,-0.14286202,-0.038307227,0.3256114,-9.270349,0.94331104,47.693153,-1.0025353,-1.5962957,-3.5756035,-0.02299181,0.038546816,-0.36739892,26.25,27.125,26.25,29.375,30.5625,31.0
0.37605244,0.9433735,-0.6039624,-1.1916741,-0.0007575565,0.0047649457,-0.12386849,-0.40713856,-0.32752815,0.060077872,3.0781322,-0.62472856,-0.00027374784,-0.18940243,0.0030516025,0.0026438965,-0.009813424,0.014657573,-0.019160274,0.41714138,-1.4128369,1.9420675,-2.0991046,-1.5701565,2.39206,-0.16002522,0.3144123,-0.37896755,0.047235627,0.002401394,-0.14064443,-0.038307227,0.38307226,-9.289502,1.0037369,47.687782,-1.144841,-1.4859138,-3.4995399,0.003220708,0.043943293,-0.43888867,26.25,27.125,26.25,29.375,30.5625,31.0
