Tylouw/Master_Thesis_Code/training_data/batch_1/big_rod_t0.2/sample_93_session_4.csv
timestamp[s],tcp_force_x[N],tcp_force_y[N],tcp_force_z[N],tcp_force_rx[Nm?],tcp_force_ry[Nm?],tcp_force_rz[Nm?],tcp_pose_x[m],tcp_pose_y[m],tcp_pose_z[m],tcp_pose_rx[rot_vec_x],tcp_pose_ry[rot_vec_y],tcp_pose_rz[rot_vec_z],tcp_velo_x[m/s],tcp_velo_y[m/s],tcp_velo_z[m/s],tcp_velo_rx[rot_vec_x/s],tcp_velo_ry[rot_vec_y/s],tcp_velo_rz[rot_vec_z/s],q1[rad],q2[rad],q3[rad],q4[rad],q5[rad],q6[rad],qd1[rad/s],qd2[rad/s],qd3[rad/s],qd4[rad/s],qd5[rad/s],qd6[rad/s],tool_acc_x,tool_acc_y,tool_acc_z,current_of_whole_robot[A],voltage_of_whole_robot[V],current_J1[A],current_J2[A],current_J3[A],current_J4[A],current_J5[A],current_J6[A],temp_J1[C],temp_J2[C],temp_J3[C],temp_J4[C],temp_J5[C],temp_J6[C]
9.61998e-07,0.12120142,-0.30041635,0.5355662,-0.019102905,0.03604514,-0.035994414,-0.37289837,-0.32820103,0.05992158,-3.0784256,0.62489337,-0.00029233692,0.0034672618,0.0016746338,-0.0044292817,0.0045244857,-0.009624447,-9.003629e-06,0.44812617,-1.4708134,2.0095737,-2.107703,-1.5706977,2.4230676,-6.90803e-05,0.0035804445,0.0059836623,0.0010700029,0.00010740128,-6.362157e-05,0.076614454,0.15322891,-8.90643,0.73741806,47.749577,-0.14978872,-2.8875158,-2.481393,-0.5037081,0.1474023,-0.101353325,27.25,28.3125,27.375,31.0,32.6875,33.375
0.0020544128,0.10049013,-0.12231619,0.5109242,-0.0144679295,0.02634934,-0.027176328,-0.37289903,-0.32821843,0.059951816,-3.0785027,0.62479323,-0.00020854126,-2.7338618e-05,-1.549662e-05,-0.0029212066,-0.000530114,0.0008343145,-5.1070674e-06,0.44815025,-1.4708732,2.0095737,-2.1077192,-1.5706857,2.4230194,-6.803589e-05,0.0033642165,0.0051825466,-0.0095287915,0.00010560115,-6.2880754e-05,0.095768064,0.15322891,-8.90643,0.7284641,47.72629,-0.16925985,-2.7838616,-2.408035,-0.4698705,0.17309365,-0.11473955,27.25,28.3125,27.375,31.0,32.6875,33.375
0.0040541952,0.26708046,0.40891984,0.26793385,-0.004447074,0.021499721,-0.03595529,-0.37287402,-0.328213,0.05991155,-3.0784745,0.62486506,-0.00033026235,-0.001460758,-0.00070877804,-0.0020657983,-0.0024707944,0.0048531774,-3.308833e-06,0.4481382,-1.4708374,2.0096323,-2.107744,-1.5706495,2.4230556,-6.702253e-05,0.003139182,0.0042148475,-0.012798955,0.00010386013,-6.215694e-05,0.076614454,0.19153613,-8.944737,0.80456203,47.737934,-0.11230631,-3.0304017,-2.5674493,-0.35243767,0.16556236,-0.12144313,27.25,28.3125,27.375,31.0,32.6875,33.375
0.006054271,0.3601178,0.4400313,0.1282601,0.020211635,0.003979454,-0.028380988,-0.37290165,-0.32821995,0.059929848,-3.078498,0.6249273,-0.00025717358,-0.00050848804,-0.00024800582,-0.0017265831,-0.0009613246,0.001739912,4.868851e-06,0.44812617,-1.4708377,2.0095956,-2.1077654,-1.5706495,2.4230795,-6.603902e-05,0.0023717517,0.0030473832,-0.0074041598,0.000102175676,-7.0356946e-05,0.038307227,0.11492168,-8.963891,0.8247004,47.729877,-0.12442975,-2.9988847,-2.5043833,-0.39519954,0.15323216,-0.1144425,27.25,28.3125,27.375,31.0,32.6875,33.375
0.008053468,0.87960035,1.6692832,-0.14629237,0.035833053,-0.013195996,-0.028705403,-0.37288246,-0.32823193,0.059914142,-3.0784996,0.6247925,-0.00027835587,0.00027036536,0.00012506115,-0.0014971622,0.00019925028,-0.00067727786,5.3863364e-06,0.4481742,-1.4708141,2.009608,-2.1077754,-1.5706614,2.4230433,-6.5083885e-05,0.0017242847,0.0023012944,-0.0033292652,0.00011120585,-7.079748e-05,-0.05746084,0.076614454,-9.059659,0.76874626,47.729877,-0.15860042,-2.9636374,-2.4840546,-0.42909703,0.14269033,-0.10309683,27.25,28.3125,27.375,31.0,32.6875,33.375
0.010053721,0.7111514,1.3518852,-0.46592283,0.047500342,-0.019604776,-0.032080967,-0.37287113,-0.32822442,0.059884876,-3.0784552,0.6248416,-0.00037937725,0.0005070529,0.00024295053,-0.0013217402,0.0006240099,-0.0015579882,-3.0918764e-06,0.4481623,-1.4707662,2.00962,-2.1077635,-1.5706495,2.4230676,-7.2604416e-05,0.001476369,0.0017700681,-0.0015723351,0.0001128618,-7.00902e-05,-0.038307227,0.1340753,-9.232041,0.8023209,47.741516,-0.46722454,-2.2949262,-3.174607,-0.45285776,0.14649267,-0.15628566,27.25,28.3125,27.375,31.0,32.6875,33.375
0.012053532,0.714413,0.35968,-0.79619795,0.023162782,0.01000111,-0.038749807,-0.3728542,-0.32820344,0.059860203,-3.0784078,0.62485147,-0.00047130862,0.00050640857,0.00025459143,-0.0040576444,0.0032149076,-0.0069493796,-9.6550475e-06,0.4481382,-1.4707514,2.0096548,-2.1077397,-1.5706495,2.4230556,-9.934167e-05,0.008643375,6.435783e-05,-0.0010520015,0.0001113385,-8.825765e-05,0.019153614,-0.076614454,-9.481039,0.7396539,47.71554,-0.6081446,-2.4087534,-3.3390737,-0.43907148,0.13562603,-0.17235556,27.25,28.3125,27.375,31.0,32.6875,33.375
0.014054414,0.3652684,-0.42568585,-0.79822373,-0.014568452,0.04317752,-0.044541553,-0.3728808,-0.32819137,0.059860475,-3.0783489,0.62487984,-0.00045405226,-0.0062460154,-2.020296e-05,-0.0027097943,0.0016377883,-0.0037259057,-0.0030652222,0.4481239,-1.4707009,2.0095904,-2.107703,-1.5706977,2.4230666,-0.0057335077,0.01687942,-0.012148036,-0.0006646956,0.00010965726,-0.0026583178,-0.1340753,0.095768064,-9.576807,0.73741806,47.723602,-0.44484103,-2.784631,-2.914424,-0.4310608,0.121019535,-0.206446,27.25,28.3125,27.375,31.0,32.6875,33.375
0.016053611,-0.7177698,-1.065168,-1.0972457,-0.040893834,0.061083775,-0.039415527,-0.3728642,-0.32820463,0.05985207,-3.078378,0.6248649,-0.0005569302,-0.0060306303,0.0013334749,-0.0037241734,0.0030003393,-0.0065508876,-0.00041939662,0.44812322,-1.4706887,2.0095909,-2.1076791,-1.5706376,2.4230528,-0.008083115,0.017640574,-0.010918168,0.0004801982,0.0001080132,-0.0076547093,-0.4213795,0.30645782,-9.825804,0.7105615,47.716442,-0.25091207,-2.669209,-3.0946665,-0.43908337,0.110183656,-0.15451625,27.25,28.3125,27.375,31.0,32.6875,33.375
0.018053409,-1.5473163,-1.6909425,-0.9609611,-0.07601262,0.08722252,-0.042639356,-0.37284747,-0.32817984,0.05982899,-3.0783074,0.6248673,-0.00066818274,-0.004651117,0.0012445699,-0.004292935,0.004468538,-0.00956899,0.0032006793,0.44809985,-1.4706645,2.0096033,-2.1076176,-1.5706495,2.42304,-0.0066535193,0.018124118,-0.010764077,0.0031984383,9.653661e-05,-0.009845995,-0.4405331,0.38307226,-9.80665,0.7329411,47.745995,-0.4425665,-2.4682148,-3.5295124,-0.44803673,0.095340386,-0.13150284,27.25,28.3125,27.375,31.0,32.6875,33.375
0.02005374,-2.2423663,-2.2457225,-0.9354871,-0.0816184,0.10042092,-0.044559255,-0.3728826,-0.32819256,0.059838682,-3.0783422,0.62475926,-0.0006113612,-0.0055333264,0.0009502185,-0.0037997607,0.0043658516,-0.009349569,0.0022498965,0.44809988,-1.4706161,2.0095308,-2.10763,-1.5706614,2.4229681,-0.0069003548,0.019306712,-0.013490226,0.004499754,9.1981965e-05,-0.009140593,-0.51714754,0.47884035,-9.844957,0.7553206,47.737934,-0.60898095,-2.4425554,-3.4376464,-0.45917574,0.0919199,-0.14651456,27.25,28.3125,27.375,31.0,32.6875,33.375
0.0220539,-1.8775547,-1.799599,-1.2441359,-0.07141998,0.109391846,-0.058632698,-0.37288746,-0.32819265,0.059826598,-3.0783334,0.6247769,-0.00065299746,-0.0068194615,0.0008284102,-0.0038691368,0.0041381572,-0.008887523,0.0018645272,0.4480875,-1.4705796,2.0095184,-2.10763,-1.5706495,2.422968,-0.007842118,0.021516366,-0.015619539,0.0039043634,9.0455855e-05,-0.00969518,-0.6703765,0.5746084,-9.921572,0.78217715,47.744205,-0.63783866,-2.440116,-3.4380395,-0.45153084,0.087270156,-0.1608028,27.25,28.3125,27.375,31.0,32.6875,33.375
0.024053402,-1.3889898,-1.2964308,-1.1621124,-0.054613993,0.10466139,-0.07153477,-0.3729066,-0.32820365,0.059829284,-3.078325,0.6247753,-0.0006397202,-0.008703742,0.0006706513,-0.002861173,0.0027340774,-0.005982416,0.0014983572,0.44809884,-1.4705316,2.0094569,-2.107618,-1.5706614,2.4229794,-0.009259198,0.021780506,-0.017959101,0.0027528876,8.916217e-05,-0.010744301,-0.5554548,0.5554548,-9.844957,0.7217513,47.685097,-0.5751872,-2.4406943,-3.420044,-0.43343735,0.07756688,-0.16100517,27.25,28.3125,27.375,31.0,32.6875,33.375
0.02605386,-0.9004945,-1.0367924,-0.97401965,-0.042875487,0.088179745,-0.07645979,-0.3729189,-0.32818827,0.059818167,-3.0783134,0.62481165,-0.0006796692,-0.010176208,0.00065506063,-0.0019195387,0.0014543505,-0.0033320563,0.00076601736,0.44805062,-1.4705079,2.0094564,-2.1076186,-1.5706495,2.4229553,-0.010567828,0.021368891,-0.019424012,0.0016863208,8.7947024e-05,-0.011319462,-0.49799395,0.4213795,-9.787497,0.7329411,47.687782,-0.69404674,-2.167194,-3.5420804,-0.41337544,0.059874333,-0.17760247,27.25,28.3125,27.375,31.0,32.6875,33.375
0.02805382,-1.2421693,-1.0954912,-0.9649758,-0.024363333,0.061619528,-0.09276806,-0.37294492,-0.3282049,0.059822284,-3.0783367,0.6248168,-0.0006614642,-0.011539732,0.00056712265,-0.001764414,0.0010993021,-0.0024987734,0.0007512505,0.4480501,-1.4704591,2.0093963,-2.107631,-1.5706376,2.422955,-0.011611804,0.023140209,-0.021612868,0.0011991796,4.0837982e-05,-0.012346832,-0.5554548,0.30645782,-9.80665,0.68818194,47.661808,-0.5967097,-2.2632227,-3.4522467,-0.39652956,0.040140297,-0.18136582,27.25,28.3125,27.375,31.0,32.6875,33.375
0.030053733,-0.9118427,-0.6847619,-0.8875904,-0.013373487,0.06904341,-0.09413867,-0.37297404,-0.32818872,0.059797466,-3.0782824,0.6247483,-0.0006752133,-0.013129632,0.00044925383,-0.001653401,0.00089686486,-0.0020457017,-0.00022387353,0.44802573,-1.4703624,2.0093472,-2.107631,-1.5706857,2.422895,-0.012823471,0.02564584,-0.024619482,0.0012035487,1.9855515e-05,-0.012581133,-0.5746084,0.28730422,-9.768343,0.7642693,47.699425,-0.73558617,-2.3511631,-3.4497838,-0.3601772,0.037562363,-0.15735835,27.25,28.3125,27.375,31.0,32.6875,33.375
0.032053582,-1.1673983,-0.36567163,-0.7879718,0.0030475564,0.06387574,-0.11599396,-0.37300754,-0.32821134,0.05981313,-3.0783317,0.6247971,-0.00064948347,-0.014629859,0.00042070888,-0.0009761412,0.00023890666,-0.0006452376,-0.00076015544,0.44801322,-1.4703263,2.0092742,-2.1076424,-1.5706495,2.4229066,-0.014121408,0.02648261,-0.027117785,0.0013182297,1.2964233e-06,-0.01334115,-0.49799395,0.15322891,-9.615114,0.7866488,47.685097,-0.71180004,-2.2709458,-3.416984,-0.35740808,0.008831673,-0.18486783,27.25,28.3125,27.375,31.0,32.6875,33.375
0.034053482,-0.77374005,0.39038008,-0.69023526,0.016743015,0.069142625,-0.12025707,-0.37302995,-0.32819214,0.059781753,-3.078276,0.6248057,-0.00072853506,-0.015671847,0.0007708804,-0.00062146597,0.0005957651,-0.0013897568,-0.001794474,0.44796473,-1.4702299,2.0092375,-2.10763,-1.5706614,2.4228706,-0.015726794,0.027772825,-0.029871382,0.0036069953,8.464718e-08,-0.013911037,-0.38307226,-0.095768064,-9.615114,0.779936,47.701214,-0.7171965,-2.285825,-3.3586373,-0.3471872,0.0162535,-0.19061312,27.25,28.3125,27.375,31.0,32.6875,33.375
0.036053915,-0.3505457,0.5748702,-0.42623806,0.036029264,0.06568842,-0.14151458,-0.37307745,-0.32818708,0.059793252,-3.078282,0.6248249,-0.00064558804,-0.016443115,0.0008357206,-8.240363e-05,0.0005810064,-0.0013617097,-0.0011553887,0.44792843,-1.4701939,2.009177,-2.1076534,-1.5706857,2.4228456,-0.016548596,0.028277082,-0.0320325,0.0052315877,5.5268563e-09,-0.015371027,-0.34476504,-0.076614454,-9.481039,0.683705,47.682407,-0.6735431,-2.2047896,-3.3442159,-0.37195107,0.009837967,-0.19474977,27.25,28.3125,27.375,31.0,32.6875,33.375
0.038053907,-0.7750797,0.6040778,-0.47847027,0.04697299,0.03622121,-0.14900082,-0.37312314,-0.32820502,0.05980489,-3.0783155,0.62483203,-0.0006387423,-0.017730538,0.00061742,0.0004647229,6.320085e-05,-0.00029591727,-0.00095924834,0.44790408,-1.4701216,2.0090683,-2.107641,-1.5706614,2.4228215,-0.017307512,0.029418413,-0.034595646,0.005468718,3.6086417e-10,-0.016324438,-0.21068975,-0.1340753,-9.442732,0.71951014,47.694946,-0.7196359,-2.1765637,-3.348763,-0.35438132,-0.033861298,-0.17258044,27.25,28.3125,27.375,31.0,32.6875,33.375
0.040053997,0.37441438,0.8871293,-0.44570228,0.04172097,0.05167015,-0.1683786,-0.37316257,-0.32820478,0.05981775,-3.0783255,0.62485385,-0.0006080898,-0.019285407,0.00058499374,0.00059290975,0.0010003272,0.0011399523,-0.001548067,0.4478681,-1.4700848,2.0089958,-2.1076295,-1.5706619,2.422798,-0.017662233,0.031773273,-0.03736813,0.0050032428,-0.0014729137,-0.01608511,-0.19153613,-0.15322891,-9.442732,0.75755644,47.693153,-0.6313065,-2.2170625,-3.3539991,-0.31588963,-0.02843973,-0.16667327,27.25,28.3125,27.375,31.0,32.6875,33.375
0.04205409,-0.576487,0.5737979,-0.46542686,0.035315916,0.024261596,-0.16695808,-0.3731994,-0.3282095,0.05981325,-3.0783184,0.6248535,-0.0006224242,-0.020377778,0.0009750324,0.00096163555,0.0017467318,0.0017721404,-0.0033887236,0.44784373,-1.4700006,2.008911,-2.1076171,-1.5706624,2.4227743,-0.018745108,0.03262997,-0.03935958,0.00589486,-0.0024213756,-0.015324269,-0.19153613,-0.076614454,-9.442732,0.7709874,47.72808,-0.6832681,-2.0894868,-3.4194562,-0.3184788,-0.04754866,-0.17425035,27.25,28.3125,27.375,31.0,32.6875,33.375
0.0440536,-0.32963797,0.105386116,-0.5756926,0.030345691,0.02512898,-0.1762463,-0.37324184,-0.32818285,0.059796482,-3.078228,0.6249116,-0.000625711,-0.020529892,0.0013679053,0.0009839004,0.003298975,0.0007653767,-0.0032820776,0.44779563,-1.4699048,2.0088384,-2.1075923,-1.5707225,2.422774,-0.01896879,0.033392552,-0.040755678,0.008110334,-0.0033835215,-0.015652128,-0.1340753,0.0,-9.481039,0.7150385,47.729877,-0.68521196,-2.0614624,-3.3859148,-0.32397375,-0.03568258,-0.18340823,27.25,28.3125,27.375,31.0,32.6875,33.375
0.046053957,0.055256814,0.42121774,-0.4260326,0.0043281917,0.02689532,-0.1909594,-0.3732801,-0.32818195,0.059794974,-3.0782385,0.62489444,-0.0006108708,-0.021113416,0.0014268636,0.0010676453,0.0038794952,9.860575e-05,-0.0035582052,0.44775945,-1.4698443,2.0087783,-2.1076043,-1.5707229,2.422726,-0.019449322,0.034756526,-0.042795483,0.009639219,-0.0036189721,-0.015855083,-0.17238252,0.05746084,-9.442732,0.75755644,47.741516,-0.65850806,-1.9832113,-3.3831635,-0.3267958,-0.05790294,-0.17877519,27.25,28.3125,27.375,31.0,32.6875,33.375
0.04805374,-0.4468132,-0.6391676,-0.7080811,0.012405098,0.0039933333,-0.19533126,-0.37332255,-0.32816845,0.05978203,-3.0782084,0.62494653,-0.0006832226,-0.02190723,0.0014623551,0.0010617926,0.0037264929,-0.00040187198,-0.0038490808,0.4476871,-1.469748,2.008694,-2.107568,-1.5707105,2.42269,-0.020472517,0.03624683,-0.04457475,0.0103116315,-0.0032680396,-0.016586892,-0.076614454,0.076614454,-9.481039,0.75084364,47.71286,-0.64250004,-2.0495079,-3.3885515,-0.32721084,-0.06311319,-0.16129011,27.25,28.3125,27.375,31.0,32.6875,33.375
0.05005349,0.28849742,-0.7384188,-0.8416149,-0.00786965,0.010739614,-0.20625338,-0.37339115,-0.32818648,0.059826296,-3.0782504,0.62493527,-0.00054126355,-0.022723038,0.001553121,0.0014742573,0.0036280125,-0.0003537922,-0.0041958382,0.44767475,-1.4697118,2.00855,-2.1075556,-1.5707344,2.4226654,-0.021427507,0.03691325,-0.04652648,0.011510157,-0.0032003003,-0.017194655,0.0,0.28730422,-9.500193,0.79560274,47.686886,-0.672431,-2.025945,-3.4679475,-0.31646866,-0.070108734,-0.1695545,27.25,28.3125,27.375,31.0,32.6875,33.375
0.05205426,-0.004463735,-0.6998586,-0.7333521,-0.02333574,0.0066077723,-0.21254872,-0.37343168,-0.32817617,0.059838273,-3.0782394,0.62501043,-0.000593368,-0.023550153,0.0016617053,0.0020603435,0.0042028236,0.0005705494,-0.004300707,0.44760263,-1.4696637,2.0084531,-2.1074831,-1.570711,2.4226415,-0.021756126,0.03724716,-0.04847362,0.012542336,-0.0041210256,-0.017415483,-0.038307227,0.34476504,-9.461885,0.7597976,47.687782,-0.63117623,-1.9239607,-3.4137745,-0.33600208,-0.088213906,-0.16749182,27.25,28.3125,27.375,31.0,32.6875,33.375
0.054054223,-0.25141692,-0.9793969,-0.8636983,-0.035602007,0.016994327,-0.20921177,-0.37346184,-0.3281475,0.059819266,-3.0781596,0.6249555,-0.00055925385,-0.024059542,0.0021406692,0.0015824033,0.006351295,-0.0008020316,-0.0034548303,0.44757846,-1.4695911,2.008417,-2.1074827,-1.5707954,2.4225934,-0.022209372,0.039589867,-0.050337337,0.014233456,-0.0054654945,-0.018710595,-0.05746084,0.38307226,-9.634268,0.82022345,47.690468,-0.5854804,-1.8498982,-3.4696028,-0.35444456,-0.072777554,-0.15398788,27.25,28.3125,27.375,31.0,32.6875,33.375
0.056053624,-0.62943774,-1.2693741,-0.78501654,-0.037058476,0.027693868,-0.19401054,-0.37350082,-0.32814935,0.05981741,-3.078167,0.6249759,-0.00069075567,-0.025476092,0.0024676179,0.0018332741,0.0072700297,0.00067869097,-0.0033252349,0.44750613,-1.4694948,2.0082963,-2.1073987,-1.5707358,2.4225328,-0.023107797,0.040964175,-0.052360177,0.013950437,-0.0069415565,-0.019733543,-0.076614454,0.4405331,-9.595961,0.78888994,47.721813,-0.6006365,-1.8434408,-3.465279,-0.36362174,-0.06926515,-0.14479677,27.25,28.3125,27.375,31.0,32.6875,33.375
0.058053363,-0.32843915,-1.5881538,-0.76997286,-0.036269907,0.05101153,-0.18980707,-0.37355804,-0.3281724,0.05984253,-3.0782046,0.6249645,-0.0005877108,-0.026739674,0.002555708,0.0018470959,0.0073916973,0.0011689916,-0.00359137,0.44750577,-1.4694344,2.0081751,-2.1074111,-1.5707482,2.4225206,-0.024198575,0.042843536,-0.054407034,0.013729291,-0.007267345,-0.020556416,-0.17238252,0.47884035,-9.672575,0.7597976,47.741516,-0.66858244,-1.820929,-3.4752765,-0.36321652,-0.06841159,-0.13795283,27.25,28.3125,27.375,31.0,32.6875,33.375
0.060054194,-0.6524294,-1.452013,-0.69615585,-0.045488797,0.050445434,-0.19418176,-0.37362286,-0.3281739,0.059849482,-3.07818,0.6250358,-0.0005778423,-0.027912136,0.002382995,0.0017576179,0.0076505053,0.002139793,-0.0029802993,0.44745776,-1.4693257,2.0080316,-2.1073754,-1.5707601,2.4225204,-0.024488,0.044947796,-0.05629313,0.012749444,-0.007927657,-0.021453762,-0.076614454,0.4405331,-9.519346,0.7665104,47.729877,-0.6223504,-1.8241141,-3.542126,-0.3647974,-0.084353015,-0.13524467,27.25,28.3125,27.375,31.0,32.6875,33.375
0.06205383,-0.77642345,-1.5875401,-0.7146737,-0.04323107,0.049805608,-0.18391539,-0.37366524,-0.32814917,0.05984182,-3.0781448,0.62502784,-0.0005576447,-0.029245073,0.0023999736,0.0019279522,0.008610056,0.003698595,-0.0022018987,0.44739762,-1.4692653,2.007983,-2.1073754,-1.5707968,2.4224598,-0.024680538,0.04674105,-0.05853145,0.012208285,-0.009474098,-0.022419529,-0.095768064,0.38307226,-9.557653,0.7597976,47.713753,-0.6495658,-1.8309747,-3.5204864,-0.3604643,-0.06666127,-0.11952984,27.25,28.3125,27.375,31.0,32.6875,33.375
0.06405392,-0.2903751,-1.0375931,-0.41402438,-0.042359553,0.05481783,-0.18913372,-0.37373865,-0.32816556,0.05984588,-3.0781732,0.62507147,-0.00057560526,-0.030786263,0.0023265183,0.0025522194,0.008957173,0.0056075724,-0.0015473097,0.4473375,-1.469133,2.0078256,-2.1073635,-1.5707611,2.4224234,-0.025160639,0.048004497,-0.061354563,0.012201049,-0.010619306,-0.023550034,-0.1340753,0.36391866,-9.461885,0.7620334,47.72271,-0.6910655,-1.7561314,-3.4964592,-0.34232825,-0.052462406,-0.105462134,27.25,28.3125,27.375,31.0,32.6875,33.375
0.066054285,-0.13802622,-0.801256,-0.43460584,-0.029496918,0.059535995,-0.18733992,-0.3737799,-0.32817262,0.05986263,-3.078195,0.62496066,-0.00057734066,-0.031582624,0.0023480407,0.0019946017,0.009600245,0.00540098,-0.0011775643,0.44731325,-1.4690721,2.0077069,-2.1073043,-1.5707611,2.4223273,-0.025586896,0.05047385,-0.06262282,0.011465709,-0.011114633,-0.024343612,-0.076614454,0.38307226,-9.423578,0.7351769,47.71823,-0.68268776,-1.8130356,-3.5355766,-0.33405778,-0.055494115,-0.104587436,27.25,28.3125,27.375,31.0,32.6875,33.375
0.06805435,-0.37965262,-0.66580635,-0.36953518,-0.020521663,0.04722024,-0.18758094,-0.3738706,-0.32817355,0.059873488,-3.0781617,0.6250493,-0.0004844343,-0.03388417,0.0011382704,0.003686613,0.0070966617,0.008812678,-0.0009457702,0.44726518,-1.4689403,2.0075371,-2.1073043,-1.5708092,2.422339,-0.025917875,0.051455993,-0.06753372,0.011230901,-0.010343213,-0.02490527,-0.24899697,0.4405331,-9.3661175,0.7284641,47.711063,-0.64364207,-1.7225176,-3.4451113,-0.3310455,-0.07240978,-0.086230725,27.25,28.3125,27.375,31.0,32.6875,33.375
0.070054166,-0.49237353,-0.16042504,-0.28910702,-0.023346258,0.049735025,-0.18856347,-0.37394053,-0.32817122,0.059894953,-3.0781708,0.6249937,-0.00045974617,-0.03355251,0.0010845214,0.0019938343,0.0075290445,0.0053336704,-0.0011833562,0.4472051,-1.4688551,2.0073807,-2.1072443,-1.5708207,2.422243,-0.026265867,0.05495596,-0.067438684,0.010954817,-0.0092285015,-0.025017535,-0.24899697,0.3256114,-9.385271,0.800085,47.72629,-0.6748775,-1.862266,-3.4568982,-0.32901523,-0.055909038,-0.077424556,27.25,28.3125,27.375,31.0,32.6875,33.375
0.072053924,-0.7047784,-0.85292053,-0.33697537,-0.0053376723,0.04632889,-0.18279701,-0.37399182,-0.3281509,0.059878536,-3.0781102,0.62503797,-0.0004707139,-0.034553558,0.0010080615,0.0018613258,0.007649015,0.0049382835,-0.00068304484,0.44714484,-1.4687465,2.0072963,-2.1072323,-1.5708569,2.4222183,-0.02706504,0.057218958,-0.06972486,0.011384267,-0.009171231,-0.026315222,-0.2681506,0.30645782,-9.3661175,0.7933669,47.72092,-0.68418634,-1.8458667,-3.4986777,-0.32186225,-0.080106124,-0.08435403,27.25,28.3125,27.375,31.0,32.6875,33.375
0.07405343,-0.83440644,-0.29567686,-0.14457794,-0.016311914,0.047093555,-0.17810029,-0.3740839,-0.32816967,0.059890278,-3.0781403,0.62504417,-0.00040818006,-0.03780472,0.00014755159,0.0049547404,0.005401751,0.011298922,-0.00036913608,0.4470965,-1.4686031,2.0071146,-2.1072443,-1.5708569,2.4221702,-0.02789063,0.056252934,-0.07585123,0.011771453,-0.009906293,-0.027450293,-0.22984336,0.21068975,-9.32781,0.7709874,47.737934,-0.7340061,-1.7478772,-3.3409777,-0.31304312,-0.09302888,-0.057299692,27.25,28.3125,27.375,31.0,32.6875,33.375
0.07605373,-0.44401157,0.22577271,-0.11969277,-0.016779028,0.05921119,-0.18269195,-0.37416264,-0.3281566,0.059904464,-3.0781312,0.6251582,-0.00038026628,-0.03732351,0.00036309936,0.0034866496,0.006594461,0.008596957,-0.00064875575,0.44700053,-1.4685184,2.0069835,-2.1072204,-1.5708569,2.4221466,-0.027915351,0.05877055,-0.075208396,0.011561875,-0.009811457,-0.027195744,-0.36391866,0.1340753,-9.346964,0.7083204,47.67166,-0.74013865,-1.6816442,-3.3329935,-0.28979307,-0.10262266,-0.05583877,27.25,28.3125,27.375,31.0,32.6875,33.375
0.0780535,-0.40911376,0.14480703,-0.02893562,-0.00537597,0.063642144,-0.1846602,-0.37422636,-0.3281741,0.0599078,-3.078132,0.6250429,-0.0003314989,-0.038907927,0.00010203795,0.002862119,0.00799922,0.007416618,-0.0012233093,0.44700038,-1.4683847,2.0068262,-2.107208,-1.5708936,2.4220746,-0.028344832,0.06389331,-0.07963669,0.0125408145,-0.010574768,-0.027046083,-0.3256114,0.21068975,-9.270349,0.8023209,47.72719,-0.7745741,-1.907716,-3.359844,-0.30105078,-0.08902311,-0.06039935,27.25,28.3125,27.375,31.0,32.6875,33.375
0.080054045,-0.43521413,0.19041362,0.13476948,-0.004344078,0.06471311,-0.19399846,-0.37428194,-0.32817316,0.05990482,-3.0781069,0.6250381,-0.00041599965,-0.040773474,0.00014480278,0.0046007987,0.0073880395,0.011189913,-0.0021821822,0.44694006,-1.4682535,2.0066698,-2.1071246,-1.5708817,2.4220145,-0.029373012,0.062811926,-0.08250788,0.012830156,-0.011661343,-0.027111072,-0.3256114,0.1340753,-9.270349,0.7978386,47.717335,-0.7113531,-1.7462745,-3.218156,-0.29264998,-0.106221184,-0.064950384,27.25,28.3125,27.375,31.0,32.6875,33.375
0.08205353,-0.7190498,-0.018225014,-0.103998624,0.0010375475,0.052208874,-0.18400082,-0.37437066,-0.32816258,0.05991522,-3.0780976,0.62509406,-0.0003507708,-0.041232046,0.00020689031,0.0038551064,0.008385693,0.009482142,-0.0019391279,0.44685587,-1.4681448,2.0065262,-2.107124,-1.5709056,2.4219666,-0.029786907,0.065706916,-0.0841501,0.01354731,-0.011823784,-0.027766872,-0.34476504,0.2681506,-9.3661175,0.8112748,47.71286,-0.7444206,-1.706218,-3.19636,-0.28491965,-0.090569586,-0.0729924,27.25,28.3125,27.375,31.0,32.6875,33.375
0.084053375,-0.4925715,0.27054912,0.008591267,-0.005152934,0.058291346,-0.18264864,-0.37445316,-0.32818064,0.05992035,-3.0780938,0.625016,-0.00032689233,-0.042890266,0.00026266353,0.0040060845,0.009742585,0.010478732,-0.0017156062,0.44683173,-1.467976,2.0063207,-2.1070879,-1.5709304,2.4218943,-0.030265765,0.06845293,-0.08761939,0.013962897,-0.013484801,-0.028463496,-0.4405331,0.2681506,-9.3661175,0.8717007,47.721813,-0.77715874,-1.7865738,-3.2591128,-0.27948922,-0.06929249,-0.06369005,27.25,28.3125,27.375,31.0,32.6875,33.375
0.08605377,-0.47425243,0.05582917,-0.1377116,-0.016412534,0.06346355,-0.1823089,-0.37457803,-0.32819602,0.059967224,-3.078153,0.6250848,-0.00017971943,-0.042445906,0.0008853398,0.0027066062,0.011560583,0.007320579,-0.002461252,0.44674748,-1.4678674,2.0060937,-2.1070874,-1.5709304,2.4218457,-0.030839225,0.07066536,-0.08733923,0.015103889,-0.013752887,-0.028292542,-0.38307226,0.22984336,-9.32781,0.7463667,47.713753,-0.773903,-1.8382322,-3.155253,-0.2851057,-0.07267253,-0.05482021,27.25,28.3125,27.375,31.0,32.6875,33.375
0.08805381,-0.6462906,-0.14675914,-0.16152586,-0.019578023,0.06090787,-0.177373,-0.37461993,-0.32817528,0.059928875,-3.0780382,0.62508076,-0.00025756727,-0.04295644,0.0012933108,0.0023468432,0.012929673,0.0066692512,-0.0026893744,0.44671142,-1.4676993,2.005986,-2.1070397,-1.5709909,2.4218218,-0.0314169,0.072295584,-0.08847442,0.01578881,-0.014710319,-0.028637948,-0.47884035,0.19153613,-9.308657,0.784413,47.701214,-0.81630474,-1.7664857,-3.3400705,-0.2842037,-0.07591003,-0.0661488,27.25,28.3125,27.375,31.0,32.6875,33.375
0.09005354,-0.63020825,-0.41365552,-0.23472087,-0.023215463,0.06590531,-0.18195029,-0.37474462,-0.32816893,0.059957527,-3.0780282,0.6250787,-0.0001245742,-0.045687106,0.0006476431,0.0036861845,0.011258641,0.008755155,-0.0033811086,0.4466268,-1.4675546,2.0057557,-2.1070154,-1.5710505,2.4217374,-0.03306763,0.074592404,-0.094286494,0.016695399,-0.014113117,-0.029595489,-0.40222588,0.24899697,-9.32781,0.7530795,47.694054,-0.7602359,-1.8878446,-3.1184785,-0.2925823,-0.07913223,-0.058503732,27.25,28.3125,27.375,31.0,32.6875,33.375
0.09205344,-0.57903945,-0.18119434,-0.067102805,-0.026736677,0.067293696,-0.18858165,-0.3748213,-0.3281653,0.059950773,-3.0780158,0.625077,-0.00018265283,-0.045648765,0.0013310835,0.002638492,0.012877486,0.0070652463,-0.0046065743,0.4465425,-1.4673984,2.0055883,-2.1069672,-1.5710386,2.4216537,-0.03381243,0.07633893,-0.09381978,0.016707538,-0.014843018,-0.029112859,-0.4213795,0.17238252,-9.385271,0.8023209,47.723602,-0.71683574,-1.8519322,-3.343814,-0.28145653,-0.052884527,-0.078333795,27.25,28.3125,27.375,31.0,32.6875,33.375
0.094053395,-0.837847,-0.24400759,-0.06770132,-0.018668141,0.05754568,-0.17447804,-0.3749513,-0.3281701,0.059982695,-3.078018,0.62513644,-6.049602e-05,-0.04712115,0.0012531003,0.0025029448,0.013129209,0.007361789,-0.0066346745,0.44645828,-1.4672418,2.0053375,-2.1069434,-1.5710748,2.4216065,-0.03474211,0.079181135,-0.096594214,0.016480612,-0.015201878,-0.028012644,-0.3256114,0.19153613,-9.32781,0.72622824,47.752266,-0.7429167,-1.892215,-3.2339435,-0.2449185,-0.061637454,-0.09532135,27.25,28.3125,27.375,31.0,32.6875,33.375
0.09605396,-0.5268937,-0.1959338,-0.10357352,-0.004145073,0.05488821,-0.18029962,-0.37500653,-0.3281839,0.05996113,-3.0779831,0.62512803,-0.00013418464,-0.048072856,0.0008757238,0.002620828,0.013862727,0.007891833,-0.005804758,0.44643444,-1.4670613,2.0051801,-2.1069076,-1.5710753,2.421582,-0.03428448,0.081334405,-0.099347904,0.016922295,-0.016099038,-0.028380418,-0.17238252,0.22984336,-9.32781,0.7418897,47.737934,-0.77555984,-1.8568513,-3.156808,-0.24587569,-0.06558322,-0.10468407,27.25,28.3125,27.375,31.0,32.6875,33.375
0.098054215,-0.1877055,-0.04915211,-0.1312254,-0.005798288,0.049315408,-0.18581785,-0.37512982,-0.32818544,0.06000587,-3.0779893,0.62524456,1.7507691e-05,-0.048842598,0.001349529,0.0021315985,0.014039305,0.006589063,-0.0060346536,0.44634968,-1.4669527,2.0049527,-2.1068833,-1.5711106,2.4215693,-0.036127724,0.083265044,-0.10045488,0.017345235,-0.015695252,-0.029995238,-0.1340753,0.24899697,-9.308656,0.7284641,47.711063,-0.75892323,-1.879564,-3.2679834,-0.23192042,-0.058722965,-0.09612269,27.25,28.3125,27.375,31.0,32.6875,33.375
0.1000537,0.070517264,-0.123536035,-0.26374245,-0.006823358,0.04178893,-0.18910752,-0.37521797,-0.32817453,0.05999026,-3.0779402,0.62517726,-4.945528e-05,-0.050071124,0.0010965375,0.0025807645,0.013752099,0.0071158027,-0.0062281494,0.44626555,-1.4667485,2.0047472,-2.1068108,-1.5711344,2.4214497,-0.036768593,0.08483015,-0.103400856,0.01812461,-0.01567038,-0.030439809,-0.21068975,0.24899697,-9.346964,0.8090337,47.73077,-0.7430775,-1.8658705,-3.1672149,-0.22190106,-0.045627713,-0.10653052,27.25,28.3125,27.375,31.0,32.6875,33.375
0.10205343,-0.2147429,-0.6833898,-0.49795604,-0.013106585,0.030031178,-0.18035686,-0.37532002,-0.32817623,0.05998501,-3.077913,0.62521076,-2.8654305e-05,-0.050879955,0.0014827118,0.0016683947,0.013997141,0.004823804,-0.00816852,0.44619286,-1.4665558,2.0045445,-2.1067994,-1.5711588,2.4214015,-0.03872906,0.08798956,-0.10492518,0.01865824,-0.014904402,-0.030460184,-0.21068975,0.30645782,-9.32781,0.7665104,47.71465,-0.7324173,-1.8917978,-3.17091,-0.20664664,-0.04799527,-0.10509685,27.25,28.3125,27.375,31.0,32.6875,33.375
0.10405351,-0.39896247,-1.0283626,-0.435771,-0.01941095,0.033600524,-0.17524669,-0.3754552,-0.32818124,0.060013287,-3.077933,0.6252341,8.381042e-05,-0.05182566,0.0016246676,0.0022353022,0.013907761,0.0061479188,-0.008519731,0.44609645,-1.4663882,2.0042922,-2.1067865,-1.5711831,2.4213173,-0.039499085,0.088041134,-0.10631907,0.018766811,-0.0153959375,-0.030878356,-0.21068975,0.22984336,-9.32781,0.7553206,47.75316,-0.643269,-1.9446092,-3.2326574,-0.22311324,-0.021995833,-0.12563999,27.25,28.3125,27.375,31.0,32.6875,33.375
0.10605354,-0.206605,-0.76878744,-0.37523213,-0.04019915,0.04619872,-0.17931168,-0.37553766,-0.32816777,0.060009316,-3.077844,0.625292,8.0785445e-05,-0.05227968,0.0009202485,0.0023748113,0.013449521,0.0062557203,-0.007688973,0.44603688,-1.4662201,2.0041,-2.106715,-1.5712427,2.4213054,-0.03882278,0.08946945,-0.108278,0.018998332,-0.015034234,-0.031031502,-0.1340753,0.28730422,-9.346964,0.7486078,47.71017,-0.65581304,-1.7795916,-3.1937056,-0.19076353,-0.03302464,-0.1270722,27.25,28.3125,27.375,31.0,32.6875,33.375
0.10805332,-0.0748406,-0.8496901,-0.36465973,-0.037809778,0.04413457,-0.1742917,-0.37564582,-0.32818568,0.06002321,-3.0778706,0.6252776,9.680582e-05,-0.05230067,0.0009936743,0.00072651,0.014645604,0.0028580073,-0.007877318,0.44596472,-1.4660388,2.0038602,-2.1066787,-1.5712308,2.421221,-0.039227806,0.093618825,-0.109155826,0.019305853,-0.014648401,-0.031248206,-0.15322891,0.34476504,-9.346964,0.76874626,47.734352,-0.7760974,-2.0260196,-3.3114767,-0.18578634,-0.05426416,-0.14372858,27.25,28.3125,27.375,31.0,32.6875,33.375
0.11005482,-0.4528152,-0.77850705,-0.25662,-0.03191528,0.029287055,-0.17662728,-0.37575343,-0.32817516,0.06000725,-3.0778158,0.6252869,0.000112074005,-0.053320307,0.0013468254,0.0009660745,0.014072746,0.0029475975,-0.00935609,0.44587997,-1.465823,2.0036566,-2.1066673,-1.5712785,2.4211493,-0.041114863,0.094247885,-0.11050573,0.019694092,-0.014173428,-0.031656332,-0.095768064,0.2681506,-9.346964,0.75755644,47.72719,-0.72392905,-1.9260533,-3.3598115,-0.17378013,-0.030555233,-0.18059283,27.25,28.3125,27.375,31.0,32.6875,33.375
0.11205379,-0.16308068,-0.6323858,-0.2882839,-0.010637608,0.022207621,-0.17794487,-0.37588742,-0.32819062,0.0600345,-3.0778563,0.6252556,0.00021160327,-0.054001756,0.0012912517,0.00025315353,0.014643297,0.0015691265,-0.009048879,0.445796,-1.4656421,2.003392,-2.1066544,-1.5712904,2.4210408,-0.0416614,0.09732911,-0.1123364,0.019930815,-0.014095608,-0.032509763,-0.038307227,0.28730422,-9.404425,0.7597976,47.71286,-0.643366,-2.0083585,-3.3466542,-0.15886074,-0.016584184,-0.16124947,27.25,28.3125,27.375,31.0,32.6875,33.375
0.114054,-0.05194712,-0.30989268,-0.352887,0.0012787239,0.014413964,-0.1699289,-0.37597898,-0.32818332,0.06001932,-3.0777984,0.62535924,0.00013549931,-0.055813745,0.0005336187,0.0013346563,0.013561695,0.0035695366,-0.008551315,0.44569972,-1.4654381,2.0031884,-2.1065943,-1.5712904,2.4210167,-0.041929804,0.09883471,-0.116604336,0.020419603,-0.01399279,-0.0332725,-0.17238252,0.21068975,-9.346964,0.7978386,47.701214,-0.72682226,-1.939394,-3.2522578,-0.14013511,-0.032688417,-0.18592472,27.25,28.3125,27.375,31.0,32.6875,33.375
0.11605356,0.43266535,0.050199427,-0.20418599,0.0068234103,0.02537224,-0.18299904,-0.3760752,-0.32817605,0.06001952,-3.0777593,0.6253121,0.00019153731,-0.05499246,0.001131538,-0.00020181977,0.014915373,0.0005718171,-0.0084785465,0.44563976,-1.4652698,2.0029972,-2.106571,-1.5713505,2.4209325,-0.042347964,0.10046242,-0.11487621,0.020348711,-0.0139190415,-0.033764344,-0.1340753,0.24899697,-9.251195,0.7642693,47.719128,-0.7497737,-1.9764848,-3.437403,-0.12563477,-0.04461129,-0.20176676,27.25,28.3125,27.375,31.0,32.6875,33.375
0.11805377,0.2835607,0.41953295,-0.14620474,0.0019413542,0.032543182,-0.19135809,-0.37618297,-0.3281789,0.060011134,-3.0777118,0.6253216,0.00012735846,-0.05643749,0.0001997108,0.0005338568,0.013481774,0.0016168156,-0.0083348015,0.4455556,-1.4650297,2.0027325,-2.106487,-1.5713619,2.4208605,-0.04245073,0.10232374,-0.11873602,0.020781655,-0.013085616,-0.034009304,-0.13407528,0.24899697,-9.212888,0.7709874,47.71554,-0.7615572,-1.9078948,-3.262425,-0.122819275,-0.024792576,-0.21438956,27.25,28.3125,27.375,31.0,32.6875,33.375
0.12005348,-0.09112361,0.23358315,-0.09677642,-0.0027533441,0.033605054,-0.17828949,-0.3763154,-0.32816994,0.060026888,-3.0776994,0.6253955,0.00019372575,-0.056797396,0.00031664656,0.0008140249,0.013491692,0.0012932605,-0.007594628,0.4454355,-1.46485,2.0024927,-2.1064622,-1.5713857,2.4207883,-0.04306062,0.10255332,-0.1199366,0.022044925,-0.012954843,-0.03535974,-0.095768064,0.19153613,-9.308656,0.8157518,47.734352,-0.7861619,-1.913358,-3.420858,-0.09054591,-0.0588578,-0.22885627,27.25,28.3125,27.375,31.0,32.6875,33.375
0.12205437,-0.29164317,-0.04101355,-0.054849945,-0.016798964,0.042824123,-0.17825763,-0.37643528,-0.328174,0.060028963,-3.077673,0.6254278,0.00021549052,-0.056519628,0.00029384444,-0.00055589835,0.014926095,-0.0026146302,-0.0060070357,0.44535145,-1.4646329,2.0022404,-2.1064265,-1.5714101,2.420728,-0.04301518,0.1062867,-0.121350266,0.023865143,-0.0125659695,-0.036901787,-0.11492168,0.076614454,-9.289502,0.75755644,47.723602,-0.77065355,-1.9963663,-3.4458075,-0.10148032,-0.073496655,-0.2086595,27.25,28.3125,27.375,31.0,32.6875,33.375
0.12405408,-0.2962115,-0.08283755,-0.1743926,-0.0072540743,0.035422444,-0.17481078,-0.37653884,-0.32817242,0.060034644,-3.0776315,0.6254177,0.0002202008,-0.058466665,-0.000373124,0.0017599342,0.014051214,0.0016127307,-0.005397183,0.44527957,-1.4644417,2.002,-2.106354,-1.5714463,2.4206553,-0.04280219,0.10535035,-0.12594903,0.025209446,-0.013605594,-0.037294146,-0.15322891,0.11492168,-9.2703495,0.7530795,47.72629,-0.88373077,-1.7804894,-3.355649,-0.08660127,-0.07097024,-0.23392338,27.25,28.3125,27.375,31.0,32.6875,33.375
0.12605374,-0.12918466,-0.11046109,-0.29508537,0.006117412,0.038689103,-0.17360695,-0.3766571,-0.32817551,0.060039815,-3.0775943,0.6253529,0.0002724537,-0.057494074,0.00030605463,-0.00095596234,0.016733577,-0.0043763574,-0.0065667005,0.44521937,-1.4642242,2.0017374,-2.1063054,-1.5715064,2.4205596,-0.043296266,0.11006448,-0.12519488,0.026298657,-0.013443208,-0.036619034,-0.076614454,0.076614454,-9.289502,0.87393653,47.717335,-0.91491425,-2.000525,-3.5180533,-0.09216344,-0.05419016,-0.26446512,27.25,28.3125,27.375,31.0,32.6875,33.375
0.12805343,-0.16697259,0.0333212,-0.49142238,0.008959393,0.034192327,-0.1817145,-0.37677494,-0.32817402,0.0600332,-3.077548,0.62544006,0.00021453912,-0.05974181,0.0005620274,0.0011236105,0.015788836,-0.0002155642,-0.0072052362,0.44511077,-1.4639854,2.0014727,-2.1062334,-1.5715069,2.4205115,-0.045136344,0.10856529,-0.12847023,0.026911844,-0.014391161,-0.037816554,-0.05746084,0.11492168,-9.346964,0.7866488,47.701214,-0.88028014,-1.7335339,-3.3669853,-0.09069288,-0.06625715,-0.2693641,27.25,28.3125,27.375,31.0,32.6875,33.375
0.13005413,-0.36216938,-0.14894022,-0.528274,0.010720987,0.023084793,-0.17226443,-0.37690184,-0.32819068,0.060048684,-3.0775416,0.6254753,0.0003064387,-0.060285658,-0.0011307442,0.0011635969,0.0154484,-0.0008733099,-0.004388097,0.4450515,-1.4637806,2.0012085,-2.106221,-1.5715421,2.4204752,-0.04283706,0.11216768,-0.1328323,0.02811385,-0.01380617,-0.03833351,-0.11492168,0.17238252,-9.32781,0.75084364,47.692257,-0.92779374,-1.8165545,-3.3309727,-0.08863726,-0.063562624,-0.2897646,27.25,28.3125,27.375,31.0,32.6875,33.375
0.13205387,-0.44315922,-0.25537658,-0.53550047,0.00089205144,0.023122188,-0.16704309,-0.3770457,-0.32818273,0.060061466,-3.077516,0.6255651,0.0002913954,-0.060894582,-0.0010926862,0.0010295594,0.016463192,-0.001173262,-0.0035834152,0.4449076,-1.4635524,2.0009081,-2.106137,-1.5715426,2.4203908,-0.04289821,0.113926396,-0.13466845,0.028898796,-0.01459721,-0.039196502,-0.1340753,0.2681506,-9.3661175,0.8627467,47.681515,-1.1404136,-1.8663461,-3.3742094,-0.07411847,-0.058327027,-0.30550194,27.25,28.3125,27.375,31.0,32.6875,33.375
0.13405429,-0.37405977,-0.35215387,-0.6725222,-0.02046166,0.036666065,-0.17818817,-0.3771476,-0.32817793,0.06005334,-3.0774455,0.62549335,0.00027199846,-0.061812438,-0.0011003014,0.0013513921,0.015559168,-0.0015217114,-0.004328562,0.44484705,-1.4633243,2.000656,-2.1060526,-1.5716022,2.4202948,-0.044340767,0.11486824,-0.13670027,0.029906873,-0.01363652,-0.039894022,-0.17238252,0.34476504,-9.385271,0.84484416,47.7254,-1.0351009,-1.7415614,-3.3506603,-0.07645826,-0.05001474,-0.31739074,27.25,28.3125,27.375,31.0,32.6875,33.375
0.13605414,-0.22725628,-1.1365453,-0.7841332,-0.038704015,0.050989825,-0.18232381,-0.37724605,-0.3281738,0.06004165,-3.0774064,0.6255061,0.00019633694,-0.06266928,-0.0010028273,0.0015335454,0.015845934,-0.0018270429,-0.0065100007,0.44475073,-1.4631084,2.000428,-2.1059806,-1.5716022,2.4202116,-0.045186467,0.116231784,-0.13893658,0.031179285,-0.013768191,-0.038556065,-0.1340753,0.30645782,-9.519346,0.88960326,47.70838,-1.1079025,-1.774446,-3.3411539,-0.073417604,-0.08432318,-0.34837726,27.25,28.3125,27.375,31.0,32.6875,33.375
0.13805413,-0.9740056,-1.6690564,-0.87174463,-0.04859502,0.041232917,-0.17168121,-0.37738776,-0.3281945,0.060068224,-3.0773988,0.62548524,0.00023325354,-0.0640059,-0.00077810936,0.001939617,0.016209856,-0.0013646036,-0.008175008,0.4446782,-1.4628681,2.0000799,-2.1058848,-1.5716261,2.4201272,-0.046429295,0.11763187,-0.14168678,0.03226899,-0.014298912,-0.038131453,-0.22984336,0.40222588,-9.653421,0.80456203,47.70838,-1.0358808,-1.6356792,-3.385635,-0.09229961,-0.07345629,-0.38975656,27.25,28.3125,27.375,31.0,32.6875,33.375
0.14005412,-0.9467289,-1.3942293,-0.7723356,-0.05724057,0.048486467,-0.17505668,-0.37751502,-0.32818928,0.060062826,-3.0773547,0.62553173,0.00022541377,-0.064050995,-0.0011281304,0.0012465726,0.017701805,-0.0025004477,-0.004766227,0.4445708,-1.4626281,1.9998163,-2.1058366,-1.5716509,2.4200547,-0.04521418,0.1203116,-0.14319752,0.03276528,-0.015162734,-0.040321805,-0.30645782,0.47884035,-9.615114,0.85155696,47.70659,-1.1926461,-1.7218,-3.4141421,-0.102866374,-0.06917974,-0.4030875,27.25,28.3125,27.375,31.0,32.6875,33.375
0.14205438,-0.4791475,-1.1647853,-0.80398583,-0.054260604,0.067437924,-0.18271242,-0.3776442,-0.3281997,0.06006662,-3.0773199,0.625447,0.00021104373,-0.06483418,-0.0009849943,0.00029085233,0.018229302,-0.0046473923,-0.004252991,0.44449836,-1.4623631,1.999493,-2.1057403,-1.5716866,2.419934,-0.046463124,0.12390614,-0.14511977,0.03325199,-0.0147222625,-0.04208288,-0.22984336,0.47884035,-9.672575,0.8157518,47.705692,-1.1921154,-1.6443803,-3.393588,-0.076773055,-0.07164264,-0.39644954,27.25,28.3125,27.375,31.0,32.6875,33.375
0.14405352,-0.27185744,-1.0473405,-0.91039705,-0.040550716,0.06488293,-0.18459494,-0.377776,-0.3282049,0.06007174,-3.0773163,0.62554276,0.00024235868,-0.06646481,-0.0006699613,0.0013349967,0.017948724,-0.0018004185,-0.004481707,0.44438982,-1.4621478,1.9992408,-2.1057289,-1.5716866,2.4198859,-0.04783244,0.12349488,-0.14698909,0.032842148,-0.015698815,-0.04322066,-0.17238252,0.4213795,-9.557653,0.73741806,47.679718,-1.1548202,-1.7643268,-3.4438329,-0.0875112,-0.09066522,-0.4144892,27.25,28.3125,27.375,31.0,32.6875,33.375
0.14605361,-0.1866638,-1.1122378,-0.70129144,-0.03317374,0.059303924,-0.1735977,-0.37789133,-0.32819372,0.060051512,-3.0772378,0.625468,0.00020627012,-0.066579685,-0.00069593824,-0.0013053378,0.019272767,-0.006614045,-0.003863289,0.44430578,-1.461882,1.9989771,-2.1056573,-1.5717467,2.4197655,-0.04845342,0.12994647,-0.1479735,0.03228182,-0.014833542,-0.04445915,-0.1340753,0.36391866,-9.5385,0.80679786,47.729877,-1.1491262,-1.7796397,-3.4067397,-0.082610406,-0.09355752,-0.4242532,27.25,28.3125,27.375,31.0,32.6875,33.375
0.14805429,-0.14493018,-0.8760887,-0.5516889,-0.033871364,0.05063319,-0.18702057,-0.3780652,-0.3281847,0.06008102,-3.0771835,0.62560964,0.00030920768,-0.068879925,-0.0010031086,0.00034287426,0.018292202,-0.002833821,-0.0028611238,0.44417346,-1.4616421,1.998628,-2.1055853,-1.5718068,2.4197288,-0.04940503,0.1301256,-0.15197161,0.03226166,-0.015582726,-0.046409536,-0.21068975,0.38307226,-9.481039,0.83589023,47.711063,-1.1879954,-1.6563991,-3.386139,-0.05060991,-0.08255098,-0.44123328,27.25,28.3125,27.375,31.0,32.6875,33.375
0.15005417,-0.41063654,-0.47537652,-0.50571674,-0.028442185,0.041371614,-0.18524416,-0.3781993,-0.32821485,0.06008952,-3.0772421,0.6255433,0.00027410343,-0.0693192,-0.0008307797,-0.0006504298,0.019467503,-0.0049680728,-0.00048475096,0.44407725,-1.4613894,1.9983181,-2.1055372,-1.5717586,2.4195838,-0.0499975,0.13340192,-0.15350723,0.03295081,-0.015731523,-0.049377035,-0.21068975,0.30645782,-9.500193,0.8605109,47.721813,-1.1432055,-1.7651526,-3.3749788,-0.042667277,-0.09134278,-0.4170677,27.25,28.3125,27.375,31.0,32.6875,33.375
0.15205416,-0.5616749,-0.42677054,-0.6293127,-0.01729436,0.030989524,-0.17868654,-0.37834853,-0.32822362,0.06009994,-3.07719,0.62557036,0.00030427185,-0.070712864,-0.0005203633,-0.00042044738,0.019577608,-0.0049083414,0.00018302692,0.4439926,-1.4611136,1.99797,-2.1054528,-1.5718073,2.419523,-0.051711906,0.13507214,-0.15612955,0.03389,-0.01586347,-0.051757284,-0.19153614,0.2873042,-9.461885,0.8157518,47.69763,-1.2088621,-1.7570751,-3.3416154,-0.052740388,-0.12372369,-0.41001272,27.25,28.3125,27.375,31.0,32.6875,33.375
0.15405442,-0.6417926,-0.44097888,-0.25469503,-0.007982657,0.03759581,-0.17670585,-0.37851095,-0.32824984,0.06011336,-3.0772018,0.62555206,0.00041262974,-0.07214056,-0.00082448864,0.0002008853,0.018444842,-0.004551735,0.0021765789,0.44392017,-1.4608374,1.9976338,-2.1054528,-1.571843,2.419438,-0.052976586,0.13653828,-0.15944687,0.03492226,-0.014998349,-0.055016518,-0.30645782,0.2681506,-9.423578,0.74413085,47.768383,-1.172327,-1.8279862,-3.2151413,-0.03949459,-0.1277614,-0.39408058,27.25,28.3125,27.375,31.0,32.6875,33.375
0.15605348,-0.7023042,-0.46701568,-0.24442032,0.0043340195,0.03954018,-0.17210187,-0.37865257,-0.32822967,0.060110725,-3.077133,0.6255171,0.00037993875,-0.07350969,-0.00059069897,-0.0007166491,0.019778341,-0.0062755025,0.0040576905,0.44378772,-1.4605722,1.997322,-2.1053445,-1.5718907,2.4192927,-0.054290544,0.14112926,-0.16261756,0.035624146,-0.015475002,-0.058207322,-0.28730422,0.19153613,-9.442732,0.8090337,47.72719,-1.1498799,-2.0514896,-3.3538096,-0.038119487,-0.12251292,-0.35484654,27.25,28.3125,27.375,31.0,32.6875,33.375
0.15805426,-0.7143465,0.1661052,-0.003406258,0.0038159618,0.050576016,-0.18029681,-0.37879723,-0.3282152,0.060102105,-3.0771031,0.6255489,0.00033098587,-0.07356045,6.219922e-06,-0.0015742043,0.020932108,-0.0084807305,0.0060739843,0.44363135,-1.4603084,1.9970359,-2.105284,-1.5718907,2.4191601,-0.055350512,0.14293614,-0.16290756,0.03658806,-0.015575789,-0.06128265,-0.34476504,0.15322891,-9.346964,0.8179876,47.729877,-1.1531606,-1.786715,-3.3410592,-0.03659655,-0.12448071,-0.32927147,27.25,28.3125,27.375,30.9375,32.6875,33.375
0.16005418,-1.1969314,0.45104104,0.100409165,0.0032568749,0.04871961,-0.18201728,-0.37893736,-0.32821554,0.060086153,-3.0770445,0.62541974,0.0003136536,-0.073810816,0.00013843935,-0.0016720422,0.022036111,-0.009561229,0.008964926,0.44354725,-1.4599963,1.9967107,-2.105212,-1.5719513,2.4190032,-0.05543465,0.14425468,-0.1645972,0.03840164,-0.016116202,-0.06425498,-0.36391866,0.076614454,-9.308657,0.8247004,47.74331,-1.2318008,-1.8755136,-3.3867626,-0.046377223,-0.13930745,-0.28476703,27.25,28.3125,27.375,30.9375,32.6875,33.375
0.16205394,-0.9660439,0.40943992,0.26482,0.009825448,0.060086887,-0.17775458,-0.37910557,-0.3282251,0.06011442,-3.0770433,0.6254563,0.0003247379,-0.074632764,0.0003433636,-0.0016840781,0.02245402,-0.0105704125,0.010159177,0.44341487,-1.4597322,1.9963287,-2.1051037,-1.5719513,2.418894,-0.056551453,0.14602585,-0.16694555,0.04006418,-0.016065618,-0.066565186,-0.38307226,0.1340753,-9.136273,0.87393653,47.72271,-1.1688569,-1.8995285,-3.3567698,-0.06508812,-0.13688293,-0.25617945,27.25,28.3125,27.375,30.9375,32.6875,33.375
0.1640536,-0.7649949,0.47383004,0.34152734,0.013289917,0.05978939,-0.18296382,-0.37927315,-0.32824084,0.060133565,-3.0770597,0.6253435,0.00040272897,-0.07559247,0.00026604885,-0.001399043,0.022122595,-0.011579804,0.011481127,0.4433185,-1.4594562,1.9959682,-2.105055,-1.571987,2.4187255,-0.057722885,0.14774026,-0.17001921,0.04218296,-0.015336377,-0.069059394,-0.38307226,0.05746084,-9.078813,0.85826975,47.71554,-1.1897907,-1.8436849,-3.3317828,-0.06837989,-0.15076531,-0.19950588,27.25,28.3125,27.375,30.9375,32.6875,33.375
0.16605356,-0.7087061,0.3027676,0.20774537,0.022284739,0.04818832,-0.18423502,-0.379414,-0.328222,0.06011355,-3.076956,0.6253224,0.0003384044,-0.07598451,0.00095717236,-0.0013041106,0.023599468,-0.012760942,0.011154345,0.4431982,-1.4591444,1.995644,-2.1049464,-1.5720476,2.4186056,-0.058773182,0.1484212,-0.17163056,0.044809695,-0.016171198,-0.06977925,-0.3256114,0.019153614,-9.059659,0.8247004,47.716442,-1.1938816,-1.8466918,-3.3456821,-0.10206432,-0.17593762,-0.16800877,27.25,28.3125,27.375,30.9375,32.6875,33.375
0.16805337,-0.9960026,0.3531592,0.27298513,0.028582536,0.027792325,-0.17869341,-0.37956196,-0.32824996,0.060107723,-3.0769558,0.62520695,0.00031770355,-0.077072866,0.00097867,-0.0012878807,0.023641014,-0.012029641,0.010828605,0.44312593,-1.4588205,1.9952849,-2.1048868,-1.572059,2.4184616,-0.05951615,0.14994617,-0.17328592,0.04429599,-0.016530652,-0.07019398,-0.36391866,-0.05746084,-9.021352,0.82022345,47.721813,-1.1938089,-1.7161705,-3.401269,-0.10991079,-0.18391493,-0.16053936,27.25,28.3125,27.375,30.9375,32.6875,33.375
0.17005384,-0.26299036,0.7365221,0.29968265,0.016314222,0.039351128,-0.18223125,-0.37972564,-0.32822466,0.060109254,-3.0768814,0.625134,0.00032386795,-0.07872243,0.0010393622,-0.0008129828,0.024553355,-0.01141942,0.009095357,0.44298166,-1.4585323,1.9949373,-2.104778,-1.572132,2.4182816,-0.060330164,0.15222704,-0.17729738,0.04586434,-0.017627098,-0.06926912,-0.38307226,0.019153614,-8.944737,0.86498255,47.72808,-1.1448455,-1.7869158,-3.3077385,-0.11230326,-0.16645071,-0.122982934,27.25,28.3125,27.375,30.9375,32.6875,33.375
0.17205338,-0.20287701,0.490198,0.2556816,0.018082611,0.044014864,-0.19336689,-0.3799063,-0.32822704,0.060121596,-3.076872,0.62524885,0.00035106408,-0.07878108,0.00184525,-0.0020008727,0.026464887,-0.01495072,0.0061346353,0.4428251,-1.4582438,1.9945782,-2.10473,-1.572132,2.418198,-0.061704163,0.1550923,-0.17827882,0.04799094,-0.01783863,-0.067681916,-0.38307226,0.076614454,-9.059659,0.86498255,47.72808,-1.1333696,-1.6817702,-3.4544678,-0.1385886,-0.16280538,-0.13697574,27.25,28.3125,27.375,30.9375,32.6875,33.375
0.17405415,-0.5102887,0.49183288,0.2792303,0.009037892,0.04145504,-0.18204375,-0.38004023,-0.32821155,0.06010022,-3.0767486,0.6251877,0.00022660106,-0.079464816,0.002417765,-7.957112e-06,0.026266765,-0.013400291,0.002012916,0.44271675,-1.4579097,1.9942182,-2.1045606,-1.5721916,2.4180677,-0.06302036,0.1520158,-0.1803009,0.051604237,-0.01832931,-0.064872995,-0.34476504,0.11492168,-9.097966,0.8537928,47.70838,-1.0997226,-1.6418113,-3.41452,-0.17573245,-0.1745213,-0.15477335,27.25,28.3125,27.375,30.9375,32.6875,33.375
0.17605431,-0.76621205,0.6198499,0.14808896,0.0033948196,0.032147992,-0.17871611,-0.38022456,-0.32819173,0.06011753,-3.076724,0.6251832,0.0002997254,-0.080462396,0.002955698,-0.0004451586,0.027732706,-0.014446813,0.00031991917,0.44254827,-1.457645,1.9938716,-2.104501,-1.5722402,2.4178998,-0.06427945,0.15463099,-0.18249956,0.052758973,-0.019209953,-0.06443599,-0.17238252,0.11492168,-9.193734,0.83589023,47.701214,-1.1197941,-1.6252222,-3.356783,-0.23491445,-0.19546802,-0.1359382,27.25,28.3125,27.375,30.9375,32.6875,33.375
0.17805393,-0.2760544,0.37927037,-0.15683429,0.007537679,0.036552332,-0.18575875,-0.38033238,-0.32819623,0.060095526,-3.0766428,0.6251687,9.30242e-05,-0.08269295,0.0017385123,0.00047487402,0.025222525,-0.011233372,-0.0048330156,0.44245234,-1.457333,1.9935349,-2.1043217,-1.5722278,2.4178054,-0.064553626,0.15661354,-0.18638009,0.05068232,-0.018336894,-0.059553582,-0.19153613,0.13407528,-9.212888,0.8672237,47.701214,-1.1154039,-1.5930312,-3.3368478,-0.22870608,-0.20092341,-0.1829868,27.25,28.3125,27.375,30.9375,32.6875,33.375
0.18005353,-0.6026429,0.06058835,-0.118125394,0.0019062846,0.030871268,-0.18178071,-0.38053107,-0.32818288,0.060113672,-3.0765722,0.6252152,0.00018498208,-0.083267085,0.0034591625,-0.0005570333,0.026698288,-0.014576941,-0.011254952,0.44230688,-1.457021,1.9931282,-2.1042378,-1.5723118,2.4176984,-0.06829477,0.15852779,-0.1866398,0.052678093,-0.018234741,-0.056873433,-0.19153614,0.076614454,-9.289502,0.8224646,47.70032,-0.89359975,-1.5358653,-3.440625,-0.27068543,-0.20646667,-0.2250724,27.25,28.3125,27.375,30.9375,32.6875,33.375
0.18205401,-0.80716604,-0.25602695,-0.5030504,-0.0039583654,0.038307466,-0.17984529,-0.38066185,-0.3281682,0.060046446,-3.076448,0.6252459,-5.7591595e-05,-0.08322096,0.0029605895,-0.00063641503,0.027717773,-0.014999311,-0.01026273,0.44216353,-1.4566133,1.9928049,-2.1041296,-1.5723122,2.4175904,-0.06678641,0.15992509,-0.18831873,0.05377881,-0.018990343,-0.05635086,-0.24899697,0.19153613,-9.385271,0.842603,47.67345,-1.0386914,-1.4993556,-3.4542947,-0.29798618,-0.22693858,-0.2482,27.25,28.3125,27.375,30.9375,32.6875,33.375
0.18405375,-0.8925576,-0.51703894,-0.6121971,-0.014318094,0.040287476,-0.18701588,-0.38083747,-0.32816568,0.06006405,-3.0763915,0.62517715,-4.729262e-05,-0.08444262,0.003476919,-0.0006575703,0.027919678,-0.014702355,-0.011173332,0.44204295,-1.4563015,1.9923857,-2.103986,-1.5723723,2.4174345,-0.06858074,0.16126299,-0.18978824,0.053722307,-0.019309506,-0.057232015,-0.2681506,0.24899697,-9.557653,0.87393653,47.672558,-1.0123569,-1.5536005,-3.4680612,-0.32106468,-0.21245934,-0.25095755,27.25,28.3125,27.375,30.9375,32.6875,33.375
0.18605345,-0.96429914,-0.7696335,-0.71337056,-0.026355991,0.055470325,-0.18195683,-0.38102126,-0.32816887,0.060074806,-3.076341,0.6252467,-3.0469357e-05,-0.08685507,0.0041220416,-0.0011635056,0.027910657,-0.01486446,-0.016417485,0.44190955,-1.4559764,1.9919785,-2.1038911,-1.5724081,2.4173512,-0.07192608,0.16523618,-0.19293675,0.053039085,-0.019241694,-0.05533064,-0.22984336,0.28730422,-9.557653,0.87617236,47.705692,-0.8419391,-1.7447999,-3.423675,-0.34347692,-0.21155614,-0.28284195,27.25,28.3125,27.375,30.9375,32.6875,33.375
0.18805395,-1.3959676,-1.2896817,-1.1737744,-0.032145333,0.045610335,-0.18415241,-0.38117647,-0.328155,0.06007571,-3.0762746,0.62526834,-0.00012697345,-0.08713696,0.0035674095,-0.0022972545,0.02910332,-0.015992204,-0.0140016135,0.44175425,-1.4556755,1.9916066,-2.1037347,-1.5724205,2.4172182,-0.07069624,0.16907641,-0.19447416,0.052262027,-0.019853262,-0.056511614,-0.17238252,0.24899697,-9.615114,0.87617236,47.66808,-0.936175,-1.7193226,-3.437245,-0.3656171,-0.23671106,-0.30875695,27.25,28.3125,27.375,30.9375,32.6875,33.375
0.19005348,-1.1961546,-1.182436,-0.93428177,-0.047929328,0.055982698,-0.17527741,-0.3813497,-0.32813618,0.060063355,-3.0761597,0.6252833,-0.00013893045,-0.0884671,0.003630569,-0.0032879787,0.029241286,-0.016388787,-0.013572882,0.4416216,-1.4553272,1.9912237,-2.1036284,-1.5725044,2.41711,-0.07197174,0.17283948,-0.19603227,0.05046383,-0.019826256,-0.058212668,-0.19153613,0.28730422,-9.576807,0.80679786,47.672558,-0.9204663,-1.8628637,-3.512516,-0.36687005,-0.2410404,-0.2909672,27.25,28.3125,27.375,30.9375,32.6875,33.375
0.19205335,-1.181008,-1.4287899,-0.7276068,-0.043626588,0.06213719,-0.18508762,-0.38154224,-0.32810733,0.0600445,-3.07607,0.6253612,-0.00016794394,-0.09184361,0.0031965896,-0.0022995237,0.027272023,-0.011898219,-0.014794749,0.44142908,-1.4549669,1.9908503,-2.1035573,-1.5725521,2.416978,-0.07399262,0.1752195,-0.20032012,0.04746271,-0.01999023,-0.059006546,-0.30645782,0.30645782,-9.653421,0.8314132,47.698532,-0.8006573,-1.8492576,-3.4398746,-0.35169482,-0.25578028,-0.30563924,27.25,28.3125,27.375,30.9375,32.6875,33.375
0.19405407,-0.7395377,-1.189105,-1.0301398,-0.03913789,0.064355165,-0.17737477,-0.38172573,-0.32816005,0.060076278,-3.0761406,0.6252796,-8.976144e-05,-0.09374767,0.0026412865,-0.0019026182,0.025968637,-0.008831624,-0.015451488,0.44135696,-1.4546548,1.9904197,-2.1035106,-1.5725406,2.416846,-0.07451198,0.17690699,-0.2025188,0.0446445,-0.020130007,-0.05886802,-0.22984336,0.30645782,-9.710882,0.8247004,47.69763,-0.800295,-1.8721353,-3.5221064,-0.33690435,-0.25745863,-0.3237786,27.25,28.3125,27.375,30.9375,32.6875,33.375
0.1960539,-1.1523842,-1.1604166,-0.9774971,-0.04537958,0.05548109,-0.17595756,-0.3819109,-0.32812342,0.060058035,-3.0760052,0.6253093,-0.00010652591,-0.09400848,0.0025485014,-0.0025322032,0.02620599,-0.008788013,-0.015987413,0.44118887,-1.4542948,1.9900368,-2.1034033,-1.5726365,2.4167142,-0.074359424,0.17841716,-0.20247394,0.043144792,-0.020373642,-0.058176607,-0.38307226,0.45968673,-9.730036,0.79560274,47.705692,-0.8693038,-1.8337271,-3.495695,-0.3180119,-0.2777259,-0.35096288,27.25,28.3125,27.375,30.9375,32.6875,33.375
0.19805379,-1.1980177,-1.4034954,-0.78902256,-0.052691374,0.06666765,-0.18088767,-0.38210025,-0.32813326,0.06006056,-3.0759714,0.6254174,-0.00016478397,-0.09629533,0.0036419674,-0.0029167612,0.025920616,-0.008160735,-0.017271824,0.44103163,-1.4539346,1.9896058,-2.103296,-1.5726246,2.416629,-0.078344665,0.18086688,-0.20401557,0.041539684,-0.020400032,-0.060875066,-0.45968673,0.4405331,-9.653421,0.83589023,47.701214,-0.796917,-2.0021958,-3.5658727,-0.28358838,-0.29174232,-0.34096804,27.25,28.3125,27.375,30.9375,32.6875,33.375
0.20005369,-1.0807012,-1.3376776,-0.97399044,-0.04969912,0.07199855,-0.18734871,-0.38230363,-0.3281163,0.060067214,-3.0758977,0.62555486,-0.00013474784,-0.09704106,0.0021618074,-0.0028254266,0.02541847,-0.006547632,-0.015061798,0.4408524,-1.4535985,1.9891976,-2.1032126,-1.5726727,2.4165454,-0.076032996,0.18333034,-0.20669103,0.040073186,-0.020647125,-0.060770247,-0.36391866,0.4405331,-9.672575,0.8717007,47.71465,-0.7555839,-1.7539555,-3.4786494,-0.27538577,-0.3022728,-0.35634184,27.25,28.3125,27.375,30.9375,32.6875,33.375
0.20205356,-1.6460822,-0.93936163,-0.8888278,-0.060340136,0.065969445,-0.1791753,-0.38249797,-0.3281202,0.060060646,-3.0758398,0.62554246,-0.00013552136,-0.099123515,0.0018286484,-0.0014740309,0.023651673,-0.0026793166,-0.015450591,0.44072002,-1.4532151,1.988767,-2.1031296,-1.5727209,2.416413,-0.07715744,0.18318687,-0.20936723,0.038633563,-0.020714039,-0.06150323,-0.4213795,0.34476507,-9.653421,0.8537928,47.71465,-0.79204124,-1.7986286,-3.5173442,-0.2408401,-0.2942404,-0.38783568,27.25,28.3125,27.375,30.9375,32.6875,33.375
0.20405416,-1.3068389,-1.3093408,-0.38769943,-0.047347426,0.077402964,-0.18227361,-0.38269776,-0.328111,0.060050033,-3.0757663,0.62550896,-0.00011476623,-0.10134038,0.0030839914,-0.0012329128,0.023224093,-0.002269573,-0.016606996,0.44057447,-1.4528316,1.9883479,-2.1030576,-1.5727929,2.4162564,-0.08152474,0.18448728,-0.21149346,0.038891144,-0.020515762,-0.064712845,-0.47884035,0.24899697,-9.576807,0.80679786,47.70032,-0.65151453,-1.789724,-3.5520105,-0.21234876,-0.32012865,-0.3690121,27.25,28.3125,27.375,30.9375,32.6875,33.375
0.20605403,-1.8666934,-0.84146386,-0.5360446,-0.020828405,0.050510805,-0.17227952,-0.38292223,-0.32810214,0.060067236,-3.0757277,0.6256295,-5.249006e-05,-0.10145233,0.0012307942,-0.0012594373,0.022690592,-0.0012372714,-0.008229456,0.44038382,-1.4524834,1.9879044,-2.102986,-1.5728287,2.4161463,-0.078136325,0.18679881,-0.2138005,0.03770783,-0.020490339,-0.069700725,-0.34476504,0.19153614,-9.423578,0.84708,47.696735,-0.73704576,-1.7696044,-3.5395591,-0.17642015,-0.33618575,-0.33338064,27.25,28.3125,27.375,30.9375,32.6875,33.375
0.20805371,-0.106647186,0.6432761,-0.34071106,-0.010023711,0.076010264,-0.19759691,-0.38314095,-0.32811528,0.060065266,-3.07574,0.62561303,-3.7136637e-05,-0.10410988,0.00062625617,0.00042678282,0.020558778,0.0037364364,-0.009301519,0.44021535,-1.4520882,1.9874605,-2.1029508,-1.5728287,2.4159663,-0.0791568,0.18697704,-0.21750563,0.03582432,-0.020694282,-0.069646314,-0.34476504,0.15322891,-9.423578,0.83589023,47.711964,-0.80382776,-1.6513963,-3.5554967,-0.12517458,-0.34299022,-0.31717354,27.25,28.3125,27.375,30.9375,32.6875,33.375
0.21005364,-0.76732564,0.7854462,-0.21561195,0.013303076,0.046067283,-0.1861851,-0.38333532,-0.32810628,0.060057096,-3.0756853,0.6256189,-2.3653414e-05,-0.10515796,5.6516572e-05,0.0016404628,0.019832104,0.005617789,-0.004889746,0.4400594,-1.4517288,1.9870647,-2.1028903,-1.5728768,2.4158213,-0.07886181,0.18690434,-0.22050653,0.036870766,-0.020852108,-0.073760845,-0.28730422,0.15322891,-9.385271,0.8291774,47.694054,-0.76515305,-1.5814512,-3.4291997,-0.09127023,-0.35798788,-0.2923373,27.25,28.3125,27.375,30.9375,32.6875,33.375
0.21205328,-0.093305975,1.1320167,-0.39325595,0.026500488,0.05332587,-0.18443505,-0.38354164,-0.32810727,0.060046557,-3.0756402,0.62562615,-2.2357262e-05,-0.10563547,0.00031545907,0.001224049,0.020868247,0.004537281,-0.0013840556,0.4399033,-1.4513327,1.9866337,-2.1028306,-1.5729126,2.4156759,-0.07938127,0.18882099,-0.22197789,0.037830837,-0.021339983,-0.07778319,-0.15322891,0.11492168,-9.289502,0.88289046,47.713753,-0.8512788,-1.6661241,-3.365004,-0.058379352,-0.38125244,-0.24445814,27.25,28.3125,27.375,30.9375,32.6875,33.375
0.2140535,-0.27912977,0.86991256,-0.5610213,0.041752324,0.033295836,-0.18625571,-0.38373506,-0.32809976,0.0600333,-3.0755901,0.6255933,-7.7035795e-05,-0.10610175,0.00011717508,0.0013011519,0.022306755,0.0036308812,0.0027575074,0.4397356,-1.450949,1.986214,-2.1027339,-1.5729374,2.4154944,-0.07874959,0.19084904,-0.225043,0.04029005,-0.022268767,-0.08128745,-0.22984336,0.076614454,-9.289502,0.90750587,47.701214,-0.92659265,-1.5670083,-3.3630207,-0.038845688,-0.3743251,-0.17216974,27.25,28.3125,27.375,30.9375,32.6875,33.375
0.21605358,-0.52435356,0.73236644,-0.5443966,0.030749248,0.02506371,-0.1788329,-0.3839677,-0.32811067,0.060051706,-3.0755565,0.62558514,6.248185e-06,-0.107130826,7.00049e-06,0.0018947698,0.023653494,0.0033544735,0.0055857273,0.43959153,-1.4505528,1.9857105,-2.1026485,-1.5729979,2.41535,-0.07865406,0.19272698,-0.22929002,0.043471724,-0.02337575,-0.08401529,-0.17238252,0.05746084,-9.481039,0.9030289,47.701214,-0.93487287,-1.5133615,-3.3033895,-0.07189675,-0.3770079,-0.15029114,27.25,28.3125,27.375,30.9375,32.6875,33.375
0.2180536,-0.26426467,0.47367477,-0.46350235,0.0036471733,0.031315032,-0.18370165,-0.3842031,-0.32807347,0.060067404,-3.0754757,0.6255861,0.000120931305,-0.10832266,-0.00013449424,0.0014508618,0.024910783,0.003133659,0.0076589375,0.4393877,-1.4502043,1.9852666,-2.1025646,-1.5731062,2.4151576,-0.07867076,0.1962451,-0.23231101,0.043694057,-0.024429893,-0.08609998,-0.095768064,0.17238252,-9.442732,0.85155696,47.698532,-1.0149901,-1.7139976,-3.3053894,-0.048004165,-0.3839888,-0.08857234,27.25,28.3125,27.375,30.9375,32.6875,33.375
0.22005361,-0.598332,-0.44327596,-0.8680454,-0.00318709,0.023173084,-0.17761245,-0.3844096,-0.32808268,0.06008465,-3.0754564,0.6254852,0.00016260587,-0.108955756,0.0003859801,-0.00046900887,0.027763411,-0.0006193838,0.006923073,0.43925548,-1.449843,1.9847993,-2.1024568,-1.5731543,2.4149652,-0.07948225,0.20199375,-0.23467413,0.044914577,-0.025419278,-0.08617054,-0.019153614,0.21068975,-9.461885,0.8493211,47.687782,-0.9812802,-1.8200336,-3.3342886,-0.02490376,-0.40464735,-0.052087367,27.25,28.3125,27.375,30.9375,32.6875,33.375
0.22205436,-0.59224325,-0.90085644,-0.6690057,-0.024936,0.018522393,-0.1808158,-0.3845945,-0.3280707,0.06004713,-3.0753484,0.6254843,6.626182e-07,-0.10832506,0.0010678577,-0.0012417512,0.029867414,-0.004179653,0.0047426764,0.43908706,-1.4493992,1.9843568,-2.1023123,-1.5731786,2.4148104,-0.079874784,0.2033873,-0.2353062,0.048270017,-0.025815057,-0.08437808,-0.095768064,0.24899697,-9.634268,0.8112748,47.68599,-1.0398817,-1.8144515,-3.375874,-0.043735627,-0.38769352,-0.038470417,27.25,28.3125,27.375,30.9375,32.6875,33.375
0.22405413,-0.11774148,-1.2103479,-0.5702816,-0.046334863,0.02922072,-0.18712512,-0.38481733,-0.3280811,0.060047206,-3.0753245,0.6254424,5.7321722e-05,-0.10915706,0.0016665494,-0.00051777763,0.030566184,-0.003287752,0.00048489953,0.43894288,-1.4489924,1.9838909,-2.1022637,-1.5732268,2.4146435,-0.08098368,0.20289938,-0.23683974,0.049785566,-0.026821854,-0.081225775,-0.019153614,0.30645782,-9.576807,0.8247004,47.71286,-1.0067322,-1.779793,-3.4595742,-0.048317138,-0.37918895,-0.058300324,27.25,28.3125,27.375,30.9375,32.6875,33.375
0.22605418,-0.16747096,-1.3267971,-0.800187,-0.0471818,0.018884987,-0.17606856,-0.38505572,-0.32806635,0.060067497,-3.0752509,0.6254669,0.00013390077,-0.10912999,0.0022313425,-0.0012404153,0.032107655,-0.0045107426,-0.0026902352,0.43876272,-1.4486085,1.9833883,-2.102144,-1.5733112,2.4144886,-0.08136047,0.20417835,-0.23677988,0.05020812,-0.0276942,-0.0784245,-0.019153614,0.38307226,-9.500193,0.800085,47.694946,-1.024442,-1.7356088,-3.6154194,-0.046461254,-0.37082705,-0.06371893,27.25,28.3125,27.375,30.9375,32.6875,33.375
0.22805408,-0.0014505371,-1.0466866,-0.73731196,-0.050491806,0.008511533,-0.18570131,-0.3852724,-0.32807824,0.060085703,-3.0752335,0.6254448,0.00018001253,-0.109366626,0.0026353472,-0.0016557694,0.03321329,-0.0057980767,-0.0062582763,0.43861872,-1.4482367,1.9829091,-2.1020477,-1.573347,2.4143333,-0.08195873,0.20558971,-0.23774832,0.051403526,-0.028143756,-0.07545317,0.019153614,0.49799395,-9.500193,0.89631605,47.686886,-1.0281085,-1.7533135,-3.6448216,-0.03730696,-0.37492484,-0.11063336,27.25,28.3125,27.375,30.9375,32.6875,33.375
0.23005384,0.1522718,-1.0886701,-0.43969798,-0.058108736,0.018392717,-0.18584208,-0.38549408,-0.32806188,0.060075566,-3.0751247,0.62550074,0.00019778921,-0.11073535,0.002413432,-0.0013612739,0.03327121,-0.005616046,-0.009340336,0.43845043,-1.4478171,1.9824413,-2.1019518,-1.5734314,2.4142144,-0.08259233,0.20786758,-0.24131034,0.052544065,-0.028280506,-0.07300102,-0.038307227,0.57460845,-9.500193,0.85155696,47.684196,-1.037187,-1.6546233,-3.5666318,-0.022895101,-0.37067,-0.12223065,27.25,28.3125,27.375,30.9375,32.6875,33.375
0.2320536,0.110499956,-1.1413615,-0.46333137,-0.03759479,0.0062442697,-0.1755069,-0.38571742,-0.3280811,0.060085285,-3.0750957,0.6254376,0.00017060756,-0.11161248,0.0021590898,-0.0010646844,0.033235427,-0.005488205,-0.011487361,0.4383064,-1.4473852,1.981903,-2.1018074,-1.5734552,2.414035,-0.08280934,0.20931369,-0.2439287,0.053585406,-0.028307265,-0.071068585,0.019153614,0.59376204,-9.32781,0.86945957,47.658226,-1.0396394,-1.6465204,-3.6692576,-0.013587379,-0.36648336,-0.15198725,27.25,28.3125,27.375,30.9375,32.6875,33.375
0.23405333,0.43760055,-0.8234244,-0.5117773,-0.026787141,0.0029295653,-0.18155183,-0.38594136,-0.32806942,0.060080506,-3.0750303,0.6255032,0.00015669299,-0.113361314,0.002937939,-0.000627307,0.03417446,-0.00544406,-0.015435925,0.43811342,-1.446977,1.9814352,-2.1017106,-1.5734919,2.4138918,-0.08512825,0.21102509,-0.24740733,0.055711105,-0.02918192,-0.06943329,-0.038307227,0.47884035,-9.3661175,0.9634547,47.66987,-1.064381,-1.6063488,-3.5152237,-0.022953989,-0.37429363,-0.20021468,27.25,28.3125,27.375,30.9375,32.6875,33.375
0.2360542,0.30089012,-0.52618575,-0.2797007,-0.039905477,0.011514074,-0.18182555,-0.38615173,-0.32806098,0.060049843,-3.074907,0.6254765,0.000111025605,-0.11330728,0.0025851594,-0.001250986,0.037260745,-0.0077152667,-0.014585537,0.43797028,-1.4465086,1.9809564,-2.1016018,-1.5735768,2.4137483,-0.08315389,0.21459912,-0.2507892,0.058884844,-0.031020882,-0.06829832,-0.095768064,0.4213795,-9.385271,0.9701675,47.66271,-1.1094722,-1.7207642,-3.5796704,-0.03818189,-0.3697283,-0.22834267,27.25,28.3125,27.375,30.9375,32.6875,33.375
0.2380539,-0.28618303,-0.779455,-0.12191798,-0.024752028,0.01777445,-0.17995948,-0.3863971,-0.32805374,0.06006362,-3.074823,0.62557316,0.00016262323,-0.114212744,0.0027602033,-0.00041308402,0.038279712,-0.0078129545,-0.013583149,0.4377902,-1.4460894,1.9804281,-2.1014817,-1.5736483,2.4136398,-0.08360727,0.2153057,-0.25434262,0.062240563,-0.03191031,-0.06974945,-0.038307227,0.34476504,-9.2703495,0.8605109,47.66539,-1.1732516,-1.6271138,-3.4443033,-0.078263566,-0.34403038,-0.2358032,27.25,28.3125,27.375,30.9375,32.6875,33.375
0.24005368,-0.70426285,-0.7756685,-0.27864593,0.0025097982,0.021008655,-0.17454943,-0.38663766,-0.32807112,0.060102023,-3.074826,0.6255776,0.00020006284,-0.1159989,0.0038203981,-0.0005382082,0.039743137,-0.009680804,-0.01947526,0.43762076,-1.445705,1.9798764,-2.1013362,-1.5736607,2.4134731,-0.08670146,0.21848792,-0.2584289,0.06546116,-0.03244208,-0.06694847,-0.11492168,0.36391866,-9.193734,0.86945957,47.64837,-0.944299,-1.5999277,-3.2415435,-0.11464992,-0.3492188,-0.2784297,27.25,28.3125,27.375,30.9375,32.6875,33.375
0.24205357,0.044658806,0.50699466,-0.1596222,0.00356214,0.045809794,-0.1871252,-0.38684127,-0.32805756,0.060065422,-3.0746849,0.62562335,0.00011412063,-0.11596542,0.0030098162,-4.3564927e-05,0.040579848,-0.010045115,-0.017750142,0.43746588,-1.4452376,1.9794091,-2.1012156,-1.5737327,2.4133654,-0.08470779,0.2194979,-0.2613819,0.06808204,-0.033057466,-0.06667278,-0.19153614,0.36391866,-9.078813,0.8672237,47.68599,-1.2131743,-1.5971826,-3.2078931,-0.14857396,-0.31857157,-0.3217981,27.25,28.3125,27.375,30.9375,32.6875,33.375
0.24405423,-0.6636481,0.37747064,-0.18239476,0.014508377,0.03538437,-0.17978658,-0.38707632,-0.32806653,0.06006024,-3.0746164,0.62562585,9.6962576e-05,-0.11619124,0.0034210798,0.00049012154,0.04105136,-0.010140729,-0.016132418,0.43730962,-1.4447703,1.9788698,-2.1010954,-1.5737809,2.41322,-0.08533368,0.21882471,-0.26238582,0.07003145,-0.033454362,-0.06891356,-0.2681506,0.2681506,-9.078813,0.83365434,47.691364,-1.1577561,-1.5437915,-3.214011,-0.1785095,-0.31754273,-0.33846456,27.25,28.3125,27.375,30.9375,32.6875,33.375
0.24605408,-1.074894,0.12074018,-0.026782738,0.01326626,0.043634694,-0.16868827,-0.38731128,-0.32806224,0.06007217,-3.0745695,0.6256579,4.1192747e-05,-0.11625174,0.0038982264,-0.00061674893,0.042067237,-0.013717775,-0.021289583,0.4371051,-1.4443501,1.9783329,-2.100927,-1.5737928,2.4130418,-0.08658847,0.22172306,-0.26365197,0.07207301,-0.032858334,-0.06501124,-0.30645782,0.21068975,-9.193734,0.8537928,47.691364,-1.1721866,-1.4999778,-3.3256364,-0.20824511,-0.33287215,-0.388319,27.25,28.3125,27.375,30.9375,32.6875,33.375
0.24805392,-0.9122711,0.30887643,0.15003842,-0.002482631,0.06399896,-0.18361321,-0.38754272,-0.3280197,0.06005764,-3.0743527,0.6257274,6.179943e-05,-0.11724136,0.004714794,-0.0006157967,0.043268796,-0.0140373865,-0.021845074,0.43693662,-1.4438947,1.9778174,-2.1007593,-1.5739611,2.4129453,-0.08824918,0.22290039,-0.26536062,0.073385835,-0.033827275,-0.066108525,-0.34476504,0.019153614,-9.155427,0.9634547,47.698532,-1.2129799,-1.4633641,-3.4678006,-0.23468159,-0.32340485,-0.43071944,27.25,28.3125,27.375,30.9375,32.6875,33.375
0.25005373,-1.2741883,0.38264382,0.105696104,0.0016887112,0.06467499,-0.17348005,-0.38776025,-0.32802883,0.060058184,-3.0742779,0.62571007,5.6912748e-05,-0.11730899,0.005140804,-0.0011138958,0.046357624,-0.015170611,-0.0182518,0.4368048,-1.4434628,1.9773015,-2.1006272,-1.5740222,2.4128127,-0.08749217,0.22485472,-0.26693752,0.07533226,-0.036160067,-0.068933345,-0.2681506,-0.15322891,-9.021352,0.86945957,47.688675,-1.1549811,-1.4922556,-3.4352965,-0.28703243,-0.27448416,-0.4515108,27.25,28.3125,27.375,30.9375,32.6875,33.375
0.25205374,-0.5392386,0.86841935,0.13191772,0.016132992,0.07808205,-0.18959984,-0.38797858,-0.32800603,0.060020696,-3.0741286,0.6257721,-7.107311e-05,-0.11907365,0.004916469,-0.001994363,0.046655316,-0.01385251,-0.015887756,0.4366128,-1.4429704,1.9767994,-2.1004727,-1.5740823,2.4126792,-0.08797011,0.22894132,-0.26887932,0.07210112,-0.0370228,-0.07176431,-0.34476504,-0.1340753,-9.078813,0.97464454,47.709274,-1.2569549,-1.6811299,-3.504308,-0.27204,-0.26518112,-0.43107605,27.25,28.3125,27.375,30.9375,32.6875,33.375
0.25405377,-0.756729,1.0034716,0.05841347,0.03272632,0.07236085,-0.19196206,-0.3882451,-0.32799837,0.060032517,-3.0740619,0.6257194,1.7828894e-05,-0.122023515,0.0059308885,-0.0022460532,0.045953292,-0.012713251,-0.015573233,0.43643108,-1.4425143,1.9762357,-2.1003659,-1.5741786,2.4124737,-0.092402965,0.23210646,-0.27153325,0.07022959,-0.036896624,-0.076510124,-0.36391866,-0.15322891,-9.136273,0.9030289,47.71554,-1.0225791,-1.6885462,-3.4832282,-0.26189092,-0.23947881,-0.4324698,27.25,28.3125,27.375,30.9375,32.6875,33.375
0.2560542,-0.92071825,0.78823936,-0.08313232,0.049116228,0.057812925,-0.18239075,-0.38847348,-0.32800224,0.060034513,-3.0739884,0.625758,-2.7377777e-05,-0.12243655,0.004980313,-0.0023811413,0.04619964,-0.012415306,-0.009732921,0.43626383,-1.4420704,1.9756969,-2.10021,-1.5742143,2.4123404,-0.090689525,0.23436904,-0.27382654,0.07007192,-0.03727221,-0.080631785,-0.36391866,-0.095768064,-9.078813,0.900793,47.719128,-1.2130715,-1.7586906,-3.5438042,-0.29871604,-0.23925367,-0.38969904,27.25,28.3125,27.375,30.9375,32.6875,33.375
0.25805435,-0.7769229,0.67073476,-0.3229057,0.040666822,0.054614525,-0.17910415,-0.3887264,-0.3279797,0.060027562,-3.0738888,0.6257356,-2.355268e-05,-0.1265911,0.0044093067,-0.0004941021,0.04347449,-0.004062982,-0.007929104,0.4360592,-1.441603,1.9751581,-2.1000803,-1.5742992,2.4121351,-0.0924221,0.23509027,-0.27782062,0.06459953,-0.038371824,-0.08415804,-0.38307226,0.076614454,-9.193734,0.8537928,47.698532,-1.1776928,-1.652833,-3.449468,-0.23981445,-0.20326981,-0.3663081,27.25,28.3125,27.375,30.9375,32.6875,33.375
0.26005405,-0.60200596,0.40642232,-0.19851907,0.010866509,0.073021,-0.18727641,-0.3889585,-0.32796943,0.060007658,-3.07376,0.62574196,-0.00013449845,-0.12890783,0.004426925,1.3289607e-05,0.0428939,-0.0018447939,-0.0008186153,0.4358786,-1.4410994,1.974594,-2.099889,-1.5743588,2.4119756,-0.09407785,0.23718673,-0.28122666,0.06360986,-0.038832206,-0.09291522,-0.5554548,0.13407528,-9.251195,0.8851263,47.691364,-1.0557492,-1.7974834,-3.4151623,-0.20763351,-0.17864174,-0.29330733,27.25,28.3125,27.375,30.9375,32.6875,33.375
0.26205388,-1.6026436,-0.76960593,-0.54340595,-0.016158696,0.06863043,-0.17451198,-0.3892075,-0.3279475,0.059994563,-3.0736399,0.6257368,-0.00013757736,-0.13046236,0.0046855863,0.00031763015,0.042210653,-0.0004631352,-0.001101396,0.43568602,-1.4406197,1.9740547,-2.0997574,-1.5744547,2.4117959,-0.09582563,0.23821296,-0.28299984,0.06279397,-0.038816463,-0.09437649,-0.6512228,0.24899697,-9.385271,0.9254084,47.695843,-1.0266333,-1.6356497,-3.4763517,-0.19808522,-0.1668006,-0.24095023,27.25,28.3125,27.375,30.9375,32.6875,33.375
0.2640541,-1.5700033,-1.8167174,-0.6102185,-0.050116945,0.092102654,-0.18080902,-0.38947928,-0.32792947,0.060000334,-3.073551,0.62567854,-9.686999e-05,-0.13257013,0.004913361,0.00035959127,0.04221416,0.0009978282,0.00039979976,0.4354815,-1.4401395,1.9734687,-2.0996144,-1.574551,2.411567,-0.097549655,0.24084863,-0.2859285,0.06173653,-0.039461672,-0.09759544,-0.78529817,0.38307226,-9.5385,0.9186956,47.717335,-0.9875309,-1.6864971,-3.4111204,-0.1871313,-0.15454873,-0.20183894,27.25,28.3125,27.375,30.9375,32.6875,33.375
0.26605415,-1.9111277,-2.1768594,-0.33530366,-0.09057596,0.10729425,-0.1791388,-0.38973835,-0.32791194,0.06000009,-3.0734375,0.6256735,-8.4703555e-05,-0.13422151,0.004725399,0.00065430056,0.04084811,0.0024978411,0.00048341122,0.435289,-1.4396594,1.9728936,-2.0994594,-1.5746473,2.4113865,-0.098926865,0.24237323,-0.28814214,0.06046459,-0.038876835,-0.09905515,-0.842759,0.40222588,-9.5385,0.90527004,47.713753,-0.8550255,-1.7302254,-3.4393034,-0.15594801,-0.111438036,-0.1583233,27.25,28.3125,27.375,30.9375,32.6875,33.375
0.26805392,-2.2741563,-2.5104373,-0.9929916,-0.08519626,0.10597321,-0.17533848,-0.3899971,-0.3279033,0.059967898,-3.0733335,0.625614,-0.00014311576,-0.13427703,0.0047853272,-0.00012483781,0.039988976,0.00061706366,-0.001548516,0.43509662,-1.4391085,1.9723195,-2.0993392,-1.5747184,2.411171,-0.100026794,0.24387549,-0.28814095,0.06028849,-0.03731499,-0.0981267,-0.8236054,0.4213795,-9.576807,0.900793,47.71554,-0.8474624,-1.700091,-3.4780512,-0.15029198,-0.11551165,-0.13271683,27.25,28.3125,27.375,30.9375,32.6875,33.375
0.27005377,-2.4367616,-1.9670109,-0.7886785,-0.08365404,0.10715299,-0.17115217,-0.3902465,-0.32787484,0.059940927,-3.0732167,0.6256286,-0.00022681626,-0.1349203,0.0046365284,-2.0968657e-05,0.039050706,0.0010048919,-0.0036237922,0.43486848,-1.4386051,1.9717816,-2.0991962,-1.574778,2.4109676,-0.10065841,0.24451998,-0.28912964,0.05987522,-0.036640182,-0.09668177,-0.80445176,0.45968673,-9.749189,0.947788,47.684196,-0.87376034,-1.7100844,-3.6766193,-0.1359248,-0.11777651,-0.12962854,27.25,28.3125,27.375,30.9375,32.6875,33.375
0.27205387,-1.8145688,-1.5778852,-0.9288643,-0.07509988,0.11835251,-0.17547269,-0.390509,-0.3278958,0.059936937,-3.0732017,0.6255126,-0.00018557579,-0.13580629,0.0038374504,0.00051003735,0.03677601,0.0018498091,-0.007757266,0.4347123,-1.4381019,1.971207,-2.0991242,-1.5748256,2.4107413,-0.10099352,0.2452071,-0.29115668,0.059490647,-0.034928165,-0.0928905,-0.7278373,0.40222588,-9.672575,0.8403672,47.684196,-0.8985081,-1.6060874,-3.7679348,-0.103245184,-0.12244412,-0.16194177,27.25,28.3125,27.375,30.9375,32.6875,33.375
0.27405405,-1.9624547,-1.2725688,-0.87585634,-0.042425938,0.09422305,-0.17128669,-0.39083505,-0.32788366,0.05995812,-3.0731387,0.62569344,7.1935483e-06,-0.13648249,0.0029669544,-0.00022714108,0.035324883,0.0004626971,-0.012358818,0.4344723,-1.4376096,1.9705952,-2.099089,-1.574921,2.4106228,-0.10112268,0.24865371,-0.2933357,0.058866028,-0.03301528,-0.08842836,-0.7278373,0.38307226,-9.500193,0.9186956,47.694946,-0.8634261,-1.6822621,-3.8122187,-0.07037855,-0.111703426,-0.20968276,27.25,28.3125,27.375,30.9375,32.6875,33.375
0.27605397,-1.0857309,-0.24441159,-0.652003,-0.02479554,0.08207264,-0.17706846,-0.3911315,-0.3278597,0.059946436,-3.0730388,0.62575084,6.339334e-06,-0.13779844,0.0020732912,6.8737856e-05,0.03375545,-0.0006249794,-0.01653856,0.4342201,-1.4370688,1.9699844,-2.0989678,-1.5749921,2.41042,-0.10173876,0.25171825,-0.29805303,0.06083988,-0.031136097,-0.084869646,-0.63206923,0.2681506,-9.442732,0.8985519,47.661808,-0.9148737,-1.8380067,-3.6990385,-0.044829898,-0.14689901,-0.26257867,27.25,28.3125,27.375,30.9375,32.6875,33.375
0.27805385,0.069890164,0.53095293,-0.76505536,-0.00078991725,0.06440167,-0.18678035,-0.3914227,-0.32787862,0.05994728,-3.0730107,0.6258215,6.88106e-05,-0.13958514,0.00080524274,0.0011754511,0.03187261,0.0027081878,-0.016983798,0.43402863,-1.4365418,1.9693741,-2.0989091,-1.5750283,2.4102767,-0.10103873,0.2529616,-0.30182922,0.05955205,-0.030837685,-0.083724335,-0.24899697,0.13407528,-9.481039,0.9545008,47.691364,-0.9329802,-1.8461493,-3.6042292,-0.007314254,-0.14420958,-0.28491735,27.25,28.3125,27.375,30.9375,32.6875,33.375
0.28005373,0.46997705,0.9160274,-0.7501706,0.024032965,0.021601457,-0.19078821,-0.39168635,-0.32785368,0.05991848,-3.0728643,0.6258879,9.424709e-06,-0.14118163,0.0008861988,0.0011174371,0.031450707,0.0030179177,-0.01827217,0.4338117,-1.4360021,1.968798,-2.0987656,-1.5751122,2.4101207,-0.10261353,0.25538963,-0.30452263,0.05934346,-0.030603675,-0.08400708,-0.1340753,0.1340753,-9.461885,0.8537928,47.678825,-0.7688199,-1.9122086,-3.4779143,0.04119807,-0.13855179,-0.29152042,27.25,28.3125,27.375,30.9375,32.6875,33.375
0.28205344,0.70248145,0.8952113,-0.8194938,0.014575915,-0.0022536777,-0.18615457,-0.39198086,-0.3278546,0.0599214,-3.0727713,0.62598187,4.1773576e-05,-0.14160672,0.0004467805,0.00023155069,0.032892086,0.000684205,-0.017205475,0.43360814,-1.435462,1.968151,-2.098633,-1.5751842,2.4099884,-0.10185061,0.25958306,-0.30775872,0.061097275,-0.030939447,-0.08430678,-0.038307227,0.19153613,-9.404425,0.9164598,47.658226,-0.97796583,-1.9811532,-3.541632,0.06546128,-0.13404417,-0.29258364,27.25,28.3125,27.375,30.9375,32.6875,33.375
0.2840533,0.9616078,0.19971083,-0.8863823,0.0038728095,-0.0089019695,-0.18003666,-0.39227197,-0.32784194,0.059924018,-3.0727072,0.62595093,0.00011315303,-0.14201543,0.002205074,-0.00047794552,0.03534467,-0.0034465727,-0.020603277,0.43339097,-1.4349577,1.967553,-2.0985358,-1.5752686,2.4097607,-0.10500477,0.2615528,-0.30950966,0.06564668,-0.03142627,-0.084060736,0.076614454,0.17238252,-9.461885,0.9298854,47.677036,-0.73931056,-2.0003426,-3.404088,0.040456206,-0.14087069,-0.3328135,27.1875,28.3125,27.375,30.9375,32.6875,33.375
0.28605434,0.45175973,-0.4711737,-0.9192116,-0.010150748,-0.023579217,-0.17454794,-0.39254752,-0.32783157,0.05990444,-3.07259,0.62604135,6.061789e-05,-0.14252059,0.0016308879,-0.0004663416,0.03509027,-0.003665994,-0.021344459,0.43317527,-1.4344063,1.9669417,-2.0983922,-1.5753282,2.4096172,-0.10448758,0.2632537,-0.31173596,0.06625779,-0.031113274,-0.08280029,0.17238252,0.17238252,-9.500193,0.9410752,47.68062,-0.86269826,-2.0104437,-3.513817,0.073700815,-0.14152399,-0.36837214,27.1875,28.3125,27.375,30.9375,32.6875,33.375
0.28805423,0.6296441,-1.0269911,-0.97430354,-0.022965357,-0.015869603,-0.17567568,-0.39284912,-0.32782447,0.059927702,-3.0725012,0.6261359,0.0001328645,-0.14233726,0.0013273673,-0.0003669358,0.035892446,-0.0065939967,-0.018134473,0.43295947,-1.433903,1.9662832,-2.0982344,-1.5754122,2.4094725,-0.10399058,0.2649104,-0.31499574,0.07082695,-0.030622995,-0.085514985,0.21068975,0.11492168,-9.461885,0.9164598,47.67793,-0.91700935,-2.0671365,-3.4874232,0.0682786,-0.13563836,-0.3832576,27.1875,28.3125,27.375,30.9375,32.6875,33.375
0.29005352,0.27553388,-0.91649985,-0.91854554,-0.022641178,-0.01870083,-0.17507255,-0.39313844,-0.3278418,0.059928767,-3.0724578,0.62612456,0.00012862166,-0.14063841,0.0016350959,-0.001453108,0.03816824,-0.01247919,-0.017724438,0.4327678,-1.433351,1.9656256,-2.098101,-1.5754484,2.4092798,-0.10327412,0.2665103,-0.31566933,0.076189004,-0.030215379,-0.0852106,0.17238252,0.19153613,-9.404425,0.87393653,47.68062,-0.9783609,-2.0023298,-3.5234597,0.007937165,-0.14263529,-0.39489633,27.1875,28.3125,27.375,30.9375,32.6875,33.375
0.29205328,0.41970506,-0.662162,-1.062563,-0.008625826,-0.01764762,-0.17222318,-0.3934003,-0.32783478,0.059900448,-3.0723438,0.6261375,1.7813923e-05,-0.14111507,0.0028390982,-0.00076951616,0.038906243,-0.014359627,-0.015310757,0.4325627,-1.4327877,1.9650143,-2.097932,-1.5754961,2.4090981,-0.10584963,0.2658515,-0.3176792,0.08083943,-0.030124692,-0.0901971,0.2681506,0.15322891,-9.461885,0.9097417,47.703903,-0.76826453,-2.1353154,-3.5032368,-0.023528539,-0.13874418,-0.37109166,27.1875,28.3125,27.375,30.9375,32.6875,33.375
0.2940541,0.580261,-0.34509444,-0.94500834,-0.00065252144,-0.014598266,-0.18516865,-0.39368972,-0.32782453,0.059907466,-3.0722616,0.6261937,2.3000088e-05,-0.1400884,0.0014766654,-0.00024101244,0.039262462,-0.016449062,-0.008316027,0.43233618,-1.4322733,1.9643797,-2.0977743,-1.5755557,2.408918,-0.102722876,0.26645124,-0.32069987,0.085273705,-0.029593138,-0.09406633,0.28730422,0.19153613,-9.481039,0.9186956,47.691364,-1.0926597,-1.9371452,-3.5908008,-0.065807156,-0.1468971,-0.3315339,27.1875,28.3125,27.375,30.9375,32.6875,33.375
0.29605445,0.776684,-0.022689689,-0.72543234,-0.00011819637,-0.012705467,-0.17567898,-0.3939898,-0.3278349,0.0599215,-3.072205,0.626065,6.701267e-05,-0.14093013,0.003074255,-4.2800202e-05,0.039657414,-0.018845497,-0.00755928,0.4321545,-1.4317222,1.9636849,-2.097606,-1.5756396,2.4086637,-0.10667402,0.26658025,-0.32228708,0.089034334,-0.028968155,-0.09877709,0.2681506,0.21068975,-9.404425,0.90750587,47.687782,-0.85390943,-1.8875856,-3.4315712,-0.1251359,-0.16369899,-0.31540376,27.1875,28.3125,27.375,30.9375,32.6875,33.375
0.29805386,0.78483915,0.20260842,-0.77837116,0.012488353,-0.021308756,-0.17371322,-0.3942772,-0.32782295,0.059908032,-3.0720832,0.62616885,1.12038415e-05,-0.1402908,0.0024879859,-0.0008414668,0.041467275,-0.022809483,-0.00058975915,0.43192735,-1.4311587,1.9630383,-2.0974367,-1.5756997,2.4085178,-0.10494282,0.2698888,-0.3252473,0.093004644,-0.028985495,-0.10401206,0.1340753,0.22984336,-9.385271,0.90750587,47.64389,-1.0821027,-1.6505827,-3.5217428,-0.17635153,-0.17032817,-0.24744941,27.1875,28.3125,27.375,30.9375,32.6875,33.375
0.3000539,1.1999615,0.08555154,-0.79895574,0.023383694,-0.0061236396,-0.18719208,-0.39456284,-0.32783967,0.05992708,-3.0720708,0.6261069,-1.3579101e-05,-0.14076152,0.0031024914,-0.0006399549,0.043158334,-0.023674991,0.002396091,0.43172318,-1.4306427,1.9623684,-2.0972564,-1.5757121,2.408277,-0.10558242,0.27065796,-0.32733697,0.095797725,-0.03018155,-0.10763019,0.19153613,0.19153613,-9.404425,0.94331104,47.691364,-1.0365932,-1.8734107,-3.5883458,-0.2175453,-0.17829342,-0.17968222,27.1875,28.3125,27.375,30.9375,32.6875,33.375
0.30205387,0.65086126,0.32192922,-0.6570455,-0.000498348,0.0017357516,-0.18424642,-0.39481393,-0.32781705,0.059891257,-3.0719106,0.6259764,-0.00015637833,-0.14113557,0.003412515,-0.0016220107,0.043878954,-0.02647722,0.00381675,0.4315307,-1.430067,1.9617456,-2.0970285,-1.5758075,2.4080245,-0.106692426,0.27368873,-0.32900003,0.097246,-0.029701427,-0.110157445,0.15322891,0.095768064,-9.3661175,0.8873621,47.687782,-1.0180763,-1.7629533,-3.4473836,-0.27593362,-0.18581778,-0.089689896,27.1875,28.3125,27.375,30.9375,32.6875,33.375
0.30405408,0.38818407,-0.4246968,-0.90549874,0.00790794,0.0052819033,-0.17450763,-0.39511895,-0.32779932,0.059901807,-3.071803,0.6260887,-0.0001792373,-0.14309971,0.002499806,-0.0004908683,0.04200008,-0.023589127,0.00222006,0.43127868,-1.4295274,1.9610628,-2.0968254,-1.5758675,2.4078572,-0.10688506,0.27491185,-0.33296788,0.09657359,-0.029223688,-0.10875217,0.0,0.21068975,-9.442732,0.9365982,47.71286,-1.0228778,-1.8491234,-3.5106235,-0.30787197,-0.20208426,-0.09876533,27.1875,28.3125,27.375,30.9375,32.6875,33.375
0.3060537,-0.12623826,-0.8103459,-0.6757947,-0.017629607,0.030035531,-0.17842473,-0.395395,-0.3278183,0.05991212,-3.0717542,0.6259637,-0.00021246709,-0.14433363,0.0018925744,-0.0014973633,0.040991526,-0.023209065,0.0003155669,0.4311107,-1.4289874,1.96038,-2.0966232,-1.5759157,2.407618,-0.1072108,0.27865323,-0.33435044,0.09344386,-0.028483035,-0.10717414,-0.15322891,0.2873042,-9.442732,0.8851263,47.683304,-1.0785034,-1.7839583,-3.5264173,-0.31563285,-0.22637932,-0.079502106,27.1875,28.3125,27.375,30.9375,32.6875,33.375
0.30805355,-0.75292903,-1.143254,-0.41819787,-0.053216033,0.07218454,-0.18076731,-0.39570576,-0.32781363,0.059932258,-3.0716803,0.62602663,-0.00021791222,-0.14642781,0.0015154755,-0.0014821577,0.040392626,-0.021573817,-0.0042277747,0.43087032,-1.4284468,1.9596733,-2.09642,-1.5759639,2.407427,-0.10808114,0.28187132,-0.33786127,0.09200933,-0.028630834,-0.103496894,-0.19153613,0.28730422,-9.404425,0.9791215,47.71554,-1.0945578,-1.9961953,-3.5288568,-0.3266825,-0.2328364,-0.12171601,27.1875,28.3125,27.375,30.9375,32.6875,33.375
0.3100544,-1.582958,-1.211379,-0.6217877,-0.06245249,0.086035095,-0.17379555,-0.39597756,-0.32781944,0.059912626,-3.071594,0.6259344,-0.00028383016,-0.14981888,0.0007184132,0.00019202575,0.03708181,-0.0129779745,-0.009203961,0.43069008,-1.4278722,1.9590276,-2.096255,-1.5760239,2.407201,-0.10900057,0.281528,-0.33992988,0.08524132,-0.029230447,-0.09943193,-0.15322891,0.24899697,-9.481039,0.87393653,47.684196,-1.0501554,-1.9512825,-3.4531403,-0.26774558,-0.25569955,-0.15741083,27.1875,28.3125,27.375,30.9375,32.6875,33.375
0.31205335,-1.5810798,-1.6540312,-0.64286774,-0.058264207,0.10458891,-0.17994998,-0.39628786,-0.32782272,0.059903853,-3.0715082,0.626015,-0.00036995922,-0.1520198,0.0006422088,0.00086222653,0.03573914,-0.0093083875,-0.014078684,0.4304495,-1.427261,1.958309,-2.0960643,-1.5760483,2.4070225,-0.11038818,0.28241435,-0.3420338,0.08257491,-0.029552152,-0.09593907,-0.45968676,0.28730422,-9.404425,0.9298854,47.694946,-0.9388305,-1.8396182,-3.5259314,-0.21343157,-0.2507693,-0.1864349,27.1875,28.3125,27.375,30.9375,32.6875,33.375
0.31405467,-1.8073963,-1.3437237,-0.72286344,-0.06436698,0.10675997,-0.17675589,-0.39657402,-0.32782632,0.059909087,-3.071437,0.6260772,-0.00037148315,-0.15415427,7.851436e-05,0.0019969263,0.033499848,-0.0037361144,-0.017642342,0.4302454,-1.426734,1.9576625,-2.0959108,-1.5760959,2.406867,-0.110856384,0.28205782,-0.3434049,0.07831193,-0.029848592,-0.09283964,-0.5363012,0.3256114,-9.442732,0.9835985,47.684196,-1.0452031,-1.8262415,-3.571789,-0.19076368,-0.27880865,-0.22199374,27.1875,28.3125,27.375,30.9375,32.6875,33.375
0.31605357,-1.4703473,-0.96770835,-0.8180839,-0.04830792,0.10176143,-0.1790604,-0.3969109,-0.3278138,0.059918296,-3.0713518,0.6261559,-0.00029703017,-0.15472288,3.5037324e-06,0.0021118976,0.033358663,-0.00074151444,-0.019169997,0.42999363,-1.4261591,1.9569572,-2.0957797,-1.5761808,2.406676,-0.11033677,0.2816192,-0.3426076,0.07517293,-0.030969776,-0.090786,-0.5554548,0.38307226,-9.385271,0.9835985,47.666286,-1.0186135,-1.5293645,-3.738616,-0.12096158,-0.27531368,-0.28667688,27.1875,28.3125,27.375,30.9375,32.6875,33.375
0.31805348,-1.2108402,-0.6568778,-0.81622875,-0.041072037,0.09184622,-0.17190638,-0.39720085,-0.32780954,0.059909277,-3.0712602,0.6261771,-0.0003915285,-0.15762158,0.0005243303,0.0025444368,0.032447618,0.0009845358,-0.023927385,0.42976433,-1.4255834,1.9562758,-2.095576,-1.5762161,2.4064724,-0.113671385,0.28422657,-0.3465953,0.07460227,-0.030876674,-0.08935855,-0.7086837,0.21068975,-9.461885,0.95897776,47.68062,-0.93101,-1.5732812,-3.8045874,-0.08762724,-0.29243168,-0.33581132,27.1875,28.3125,27.375,30.9375,32.6875,33.375
0.32005343,-1.5038058,-0.28953946,-0.7394102,-0.023153136,0.067677185,-0.18189861,-0.3975322,-0.32781914,0.05992171,-3.071205,0.62624013,-0.00029522605,-0.15857333,-0.001776503,0.004289084,0.030090632,0.0044739363,-0.021945732,0.42954963,-1.4250084,1.9555677,-2.0954688,-1.5762881,2.4063048,-0.110599,0.2844136,-0.35096517,0.07462209,-0.03019205,-0.08827075,-0.7086837,0.17238252,-9.385271,1.0126908,47.705692,-1.1324221,-1.5433743,-3.6208897,-0.058391206,-0.3254478,-0.35848328,27.1875,28.3125,27.375,30.9375,32.6875,33.375
0.32205427,-1.0932719,0.24164486,-0.936602,0.008466165,0.06860968,-0.1742597,-0.397849,-0.32781577,0.059913155,-3.0711298,0.62638056,-0.00027039292,-0.16055171,-0.0006248373,0.0033490602,0.031187547,0.0031783106,-0.026904996,0.42930833,-1.4244322,1.9549083,-2.0953724,-1.5763363,2.4061615,-0.11393534,0.28847477,-0.35365984,0.074890055,-0.030651443,-0.08664311,-0.7278373,0.038307227,-9.481039,0.9634547,47.666286,-0.9324411,-1.5246598,-3.641296,-0.01621864,-0.34468067,-0.41247362,27.1875,28.3125,27.375,30.9375,32.6875,33.375
0.32405412,-1.4025837,0.7753609,-0.81415087,0.025731293,0.06811672,-0.1815935,-0.39816296,-0.327847,0.059936367,-3.0711038,0.6263736,-0.00026903625,-0.16100115,-0.0013302914,0.0026503268,0.032783527,0.0015910395,-0.025662625,0.4291171,-1.4238558,1.9541539,-2.0951803,-1.5763606,2.4059699,-0.11239421,0.29255983,-0.35723352,0.07648306,-0.031448252,-0.08633744,-0.7661445,0.05746084,-9.576807,0.9925471,47.664497,-1.1550841,-1.6927391,-3.5613856,-0.011272164,-0.34224427,-0.45671105,27.1875,28.3125,27.375,30.9375,32.6875,33.375
0.326054,-1.1171206,0.836066,-0.98150164,0.04212088,0.07543421,-0.18270029,-0.39849544,-0.32783628,0.059930567,-3.070998,0.626427,-0.00018805139,-0.16283093,-0.00093098235,0.0023512263,0.033762712,0.0009407706,-0.025206255,0.4288884,-1.4232556,1.9534577,-2.095072,-1.5764683,2.405789,-0.11411385,0.29626942,-0.36123118,0.077743135,-0.03208759,-0.088507414,-0.61291564,-0.038307227,-9.615114,0.88960326,47.67345,-1.0635066,-1.8835194,-3.4591978,0.007780387,-0.35553464,-0.47880226,27.1875,28.3125,27.375,30.9375,32.6875,33.375
0.32805407,-1.2931997,0.7774241,-0.7028909,0.018211486,0.09581588,-0.18182822,-0.39881718,-0.32782906,0.059932984,-3.070901,0.6264424,-0.00016682195,-0.16125928,0.00014812617,0.0010002017,0.036711123,-0.005801761,-0.021673461,0.42866027,-1.4226664,1.952741,-2.0949023,-1.5765527,2.4055836,-0.11470675,0.29797965,-0.36159864,0.08371896,-0.03197899,-0.092633635,-0.6512229,0.05746084,-9.481039,0.9634547,47.66987,-1.0548689,-1.9071488,-3.5633307,-0.0065849554,-0.37642592,-0.47581673,27.1875,28.3125,27.375,30.9375,32.6875,33.375
0.33005363,-1.5920153,0.20433196,-0.9169369,0.0078105778,0.09035794,-0.17218411,-0.39915198,-0.3278181,0.059941974,-3.0707967,0.6265129,-0.00016873082,-0.16188504,0.0025967741,-0.00054682547,0.03985603,-0.00994901,-0.017863838,0.4284068,-1.4220649,1.9519871,-2.0946982,-1.5766252,2.4053884,-0.1187848,0.30071875,-0.36193794,0.08634044,-0.03315728,-0.100513116,-0.59376204,0.11492168,-9.461885,0.9298854,47.682407,-0.93147886,-1.8567765,-3.6956058,-0.028061476,-0.38167125,-0.4529002,27.1875,28.3125,27.375,30.9375,32.6875,33.375
0.33205354,-0.7163214,0.64286655,-0.74342924,-0.008741694,0.09415721,-0.18672015,-0.3994779,-0.32781735,0.05994206,-3.0706959,0.6265636,-0.00017227927,-0.15979415,0.0031635033,-0.0012175499,0.044460233,-0.015490166,-0.010973595,0.42817965,-1.421452,1.9512452,-2.094516,-1.5766977,2.4052067,-0.116703235,0.3015253,-0.36312857,0.09364045,-0.03506403,-0.10530971,-0.4405331,0.038307227,-9.634268,0.8985519,47.65643,-0.9527726,-1.8215553,-3.7678113,-0.08062595,-0.38193282,-0.36535084,27.1875,28.3125,27.375,30.9375,32.6875,33.375
0.33405438,-0.560354,0.2807605,-0.6548802,-0.0043306537,0.06731524,-0.17902678,-0.39981726,-0.32781005,0.0599596,-3.070649,0.626628,-0.00012056129,-0.16089767,0.005299411,-0.00058484933,0.047083654,-0.017376356,-0.005920334,0.42791417,-1.4208877,1.9505266,-2.0943701,-1.5767463,2.404988,-0.12029965,0.30152196,-0.3659844,0.099243276,-0.036708757,-0.11394998,-0.49799395,-0.038307227,-9.576807,1.0171678,47.689575,-0.7478382,-1.7709682,-3.7927032,-0.1769084,-0.37909392,-0.31563744,27.1875,28.3125,27.375,30.9375,32.6875,33.375
0.33605427,-0.28641757,0.50015086,-0.62275887,0.014739394,0.041090474,-0.18447898,-0.4001417,-0.3277978,0.05995238,-3.0705123,0.6265958,-0.00010837838,-0.1611935,0.0049211085,-0.0002591991,0.048726425,-0.018385708,0.00048480986,0.42769882,-1.4202626,1.9497846,-2.094178,-1.5768665,2.404771,-0.11901252,0.30329472,-0.36971766,0.10275443,-0.037824858,-0.11905755,-0.36391866,-0.038307227,-9.461885,0.9410752,47.650166,-0.9715103,-1.739419,-3.6860747,-0.18924773,-0.36877406,-0.2117025,27.1875,28.3125,27.375,30.9375,32.6875,33.375
0.33805412,0.32346874,1.0416955,-1.1279249,0.03184907,0.03067481,-0.18705791,-0.400469,-0.3277878,0.05997444,-3.0704415,0.62652045,-0.00013382534,-0.16283578,0.0047784126,0.0016854438,0.049104318,-0.015480488,0.00338417,0.42744705,-1.4196858,1.9490169,-2.0939257,-1.5769275,2.4044821,-0.118961394,0.30273822,-0.3742672,0.10534475,-0.039406996,-0.1218925,-0.30645782,-0.038307227,-9.481039,1.005978,47.63852,-0.91125095,-1.5702296,-3.5438914,-0.24460842,-0.36119753,-0.1662878,27.1875,28.3125,27.375,30.9375,32.6875,33.375
0.34005398,0.15616679,0.7534188,-0.97019416,0.03587597,0.03394358,-0.17534958,-0.4007988,-0.3277615,0.059970204,-3.070314,0.6265321,-0.00011590262,-0.16509326,0.0049902634,0.003013559,0.049464464,-0.013132033,0.0028308164,0.42719457,-1.4190853,1.9482983,-2.093746,-1.5770358,2.4042542,-0.12023108,0.30378458,-0.37905794,0.10707855,-0.040733792,-0.12259638,-0.22984336,-0.019153614,-9.557653,0.8985519,47.660015,-0.9066708,-1.5216434,-3.3850327,-0.27729678,-0.35868976,-0.13276638,27.1875,28.3125,27.375,30.9375,32.6875,33.375
0.34205392,-0.18322831,0.71292233,-1.0637695,0.02586182,0.03572608,-0.17219242,-0.40113908,-0.32776165,0.059999574,-3.0702603,0.6264824,-0.0001282408,-0.16533482,0.005099528,0.00063153653,0.05216233,-0.016395355,0.0011979936,0.42694265,-1.4184945,1.9474972,-2.0934942,-1.577084,2.4039788,-0.11977376,0.30971968,-0.380472,0.106647,-0.0418455,-0.120496176,-0.17238252,0.019153614,-9.500193,0.9567419,47.692257,-0.9627291,-1.6067183,-3.478043,-0.31073892,-0.33971655,-0.1310735,27.1875,28.3125,27.375,30.9375,32.6875,33.375
0.34405386,-0.49370593,-0.44837335,-0.96405363,0.018610869,0.05433788,-0.16681981,-0.40148407,-0.32774815,0.060013153,-3.0701551,0.6265992,-0.00011194553,-0.16663256,0.005631792,-0.00022676474,0.053580243,-0.015992828,-0.007240178,0.42667845,-1.4178926,1.9467305,-2.093292,-1.5771569,2.403802,-0.120741986,0.31277186,-0.38185567,0.10523373,-0.04328714,-0.113014296,-0.22984336,0.076614454,-9.634268,0.92093146,47.71554,-0.89045525,-1.8641915,-3.4956727,-0.3178509,-0.3282585,-0.15378189,27.1875,28.3125,27.375,30.9375,32.6875,33.375
0.34605345,-0.9101256,-1.0420599,-0.76846546,-0.029773174,0.07490791,-0.16618834,-0.401817,-0.32771036,0.06001105,-3.0699844,0.62664133,-7.667806e-05,-0.1675877,0.0055955653,-0.0010652024,0.05408556,-0.014777292,-0.010798882,0.4264264,-1.4172915,1.9460005,-2.0930889,-1.5773009,2.4035993,-0.12070592,0.315251,-0.3822863,0.10228846,-0.0442577,-0.10940933,-0.095768064,0.15322891,-9.557653,0.92093146,47.711063,-0.8852383,-1.7617519,-3.5853221,-0.28727448,-0.30538154,-0.22369942,27.1875,28.3125,27.375,30.9375,32.6875,33.375
0.3480534,-0.6352954,-1.3589476,-0.6087423,-0.060177714,0.08832787,-0.17999028,-0.40213472,-0.32771307,0.06001607,-3.0698726,0.6265617,-0.00012705463,-0.17004748,0.005491937,-0.0014742378,0.054217596,-0.010876518,-0.016540693,0.4262224,-1.4166651,1.9452113,-2.0928276,-1.5773858,2.4033608,-0.121308155,0.31852934,-0.38420048,0.09745043,-0.045998313,-0.10425205,-0.05746084,0.26815057,-9.481039,1.0126908,47.67793,-0.9754423,-1.8431704,-3.7469254,-0.24019474,-0.29626155,-0.27213642,27.1875,28.3125,27.375,30.9375,32.6875,33.375
0.3500542,-0.28697407,-1.6506304,-0.6381492,-0.062380776,0.06738342,-0.18301132,-0.4024789,-0.32769263,0.060008314,-3.0697484,0.6266311,-7.614181e-05,-0.17256193,0.0054937643,-1.1234442e-06,0.05387076,-0.0036910924,-0.016970452,0.42597026,-1.4160414,1.9444808,-2.092685,-1.5774945,2.403169,-0.121519834,0.31765756,-0.38578984,0.09321381,-0.048675578,-0.10401387,-0.038307227,0.34476504,-9.423578,0.9791215,47.679718,-0.92873216,-1.8282037,-3.7210517,-0.20167401,-0.24682531,-0.3086609,27.1875,28.3125,27.375,30.9375,32.6875,33.375
0.35205415,-0.005541411,-1.8246127,-0.76742876,-0.06310011,0.05596397,-0.1753688,-0.40287182,-0.32769874,0.06007535,-3.069729,0.6266647,0.00014635135,-0.17610522,0.0044328202,0.0016522038,0.050627,0.0032379583,-0.017405275,0.4257179,-1.4154767,1.9436415,-2.0925195,-1.5775903,2.4029405,-0.12241943,0.31880683,-0.39003015,0.08862932,-0.048600066,-0.10448178,-0.038307227,0.5554548,-9.346964,0.9231726,47.694946,-1.0301824,-1.7064294,-3.6428523,-0.138967,-0.20648749,-0.28788668,27.1875,28.3125,27.375,30.9375,32.6875,33.375
0.35405397,0.41455388,-1.824896,-0.90768135,-0.04168331,0.021177918,-0.16998844,-0.40321288,-0.32765996,0.06004894,-3.0695374,0.6266815,0.00015878094,-0.17771566,0.00312901,0.0020777418,0.050220717,0.005295083,-0.01690761,0.42546642,-1.4148138,1.9429001,-2.0923402,-1.5777467,2.4027255,-0.120926246,0.32184884,-0.3945691,0.088065706,-0.049100254,-0.10347588,-0.05746084,0.63206923,-9.404425,0.88960326,47.71286,-1.006424,-1.6181046,-3.56338,-0.07405073,-0.19864401,-0.33066642,27.1875,28.3125,27.375,30.9375,32.6875,33.375
0.35605356,0.367157,-1.6353056,-1.1209087,-0.046674002,0.0031356425,-0.17294563,-0.4035681,-0.32765615,0.06006727,-3.069457,0.6268202,0.00023620499,-0.18073452,0.005065192,0.003189503,0.050121997,0.008974695,-0.022211308,0.4252128,-1.4142144,1.9421338,-2.0921848,-1.5778192,2.4025695,-0.12584098,0.32127506,-0.39639863,0.08706495,-0.050535448,-0.103077576,-0.076614454,0.6703765,-9.442732,0.9835985,47.71286,-0.8624878,-1.6217837,-3.5538511,-0.051509213,-0.17826846,-0.35156053,27.1875,28.3125,27.375,30.9375,32.6875,33.375
0.35805425,0.21921028,-1.6021156,-0.85643363,-0.078483045,0.034154203,-0.1772232,-0.40394837,-0.32765886,0.06009091,-3.0693743,0.62677974,0.0003265842,-0.18060437,0.0043489463,0.0023837988,0.05223364,0.008497035,-0.0180627,0.4249739,-1.4135526,1.9412726,-2.0919812,-1.577928,2.4023168,-0.12316332,0.32418737,-0.39810997,0.087142624,-0.052276734,-0.10453626,-0.15322891,0.7661445,-9.404425,0.97240865,47.687782,-1.0126483,-1.4857819,-3.5478354,-0.008198359,-0.13991922,-0.37188363,27.1875,28.3125,27.375,30.9375,32.6875,33.375
0.3600539,-0.260768,-1.9018624,-0.67448527,-0.081263654,0.049990516,-0.1789591,-0.40427718,-0.32764176,0.060064975,-3.0692425,0.62675065,0.000282697,-0.17969233,0.0053680977,0.0018488456,0.053387213,0.0037821108,-0.016031506,0.42473325,-1.4128925,1.9405311,-2.0917995,-1.5780233,2.402076,-0.12467366,0.32443494,-0.3984548,0.0919597,-0.051406607,-0.10807966,-0.24899697,0.9002198,-9.346964,0.96569055,47.684196,-0.9051945,-1.465806,-3.7686877,-0.020403408,-0.08696368,-0.34831667,27.1875,28.3125,27.375,30.9375,32.6875,33.375
0.36205336,-0.5514227,-2.1554794,-0.78359604,-0.08014433,0.07718948,-0.17527838,-0.40467408,-0.3276668,0.060108542,-3.0692067,0.6267981,0.00044201827,-0.18010153,0.0049194726,0.0009955266,0.05154795,0.001484007,-0.012147841,0.42450505,-1.4122425,1.9396452,-2.0916321,-1.5781063,2.4018826,-0.12571484,0.3271569,-0.39983055,0.09188335,-0.04880907,-0.113024645,-0.30645782,0.842759,-9.308656,0.9791215,47.70211,-0.88002,-1.391635,-3.8637412,-0.002181271,-0.11605276,-0.31168532,27.1875,28.3125,27.375,30.9375,32.6875,33.375
0.36405426,-0.81471497,-1.6471003,-0.64015955,-0.084511675,0.07929687,-0.18340942,-0.40502414,-0.32762378,0.06009502,-3.0690408,0.626835,0.00042059337,-0.18057348,0.005033517,0.00030192593,0.052604172,-0.0016262954,-0.006292143,0.42421678,-1.4115928,1.9388789,-2.0914152,-1.5782264,2.40164,-0.1263241,0.33054948,-0.40302458,0.094876885,-0.048541967,-0.11948581,-0.19153613,0.5554548,-9.442732,1.0865422,47.728977,-0.9866319,-1.5367471,-3.802304,0.008453185,-0.104422,-0.22838932,27.1875,28.3125,27.375,30.9375,32.6875,33.375
0.36605418,-0.81934094,-1.5115542,-0.3942555,-0.0682021,0.06556469,-0.17456837,-0.40538487,-0.32765847,0.060093585,-3.0690174,0.62678725,0.00047172623,-0.18113208,0.0031107257,0.0011215053,0.05207017,-0.002229231,0.0016302121,0.42401388,-1.410907,1.938064,-2.091295,-1.5782746,2.4014108,-0.12362026,0.3332397,-0.40902528,0.09845953,-0.047842517,-0.12470746,-0.15322891,0.3256114,-9.251196,0.9388393,47.687782,-0.99543774,-1.6515535,-3.6470609,0.0036711656,-0.09419629,-0.16494834,27.1875,28.3125,27.375,30.9375,32.6875,33.375
0.36805412,-0.17901611,-0.6204526,0.08134059,-0.026266096,0.043941207,-0.1630727,-0.405788,-0.3276482,0.060125772,-3.0689392,0.6267696,0.0006402813,-0.18252058,0.0035894362,0.00062235165,0.051509943,-0.0062749195,0.002205748,0.4237485,-1.4102571,1.9372028,-2.0911257,-1.5784053,2.4011452,-0.12683968,0.3372439,-0.4136076,0.10242919,-0.045689497,-0.12851724,-0.28730422,0.24899697,-9.002198,0.9164598,47.70032,-0.9506485,-1.667701,-3.4883628,-0.022251997,-0.08472939,-0.07683061,27.1875,28.3125,27.375,30.9375,32.6875,33.375
0.3700538,0.8033797,0.8693434,0.01625595,0.02848054,0.0119969845,-0.1849035,-0.4061405,-0.32766372,0.060136084,-3.0688782,0.6267345,0.00067961763,-0.1803193,0.0029931248,-0.00027852866,0.053311456,-0.013206324,0.0061555314,0.42353344,-1.4096079,1.9363889,-2.0909436,-1.5784768,2.4009168,-0.124592036,0.33926263,-0.41567355,0.10949944,-0.044488084,-0.13022703,-0.21068975,0.2681506,-8.963891,0.90750587,47.675243,-1.1168312,-1.67856,-3.4398127,-0.06301503,-0.10900681,-0.06501947,27.1875,28.3125,27.375,30.9375,32.6875,33.375
0.37205356,0.994674,1.0628711,0.027260587,0.05317454,-0.0029612507,-0.17258765,-0.40652063,-0.3276512,0.06013129,-3.0687923,0.6267189,0.0006732708,-0.18055168,0.0026353423,-4.0689643e-05,0.051932912,-0.015867813,0.00066728005,0.4232452,-1.4089106,1.935551,-2.090751,-1.5785478,2.4006307,-0.12548378,0.34055072,-0.41876233,0.11316678,-0.0421291,-0.12564328,-0.095768064,0.114921674,-9.021352,0.90527004,47.672558,-1.0606031,-1.6610533,-3.5340014,-0.10010964,-0.12476299,-0.044323493,27.1875,28.3125,27.375,30.9375,32.6875,33.375
