Tylouw/Master_Thesis_Code/training_data/batch_1/big_rod_t0.2/sample_39_session_1.csv
timestamp[s],tcp_force_x[N],tcp_force_y[N],tcp_force_z[N],tcp_force_rx[Nm?],tcp_force_ry[Nm?],tcp_force_rz[Nm?],tcp_pose_x[m],tcp_pose_y[m],tcp_pose_z[m],tcp_pose_rx[rot_vec_x],tcp_pose_ry[rot_vec_y],tcp_pose_rz[rot_vec_z],tcp_velo_x[m/s],tcp_velo_y[m/s],tcp_velo_z[m/s],tcp_velo_rx[rot_vec_x/s],tcp_velo_ry[rot_vec_y/s],tcp_velo_rz[rot_vec_z/s],q1[rad],q2[rad],q3[rad],q4[rad],q5[rad],q6[rad],qd1[rad/s],qd2[rad/s],qd3[rad/s],qd4[rad/s],qd5[rad/s],qd6[rad/s],tool_acc_x,tool_acc_y,tool_acc_z,current_of_whole_robot[A],voltage_of_whole_robot[V],current_J1[A],current_J2[A],current_J3[A],current_J4[A],current_J5[A],current_J6[A],temp_J1[C],temp_J2[C],temp_J3[C],temp_J4[C],temp_J5[C],temp_J6[C]
8.3300984e-07,-0.99954367,-0.7218869,0.5521226,-0.012538653,-0.004505739,-0.019903706,-0.37290987,-0.3282066,0.059948184,-3.078458,0.6248808,-0.00023183403,0.0031704141,0.0014922724,-0.0045774328,0.0044066524,-0.009395887,0.00012011341,0.4481262,-1.4708489,2.009549,-2.107691,-1.5706977,2.4230556,-1.0272315e-14,0.0044190614,0.005555493,0.000402478,0.00011213132,-0.00012307381,0.1340753,0.19153613,-8.887277,0.83589023,47.72002,-0.13043936,-2.9528012,-2.5308821,-0.4895102,0.15218686,-0.13876826,26.5,27.375,26.5,29.6875,30.9375,31.4375
0.0020518699,-0.96020025,0.005288937,0.58736145,-0.012969092,-0.008895579,-0.014227096,-0.3729138,-0.32823437,0.05995711,-3.0785317,0.62481827,-0.00020261043,-0.0001932848,-0.00013407654,-0.0032395136,-0.00043154287,0.000614093,0.00012153595,0.44815028,-1.4708489,2.0095375,-2.1077306,-1.5706614,2.4230313,-1.3781623e-16,0.004399725,0.004891436,-0.010032031,0.00011041174,-0.000121005396,0.095768064,0.19153613,-8.90643,0.7463667,47.711964,-0.09824146,-2.7998161,-2.3638194,-0.46484178,0.14828336,-0.11799891,26.5,27.375,26.5,29.6875,30.9375,31.4375
0.00405233,-1.1831865,-0.21626696,0.3273502,0.010776343,-0.02439224,-0.009564837,-0.3728827,-0.32821056,0.0599293,-3.0784605,0.62482285,-0.0002816798,-0.000995664,-0.0005214152,-0.002677222,-0.0017320756,0.0033101607,0.00012023096,0.44815028,-1.470849,2.009596,-2.1077073,-1.5706857,2.4230433,-1.848981e-18,0.0038690534,0.004703803,-0.01230708,0.00010874425,-0.00011900521,0.076614454,0.1340753,-8.944737,0.7978386,47.701214,-0.08742897,-3.0655422,-2.6097498,-0.37602282,0.15797402,-0.12629814,26.5,27.375,26.5,29.6875,30.9375,31.4375
0.00605252,-0.686469,0.22148682,0.29175764,0.019695116,-0.023232937,-0.012104047,-0.3728661,-0.3282049,0.059897896,-3.0784435,0.6248197,-0.00038053835,-0.00053616246,-0.00029824377,-0.0018059267,-0.0011291467,0.00207532,0.00011761198,0.44813824,-1.4708139,2.0096319,-2.1077178,-1.5706614,2.4230313,-2.4806436e-20,0.0023800563,0.0033845603,-0.008124674,0.00010712631,-0.000117070216,0.076614454,0.11492168,-8.983045,0.779936,47.70659,-0.122017905,-2.921122,-2.475308,-0.39831218,0.14070863,-0.12276602,26.5,27.375,26.5,29.6875,30.9375,31.4375
0.008052529,-0.62844133,0.91497934,-0.110833205,0.034947667,-0.045128375,-0.01373766,-0.37288615,-0.3282146,0.059913326,-3.0784774,0.62486553,-0.0002931606,0.00014773944,3.7641825e-05,-0.0014038455,-7.495702e-05,-6.847752e-05,0.0001149884,0.44813824,-1.470826,2.0096204,-2.107764,-1.5706614,2.4230556,-3.3281002e-22,0.0015559066,0.0024110016,-0.0039380295,9.336005e-05,-0.00011519719,0.0,0.076614454,-9.136273,0.7351769,47.705692,-0.0518725,-2.8969047,-2.4662888,-0.43345523,0.148495,-0.1269245,26.5,27.375,26.5,29.6875,30.9375,31.4375
0.010051729,-0.2809552,0.7946308,-0.44876745,0.044409577,-0.03281561,-0.019447748,-0.37286335,-0.32821426,0.059891567,-3.0784297,0.6248939,-0.00040903146,0.0004052543,0.00016332878,-0.0013676704,0.00051656575,-0.0012840345,0.00011301779,0.44815028,-1.4707901,2.00962,-2.1077158,-1.5706495,2.4230914,-4.4650714e-24,0.0016675253,0.0017782075,-0.0020650104,8.9850284e-05,-0.00011338311,-0.038307227,0.1340753,-9.289502,0.6948948,47.687782,-0.4338739,-2.210175,-3.144968,-0.45894587,0.12965642,-0.18358351,26.5,27.375,26.5,29.6875,30.9375,31.4375
0.012051825,-0.5346937,0.6862957,-0.49570796,0.014153977,-0.019888492,-0.019016031,-0.37289473,-0.32821232,0.059921935,-3.0784547,0.6248994,-0.0003251029,-0.0017318481,-0.00081384974,-0.0024122244,0.0014525553,-0.0032192464,3.0616757e-05,0.44812617,-1.470811,2.0095704,-2.1077034,-1.5706614,2.4230676,-0.00010161688,0.009542163,-0.004615705,-0.001396016,7.269676e-05,-0.0001276613,0.11492168,0.1340753,-9.442732,0.7351769,47.66987,-0.55040526,-2.410467,-3.261112,-0.4512186,0.12968573,-0.21122262,26.5,27.375,26.5,29.6875,30.9375,31.4375
0.014052633,-0.837604,0.062787406,-0.5663196,-0.006908281,0.0026091584,-0.028584318,-0.37285915,-0.3282044,0.059874352,-3.078395,0.6248099,-0.00042033306,-0.0059610787,0.00050542416,-0.003438085,0.0022782055,-0.004963366,-0.00041764317,0.44816005,-1.4707607,2.009627,-2.1077158,-1.5706857,2.4230533,-0.006436103,0.017382164,-0.010960786,-0.000962367,6.918403e-05,-0.0060089543,-0.05746084,0.1340753,-9.576807,0.69041777,47.686886,-0.35074317,-2.847216,-2.9273436,-0.44337058,0.107771695,-0.22127488,26.5,27.375,26.5,29.6875,30.9375,31.4375
0.016051803,-1.3654149,-0.71356297,-0.81706125,-0.03446507,0.02974461,-0.031547867,-0.3728981,-0.32818875,0.05987571,-3.0783756,0.62480336,-0.0004004765,-0.005703601,0.0015435921,-0.0042391606,0.0031959913,-0.0068658823,0.0025377017,0.4481113,-1.4707127,2.0095685,-2.107703,-1.5707096,2.423003,-0.008152682,0.017663162,-0.009522523,-0.0005703955,6.7744e-05,-0.010681814,-0.2681506,0.22984336,-9.691729,0.7329411,47.65912,-0.3007999,-2.7340214,-3.1909788,-0.44277513,0.12015226,-0.16919447,26.5,27.375,26.5,29.6875,30.9375,31.4375
0.018052425,-2.2761405,-1.5549624,-0.6677148,-0.062921435,0.059416387,-0.0358474,-0.37287724,-0.32818115,0.05984621,-3.0783453,0.62479585,-0.0005269406,-0.0051417607,0.0011710422,-0.0039805495,0.0033558304,-0.007194811,0.0052204537,0.4480998,-1.470677,2.0095913,-2.1076787,-1.5706857,2.4229906,-0.0069398894,0.017128551,-0.009797156,0.0006045485,6.648384e-05,-0.012152044,-0.47884035,0.38307226,-9.864111,0.7553206,47.657326,-0.40841654,-2.3828773,-3.4920378,-0.45545542,0.10650505,-0.17587808,26.5,27.375,26.5,29.6875,30.9375,31.4375
0.020052586,-2.9786234,-2.0072222,-0.77430415,-0.06985339,0.069267176,-0.03900894,-0.37290886,-0.32818598,0.059857227,-3.0783625,0.6248378,-0.0005380638,-0.0058671525,0.0010716884,-0.004065927,0.004196013,-0.008944388,0.0058056084,0.44806364,-1.47064,2.0095198,-2.1076539,-1.5706614,2.4229784,-0.0074140667,0.019801807,-0.01312697,0.003202102,6.527768e-05,-0.013209714,-0.5554548,0.38307226,-9.883265,0.85826975,47.683304,-0.57230306,-2.3898563,-3.4169333,-0.46200174,0.110165335,-0.17838821,26.5,27.375,26.5,29.6875,30.9375,31.4375
0.022052495,-2.66275,-1.2797576,-0.8811541,-0.062165346,0.07696979,-0.056724813,-0.3729057,-0.32818192,0.05983299,-3.0783162,0.6247898,-0.00058866147,-0.007018491,0.0010940934,-0.0041471515,0.0041677738,-0.0088964775,0.0059333136,0.4480753,-1.4705796,2.0095065,-2.107642,-1.5706857,2.422966,-0.008504867,0.021843823,-0.015168269,0.0031454263,6.411504e-05,-0.014426654,-0.5746084,0.4213795,-9.883265,0.779936,47.70838,-0.61200696,-2.419256,-3.44737,-0.47676396,0.092088774,-0.16644008,26.5,27.375,26.5,29.6875,30.9375,31.4375
0.02405249,-2.1841497,-0.9999138,-0.8581292,-0.04639084,0.07631801,-0.078276396,-0.3729064,-0.32819462,0.05982638,-3.0783246,0.62471485,-0.00060285075,-0.008798238,0.0012709484,-0.003395844,0.003062131,-0.00660937,0.004894828,0.44809854,-1.4705435,2.0094821,-2.1076424,-1.5706857,2.4229414,-0.010456658,0.022162527,-0.017009063,0.0021270164,6.299328e-05,-0.015338502,-0.61291564,0.4405331,-9.787497,0.78888994,47.72271,-0.5780255,-2.3985326,-3.395256,-0.46732455,0.097142786,-0.18830352,26.5,27.375,26.5,29.6875,30.9375,31.4375
0.026052361,-2.1055439,-0.7431379,-0.97424823,-0.03831491,0.055103425,-0.082912765,-0.37291825,-0.3282005,0.05981179,-3.078343,0.6247382,-0.00065006304,-0.010391477,0.0010351556,-0.0020839542,0.0015796234,-0.0035379105,0.004348559,0.4480742,-1.4704958,2.0094688,-2.1076667,-1.5706495,2.4229293,-0.011461261,0.021527078,-0.01918468,0.0015280513,6.1909814e-05,-0.015795453,-0.5554548,0.36391866,-9.691729,0.67475104,47.716442,-0.6213318,-2.2908773,-3.4794216,-0.4428357,0.081613615,-0.211766,26.5,27.375,26.5,29.6875,30.9375,31.4375
0.028052406,-2.281637,-0.57689124,-0.82599056,-0.02456268,0.041141342,-0.10405472,-0.3729349,-0.32819355,0.059807375,-3.0783224,0.6248109,-0.0006931537,-0.011294641,0.0010728864,-0.0023859467,0.0016876208,-0.0037414054,0.0044287113,0.4480379,-1.470459,2.009433,-2.1076424,-1.5706376,2.422941,-0.012344977,0.023580726,-0.020668224,0.0011882518,4.7637892e-05,-0.016757976,-0.59376204,0.34476504,-9.634268,0.75755644,47.693153,-0.7203594,-2.3128462,-3.4799213,-0.43574226,0.06406617,-0.2058456,26.5,27.375,26.5,29.6875,30.9375,31.4375
0.030052394,-2.0693812,-0.3110643,-0.6877889,-0.019609312,0.040534656,-0.11478188,-0.37298068,-0.32819825,0.059805147,-3.0783355,0.6247378,-0.00066616444,-0.013101135,0.0013012962,-0.0023929856,0.0015539035,-0.003472629,0.0033187235,0.44801307,-1.4703745,2.0093482,-2.1076548,-1.5706495,2.422869,-0.014416704,0.026202759,-0.023512973,0.0011104642,4.5018438e-05,-0.017717564,-0.5363012,0.19153613,-9.595961,0.7105615,47.70032,-0.67859036,-2.2956967,-3.4038815,-0.4184783,0.056958325,-0.19120055,26.5,27.375,26.5,29.6875,30.9375,31.4375
0.032052394,-1.9988519,-0.043312963,-0.510108,-0.010983433,0.04861608,-0.13011752,-0.3730187,-0.32817614,0.059801374,-3.078324,0.6247739,-0.0007056482,-0.014533726,0.0011336439,-0.0016330996,0.00075477356,-0.001822565,0.0031133727,0.4479288,-1.4703263,2.0092986,-2.107631,-1.5706376,2.4228086,-0.015402109,0.026853435,-0.0259629,0.0010764493,4.416293e-05,-0.018496037,-0.51714754,0.076614454,-9.691729,0.7553206,47.67345,-0.696236,-2.2630591,-3.3366868,-0.41263938,0.054017253,-0.19028884,26.5,27.375,26.5,29.6875,30.9375,31.4375
0.03405261,-1.9481798,0.23404084,-0.4262233,0.0073324805,0.046244185,-0.14210817,-0.37305468,-0.32819536,0.059801877,-3.0783286,0.62481403,-0.0006496759,-0.016215786,0.0012144708,-0.0011494558,0.00013205197,-0.0005362053,0.00090252137,0.44794023,-1.4702538,2.009226,-2.1076667,-1.5706495,2.4228446,-0.017083485,0.028162759,-0.02845413,0.0008290546,4.3487562e-05,-0.017964784,-0.5554548,0.076614454,-9.615114,0.7284641,47.71554,-0.5442287,-2.2421904,-3.3868804,-0.38547945,0.052994374,-0.18861705,26.5,27.375,26.5,29.6875,30.9375,31.4375
0.036052186,-1.5301826,0.5425473,-0.2952557,0.02305083,0.047242396,-0.15930846,-0.37310314,-0.32819507,0.05982723,-3.0783417,0.6247406,-0.0005283011,-0.017067032,0.00080116,-0.0003767791,-0.0004695878,0.0010662301,0.00065437,0.44792822,-1.4702299,2.0091417,-2.1076667,-1.5706977,2.4227853,-0.016974352,0.028268078,-0.030365009,0.00092945463,-0.00011077847,-0.01760605,-0.30645782,0.0,-9.500193,0.7597976,47.698532,-0.7449635,-2.2122624,-3.3911986,-0.36597806,0.021135569,-0.17802963,26.5,27.375,26.5,29.6875,30.9375,31.4375
0.03805225,-1.6175439,0.60235816,-0.38119867,0.0448119,0.027840829,-0.16666642,-0.3731001,-0.3281853,0.059780374,-3.078293,0.62484604,-0.0007089387,-0.017751373,0.0009041534,-0.00026456057,-6.064746e-05,0.00027927963,0.00013661005,0.4478799,-1.4701337,2.0091407,-2.1076543,-1.5706495,2.422809,-0.017769847,0.029679572,-0.03255378,0.0025940735,-0.00014148427,-0.017882666,-0.28730422,-0.05746084,-9.461885,0.7642693,47.703903,-0.6454909,-2.184958,-3.3519278,-0.3707307,0.028501555,-0.18205528,26.5,27.375,26.5,29.6875,30.9375,31.4375
0.040052265,-1.1106261,1.0543897,-0.43715635,0.038037725,0.016300786,-0.19700359,-0.3731759,-0.32818347,0.05980195,-3.0783246,0.6248335,-0.0006508848,-0.01858152,0.0010986403,-0.00033845103,0.00045922818,-0.0007637556,-0.00040857666,0.4478075,-1.4700611,2.0090086,-2.1076415,-1.5706495,2.4227247,-0.018875308,0.03161734,-0.034863546,0.0041313455,-0.00015938288,-0.018441672,-0.17238252,-0.15322891,-9.423578,0.7351769,47.668976,-0.6374988,-2.207344,-3.3483176,-0.36674812,0.030239906,-0.18448785,26.5,27.375,26.5,29.6875,30.9375,31.4375
0.042052455,-1.4117182,0.10684521,-0.6117744,0.04458126,-0.003345049,-0.1879914,-0.3731823,-0.32819268,0.059802327,-3.0783153,0.6247733,-0.00060039514,-0.019727387,0.00071998563,0.000112612186,-9.617185e-05,0.00047152647,0.00020120176,0.44784355,-1.4700367,2.0089839,-2.1076539,-1.5706857,2.4227245,-0.019179659,0.032792732,-0.037127975,0.0038657289,-0.00019935588,-0.019354098,-0.11492168,-0.019153614,-9.461885,0.78888994,47.667187,-0.6882509,-2.1567888,-3.362491,-0.36241552,0.007187062,-0.18689197,26.5,27.375,26.5,29.6875,30.9375,31.4375
0.044051655,-1.1519691,0.04219969,-0.50058997,0.015706517,-0.004352158,-0.18168287,-0.37323475,-0.32817316,0.05979611,-3.078301,0.6247704,-0.00063121505,-0.021017382,0.0006650316,0.0007584017,-0.00086379977,0.00213644,0.00036179452,0.4477591,-1.4699526,2.0089004,-2.10763,-1.5706857,2.42264,-0.020221412,0.033183116,-0.038947962,0.0034621004,-0.00023419996,-0.0205551,-0.11492168,-0.038307227,-9.442732,0.683705,47.66987,-0.63649195,-2.13332,-3.3913095,-0.3413871,0.01669826,-0.18083653,26.5,27.375,26.5,29.6875,30.9375,31.4375
0.04605227,-0.8549131,-0.44263127,-0.7210367,0.006263901,-0.0041709845,-0.17775066,-0.3732719,-0.32817376,0.059785735,-3.0782735,0.6247839,-0.0006496108,-0.021894496,0.0011271953,0.0008662246,-0.000104441155,0.0021524539,0.0003668947,0.44773474,-1.4698566,2.008816,-2.1076176,-1.5706981,2.4226277,-0.021416172,0.034183074,-0.04049199,0.0043224967,-0.00092820276,-0.021752648,-0.038307227,0.038307227,-9.461885,0.7396539,47.698532,-0.6232386,-2.0699477,-3.3351707,-0.33611202,-0.00014582835,-0.16712125,26.5,27.375,26.5,29.6875,30.9375,31.4375
0.048052255,-1.111352,-0.5065796,-0.6037496,-0.007880088,-0.009943453,-0.17056227,-0.37333885,-0.32817203,0.05980624,-3.0783076,0.6248483,-0.00058540696,-0.02254254,0.001107485,0.0012405788,0.00017716647,0.0017827855,0.0014630499,0.44766256,-1.4698085,2.0087187,-2.107629,-1.5706862,2.4225914,-0.021900142,0.035130847,-0.04280816,0.0061462894,-0.0010223133,-0.023331633,-0.076614454,0.1340753,-9.481039,0.7016076,47.70032,-0.62043846,-2.0408177,-3.3504128,-0.3527187,0.009717955,-0.15151764,26.5,27.375,26.5,29.6875,30.9375,31.4375
0.05005163,-0.7895454,-0.7999606,-0.7927554,-0.012047399,-0.0065997993,-0.15907335,-0.37337515,-0.32815754,0.059784334,-3.0782537,0.62485635,-0.00069220376,-0.022786953,0.0015761247,0.0008060636,0.0017860751,-5.8264835e-05,0.0015683015,0.44760224,-1.4696879,2.008623,-2.1075685,-1.5706862,2.422543,-0.022558289,0.036943246,-0.044261325,0.008145254,-0.0016768813,-0.024092969,-0.038307227,0.2681506,-9.595961,0.7463667,47.705692,-0.6200733,-2.0483751,-3.3940291,-0.3475697,-0.009203245,-0.15218556,26.5,27.375,26.5,29.6875,30.9375,31.4375
0.052051593,-0.61001205,-0.88960487,-0.77944624,-0.020883337,-0.003778146,-0.16655882,-0.37339604,-0.3281483,0.05978037,-3.0782313,0.62475497,-0.0006867849,-0.023764638,0.0014582181,0.001504634,0.001330123,0.0011194408,0.002165293,0.44759008,-1.4696399,2.0085738,-2.1075447,-1.570722,2.4224706,-0.02315416,0.037168115,-0.046219967,0.008619232,-0.0017800318,-0.025284503,-0.019153614,0.22984336,-9.500193,0.8023209,47.709274,-0.5826543,-1.9940673,-3.426783,-0.36235,-0.016478281,-0.14256492,26.5,27.375,26.5,29.6875,30.9375,31.4375
0.05405252,-0.6972736,-0.58838755,-0.62189585,-0.030932833,-0.0034945987,-0.17031333,-0.37345344,-0.3281653,0.059807166,-3.078299,0.6247689,-0.00060578744,-0.0244383,0.0017309926,0.0014761396,0.0017143852,0.00092907593,0.0026262791,0.44755372,-1.4696038,2.008478,-2.107568,-1.5706981,2.4224343,-0.024096522,0.03821522,-0.04741665,0.00910795,-0.0020442642,-0.026686706,0.038307227,0.30645782,-9.557653,0.7463667,47.658226,-0.57117385,-1.9470263,-3.4337149,-0.3654408,-0.03812349,-0.12951194,26.5,27.375,26.5,29.6875,30.9375,31.4375
0.056051977,-0.6135779,-1.0284734,-0.7424721,-0.028055236,0.0029654691,-0.16420929,-0.37349477,-0.32815093,0.059796944,-3.0782728,0.62476224,-0.0006919215,-0.025533315,0.0019748118,0.0013465016,0.0023355226,0.00042778638,0.0030140085,0.44748133,-1.469507,2.0083816,-2.1075084,-1.5706867,2.4223611,-0.025310563,0.040416263,-0.04972967,0.009941758,-0.0023930524,-0.028286118,0.05746084,0.36391866,-9.576807,0.7866488,47.689575,-0.58939445,-1.8414354,-3.481451,-0.357932,-0.025836509,-0.119098075,26.5,27.375,26.5,29.6875,30.9375,31.4375
0.05805204,-0.9170057,-1.1004999,-0.67387736,-0.038618654,0.0051653953,-0.16365476,-0.37356284,-0.32814538,0.05981082,-3.0782766,0.62478197,-0.00067701517,-0.026495326,0.001921337,0.0017310532,0.0022233687,0.00091200304,0.003150595,0.44740906,-1.4694228,2.008249,-2.1074722,-1.5706867,2.4223008,-0.026002789,0.041396055,-0.051836953,0.01058426,-0.002504701,-0.029113498,-0.076614454,0.36391866,-9.5385,0.75084364,47.67166,-0.6046963,-1.911985,-3.5139716,-0.36081547,-0.028921358,-0.10261713,26.5,27.375,26.5,29.6875,30.9375,31.4375
0.060051978,-1.4439356,-1.4450346,-0.79799247,-0.040055044,-0.0046280297,-0.15558732,-0.373623,-0.3281399,0.059825867,-3.0782404,0.6247553,-0.0005127933,-0.026918415,0.0019677607,0.0010442354,0.0032548981,-0.0009444569,0.0029613895,0.44740894,-1.469362,2.0081532,-2.1074955,-1.5707825,2.422289,-0.026387824,0.0442537,-0.05364589,0.011653175,-0.0026313565,-0.02930799,-0.095768064,0.34476504,-9.576807,0.7642693,47.688675,-0.59045815,-1.8797152,-3.436583,-0.36980504,-0.047584463,-0.09930883,26.5,27.375,26.5,29.6875,30.9375,31.4375
0.06205199,-1.1362791,-1.2753564,-0.5769724,-0.038883038,0.014324916,-0.15636407,-0.37367865,-0.32816076,0.05982965,-3.0782974,0.62476707,-0.00057999516,-0.028157584,0.0017057311,0.0014295535,0.0026897436,0.00017121714,0.003529935,0.4473488,-1.4692537,2.0080202,-2.1074722,-1.5707105,2.4222288,-0.027029213,0.045552514,-0.0558916,0.011351347,-0.002610731,-0.030516341,-0.15322891,0.40222588,-9.519346,0.7911258,47.686886,-0.58977884,-1.9176207,-3.5061479,-0.3672359,-0.052477106,-0.09028354,26.5,27.375,26.5,29.6875,30.9375,31.4375
0.064051904,-1.6952267,-0.8733336,-0.52592665,-0.02975303,0.007968845,-0.16144952,-0.37373802,-0.32815313,0.059846427,-3.0782914,0.62474567,-0.0005703108,-0.029180367,0.0013406046,0.001782605,0.0023237257,0.00074294826,0.005140209,0.4472886,-1.4691814,2.0078886,-2.1074116,-1.5707225,2.422156,-0.027318979,0.047005977,-0.058383115,0.011714402,-0.0025337369,-0.03241493,-0.1340753,0.3256114,-9.461885,0.7284641,47.66539,-0.59320563,-1.8280497,-3.47829,-0.35467958,-0.050383817,-0.06387009,26.5,27.375,26.5,29.6875,30.9375,31.4375
0.066052526,-1.898498,-1.0991514,-0.5344848,-0.006276894,0.0058945925,-0.15381315,-0.373812,-0.32816756,0.059870936,-3.0783365,0.62479395,-0.00049067667,-0.030173123,0.0012087659,0.001728073,0.002429051,0.0011491579,0.004412682,0.4472405,-1.4691089,2.0077555,-2.107424,-1.5707105,2.4221325,-0.027782237,0.0488736,-0.06023605,0.011380324,-0.002806582,-0.0321488,-0.15322891,0.36391866,-9.404425,0.800085,47.677036,-0.6308231,-1.8125646,-3.493778,-0.3568647,-0.04599631,-0.07106902,26.5,27.375,26.5,29.6875,30.9375,31.4375
0.06805243,-1.7940891,-0.8751493,-0.32616252,0.0036069618,0.008802279,-0.15005416,-0.37385094,-0.32815668,0.059838023,-3.0783207,0.6247521,-0.00060283585,-0.03150303,0.00065887463,0.0022076147,0.0016291783,0.003088513,0.003729031,0.4471685,-1.4689766,2.007683,-2.1074126,-1.5706867,2.4220364,-0.027865242,0.050174206,-0.06251694,0.010267197,-0.0029332563,-0.03154581,-0.21068975,0.45968673,-9.385271,0.7777002,47.64837,-0.71891177,-1.8394561,-3.5124722,-0.3447003,-0.09457865,-0.08195026,26.5,27.375,26.5,29.6875,30.9375,31.4375
0.0700524,-1.9836779,-0.6107015,-0.34439805,0.0036849228,0.0087041985,-0.15834336,-0.37393653,-0.3281636,0.05986595,-3.0783405,0.62477595,-0.0004898783,-0.03372612,0.00033338324,0.0032488268,0.0012885669,0.005769906,0.0029074338,0.44712025,-1.4688922,2.0075262,-2.107412,-1.570711,2.4220006,-0.028682886,0.05181002,-0.066701055,0.010252622,-0.0037920233,-0.03153758,-0.24899697,0.3256114,-9.308656,0.800085,47.66987,-0.6581657,-1.8064228,-3.3727036,-0.32251465,-0.07295032,-0.086053714,26.5,27.375,26.5,29.6875,30.9375,31.4375
0.07205236,-1.7352924,-0.40619856,-0.1963851,0.0031863921,0.013800222,-0.15127969,-0.3739813,-0.32814878,0.059854537,-3.0783064,0.624711,-0.00055562874,-0.03334654,0.0012268036,0.0008023603,0.0040117553,0.0014606938,0.0037474465,0.4470598,-1.468783,2.0074189,-2.1073525,-1.5707229,2.421904,-0.029613042,0.056155503,-0.0658385,0.010108745,-0.0043858746,-0.03330608,-0.3256114,0.26815057,-9.32781,0.83813137,47.670765,-0.6946695,-1.87805,-3.4855323,-0.3474487,-0.08392954,-0.08058416,26.5,27.375,26.5,29.6875,30.9375,31.4375
0.074052386,-1.6884993,-0.24514177,-0.14522845,0.0014099942,0.022252262,-0.15448275,-0.3740567,-0.3281681,0.059866942,-3.0783293,0.6247347,-0.00056091836,-0.035133507,0.00076876464,0.002945143,0.0027264904,0.0064103436,0.0042253295,0.44701183,-1.4686519,2.0072381,-2.1073167,-1.5706996,2.421868,-0.02969611,0.054343846,-0.068686426,0.009753462,-0.00537325,-0.033863556,-0.38307226,0.19153613,-9.232041,0.7933669,47.68599,-0.6886041,-1.8047563,-3.5299153,-0.33924323,-0.07791315,-0.078779235,26.5,27.375,26.5,29.6875,30.9375,31.4375
0.07605215,-2.1196034,-0.108383894,-0.071688026,-0.0021428806,0.019215645,-0.15366817,-0.3741262,-0.32815877,0.059865475,-3.0783422,0.6246977,-0.0005186406,-0.038207177,0.00036708493,0.004568832,0.0029972214,0.01022352,0.0045680725,0.44693965,-1.4685553,2.0071409,-2.1073406,-1.570712,2.4217713,-0.030434009,0.056563184,-0.07503847,0.010570402,-0.007276555,-0.034936555,-0.4213795,0.15322891,-9.308656,0.779936,47.66539,-0.7547925,-1.7046714,-3.2155056,-0.3388129,-0.056775413,-0.06553012,26.5,27.375,26.5,29.6875,30.9375,31.4375
0.07805219,-1.642175,-0.16379094,-0.24692726,0.007338177,0.03202065,-0.15207364,-0.3742266,-0.3281448,0.059878517,-3.0783002,0.6246699,-0.0003968085,-0.037063032,0.0014549677,0.0020085087,0.006099899,0.0052017705,0.004397631,0.4468794,-1.4684224,2.006962,-2.1073282,-1.5707964,2.4216993,-0.031013824,0.059917223,-0.07296012,0.011006228,-0.007897558,-0.035345778,-0.34476507,0.19153613,-9.289502,0.7396539,47.67793,-0.69863176,-1.7801822,-3.4350266,-0.32251406,-0.069556236,-0.055197358,26.5,27.375,26.5,29.6875,30.9375,31.4375
0.080052204,-2.6377516,-0.10530448,-0.36209223,0.003658567,0.0107064955,-0.14819126,-0.37428337,-0.32815957,0.0598896,-3.0783577,0.624606,-0.0004011674,-0.039085515,0.0010032193,0.0025935334,0.0059667164,0.0064976932,0.0024989962,0.44683117,-1.4683374,2.0068405,-2.1073158,-1.5707601,2.421604,-0.031690903,0.062711224,-0.0774948,0.011523488,-0.0083443085,-0.03412054,-0.28730422,0.24899697,-9.212888,0.78888994,47.67345,-0.76858974,-1.882302,-3.3066547,-0.3209729,-0.075338244,-0.071303815,26.5,27.375,26.5,29.6875,30.9375,31.4375
0.08205174,-1.845065,-0.08870652,-0.26089764,0.00095314917,0.02811747,-0.15127997,-0.3743709,-0.32816747,0.059898812,-3.0783424,0.62470025,-0.00042382805,-0.04083094,0.00041670262,0.0046668006,0.003679876,0.010588877,0.00080101704,0.4467589,-1.4681824,2.0066354,-2.1072567,-1.5707487,2.4215925,-0.03235414,0.06106248,-0.08042106,0.011419839,-0.008055478,-0.033084806,-0.4405331,0.17238252,-9.251195,0.7777002,47.70032,-0.699515,-1.6825869,-3.2984014,-0.3240469,-0.06359846,-0.11024007,26.5,27.375,26.5,29.6875,30.9375,31.4375
0.084051795,-1.6269783,-0.30984375,-0.29077417,0.002760171,0.027619183,-0.14823319,-0.37446517,-0.3281551,0.05991246,-3.0783145,0.62465525,-0.0003138934,-0.041531272,0.0006044459,0.003338189,0.0052604857,0.008593099,0.0017003922,0.44669858,-1.4680612,2.006468,-2.1072443,-1.5708202,2.4215078,-0.032951396,0.06534457,-0.08204937,0.0112475585,-0.008621816,-0.03457892,-0.4405331,0.21068975,-9.3661175,0.76874626,47.716442,-0.696502,-1.7676351,-3.2600825,-0.31714806,-0.06839396,-0.1179595,26.5,27.375,26.5,29.6875,30.9375,31.4375
0.086052366,-2.3003695,-0.9434144,-0.4149562,0.006247817,0.013180365,-0.14172511,-0.37454417,-0.32814416,0.05989951,-3.0782795,0.62474364,-0.00041164554,-0.04327551,0.000448009,0.00397879,0.0047804895,0.009528656,0.001645001,0.44659024,-1.4678928,2.0062988,-2.1071837,-1.5707964,2.4214592,-0.034239624,0.067140326,-0.08568268,0.012033492,-0.008601031,-0.03580909,-0.36391866,0.22984336,-9.3661175,0.7866488,47.679718,-0.71961987,-1.8210334,-3.178161,-0.32287684,-0.058936678,-0.10059668,26.5,27.375,26.5,29.6875,30.9375,31.4375
0.08805215,-1.8267255,-0.46575114,-0.51259965,-0.017115945,0.021935951,-0.15485258,-0.37464166,-0.32816333,0.059925057,-3.0783494,0.6246626,-0.0003349881,-0.04259366,0.0010834634,0.002191433,0.0059371716,0.005349027,0.000775834,0.4465299,-1.4677721,2.0061076,-2.1071837,-1.5707844,2.4213395,-0.035325162,0.0697329,-0.08457212,0.012596788,-0.007832926,-0.03602799,-0.3256114,0.2681506,-9.270349,0.7732232,47.686886,-0.6947055,-1.8142524,-3.2004824,-0.32141995,-0.06550376,-0.12389196,26.5,27.375,26.5,29.6875,30.9375,31.4375
0.09005232,-2.065409,-0.9048475,-0.48435017,-0.017154362,0.017321886,-0.14938177,-0.37471238,-0.32815683,0.059932232,-3.0783238,0.6246956,-0.0003130396,-0.04352205,0.0011030724,0.0021650272,0.005516698,0.0051689614,-6.2217123e-06,0.44646946,-1.4676639,2.005964,-2.1071484,-1.5708078,2.421303,-0.03650054,0.07125165,-0.0862113,0.01269502,-0.0073792227,-0.036421023,-0.36391866,0.28730422,-9.3661175,0.83813137,47.686886,-0.67966855,-1.7696738,-3.3673162,-0.30968925,-0.08716495,-0.12719232,26.5,27.375,26.5,29.6875,30.9375,31.4375
0.09205236,-2.171689,-1.2436621,-0.3540203,-0.019148495,0.01937108,-0.14625514,-0.37482166,-0.32815814,0.05995161,-3.0783246,0.62469494,-0.00021727548,-0.045665305,-0.00011998736,0.0033775873,0.004905009,0.007963213,0.0013900273,0.44639775,-1.4675192,2.0057576,-2.1071355,-1.5708445,2.421231,-0.03568412,0.07372148,-0.09179012,0.013019843,-0.008043214,-0.03699636,-0.24899697,0.21068975,-9.289502,0.77545905,47.66271,-0.7839936,-1.8853407,-3.0783112,-0.31748652,-0.06386992,-0.13959225,26.5,27.375,26.5,29.6875,30.9375,31.4375
0.09405238,-1.8313161,-0.8178617,-0.327025,-0.018737564,0.021373397,-0.14968427,-0.37488294,-0.32815534,0.059945643,-3.0783064,0.62467265,-0.00026424794,-0.046136618,0.000673819,0.0025869051,0.0054869833,0.006477919,-0.0005466489,0.446337,-1.467387,2.005615,-2.1070879,-1.5708445,2.4211588,-0.037669748,0.07530033,-0.09170775,0.012948735,-0.007928114,-0.037045036,-0.34476504,0.2681506,-9.270349,0.7732232,47.678825,-0.7216071,-1.8243668,-3.2840977,-0.30923358,-0.086820066,-0.16497226,26.5,27.375,26.5,29.6875,30.9375,31.4375
0.096052036,-1.5738204,-0.2869821,-0.40704083,-0.019413231,0.015004486,-0.15289184,-0.37500325,-0.32815343,0.05995449,-3.0782912,0.6246891,-0.00022757989,-0.047342315,0.00079047045,0.002320046,0.005869763,0.00588596,-0.0015385469,0.4462407,-1.4671944,2.0053747,-2.1070516,-1.5708684,2.4210749,-0.038901247,0.07800853,-0.09419861,0.013429212,-0.008021482,-0.03728281,-0.28730422,0.28730422,-9.404425,0.800085,47.68599,-0.71715075,-1.9158185,-3.1969,-0.2991484,-0.09512098,-0.16250889,26.5,27.375,26.5,29.6875,30.9375,31.4375
0.098052144,-1.4686773,-0.5579462,-0.2304268,-0.00766996,0.004898999,-0.15606183,-0.3751076,-0.32817343,0.05997524,-3.0783393,0.6246225,-0.00012698583,-0.049233902,0.0012409686,0.0026112602,0.006029248,0.007326114,-0.0025076105,0.44619188,-1.4670501,2.005171,-2.107064,-1.5708803,2.4209785,-0.04092462,0.0796559,-0.09657433,0.012928803,-0.008790612,-0.038334478,-0.21068975,0.28730422,-9.385271,0.7866488,47.679718,-0.6514898,-1.8183963,-3.1632748,-0.28897107,-0.0859748,-0.18519413,26.5,27.375,26.5,29.6875,30.9375,31.4375
0.10005215,-1.5282228,-0.75209135,-0.33225083,-0.0022366943,-0.0023856922,-0.1500521,-0.375209,-0.32817283,0.059977185,-3.078348,0.6245659,-0.00010041666,-0.050155643,0.0013030538,0.0024521537,0.0066113872,0.007256989,-0.0022641185,0.44610772,-1.4668816,2.0049784,-2.1070516,-1.5708932,2.4208581,-0.04152391,0.08166348,-0.098479636,0.013140331,-0.0092890505,-0.03917509,-0.15322891,0.17238252,-9.346964,0.76874626,47.68062,-0.56258035,-1.9440628,-3.2309966,-0.28495058,-0.075777486,-0.20043382,26.5,27.375,26.5,29.6875,30.9375,31.4375
0.10205207,-1.6452439,-0.92159575,-0.4076879,0.0001719925,-0.0060024997,-0.13918385,-0.37528905,-0.32814345,0.059955068,-3.0782714,0.62468475,-0.00017834592,-0.050939403,0.00079632044,0.0030558242,0.006407046,0.008801172,-0.001405508,0.44598797,-1.4667137,2.0048335,-2.107004,-1.5709046,2.4208224,-0.04093688,0.08222223,-0.10048329,0.01310408,-0.009777571,-0.039443824,-0.1340753,0.24899697,-9.346964,0.83813137,47.66271,-0.67017114,-1.8412924,-3.12938,-0.2659525,-0.06429695,-0.22917347,26.5,27.375,26.5,29.6875,30.9375,31.4375
0.10405193,-1.4019405,-0.6158979,-0.21574554,-0.010280723,0.0044108885,-0.1544974,-0.37539956,-0.3281583,0.059974466,-3.078292,0.62468684,-0.00013679225,-0.051591065,0.0005740168,0.0019036582,0.007471037,0.0061549977,0.001174993,0.4459159,-1.4665445,2.0045946,-2.1069677,-1.5709046,2.4207492,-0.041216705,0.086869724,-0.10317364,0.0139908055,-0.009599432,-0.042302765,-0.17238252,0.24899697,-9.32781,0.7642693,47.684196,-0.7293936,-1.9845598,-3.1483884,-0.25656924,-0.07772372,-0.2269336,26.5,27.375,26.5,29.6875,30.9375,31.4375
0.10605167,-1.3409505,-0.6318726,-0.21243857,-0.012458128,0.008209843,-0.15291753,-0.37551484,-0.32815763,0.059985746,-3.078277,0.62464553,-5.9557027e-05,-0.052726954,0.0015196821,0.0029340272,0.0072246995,0.007901575,-0.0002789906,0.44584304,-1.4663655,2.0043662,-2.1069438,-1.5709528,2.4206526,-0.043640528,0.085155204,-0.10381494,0.014663333,-0.010129292,-0.04327199,-0.15322891,0.24899697,-9.32781,0.7486078,47.66271,-0.6576394,-1.8788183,-3.2250748,-0.26122075,-0.062488325,-0.22936352,26.5,27.375,26.5,29.6875,30.9375,31.4375
0.10805164,-1.691883,-0.7320543,-0.3255777,-0.010273344,-0.0028116154,-0.15079536,-0.37559775,-0.32814834,0.05997893,-3.0782733,0.6246459,-0.00012890318,-0.05341712,0.0015634979,0.0024528848,0.00856082,0.0069703492,-0.0011753236,0.44573498,-1.4662089,2.0041983,-2.1068952,-1.5709294,2.4205453,-0.043786593,0.08792984,-0.10596036,0.015453569,-0.010937042,-0.042518362,-0.076614454,0.2681506,-9.346964,0.8157518,47.67166,-0.6713703,-1.8182834,-3.1946454,-0.2504695,-0.06636578,-0.26137218,26.5,27.375,26.5,29.6875,30.9375,31.4375
0.110052556,-1.7751212,-1.0691208,-0.32637247,-0.0070032706,-0.003324357,-0.13643911,-0.37572876,-0.32816657,0.060000032,-3.0783124,0.62463355,-5.545462e-05,-0.053884305,0.0016656686,0.0018251706,0.009495401,0.0059077847,-0.00064588484,0.4456509,-1.4660162,2.003935,-2.1068838,-1.5709294,2.4204488,-0.044122506,0.09030434,-0.10720536,0.01568585,-0.01132204,-0.043382645,-0.11492168,0.24899697,-9.404425,0.7463667,47.685097,-0.6506691,-2.022777,-3.241227,-0.24920869,-0.04887232,-0.28263664,26.5,27.375,26.5,29.6875,30.9375,31.4375
0.11205251,-1.2734627,-0.38213468,-0.14653184,-0.017191043,0.011479273,-0.14971836,-0.37584978,-0.3281666,0.060014006,-3.0782702,0.6246245,4.2400014e-05,-0.05412711,0.0020949272,0.0008028517,0.0111808125,0.0039754543,-5.0246695e-06,0.44559062,-1.4658238,2.0036829,-2.1068475,-1.5710019,2.4203885,-0.04466868,0.093028136,-0.10800152,0.016226374,-0.012009833,-0.04456799,-0.11492168,0.21068975,-9.32781,0.80679786,47.66808,-0.66386086,-1.9062749,-3.2844691,-0.24054882,-0.055875912,-0.30094063,26.5,27.375,26.5,29.6875,30.9375,31.4375
0.1140526,-1.4338878,0.08808316,-0.07100376,-0.008297344,-0.0033003779,-0.15662472,-0.37595204,-0.3281627,0.059998434,-3.0782588,0.6246593,-8.29195e-08,-0.054706417,0.0015411146,0.00037090643,0.010389862,0.0032664086,0.0017130641,0.44548267,-1.4656193,2.0034907,-2.1068356,-1.5709895,2.4203038,-0.04481939,0.09542373,-0.109541796,0.015664835,-0.010996985,-0.046436943,-0.095768064,0.24899697,-9.308657,0.8291774,47.67166,-0.7366413,-2.0086303,-3.2730958,-0.23476031,-0.047683425,-0.31817737,26.5,27.375,26.5,29.6875,30.9375,31.4375
0.116052136,-1.2787452,-0.14947738,-0.11849553,0.0012071463,-0.0004969339,-0.14981647,-0.37606537,-0.32815948,0.060015246,-3.0782483,0.62467736,7.809271e-05,-0.05687435,0.0007723331,0.0019674865,0.008889836,0.0065735173,0.0007865946,0.44539857,-1.4654633,2.0032747,-2.1068113,-1.5710253,2.4202325,-0.04526179,0.09612088,-0.11401485,0.015808009,-0.01107556,-0.045950446,-0.1340753,0.13407528,-9.3661175,0.8403672,47.694946,-0.71501213,-1.894558,-3.2895403,-0.21218981,-0.076856405,-0.3289976,26.5,27.375,26.5,29.6875,30.9375,31.4375
0.11805212,-1.3056787,-0.014103548,-0.18266013,0.001959895,-0.007736159,-0.14930034,-0.3761899,-0.3281744,0.060033165,-3.0782912,0.6246478,0.00015209008,-0.056136232,0.0012894642,0.00019865058,0.010146152,0.0031440828,-0.0016541573,0.4453143,-1.4652829,2.0030348,-2.1068113,-1.5710253,2.4201245,-0.04578421,0.0984768,-0.112526745,0.015598941,-0.010726068,-0.04403386,-0.11492168,0.21068975,-9.251195,0.8023209,47.672558,-0.78112096,-2.0157595,-3.380937,-0.18928778,-0.051791254,-0.3912778,26.5,27.375,26.5,29.6875,30.9375,31.4375
0.120052025,-0.90342814,0.09432571,-0.1518564,0.004099237,0.0035919687,-0.15029815,-0.37627953,-0.32818142,0.060043916,-3.0782804,0.62458575,0.00013466759,-0.057701748,0.00043722888,0.0014644308,0.009922288,0.0056939204,0.0013162469,0.44525468,-1.4651148,2.002806,-2.1067278,-1.5710372,2.4200277,-0.044974312,0.09958157,-0.11684629,0.016417071,-0.011631248,-0.04619008,-0.11492168,0.19153613,-9.32781,0.7642693,47.670765,-0.91367614,-1.8903942,-3.297286,-0.18351305,-0.057884477,-0.41332042,26.5,27.375,26.5,29.6875,30.9375,31.4375
0.12205203,-1.2951264,0.007184845,-0.3468527,-0.001037958,-0.0027160458,-0.16065678,-0.3764179,-0.32815754,0.06003004,-3.0782022,0.6246084,0.00017125528,-0.057846878,0.0015288709,0.0007736987,0.010737121,0.0037691183,0.0011503726,0.4451338,-1.464863,2.0025547,-2.1067035,-1.5711092,2.4199312,-0.04719121,0.10030788,-0.116264604,0.017190922,-0.011536588,-0.048241485,-0.21068975,0.19153613,-9.251195,0.78888994,47.675243,-0.8509521,-1.9613616,-3.4628186,-0.16209807,-0.038579397,-0.42497855,26.5,27.375,26.5,29.6875,30.9375,31.4375
0.1240521,-2.032239,-0.5474956,-0.27946442,0.002138361,-0.016516395,-0.14271042,-0.37652028,-0.32817504,0.060008425,-3.0782125,0.624628,0.000105662664,-0.057688627,0.000957611,-0.00048422086,0.011679343,0.0010885658,0.00396666,0.44505027,-1.4646221,2.0023386,-2.1067035,-1.5710734,2.4198587,-0.046166267,0.10416981,-0.11777137,0.017659556,-0.011237095,-0.050031766,-0.24899697,0.17238252,-9.212888,0.800085,47.691364,-0.87373686,-1.9695833,-3.464117,-0.16649768,-0.042414352,-0.43569323,26.5,27.375,26.5,29.6875,30.9375,31.4375
0.1260526,-1.3748199,-0.23655804,0.0057903905,-0.001995393,0.0011004887,-0.15964247,-0.37662807,-0.32814574,0.060005993,-3.07814,0.62461144,7.533251e-05,-0.058152206,-8.627421e-05,0.0011254465,0.0104778875,0.003686428,0.0074154614,0.4449308,-1.4644307,2.0021112,-2.1066072,-1.5711216,2.4197383,-0.044580836,0.10274764,-0.12011511,0.018558733,-0.011277895,-0.05189353,-0.22984336,0.15322891,-9.289502,0.8090337,47.640312,-1.087666,-1.8263812,-3.5381181,-0.16002361,-0.0416657,-0.44517177,26.5,27.375,26.5,29.6875,30.9375,31.4375
0.1280527,-1.7135015,-0.64308923,-0.29633415,0.013803278,-0.0056622825,-0.15084866,-0.37671784,-0.3281629,0.06000369,-3.0781438,0.6245536,5.8109075e-05,-0.058560148,0.0008501696,-0.00078352547,0.012619395,-0.00037764787,0.008273552,0.4448821,-1.4642376,2.0018952,-2.106571,-1.5711216,2.4196532,-0.046565652,0.10730932,-0.120998874,0.019469347,-0.011463704,-0.05473499,-0.15322891,0.19153613,-9.212888,0.8224646,47.672558,-1.0647035,-1.8821728,-3.4739447,-0.15252426,-0.03766668,-0.4379725,26.5,27.375,26.5,29.6875,30.9375,31.4375
0.13005175,-1.2929997,-0.6375723,-0.34884503,0.013300753,-0.0022721183,-0.15673022,-0.3768601,-0.32816482,0.060020424,-3.0781558,0.6245535,0.00014340474,-0.061193846,-0.00023881486,0.0017830989,0.009475782,0.004531078,0.011195179,0.4447738,-1.4640343,2.00163,-2.1065595,-1.5711454,2.4195435,-0.047351144,0.10658726,-0.12611525,0.019516673,-0.010747889,-0.058441166,0.019153614,0.22984336,-9.346964,0.85155696,47.666286,-1.0858338,-1.8003004,-3.43883,-0.13877404,-0.049796063,-0.42212528,26.5,27.375,26.5,29.6875,30.9375,31.4375
0.13205172,-1.3995584,-0.28842422,-0.35747808,-0.0027946297,-0.012356271,-0.15758744,-0.37698436,-0.32816634,0.060024492,-3.0781386,0.6244527,0.00015983076,-0.062007736,0.00046300972,0.0009813178,0.0111071365,0.003017517,0.012936607,0.44468933,-1.4638059,2.001355,-2.106499,-1.5711817,2.4193985,-0.048822172,0.10938642,-0.12754883,0.020217098,-0.011572954,-0.061650917,-0.05746084,0.19153613,-9.346964,0.8224646,47.713753,-1.0236993,-1.8428955,-3.5299857,-0.13589756,-0.024647674,-0.42848298,26.5,27.375,26.5,29.6875,30.9375,31.4375
0.13405162,-1.6907411,-0.6343811,-0.48428145,-0.002585494,-0.024777588,-0.1500008,-0.37712425,-0.3281567,0.06004667,-3.0781186,0.6244837,0.00022369555,-0.06243434,-0.0003539838,0.0011932653,0.010969969,0.0034162863,0.018657042,0.44456968,-1.4636137,2.0010784,-2.1064389,-1.5712174,2.419301,-0.04761797,0.11085208,-0.1297396,0.020516716,-0.011624911,-0.06616595,-0.17238252,0.24899697,-9.500193,0.8224646,47.71554,-1.1556194,-1.8138692,-3.379178,-0.12635815,-0.04211144,-0.38490537,26.5,27.375,26.5,29.6875,30.9375,31.4375
0.13605201,-1.2674532,-0.52874345,-0.5059312,-0.017349403,0.001829899,-0.16243272,-0.37724695,-0.328151,0.06002332,-3.0780737,0.624454,0.00021306801,-0.064088315,-4.5699053e-05,0.0018568266,0.010854839,0.004446445,0.021021653,0.4444731,-1.4633499,2.000838,-2.106427,-1.5712537,2.4191918,-0.049424615,0.11187192,-0.13261144,0.021383874,-0.011972153,-0.07033461,-0.19153614,0.2681506,-9.461885,0.78888994,47.686886,-1.1604776,-1.7233558,-3.35502,-0.113006614,-0.035903297,-0.33412457,26.5,27.375,26.5,29.6875,30.9375,31.4375
0.13805221,-1.333911,-0.5210909,-0.6215658,-0.031503834,0.015434431,-0.15705723,-0.3773568,-0.328174,0.060038067,-3.0781376,0.6242728,0.00010889256,-0.06466405,0.00022499805,0.0017446553,0.010958623,0.0035177448,0.023556592,0.44437674,-1.4631338,2.000538,-2.1063063,-1.5711931,2.4189744,-0.05062894,0.11307367,-0.13393325,0.02238661,-0.011671389,-0.074073374,-0.19153613,0.3256114,-9.442732,0.8247004,47.686886,-1.1207592,-1.6945705,-3.357942,-0.12311725,-0.029719103,-0.29632023,26.5,27.375,26.5,29.6875,30.9375,31.4375
0.1400522,-1.7516751,-1.4754186,-0.87482077,-0.021336848,0.014082098,-0.155315,-0.3774877,-0.32815728,0.060050208,-3.0781088,0.6242075,0.000178582,-0.06546166,-4.352346e-06,0.001981503,0.010436512,0.0029049558,0.026414258,0.4442684,-1.4629418,2.0002873,-2.1062582,-1.5712532,2.4188292,-0.051384896,0.11454451,-0.13642617,0.023726646,-0.010939685,-0.077687226,-0.21068975,0.30645782,-9.634268,0.7866488,47.642998,-1.1264002,-1.7000685,-3.3214824,-0.13747469,-0.05570499,-0.24734282,26.5,27.375,26.5,29.6875,30.9375,31.4375
0.1420522,-2.3091886,-1.3922404,-0.86430055,-0.035430066,0.012109408,-0.14768879,-0.37762904,-0.32814765,0.060052752,-3.0781062,0.6241104,0.00022637442,-0.066797085,0.0002514029,0.0018095031,0.010954879,0.0026829876,0.027116526,0.44414794,-1.4627131,2.0000236,-2.1062343,-1.5712894,2.4186487,-0.0527813,0.11703648,-0.13890024,0.024127606,-0.011316921,-0.07978364,-0.22984336,0.36391866,-9.653421,0.79560274,47.670765,-1.138631,-1.7189438,-3.3750691,-0.12696412,-0.03445459,-0.20657435,26.5,27.375,26.5,29.6875,30.9375,31.4375
0.14405216,-2.0452933,-1.6086323,-0.75466293,-0.028136404,0.027314104,-0.15022291,-0.37775698,-0.32816395,0.06005074,-3.0781004,0.62407047,0.00019637456,-0.067819774,0.0001260581,0.0021168906,0.010592229,0.0030757268,0.027687417,0.44406366,-1.4624494,1.9997233,-2.1061742,-1.5712894,2.4185405,-0.053543385,0.118265055,-0.14109457,0.024580445,-0.011164444,-0.08111536,-0.34476504,0.40222588,-9.615114,0.73741806,47.677036,-1.1300466,-1.6824389,-3.3654368,-0.11606935,-0.03260789,-0.18157503,26.5,27.375,26.5,29.6875,30.9375,31.4375
0.14605181,-1.848569,-1.1114196,-0.92389894,-0.034158204,0.033474047,-0.15349981,-0.3779176,-0.3281592,0.060059234,-3.0780914,0.62395334,0.00025378537,-0.06856847,0.00041419998,0.001481421,0.010842417,0.0014641901,0.026679797,0.44394317,-1.4621848,1.9994005,-2.106126,-1.5713376,2.4183483,-0.055036668,0.12080367,-0.14259037,0.025093174,-0.010699838,-0.08160094,-0.2681506,0.36391866,-9.557653,0.83589023,47.655537,-1.1868846,-1.8314145,-3.454731,-0.109846294,-0.05680064,-0.14005542,26.5,27.375,26.5,29.6875,30.9375,31.4375
0.14805174,-1.8681971,-0.6884848,-0.65831006,-0.03543303,0.024799643,-0.15416726,-0.37806502,-0.3281698,0.06008729,-3.0781448,0.6238881,0.00030324797,-0.0706622,4.21126e-05,0.00208467,0.010534955,0.0031072497,0.024963433,0.4438229,-1.4619805,1.9990996,-2.1060784,-1.5713257,2.4181807,-0.055895917,0.12335312,-0.14683,0.025169464,-0.011132648,-0.08074075,-0.34476504,0.30645782,-9.576807,0.8090337,47.691364,-1.1570946,-1.5484729,-3.3880157,-0.106183864,-0.034159318,-0.1380599,26.5,27.375,26.5,29.6875,30.9375,31.4375
0.1500517,-1.8788275,-0.7830316,-0.63847023,-0.025488988,0.018596433,-0.14991975,-0.37819034,-0.32815674,0.060059674,-3.0781045,0.62380534,0.00024710098,-0.070145406,0.0010796421,7.3093535e-05,0.012004027,-0.0010720086,0.020808686,0.44370228,-1.4617043,1.9988493,-2.1060421,-1.5713495,2.4180138,-0.057661265,0.12605014,-0.14526927,0.025314033,-0.010665955,-0.07835214,-0.34476507,0.2681506,-9.461885,0.8179876,47.666286,-1.1291022,-1.6523224,-3.4478168,-0.102663554,-0.06316638,-0.1539034,26.5,27.375,26.5,29.6875,30.9375,31.4375
0.15205164,-2.60002,-1.0175682,-0.67072487,-0.005808052,0.0001359886,-0.14387204,-0.37832066,-0.32817397,0.060076214,-3.0781298,0.6237549,0.00027658034,-0.071729474,0.0008253732,-1.7613902e-05,0.011755312,-0.0010454326,0.01757291,0.4436178,-1.4614874,1.9985608,-2.1059945,-1.5713495,2.4178948,-0.05871958,0.12919466,-0.14857009,0.025339779,-0.010457468,-0.07617296,-0.40222588,0.28730422,-9.5385,0.8985519,47.690468,-1.0881863,-1.748066,-3.3747602,-0.08045371,-0.04988995,-0.1476238,26.5,27.375,26.5,29.6875,30.9375,31.4375
0.15405263,-1.8411342,-0.1023692,-0.39715695,-0.012487201,0.024453258,-0.15033208,-0.37846246,-0.32817543,0.06007016,-3.0780978,0.62363476,0.00031684613,-0.072477184,0.00065520726,-0.00021172533,0.012349308,-0.0012987253,0.012422475,0.44353396,-1.4612111,1.9982609,-2.1059582,-1.5714096,2.4177403,-0.058756668,0.13138035,-0.15066601,0.025734397,-0.010888227,-0.07105729,-0.40222588,0.24899697,-9.442732,0.8291774,47.686886,-1.1681988,-1.7637432,-3.4029112,-0.08064988,-0.05280735,-0.22583605,26.5,27.375,26.5,29.6875,30.9375,31.4375
0.1560526,-1.9027545,-0.0753148,-0.3316529,-0.00010979138,0.028317565,-0.15248695,-0.37864763,-0.32819346,0.06010482,-3.0781865,0.6236355,0.00040139435,-0.07356378,0.0008538183,-0.00022250744,0.012033957,-0.001656648,0.008744788,0.44337747,-1.460971,1.9979132,-2.1059463,-1.5713729,2.4175732,-0.060355447,0.13301872,-0.15259324,0.026212452,-0.010446416,-0.068979025,-0.47884035,0.22984336,-9.308657,0.80679786,47.694054,-1.1744466,-1.6833204,-3.3819766,-0.0722018,-0.07551604,-0.23817794,26.5,27.375,26.5,29.6875,30.9375,31.4375
0.15805271,-2.1243258,0.10343133,-0.27945587,0.008721205,0.020398928,-0.14739992,-0.37879148,-0.32818037,0.060098864,-3.0781238,0.623604,0.00038517002,-0.0745925,0.0010137723,-0.0013594888,0.013413147,-0.0037106103,0.0082518915,0.44325703,-1.4606941,1.9976014,-2.1058624,-1.5714215,2.4174414,-0.061294526,0.13758746,-0.15518424,0.026678095,-0.010820225,-0.069421984,-0.40222588,0.2681506,-9.308657,0.78217715,47.68599,-1.1632627,-1.7005391,-3.2729158,-0.056105167,-0.06977864,-0.25368655,26.5,27.375,26.5,29.6875,30.9375,31.4375
0.16005167,-1.9445198,0.3394986,-0.09845112,0.0072328825,0.023935473,-0.15202072,-0.3789546,-0.32817474,0.06010795,-3.0781064,0.62358266,0.0004324972,-0.076144636,0.00091492746,-0.00024457436,0.012962904,-0.001801117,0.0052202116,0.4431248,-1.4604303,1.9972776,-2.1058137,-1.5714573,2.4172983,-0.062180944,0.13792367,-0.15835245,0.02759164,-0.011236527,-0.06727452,-0.47884035,0.11492168,-9.251195,0.80456203,47.672558,-1.1472334,-1.8332335,-3.3060455,-0.06040295,-0.066980936,-0.32367122,26.5,27.375,26.5,29.6875,30.9375,31.4375
0.16205163,-1.670248,0.04074191,-0.039374948,0.011252196,0.031502564,-0.15923013,-0.37912458,-0.32818517,0.06011507,-3.0781374,0.6236065,0.00041090703,-0.07622234,0.0011491864,-0.002013853,0.01378999,-0.0056195655,0.006133527,0.44296852,-1.4601412,1.9969305,-2.105766,-1.5714215,2.4171531,-0.0632458,0.14210999,-0.15904228,0.027895333,-0.010349017,-0.06925352,-0.38307226,0.15322891,-9.212888,0.779936,47.679718,-1.0878899,-2.002433,-3.3706446,-0.045851424,-0.07055946,-0.31252894,26.5,27.375,26.5,29.6875,30.9375,31.4375
0.1640526,-1.8355732,0.23055807,-0.019547382,-0.0013715437,0.021151979,-0.16197863,-0.37928224,-0.3281875,0.060118757,-3.0781279,0.62352735,0.00051248365,-0.07734552,0.0014080646,-0.0014821583,0.013941829,-0.0046099443,0.0066193105,0.44287217,-1.4598778,1.9966305,-2.105766,-1.5714811,2.4170089,-0.06431591,0.14258711,-0.16095728,0.028481588,-0.010920621,-0.07080782,-0.4213795,0.11492168,-9.155427,0.8247004,47.691364,-1.0752355,-1.8541837,-3.3653955,-0.035980813,-0.063353665,-0.31561628,26.5,27.375,26.5,29.6875,30.9375,31.4375
0.16605262,-2.0713985,-0.0497872,0.1889381,0.0021117162,0.011775841,-0.14888777,-0.37941945,-0.32819712,0.060099896,-3.0780907,0.6234428,0.000430562,-0.0785106,0.0011324194,-0.0009274365,0.013064177,-0.004069324,0.0060688383,0.44277567,-1.4595538,1.9962958,-2.1056817,-1.571493,2.4168646,-0.06518026,0.14367403,-0.16364239,0.02921114,-0.010369618,-0.071120486,-0.36391866,0.15322891,-9.193734,0.8537928,47.65464,-1.1501186,-1.8613918,-3.4026413,-0.026063597,-0.073411874,-0.31234878,26.5,27.375,26.5,29.6875,30.9375,31.4375
0.16805182,-1.8419847,-0.3644928,0.14908466,0.0069353133,0.015164125,-0.15735562,-0.3795872,-0.32818058,0.060109112,-3.078034,0.6235097,0.00043399428,-0.079735816,0.0012462615,-0.0007491106,0.012999898,-0.0042621307,0.0040862653,0.4426192,-1.459278,1.9959472,-2.1055853,-1.5715288,2.4167573,-0.06653504,0.1454669,-0.16630512,0.030223766,-0.010235205,-0.07049124,-0.34476504,0.11492168,-9.155427,0.7530795,47.6636,-1.0662524,-1.8087971,-3.3063717,-0.041635003,-0.08314526,-0.36088136,26.5,27.375,26.5,29.6875,30.9375,31.4375
0.17005171,-1.8817356,-0.065026015,0.19264068,0.010898673,0.0029343695,-0.15465142,-0.3797758,-0.3281652,0.060119413,-3.078036,0.6235074,0.0005004421,-0.08033394,0.0014776496,-0.0007092621,0.014014881,-0.0040974566,0.006433135,0.4424392,-1.459002,1.9956125,-2.1055615,-1.5715536,2.416576,-0.06679064,0.14648098,-0.1677114,0.030899134,-0.011224633,-0.07309154,-0.24899697,0.17238252,-9.078813,0.80679786,47.67793,-1.0986166,-1.7799613,-3.3776972,-0.039304994,-0.057591356,-0.35106754,26.5,27.375,26.5,29.6875,30.9375,31.4375
0.17205168,-1.6740216,-0.052462414,0.013909696,0.0222683,-0.001503102,-0.14881712,-0.37992015,-0.3281669,0.06010001,-3.0779965,0.62346464,0.00046250172,-0.082000464,0.0025753037,-0.00092374353,0.0137875425,-0.004963264,0.001484962,0.44232973,-1.4586899,1.9953002,-2.1055138,-1.5715774,2.416445,-0.070668936,0.14830257,-0.16941078,0.031458247,-0.010655023,-0.07202118,-0.2681506,0.1340753,-9.078813,0.8403672,47.670765,-0.91202337,-1.7365332,-3.360272,-0.015519235,-0.0771943,-0.37061623,26.5,27.375,26.5,29.6875,30.9375,31.4375
0.17405173,-1.8201923,-0.09974959,0.074076235,0.028862001,-0.0057855262,-0.14641373,-0.3800987,-0.32817754,0.06012857,-3.0780313,0.62339187,0.0005318317,-0.08295532,0.001279156,0.00033002306,0.012538152,-0.0030839387,0.0052769803,0.44219837,-1.4584262,1.9949287,-2.1054533,-1.5715889,2.416264,-0.069274984,0.14888717,-0.1731841,0.03240792,-0.010334755,-0.07441841,-0.21068975,0.076614454,-9.059659,0.8291774,47.703007,-1.0518513,-1.7160734,-3.3206992,-0.013995178,-0.08884311,-0.37543947,26.5,27.375,26.5,29.6875,30.9375,31.4375
0.17605177,-2.1258845,0.06693902,0.056977756,0.019127248,-0.016188009,-0.13871025,-0.38026273,-0.3281759,0.060130194,-3.0780158,0.6234036,0.0004730024,-0.083591886,0.0022033225,-0.00051109295,0.014381218,-0.0050535044,0.010088077,0.44204172,-1.4581255,1.9945697,-2.1053574,-1.5715774,2.416117,-0.07096671,0.15139416,-0.17436068,0.03364173,-0.011164559,-0.08091864,-0.22984336,0.21068975,-9.059659,0.81351066,47.687782,-0.9679851,-1.891969,-3.3854764,-0.011969122,-0.074796386,-0.34447616,26.5,27.375,26.5,29.6875,30.9375,31.4375
0.17805178,-1.436511,0.36212197,0.15350603,0.006042424,0.0071265395,-0.15405996,-0.38042283,-0.32816753,0.060114145,-3.0779588,0.6233949,0.00044566012,-0.08556914,0.0036606505,6.809889e-05,0.014000851,-0.0048260065,0.0062738275,0.44190803,-1.4578024,1.9942344,-2.1052969,-1.5716137,2.4159853,-0.07555872,0.15162002,-0.17628664,0.03496748,-0.010924821,-0.08169564,-0.15322891,0.15322891,-9.155427,0.79560274,47.63852,-0.89675224,-1.5722663,-3.3690934,-0.020532213,-0.10074968,-0.34181488,26.5,27.375,26.5,29.6875,30.9375,31.4375
0.18005176,-1.7586218,-0.34967855,-0.3116922,0.019692186,-0.00963937,-0.15092319,-0.38058567,-0.32813388,0.06009187,-3.0778615,0.62327355,0.00044557417,-0.08511087,0.0030649365,0.00025841434,0.015247892,-0.0053658383,0.013551753,0.44176507,-1.457479,1.9939102,-2.1052244,-1.57171,2.4157794,-0.07339747,0.15224564,-0.17792194,0.036986228,-0.011830267,-0.08680934,-0.19153613,0.1340753,-9.232041,0.7911258,47.65912,-0.91217756,-1.509697,-3.353647,-0.04732316,-0.08773363,-0.29996142,26.5,27.375,26.5,29.6875,30.9375,31.4375
0.18205175,-1.0903355,-0.21635532,-0.36464155,0.004808121,0.0058719,-0.15285693,-0.3807466,-0.32814595,0.060092743,-3.0778947,0.6231441,0.00036165977,-0.08706771,0.003381124,0.00062251085,0.014776468,-0.005403329,0.016055256,0.44162005,-1.4571664,1.9935392,-2.1051276,-1.5716733,2.4155495,-0.07596741,0.15451574,-0.18160298,0.03822381,-0.011400951,-0.091881156,-0.076614454,0.15322891,-9.193734,0.7732232,47.7245,-0.88437283,-1.6355793,-3.3630462,-0.058257267,-0.05740784,-0.23881102,26.5,27.375,26.5,29.6875,30.9375,31.4375
0.1840519,-1.1396414,0.03842793,-0.53271854,0.0035032476,-0.0010221059,-0.15972084,-0.38091445,-0.3281096,0.06008341,-3.0778284,0.62310994,0.00030433602,-0.08634424,0.0043081525,-0.000470715,0.016353266,-0.009431763,0.019190555,0.44142762,-1.4568669,1.9932035,-2.1050193,-1.5717095,2.4153445,-0.07720055,0.15579474,-0.1811482,0.040794373,-0.011110275,-0.09625023,-0.11492168,0.13407528,-9.289502,0.83365434,47.66539,-0.79558444,-1.5587207,-3.4947348,-0.08484429,-0.088262565,-0.19300549,26.5,27.375,26.5,29.6875,30.9375,31.4375
0.1860524,-1.3624707,-0.4995184,-0.8508834,0.015871985,0.0005258308,-0.15506655,-0.38110352,-0.32812864,0.060095206,-3.0778453,0.6230536,0.00031372075,-0.08666071,0.004724729,-0.002233957,0.018847724,-0.014044513,0.022090074,0.4412954,-1.4565294,1.9927853,-2.1049469,-1.5717095,2.4151752,-0.07802083,0.1611819,-0.18368353,0.043174125,-0.011399207,-0.09996795,-0.21068975,0.19153613,-9.385271,0.85155696,47.642998,-0.7931421,-1.6089658,-3.4191303,-0.12712656,-0.09332052,-0.1257273,26.5,27.375,26.5,29.6875,30.9375,31.4375
0.18805242,-1.458069,-0.6440411,-0.9192677,0.0021052,0.01130854,-0.15108411,-0.38128108,-0.32809067,0.06008389,-3.0777695,0.6230379,0.00024293108,-0.08781907,0.004657204,-0.0009862728,0.017687906,-0.011090025,0.022457324,0.4410912,-1.4562067,1.9924258,-2.1048276,-1.5717453,2.414971,-0.07871444,0.15985066,-0.18498851,0.042637255,-0.011628995,-0.101026796,-0.19153613,0.22984336,-9.481039,0.75755644,47.6636,-0.7884594,-1.4801245,-3.427475,-0.14341617,-0.09393774,-0.07294096,26.5,27.375,26.5,29.6875,30.9375,31.4375
0.19005236,-1.9335923,-0.6351915,-0.9800136,-0.021208357,0.01991745,-0.14977875,-0.3814696,-0.32807627,0.060100038,-3.0777442,0.6229777,0.00025892464,-0.08973021,0.0059378035,-0.0014072098,0.018440796,-0.012875705,0.017326972,0.44092166,-1.455906,1.99203,-2.104719,-1.5717815,2.4147675,-0.082790226,0.1629503,-0.18791328,0.044394117,-0.011553636,-0.09997064,-0.3256114,0.19153613,-9.500193,0.8179876,47.67345,-0.6454724,-1.6743381,-3.4212284,-0.16343996,-0.103004664,-0.04018665,26.5,27.375,26.5,29.6875,30.9375,31.4375
0.19205248,-1.9261323,-0.76700324,-0.9890526,-0.025558664,0.031144476,-0.15038621,-0.38160518,-0.32805738,0.060071327,-3.0776596,0.622884,0.00013768242,-0.08885991,0.005434099,-0.0031030749,0.020418258,-0.016715217,0.016320655,0.4407903,-1.4555813,1.9917077,-2.1045988,-1.5718173,2.4145887,-0.08094087,0.1669948,-0.18884668,0.045598477,-0.011715597,-0.09711243,-0.28730422,0.22984336,-9.634268,0.7933669,47.69763,-0.73682773,-1.7149849,-3.4868255,-0.20891237,-0.11078083,-0.04256112,26.5,27.375,26.5,29.6875,30.9375,31.4375
0.1940524,-2.5737927,-0.9677823,-0.9443966,-0.018220304,0.02010758,-0.14432481,-0.38179138,-0.3280551,0.06007427,-3.077663,0.6228293,0.00012067346,-0.0900596,0.0062381737,-0.0038101505,0.021807685,-0.019080708,0.010916581,0.44062167,-1.4552565,1.9913234,-2.1045263,-1.5718178,2.4143858,-0.08327964,0.17047776,-0.19160888,0.047612805,-0.011967404,-0.09404489,-0.24899697,0.21068975,-9.710882,0.8090337,47.713753,-0.668886,-1.8716809,-3.4534407,-0.24703845,-0.09263972,-0.09053564,26.5,27.375,26.5,29.6875,30.9375,31.4375
0.19605258,-1.8288339,-0.7515873,-0.76184756,-0.016770232,0.02877208,-0.15616758,-0.38196152,-0.32806066,0.06004767,-3.077637,0.62280715,-7.0507986e-06,-0.091775514,0.0055643376,-0.002962872,0.021384588,-0.017073996,0.0073421383,0.44046554,-1.4548727,1.9909385,-2.1044424,-1.5717939,2.4142194,-0.08316684,0.17228682,-0.19568643,0.047892626,-0.012456838,-0.09035306,-0.3256114,0.19153613,-9.710882,0.9164598,47.68062,-0.5324595,-1.8418567,-3.5052223,-0.26765653,-0.12084469,-0.11905253,26.5,27.375,26.5,29.6875,30.9375,31.4375
0.19805245,-1.7167327,-0.6774766,-0.982643,0.0010787034,0.022132162,-0.15261874,-0.38214713,-0.32804608,0.06005188,-3.0775847,0.62281626,-2.0309348e-05,-0.0927475,0.004371127,-0.0030358343,0.019337397,-0.014949866,0.0050273733,0.44029796,-1.4545486,1.9905442,-2.104336,-1.5718292,2.4140644,-0.082376346,0.1740436,-0.1967267,0.04437752,-0.0115248235,-0.08724795,-0.40222588,0.40222588,-9.749189,0.800085,47.719128,-0.7833433,-1.932563,-3.4927402,-0.265252,-0.1292694,-0.14825079,26.5,27.375,26.5,29.6875,30.9375,31.4375
0.20005234,-1.7963173,-0.58146095,-0.81785816,-0.008815193,0.01949104,-0.1493681,-0.38233608,-0.32804066,0.06005341,-3.0775685,0.62277615,-3.8979422e-05,-0.09384205,0.004433706,-0.002740121,0.019347588,-0.013962969,0.0019765713,0.44012967,-1.4542131,1.9901484,-2.104252,-1.5718421,2.4138734,-0.08311335,0.17504063,-0.19855583,0.044322778,-0.01196198,-0.0849317,-0.3256114,0.2873042,-9.576807,0.8247004,47.729877,-0.71400005,-1.8194655,-3.4002187,-0.26784742,-0.11028764,-0.20039666,26.5,27.375,26.5,29.6875,30.9375,31.4375
0.20205219,-1.946857,-0.6752673,-0.75572854,-0.017812122,0.027196508,-0.15002955,-0.38255483,-0.32801557,0.060055777,-3.077514,0.6228987,-9.017762e-06,-0.09390144,0.004669532,-0.003330979,0.020752639,-0.015780753,0.0017013268,0.43991384,-1.4538645,1.9897412,-2.1041915,-1.5718778,2.4137414,-0.08320763,0.1769996,-0.19978346,0.045831103,-0.012462833,-0.084748976,-0.38307226,0.28730422,-9.500193,0.91421866,47.682407,-0.8555634,-1.9860702,-3.5141675,-0.28402445,-0.115997404,-0.2554542,26.5,27.375,26.5,29.6875,30.9375,31.4375
0.2040522,-1.7579433,-1.2091738,-0.7340971,-0.014335082,0.033974245,-0.14677072,-0.38271075,-0.3280057,0.060065974,-3.0774527,0.62269485,-3.2903466e-05,-0.09520482,0.0040061665,-0.003219,0.020927824,-0.015636077,0.00019119235,0.43980598,-1.4535644,1.9893459,-2.1040242,-1.5719498,2.4135144,-0.08292955,0.18013072,-0.20375042,0.046606623,-0.012696323,-0.08295684,-0.2873042,0.34476504,-9.576807,0.86498255,47.66808,-0.86854136,-1.8976138,-3.5017166,-0.33628362,-0.12656721,-0.26265293,26.5,27.375,26.5,29.6875,30.9375,31.4375
0.20605218,-1.9707345,-1.2258816,-0.52928495,-0.02961348,0.023436973,-0.14381905,-0.38291046,-0.32799903,0.060053237,-3.0774143,0.6227651,-5.2908912e-05,-0.09622746,0.0038511842,-0.0025115812,0.020685418,-0.013250614,-0.001772141,0.4396258,-1.4531931,1.9889506,-2.103976,-1.5719622,2.4133832,-0.082947135,0.18005034,-0.20517196,0.04584924,-0.013501052,-0.08100785,-0.17238252,0.28730422,-9.500193,0.9030289,47.73077,-0.9068029,-1.8829999,-3.5111732,-0.35300362,-0.104977936,-0.3224985,26.5,27.375,26.5,29.6875,30.9375,31.4375
0.20805225,-2.206054,-1.3703983,-0.44614318,-0.030079875,0.014020621,-0.14309216,-0.3831362,-0.3280005,0.060059924,-3.0774043,0.6227605,-1.4140694e-05,-0.09723227,0.003158635,-0.002278745,0.0194112,-0.0111744655,0.0008070646,0.4394459,-1.4528095,1.9884948,-2.1039174,-1.5719866,2.413202,-0.0826533,0.18105918,-0.2063903,0.04362927,-0.013243992,-0.08329278,-0.15322891,0.36391866,-9.3661175,0.8090337,47.698532,-0.9538058,-1.7771783,-3.5752153,-0.33892307,-0.11980002,-0.32666087,26.5,27.375,26.5,29.6875,30.9375,31.4375
0.21005218,-1.7381428,-1.4009436,-0.5683426,-0.017588347,0.009731101,-0.14061694,-0.38334098,-0.3279984,0.060071856,-3.0773957,0.62274235,2.0737032e-05,-0.099026114,0.0027943745,-0.0019897867,0.018625483,-0.008923945,-0.0037545518,0.43927774,-1.4524732,1.9880766,-2.1038463,-1.5720104,2.413024,-0.083327495,0.18301663,-0.20887113,0.04178418,-0.013497532,-0.07940279,-0.038307227,0.3256114,-9.308656,0.7911258,47.687782,-0.9375191,-1.8504443,-3.541521,-0.32106423,-0.128079,-0.41038606,26.5,27.375,26.5,29.6875,30.9375,31.4375
0.21205214,-0.9319126,-0.05157504,-0.31209686,-0.03587213,0.005120826,-0.16531916,-0.38353905,-0.3279912,0.0600616,-3.0773551,0.62279016,-1.5278449e-05,-0.10060004,0.0019630126,-0.0014650708,0.016861897,-0.006623905,-0.0028463008,0.43909773,-1.4521017,1.9876698,-2.1037748,-1.5720218,2.4128792,-0.08350863,0.18453132,-0.21141538,0.039975155,-0.012895609,-0.08049125,-0.05746084,0.28730422,-9.308656,0.8717007,47.692257,-1.0190476,-1.6229813,-3.5459857,-0.32112744,-0.13077289,-0.4547863,26.5,27.375,26.5,29.6875,30.9375,31.4375
0.21405213,-0.99438864,0.08955152,-0.24540421,-0.027322507,-0.013358288,-0.15672182,-0.38371694,-0.32799098,0.0600295,-3.0772986,0.62268084,-8.531645e-05,-0.1034105,0.0017428644,0.00059381954,0.01498535,-0.0012590674,-0.001345123,0.43896508,-1.4516947,1.9872736,-2.1037037,-1.5720581,2.4126859,-0.08511371,0.18384373,-0.21515505,0.03874163,-0.013499912,-0.083592705,-0.019153614,0.34476504,-9.308656,0.842603,47.70211,-0.9849161,-1.5821037,-3.4072006,-0.30075878,-0.1325871,-0.46045738,26.5,27.375,26.5,29.6875,30.9375,31.4375
0.21605213,-0.89917123,-0.10904345,-0.6146322,-0.008236461,-0.023668764,-0.15646024,-0.38395378,-0.32797173,0.060054906,-3.0772595,0.62270886,-9.0676124e-08,-0.10540058,0.00090964016,0.001372081,0.01338932,0.00096761103,0.002430765,0.43876106,-1.4513465,1.9868053,-2.103608,-1.5721177,2.4125047,-0.08556561,0.18586583,-0.21906698,0.03792168,-0.01301568,-0.087819524,0.0,0.30645782,-9.270349,0.842603,47.69763,-1.0091561,-1.5954783,-3.4515371,-0.2742637,-0.14600469,-0.4678409,26.5,27.375,26.5,29.6875,30.9375,31.4375
0.21805185,-0.7637255,-0.5617262,-0.8258522,0.011384688,-0.027463777,-0.14508861,-0.3841573,-0.32798144,0.060068276,-3.0772798,0.62272847,1.7428532e-05,-0.10675181,0.00076829805,0.0018251432,0.012931376,0.0026213971,0.008040437,0.43859282,-1.4510108,1.9863867,-2.1035483,-1.5721062,2.4123464,-0.08622651,0.18690571,-0.22118102,0.03729437,-0.013315312,-0.09408824,0.0,0.36391866,-9.32781,0.86498255,47.674347,-0.93631804,-1.5474832,-3.373269,-0.2768586,-0.13821739,-0.41557056,26.5,27.375,26.5,29.6875,30.9375,31.4375
0.2200517,-0.9021361,-0.7176087,-0.77031034,-0.0004493355,-0.016558776,-0.15490176,-0.38436332,-0.32796043,0.060048386,-3.0771992,0.62267107,-1.9070047e-05,-0.10719253,0.00076372107,0.0012463054,0.012973865,0.001294406,0.011967737,0.43841276,-1.4506028,1.9859551,-2.1034524,-1.5721658,2.412141,-0.08688177,0.18905473,-0.2223859,0.03755264,-0.01280543,-0.09867045,0.076614454,0.28730422,-9.442732,0.8112748,47.642998,-0.9864205,-1.5778224,-3.375226,-0.24907303,-0.14709494,-0.39266646,26.5,27.375,26.5,29.6875,30.9375,31.4375
0.2220517,-1.5190066,-0.8321432,-0.7242041,-0.011885664,-0.019530255,-0.14404936,-0.38457885,-0.3279717,0.060058482,-3.0772264,0.62257355,-6.34057e-06,-0.10814521,6.913e-05,0.0008560925,0.013217612,0.00061598705,0.022306398,0.4382448,-1.4502301,1.9854997,-2.103381,-1.5721658,2.411909,-0.08639782,0.19266872,-0.22568059,0.03793295,-0.01275597,-0.10852329,0.05746084,0.24899697,-9.481039,0.8806493,47.63404,-1.0027281,-1.6377773,-3.3579025,-0.26010972,-0.16434765,-0.29285428,26.5,27.375,26.5,29.6875,30.9375,31.4375
0.22405176,-1.2086209,-0.7053947,-0.7005452,-0.023915693,-0.004249785,-0.14820124,-0.38478884,-0.3279578,0.060042094,-3.07716,0.62244546,-4.1327505e-05,-0.11058189,0.001197064,-0.00066824513,0.014651783,-0.0014181733,0.021929821,0.43807533,-1.4498093,1.9850429,-2.1032732,-1.5722264,2.4116685,-0.09025688,0.19876428,-0.22899583,0.03759032,-0.013212814,-0.11200089,0.0,0.3256114,-9.500193,0.9164598,47.678825,-0.9794939,-1.7289517,-3.1992426,-0.2429634,-0.1571576,-0.24069849,26.5,27.375,26.5,29.6875,30.9375,31.4375
0.22605182,-1.6065854,-1.3904289,-0.7912101,-0.033156097,0.008702279,-0.1500607,-0.38499722,-0.32797268,0.06004009,-3.077172,0.6223479,-5.9726597e-05,-0.109846435,4.1771873e-05,-0.0012826269,0.0151252365,-0.0016798729,0.028414521,0.4379205,-1.4494134,1.984589,-2.1032016,-1.5722264,2.4114516,-0.08719288,0.20032227,-0.22919275,0.0366606,-0.013540304,-0.11542009,-0.019153614,0.34476504,-9.557653,0.8537928,47.66271,-1.1179821,-1.7676291,-3.2260814,-0.22537413,-0.16121931,-0.18851215,26.5,27.375,26.5,29.6875,30.9375,31.4375
0.22805181,-1.8736877,-2.2505536,-0.70925,-0.040156886,0.02268274,-0.14449893,-0.38521674,-0.32795933,0.060035378,-3.0771523,0.6222675,-4.306672e-05,-0.11088216,0.0012732948,-0.0009974765,0.015668321,-0.0011456228,0.026606366,0.43772754,-1.4490302,1.9841579,-2.1031415,-1.5722622,2.4112113,-0.08982976,0.19992527,-0.22959766,0.03720349,-0.014262336,-0.11624678,-0.11492168,0.30645782,-9.576807,0.87617236,47.694946,-1.121029,-1.7464529,-3.4803655,-0.20451906,-0.17220192,-0.17346603,26.5,27.375,26.5,29.6875,30.9375,31.4375
0.23005177,-1.9771932,-1.3171701,-0.7102664,-0.053123884,0.022792937,-0.15083003,-0.3854406,-0.32796788,0.06005116,-3.0771627,0.62221295,-4.693328e-05,-0.111027375,0.00072598143,-0.0006051306,0.014930938,-0.0008218958,0.026155638,0.43754777,-1.4486468,1.9836687,-2.1030338,-1.5722622,2.4109964,-0.08922372,0.20002614,-0.23079292,0.03768974,-0.013733304,-0.11519106,-0.19153613,0.3256114,-9.615114,0.88960326,47.686886,-1.0208611,-1.7273366,-3.4891648,-0.20292878,-0.17695099,-0.1538567,26.5,27.375,26.5,29.6875,30.9375,31.4375
0.23205218,-2.1076872,-1.4838321,-0.8343735,-0.03554373,0.008635752,-0.14247803,-0.38566104,-0.32797012,0.060056347,-3.077158,0.6220793,1.0805539e-05,-0.11203837,0.00070775696,-0.0008508841,0.014035227,-8.729671e-05,0.021056008,0.43739134,-1.448263,1.9832143,-2.1029742,-1.5723103,2.4107575,-0.09033885,0.20143324,-0.23147428,0.035916835,-0.013233285,-0.11120721,-0.30645782,0.36391866,-9.576807,0.8537928,47.701214,-1.1453216,-1.7965279,-3.627874,-0.18019354,-0.17949176,-0.1857236,26.5,27.375,26.5,29.6875,30.9375,31.4375
0.23405278,-2.2565513,-1.5564142,-0.6745852,-0.035898734,0.015773796,-0.13906032,-0.38590366,-0.32795513,0.06005549,-3.0771306,0.622077,4.326258e-05,-0.11376143,0.00039274545,-0.0007846483,0.013252664,0.0011579996,0.015368992,0.43717533,-1.4478546,1.982746,-2.102915,-1.5723456,2.410544,-0.09129721,0.20394203,-0.23423775,0.034713283,-0.013055361,-0.106477,-0.36391866,0.34476504,-9.557653,0.89631605,47.70838,-1.1720338,-1.7251554,-3.6850996,-0.12958367,-0.21200225,-0.24721244,26.5,27.375,26.5,29.6875,30.9375,31.4375
0.23605181,-1.882458,-1.0646873,-0.6381458,-0.028040638,0.012159132,-0.14925952,-0.38612202,-0.3279647,0.060041916,-3.0771303,0.62201947,-1.35931305e-05,-0.11530249,6.721312e-05,-2.3111521e-05,0.0136832595,0.002364744,0.012187991,0.43699533,-1.4474231,1.9822778,-2.1028426,-1.5723346,2.4103284,-0.09136487,0.20576331,-0.23843883,0.03618983,-0.013962367,-0.10335858,-0.40222588,0.3256114,-9.461885,0.90750587,47.670765,-1.1957746,-1.6030314,-3.6455631,-0.10665444,-0.22207479,-0.28131735,26.5,27.375,26.5,29.6875,30.9375,31.4375
0.23805183,-1.3836266,-0.16108131,-0.5825901,-0.015000554,0.01510852,-0.14669964,-0.38634062,-0.3279676,0.06003029,-3.077102,0.62188196,2.3893865e-05,-0.11628347,0.0011883933,-0.0007431907,0.014198451,0.00063229393,0.009036454,0.43684974,-1.447003,1.9818233,-2.102795,-1.5723943,2.410101,-0.09440411,0.2077508,-0.23923025,0.036772717,-0.013698358,-0.10324643,-0.49799395,0.24899697,-9.481039,0.8784135,47.675243,-0.99631876,-1.6575725,-3.5709534,-0.09152028,-0.20380552,-0.31265384,26.5,27.375,26.5,29.6875,30.9375,31.4375
0.24005179,-2.2740905,-0.4001745,-0.49737307,-0.0033620463,0.0078098015,-0.14476246,-0.38657257,-0.32798445,0.060043905,-3.0771255,0.6218845,3.982924e-05,-0.1160504,0.00015514284,-0.00094304694,0.01510659,-0.0007793118,0.01117547,0.43667108,-1.446607,1.9813322,-2.1027224,-1.5723823,2.4099212,-0.0920674,0.2101621,-0.24201381,0.03880836,-0.013924004,-0.10304716,-0.4405331,0.19153613,-9.423578,0.8918391,47.67793,-1.2220333,-1.7191871,-3.5354095,-0.09199898,-0.22755896,-0.3248809,26.5,27.375,26.5,29.6875,30.9375,31.4375
0.24205229,-2.2059207,-0.09373987,-0.43177283,0.004531137,0.025164781,-0.14601786,-0.3868265,-0.32797733,0.060043853,-3.0771,0.6218816,4.537621e-05,-0.11877825,0.0015882216,-0.0008345059,0.0147405835,-0.0017153613,0.005284646,0.4364528,-1.4461629,1.9808158,-2.102638,-1.5724062,2.4097047,-0.09748133,0.21293336,-0.24585676,0.040566623,-0.0132030025,-0.102570206,-0.4405331,0.21068975,-9.346964,0.8985519,47.66987,-1.0835706,-1.7761731,-3.4382324,-0.0946282,-0.26011264,-0.32736695,26.5,27.375,26.5,29.6875,30.9375,31.4375
0.24405235,-1.7099099,0.6202738,-0.33653292,0.0064438074,0.04042674,-0.1559591,-0.3870893,-0.3279912,0.060075887,-3.077129,0.62184757,0.00018382544,-0.12007725,-3.6678815e-05,0.001112975,0.013228631,0.0035844818,0.0075754295,0.436274,-1.4457682,1.9802893,-2.1025903,-1.5724424,2.4095013,-0.09494421,0.21204707,-0.24910185,0.039253432,-0.014074653,-0.10232081,-0.40222588,0.095768064,-9.308657,0.8806493,47.70211,-1.0778629,-1.6013787,-3.3539917,-0.046010114,-0.25226173,-0.37935472,26.5,27.375,26.5,29.6875,30.9375,31.4375
0.24605235,-2.2510788,0.36560544,-0.18553033,0.012882776,0.04616058,-0.15003431,-0.38734227,-0.3279819,0.060089,-3.077102,0.62190086,0.00017819602,-0.12268864,-1.1768933e-05,0.002173883,0.012049612,0.0053692735,0.005260659,0.43604502,-1.4453485,1.9797615,-2.1024702,-1.5724543,2.4093094,-0.09736813,0.21389507,-0.25386837,0.040050667,-0.013770103,-0.10242811,-0.61291564,0.05746084,-9.270349,0.83589023,47.694054,-1.0940813,-1.6266059,-3.2933815,-0.032904163,-0.2635633,-0.3789693,26.5,27.375,26.5,29.6875,30.9375,31.4375
0.24805242,-2.26077,0.48184898,-0.2638479,0.026319517,0.053101916,-0.15367149,-0.38755253,-0.32800883,0.060077686,-3.0771108,0.6217453,0.00012960353,-0.12332233,0.00080789556,0.0022720844,0.013377248,0.0043254197,0.008399761,0.4359126,-1.444905,1.9792708,-2.1023853,-1.5724548,2.409079,-0.09885537,0.2146856,-0.25563097,0.042521864,-0.014540901,-0.10705152,-0.5554548,0.038307227,-9.346964,0.83365434,47.688675,-1.060936,-1.5580115,-3.2738233,-0.023950871,-0.28687847,-0.4006044,26.5,27.375,26.5,29.6875,30.9375,31.4375
0.25005236,-1.9338125,0.5830325,-0.48683533,0.026807453,0.06396531,-0.1543232,-0.38781667,-0.32797706,0.060063638,-3.0770478,0.62176955,9.8616765e-05,-0.12338567,0.0014059282,0.0013466348,0.014359576,0.0015406205,0.011987249,0.43564826,-1.444437,1.9787563,-2.1022894,-1.5724901,2.4088383,-0.10009907,0.21680208,-0.25632328,0.044019237,-0.014266635,-0.11188266,-0.45968673,0.11492168,-9.346964,0.8717007,47.7254,-0.95981795,-1.5420742,-3.2880735,-0.027784262,-0.28489503,-0.33649534,26.5,27.375,26.5,29.6875,30.9375,31.4375
0.25205252,-2.5145736,-0.78233767,-0.6076043,0.03055356,0.057867926,-0.14128931,-0.38804775,-0.32796568,0.06007199,-3.0770147,0.6217589,8.769344e-05,-0.12494071,0.0024683154,0.0016891737,0.015216625,0.0017621204,0.015543984,0.43544343,-1.4440417,1.9782661,-2.1021688,-1.5725149,2.4086313,-0.102738604,0.21777529,-0.25861105,0.045480095,-0.015151083,-0.11807519,-0.59376204,0.076614454,-9.32781,0.91198283,47.66539,-0.93097407,-1.3479793,-3.401298,-0.035591416,-0.2855288,-0.29688644,26.5,27.375,26.5,29.6875,30.9375,31.4375
0.25405258,-2.4389863,0.04673794,-0.18360214,-0.0072242864,0.05862974,-0.15124367,-0.38829947,-0.32796434,0.06005757,-3.0770159,0.6216223,9.233809e-05,-0.1252723,0.0033360473,0.00085845636,0.016641429,0.0001313552,0.019766126,0.43523878,-1.4435738,1.977763,-2.102121,-1.5725387,2.4083416,-0.104133435,0.21949746,-0.2588778,0.04608959,-0.015764952,-0.12369018,-0.51714754,0.019153614,-9.232041,0.8627467,47.658226,-0.80893993,-1.4037441,-3.5289707,-0.008397999,-0.30735642,-0.24182954,26.5,27.375,26.5,29.6875,30.9375,31.4375
0.2560525,-2.3764093,-0.24456625,-0.34047782,0.0145343,0.045181878,-0.14600451,-0.38853875,-0.32796136,0.06006341,-3.0770254,0.6215239,0.0001002578,-0.12587024,0.0040343674,-0.00046611874,0.019073103,-0.002513659,0.02532982,0.43503454,-1.4431651,1.9772714,-2.1020367,-1.5725511,2.408075,-0.10512628,0.22346626,-0.2606657,0.047318578,-0.016867166,-0.13024244,-0.38307226,-0.05746084,-9.32781,0.7777002,47.66987,-0.82130736,-1.5571928,-3.5471382,-0.0040850504,-0.3023968,-0.16790077,26.5,27.375,26.5,29.6875,30.9375,31.4375
0.25805226,-2.0065913,0.25469106,-0.1671839,0.020189727,0.0265549,-0.14317137,-0.38879454,-0.32796192,0.060067337,-3.0769784,0.6214397,0.00012222478,-0.12711589,0.004001613,-0.0011222144,0.019321268,-0.0043568,0.022900684,0.43485418,-1.4426963,1.9767088,-2.101917,-1.5726112,2.4078486,-0.10641601,0.22748409,-0.264031,0.04843191,-0.01632405,-0.1291022,-0.40222588,-0.019153614,-9.32781,0.87617236,47.64479,-0.7529794,-1.7027926,-3.5167887,-0.022432417,-0.32427168,-0.13062371,26.5,27.375,26.5,29.6875,30.9375,31.4375
0.2600522,-1.3184378,0.78293765,-0.26831314,0.032027595,0.016611457,-0.14686193,-0.38902715,-0.32793877,0.060018327,-3.0768905,0.621345,5.4437427e-05,-0.12698956,0.0041211336,-0.0020064958,0.020776223,-0.0063678776,0.022459676,0.43465018,-1.4421924,1.976241,-2.1018565,-1.5726713,2.407597,-0.106123455,0.22976263,-0.26491085,0.04946246,-0.016810283,-0.12836528,-0.22984336,0.038307227,-9.385271,0.8112748,47.64837,-0.7806295,-1.7339373,-3.4687414,-0.0010640407,-0.32041073,-0.11542621,26.5,27.375,26.5,29.6875,30.9375,31.4375
0.26205233,-0.71943146,0.65379745,-0.24456607,0.040668488,0.007871317,-0.1469137,-0.38931996,-0.32792386,0.060041662,-3.076884,0.6213832,0.000117877455,-0.1278757,0.004032572,-0.0013957329,0.021241896,-0.006060801,0.018387552,0.43438622,-1.4417489,1.9756669,-2.1017597,-1.5726956,2.4073582,-0.106253706,0.23073046,-0.26794392,0.051448263,-0.01735763,-0.124421224,-0.24899697,0.076614454,-9.11712,0.8985519,47.670765,-0.8003255,-1.795655,-3.7033408,0.00347546,-0.330925,-0.14610736,26.5,27.375,26.5,29.6875,30.9375,31.4375
0.2640522,-0.8881339,0.034744956,-0.08260623,0.033717357,-0.007065569,-0.15419511,-0.38957015,-0.3279235,0.060042508,-3.076856,0.6213043,0.000118191165,-0.12938266,0.003823427,-0.000931228,0.021757068,-0.006874912,0.013418404,0.4341938,-1.4412922,1.9751266,-2.101651,-1.5727319,2.4071205,-0.10699445,0.2336596,-0.27313262,0.05466515,-0.017485876,-0.120189704,-0.30645782,0.19153613,-9.040505,0.84708,47.668976,-0.86577,-1.8615172,-3.4809546,-0.015604766,-0.314503,-0.18219253,26.5,27.375,26.5,29.6875,30.9375,31.4375
0.26605216,-0.7220267,0.22573686,-0.19786622,0.013764406,-0.017011194,-0.14776361,-0.38986188,-0.3278948,0.060055695,-3.076812,0.62131613,0.00018725076,-0.13081376,0.0044828663,0.0005055436,0.02247155,-0.0060409573,0.008041404,0.43392935,-1.4408376,1.974563,-2.1015537,-1.5727919,2.4068694,-0.10867363,0.23327366,-0.27693227,0.05839477,-0.01848155,-0.11648824,-0.19153613,0.4213795,-9.040505,0.88960326,47.655537,-0.88135386,-1.8522285,-3.351169,-0.054873727,-0.33506265,-0.24123782,26.5,27.375,26.5,29.6875,30.9375,31.4375
0.2680522,-0.9126069,-1.169788,-0.48267806,0.0060840542,-0.016371112,-0.14837164,-0.39008164,-0.32787693,0.060025766,-3.0766976,0.62125385,4.4816195e-05,-0.12931259,0.0033921457,0.00068696873,0.023574546,-0.008616375,0.00847782,0.43373865,-1.4403464,1.9740375,-2.101373,-1.5728396,2.4066548,-0.105341986,0.23364896,-0.27886716,0.06275231,-0.018409446,-0.113590695,-0.095768064,0.40222588,-9.155427,0.842603,47.675243,-0.91727597,-1.6231246,-3.3906145,-0.095495604,-0.33786213,-0.29553372,26.5,27.375,26.5,29.6875,30.9375,31.4375
0.2700523,-1.0383183,-1.8778069,-0.35613626,-0.03171593,-0.00994899,-0.14963695,-0.39031243,-0.3278688,0.06000452,-3.0766156,0.6211445,-4.906313e-05,-0.13042456,0.0053919894,0.00026333687,0.024947433,-0.011774337,0.0012851765,0.4335569,-1.4398551,1.9734973,-2.1012156,-1.5728878,2.4064157,-0.10994712,0.23521379,-0.28058255,0.06634254,-0.018335167,-0.11100134,-0.21068975,0.53630114,-9.193734,0.7642693,47.66271,-0.8800908,-1.5717236,-3.3991382,-0.15062216,-0.3212583,-0.34389198,26.5,27.375,26.5,29.6875,30.9375,31.4375
0.27205223,-1.4392147,-2.1156235,-0.5189832,-0.058410946,-0.006252755,-0.14308602,-0.3905622,-0.3278425,0.059986215,-3.0765057,0.6212176,-0.00015539385,-0.13020954,0.0047963476,-0.00051125727,0.02710774,-0.014000488,0.0012297691,0.43331778,-1.4393629,1.9729465,-2.1010478,-1.572924,2.4062366,-0.10788682,0.23865041,-0.28328624,0.06853771,-0.019375198,-0.108878925,-0.17238252,0.4405331,-9.251195,0.8224646,47.66091,-0.89980364,-1.6671506,-3.3471274,-0.19429113,-0.33585703,-0.40034997,26.5,27.375,26.5,29.6875,30.9375,31.4375
0.27405208,-1.858996,-2.530666,-0.5769354,-0.05112983,-0.0025368128,-0.14191757,-0.39083365,-0.32783622,0.05999367,-3.0764897,0.6212736,-0.00020083261,-0.12972601,0.0055000796,-0.0015520988,0.02815527,-0.017124804,-0.0017945245,0.43306538,-1.4388952,1.9723724,-2.1009157,-1.5729121,2.4060216,-0.10889985,0.23999757,-0.28287113,0.07005102,-0.019015688,-0.10686893,-0.19153613,0.4405331,-9.3661175,0.81351066,47.68599,-0.88764787,-1.6596532,-3.348197,-0.2563123,-0.3407067,-0.45899877,26.5,27.375,26.5,29.6875,30.9375,31.4375
0.27605197,-1.9321005,-2.1260693,-0.2904122,-0.06809159,0.02207167,-0.14463207,-0.39108568,-0.32783103,0.059990034,-3.0764325,0.6211233,-0.00019811072,-0.1310111,0.0045542032,-0.0004673803,0.026104486,-0.014862839,-0.00049760484,0.4328868,-1.4384156,1.9718102,-2.100784,-1.5729836,2.405757,-0.108760945,0.24033949,-0.28576332,0.06967082,-0.018122407,-0.10802763,-0.15322891,0.45968673,-9.232041,0.87617236,47.629562,-0.8871685,-1.632792,-3.4837146,-0.27096105,-0.34144527,-0.49255282,26.5,27.375,26.5,29.6875,30.9375,31.4375
0.27805203,-1.4007894,-1.2300917,-0.44757077,-0.039698195,0.032839697,-0.15236269,-0.3913746,-0.32783186,0.059993405,-3.076378,0.6211906,-0.00022407707,-0.13201897,0.005567528,-0.0006535089,0.026328819,-0.016176706,-2.0983329e-05,0.43265647,-1.4378885,1.9711751,-2.1006396,-1.5730075,2.405576,-0.11159922,0.24155404,-0.28715596,0.07112,-0.017790986,-0.111342676,0.05746084,0.38307226,-9.212888,0.9365982,47.657326,-0.8944849,-1.5289953,-3.5432057,-0.30863422,-0.3476861,-0.49835432,26.5,27.375,26.5,29.6875,30.9375,31.4375
0.2800522,-1.3461298,-1.0520493,-0.5241524,0.00890906,0.014262517,-0.14380847,-0.39162165,-0.32780206,0.05995198,-3.076278,0.6212376,-0.00035477086,-0.13222219,0.0036408869,-0.0014665812,0.024830975,-0.014280635,0.0128601175,0.4324058,-1.4373726,1.970661,-2.1005223,-1.5730313,2.4053679,-0.10846957,0.24430133,-0.28740895,0.066243745,-0.017277371,-0.12109248,0.095768064,0.36391866,-9.251195,0.97240865,47.661808,-1.0370945,-1.6714345,-3.5078568,-0.31432295,-0.37272254,-0.45195228,26.5,27.375,26.5,29.6875,30.9375,31.4375
0.28205225,-0.49057055,-0.095107995,-0.26542383,-0.002124189,0.019713486,-0.15539125,-0.3918961,-0.32778847,0.059942443,-3.0762117,0.6210853,-0.00033822443,-0.13694927,0.004041484,0.00028248632,0.022061413,-0.007821302,0.015138017,0.43220156,-1.436857,1.970074,-2.1004035,-1.5731157,2.4050775,-0.112990305,0.24562836,-0.29222107,0.06267346,-0.017511614,-0.12788622,0.11492168,0.30645782,-9.212888,0.87393653,47.66808,-0.92133665,-1.6232033,-3.6373544,-0.2818349,-0.39437956,-0.38509062,26.5,27.375,26.5,29.6875,30.9375,31.4375
0.2840523,-0.8001096,0.30478442,-0.52366346,0.016067056,-0.015365666,-0.15431,-0.3921517,-0.32780242,0.059926495,-3.0762393,0.62091404,-0.00045234576,-0.13700543,0.0025097104,-0.0006903836,0.023014989,-0.009050642,0.027921995,0.43198526,-1.4363401,1.9694995,-2.1002839,-1.57308,2.404751,-0.10986897,0.25017864,-0.2952482,0.06264424,-0.017902171,-0.13754433,0.15322891,0.21068975,-9.155427,0.91198283,47.65106,-1.1091149,-1.8263028,-3.4785805,-0.2603808,-0.39054173,-0.27234566,26.5,27.375,26.5,29.6875,30.9375,31.4375
0.2860522,-0.036369517,0.69197506,-0.80670786,0.021195354,-0.026654223,-0.15173544,-0.39245543,-0.3278108,0.059944335,-3.0762124,0.62088543,-0.0003657233,-0.13982916,0.0019661982,-0.0005000603,0.021883657,-0.0054360274,0.032548767,0.43178084,-1.4358244,1.9688519,-2.100178,-1.57314,2.4045327,-0.110834196,0.25355643,-0.29880655,0.059044376,-0.018415466,-0.14313202,0.1340753,0.30645782,-9.32781,0.8157518,47.651955,-1.0656884,-1.7606499,-3.3732176,-0.26176766,-0.3957527,-0.1966449,26.5,27.375,26.5,29.6875,30.9375,31.4375
0.28805217,-0.32005683,0.054415062,-0.8744933,0.002037334,-0.01642653,-0.15097795,-0.3927126,-0.3277972,0.059919298,-3.0761604,0.6206824,-0.00040420177,-0.14088991,0.0026650855,-0.0009768284,0.022542125,-0.0042755087,0.033998165,0.43157625,-1.4353083,1.9683017,-2.1000707,-1.5732006,2.4042084,-0.112196505,0.2547631,-0.29873052,0.056967538,-0.019523295,-0.14593798,0.019153614,0.24899697,-9.385271,0.8157518,47.684196,-1.0181994,-1.9643681,-3.3594003,-0.20094576,-0.39561552,-0.13299501,26.5,27.375,26.5,29.6875,30.9375,31.4375
0.2900521,-1.08976,-1.0380685,-1.2032088,-0.010797803,-0.018690802,-0.14192043,-0.3930138,-0.32777604,0.05992434,-3.0760946,0.6206682,-0.00042470472,-0.14212917,0.0028111916,-0.0004556744,0.023077266,-0.0029454858,0.03243899,0.43131238,-1.4347814,1.967656,-2.0999024,-1.5732487,2.4039445,-0.112707585,0.25568584,-0.30122277,0.05754739,-0.020577902,-0.14488392,-0.019153614,0.2681506,-9.500193,0.81351066,47.703007,-0.96554947,-1.9387681,-3.4892545,-0.21017376,-0.38465685,-0.118423946,26.5,27.375,26.5,29.6875,30.9375,31.4375
0.2920521,-1.0533603,-1.6168547,-0.9404471,-0.05472265,0.029075127,-0.14843994,-0.39327872,-0.32775956,0.059901938,-3.076021,0.6205438,-0.00047722654,-0.14329027,0.0030408264,-0.0011764085,0.024045,-0.0034215024,0.022592662,0.43109596,-1.4342532,1.96708,-2.0997708,-1.5733088,2.4036603,-0.11356962,0.2589514,-0.30332384,0.05723393,-0.021256985,-0.13589387,-0.17238252,0.24899697,-9.576807,0.94331104,47.685097,-0.98975444,-1.9731743,-3.5121799,-0.20221266,-0.38260332,-0.20261434,26.5,27.375,26.5,29.6875,30.9375,31.4375
0.29405206,-2.3683493,-2.2139275,-1.1135577,-0.058896072,0.031285997,-0.14349769,-0.39355832,-0.32777548,0.059911862,-3.0760422,0.6204549,-0.0005051624,-0.14463162,0.0030271576,-0.0009167085,0.023714194,-0.0014306051,0.016649323,0.43087986,-1.4337498,1.9664577,-2.0996401,-1.5732974,2.4033864,-0.114227034,0.25995958,-0.30486518,0.05583359,-0.02178643,-0.13060461,-0.22984336,0.30645782,-9.710882,0.8940802,47.716442,-1.0344889,-2.0044017,-3.5125475,-0.173915,-0.3914802,-0.254143,26.5,27.375,26.5,29.6875,30.9375,31.4375
0.296052,-2.5427217,-1.6186389,-1.2092129,-0.04592971,0.040262785,-0.13288797,-0.39382848,-0.32776806,0.059884198,-3.0759683,0.6203643,-0.00054506055,-0.14674744,0.0027474132,0.00054165814,0.022257268,0.0030217269,0.013395035,0.4306757,-1.4331987,1.9658726,-2.0995328,-1.573357,2.4031355,-0.11504419,0.2595619,-0.30752686,0.05423579,-0.022336667,-0.12816237,-0.22984336,0.24899697,-9.768343,0.91421866,47.658226,-1.025506,-1.9137229,-3.605585,-0.1544151,-0.3772877,-0.32374588,26.5,27.375,26.5,29.6875,30.9375,31.4375
0.29805234,-2.3373537,-1.1317434,-1.3749956,-0.029226236,0.039865382,-0.13769148,-0.3941431,-0.32776096,0.059900343,-3.0759468,0.6204163,-0.0005089644,-0.1473967,0.0029397092,-0.0001748627,0.02171462,0.0018101045,0.012168407,0.43041122,-1.4326833,1.9652246,-2.0994132,-1.5733808,2.4029067,-0.116471455,0.26168513,-0.30831328,0.053760897,-0.02134138,-0.12836663,-0.28730422,0.2681506,-9.902418,0.87393653,47.674347,-1.0100735,-1.8620553,-3.6159363,-0.13276055,-0.39029896,-0.34144986,26.5,27.375,26.5,29.6875,30.9375,31.4375
0.30005246,-2.2291172,-0.6597383,-1.0760013,-0.02151749,0.03323422,-0.1452364,-0.3944381,-0.32773662,0.059867095,-3.0758677,0.6203989,-0.00056001724,-0.14812104,0.003147849,-0.0003182145,0.020935174,0.0018299022,0.010208309,0.430148,-1.4321082,1.9646271,-2.0993173,-1.573429,2.4026432,-0.117793396,0.2625113,-0.30894187,0.05320816,-0.02065367,-0.12772943,-0.36391866,0.21068975,-9.80665,0.83589023,47.65912,-0.9025388,-1.777957,-3.6707902,-0.1137429,-0.41356683,-0.34409246,26.5,27.375,26.5,29.6875,30.9375,31.4375
0.3020524,-1.756219,-0.027258534,-0.92301023,-0.018598134,0.04941408,-0.15682474,-0.39474633,-0.32775426,0.059884164,-3.0758684,0.62036103,-0.00048260725,-0.1499598,0.0023724025,0.00059757836,0.020896256,0.005042333,0.011707986,0.4299429,-1.4315804,1.9639682,-2.0992224,-1.5734652,2.4024148,-0.116953686,0.26420975,-0.31294945,0.052575365,-0.021965865,-0.12838277,-0.47884035,0.1340753,-9.768343,0.9388393,47.64658,-1.0134822,-1.7234688,-3.7678137,-0.070199944,-0.40801913,-0.38489312,26.5,27.375,26.5,29.6875,30.9375,31.4375
0.30405226,-1.9081923,0.12269255,-1.1131847,0.01221431,0.057017088,-0.15137738,-0.39502308,-0.3277487,0.059865974,-3.0758252,0.62029326,-0.00054103637,-0.15085259,0.0030562936,-6.606314e-05,0.022896238,0.0043119052,0.013912573,0.42971465,-1.4310404,1.9633697,-2.0991018,-1.57349,2.4021502,-0.11784545,0.26680717,-0.31464157,0.05315603,-0.023498904,-0.13147078,-0.5746084,0.11492168,-9.768343,0.89631605,47.653748,-0.89941204,-1.8562133,-3.749507,-0.046145625,-0.39176977,-0.3794361,26.5,27.375,26.5,29.6875,30.9375,31.4375
0.30605236,-2.099433,0.32468322,-1.0606455,0.017753555,0.0660733,-0.15313075,-0.39536503,-0.32774156,0.059907705,-3.0758243,0.6202681,-0.00039819116,-0.1523534,0.0034779566,0.0011249327,0.023167813,0.0060460567,0.019019568,0.4294518,-1.4305371,1.9626759,-2.098982,-1.5735501,2.4018722,-0.1191066,0.2666312,-0.31768012,0.054877974,-0.02447838,-0.13783588,-0.53630114,0.05746084,-9.825804,0.90527004,47.67345,-1.0939267,-1.7975156,-3.6878498,-0.028428216,-0.39314497,-0.32948217,26.5,27.375,26.5,29.6875,30.9375,31.4375
0.30805236,-2.1966755,0.6964032,-0.6565521,0.0070697498,0.085350335,-0.15821528,-0.39566842,-0.3277291,0.059888046,-3.0757904,0.62012017,-0.00037759094,-0.15224485,0.0033267918,0.0002379148,0.024796981,0.002342687,0.027754093,0.429212,-1.4299734,1.9620641,-2.0989087,-1.5736102,2.4015448,-0.11864156,0.2701563,-0.32055676,0.05823604,-0.02444225,-0.14610396,-0.4213795,-0.076614454,-9.730036,0.9164598,47.690468,-0.9800643,-1.8811086,-3.725807,-0.034118034,-0.41667473,-0.2521626,26.5,27.375,26.5,29.6875,30.9375,31.4375
0.31005245,-2.1993399,0.26286396,-0.7225739,0.027480666,0.08351133,-0.15825707,-0.3959775,-0.32772678,0.059885018,-3.0757544,0.6200142,-0.0004086779,-0.15393691,0.0030945851,0.00038237887,0.02463976,0.004234494,0.035433937,0.4289703,-1.4293975,1.9613818,-2.0987537,-1.573646,2.401242,-0.11907156,0.27234638,-0.32321602,0.056886367,-0.02512472,-0.1542083,-0.51714754,0.019153614,-9.653421,0.88960326,47.65912,-1.0808492,-1.7828858,-3.616095,-0.0076353326,-0.37659574,-0.13196173,26.5,27.375,26.5,29.6875,30.9375,31.4375
0.31205243,-1.8687041,0.24950294,-0.7493226,0.017121363,0.08665285,-0.14612915,-0.39628842,-0.32771444,0.059881035,-3.075739,0.6198964,-0.00036687558,-0.15558091,0.004142718,-0.00042256006,0.026668722,0.0029311394,0.03451426,0.42871743,-1.4288574,1.9607581,-2.0986698,-1.5736946,2.400918,-0.12138752,0.2761921,-0.32612637,0.05796687,-0.026437301,-0.15559776,-0.51714754,-0.019153614,-9.634268,0.94331104,47.655537,-0.96801496,-2.013042,-3.5547445,0.012541911,-0.3624634,-0.09858755,26.5,27.375,26.5,29.6875,30.9375,31.4375
0.3140526,-1.8796337,-0.05703989,-0.7751517,0.00947075,0.067973584,-0.14591889,-0.39659995,-0.3277222,0.05990883,-3.0757434,0.6197457,-0.00029636337,-0.15626986,0.005204095,-0.00066676293,0.02867784,0.0012879838,0.031009814,0.42850104,-1.4283413,1.9600748,-2.0985248,-1.5737432,2.4006073,-0.12304215,0.27777472,-0.32811615,0.06070052,-0.027573787,-0.15374358,-0.4213795,-0.019153614,-9.653421,0.91198283,47.658226,-0.96287537,-2.0960956,-3.5785613,0.023289163,-0.3512374,-0.070375584,26.5,27.375,26.5,29.6875,30.9375,31.4375
0.3160517,-1.4078808,0.019509984,-0.5084484,-0.014389881,0.061396055,-0.1525612,-0.39693722,-0.32769877,0.059911303,-3.0756993,0.61968046,-0.00016687618,-0.15730867,0.0048393095,0.000604902,0.028383935,0.0030184067,0.02661289,0.4282371,-1.4277906,1.9594291,-2.0984643,-1.5738391,2.4003088,-0.122821905,0.27760044,-0.3313589,0.062416397,-0.02801414,-0.14912465,-0.34476504,0.095768064,-9.615114,0.8112748,47.674347,-0.9210619,-2.0057547,-3.537803,0.01207727,-0.3126492,-0.09968594,26.5,27.375,26.5,29.6875,30.9375,31.4375
0.3180526,-1.1702232,-0.22805631,-0.24115783,-0.025356505,0.043005176,-0.14513317,-0.3972683,-0.32771578,0.059925023,-3.0756905,0.6195663,-0.00011091285,-0.15963598,0.005927606,0.0008081849,0.02807977,0.0041112155,0.016799532,0.42802137,-1.4272023,1.9586986,-2.0983331,-1.5738872,2.4000235,-0.12652144,0.27923632,-0.33376077,0.062069837,-0.028182205,-0.14300923,-0.47884035,0.11492168,-9.481039,0.87617236,47.668976,-0.8270555,-1.9567405,-3.5552006,0.04000711,-0.30503753,-0.13691068,26.5,27.375,26.5,29.6875,30.9375,31.4375
0.32005265,-1.0186341,-0.12970738,-0.5173756,-0.0054334854,0.019817052,-0.13800162,-0.39758822,-0.3276669,0.059923526,-3.0755804,0.6196016,-4.461666e-05,-0.1592554,0.0055284677,0.0021673613,0.028877378,0.0049102204,0.01401822,0.4277342,-1.4266768,1.9580764,-2.098212,-1.5739955,2.399773,-0.12464982,0.27740335,-0.33567426,0.06541664,-0.029229986,-0.13835177,-0.53630114,0.076614454,-9.461885,0.83813137,47.670765,-0.85979223,-1.8411555,-3.5383162,0.032847557,-0.29931432,-0.21626028,26.5,27.375,26.5,29.6875,30.9375,31.4375
0.32205167,-0.4246673,0.2954265,-0.56170756,0.008145639,0.01714373,-0.14046599,-0.3978982,-0.3276777,0.059914205,-3.0755663,0.6195257,-0.000110557725,-0.15898028,0.006354695,0.0020527707,0.031404242,0.0027167753,0.006090777,0.4274942,-1.426078,1.9573826,-2.098067,-1.573996,2.3994877,-0.12490145,0.27794364,-0.3370685,0.06933872,-0.030603312,-0.13066925,-0.30645782,0.15322891,-9.461885,0.8940802,47.611652,-0.8854091,-1.6492695,-3.664941,0.011782241,-0.26438123,-0.30095506,26.5,27.375,26.5,29.6875,30.9375,31.4375
0.32405207,-0.89806104,-0.035981003,-0.73338825,0.020965053,-0.001041284,-0.13325565,-0.3982417,-0.32767326,0.05994143,-3.0755615,0.6195659,2.0000693e-05,-0.15886678,0.00684408,0.0018114855,0.032863133,-2.9827235e-05,0.0029592516,0.42722985,-1.4255505,1.9566997,-2.0979817,-1.5740441,2.3992496,-0.12544365,0.2792299,-0.33895636,0.07304012,-0.030775845,-0.12808125,-0.19153613,0.076614454,-9.346964,0.900793,47.677036,-0.9359592,-1.6334925,-3.6589043,-0.007884568,-0.24579646,-0.35384542,26.5,27.375,26.5,29.6875,30.9375,31.4375
0.32605204,-0.3800887,0.3631511,-0.11384279,0.017417211,0.008830214,-0.14554326,-0.39856395,-0.32764426,0.059937954,-3.0754488,0.6195425,5.5150285e-05,-0.15996733,0.0063885152,0.0034480884,0.031967532,0.00035456277,-0.00011898769,0.42697772,-1.4249752,1.9560164,-2.0978248,-1.5741524,2.3989978,-0.1258227,0.27918535,-0.34372306,0.077116586,-0.030123621,-0.12538195,-0.1340753,0.095768064,-9.251195,0.94331104,47.67166,-0.91563547,-1.5229728,-3.5585508,-0.05024659,-0.241465,-0.4480207,26.5,27.375,26.5,29.6875,30.9375,31.4375
0.3280523,-0.50043964,0.43115437,-0.22308391,0.02709136,-0.006685714,-0.13352159,-0.3989205,-0.32764927,0.059969526,-3.0754545,0.6195453,0.0001577822,-0.15965407,0.006775081,0.002144157,0.034120105,-0.0051497533,0.0011303565,0.42671186,-1.4244118,1.955274,-2.0977032,-1.5741876,2.3987334,-0.12632906,0.28316408,-0.34648213,0.081779085,-0.029800883,-0.12713991,-0.1340753,-0.019153614,-9.193734,0.9254084,47.63673,-0.97910154,-1.5098488,-3.478785,-0.111561894,-0.2123405,-0.48844966,26.5,27.375,26.5,29.6875,30.9375,31.4375
0.33005255,-0.500628,0.3555529,-0.44127855,0.03548213,-0.022602197,-0.13870247,-0.3992043,-0.3276051,0.059938822,-3.075337,0.619572,4.388993e-05,-0.15971178,0.0068766666,0.0010765691,0.03588837,-0.009639536,0.007233208,0.42642576,-1.4238588,1.9546751,-2.097535,-1.5742358,2.3984795,-0.1265702,0.287269,-0.34977016,0.08574321,-0.029589131,-0.13348003,0.095768064,-0.05746084,-9.289502,0.9992599,47.65912,-0.94622827,-1.7127829,-3.4137726,-0.15732855,-0.19482043,-0.46794945,26.5,27.375,26.5,29.6875,30.9375,31.4375
0.33205163,-0.034733113,0.16376685,-0.47829044,0.033779733,-0.031085078,-0.13769437,-0.39952862,-0.32759738,0.059949663,-3.0752501,0.6195121,5.373654e-05,-0.16043901,0.0070903106,0.0007233048,0.037203614,-0.0121629285,0.016012648,0.4261957,-1.423271,1.9539326,-2.0973294,-1.5743197,2.3982236,-0.1273103,0.29037648,-0.35341984,0.08907446,-0.029781144,-0.1429961,0.17238252,0.0,-9.385271,0.8873621,47.672558,-1.0060208,-1.8145978,-3.3736372,-0.21048856,-0.18577725,-0.41192627,26.5,27.375,26.5,29.6875,30.9375,31.4375
0.33405164,-0.16869582,-0.0077791335,-0.110548496,0.01826736,-0.0310701,-0.14010175,-0.39985442,-0.3275747,0.059981097,-3.0752046,0.6193401,0.00013558689,-0.16068318,0.006795561,0.0007912929,0.037724562,-0.013316911,0.026759598,0.42594555,-1.4227539,1.9532269,-2.0971377,-1.574416,2.3978724,-0.12682095,0.2918891,-0.35594177,0.09129006,-0.029813264,-0.15325287,0.0,0.22984336,-9.232042,0.88960326,47.716442,-1.0249008,-1.7764869,-3.336911,-0.25505638,-0.16978705,-0.31993,26.5,27.375,26.5,29.6875,30.9375,31.4375
0.3360517,-0.07151683,-0.18912756,-0.5203201,0.005850043,-0.0236942,-0.13723631,-0.40019935,-0.32755688,0.059969153,-3.0751493,0.6193044,0.00012517061,-0.16049516,0.008205134,-0.0012409056,0.03934186,-0.017038012,0.032454044,0.425657,-1.4221282,1.9525093,-2.0970056,-1.5744637,2.3975692,-0.12909982,0.29450735,-0.35443097,0.09117155,-0.02978238,-0.16122591,0.076614454,0.2681506,-9.212888,0.81351066,47.67166,-1.0022101,-1.7719302,-3.4599013,-0.2795962,-0.14580084,-0.20164365,26.5,27.375,26.5,29.6875,30.9375,31.4375
0.338052,-0.354204,-1.4452451,-0.791442,-0.0021621827,-0.0044534076,-0.12932846,-0.40050584,-0.3275485,0.059978057,-3.075093,0.6191748,7.209179e-05,-0.16015461,0.0069254437,-0.0015145462,0.038797595,-0.016571647,0.03829867,0.42541793,-1.4215631,1.9517916,-2.096779,-1.5745114,2.3972569,-0.12653498,0.29567283,-0.35500562,0.0899031,-0.029511876,-0.16450436,0.13407528,0.30645782,-9.32781,0.8806493,47.652847,-1.0774503,-1.7769318,-3.5663965,-0.29299772,-0.1477949,-0.1595708,26.5,27.375,26.5,29.6875,30.9375,31.4375
0.34005207,-0.9382658,-2.0871072,-0.26960403,-0.051824052,0.0099731805,-0.13630734,-0.40081304,-0.32752115,0.059967536,-3.0749767,0.619119,-4.3357515e-05,-0.16306412,0.007955103,9.1292924e-05,0.03628518,-0.012232662,0.028990583,0.42515194,-1.420963,1.9510726,-2.0965283,-1.5745715,2.3969715,-0.13098925,0.29426292,-0.35683525,0.0881539,-0.029036762,-0.1596481,-0.095768064,0.34476507,-9.346964,0.9164598,47.68062,-0.84585,-1.7437851,-3.7306848,-0.3004227,-0.13111106,-0.16074406,26.5,27.375,26.5,29.6875,30.9375,31.4375
0.34205228,-1.1540586,-2.2627628,-0.44749323,-0.08156351,0.033559952,-0.14938691,-0.40112126,-0.32749993,0.059956443,-3.0749102,0.6189727,-0.00012552267,-0.16500245,0.006506868,0.00048303424,0.033801146,-0.008198063,0.023615295,0.42488858,-1.4203746,1.9503788,-2.0963266,-1.5746192,2.3966258,-0.13020056,0.2964056,-0.35937864,0.083862565,-0.02845605,-0.15348186,-0.21068975,0.47884035,-9.346964,0.9298854,47.68062,-0.99139524,-1.5115172,-3.6773474,-0.3165332,-0.1075785,-0.19574964,26.5,27.375,26.5,29.6875,30.9375,31.4375
0.34405243,-1.6423731,-2.4044943,-0.83056206,-0.08257013,0.030859318,-0.14513709,-0.40146673,-0.32749465,0.05997327,-3.0748837,0.6189514,-6.881984e-05,-0.16908845,0.005656925,0.0026866272,0.028394705,6.3267034e-05,0.015789958,0.42462364,-1.4197974,1.9496473,-2.096185,-1.5746669,2.3963513,-0.13286333,0.29601428,-0.36279207,0.07791336,-0.02694275,-0.14832395,-0.21068975,0.5363012,-9.461885,0.9388393,47.716442,-0.9049988,-1.4880757,-3.6246333,-0.2426965,-0.1040667,-0.28498298,26.5,27.375,26.5,29.6875,30.9375,31.4375
0.3460517,-1.8334595,-2.4951916,-0.8172689,-0.09363996,0.044194948,-0.14636499,-0.4018233,-0.32748905,0.059997506,-3.0748491,0.6188465,3.054056e-05,-0.1710216,0.003457533,0.0047085215,0.024858875,0.0045550703,0.016176037,0.42437235,-1.4192084,1.948882,-2.096029,-1.5747503,2.3960395,-0.13119608,0.29648644,-0.3679169,0.07699842,-0.025579372,-0.14704701,-0.05746084,0.49799395,-9.5385,0.8806493,47.691364,-0.88899666,-1.4540341,-3.6321578,-0.20208006,-0.10849644,-0.31699413,26.5,27.375,26.5,29.6875,30.9375,31.4375
0.34805182,-1.2913957,-2.2585373,-1.0592828,-0.0748886,0.03938238,-0.14433509,-0.40214938,-0.3274879,0.059988998,-3.0748105,0.61878294,4.328714e-05,-0.17367025,0.0030866058,0.0033178304,0.023279628,0.005771952,0.012754172,0.42413148,-1.4186066,1.9481853,-2.0959122,-1.574798,2.3957644,-0.13316342,0.3022479,-0.3703664,0.071917444,-0.024658283,-0.14559337,-0.05746084,0.4405331,-9.615114,0.8918391,47.68599,-0.83286643,-1.4418917,-3.4267774,-0.19188434,-0.10610484,-0.37318844,26.5,27.375,26.5,29.6875,30.9375,31.4375
0.35005188,-1.3823391,-1.5896742,-1.1456532,-0.05373466,0.014874146,-0.14320493,-0.4025048,-0.32748505,0.05999018,-3.074803,0.61877877,1.8482051e-05,-0.17349139,0.0017666674,0.0016781334,0.022747437,0.004138262,0.014722515,0.4238325,-1.4179804,1.9474319,-2.0957687,-1.5747975,2.3954642,-0.13119625,0.3064605,-0.3711388,0.069736555,-0.023511797,-0.14559823,-0.4596867,0.53630114,-9.768343,0.88960326,47.655537,-1.1150715,-1.6925979,-3.600277,-0.1290025,-0.09568635,-0.36852843,26.5,27.375,26.5,29.6875,30.9375,31.4375
0.35205194,-1.6427971,-1.5381966,-1.1006309,-0.043050464,0.03257962,-0.14571343,-0.40284228,-0.3274829,0.060018755,-3.0747888,0.61863744,0.00014730009,-0.1729545,0.0019358689,-0.00015883925,0.02382334,0.0010840786,0.020074366,0.4236045,-1.4174386,1.9467152,-2.095637,-1.5748814,2.3951502,-0.13109,0.30946383,-0.37041765,0.069198035,-0.023247369,-0.15084626,-0.51714754,0.5554548,-9.768343,0.8672237,47.66808,-0.9634433,-1.7023678,-3.7429056,-0.08960216,-0.11820618,-0.3843499,26.5,27.375,26.5,29.6875,30.9375,31.4375
0.35405204,-1.8522458,-1.1880605,-1.0082427,-0.047566153,0.047003035,-0.15230866,-0.40318823,-0.3275032,0.060029496,-3.0748048,0.6185041,0.0001502382,-0.17349996,0.0023282696,-0.0011330312,0.023909323,-0.001420213,0.024112003,0.42336392,-1.4168133,1.9459375,-2.0954812,-1.5748934,2.3948247,-0.13270049,0.31227723,-0.37179765,0.070048645,-0.022317357,-0.15649796,-0.17238252,0.4213795,-9.787497,0.9321212,47.655537,-1.1160089,-1.7574725,-3.7828097,-0.063977785,-0.1244857,-0.3264429,26.5,27.375,26.5,29.6875,30.9375,31.4375
0.35605195,-1.4881229,-1.0740194,-0.7337089,-0.05297522,0.05864372,-0.15486385,-0.40354007,-0.32749173,0.06001885,-3.0747464,0.61838984,0.00016205892,-0.17437105,0.0021512504,-0.0009168282,0.022980757,-0.0021361946,0.032743983,0.42309967,-1.4161636,1.9451832,-2.0953372,-1.5749649,2.3944972,-0.13364924,0.31371692,-0.3744653,0.07148588,-0.021216955,-0.1660821,-0.21068975,0.3256114,-9.634268,0.91421866,47.670765,-1.0621295,-1.8145471,-3.9230752,-0.068989396,-0.13901837,-0.2275092,26.5,27.375,26.5,29.6875,30.9375,31.4375
0.35805207,-2.1429088,-1.3335316,-0.1833308,-0.052443426,0.042554997,-0.14800209,-0.40390056,-0.32749176,0.060033493,-3.0747764,0.6183351,0.0002291832,-0.17549066,0.0023918157,-0.0001809753,0.022025872,-0.0010993005,0.038715538,0.42281112,-1.4155759,1.9444526,-2.0952413,-1.5749768,2.394171,-0.13510947,0.3135477,-0.37626028,0.07207117,-0.020791583,-0.1735165,-0.49799395,0.34476504,-9.404425,0.9388393,47.65912,-0.9899099,-1.7589375,-3.7518227,-0.028020263,-0.13292171,-0.115354046,26.5,27.375,26.5,29.6875,30.9375,31.4375
0.36005208,-1.2969216,-0.48340866,-0.2528724,-0.027992612,0.042869564,-0.15844105,-0.4042782,-0.32749328,0.060058318,-3.0747921,0.61820275,0.00032903935,-0.17816925,0.0020171327,0.00061795424,0.021467624,0.0012299195,0.038889717,0.42253485,-1.4149622,1.9436606,-2.0951097,-1.575025,2.3938105,-0.13616419,0.31649232,-0.38167393,0.07216963,-0.021247342,-0.17474174,-0.30645782,0.21068975,-9.346964,0.95897776,47.692257,-1.0091336,-1.5925919,-3.6533914,-0.011353562,-0.12053515,-0.056234814,26.5,27.375,26.5,29.6875,30.9375,31.4375
0.36205223,-1.7029084,0.27814013,-0.5764707,0.024460543,-0.006205904,-0.1457175,-0.40462336,-0.3274843,0.060055975,-3.0747547,0.61812204,0.0003047272,-0.17964277,0.0017742886,0.00093405426,0.021467485,0.00038360214,0.033115447,0.42225862,-1.4143361,1.9429077,-2.094941,-1.5750607,2.3934891,-0.13699396,0.31943247,-0.38658938,0.07492598,-0.020899635,-0.16979595,-0.21068975,0.15322891,-9.519346,0.8806493,47.660015,-0.9401766,-1.6906171,-3.6007056,-0.0029479598,-0.13217881,-0.06760751,26.5,27.375,26.5,29.6875,30.9375,31.4375
0.36405233,-0.7418691,0.6523918,-0.46693707,0.037438065,0.0039599035,-0.15316726,-0.40499794,-0.327493,0.060052313,-3.074764,0.6180125,0.00033369855,-0.17957515,0.0017700652,0.0014055643,0.021185458,-0.00067586044,0.025701959,0.42198253,-1.4136637,1.9421176,-2.0948322,-1.5750841,2.393144,-0.1372174,0.31911597,-0.38812166,0.07764611,-0.020185309,-0.1626094,-0.4213795,0.15322891,-9.481039,0.95226496,47.65464,-1.0022395,-1.6266251,-3.5770822,-0.018075516,-0.16083415,-0.1475657,26.5,27.375,26.5,29.6875,30.9375,31.4375
0.36605218,-0.7676955,0.87808746,-0.09372626,0.0146484915,0.022760417,-0.15971869,-0.4053671,-0.32749248,0.060093623,-3.0747511,0.6180332,0.0004726977,-0.17957163,0.002049189,0.0012188082,0.022668293,-0.0031496151,0.016480966,0.42171857,-1.4130986,1.9413399,-2.0946877,-1.5751446,2.392895,-0.13735847,0.32073316,-0.390561,0.08135979,-0.02048781,-0.15352902,-0.47884035,0.11492168,-9.346964,0.9186956,47.68062,-1.079328,-1.5782106,-3.5699787,-0.010108131,-0.17199697,-0.2371123,26.5,27.375,26.5,29.6875,30.9375,31.4375
0.36805218,-1.3457407,0.21828994,-0.19294108,0.029668503,0.029849842,-0.1529939,-0.4057172,-0.32751045,0.060093045,-3.0747097,0.61789525,0.0004174712,-0.17729935,0.0037275783,-0.000109112654,0.027735336,-0.012177746,0.011965059,0.4214885,-1.4124132,1.940502,-2.0944684,-1.5751814,2.3925846,-0.13779916,0.3222539,-0.39173082,0.091331914,-0.021398528,-0.14944978,-0.6703765,0.05746084,-9.270349,0.8918391,47.658226,-1.0028858,-1.5694746,-3.711204,-0.098946884,-0.1701586,-0.28585842,26.5,27.375,26.5,29.6875,30.9375,31.4375
0.37005222,-2.1296542,0.38035864,-0.17600423,0.022074822,0.03144907,-0.15289652,-0.4060731,-0.32749063,0.060091015,-3.0746582,0.6179433,0.00038451768,-0.17800543,0.0053217267,-0.0014031361,0.029584154,-0.01691464,0.00440902,0.42117718,-1.4117875,1.9397472,-2.0942996,-1.5752047,2.3923104,-0.14124374,0.32583123,-0.3939233,0.095034175,-0.021146175,-0.145338,-0.5746084,-0.019153614,-9.289502,0.8851263,47.64479,-0.976287,-1.5637434,-3.7147512,-0.15445714,-0.17491607,-0.38094443,26.5,27.375,26.5,29.6875,30.9375,31.4375
0.3720523,-2.0213816,0.3625324,0.11956303,0.013205707,0.03696713,-0.15912884,-0.4064211,-0.32747635,0.06009371,-3.0745876,0.617812,0.00036419232,-0.17645286,0.004594722,-0.0023934927,0.031107534,-0.021724302,0.004972921,0.42091393,-1.4111502,1.9389571,-2.094082,-1.5752767,2.3919747,-0.13887529,0.3282297,-0.39558345,0.0992989,-0.02057635,-0.14353468,-0.36391866,-0.019153614,-9.251195,0.8560339,47.64927,-1.1326373,-1.7087734,-3.6986706,-0.20843694,-0.18063533,-0.4579652,26.5,27.375,26.5,29.6875,30.9375,31.4375
0.37405238,-1.9124228,0.24669336,0.519688,0.009812247,0.03909623,-0.15774061,-0.40679717,-0.3274865,0.060104214,-3.0745757,0.6178648,0.00035563915,-0.17864306,0.0040180646,-0.0013914317,0.030767731,-0.020316485,0.0073487693,0.42062595,-1.4104878,1.9381307,-2.0939143,-1.5752767,2.3917217,-0.13925374,0.3308521,-0.40152788,0.101179935,-0.020867914,-0.14628513,-0.24899697,-0.15322891,-9.021352,0.94331104,47.672558,-1.0502349,-1.8425604,-3.5650098,-0.2542869,-0.19754744,-0.4933028,26.5,27.375,26.5,29.6875,30.9375,31.4375
