Tylouw/Master_Thesis_Code/training_data/batch_1/big_rod_t0.2/sample_99_session_4.csv
timestamp[s],tcp_force_x[N],tcp_force_y[N],tcp_force_z[N],tcp_force_rx[Nm?],tcp_force_ry[Nm?],tcp_force_rz[Nm?],tcp_pose_x[m],tcp_pose_y[m],tcp_pose_z[m],tcp_pose_rx[rot_vec_x],tcp_pose_ry[rot_vec_y],tcp_pose_rz[rot_vec_z],tcp_velo_x[m/s],tcp_velo_y[m/s],tcp_velo_z[m/s],tcp_velo_rx[rot_vec_x/s],tcp_velo_ry[rot_vec_y/s],tcp_velo_rz[rot_vec_z/s],q1[rad],q2[rad],q3[rad],q4[rad],q5[rad],q6[rad],qd1[rad/s],qd2[rad/s],qd3[rad/s],qd4[rad/s],qd5[rad/s],qd6[rad/s],tool_acc_x,tool_acc_y,tool_acc_z,current_of_whole_robot[A],voltage_of_whole_robot[V],current_J1[A],current_J2[A],current_J3[A],current_J4[A],current_J5[A],current_J6[A],temp_J1[C],temp_J2[C],temp_J3[C],temp_J4[C],temp_J5[C],temp_J6[C]
8.7503577e-07,-0.8081169,-1.0600027,0.36813217,-0.0039834077,0.0044944603,-0.0013592388,-0.372905,-0.32821062,0.059933856,-3.0784512,0.62487924,-0.00024660974,0.0031141394,0.0014858958,-0.004259965,0.004313731,-0.00926251,0.00011039382,0.4481382,-1.4708252,2.0095613,-2.1077154,-1.5706977,2.4230676,-5.705401e-05,0.00400355,0.005127669,0.0010852389,0.00013883642,-0.00017046832,0.095768064,0.17238252,-8.90643,0.7911258,47.7648,-0.1331354,-2.8692906,-2.5206428,-0.4936341,0.13334379,-0.1372669,27.25,28.4375,27.4375,31.0,32.75,33.4375
0.002052401,-0.82800233,-0.65349805,0.27194786,-0.002539699,0.00088834786,-0.008003571,-0.3728931,-0.32822222,0.05994473,-3.0785012,0.6248704,-0.00027387321,-9.966919e-05,-6.7462905e-05,-0.0032904707,-0.00044390972,0.00058475556,0.000109628076,0.4481382,-1.470861,2.0095737,-2.1077068,-1.5706495,2.4230556,-5.6339682e-05,0.0042108437,0.005249279,-0.010180001,0.00013468046,-0.00016568764,0.0,0.095768064,-9.002198,0.68818194,47.741516,-0.071079366,-2.7909398,-2.3786924,-0.45389235,0.14610489,-0.13267535,27.25,28.4375,27.4375,31.0,32.75,33.4375
0.004051854,-0.67514676,-0.46295384,0.1918827,0.007057089,0.0005260475,-0.007323169,-0.37287697,-0.32821417,0.05990809,-3.0784605,0.6248235,-0.00028168273,-0.0011235737,-0.00056167174,-0.0024825223,-0.0018472576,0.003498325,0.00010645927,0.4481623,-1.4708253,2.0096323,-2.1077673,-1.5706857,2.4230556,-5.564306e-05,0.0037596119,0.004313689,-0.012027105,0.00013076684,-0.00016078298,0.019153614,0.095768064,-8.925584,0.7016076,47.705692,-0.041412123,-3.072919,-2.560195,-0.3627365,0.13993897,-0.1435132,27.25,28.4375,27.4375,31.0,32.75,33.4375
0.006051914,-0.23572819,-0.12762819,0.151115,0.0283566,-0.011359458,-0.011130529,-0.3728906,-0.32820365,0.05990765,-3.0784428,0.62485844,-0.00027207332,-0.0005314324,-0.00027912407,-0.0016684738,-0.0010286848,0.0018222048,0.00011141294,0.4481382,-1.4708139,2.0096204,-2.1077654,-1.5706977,2.4230556,-4.525184e-05,0.0023157897,0.0029683104,-0.0073725893,0.00012707374,-0.00015613546,-0.076614454,0.038307227,-8.887277,0.7486078,47.73077,-0.079517014,-2.9850783,-2.5422804,-0.39842135,0.13874,-0.13525493,27.25,28.4375,27.4375,31.0,32.75,33.4375
0.008051877,0.08531361,0.5620064,-0.2204521,0.05648407,-0.03376793,-0.008498519,-0.3728788,-0.32819158,0.059883304,-3.0783892,0.6249051,-0.0003614916,-0.00017091566,-0.000104347215,-0.0011132492,-0.0004029356,0.00054069364,0.000108397726,0.44812617,-1.4707781,2.0096314,-2.1077406,-1.5706977,2.4230795,-4.3457345e-05,0.0015250233,0.0017869051,-0.003974298,0.00012358361,-0.00015174819,0.019153614,0.076614454,-9.136273,0.7620334,47.741516,-0.040491935,-2.9547455,-2.4213247,-0.4336302,0.14424004,-0.12791823,27.25,28.4375,27.4375,31.0,32.75,33.4375
0.010051831,-0.020943105,0.65849644,-0.6878091,0.059730586,-0.036950722,-0.001250121,-0.37288532,-0.3282142,0.05990054,-3.078449,0.62489796,-0.0003374829,2.0879119e-05,-2.4891066e-05,-0.0010886738,2.8782744e-05,-0.000396504,0.000115964554,0.44813824,-1.4707901,2.0096076,-2.1077516,-1.5706614,2.4230795,-3.161754e-05,0.0016430522,0.0012759548,-0.0025497256,0.00014272235,-0.00014759993,0.0,0.076614454,-9.289503,0.80679786,47.770176,-0.45467067,-2.290041,-3.0653043,-0.4362821,0.12904055,-0.2032143,27.25,28.4375,27.4375,31.0,32.75,33.4375
0.012052406,-0.0786251,0.10410415,-0.84119487,0.024917996,-0.0087466575,-0.011091235,-0.37286052,-0.32821077,0.059870135,-3.0784209,0.6248733,-0.00046630294,-0.00030027004,-0.00014749114,-0.0030113815,0.0019853686,-0.0044679977,9.007299e-05,0.4481382,-1.4707525,2.0096304,-2.1077273,-1.5706376,2.4230676,-9.630924e-05,0.007622488,-0.0010764746,-0.0016595072,0.00014047309,-0.00018430523,-0.019153614,-0.019153614,-9.461885,0.7463667,47.756744,-0.5311385,-2.0548234,-3.2221537,-0.4348327,0.12092459,-0.22586343,27.25,28.4375,27.4375,31.0,32.75,33.4375
0.0140522625,-0.62211627,-0.6863366,-0.94058937,-0.012639679,0.022511784,-0.011975269,-0.37287346,-0.32821366,0.059872735,-3.0784137,0.6248136,-0.00044381627,-0.0053822417,0.00058397086,-0.0043048807,0.003055233,-0.0067313076,-0.0011216651,0.44814798,-1.4707242,2.0095909,-2.1077158,-1.5706614,2.423041,-0.0061034025,0.01853872,-0.010258777,-0.000890822,0.00013700449,-0.0049726237,-0.17238252,0.13407528,-9.787497,0.7239871,47.737934,-0.29698354,-2.9171,-2.9610586,-0.43704978,0.12682925,-0.22307773,27.25,28.4375,27.4375,31.0,32.75,33.4375
0.016051788,-1.4418554,-1.2522973,-0.948485,-0.044615217,0.047746163,-0.021868737,-0.37285075,-0.3281897,0.05985016,-3.0783412,0.624874,-0.000565538,-0.0053779497,0.0012056085,-0.004186594,0.0032451744,-0.0070736054,0.0037281632,0.44812357,-1.4707127,2.0096161,-2.1076553,-1.5706614,2.4230635,-0.0072520063,0.01765874,-0.0097345235,-0.00014514677,0.00011284109,-0.010971697,-0.30645782,0.26815057,-9.749189,0.75755644,47.746887,-0.24842264,-2.7370346,-3.1925793,-0.43922007,0.11548094,-0.17580578,27.25,28.4375,27.4375,31.0,32.75,33.4375
0.018052394,-1.9580092,-1.7869914,-1.0396785,-0.073383205,0.082244076,-0.031383686,-0.37287486,-0.32819283,0.059851166,-3.078367,0.62472373,-0.00051225675,-0.0049623195,0.0009943228,-0.004255195,0.0033687043,-0.00732016,0.0058872085,0.448124,-1.4706768,2.00958,-2.1076791,-1.5706857,2.422967,-0.0064731315,0.017514398,-0.009450618,-9.477047e-06,0.00010875902,-0.012352091,-0.34476504,0.30645782,-9.883265,0.78217715,47.757637,-0.44015527,-2.4535034,-3.4741015,-0.43415713,0.1120611,-0.16451138,27.25,28.4375,27.4375,31.0,32.75,33.4375
0.020052077,-2.1979074,-2.0317774,-0.90149325,-0.07390145,0.09314968,-0.041746434,-0.372872,-0.32819176,0.059839938,-3.0783412,0.624814,-0.000621534,-0.0060829576,0.0004439231,-0.0032008735,0.0031502247,-0.006869956,0.006897717,0.44809997,-1.4706404,2.0095546,-2.1076305,-1.5706495,2.4230025,-0.006457269,0.018602584,-0.013660053,0.0026116713,0.00010610599,-0.013344809,-0.4213795,0.38307226,-9.730036,0.78217715,47.737934,-0.53006107,-2.382218,-3.425324,-0.43299836,0.115840346,-0.16619852,27.25,28.4375,27.4375,31.0,32.75,33.4375
0.022051834,-2.4126751,-1.9400157,-1.2699691,-0.048584927,0.07383574,-0.047809076,-0.3728862,-0.32819188,0.059820645,-3.0783226,0.6247917,-0.00066862337,-0.0068433126,0.0012978914,-0.0041394234,0.0043494385,-0.009362618,0.005903988,0.4480872,-1.4705676,2.0095189,-2.10763,-1.5706495,2.4229782,-0.008755729,0.021504331,-0.014956526,0.0037723503,0.00010365604,-0.014648643,-0.6512228,0.47884035,-9.80665,0.7978386,47.76928,-0.610843,-2.4876392,-3.431715,-0.4656338,0.09115981,-0.1644459,27.25,28.4375,27.4375,31.0,32.75,33.4375
0.024052639,-2.07078,-1.5385805,-1.1215898,-0.032114547,0.06460059,-0.06995392,-0.37291044,-0.32816878,0.05981614,-3.0782843,0.6247454,-0.0006099645,-0.008783707,0.0016648576,-0.0034613125,0.003337729,-0.0072687147,0.0044161202,0.4480624,-1.4705435,2.0095055,-2.107642,-1.5707096,2.4229295,-0.011209988,0.022036817,-0.016883582,0.0028403443,0.000101321755,-0.015613513,-0.63206923,0.45968673,-9.921572,0.7105615,47.72271,-0.57901067,-2.353693,-3.4919913,-0.45673755,0.087838784,-0.17127609,27.25,28.4375,27.4375,31.0,32.75,33.4375
0.026051683,-2.0430396,-1.4041035,-1.1565708,-0.028120914,0.051421672,-0.075619474,-0.37289578,-0.32819602,0.059791405,-3.078315,0.62465674,-0.00074014714,-0.010243163,0.0011423936,-0.0022120771,0.001570525,-0.003566039,0.0040274905,0.4480862,-1.4704719,2.0094812,-2.107631,-1.5706495,2.422894,-0.011541964,0.021284569,-0.018537682,0.0011449314,8.1875245e-05,-0.015555451,-0.57460845,0.4213795,-9.768343,0.72622824,47.74331,-0.6215892,-2.2660043,-3.5059943,-0.44742858,0.08914964,-0.1944052,27.25,28.4375,27.4375,31.0,32.75,33.4375
0.028052606,-1.760556,-1.2131475,-0.9672891,-0.026989963,0.061867118,-0.08871975,-0.37295505,-0.32819492,0.05978591,-3.0783095,0.6247129,-0.0006981065,-0.011443986,0.0006970208,-0.0019501252,0.0010450231,-0.0024778936,0.004262324,0.4480382,-1.4703755,2.0093963,-2.1076672,-1.5706614,2.4228818,-0.011793411,0.02298967,-0.020881072,0.00057458703,7.773429e-05,-0.016039878,-0.63206923,0.3256114,-9.691729,0.7284641,47.73525,-0.6725478,-2.3161895,-3.4628303,-0.41612995,0.066967025,-0.19639087,27.25,28.4375,27.4375,31.0,32.75,33.4375
0.030052286,-2.0325384,-0.98415893,-0.9585464,-0.014980786,0.05817728,-0.10415,-0.37297606,-0.32821113,0.059793618,-3.078344,0.62472105,-0.0007176414,-0.013291998,0.0009956975,-0.0018875166,0.00092245394,-0.0022116923,0.0028364037,0.44802535,-1.4703386,2.0093353,-2.1076548,-1.5706257,2.4228697,-0.014029924,0.02548955,-0.02379627,0.0006973939,6.6603585e-05,-0.016848335,-0.6512228,0.19153613,-9.481039,0.7530795,47.739727,-0.69096446,-2.3944,-3.4620144,-0.38421512,0.0842904,-0.2022891,27.25,28.4375,27.4375,31.0,32.75,33.4375
0.03205216,-1.6743176,-0.5551628,-0.8429228,0.008722075,0.060682736,-0.120364115,-0.3730249,-0.3282133,0.059826076,-3.0783677,0.62476385,-0.0005903786,-0.014534157,0.0008675155,-0.0013707876,0.00039843447,-0.0011068903,0.003185697,0.4480011,-1.4703383,2.0092633,-2.1076667,-1.5706495,2.4228692,-0.014910915,0.026435094,-0.02603464,0.00076691806,5.640064e-05,-0.018077118,-0.59376204,0.11492168,-9.595961,0.7553206,47.759426,-0.73371154,-2.368373,-3.4709787,-0.39360487,0.056161627,-0.19639531,27.25,28.4375,27.4375,31.0,32.75,33.4375
0.034051996,-1.7538741,-0.48536763,-0.8387486,0.030912617,0.050082583,-0.12525325,-0.3730459,-0.32820827,0.059808772,-3.0783384,0.62477756,-0.000675771,-0.015948646,0.0010994009,-0.0008200457,0.00015179646,-0.0005998098,0.0015263831,0.44796446,-1.470254,2.0092022,-2.107631,-1.5706376,2.422845,-0.016632047,0.027471222,-0.028673641,0.0018061326,5.4682456e-05,-0.018137498,-0.45968673,0.05746084,-9.576807,0.7978386,47.754055,-0.64948946,-2.2744946,-3.3969707,-0.38585836,0.043391712,-0.17431304,27.25,28.4375,27.4375,31.0,32.75,33.4375
0.036051944,-0.67692447,0.55517066,-0.61339766,0.03521233,0.056403603,-0.15627353,-0.37308234,-0.32819182,0.05980127,-3.0783203,0.62473613,-0.00066791574,-0.016662205,0.00089005474,-0.00024680598,-4.8001388e-05,5.5045948e-05,0.0011134503,0.44791642,-1.470194,2.0091536,-2.1076305,-1.5706614,2.4227734,-0.016814142,0.02788906,-0.03064923,0.0026870884,-5.112043e-05,-0.017905448,-0.38307226,-0.038307227,-9.557653,0.69041777,47.71554,-0.65240896,-2.2588913,-3.3919487,-0.37307948,0.04120303,-0.17869633,27.25,28.4375,27.4375,31.0,32.75,33.4375
0.03805195,-1.1394321,0.144283,-0.69922847,0.054110285,0.030833732,-0.16187546,-0.3731099,-0.32819438,0.059791032,-3.0783355,0.6247586,-0.0006897849,-0.01788006,0.000780645,0.00014946205,-0.00041256228,0.0009386405,8.671026e-05,0.44788003,-1.4701338,2.0091164,-2.1076543,-1.5706376,2.422749,-0.017675385,0.029092463,-0.032902002,0.0027827974,-0.00010959919,-0.017738314,-0.2681506,-0.076614454,-9.442732,0.75084364,47.7254,-0.64146984,-2.1448965,-3.3854063,-0.3650683,0.023971278,-0.18340322,27.25,28.4375,27.4375,31.0,32.75,33.4375
0.04005169,-0.79641277,0.28703994,-0.70068914,0.047118016,0.027223123,-0.17211078,-0.37315282,-0.32819796,0.059800442,-3.0783436,0.62477994,-0.0006341187,-0.019179225,0.0007027869,-4.102444e-05,-0.00042452547,0.0010464322,-0.0008520792,0.44785574,-1.4700849,2.009044,-2.1076663,-1.5706495,2.4227371,-0.018682178,0.031671423,-0.035211846,0.002411262,-0.00015061969,-0.017804334,-0.2873042,-0.076614454,-9.481039,0.7486078,47.741516,-0.6257176,-2.2197223,-3.344342,-0.35200953,0.01291482,-0.18601072,27.25,28.4375,27.4375,31.0,32.75,33.4375
0.04205247,-0.90986294,0.18635292,-0.615885,0.03085587,0.018535824,-0.18753164,-0.37319607,-0.3281865,0.05979292,-3.0782905,0.6247881,-0.0006437357,-0.02008329,0.00077938335,0.00030093285,0.00014427729,0.0023425885,-0.00052690116,0.4478197,-1.4699888,2.0089476,-2.1076305,-1.5706862,2.422713,-0.018915968,0.032342993,-0.036716025,0.002324947,-0.0012289196,-0.018359981,-0.13407528,-0.11492168,-9.481039,0.7038487,47.723602,-0.6541517,-2.256577,-3.335265,-0.33494353,0.01675462,-0.18406269,27.25,28.4375,27.4375,31.0,32.75,33.4375
0.044052217,-0.53798354,0.025451826,-0.5199224,0.015850825,0.014829626,-0.1981543,-0.37323654,-0.32819346,0.0597928,-3.078329,0.624815,-0.0006489054,-0.021188727,0.00087361713,0.0011157735,-0.00014027704,0.0033538267,-0.0009194594,0.44777137,-1.469929,2.0088875,-2.1076539,-1.57065,2.4226766,-0.019970922,0.032460272,-0.038965862,0.003423937,-0.0014124047,-0.01902098,-0.22984336,0.15322891,-9.481039,0.800085,47.73256,-0.58938956,-2.1718605,-3.3857973,-0.32340196,0.021396685,-0.18951496,27.25,28.4375,27.4375,31.0,32.75,33.4375
0.046052318,-0.23276073,-0.5119894,-0.66627216,0.019371076,0.016390717,-0.20469186,-0.3732799,-0.32817566,0.059798587,-3.0783076,0.62477297,-0.0006159773,-0.021151079,0.0012788539,0.0007613265,0.0011474143,0.0007411035,-0.0008515361,0.447723,-1.4698807,2.0088155,-2.107629,-1.5706862,2.4226048,-0.020679137,0.033975597,-0.040482134,0.0063367523,-0.0014390532,-0.01979677,-0.17238253,0.19153613,-9.481039,0.76874626,47.74331,-0.6424948,-2.0772185,-3.4278986,-0.34160027,0.018017747,-0.17981559,27.25,28.4375,27.4375,31.0,32.75,33.4375
0.048052117,-0.13341036,-0.41115233,-0.8252254,-0.003891396,0.016157607,-0.1942619,-0.37331825,-0.32819244,0.0598024,-3.0783312,0.6248156,-0.0006762228,-0.021558376,0.0012987829,0.0007568547,0.0016032954,-0.00018889323,0.00027604806,0.447687,-1.4697964,2.0087059,-2.1075923,-1.5706381,2.4225924,-0.021078223,0.03527292,-0.042240173,0.007833901,-0.0014489588,-0.02132259,0.019153614,0.21068975,-9.595961,0.7530795,47.69763,-0.6672764,-2.0092661,-3.3864403,-0.34623212,0.0048233736,-0.17650914,27.25,28.4375,27.4375,31.0,32.75,33.4375
0.05005236,-0.36242983,-1.1472763,-0.87883747,-0.0043750643,0.009802912,-0.1831539,-0.3733874,-0.3281787,0.059817944,-3.078329,0.6249105,-0.00058017514,-0.02264928,0.0014017286,0.0009261576,0.0014688191,4.119676e-05,0.00032114578,0.44761452,-1.4697479,2.0086224,-2.1076162,-1.5706619,2.4225795,-0.022271639,0.036627688,-0.044192668,0.008165136,-0.0014302329,-0.02255994,0.038307227,0.22984336,-9.634268,0.78217715,47.728977,-0.6313689,-2.0038958,-3.4652755,-0.3445151,-0.008520765,-0.15542307,27.25,28.4375,27.4375,31.0,32.75,33.4375
0.05205218,-0.54199123,-1.2619289,-0.91062427,-0.019355051,-0.0004894655,-0.17845957,-0.37343743,-0.32816836,0.05981311,-3.0782912,0.6248261,-0.0005363875,-0.023634447,0.0013917024,0.0014770527,0.00095273333,0.00078283506,0.0010780904,0.4475902,-1.4696519,2.0085256,-2.1076047,-1.570722,2.4225075,-0.023240333,0.03706542,-0.046062555,0.008703086,-0.0012899752,-0.02428483,0.0,0.28730422,-9.557653,0.77545905,47.74331,-0.54904824,-2.0105624,-3.4721472,-0.35392648,-0.014548903,-0.14782175,27.25,28.4375,27.4375,31.0,32.75,33.4375
0.054051995,-0.56590456,-1.7641556,-0.9721062,-0.013609623,0.005668662,-0.17189854,-0.3734619,-0.3281546,0.05980565,-3.0782588,0.6248378,-0.00059748464,-0.024218516,0.0015975231,0.0014781363,0.0013482023,7.467937e-05,0.0013219363,0.447542,-1.4695917,2.0084655,-2.107556,-1.570722,2.4224708,-0.024120614,0.038254328,-0.047647417,0.009908481,-0.0013425562,-0.025408003,-0.076614454,0.36391866,-9.595961,0.784413,47.72719,-0.6041941,-1.943141,-3.4432826,-0.3455245,-0.033808485,-0.13813145,27.25,28.4375,27.4375,31.0,32.75,33.4375
0.05605186,-0.62852204,-1.3725928,-1.0099833,-0.026369333,0.013462186,-0.17079975,-0.3735107,-0.3281567,0.059806325,-3.078276,0.62480235,-0.00060873246,-0.025107663,0.0018059199,0.0015489575,0.002278195,-0.0005043478,0.0011821234,0.44749358,-1.4695071,2.0083683,-2.1075437,-1.5707101,2.422398,-0.024917953,0.04005333,-0.05016269,0.01155142,-0.0019324776,-0.02606298,0.019153614,0.34476504,-9.634268,0.7866488,47.737038,-0.59335077,-1.867511,-3.4956412,-0.35630524,-0.041407045,-0.13925816,27.25,28.4375,27.4375,31.0,32.75,33.4375
0.05805253,-1.3917369,-1.8911444,-1.0947623,-0.019566935,0.00095836737,-0.15883484,-0.3735536,-0.3281645,0.059813496,-3.0782797,0.6247458,-0.0006236335,-0.026176114,0.0016920457,0.0019117702,0.0021548958,0.00059029594,0.0015340258,0.44746944,-1.4694229,2.0082486,-2.107496,-1.5707105,2.4223382,-0.025422791,0.041060895,-0.05207281,0.011414846,-0.0023002282,-0.02691758,0.038307227,0.4405331,-9.634268,0.77545905,47.728977,-0.57637066,-1.9226726,-3.5154128,-0.35923487,-0.054686174,-0.11132485,27.25,28.4375,27.4375,31.0,32.75,33.4375
0.060052224,-1.0617856,-1.6781342,-0.8057201,-0.035419896,0.013173119,-0.1651859,-0.3735861,-0.3281611,0.05980806,-3.0782545,0.62479734,-0.0006539284,-0.026640836,0.0016478348,0.0012119319,0.0030088823,-0.0007261538,0.002283309,0.44743353,-1.4693502,2.0081756,-2.1074717,-1.5707105,2.4223378,-0.025622547,0.043829527,-0.05357793,0.011708139,-0.0025044165,-0.027864877,-0.05746084,0.4405331,-9.461885,0.7709874,47.73883,-0.6126822,-1.8376307,-3.5504842,-0.3628615,-0.03776001,-0.108663514,27.25,28.4375,27.4375,31.0,32.75,33.4375
0.062052265,-0.96611995,-1.5156405,-0.8090147,-0.034843143,0.018778853,-0.17050983,-0.37364492,-0.32814252,0.059812877,-3.0782356,0.62479365,-0.00063218956,-0.027578587,0.0013035106,0.0015268106,0.0025823,-0.00043625085,0.00265054,0.44736135,-1.4692776,2.0080793,-2.1074474,-1.5707344,2.4222658,-0.025994748,0.04525291,-0.055989332,0.012248325,-0.0022497647,-0.02860335,-0.11492168,0.34476504,-9.481039,0.7530795,47.72271,-0.62992954,-1.9069259,-3.5272613,-0.3573544,-0.054607987,-0.0966983,27.25,28.4375,27.4375,31.0,32.75,33.4375
0.064052574,-1.0649912,-1.4917482,-0.75169855,-0.018057095,0.01856899,-0.16588515,-0.37372193,-0.32815647,0.059820842,-3.0782664,0.6247798,-0.0006396044,-0.028745912,0.00090779614,0.0018077518,0.0021273466,0.00011047828,0.0036778704,0.4473011,-1.4691455,2.0079105,-2.1074235,-1.5707101,2.422193,-0.026418624,0.04707126,-0.058677316,0.012427908,-0.0020820335,-0.030053113,-0.11492168,0.40222588,-9.461885,0.7351769,47.723602,-0.6155404,-1.8424635,-3.5457191,-0.358226,-0.058875136,-0.10253543,27.25,28.4375,27.4375,31.0,32.75,33.4375
0.06605235,-1.0259157,-1.3195778,-0.63668215,-0.015465171,0.023250535,-0.16229641,-0.3737857,-0.32815957,0.05983157,-3.0782788,0.62484014,-0.00062102795,-0.030062322,0.0006523947,0.0018919177,0.0015465326,0.0010074563,0.004020521,0.4472409,-1.4690609,2.0077903,-2.107412,-1.5706981,2.422169,-0.027215756,0.048986785,-0.0607785,0.011553178,-0.0019527695,-0.03119141,-0.11492168,0.34476504,-9.481039,0.7284641,47.73614,-0.6428919,-1.8733215,-3.4625466,-0.35679853,-0.082704246,-0.069423124,27.25,28.4375,27.4375,31.0,32.75,33.4375
0.068052426,-1.3630244,-1.1499171,-0.5925444,-0.0048913443,0.019743895,-0.162896,-0.37386504,-0.32817847,0.05987268,-3.0783424,0.6248539,-0.00048539473,-0.031038271,0.00044639155,0.0021773537,0.0012247965,0.0023347312,0.003254415,0.44720474,-1.4690127,2.0076458,-2.107424,-1.5706986,2.4221334,-0.027515361,0.049889177,-0.062251385,0.01078883,-0.0022378792,-0.030723305,-0.22984336,0.28730422,-9.3661175,0.7597976,47.74331,-0.6855589,-1.8297286,-3.5546556,-0.34774914,-0.09814042,-0.074783064,27.25,28.4375,27.4375,31.0,32.75,33.4375
0.07005244,-1.6926335,-1.55452,-0.83491266,0.009548885,0.023417607,-0.15592586,-0.37394887,-0.32817203,0.059878256,-3.0783343,0.6249101,-0.0005107667,-0.03363816,-0.00022146109,0.0032760024,0.00047949585,0.005739072,0.0024121169,0.44710848,-1.4688802,2.0074766,-2.1073763,-1.5706867,2.4220734,-0.02806154,0.052128386,-0.06704592,0.009955359,-0.0030498381,-0.030422078,-0.28730422,0.30645782,-9.289502,0.8112748,47.759426,-0.69874454,-1.7750171,-3.3998363,-0.33822054,-0.08231382,-0.10105573,27.25,28.4375,27.4375,31.0,32.75,33.4375
0.07205205,-1.6370738,-0.6349197,-0.5159846,-0.0010942686,0.035595857,-0.15905157,-0.37399334,-0.32816556,0.05987099,-3.078319,0.62481076,-0.0005197591,-0.033392984,0.00059568125,0.001241552,0.0031211441,0.00235607,0.0027029442,0.44707236,-1.4687831,2.0073812,-2.1073525,-1.570711,2.4219773,-0.02875062,0.055826113,-0.066418976,0.009825533,-0.003969419,-0.031399794,-0.24899697,0.30645782,-9.385271,0.800085,47.746887,-0.63112324,-1.8990726,-3.457642,-0.33637995,-0.098801926,-0.099337384,27.25,28.4375,27.4375,31.0,32.75,33.4375
0.07405175,-1.201035,-0.5492119,-0.4387138,0.0016688203,0.04848805,-0.16814987,-0.37404937,-0.3281605,0.05986821,-3.0783052,0.624807,-0.00054882525,-0.034596063,0.00036647092,0.0027973407,0.0026830884,0.005755342,0.0037872486,0.4470123,-1.4686759,2.0072615,-2.1073167,-1.5707115,2.4219167,-0.028673347,0.054492757,-0.06858243,0.010071162,-0.0050491462,-0.03240351,-0.3256114,0.28730422,-9.289503,0.7553206,47.768383,-0.7069385,-1.785192,-3.5855417,-0.32870254,-0.09947261,-0.072366804,27.25,28.4375,27.4375,31.0,32.75,33.4375
0.076051846,-1.5948086,-0.8476065,-0.48596495,0.011695254,0.041215234,-0.15821339,-0.374126,-0.32817823,0.059901286,-3.078368,0.6247232,-0.00045671407,-0.03807574,-0.0005744535,0.0048617143,0.0012748155,0.010415721,0.0031220885,0.44697613,-1.4686033,2.0071032,-2.1073048,-1.5707115,2.4218204,-0.02954295,0.056543257,-0.07560918,0.010238666,-0.0058057285,-0.03260236,-0.36391866,0.19153613,-9.251195,0.7553206,47.755844,-0.73129326,-1.7451806,-3.2833042,-0.33158255,-0.080565766,-0.07845926,27.25,28.4375,27.4375,31.0,32.75,33.4375
0.07805172,-1.3358256,-0.6615156,-0.63096917,0.015843648,0.038464084,-0.16066925,-0.37418056,-0.32816553,0.059877083,-3.078309,0.6247116,-0.0004850895,-0.037045006,0.00091489544,0.0019898314,0.0056308797,0.0054314416,0.00309696,0.44692785,-1.468458,2.0069964,-2.1072924,-1.5707487,2.4217725,-0.030205976,0.060425144,-0.073354855,0.010484615,-0.007576011,-0.03323717,-0.45968673,0.15322891,-9.346964,0.800085,47.758533,-0.77277446,-1.7619139,-3.3851037,-0.32940918,-0.07103648,-0.091208294,27.25,28.4375,27.4375,31.0,32.75,33.4375
0.0800525,-1.9211518,-0.55497,-0.52552795,0.016277494,0.027332455,-0.15960078,-0.3742608,-0.32815924,0.05987248,-3.078264,0.62472093,-0.0004793163,-0.039489184,0.00078538794,0.0028881726,0.0066735363,0.008458872,0.003096423,0.4468677,-1.4683014,2.0068266,-2.1072567,-1.5707849,2.421724,-0.030643156,0.062786266,-0.07802606,0.010521497,-0.009835274,-0.033665854,-0.40222588,0.1340753,-9.346964,0.7463667,47.739727,-0.7531034,-1.935751,-3.3848746,-0.31954968,-0.0490947,-0.071835086,27.25,28.4375,27.4375,31.0,32.75,33.4375
0.082051985,-1.8176885,-0.90293986,-0.4270322,0.022724569,0.04069443,-0.15486655,-0.3743528,-0.32818428,0.05991227,-3.078331,0.6247546,-0.00042217207,-0.041277245,0.00078936917,0.004879737,0.0063600633,0.012410321,0.0018267145,0.44680744,-1.4682063,2.0066226,-2.1072204,-1.5707496,2.4216764,-0.031294994,0.06134665,-0.081230715,0.01147269,-0.011261552,-0.03304447,-0.28730422,0.11492168,-9.346964,0.784413,47.74331,-0.79643476,-1.6742111,-3.2946978,-0.3172175,-0.011973571,-0.09197454,27.25,28.4375,27.4375,31.0,32.75,33.5
0.08405181,-2.1532722,-0.94571495,-0.5065524,0.023393294,0.03241717,-0.14798874,-0.37440675,-0.3281782,0.059888653,-3.0783165,0.62467504,-0.00048376262,-0.041653328,0.0011060211,0.0034716649,0.008460741,0.009868658,0.0010825781,0.4467474,-1.4680611,2.0065143,-2.107208,-1.5707501,2.4215686,-0.031685743,0.065441035,-0.08262782,0.011977482,-0.01206073,-0.032687582,-0.49799395,0.17238252,-9.3661175,0.7978386,47.729877,-0.8072523,-1.7773268,-3.2895532,-0.3158503,-0.032629058,-0.11360676,27.25,28.4375,27.4375,31.0,32.75,33.5
0.086052045,-1.7221271,-0.6981743,-0.5335385,0.004891004,0.048083577,-0.15839346,-0.3745327,-0.32817692,0.0599255,-3.0783184,0.62477124,-0.00031850694,-0.043669216,0.00084152154,0.00415436,0.0071934396,0.011015899,0.0011371938,0.44666284,-1.4679406,2.0062973,-2.107208,-1.5707973,2.421544,-0.03343617,0.06738239,-0.08638576,0.012206581,-0.011418019,-0.034492575,-0.49799395,0.11492168,-9.32781,0.7530795,47.723602,-0.8346365,-1.8306782,-3.297711,-0.31411052,-0.032480292,-0.1251657,27.25,28.4375,27.4375,31.0,32.75,33.5
0.088051856,-1.8029581,-1.219119,-0.55232286,-0.0034586736,0.041152917,-0.15503691,-0.37460575,-0.32816508,0.059918977,-3.0782855,0.6247267,-0.00034387287,-0.043298453,0.0012193907,0.002612556,0.0069424976,0.0069613447,-2.3691451e-05,0.44659021,-1.4677961,2.0061424,-2.1071599,-1.5708207,2.421448,-0.035139155,0.06990979,-0.085719556,0.0125525845,-0.00943943,-0.035038278,-0.49799395,0.21068975,-9.289503,0.7329411,47.737038,-0.7197299,-1.861398,-3.2537408,-0.31060773,-0.04110047,-0.12335651,27.25,28.4375,27.4375,31.0,32.75,33.5
0.09005171,-1.438328,-0.84623206,-0.6234192,-0.02456439,0.042972848,-0.16221061,-0.3746708,-0.3281666,0.059910025,-3.0782657,0.62470365,-0.00036358743,-0.04378024,0.0005566703,0.002617147,0.0058134524,0.0064460235,-0.00012107017,0.44654214,-1.4676518,2.0059988,-2.107136,-1.5708326,2.4213881,-0.035160262,0.071487166,-0.087519355,0.012746926,-0.008202588,-0.03496301,-0.51714754,0.2681506,-9.385271,0.7709874,47.752266,-0.77573407,-1.8219087,-3.4232728,-0.3052225,-0.04618063,-0.12349069,27.25,28.4375,27.4375,31.0,32.75,33.5
0.09205264,-1.9731086,-1.5207633,-0.53369194,-0.018543005,0.030334825,-0.15601283,-0.37479526,-0.32817775,0.05994531,-3.0782802,0.6247066,-0.00021083823,-0.045940164,-0.0008551583,0.0037270528,0.0040365765,0.008516819,0.00016289222,0.4464823,-1.467507,2.0057561,-2.1071246,-1.5708798,2.4213285,-0.034926556,0.07422329,-0.09313704,0.012988775,-0.007502223,-0.035011638,-0.38307226,0.21068975,-9.3661175,0.7642693,47.74868,-0.7527737,-1.8551188,-3.104762,-0.3220886,-0.07387541,-0.1523852,27.25,28.4375,27.4375,31.0,32.75,33.5
0.09405252,-1.4450068,-1.1230314,-0.5385638,-0.021368299,0.035186194,-0.15336545,-0.3748961,-0.3281665,0.05993842,-3.078271,0.62472296,-0.0002548544,-0.046130747,-0.00034309455,0.0028294947,0.004567202,0.0069703683,-0.00054958905,0.44636184,-1.4673268,2.0055654,-2.1070883,-1.5708679,2.4212196,-0.036172297,0.07589208,-0.09285327,0.012658887,-0.007313874,-0.03554491,-0.47884035,0.21068975,-9.32781,0.81351066,47.73525,-0.8345758,-1.8431921,-3.307723,-0.30945075,-0.06448806,-0.15757683,27.25,28.4375,27.4375,31.0,32.75,33.5
0.09605164,-1.4194367,-1.0858119,-0.64823276,-0.00079375063,0.027035652,-0.16484797,-0.37499923,-0.32817093,0.05995013,-3.0782773,0.62476355,-0.00022506923,-0.04758137,0.0006301693,0.0023860282,0.006197517,0.006471533,-0.0018772961,0.4462771,-1.4671702,2.0053608,-2.107064,-1.5708684,2.4211595,-0.038448047,0.078459844,-0.094793014,0.0131881,-0.008571361,-0.03648933,-0.2873042,0.3256114,-9.308656,0.8090337,47.71554,-0.7095414,-1.9575951,-3.178451,-0.29524675,-0.06746892,-0.1701335,27.25,28.4375,27.4375,31.0,32.75,33.5
0.09805164,-1.5581456,-0.79791725,-0.5739597,-0.0015897513,0.016667228,-0.15687136,-0.37508368,-0.32818148,0.05997699,-3.0783079,0.6246737,-0.00016851412,-0.04886626,0.00045536223,0.002557167,0.006256445,0.0073023248,-0.0017531231,0.4462289,-1.4670618,2.0051692,-2.1070168,-1.5708808,2.4210515,-0.038991064,0.080391824,-0.09727968,0.013019184,-0.0089875385,-0.03715423,-0.17238252,0.2681506,-9.346964,0.7620334,47.71554,-0.70334053,-1.8453975,-3.1784978,-0.28696555,-0.050999552,-0.19283284,27.25,28.4375,27.4375,31.0,32.75,33.5
0.10005259,-0.7672173,-0.7032293,-0.5835291,-0.005935339,0.031581845,-0.15840784,-0.3751842,-0.3281674,0.0599734,-3.0782588,0.6247221,-0.00012429812,-0.05047048,0.0011210402,0.002534667,0.0064991806,0.007795492,-0.0037255783,0.4461441,-1.4668934,2.0049894,-2.1070044,-1.5709289,2.4210033,-0.04138141,0.082088,-0.09904506,0.012747102,-0.009423561,-0.03756993,-0.21068975,0.30645782,-9.32781,0.77545905,47.677036,-0.6796331,-1.9530903,-3.2766128,-0.27829427,-0.06428336,-0.213765,27.25,28.4375,27.4375,31.0,32.75,33.5
0.10205233,-0.67802656,-0.7566085,-0.5909043,-0.0040384694,0.025458226,-0.16164836,-0.375304,-0.32818267,0.059986852,-3.078292,0.6248055,-8.6592176e-05,-0.05160449,0.0008041023,0.0032561615,0.0060870955,0.009277139,-0.0030409812,0.446048,-1.4667135,2.0047605,-2.1070044,-1.5709046,2.4209552,-0.04161125,0.08274753,-0.101503275,0.013031995,-0.009693657,-0.038482882,-0.13407528,0.3256114,-9.346964,0.7933669,47.72719,-0.6076529,-1.8389344,-3.1554215,-0.27666315,-0.05257035,-0.22047105,27.25,28.4375,27.4375,31.0,32.75,33.5
0.10405216,-1.227644,-1.216489,-0.70444065,0.00514426,0.012144191,-0.14806569,-0.37538418,-0.32817414,0.059967633,-3.0782442,0.6247558,-0.00014079176,-0.05165521,0.00058687426,0.001621495,0.008418522,0.0060835234,-0.0016266501,0.44597623,-1.4665202,2.0045807,-2.1069562,-1.5709294,2.4208586,-0.040748633,0.087777205,-0.10350485,0.013891556,-0.010424027,-0.03903091,-0.076614454,0.24899697,-9.346964,0.7911258,47.701214,-0.7142645,-2.118267,-3.244519,-0.27145505,-0.045722842,-0.23150852,27.25,28.4375,27.4375,31.0,32.75,33.5
0.10605273,-1.0607944,-0.74519616,-0.5669326,-0.014577654,0.009998545,-0.15225698,-0.37551025,-0.3281834,0.0599941,-3.0782747,0.62472254,-2.087636e-07,-0.052792706,0.00089131785,0.0031356653,0.0073091835,0.008740876,-0.0005139137,0.44590387,-1.4663653,2.0043523,-2.1069682,-1.5709652,2.4207618,-0.04223073,0.08561654,-0.104722224,0.014390883,-0.010568071,-0.041626167,-0.11492168,0.2681506,-9.346964,0.79560274,47.707485,-0.7342291,-1.8860636,-3.149071,-0.25448453,-0.049482405,-0.25682795,27.25,28.4375,27.4375,31.0,32.75,33.5
0.108051926,-0.40310508,-0.66967785,-0.46716034,-0.015437991,0.024694942,-0.16887493,-0.37560678,-0.32817215,0.059984278,-3.0782347,0.6247716,-6.251337e-05,-0.053415503,0.0015356425,0.0018385518,0.009383527,0.006263014,-0.00024957463,0.44579554,-1.4661723,2.0041487,-2.106908,-1.5709652,2.4206893,-0.043442227,0.08945418,-0.106157154,0.015119406,-0.011374819,-0.043098766,-0.11492168,0.24899697,-9.346964,0.7978386,47.71554,-0.65258723,-1.9057215,-3.2321904,-0.24849376,-0.040762685,-0.23259448,27.25,28.4375,27.4375,31.0,32.75,33.5
0.110051654,-1.3021404,-0.91921455,-0.46632487,-0.00739491,0.0029803033,-0.15698904,-0.37573862,-0.32817528,0.060002178,-3.078239,0.62483156,3.435698e-05,-0.05399574,0.0018968218,0.0015524662,0.010442078,0.0056262836,-0.0020058164,0.44569913,-1.4659919,2.0039089,-2.1069076,-1.57099,2.42063,-0.04416647,0.09104364,-0.10742965,0.01583412,-0.012053528,-0.04206545,-0.15322891,0.2681506,-9.289502,0.79560274,47.737934,-0.648876,-2.003365,-3.2901645,-0.23616618,-0.030859921,-0.26735502,27.25,28.4375,27.4375,31.0,32.75,33.5
0.11205236,-0.6653299,-0.59208614,-0.36193448,-0.010749917,0.022809718,-0.16883631,-0.37583512,-0.3281792,0.060013503,-3.0782306,0.6247906,2.9111194e-05,-0.05398854,0.0015080435,0.0007270674,0.010149467,0.003001603,-0.0015274207,0.44562712,-1.4658234,2.003681,-2.1068356,-1.5710014,2.4205337,-0.04435883,0.09376122,-0.10873424,0.016656687,-0.010659808,-0.042737648,-0.095768064,0.22984336,-9.193734,0.75084364,47.744205,-0.71682125,-1.9779811,-3.329773,-0.24009205,-0.032895956,-0.30797014,27.25,28.4375,27.4375,31.0,32.75,33.5
0.11405165,-0.7457438,-0.4403252,-0.40775588,-0.002619611,0.015846448,-0.15846719,-0.37593773,-0.32816854,0.059994414,-3.0781631,0.6247381,2.5246192e-05,-0.05465687,0.0013643446,0.0006036118,0.009960303,0.0029597583,-0.000800932,0.445555,-1.4655954,2.0034654,-2.1067998,-1.5710615,2.4204376,-0.044801485,0.09524122,-0.11005477,0.016448848,-0.010477,-0.04390559,-0.076614454,0.24899697,-9.289503,0.7709874,47.746887,-0.70928687,-1.9380256,-3.30051,-0.23542957,-0.05146229,-0.31741756,27.25,28.4375,27.4375,31.0,32.75,33.5
0.1160518,-1.2296976,-0.789767,-0.41361484,0.014986025,0.0036835691,-0.1530736,-0.37604442,-0.3281816,0.060005844,-3.0782027,0.62476444,2.1203314e-05,-0.05680062,0.0007701469,0.0015453786,0.00932415,0.005151913,0.00014253258,0.44545883,-1.4654269,2.003248,-2.1067755,-1.5710253,2.420353,-0.045346566,0.09737246,-0.11461766,0.016629398,-0.010856385,-0.045390747,-0.095768064,0.17238252,-9.3661175,0.75084364,47.737038,-0.7619833,-2.066535,-3.256412,-0.22569712,-0.03273549,-0.31024638,27.25,28.4375,27.4375,31.0,32.75,33.5
0.11805173,-0.9472517,-0.23036778,-0.43560383,0.0034628352,0.009193675,-0.16047375,-0.37617773,-0.32819653,0.0600325,-3.0782425,0.62473446,0.00012002246,-0.055959567,0.0012129783,-5.62005e-05,0.010534172,0.0023654746,0.00037323273,0.44537467,-1.4652468,2.0029857,-2.1067636,-1.5710372,2.4202452,-0.045477226,0.09913338,-0.11277461,0.01605931,-0.01074224,-0.045753755,-0.1340753,0.17238252,-9.270349,0.79560274,47.729877,-0.7535343,-1.939923,-3.4471939,-0.19910562,-0.029164877,-0.32304358,27.25,28.4375,27.4375,31.0,32.75,33.5
0.12005172,-0.68996423,-0.38218102,-0.3762998,0.0056394413,0.01535102,-0.1587205,-0.3762708,-0.3281749,0.059998397,-3.0781672,0.6247584,3.9697494e-05,-0.057683278,0.00042739406,0.0012443871,0.010287548,0.005232385,-0.0013221197,0.44526696,-1.4650189,2.0028045,-2.1067278,-1.571062,2.4201622,-0.044851445,0.10021546,-0.11709344,0.016605163,-0.011765543,-0.043427326,-0.1340753,0.22984336,-9.32781,0.8112748,47.71465,-0.8693423,-1.9780079,-3.2984767,-0.18574515,-0.05180668,-0.3987094,27.25,28.4375,27.4375,31.0,32.75,33.5
0.12205248,-1.0908488,-0.73696744,-0.52189165,0.0039979224,0.00949429,-0.1543307,-0.37638965,-0.3281872,0.060013287,-3.0781572,0.6247739,0.00011655764,-0.05746774,0.0008133377,0.0006590498,0.010400497,0.0033043406,-0.0014184491,0.4452067,-1.4648268,2.0025532,-2.1067035,-1.5710973,2.420113,-0.04585771,0.10093937,-0.11672657,0.017297752,-0.011033606,-0.04433934,-0.11492168,0.17238252,-9.251195,0.83365434,47.729877,-0.90900964,-1.885134,-3.4862726,-0.18440163,-0.025655,-0.4188077,27.25,28.4375,27.4375,31.0,32.75,33.5
0.12405228,-0.7127777,-0.8262855,-0.37967885,-0.0069132918,0.019580591,-0.16779648,-0.37651193,-0.3281838,0.060021356,-3.078151,0.624791,0.00014073646,-0.05823243,0.0010110495,8.810759e-06,0.010891734,0.0016062403,-0.0002627214,0.44509825,-1.464634,2.0023139,-2.1066678,-1.5711092,2.4200163,-0.047088917,0.103805974,-0.11858234,0.018026946,-0.010748647,-0.04672561,-0.095768064,0.24899697,-9.289503,0.8291774,47.73077,-0.8406477,-1.9872973,-3.4822698,-0.17849691,-0.03571909,-0.4292701,27.25,28.4375,27.4375,31.0,32.75,33.5
0.12605238,-1.0173993,-0.8797678,-0.5779424,-0.006784068,0.004487367,-0.1578734,-0.37665066,-0.328176,0.06003385,-3.0781293,0.6247458,0.00020231356,-0.058612972,-0.00042082733,0.001900531,0.009497319,0.0045952345,0.0040149996,0.4449912,-1.4644191,2.0020373,-2.1066191,-1.5711573,2.419884,-0.0447061,0.10219439,-0.12142253,0.019176133,-0.010780408,-0.048619553,-0.076614454,0.2681506,-9.270349,0.80679786,47.741516,-1.0183401,-1.7737281,-3.5484428,-0.1640985,-0.03813167,-0.43005776,27.25,28.4375,27.4375,31.0,32.75,33.5
0.12805213,-1.2348584,-1.0945247,-0.6235123,0.00071001943,-0.0006796051,-0.15364367,-0.376737,-0.32817885,0.06001951,-3.0780969,0.62468195,0.00010710667,-0.05805604,0.00035357947,-0.0010164634,0.011821854,-0.0019029379,0.0045001893,0.44491848,-1.4642013,2.0018108,-2.1065352,-1.5711569,2.4197757,-0.046114072,0.1078245,-0.121200986,0.020186026,-0.010083574,-0.050512776,-0.095768064,0.19153614,-9.404425,0.80679786,47.755844,-1.1198554,-1.9509315,-3.538244,-0.15282817,-0.041308604,-0.4524306,27.25,28.4375,27.4375,31.0,32.75,33.5
0.13005237,-0.83326495,-0.5883641,-0.62805057,-0.00011751942,0.018148487,-0.16060829,-0.3768695,-0.32817394,0.060020678,-3.0780783,0.6247725,0.00013787945,-0.0615703,-0.0007476682,0.0024882974,0.009005066,0.005837465,0.0063213785,0.44479844,-1.4639866,2.0015686,-2.1065233,-1.5711693,2.4197147,-0.046644717,0.10628997,-0.12746996,0.019789862,-0.010886535,-0.05285978,-0.17238252,0.15322891,-9.404425,0.8493211,47.74868,-1.0395457,-1.7943404,-3.3708634,-0.13716193,-0.03665209,-0.4590079,27.25,28.4375,27.4375,31.0,32.75,33.5
0.13205215,-0.98050976,-0.71212703,-0.87210774,0.0020825975,0.012653305,-0.15820277,-0.37698025,-0.32817534,0.060027894,-3.078065,0.6246924,0.00017083672,-0.062047012,5.5467476e-06,0.0011161184,0.010679258,0.003349667,0.007943899,0.44472587,-1.4637936,2.0013282,-2.106475,-1.5712055,2.419594,-0.048169136,0.10963383,-0.12808855,0.020027425,-0.011329519,-0.05600511,-0.076614454,0.22984336,-9.346964,0.8672237,47.72808,-1.0623792,-1.784366,-3.4645715,-0.13433501,-0.0122443,-0.4391667,27.25,28.4375,27.4375,31.0,32.75,33.5
0.13405216,-1.10983,-1.0322134,-0.61665845,0.0012015004,0.014315545,-0.16254504,-0.37710413,-0.32817924,0.060026444,-3.0780568,0.62461084,0.00015041268,-0.06315959,-0.00055002415,0.0014026536,0.010374324,0.0036969574,0.010830349,0.44462985,-1.4635533,2.0010526,-2.106415,-1.5712174,2.4194484,-0.048187792,0.11174404,-0.1312326,0.020612432,-0.011211695,-0.058908198,-0.15322891,0.24899697,-9.32781,0.7620334,47.73077,-1.0842317,-1.8348546,-3.410541,-0.13850261,-0.03913057,-0.42285353,27.25,28.4375,27.4375,31.0,32.75,33.5
0.13605219,-1.2831178,-1.4778728,-0.8171279,-0.0037432984,0.017580654,-0.15670812,-0.3772444,-0.32816762,0.060028516,-3.0780287,0.62466,0.00017383425,-0.06387155,-0.000950362,0.0018436904,0.010305376,0.0045250477,0.015385669,0.4444981,-1.4633256,2.0007885,-2.1063797,-1.5712413,2.419351,-0.047850966,0.11260823,-0.13332209,0.021055672,-0.0115107605,-0.06312496,-0.19153613,0.24899697,-9.32781,0.7978386,47.73525,-1.196042,-1.8115667,-3.3573852,-0.13111387,-0.027709719,-0.41140702,27.25,28.4375,27.4375,31.0,32.75,33.5
0.13805208,-1.505317,-1.1229287,-0.8002559,-0.02720212,0.025697477,-0.15966387,-0.3773425,-0.32818234,0.060019806,-3.0780125,0.6245594,9.784744e-05,-0.0652156,-0.000650616,0.0022905276,0.010062058,0.005099605,0.017737625,0.4444375,-1.4630857,2.0005243,-2.1062953,-1.5712413,2.41923,-0.049577165,0.11353535,-0.13554892,0.02172856,-0.011547044,-0.06720115,-0.15322891,0.30645782,-9.461885,0.85155696,47.72629,-1.1644728,-1.699632,-3.3629477,-0.13227768,-0.023153353,-0.3674307,27.25,28.4375,27.4375,31.0,32.75,33.5
0.14005183,-1.5315332,-1.7137016,-1.0881485,-0.022440469,0.024412362,-0.15789746,-0.37747514,-0.32818374,0.060016762,-3.0780144,0.62450063,0.000107108244,-0.06594402,-0.0005392907,0.0023129222,0.010257369,0.0043387567,0.020665023,0.44432905,-1.4628457,2.0002606,-2.1062706,-1.5712532,2.4190848,-0.050514452,0.115028836,-0.13757077,0.023022499,-0.011399548,-0.07106511,-0.19153613,0.30645782,-9.672575,0.79560274,47.721813,-1.1183288,-1.703539,-3.3874428,-0.12771334,-0.026791353,-0.31725287,27.25,28.4375,27.4375,31.0,32.75,33.5
0.14205173,-2.2229292,-1.7139329,-1.0489413,-0.031288378,0.012827846,-0.15003115,-0.3776468,-0.32819307,0.060063846,-3.078068,0.62435526,0.00031183718,-0.06669546,-0.00046099746,0.0019551192,0.010829655,0.0031833318,0.023179533,0.4442329,-1.4626532,1.9999374,-2.1062582,-1.5713133,2.4188914,-0.05129837,0.117458984,-0.13967204,0.023975004,-0.011414802,-0.07436356,-0.2681506,0.38307226,-9.615114,0.8560339,47.721813,-1.1564391,-1.6946989,-3.3718147,-0.12230638,-0.0421856,-0.29012692,27.25,28.4375,27.4375,31.0,32.75,33.5
0.1440526,-1.5942152,-1.3425868,-0.9400895,-0.036386475,0.033294633,-0.15981697,-0.37777826,-0.3281917,0.060060762,-3.0780475,0.6243498,0.00026615194,-0.067690395,-0.0002290113,0.0018025312,0.011017012,0.0023686376,0.024926199,0.44411242,-1.4624012,1.9996499,-2.1061866,-1.5713133,2.4187703,-0.052715637,0.119487785,-0.14179987,0.02488575,-0.01124051,-0.07752616,-0.36391866,0.4213795,-9.595961,0.86945957,47.70032,-1.1973126,-1.6414421,-3.4084418,-0.1282765,-0.02824754,-0.2408139,27.25,28.4375,27.4375,31.0,32.75,33.5
0.14605226,-1.6194558,-1.44519,-0.95663077,-0.019969586,0.035714373,-0.15911512,-0.37788707,-0.32820284,0.06004966,-3.0780687,0.62418175,0.00020732913,-0.06853116,0.00048196223,0.0012670595,0.011968429,0.0012526911,0.024532013,0.44402766,-1.4621607,1.9993986,-2.1061385,-1.5713013,2.4185781,-0.05451918,0.12149409,-0.14294392,0.025440257,-0.011625186,-0.0789336,-0.3256114,0.36391866,-9.5385,0.7933669,47.713753,-1.1399615,-1.8129861,-3.354834,-0.11752387,-0.0327387,-0.20249447,27.25,28.4375,27.4375,31.0,32.75,33.5
0.14805217,-1.3963426,-1.0568959,-0.8545466,-0.021907574,0.039868813,-0.15989502,-0.37800628,-0.3281957,0.060033645,-3.0780358,0.624059,0.00018118328,-0.07027586,-0.0003413697,0.0011392941,0.010910729,0.00088807533,0.024890045,0.4439315,-1.4619079,1.9991449,-2.1060903,-1.5713371,2.4184098,-0.055259652,0.12564756,-0.1472839,0.025493018,-0.010527153,-0.080030575,-0.28730422,0.30645782,-9.615114,0.83589023,47.686886,-1.1617124,-1.639127,-3.2680826,-0.10766632,-0.02962562,-0.17091927,27.25,28.4375,27.4375,31.0,32.75,33.5
0.15005194,-1.2811002,-0.8776706,-0.7546015,-0.021406807,0.037540924,-0.1654293,-0.37817225,-0.32820225,0.06007357,-3.0780556,0.62404466,0.00027665708,-0.070476726,-5.572428e-05,0.0007127268,0.010955059,-0.00021077515,0.022986632,0.44381115,-1.4616917,1.9987983,-2.1060183,-1.571361,2.4182782,-0.056235295,0.12664585,-0.14748307,0.025701437,-0.010090713,-0.07910408,-0.30645782,0.24899697,-9.576807,0.7642693,47.703903,-1.128298,-1.6576439,-3.473988,-0.102078214,-0.04397711,-0.1530435,27.25,28.4375,27.4375,31.0,32.75,33.5
0.15205173,-1.1861415,-0.6622063,-0.5967268,-0.012300079,0.042268112,-0.16121332,-0.37831992,-0.3282191,0.060075257,-3.0780964,0.623959,0.00029300377,-0.0716843,0.00030692157,-0.00015100156,0.012084287,-0.0014921473,0.019159796,0.44370267,-1.461427,1.9984988,-2.106006,-1.5713495,2.4181113,-0.057648644,0.13040555,-0.1497218,0.025826119,-0.010562866,-0.07668814,-0.4405331,0.28730422,-9.5385,0.8179876,47.707485,-1.2071216,-1.7318553,-3.3778903,-0.10050202,-0.049337577,-0.14537606,27.25,28.4375,27.4375,31.0,32.75,33.5
0.1540526,-1.2115676,-0.34506434,-0.6449918,-0.0042428435,0.04056916,-0.16582319,-0.37848267,-0.32821366,0.06008533,-3.0780659,0.623934,0.00031040606,-0.07248751,-0.00014651562,0.0002701039,0.011102288,-0.0010392647,0.018391492,0.44357058,-1.4611511,1.9981517,-2.1059225,-1.5713848,2.4179678,-0.05794864,0.13130774,-0.15179488,0.026160408,-0.00987553,-0.07621981,-0.4213795,0.2681506,-9.461885,0.800085,47.72808,-1.1747204,-1.7773432,-3.3810601,-0.096142694,-0.044841737,-0.16248915,27.25,28.4375,27.4375,31.0,32.75,33.5
0.15605234,-1.2313849,0.14911911,-0.37560308,-0.010550226,0.0453114,-0.1681059,-0.37862498,-0.32821706,0.06008762,-3.0780482,0.6238371,0.00032847485,-0.07384221,-4.4975917e-05,-0.00015323212,0.011984831,-0.0015709156,0.012352547,0.4434743,-1.4608866,1.9978403,-2.1058629,-1.5714215,2.4178135,-0.058938093,0.13469428,-0.15468761,0.026528418,-0.01044936,-0.07116707,-0.28730422,0.19153613,-9.346964,0.7620334,47.687782,-1.2083539,-1.8003747,-3.3447027,-0.0819073,-0.059119575,-0.18637061,27.25,28.4375,27.4375,31.0,32.75,33.5
0.15805215,-1.8711038,-0.47658142,-0.27251017,0.015854832,0.029215463,-0.15340784,-0.3787835,-0.32820275,0.06008895,-3.0780306,0.6238162,0.0003755624,-0.07405731,0.000722682,-0.0020466626,0.01438035,-0.0052036676,0.0076294597,0.4433299,-1.4606335,1.9975518,-2.1058385,-1.5714573,2.4176586,-0.060126428,0.13907842,-0.15537253,0.027139824,-0.011053859,-0.06763044,-0.34476504,0.1340753,-9.346964,0.7978386,47.694946,-1.1098335,-1.7774382,-3.36589,-0.07280774,-0.039482094,-0.24820486,27.25,28.4375,27.4375,31.0,32.75,33.5
0.16005202,-1.2315935,-0.17461221,-0.33846447,0.013567772,0.045185998,-0.1630309,-0.37895444,-0.3282245,0.06011125,-3.07808,0.62380713,0.00043882057,-0.075342454,0.0002413866,-0.00020413734,0.012024538,-0.0024309347,0.007324382,0.4432095,-1.4603707,1.9972042,-2.1058142,-1.5714449,2.4175265,-0.06096752,0.13735159,-0.1578812,0.027855935,-0.010115861,-0.06816791,-0.34476504,0.1340753,-9.270349,0.8314132,47.72719,-1.2037461,-1.7860183,-3.278601,-0.04967738,-0.058293216,-0.27445263,27.25,28.4375,27.4375,31.0,32.75,33.5
0.16205195,-1.8590297,-0.25285727,-0.17011052,0.006949988,0.033019092,-0.16261496,-0.37909004,-0.32822275,0.060102474,-3.0780666,0.6238053,0.00037940164,-0.07622147,0.00050458696,-0.0012435184,0.013469085,-0.004178844,0.0048185475,0.44307745,-1.4601055,1.9969171,-2.1057541,-1.5714334,2.417395,-0.06183638,0.14126758,-0.15995063,0.028210834,-0.010678133,-0.06652786,-0.2681506,0.05746084,-9.155427,0.83365434,47.731667,-1.1474257,-2.027403,-3.3944216,-0.044316974,-0.051759075,-0.25982523,27.25,28.4375,27.4375,31.0,32.75,33.5
0.16405211,-1.7107482,-0.22081666,-0.111007445,0.001739527,0.032277875,-0.157196,-0.3792376,-0.32823518,0.06010394,-3.078039,0.62376285,0.0003971757,-0.07702004,0.0009815977,-0.0014602604,0.014061626,-0.0051410794,0.0021567545,0.44299284,-1.4598176,1.9965814,-2.105694,-1.5714692,2.4172878,-0.063327126,0.142909,-0.1615581,0.02929857,-0.010803147,-0.065355636,-0.3256114,0.13407528,-9.097966,0.80679786,47.728977,-1.1854978,-1.9383917,-3.4069133,-0.049655423,-0.04117921,-0.32267162,27.25,28.4375,27.4375,31.0,32.75,33.5
0.16605197,-1.3727094,-0.07714279,-0.005385957,-0.0037110387,0.033769753,-0.1678617,-0.37942287,-0.3282119,0.060116455,-3.0779958,0.6237716,0.00046761517,-0.078205585,0.0007917999,-0.0008616476,0.013459642,-0.00442552,0.0031767692,0.44282448,-1.4595416,1.9962333,-2.1056335,-1.5715293,2.4171307,-0.064143226,0.14389646,-0.1642379,0.030078093,-0.010571515,-0.06719089,-0.36391866,0.11492168,-9.002198,0.81351066,47.71554,-1.1468159,-1.8191383,-3.451437,-0.053223453,-0.061709553,-0.3286318,27.25,28.4375,27.4375,31.0,32.75,33.5
0.16805165,-1.5407038,-0.33197698,-0.010071834,0.0042718537,0.022041036,-0.16900876,-0.37957668,-0.32822946,0.06012431,-3.0779843,0.62371176,0.00044878913,-0.07996768,0.0010329596,-0.00037750747,0.013717991,-0.003149776,0.0032286183,0.442728,-1.4592416,1.9958614,-2.1055381,-1.5715412,2.4169986,-0.06560235,0.14550295,-0.16724905,0.030440252,-0.011360225,-0.06869833,-0.36391866,0.038307227,-8.983045,0.8179876,47.72719,-1.1749027,-1.8439147,-3.347929,-0.029542696,-0.044954747,-0.32084277,27.25,28.4375,27.4375,31.0,32.75,33.5
0.1700526,-1.246182,-0.13212956,0.040174726,0.012450823,0.02355838,-0.1599208,-0.37973952,-0.32820833,0.06011945,-3.0779574,0.6237443,0.0004691528,-0.08038912,0.0010753139,-0.00046126894,0.013274429,-0.003935874,0.0025255657,0.4425598,-1.4589779,1.9955748,-2.1055138,-1.5715655,2.4168544,-0.06650875,0.14645065,-0.16828112,0.031038672,-0.010625244,-0.06890254,-0.30645782,0.076614454,-8.944737,0.7777002,47.73614,-1.1182488,-1.7213324,-3.39188,-0.02724772,-0.06176095,-0.33511817,27.25,28.4375,27.4375,31.0,32.75,33.5
0.1720526,-0.8513149,0.13538422,0.02296602,0.020770838,0.023841014,-0.16884795,-0.37989837,-0.32820034,0.060105015,-3.077908,0.6237359,0.0004562741,-0.08132697,0.0013402541,-0.0008424053,0.013520275,-0.00475293,0.00062459195,0.4424274,-1.4586658,1.995251,-2.1054657,-1.5716013,2.4167233,-0.06788274,0.1486611,-0.16997568,0.031362757,-0.010504008,-0.068374254,-0.30645782,0.21068975,-9.021352,0.779936,47.74868,-1.1553454,-1.7353046,-3.3938851,-0.0030753855,-0.07381527,-0.36766475,27.25,28.4375,27.4375,31.0,32.75,33.5
0.1740525,-1.4169117,0.016821893,-0.054433186,0.020730909,0.004940542,-0.15365155,-0.38007486,-0.32820678,0.060104914,-3.0778983,0.62375176,0.00044096445,-0.08322807,0.0021710661,-5.217255e-05,0.013762097,-0.0036174678,0.0005007182,0.44228226,-1.458342,1.9948786,-2.1054056,-1.5716013,2.4165895,-0.070603095,0.14927872,-0.17281032,0.032655437,-0.011215085,-0.070967965,-0.24899697,0.095768064,-9.078813,0.88960326,47.728977,-0.90473056,-1.6745265,-3.2323039,-0.025762701,-0.07018839,-0.38602763,27.25,28.4375,27.4375,31.0,32.75,33.5
0.17605232,-1.2905657,-0.0040472075,-0.11863292,0.014333476,0.011630351,-0.16121884,-0.38021782,-0.3282001,0.06010557,-3.07786,0.62370616,0.0003745885,-0.08365421,0.00112391,0.0001521096,0.013665301,-0.0041594217,0.0008130127,0.44215092,-1.4580654,1.994543,-2.105285,-1.5716137,2.4164348,-0.069204085,0.15153162,-0.17616941,0.034207817,-0.010904356,-0.06987939,-0.21068975,0.19153613,-9.078813,0.8560339,47.728977,-1.1492368,-1.9255046,-3.402186,-0.026249968,-0.057382226,-0.39790958,27.25,28.4375,27.4375,31.0,32.75,33.5
0.17805222,-1.2792197,-0.6113726,-0.06983456,0.019657329,0.013012381,-0.15304731,-0.3804327,-0.32820982,0.060147177,-3.0778973,0.62375116,0.0005301195,-0.08428331,0.0025498301,-0.00071741315,0.015583537,-0.0066383393,0.0006904561,0.44199398,-1.4577895,1.9941362,-2.1052606,-1.5716375,2.4163015,-0.071924984,0.15357375,-0.1768742,0.035927963,-0.011570629,-0.07247746,-0.11492168,0.24899697,-9.021352,0.8179876,47.729877,-0.99312305,-1.5909901,-3.3718581,-0.035576865,-0.085166834,-0.39326343,27.25,28.4375,27.4375,31.0,32.75,33.5
0.180052,-1.1790701,-0.009965355,-0.29995942,0.00615215,0.005859164,-0.16220436,-0.38057485,-0.32818246,0.06010585,-3.0777802,0.62374514,0.00041003907,-0.08593315,0.0036354412,0.00011647258,0.015170449,-0.0061230217,0.003706116,0.44184858,-1.4574423,1.9938239,-2.1051648,-1.5716852,2.4161675,-0.0754658,0.15330648,-0.17891453,0.037579976,-0.011433,-0.07903213,-0.15322891,0.17238252,-9.11712,0.83813137,47.71286,-0.7608749,-1.569242,-3.3923783,-0.04437297,-0.08689532,-0.3593862,27.25,28.4375,27.4375,31.0,32.75,33.5
0.18205184,-1.3984133,-0.21063289,-0.393027,0.0003651238,-0.0017750937,-0.15963584,-0.38074666,-0.3281917,0.0601074,-3.077801,0.62361187,0.00036549984,-0.086009234,0.0026707305,0.00033610317,0.015651854,-0.0061514913,0.0067795,0.4417055,-1.4571183,1.9934415,-2.1050804,-1.5716738,2.4159389,-0.07340612,0.15482244,-0.18142648,0.038807265,-0.01186297,-0.08004341,-0.15322891,0.11492168,-9.212888,0.88289046,47.74062,-0.97068226,-1.5518059,-3.328979,-0.06788154,-0.06489948,-0.35383573,27.25,28.4375,27.4375,31.0,32.75,33.5
0.18405272,-0.95832896,-0.3517547,-0.48997948,0.0002595072,0.015675588,-0.16137502,-0.3809228,-0.32816333,0.060089264,-3.0777154,0.6236118,0.00034459296,-0.08713335,0.0038958672,0.0004570557,0.016799752,-0.007689508,0.008751425,0.4415365,-1.4567826,1.9930938,-2.1050074,-1.5717338,2.415781,-0.0763791,0.15596776,-0.18370871,0.041813992,-0.012251599,-0.0849862,-0.15322891,0.19153613,-9.3661175,0.7732232,47.72002,-0.85047877,-1.5759072,-3.4620457,-0.10935721,-0.07443458,-0.30758476,27.25,28.4375,27.4375,31.0,32.75,33.5
0.18605192,-1.4345671,-0.50939757,-0.74369454,0.0044720755,0.010391649,-0.15091607,-0.38108432,-0.32814807,0.060078505,-3.0776901,0.6235662,0.00023938302,-0.086774796,0.0040385765,-0.0015706077,0.018659737,-0.012847571,0.013100364,0.44135648,-1.456469,1.9927458,-2.1048992,-1.5717214,2.415576,-0.076625824,0.16091482,-0.18501727,0.043625444,-0.011740687,-0.089581124,-0.19153613,0.17238252,-9.442732,0.8403672,47.758533,-0.85042685,-1.6712584,-3.4146624,-0.14558777,-0.08655282,-0.26021457,27.25,28.4375,27.4375,31.0,32.75,33.5
0.18805175,-1.8521996,-1.0596062,-0.9284873,0.003660711,0.010630331,-0.15171331,-0.38123995,-0.32813805,0.060071792,-3.0776427,0.6235154,0.00021395778,-0.08802084,0.004295299,-0.0015572783,0.018691398,-0.012414465,0.015878692,0.44122404,-1.4561696,1.9924096,-2.1048157,-1.5717577,2.4154181,-0.07801559,0.16250516,-0.18681931,0.043450058,-0.01196841,-0.09374694,-0.22984336,0.24899697,-9.5385,0.8247004,47.755844,-0.8511882,-1.5355172,-3.4285197,-0.15112384,-0.104898594,-0.20196825,27.25,28.4375,27.4375,31.0,32.75,33.5
0.19005258,-1.5306028,-1.2564981,-1.0829228,-0.013964933,0.03992247,-0.1639279,-0.381445,-0.32814512,0.06009657,-3.0776289,0.6234733,0.000259296,-0.088998176,0.0045216302,-0.0014648054,0.018841922,-0.013365597,0.018246558,0.44107944,-1.4558334,1.9919547,-2.104707,-1.5717934,2.4152493,-0.07942851,0.16424054,-0.18941492,0.045223977,-0.011704582,-0.09752725,-0.30645782,0.19153613,-9.5385,0.7530795,47.74868,-0.8498953,-1.6408391,-3.3659396,-0.18899813,-0.09358847,-0.13241327,27.25,28.4375,27.4375,31.0,32.75,33.5
0.19205229,-1.5546788,-1.5414916,-1.0768049,-0.017933609,0.046874598,-0.16219069,-0.38160068,-0.3281263,0.06007259,-3.0775926,0.62337023,0.000108852386,-0.089824274,0.0050771357,-0.0027950353,0.020121446,-0.016224148,0.01824899,0.44089863,-1.4554967,1.991608,-2.1045873,-1.5717815,2.415009,-0.081178136,0.16843614,-0.19125988,0.046001375,-0.011659877,-0.09927673,-0.30645782,0.1340753,-9.634268,0.8537928,47.713753,-0.65861183,-1.778645,-3.472697,-0.21520987,-0.101612896,-0.08547033,27.25,28.4375,27.4375,31.0,32.75,33.5
0.19405216,-2.192564,-1.5320741,-1.1414796,-0.011340108,0.03446676,-0.14894086,-0.38177517,-0.32812327,0.06008303,-3.077546,0.6232834,0.00013324199,-0.08977103,0.0049264585,-0.0035848548,0.02189777,-0.019036183,0.017713754,0.44077894,-1.4551843,1.9912122,-2.1044786,-1.5718421,2.4148414,-0.08053637,0.17163411,-0.19361278,0.04845316,-0.012070388,-0.09809738,-0.3256114,0.19153613,-9.672575,0.85826975,47.71286,-0.7611939,-1.9262276,-3.4201806,-0.2636803,-0.08903161,-0.05998908,27.25,28.4375,27.4375,31.0,32.75,33.5
0.19605207,-1.7980841,-0.9278494,-0.9207366,-0.010812331,0.03922857,-0.15774333,-0.38195556,-0.32809877,0.06006497,-3.077511,0.6232798,5.7889603e-05,-0.09260171,0.0053242133,-0.0028215854,0.02026274,-0.01680483,0.0116581535,0.44057384,-1.4548483,1.9908637,-2.104407,-1.5718421,2.4146388,-0.0840616,0.17327915,-0.19703081,0.04750971,-0.011561432,-0.09556517,-0.22984336,0.2681506,-9.595961,0.8179876,47.686886,-0.67395544,-1.8991961,-3.2993708,-0.29450852,-0.12239287,-0.06821516,27.25,28.4375,27.4375,31.0,32.75,33.5
0.19805202,-1.455901,-0.65873456,-0.93326306,-0.005358024,0.043167356,-0.16002531,-0.3821373,-0.32811275,0.060057964,-3.0775087,0.6232023,-1.4305602e-05,-0.093834095,0.0036782168,-0.002161688,0.01905386,-0.01294881,0.010763612,0.44043088,-1.4544762,1.9904445,-2.1043127,-1.5718297,2.414448,-0.081660196,0.17478147,-0.19960907,0.044588197,-0.012128771,-0.09226494,-0.30645782,0.28730422,-9.615114,0.8627467,47.701214,-0.73981357,-1.8494697,-3.423054,-0.26604736,-0.12543254,-0.101322286,27.25,28.4375,27.4375,31.0,32.75,33.5
0.20005167,-2.0112157,-0.6859697,-0.93473375,-0.0014484039,0.022181813,-0.15507586,-0.38234654,-0.328113,0.06007891,-3.0774968,0.6232019,2.1285021e-05,-0.09402712,0.003937135,-0.0020801402,0.018908579,-0.013089467,0.0063617276,0.44026244,-1.4541409,1.9900016,-2.1042163,-1.5718535,2.4142811,-0.082383506,0.17463487,-0.19977422,0.04496531,-0.011935676,-0.08858711,-0.4405331,0.28730422,-9.595961,0.9455522,47.701214,-0.8041699,-1.8174767,-3.3886023,-0.2862325,-0.112753086,-0.12800331,27.25,28.4375,27.4375,31.0,32.75,33.5
0.2020524,-1.383719,-0.72366893,-0.89927846,-0.016395172,0.047209896,-0.16236049,-0.38252452,-0.32810482,0.060070302,-3.077456,0.6231949,-3.9406e-06,-0.09420154,0.004096624,-0.0023851783,0.019907713,-0.014152676,0.0032464103,0.4401064,-1.453805,1.989631,-2.1041443,-1.5718778,2.4141262,-0.08248189,0.17601357,-0.20093074,0.046132483,-0.012389875,-0.08556815,-0.40222588,0.30645782,-9.519346,0.85826975,47.71554,-0.7901739,-1.918895,-3.5300765,-0.30763662,-0.11365816,-0.15610963,27.25,28.4375,27.4375,31.0,32.75,33.5
0.20405212,-1.6759046,-0.72461873,-0.696376,-0.025190022,0.046159685,-0.16017516,-0.38274702,-0.32807904,0.060081955,-3.0773873,0.6232203,1.9935991e-05,-0.095095105,0.004018651,-0.002732921,0.020880094,-0.0148847895,0.00054116186,0.43990234,-1.4534447,1.9891762,-2.1040246,-1.5719379,2.413947,-0.08267937,0.17890465,-0.2036075,0.046992727,-0.012965591,-0.08305701,-0.38307226,0.2681506,-9.481039,0.80679786,47.701214,-0.87694967,-1.8815913,-3.4132223,-0.3283216,-0.12581222,-0.20469457,27.25,28.4375,27.4375,31.0,32.75,33.5
0.20605199,-1.5767931,-0.99162275,-0.7448621,-0.03304609,0.04695917,-0.16281629,-0.3829131,-0.32806742,0.060065936,-3.0773485,0.62319314,-7.204904e-05,-0.0959624,0.00345058,-0.002812038,0.020547848,-0.013770862,-0.00078926794,0.4397346,-1.4531089,1.9888171,-2.1039288,-1.5719384,2.4137676,-0.08221298,0.18073553,-0.20520812,0.045614175,-0.013153561,-0.08125733,-0.28730422,0.24899697,-9.519346,0.80679786,47.677036,-0.8973684,-1.8197008,-3.475594,-0.36503884,-0.12674382,-0.2590915,27.25,28.4375,27.4375,31.0,32.75,33.5
0.2080518,-1.5000932,-1.1527221,-0.46941414,-0.040869817,0.04916055,-0.15975143,-0.3831193,-0.32806396,0.06006957,-3.0773022,0.6231637,-5.597263e-05,-0.09776763,0.0027753122,-0.0019066583,0.019434933,-0.009944723,-0.00021723846,0.43957862,-1.4527371,1.9883732,-2.1038344,-1.5719866,2.4135995,-0.08206668,0.18151481,-0.2077077,0.043394316,-0.013790723,-0.08167914,-0.2681506,0.13407528,-9.404425,0.8627467,47.677036,-0.99596155,-1.8343678,-3.507061,-0.3429429,-0.1161397,-0.27197242,27.25,28.4375,27.4375,31.0,32.75,33.5
0.21005262,-1.5988212,-1.3930486,-0.5461593,-0.024765745,0.027064042,-0.15599187,-0.38331866,-0.32805544,0.060065813,-3.0772576,0.6231755,-5.259697e-05,-0.09928566,0.0017452278,-0.0013123751,0.017522598,-0.0074207736,-0.0024936919,0.4394108,-1.4523772,1.9879645,-2.1037629,-1.5720218,2.413445,-0.08186217,0.1829748,-0.210314,0.041439198,-0.013145735,-0.07919748,-0.21068975,0.28730422,-9.404425,0.8717007,47.72271,-1.0402429,-1.776201,-3.4788146,-0.33062172,-0.12718135,-0.31774887,27.25,28.4375,27.4375,31.0,32.75,33.5
0.2120523,-0.89965844,-1.0445826,-0.7586871,-0.0085514225,0.022284666,-0.1567531,-0.3835308,-0.32805645,0.060064092,-3.077246,0.62317127,-1.6224622e-05,-0.10123723,0.0014851292,-0.00043691546,0.016675478,-0.0041281297,-0.001756564,0.43924257,-1.4520056,1.9875463,-2.1037276,-1.5720466,2.413276,-0.08260392,0.18378143,-0.21293451,0.03990882,-0.013791521,-0.08067297,-0.038307227,0.21068975,-9.32781,0.85826975,47.71554,-1.0680661,-1.710942,-3.5051994,-0.3175541,-0.14502087,-0.3549257,27.25,28.4375,27.4375,31.0,32.75,33.5
0.21405216,-0.5170766,-0.5962137,-0.53102356,-0.0008857018,0.0050791716,-0.15952346,-0.38372868,-0.328051,0.06004392,-3.0771928,0.6232002,-5.395632e-05,-0.10367105,0.00066685653,0.0010552824,0.0144753605,-2.0366791e-05,-0.0047136364,0.43907437,-1.4516102,1.9871382,-2.103668,-1.5720705,2.413133,-0.08331712,0.18450682,-0.2169121,0.03850611,-0.013560998,-0.07842652,0.019153614,0.30645782,-9.346964,0.8247004,47.71286,-1.0491426,-1.5359311,-3.3424342,-0.291143,-0.12872957,-0.3893074,27.25,28.4375,27.4375,31.0,32.75,33.5
0.21605197,-0.092952296,-0.18323079,-0.6223037,-0.0041257977,-0.0011841358,-0.16256094,-0.38396004,-0.3280761,0.060089726,-3.0772605,0.6231578,6.595405e-05,-0.10547588,0.00107327,0.0010872218,0.014483496,0.001227953,-0.0073094545,0.43891773,-1.4512863,1.9866585,-2.1036084,-1.5720705,2.4129415,-0.0852332,0.18646134,-0.21899344,0.03750738,-0.014098297,-0.07774509,0.0,0.2681506,-9.270349,0.89631605,47.711063,-0.9752886,-1.5564547,-3.295679,-0.28708103,-0.12767826,-0.45489803,27.25,28.4375,27.4375,31.0,32.75,33.5
0.21805261,-0.42833927,-0.7792594,-0.9024757,0.010597086,-0.01755369,-0.15513583,-0.38416404,-0.328039,0.060072295,-3.077117,0.6232424,2.2905815e-05,-0.106706895,0.00043898757,0.0017209045,0.013259968,0.002790658,-0.0052409307,0.43872562,-1.4508905,1.9862269,-2.1034768,-1.5721544,2.4128208,-0.08535714,0.18750419,-0.22158849,0.037110977,-0.013671936,-0.07993579,-0.05746084,0.30645782,-9.32781,0.8918391,47.713753,-1.027233,-1.5290108,-3.3164492,-0.25774312,-0.15171018,-0.47948575,27.25,28.4375,27.4375,31.0,32.75,33.5
0.2200517,-0.33880693,-0.45161152,-0.9283639,-0.013670215,-0.007218127,-0.16432424,-0.3843765,-0.3280338,0.06007044,-3.0770886,0.6232153,1.3068058e-05,-0.10786449,0.00038382105,0.001571519,0.013754239,0.0027208936,-0.0027958248,0.43854547,-1.4505064,1.9857835,-2.1033928,-1.5721782,2.4126277,-0.08592037,0.19004834,-0.22423841,0.03748221,-0.014100799,-0.08294102,0.076614454,0.2681506,-9.3661175,0.80456203,47.70838,-1.0434375,-1.5088547,-3.3573585,-0.2641535,-0.16700332,-0.47807527,27.25,28.4375,27.4375,31.0,32.75,33.5
0.22205259,-1.2250024,-1.4819099,-1.1132377,-0.013829113,-0.007883093,-0.14608423,-0.38457733,-0.32803595,0.06006551,-3.0770707,0.62316877,1.6575885e-05,-0.10856531,0.00031475912,0.0002656273,0.0142081445,0.00044278376,0.003938894,0.43838927,-1.4501338,1.9853653,-2.1033332,-1.5722021,2.412445,-0.086708285,0.19429807,-0.22600491,0.03723588,-0.013559967,-0.090463355,0.0,0.24899697,-9.423578,0.92093146,47.74241,-1.0475609,-1.6522306,-3.2883985,-0.25114048,-0.1666215,-0.44302744,27.25,28.4375,27.4375,31.0,32.75,33.5
0.22405249,-1.2058471,-1.5809404,-1.296718,-0.01978942,0.008421473,-0.1534129,-0.38479525,-0.3280332,0.06006945,-3.077035,0.6231389,-8.685567e-06,-0.10924245,-4.273807e-05,-0.0007579306,0.015256696,-0.00070433866,0.007992407,0.43820944,-1.4497367,1.9848856,-2.1032135,-1.5722264,2.4122515,-0.08625665,0.19831827,-0.22812724,0.036812864,-0.014037124,-0.09406168,-0.019153614,0.34476504,-9.500193,0.86945957,47.72808,-1.0705959,-1.8955915,-3.2842083,-0.24150819,-0.15626499,-0.4195469,27.25,28.4375,27.4375,31.0,32.75,33.5
0.22605243,-0.9863752,-1.7317556,-1.1398818,-0.04086982,0.028390115,-0.16029046,-0.3850151,-0.328035,0.06007042,-3.0769997,0.6230517,5.694695e-06,-0.110809095,0.000745681,-0.00091740664,0.014765318,-0.00083434663,0.012767368,0.4380523,-1.4493289,1.9844064,-2.1031187,-1.5722746,2.4120448,-0.089344814,0.19993168,-0.22957988,0.03653949,-0.013554104,-0.10192487,0.0,0.4213795,-9.615114,0.86945957,47.74062,-0.97855484,-1.9106462,-3.3445582,-0.21938357,-0.16701302,-0.36986715,27.25,28.4375,27.4375,31.0,32.75,33.5
0.2280525,-0.96107996,-2.048545,-0.95569766,-0.059169274,0.041963626,-0.16217634,-0.38524437,-0.32804257,0.060077976,-3.0770383,0.62292093,5.770726e-05,-0.11010766,-0.00018772253,-0.0007388785,0.015080107,-0.00083885615,0.020781282,0.43787336,-1.4489456,1.9839524,-2.103082,-1.572286,2.4117796,-0.08674183,0.19999918,-0.23031798,0.037335888,-0.013841597,-0.10733542,-0.05746084,0.4213795,-9.5385,0.8247004,47.72002,-1.1685442,-1.752059,-3.5062459,-0.218652,-0.1879274,-0.28550142,27.25,28.4375,27.4375,31.0,32.75,33.5
0.2300525,-1.12635,-1.7447273,-0.9711211,-0.05875104,0.032897796,-0.16268131,-0.3854714,-0.3280214,0.06008553,-3.0769856,0.6229482,8.559454e-05,-0.11144972,0.001193612,-0.0014585746,0.015241624,-0.001927903,0.020641914,0.43766809,-1.4485741,1.983498,-2.102986,-1.5723346,2.4115984,-0.090602994,0.20179783,-0.23065555,0.036914043,-0.0135355685,-0.11105747,-0.21068975,0.47884035,-9.481039,0.8605109,47.734352,-1.1841491,-1.6200775,-3.5434003,-0.19720301,-0.19316895,-0.2496112,27.25,28.4375,27.4375,31.0,32.75,33.5
0.23205231,-1.4927106,-1.7156029,-1.0475656,-0.052781492,0.027864708,-0.15469979,-0.3856532,-0.32804278,0.060066663,-3.0769937,0.62273526,1.0181451e-05,-0.11199125,-0.00017719218,-0.0010093246,0.01442548,0.00039999076,0.025321648,0.4375488,-1.4481664,1.9830664,-2.1029036,-1.5723346,2.4113455,-0.08830783,0.20278838,-0.23250759,0.035316356,-0.013800986,-0.113439105,-0.24899697,0.47884035,-9.634268,0.8985519,47.755844,-1.145371,-1.6856374,-3.678296,-0.17265517,-0.18488762,-0.18075934,27.25,28.4375,27.4375,31.0,32.75,33.5
0.23405202,-1.2959126,-1.5148616,-0.93093306,-0.04853433,0.036775235,-0.15558067,-0.38590524,-0.32804483,0.060064197,-3.0770054,0.6226432,8.6933156e-05,-0.11307525,-1.2901366e-05,-0.0013825588,0.014637411,-0.00028346357,0.023673685,0.43735632,-1.4477346,1.9825863,-2.1028907,-1.5723704,2.4110944,-0.0895457,0.20532478,-0.23464338,0.035618544,-0.013703955,-0.113028444,-0.2681506,0.34476504,-9.519346,0.86498255,47.70211,-1.1869159,-1.7118621,-3.6231196,-0.13418959,-0.17935985,-0.16468722,27.25,28.4375,27.4375,31.0,32.75,33.5
0.23605202,-1.6103537,-1.4636829,-0.9328478,-0.022923907,0.023595227,-0.15106528,-0.38612038,-0.3280509,0.060058814,-3.0770068,0.6226253,1.555979e-05,-0.114345424,0.0002570826,-0.0015409427,0.014957813,-0.00066535716,0.019591365,0.4371638,-1.4473263,1.9821199,-2.1027954,-1.5723461,2.4108908,-0.09099168,0.20766348,-0.23712064,0.036244266,-0.013838471,-0.11038981,-0.24899697,0.3256114,-9.557653,0.92093146,47.737934,-1.1498137,-1.7159692,-3.5406954,-0.12118582,-0.20911098,-0.1590462,27.25,28.4375,27.4375,31.0,32.75,33.5
0.23805206,-0.59882146,-0.72627044,-0.7695491,-0.011445434,0.040588573,-0.1596723,-0.38635415,-0.328053,0.06004636,-3.0769658,0.6225996,4.3135606e-05,-0.11557537,-0.00013441754,-0.0012009067,0.014467815,-0.0002719471,0.015208337,0.43699586,-1.4468825,1.9816407,-2.1027472,-1.5723943,2.4107125,-0.091450125,0.2095612,-0.24026833,0.036929205,-0.013563584,-0.10646414,-0.5554548,0.30645782,-9.423578,0.9947882,47.713753,-1.2036138,-1.6895763,-3.6021743,-0.10344163,-0.22799131,-0.20167601,27.25,28.4375,27.4375,31.0,32.75,33.5
0.24005212,-1.7823346,-0.84307396,-0.7085418,-0.00024383742,0.019455332,-0.14156906,-0.38657802,-0.3280412,0.060058013,-3.0769522,0.62248504,5.9915972e-05,-0.11688725,0.00017035712,-0.0008717887,0.0146336695,-0.00084968004,0.009173341,0.43680307,-1.4465104,1.9811729,-2.102639,-1.5724305,2.4104502,-0.093145184,0.21131212,-0.243537,0.039042123,-0.013468384,-0.1021229,-0.4213795,0.28730422,-9.423578,0.8179876,47.711063,-1.0887655,-1.7659398,-3.4406643,-0.08861242,-0.23474193,-0.25978103,27.25,28.4375,27.4375,31.0,32.75,33.5
0.24205191,-1.0943327,-0.26606905,-0.6217355,0.002040616,0.04342679,-0.1610415,-0.38681114,-0.32806048,0.06006492,-3.0769627,0.62246764,7.101819e-05,-0.117040925,-0.0007579349,-0.0010419191,0.015284315,-0.001413519,0.008718173,0.43663588,-1.4460903,1.9806699,-2.102566,-1.5724305,2.4102712,-0.09125793,0.21371043,-0.24614604,0.040042557,-0.013819921,-0.099778235,-0.4213795,0.21068975,-9.308656,0.87393653,47.723602,-1.2632778,-1.7565899,-3.5075502,-0.08992009,-0.23285685,-0.29856202,27.25,28.4375,27.4375,31.0,32.75,33.5
0.24405272,-1.450439,-0.054850627,-0.55249655,0.015812205,0.04377232,-0.15527187,-0.3871004,-0.32806808,0.060093775,-3.0769687,0.62247103,0.00020763498,-0.121739514,-0.00014829602,0.00070994603,0.013087216,0.0034073994,0.00362011,0.43643004,-1.4456466,1.9800934,-2.1025074,-1.5724782,2.410067,-0.09633634,0.21562962,-0.25211155,0.03878397,-0.013876438,-0.09975577,-0.4405331,0.17238252,-9.289502,0.86945957,47.709274,-1.0602243,-1.6786461,-3.310334,-0.037174046,-0.25958106,-0.32391325,27.25,28.4375,27.4375,31.0,32.75,33.5
0.24605174,-1.6208161,0.15438025,-0.20864369,0.025830224,0.050372887,-0.15924688,-0.38733667,-0.32807562,0.06009684,-3.0769436,0.6224839,0.00025358572,-0.12242659,-0.001163489,0.0012967995,0.01341775,0.0036058752,0.0053994935,0.43626273,-1.4452268,1.9796017,-2.1024463,-1.5725144,2.4099114,-0.09472624,0.21761703,-0.2562468,0.04088692,-0.014263516,-0.09992228,-0.5363012,0.05746084,-9.193734,0.9231726,47.711964,-1.1405268,-1.6797172,-3.1663923,-0.008420318,-0.270583,-0.3341249,27.25,28.4375,27.4375,31.0,32.75,33.5
0.24805239,-1.6953039,0.7115522,-0.30668032,0.02924995,0.05617036,-0.16079424,-0.3875284,-0.32808742,0.060070593,-3.0769172,0.6224401,8.151616e-05,-0.12289384,-0.00042705872,0.0022743656,0.013011879,0.0042453557,0.0030986697,0.43609402,-1.4447842,1.9791354,-2.1023142,-1.5724782,2.409719,-0.09648108,0.21560758,-0.25671726,0.042617872,-0.014173366,-0.09937569,-0.63206923,0.1340753,-9.174581,0.86945957,47.70032,-1.1405978,-1.6068386,-3.2477436,-0.0297575,-0.29274765,-0.35581654,27.25,28.4375,27.4375,31.0,32.75,33.5
0.25005233,-2.031128,0.10607053,-0.36741754,0.042460263,0.06898708,-0.15096019,-0.38778493,-0.32806027,0.06005301,-3.0768437,0.62246364,6.4132335e-05,-0.12384468,0.00013036779,0.0014823844,0.014567301,0.0019254247,0.0027424928,0.43585357,-1.444316,1.9786314,-2.1022298,-1.5725268,2.409503,-0.09795412,0.21919031,-0.25945228,0.044521265,-0.014612258,-0.10048923,-0.68953013,0.05746084,-9.289502,0.9701675,47.679718,-1.133661,-1.5778234,-3.3369293,-0.013994586,-0.28484592,-0.37603098,27.25,28.4375,27.4375,31.0,32.75,33.5
0.25205213,-2.282089,0.031728264,-0.21048172,0.021930687,0.06655295,-0.16148272,-0.3880653,-0.32806596,0.06008514,-3.0768583,0.6225065,0.0001721565,-0.12425547,0.0012737797,0.0011394031,0.015781146,0.00052732707,0.00033460424,0.43563685,-1.4438965,1.9780706,-2.1021578,-1.5725507,2.4093115,-0.099994,0.21982703,-0.25980678,0.046016026,-0.015113651,-0.10012107,-0.5554548,-0.095768064,-9.32781,0.9545008,47.701214,-1.0264448,-1.4662076,-3.3795123,-0.0036773523,-0.30240393,-0.40201062,27.25,28.4375,27.4375,31.0,32.75,33.5
0.25405192,-2.2325,-0.48797035,-0.30836424,0.015171997,0.07302918,-0.15520166,-0.38830626,-0.32805052,0.060078014,-3.0768383,0.6224418,0.00013386489,-0.12450078,0.0026217569,1.896551e-05,0.017850291,-0.0021787013,0.003349725,0.43540826,-1.4434646,1.97758,-2.1020606,-1.5725635,2.4090455,-0.102114044,0.22183107,-0.25990003,0.047419406,-0.015857745,-0.105253726,-0.51714754,-0.076614454,-9.308657,0.8940802,47.690468,-0.9773172,-1.5349123,-3.4273582,-0.0059604542,-0.3166957,-0.40111434,27.25,28.4375,27.4375,31.0,32.75,33.5
0.25605193,-2.0160415,-0.59870416,-0.36873087,0.023800293,0.06249642,-0.15219778,-0.38853848,-0.32804897,0.060067523,-3.076776,0.6223893,0.00016816916,-0.12523106,0.0032754326,-0.0012221234,0.019515542,-0.0050471844,0.0060619162,0.4352517,-1.4430199,1.9770883,-2.101989,-1.572635,2.4088645,-0.10367251,0.22575152,-0.261856,0.04874054,-0.016169507,-0.10952196,-0.47884035,-0.076614454,-9.289502,0.85155696,47.701214,-0.86673856,-1.6991044,-3.4516706,-0.019512508,-0.33162278,-0.36057463,27.25,28.4375,27.4375,31.0,32.75,33.5
0.2580519,-1.1229616,0.07877929,-0.2965651,0.034549054,0.057650115,-0.16643886,-0.388784,-0.32805535,0.060057916,-3.0767665,0.6224216,9.553964e-05,-0.12559764,0.0039152587,-0.0025653583,0.021503236,-0.007610739,0.010930622,0.43503547,-1.4425517,1.9765624,-2.1018927,-1.5726112,2.40867,-0.10459307,0.22919731,-0.26293063,0.04952203,-0.016907545,-0.11530774,-0.38307226,-0.05746084,-9.193734,0.90527004,47.684196,-0.8266497,-1.7443755,-3.439489,-0.011824243,-0.32199067,-0.33057564,27.25,28.4375,27.4375,31.0,32.75,33.5
0.260052,-0.8057112,0.057919603,-0.4427947,0.05812,0.035841618,-0.1614624,-0.38902915,-0.3280464,0.060061235,-3.076729,0.62227684,0.000144702,-0.12684053,0.004241429,-0.0023495464,0.022443779,-0.0076080943,0.015745979,0.43485507,-1.4421197,1.9760474,-2.1017964,-1.5726837,2.4084044,-0.105610706,0.23100403,-0.26589555,0.051053654,-0.017777398,-0.12113667,-0.30645782,-0.11492168,-9.212888,0.90750587,47.71465,-0.8394206,-1.8119764,-3.5160484,-0.017332563,-0.31564438,-0.24417618,27.25,28.4375,27.4375,31.0,32.75,33.5
0.26205185,-0.73961556,0.3337068,-0.4562031,0.054643337,0.012046563,-0.15370826,-0.38928455,-0.32802925,0.060048383,-3.076685,0.622283,5.1632724e-05,-0.12769628,0.0039770845,-0.0012836673,0.021962151,-0.007170081,0.021828583,0.434603,-1.4416403,1.9755076,-2.1016638,-1.5726837,2.408162,-0.105912775,0.23110737,-0.26912737,0.053563476,-0.01754877,-0.12751983,-0.22984336,0.019153614,-9.193734,0.8605109,47.72719,-0.807693,-1.7655337,-3.5121863,-0.024555525,-0.32991958,-0.14390162,27.25,28.4375,27.4375,31.0,32.75,33.5
0.2640526,-0.83644974,0.39610153,-0.12613888,0.030629223,0.0076413634,-0.16312067,-0.38953403,-0.32801172,0.060014196,-3.0765927,0.6221108,6.0649663e-06,-0.12843484,0.0036260076,-0.0005403316,0.022733897,-0.0076509835,0.021142894,0.4344112,-1.4411132,1.9749683,-2.1015546,-1.5727681,2.407875,-0.10547917,0.2324884,-0.2733024,0.057108983,-0.018060865,-0.1263959,-0.38307226,0.076614454,-8.983045,0.85826975,47.719128,-0.88229907,-1.8389893,-3.4045691,-0.04229886,-0.3237857,-0.12794891,27.25,28.4375,27.4375,31.0,32.75,33.5
0.26605245,-0.48201805,-0.7275464,-0.5484572,0.029165154,0.015781147,-0.14951876,-0.38980457,-0.3279778,0.060017254,-3.0765207,0.6221347,-1.1527033e-05,-0.12820244,0.0041117277,-0.0010321782,0.024309726,-0.010661056,0.02018409,0.43414706,-1.440658,1.9744161,-2.1014102,-1.5728158,2.4076355,-0.10596062,0.23405154,-0.27478477,0.060413066,-0.01822959,-0.1259171,-0.4405331,0.24899697,-9.002198,0.9365982,47.71286,-0.8945018,-1.7486924,-3.3114567,-0.0855954,-0.35599798,-0.09375921,27.25,28.4375,27.4375,31.0,32.75,33.5
0.26805243,-1.3968718,-1.498972,-0.77172613,0.008104143,0.0016504239,-0.14314547,-0.39003813,-0.32796508,0.060018003,-3.0764678,0.62208784,-1.76781e-05,-0.12899533,0.004992176,-0.0013394103,0.025694512,-0.013515806,0.013998132,0.43395436,-1.4402378,1.973914,-2.101289,-1.5728639,2.4074206,-0.108144686,0.23642637,-0.27768752,0.06411344,-0.018285427,-0.12191344,-0.22984336,0.38307226,-9.136273,0.83589023,47.71823,-0.9465054,-1.6902096,-3.346712,-0.13018437,-0.34151298,-0.14452371,27.25,28.4375,27.4375,31.0,32.75,33.5
0.27005225,-1.2546937,-2.0082934,-0.6471787,-0.038945116,0.017027883,-0.14776756,-0.3903447,-0.32796353,0.0600271,-3.0764282,0.62200373,1.9178004e-05,-0.12864453,0.0039302106,-0.0012402287,0.027660646,-0.01483959,0.012945508,0.43372738,-1.4396974,1.9732546,-2.1011565,-1.572924,2.4071467,-0.104975194,0.23868369,-0.28135657,0.0675559,-0.01951284,-0.11768588,-0.28730422,0.38307226,-9.155427,0.89631605,47.74868,-0.93346715,-1.56124,-3.471919,-0.17689267,-0.3345552,-0.18969613,27.25,28.4375,27.4375,31.0,32.75,33.5
0.27205217,-1.5109595,-2.413107,-0.74292576,-0.05053714,0.014119723,-0.1518082,-0.39053866,-0.32796207,0.059989557,-3.0763416,0.6218929,-0.00021183818,-0.13038391,0.0055985563,-0.0011479434,0.028421989,-0.015807083,0.0045310175,0.43355793,-1.4392061,1.9727405,-2.1009524,-1.572924,2.4069195,-0.10926741,0.23991458,-0.2835575,0.06973146,-0.019814882,-0.11355842,-0.2681506,0.38307226,-9.136273,0.8537928,47.729877,-0.9556186,-1.7494683,-3.3855271,-0.21644568,-0.33168137,-0.23213966,27.25,28.4375,27.4375,31.0,32.75,33.5
0.27405217,-1.000598,-2.153366,-0.80844384,-0.05340969,0.026471851,-0.15345262,-0.3908271,-0.32795608,0.059999235,-3.0763085,0.6218679,-0.00016789032,-0.13073125,0.0040859105,-0.0002021581,0.026968373,-0.014323185,0.0032012493,0.43333095,-1.4387153,1.9721407,-2.1008441,-1.5729722,2.4066815,-0.1071338,0.24024548,-0.2863134,0.070195474,-0.019122891,-0.110096194,-0.21068975,0.49799395,-9.404425,0.93436235,47.71554,-0.95553815,-1.6797465,-3.408217,-0.2771675,-0.3545004,-0.27858272,27.25,28.4375,27.4375,31.0,32.75,33.5
0.2760522,-1.227618,-1.4526906,-0.6968289,-0.056684867,0.024484042,-0.15413062,-0.39108953,-0.32792616,0.059987064,-3.0761971,0.6219239,-0.00022171316,-0.13110532,0.0045069056,-0.0004179443,0.027206771,-0.014818613,-0.00023399318,0.4330903,-1.4382237,1.971579,-2.1006887,-1.5730323,2.4064906,-0.10811704,0.24090463,-0.28674495,0.07051275,-0.019142,-0.10764248,-0.19153613,0.34476504,-9.346964,0.92093146,47.74241,-0.98452485,-1.6120074,-3.497521,-0.29086024,-0.3553629,-0.31467736,27.25,28.4375,27.4375,31.0,32.75,33.5
0.2780521,-1.2968255,-1.3744982,-0.85827017,-0.026692398,0.01864195,-0.14456491,-0.39133704,-0.327909,0.05995507,-3.076124,0.6218707,-0.00033828916,-0.13210385,0.0041297143,-0.0011550261,0.026949959,-0.014919842,-0.0022775587,0.43286225,-1.4377074,1.9710401,-2.100558,-1.5730561,2.406239,-0.108352035,0.244106,-0.2884427,0.068990186,-0.01888714,-0.10583126,-0.076614454,0.30645782,-9.308657,0.8940802,47.73077,-0.98694026,-1.6230801,-3.5707066,-0.32224604,-0.351209,-0.3749541,27.25,28.4375,27.4375,31.0,32.75,33.5
0.28005198,-1.1093866,-1.082842,-0.8279273,-0.0058556865,0.021584949,-0.15086009,-0.39157695,-0.32790723,0.059930198,-3.076061,0.6218797,-0.00050254154,-0.13435109,0.0044266414,-0.0017108129,0.025616243,-0.01378374,-0.007574343,0.43264535,-1.4371915,1.970477,-2.1003916,-1.5730437,2.4060361,-0.11119433,0.24725455,-0.29016036,0.06596961,-0.018175928,-0.1033753,-0.05746084,0.28730422,-9.308657,1.005978,47.73614,-1.0095645,-1.7086841,-3.6613169,-0.3013064,-0.3853661,-0.44974187,27.25,28.4375,27.4375,31.0,32.75,33.5
0.28205177,-0.96408486,-0.81931734,-0.7245311,0.0038169764,0.025319224,-0.14869946,-0.39188284,-0.32790914,0.059950907,-3.0760293,0.6219847,-0.00040099653,-0.13534124,0.0022263224,-0.0008812366,0.024230873,-0.010285005,-0.003396218,0.43241885,-1.4366995,1.9698552,-2.1003082,-1.5730919,2.4058797,-0.107740544,0.24897884,-0.29367372,0.06399159,-0.018398443,-0.104097344,-0.038307227,0.24899697,-9.270349,0.90750587,47.77286,-1.0960951,-1.7820094,-3.4952254,-0.30433607,-0.4076864,-0.50001,27.25,28.4375,27.4375,31.0,32.75,33.5
0.28405264,-0.6818579,-0.52894634,-0.9731156,0.018339286,0.006665082,-0.15804708,-0.3921413,-0.3279132,0.059930257,-3.0759833,0.62195665,-0.00048179014,-0.1384282,0.0032093585,-0.00057589,0.023460101,-0.008484741,-0.004758212,0.43221316,-1.4361718,1.9692792,-2.100189,-1.5731038,2.4056628,-0.112030864,0.25140327,-0.29699373,0.0629177,-0.018480245,-0.10702198,0.05746084,0.19153613,-9.346964,0.84484416,47.749577,-1.0323726,-1.9067823,-3.4223623,-0.30423397,-0.40844178,-0.5163411,27.25,28.4375,27.4375,31.0,32.75,33.5
0.28605247,-0.74121493,-0.88836867,-1.2353654,0.013157931,0.00018947366,-0.1481862,-0.39242718,-0.32790112,0.059924666,-3.075911,0.6218194,-0.0004386264,-0.14010505,0.0012069659,0.0001356084,0.02179079,-0.002658034,0.0054741213,0.43201038,-1.4356439,1.9686688,-2.1000712,-1.5732006,2.405384,-0.109047934,0.25300542,-0.2993678,0.057669915,-0.019444885,-0.11426479,0.038307227,0.2681506,-9.423578,0.90527004,47.72808,-1.1393546,-1.9499269,-3.4562383,-0.26116526,-0.39482674,-0.503322,27.25,28.4375,27.4375,31.0,32.75,33.5
0.28805226,-0.52089924,-1.0813184,-1.2052103,-0.0072381296,0.0074867373,-0.15853028,-0.39271152,-0.32789376,0.059927665,-3.0758545,0.6217458,-0.0004321105,-0.14135031,0.001742486,-0.00022144697,0.023436135,-0.0021573536,0.012329551,0.431794,-1.4351285,1.9680465,-2.0999267,-1.5732611,2.4051294,-0.10985028,0.2553296,-0.30124322,0.05742991,-0.02117783,-0.121914215,0.095768064,0.36391866,-9.5385,0.8090337,47.719128,-1.0827622,-1.9936948,-3.4158683,-0.23458499,-0.37770867,-0.4069562,27.25,28.4375,27.4375,31.0,32.75,33.5
0.29005224,-0.81374276,-1.5847683,-1.3190413,-0.03377654,0.01083024,-0.15450184,-0.39295572,-0.32789135,0.05989166,-3.075795,0.6217084,-0.00054434506,-0.14283578,0.0024626604,-0.0005261735,0.024694948,-0.0016465257,0.021231852,0.43158948,-1.4346004,1.9675072,-2.0998194,-1.5732735,2.4049096,-0.11142223,0.2575571,-0.30312,0.057113085,-0.02257901,-0.13237996,0.038307227,0.3256114,-9.615114,0.88289046,47.717335,-1.1367619,-1.8683529,-3.533811,-0.24086288,-0.38769707,-0.33196813,27.25,28.4375,27.4375,31.0,32.75,33.5
0.29205203,-1.3562956,-1.8840263,-1.4370166,-0.059248727,0.0181933,-0.1537493,-0.3932729,-0.32787532,0.05991348,-3.0757656,0.6216803,-0.0005274961,-0.14423174,0.0020577842,-0.00041194653,0.024068942,-0.00025651758,0.026171613,0.4313134,-1.4340849,1.9668363,-2.099653,-1.5733093,2.4046202,-0.11171554,0.2595666,-0.3055175,0.055951912,-0.022616655,-0.13761114,0.0,0.30645782,-9.710882,0.90750587,47.703903,-1.0858684,-2.0687182,-3.4872532,-0.21717423,-0.38249046,-0.2356019,27.25,28.4375,27.4375,31.0,32.75,33.5
0.29405195,-1.3210592,-1.9478366,-1.4162061,-0.06467361,0.025366612,-0.15387917,-0.39354432,-0.3278728,0.05988134,-3.075713,0.6215335,-0.0005783174,-0.14621156,0.0017190297,4.6153036e-05,0.023069635,0.0020579798,0.029171294,0.43110913,-1.433521,1.9662498,-2.0995572,-1.573357,2.4043314,-0.11261395,0.2614569,-0.3085238,0.054526247,-0.022707622,-0.1415054,0.0,0.2681506,-9.710882,0.9164598,47.70659,-1.1432502,-1.9642862,-3.510017,-0.18082687,-0.3852642,-0.17329536,27.25,28.4375,27.4375,31.0,32.75,33.5
0.2960518,-1.5904416,-2.051457,-1.3253713,-0.0523347,0.03383204,-0.14443517,-0.3938474,-0.32788476,0.059892897,-3.0757003,0.6214731,-0.0005072024,-0.14645983,0.0019391977,-0.0010387378,0.023189992,0.0007777237,0.027870024,0.43090492,-1.4329934,1.9656042,-2.0994618,-1.5734051,2.4040916,-0.113396294,0.26360902,-0.3083561,0.053408746,-0.022281595,-0.14098847,-0.2681506,0.38307226,-9.768343,0.96569055,47.713753,-1.1085575,-1.9533339,-3.5714817,-0.1509572,-0.3520049,-0.140502,27.25,28.4375,27.4375,31.0,32.75,33.5
0.29805174,-1.5446146,-1.3076012,-1.6020656,-0.03235451,0.04663882,-0.15308,-0.39412987,-0.32786718,0.059888612,-3.0756495,0.62142754,-0.0005097394,-0.14759019,0.002125204,-0.0005224573,0.022700958,0.0024393976,0.021740198,0.43066442,-1.4324902,1.9650167,-2.099342,-1.5734533,2.4038296,-0.11441888,0.2637117,-0.3096651,0.052904766,-0.022529354,-0.13587892,-0.24899697,0.34476504,-9.80665,0.947788,47.729877,-1.0913734,-1.9628425,-3.6871386,-0.11564307,-0.3725037,-0.15565167,27.25,28.4375,27.4375,31.0,32.75,33.5
0.3000516,-1.6048625,-0.49860296,-1.5612226,-0.013918864,0.051668588,-0.15808755,-0.39445558,-0.32789117,0.05989857,-3.0756733,0.6213198,-0.0004457349,-0.14906284,0.0023600508,0.00037135035,0.02225615,0.0043329624,0.015754892,0.43044794,-1.4319152,1.9643229,-2.0992582,-1.5734776,2.4035432,-0.115727946,0.2637585,-0.31199378,0.05328727,-0.022904802,-0.13120113,-0.22984336,0.3256114,-9.921572,0.8784135,47.67793,-1.0430918,-1.8888664,-3.732041,-0.10346945,-0.38623112,-0.22877628,27.25,28.4375,27.4375,31.0,32.75,33.5
0.30205232,-1.8743533,-1.1131483,-1.4989245,0.017297108,0.058241338,-0.14506727,-0.3947441,-0.32787836,0.059897687,-3.0756466,0.62135667,-0.0004271916,-0.15014133,0.0029703027,0.0005073527,0.02287918,0.004767009,0.008788212,0.43019557,-1.4314235,1.9637483,-2.0991743,-1.5735015,2.4033177,-0.11715526,0.2646717,-0.3135884,0.053844348,-0.023642134,-0.12565823,-0.47884035,0.038307227,-9.844957,0.93436235,47.728977,-0.9882426,-1.881664,-3.5939393,-0.09164378,-0.38731974,-0.2943345,27.25,28.4375,27.4375,31.0,32.75,33.5
0.30405226,-1.704064,0.16692461,-1.2234453,0.0041439487,0.069620505,-0.15664953,-0.39506668,-0.32785764,0.059892476,-3.0755658,0.62135863,-0.00040860832,-0.15093139,0.0022038056,0.00097254454,0.022431284,0.005764061,0.008828159,0.42993194,-1.4308484,1.9630779,-2.0990427,-1.573574,2.4030662,-0.11627875,0.26594365,-0.31632078,0.054199383,-0.023659546,-0.124819554,-0.5554548,0.038307227,-9.749189,0.8873621,47.690468,-1.0246238,-1.8939352,-3.7446558,-0.05488644,-0.37291977,-0.31164408,27.25,28.4375,27.4375,31.0,32.75,33.5
0.3060522,-1.7558732,0.3125447,-1.2170377,0.01534579,0.08095922,-0.15550908,-0.39536956,-0.32787716,0.05989045,-3.0755794,0.6212649,-0.0003597625,-0.15175581,0.0028145234,0.00076319266,0.023952425,0.0038941537,0.007817346,0.4297274,-1.430297,1.9624428,-2.0989816,-1.5735983,2.4028018,-0.11758419,0.26825222,-0.3192735,0.057170942,-0.024261663,-0.12511139,-0.6895301,-0.05746084,-9.749189,0.9612189,47.679718,-0.92238855,-1.881393,-3.619363,-0.064032786,-0.37002006,-0.34037116,27.25,28.4375,27.4375,31.0,32.75,33.5
0.30805194,-1.89808,0.2763691,-1.1586206,0.01912422,0.08247773,-0.15641922,-0.3956708,-0.327866,0.059902422,-3.075515,0.62125087,-0.00031264054,-0.1522761,0.0030835466,-0.00013449928,0.02591471,0.00266907,0.0072806827,0.42949975,-1.4297804,1.9617962,-2.0988376,-1.5736707,2.402574,-0.117563084,0.27132007,-0.3209507,0.05770335,-0.025539842,-0.12454728,-0.53630114,-0.095768064,-9.710882,0.9858343,47.689575,-1.1361278,-1.8398817,-3.5662346,-0.041338466,-0.37224555,-0.3507561,27.25,28.4375,27.4375,31.0,32.75,33.5
0.31005174,-1.7941564,0.443555,-0.99803805,0.01837702,0.088622905,-0.15583259,-0.3959591,-0.32784593,0.05987104,-3.0754385,0.621254,-0.00041389675,-0.15481177,0.0027991876,0.00087992486,0.025642125,0.00542365,0.0073506217,0.42923528,-1.4292051,1.9611844,-2.098706,-1.5736946,2.4023218,-0.11845196,0.27350858,-0.3259481,0.05788515,-0.026465336,-0.1254974,-0.7086837,-0.038307227,-9.691729,0.9231726,47.701214,-0.98943865,-2.0038443,-3.6163926,-0.005058946,-0.35597026,-0.3714017,27.25,28.4375,27.4375,31.0,32.75,33.5
0.31205237,-2.2865713,-0.020732872,-0.9573562,0.02204737,0.08304052,-0.15180321,-0.39627728,-0.3278661,0.059886876,-3.0754266,0.62113315,-0.00033445115,-0.15440741,0.003106384,0.00013307689,0.027219633,0.0035374092,0.012079028,0.42904335,-1.4286408,1.9604796,-2.0985858,-1.5737551,2.4020565,-0.118126385,0.2748289,-0.32616395,0.059128318,-0.027122693,-0.12989843,-0.6703765,-0.076614454,-9.576807,0.90527004,47.71286,-1.1504705,-2.029687,-3.6404104,0.003752395,-0.3422644,-0.34703508,27.25,28.4375,27.4375,31.0,32.75,33.5
0.31405222,-1.7478203,0.09838413,-0.97430986,0.016930083,0.08703535,-0.15182988,-0.39660493,-0.3278424,0.059906807,-3.075386,0.62106353,-0.00023094268,-0.15568104,0.0035675797,5.246244e-05,0.028141929,0.0010793171,0.016216664,0.42877883,-1.4281255,1.9598206,-2.0984647,-1.5738391,2.4017541,-0.12001752,0.27800274,-0.33058968,0.06296137,-0.026954792,-0.13592689,-0.4405331,-0.076614454,-9.595961,0.87393653,47.71465,-1.0589216,-2.0676837,-3.5637867,-0.002994189,-0.3273542,-0.3103236,27.25,28.4375,27.4375,31.0,32.75,33.5
0.3160522,-1.6747378,0.08712183,-0.82166016,0.0025420317,0.06729972,-0.15883979,-0.39693698,-0.32783577,0.059915323,-3.0753632,0.62097853,-0.00016044277,-0.15805548,0.0035670528,0.0016299336,0.027152639,0.00527452,0.021984786,0.42852643,-1.4275626,1.9591364,-2.0983574,-1.5738991,2.401452,-0.121307485,0.27782217,-0.33398348,0.062274054,-0.027825778,-0.14298043,-0.38307226,-0.019153614,-9.461885,0.947788,47.709274,-1.0858023,-1.9769721,-3.5102525,0.016199216,-0.3134067,-0.20854051,27.25,28.4375,27.4375,31.0,32.75,33.5
0.31805205,-1.3497629,-0.30045447,-0.56956077,0.005972762,0.06066244,-0.15174516,-0.39725038,-0.32782853,0.059907366,-3.0753274,0.62096703,-0.00014799272,-0.1587632,0.0048120883,0.0011804748,0.029981298,0.004262385,0.027831934,0.4282737,-1.4269993,1.9584917,-2.098261,-1.5739359,2.4011972,-0.122626126,0.27948084,-0.3353984,0.06409788,-0.029999528,-0.15013686,-0.51714754,0.076614454,-9.461885,0.92093146,47.71554,-0.93440413,-1.9046478,-3.5032358,0.036713406,-0.29780957,-0.1130088,27.25,28.4375,27.4375,31.0,32.75,33.5
0.32005188,-0.75109303,-0.080780335,-0.960756,0.027303007,0.042126574,-0.15850705,-0.39756414,-0.32780868,0.059897266,-3.0752468,0.62081677,-9.740211e-05,-0.16019207,0.006405778,0.0024304143,0.030845854,0.004775931,0.0268089,0.42804483,-1.4264244,1.9578327,-2.09814,-1.5740446,2.4008853,-0.12594663,0.2782061,-0.33774176,0.06758061,-0.031009786,-0.15242925,-0.4405331,0.15322891,-9.385271,0.9254084,47.72808,-0.9489892,-1.7601262,-3.5701895,0.021868862,-0.2593557,-0.06760176,27.25,28.4375,27.4375,31.0,32.75,33.5
0.32205167,-0.7578436,-0.018151812,-0.65624136,0.024101507,0.025100922,-0.14779873,-0.39792308,-0.32781014,0.059937764,-3.0752523,0.62081826,5.0011467e-06,-0.15810359,0.006280825,0.0018279831,0.0330855,0.0006151155,0.025797393,0.42776972,-1.4258734,1.9570793,-2.0979946,-1.5740803,2.400611,-0.123632364,0.27835593,-0.33769736,0.07210052,-0.031296365,-0.1491053,-0.21068975,0.038307227,-9.461885,0.9186956,47.72719,-0.9753219,-1.6068938,-3.6207416,-0.014638048,-0.24658409,-0.05248602,27.25,28.4375,27.4375,31.0,32.75,33.5
0.32405278,-0.5168937,0.09230396,-0.36809808,0.007945533,0.012342928,-0.15348412,-0.39825442,-0.3278048,0.059957113,-3.0752423,0.6206843,0.00011372291,-0.15830098,0.0067068352,0.0015107199,0.033950333,-0.002917895,0.019872217,0.42752925,-1.4253339,1.9563955,-2.0978858,-1.5741524,2.4002886,-0.12489364,0.28047875,-0.3404935,0.07634365,-0.030601049,-0.14444466,-0.3256114,0.05746084,-9.346964,0.8985519,47.71465,-0.948313,-1.6135681,-3.5999093,-0.048238333,-0.21423793,-0.0897775,27.25,28.4375,27.4375,31.0,32.75,33.5
0.32605174,-0.07187802,-0.07727674,-0.37018415,0.01284143,0.0100329425,-0.14949116,-0.39854363,-0.32778648,0.059932057,-3.0751538,0.6206888,1.934114e-05,-0.15926996,0.0067110322,0.0019041445,0.03465882,-0.0048389537,0.012967092,0.42727697,-1.4247583,1.9557608,-2.0977285,-1.5741881,2.4000509,-0.12568241,0.28284895,-0.34525487,0.08078569,-0.030452464,-0.13832434,-0.3256114,0.076614454,-9.174581,0.9791215,47.728977,-0.9486773,-1.5463741,-3.6061006,-0.09618969,-0.20448446,-0.13444,27.25,28.4375,27.4375,31.0,32.75,33.5
0.32805252,-0.26999182,0.0784061,-0.5605073,0.020533854,-0.0035402784,-0.15037751,-0.3988741,-0.32777002,0.0599387,-3.0750813,0.62063634,6.254166e-05,-0.15956523,0.006292542,0.002326055,0.035030197,-0.0063738567,0.008574607,0.42702523,-1.4241823,1.9550532,-2.097572,-1.574272,2.3997762,-0.12522747,0.28430158,-0.34886923,0.084496155,-0.030149573,-0.1334764,-0.13407528,-0.038307227,-9.212888,0.9791215,47.7245,-0.9711382,-1.600765,-3.4757545,-0.14130497,-0.17533182,-0.20933333,27.25,28.4375,27.4375,31.0,32.75,33.5
0.3300523,0.21212558,0.46502468,-0.52277845,0.019062331,0.0021736582,-0.16157752,-0.39921334,-0.32774597,0.0599514,-3.0750043,0.620664,6.518881e-05,-0.15980238,0.0066079507,0.0011684515,0.036648188,-0.010940029,0.00029293983,0.42673677,-1.423606,1.9543227,-2.097379,-1.5743316,2.3995154,-0.12613249,0.28852877,-0.35205984,0.0882957,-0.029722212,-0.12609912,0.05746084,-0.019153614,-9.289502,0.8873621,47.71554,-1.0284865,-1.7453003,-3.335863,-0.19903806,-0.17621487,-0.29809183,27.25,28.4375,27.4375,31.0,32.75,33.5
0.332052,-0.11747647,0.23032019,-0.53891027,0.023080926,-0.0095389765,-0.15479545,-0.3995335,-0.3277394,0.059969127,-3.0749516,0.620673,0.000112859496,-0.16063526,0.0065373937,9.7279415e-05,0.03798643,-0.014288119,-0.0028457479,0.42649668,-1.4230647,1.9536284,-2.097222,-1.5743917,2.3992882,-0.12667446,0.29355767,-0.3560865,0.09089013,-0.029557927,-0.12350097,0.076614454,0.15322891,-9.232041,1.0104496,47.729877,-0.9546487,-1.9215947,-3.3034525,-0.25343117,-0.1414639,-0.35844204,27.25,28.4375,27.4375,31.0,32.75,33.5
0.3340519,0.033822604,-0.34530798,-0.5401551,0.02238443,0.00096635474,-0.1402954,-0.3998531,-0.32772368,0.059977308,-3.0749009,0.6205862,9.1581824e-05,-0.1603123,0.0064430186,0.00095501094,0.03734841,-0.013418665,-0.0051801526,0.426233,-1.4225008,1.9529222,-2.0970304,-1.5744399,2.3989773,-0.12623502,0.2913993,-0.35595393,0.09185699,-0.029340187,-0.12072752,-0.095768064,0.24899697,-9.11712,0.8784135,47.7254,-1.0479413,-1.8374796,-3.3975348,-0.28065902,-0.13283442,-0.44944245,27.25,28.4375,27.4375,31.0,32.75,33.5
0.33605173,-0.115088634,-0.60100365,-0.83252656,0.0025469288,-0.00022699304,-0.15934697,-0.40016696,-0.32769212,0.059963726,-3.074753,0.62065023,2.4993753e-05,-0.15989141,0.0069192476,-0.0013143618,0.03833558,-0.017244445,-0.0043432447,0.42596868,-1.4218991,1.952217,-2.0968158,-1.5745238,2.3987725,-0.12704384,0.29504862,-0.35491276,0.09103193,-0.028683398,-0.12237302,-0.038307227,0.3256114,-9.308657,0.97464454,47.752266,-1.0163152,-1.8066666,-3.578308,-0.30466896,-0.12193622,-0.48662135,27.25,28.4375,27.4375,31.0,32.75,33.5
0.33805257,-0.6915114,-1.6412293,-0.889315,-0.03383139,0.0072858334,-0.14795426,-0.40050644,-0.32768312,0.059987903,-3.0747008,0.6206162,8.530318e-05,-0.16220912,0.006568926,-0.00041714055,0.036335517,-0.013220379,0.0010049978,0.4257164,-1.4213344,1.9514755,-2.096637,-1.5745953,2.3985062,-0.12826805,0.29582092,-0.3573568,0.088170506,-0.0285623,-0.12894449,0.095768064,0.38307226,-9.423578,0.90750587,47.746887,-1.0811961,-1.6821009,-3.6551974,-0.3133643,-0.12347092,-0.48288453,27.25,28.4375,27.4375,31.0,32.75,33.5
0.34005237,-0.7076979,-2.3377028,-0.69324875,-0.07885401,0.030775346,-0.15948707,-0.40082115,-0.32766527,0.059966773,-3.074577,0.62060314,3.6262696e-05,-0.16242546,0.0053854845,-0.00034669737,0.035194557,-0.012291223,0.0123921875,0.42547682,-1.4207098,1.9507688,-2.0964577,-1.5746793,2.398275,-0.12655523,0.29690427,-0.35867378,0.087028,-0.02795927,-0.13861826,-0.019153614,0.38307226,-9.442732,0.94331104,47.723602,-1.0290413,-1.6626606,-3.6731727,-0.3286443,-0.07726802,-0.40690905,27.25,28.4375,27.4375,31.0,32.75,33.5
0.34205222,-1.3104782,-2.7925055,-0.83329064,-0.09365227,0.028440865,-0.14823693,-0.40112942,-0.3276275,0.059964303,-3.0744858,0.620447,-3.7469064e-05,-0.16759972,0.0054857954,0.0019698285,0.030308533,-0.0030472644,0.017579213,0.42519897,-1.4201452,1.9500746,-2.0962207,-1.5747513,2.3979118,-0.13124746,0.29665756,-0.3623663,0.08047051,-0.027396446,-0.14849457,-0.019153614,0.45968673,-9.423578,0.9791215,47.71554,-0.86286765,-1.5690646,-3.6410341,-0.2814039,-0.08285607,-0.30287072,27.25,28.4375,27.4375,31.0,32.75,33.5
0.34405187,-1.2037909,-2.660504,-1.0863655,-0.101565,0.041326918,-0.15748152,-0.40146527,-0.32763427,0.059965763,-3.0744727,0.62041867,-2.0714428e-05,-0.16913813,0.0036010435,0.0032451465,0.027010838,0.0015935425,0.026899727,0.42494795,-1.4195446,1.9493564,-2.096102,-1.5747746,2.3976452,-0.12962985,0.29695117,-0.3650613,0.07723847,-0.026345938,-0.15620068,0.0,0.51714754,-9.672575,0.97240865,47.686886,-1.0689582,-1.419195,-3.6617513,-0.23157333,-0.07538593,-0.19752079,27.25,28.4375,27.4375,31.0,32.75,33.5
0.34605187,-1.1846182,-2.6804848,-0.8422746,-0.087548316,0.04984326,-0.15672496,-0.40181494,-0.3276266,0.059994794,-3.0744584,0.62035894,7.752855e-05,-0.17254654,0.0030070317,0.0037847003,0.024415096,0.004773616,0.027124777,0.42468306,-1.418991,1.9486235,-2.0959594,-1.5748342,2.3973453,-0.13188569,0.30059004,-0.3700171,0.07455821,-0.02531221,-0.15868405,-0.05746084,0.5363012,-9.615114,0.9097417,47.7254,-0.9120505,-1.3696339,-3.4208055,-0.22019148,-0.097005785,-0.13698259,27.25,28.4375,27.4375,31.0,32.75,33.5
0.34805256,-0.54928744,-1.9160393,-1.3505708,-0.056017794,0.046984028,-0.15181622,-0.4021711,-0.32764605,0.06000975,-3.0745065,0.6201767,0.00012653846,-0.17412987,0.0016941173,0.0027531474,0.02212255,0.0061101275,0.025054097,0.42443117,-1.4183762,1.9478577,-2.0958416,-1.5748457,2.3969738,-0.1316478,0.30502698,-0.37184727,0.06978589,-0.02377788,-0.15638098,-0.114921674,0.5554548,-9.710882,0.9701675,47.703007,-0.88718617,-1.7032456,-3.3919377,-0.1218961,-0.08683553,-0.13634524,27.25,28.4375,27.4375,31.0,32.75,33.5
0.3500523,-1.4851832,-1.6744068,-1.4836991,-0.026130019,0.011811852,-0.1375645,-0.40253627,-0.32764533,0.060042493,-3.0744667,0.62022924,0.00021875167,-0.17396742,0.0018465887,0.0011829444,0.021837423,0.0029539391,0.018946866,0.42416674,-1.4177872,1.9470695,-2.0956743,-1.5749053,2.3967478,-0.13264976,0.3078814,-0.3716333,0.06947766,-0.022200447,-0.15128335,-0.4213795,0.5554548,-9.825804,0.900793,47.666286,-0.94712925,-1.7604041,-3.5925255,-0.10836017,-0.10848403,-0.16824326,27.25,28.4375,27.4375,31.0,32.75,33.5
0.35205215,-0.9707057,-1.4873312,-1.3304964,-0.046620235,0.041863754,-0.15362355,-0.40287504,-0.32763773,0.060033448,-3.0744293,0.6201075,0.00020834258,-0.17323661,0.00019552972,0.00043116877,0.021375284,0.0014344176,0.014722971,0.42390415,-1.4171613,1.9463395,-2.0955303,-1.574953,2.3964145,-0.12958556,0.31044206,-0.37305495,0.06954882,-0.021143328,-0.14399834,-0.3256114,0.4213795,-9.749189,0.9925471,47.7254,-1.1560738,-1.8077686,-3.7261255,-0.08357148,-0.114316255,-0.27027556,27.25,28.4375,27.4375,31.0,32.75,33.5
0.35405207,-1.5774517,-2.110785,-0.8452191,-0.053607803,0.045406938,-0.14500685,-0.4032211,-0.32763645,0.060032498,-3.0743957,0.62012166,0.00023308417,-0.17327483,0.0007927073,-0.000614189,0.022561138,-0.0012866276,0.011807088,0.42363968,-1.4165472,1.9456095,-2.0954106,-1.5749887,2.3961637,-0.13057262,0.31273478,-0.3737972,0.070964366,-0.021101031,-0.14206955,-0.19153613,0.3256114,-9.672575,0.9186956,47.682407,-1.0445285,-1.863475,-3.8380194,-0.072050795,-0.1328549,-0.32305488,27.25,28.4375,27.4375,31.0,32.75,33.5
0.35605186,-1.4443239,-1.5993506,-0.69164366,-0.06185787,0.05391312,-0.1472123,-0.40355182,-0.3276195,0.06002859,-3.074328,0.6200685,0.0002212205,-0.17438473,0.0011547504,-0.0006564196,0.022739744,-0.0017918434,0.009811312,0.42337543,-1.415947,1.9448909,-2.0952423,-1.5750488,2.3958755,-0.1320131,0.31454,-0.3762054,0.07209003,-0.021067176,-0.14151254,-0.2681506,0.4405331,-9.595961,1.0283576,47.686886,-1.1221049,-1.8034464,-3.7752604,-0.049339682,-0.12463625,-0.33167422,27.25,28.4375,27.4375,31.0,32.75,33.5
0.35805187,-1.6711143,-1.5702952,-0.6198796,-0.03781993,0.04276259,-0.14384139,-0.40391985,-0.32765153,0.06005573,-3.0744045,0.619949,0.00029556986,-0.17632297,0.00073263125,0.00064352265,0.021316128,0.00031620965,0.010106886,0.4231231,-1.4153345,1.9441003,-2.095134,-1.5750369,2.395539,-0.1329544,0.31535167,-0.38051468,0.07307074,-0.020638352,-0.14275114,-0.21068975,0.30645782,-9.461885,0.9791215,47.679718,-1.1227578,-1.6588713,-3.720789,-0.030476123,-0.11967611,-0.35899413,27.25,28.4375,27.4375,31.0,32.75,33.5
0.36005247,-0.6909038,-0.36451495,-0.6894185,-0.010527451,0.036142286,-0.15775484,-0.40427673,-0.327648,0.060049586,-3.074346,0.6200147,0.0002894859,-0.17905402,6.4018546e-05,0.0016906845,0.019992338,0.0026955379,0.0083821,0.4228466,-1.4146838,1.9433335,-2.09499,-1.5750726,2.3953116,-0.13395952,0.31814742,-0.38640308,0.0734425,-0.020423677,-0.14202909,-0.11492168,0.11492168,-9.423578,0.947788,47.694946,-1.0444522,-1.7802294,-3.5886176,-0.009066302,-0.1274419,-0.38410613,27.25,28.4375,27.4375,31.0,32.75,33.5
0.36205232,-0.33409148,0.02243333,-0.55568784,0.029710442,0.025198458,-0.16273783,-0.40463775,-0.32766837,0.06007284,-3.0743673,0.6199194,0.00041722957,-0.1790664,0.0009275551,0.0010963887,0.022060575,-0.0014304789,0.013784545,0.4226182,-1.4140831,1.9425672,-2.0948927,-1.5751208,2.3950214,-0.13524912,0.3204219,-0.38892812,0.07826389,-0.020623066,-0.14872144,-0.38307226,0.19153613,-9.404425,0.947788,47.711964,-1.0125242,-1.7390201,-3.530592,-0.026810218,-0.15463442,-0.3231429,27.25,28.4375,27.4375,31.0,32.75,33.5
0.36405215,-1.6541677,-0.069163404,-0.53192985,0.041922167,0.0010399786,-0.14679414,-0.40500152,-0.32767203,0.060083307,-3.07435,0.6198332,0.00040132,-0.1797875,0.0011085916,0.001025494,0.022455182,-0.002647965,0.021822227,0.42234203,-1.4134341,1.9417528,-2.0947006,-1.5751446,2.394694,-0.13606627,0.3222372,-0.3914972,0.080240756,-0.020517765,-0.1575756,-0.30645782,0.1340753,-9.251195,0.95226496,47.705692,-1.0718694,-1.6359744,-3.4862828,-0.008980279,-0.15032418,-0.26539293,27.25,28.4375,27.4375,31.0,32.75,33.5
0.36605203,-1.0969061,0.28223434,-0.4834789,0.035258286,0.026325818,-0.15833324,-0.40536383,-0.32765788,0.06009001,-3.0742857,0.61977637,0.00042554777,-0.17795976,0.0020441632,0.00036053822,0.025270108,-0.009650241,0.02945578,0.4220659,-1.4127975,1.9409631,-2.094518,-1.5752162,2.3943913,-0.13628112,0.32289305,-0.39274883,0.088323936,-0.020232357,-0.16542597,-0.28730422,0.15322891,-9.212888,0.9835985,47.707485,-1.0055912,-1.5748533,-3.5856194,-0.04744894,-0.16355509,-0.15121976,27.25,28.4375,27.4375,31.0,32.75,33.5
0.36805168,-1.6811494,-0.22773086,-0.20139518,0.027406815,0.028542276,-0.14562231,-0.40571746,-0.3276523,0.060087986,-3.0742638,0.61965424,0.0004184747,-0.17654511,0.0024699562,-0.0006320522,0.028033068,-0.014994354,0.03403321,0.4217903,-1.4121597,1.9401973,-2.094361,-1.5752529,2.3940427,-0.13551135,0.3246432,-0.39390406,0.09370843,-0.020576872,-0.16923213,-0.5363012,0.038307227,-9.232042,0.9947882,47.692257,-1.0378618,-1.5254393,-3.527924,-0.14677751,-0.1738652,-0.078929216,27.25,28.4375,27.4375,31.0,32.75,33.5
0.37005255,-1.6701757,-0.35228038,-0.045965362,0.01792324,0.046001233,-0.15284656,-0.40609077,-0.32766604,0.06012654,-3.0742822,0.61948687,0.00044385326,-0.17643306,0.003924663,-0.002111667,0.031110847,-0.020457745,0.030227434,0.42152554,-1.4115342,1.9393362,-2.0941312,-1.5752767,2.3936715,-0.1375172,0.32804036,-0.39566636,0.09831952,-0.021143425,-0.1674296,-0.61291564,-0.038307227,-9.11712,0.99031126,47.71554,-0.9159272,-1.6991603,-3.6259022,-0.20392394,-0.18085772,-0.04698612,27.25,28.4375,27.4375,31.0,32.75,33.5
0.3720524,-1.9956778,-0.43107864,0.16942446,0.025660135,0.04221165,-0.1479649,-0.40646148,-0.327667,0.060125012,-3.0742857,0.61943454,0.0004223048,-0.17796583,0.004637601,-0.001902782,0.031611707,-0.021592353,0.021452086,0.4212249,-1.4108734,1.9385446,-2.0939867,-1.5752767,2.3933382,-0.13988458,0.3302128,-0.3995189,0.101263836,-0.021130798,-0.16102006,-0.4405331,-0.1340753,-8.983045,0.95002913,47.7254,-1.1285713,-1.657486,-3.6248808,-0.22835468,-0.16566208,-0.074073516,27.25,28.4375,27.4375,31.0,32.75,33.5
0.3740523,-0.72810966,0.56507903,0.3632658,0.024898041,0.059559915,-0.1613008,-0.40685058,-0.32765603,0.060143575,-3.0741968,0.61947584,0.00050184753,-0.1792482,0.0030569534,-0.0016369945,0.031493153,-0.020740958,0.016581746,0.42094964,-1.4102107,1.9376944,-2.0937955,-1.5753726,2.3931007,-0.13775213,0.33396044,-0.40482342,0.102008596,-0.021368904,-0.15401354,-0.40222588,-0.095768064,-8.925584,0.95897776,47.721813,-1.1236649,-1.8180544,-3.4550858,-0.2751081,-0.1864797,-0.16710086,27.25,28.4375,27.4375,31.0,32.75,33.5
0.37605226,-1.0324638,0.1263624,0.20264119,0.05448979,0.029603846,-0.14890881,-0.40717116,-0.32763442,0.060117923,-3.0741026,0.6194021,0.00036040632,-0.18136597,0.0025196774,-0.0003082252,0.030353868,-0.016597087,0.010452783,0.4206733,-1.4095619,1.9369525,-2.093568,-1.5754093,2.392791,-0.13791546,0.33442998,-0.40833366,0.10082138,-0.022042457,-0.14804043,-0.4213795,-0.095768064,-9.002198,0.95226496,47.737934,-1.0920308,-1.6876544,-3.4048398,-0.27732873,-0.18527713,-0.24755678,27.25,28.4375,27.4375,31.0,32.75,33.5
