Tylouw/Master_Thesis_Code/training_data/batch_1/big_rod_t0.2/sample_17_session_1.csv
timestamp[s],tcp_force_x[N],tcp_force_y[N],tcp_force_z[N],tcp_force_rx[Nm?],tcp_force_ry[Nm?],tcp_force_rz[Nm?],tcp_pose_x[m],tcp_pose_y[m],tcp_pose_z[m],tcp_pose_rx[rot_vec_x],tcp_pose_ry[rot_vec_y],tcp_pose_rz[rot_vec_z],tcp_velo_x[m/s],tcp_velo_y[m/s],tcp_velo_z[m/s],tcp_velo_rx[rot_vec_x/s],tcp_velo_ry[rot_vec_y/s],tcp_velo_rz[rot_vec_z/s],q1[rad],q2[rad],q3[rad],q4[rad],q5[rad],q6[rad],qd1[rad/s],qd2[rad/s],qd3[rad/s],qd4[rad/s],qd5[rad/s],qd6[rad/s],tool_acc_x,tool_acc_y,tool_acc_z,current_of_whole_robot[A],voltage_of_whole_robot[V],current_J1[A],current_J2[A],current_J3[A],current_J4[A],current_J5[A],current_J6[A],temp_J1[C],temp_J2[C],temp_J3[C],temp_J4[C],temp_J5[C],temp_J6[C]
6.5396307e-07,-0.6329366,-0.65519816,0.3807042,-0.0052347393,0.007209077,-0.015437881,-0.37289414,-0.32821843,0.05995964,-3.0784748,0.62490326,-0.00028281857,0.003617061,0.0017318672,-0.00495648,0.004742701,-0.010175236,2.3107357e-05,0.4481382,-1.4708729,2.009538,-2.107643,-1.5706614,2.4230795,-6.894615e-05,0.0042750365,0.0065927505,0.00035711966,0.00014917634,-9.571651e-05,0.05746084,0.22984336,-9.040505,0.78217715,47.686886,-0.12068279,-2.928516,-2.5566978,-0.4908771,0.108155645,-0.106588304,26.25,27.0625,26.25,29.3125,30.4375,30.875
0.002052822,-0.16423419,-0.102696665,0.44257072,-0.013291057,0.013714455,-0.022333395,-0.37289974,-0.32821262,0.059954952,-3.0785007,0.6249089,-0.00025892098,0.0002978268,0.00012688579,-0.0038436938,9.934111e-05,-0.00056688156,2.6452006e-05,0.44811413,-1.4708848,2.0095737,-2.1076949,-1.5706495,2.4230556,-6.790582e-05,0.004710233,0.005954087,-0.010110918,0.00014572538,-9.446062e-05,0.05746084,0.19153614,-8.925584,0.7709874,47.711964,-0.11980912,-2.7818432,-2.4742749,-0.46165672,0.1083938,-0.10044923,26.25,27.0625,26.25,29.3125,30.4375,30.875
0.004051929,-0.26998845,-0.008547054,0.34645265,-0.0001503207,0.01173577,-0.020577604,-0.3729007,-0.328228,0.05995164,-3.0785148,0.624834,-0.00023030346,-0.0009743618,-0.00048780756,-0.0028718973,-0.001604147,0.0029662715,2.7565553e-05,0.44815025,-1.4708611,2.0095608,-2.1077197,-1.5706614,2.4230433,-6.689635e-05,0.0042489707,0.004746584,-0.012364532,0.0001424309,-9.323746e-05,0.11492168,0.095768064,-8.944737,0.73069996,47.711063,-0.05739138,-3.0279183,-2.5715828,-0.37233242,0.11057769,-0.11746126,26.25,27.0625,26.25,29.3125,30.4375,30.875
0.006051957,0.44352695,0.50138986,0.4066619,0.021621369,0.008621918,-0.031917226,-0.37290087,-0.32820866,0.059921023,-3.0784504,0.62486,-0.00025625914,-0.00068643846,-0.00034769689,-0.0019172862,-0.0011221218,0.001984311,2.6923957e-05,0.4481382,-1.4708136,2.0095842,-2.107742,-1.5706977,2.4230556,-6.591642e-05,0.0029089076,0.0030951346,-0.008279149,0.00013928178,-9.204558e-05,0.05746084,0.095768064,-8.983045,0.69041777,47.701214,-0.047227602,-2.9830985,-2.4717078,-0.37742078,0.1121075,-0.113125294,26.25,27.0625,26.25,29.3125,30.4375,30.875
0.008051999,0.5856514,1.4843044,0.09815816,0.034521542,-0.017941559,-0.024062606,-0.37289396,-0.32822055,0.059917334,-3.0784853,0.6249247,-0.00031490758,3.748451e-05,3.1839404e-06,-0.0014860762,-3.057526e-05,-0.00026109183,2.5884427e-05,0.44812617,-1.470814,2.0095952,-2.1077516,-1.5706376,2.4230795,-6.4964814e-05,0.002015038,0.0020815858,-0.003875068,0.00013626921,-9.088366e-05,-0.019153614,-0.05746084,-9.002198,0.7530795,47.692257,-0.06118177,-2.8879602,-2.4665122,-0.42206502,0.112449445,-0.11060946,26.25,27.0625,26.25,29.3125,30.4375,30.875
0.010051798,0.7933114,1.541134,-0.38550228,0.037492186,-0.013552505,-0.027145874,-0.3728922,-0.32821086,0.059897102,-3.0784276,0.62489337,-0.0002888282,0.00033316787,0.00014680703,-0.0013085487,0.0004285681,-0.0012019572,2.5344125e-05,0.44815025,-1.4707781,2.0096076,-2.107775,-1.5706977,2.4230914,-6.40403e-05,0.00166411,0.0016394915,-0.0020351387,0.00013338395,-8.975081e-05,0.0,0.019153614,-9.212888,0.74413085,47.685097,-0.45243776,-2.2560987,-3.1028795,-0.4592032,0.09586671,-0.18562824,26.25,27.0625,26.25,29.3125,30.4375,30.875
0.012051874,0.4974328,0.73875725,-0.43962505,0.01341237,0.0067692106,-0.04006271,-0.37285396,-0.3282012,0.059864696,-3.078413,0.6248719,-0.0004831794,0.00041895756,0.00022430785,-0.00412575,0.0031452337,-0.0068509444,-1.3722059e-05,0.44812614,-1.4707633,2.0096548,-2.1077273,-1.5706376,2.4230556,-0.00013516204,0.008858264,6.011261e-05,-0.0013816224,0.00013061841,-0.00011991464,0.095768064,0.19153613,-9.32781,0.6971306,47.71554,-0.56587195,-2.463892,-3.2051075,-0.46421814,0.09977141,-0.20999953,26.25,27.0625,26.25,29.3125,30.4375,30.875
0.014051895,-0.5587853,-0.33887058,-0.7709646,-0.012860759,0.013768589,-0.029931191,-0.3728831,-0.32820287,0.059884384,-3.0784051,0.62483203,-0.00039021857,-0.0058796005,0.0011022422,-0.0034093785,0.002215754,-0.004963463,-0.001816152,0.44813538,-1.470749,2.0095913,-2.1077158,-1.5706857,2.423041,-0.0075228517,0.016261619,-0.00977756,-0.0010521698,0.00012796503,-0.0056981687,-0.05746084,0.24899697,-9.500193,0.7463667,47.74241,-0.49094972,-2.7533207,-2.8999014,-0.4674432,0.10724905,-0.20446861,26.25,27.0625,26.25,29.3125,30.4375,30.875
0.016051708,-1.4738514,-1.3671924,-0.9369105,-0.03583608,0.03652046,-0.027184654,-0.3728739,-0.32819152,0.059861317,-3.0783546,0.6248204,-0.0004975101,-0.0062038843,0.0023601071,-0.004092735,0.0030159822,-0.0066238237,0.00071674347,0.4481224,-1.470701,2.0095804,-2.1076672,-1.5706857,2.4230273,-0.010182641,0.01690188,-0.00901297,-0.0006148104,0.00012541744,-0.010891349,-0.19153613,0.24899697,-9.653421,0.7150385,47.70211,-0.16405645,-2.7293496,-3.1594172,-0.47138837,0.1161706,-0.1776738,26.25,27.0625,26.25,29.3125,30.4375,30.875
0.018052336,-2.0366814,-2.0896704,-0.86286265,-0.055051494,0.076248474,-0.03221394,-0.3728829,-0.32819867,0.05988362,-3.0783985,0.62484694,-0.00046108197,-0.0051407465,0.0019187675,-0.0042114616,0.0034265963,-0.0074660857,0.0041886363,0.4481112,-1.4707371,2.009569,-2.1076672,-1.5706614,2.423027,-0.0083828075,0.016441649,-0.008419168,0.00018864372,0.00012296975,-0.012564064,-0.34476504,0.3256114,-9.844957,0.71951014,47.723602,-0.40871114,-2.4412022,-3.456336,-0.47821522,0.10948278,-0.14999662,26.25,27.0625,26.25,29.3125,30.4375,30.875
0.020052487,-2.5763657,-1.8625783,-0.7488012,-0.073217146,0.092817865,-0.04480988,-0.37287736,-0.3281937,0.05984764,-3.0783339,0.624814,-0.0005424024,-0.006345869,0.001296298,-0.0040958123,0.0032913918,-0.0072265286,0.004896497,0.44812328,-1.4706522,2.0095556,-2.1076553,-1.5706857,2.4230268,-0.008318319,0.019169345,-0.011752134,0.00051896024,0.00013340029,-0.01320513,-0.5554548,0.45968673,-9.864111,0.77545905,47.71554,-0.62658674,-2.4582274,-3.4821835,-0.48435557,0.106163725,-0.17599505,26.25,27.0625,26.25,29.3125,30.4375,30.875
0.022052223,-2.5069873,-1.2692074,-0.87154746,-0.052140653,0.096345976,-0.05589359,-0.37288147,-0.32820427,0.05983206,-3.0783634,0.6247625,-0.0006601055,-0.0077947816,0.0013261292,-0.00411946,0.003229483,-0.007117382,0.0046588057,0.4480987,-1.4705915,2.0095193,-2.1076314,-1.5706257,2.4229662,-0.009695628,0.021598853,-0.014380539,0.000593312,0.00013496609,-0.014342815,-0.63206923,0.4213795,-9.80665,0.7284641,47.686886,-0.6577582,-2.4345531,-3.364575,-0.4971454,0.09753047,-0.1807884,26.25,27.0625,26.25,29.3125,30.4375,30.875
0.024052028,-1.5904013,-0.7320937,-1.0168899,-0.03252304,0.08735595,-0.089799695,-0.3729207,-0.3281909,0.059838973,-3.078361,0.62474257,-0.00058040506,-0.0092704715,0.0019273841,-0.0036355618,0.0026998462,-0.005975982,0.003358516,0.44806206,-1.4705676,2.0094826,-2.1076553,-1.5706614,2.4229176,-0.012154388,0.021859113,-0.015739981,0.00043370028,0.00011416694,-0.015500333,-0.6512229,0.4213795,-9.864111,0.7284641,47.703007,-0.65464735,-2.44423,-3.4064062,-0.4928392,0.11055702,-0.19113499,26.25,27.0625,26.25,29.3125,30.4375,30.875
0.026052225,-1.2667816,-0.9787132,-0.88594973,-0.015055949,0.06984175,-0.09055472,-0.37293276,-0.32818174,0.05980575,-3.0783205,0.62481135,-0.00066551653,-0.010015033,0.0018833926,-0.0027763993,0.0018636413,-0.0042614336,0.0036888935,0.4480257,-1.4704839,2.0094697,-2.1076672,-1.5706495,2.4229293,-0.0127527015,0.02094614,-0.01670276,0.00040191936,0.00012126141,-0.016428607,-0.63206923,0.30645782,-9.844957,0.6948948,47.66539,-0.6987827,-2.3222961,-3.4506378,-0.4928138,0.10939391,-0.19091265,26.25,27.0625,26.25,29.3125,30.4375,30.875
0.028052282,-1.3945056,-0.63461083,-0.825793,-0.023555106,0.054864913,-0.110566884,-0.37294772,-0.32818863,0.05981851,-3.0783348,0.62477636,-0.0006509103,-0.011802484,0.0020049373,-0.0024377643,0.0014091356,-0.0033588966,0.0031564578,0.44802502,-1.4704713,2.009421,-2.107643,-1.5706495,2.422905,-0.0146167,0.02281497,-0.01951435,0.0003340908,0.00013318095,-0.017758187,-0.6703765,0.22984336,-9.749189,0.7597976,47.694054,-0.7224754,-2.3161044,-3.3952167,-0.4897321,0.09633578,-0.19872245,26.25,27.0625,26.25,29.3125,30.4375,30.875
0.030051963,-1.0437388,-0.20753218,-0.5625407,-0.021969682,0.06909616,-0.124968834,-0.3729504,-0.32818758,0.0598037,-3.0783234,0.6247363,-0.00072193274,-0.013037733,0.0020519802,-0.0024760466,0.0013319019,-0.0032286039,0.0030828055,0.44801253,-1.4704227,2.0093963,-2.107619,-1.5706376,2.422869,-0.015834976,0.024849802,-0.021647928,0.00028197936,0.00014004481,-0.018901214,-0.59376204,0.19153613,-9.634268,0.7463667,47.696735,-0.7510346,-2.3236656,-3.4514651,-0.48163235,0.11772526,-0.18598405,26.25,27.0625,26.25,29.3125,30.4375,30.875
0.032051735,-1.5005041,-0.08436279,-0.41525826,-0.004895004,0.06769914,-0.14133456,-0.37303188,-0.3281886,0.05980479,-3.0783794,0.62486297,-0.00064995175,-0.014244918,0.002305166,-0.0023706176,0.0011405848,-0.0028729832,0.0016366334,0.44791603,-1.4703385,2.0093234,-2.1077154,-1.5706018,2.4228444,-0.017416699,0.02618004,-0.023342656,0.00024370034,0.00015598189,-0.019035548,-0.61291564,0.038307227,-9.576807,0.7083204,47.709274,-0.70580304,-2.3274455,-3.3674998,-0.48402902,0.10634197,-0.17322674,26.25,27.0625,26.25,29.3125,30.4375,30.875
0.034051847,-1.3391341,0.17615944,-0.3694989,0.012299814,0.07440916,-0.15604945,-0.37305763,-0.32818004,0.059794042,-3.0783434,0.62483704,-0.0006733613,-0.015245416,0.0016114415,-0.0017148287,-0.00018430382,-0.0017270754,0.0006948963,0.44789228,-1.4702663,2.0092633,-2.107691,-1.5706252,2.4228091,-0.017490707,0.02701521,-0.02575818,0.00021457644,0.0008485304,-0.018167691,-0.47884035,-0.038307227,-9.500193,0.7620334,47.696735,-0.6887428,-2.2926493,-3.3697817,-0.4738353,0.09127855,-0.18646428,26.25,27.0625,26.25,29.3125,30.4375,30.875
0.0360521,-0.8485871,0.9859959,-0.22333208,0.025584556,0.072203204,-0.17821182,-0.3730728,-0.32818303,0.05978295,-3.0783587,0.62482226,-0.00071067974,-0.01667166,0.0013449133,-0.0005700842,-0.0014790496,0.00056000194,-0.0007117741,0.44786793,-1.4702185,2.009239,-2.107703,-1.5706013,2.4227736,-0.018401638,0.026790613,-0.028133001,0.00019168135,0.0010201561,-0.01767093,-0.38307226,-0.05746084,-9.442732,0.77545905,47.682407,-0.6605053,-2.2419322,-3.2699325,-0.4709164,0.10084677,-0.19926468,26.25,27.0625,26.25,29.3125,30.4375,30.875
0.038052104,-0.34844717,0.7889376,-0.5361648,0.051286943,0.06316021,-0.18361267,-0.37310636,-0.32816902,0.05977396,-3.078312,0.6247932,-0.0006939483,-0.017848084,0.0013684732,-5.492697e-05,-0.002228028,0.0015850711,-0.001188823,0.4478433,-1.4701465,2.009178,-2.107691,-1.570649,2.422737,-0.019668043,0.02732858,-0.029902548,0.00017320766,0.0012467066,-0.018459644,-0.2681506,0.019153614,-9.519346,0.75084364,47.694054,-0.69598794,-2.175945,-3.329327,-0.46259403,0.09426054,-0.1928516,26.25,27.0625,26.25,29.3125,30.4375,30.875
0.04005229,-0.51158756,1.1527371,-0.47288212,0.040240347,0.033220682,-0.17434816,-0.37316972,-0.32818693,0.059803255,-3.078375,0.6248442,-0.0006382282,-0.018868405,0.0010814458,-5.4581054e-05,-0.0024278176,0.0017272744,-0.0005262905,0.44779512,-1.4700978,2.0090573,-2.107691,-1.5706133,2.4227126,-0.020131085,0.029391572,-0.032164816,0.00015798658,0.0013611721,-0.019583678,-0.15322891,-0.095768064,-9.500193,0.7016076,47.686886,-0.6850388,-2.1605756,-3.2992105,-0.45216155,0.089239135,-0.18739197,26.25,27.0625,26.25,29.3125,30.4375,30.875
0.042052254,-0.116664074,0.44268745,-0.61368585,0.03675746,0.02101612,-0.17007741,-0.3732179,-0.32817185,0.059807315,-3.0783575,0.624859,-0.0005752195,-0.019931724,0.0011764526,-0.00026747244,-0.0021185353,0.0015831626,-0.0006257687,0.4477471,-1.4700491,2.0089972,-2.107703,-1.570649,2.422676,-0.02112567,0.03157989,-0.034076534,0.00014522667,0.0011407594,-0.020476809,-0.1340753,-0.15322891,-9.461885,0.7665104,47.681515,-0.63060915,-2.2597356,-3.324924,-0.44450542,0.09927885,-0.16050169,26.25,27.0625,26.25,29.3125,30.4375,30.875
0.044052273,-0.345176,0.099869944,-0.45604002,0.014138248,0.013151022,-0.15459256,-0.373263,-0.328161,0.05980467,-3.0783334,0.62483615,-0.00053969986,-0.021278081,0.0012876112,0.00040302073,-0.0026319907,0.0030948322,-0.0010814581,0.44771028,-1.469977,2.0089242,-2.107703,-1.5706853,2.4226282,-0.022423135,0.031959936,-0.03603083,0.00013437589,0.0009446641,-0.021316953,-0.17238252,-0.076614454,-9.500193,0.75084364,47.70659,-0.6351781,-2.201097,-3.3241029,-0.4246676,0.1076819,-0.170098,26.25,27.0625,26.25,29.3125,30.4375,30.875
0.046052556,0.03762942,-0.39102262,-0.6129214,-0.0028918304,0.031673368,-0.16066615,-0.37328213,-0.32816404,0.059782315,-3.07833,0.62481564,-0.00064981246,-0.02213368,0.001383837,0.0005786755,-0.0027069286,0.0035657554,-0.00082208915,0.44767398,-1.469881,2.0088646,-2.1076791,-1.570649,2.4225795,-0.023284756,0.032823727,-0.037395075,0.0001790326,0.00080372643,-0.02243677,-0.095768064,0.11492168,-9.519346,0.7486078,47.687782,-0.65688723,-2.1245062,-3.3288574,-0.42943528,0.097520545,-0.16710761,26.25,27.0625,26.25,29.3125,30.4375,30.875
0.048052892,0.111598335,-0.60353786,-0.6680273,-0.018990016,0.03339066,-0.16102712,-0.37335142,-0.32814583,0.059810646,-3.078333,0.62491256,-0.0005091904,-0.023041507,0.0014765951,0.000960461,-0.0029976566,0.004409745,-0.0005808085,0.44760162,-1.4698688,2.0087917,-2.107703,-1.5706857,2.4225674,-0.024208501,0.0332519,-0.038749304,0.00021782322,0.0006993332,-0.02360065,-0.05746084,0.21068975,-9.5385,0.7620334,47.672558,-0.6217967,-2.1195788,-3.347464,-0.42730346,0.11543032,-0.14562799,26.25,27.0625,26.25,29.3125,30.4375,30.875
0.050052416,-0.48803532,-1.0224148,-0.75742674,-0.016476667,0.023603894,-0.15038699,-0.37338504,-0.32816243,0.059817515,-3.078376,0.62488246,-0.00052832393,-0.024199488,0.0014304764,0.0014675694,-0.0034696516,0.0055685854,-0.00027109002,0.44757771,-1.4698087,2.0087073,-2.107691,-1.5706495,2.4225192,-0.025117153,0.033937927,-0.040662035,0.00019655262,0.00061897375,-0.024817593,-0.095768064,0.2681506,-9.481039,0.7418897,47.703903,-0.62015545,-2.0329256,-3.3617067,-0.40249792,0.098046534,-0.14097054,26.25,27.0625,26.25,29.3125,30.4375,30.875
0.05205224,-0.26922494,-0.9013032,-0.87649167,-0.021109005,0.0217628,-0.14815822,-0.37342316,-0.32815102,0.05980006,-3.0783584,0.6249168,-0.0006125477,-0.024808683,0.0015630006,0.0011936551,-0.003183803,0.0051120557,0.00018961598,0.44750538,-1.4697125,2.0086362,-2.1076672,-1.5706257,2.4224706,-0.025873343,0.035489626,-0.04175938,0.00027819278,0.00055522536,-0.026033517,-0.076614454,0.28730422,-9.5385,0.73741806,47.709274,-0.6213819,-2.0362802,-3.4240365,-0.40241957,0.11282344,-0.12225959,26.25,27.0625,26.25,29.3125,30.4375,30.875
0.054052133,-0.37134185,-1.0821887,-0.87439054,-0.023598963,0.01133126,-0.14401335,-0.37347645,-0.32814887,0.05980216,-3.0783472,0.6249149,-0.0005746752,-0.025575483,0.0016939216,0.0016217723,-0.0031269335,0.0051109437,0.00033616502,0.44746906,-1.4696285,2.008539,-2.1076663,-1.5706495,2.4224346,-0.026777446,0.03607826,-0.04370552,0.0016607536,0.00050338934,-0.02708321,-0.019153614,0.36391866,-9.595961,0.8179876,47.734352,-0.564923,-1.9816823,-3.4418223,-0.3941518,0.114565,-0.12012002,26.25,27.0625,26.25,29.3125,30.4375,30.875
0.056052394,-0.64703894,-0.90892595,-0.87691563,-0.031043496,0.0015958047,-0.14792006,-0.37352496,-0.3281446,0.0598099,-3.0783458,0.62493235,-0.000601623,-0.026313413,0.0017648943,0.0016763986,-0.0030080518,0.0047919946,0.00059391843,0.44740883,-1.4695561,2.0084307,-2.107618,-1.5706376,2.4223855,-0.027596384,0.03737617,-0.045433752,0.002430182,0.000531677,-0.028158957,0.019153614,0.34476504,-9.557653,0.7620334,47.707485,-0.5700161,-1.9559995,-3.4674196,-0.3965785,0.12068363,-0.110554926,26.25,27.0625,26.25,29.3125,30.4375,30.875
0.05805252,-0.5161677,-0.9949268,-0.85622156,-0.03613702,0.01162048,-0.14747612,-0.37357926,-0.3281364,0.05981687,-3.0783598,0.624917,-0.0005181613,-0.027387656,0.0016481208,0.0019591998,-0.003219472,0.00531175,0.0008745487,0.44736028,-1.4695075,2.0083697,-2.1076543,-1.5706614,2.4223256,-0.028323464,0.03872371,-0.04762862,0.002716781,0.0004945599,-0.029165126,0.019153614,0.45968673,-9.5385,0.7642693,47.699425,-0.64163816,-1.9564432,-3.4395823,-0.41134828,0.12565324,-0.106021896,26.25,27.0625,26.25,29.3125,30.4375,30.875
0.060052443,-0.49570283,-1.194802,-0.7585672,-0.04291738,0.027713563,-0.15295154,-0.37361366,-0.32814234,0.059800267,-3.0783715,0.6248425,-0.00058744237,-0.028436035,0.0015239764,0.0019751256,-0.0035186661,0.0058728876,0.0009851112,0.447324,-1.4693993,2.0082862,-2.107642,-1.5706376,2.4222414,-0.029053414,0.040334474,-0.049309272,0.0021518588,0.000515408,-0.030004283,-0.17238252,0.40222588,-9.595961,0.7486078,47.696735,-0.5741886,-1.8724256,-3.4789627,-0.38928148,0.12848186,-0.08717339,26.25,27.0625,26.25,29.3125,30.4375,30.875
0.06205223,-0.9027701,-1.497406,-0.67488927,-0.038135428,0.03334612,-0.14564727,-0.37370902,-0.32815453,0.05984658,-3.078438,0.6249305,-0.00044770527,-0.029355116,0.0014195516,0.0017047891,-0.0033747952,0.005829749,0.002391463,0.4472522,-1.4693506,2.0081294,-2.1076548,-1.5706257,2.4222162,-0.029607974,0.042539343,-0.0510224,0.0017618174,0.00040306526,-0.03196343,-0.28730422,0.3256114,-9.576807,0.7709874,47.692257,-0.6369686,-1.9723833,-3.4254832,-0.38455594,0.12840682,-0.08061747,26.25,27.0625,26.25,29.3125,30.4375,30.875
0.06405221,-0.8107209,-1.1233683,-0.5015487,-0.029828096,0.0407685,-0.15088739,-0.37375385,-0.3281353,0.05983071,-3.0784051,0.6248872,-0.00047092786,-0.030289466,0.0012578017,0.0018505737,-0.0036453183,0.0062473775,0.0025760313,0.4471915,-1.4692544,2.0080574,-2.1076424,-1.5706495,2.4221327,-0.030187348,0.043913964,-0.052864257,0.0017344606,0.0004612925,-0.032726184,-0.19153613,0.34476504,-9.5385,0.80679786,47.71286,-0.61713606,-1.8750343,-3.5152645,-0.37675923,0.14296438,-0.06338825,26.25,27.0625,26.25,29.3125,30.4375,30.875
0.06605174,-1.0192155,-0.60731107,-0.51965815,-0.0101577025,0.029333038,-0.14078072,-0.3738415,-0.328144,0.059856247,-3.0784929,0.62490416,-0.0004118351,-0.031431086,0.0008462811,0.002461097,-0.004922523,0.00703291,0.0012063278,0.44709572,-1.4691821,2.0079248,-2.1076663,-1.5706013,2.4220364,-0.030989256,0.044810317,-0.055318493,0.002030592,0.001272467,-0.03215835,-0.2681506,0.34476504,-9.442732,0.7083204,47.689575,-0.7211917,-1.8684318,-3.5003414,-0.35615724,0.15164545,-0.07783924,26.25,27.0625,26.25,29.3125,30.4375,30.875
0.06805274,-0.4703112,0.16842529,-0.36716488,-0.005381383,0.035030957,-0.14949334,-0.3739006,-0.32814708,0.059855405,-3.0784817,0.6249607,-0.00041307986,-0.032198433,0.00067945383,0.0020617212,-0.0050439313,0.005384984,-0.00043222122,0.44704747,-1.4690734,2.0078046,-2.1076543,-1.5706009,2.422025,-0.03192246,0.047612756,-0.05772108,0.0030614284,0.0020922741,-0.03145297,-0.22984336,0.30645782,-9.32781,0.7978386,47.70032,-0.6774261,-1.8872495,-3.4070563,-0.3647901,0.11110729,-0.08068022,26.25,27.0625,26.25,29.3125,30.4375,30.875
0.070052594,-1.4379816,-0.36592785,-0.3643158,0.012579722,0.01514814,-0.13182019,-0.373937,-0.3281389,0.05985005,-3.0784826,0.6248841,-0.00044321993,-0.032270584,0.00035301934,0.0020230266,-0.0057812096,0.004737439,0.00044116753,0.446999,-1.4690013,2.0077322,-2.10763,-1.5706009,2.4219286,-0.032008696,0.04825491,-0.05841238,0.0033724213,0.0030354473,-0.032414015,-0.22984336,0.21068975,-9.3661175,0.7597976,47.704796,-0.6715283,-1.8526576,-3.4764276,-0.35620505,0.11321021,-0.08531548,26.25,27.0625,26.25,29.3125,30.4375,30.875
0.07205243,-0.5898388,0.050346117,-0.22717488,0.003335584,0.04810582,-0.14540161,-0.37402168,-0.32813483,0.05985095,-3.078462,0.62491816,-0.00037906852,-0.034822226,-0.0002929336,0.0031727033,-0.006926875,0.007531114,0.00044450926,0.44693872,-1.4688687,2.0075872,-2.107642,-1.5706366,2.4218924,-0.032976687,0.050404217,-0.06336754,0.0031634145,0.0028509563,-0.03338158,-0.2681506,0.17238252,-9.308656,0.7239871,47.689575,-0.74375343,-1.8457739,-3.3426056,-0.35359496,0.104119,-0.063295096,26.25,27.0625,26.25,29.3125,30.4375,30.875
0.074052215,-1.0574893,-0.024029287,-0.13938467,0.004297891,0.047886007,-0.14671795,-0.37410414,-0.32814926,0.05987427,-3.07854,0.6248948,-0.00032397706,-0.034882255,0.00022119026,0.0015761745,-0.00498251,0.0046568383,0.00046766066,0.44686684,-1.4687837,2.0074432,-2.1076543,-1.5706009,2.421796,-0.03364568,0.053984065,-0.063682616,0.0033341153,0.0023421799,-0.034071907,-0.30645782,0.13407528,-9.32781,0.72622824,47.709274,-0.7382537,-1.9070268,-3.3571858,-0.34096223,0.10574713,-0.083785966,26.25,27.0625,26.25,29.3125,30.4375,30.875
0.076052286,-0.96636426,-0.14359401,-0.17156594,0.0068362453,0.053276435,-0.14006384,-0.37416646,-0.32813212,0.059873383,-3.0785143,0.6248886,-0.00031578564,-0.035604063,0.00038752457,0.0029062738,-0.0052066697,0.00660721,0.001516686,0.44679463,-1.4686885,2.007335,-2.1076295,-1.5706252,2.4217234,-0.034169987,0.05225066,-0.06513627,0.004666887,0.0017010852,-0.035643917,-0.30645782,0.21068975,-9.270349,0.7486078,47.703903,-0.7343463,-1.8139275,-3.421237,-0.3358127,0.12067507,-0.07163775,26.25,27.0625,26.25,29.3125,30.4375,30.875
0.07805219,-0.9313019,0.26660296,-0.06356766,-9.831289e-06,0.048428774,-0.14771396,-0.3742614,-0.32814816,0.059893385,-3.0785716,0.62495875,-0.00023341684,-0.037171014,-3.268526e-05,0.0034868964,-0.0054720286,0.0074817846,0.00077517924,0.4467225,-1.46858,2.007178,-2.1076653,-1.5706013,2.4216878,-0.03469545,0.054342143,-0.06895935,0.005496614,0.0015599905,-0.035425127,-0.17238252,0.038307227,-9.289502,0.800085,47.705692,-0.733937,-1.7482202,-3.4201698,-0.3374735,0.111957595,-0.07571168,26.25,27.0625,26.25,29.3125,30.4375,30.875
0.08005219,-0.8412787,-0.020735621,-0.20594028,0.017457196,0.0326938,-0.14212683,-0.37431476,-0.3281524,0.059886493,-3.07856,0.624881,-0.00022732689,-0.038023327,-0.000104563645,0.0030345996,-0.0050247423,0.00641676,-0.0017287094,0.44669816,-1.4684592,2.0070584,-2.1076534,-1.5706252,2.4216166,-0.03536538,0.057205424,-0.071195714,0.0060226656,0.0016133726,-0.03358966,-0.28730422,0.17238252,-9.212888,0.7642693,47.70032,-0.7833391,-1.8532043,-3.2141829,-0.35032243,0.12857485,-0.09964502,26.25,27.0625,26.25,29.3125,30.4375,30.875
0.08205241,-0.45611528,0.20424159,-0.07524969,0.010661104,0.03678464,-0.1525031,-0.37438765,-0.32813427,0.05988437,-3.078543,0.6250122,-0.00033404276,-0.038983367,0.00072110014,0.0018151129,-0.004187896,0.0039974805,-0.0036365266,0.44656548,-1.4683383,2.006914,-2.1075814,-1.570577,2.421568,-0.037968956,0.06068832,-0.07226479,0.0061530597,0.0019006326,-0.034284875,-0.28730422,0.13407528,-9.193734,0.7911258,47.693153,-0.7228838,-1.9041449,-3.4015315,-0.3254723,0.10948936,-0.113648966,26.25,27.0625,26.25,29.3125,30.4375,30.875
0.084052324,-0.78830546,-0.023841832,-0.099262,-0.0009445854,0.03365804,-0.14097151,-0.37449035,-0.3281496,0.059912562,-3.078594,0.6249259,-0.00020498555,-0.040366624,-0.00019265224,0.0044210167,-0.007024701,0.008143197,-0.0021458468,0.44651735,-1.4682194,2.0067213,-2.1075928,-1.5706009,2.4214597,-0.038010668,0.057936173,-0.0754376,0.0071101366,0.0026673486,-0.03581725,-0.40222588,0.21068975,-9.251195,0.7463667,47.691364,-0.7664486,-1.7576938,-3.282468,-0.3371086,0.122033715,-0.1061261,26.25,27.0625,26.25,29.3125,30.4375,30.875
0.08605253,-0.8388707,-0.010626258,0.054498225,-0.0060457443,0.038050722,-0.14261965,-0.37456083,-0.3281627,0.059908953,-3.0786169,0.62496877,-0.00026689164,-0.040905718,-0.00074570166,0.0036254197,-0.006338328,0.006274751,-0.0012628549,0.44644555,-1.4680742,2.0065644,-2.1075685,-1.5705527,2.4214118,-0.037577067,0.061909158,-0.078155845,0.007838315,0.0028510313,-0.03626497,-0.28730422,0.19153613,-9.289502,0.8112748,47.694946,-0.791669,-1.7545762,-3.204556,-0.339826,0.10335226,-0.10979107,26.25,27.0625,26.25,29.3125,30.4375,30.875
0.08805252,-1.1915115,-0.46052617,-0.20851171,-0.0053903176,0.03839273,-0.14832775,-0.37462088,-0.32815096,0.059901513,-3.0786004,0.6250236,-0.0003093261,-0.04130232,-6.782271e-05,0.0026848852,-0.005183901,0.0042744614,-0.0024686994,0.44636104,-1.4679656,2.0064566,-2.1075447,-1.5705408,2.4213636,-0.039080177,0.06421548,-0.07865583,0.008335963,0.0026730034,-0.036561493,-0.2681506,0.22984336,-9.32781,0.75755644,47.705692,-0.8409805,-1.9287853,-3.240773,-0.33931005,0.11923422,-0.13405442,26.25,27.0625,26.25,29.3125,30.4375,30.875
0.09005236,-1.0014966,-0.48614973,-0.18385264,-0.01883648,0.051641952,-0.1518946,-0.37470257,-0.32814085,0.059912853,-3.078579,0.6249428,-0.0002627908,-0.04376097,-0.0002499093,0.0036050684,-0.005813642,0.006481595,-0.003919578,0.44630033,-1.4678452,2.0062873,-2.107497,-1.5705885,2.4212554,-0.04068745,0.06629085,-0.0830717,0.008413539,0.0022795687,-0.036714282,-0.28730422,0.28730422,-9.308656,0.7933669,47.70032,-0.76241755,-1.8423741,-3.0837276,-0.34688222,0.111291066,-0.14315861,26.25,27.0625,26.25,29.3125,30.4375,30.875
0.09205217,-0.8971997,-0.72764957,-0.4894995,-0.02485587,0.049850836,-0.14071906,-0.37480906,-0.32813433,0.05993756,-3.078613,0.6249504,-0.00019108641,-0.042996477,0.0011965603,0.0019678008,-0.0036170688,0.0022621902,-0.0051270984,0.4461918,-1.4677367,2.0061085,-2.107484,-1.5705885,2.4211473,-0.04259508,0.06778013,-0.08130523,0.009912767,0.0021288763,-0.037415273,-0.2873042,0.30645782,-9.442732,0.8291774,47.686886,-0.7538932,-1.8501751,-3.3128626,-0.35111028,0.12366402,-0.15669587,26.25,27.0625,26.25,29.3125,30.4375,30.875
0.09405208,-1.1282244,-0.87153697,-0.3659018,-0.030619936,0.038501225,-0.14430757,-0.37489906,-0.32814103,0.059929468,-3.0785997,0.62496686,-0.00018039744,-0.044450764,0.0012837376,0.002049466,-0.003817598,0.0026444548,-0.0059491796,0.44613126,-1.4675564,2.0059288,-2.107484,-1.5706009,2.421099,-0.044069875,0.06981181,-0.0837298,0.009873871,0.0021396573,-0.038066257,-0.28730422,0.3256114,-9.346964,0.72622824,47.70211,-0.6388633,-1.8681071,-3.303616,-0.36687702,0.125317,-0.17823023,26.25,27.0625,26.25,29.3125,30.4375,30.875
0.09605221,-1.3495979,-1.3543304,-0.45021975,-0.024928425,0.030295046,-0.14227526,-0.3749824,-0.32814756,0.05992596,-3.0786276,0.62499094,-0.00024006663,-0.04592906,0.0001543102,0.0026409682,-0.0049938154,0.0044991877,-0.004943352,0.44603556,-1.4674002,2.0057595,-2.1074603,-1.5705527,2.4210148,-0.043443393,0.071980946,-0.08730535,0.009100733,0.0023912138,-0.038443383,-0.22984336,0.30645782,-9.289502,0.74413085,47.686886,-0.6996143,-1.8872652,-3.122923,-0.34916073,0.11759359,-0.18143561,26.25,27.0625,26.25,29.3125,30.4375,30.875
0.0980523,-1.1759516,-0.7133647,-0.47827074,-0.022332644,0.028909918,-0.14269635,-0.375086,-0.32810777,0.059925515,-3.0785878,0.6250788,-0.00019206005,-0.046121195,0.00017152914,0.0017840596,-0.0045270226,0.0032005443,-0.0045332164,0.4458914,-1.4672794,2.0056279,-2.1074607,-1.5705885,2.4209306,-0.04372644,0.07421896,-0.08770522,0.008634019,0.0025293953,-0.039136063,-0.21068975,0.3256114,-9.3661175,0.7418897,47.66539,-0.77934027,-1.8171089,-3.326274,-0.33987075,0.11765301,-0.20682238,26.25,27.0625,26.25,29.3125,30.4375,30.875
0.1000521,-0.35444206,-0.2721593,-0.4377995,-0.020976959,0.03957032,-0.15244833,-0.37518793,-0.32813513,0.059953332,-3.0786476,0.625015,-0.00012882634,-0.04802955,0.0005516626,0.0021783693,-0.005397782,0.0037741568,-0.006543615,0.44584256,-1.4671352,2.0054,-2.107437,-1.5705765,2.4208345,-0.046511635,0.07580339,-0.09041432,0.008864291,0.0030649116,-0.039909806,-0.21068975,0.30645782,-9.3661175,0.76874626,47.67614,-0.670527,-2.0068343,-3.2417912,-0.34352374,0.117883325,-0.22490728,26.25,27.0625,26.25,29.3125,30.4375,30.875
0.1020521,-0.9713993,-0.8356831,-0.33829242,-0.0035893652,0.020693282,-0.14045504,-0.37530595,-0.32814723,0.059981164,-3.0786963,0.62510085,-8.817111e-05,-0.04888475,0.00024144292,0.00206304,-0.0057353796,0.0038019735,-0.0044438755,0.4457345,-1.466991,2.005172,-2.107413,-1.5705408,2.420774,-0.04687989,0.07776387,-0.09224952,0.008569038,0.0033557373,-0.04237661,-0.11492168,0.22984336,-9.270349,0.7866488,47.71554,-0.7059343,-1.8276498,-3.1722543,-0.33519757,0.13195458,-0.22761291,26.25,27.0625,26.25,29.3125,30.4375,30.875
0.10405187,-1.0080466,-0.7425625,-0.3841992,0.002643866,0.013916076,-0.14149952,-0.37538713,-0.32813287,0.059952803,-3.0786166,0.6251797,-0.00015662424,-0.049920302,0.00012424306,0.0019173488,-0.005742673,0.004219068,-0.0033141598,0.44565028,-1.4667865,2.0050037,-2.1073768,-1.5705646,2.4207492,-0.047459997,0.079749666,-0.09396974,0.00792382,0.0031745525,-0.044084895,-0.076614454,0.21068975,-9.289502,0.7553206,47.67345,-0.733356,-1.9988682,-3.2042983,-0.32216704,0.1124842,-0.22901249,26.25,27.125,26.25,29.3125,30.4375,30.875
0.10605238,-0.64452267,-0.13411136,-0.32615316,-0.0069238814,0.028702235,-0.1498089,-0.375463,-0.32814386,0.0599508,-3.0786605,0.62511265,-0.00019051178,-0.05120472,-5.0341714e-06,0.0028829395,-0.0064150686,0.0060664075,-0.0048817582,0.44557792,-1.4666426,2.0048473,-2.107365,-1.5705284,2.4206295,-0.048232533,0.07978391,-0.09631183,0.008277467,0.0029815615,-0.04328825,-0.095768064,0.30645782,-9.32781,0.75084364,47.692257,-0.69086826,-1.8879676,-3.201078,-0.33191365,0.10428527,-0.26304346,26.25,27.125,26.25,29.3125,30.4375,30.875
0.108052425,-1.1293292,-0.5974237,-0.33377877,-0.0033168579,0.017870108,-0.13084811,-0.375616,-0.32814074,0.059982076,-3.0787084,0.6251988,-5.8198773e-05,-0.051056445,0.00023809935,0.0010982389,-0.0042974013,0.0020698044,-0.004540246,0.445434,-1.4664854,2.004608,-2.1073887,-1.5705284,2.4205334,-0.048409067,0.08424083,-0.09740315,0.0094320215,0.0027984988,-0.043804705,-0.05746084,0.22984336,-9.308657,0.8247004,47.694054,-0.8258592,-2.1303082,-3.156094,-0.32352096,0.11853297,-0.28819677,26.25,27.125,26.25,29.3125,30.4375,30.875
0.110052355,-0.61795944,-0.57592463,-0.45359424,-0.0070463135,0.027466761,-0.14005204,-0.3757139,-0.32812992,0.05998237,-3.0786781,0.6251725,-3.7228707e-05,-0.05229562,-0.0001600342,0.0027504186,-0.0060373666,0.005392787,-0.0034311146,0.4453498,-1.4663185,2.0044153,-2.1073525,-1.5705646,2.4204369,-0.04885294,0.082571976,-0.09932975,0.009277199,0.0029325993,-0.045357056,-0.19153613,0.2681506,-9.3661175,0.7530795,47.707485,-0.76021224,-1.8735007,-3.1880355,-0.3120712,0.12248548,-0.28882328,26.25,27.125,26.25,29.3125,30.4375,30.875
0.11205214,-0.6441191,-0.5666866,-0.31924424,-0.009447588,0.031130128,-0.14450927,-0.375809,-0.3281439,0.059981633,-3.078706,0.6251774,-7.418962e-05,-0.052314676,-0.0002643179,0.00087589235,-0.004188755,0.0014403496,-0.0016167229,0.4452658,-1.4661369,2.0042117,-2.1073287,-1.5705284,2.4203525,-0.048684046,0.087822326,-0.10101229,0.010074426,0.0029651967,-0.04700104,-0.21068975,0.2681506,-9.385271,0.7620334,47.694054,-0.8924135,-2.0176196,-3.2266064,-0.33453918,0.108857475,-0.30937374,26.25,27.125,26.25,29.3125,30.4375,30.875
0.114052266,-0.98158866,-0.6130612,-0.27317443,-0.007220536,0.021365084,-0.14299928,-0.37592834,-0.32813707,0.059993155,-3.0787172,0.6251992,-4.3301774e-05,-0.053544555,-0.0001852945,0.0022155973,-0.005409145,0.004056875,-0.0020340434,0.44514546,-1.4659697,2.0039957,-2.1073048,-1.5705284,2.4202445,-0.049899455,0.08637215,-0.10251345,0.010139213,0.0029384685,-0.04779841,-0.19153613,0.19153613,-9.385271,0.83365434,47.72002,-0.91242033,-1.9647286,-3.2203624,-0.3242066,0.1145491,-0.31306037,26.25,27.125,26.25,29.3125,30.4375,30.875
0.116052456,-0.86948806,-0.7186198,-0.42337936,0.002491625,0.024631832,-0.14807512,-0.37604126,-0.3281442,0.06000482,-3.0787356,0.62526256,-1.15487555e-05,-0.05388591,0.00044881483,0.0006687557,-0.004034864,0.0015718609,-0.005870845,0.445049,-1.4658008,2.0037801,-2.107293,-1.5705165,2.4201853,-0.05126372,0.0897676,-0.10261941,0.0096858125,0.0027688474,-0.04532482,-0.13407528,0.17238252,-9.251195,0.8247004,47.71286,-0.86263,-2.0688221,-3.330361,-0.3262598,0.09848073,-0.36257148,26.25,27.125,26.25,29.3125,30.4375,30.875
0.11805244,-0.6866615,0.07775051,-0.20052937,-0.01091058,0.015546728,-0.14554754,-0.3761298,-0.3281467,0.059984,-3.0787356,0.6252023,-6.8549256e-05,-0.05411758,-0.0009911241,0.00061350095,-0.004233898,0.001611805,-0.0026182032,0.44496584,-1.4655963,2.0036,-2.107281,-1.5705045,2.4200647,-0.04886464,0.09232697,-0.10533927,0.009724819,0.0029241915,-0.046176758,-0.11492168,0.24899697,-9.270349,0.83589023,47.73614,-1.0620381,-2.030172,-3.2917786,-0.3273929,0.13251498,-0.41510528,26.25,27.125,26.25,29.3125,30.4375,30.875
0.12005227,-0.26035234,0.15154953,-0.24463828,-0.006355559,0.02088113,-0.14311697,-0.37625423,-0.3281506,0.05999655,3.0787337,-0.6252973,-1.4198973e-06,-0.055231627,-0.00046991845,0.00013423043,-0.0040792245,0.0010910702,-0.0025121125,0.44486916,-1.465416,2.0033724,-2.107281,-1.5705165,2.4200277,-0.05088049,0.09441432,-0.10645814,0.009292422,0.0030077908,-0.048297606,-0.05746084,0.19153613,-9.232041,0.7709874,47.69763,-1.0561236,-2.0351393,-3.3503811,-0.30177793,0.11759229,-0.41815066,26.25,27.125,26.25,29.3125,30.4375,30.875
0.12205208,-0.03231534,0.61185837,-0.18211362,-0.009197025,0.02150107,-0.14467657,-0.37635773,-0.3281427,0.059998367,-3.0787334,0.62523896,-2.884587e-05,-0.055593017,-0.00061488256,0.00019843907,-0.004045963,0.0012849647,-0.00026509762,0.44476116,-1.4652362,2.0031564,-2.107221,-1.5705165,2.4198835,-0.05083678,0.095110536,-0.10741077,0.009388901,0.0028916197,-0.0505002,-0.05746084,0.17238252,-9.251195,0.7777002,47.693153,-1.075461,-1.9318883,-3.2504897,-0.29820418,0.11398649,-0.4347417,26.25,27.125,26.25,29.3125,30.4375,30.875
0.124051906,-0.527565,-0.03219617,-0.29936004,0.0038735499,0.008483747,-0.14423569,-0.3764489,-0.32813695,0.05997163,-3.078696,0.625231,-7.860106e-05,-0.056608353,5.276519e-05,2.753065e-06,-0.0036815312,0.00053604884,-0.00030358386,0.44467634,-1.46502,2.0029767,-2.107209,-1.5705284,2.4197986,-0.05297774,0.09661671,-0.108808026,0.010112523,0.0028811046,-0.052601986,0.019153614,0.17238252,-9.346964,0.800085,47.72808,-1.0196939,-1.9843225,-3.4629426,-0.29112947,0.113580376,-0.4471931,26.25,27.125,26.25,29.3125,30.4375,30.875
0.12605205,-0.37751088,-0.32987824,-0.17907651,-0.00025034498,0.011643173,-0.148374,-0.37661415,-0.328159,0.060019735,3.0787094,-0.625174,-3.631688e-05,-0.05653187,-0.0007323491,0.0002588279,-0.0037593213,0.00058089267,0.0036667695,0.44454494,-1.46484,2.0026653,-2.1071966,-1.5704926,2.41963,-0.051447686,0.097289145,-0.11032923,0.010889533,0.0029372168,-0.055041276,-0.17238252,0.1340753,-9.32781,0.76874626,47.686886,-1.1551384,-1.9854369,-3.306745,-0.300113,0.12663105,-0.43928266,26.25,27.125,26.25,29.3125,30.4375,30.875
0.128052,-0.6998187,-0.50098395,-0.2855809,0.00072315754,0.010809892,-0.1439295,-0.37673852,-0.32816076,0.060010973,3.0786521,-0.625276,-1.6633332e-05,-0.057743356,-0.00045570396,-0.0004251199,-0.003586165,-0.00025607826,0.0057615265,0.44441238,-1.4646233,2.0024493,-2.107209,-1.5704569,2.4195685,-0.053165525,0.10033926,-0.11202691,0.010369124,0.003137061,-0.058852535,-0.11492168,0.19153613,-9.174581,0.784413,47.699425,-1.1507291,-2.059674,-3.3915627,-0.29843795,0.111873075,-0.42647395,26.25,27.125,26.25,29.3125,30.4375,30.875
0.13005242,-0.5809446,-0.11050148,-0.4037453,-0.014902745,0.02367614,-0.14816576,-0.3768452,-0.32814768,0.06001264,3.0787435,-0.62517816,-5.4923523e-05,-0.0587406,-0.00019688673,0.00059681345,-0.0048197233,0.0014415003,0.0071991594,0.4443398,-1.4644321,2.0022209,-2.107149,-1.5705279,2.4194236,-0.054783966,0.09903554,-0.112995535,0.010573158,0.003518379,-0.061908964,0.0,0.19153613,-9.442732,0.84484416,47.701214,-1.1571555,-1.8198771,-3.4785104,-0.3032342,0.118819945,-0.42565507,26.25,27.125,26.25,29.3125,30.4375,30.875
0.13205227,-0.84358704,-0.87980366,-0.38122186,-0.004547045,0.012235165,-0.14228946,-0.37695557,-0.32814506,0.06000203,3.0787325,-0.6251734,-1.5878806e-05,-0.060520772,-0.00062478334,0.00042779132,-0.0049847504,0.0012311046,0.010480548,0.44421968,-1.4642271,2.0020163,-2.1071365,-1.5705041,2.419302,-0.05571543,0.103034124,-0.11708695,0.01078621,0.0037492968,-0.06611926,0.0,0.21068975,-9.385271,0.8493211,47.686886,-1.0701413,-1.9045022,-3.4412904,-0.2961971,0.116044074,-0.38877878,26.25,27.125,26.25,29.3125,30.4375,30.875
0.13405208,-0.6791283,-0.45115656,-0.39405486,-0.008802703,0.02203863,-0.14646828,-0.37706473,-0.3281375,0.059988506,3.0787632,-0.62508136,4.0991275e-05,-0.060394596,-0.0001699212,0.00015596808,-0.005143634,0.0011342023,0.014111571,0.44409943,-1.4640118,2.0018017,-2.1071012,-1.5704921,2.4191206,-0.05655425,0.102464214,-0.11566769,0.009956855,0.0039334698,-0.07059025,-0.038307227,0.17238252,-9.442732,0.784413,47.687782,-1.1623979,-1.8034599,-3.5253694,-0.28932926,0.111665554,-0.35706472,26.25,27.125,26.25,29.3125,30.4375,30.875
0.13605237,-0.6081496,-0.16056225,-0.45391542,-0.00061630085,0.026325423,-0.15974523,-0.37717867,-0.3281533,0.06000362,3.0787241,-0.6250536,4.356028e-05,-0.06308138,-0.00066260225,0.0016177314,-0.0066124746,0.0038585947,0.016385468,0.44400272,-1.4638315,2.00156,-2.107065,-1.5704564,2.4190116,-0.05811895,0.10410221,-0.120973155,0.010535791,0.0040817773,-0.074425794,-0.076614454,0.22984336,-9.308656,0.83365434,47.688675,-1.1219263,-1.8015916,-3.317152,-0.2971321,0.09659755,-0.30913755,26.25,27.125,26.25,29.3125,30.4375,30.875
0.13805237,-0.7740069,-0.19086194,-0.6438426,0.0038068306,0.02686878,-0.1521183,-0.37732616,-0.32815346,0.060018454,3.0787506,-0.6249214,-4.9076603e-05,-0.06380534,-0.0007314509,0.0010591305,-0.006259387,0.0031355561,0.019727955,0.4438947,-1.4636151,2.0012844,-2.107053,-1.5704921,2.418818,-0.058608096,0.10668799,-0.12251274,0.010292176,0.0040740166,-0.07825589,-0.17238252,0.19153614,-9.500193,0.7978386,47.67345,-1.1433647,-1.8426392,-3.4361477,-0.29228798,0.11319367,-0.2511668,26.25,27.125,26.25,29.3125,30.4375,30.875
0.14005227,-1.1517617,-0.68751085,-0.7598116,0.0048957523,0.02715923,-0.14210504,-0.37744355,-0.32814118,0.060011223,3.078737,-0.62495726,2.775428e-06,-0.06534835,-0.0008554087,0.0018263103,-0.0072413394,0.0046701,0.020856908,0.4437501,-1.4634112,2.0010679,-2.1070178,-1.5704678,2.4186976,-0.05988017,0.10744269,-0.12513924,0.010358346,0.004295703,-0.08065574,-0.21068975,0.22984336,-9.5385,0.8023209,47.685097,-1.1599367,-1.7922672,-3.4081063,-0.2913142,0.10329045,-0.20696181,26.25,27.125,26.25,29.3125,30.4375,30.875
0.14205196,-1.6025766,-0.76872736,-0.778531,-0.015414204,0.030702656,-0.14810519,-0.37754026,-0.3281511,0.059995867,3.0787733,-0.62482965,8.7310145e-05,-0.06601107,-0.0004191251,0.0018796562,-0.0071306955,0.003957347,0.020658439,0.4436659,-1.4631834,2.0008404,-2.106969,-1.570444,2.4185293,-0.061406203,0.10823208,-0.1264294,0.011552061,0.004498319,-0.08198332,-0.2681506,0.28730422,-9.500193,0.88960326,47.686886,-1.2187352,-1.7384448,-3.4517653,-0.2891091,0.112519994,-0.18147272,26.25,27.125,26.25,29.3125,30.4375,30.875
0.1440519,-1.4850482,-0.69549066,-0.66980964,-0.033726256,0.053157456,-0.152815,-0.37769356,-0.3281389,0.060002804,3.0787747,-0.6247722,6.3913817e-06,-0.06717997,-0.00057476974,0.0021959853,-0.007650172,0.0045114043,0.020136015,0.4435214,-1.4629674,2.0005887,-2.1069806,-1.5704674,2.418349,-0.062285278,0.109619536,-0.12875733,0.011767163,0.004730148,-0.08233862,-0.40222588,0.34476504,-9.672575,0.75084364,47.70211,-1.2022271,-1.643928,-3.4379287,-0.30367067,0.0899138,-0.16497388,26.25,27.125,26.25,29.3125,30.4375,30.875
0.14605245,-1.9547614,-1.3004179,-0.8903168,-0.032253563,0.05776397,-0.14449543,-0.37782955,-0.3281567,0.060017362,3.078738,-0.62472725,3.840823e-05,-0.06824272,-0.0002671688,0.0016192393,-0.0072118267,0.0035109043,0.018122349,0.44340092,-1.4627388,2.0002892,-2.1069205,-1.5704197,2.4182053,-0.063803926,0.1124122,-0.1305705,0.011883875,0.0047615524,-0.081842184,-0.45968673,0.38307226,-9.672575,0.7777002,47.686886,-1.1833788,-1.714179,-3.359301,-0.3024004,0.110889345,-0.15517507,26.25,27.125,26.25,29.3125,30.4375,30.875
0.14805247,-2.0636,-1.1188618,-1.0372721,-0.036231205,0.06113034,-0.14342195,-0.37797722,-0.3281436,0.060022235,3.078734,-0.62467074,6.6502357e-06,-0.06986211,-0.0003344359,0.0023312063,-0.007927155,0.005272148,0.0148511315,0.44324452,-1.4625227,2.000037,-2.1069095,-1.5704201,2.4180143,-0.06501642,0.113305174,-0.13316642,0.011689958,0.004649326,-0.079781525,-0.51714754,0.2681506,-9.595961,0.80679786,47.684196,-1.1855016,-1.7053552,-3.3779356,-0.30614728,0.09894876,-0.15251529,26.25,27.125,26.25,29.3125,30.4375,30.875
0.15005234,-1.995224,-1.223708,-0.82038087,-0.026099069,0.06270544,-0.14558038,-0.37809485,-0.32815513,0.06002646,3.0787277,-0.6245943,5.926584e-05,-0.07033046,-0.00020816855,0.0004590404,-0.007000052,0.0018896974,0.011648887,0.44313613,-1.4623053,1.9997734,-2.1068494,-1.5703834,2.417859,-0.06605631,0.118325435,-0.13436402,0.011321554,0.00525832,-0.077618554,-0.6512228,0.3256114,-9.672575,0.842603,47.699425,-1.0906745,-1.8094637,-3.4110243,-0.30313498,0.09468789,-0.15597443,26.25,27.125,26.25,29.3125,30.4375,30.875
0.1520523,-1.8224436,-1.0421203,-0.9156541,-0.017835097,0.062645696,-0.14191747,-0.3782408,-0.3281516,0.06002633,3.0787349,-0.62457967,4.6913087e-06,-0.072133325,-0.00016896983,0.0017821307,-0.008091969,0.005408945,0.005469127,0.44301572,-1.4620663,1.9995097,-2.10685,-1.5704082,2.417729,-0.06735357,0.11761596,-0.13644093,0.010460469,0.004731964,-0.07273392,-0.6512228,0.24899697,-9.691729,0.83589023,47.71554,-1.1911216,-1.5791736,-3.3858633,-0.29385683,0.09002758,-0.20557715,26.25,27.125,26.25,29.3125,30.4375,30.875
0.15405242,-1.9445095,-0.95545095,-0.86496866,-0.006922578,0.053593483,-0.14615174,-0.37842956,-0.32816046,0.06005647,3.078656,-0.62458414,-9.038388e-05,-0.07371883,-0.00023102452,0.0006615961,-0.007187264,0.0038865085,0.0021327836,0.44284728,-1.4618245,1.9991735,-2.10685,-1.5703839,2.4175735,-0.06850138,0.123038456,-0.13983387,0.010197101,0.004566959,-0.07054188,-0.6895301,0.19153613,-9.672575,0.76874626,47.701214,-1.1698141,-1.8593277,-3.4038746,-0.27495438,0.08707073,-0.24930319,26.25,27.125,26.25,29.3125,30.4375,30.875
0.1560524,-2.0346324,-0.76747596,-0.6709342,-0.003547933,0.04426809,-0.14357501,-0.37856668,-0.32815954,0.060060777,3.0786285,-0.62459844,-0.00010805217,-0.07396186,0.00026363516,0.00015943256,-0.0067902002,0.0033037132,0.0011281791,0.44271505,-1.461609,1.9989227,-2.106838,-1.570372,2.4174538,-0.069537856,0.12381903,-0.13947022,0.009751492,0.0044601024,-0.07057353,-0.51714754,0.21068975,-9.500193,0.82022345,47.688675,-1.1627065,-1.7539173,-3.393484,-0.25545028,0.083513126,-0.25898156,26.25,27.125,26.25,29.3125,30.4375,30.875
0.1580525,-1.3743135,-0.36272058,-0.56789154,-0.00013825895,0.052978493,-0.14617041,-0.37875018,-0.3281592,0.06007197,3.0786023,-0.62455595,-0.00020914682,-0.07605227,0.00014037444,0.0009843458,-0.0074487985,0.005232004,-0.0025930433,0.4425587,-1.4613447,1.9986104,-2.1068618,-1.5703839,2.4172745,-0.07097307,0.1254189,-0.14317843,0.009835726,0.0042271093,-0.06828461,-0.47884035,0.19153613,-9.5385,0.83589023,47.68062,-1.134328,-1.7626492,-3.3036532,-0.24835366,0.08189391,-0.2993695,26.25,27.125,26.25,29.3125,30.4375,30.875
0.16005236,-1.3795509,-0.25992152,-0.4710518,0.0013252039,0.04168997,-0.15328375,-0.37889224,-0.3281563,0.06006179,3.0786104,-0.62455606,-0.00019146784,-0.076588124,6.682686e-05,6.3296546e-05,-0.006881424,0.0037874042,-0.0012920445,0.4424264,-1.4610802,1.9983357,-2.106838,-1.5703839,2.4171414,-0.07134936,0.12857746,-0.14453743,0.009585084,0.0043299044,-0.069960795,-0.45968673,0.1340753,-9.481039,0.800085,47.701214,-1.2276084,-1.77754,-3.3881364,-0.23477444,0.07917656,-0.3109693,26.25,27.125,26.25,29.3125,30.4375,30.875
0.16205224,-1.7898512,-0.42620882,-0.40954542,0.0065186084,0.030127015,-0.14683892,-0.37902883,-0.32816938,0.06006442,3.0785816,-0.6245136,-0.00017313925,-0.079233855,0.0011727747,0.0009127656,-0.00773704,0.006014279,-0.0039363713,0.4423051,-1.4608407,1.9980592,-2.1068137,-1.5703481,2.4169974,-0.075613186,0.12903664,-0.14691578,0.009129492,0.0041459952,-0.07157851,-0.4405331,0.1340753,-9.346964,0.784413,47.683304,-0.93232775,-1.7818441,-3.2784495,-0.21481034,0.10149361,-0.300483,26.25,27.125,26.25,29.3125,30.4375,30.875
0.16405213,-1.422329,-0.0023598382,-0.19609098,0.009618829,0.034195036,-0.15092202,-0.3792069,-0.3281794,0.060092323,3.0785165,-0.6245198,-0.0002391149,-0.07988778,-9.090426e-05,5.542105e-05,-0.006736292,0.0043093427,-0.0015164351,0.44214877,-1.4605991,1.9977225,-2.1067898,-1.5703238,2.4168534,-0.07367645,0.13442102,-0.15112004,0.009921749,0.0039704526,-0.072058216,-0.3256114,0.076614454,-9.308656,0.8224646,47.711063,-1.1663675,-1.9638014,-3.183315,-0.21777374,0.0888004,-0.32870936,26.25,27.125,26.25,29.3125,30.4375,30.875
0.16605207,-1.239062,-0.030136285,-0.16260447,0.01321237,0.0358089,-0.14710562,-0.37937224,-0.32816172,0.060087413,3.0785372,-0.6245631,-0.00027206415,-0.08088325,0.00095144985,7.114646e-05,-0.006872195,0.0037108453,-0.0050955317,0.4419928,-1.4603237,1.9974235,-2.1067655,-1.5703601,2.416722,-0.07672093,0.13478021,-0.15176392,0.010685916,0.0043504774,-0.07152389,-0.34476504,0.05746084,-9.251195,0.8537928,47.701214,-1.0919495,-1.7574365,-3.3540635,-0.21232969,0.09222233,-0.35738564,26.25,27.125,26.25,29.3125,30.4375,30.875
0.1680521,-1.5540679,-0.2740277,-0.21020061,0.020343244,0.024980633,-0.14023809,-0.37957257,-0.3281795,0.060115602,3.0784533,-0.62454545,-0.0003554258,-0.08181875,0.0022265466,-0.00048001966,-0.006146535,0.0025616619,-0.005301808,0.44182342,-1.4600477,1.9970535,-2.1067655,-1.5703238,2.4165525,-0.07977688,0.13605648,-0.15202747,0.011026896,0.0041950867,-0.07437282,-0.34476504,0.095768064,-9.193734,0.84484416,47.70032,-0.8591993,-1.9770994,-3.3244958,-0.19116046,0.08107038,-0.37035337,26.25,27.125,26.25,29.3125,30.4375,30.875
0.17005204,-1.4478654,0.020629073,-0.13986528,0.009013894,0.024043735,-0.15218396,-0.37970707,-0.32817313,0.060105223,3.078471,-0.62452954,-0.00032451047,-0.08218177,0.0017753831,-0.00083049707,-0.0053130984,0.0019134489,-0.0058580013,0.44169188,-1.459795,1.9967893,-2.1067297,-1.5703238,2.416409,-0.078900315,0.13848752,-0.15407903,0.011591758,0.0037138716,-0.07293831,-0.34476504,0.11492168,-9.136273,0.84708,47.693153,-1.0713142,-1.9015288,-3.3126535,-0.19961712,0.080681056,-0.39887375,26.25,27.125,26.25,29.3125,30.4375,30.875
0.17205185,-0.8833413,-0.08938537,0.22103436,0.0019451929,0.04011561,-0.1560105,-0.37992465,-0.32816458,0.060125493,3.0784185,-0.6245954,-0.00046810647,-0.08396326,0.002305166,-0.00064458547,-0.0054183085,0.0027387151,-0.0049752775,0.4414991,-1.4595072,1.9964298,-2.106754,-1.5703486,2.4162643,-0.08124471,0.14015044,-0.15634003,0.011399256,0.0034605,-0.07616329,-0.36391866,0.11492168,-9.059659,0.7866488,47.694946,-0.90367115,-1.8527913,-3.3230379,-0.1664032,0.08936077,-0.39191175,26.25,27.125,26.25,29.3125,30.4375,30.875
0.17405255,-0.93959874,-0.3884059,0.06504884,0.0059347944,0.034605846,-0.14896783,-0.38006324,-0.32816437,0.06010863,3.0784178,-0.6245137,-0.00037494252,-0.08473266,0.0025243207,-0.00043228286,-0.005311409,0.0022666105,0.00030764955,0.44134295,-1.4592315,1.9961547,-2.1067173,-1.5703,2.4160573,-0.08236561,0.14114606,-0.15829468,0.012836232,0.0035654998,-0.082566544,-0.34476504,0.21068975,-9.040505,0.8314132,47.70032,-0.87961054,-1.7789636,-3.3471131,-0.15805626,0.10839471,-0.327803,26.25,27.125,26.25,29.3125,30.4375,30.875
0.17605248,-1.27024,0.11953602,0.19603008,0.0036995308,0.018189907,-0.14742501,-0.3802481,-0.32815784,0.060115874,3.0783617,-0.6245797,-0.0003986944,-0.08570775,0.0023649856,-0.00015891783,-0.0057876376,0.0027797092,0.0011676324,0.4411507,-1.4589554,1.9958295,-2.1067054,-1.5702761,2.4159136,-0.083022356,0.14230494,-0.16027802,0.012995758,0.0037778267,-0.08408215,-0.34476504,0.17238252,-9.097966,0.7105615,47.64121,-0.8748195,-1.6940778,-3.240745,-0.15500689,0.10009283,-0.33852506,26.25,27.125,26.25,29.3125,30.4375,30.875
0.17805253,-0.8700394,0.3608879,0.20769112,0.001532192,0.020508816,-0.15348893,-0.38041562,-0.32814655,0.060104825,3.0783875,-0.6245654,-0.0003501246,-0.0875498,0.0038024005,-0.00035644474,-0.005868957,0.0017621258,0.0014364799,0.44098097,-1.4586434,1.9954952,-2.1066449,-1.5702761,2.415732,-0.08762646,0.14404473,-0.16199386,0.013857488,0.004283894,-0.088954814,-0.2681506,0.11492168,-9.136273,0.8224646,47.696735,-0.7664324,-1.7198398,-3.3324382,-0.15766537,0.0968353,-0.2914301,26.25,27.125,26.25,29.3125,30.4375,30.875
0.18005235,-0.8850912,0.36824727,0.053755533,0.009631974,0.021491533,-0.14805117,-0.38058755,-0.32812178,0.06010695,3.0784354,-0.624551,-0.00038012012,-0.08692153,0.0027998232,-0.0002448538,-0.0064874846,0.0015730878,0.008500694,0.44081387,-1.4583681,1.9951714,-2.1065853,-1.5703233,2.41555,-0.08558185,0.14414048,-0.16245477,0.014125038,0.0049255528,-0.09397499,-0.2681506,0.15322891,-9.059659,0.8157518,47.699425,-0.770037,-1.7136828,-3.391111,-0.1438266,0.07935608,-0.22922125,26.25,27.125,26.25,29.3125,30.4375,30.875
0.18205224,-0.5821095,0.37283698,0.0536828,0.009359994,0.030132195,-0.15354815,-0.38077876,-0.32813695,0.060125127,3.0783617,-0.6244965,-0.00049186655,-0.08848692,0.0035743576,-0.00058748055,-0.005650107,0.0007509492,0.010232193,0.4406571,-1.4581033,1.9948472,-2.1066325,-1.5703,2.4153688,-0.0880939,0.14689778,-0.16495876,0.01497801,0.0045284987,-0.0982161,-0.28730422,0.24899697,-9.078813,0.7732232,47.655537,-0.84861016,-1.8419895,-3.2498045,-0.1457949,0.099517435,-0.17058036,26.25,27.125,26.25,29.3125,30.4375,30.875
0.1840521,-0.9481505,-0.018237596,-0.096578866,0.007134437,0.03301621,-0.14498638,-0.38094994,-0.32813418,0.06011505,3.0783873,-0.6244048,-0.00038214703,-0.09056118,0.0035809397,-1.2820855e-05,-0.0060813054,0.0022128655,0.01232991,0.44047636,-1.4577676,1.9944762,-2.106537,-1.5702642,2.4151278,-0.08972564,0.1489192,-0.1685882,0.015086128,0.004284229,-0.10194333,-0.17238252,0.076614454,-9.174581,0.8403672,47.709274,-0.5731871,-1.6132107,-3.3388715,-0.12894395,0.09097804,-0.09653116,26.25,27.125,26.25,29.3125,30.4375,30.875
0.18605222,-1.5677598,-0.5783474,-0.2811437,0.017411485,0.018558882,-0.14520675,-0.38111994,-0.3281358,0.060111534,3.078383,-0.62430656,-0.00039938788,-0.09052291,0.0031284902,0.0007818525,-0.006219776,0.0032636488,0.013948259,0.44032088,-1.4574802,1.9941653,-2.1065366,-1.5702523,2.4149117,-0.0885844,0.14796446,-0.16961092,0.016057277,0.0039649233,-0.10241996,-0.17238252,0.17238252,-9.136273,0.9164598,47.70659,-0.7630632,-1.6024408,-3.3352833,-0.12480132,0.08718077,-0.0699407,26.25,27.125,26.25,29.3125,30.4375,30.875
0.18805227,-1.4478756,-0.23227914,-0.26242968,0.0031688858,0.025512192,-0.14955275,-0.38127258,-0.3281007,0.060068488,3.0784476,-0.6243596,-0.0002742236,-0.09157483,0.0032010393,0.00093991245,-0.0063375495,0.0036823137,0.011507425,0.4401284,-1.4571443,1.9938773,-2.1064765,-1.5702642,2.4147444,-0.08954225,0.14925438,-0.17148966,0.0162167,0.0038788142,-0.100936174,-0.21068975,0.21068975,-9.212888,0.80456203,47.71823,-0.775532,-1.6272148,-3.3753629,-0.137466,0.09425309,-0.052310735,26.25,27.125,26.25,29.3125,30.4375,30.875
0.19005212,-1.3718922,-0.09537589,-0.36463067,-0.0030373288,0.027023338,-0.14792453,-0.38149115,-0.32809272,0.060092576,3.078406,-0.6243339,-0.00033770525,-0.09248813,0.0027952238,0.0012065561,-0.0067116222,0.0035101075,0.007938112,0.4399124,-1.4568444,1.993481,-2.1064398,-1.5702523,2.4145179,-0.08980369,0.15104073,-0.1743751,0.017312042,0.004292671,-0.09762694,-0.2681506,0.19153613,-9.270349,0.7732232,47.675243,-0.78792226,-1.6028936,-3.244952,-0.1333366,0.09581727,-0.0854734,26.25,27.125,26.25,29.3125,30.4375,30.875
0.19205202,-1.1069171,-0.29785976,-0.73496675,0.0077178725,0.024016118,-0.1457571,-0.38165364,-0.32808217,0.060075875,3.0784073,-0.62437373,-0.00025182575,-0.09217491,0.0026523867,-0.0010617516,-0.0051423893,-0.00093889754,0.0049849674,0.43973258,-1.4565309,1.9931577,-2.1063807,-1.5702275,2.414363,-0.08952515,0.15637422,-0.17519118,0.017489012,0.004760161,-0.09439479,-0.19153613,0.17238252,-9.346964,0.9186956,47.65643,-0.88274735,-1.6340806,-3.4373221,-0.14245065,0.08419488,-0.10086639,26.25,27.125,26.25,29.3125,30.4375,30.875
0.19405188,-0.42907476,-0.5681659,-0.8679047,-0.00048479444,0.030861028,-0.14763366,-0.38183334,-0.32806417,0.060059234,3.078453,-0.6243277,-0.00027034298,-0.09284711,0.0022381723,0.00037013675,-0.0064987238,0.0018113082,0.0015832213,0.43956462,-1.4562085,1.9928349,-2.1063683,-1.5702637,2.4141607,-0.08932708,0.15447652,-0.17642383,0.017549727,0.004812294,-0.09079481,-0.1340753,0.19153613,-9.653421,0.79560274,47.664497,-0.95223975,-1.5364764,-3.4805741,-0.12836541,0.09932153,-0.13967204,26.25,27.125,26.25,29.3125,30.4375,30.875
0.19605185,-0.47948775,-0.98731476,-1.0504204,-0.006693577,0.02669204,-0.14886288,-0.3820312,-0.3280675,0.060084693,3.0784,-0.62433773,-0.00028034268,-0.09329431,0.002391302,-0.0006981793,-0.0050856182,-0.00027328156,-0.0014871458,0.4393724,-1.4559199,1.9924396,-2.1062968,-1.570228,2.4139817,-0.089685805,0.15799122,-0.17806683,0.018170588,0.0044208006,-0.08808137,-0.038307227,0.3256114,-9.557653,0.7642693,47.64389,-1.0003777,-1.6781758,-3.3935583,-0.13138974,0.08820972,-0.16724002,26.25,27.125,26.25,29.3125,30.4375,30.875
0.19805276,-0.6325138,-1.1436918,-1.1520753,-0.018561985,0.016430253,-0.14022131,-0.38222405,-0.32806447,0.06009111,3.0784078,-0.62428135,-0.00031769596,-0.09402519,0.0022650529,-0.0017054148,-0.0038755166,-0.0022594887,-0.004490902,0.43920466,-1.4556067,1.9920686,-2.10626,-1.5702399,2.413778,-0.0898712,0.16220064,-0.1806411,0.018847553,0.0041669942,-0.08526081,-0.076614454,0.30645782,-9.653421,0.7911258,47.67166,-1.0449166,-1.8300042,-3.5149817,-0.12194373,0.09909052,-0.21876252,26.25,27.125,26.25,29.3125,30.4375,30.875
0.20005171,-0.8298865,-1.0955616,-1.1381742,-0.03945494,0.01016191,-0.13874863,-0.38242042,-0.32804772,0.060086604,3.078401,-0.6243176,-0.00031451893,-0.09421207,0.002703085,-0.003123654,-0.002306008,-0.005122451,-0.004062039,0.4390005,-1.4552822,1.9917101,-2.1062238,-1.5702399,2.4135976,-0.09065512,0.16570792,-0.1814794,0.01943923,0.0039630025,-0.08647263,-0.038307227,0.2681506,-9.710882,0.8224646,47.68062,-1.0790178,-1.9101938,-3.5176826,-0.12249254,0.10350463,-0.243779,26.25,27.125,26.25,29.3125,30.4375,30.875
0.20205264,-1.0179605,-1.7223586,-1.1926913,-0.03697179,0.0013467837,-0.14343193,-0.3826287,-0.3280579,0.060098574,3.0783446,-0.6243858,-0.00033852123,-0.09510209,0.002677612,-0.0033123908,-0.0019762826,-0.0057360535,-0.007378304,0.43882012,-1.4549462,1.991301,-2.106188,-1.5702161,2.4134672,-0.0913024,0.16797386,-0.1837897,0.02018132,0.00392315,-0.083802104,0.095768064,0.3256114,-9.768343,0.8157518,47.698532,-1.0534445,-1.9860682,-3.471675,-0.13801059,0.10400525,-0.28805387,26.25,27.125,26.25,29.3125,30.4375,30.875
0.20405222,-0.6011821,-1.5493718,-1.1743276,-0.034768764,0.0053550554,-0.13814,-0.38279834,-0.32802176,0.060065027,3.078375,-0.62448823,-0.00023085823,-0.096916236,0.0025119192,-0.0026418131,-0.003151444,-0.0041458835,-0.008740487,0.43860367,-1.4546102,1.9909905,-2.1061285,-1.5702161,2.413311,-0.0927793,0.16930304,-0.18679768,0.019921035,0.0042966995,-0.08391567,0.076614454,0.3256114,-9.730036,0.80456203,47.696735,-0.9425402,-1.9900451,-3.550175,-0.12355387,0.10630301,-0.32791126,26.25,27.125,26.25,29.3125,30.4375,30.875
0.206052,-0.65989566,-1.4573082,-1.142845,-0.031306837,0.00093770376,-0.13661078,-0.3830051,-0.32803556,0.060068868,3.078361,-0.6244097,-0.00029012794,-0.09764095,0.0023591397,-0.002859594,-0.0038441278,-0.0040619015,-0.010657388,0.43844724,-1.4542624,1.9905947,-2.1061285,-1.5702156,2.4131076,-0.09346518,0.17075524,-0.18777885,0.019078191,0.004887215,-0.08268415,0.0,0.49799395,-9.710882,0.8090337,47.70659,-1.0273232,-1.9010761,-3.4547346,-0.1323747,0.11019437,-0.35442942,26.25,27.125,26.25,29.3125,30.4375,30.875
0.2080518,-0.39956096,-1.3739122,-1.0944308,-0.03052064,0.013032353,-0.14931996,-0.38318583,-0.3280415,0.06006315,3.0783544,-0.62442756,-0.000263274,-0.09863166,0.0016218552,-0.0029651755,-0.0042805434,-0.004041201,-0.011949576,0.4382915,-1.4539261,1.9902228,-2.1060808,-1.5702037,2.412964,-0.09316162,0.17353463,-0.1906625,0.018978436,0.0052651316,-0.08108687,0.05746084,0.5554548,-9.634268,0.8985519,47.66271,-1.0542945,-1.9605057,-3.3730917,-0.10473784,0.10453044,-0.43467087,26.25,27.125,26.25,29.3125,30.4375,30.875
0.21005172,-0.44481185,-0.9911612,-1.2863598,-0.034601286,0.009881345,-0.14376341,-0.38339213,-0.32802436,0.06008464,3.078335,-0.6244621,-0.00031853738,-0.100333296,0.0024267212,-0.0024994416,-0.00513454,-0.0030886715,-0.013048263,0.43808648,-1.4536386,1.9898399,-2.1060207,-1.5702156,2.4127834,-0.096328706,0.17391698,-0.19218105,0.018889355,0.0056344494,-0.083154604,0.0,0.4405331,-9.691729,0.8537928,47.694946,-0.9911617,-1.7833482,-3.4249973,-0.108218044,0.103719786,-0.47284597,26.25,27.125,26.25,29.3125,30.4375,30.875
0.2120527,-0.70363796,-1.4789646,-1.0276709,-0.034955148,0.018348588,-0.14363952,-0.38359526,-0.3280367,0.06007651,3.0783103,-0.62447286,-0.00026924006,-0.09975425,0.0012606211,-0.0022070291,-0.0053788032,-0.002868733,-0.007828154,0.43790737,-1.4532552,1.9894208,-2.105973,-1.5701798,2.4126143,-0.093674175,0.17406766,-0.19321577,0.019475209,0.005761607,-0.08572006,-0.05746084,0.40222588,-9.615114,0.83589023,47.71286,-1.0697999,-1.8886437,-3.546319,-0.09274873,0.1179827,-0.47051033,26.25,27.125,26.25,29.3125,30.4375,30.875
0.21405163,-1.1549116,-1.6815088,-0.84503204,-0.04266621,0.021254713,-0.14339845,-0.38377205,-0.3280227,0.060060218,3.0782967,-0.6245056,-0.00018686241,-0.10120105,0.0025634354,-0.0024792512,-0.0049917335,-0.0039067697,-0.0037760201,0.43770218,-1.452931,1.989086,-2.1059244,-1.5701436,2.4124315,-0.09735866,0.17565234,-0.19462608,0.02041226,0.00585021,-0.093456306,-0.11492168,0.38307226,-9.500193,0.86498255,47.69763,-1.166071,-1.854451,-3.6067178,-0.100916676,0.10606917,-0.42614803,26.25,27.125,26.25,29.3125,30.4375,30.875
0.21605268,-1.1920369,-1.3069211,-0.6846234,-0.030050205,0.02800969,-0.14470795,-0.38400948,-0.3280359,0.060072236,3.0782497,-0.62439764,-0.00029613735,-0.10203091,0.001132675,-0.0013593064,-0.0062243147,-0.0019024678,0.002191339,0.43751082,-1.4525717,1.9886664,-2.1059601,-1.5701317,2.412179,-0.09553432,0.17635065,-0.19813623,0.02088946,0.006121997,-0.09759719,-0.11492168,0.24899697,-9.3661175,0.8605109,47.689575,-1.1442043,-1.7539241,-3.493978,-0.08203086,0.10992063,-0.40735763,26.25,27.125,26.25,29.3125,30.4375,30.875
0.21805218,-1.0315595,-0.7682298,-0.53854084,-0.0037879476,0.029670162,-0.1457897,-0.38421053,-0.3280336,0.060071602,3.0782528,-0.6243736,-0.00029699862,-0.10370924,0.0010257025,1.278482e-05,-0.008424585,0.00060024107,0.008941721,0.4373302,-1.4522246,1.9882702,-2.1059124,-1.5701312,2.4119833,-0.097357795,0.17558795,-0.20045859,0.020776942,0.007054943,-0.106170826,-0.05746084,0.15322891,-9.461885,0.9410752,47.72808,-1.1315744,-1.5944195,-3.5100608,-0.07007643,0.09123865,-0.35147807,26.25,27.125,26.25,29.3125,30.4375,30.875
0.22005205,-0.6905672,0.10616389,-0.43154705,0.0055785435,0.03416751,-0.14647418,-0.38442227,-0.32801238,0.060066078,3.078262,-0.6243746,-0.00030680632,-0.10522312,0.0012906363,0.00035433815,-0.0088179195,0.0015020829,0.012132664,0.43711352,-1.4518766,1.9878868,-2.1058762,-1.5701431,2.4117663,-0.09908234,0.17683332,-0.20268767,0.020779584,0.007028207,-0.11108498,-0.095768064,0.1340753,-9.404425,0.8985519,47.711063,-1.1414641,-1.6164718,-3.5065124,-0.07030427,0.07538848,-0.2668965,26.25,27.125,26.25,29.3125,30.4375,30.875
0.22205196,-1.0957332,0.13539244,-0.4347689,0.029595945,0.01722053,-0.135346,-0.38463885,-0.32801288,0.06007516,3.078233,-0.6243471,-0.00031417917,-0.10697521,0.0012345356,0.00083848543,-0.009224958,0.0027866764,0.014768968,0.43690932,-1.4515288,1.9874672,-2.1058285,-1.5701193,2.4115489,-0.100317486,0.17860806,-0.20584486,0.0208324,0.006852666,-0.1149542,-0.21068975,0.19153613,-9.193734,0.8247004,47.66539,-1.1872317,-1.4824396,-3.4035206,-0.055311553,0.088326514,-0.2150478,26.25,27.125,26.25,29.3125,30.4375,30.875
0.22405182,-0.6519459,0.7027974,-0.5378441,0.04406968,0.021973848,-0.14462207,-0.38485706,-0.32804462,0.06009379,3.0781898,-0.6241638,-0.00038396785,-0.10759686,0.0006114311,0.0010516826,-0.009489384,0.0036715735,0.017960798,0.43675354,-1.4511809,1.9870366,-2.1058285,-1.570083,2.4112844,-0.09954982,0.17984205,-0.20770283,0.020549659,0.0067253658,-0.117376536,-0.30645782,-0.019153614,-9.212888,0.87617236,47.7254,-1.1636692,-1.4880159,-3.3243108,-0.05068022,0.07018997,-0.15471436,26.25,27.125,26.1875,29.3125,30.4375,30.875
0.22605179,-0.64774436,1.2766273,-0.5466983,0.035938226,0.028996352,-0.152245,-0.38507882,-0.32803437,0.060077142,3.078173,-0.6241803,-0.0003470542,-0.108482674,0.0008357944,0.0013330275,-0.009948423,0.0035407771,0.016035596,0.4365251,-1.4507854,1.9866279,-2.1058042,-1.5700592,2.4110687,-0.10097107,0.18056445,-0.20943496,0.021486396,0.0071950927,-0.11687236,-0.24899697,-0.05746084,-9.346964,0.78888994,47.686886,-1.3204522,-1.4410671,-3.248797,-0.034810394,0.067906775,-0.15133356,26.25,27.125,26.1875,29.3125,30.375,30.875
0.22805184,-1.6870158,0.033541355,-0.79050714,0.045804705,0.026777646,-0.13679755,-0.38528657,-0.32802606,0.0600872,3.0781758,-0.6241258,-0.00033158396,-0.10947367,0.0011521268,0.00088699127,-0.009136801,0.0019368158,0.0118197175,0.43632057,-1.450449,1.9862102,-2.1057198,-1.5700473,2.41083,-0.10230877,0.18349229,-0.21208818,0.023010252,0.0071344525,-0.11399273,-0.4213795,0.038307227,-9.270349,0.83589023,47.72002,-1.0668361,-1.4557321,-3.3633223,-0.03463782,0.06430655,-0.15893355,26.25,27.125,26.1875,29.3125,30.375,30.875
0.23005177,-1.8597217,0.11394318,-0.700802,0.024133712,0.048705667,-0.13674478,-0.38548383,-0.32802144,0.06008552,3.0782068,-0.624077,-0.00028590517,-0.11062613,0.0015357421,0.00028998818,-0.007581929,0.0002646506,0.0062352526,0.4361401,-1.4500885,1.9857897,-2.105624,-1.5700473,2.4106154,-0.10348432,0.187141,-0.21524361,0.024691219,0.0064228713,-0.10958167,-0.5363012,-0.1340753,-9.385271,0.78217715,47.652847,-1.197605,-1.5908902,-3.2743273,-0.049691226,0.067385145,-0.20058724,26.25,27.125,26.1875,29.3125,30.375,30.875
0.23205166,-1.9227922,0.043680888,-0.73107696,0.014271297,0.06383105,-0.14606646,-0.3857094,-0.32801902,0.060083233,3.0781922,-0.6240957,-0.0002447881,-0.111501575,0.0023192302,-0.00078228646,-0.006002811,-0.0022604754,0.0002878446,0.43592367,-1.4496912,1.9853348,-2.1055515,-1.5700239,2.4104128,-0.10537362,0.19073206,-0.21716754,0.025983155,0.006053194,-0.10552218,-0.5746084,0.038307227,-9.289502,0.83589023,47.68599,-1.1058716,-1.874305,-3.240755,-0.063619435,0.05803427,-0.25149056,26.25,27.125,26.1875,29.3125,30.375,30.875
0.2340525,-2.0893302,-0.042579874,-0.68743396,-0.0045434744,0.08341683,-0.13711058,-0.38593838,-0.32801202,0.06009156,3.0781538,-0.6241096,-0.00025132942,-0.11237239,0.0028627084,-0.00090020214,-0.005729605,-0.0028783109,-0.0032832446,0.43569505,-1.4493318,1.9849032,-2.1055033,-1.5699991,2.410198,-0.10706249,0.1920149,-0.21858105,0.026792314,0.0060665323,-0.103639185,-0.63206923,0.038307227,-9.346964,0.8873621,47.67793,-1.0285197,-1.8260784,-3.2936606,-0.06263845,0.058786623,-0.29283154,26.25,27.125,26.1875,29.3125,30.375,30.875
0.23605259,-2.6717553,-0.54073733,-0.7306589,-0.011797417,0.076509275,-0.14026119,-0.38614306,-0.32800585,0.060090482,3.0781455,-0.62412834,-0.00019786994,-0.11357441,0.0036044517,-0.0011361267,-0.005755769,-0.0032583761,-0.005371933,0.43549013,-1.4489723,1.984485,-2.1054199,-1.5699757,2.410006,-0.10952339,0.19349968,-0.21977754,0.026840944,0.0062457076,-0.10401097,-0.7086837,0.1340753,-9.3661175,0.90750587,47.717335,-0.9424007,-1.6673764,-3.3302507,-0.07057062,0.065687835,-0.32250863,26.25,27.125,26.1875,29.3125,30.375,30.875
0.23805268,-2.2660782,-0.7700298,-0.71114355,-0.0179436,0.07550765,-0.14619577,-0.3863677,-0.32799655,0.06008469,3.078173,-0.624076,-0.00019213874,-0.114648834,0.004230874,-0.0014158895,-0.004738654,-0.003491002,-0.0069655003,0.43528566,-1.4485765,1.984042,-2.1053598,-1.5699877,2.4097657,-0.110986285,0.19536655,-0.2213861,0.02722558,0.0054173837,-0.1038787,-0.7469909,0.21068975,-9.481039,0.83589023,47.694054,-0.90007496,-1.6299658,-3.4433293,-0.082542256,0.06995903,-0.3398721,26.25,27.125,26.1875,29.3125,30.375,30.875
0.24005234,-2.529482,-1.2140547,-0.6353891,-0.015283143,0.066297546,-0.13505642,-0.38662058,-0.32798946,0.06007237,3.0781422,-0.6241095,-0.0002100468,-0.115370885,0.004937418,-0.0014193034,-0.004324974,-0.0029055024,-0.009609648,0.43504545,-1.4481452,1.9835881,-2.1053603,-1.5699762,2.4095507,-0.112413764,0.19551778,-0.22155128,0.026887134,0.004795684,-0.10266134,-0.78529817,0.22984336,-9.461885,0.92764956,47.694946,-0.9177398,-1.6634579,-3.513798,-0.084356144,0.05909377,-0.38107324,26.25,27.125,26.1875,29.3125,30.375,30.875
0.24205238,-1.8667412,-0.871718,-0.6350455,-0.013909736,0.072096616,-0.14048477,-0.38683492,-0.32796216,0.06006895,3.0781398,-0.62420434,-0.00020447499,-0.11630598,0.0052837664,-0.001993598,-0.0038582752,-0.0032960474,-0.008438105,0.43481696,-1.4477971,1.9831928,-2.1053002,-1.5699881,2.4093819,-0.11360897,0.19778839,-0.22271688,0.026335234,0.0045329896,-0.10502692,-0.6512228,0.21068975,-9.385271,0.8403672,47.672558,-0.84134364,-1.675035,-3.621686,-0.06820615,0.07632606,-0.38915035,26.25,27.125,26.1875,29.3125,30.375,30.875
0.24405216,-1.7009753,-0.5588804,-0.6671782,-0.011764103,0.05929061,-0.13893595,-0.3870878,-0.32797894,0.060097665,3.0780966,-0.6241744,-0.00024223067,-0.11771955,0.004620528,-0.0013866575,-0.004548717,-0.0019149499,-0.008189646,0.43461308,-1.4474012,1.982665,-2.1052163,-1.5699643,2.4091651,-0.113542095,0.19955169,-0.22619146,0.026506636,0.004575497,-0.10520634,-0.53630114,0.2681506,-9.385271,0.89631605,47.694946,-0.8615428,-1.5893979,-3.6221013,-0.0822842,0.08384643,-0.42797375,26.25,27.125,26.1875,29.3125,30.375,30.875
0.24605209,-1.5335767,-0.64172786,-0.40827698,-0.0011556704,0.051936336,-0.14079864,-0.38735542,-0.32797244,0.060105547,3.078042,-0.62413967,-0.00033581178,-0.11881151,0.0040637376,-0.0012131413,-0.0049842508,-0.0014003613,-0.00079098175,0.43436125,-1.447005,1.9822091,-2.10524,-1.5699519,2.4088988,-0.113478936,0.20166764,-0.22905642,0.026611963,0.00476215,-0.112539895,-0.45968673,0.22984336,-9.270349,0.8717007,47.686886,-0.8931267,-1.6551685,-3.4767542,-0.08390282,0.08231172,-0.3734761,26.25,27.125,26.1875,29.3125,30.375,30.875
0.24805218,-1.0370092,-0.18800552,-0.3268869,0.0060181655,0.052205775,-0.14551103,-0.3875854,-0.32794175,0.060083583,3.0780957,-0.62418574,-0.00026603905,-0.11898215,0.0038714707,-0.001943384,-0.004545825,-0.0029417248,0.004359317,0.43412128,-1.446573,1.9817537,-2.1051443,-1.5699757,2.4086812,-0.11334408,0.20410405,-0.23028417,0.026986755,0.0050061373,-0.1175551,-0.47884035,0.19153613,-9.251195,0.8247004,47.692257,-0.9317552,-1.6663601,-3.524601,-0.07537237,0.08746641,-0.32991534,26.25,27.125,26.1875,29.3125,30.375,30.875
0.250052,-0.98726016,-0.10440135,-0.37484935,0.012904615,0.041126646,-0.13517001,-0.38781464,-0.32793334,0.060066834,3.0780947,-0.6241647,-0.00021156538,-0.12133784,0.0047667916,-0.0016350078,-0.0047062235,-0.002295469,0.007509896,0.4338918,-1.4461532,1.9813107,-2.105096,-1.5699519,2.408439,-0.11685661,0.20615534,-0.23348495,0.027491083,0.004875189,-0.124216445,-0.3256114,0.28730422,-9.212888,0.86945957,47.691364,-0.8141109,-1.7191746,-3.5221958,-0.07113189,0.07239202,-0.28133062,26.25,27.125,26.1875,29.3125,30.375,30.875
0.252052,-0.8357595,0.022237152,-0.34299645,-0.0040617604,0.030699028,-0.14293557,-0.3880779,-0.3279294,0.06008277,3.0780842,-0.6241187,-0.00028286237,-0.12130948,0.0031146922,-0.0008553244,-0.0051774723,-0.0016157428,0.017360138,0.43366516,-1.4457458,1.9808067,-2.1050475,-1.5699638,2.4081852,-0.113778286,0.20704484,-0.23668772,0.028992847,0.005024149,-0.1309869,-0.17238252,0.28730422,-9.289502,0.92093146,47.72808,-1.047539,-1.6072283,-3.38619,-0.09709701,0.08732091,-0.19832835,26.25,27.125,26.1875,29.3125,30.375,30.875
0.2540518,-0.4132785,-0.6218767,-0.3383431,0.0019082467,0.022698306,-0.1429915,-0.38834614,-0.32789984,0.06009645,3.0780754,-0.6241386,-0.00032376993,-0.124153726,0.004323473,7.66895e-05,-0.0053828484,-0.0003124942,0.0133251175,0.43338734,-1.4453502,1.9803156,-2.1049755,-1.5699762,2.4079213,-0.11811575,0.20837331,-0.2407125,0.030421613,0.004661337,-0.13128705,-0.038307227,0.22984336,-9.251195,0.8023209,47.703903,-0.78150105,-1.5619121,-3.2717052,-0.105213225,0.10083408,-0.13541618,26.25,27.125,26.1875,29.3125,30.375,30.875
0.25605255,-0.30098283,-0.535772,-0.45403588,-0.0005466446,2.1821646e-05,-0.13912539,-0.3885916,-0.3278998,0.06008757,3.0780861,-0.6240237,-0.00028374954,-0.12508899,0.003612486,0.00094819616,-0.00584501,0.0011324424,0.015188231,0.4331597,-1.4449067,1.9798249,-2.104915,-1.5699519,2.407621,-0.117382586,0.20909266,-0.24379858,0.031288706,0.0044690864,-0.13241552,-0.11492168,0.24899697,-9.251195,0.7866488,47.686886,-0.9105246,-1.549279,-3.2140856,-0.10814403,0.090784214,-0.09021462,26.25,27.125,26.1875,29.3125,30.375,30.875
0.25805187,0.04621697,-0.36348826,-0.72113323,-0.0004491691,0.003039561,-0.14343478,-0.38882014,-0.32788295,0.0600615,3.0781164,-0.6240513,-0.00020678289,-0.1262577,0.003287689,0.0012881571,-0.006465239,0.0022432967,0.010527605,0.4329317,-1.4444629,1.9793705,-2.1048439,-1.5699519,2.4074066,-0.11774921,0.2104255,-0.24608941,0.030976411,0.004550537,-0.12812051,0.0,0.2681506,-9.193734,0.842603,47.664497,-0.93813336,-1.5589852,-3.1557055,-0.1007639,0.10828988,-0.11488865,26.25,27.125,26.1875,29.3125,30.375,30.875
0.26005176,-0.49039423,-0.7715215,-0.74078745,0.0011686938,0.0055517578,-0.13964696,-0.38908482,-0.3278871,0.060092665,3.0780566,-0.6240808,-0.00028453523,-0.12575497,0.0039551784,-0.0002351927,-0.0052944343,-0.0021713628,0.0045890994,0.43270347,-1.444079,1.9788545,-2.1047828,-1.5699395,2.4072046,-0.11897673,0.2130556,-0.24605016,0.032802798,0.0053500007,-0.12341005,-0.038307227,0.3256114,-9.308657,0.8918391,47.692257,-1.0751517,-1.5322499,-3.2416558,-0.120449275,0.10603464,-0.16843733,26.25,27.125,26.1875,29.3125,30.375,30.875
0.26205257,-0.2723234,-0.8634987,-0.79453444,-0.009877701,0.014363508,-0.14108564,-0.38931483,-0.3278687,0.06006619,3.0781012,-0.6239941,-0.00019474386,-0.12507077,0.0032465411,0.0001485325,-0.0056137275,-0.003089316,0.0022293644,0.4324639,-1.4436358,1.9784011,-2.1047108,-1.5699276,2.4069057,-0.11742618,0.21269733,-0.24709617,0.034904726,0.0060171345,-0.11950085,0.038307227,0.28730422,-9.32781,0.8090337,47.695843,-1.0068582,-1.371573,-3.2671776,-0.17933674,0.09787443,-0.2056082,26.25,27.125,26.1875,29.3125,30.375,30.875
0.26405245,-0.019944936,-1.0893899,-0.862625,-0.023295766,0.02459334,-0.14121348,-0.389574,-0.3278563,0.060041916,3.0781193,-0.6240026,-0.000119223696,-0.1262892,0.005166746,-0.0024425036,-0.0031330108,-0.008029619,-0.0058454406,0.43221053,-1.4431424,1.9778861,-2.1046388,-1.5699157,2.4066556,-0.12178697,0.21866883,-0.24810836,0.035471972,0.0058247247,-0.11578582,0.038307227,0.34476504,-9.404425,0.83365434,47.704796,-1.035247,-1.7092377,-3.4454985,-0.1910342,0.11113634,-0.26730144,26.25,27.125,26.1875,29.3125,30.375,30.875
0.2660522,-0.57447475,-1.1624519,-0.6170084,-0.026913049,0.007760124,-0.13694334,-0.3898104,-0.32783216,0.060031906,3.0781066,-0.62407666,-4.8845424e-05,-0.12527971,0.004299298,-0.0035920215,-0.00155484,-0.010746048,-0.005850838,0.4319474,-1.4427341,1.9774312,-2.1045544,-1.5698918,2.4064405,-0.11902219,0.22159284,-0.24913102,0.03670196,0.0055218567,-0.11301504,0.095768064,0.22984336,-9.32781,0.87393653,47.691364,-1.0584906,-1.8062191,-3.499385,-0.20612279,0.092992604,-0.32159436,26.25,27.125,26.1875,29.3125,30.375,30.875
0.26805213,0.13141525,-0.91173965,-0.91677004,-0.008706405,0.008242254,-0.13701093,-0.3900763,-0.32783842,0.060031652,3.0780957,-0.6240947,-6.2064064e-05,-0.12632166,0.0046205358,-0.0039893105,-0.0010634796,-0.011216718,-0.009390585,0.43173102,-1.4422663,1.9768924,-2.1044943,-1.5698918,2.4062371,-0.12023841,0.22389376,-0.25094044,0.03684429,0.0052669174,-0.11069012,0.24899697,0.22984336,-9.385271,0.89631605,47.681515,-1.1264954,-1.8275044,-3.5593753,-0.23640606,0.118066244,-0.37879288,26.25,27.125,26.1875,29.3125,30.375,30.875
0.2700519,0.588147,-0.5128349,-0.60314715,-0.0014938363,-0.0036846297,-0.1407217,-0.39031306,-0.32781568,0.06000396,3.0781262,-0.62410295,3.9167568e-05,-0.12882009,0.00415412,-0.002805911,-0.0034461871,-0.0075699324,-0.0130855115,0.4314784,-1.4418108,1.9764246,-2.1044114,-1.5698799,2.405986,-0.12182083,0.22478166,-0.25432944,0.03503549,0.0058833472,-0.10857641,0.21068975,0.19153613,-9.32781,0.82694155,47.690468,-1.0250492,-1.8338852,-3.60819,-0.22353461,0.11767587,-0.4464857,26.25,27.125,26.1875,29.3125,30.375,30.875
0.27205178,-0.12777004,-0.8315715,-0.8178312,0.0018918138,-0.02578087,-0.124298856,-0.3905888,-0.32781994,0.06001645,3.0780907,-0.6241331,-2.0347903e-05,-0.12975578,0.0039185737,-0.0037178101,-0.003350272,-0.0082272375,-0.013160737,0.4312504,-1.4413667,1.9758857,-2.1043642,-1.5698799,2.4057817,-0.122201785,0.22830954,-0.25603807,0.033854533,0.0060686157,-0.10888049,0.076614454,0.30645782,-9.232041,0.8918391,47.67345,-1.0199462,-1.8944569,-3.5343764,-0.2305719,0.12902814,-0.49907064,26.25,27.125,26.1875,29.3125,30.375,30.875
0.27405286,0.13587977,-0.7122436,-0.72668594,-0.011666751,-0.014418614,-0.1407475,-0.39081705,-0.32780015,0.0599947,3.0781116,-0.6241546,6.9282876e-05,-0.13070881,0.0036968403,-0.0029233142,-0.0038655975,-0.007255963,-0.010097255,0.43101025,-1.4409353,1.9754308,-2.1042798,-1.569867,2.4055526,-0.122543484,0.22863354,-0.2585678,0.034967773,0.0061215586,-0.112285145,0.0,0.2681506,-9.155427,0.97464454,47.72092,-1.0550148,-1.8539414,-3.5065336,-0.22153473,0.11938471,-0.50759983,26.25,27.125,26.1875,29.3125,30.375,30.875
0.27605227,-0.28931025,-1.1218691,-0.664588,-0.01086374,0.002260245,-0.13594954,-0.3910937,-0.32780424,0.05998833,3.078076,-0.62418073,0.000102860984,-0.1325566,0.0036520946,-0.0011393307,-0.005091726,-0.0049141166,-0.0018104799,0.43075788,-1.4404444,1.9748791,-2.1042192,-1.5698313,2.4053214,-0.12401054,0.22806069,-0.26254913,0.036894538,0.0062568714,-0.12203775,-0.15322891,0.38307226,-9.212888,0.8112748,47.698532,-1.0290452,-1.7749486,-3.478463,-0.26116443,0.13449726,-0.4553361,26.25,27.125,26.1875,29.3125,30.375,30.875
0.27803376,-0.7229102,-1.4013476,-0.86626923,-0.014484996,0.020364674,-0.13779046,-0.3913412,-0.32779914,0.05998076,3.0781052,-0.6241637,0.00019091352,-0.13385978,0.003769224,-0.00027931365,-0.005613583,-0.0041480837,0.0033307648,0.43052942,-1.4399763,1.9743394,-2.104087,-1.5698193,2.405079,-0.12532963,0.22850546,-0.26547816,0.03847228,0.0064033493,-0.12849757,-0.1340753,0.36391866,-9.308657,0.8224646,47.69763,-0.9828037,-1.8029035,-3.283842,-0.30530238,0.11557943,-0.39580873,26.25,27.125,26.1875,29.3125,30.375,30.875
0.28005278,-1.0658016,-1.0799521,-0.80196345,-0.03735973,0.046821706,-0.14316617,-0.3915927,-0.32778743,0.059977584,3.0781555,-0.6240339,0.00021176004,-0.13538632,0.0033437544,-0.00022181656,-0.0068203676,-0.0037616375,0.013148835,0.43030125,-1.4395329,1.9738253,-2.1039917,-1.5698313,2.4047637,-0.1263531,0.2310686,-0.26850542,0.03808658,0.0073320316,-0.13933839,-0.15322891,0.38307226,-9.481039,0.90527004,47.703903,-0.99160993,-1.7951694,-3.3382206,-0.32047158,0.11736191,-0.27120644,26.25,27.125,26.1875,29.3125,30.375,30.875
0.28205216,-1.5957395,-1.6907748,-0.736004,-0.047449876,0.076911986,-0.13737714,-0.39184907,-0.3277623,0.059935424,3.0781674,-0.6241099,0.00036705466,-0.13653079,0.0030221315,-2.4945191e-05,-0.0075253523,-0.002565532,0.018485742,0.4300131,-1.4390175,1.9733218,-2.1039078,-1.5697955,2.4045217,-0.12669817,0.2324784,-0.27047434,0.037275895,0.007456086,-0.14502001,-0.51714754,0.34476504,-9.404425,0.8627467,47.688675,-0.9977794,-1.765542,-3.4138415,-0.3227017,0.12408766,-0.20080781,26.25,27.125,26.1875,29.3125,30.375,30.875
0.28405163,-1.9651202,-1.4660754,-0.6116423,-0.05149719,0.10583484,-0.14447612,-0.3921442,-0.32777238,0.059972215,3.07813,-0.6239878,0.00027283575,-0.13786277,0.0036874341,0.0004217471,-0.008675777,-0.0012773281,0.018367184,0.4297721,-1.4385862,1.9727353,-2.1038368,-1.5697826,2.4042096,-0.1292729,0.23222283,-0.27113435,0.036545057,0.007975275,-0.14747587,-0.6895301,0.40222588,-9.442732,0.8560339,47.677036,-0.85107374,-1.6378754,-3.4673388,-0.34153265,0.11048052,-0.1364925,26.25,27.125,26.1875,29.3125,30.375,30.875
0.28605247,-2.3867853,-1.0196677,-0.9409831,-0.03345557,0.11206648,-0.13717547,-0.3923988,-0.32776412,0.05995196,3.0781133,-0.62402105,0.00038093375,-0.13811062,0.0023513497,0.00045551776,-0.009015322,-0.00023949644,0.019935349,0.42950913,-1.4381068,1.9722217,-2.1037529,-1.5697349,2.4039698,-0.12681991,0.23398137,-0.27310452,0.035680845,0.007838506,-0.14659001,-0.7469909,0.36391866,-9.481039,0.84484416,47.67345,-1.1661539,-1.644892,-3.5053284,-0.3355173,0.103973426,-0.12143284,26.25,27.125,26.1875,29.3125,30.375,30.875
0.28805244,-2.8339398,-0.48330843,-0.73521906,-0.013772966,0.10515193,-0.12980223,-0.39269376,-0.32776752,0.059940588,3.0781193,-0.6239708,0.00040786102,-0.13899432,0.0027343363,-0.0006124858,-0.009241092,-0.0011189355,0.009304941,0.4292567,-1.4375668,1.9716223,-2.1036818,-1.5697225,2.4036856,-0.12852044,0.23667462,-0.27344525,0.03402841,0.008401708,-0.13766018,-0.6512228,0.21068975,-9.5385,0.9567419,47.70659,-0.9837578,-1.6659212,-3.6641288,-0.34186035,0.10207096,-0.17373371,26.25,27.125,26.1875,29.3125,30.375,30.875
0.29005182,-2.3086014,-0.50783545,-0.6612044,0.0018631134,0.11392987,-0.13564761,-0.39298943,-0.3277689,0.059928924,3.07809,-0.6239479,0.00040295365,-0.1397339,0.0020033976,-0.0016132004,-0.009221737,-0.0012159635,0.0050349827,0.42899275,-1.4370499,1.9710602,-2.1036584,-1.5696987,2.4034114,-0.12768824,0.2404094,-0.27502012,0.031966012,0.008418369,-0.13255623,-0.9002198,0.15322891,-9.557653,0.90527004,47.694946,-1.216408,-1.858783,-3.6743355,-0.32404035,0.106856465,-0.24975055,26.25,27.125,26.1875,29.3125,30.375,30.875
0.29205158,-2.0287604,0.460574,-0.82756484,0.007500397,0.10199985,-0.14153568,-0.3932501,-0.32776663,0.05990678,3.078095,-0.6238934,0.00045614416,-0.14208719,0.0025729854,-0.00094352517,-0.010309458,0.0017265716,-0.000114673356,0.428752,-1.436559,1.9705456,-2.1036108,-1.5696748,2.4031363,-0.13045047,0.2410633,-0.27699077,0.030158525,0.008172608,-0.13016742,-0.7661445,0.019153614,-9.481039,0.8717007,47.67166,-1.0668222,-1.8791413,-3.7519455,-0.31951907,0.09103611,-0.3240469,26.25,27.125,26.1875,29.3125,30.375,30.875
0.29403424,-1.8853381,0.4005425,-0.922423,0.033758886,0.07537495,-0.12986976,-0.39353734,-0.32776356,0.05991412,3.0780506,-0.6238653,0.00041758307,-0.14559963,0.0027601237,0.00051304966,-0.011741915,0.0061987913,-0.002646918,0.42848724,-1.4361036,1.9700063,-2.1035755,-1.5696505,2.40286,-0.13326766,0.24246232,-0.2816987,0.02881222,0.0076120715,-0.13044858,-0.51714754,-0.019153614,-9.557653,0.8605109,47.692257,-1.0651097,-1.8095411,-3.622236,-0.29429635,0.090478316,-0.32070357,26.25,27.125,26.1875,29.3125,30.375,30.875
0.29605207,-1.3229476,0.7269404,-0.88344824,0.02117831,0.065682985,-0.1422512,-0.39383507,-0.3277461,0.05990151,3.0780659,-0.6239067,0.00043733168,-0.14680077,0.0019187878,0.00046326144,-0.011992657,0.007348923,-0.0024413094,0.42821145,-1.4355754,1.9694194,-2.1034925,-1.5696629,2.4026084,-0.13243432,0.24525917,-0.2846398,0.02780718,0.0073534343,-0.12981881,-0.57460845,-0.11492168,-9.500193,0.83813137,47.666286,-0.99378943,-1.9874082,-3.4904637,-0.25854433,0.0927551,-0.35607305,26.25,27.125,26.1875,29.3125,30.375,30.875
0.2980521,-0.828478,0.57477784,-0.90129113,0.031404037,0.04930322,-0.13991973,-0.3941188,-0.32774255,0.05989399,3.0780156,-0.6239551,0.0004813469,-0.14939629,0.0028235358,0.0007486267,-0.011818323,0.008666214,-0.004840515,0.427934,-1.4350839,1.9688672,-2.1034324,-1.5696152,2.4023678,-0.1356879,0.24762364,-0.28807014,0.027758783,0.006644163,-0.13067046,-0.5363012,-0.095768064,-9.385271,0.8537928,47.692257,-0.9157397,-1.8774966,-3.449138,-0.25889403,0.112200245,-0.37090462,26.25,27.125,26.1875,29.3125,30.375,30.875
0.30005252,-0.70955837,0.20160984,-1.0301988,0.029255344,0.044784006,-0.13767412,-0.39445025,-0.3277384,0.05990723,3.077968,-0.62397975,0.0003927137,-0.14882971,0.0026830193,-0.00045650604,-0.01023857,0.0064872387,-0.0003878811,0.42764702,-1.4345678,1.9682449,-2.1033962,-1.5696157,2.4021027,-0.13446476,0.25007737,-0.28831056,0.02819055,0.006124824,-0.1338988,-0.30645782,0.019153614,-9.423578,0.8851263,47.670765,-0.9863904,-2.0012274,-3.3582306,-0.24095497,0.118421316,-0.3720161,26.25,27.125,26.1875,29.3125,30.375,30.875
0.30205256,-1.2985287,-0.12288985,-1.0660491,0.01060776,0.037523873,-0.13433139,-0.394722,-0.3277196,0.05988752,3.0780382,-0.62395173,0.0004367929,-0.14982599,0.0023521176,-0.00020403248,-0.010206606,0.0072662556,0.0056923903,0.42740673,-1.4340521,1.9676818,-2.1032884,-1.5696515,2.4018364,-0.13433965,0.25165945,-0.29086697,0.028472973,0.0057642483,-0.13985267,-0.38307226,0.038307227,-9.461885,0.99702406,47.68599,-1.0714304,-1.9874923,-3.4477444,-0.25127465,0.12229587,-0.33299875,26.25,27.125,26.1875,29.3125,30.375,30.875
0.30405158,-1.1710633,-0.72681683,-1.0513027,-0.0021121807,0.052655227,-0.14163731,-0.39502966,-0.3277165,0.059889894,3.0779967,-0.6239015,0.00042677202,-0.15094097,0.0024229805,0.00012839487,-0.0110418815,0.0074936417,0.012196021,0.42711824,-1.4335486,1.9670953,-2.1032403,-1.5696152,2.4015222,-0.1357044,0.25266317,-0.29302248,0.02908402,0.006437841,-0.14772074,-0.26815057,0.076614454,-9.500193,0.8224646,47.6636,-1.0693095,-2.0068486,-3.4906096,-0.22597276,0.1251347,-0.23467289,26.25,27.125,26.1875,29.3125,30.375,30.875
0.30605245,-1.5733811,-1.045914,-0.8827488,-0.013751615,0.05215695,-0.12949651,-0.3953463,-0.327679,0.059882477,3.0780163,-0.6238801,0.00036598466,-0.15161127,0.0021338651,0.0001556796,-0.01131577,0.007577886,0.020229729,0.42680654,-1.4330453,1.966534,-2.1032045,-1.569651,2.401195,-0.13573362,0.25411046,-0.29490158,0.029329536,0.0066587157,-0.1557829,-0.2681506,0.15322891,-9.576807,0.8493211,47.65464,-1.0866044,-1.909055,-3.4461305,-0.21081522,0.13510026,-0.14153203,26.25,27.125,26.1875,29.3125,30.375,30.875
0.3080523,-1.1059514,-0.7677207,-1.1203059,-0.008952335,0.055846587,-0.14202058,-0.39566055,-0.327698,0.059882946,3.0779917,-0.6238181,0.00038455543,-0.15306337,0.002358499,0.00075943366,-0.011490519,0.009224368,0.0206938,0.42655423,-1.4324818,1.9658755,-2.103121,-1.5696157,2.4009075,-0.13688174,0.25475243,-0.29715732,0.029382998,0.006137131,-0.15739352,-0.15322891,0.22984336,-9.500193,0.84708,47.67345,-1.0066177,-1.9538157,-3.4869351,-0.21312872,0.14520481,-0.102052286,26.25,27.125,26.1875,29.3125,30.375,30.875
0.31005242,-0.15210143,-0.20267044,-1.366732,-0.014307754,0.05333108,-0.1403903,-0.3959496,-0.32767767,0.059875008,3.0780315,-0.6237123,0.00036209813,-0.1535551,0.0025998175,0.0009931673,-0.011468422,0.009569471,0.017777633,0.42628992,-1.4319909,1.9653233,-2.1030605,-1.5696396,2.4005725,-0.13749662,0.2548418,-0.29801774,0.02984553,0.0059761126,-0.15509197,-0.095768064,0.22984336,-9.672575,0.9254084,47.687782,-1.0929909,-1.8593309,-3.5879786,-0.2018138,0.15021254,-0.06638686,26.25,27.125,26.1875,29.3125,30.375,30.875
0.31205243,-0.6676966,-0.7975341,-1.2178261,-0.022194538,0.023382004,-0.13053338,-0.3962825,-0.3276944,0.05989394,3.0779314,-0.62367547,0.0002987269,-0.1544453,0.002314211,0.0007573901,-0.012081445,0.009942962,0.013108388,0.42600185,-1.4314749,1.9646896,-2.103037,-1.569579,2.4002745,-0.13783476,0.25673065,-0.29952237,0.028873455,0.0063907807,-0.15075973,-0.076614454,0.2681506,-9.730036,0.8940802,47.689575,-1.0544645,-1.8090886,-3.6533728,-0.18330532,0.13112023,-0.08199602,26.25,27.125,26.1875,29.3125,30.375,30.875
0.31405228,-0.11543877,-0.81709296,-1.0966531,-0.031522825,0.03152518,-0.1414994,-0.39660028,-0.32767332,0.059890885,3.077913,-0.6237142,0.00031074672,-0.15631236,0.002513137,0.0010055016,-0.0130374115,0.011627716,0.0047112983,0.42568937,-1.4309471,1.9640788,-2.1029537,-1.5695671,2.399989,-0.13971612,0.25827032,-0.3016609,0.027539967,0.0065590534,-0.14424284,-0.038307227,0.2681506,-9.595961,0.83589023,47.691364,-1.1161042,-1.8314607,-3.5909276,-0.13198467,0.1487727,-0.13051958,26.25,27.125,26.1875,29.3125,30.375,30.875
0.3160521,0.03186034,-0.56936634,-1.1439048,-0.02932026,0.024927627,-0.14229287,-0.39688736,-0.32765195,0.059868116,3.0779374,-0.6237964,0.00033518684,-0.1567239,0.0015674882,0.0012665184,-0.012815691,0.012020929,0.0013875465,0.42542592,-1.43042,1.9635161,-2.1028817,-1.5695914,2.399774,-0.1379517,0.25995794,-0.30450648,0.028426038,0.0061872695,-0.13915329,-0.038307227,0.2681506,-9.557653,0.87393653,47.684196,-1.1076577,-1.7962257,-3.5716646,-0.08966092,0.15664294,-0.21429849,26.25,27.125,26.1875,29.3125,30.375,30.875
0.31805176,0.24464557,-0.8830597,-1.1163733,-0.023425138,0.029232642,-0.1340394,-0.39723578,-0.3276635,0.05989538,3.077891,-0.62365985,0.00021297773,-0.15810746,0.0034255078,0.0003230971,-0.010849479,0.00904749,-0.009742993,0.4251482,-1.429892,1.9628457,-2.1028445,-1.5695795,2.3994174,-0.14199123,0.2631046,-0.30662,0.030911138,0.005638715,-0.13206038,-0.076614454,0.28730422,-9.500193,0.9321212,47.717335,-0.8348738,-1.848596,-3.5621812,-0.108598456,0.1678662,-0.31698495,26.25,27.125,26.1875,29.3125,30.375,30.875
0.32005277,-0.54754835,-1.0292515,-1.1001177,-0.012684492,0.0023424577,-0.13033193,-0.39757153,-0.32763728,0.05990323,3.0778208,-0.62378174,0.00015008541,-0.15880948,0.0037555161,0.0001266769,-0.010495933,0.008332794,-0.013655022,0.42481223,-1.4293883,1.9622473,-2.1028082,-1.5695676,2.3991668,-0.14300075,0.2646276,-0.30822828,0.03179417,0.0056198174,-0.12915695,0.05746084,0.2681506,-9.500193,0.89631605,47.691364,-0.972546,-1.911818,-3.5470877,-0.093492776,0.17823765,-0.38318992,26.25,27.125,26.1875,29.3125,30.375,30.875
0.3220519,0.08752357,-0.9178206,-0.9202892,-0.012225082,0.020985544,-0.13345398,-0.39786154,-0.32762492,0.059885003,3.077815,-0.62387717,0.00018305323,-0.1604845,0.003715946,5.3877244e-05,-0.011132136,0.007465966,-0.017678872,0.4245475,-1.4288601,1.9616722,-2.1027362,-1.5695671,2.3989627,-0.14478976,0.2678667,-0.31215328,0.033004023,0.006549427,-0.12692109,0.019153614,0.3256114,-9.442732,0.90527004,47.693153,-0.79706097,-2.0082576,-3.5627375,-0.08340906,0.18228415,-0.46764237,26.25,27.125,26.1875,29.3125,30.375,30.875
0.3240518,-0.0369405,-1.0083727,-0.93640316,-0.006822815,0.010790269,-0.1324146,-0.39822397,-0.32765216,0.059917673,3.0777178,-0.6238938,8.334614e-05,-0.16045767,0.0031729487,-7.812387e-05,-0.011397763,0.005535498,-0.014429809,0.42427188,-1.4282962,1.9609426,-2.1026757,-1.5695308,2.3987103,-0.14429504,0.26956978,-0.31443986,0.03524331,0.007604736,-0.12967493,0.05746084,0.36391866,-9.442732,0.8806493,47.696735,-0.9635149,-2.1115432,-3.4771771,-0.08926294,0.16244073,-0.49980894,26.25,27.125,26.1875,29.3125,30.375,30.875
0.32605258,-0.07597439,-0.81461555,-1.1064578,-0.02241817,0.0025696384,-0.13332535,-0.3985368,-0.32761973,0.059914142,3.077727,-0.6239268,8.661069e-05,-0.16064191,0.0025175242,0.00046584586,-0.011368111,0.0063655367,-0.0055119805,0.42396048,-1.4277815,1.9603432,-2.1025798,-1.5695432,2.3984187,-0.1428571,0.26981708,-0.3162953,0.036117353,0.007240929,-0.13715413,0.095768064,0.47884035,-9.576807,0.9298854,47.685097,-0.942845,-1.9822078,-3.5669281,-0.08458692,0.18688059,-0.48232275,26.25,27.125,26.1875,29.3125,30.375,30.875
0.32805178,-0.6053065,-1.6794119,-0.6334324,-0.05052797,0.013033254,-0.13054362,-0.39887267,-0.3276362,0.059934143,3.0777068,-0.6238236,-3.0480875e-05,-0.1629829,0.00282346,0.0013243885,-0.012215884,0.009242533,0.002611741,0.42371932,-1.4272416,1.9596723,-2.1025326,-1.5695552,2.398116,-0.14494869,0.27075365,-0.31924286,0.035169728,0.0068441615,-0.14736706,0.05746084,0.38307226,-9.500193,0.86498255,47.686886,-0.8838986,-1.9429514,-3.5183127,-0.04914829,0.19123888,-0.3809079,26.25,27.125,26.1875,29.3125,30.375,30.875
0.33005202,-0.1319501,-1.7253033,-0.5159709,-0.050544605,0.033238877,-0.13537572,-0.39918578,-0.32762316,0.059912574,3.0777051,-0.6238346,3.6933867e-05,-0.16338898,0.002073365,0.0031114472,-0.0132992165,0.011517409,0.014232922,0.42342004,-1.4266679,1.9590491,-2.1024477,-1.5695313,2.3978243,-0.1437947,0.26880106,-0.32167986,0.037057064,0.006902671,-0.15783435,-0.1340753,0.38307226,-9.212888,0.8940802,47.664497,-1.0948107,-1.8682227,-3.4535372,-0.03931787,0.20153823,-0.28187257,26.25,27.125,26.1875,29.3125,30.375,30.875
0.33205217,0.092768915,-0.54201335,-0.4596559,-0.047062326,0.044206757,-0.14932854,-0.39953804,-0.32764247,0.059945453,3.0776198,-0.62377626,-3.7159436e-05,-0.16421974,0.0023300308,0.0036788213,-0.014294924,0.010854663,0.019272234,0.42313173,-1.4261289,1.9583434,-2.1023748,-1.5694827,2.3975108,-0.14556433,0.2690893,-0.32393318,0.039230835,0.0081078075,-0.16464302,-0.15322891,0.34476504,-9.308657,0.9365982,47.674347,-1.0074201,-1.6188948,-3.5020628,-0.043311954,0.17670321,-0.19493675,26.25,27.125,26.1875,29.3125,30.375,30.875
0.33405206,-0.63588786,-0.36544335,-0.834864,-0.013317651,0.024614578,-0.1235015,-0.39981946,-0.3276182,0.05991544,3.077651,-0.6237239,0.000105062136,-0.16473898,0.0025192976,0.0031541958,-0.014320512,0.009623643,0.020172555,0.42283118,-1.4255888,1.9577693,-2.102255,-1.5694469,2.397174,-0.1465272,0.27098513,-0.32513192,0.03965475,0.008626606,-0.16650678,-0.076614454,0.2681506,-9.442732,0.8918391,47.70211,-0.9954432,-1.5882888,-3.5271883,-0.044786986,0.19340186,-0.14960612,26.25,27.125,26.1875,29.3125,30.375,30.875
0.33605194,-0.85240215,-0.22485466,-0.46696728,-0.0056348606,0.023922905,-0.1252817,-0.40017396,-0.32763615,0.059951264,3.0775843,-0.6235991,-2.3592247e-05,-0.16476938,0.0033286838,0.0023540505,-0.013430619,0.007978521,0.013282551,0.42255497,-1.4250616,1.9570755,-2.1022074,-1.5694226,2.3968287,-0.14778456,0.27205464,-0.32475114,0.040070374,0.008510255,-0.16087349,-0.17238252,0.17238252,-9.289503,0.9701675,47.67345,-0.9936687,-1.5589054,-3.607039,-0.025183784,0.19284588,-0.17938468,26.25,27.125,26.1875,29.3125,30.375,30.875
0.338052,-0.96737075,0.30398408,-0.19161806,0.0058083134,0.030814828,-0.13137595,-0.40053427,-0.32764718,0.05997343,3.0775023,-0.62360716,-9.658848e-05,-0.16692457,0.0033839587,0.0031233246,-0.014545467,0.00983547,0.0040838923,0.42225423,-1.424498,1.9563683,-2.1021473,-1.5693868,2.3965437,-0.14965433,0.27350464,-0.3282899,0.040007185,0.008768594,-0.15354235,-0.36391866,0.076614454,-9.174581,0.9186956,47.694946,-0.91758347,-1.6530626,-3.550369,-0.006434585,0.18482772,-0.22811627,26.25,27.125,26.1875,29.3125,30.375,30.875
0.3400522,-0.47320017,1.0678065,-0.52050275,0.030673878,0.03812799,-0.14463615,-0.4008346,-0.32761437,0.05994263,3.0775564,-0.62360007,-1.22205975e-05,-0.16833548,0.0030216156,0.0022912929,-0.014380801,0.008027164,-0.00015644102,0.42195404,-1.4239336,1.9557699,-2.102039,-1.5693983,2.3962326,-0.15037484,0.27848712,-0.33242172,0.0408685,0.009341951,-0.15002117,-0.30645782,-0.05746084,-9.32781,0.94331104,47.698532,-0.9400188,-1.6589935,-3.5770757,-0.007824024,0.17833845,-0.2918167,26.25,27.125,26.1875,29.3125,30.375,30.875
0.34205204,-0.7059123,1.5997697,-0.5494611,0.041179005,0.0326256,-0.1466235,-0.40118045,-0.3276387,0.059959926,3.0774834,-0.62356585,-8.3266845e-05,-0.16923639,0.0032727101,0.0016828207,-0.013587011,0.0060389116,-0.002344445,0.42168984,-1.4233693,1.9550751,-2.101991,-1.569362,2.3959568,-0.15147404,0.28174722,-0.335306,0.042638145,0.0094440235,-0.1489304,-0.2681506,-0.22984336,-9.461885,0.8717007,47.687782,-0.9925107,-1.8631929,-3.4432173,0.0042534415,0.1833148,-0.32266462,26.25,27.125,26.1875,29.3125,30.375,30.875
0.34405196,-0.8188348,0.62136036,-0.1488809,0.044558324,0.058965523,-0.13925101,-0.40149897,-0.32762456,0.05996188,3.0774417,-0.623556,-7.853436e-05,-0.16893917,0.0018111253,0.0019598824,-0.013816733,0.006033299,0.00036435426,0.42137876,-1.4228532,1.9544648,-2.101919,-1.5693263,2.3956451,-0.14854142,0.28291455,-0.33766136,0.04374485,0.009659845,-0.14870566,-0.4213795,-0.11492168,-9.289503,0.91198283,47.66987,-1.0671186,-1.8903372,-3.406543,0.00041330117,0.1741187,-0.36750045,26.25,27.125,26.1875,29.3125,30.375,30.875
0.34605196,-1.0616589,1.1036792,-0.4190714,0.03963213,0.052088954,-0.14000355,-0.40185383,-0.32760876,0.0599806,3.0774343,-0.62357473,-0.00011700913,-0.16989349,0.002318976,0.001965817,-0.01276555,0.00508856,-0.0015728533,0.42106625,-1.4222877,1.9537457,-2.1017869,-1.5693387,2.3953457,-0.14970484,0.2847579,-0.3404411,0.045975704,0.009091585,-0.14793052,-0.47884035,-0.076614454,-9.212888,0.86498255,47.672558,-0.9768062,-1.8275108,-3.4197788,-0.019047746,0.1852431,-0.3887483,26.25,27.125,26.1875,29.3125,30.375,30.875
0.34805223,-1.3240976,0.78771794,-0.54945475,0.032906566,0.05519855,-0.14437895,-0.40218255,-0.327603,0.059986748,3.0774121,-0.62360495,-0.00011666017,-0.17035133,0.0027825302,0.0017863266,-0.011389725,0.003110455,0.003982455,0.42077813,-1.4217346,1.9530743,-2.1016772,-1.5693268,2.3950796,-0.15047695,0.28662893,-0.3430259,0.049071424,0.008655728,-0.15425703,-0.45968673,0.15322891,-9.481039,0.90527004,47.64837,-1.1514512,-1.854636,-3.3139257,-0.037728924,0.1931663,-0.33983576,26.25,27.125,26.1875,29.3125,30.375,30.875
0.350052,-2.007964,-0.27517524,-0.4877426,0.007502066,0.06017014,-0.13834369,-0.40251184,-0.327595,0.05999233,3.0774186,-0.6235242,-7.1628136e-05,-0.16848066,0.004100273,8.8432746e-05,-0.0082436185,-0.002504634,0.011452883,0.42047802,-1.4211696,1.9523824,-2.1015322,-1.5693029,2.3947287,-0.1508107,0.2875188,-0.34115952,0.05274427,0.0080953175,-0.16206296,-0.4213795,0.22984336,-9.461885,0.9254084,47.686886,-1.1364324,-1.7548127,-3.5721374,-0.089403674,0.18466693,-0.27733985,26.25,27.125,26.1875,29.25,30.375,30.875
0.3520519,-1.685166,-0.84712195,-0.6587537,-0.009326945,0.071931824,-0.1454967,-0.4028775,-0.3276038,0.060018044,3.07738,-0.623413,-0.00013488841,-0.16735588,0.003824537,-6.9921225e-05,-0.007164042,-0.004644427,0.022708727,0.4201787,-1.4205923,1.951641,-2.1014354,-1.5692786,2.3943653,-0.1491547,0.2875986,-0.34170103,0.055619877,0.008009258,-0.17166287,-0.3256114,0.15322891,-9.461885,0.9455522,47.68062,-1.1967113,-1.7778072,-3.6840239,-0.110115394,0.20279962,-0.17529082,26.25,27.125,26.1875,29.25,30.375,30.875
0.3540518,-1.4790331,-0.83046436,-0.7963244,-0.015955029,0.05449222,-0.14051835,-0.40317628,-0.32758087,0.0599912,3.077413,-0.62336147,-2.0844962e-05,-0.16868846,0.005180514,0.00036719663,-0.0065178466,-0.00487299,0.024732098,0.41987744,-1.4200287,1.9510297,-2.1013153,-1.5692552,2.394028,-0.15222435,0.2878486,-0.3436349,0.05779139,0.0075052837,-0.176756,-0.38307226,0.22984336,-9.500193,0.9186956,47.682407,-1.0805941,-1.6175983,-3.7693222,-0.14753021,0.21040028,-0.08897042,26.25,27.125,26.1875,29.25,30.375,30.875
0.35605267,-1.4010879,-1.0718862,-0.8156109,-0.0243174,0.04520206,-0.1349835,-0.4035169,-0.32756168,0.059983436,3.0774317,-0.6233103,-6.582564e-07,-0.17084943,0.0065369913,0.0008653365,-0.006369308,-0.004405109,0.019083405,0.41956416,-1.4194396,1.9503478,-2.101207,-1.5692552,2.3936808,-0.15606156,0.28895852,-0.34652725,0.059208464,0.007170876,-0.17494349,-0.4213795,0.28730422,-9.5385,0.89631605,47.647476,-1.0782743,-1.4866413,-3.7192175,-0.19522119,0.23219681,-0.06460902,26.25,27.125,26.1875,29.25,30.375,30.875
0.3580525,-1.6510004,-0.796673,-0.9592192,-0.01821851,0.025904996,-0.13102959,-0.40388167,-0.3275501,0.060013533,3.0774145,-0.6232708,-8.433681e-05,-0.1709433,0.005374561,7.865941e-05,-0.0056824246,-0.005671896,0.014484908,0.41925314,-1.4188854,1.9496168,-2.1010873,-1.5692672,2.3933477,-0.15377279,0.292688,-0.34925288,0.059632905,0.007056645,-0.16805425,-0.40222588,0.24899697,-9.557653,0.9164598,47.66808,-1.1525419,-1.5789956,-3.670192,-0.2324064,0.2350955,-0.086870745,26.25,27.125,26.1875,29.25,30.375,30.875
0.36005244,-0.94788516,-0.5618437,-0.99307853,-0.010106635,0.034420397,-0.14010534,-0.40424907,-0.32753015,0.060034394,3.0773973,-0.62329,-0.000110923895,-0.17327477,0.00435478,0.0010328323,-0.0069184015,-0.0037655814,0.0070515554,0.41891736,-1.4183079,1.9488744,-2.1009433,-1.5692672,2.3930266,-0.1538495,0.29569072,-0.35518518,0.060309805,0.007393824,-0.1606947,-0.34476504,0.30645782,-9.615114,0.94331104,47.684196,-1.2222847,-1.709527,-3.589614,-0.24133328,0.23921785,-0.15226014,26.25,27.125,26.1875,29.25,30.375,30.875
0.3620524,-0.8774427,-0.88331664,-0.9238203,-0.0131945,0.038298286,-0.13100909,-0.40457416,-0.32751775,0.060017485,3.077418,-0.6232562,-7.706799e-05,-0.17428733,0.004169371,0.0004182354,-0.006985704,-0.0047278134,0.0012879538,0.41862983,-1.4177184,1.9482149,-2.1008475,-1.5692667,2.3927157,-0.15445341,0.29895735,-0.35772195,0.060425665,0.007831534,-0.15553403,-0.15322891,0.38307226,-9.595961,0.94331104,47.687782,-1.2611927,-1.8359618,-3.4212437,-0.28560424,0.2232222,-0.26677203,26.25,27.125,26.1875,29.25,30.375,30.875
0.36405227,-0.8804682,-1.0013474,-0.77222997,-0.025505034,0.03779479,-0.143503,-0.40493774,-0.32750848,0.06003617,3.077367,-0.62332684,-5.578083e-05,-0.17494766,0.004548586,-0.00018368514,-0.006373793,-0.006101583,-0.0061294613,0.41829395,-1.4171295,1.947461,-2.100692,-1.5692304,2.3924308,-0.15548097,0.30126843,-0.35935372,0.061249997,0.007823044,-0.14914346,-0.21068975,0.36391866,-9.519346,0.91198283,47.686886,-1.2353859,-1.7185798,-3.4689655,-0.3019262,0.23414579,-0.33596927,26.25,27.125,26.1875,29.25,30.375,30.875
0.36605203,-0.8043266,-1.0324433,-1.0599098,-0.036260344,0.044187028,-0.14159623,-0.4052735,-0.32751736,0.060036138,3.0773733,-0.6232524,-4.023473e-05,-0.17602786,0.005060581,-2.204283e-05,-0.007646498,-0.0055091656,-0.011497457,0.41802967,-1.4165277,1.9467429,-2.1005723,-1.5692185,2.3921196,-0.15770592,0.301472,-0.35998037,0.060611404,0.0087381955,-0.14600077,-0.17238252,0.3256114,-9.557653,0.9612189,47.679718,-1.1778463,-1.8968141,-3.6012623,-0.33694285,0.24904796,-0.41630095,26.25,27.125,26.1875,29.25,30.375,30.875
0.36805186,-0.94829744,-1.7014143,-0.65600187,-0.055740565,0.045461502,-0.14499204,-0.40564242,-0.3275125,0.06005638,3.0773015,-0.62333244,-9.304775e-05,-0.17691451,0.0049149194,-0.0010726216,-0.0075629847,-0.005212674,-0.0115127815,0.41770625,-1.4159513,1.9460129,-2.1004775,-1.5691947,2.3918557,-0.15784211,0.3045295,-0.36066577,0.058009733,0.008542038,-0.14612016,-0.05746084,0.4213795,-9.576807,0.99702406,47.64927,-1.1059153,-1.5731304,-3.6667714,-0.3105919,0.25764382,-0.47580633,26.25,27.125,26.1875,29.25,30.375,30.875
0.3700519,-1.1041867,-2.3350625,-0.45685002,-0.050872397,0.036562253,-0.14528656,-0.40601414,-0.32746726,0.060052227,3.0773158,-0.6234078,-0.00012326482,-0.17887749,0.005408439,-0.0011829088,-0.0077328077,-0.0033775358,-0.0076263193,0.41734612,-1.4153496,1.9453067,-2.1003711,-1.5692304,2.3915412,-0.1597439,0.30657735,-0.3624955,0.05605358,0.007950287,-0.15190704,-0.038307227,0.30645782,-9.32781,0.947788,47.67166,-1.0398633,-1.6418989,-3.7107673,-0.3130043,0.24933322,-0.47351098,26.25,27.125,26.1875,29.25,30.375,30.875
0.37205195,-0.7798085,-1.5990496,-0.6847162,-0.036438186,0.026873508,-0.1501225,-0.40636468,-0.32748565,0.06006091,3.0772812,-0.6233,-8.1449936e-05,-0.18178082,0.0058613215,-0.0005239084,-0.008756589,-0.0012688441,-9.02471e-05,0.41705742,-1.414736,1.9445513,-2.1002395,-1.5691708,2.39119,-0.1627802,0.30886626,-0.3667204,0.055673674,0.008035126,-0.16247733,-0.076614454,0.34476504,-9.289502,0.9231726,47.677036,-0.9727442,-1.7854714,-3.71444,-0.3135929,0.26672757,-0.38133144,26.25,27.125,26.1875,29.25,30.375,30.875
0.37405196,-0.31714258,-0.52150285,-0.28828517,-0.04235327,0.018172286,-0.15195793,-0.40671432,-0.3274832,0.06006629,3.077229,-0.6232986,-9.277189e-05,-0.18384743,0.0039554248,0.00069746934,-0.012759108,0.00372457,0.012983749,0.41674685,-1.4141594,1.9438571,-2.100157,-1.5691341,2.3908856,-0.16186377,0.30979848,-0.36983544,0.051691253,0.0096779615,-0.17463325,0.0,0.3256114,-9.308656,0.9835985,47.72002,-1.0648491,-1.6475047,-3.629302,-0.3006142,0.26677993,-0.27823234,26.25,27.125,26.1875,29.25,30.375,30.875
