Tylouw/Master_Thesis_Code/training_data/batch_1/big_rod_t0.2/sample_18_session_1.csv
timestamp[s],tcp_force_x[N],tcp_force_y[N],tcp_force_z[N],tcp_force_rx[Nm?],tcp_force_ry[Nm?],tcp_force_rz[Nm?],tcp_pose_x[m],tcp_pose_y[m],tcp_pose_z[m],tcp_pose_rx[rot_vec_x],tcp_pose_ry[rot_vec_y],tcp_pose_rz[rot_vec_z],tcp_velo_x[m/s],tcp_velo_y[m/s],tcp_velo_z[m/s],tcp_velo_rx[rot_vec_x/s],tcp_velo_ry[rot_vec_y/s],tcp_velo_rz[rot_vec_z/s],q1[rad],q2[rad],q3[rad],q4[rad],q5[rad],q6[rad],qd1[rad/s],qd2[rad/s],qd3[rad/s],qd4[rad/s],qd5[rad/s],qd6[rad/s],tool_acc_x,tool_acc_y,tool_acc_z,current_of_whole_robot[A],voltage_of_whole_robot[V],current_J1[A],current_J2[A],current_J3[A],current_J4[A],current_J5[A],current_J6[A],temp_J1[C],temp_J2[C],temp_J3[C],temp_J4[C],temp_J5[C],temp_J6[C]
6.550108e-07,-0.8969902,-0.9690683,-0.44443154,-0.02877567,0.012985844,0.0080031,-0.37289125,-0.3282168,0.05994451,-3.0784845,0.6247504,-0.00023181528,0.0024606264,0.0011820536,-0.004216338,0.0036722561,-0.007990211,-9.788948e-05,0.4481623,-1.4708608,2.0095732,-2.1077034,-1.5706977,2.423007,-9.571786e-05,0.0046993895,0.0046364483,-0.00054404646,0.00016122902,-0.0,0.05746084,0.21068975,-8.925584,0.7418897,47.701214,-0.21842657,-2.9919746,-2.4491918,-0.49942747,0.09535097,-0.07153242,26.25,27.125,26.1875,29.3125,30.4375,30.875
0.002052198,-0.72530246,-1.3214979,-0.50238484,-0.014043746,0.017510308,0.0005779716,-0.37288386,-0.32821345,0.059943244,-3.0784748,0.6248841,-0.00029069607,-0.00070634414,-0.00034929838,-0.0030347803,-0.0009231778,0.0015219213,-9.2952105e-05,0.4481382,-1.4708728,2.0095847,-2.1076834,-1.5706614,2.4230676,-9.405067e-05,0.0047290567,0.004217955,-0.010719238,0.00015720574,-0.0,0.095768064,0.11492168,-8.848969,0.73069996,47.71554,-0.21884298,-2.7861238,-2.4048405,-0.4712782,0.080604956,-0.0790495,26.25,27.125,26.1875,29.3125,30.4375,30.875
0.004052482,-1.0539645,-0.81261736,-0.41337153,-0.017585061,0.01030893,0.0038262347,-0.37288702,-0.3281955,0.05990682,-3.0784252,0.62491244,-0.00028542662,-0.0016030724,-0.0007822306,-0.002503572,-0.0024841633,0.0047621178,-9.060724e-05,0.44812617,-1.4708251,2.0096323,-2.1077554,-1.5706977,2.4230795,-9.2440634e-05,0.004117717,0.004391717,-0.013878253,0.00015337807,-0.0,0.019153614,0.095768064,-8.887277,0.72622824,47.71465,-0.22222407,-3.0653348,-2.590229,-0.3603354,0.077478565,-0.06934119,26.25,27.125,26.1875,29.3125,30.4375,30.875
0.006052462,-0.57382154,-0.45483932,-0.39527756,-0.005122394,0.0012630662,0.0021705863,-0.37288556,-0.3282183,0.059914388,-3.0784736,0.62482613,-0.00025400016,-0.0007656049,-0.00037655674,-0.0020448868,-0.0012182584,0.0021577787,-8.999661e-05,0.4481623,-1.4708254,2.0096204,-2.1077774,-1.5706857,2.4230556,-9.0884845e-05,0.003141847,0.0032708049,-0.008885778,0.00014973259,-0.0,0.0,0.15322891,-8.944737,0.7351769,47.696735,-0.20182568,-2.960514,-2.5285296,-0.38267663,0.0855969,-0.06156921,26.25,27.125,26.1875,29.3125,30.4375,30.875
0.008052532,0.029350823,0.77156764,-0.67826575,0.008888268,-0.011055915,0.0005162316,-0.37287655,-0.3282461,0.059931424,-3.0785341,0.624781,-0.000243954,-0.00021316517,-0.000115805,-0.0014330326,-0.00030926304,0.00024657365,-8.913469e-05,0.44819817,-1.4708496,2.0096076,-2.107776,-1.5706495,2.4230556,-8.938058e-05,0.0022141864,0.0018710449,-0.004442072,0.00016575328,-0.0,-0.019153614,0.1340753,-9.002198,0.71279734,47.70211,-0.22876744,-2.9553185,-2.4276338,-0.41258073,0.0859511,-0.069912404,26.25,27.125,26.1875,29.3125,30.4375,30.875
0.010052498,-0.17750686,0.7811988,-1.1184863,0.03335022,-0.026825478,0.008316554,-0.37286577,-0.32821113,0.05989084,-3.0784426,0.6248583,-0.00036668775,-9.064986e-05,-5.118709e-05,-0.0010145487,-9.954583e-05,-0.00017803915,-9.7526485e-05,0.44815025,-1.4708021,2.0096428,-2.1077516,-1.5706614,2.4230676,-9.757138e-05,0.0016249826,0.0011508341,-0.0026590847,0.0001632665,-0.0,0.019153614,-0.019153614,-9.193734,0.7172743,47.70032,-0.53856164,-2.1983995,-3.10654,-0.44408503,0.081151694,-0.11957584,26.25,27.125,26.1875,29.3125,30.4375,30.875
0.012052283,-0.08576731,0.18626979,-1.3761437,0.019242795,-0.0038423354,-0.0045068352,-0.37288055,-0.3282052,0.059902787,-3.0784194,0.62485355,-0.00032149747,4.6890287e-05,6.0303453e-05,-0.0042105727,0.0032711157,-0.0071834805,-0.00018113382,0.44815022,-1.4707991,2.0096066,-2.1077268,-1.5706977,2.4230676,-0.00018602326,0.010071203,-0.0011581952,-0.001022105,0.00015972753,-2.5881925e-06,0.05746084,0.0,-9.442732,0.7172743,47.67166,-0.629524,-2.3115792,-3.2271342,-0.43457797,0.0563217,-0.14712308,26.25,27.125,26.1875,29.3125,30.4375,30.875
0.014052167,-1.0363504,-0.81321657,-1.5255582,-0.011973302,0.006264737,0.004421636,-0.37289664,-0.32820317,0.05989601,-3.078414,0.6248928,-0.00034770422,-0.0056266277,0.001140599,-0.0039467365,0.0029321276,-0.0064746155,-0.0040677157,0.44812363,-1.4707606,2.00958,-2.1077268,-1.5706857,2.4230661,-0.007373123,0.017465942,-0.010031174,-0.00033015056,0.00013929718,-0.003296762,-0.038307227,0.19153613,-9.557653,0.7038487,47.65912,-0.45407695,-2.833655,-3.0045495,-0.44519565,0.08060849,-0.15837923,26.25,27.125,26.1875,29.3125,30.4375,30.875
0.016035907,-1.7676662,-1.74939,-1.6219134,-0.04491974,0.034910113,0.0011748229,-0.37285087,-0.32820442,0.05986018,-3.0784068,0.62479377,-0.0005279042,-0.0061502294,0.0017059714,-0.0039590052,0.0030377132,-0.0066871466,-0.0016427451,0.448135,-1.4707366,2.0096276,-2.107691,-1.5706376,2.4230165,-0.008910394,0.017668724,-0.010292436,-3.4729015e-05,0.00013399609,-0.0072589074,-0.24899697,0.2681506,-9.653421,0.7396539,47.677036,-0.32906103,-2.6858983,-3.1265788,-0.45628828,0.05159097,-0.11482536,26.25,27.125,26.1875,29.3125,30.4375,30.875
0.018052435,-2.5368645,-2.5782537,-1.6786414,-0.073214404,0.07428352,-0.007181799,-0.3728667,-0.32819086,0.059844963,-3.0783377,0.6248949,-0.00056465715,-0.0055153174,0.0017711687,-0.0043982994,0.003488772,-0.0076160305,-0.00021252564,0.44811124,-1.4706768,2.0095913,-2.1076672,-1.5706614,2.4230647,-0.008452788,0.017662553,-0.009286435,-2.2675567e-06,0.00013105557,-0.008232138,-0.3256114,0.30645782,-9.749189,0.72622824,47.71554,-0.50907874,-2.370408,-3.537892,-0.43075752,0.056343623,-0.115395695,26.25,27.125,26.1875,29.3125,30.4375,30.875
0.020051595,-2.9405458,-2.8027334,-1.8135116,-0.075688414,0.09458302,-0.0063638478,-0.37288654,-0.32821757,0.05986053,-3.078393,0.6248099,-0.00051833637,-0.006370642,0.0014124062,-0.0039893403,0.004119119,-0.008922188,-0.0008781854,0.44813526,-1.4706519,2.0095308,-2.1076777,-1.5706495,2.4230287,-0.008556702,0.020008832,-0.013571907,0.0033874135,0.00012837487,-0.007668433,-0.5554548,0.4213795,-9.768343,0.6546126,47.709274,-0.55143756,-2.4640598,-3.4090264,-0.45991713,0.050013043,-0.13987286,26.25,27.125,26.1875,29.3125,30.4375,30.875
0.022053018,-2.3978698,-1.811175,-1.7049823,-0.070148595,0.09939774,-0.018308902,-0.3729094,-0.32818982,0.059857935,-3.0783246,0.6248544,-0.00054483616,-0.006824631,0.0015819763,-0.0045905826,0.004825576,-0.010390595,-0.0018592442,0.44808683,-1.470615,2.0094826,-2.1076176,-1.5706857,2.4230168,-0.009288249,0.022304136,-0.014851213,0.004000708,0.00012581071,-0.0074179694,-0.59376204,0.5363012,-9.749189,0.7150385,47.683304,-0.5731646,-2.4235027,-3.4174547,-0.4853635,0.03438093,-0.1584836,26.25,27.125,26.1875,29.3125,30.4375,30.875
0.024051923,-2.228111,-1.5235397,-1.8378457,-0.05000543,0.09120459,-0.02510247,-0.372901,-0.32819846,0.05981826,-3.0783327,0.6248183,-0.00063761,-0.008594874,0.0017379161,-0.003759693,0.0036507612,-0.007956387,-0.003467787,0.4480861,-1.4705433,2.009506,-2.1076663,-1.5706495,2.4229925,-0.011190944,0.022437103,-0.016671706,0.002985586,0.0001233475,-0.00771071,-0.63206923,0.45968673,-9.710882,0.74413085,47.716442,-0.63543963,-2.3927767,-3.4266186,-0.4635698,0.037286833,-0.18819156,26.25,27.125,26.1875,29.3125,30.4375,30.875
0.026052592,-2.434447,-1.3552169,-1.8037084,-0.048779927,0.06520025,-0.030232392,-0.37293613,-0.328196,0.059841722,-3.07833,0.62479764,-0.0005574714,-0.009902306,0.0016662163,-0.002809223,0.0023964753,-0.0052849376,-0.0026314198,0.448074,-1.4705317,2.009434,-2.1076424,-1.5706857,2.422968,-0.012222127,0.021813704,-0.017922105,0.0019077559,9.0454385e-05,-0.009577218,-0.7086837,0.40222588,-9.825804,0.7486078,47.678825,-0.7278061,-2.2961788,-3.4764266,-0.45127273,0.023093201,-0.19132546,26.25,27.125,26.1875,29.3125,30.4375,30.875
0.028052744,-1.6277541,-1.5078207,-1.617956,-0.043678015,0.07886719,-0.039742514,-0.3729522,-0.32817844,0.05980864,-3.0782936,0.62494355,-0.00066573627,-0.011581859,0.0011906752,-0.0022990266,0.0014216485,-0.0032084559,-0.001925447,0.44800177,-1.470459,2.009433,-2.1076553,-1.5706495,2.4229913,-0.0128347045,0.023430703,-0.020581808,0.0006569036,5.931385e-05,-0.010893487,-0.6895301,0.3256114,-9.691729,0.7284641,47.729877,-0.71913606,-2.303089,-3.5092382,-0.42460853,0.01902529,-0.1802319,26.25,27.125,26.1875,29.3125,30.4375,30.875
0.030052532,-2.3477259,-0.82475775,-1.4977131,-0.047144815,0.060411066,-0.052037623,-0.37298787,-0.32818896,0.059807125,-3.07832,0.624853,-0.00064995734,-0.013304396,0.0013352745,-0.0021702314,0.0012219159,-0.002744144,-0.0024740284,0.44798908,-1.4703864,2.0093596,-2.1076672,-1.5706495,2.4229188,-0.014655458,0.025737869,-0.023414744,0.00067757897,3.1554715e-05,-0.012163541,-0.63206923,0.24899697,-9.615114,0.7016076,47.709274,-0.75598997,-2.3742294,-3.46669,-0.42167425,0.0235958,-0.19943765,26.25,27.125,26.1875,29.3125,30.4375,30.875
0.032052528,-2.1177473,-0.49769357,-1.3244294,-0.028883545,0.06899285,-0.06503512,-0.3729966,-0.32820573,0.059801336,-3.0783203,0.62485266,-0.00064972154,-0.014636935,0.0012694427,-0.0017746522,0.00081131427,-0.0018927658,-0.002070064,0.44801265,-1.470338,2.0093224,-2.1076787,-1.5706495,2.4229422,-0.015742037,0.027067749,-0.025809392,0.0007969236,2.7170034e-05,-0.013652464,-0.45968673,0.1340753,-9.634268,0.7463667,47.71017,-0.8304032,-2.3460119,-3.414393,-0.4003193,0.002994132,-0.18941118,26.25,27.125,26.1875,29.3125,30.4375,30.875
0.034051947,-1.7863969,0.036042158,-1.2372,-0.013737924,0.06619189,-0.08880698,-0.3730607,-0.328194,0.05980853,-3.078325,0.62485415,-0.00060916523,-0.015866362,0.0013682808,-0.0015110167,0.0006182062,-0.0014461904,-0.0022562821,0.44794026,-1.4702657,2.0092266,-2.1076787,-1.5706614,2.4228702,-0.017027821,0.028420186,-0.027974164,0.0011228608,3.4676575e-06,-0.014750565,-0.5363012,0.019153614,-9.653421,0.7172743,47.72092,-0.6887647,-2.3617945,-3.4242377,-0.38597953,-0.010193144,-0.202687,26.25,27.125,26.1875,29.3125,30.4375,30.875
0.036052544,-1.3584155,0.3793837,-1.0779159,0.0034928615,0.063503094,-0.09916601,-0.37308678,-0.32818526,0.05979606,-3.0782983,0.6249638,-0.000649569,-0.017005175,0.0012539721,-0.00047791467,-7.549919e-05,-4.3151354e-06,-0.0018218413,0.447892,-1.4702058,2.0091894,-2.1076782,-1.5706495,2.4228938,-0.017844616,0.028252011,-0.030383328,0.0021001357,2.2641325e-07,-0.016000666,-0.36391866,0.038307227,-9.519346,0.7418897,47.70032,-0.74383044,-2.224037,-3.3862243,-0.38532424,0.0076370295,-0.20206273,26.25,27.125,26.1875,29.3125,30.4375,30.875
0.038052484,-1.6728405,-0.26462427,-1.3865908,0.029258462,0.03716619,-0.10150555,-0.37311116,-0.3281863,0.05977821,-3.0782902,0.6248849,-0.0006678554,-0.018129705,0.00089968427,-2.2608798e-05,-0.0005862308,0.0010459591,-0.0016440244,0.44787982,-1.4701217,2.0091407,-2.10769,-1.5706614,2.4228334,-0.0182007,0.02944986,-0.032742813,0.0020936388,1.4783167e-08,-0.016532963,-0.30645782,0.0,-9.461885,0.82022345,47.678825,-0.735669,-2.1599262,-3.3958688,-0.36498815,-0.0126836,-0.19079232,26.25,27.125,26.1875,29.3125,30.4375,30.875
0.04005242,-1.4302223,-0.21365589,-1.3736423,0.027160527,0.02703315,-0.11832953,-0.37317815,-0.32818022,0.05979213,-3.0782995,0.6249836,-0.00060921273,-0.019291203,0.000885501,-6.9252405e-05,-0.00054650026,0.0009552083,-0.0026323681,0.44780743,-1.470061,2.009045,-2.107702,-1.5706614,2.4228215,-0.019227417,0.031612605,-0.035071317,0.0023584017,9.652351e-10,-0.016569678,-0.24899697,-0.038307227,-9.481039,0.6926589,47.70211,-0.69579875,-2.2159033,-3.3501105,-0.35961753,-0.018637441,-0.18663445,26.25,27.125,26.1875,29.3125,30.4375,30.875
0.042052306,-0.80175745,-0.20060392,-1.2896459,0.01529981,0.03173785,-0.13697416,-0.37321985,-0.32818982,0.05979435,-3.0783179,0.62502605,-0.000616921,-0.019851705,0.00094228244,-7.777342e-05,-0.00047505385,0.00080332597,-0.0034440255,0.44777134,-1.4699887,2.0089605,-2.107702,-1.5706376,2.4228096,-0.0198417,0.032610822,-0.036222856,0.0026799906,6.302296e-11,-0.016371554,-0.11492168,-0.038307227,-9.442732,0.7329411,47.672558,-0.6906818,-2.2051573,-3.3540325,-0.34825906,-0.038122755,-0.19471782,26.25,27.125,26.1875,29.3125,30.4375,30.875
0.04405234,-1.120535,-0.48182657,-1.2656949,0.0039761383,0.01412692,-0.13377155,-0.37323064,-0.32818848,0.059799265,-3.0783112,0.6249874,-0.0006464284,-0.020941122,0.001007108,0.00073176133,-0.0005248514,0.0017949664,-0.0044283634,0.44775903,-1.4699647,2.0089118,-2.1076539,-1.5706376,2.422774,-0.020691436,0.03286333,-0.038642995,0.0039335894,-0.00038701852,-0.016235022,-0.095768064,0.05746084,-9.442732,0.71951014,47.716442,-0.7014823,-2.175777,-3.3799548,-0.32761505,-0.054857776,-0.19324932,26.25,27.125,26.1875,29.3125,30.4375,30.875
0.04605172,-1.1385388,-0.77643514,-1.4334939,-0.0029450762,0.0058924737,-0.149005,-0.3733033,-0.32817405,0.0598134,-3.0783143,0.62506485,-0.000575441,-0.021701904,0.0019530102,0.00065936573,0.0020688812,0.0013305318,-0.0048795757,0.44767454,-1.4699045,2.008816,-2.1076653,-1.5706505,2.4227376,-0.021710878,0.03418234,-0.040372938,0.005893329,-0.002522753,-0.016798247,-0.095768064,0.15322891,-9.3661175,0.7284641,47.692257,-0.64322627,-2.1194174,-3.4002066,-0.3509177,-0.0407544,-0.19968262,26.25,27.125,26.1875,29.3125,30.4375,30.875
0.04801395,-0.35239667,-0.7097653,-1.4910623,-0.022316577,0.024361024,-0.15803373,-0.37332907,-0.32815838,0.059775688,-3.078222,0.625027,-0.0006224347,-0.022377508,0.0024745665,0.00058746577,0.003060586,0.00045639146,-0.0056912554,0.44766223,-1.4697722,2.0087545,-2.107653,-1.5707105,2.4227135,-0.022955107,0.03547765,-0.041984133,0.007427227,-0.0030399703,-0.017228777,-0.095768064,0.17238252,-9.557653,0.78217715,47.701214,-0.6685181,-2.027343,-3.4354157,-0.3606447,-0.021882867,-0.202517,26.25,27.125,26.1875,29.3125,30.4375,30.875
0.050052136,-1.0244051,-1.5104496,-1.6386256,-0.027797079,0.002658222,-0.14370957,-0.37338156,-0.32816237,0.059791405,-3.078234,0.6250872,-0.0006049685,-0.023198718,0.0022581099,0.00081553764,0.0025096356,0.00015133581,-0.0055501787,0.44761395,-1.469712,2.0086467,-2.1076286,-1.5706986,2.4227014,-0.023715198,0.036827862,-0.044195835,0.008322891,-0.00241413,-0.018130057,-0.038307227,0.22984336,-9.557653,0.7642693,47.672558,-0.6429578,-2.090021,-3.4187446,-0.35256657,-0.030982802,-0.18939734,26.25,27.125,26.1875,29.3125,30.4375,30.875
0.052052174,-0.50817275,-1.6753038,-1.531311,-0.045038342,0.010277674,-0.14054441,-0.37343425,-0.32814312,0.059811097,-3.0781984,0.62515646,-0.00055707357,-0.024065025,0.0019868766,0.0013865142,0.0013894824,0.001299689,-0.0051734373,0.44755375,-1.4696758,2.008551,-2.1075804,-1.5707339,2.422689,-0.024332771,0.036988616,-0.045624718,0.008068169,-0.0019053294,-0.019124508,0.0,0.36391866,-9.442732,0.7530795,47.685097,-0.6498938,-2.0549278,-3.4530282,-0.35614955,-0.041495696,-0.1696351,26.25,27.125,26.1875,29.3125,30.4375,30.875
0.054004893,-0.6750301,-1.81043,-1.7093374,-0.041041028,0.0061753797,-0.13044009,-0.37347353,-0.3281537,0.059803814,-3.0782363,0.62516344,-0.0006017718,-0.024717366,0.0018070914,0.0015219692,0.0010225138,0.001145633,-0.004498188,0.44750556,-1.4695916,2.008478,-2.1075923,-1.5706862,2.4226403,-0.024851423,0.03812522,-0.04730593,0.008592057,-0.0015109058,-0.020318206,-0.019153614,0.4213795,-9.557653,0.76874626,47.70211,-0.6737184,-1.9084785,-3.478829,-0.35219157,-0.050424717,-0.17233917,26.25,27.125,26.1875,29.3125,30.4375,30.875
0.056052204,-1.1712407,-1.9518831,-1.7113705,-0.04319894,0.0076173428,-0.12711492,-0.37352285,-0.32813904,0.059800256,-3.0781984,0.62509793,-0.00061283214,-0.02545713,0.001632703,0.001498273,0.0009105736,0.00030335257,-0.0041202,0.44745737,-1.4694952,2.0083692,-2.1075442,-1.570722,2.4225562,-0.025505623,0.040036257,-0.049603112,0.009686445,-0.0010493096,-0.02134997,0.0,0.38307226,-9.653421,0.7016076,47.647476,-0.6596142,-1.8581512,-3.5326905,-0.35409316,-0.063732736,-0.14537784,26.25,27.125,26.1875,29.3125,30.4375,30.875
0.058052115,-1.2732496,-2.026385,-1.6989306,-0.04670734,0.017277902,-0.13258025,-0.37357262,-0.32814595,0.05981764,-3.078223,0.62517995,-0.0005918463,-0.026172949,0.0016751189,0.0016002709,0.0010289412,3.165426e-06,-0.004136231,0.44740903,-1.4694468,2.0082734,-2.1075318,-1.5706981,2.422556,-0.02624647,0.04126741,-0.051390972,0.01056525,-0.0010276599,-0.022073863,-0.038307227,0.45968673,-9.653421,0.7463667,47.705692,-0.6049055,-1.8798437,-3.4524298,-0.3559208,-0.0938624,-0.13848719,26.25,27.125,26.1875,29.3125,30.4375,30.875
0.060052026,-1.5316565,-2.0499313,-1.4572995,-0.045218408,0.019911876,-0.12755007,-0.37362355,-0.32814485,0.05981925,-3.0782025,0.6251754,-0.00054298213,-0.026904738,0.0016859479,0.0010267105,0.0016149809,-0.0011436137,-0.0037955486,0.44738483,-1.469362,2.0081766,-2.1075318,-1.5707339,2.4225316,-0.026905522,0.04405497,-0.053213384,0.010886635,-0.0010634003,-0.023072103,-0.05746084,0.40222588,-9.595961,0.7284641,47.707485,-0.5721245,-1.9051702,-3.532713,-0.343485,-0.09067747,-0.1381292,26.25,27.125,26.1875,29.3125,30.4375,30.875
0.062051903,-1.3022606,-1.7396883,-1.3026067,-0.04210171,0.026919749,-0.12578188,-0.37370235,-0.32814667,0.059845008,-3.0782344,0.6252592,-0.0005061457,-0.027789181,0.0018198901,0.0012260719,0.0020046951,-0.0009327932,-0.0035825323,0.44730052,-1.4692897,2.0080326,-2.107508,-1.5707101,2.4224956,-0.027652461,0.045202967,-0.055097293,0.011602913,-0.0015079149,-0.024030114,-0.05746084,0.4213795,-9.481039,0.7284641,47.67345,-0.59616804,-1.9609606,-3.5458767,-0.38016254,-0.096191734,-0.12819722,26.25,27.125,26.1875,29.3125,30.4375,30.875
0.064052105,-0.98956287,-1.5984997,-1.2913157,-0.040374044,0.036279246,-0.13520461,-0.37372452,-0.32815093,0.059813198,-3.0781968,0.6251545,-0.00062645297,-0.029286135,0.0014002074,0.0017170784,0.0013084733,0.00062402285,-0.0031483234,0.4472883,-1.4691455,2.0079362,-2.1074598,-1.5707101,2.422423,-0.028183872,0.046792936,-0.05785287,0.011063713,-0.0015635727,-0.024993427,-0.076614454,0.34476504,-9.461885,0.7709874,47.69763,-0.65984726,-1.865623,-3.497478,-0.35618114,-0.08879701,-0.12097624,26.25,27.125,26.1875,29.3125,30.4375,30.875
0.06605223,-0.92301434,-1.2503371,-1.2349749,-0.038679104,0.03549676,-0.13160653,-0.3738135,-0.32813206,0.05983904,-3.0781846,0.6251702,-0.00052126724,-0.030475052,0.0010886013,0.0018012807,0.0012029477,0.0013385309,-0.0024484126,0.44720432,-1.4690728,2.0077918,-2.107436,-1.5707577,2.4223504,-0.028522003,0.048864078,-0.06023758,0.010686618,-0.0017827525,-0.026029231,-0.15322891,0.34476504,-9.500193,0.779936,47.711964,-0.63671905,-1.8616056,-3.4810832,-0.34569812,-0.092385754,-0.106257364,26.25,27.125,26.1875,29.3125,30.4375,30.875
0.068051994,-1.198664,-1.2448338,-1.3138921,-0.02962033,0.0313881,-0.13599654,-0.37387708,-0.32812867,0.059846252,-3.0782132,0.62529224,-0.0005372789,-0.031084511,0.0010780757,0.0018598894,0.0011279201,0.0013974231,-0.0027770244,0.44710797,-1.4690007,2.007696,-2.107436,-1.5707101,2.4223266,-0.02907513,0.049806457,-0.061453555,0.010875565,-0.0017421676,-0.026253058,-0.17238252,0.30645782,-9.385271,0.7732232,47.741516,-0.7000563,-1.8550853,-3.515516,-0.34646812,-0.13451558,-0.09868332,26.25,27.125,26.1875,29.3125,30.4375,30.875
0.07005191,-1.5735599,-1.0788832,-1.137713,-0.02301986,0.030303694,-0.124238946,-0.3739391,-0.32813728,0.059856307,-3.0782351,0.6252775,-0.0005306829,-0.03349482,0.0003595823,0.0028533803,-7.8322795e-05,0.004016961,-0.0033876996,0.44705978,-1.468904,2.0075614,-2.1074126,-1.5706981,2.4222665,-0.029868862,0.052079197,-0.066121094,0.010387185,-0.0017976369,-0.026432743,-0.19153613,0.22984336,-9.385271,0.679228,47.688675,-0.68449056,-1.8715291,-3.402606,-0.33825967,-0.12671454,-0.092936955,26.25,27.125,26.1875,29.3125,30.4375,30.875
0.07205182,-1.5433733,-0.73927534,-1.1014318,-0.020571116,0.045423385,-0.13054748,-0.37403512,-0.32816458,0.059886344,-3.0782871,0.6252674,-0.00042993302,-0.032869082,0.00061780325,0.00089401973,0.0016856665,0.0004147425,-0.0019687999,0.44702393,-1.4687831,2.0073597,-2.1074126,-1.5706981,2.4222178,-0.029760228,0.05558268,-0.065444954,0.010218178,-0.0018284377,-0.027742906,-0.2873042,0.2681506,-9.3661175,0.7172743,47.682407,-0.71126,-1.9072099,-3.4495907,-0.33691412,-0.13990358,-0.07327588,26.25,27.125,26.1875,29.3125,30.4375,30.875
0.07405186,-1.3528891,-0.86024845,-0.9835195,-0.01634946,0.056662813,-0.13613726,-0.37409374,-0.32815003,0.059882917,-3.0782533,0.62527966,-0.0004619243,-0.034114014,0.00034923127,0.0026082774,0.0006049884,0.0035928108,-0.001341076,0.4469518,-1.4686759,2.0072386,-2.107364,-1.5707105,2.4221578,-0.030102948,0.05398945,-0.06776198,0.010796256,-0.0022326412,-0.028711531,-0.2873042,0.17238252,-9.308656,0.77545905,47.682407,-0.7520274,-1.8230218,-3.5354385,-0.34530714,-0.14727834,-0.0670346,26.25,27.125,26.1875,29.3125,30.4375,30.875
0.07605245,-2.0753443,-0.98567104,-1.1545544,-0.010160032,0.03748184,-0.11625281,-0.37414414,-0.3281508,0.05988277,-3.078239,0.62527704,-0.00046184854,-0.03723574,-0.0005662646,0.0042303125,-0.00092713,0.007694903,-0.0027081561,0.44691554,-1.4685793,2.0071275,-2.1073406,-1.5707225,2.4221218,-0.030934958,0.05616018,-0.07374596,0.010249289,-0.0026376685,-0.028171567,-0.30645782,0.22984336,-9.308656,0.7105615,47.709274,-0.80063224,-1.7229471,-3.2642717,-0.32407546,-0.15839165,-0.06316519,26.25,27.125,26.1875,29.3125,30.4375,30.875
0.07805235,-1.6296511,-1.1458348,-1.1474873,0.0005076903,0.044135276,-0.12511793,-0.37422022,-0.32814914,0.05987674,-3.0782402,0.62529755,-0.0004519638,-0.036555387,0.0002693945,0.0021165025,0.0018974899,0.003634469,-0.0035259132,0.44684342,-1.4684463,2.0069978,-2.107352,-1.5707225,2.4220624,-0.031348493,0.059560686,-0.07275685,0.010744778,-0.0034261753,-0.027766006,-0.40222588,0.22984336,-9.308656,0.7642693,47.7451,-0.747275,-1.8074162,-3.4236035,-0.34363216,-0.14623328,-0.057268977,26.25,27.125,26.1875,29.3125,30.4375,30.875
0.080052435,-2.0410085,-0.77532405,-1.0545225,-0.014219624,0.034758266,-0.12560365,-0.37428164,-0.32812944,0.059866708,-3.0781872,0.62536377,-0.00050029845,-0.03869742,6.5687185e-05,0.0025554905,0.0019820272,0.0053969137,-0.0047401036,0.44675905,-1.4683255,2.0068772,-2.1073043,-1.5707349,2.4220262,-0.032326534,0.062267143,-0.07666511,0.010396128,-0.0042739497,-0.027525118,-0.36391866,0.22984336,-9.32781,0.7597976,47.701214,-0.7755307,-1.9583967,-3.3743186,-0.3256035,-0.16232732,-0.0832378,26.25,27.125,26.1875,29.3125,30.4375,30.875
0.08205227,-2.0622597,-1.152576,-1.0579506,-0.0038213292,0.030677589,-0.113749534,-0.37438205,-0.32815632,0.059908606,-3.0782263,0.625371,-0.00035548906,-0.040242743,-7.0464857e-06,0.004292583,0.001622793,0.009408718,-0.004163425,0.446735,-1.4682184,2.0066607,-2.1072924,-1.5707592,2.4220018,-0.03262546,0.06081263,-0.07907505,0.010491404,-0.0056857048,-0.02839723,-0.3256114,0.19153613,-9.3661175,0.7396539,47.696735,-0.78489655,-1.708447,-3.3043976,-0.32876617,-0.14900386,-0.06886782,26.25,27.125,26.1875,29.3125,30.4375,30.875
0.08400661,-2.0284514,-0.8520572,-1.0790381,-0.011492666,0.02983279,-0.11747291,-0.37445468,-0.3281565,0.059920043,-3.0782495,0.6253001,-0.00036588634,-0.041841965,0.001211652,0.0033287152,0.0051661897,0.008453551,-0.005402723,0.4466624,-1.4681091,2.0065033,-2.1072443,-1.5707487,2.4218822,-0.03447148,0.06499612,-0.08165053,0.011285255,-0.008472293,-0.028996581,-0.34476504,0.24899697,-9.385271,0.78217715,47.684196,-0.8105968,-1.7572123,-3.259372,-0.3314513,-0.12950641,-0.07103243,26.25,27.125,26.1875,29.3125,30.4375,30.875
0.08605246,-1.7841148,-0.8129046,-1.1369833,-0.024934188,0.0429853,-0.1254656,-0.37454373,-0.32815218,0.059912805,-3.0782502,0.62533873,-0.00037892192,-0.043379433,0.0017392556,0.0035990304,0.0064398632,0.009592426,-0.0064257076,0.44656584,-1.4679527,2.006348,-2.1072438,-1.5707372,2.4218097,-0.03573079,0.0665585,-0.08408968,0.011690308,-0.010116819,-0.029228138,-0.4213795,0.24899697,-9.3661175,0.7642693,47.696735,-0.77060807,-1.915021,-3.2908902,-0.32391208,-0.10636293,-0.072043866,26.25,27.125,26.1875,29.3125,30.4375,30.875
0.08805217,-2.0335336,-1.456979,-1.2321395,-0.014008789,0.05451641,-0.120841965,-0.3746198,-0.32815462,0.05991907,-3.078213,0.6254264,-0.0003561373,-0.044126105,0.0021321443,0.003138268,0.009042812,0.009422941,-0.0058337264,0.4465179,-1.46782,2.0061796,-2.107208,-1.5707616,2.4218214,-0.03559858,0.06908557,-0.08596314,0.012320511,-0.01239388,-0.029682165,-0.30645782,0.22984336,-9.461885,0.8537928,47.701214,-0.776527,-1.8132167,-3.1717043,-0.32753342,-0.077501036,-0.06171185,26.25,27.125,26.1875,29.3125,30.4375,30.875
0.09005183,-1.9499148,-0.9014122,-1.2340083,-0.036862202,0.060663592,-0.12692277,-0.37470853,-0.3281439,0.05990724,-3.0781798,0.6253806,-0.0003789872,-0.04408864,0.002428832,0.0022486018,0.0109173525,0.008405591,-0.004853608,0.44643414,-1.4676398,2.0060003,-2.1071723,-1.5707864,2.4217134,-0.03526479,0.07102517,-0.08603721,0.012184554,-0.013646978,-0.030325191,-0.36391866,0.24899697,-9.423578,0.83365434,47.683304,-0.811429,-1.8757867,-3.3048558,-0.33431673,-0.063328154,-0.07027494,26.25,27.125,26.1875,29.3125,30.4375,30.875
0.09205201,-2.3398604,-1.932766,-1.1769269,-0.025966538,0.046445515,-0.115382284,-0.3748144,-0.32815436,0.059945386,-3.0782194,0.6253897,-0.00023601009,-0.04679789,0.001036722,0.003811627,0.0066655357,0.010773666,-0.0073060803,0.44637346,-1.4675432,2.0058067,-2.1071723,-1.5708092,2.4216535,-0.03698548,0.07287242,-0.09159624,0.011913373,-0.010843022,-0.029596355,-0.28730422,0.21068975,-9.423578,0.7463667,47.71554,-0.8472569,-1.8524731,-3.2010477,-0.31971052,-0.08432954,-0.08947022,26.25,27.125,26.1875,29.3125,30.4375,30.875
0.094051845,-1.3803365,-1.8086398,-1.184795,-0.040356785,0.048362587,-0.12448498,-0.37491328,-0.32814667,0.059941616,-3.07818,0.6255369,-0.00022771575,-0.04561699,0.0015772058,0.0017304656,0.006988912,0.005494294,-0.0094270045,0.44627693,-1.4673749,2.0056274,-2.1071599,-1.5708202,2.421654,-0.038266204,0.0752575,-0.08957274,0.012398412,-0.008849728,-0.028760891,-0.2681506,0.30645782,-9.423578,0.79560274,47.70838,-0.71217895,-1.946787,-3.334577,-0.31185788,-0.088254064,-0.08832481,26.25,27.125,26.1875,29.3125,30.4375,30.875
0.09605216,-1.1348851,-1.5731436,-1.2413781,-0.041939557,0.028737253,-0.12122769,-0.374992,-0.32814398,0.05993372,-3.0781727,0.62547797,-0.00029854523,-0.04754943,0.000931372,0.0021394487,0.0054498184,0.006377275,-0.009774203,0.44619253,-1.4672061,2.0054462,-2.1071002,-1.5708083,2.4215338,-0.039463744,0.077994935,-0.09346341,0.012086706,-0.007852908,-0.029609933,-0.24899697,0.28730422,-9.461885,0.784413,47.699425,-0.770977,-1.924233,-3.2419505,-0.30163127,-0.10944438,-0.09682103,26.25,27.125,26.1875,29.3125,30.4375,30.875
0.098052345,-1.2071513,-1.712055,-1.1937099,-0.029121324,0.017226754,-0.114197224,-0.3750822,-0.32813588,0.05993937,-3.0781376,0.6255089,-0.00026513718,-0.04914523,0.0010002219,0.0026055353,0.0043276665,0.0071204924,-0.010705952,0.44611993,-1.4670619,2.0052664,-2.1070645,-1.570844,2.4214852,-0.041486524,0.07922837,-0.0959125,0.012143258,-0.0071665896,-0.030700684,-0.1340753,0.19153613,-9.346964,0.73741806,47.72092,-0.65894747,-1.9143659,-3.1709185,-0.29076225,-0.123397425,-0.0984706,26.25,27.125,26.1875,29.3125,30.4375,30.875
0.10005233,-1.3680975,-1.3432146,-1.3639035,-0.026639141,0.012772274,-0.11067829,-0.37519604,-0.32815236,0.059961546,-3.0781872,0.62552,-0.00016073973,-0.049838237,0.0007403559,0.0025245645,0.0045718607,0.007268869,-0.010813165,0.4460479,-1.4669178,2.0050623,-2.1070883,-1.570844,2.421414,-0.04141839,0.08098084,-0.09765748,0.012107854,-0.0074517312,-0.030524107,-0.21068975,0.24899697,-9.3661175,0.7463667,47.694946,-0.6796714,-1.8913844,-3.2192628,-0.28610262,-0.11135431,-0.10282856,26.25,27.125,26.1875,29.3125,30.4375,30.875
0.10205204,-1.3077267,-1.3849796,-1.2864774,-0.0057957186,0.024881225,-0.11661193,-0.37530166,-0.32815826,0.05997848,-3.0781882,0.6254814,-8.149474e-05,-0.05090255,0.0004193962,0.0030636368,0.0048433873,0.008950843,-0.010572718,0.44598797,-1.4667616,2.0048463,-2.1070645,-1.5708803,2.42133,-0.04110711,0.08197605,-0.09998392,0.012040766,-0.008425919,-0.03045025,-0.1340753,0.3256114,-9.3661175,0.7239871,47.72002,-0.71045613,-1.9770814,-3.1978374,-0.27792555,-0.107018515,-0.12627399,26.25,27.125,26.1875,29.3125,30.4375,30.875
0.104051836,-1.5194396,-1.0153323,-1.1060294,-0.012494123,0.028292144,-0.11669111,-0.37539026,-0.32815802,0.05994695,-3.078134,0.62558615,-0.00021127347,-0.051814936,0.0009754615,0.0017078868,0.0063582724,0.005984506,-0.012060735,0.44589132,-1.4665205,2.0046422,-2.1070163,-1.5708565,2.4213057,-0.042899407,0.0865,-0.102082886,0.012945569,-0.008517984,-0.030751979,-0.095768064,0.3256114,-9.3661175,0.7709874,47.685097,-0.70584357,-1.895706,-3.2032418,-0.28062093,-0.10870029,-0.13868636,26.25,27.125,26.1875,29.3125,30.4375,30.875
0.10605258,-1.4768724,-1.3882476,-1.1587064,-0.011353637,0.027569965,-0.12146601,-0.37550706,-0.32815444,0.059970003,-3.0781295,0.6256615,-0.00012825523,-0.052815378,0.0010643888,0.0029867492,0.0052691647,0.008104697,-0.012571512,0.44579518,-1.4663774,2.0044262,-2.106992,-1.5708803,2.4212573,-0.043996155,0.08499199,-0.10348473,0.0134708565,-0.008449754,-0.031338077,-0.05746084,0.30645782,-9.32781,0.7172743,47.685097,-0.59241927,-2.0162013,-3.1679702,-0.24856164,-0.10818073,-0.15017669,26.25,27.125,26.1875,29.3125,30.4375,30.875
0.10805221,-1.1742916,-1.7548544,-1.31478,-0.018986192,0.029138943,-0.11709193,-0.3756142,-0.32812005,0.059956696,-3.0780466,0.6256831,-0.00013160487,-0.053466406,0.0011133055,0.0026527424,0.006203292,0.0070863524,-0.012326983,0.4456748,-1.4661851,2.004234,-2.1069438,-1.5709409,2.4211612,-0.044384237,0.08735943,-0.10558066,0.014519212,-0.008856913,-0.03196823,-0.095768064,0.2681506,-9.251195,0.77545905,47.68062,-0.71233726,-1.7929299,-3.2147174,-0.26640275,-0.09665093,-0.16119799,26.25,27.125,26.1875,29.3125,30.4375,30.875
0.110052064,-1.2854142,-1.5856417,-1.2541252,-0.032244083,0.012639582,-0.12242216,-0.37572005,-0.32814968,0.059975814,-3.0780768,0.62568814,-0.00010010542,-0.05416978,0.0013600832,0.0019344649,0.0073756394,0.0059544775,-0.012205284,0.44562674,-1.466004,2.0039828,-2.106908,-1.5709289,2.4211125,-0.045083027,0.0901776,-0.10710641,0.014755138,-0.009428664,-0.03278671,-0.11492168,0.24899697,-9.32781,0.7239871,47.678825,-0.7613453,-2.0875752,-3.1767712,-0.2509153,-0.09302128,-0.16640155,26.25,27.125,26.1875,29.3125,30.4375,30.875
0.11205185,-0.82796955,-1.3806436,-1.2546394,-0.034354467,0.02374927,-0.11708832,-0.37583664,-0.32814628,0.059980232,-3.078093,0.62576807,-6.7237e-05,-0.05377652,0.0011449729,0.00134366,0.0074514668,0.004101544,-0.011483934,0.4455068,-1.4658359,2.0037901,-2.1069195,-1.5709165,2.4210405,-0.04480013,0.09146802,-0.10733444,0.0153939985,-0.008696385,-0.033226714,-0.24899697,0.24899697,-9.289503,0.75084364,47.686886,-0.82805216,-1.9090044,-3.3037176,-0.24189565,-0.08743146,-0.1789392,26.25,27.125,26.1875,29.3125,30.4375,30.875
0.11405198,-1.2234288,-0.7090754,-1.2628809,-0.031100756,0.007908557,-0.12421303,-0.37594026,-0.32814473,0.059992656,-3.078069,0.62574416,-3.4182092e-05,-0.054945666,0.0012061074,0.00083548913,0.007971845,0.0037178292,-0.01171734,0.44543454,-1.4656672,2.0035622,-2.10686,-1.5709523,2.4209566,-0.04574598,0.09448448,-0.10942587,0.015038462,-0.009006153,-0.033936806,-0.15322891,0.21068975,-9.270349,0.8157518,47.666286,-0.7958281,-2.0121217,-3.2836642,-0.24086007,-0.116041094,-0.19070627,26.25,27.125,26.1875,29.3125,30.4375,30.875
0.11605243,-1.4176273,-0.9071493,-1.1816156,-0.010697282,0.012554926,-0.120991,-0.37606794,-0.3281571,0.060006168,-3.0780833,0.62584275,-2.7543436e-05,-0.055649184,0.0008718863,0.00096605293,0.008030325,0.0035975026,-0.01132532,0.44532654,-1.465463,2.003298,-2.1068237,-1.5709285,2.4209085,-0.045731086,0.09612501,-0.111733764,0.015839338,-0.009009523,-0.034312785,-0.11492168,0.21068975,-9.289502,0.77545905,47.6421,-0.808774,-1.9599712,-3.3122377,-0.23741029,-0.1004487,-0.207632,26.25,27.125,26.1875,29.3125,30.4375,30.875
0.11805169,-1.8400117,-0.9361454,-1.2123244,0.008917598,0.009422898,-0.11324111,-0.37617573,-0.3281554,0.060001004,-3.0780442,0.6257955,2.8688264e-05,-0.05555854,0.00044787567,0.00074122654,0.007817913,0.003503105,-0.009949148,0.4452667,-1.4652592,2.0030825,-2.1068118,-1.5709885,2.4208243,-0.044996355,0.096858375,-0.11191774,0.015279947,-0.008779069,-0.0349543,-0.17238252,0.22984336,-9.270349,0.72622824,47.692257,-0.8874359,-1.9979584,-3.3277144,-0.21366653,-0.10439755,-0.22224799,26.25,27.125,26.1875,29.3125,30.4375,30.875
0.12005261,-1.2494617,-0.6488428,-1.1480268,0.0050180955,0.02492144,-0.11982115,-0.37629473,-0.3281418,0.059996404,-3.0780222,0.62590593,2.8551385e-05,-0.057489045,0.0007842309,0.00097443745,0.007851513,0.004087982,-0.00987617,0.445134,-1.4650668,2.0028784,-2.1068003,-1.5709885,2.4207635,-0.04714847,0.09915621,-0.115083136,0.01563296,-0.009067924,-0.03717678,-0.05746084,0.22984336,-9.251195,0.7530795,47.65106,-0.8761339,-1.9612718,-3.4240212,-0.19922821,-0.11283383,-0.21727902,26.25,27.125,26.1875,29.3125,30.4375,30.875
0.12205234,-1.4994432,-1.1817985,-1.3703425,0.002211718,0.019471258,-0.11411887,-0.37642476,-0.32815266,0.060018074,-3.0780528,0.62593025,0.000101787744,-0.05762788,0.0014044379,0.0008124554,0.009414832,0.0041783773,-0.009590347,0.4450379,-1.464887,2.0026276,-2.1067874,-1.5709895,2.4206789,-0.0474392,0.099315315,-0.11497921,0.015965417,-0.010514896,-0.0377515,-0.095768064,0.22984336,-9.174581,0.8179876,47.68062,-0.8585905,-1.9220984,-3.4502342,-0.18620181,-0.09306455,-0.23286709,26.25,27.125,26.1875,29.3125,30.4375,30.875
0.12405217,-1.3280028,-1.5669284,-1.304154,-0.0047468618,0.017457122,-0.108068414,-0.37653267,-0.32815367,0.060013447,-3.0780103,0.6259215,0.00010373847,-0.057093978,0.0004476473,-0.0008808584,0.011012552,0.00074015383,-0.008382597,0.4449667,-1.4646697,2.0023878,-2.1067398,-1.5710253,2.4206078,-0.04517845,0.10431125,-0.116758846,0.016538592,-0.010480274,-0.036696665,-0.17238252,0.21068975,-9.193734,0.800085,47.683304,-1.039623,-2.0578666,-3.4776218,-0.1899977,-0.05981287,-0.25161022,26.25,27.125,26.1875,29.3125,30.4375,30.875
0.12605248,-1.1101724,-1.1111608,-1.0768461,-0.024187192,0.013888235,-0.12103023,-0.37666163,-0.32817048,0.06004018,-3.0780427,0.6259476,0.00017947976,-0.058447044,0.00087241095,0.001233928,0.0098215435,0.004362934,-0.009680422,0.44488212,-1.4644911,2.002124,-2.1067154,-1.5710253,2.4205356,-0.046842292,0.101086296,-0.11828697,0.017509682,-0.010963518,-0.037062418,-0.11492168,0.22984336,-9.270349,0.7105615,47.721813,-1.0499352,-1.7373538,-3.4587042,-0.19647956,-0.083677284,-0.2826817,26.25,27.125,26.1875,29.3125,30.4375,30.875
0.12805223,-1.2980751,-1.5085695,-1.3627408,-0.012243666,0.0033860467,-0.11259116,-0.37679127,-0.32815316,0.060041092,-3.07797,0.62602746,0.00022094318,-0.05915826,0.0009581868,-0.0005531157,0.012072226,0.0014538923,-0.008202593,0.4447739,-1.4642737,2.0018713,-2.1066678,-1.5710858,2.4204867,-0.047095858,0.10684229,-0.12059398,0.017653545,-0.011749114,-0.03879014,-0.1340753,0.1340753,-9.3661175,0.7351769,47.7254,-1.05496,-1.8704791,-3.3429554,-0.1602315,-0.07533313,-0.2943298,26.25,27.125,26.1875,29.3125,30.4375,30.875
0.13005245,-1.2064124,-1.1462313,-1.4167922,-0.015231038,-0.0013985176,-0.1125591,-0.37686193,-0.32814422,0.060014777,-3.0779269,0.6259049,0.00011142765,-0.061012443,0.0010435693,0.0014905569,0.009921981,0.0046826648,-0.009945075,0.44470125,-1.4640707,2.001691,-2.1065948,-1.5710973,2.4203432,-0.04927269,0.104854375,-0.1232986,0.018502837,-0.011204953,-0.03922337,-0.114921674,0.19153613,-9.442732,0.7418897,47.701214,-1.055111,-1.7878723,-3.617095,-0.14832531,-0.08980091,-0.30119783,26.25,27.125,26.1875,29.3125,30.4375,30.875
0.13205245,-1.1161783,-1.3153338,-1.328672,-0.008713306,0.008000879,-0.11575486,-0.37701964,-0.32814968,0.060047355,-3.07794,0.6260206,0.00018479944,-0.060453694,0.0002943095,0.000631501,0.0101994425,0.0021511896,-0.0068208803,0.44456974,-1.463866,2.0013797,-2.106547,-1.5710973,2.4202824,-0.047908425,0.10741129,-0.124383494,0.019430082,-0.010365137,-0.0409847,-0.038307227,0.21068975,-9.270349,0.80456203,47.72002,-1.1489892,-1.7607477,-3.5167549,-0.16669059,-0.05925432,-0.29201636,26.25,27.125,26.1875,29.3125,30.4375,30.875
0.13405232,-1.5729254,-1.285942,-1.531274,-0.010012417,0.009185809,-0.11199071,-0.37713498,-0.32815576,0.060018353,-3.0778925,0.62603176,0.0002154715,-0.06251702,-0.00032417043,0.0012191641,0.009151916,0.0033912056,-0.009181238,0.44450954,-1.4636016,2.0011628,-2.1065834,-1.5711449,2.4202354,-0.04885899,0.11014821,-0.12880312,0.019539699,-0.009961968,-0.03957257,-0.1340753,0.24899697,-9.308657,0.75755644,47.687782,-1.1667274,-1.8261988,-3.379767,-0.14204088,-0.058459844,-0.32589996,26.25,27.125,26.1875,29.3125,30.4375,30.875
0.13605182,-1.7502218,-1.5919975,-1.5655553,-0.011596019,0.014906721,-0.11287028,-0.37722382,-0.3281577,0.060022686,-3.0778596,0.6260267,0.00011288342,-0.06370382,-5.5253324e-05,0.0017015982,0.008720336,0.0039308486,-0.0124941,0.44442493,-1.4634098,2.000911,-2.1064513,-1.5711325,2.420152,-0.050512716,0.1107412,-0.13073511,0.02020607,-0.009809245,-0.037912004,-0.095768064,0.3256114,-9.385271,0.8157518,47.72002,-1.1774936,-1.7443553,-3.3941798,-0.15469225,-0.093275644,-0.37339112,26.25,27.125,26.1875,29.3125,30.4375,30.875
0.13805257,-1.8226836,-2.161888,-1.8097383,-0.015241032,0.017563084,-0.10913822,-0.37734443,-0.32813388,0.060006402,-3.07778,0.6260471,8.43044e-05,-0.065016896,-0.0002462662,0.0024551218,0.008409904,0.0050195926,-0.011362839,0.4443048,-1.4631699,2.0006697,-2.1063907,-1.5711812,2.420055,-0.051179238,0.111699216,-0.13376072,0.021153724,-0.010004257,-0.039707236,-0.11492168,0.3256114,-9.576807,0.8090337,47.666286,-1.1219411,-1.7388707,-3.2787638,-0.13256724,-0.059355814,-0.41196004,26.25,27.125,26.1875,29.3125,30.4375,30.875
0.14005259,-1.4429641,-2.173146,-1.6535544,-0.041350972,0.036856752,-0.116708726,-0.37749872,-0.32814783,0.060025245,-3.077798,0.62618417,0.00014522563,-0.06559818,0.000105843865,0.0022948831,0.0091596,0.0044779475,-0.010321984,0.4441844,-1.4629419,2.0003722,-2.1063793,-1.5711693,2.420018,-0.052033067,0.112961315,-0.13498798,0.021929828,-0.0104476,-0.041601036,-0.22984336,0.36391866,-9.672575,0.8873621,47.68599,-1.1884171,-1.6953877,-3.4336824,-0.14335448,-0.054785043,-0.40622276,26.25,27.125,26.1875,29.3125,30.4375,30.875
0.14205232,-1.8278056,-2.1624784,-1.7466956,-0.05197137,0.034397893,-0.112252004,-0.3776319,-0.3281367,0.060015097,-3.0777538,0.6261364,0.00015815225,-0.066325404,-0.00018709197,0.0017991604,0.00877367,0.0028463001,-0.009468823,0.4440762,-1.4626892,2.000108,-2.1063426,-1.571217,2.4198859,-0.052816834,0.11588816,-0.1372597,0.022574313,-0.009403164,-0.043238103,-0.40222588,0.36391866,-9.634268,0.7620334,47.698532,-1.1729386,-1.6986673,-3.3894403,-0.14089933,-0.07672027,-0.41758406,26.25,27.125,26.1875,29.3125,30.4375,30.875
0.14405209,-2.1207721,-2.067131,-1.9009498,-0.048117682,0.035198595,-0.10820851,-0.37776762,-0.3281415,0.06003393,-3.07773,0.6263054,0.00014749276,-0.06758797,7.970829e-05,0.0024848483,0.008204205,0.0039117523,-0.009898383,0.44395545,-1.4624736,1.9998077,-2.1062586,-1.571205,2.4198737,-0.054454923,0.11605716,-0.13916016,0.02309742,-0.009349982,-0.0444458,-0.30645782,0.40222588,-9.557653,0.81351066,47.719128,-1.1558633,-1.6406856,-3.405601,-0.14365208,-0.08006525,-0.41806257,26.25,27.125,26.1875,29.3125,30.4375,30.875
0.1460527,-2.4359913,-2.1532505,-1.8441726,-0.035877567,0.035458103,-0.11699001,-0.37788668,-0.3281453,0.06003439,-3.0777476,0.62623036,0.00011891602,-0.06820197,-2.6513135e-05,0.0011316651,0.009380465,0.0013150546,-0.008382375,0.44384748,-1.4622561,1.9995555,-2.106211,-1.5711926,2.4197168,-0.054816782,0.12074912,-0.1413463,0.02343996,-0.009302434,-0.046321765,-0.30645782,0.36391866,-9.634268,0.7665104,47.688675,-1.1516354,-1.9228928,-3.3677573,-0.13896224,-0.07354679,-0.43680236,26.25,27.125,26.1875,29.3125,30.4375,30.875
0.14805254,-1.7821206,-1.4254273,-1.7977597,-0.043278344,0.05262034,-0.11455576,-0.37805605,-0.3281534,0.06004458,-3.07775,0.626307,0.00021580298,-0.06921182,-4.953153e-05,0.0017382836,0.008281398,0.002236565,-0.0072585894,0.443727,-1.4619931,1.9992441,-2.1062224,-1.5712165,2.419644,-0.056045838,0.12085346,-0.14291786,0.02359712,-0.008706805,-0.048675425,-0.2873042,0.3256114,-9.634268,0.8224646,47.68062,-1.1827677,-1.7104197,-3.461086,-0.14044473,-0.09735611,-0.42526597,26.25,27.125,26.1875,29.3125,30.4375,30.875
0.15005247,-2.4829917,-1.6440536,-1.5091827,-0.026225604,0.036137223,-0.1132066,-0.3782124,-0.32816148,0.060072616,-3.0777743,0.6262724,0.00031321938,-0.070396826,0.0004816147,0.0013290202,0.009140206,0.0020405382,-0.0058817393,0.44361842,-1.4617763,1.9989322,-2.106187,-1.5712408,2.419511,-0.05760421,0.12311986,-0.14447059,0.02342744,-0.00940016,-0.05160869,-0.4213795,0.24899697,-9.5385,0.7642693,47.73525,-1.2607675,-1.9091666,-3.4255857,-0.11956884,-0.08883495,-0.41893303,26.25,27.125,26.1875,29.3125,30.4375,30.875
0.15205224,-2.0528243,-1.302029,-1.533218,-0.017982513,0.04396143,-0.11878507,-0.37833446,-0.3281575,0.060053974,-3.0776982,0.62627506,0.00028299517,-0.072423644,0.00021551245,0.0018062219,0.008667157,0.0034862708,-0.004622319,0.44353408,-1.4615003,1.9986562,-2.106127,-1.571289,2.4194384,-0.058759037,0.12556654,-0.14826296,0.023259947,-0.009605874,-0.054019433,-0.2681506,0.17238252,-9.500193,0.800085,47.70211,-1.2080647,-1.7629517,-3.355577,-0.11610785,-0.09000275,-0.40843305,26.25,27.125,26.1875,29.3125,30.4375,30.875
0.15405232,-1.7148309,-0.99892974,-1.3774823,-0.011102878,0.04774214,-0.11334386,-0.37848142,-0.3281614,0.06007129,-3.0777135,0.6263535,0.00031353522,-0.07267896,0.0005208003,0.001360397,0.008332964,0.0015795935,-0.0025857887,0.44340158,-1.4612842,1.9983691,-2.1060903,-1.5712765,2.419353,-0.06027898,0.12685107,-0.14889926,0.02418338,-0.008484619,-0.057577975,-0.30645782,0.15322891,-9.423578,0.90527004,47.689575,-1.2051523,-1.5829656,-3.376875,-0.10199979,-0.1057345,-0.38283443,26.25,27.125,26.1875,29.3125,30.4375,30.875
0.15605198,-1.4301683,-0.51923966,-1.2476128,-0.019697182,0.044937003,-0.1251223,-0.37863624,-0.3281647,0.0600862,-3.0777502,0.62624437,0.00034156675,-0.07337213,0.00067035365,-0.00020229138,0.009935649,-0.0017675739,-0.00015827754,0.4432693,-1.4610429,1.9980572,-2.1060426,-1.5712765,2.4191482,-0.061137274,0.13209125,-0.15135519,0.025106722,-0.008499895,-0.06086201,-0.34476504,0.17238252,-9.461885,0.80456203,47.72002,-1.1858788,-1.7031313,-3.403995,-0.10148019,-0.09788403,-0.3450716,26.25,27.125,26.1875,29.3125,30.4375,30.875
0.15805185,-1.0876482,-0.5686565,-1.0327696,-0.015812695,0.05550912,-0.12799616,-0.378805,-0.32818076,0.060119983,-3.0777624,0.6261878,0.0004360901,-0.07587459,0.00078060175,0.0011010962,0.0101263365,0.0013928509,0.0015692951,0.44317284,-1.460791,1.9976848,-2.1059706,-1.5713128,2.4190152,-0.062515475,0.13323353,-0.15574145,0.025577495,-0.0100340275,-0.06396303,-0.38307226,0.19153613,-9.3661175,0.7978386,47.709274,-1.1685808,-1.6993287,-3.2375178,-0.08371915,-0.09147942,-0.3109887,26.25,27.125,26.1875,29.3125,30.4375,30.875
0.16005257,-1.7385666,-0.2603194,-1.1382848,-0.01000997,0.04138243,-0.13446698,-0.37895328,-0.32818723,0.06011412,-3.0777469,0.62626,0.00043246683,-0.07591452,0.0010509406,-0.000329849,0.010856968,-0.0018583629,0.0029498842,0.44305244,-1.460514,1.9973863,-2.1059468,-1.5713128,2.418942,-0.06351689,0.13655443,-0.15628046,0.026040465,-0.009301543,-0.06634564,-0.45968673,0.1340753,-9.346964,0.78888994,47.704796,-1.1925215,-1.9681172,-3.4265382,-0.08241488,-0.11212714,-0.27618912,26.25,27.125,26.1875,29.3125,30.4375,30.875
0.16205256,-1.9242346,-0.63618284,-1.0315446,-0.0034353198,0.043248035,-0.115847416,-0.37910563,-0.32817835,0.060104646,-3.0777154,0.6262529,0.00039626646,-0.07589513,0.0016311106,-0.0025643301,0.01324224,-0.00648634,0.0047390475,0.44290817,-1.460225,1.9970745,-2.1058862,-1.5713252,2.4187975,-0.06443299,0.14169917,-0.15709229,0.026907628,-0.0094772065,-0.06904928,-0.36391866,0.11492168,-9.32781,0.82694155,47.695843,-1.177645,-1.9194634,-3.4430044,-0.0664461,-0.10967091,-0.22346126,26.25,27.125,26.1875,29.3125,30.4375,30.875
0.16405258,-2.2737172,-1.0417311,-0.9104937,-0.0031487502,0.042644847,-0.116405435,-0.37925887,-0.32818708,0.060108002,-3.0777385,0.6261427,0.0003959243,-0.07707919,0.001880562,-0.0015971139,0.012764212,-0.0047946004,0.0044513484,0.4427877,-1.4599497,1.9967512,-2.1058385,-1.5713252,2.4186056,-0.06572001,0.14114685,-0.15886894,0.027502395,-0.009774225,-0.07004737,-0.45968673,0.15322891,-9.212888,0.7709874,47.664497,-1.1064955,-1.8554986,-3.4336905,-0.066953845,-0.1149182,-0.18525256,26.25,27.125,26.1875,29.3125,30.4375,30.875
0.16605237,-1.9169949,-1.0066286,-0.74996835,-0.0065482655,0.05272036,-0.12156253,-0.3794114,-0.32816112,0.06010428,-3.07766,0.6261839,0.0004067196,-0.07859281,0.0018189291,-0.001242987,0.012371349,-0.0040036878,0.0036148794,0.44264323,-1.4596854,1.9964508,-2.1057665,-1.5713848,2.418497,-0.06692314,0.1428912,-0.16168946,0.027689759,-0.009767624,-0.07041192,-0.5554548,0.1340753,-9.174581,0.8537928,47.651955,-1.1483794,-1.8397832,-3.4411068,-0.054351225,-0.11107133,-0.16308492,26.25,27.125,26.1875,29.3125,30.4375,30.875
0.16805212,-1.8577483,-1.2733397,-0.7781602,-0.0015547577,0.047694378,-0.110667296,-0.3795943,-0.3281606,0.060131256,-3.07766,0.6262412,0.0004602243,-0.079476394,0.0015108442,-0.0011728506,0.01249369,-0.0040171337,0.0030775964,0.4424873,-1.4594212,1.9960798,-2.105694,-1.5713967,2.4183772,-0.06702143,0.14486921,-0.16421609,0.028301409,-0.009875285,-0.06997154,-0.38307226,0.19153613,-9.136273,0.8224646,47.704796,-1.1327355,-1.8669612,-3.4144554,-0.055512816,-0.103725,-0.14878601,26.25,27.125,26.1875,29.3125,30.4375,30.875
0.170052,-2.006627,-0.96981806,-0.66382426,-0.005837691,0.03435199,-0.123473614,-0.37974983,-0.32816324,0.060114216,-3.0776455,0.6262411,0.0004299119,-0.0815229,0.0030560726,-0.00067758735,0.012978248,-0.0027332264,-0.0018800444,0.44235393,-1.4591098,1.9957684,-2.1056702,-1.5713972,2.4182458,-0.071021385,0.14509149,-0.1657135,0.028626796,-0.01086786,-0.06901113,-0.3256114,0.19153613,-9.11712,0.78888994,47.678825,-1.047684,-1.7543828,-3.3249245,-0.046730965,-0.110694386,-0.13688472,26.25,27.125,26.1875,29.3125,30.4375,30.875
0.17205194,-1.3176206,-0.6493364,-0.58064175,-0.003958646,0.03864982,-0.124309994,-0.3799151,-0.32817572,0.060117498,-3.0776489,0.6261654,0.00046710705,-0.0821214,0.0022412362,-0.00039364462,0.0128574455,-0.0023192384,-0.0032734142,0.44224635,-1.4588099,1.9954203,-2.105634,-1.5714215,2.4180908,-0.069950745,0.14675015,-0.16837482,0.029203277,-0.010939539,-0.06654557,-0.4213795,0.21068975,-9.002198,0.8224646,47.69763,-1.0006471,-1.7529566,-3.3646262,-0.0342126,-0.12338874,-0.14570501,26.25,27.125,26.1875,29.3125,30.4375,30.875
0.17405182,-1.110336,0.0145371705,-0.56593955,-0.009010014,0.033573512,-0.124483496,-0.3800787,-0.32815278,0.06010001,-3.0775847,0.62624925,0.00039996539,-0.082597315,0.0026838644,-0.0007325014,0.013561803,-0.0032540415,-0.00460826,0.44206592,-1.4584978,1.995098,-2.105562,-1.5714334,2.4179711,-0.070993565,0.14809008,-0.16929233,0.029925596,-0.01118199,-0.06625197,-0.4213795,0.1340753,-9.078813,0.8873621,47.709274,-1.1442745,-1.6327813,-3.4465036,-0.019641796,-0.10525916,-0.14989635,26.25,27.125,26.1875,29.3125,30.4375,30.875
0.17605163,-1.715205,-1.0272382,-0.84857094,0.019865094,0.016448,-0.11096157,-0.3802681,-0.32813513,0.060117286,-3.0775568,0.62626684,0.0004733239,-0.08427241,0.0040352163,-0.001654644,0.014654601,-0.005003503,-0.013075487,0.44189662,-1.4582214,1.9947385,-2.105502,-1.5714811,2.4178166,-0.07479399,0.15145954,-0.17105575,0.030368648,-0.011422797,-0.061583642,-0.30645782,0.17238252,-9.021352,0.88960326,47.729877,-0.9902266,-1.623502,-3.3754654,-0.020029813,-0.10277924,-0.15628403,26.25,27.125,26.1875,29.3125,30.4375,30.875
0.1780372,-1.8033237,-1.0140635,-0.8065107,0.010641198,0.016843928,-0.11693213,-0.38042945,-0.32814798,0.060114227,-3.0775476,0.6262854,0.00045904008,-0.08521083,0.0029083444,0.0010848859,0.011646959,-0.0009383471,-0.015540658,0.4417768,-1.4579111,1.9943904,-2.1054537,-1.5714806,2.4177098,-0.07413904,0.14806354,-0.17390065,0.031646937,-0.010445975,-0.058464527,-0.4213795,0.15322891,-9.097966,0.8090337,47.744205,-0.97858787,-1.5337102,-3.3429642,-0.03457111,-0.11847079,-0.23011634,26.25,27.125,26.1875,29.3125,30.4375,30.875
0.1800518,-1.3488818,-0.5411616,-0.9968953,-0.006379247,0.023275537,-0.112978,-0.3805752,-0.32813755,0.06009772,-3.0774856,0.6263113,0.000405626,-0.08609209,0.0031199863,0.0006072298,0.012639262,-0.0022070282,-0.01737828,0.44164446,-1.4576106,1.9940785,-2.1053817,-1.5715054,2.4176018,-0.07503777,0.15090962,-0.17625122,0.032721978,-0.010807315,-0.0575229,-0.4405331,0.15322891,-9.155427,0.7597976,47.72271,-0.97546625,-1.6559386,-3.343187,-0.034498975,-0.117042854,-0.2583604,26.25,27.125,26.1875,29.3125,30.4375,30.875
0.18205167,-1.3745549,-0.74045616,-1.2523361,-0.00918228,0.02455757,-0.12171475,-0.38076237,-0.3281124,0.060101803,-3.0774212,0.6263949,0.00043302975,-0.08726646,0.0041218395,0.00010700353,0.01373144,-0.0038585812,-0.018733265,0.44146365,-1.4573103,1.9937195,-2.1053092,-1.5715536,2.4174817,-0.0777064,0.1533311,-0.17816493,0.03416913,-0.011092613,-0.058834855,-0.2681506,0.19153613,-9.193734,0.8179876,47.703903,-0.8436252,-1.5575845,-3.4625487,-0.03991729,-0.119213775,-0.25137168,26.25,27.125,26.1875,29.3125,30.4375,30.875
0.18405165,-1.845699,-1.2540064,-1.2980198,0.008538824,0.010541026,-0.11077761,-0.38092634,-0.3280981,0.060087007,-3.0773656,0.6265012,0.00032919282,-0.08755171,0.0045063375,-0.00021852624,0.014377789,-0.0055190846,-0.021896068,0.4412832,-1.4569863,1.9933718,-2.105213,-1.5715412,2.4173748,-0.07870958,0.15471052,-0.17936157,0.035764404,-0.010971693,-0.056674287,-0.21068975,0.22984336,-9.289502,0.77545905,47.666286,-0.8725992,-1.556334,-3.3594363,-0.06161291,-0.12432642,-0.27966046,26.25,27.125,26.1875,29.3125,30.4375,30.875
0.18605228,-1.6524107,-1.0226303,-1.3814994,0.00182076,0.008685304,-0.1175661,-0.38111296,-0.32810313,0.060099587,-3.077338,0.6264931,0.00036160814,-0.08838233,0.004141466,0.00029044683,0.014483059,-0.0052883904,-0.02111269,0.44115138,-1.4566628,1.9929646,-2.1051285,-1.5715774,2.4172418,-0.07858806,0.15598191,-0.18233582,0.037300214,-0.011170083,-0.057334356,-0.1340753,0.22984336,-9.3661175,0.84484416,47.694054,-0.8267119,-1.510624,-3.3802204,-0.062918246,-0.11596297,-0.2968749,26.25,27.125,26.1875,29.3125,30.4375,30.875
0.18805218,-1.7130855,-1.1971412,-1.4553587,-0.008929058,0.0202232,-0.11274425,-0.38127518,-0.3280935,0.060084168,-3.0772803,0.62646425,0.00029200234,-0.09040721,0.005596802,0.00060526194,0.014495171,-0.0057150554,-0.02406138,0.4410056,-1.456327,1.9926051,-2.1050322,-1.5716013,2.4170856,-0.08315513,0.15711287,-0.18474087,0.03896009,-0.011006959,-0.058951255,-0.21068975,0.2681506,-9.423578,0.9097417,47.72719,-0.7165869,-1.5683672,-3.3820324,-0.086427726,-0.14113061,-0.2983004,26.25,27.125,26.1875,29.3125,30.4375,30.875
0.19005248,-2.0618117,-1.470782,-1.8706762,-0.015621551,0.018240537,-0.1106998,-0.38146275,-0.32805872,0.06009391,-3.0772057,0.6266198,0.00026444986,-0.08918692,0.0049300315,-0.0013921593,0.016678618,-0.011443454,-0.020901183,0.4407907,-1.4560374,1.9922336,-2.104911,-1.5716251,2.4169776,-0.08109442,0.16213657,-0.18641868,0.041720077,-0.010540367,-0.06005035,-0.30645782,0.28730422,-9.500193,0.7709874,47.689575,-0.8329563,-1.7220774,-3.460524,-0.12494174,-0.1242228,-0.28799847,26.25,27.125,26.1875,29.3125,30.4375,30.875
0.19205211,-1.7315129,-1.5436743,-1.9788858,-0.029071737,0.039168887,-0.12176301,-0.3816434,-0.32806864,0.06009643,-3.0771813,0.62665385,0.0002604173,-0.09058239,0.006034217,-0.0018768203,0.018376427,-0.012123431,-0.023476457,0.44065785,-1.4557015,1.9918383,-2.1048396,-1.571638,2.4168694,-0.08350172,0.16459075,-0.18825011,0.042439148,-0.011791203,-0.05987849,-0.2681506,0.24899697,-9.672575,0.83813137,47.690468,-0.7230666,-1.6581306,-3.4259439,-0.1724655,-0.12620917,-0.31310192,26.25,27.125,26.1875,29.3125,30.4375,30.875
0.19405259,-2.0853198,-1.5504683,-1.7332618,-0.0441925,0.041922756,-0.11578303,-0.38182878,-0.32803187,0.06008781,-3.077104,0.6267945,0.00021861358,-0.09212703,0.0061862236,-0.0026174106,0.017640078,-0.0136766955,-0.026692843,0.44044074,-1.4553885,1.9914912,-2.1047556,-1.5716609,2.4167502,-0.085972965,0.1684258,-0.19082658,0.04226391,-0.010475385,-0.05913356,-0.24899697,0.24899697,-9.576807,0.800085,47.701214,-0.49670413,-1.8710277,-3.3775847,-0.17995515,-0.13445684,-0.34850568,26.25,27.125,26.1875,29.3125,30.4375,30.875
0.19605166,-2.282975,-2.0578363,-1.7835292,-0.028761528,0.033294532,-0.112762876,-0.38201067,-0.3280176,0.06008012,-3.077043,0.6267967,0.00021820319,-0.09148204,0.005307682,-0.0035491602,0.018544992,-0.016083192,-0.021947205,0.4402856,-1.4550524,1.9911188,-2.1046836,-1.571709,2.4166045,-0.08385486,0.17131451,-0.1921932,0.043296296,-0.010275977,-0.061760303,-0.24899697,0.28730422,-9.5385,0.800085,47.693153,-0.77571607,-1.8281426,-3.452579,-0.20938878,-0.14160877,-0.34926903,26.25,27.125,26.1875,29.3125,30.4375,30.875
0.19805236,-2.5910676,-1.5361406,-1.5801479,-0.022463718,0.018661717,-0.11649059,-0.38215372,-0.32800788,0.060065582,-3.076948,0.6267976,0.00011602355,-0.09298792,0.005243113,-0.0032962172,0.0184113,-0.014935207,-0.023353871,0.44016528,-1.454728,1.9907588,-2.10454,-1.5717453,2.4164972,-0.08476926,0.17313519,-0.19477093,0.0429564,-0.010659435,-0.061264317,-0.36391866,0.11492168,-9.576807,0.7933669,47.701214,-0.76129127,-1.9422963,-3.3166728,-0.2124131,-0.124829724,-0.3547554,26.25,27.125,26.1875,29.3125,30.4375,30.875
0.2000524,-1.9674548,-1.5157086,-1.7065356,-0.0048821,0.01864497,-0.10798029,-0.3823588,-0.32801294,0.060055736,-3.0769372,0.6269673,3.661931e-05,-0.093109876,0.004791398,-0.0033111982,0.018331178,-0.016415823,-0.022306176,0.43996152,-1.4543443,1.9903406,-2.1044796,-1.5716971,2.416401,-0.084440455,0.17467879,-0.19696279,0.0449077,-0.009963163,-0.061983686,-0.24899697,0.24899697,-9.576807,0.80456203,47.685097,-0.80368304,-1.8493717,-3.3450956,-0.2497553,-0.14994349,-0.38896245,26.25,27.125,26.1875,29.3125,30.4375,30.875
0.20205231,-1.8092415,-1.2807089,-1.5996255,-0.017315809,0.024976479,-0.11389008,-0.38253838,-0.3280122,0.06006981,-3.0769012,0.6269768,2.809921e-05,-0.093876086,0.0041844076,-0.0039938525,0.018804558,-0.016135579,-0.01808432,0.43981788,-1.454032,1.9899338,-2.1043608,-1.5717214,2.416268,-0.0835645,0.17790347,-0.19868286,0.043346293,-0.010525713,-0.06532624,-0.17238252,0.30645782,-9.634268,0.85826975,47.685097,-0.88809866,-1.8258669,-3.4678564,-0.27321473,-0.14339429,-0.3585093,26.25,27.125,26.1875,29.3125,30.4375,30.875
0.20405221,-2.0519564,-1.4300325,-1.5722208,-0.028443059,0.016424058,-0.12083749,-0.38275707,-0.32799745,0.060082354,-3.0768516,0.6270205,9.954926e-05,-0.094898134,0.0037804865,-0.0028667555,0.01725636,-0.012663876,-0.013335519,0.43963778,-1.453685,1.9895028,-2.1042893,-1.5717815,2.416122,-0.08359274,0.17659634,-0.1994787,0.041637454,-0.01061525,-0.070102654,-0.30645782,0.34476504,-9.615114,0.800085,47.67614,-0.93342584,-1.7419846,-3.5325055,-0.26565802,-0.13233645,-0.32186824,26.25,27.125,26.1875,29.3125,30.4375,30.875
0.20605236,-1.8142279,-2.2047856,-1.5341622,-0.042341173,0.030801399,-0.11210269,-0.38295436,-0.32799646,0.06007439,-3.0768175,0.62699413,4.7434034e-05,-0.0947314,0.0035698088,-0.003475584,0.018446792,-0.014680807,-0.012458182,0.43947002,-1.4533008,1.9890712,-2.1041925,-1.5717934,2.4159424,-0.08285032,0.1788386,-0.20101479,0.043261196,-0.010840796,-0.07023584,-0.17238252,0.3256114,-9.5385,0.75755644,47.682407,-1.010603,-1.822561,-3.5404925,-0.2700477,-0.14978038,-0.32608274,26.25,27.125,26.1875,29.3125,30.4375,30.875
0.20805237,-2.173799,-2.199911,-1.5085398,-0.05061592,0.012653212,-0.11147088,-0.38314688,-0.32798222,0.0600724,-3.0767646,0.6269801,8.6462656e-05,-0.09585551,0.0037429759,-0.003216626,0.019150145,-0.014745407,-0.009075154,0.4393138,-1.4529647,1.9886879,-2.1041324,-1.571853,2.4157846,-0.083696246,0.1805338,-0.20390327,0.044803023,-0.011460597,-0.0744618,-0.1340753,0.30645782,-9.442732,0.8157518,47.70032,-0.98718673,-1.8010671,-3.4727168,-0.3016138,-0.14555085,-0.29325154,26.25,27.125,26.1875,29.3125,30.4375,30.875
0.21000418,-1.3762615,-2.2396543,-1.354169,-0.044417687,0.020002909,-0.119396195,-0.38336566,-0.32797793,0.06007267,-3.0767305,0.62706786,8.324076e-05,-0.09737138,0.0033170525,-0.0024752405,0.017939644,-0.012884805,-0.0056418567,0.4391216,-1.4525813,1.9882439,-2.104061,-1.5718654,2.4156518,-0.08436672,0.18149221,-0.20663686,0.04437001,-0.011171541,-0.07856447,-0.076614454,0.36391866,-9.442732,0.8403672,47.709274,-1.0577552,-1.7323316,-3.4984066,-0.33597535,-0.13222207,-0.24894147,26.25,27.125,26.1875,29.3125,30.4375,30.875
0.21205212,-1.4911225,-2.0266163,-1.5337335,-0.02747343,5.6302342e-05,-0.11558903,-0.3835568,-0.3279842,0.060074273,-3.0767248,0.62706435,6.769527e-05,-0.09957573,0.0030515066,-0.0011479167,0.01603731,-0.008634553,-0.0036514164,0.4389652,-1.4522341,1.9878372,-2.1039898,-1.5718654,2.4154942,-0.08568573,0.1812737,-0.20902558,0.0423158,-0.011272761,-0.081871845,0.0,0.28730422,-9.346964,0.8403672,47.713753,-1.0478027,-1.6732254,-3.5035105,-0.33235264,-0.14893445,-0.19043455,26.25,27.125,26.1875,29.3125,30.4375,30.875
0.21405172,-0.95176286,-1.3636018,-1.2969356,-0.027282782,0.0020057077,-0.11961153,-0.38376427,-0.32797015,0.06008268,-3.0766964,0.62703824,6.0063347e-05,-0.101963095,0.0023533541,7.628957e-05,0.014487764,-0.0042556184,-0.0010535021,0.438773,-1.451886,1.9874057,-2.103883,-1.5718898,2.4152896,-0.08610346,0.18225615,-0.2124963,0.040175285,-0.011750229,-0.08488355,0.05746084,0.2681506,-9.385271,0.8023209,47.694054,-1.0355812,-1.6795638,-3.502814,-0.3165012,-0.15093783,-0.1334731,26.25,27.125,26.1875,29.3125,30.4375,30.875
0.21605164,-1.2108817,-1.1978762,-1.3488194,-0.015788892,-0.01417778,-0.120152645,-0.38398293,-0.32794642,0.060058583,-3.07662,0.6271175,5.8502017e-05,-0.10288535,0.0020351056,-0.0001344499,0.013816423,-0.004307333,0.0002941824,0.4385687,-1.4514782,1.986998,-2.1038473,-1.5719374,2.415145,-0.08666685,0.18435782,-0.21430646,0.03963432,-0.011132579,-0.0867944,0.038307227,0.28730422,-9.423578,0.88960326,47.675243,-1.0411514,-1.5510492,-3.4484866,-0.3033597,-0.13864748,-0.0899854,26.25,27.125,26.1875,29.3125,30.4375,30.875
0.21805158,-1.3839353,-0.9722967,-1.4488955,-0.016024144,-0.017869202,-0.11168558,-0.38414928,-0.32794532,0.060040105,-3.0765846,0.62709117,-5.9542694e-05,-0.10444311,0.0016835367,0.00046150907,0.012934699,-0.0020728402,-0.00065538276,0.43841273,-1.4511186,1.9866146,-2.1037395,-1.5719255,2.4149773,-0.087216265,0.18544157,-0.21669509,0.038542308,-0.011298819,-0.08639124,0.038307227,0.34476504,-9.385271,0.9321212,47.719128,-1.0117168,-1.5557662,-3.3823075,-0.31455773,-0.15333383,-0.043246016,26.25,27.125,26.1875,29.3125,30.4375,30.875
0.22005242,-1.0506957,-1.1567954,-1.6960886,-0.011749144,-0.0023226372,-0.116218,-0.3843497,-0.32792804,0.060028385,-3.076538,0.627082,-9.905303e-05,-0.1054871,0.00095881376,0.0008323751,0.011814033,-0.0010951455,-0.0022944908,0.43822077,-1.4507465,1.9862074,-2.103656,-1.5719494,2.4147859,-0.08711549,0.18694721,-0.21921054,0.038187496,-0.010708755,-0.084650755,0.1340753,0.2873042,-9.3661175,0.82022345,47.703007,-1.0627222,-1.4594812,-3.3402228,-0.2871542,-0.17242974,-0.04393352,26.25,27.125,26.1875,29.3125,30.4375,30.875
0.22205225,-1.1489006,-1.5538273,-1.5183083,-0.023937924,0.006080816,-0.1190809,-0.38455918,-0.32793137,0.0600414,-3.0765142,0.6270809,-2.4440324e-05,-0.10803195,0.0017542118,0.0009193086,0.01191221,-0.0007144331,-0.008582039,0.43807545,-1.4503983,1.9857754,-2.1035964,-1.5719975,2.4146433,-0.09059117,0.18996763,-0.22293317,0.0385861,-0.010961962,-0.08183617,-0.019153614,0.28730422,-9.423578,0.7978386,47.651955,-0.9823668,-1.5376608,-3.34363,-0.291259,-0.1725168,-0.058697484,26.25,27.125,26.1875,29.3125,30.4375,30.875
0.224052,-1.2771454,-1.8598756,-1.5787244,-0.030437453,0.015948355,-0.11724383,-0.38478094,-0.327946,0.060047373,-3.076515,0.6270426,-4.1877673e-05,-0.10855909,0.00015478456,0.0009377329,0.011998208,0.00023585663,-0.008455253,0.4379084,-1.4499902,1.9852842,-2.1035006,-1.5719975,2.4144526,-0.08769668,0.19285874,-0.22616874,0.0381105,-0.011449787,-0.07906484,-0.15322891,0.3256114,-9.5385,0.8291774,47.694054,-1.1622971,-1.6468005,-3.3385465,-0.29477948,-0.1522127,-0.09199826,26.25,27.125,26.1875,29.3125,30.4375,30.875
0.2260522,-1.580308,-1.5692642,-1.7265645,-0.04298322,0.02025341,-0.119346835,-0.38499346,-0.32795322,0.060070977,-3.0765069,0.6270233,-6.6110915e-06,-0.10967512,0.0006826738,0.00031604097,0.011948162,-0.0010632918,-0.013673478,0.4377517,-1.4496417,1.9848164,-2.1033924,-1.5720214,2.4142852,-0.08998492,0.19540714,-0.22768262,0.03823003,-0.0108533995,-0.07613544,-0.19153613,0.34476504,-9.5385,0.8784135,47.674347,-1.1535988,-1.8270768,-3.3655057,-0.27166095,-0.18616547,-0.107130975,26.25,27.125,26.1875,29.3125,30.4375,30.875
0.22805206,-2.1695797,-2.0393677,-1.6808659,-0.04422528,0.028115869,-0.10733232,-0.38519928,-0.32793802,0.060030896,-3.0764117,0.6271398,-9.30455e-05,-0.10974554,0.0009837799,-0.00096545974,0.013561549,-0.0027421236,-0.016517637,0.43755966,-1.4491979,1.9843987,-2.1033328,-1.5720457,2.4141784,-0.09003684,0.19820763,-0.22786696,0.037821326,-0.011609184,-0.07333979,-0.2873042,0.3256114,-9.634268,0.8627467,47.703007,-1.0211214,-1.8009986,-3.451651,-0.28203803,-0.18209797,-0.12790477,26.25,27.125,26.1875,29.3125,30.4375,30.875
0.230052,-1.9851424,-1.8690509,-1.5078961,-0.056519955,0.050267324,-0.11552833,-0.3854509,-0.32796392,0.06006436,-3.0764377,0.6272422,-3.1459153e-05,-0.11075216,0.0010174022,-0.0009211837,0.013261471,-0.001966969,-0.019695647,0.4373796,-1.4488016,1.9838604,-2.1032498,-1.5720333,2.4140592,-0.09086468,0.19939047,-0.22921437,0.03715927,-0.011664623,-0.070989214,-0.2681506,0.38307226,-9.634268,0.82694155,47.711063,-1.2414618,-1.7697201,-3.5142565,-0.27720815,-0.17003195,-0.15465614,26.25,27.125,26.1875,29.3125,30.4375,30.875
0.23205204,-2.0037944,-2.1111014,-1.6013744,-0.052156165,0.047903,-0.118155755,-0.3856844,-0.32794645,0.060077008,-3.0763812,0.62728953,8.977283e-05,-0.11100847,0.0014482343,-0.00291387,0.014278592,-0.0047670086,-0.022095025,0.43719915,-1.4484409,1.9834174,-2.103202,-1.5721172,2.4139159,-0.09199331,0.2035097,-0.22901747,0.03580358,-0.011400725,-0.069718815,-0.22984336,0.34476504,-9.557653,0.8627467,47.705692,-1.1899061,-1.7558343,-3.6497765,-0.2530441,-0.20343378,-0.20271653,26.25,27.125,26.1875,29.3125,30.4375,30.875
0.23405251,-2.572717,-2.0833435,-1.5628835,-0.051456716,0.03870733,-0.10930862,-0.38586292,-0.3279375,0.060050905,-3.0763216,0.6272373,-8.807409e-05,-0.11190342,0.0013221964,-0.0027487339,0.01432616,-0.003669431,-0.022384478,0.43701923,-1.4480337,1.9829863,-2.1030467,-1.5721058,2.4137113,-0.09213091,0.20457332,-0.23054859,0.035297804,-0.011923709,-0.06956308,-0.36391866,0.30645782,-9.5385,0.88960326,47.694054,-1.2172639,-1.7172751,-3.6968007,-0.22017333,-0.19843113,-0.22900128,26.25,27.125,26.1875,29.3125,30.4375,30.875
0.23605244,-1.8675797,-1.8006682,-1.5724933,-0.045562718,0.057754733,-0.11671544,-0.38611358,-0.327947,0.06007612,-3.0763392,0.6273581,2.6484437e-05,-0.11385986,0.0019230248,-0.00195362,0.012798584,-0.0016686361,-0.024798712,0.43682587,-1.4476622,1.9825076,-2.1030228,-1.5721172,2.4135914,-0.09522168,0.20451854,-0.23221123,0.034550097,-0.011388129,-0.07024108,-0.47884035,0.28730422,-9.5385,0.8873621,47.70211,-1.0403047,-1.7077748,-3.693688,-0.20666565,-0.19554754,-0.24365431,26.25,27.125,26.1875,29.3125,30.4375,30.875
0.23805222,-1.6524382,-1.277363,-1.3995274,-0.034860246,0.056543946,-0.1139076,-0.3863473,-0.3279385,0.06005665,-3.0762951,0.62744594,3.3803826e-05,-0.11520765,0.0001250929,-0.0012045695,0.011618039,0.0014917834,-0.024965398,0.43662274,-1.4472303,1.9820637,-2.1029994,-1.5721415,2.413449,-0.0928057,0.20664181,-0.2360024,0.03285609,-0.011666072,-0.067654885,-0.49799395,0.30645782,-9.442732,0.8627467,47.685097,-1.2855017,-1.6573759,-3.6450992,-0.16883025,-0.19725017,-0.30284148,26.25,27.125,26.1875,29.3125,30.4375,30.875
0.24005222,-1.8371909,-0.88604206,-1.2115902,-0.03384876,0.058847405,-0.119885184,-0.38657027,-0.32796478,0.060066096,-3.0762818,0.6274448,9.684353e-05,-0.11859555,0.0014337179,-0.0005894538,0.01076351,0.0036114096,-0.030032167,0.43650097,-1.4468222,1.9815716,-2.1029398,-1.5721773,2.4133286,-0.09802163,0.20849451,-0.2393959,0.032111242,-0.011795742,-0.067801826,-0.61291564,0.17238252,-9.3661175,0.88289046,47.686886,-1.1344377,-1.6888707,-3.6050735,-0.116495185,-0.22430937,-0.33441973,26.25,27.125,26.1875,29.3125,30.4375,30.875
0.24205251,-2.2907147,-0.5373602,-1.1185569,-0.030118145,0.05356496,-0.117464095,-0.3868268,-0.327954,0.06006125,-3.0762427,0.6276451,6.630299e-05,-0.118027054,0.00013397653,-0.0007050399,0.010945458,0.0018583733,-0.025951566,0.43625003,-1.4463784,1.981069,-2.102867,-1.5721654,2.413208,-0.09541185,0.21045482,-0.24192266,0.034337025,-0.011223247,-0.069273025,-0.57460845,0.1340753,-9.32781,0.8605109,47.672558,-1.2313418,-1.7087605,-3.5827594,-0.11523399,-0.21417855,-0.33634222,26.25,27.125,26.1875,29.3125,30.4375,30.875
0.24405247,-2.2446697,-0.53238493,-1.1723671,-0.0099381115,0.060287837,-0.11540845,-0.3870679,-0.32794785,0.060067892,-3.0762198,0.62766314,8.653421e-05,-0.120029904,0.000668743,-0.00012671991,0.0107657565,0.0024362789,-0.031997208,0.436045,-1.4459705,1.9805778,-2.102783,-1.5721892,2.4130175,-0.09800267,0.21208172,-0.24544661,0.035636507,-0.011305755,-0.06581628,-0.57460845,0.095768064,-9.404425,0.90750587,47.686886,-1.1180948,-1.6455877,-3.6310387,-0.09978576,-0.23716143,-0.4092043,26.25,27.125,26.1875,29.3125,30.4375,30.875
0.24605258,-1.8789586,-0.49485204,-1.1489437,0.007814753,0.06694604,-0.113145106,-0.3873236,-0.32794434,0.060065694,-3.076165,0.62782425,0.00013346814,-0.12218685,0.00045665595,0.0011798622,0.009562659,0.003961839,-0.032140497,0.4358405,-1.4455265,1.9800743,-2.1027348,-1.5722255,2.412921,-0.099685326,0.21326455,-0.25024426,0.037351772,-0.010867031,-0.067354724,-0.5554548,0.05746084,-9.32781,0.8090337,47.666286,-1.0579923,-1.7213116,-3.3379965,-0.07084091,-0.2476016,-0.43476793,26.25,27.125,26.1875,29.3125,30.4375,30.875
0.2480525,-1.9508343,-0.015809653,-0.9560688,0.015007548,0.059230573,-0.1252954,-0.38757646,-0.32794136,0.06007157,-3.0761375,0.6279137,0.00014382828,-0.12408899,0.0009328707,0.0018853621,0.010342534,0.00465498,-0.030956022,0.43562388,-1.4450952,1.9795579,-2.10265,-1.5722378,2.412764,-0.101457834,0.21499094,-0.2543541,0.03943157,-0.011874081,-0.07030727,-0.5363012,0.11492168,-9.346964,0.9164598,47.71554,-1.0235345,-1.6979413,-3.2165904,-0.06833737,-0.24462786,-0.4475575,26.25,27.125,26.1875,29.3125,30.4375,30.875
0.25005254,-1.7652993,0.08246443,-1.2298149,0.031855993,0.05838011,-0.10856928,-0.3877973,-0.32793427,0.060072217,-3.076077,0.62799597,0.00014607211,-0.12507963,0.0016585728,0.002012213,0.010589075,0.0052523306,-0.030361358,0.43544334,-1.4447,1.9790915,-2.1025546,-1.5722741,2.412643,-0.10325978,0.21532828,-0.25509286,0.03938849,-0.012355809,-0.07270205,-0.6895301,0.15322891,-9.270349,0.84708,47.682407,-0.9627361,-1.5429296,-3.2807245,-0.07188698,-0.2566645,-0.45713764,26.25,27.125,26.1875,29.3125,30.4375,30.875
0.25205246,-2.3850598,-0.66324574,-1.1113628,0.017889688,0.05631025,-0.11286008,-0.3880429,-0.32794112,0.060043618,-3.076048,0.62802553,0.00012515184,-0.12641169,0.0019563802,0.0022133389,0.010430908,0.005612986,-0.025743593,0.4352508,-1.4442078,1.9785994,-2.1025307,-1.5722855,2.412473,-0.10486162,0.21671957,-0.2573126,0.03980952,-0.0123773115,-0.078920215,-0.5363012,0.15322891,-9.289502,0.83813137,47.696735,-0.85814786,-1.6036983,-3.3270636,-0.028663946,-0.27460814,-0.43813324,26.25,27.125,26.1875,29.3125,30.4375,30.875
0.25405228,-2.4020233,-0.8375338,-1.2057029,-0.010290466,0.07102307,-0.108955465,-0.3882958,-0.32791445,0.060048223,-3.0759706,0.62804717,0.00012958967,-0.12592079,0.0030636373,0.0017379558,0.012357745,0.0030817208,-0.023593906,0.4350224,-1.4437768,1.9780749,-2.1023972,-1.5723456,2.4122684,-0.10593909,0.21682091,-0.25704503,0.042537488,-0.013058088,-0.08214605,-0.36391866,0.038307227,-9.289502,0.82694155,47.658226,-0.8905088,-1.574841,-3.3649285,-0.032333568,-0.27109098,-0.39053625,26.25,27.125,26.1875,29.3125,30.4375,30.875
0.25605246,-2.2612898,-0.9901537,-1.1119803,-0.01017998,0.06382568,-0.115944214,-0.38855487,-0.32791412,0.060063843,-3.0759604,0.6281188,0.00016814742,-0.12566106,0.0037143233,-0.0003560506,0.014643786,-0.002035209,-0.019857945,0.43480605,-1.4433564,1.977548,-2.1023133,-1.572358,2.4120984,-0.106877975,0.22142087,-0.25793022,0.04441415,-0.012977895,-0.08682084,-0.38307226,-0.114921674,-9.308656,0.85155696,47.664497,-0.83715177,-1.5681505,-3.5258737,-0.051329233,-0.26825395,-0.3670745,26.25,27.125,26.1875,29.3125,30.4375,30.875
0.25805244,-2.0041776,-0.98986477,-1.0492771,-0.0039658113,0.054353826,-0.11412251,-0.38881534,-0.32789955,0.06007414,-3.0759323,0.6281457,0.00021378281,-0.12625656,0.004012282,-0.0014218758,0.016820837,-0.0037474437,-0.012057845,0.43457812,-1.442936,1.977033,-2.1022294,-1.5723943,2.4118912,-0.107011646,0.22511545,-0.25989097,0.045134168,-0.014244599,-0.094750114,-0.24899697,-0.15322891,-9.232041,0.9030289,47.67166,-0.83726645,-1.6117237,-3.533863,-0.021157455,-0.2776984,-0.26139474,26.25,27.125,26.1875,29.3125,30.4375,30.875
0.26005286,-1.6141291,-0.48651835,-1.0030186,0.007421466,0.040909406,-0.115486175,-0.3890574,-0.32789347,0.060061604,-3.0758922,0.6281373,0.00018812057,-0.12712155,0.0037736383,-0.0019164094,0.017118288,-0.0044919695,-0.010831094,0.434374,-1.4424796,1.97653,-2.1021454,-1.5724186,2.4116874,-0.10725121,0.22809005,-0.26223746,0.045298774,-0.014213252,-0.0962145,-0.22984336,-0.019153614,-9.174581,0.83365434,47.67614,-0.83934593,-1.8397739,-3.4546132,-0.010799745,-0.28366157,-0.23634616,26.25,27.125,26.1875,29.3125,30.4375,30.875
0.26205254,-1.0926228,-0.19690618,-1.0843375,0.019394035,0.024861291,-0.11619046,-0.38935152,-0.32789215,0.06006071,-3.0758653,0.6282447,0.0002384802,-0.12842768,0.0033123444,-0.0015097815,0.017272176,-0.003458165,-0.008312447,0.4341341,-1.441976,1.9759549,-2.1020973,-1.5724429,2.4115183,-0.10703437,0.23013106,-0.26569322,0.045832638,-0.014797178,-0.09851325,-0.17238252,0.11492168,-9.212888,0.8806493,47.666286,-0.90632594,-1.7335759,-3.5716062,0.013818894,-0.26195252,-0.18189391,26.25,27.125,26.1875,29.3125,30.4375,30.875
0.2640523,-0.6916187,-0.34679562,-1.2846969,0.020561423,0.0048652445,-0.12159291,-0.38957113,-0.32786682,0.06001905,-3.075763,0.62820584,0.00013046275,-0.12982665,0.0040241987,-0.0013433261,0.01683705,-0.003817254,-0.010536149,0.43392923,-1.4414966,1.9754866,-2.101989,-1.5724901,2.4113028,-0.10981626,0.23129305,-0.26771224,0.04682205,-0.014268135,-0.09907036,-0.11492168,0.21068975,-9.136273,0.9410752,47.690468,-0.8787689,-1.7209107,-3.4823227,0.019473886,-0.28616077,-0.15618008,26.25,27.125,26.1875,29.3125,30.4375,30.875
0.26605228,-0.44037908,-0.8612139,-1.2200094,0.0044473237,-0.006948534,-0.115476154,-0.38985893,-0.32786286,0.06004774,-3.0757396,0.6282191,0.00024429895,-0.1304689,0.00247361,-0.0003021672,0.0171565,-0.0022046315,-0.008411704,0.43371415,-1.441053,1.9749001,-2.1018927,-1.5725507,2.4110994,-0.10677063,0.23276521,-0.27223772,0.048542824,-0.015237976,-0.09814512,-0.095768064,0.3256114,-9.021352,0.91198283,47.6636,-0.97411954,-1.6634878,-3.5681639,0.04048555,-0.287777,-0.13832097,26.25,27.125,26.1875,29.3125,30.4375,30.875
0.26805228,-0.5541582,-1.6976957,-1.2525364,-0.013003782,-0.018203385,-0.10742597,-0.3901137,-0.32784,0.06004116,-3.0756798,0.6282476,0.00025607785,-0.13196026,0.004548521,-0.00016194327,0.01848797,-0.0037400753,-0.01534901,0.43348467,-1.4406093,1.9743966,-2.1018078,-1.5725988,2.4108958,-0.11140731,0.23341188,-0.27410403,0.051713888,-0.015799727,-0.095842406,-0.076614454,0.49799395,-9.097966,0.90527004,47.713753,-0.9071479,-1.753669,-3.2949572,0.019389682,-0.26950485,-0.13729057,26.25,27.125,26.1875,29.3125,30.4375,30.875
0.27005234,-0.74554694,-2.4366586,-1.3579093,-0.045395944,-0.019214792,-0.111673,-0.39035776,-0.32784805,0.06003262,-3.0756068,0.62825316,0.00016758766,-0.1316236,0.0036199319,-0.00014709066,0.02047837,-0.006024138,-0.017107889,0.43330574,-1.4401047,1.9738096,-2.1016386,-1.5726231,2.4107301,-0.10876252,0.23604178,-0.2782062,0.056102034,-0.016650198,-0.09143357,-0.1340753,0.49799395,-9.212888,0.82022345,47.686886,-0.9344778,-1.6358907,-3.401016,-0.030325197,-0.2521006,-0.17214973,26.25,27.125,26.1875,29.3125,30.4375,30.875
0.2720522,-0.8739581,-2.4024248,-1.1591417,-0.08981793,0.00687557,-0.112350665,-0.39062217,-0.32781726,0.06003781,-3.0755074,0.6283695,0.00013283033,-0.1312094,0.003920894,-0.0001302571,0.021015385,-0.00940994,-0.02198618,0.4330535,-1.4396498,1.9732469,-2.1014693,-1.5726708,2.4105637,-0.109476335,0.23663087,-0.28004187,0.06064426,-0.015713535,-0.087271,-0.17238252,0.51714754,-9.308657,0.8806493,47.688675,-0.95484746,-1.6905785,-3.3940244,-0.0876153,-0.27567667,-0.23254158,26.25,27.125,26.1875,29.3125,30.4375,30.875
0.27405217,-1.3916148,-3.0504627,-1.4145664,-0.083616406,0.021088982,-0.11268964,-0.39087465,-0.32779613,0.059996407,-3.0753782,0.62843883,4.8279984e-05,-0.1306069,0.0041200635,-0.0011326156,0.022619918,-0.013441356,-0.024179092,0.43283746,-1.4391102,1.9727091,-2.101361,-1.5727309,2.410408,-0.109385885,0.23908687,-0.281362,0.06383673,-0.015484505,-0.08498651,-0.05746084,0.6512228,-9.346964,0.83813137,47.675243,-0.98570496,-1.6788111,-3.4441938,-0.1540727,-0.2813649,-0.26992676,26.25,27.125,26.1875,29.3125,30.4375,30.875
0.27605215,-1.4035293,-2.4549901,-1.1770579,-0.08534043,0.04025877,-0.11460827,-0.39113274,-0.3278092,0.060007468,-3.075392,0.628463,-4.4869957e-05,-0.13210116,0.0046787313,-0.00032109272,0.021694453,-0.0137876,-0.02740296,0.4326083,-1.4386427,1.9721211,-2.1012042,-1.5726823,2.4101925,-0.11223451,0.23960525,-0.28448552,0.06636627,-0.014507567,-0.08461274,-0.095768064,0.63206923,-9.500193,0.8851263,47.67166,-0.87146175,-1.66308,-3.4746032,-0.18487102,-0.2748848,-0.28651923,26.25,27.125,26.1875,29.3125,30.4375,30.875
0.27805197,-1.8879865,-2.2838986,-1.1864692,-0.06549528,0.041143138,-0.116885796,-0.39138195,-0.3277867,0.059977274,-3.0752873,0.628592,-0.00014682891,-0.13108832,0.003302577,-0.00039894003,0.021283321,-0.014471492,-0.023834916,0.43236947,-1.4381396,1.9715956,-2.1010845,-1.5727066,2.410048,-0.109163456,0.24009761,-0.2851071,0.066935465,-0.0138620315,-0.08511034,-0.019153614,0.45968673,-9.3661175,0.9164598,47.71286,-1.0726862,-1.5921388,-3.5501757,-0.2316865,-0.3064434,-0.2984758,26.25,27.125,26.1875,29.3125,30.4375,30.875
0.28005207,-1.3670762,-1.7973738,-1.3316747,-0.033637993,0.032123864,-0.11331316,-0.3916559,-0.32777265,0.05996995,-3.0751982,0.6285943,-0.00011514437,-0.13308625,0.0041727186,-0.0007403307,0.020645006,-0.01483992,-0.027495883,0.4321641,-1.4376357,1.9710196,-2.1009772,-1.57279,2.409856,-0.112848245,0.24266616,-0.28725702,0.06657162,-0.013141141,-0.0851346,0.0,0.4213795,-9.32781,0.8179876,47.686886,-0.9297152,-1.6106839,-3.539473,-0.24808522,-0.33056355,-0.30732697,26.25,27.125,26.1875,29.3125,30.4375,30.875
0.28205198,-1.164087,-0.5524653,-1.1478506,-0.023524974,0.011576528,-0.117699124,-0.3919427,-0.3277868,0.05998625,-3.0751946,0.62868804,-0.000117573996,-0.13349803,0.0029811598,-0.0017775339,0.021191426,-0.015238848,-0.025777688,0.4319372,-1.4371424,1.9703983,-2.1008575,-1.5727781,2.4096885,-0.11067934,0.24689887,-0.2894444,0.065117806,-0.013482011,-0.08468099,-0.019153614,0.2873042,-9.346964,0.8717007,47.66271,-1.1380967,-1.819346,-3.551941,-0.2587845,-0.32951427,-0.34139577,26.25,27.125,26.1875,29.3125,30.4375,30.875
0.28405187,-0.85341644,-0.76286674,-1.3087556,0.017223263,-0.009666478,-0.115589835,-0.39220265,-0.32776153,0.059932303,-3.0750675,0.62879676,-0.00027592893,-0.13506506,0.002937459,-0.0009595544,0.02034465,-0.014066685,-0.027523406,0.43168467,-1.4365677,1.9698457,-2.1007378,-1.5728024,2.4095206,-0.11199955,0.24776198,-0.2926312,0.06601739,-0.013225148,-0.0842531,0.076614454,0.15322891,-9.212888,0.8537928,47.682407,-1.1189021,-1.7995498,-3.4719405,-0.26892167,-0.33543664,-0.3834851,26.25,27.125,26.1875,29.3125,30.4375,30.875
0.28605187,-0.74062157,-0.29319328,-1.6716143,0.03037832,-0.02836169,-0.10637298,-0.39247808,-0.32777387,0.059956905,-3.0750654,0.6288338,-0.00023670006,-0.13800906,0.0026873066,4.6012865e-05,0.019115541,-0.009273055,-0.026798472,0.4314802,-1.436112,1.9692477,-2.100619,-1.5728143,2.40934,-0.113348745,0.24930409,-0.2961155,0.063086405,-0.0141338855,-0.08632203,0.11492168,0.15322891,-9.289502,0.8090337,47.666286,-1.0967486,-1.8968664,-3.4104805,-0.2758425,-0.35323447,-0.3743583,26.25,27.125,26.1875,29.3125,30.4375,30.875
0.28805175,-0.44909734,-0.13036233,-1.6114292,0.017891552,-0.022790676,-0.11361948,-0.3927475,-0.3277534,0.05993251,-3.0749369,0.6289409,-0.00030402868,-0.1388387,0.002326552,-0.0006206539,0.01913174,-0.009353491,-0.026085924,0.43125233,-1.435572,1.9686607,-2.100476,-1.5728744,2.409196,-0.1132889,0.25219715,-0.29770833,0.06185636,-0.014134587,-0.0869721,0.05746084,0.19153613,-9.32781,0.90527004,47.678825,-1.0941546,-1.9629872,-3.4187517,-0.24734636,-0.3480235,-0.39127046,26.25,27.125,26.1875,29.3125,30.4375,30.875
0.29005197,-1.0394635,-0.7037055,-1.6357112,-0.0009598654,-0.008352408,-0.112417236,-0.39298633,-0.32777002,0.059917346,-3.0748875,0.6289456,-0.00043910375,-0.13993621,0.0027553048,-0.0012173521,0.020425744,-0.010175748,-0.020009626,0.4310719,-1.4350563,1.9680742,-2.1003082,-1.572863,2.4090252,-0.11435424,0.25517133,-0.29995024,0.062397268,-0.014996165,-0.09410813,-0.076614454,0.2681506,-9.308657,0.78888994,47.681515,-1.1281817,-1.8879759,-3.508964,-0.26701695,-0.33785158,-0.3606432,26.25,27.125,26.1875,29.3125,30.4375,30.875
0.29205182,-1.3220413,-1.6752831,-1.5926747,-0.022603575,0.03362174,-0.11427154,-0.39327687,-0.3277459,0.059914906,-3.074809,0.628948,-0.0004484597,-0.14051932,0.0032302404,-0.0017720832,0.021148223,-0.012274404,-0.019193027,0.4308195,-1.4345403,1.9674634,-2.1001637,-1.5729226,2.4087849,-0.11574271,0.25748286,-0.30181634,0.06414541,-0.014789978,-0.09631252,-0.076614454,0.21068975,-9.404425,0.8717007,47.6636,-1.0770718,-1.9600053,-3.476644,-0.30800217,-0.36481854,-0.33931553,26.25,27.125,26.1875,29.3125,30.4375,30.875
0.29405174,-1.8334582,-1.6555455,-1.8242735,-0.053992834,0.05858541,-0.11781925,-0.3935596,-0.327731,0.059898205,-3.0747106,0.62902,-0.0004681659,-0.14318496,0.002778383,-0.00093031814,0.019417616,-0.0071213488,-0.014911344,0.43059117,-1.4340008,1.9668645,-2.100046,-1.5729827,2.4086146,-0.116662905,0.25866604,-0.30427215,0.059993796,-0.015404411,-0.101509266,-0.1340753,0.15322891,-9.519346,0.8537928,47.693153,-1.0746303,-1.9656193,-3.4238372,-0.27201474,-0.36075842,-0.28550196,26.25,27.125,26.1875,29.3125,30.4375,30.875
0.29605183,-2.6543622,-2.2202225,-1.9446349,-0.050729435,0.060631536,-0.10850722,-0.39382473,-0.32774207,0.059888445,-3.0746865,0.6290709,-0.00059542997,-0.14521362,0.002606487,-0.00028059992,0.018485952,-0.004897047,-0.011565559,0.43036282,-1.4334732,1.9662541,-2.0998905,-1.5729469,2.4084215,-0.11788525,0.26023275,-0.30748886,0.0592236,-0.015515229,-0.10607408,-0.15322891,0.1340753,-9.595961,0.9030289,47.691364,-1.0135279,-1.9784768,-3.442506,-0.26715028,-0.3724944,-0.23176342,26.25,27.125,26.1875,29.3125,30.4375,30.875
0.2980519,-2.7788537,-1.8881245,-1.829751,-0.05091535,0.06438384,-0.10537446,-0.39412782,-0.32770142,0.059882477,-3.0745962,0.6290682,-0.00056651357,-0.14579388,0.0033302768,-0.0013459942,0.019102339,-0.0051053176,-0.0074745677,0.43008646,-1.432957,1.9656562,-2.0997713,-1.5730313,2.4081557,-0.11925361,0.26194564,-0.30662885,0.057072517,-0.016011368,-0.11153106,-0.45968673,0.13407528,-9.615114,0.9545008,47.67793,-0.9593854,-1.8967128,-3.5221157,-0.26455444,-0.3803207,-0.16529354,26.25,27.125,26.1875,29.3125,30.4375,30.875
0.30005187,-2.8552675,-1.7735788,-2.130878,-0.026280358,0.0610749,-0.10014144,-0.39440984,-0.32772937,0.059880808,-3.0745828,0.6290283,-0.0005851679,-0.14760275,0.003148532,-0.000215701,0.016858088,-0.0007572067,-0.010074701,0.4299061,-1.4324068,1.9650096,-2.0996535,-1.5730428,2.4079525,-0.120485306,0.26101065,-0.3076232,0.05411271,-0.015794165,-0.11016238,-0.5746084,0.15322891,-9.80665,0.85155696,47.651955,-1.0479488,-1.976707,-3.6061268,-0.2082215,-0.40445215,-0.11865911,26.25,27.125,26.1875,29.3125,30.4375,30.875
0.30205187,-2.5430174,-1.4283628,-2.1881297,-0.018139157,0.076945834,-0.10577269,-0.39474255,-0.32773945,0.05991123,-3.0746038,0.6290303,-0.0004489519,-0.14875044,0.0015205266,0.0006705855,0.014636767,0.0025965853,-0.007110566,0.42966655,-1.4318916,1.9643396,-2.0995815,-1.573079,2.407712,-0.11874544,0.2618114,-0.31018293,0.05188464,-0.0151779065,-0.11138856,-0.59376204,0.17238252,-9.883265,0.9365982,47.666286,-1.003342,-1.7889647,-3.7224538,-0.16100259,-0.3929411,-0.104802415,26.25,27.125,26.1875,29.3125,30.4375,30.875
0.3040517,-3.0562294,-1.442198,-2.1629548,-0.018411525,0.072985634,-0.10548704,-0.3950105,-0.32771847,0.05986414,-3.0744975,0.6291662,-0.00061791565,-0.15104161,0.0022886589,0.0014994377,0.013473418,0.0054970803,-0.015226316,0.42940143,-1.4313159,1.9637645,-2.0994503,-1.573079,2.4075458,-0.12186104,0.2618518,-0.31195915,0.050508328,-0.015338921,-0.1063849,-0.7661445,0.19153613,-9.825804,0.8560339,47.657326,-1.0722616,-1.7893369,-3.661798,-0.1274984,-0.41414565,-0.11093799,26.25,27.125,26.1875,29.3125,30.4375,30.875
0.30605185,-3.212319,-1.3372961,-2.1770236,-0.014775033,0.07711743,-0.09971042,-0.3953265,-0.32771426,0.059877466,-3.0744827,0.6292026,-0.0005426084,-0.15131477,0.0013352424,0.0010083447,0.014102077,0.0051562185,-0.016940702,0.4291501,-1.4308006,1.9631304,-2.0993664,-1.5731148,2.4073195,-0.11994065,0.2647886,-0.3142872,0.0504745,-0.015762044,-0.10274767,-0.8236054,0.05746084,-9.672575,0.95002913,47.70211,-1.0874839,-1.8510534,-3.7312016,-0.10358245,-0.43188033,-0.13641798,26.25,27.125,26.1875,29.3125,30.4375,30.875
0.30805174,-2.3933983,-0.47924358,-1.9713068,-0.023588393,0.104358174,-0.11860278,-0.39563498,-0.32772526,0.059884176,-3.0744529,0.6292752,-0.00048086338,-0.15281002,0.0018939469,0.0011965801,0.015196534,0.0055679716,-0.022121616,0.42893383,-1.4302609,1.9624833,-2.0992825,-1.5731515,2.407153,-0.12134497,0.2666368,-0.31721354,0.051640425,-0.016921626,-0.098965846,-0.7661445,0.05746084,-9.672575,0.9768804,47.670765,-1.0902169,-1.7438996,-3.7116132,-0.092627674,-0.42317817,-0.18048398,26.25,27.125,26.1875,29.3125,30.4375,30.875
0.3100528,-2.4872067,-0.6078639,-1.9699017,-0.019381078,0.098180644,-0.1204407,-0.39593008,-0.32770574,0.059850525,-3.0743752,0.62939554,-0.0005639262,-0.15374173,0.0024502373,0.00034436455,0.016803782,0.0042241416,-0.026426239,0.4286573,-1.429685,1.9618844,-2.0991867,-1.5731639,2.406962,-0.12242572,0.26985705,-0.3192222,0.052325178,-0.0178278,-0.09573622,-0.5363012,0.076614454,-9.730036,0.8806493,47.66539,-1.0345815,-1.9576614,-3.6775508,-0.06863927,-0.43067253,-0.22333066,26.25,27.125,26.1875,29.3125,30.4375,30.875
0.31205174,-2.864527,-0.652379,-2.028157,-0.009999978,0.07121344,-0.10627346,-0.3962542,-0.32770592,0.05987632,-3.0743525,0.6294516,-0.00046361322,-0.15639003,0.0037671847,0.0004927912,0.017414667,0.0046912637,-0.032867126,0.42841604,-1.4291689,1.9612144,-2.0990784,-1.573212,2.406759,-0.12644261,0.27246103,-0.3228419,0.053170253,-0.0185743,-0.09330842,-0.63206923,0.11492168,-9.672575,0.947788,47.67793,-0.9190432,-1.851369,-3.6575434,-0.049423307,-0.410662,-0.26807696,26.25,27.125,26.1875,29.3125,30.4375,30.875
0.3140517,-2.1346316,-0.90523225,-1.9606665,-0.005945057,0.070982255,-0.10484884,-0.39658117,-0.32769978,0.059894495,-3.0743017,0.62947834,-0.00037058195,-0.15514629,0.0034679398,-0.00049485307,0.019908167,0.0016913783,-0.0325236,0.42817697,-1.4286288,1.9605316,-2.0989578,-1.5732845,2.4065437,-0.12405779,0.27440992,-0.32349104,0.055633187,-0.019586947,-0.091263935,-0.6512228,0.076614454,-9.730036,0.8090337,47.67793,-1.0677685,-2.1372895,-3.625125,-0.036822967,-0.41134155,-0.31361002,26.25,27.125,26.1875,29.3125,30.4375,30.875
0.31605178,-1.9886649,-0.87966216,-2.1558077,-0.0066274437,0.05564422,-0.109903924,-0.3968835,-0.32768506,0.05986728,-3.0742292,0.6296004,-0.00041177173,-0.15807313,0.004059413,0.00029333384,0.019517498,0.003218565,-0.037525233,0.42791146,-1.4280537,1.9599208,-2.0988739,-1.5733083,2.4063642,-0.1272745,0.27682275,-0.3284049,0.056581467,-0.019875782,-0.08947461,-0.51714754,0.11492168,-9.691729,0.9164598,47.650166,-0.795012,-2.0186577,-3.6418314,-0.0350857,-0.42606795,-0.3680457,26.25,27.125,26.1875,29.3125,30.4375,30.875
0.31805262,-1.864646,-1.2229244,-1.6990246,-0.021255268,0.05162344,-0.11427462,-0.39722162,-0.3277225,0.059905466,-3.0742748,0.62966686,-0.00029033728,-0.15953934,0.0034789157,0.0015069788,0.019191274,0.0071560354,-0.038083028,0.4276962,-1.4275144,1.9592007,-2.0987904,-1.5733088,2.406185,-0.1264372,0.27676523,-0.3310172,0.055537794,-0.021209555,-0.08807529,-0.4213795,0.019153614,-9.710882,0.98807013,47.650166,-0.96553177,-2.002445,-3.6445558,0.011282368,-0.41146147,-0.395537,26.25,27.125,26.1875,29.3125,30.4375,30.875
0.32005274,-1.7762753,-1.3859218,-1.6866063,-0.018615626,0.042512845,-0.102887996,-0.39755753,-0.32768223,0.059903458,-3.0741742,0.62985736,-0.0002967639,-0.16007462,0.0035197942,0.0011828607,0.02034984,0.006468093,-0.03887854,0.42737234,-1.426951,1.9585313,-2.098646,-1.573357,2.4059935,-0.1263021,0.2788896,-0.3330738,0.056570936,-0.02198267,-0.08714014,-0.4405331,0.038307227,-9.500193,0.86945957,47.655537,-1.0016257,-1.8430439,-3.5467618,0.032322135,-0.3914538,-0.4436862,26.25,27.125,26.1875,29.3125,30.4375,30.875
0.32205167,-1.4143957,-0.93425107,-1.8961453,-0.00376932,0.036183234,-0.10459604,-0.39788958,-0.3276794,0.059914958,-3.0741055,0.6299965,-0.00016235014,-0.16041389,0.004016306,0.0023558044,0.020421132,0.0063660736,-0.038793266,0.42714357,-1.4264003,1.9578613,-2.098573,-1.5734409,2.405861,-0.12734479,0.27734953,-0.33494267,0.060087074,-0.022000318,-0.08826942,-0.40222588,0.095768064,-9.423578,0.84484416,47.63852,-0.9217368,-1.8219246,-3.6370666,0.020078434,-0.38843918,-0.47294956,26.25,27.125,26.1875,29.3125,30.4375,30.875
0.32405272,-0.98973477,-0.34965342,-1.6706477,-0.009643661,0.039945953,-0.11666699,-0.3982251,-0.32764322,0.059914496,-3.0740016,0.6301455,-0.00012849242,-0.1609495,0.003990721,0.0027586904,0.020773103,0.007047037,-0.035822485,0.42684394,-1.425837,1.9571909,-2.0984414,-1.5735134,2.4056683,-0.12719606,0.27767247,-0.3365587,0.060887374,-0.022613572,-0.09108833,-0.17238252,0.076614454,-9.404425,0.8717007,47.63046,-1.0351105,-1.6055017,-3.63381,0.025871625,-0.3890465,-0.48383787,26.25,27.125,26.1875,29.3125,30.4375,30.875
0.32605204,-0.7887888,-0.65009904,-1.5150149,-0.0020822054,0.029302394,-0.11122568,-0.39855152,-0.327657,0.059944313,-3.0739799,0.6302349,-1.164917e-05,-0.16212136,0.0046339934,0.002672237,0.022005076,0.007087116,-0.03307481,0.42662755,-1.4253097,1.9564971,-2.0983336,-1.5735615,2.405511,-0.12847082,0.27941734,-0.3386702,0.06171057,-0.023758274,-0.095107086,-0.038307227,0.19153613,-9.385271,0.94331104,47.694946,-1.0201486,-1.5896099,-3.6542778,0.06580373,-0.37035313,-0.47630623,26.25,27.125,26.1875,29.3125,30.4375,30.875
0.32805216,-0.7389139,-0.44743884,-1.5361344,-0.00038906402,0.0047721253,-0.11560023,-0.39887246,-0.32763326,0.059930224,-3.0739064,0.6302701,-5.938358e-05,-0.16265485,0.004273533,0.00272493,0.023112413,0.0050066467,-0.02287193,0.42633975,-1.4247212,1.9558252,-2.0981882,-1.5735978,2.405255,-0.12799919,0.282213,-0.34300822,0.065566614,-0.023935016,-0.10483478,0.019153614,0.11492168,-9.308657,0.9835985,47.72271,-1.0124745,-1.6829734,-3.5763354,0.06273672,-0.32882196,-0.4001189,26.25,27.125,26.1875,29.3125,30.4375,30.875
0.33005226,-0.63708687,-0.7042126,-1.4503564,0.0054337014,-0.008604294,-0.10339385,-0.3992401,-0.32760233,0.059937965,-3.0738175,0.6304223,7.079592e-05,-0.16324884,0.005007734,0.002855679,0.024909323,0.0030370795,-0.018832419,0.42603937,-1.4241343,1.9551185,-2.0981028,-1.5736941,2.4050617,-0.12913403,0.28369054,-0.34607318,0.06966027,-0.024763824,-0.110006355,0.038307227,0.11492168,-9.32781,0.84484416,47.694946,-1.025622,-1.7032342,-3.4518275,0.039690398,-0.3485664,-0.34817785,26.25,27.125,26.1875,29.3125,30.4375,30.875
0.33205217,-0.4002302,-0.58536774,-1.6720778,0.010904505,-0.025856148,-0.11218822,-0.3995545,-0.3276301,0.05998062,-3.0738502,0.6303844,0.00015210219,-0.16272,0.0047116876,0.0016196435,0.027905576,-0.0014716544,-0.0092209615,0.42583606,-1.4236299,1.9544123,-2.0979578,-1.5737065,2.404831,-0.12746045,0.28806666,-0.3493216,0.07384881,-0.025639666,-0.11794132,0.19153613,0.1340753,-9.270349,0.8672237,47.664497,-1.0614691,-1.8036479,-3.4138384,-0.0008471649,-0.33384785,-0.23470761,26.25,27.125,26.1875,29.3125,30.4375,30.875
0.33405212,-0.36343157,-0.49954936,-1.5470207,0.00035638714,-0.029549453,-0.108223654,-0.3998944,-0.32759693,0.059973683,-3.0737364,0.6304556,0.00016146003,-0.16299386,0.006006884,5.2747044e-05,0.03072114,-0.0072018458,-0.0078865625,0.42554718,-1.4230278,1.9537052,-2.097801,-1.5737904,2.4046018,-0.12976138,0.2924779,-0.35198084,0.078450516,-0.025851553,-0.12157384,0.19153614,0.19153613,-9.270349,0.88289046,47.66987,-0.993802,-1.8974195,-3.4006522,-0.04451794,-0.30387926,-0.19612741,26.25,27.125,26.1875,29.3125,30.4375,30.875
0.33605215,-0.1020388,-0.97431713,-1.3188412,-0.0066824984,-0.017018402,-0.10783966,-0.40021628,-0.32760078,0.059991054,-3.0737367,0.6303978,0.00016552153,-0.16351068,0.006933986,0.0016127634,0.030955717,-0.0075991456,-0.007555407,0.4252946,-1.4224766,1.953,-2.0976431,-1.5738028,2.4043136,-0.13169971,0.2903486,-0.35439375,0.083436705,-0.025905386,-0.12384348,0.05746084,0.21068975,-9.193734,0.9298854,47.711964,-1.1139739,-1.8429146,-3.4297884,-0.10776084,-0.28445572,-0.1385535,26.25,27.125,26.1875,29.3125,30.4375,30.875
0.33805212,-0.57501405,-1.5978892,-1.6847193,-0.00041102208,-0.018497584,-0.098030694,-0.40054062,-0.3275674,0.059987847,-3.073619,0.6304507,0.0001577243,-0.16049889,0.007964027,-0.0019241782,0.034322158,-0.018130938,-0.009617158,0.42501858,-1.4218991,1.9523062,-2.097462,-1.5738863,2.4040864,-0.13176627,0.29432487,-0.35206616,0.0881005,-0.024622934,-0.1218532,-0.019153614,0.3256114,-9.193734,0.9231726,47.661808,-0.9867612,-1.7987584,-3.577664,-0.18194854,-0.27449232,-0.12332018,26.25,27.125,26.1875,29.3125,30.4375,30.875
0.34005213,-0.46368006,-1.5308919,-1.45461,-0.032136355,0.0071276235,-0.10579658,-0.40085366,-0.32756057,0.05998087,-3.0735557,0.63046026,5.4106164e-05,-0.16073906,0.00873645,-0.0015878187,0.034391247,-0.020156322,-0.016262347,0.42475381,-1.4212986,1.951589,-2.0972574,-1.5738977,2.4038363,-0.13372706,0.29418206,-0.35365576,0.091711864,-0.023854265,-0.117169835,-0.019153614,0.28730422,-9.3661175,0.8851263,47.65643,-0.90569186,-1.7117765,-3.7128468,-0.24254638,-0.29665312,-0.115973964,26.25,27.125,26.1875,29.3125,30.4375,30.875
0.3420522,-1.7290471,-2.384861,-1.4443655,-0.04537772,0.0066137644,-0.09546257,-0.4011772,-0.32755858,0.05999873,-3.0734947,0.63049024,6.31552e-05,-0.16164179,0.009067107,-0.0013127787,0.034981325,-0.020260368,-0.02429821,0.42451355,-1.4207336,1.950858,-2.0970652,-1.5739464,2.403623,-0.13461955,0.29526266,-0.3560516,0.09337952,-0.024344478,-0.11002319,-0.1340753,0.30645782,-9.289503,0.9030289,47.699425,-0.85264915,-1.6298678,-3.7045274,-0.3131245,-0.25424206,-0.21281129,26.25,27.125,26.1875,29.3125,30.4375,30.875
0.344052,-1.3078079,-2.474644,-1.6459931,-0.046954043,0.031299733,-0.09487174,-0.4014772,-0.3275331,0.05998144,-3.0733645,0.63054127,3.0432155e-05,-0.16429597,0.008806076,0.0005746794,0.03400944,-0.014917431,-0.029170336,0.4242735,-1.4201571,1.9502,-2.0968983,-1.5740308,2.4034324,-0.13534513,0.2950721,-0.360064,0.09231743,-0.025676494,-0.10586752,0.019153614,0.36391866,-9.308657,0.9947882,47.67345,-0.9779618,-1.6375872,-3.6705825,-0.32455596,-0.23838122,-0.2437056,26.25,27.125,26.1875,29.3125,30.4375,30.875
0.34605214,-1.0714211,-2.048955,-1.4866033,-0.061009932,0.040872175,-0.11357853,-0.4018375,-0.32751328,0.060012143,-3.0732932,0.63071746,4.5521123e-05,-0.16592628,0.006605435,0.00210869,0.031124014,-0.009208897,-0.027936433,0.42396235,-1.4195803,1.9494208,-2.0966842,-1.574066,2.403241,-0.13269623,0.29537722,-0.36329374,0.08884452,-0.025416251,-0.1044513,0.0,0.34476504,-9.3661175,0.8627467,47.67345,-1.0155885,-1.4487615,-3.5917377,-0.33971184,-0.22927257,-0.28945705,26.25,27.125,26.1875,29.3125,30.4375,30.875
0.3480519,-1.2344124,-2.0907397,-1.2880325,-0.06935941,0.046588812,-0.111673184,-0.40219897,-0.32749042,0.060022272,-3.0732014,0.63085306,6.5512664e-05,-0.16996592,0.0060478635,0.0032501668,0.028612526,-0.0043767854,-0.029873276,0.42366117,-1.4189668,1.948654,-2.0965054,-1.5741261,2.4030368,-0.13502908,0.29859987,-0.36912376,0.08599858,-0.025142558,-0.104844235,-0.05746084,0.28730422,-9.3661175,0.9186956,47.691364,-0.90745074,-1.4371732,-3.4401283,-0.32168818,-0.21263036,-0.297118,26.25,27.125,26.1875,29.3125,30.4375,30.875
0.35005194,-1.6291442,-1.6439279,-1.724744,-0.048656855,0.031800594,-0.1052317,-0.40249455,-0.32750192,0.060020663,-3.0731657,0.63084346,1.3080391e-05,-0.17213452,0.0044788457,0.002501835,0.026265379,-0.00034485146,-0.02877927,0.42344585,-1.4184004,1.9479712,-2.096341,-1.574138,2.4028206,-0.13413139,0.30281344,-0.37077445,0.0787867,-0.024688674,-0.105038725,-0.17238252,0.24899697,-9.423578,0.9164598,47.694946,-1.1156647,-1.5847665,-3.3754659,-0.26487288,-0.2026898,-0.32899493,26.25,27.125,26.1875,29.3125,30.4375,30.875
0.352052,-1.319609,-1.2415872,-1.9051012,-0.028448747,0.04515545,-0.10810022,-0.40284798,-0.3274732,0.06002513,-3.0730946,0.63096374,3.8268685e-05,-0.17333837,0.004441608,0.0012577192,0.025245154,0.0014018044,-0.0298886,0.42313358,-1.4178116,1.9472536,-2.0961993,-1.5741862,2.4025931,-0.13501441,0.30539155,-0.3697932,0.073203534,-0.024490738,-0.10481234,-0.30645782,0.36391866,-9.519346,0.9164598,47.692257,-1.0423946,-1.729934,-3.4666803,-0.21071303,-0.19929163,-0.35120913,26.25,27.125,26.1875,29.3125,30.4375,30.875
0.35405198,-1.8768237,-1.6348449,-1.9004716,-0.037896518,0.06196061,-0.113455385,-0.40318182,-0.32747114,0.060013786,-3.0730112,0.63098294,2.382626e-05,-0.17383027,0.004606689,0.00030303252,0.025572723,-0.0004124059,-0.03014645,0.42289346,-1.4171735,1.9465121,-2.0960433,-1.5742458,2.4023764,-0.13585234,0.30820733,-0.37108317,0.07345107,-0.024056397,-0.10539232,-0.24899697,0.30645782,-9.519346,0.9768804,47.672558,-1.0946133,-1.6658845,-3.6548085,-0.19060838,-0.1829533,-0.35401005,26.25,27.125,26.1875,29.3125,30.4375,30.875
0.35605207,-2.0328999,-1.7473959,-1.4776106,-0.066044144,0.08399288,-0.11716539,-0.40352467,-0.3274811,0.06002991,-3.0729637,0.6310686,5.1241692e-05,-0.17566447,0.004715689,-0.00016754855,0.024146274,0.0018576224,-0.029033892,0.42265263,-1.4165714,1.9457463,-2.0958774,-1.5742816,2.4021957,-0.1376286,0.31026697,-0.37159193,0.06922373,-0.023707943,-0.108281605,-0.34476504,0.24899697,-9.5385,0.9545008,47.685097,-0.95285726,-1.8534532,-3.7962408,-0.13215387,-0.16313517,-0.36313206,26.25,27.125,26.1875,29.3125,30.4375,30.875
0.35805193,-2.062804,-1.9291902,-1.348907,-0.07166164,0.09478653,-0.11758594,-0.40388918,-0.327481,0.060043905,-3.0729485,0.6311397,0.0001415134,-0.177131,0.0048672394,0.00030780488,0.023790693,0.0032853424,-0.02529517,0.42237645,-1.4159714,1.9450034,-2.0957816,-1.5743178,2.4019663,-0.13875996,0.31124088,-0.37395135,0.069134146,-0.023983903,-0.11315081,-0.59376204,0.28730422,-9.519346,0.93436235,47.658226,-0.99993515,-1.6619242,-3.818778,-0.10541274,-0.1754373,-0.3228808,26.25,27.125,26.1875,29.3125,30.4375,30.875
0.36005193,-2.315789,-1.8284473,-1.3688594,-0.054025654,0.08826778,-0.108316585,-0.40426087,-0.32747754,0.06008334,-3.0729284,0.631113,0.00027586974,-0.1789509,0.004632756,0.0007813052,0.023257101,0.00488792,-0.020185241,0.42211202,-1.4153942,1.9442147,-2.0956256,-1.5743903,2.4016883,-0.1395381,0.31323802,-0.37744537,0.06891484,-0.02417207,-0.119037874,-0.40222588,0.22984336,-9.5385,0.9030289,47.65912,-0.94955504,-1.6125706,-3.8538108,-0.08388343,-0.17083946,-0.25483447,26.25,27.125,26.1875,29.3125,30.4375,30.875
0.36205196,-2.3065543,-1.070013,-1.6285292,-0.024099205,0.06036264,-0.10660229,-0.40461326,-0.3274633,0.060066376,-3.072885,0.63115746,0.0002605956,-0.18048911,0.003291994,0.0011357168,0.022464154,0.0057199337,-0.013726702,0.42181256,-1.4147555,1.9434947,-2.0955179,-1.5744137,2.4014227,-0.13842781,0.3166985,-0.38254517,0.06943928,-0.02381736,-0.1243845,-0.22984336,0.11492168,-9.500193,0.9254084,47.657326,-0.98031855,-1.6800815,-3.6627896,-0.05697786,-0.1549028,-0.19018738,26.25,27.125,26.1875,29.3125,30.4375,30.875
0.3640517,-1.3685261,-0.7217258,-1.5136043,0.0048203277,0.05220983,-0.10334005,-0.40499473,-0.32746354,0.060085673,-3.072862,0.6312645,0.0003482864,-0.1821504,0.003460252,0.0017392555,0.021614596,0.00690056,-0.009930063,0.42152384,-1.414131,1.942705,-2.0953982,-1.5744494,2.4012043,-0.14008948,0.31774044,-0.3853863,0.06978078,-0.023539722,-0.12984401,-0.59376204,0.2873042,-9.346964,0.94331104,47.65912,-0.8834201,-1.7035234,-3.620224,-0.031209018,-0.1437007,-0.09139792,26.25,27.125,26.1875,29.3125,30.4375,30.875
0.36605254,-1.626853,-0.47668588,-1.6662875,0.0038617274,0.046700966,-0.11086436,-0.4053566,-0.32744473,0.06008187,-3.0727763,0.6313049,0.0004035817,-0.18264028,0.0033913713,0.001635455,0.021306332,0.0062481826,-0.010881083,0.42124805,-1.4134943,1.9419512,-2.095266,-1.5745333,2.4009655,-0.14054632,0.31902435,-0.3869937,0.07055659,-0.022994807,-0.12935129,-0.7852981,0.30645782,-9.289502,0.9164598,47.65912,-1.1307595,-1.5364363,-3.5965161,0.01694372,-0.14278242,-0.07605555,26.25,27.125,26.1875,29.3125,30.4375,30.875
0.36805233,-1.4045142,-0.655258,-1.6033891,-0.011638354,0.068186514,-0.11545363,-0.4057255,-0.32745028,0.06011586,-3.0727844,0.63130695,0.00048172145,-0.18221506,0.0031704032,0.0013200545,0.022196759,0.0047193985,-0.012268501,0.4209725,-1.4129056,1.9411601,-2.0951102,-1.5745577,2.4006906,-0.13951424,0.3200894,-0.38807458,0.07233273,-0.023169989,-0.12693216,-0.47884035,0.30645782,-9.461885,1.0149267,47.687782,-1.1465981,-1.4600861,-3.6463928,0.010565551,-0.12976639,-0.045025244,26.25,27.125,26.1875,29.3125,30.4375,30.875
0.3700524,-2.5487802,-1.6267745,-1.3568788,-0.040944163,0.07391033,-0.09808911,-0.40607086,-0.32743374,0.06009583,-3.0726902,0.63132817,0.00038086472,-0.1823738,0.0036654184,0.00077048456,0.024210215,0.0007326961,-0.017299913,0.42068395,-1.4122317,1.9403828,-2.0949042,-1.5745934,2.400428,-0.1402367,0.32302943,-0.39153767,0.07732427,-0.023379222,-0.1226192,-0.68953013,0.22984336,-9.385271,0.9254084,47.661808,-1.0982959,-1.5429847,-3.6827037,0.015442686,-0.12702514,-0.082836375,26.25,27.125,26.1875,29.3125,30.4375,30.875
0.37205216,-2.3394935,-1.7665328,-1.04529,-0.06131641,0.097655006,-0.11233564,-0.40645704,-0.32744253,0.060107946,-3.072659,0.631324,0.00050108146,-0.18180035,0.0044935765,-0.0007588164,0.026141282,-0.0044955313,-0.02280378,0.42043185,-1.4115701,1.9395679,-2.0947955,-1.5746659,2.400178,-0.14134745,0.32598773,-0.39245063,0.08084201,-0.022987947,-0.1182288,-0.68953013,0.095768064,-9.32781,0.947788,47.67345,-1.0985693,-1.574578,-3.7116778,-0.045647442,-0.13659796,-0.118577674,26.25,27.125,26.1875,29.3125,30.4375,30.875
0.37405208,-2.6966128,-1.636248,-1.125892,-0.0480332,0.07579927,-0.1005053,-0.4068347,-0.32743642,0.060110908,-3.0725932,0.6314467,0.00053715176,-0.18196177,0.0041521545,-0.00048502706,0.026950795,-0.0060506985,-0.028165778,0.4201442,-1.4109093,1.9387664,-2.094651,-1.5747136,2.399976,-0.14062543,0.32747936,-0.39582172,0.08448499,-0.023081064,-0.11214351,-0.4405331,0.076614454,-9.270349,1.0373062,47.677036,-1.1979754,-1.6857032,-3.7643626,-0.059476428,-0.122588776,-0.16036406,26.25,27.125,26.1875,29.3125,30.4375,30.875
