Tylouw/Master_Thesis_Code/training_data/batch_1/big_rod_t0.2/sample_100_session_4.csv
timestamp[s],tcp_force_x[N],tcp_force_y[N],tcp_force_z[N],tcp_force_rx[Nm?],tcp_force_ry[Nm?],tcp_force_rz[Nm?],tcp_pose_x[m],tcp_pose_y[m],tcp_pose_z[m],tcp_pose_rx[rot_vec_x],tcp_pose_ry[rot_vec_y],tcp_pose_rz[rot_vec_z],tcp_velo_x[m/s],tcp_velo_y[m/s],tcp_velo_z[m/s],tcp_velo_rx[rot_vec_x/s],tcp_velo_ry[rot_vec_y/s],tcp_velo_rz[rot_vec_z/s],q1[rad],q2[rad],q3[rad],q4[rad],q5[rad],q6[rad],qd1[rad/s],qd2[rad/s],qd3[rad/s],qd4[rad/s],qd5[rad/s],qd6[rad/s],tool_acc_x,tool_acc_y,tool_acc_z,current_of_whole_robot[A],voltage_of_whole_robot[V],current_J1[A],current_J2[A],current_J3[A],current_J4[A],current_J5[A],current_J6[A],temp_J1[C],temp_J2[C],temp_J3[C],temp_J4[C],temp_J5[C],temp_J6[C]
6.2800245e-07,-1.4813305,-1.3995811,0.32570046,-0.00034432113,-0.00898247,0.006705394,-0.37285858,-0.32821834,0.059915442,-3.078454,0.6248414,-0.00038115928,0.002356758,0.0011339748,-0.0036689474,0.003193298,-0.006973676,2.6423888e-05,0.4481623,-1.4708371,2.0096085,-2.1076796,-1.5706495,2.4230676,-9.3053684e-05,0.0035623542,0.004622961,-0.0005171941,0.00015239492,-0.000121826364,0.076614454,0.24899697,-8.868123,0.6277561,47.744205,-0.24248515,-2.8291163,-2.55133,-0.4925536,0.15002161,-0.12883896,27.25,28.375,27.4375,31.0625,32.75,33.5
0.002052645,-1.0609583,-0.5691406,0.31752357,-0.004292801,-0.0025968587,-0.0021596013,-0.37287012,-0.32823026,0.059913523,-3.0784783,0.62480813,-0.00034564335,-0.0007162656,-0.00035226645,-0.0026967467,-0.0008203265,0.0013301162,2.8780834e-05,0.4481742,-1.4708132,2.0095956,-2.1077192,-1.5706495,2.4230556,-9.186634e-05,0.0044307383,0.0034851274,-0.009470654,0.00014879512,-0.000119515185,-0.019153614,0.15322891,-8.829816,0.76874626,47.731667,-0.30509,-2.8049808,-2.2920485,-0.4527787,0.13816506,-0.13448021,27.25,28.375,27.4375,31.0625,32.75,33.5
0.004052049,-1.1703104,-0.5388932,0.3943276,0.009200572,-0.012184139,-0.0010306482,-0.3728835,-0.32821733,0.059911504,-3.0784564,0.62484175,-0.00028241877,-0.001341355,-0.00065380795,-0.002292282,-0.0019120291,0.0035980265,2.822452e-05,0.4481623,-1.4708133,2.0096085,-2.107755,-1.5706857,2.4230676,-9.070912e-05,0.00395259,0.0035661736,-0.011590535,0.00014536199,-0.00011729004,-0.019153614,0.2681506,-8.868123,0.69937176,47.731667,-0.2646767,-3.0853243,-2.502363,-0.36789235,0.15399417,-0.10492903,27.25,28.375,27.4375,31.0625,32.75,33.5
0.006054061,-0.5858114,-0.32738075,0.30700797,0.025328986,-0.011889769,-0.0065571982,-0.37287393,-0.32822147,0.059906404,-3.0784712,0.6248257,-0.0003221178,-0.0006105778,-0.0002992869,-0.0016421541,-0.0011112521,0.0019582163,2.6151612e-05,0.4481623,-1.4708139,2.0096204,-2.107753,-1.5706614,2.4230556,-8.958053e-05,0.0023524456,0.0028956986,-0.0074950363,0.00014208342,-0.00011514641,-0.038307227,0.15322891,-8.944737,0.7463667,47.758533,-0.26514074,-3.028538,-2.5171463,-0.39126998,0.14359081,-0.11476581,27.25,28.375,27.4375,31.0625,32.75,33.5
0.008052478,0.34719095,0.7245732,-0.12180225,0.03616594,-0.019702494,-0.01588501,-0.3728945,-0.3282186,0.059914388,-3.0784774,0.62490374,-0.00027765727,-2.4231838e-06,-4.3897503e-06,-0.0012219494,-0.0002386023,0.00016583074,2.4458377e-05,0.4481382,-1.4708141,2.0096076,-2.1077754,-1.5706614,2.4230795,-8.847964e-05,0.0014627039,0.0020589686,-0.0037750355,0.00013894946,-0.000113079535,0.019153614,0.11492168,-9.078813,0.7732232,47.71554,-0.2276707,-2.9522016,-2.4223068,-0.42512494,0.13368663,-0.11823115,27.25,28.375,27.4375,31.0625,32.75,33.5
0.010051926,-0.32763264,0.44866598,-0.60495657,0.05954528,-0.03927774,-0.0030213739,-0.37287113,-0.3282073,0.05988066,-3.078436,0.6248571,-0.00038107505,9.0432266e-05,4.098156e-05,-0.0010250589,5.2239437e-05,-0.00042801534,3.523855e-05,0.4481382,-1.4707782,2.0096428,-2.107764,-1.5706614,2.4230556,-8.743977e-05,0.0013608934,0.0013931412,-0.0023461608,0.00013595098,-0.00012286387,0.019153614,0.05746084,-9.270349,0.7732232,47.74062,-0.65656656,-2.3914945,-3.0763488,-0.46183628,0.1502316,-0.18531027,27.25,28.375,27.4375,31.0625,32.75,33.5
0.012052007,-0.13681062,0.42570078,-0.6414538,0.023975212,-0.015738232,-0.016322855,-0.37286758,-0.32821843,0.05986465,-3.0784066,0.6248508,-0.0004430729,-0.00033991766,-0.00012693684,-0.002897081,0.0018767617,-0.0042247535,1.3126147e-05,0.44816226,-1.4707167,2.0096066,-2.1077397,-1.5706614,2.4230795,-0.00016585745,0.007351614,-0.001032777,-0.001698594,0.00013307919,-0.00017695018,0.0,0.17238252,-9.308657,0.7530795,47.744205,-0.76769245,-2.1711667,-3.1458473,-0.47223288,0.144772,-0.23176152,27.25,28.375,27.4375,31.0625,32.75,33.5
0.014052071,-1.5086471,-0.8291332,-0.90112424,0.008986487,-0.014084008,-0.00054361473,-0.37286356,-0.3281805,0.059856378,-3.0783696,0.6247863,-0.00048102485,-0.0056500887,0.0019750074,-0.004269132,0.0029451535,-0.006513755,-0.0027296667,0.44811106,-1.470737,2.0096395,-2.1077034,-1.5706857,2.4229927,-0.008966893,0.016684208,-0.008205022,-0.0013341963,0.00014413666,-0.0062295324,-0.038307227,0.1340753,-9.481039,0.7597976,47.71465,-0.46868443,-2.902742,-2.9857836,-0.4699307,0.16051045,-0.2169488,27.25,28.375,27.4375,31.0625,32.75,33.5
0.016052634,-1.8656095,-1.3967744,-1.0840938,-0.028386228,0.014941705,-0.016186772,-0.3728598,-0.32820013,0.059839793,-3.078403,0.6247903,-0.00056816306,-0.006149228,0.0021857074,-0.0037730078,0.0025459272,-0.0056962827,0.0028206604,0.4481107,-1.4706893,2.009628,-2.1077158,-1.5706257,2.4229906,-0.0098179635,0.016029198,-0.008673391,-0.001120954,0.0001456115,-0.012630824,-0.24899697,0.22984336,-9.672575,0.7105615,47.71554,-0.35590565,-2.7884011,-3.0820665,-0.47885153,0.15199877,-0.15716846,27.25,28.375,27.4375,31.0625,32.75,33.5
0.018051796,-2.0758603,-2.0108151,-0.8822854,-0.058439888,0.06362886,-0.02422376,-0.37286696,-0.32818857,0.059850678,-3.0783563,0.62474126,-0.00052666734,-0.005147301,0.002248996,-0.004111903,0.0031713329,-0.0070409984,0.0045097824,0.44812313,-1.4706895,2.0095923,-2.1076672,-1.5706857,2.4229784,-0.009040255,0.015514485,-0.0075254734,-0.00027224934,0.0001683593,-0.013543309,-0.49799395,0.30645782,-9.749189,0.77545905,47.72629,-0.61447906,-2.4523492,-3.4334788,-0.5093663,0.1657815,-0.17239177,27.25,28.375,27.4375,31.0625,32.75,33.5
0.02005169,-2.4061918,-1.781601,-0.81604147,-0.06929946,0.0876661,-0.046362933,-0.37285832,-0.32819095,0.05982661,-3.0783455,0.6247584,-0.00063587166,-0.005855163,0.0020518526,-0.00419606,0.003179228,-0.0071857907,0.0049683712,0.44811088,-1.4706409,2.0095913,-2.1076553,-1.5706495,2.4229782,-0.009349602,0.017227497,-0.009243326,-0.00013329725,0.00021927312,-0.014310098,-0.4213795,0.38307226,-9.825804,0.71279734,47.734352,-0.72004014,-2.4477448,-3.5534945,-0.518499,0.17525104,-0.1575127,27.25,28.375,27.4375,31.0625,32.75,33.5
0.022052564,-2.2201183,-1.3569658,-0.8913267,-0.054828234,0.094695725,-0.054878544,-0.37288266,-0.32817724,0.05981131,-3.078339,0.6247574,-0.0006518828,-0.008343993,0.0013471652,-0.0032876572,0.0007089244,-0.005775082,0.0038395359,0.44806227,-1.4705921,2.0095785,-2.1076791,-1.5706486,2.4229298,-0.011377258,0.01971033,-0.0140442895,-0.00016270358,0.0018232329,-0.015209003,-0.5363012,0.4213795,-9.787497,0.76874626,47.72002,-0.75709265,-2.479446,-3.358852,-0.5027051,0.15590212,-0.17974506,27.25,28.375,27.4375,31.0625,32.75,33.5
0.024052437,-2.4816084,-1.0385283,-1.0125458,-0.021959955,0.058188584,-0.0720883,-0.37289384,-0.32819518,0.059813965,-3.0783596,0.6248009,-0.0006855526,-0.009099233,0.0017084323,-0.0031647978,-0.00039326385,-0.0059496,0.0030348147,0.4480616,-1.4705563,2.0095303,-2.1076672,-1.5706128,2.4229536,-0.013466724,0.019900667,-0.014529117,-0.00019185116,0.0028903321,-0.01649566,-0.59376204,0.34476504,-9.80665,0.7911258,47.72092,-0.7459097,-2.4591017,-3.3699632,-0.5019497,0.14518522,-0.1817635,27.25,28.375,27.4375,31.0625,32.75,33.5
0.026051825,-2.456792,-1.2098956,-1.0712451,0.0012696054,0.04065747,-0.08172769,-0.3729259,-0.32819572,0.059813306,-3.0783875,0.62474895,-0.0006816488,-0.010204545,0.0016925493,-0.0022382278,-0.0012804307,-0.0040183584,0.00307058,0.4480253,-1.4705086,2.0094821,-2.1076791,-1.5706009,2.4228814,-0.014413259,0.019362902,-0.016049873,-0.00025792173,0.0028493856,-0.017476993,-0.7086837,0.3256114,-9.672575,0.78217715,47.686886,-0.84340477,-2.3679972,-3.4670799,-0.5229047,0.15092933,-0.20808464,27.25,28.375,27.4375,31.0625,32.75,33.5
0.028051957,-2.2077565,-0.771519,-0.87137955,-0.00691238,0.044333696,-0.09979187,-0.37296468,-0.32820126,0.059822995,-3.0783849,0.6247294,-0.0006025095,-0.011319078,0.0021744177,-0.0024850252,-0.00077895,-0.004172329,0.0025006337,0.44802466,-1.4704598,2.0094092,-2.107691,-1.5706366,2.422869,-0.016070588,0.0211805,-0.017469447,-0.00029930248,0.0024609906,-0.018562322,-0.6703765,0.30645782,-9.691729,0.78217715,47.690468,-0.7762057,-2.3176541,-3.5326924,-0.52993387,0.14614514,-0.18495089,27.25,28.375,27.4375,31.0625,32.75,33.5
0.030051991,-2.247996,-0.86880296,-0.68805605,-0.0006232807,0.051918752,-0.11420082,-0.37297252,-0.3281751,0.059787713,-3.0783339,0.62468106,-0.00069521565,-0.012974455,0.0021550641,-0.0018986012,-0.0011518644,-0.002719619,0.0013951478,0.44797632,-1.4703877,2.0094082,-2.1076791,-1.5706486,2.422797,-0.017336866,0.022496965,-0.02026083,-0.00029432046,0.002160156,-0.018720796,-0.59376204,0.2681506,-9.634268,0.7284641,47.698532,-0.77837956,-2.3391793,-3.4044042,-0.5321937,0.15781116,-0.16759014,27.25,28.375,27.4375,31.0625,32.75,33.5
0.032051887,-2.2910044,-1.1224947,-0.60232604,0.003759293,0.064837195,-0.12592399,-0.373012,-0.328192,0.059794236,-3.07838,0.624787,-0.0006807718,-0.014125888,0.0018614695,-0.0013220138,-0.0015742434,-0.0013664027,0.00038659136,0.4479402,-1.4703394,2.0093486,-2.1077154,-1.5706013,2.422821,-0.017689057,0.023392003,-0.02256883,-0.0002822259,0.0019511282,-0.018062368,-0.57460845,0.05746084,-9.634268,0.7329411,47.682407,-0.7190913,-2.304668,-3.390275,-0.5357278,0.17398737,-0.1827159,27.25,28.375,27.4375,31.0,32.75,33.5
0.03405228,-2.487039,-0.49200547,-0.42947638,0.005982599,0.056749336,-0.1354808,-0.3730545,-0.32818902,0.059813384,-3.078393,0.6247907,-0.00062406564,-0.01536474,0.001652421,-0.0008407593,-0.0028354817,-0.00057482056,-0.0008270338,0.44790363,-1.4703151,2.0092752,-2.107703,-1.5706128,2.4227853,-0.018956408,0.02431943,-0.024670592,-0.0003705928,0.0027411007,-0.018116208,-0.47884035,0.05746084,-9.595961,0.80679786,47.691364,-0.81810904,-2.346442,-3.3966532,-0.53152186,0.17504811,-0.1867792,27.25,28.375,27.4375,31.0,32.75,33.5
0.0360524,-1.4110026,0.3363651,-0.3046407,0.018775146,0.05739283,-0.16012827,-0.37308756,-0.32817957,0.0598129,-3.0783856,0.624866,-0.0006091798,-0.016314184,0.0010219255,-0.00036841206,-0.005051004,0.00024686634,-0.001433829,0.44785547,-1.4702789,2.0092394,-2.1077158,-1.5706123,2.422785,-0.019740839,0.024968801,-0.02630246,-0.0010939183,0.0043773735,-0.01829585,-0.4213795,-0.1340753,-9.5385,0.80456203,47.721813,-0.77770185,-2.2939296,-3.3942566,-0.53434014,0.15003732,-0.20070598,27.25,28.375,27.4375,31.0,32.75,33.5
0.038052272,-1.7051302,-0.026659247,-0.49118382,0.049557824,0.01722998,-0.16182989,-0.37312973,-0.32819602,0.059813324,-3.0784335,0.62483734,-0.000588945,-0.0175659,0.00053907937,0.00029232545,-0.0067001767,0.0017770304,-0.0016316688,0.44783124,-1.4702067,2.0091674,-2.1077511,-1.5705875,2.422737,-0.020523379,0.02559901,-0.028357834,-0.0017645778,0.0051958556,-0.018880509,-0.34476504,-0.05746084,-9.442732,0.74413085,47.674347,-0.8053521,-2.199995,-3.3786693,-0.5113028,0.13552168,-0.18672203,27.25,28.375,27.4375,31.0,32.75,33.5
0.040052135,-1.2647603,0.04794113,-0.5041721,0.0570002,-0.0028338928,-0.17926012,-0.37315503,-0.32818675,0.05980376,-3.0784152,0.6248725,-0.0006430617,-0.019016426,0.000578271,0.0003561399,-0.00734802,0.002899613,-0.002205389,0.44778267,-1.4701464,2.0091178,-2.1077278,-1.5705756,2.4227126,-0.021976102,0.02719366,-0.029963214,-0.0030461627,0.00528655,-0.019758284,-0.19153613,-0.1340753,-9.423578,0.7978386,47.70211,-0.7596191,-2.2169209,-3.4604316,-0.5017264,0.14524695,-0.1873975,27.25,28.375,27.4375,31.0,32.75,33.5
0.04205194,-0.6167568,-0.112259634,-0.55948126,0.050700683,-0.0007183831,-0.19302869,-0.37322494,-0.3281733,0.059812423,-3.078418,0.62487274,-0.0005744584,-0.020294504,0.00059410837,0.0003620382,-0.007450963,0.0031789166,-0.002263804,0.44771028,-1.4700737,2.009021,-2.1077402,-1.5705999,2.42264,-0.023142302,0.029216614,-0.032173682,-0.0031550683,0.0052540563,-0.020864137,-0.17238252,-0.038307227,-9.423578,0.7553206,47.70032,-0.7345263,-2.23353,-3.3566046,-0.48538882,0.14373149,-0.19603664,27.25,28.375,27.4375,31.0,32.75,33.5
0.04405185,-0.55617875,-0.1347522,-0.54764545,0.025514897,-0.0004420206,-0.18975566,-0.37325475,-0.3281514,0.05979715,-3.078383,0.62496173,-0.0005781341,-0.021102112,0.00053795555,0.00070515287,-0.00807399,0.003289503,-0.0021378873,0.44765005,-1.4700255,2.0090086,-2.107764,-1.5706118,2.4226398,-0.02411471,0.029928258,-0.03388694,-0.0025247082,0.0057651526,-0.0219626,-0.05746084,0.05746084,-9.500193,0.7911258,47.7451,-0.750529,-2.2681153,-3.3744297,-0.47820193,0.14696127,-0.17631237,27.25,28.375,27.4375,31.0,32.75,33.5
0.046051867,-0.46157998,-0.5561979,-0.59372514,0.0010723359,0.00261052,-0.19311497,-0.37326372,-0.32816246,0.059787046,-3.0784092,0.62487024,-0.00065836316,-0.02172627,0.00049992744,0.0011422939,-0.008799331,0.0032038728,-0.0013550601,0.44763777,-1.4699657,2.0089605,-2.1077397,-1.5705751,2.4225671,-0.025075836,0.030208489,-0.03543333,-0.0014970346,0.006453425,-0.023707507,0.038307227,0.11492168,-9.500193,0.75084364,47.72719,-0.73580253,-2.1075697,-3.3962765,-0.48818937,0.14184897,-0.1617316,27.25,28.375,27.4375,31.0,32.75,33.5
0.048051614,-0.6568645,-1.2061069,-0.6100322,-0.0033435456,0.0033059462,-0.1635975,-0.37331218,-0.3281471,0.05977664,-3.0783668,0.62486184,-0.000654164,-0.0224968,0.0008382735,0.0012814044,-0.008570032,0.003297448,-0.0011550435,0.44758934,-1.4698696,2.008876,-2.1077273,-1.5706114,2.422519,-0.026240066,0.030905306,-0.036640003,-0.00097208034,0.00620378,-0.02507072,0.0,0.17238252,-9.519346,0.80456203,47.709274,-0.71381915,-2.1153765,-3.3444042,-0.48441178,0.12491508,-0.1474809,27.25,28.375,27.4375,31.0,32.75,33.5
0.050051946,-0.79711825,-1.0457759,-0.70923686,-0.01951837,0.0020338895,-0.16828603,-0.3733757,-0.32814583,0.059795365,-3.0784156,0.62490994,-0.0006287909,-0.023524009,0.0009659931,0.001613698,-0.008542568,0.004064553,-0.00043505803,0.44750497,-1.4698215,2.0087802,-2.1077273,-1.5705756,2.4224584,-0.027164841,0.031727456,-0.038354307,-0.00075699936,0.0058447737,-0.026713366,0.076614454,0.21068975,-9.481039,0.779936,47.699425,-0.66208684,-2.0391579,-3.4050841,-0.5001361,0.1394605,-0.13780822,27.25,28.375,27.4375,31.0,32.75,33.5
0.052051816,-0.84775335,-1.4019215,-0.68632734,-0.018637355,0.007606106,-0.16884476,-0.37343246,-0.32816246,0.05983288,-3.0784802,0.62498105,-0.00053097913,-0.02465111,0.0013506238,0.0016707096,-0.008022957,0.0044927625,-0.0007132831,0.4474685,-1.469809,2.0086834,-2.1077392,-1.5705518,2.4224582,-0.028464783,0.033063404,-0.03998106,-0.000624248,0.0051902602,-0.027732108,0.038307227,0.28730422,-9.5385,0.7597976,47.709274,-0.7096563,-2.0328784,-3.41933,-0.50274926,0.14054151,-0.12678996,27.25,28.375,27.4375,31.0,32.75,33.5
0.05405272,-1.16623,-1.6676234,-0.8843641,-0.015352414,-0.007433546,-0.1658615,-0.37346405,-0.3281519,0.059811626,-3.0784588,0.6249366,-0.00059189886,-0.025408747,0.0013500631,0.0017192183,-0.0077673616,0.0047982885,0.00047044188,0.44742027,-1.469713,2.0086238,-2.1077268,-1.5705522,2.422385,-0.028900728,0.034293763,-0.041467436,-0.00053161045,0.004822881,-0.029350255,0.019153614,0.34476504,-9.5385,0.7866488,47.72719,-0.72352815,-1.9809144,-3.444241,-0.50926363,0.15590532,-0.12048979,27.25,28.375,27.4375,31.0,32.75,33.5
0.056051683,-1.0333452,-1.5866927,-0.93684995,-0.01841208,-0.007521092,-0.15981174,-0.3735237,-0.32812968,0.059818435,-3.0784314,0.62496966,-0.0005426125,-0.026393672,0.0011406639,0.0021023208,-0.008459304,0.0054815602,0.0009509674,0.44734815,-1.4696527,2.0085394,-2.1077154,-1.5705875,2.422337,-0.029616393,0.035211675,-0.04337124,-0.00046301787,0.0051476266,-0.030545762,0.0,0.4213795,-9.672575,0.8112748,47.750473,-0.68759704,-1.9666517,-3.4154317,-0.5167257,0.15902592,-0.12057948,27.25,28.375,27.4375,31.0,32.75,33.5
0.05805259,-0.9863709,-1.9302764,-0.89737207,-0.013429954,0.0011300525,-0.15470305,-0.37357458,-0.3281521,0.05982068,-3.0784864,0.62496126,-0.00055895146,-0.027097285,0.0011458367,0.0021064645,-0.00893992,0.0053351433,0.00088143506,0.44731173,-1.4695565,2.0084312,-2.1077268,-1.5705398,2.4222884,-0.030595597,0.036277547,-0.044566024,-0.00041014494,0.0056424695,-0.031455413,-0.05746084,0.4213795,-9.5385,0.74413085,47.728977,-0.69122386,-1.9415703,-3.4494858,-0.5134865,0.13680497,-0.10426866,27.25,28.375,27.4375,31.0,32.75,33.5
0.06005235,-0.7359745,-1.548384,-0.77230304,-0.025821112,0.014059719,-0.16174349,-0.37358534,-0.32816592,0.059811894,-3.0785217,0.62481445,-0.0006111051,-0.028293826,0.0009854955,0.0025174473,-0.009448397,0.0062291063,0.0016858046,0.44731146,-1.4694961,2.0083826,-2.1077154,-1.5705155,2.422192,-0.031424582,0.037434246,-0.04679017,-0.00036813045,0.005708087,-0.03308753,-0.1340753,0.45968673,-9.615114,0.8179876,47.729877,-0.73449516,-1.918634,-3.4952402,-0.5050189,0.14973477,-0.096804,27.25,28.375,27.4375,31.0,32.75,33.5
0.062052105,-1.1815414,-1.9671285,-0.8227657,-0.024454558,0.019493414,-0.15611073,-0.37368673,-0.32815114,0.059835956,-3.0785658,0.6249579,-0.0005564237,-0.029054442,0.0008337523,0.0023740425,-0.009535905,0.005994465,0.00269229,0.4471674,-1.4694238,2.0082505,-2.1077268,-1.5704798,2.422132,-0.03194079,0.039253388,-0.04846836,-0.00033393243,0.0058880714,-0.034608882,-0.15322891,0.36391866,-9.576807,0.8179876,47.74062,-0.76262844,-1.8565645,-3.4652686,-0.50651056,0.1459862,-0.057378598,27.25,28.375,27.4375,31.0,32.75,33.5
0.06405178,-1.0355649,-0.9608816,-0.52072036,-0.040997315,0.033837624,-0.16684261,-0.37373462,-0.3281273,0.05982169,-3.078522,0.6250074,-0.0005648632,-0.029981822,0.0009705742,0.0019116323,-0.009609208,0.0050244844,0.0006510524,0.4470949,-1.4693388,2.00819,-2.1077268,-1.5705031,2.422096,-0.033361793,0.04167527,-0.050077785,-0.0003055574,0.006370319,-0.033988383,-0.11492168,0.28730422,-9.442732,0.7351769,47.678825,-0.7552799,-1.9198699,-3.498961,-0.5157057,0.15153982,-0.06914171,27.25,28.375,27.4375,31.0,32.75,33.5
0.066052474,-1.9516202,-1.3663117,-0.66271347,-0.010574425,0.0136601385,-0.1534629,-0.37381512,-0.3281363,0.0598474,-3.0785666,0.6249974,-0.000448119,-0.030796938,0.00039142373,0.0022760993,-0.010713411,0.005521946,-0.00041944932,0.44704685,-1.4692668,2.0080574,-2.1077507,-1.570515,2.4220362,-0.03353372,0.042789694,-0.052144956,-0.00028163037,0.0071502402,-0.0330893,-0.095768064,0.30645782,-9.461885,0.80456203,47.71465,-0.75873184,-1.8642018,-3.495709,-0.51593196,0.1317356,-0.09814273,27.25,28.375,27.4375,31.0,32.75,33.5
0.06805232,-1.2737465,-0.9680315,-0.5920887,0.0026443321,0.030081611,-0.15839697,-0.37387803,-0.32813942,0.059840824,-3.0785937,0.62502205,-0.00050978607,-0.031775612,-0.0001435686,0.0025903839,-0.011798821,0.0059449584,0.0005663823,0.44696265,-1.4691465,2.0079377,-2.1077392,-1.5704664,2.421964,-0.033943847,0.04422944,-0.054456323,-0.0002611835,0.007941213,-0.034485213,-0.11492168,0.22984336,-9.557653,0.8179876,47.7254,-0.7689494,-1.8677764,-3.4937792,-0.4984884,0.14271647,-0.085799575,27.25,28.375,27.4375,31.0,32.75,33.5
0.07005216,-1.5900981,-0.35306853,-0.4613267,0.0059159715,0.022611298,-0.15959159,-0.37394014,-0.32815447,0.05986141,-3.0786524,0.6250343,-0.0005103575,-0.032842014,-0.00035417776,0.002464195,-0.012038736,0.005751822,0.0005178695,0.44690233,-1.4690737,2.007805,-2.1077154,-1.5704187,2.4219038,-0.034709662,0.046558216,-0.05673117,-0.00024350359,0.00823787,-0.03520105,-0.36391866,0.17238252,-9.404425,0.779936,47.734352,-0.7990368,-1.8748605,-3.390945,-0.5086155,0.11855717,-0.0887271,27.25,28.375,27.4375,31.0,32.75,33.5
0.07205192,-1.7676291,-0.99542654,-0.4957541,0.029600713,0.020249477,-0.14707313,-0.37399602,-0.32814097,0.05984105,-3.0786533,0.6249375,-0.0004869709,-0.03333269,-0.00017315446,0.002470116,-0.011816284,0.005931028,0.0007973437,0.44684237,-1.4689658,2.007744,-2.107763,-1.5704426,2.4217834,-0.035299726,0.04714628,-0.05739942,-0.00022806857,0.00795879,-0.0360696,-0.34476504,0.19153613,-9.3661175,0.80456203,47.716442,-0.857507,-1.9011635,-3.4732533,-0.50528806,0.12264204,-0.086929396,27.25,28.375,27.4375,31.0,32.75,33.5
0.07405196,-1.3956187,-0.4001437,-0.3036289,0.011313933,0.03222475,-0.15715805,-0.3740924,-0.32815328,0.0598784,-3.078694,0.62504125,-0.00039293471,-0.035624117,-0.00087863137,0.0036699995,-0.013429476,0.008382085,0.0012434374,0.44677004,-1.4688812,2.0075629,-2.1077507,-1.5704306,2.4217708,-0.036304526,0.048818864,-0.061992984,-0.00021482857,0.008348367,-0.0375175,-0.38307226,0.17238252,-9.346964,0.7642693,47.71554,-0.86143136,-1.7699308,-3.381307,-0.50189936,0.110475324,-0.07332757,27.25,28.375,27.4375,31.0,32.75,33.5
0.07605214,-1.4364091,-0.5985743,-0.34272036,0.0093284305,0.033630226,-0.15352319,-0.37412167,-0.3281528,0.059872113,-3.0787141,0.6249498,-0.0005155411,-0.03558326,-0.0007422287,0.0021588367,-0.01186396,0.0055738282,0.00040040835,0.44671,-1.4687963,2.0074675,-2.1076791,-1.5703825,2.4216511,-0.03638507,0.0524887,-0.06259849,-6.721918e-05,0.008147425,-0.036754277,-0.34476504,0.15322891,-9.3661175,0.7866488,47.734352,-0.8987415,-1.9473357,-3.2930913,-0.5010321,0.11836839,-0.0753028,27.25,28.375,27.4375,31.0,32.75,33.5
0.078052044,-1.7444353,-0.5395213,-0.15584537,0.008314923,0.027549166,-0.15498193,-0.37421003,-0.32816952,0.0598958,-3.0787897,0.6249092,-0.0003794914,-0.03688783,-0.0002850175,0.003386408,-0.01259771,0.008168821,-0.002620739,0.44666132,-1.4687129,2.0073354,-2.1077392,-1.5703825,2.4215677,-0.038105827,0.05095274,-0.06373079,-5.441754e-05,0.007690648,-0.035451815,-0.40222588,0.15322891,-9.32781,0.80456203,47.71286,-0.8253695,-1.8258319,-3.4323912,-0.49345872,0.11332287,-0.11003822,27.25,28.375,27.4375,31.0,32.75,33.5
0.080051996,-2.1519845,-1.1423173,-0.2157526,0.021441938,0.016191963,-0.14654854,-0.3742928,-0.32816663,0.059890453,3.0787804,-0.6249844,0.000356373,-0.038860463,-0.00051641953,0.004086323,-0.013127309,0.0099029895,-0.002405634,0.44656503,-1.4685925,2.0072262,-2.107787,-1.5703591,2.4215195,-0.03925979,0.052805968,-0.0673777,-5.0772986e-05,0.007413931,-0.036817696,-0.28730422,0.15322891,-9.32781,0.8179876,47.728977,-0.8084575,-1.7264777,-3.4035788,-0.50337136,0.105191484,-0.12143167,27.25,28.375,27.4375,31.0,32.75,33.5
0.082052335,-1.0938032,-0.0541787,-0.22129321,0.0024341287,0.032263607,-0.1623372,-0.3743596,-0.32814747,0.05991586,-3.078783,0.6250035,-0.0003231394,-0.03996802,-0.0012712552,0.0044142804,-0.0141481785,0.010458971,-0.001556961,0.4464927,-1.4685318,2.0070822,-2.107703,-1.5703949,2.421459,-0.03929393,0.054758888,-0.07027877,-4.8024893e-05,0.008089391,-0.037699588,-0.36391866,0.15322891,-9.308657,0.7709874,47.713753,-0.77555895,-1.7416358,-3.1454191,-0.5052565,0.10187925,-0.11333713,27.25,28.375,27.4375,31.0,32.75,33.5
0.08405243,-1.6618776,-0.67904437,-0.30671653,0.016094828,0.026599454,-0.15604615,-0.3744707,-0.32817167,0.059925012,3.0787086,-0.6249883,0.00027686937,-0.03929405,-0.0010227943,0.0021952384,-0.012307052,0.0061627347,-0.0015321445,0.4463969,-1.4683748,2.0069025,-2.107763,-1.5703348,2.421363,-0.03927338,0.058882993,-0.06973287,-4.558905e-05,0.008289203,-0.03770319,-0.4213795,0.21068975,-9.385271,0.8717007,47.709274,-0.9333322,-1.9606493,-3.388823,-0.5053486,0.103541605,-0.13313285,27.25,28.375,27.4375,31.0,32.75,33.5
0.08605243,-1.4302123,-0.4185675,-0.18753658,0.005019014,0.036040116,-0.16197701,-0.3745477,-0.32817024,0.059913523,3.0786998,-0.6250264,0.00036992162,-0.042154886,-0.00078282884,0.0046707555,-0.014182153,0.011369043,-0.003618696,0.44629997,-1.4682077,2.0067341,-2.1077154,-1.5702986,2.421291,-0.041916765,0.05706505,-0.07341849,-4.339027e-05,0.007724828,-0.03825762,-0.36391866,0.11492168,-9.404425,0.7709874,47.721813,-0.8812181,-1.6980062,-3.224843,-0.4998964,0.11821631,-0.15431638,27.25,28.375,27.4375,31.0,32.75,33.5
0.08805214,-1.9026194,-1.0238557,-0.45808995,-0.0002125574,0.021724576,-0.14913663,-0.37463322,-0.32815564,0.059929512,3.078703,-0.6249874,0.00023527231,-0.043163285,-0.0007280902,0.0039992067,-0.013923769,0.0101119215,-0.0040101656,0.4462277,-1.4681348,2.0066254,-2.1077507,-1.5703467,2.4211943,-0.043131333,0.060307834,-0.07545584,-5.5374358e-06,0.008033894,-0.039078936,-0.36391866,0.21068975,-9.442732,0.77545905,47.72002,-0.8425789,-1.7680882,-3.2168858,-0.49269316,0.101090655,-0.14084977,27.25,28.375,27.4375,31.0,32.75,33.5
0.09006139,-1.3257538,-1.154948,-0.39299133,-0.010292966,0.03879935,-0.15969862,-0.3747145,-0.3281584,0.059926815,3.0786762,-0.62502223,0.00025947942,-0.04413608,-0.00011142081,0.0032726221,-0.013494654,0.008754199,-0.005811894,0.4461429,-1.4679902,2.00647,-2.1077392,-1.5703224,2.4211347,-0.04529089,0.06282293,-0.07656512,-3.6155498e-07,0.008231506,-0.03943604,-0.4405331,0.24899697,-9.423578,0.7620334,47.685097,-0.7656933,-1.7910056,-3.2718916,-0.48376358,0.11024795,-0.16706279,27.25,28.375,27.4375,31.0,32.75,33.5
0.09205739,-1.8608118,-1.615587,-0.55925226,-0.011348313,0.031994015,-0.1518849,-0.37481233,-0.3281716,0.059954133,3.0786273,-0.6249923,0.00017916627,-0.045399677,-0.0009457206,0.003951595,-0.013976423,0.010434373,-0.004617181,0.44607112,-1.4678818,2.0062883,-2.1077392,-1.5703105,2.4210505,-0.044655822,0.064436145,-0.079900034,-2.3606956e-08,0.007938063,-0.039992426,-0.36391866,0.24899697,-9.308656,0.7553206,47.66091,-0.78836775,-1.8775401,-3.1549613,-0.48836488,0.084978536,-0.2040782,27.25,28.375,27.4375,31.0,32.75,33.5
0.09409532,-1.7694925,-1.2284479,-0.6116087,-0.02360839,0.038074158,-0.15574355,-0.37489572,-0.32817775,0.0599451,3.0785701,-0.62501884,0.0001985737,-0.044666775,-0.00036829835,0.0024992828,-0.012387902,0.0077052834,-0.004172965,0.445975,-1.4677373,2.006158,-2.1077745,-1.5702628,2.4209783,-0.044895105,0.066125825,-0.07843861,-1.5413656e-09,0.0076874965,-0.040676024,-0.36391866,0.30645782,-9.423578,0.800085,47.73077,-0.9238351,-1.8338997,-3.1494362,-0.48306942,0.11608066,-0.21428855,27.25,28.375,27.4375,31.0,32.75,33.5
0.09609963,-1.9443495,-1.2121162,-0.57248837,-0.023024967,0.032176215,-0.15574262,-0.37497383,-0.32815975,0.059932057,3.0785747,-0.6250789,0.00029699228,-0.04567977,0.00039263337,0.0017010967,-0.012308136,0.005999779,-0.006512004,0.44585413,-1.467581,2.0060027,-2.1077154,-1.5702385,2.4208944,-0.047671165,0.06859074,-0.07933067,-1.00640156e-10,0.008348126,-0.0411136,-0.36391866,0.24899697,-9.5385,0.83589023,47.71554,-0.8601961,-1.9072021,-3.3246217,-0.47889465,0.093858466,-0.22101003,27.25,28.375,27.4375,31.0,32.75,33.5
0.098101474,-1.8220814,-1.4566541,-0.3953468,-0.016027134,0.020837652,-0.14984745,-0.3750845,-0.32816598,0.059950095,3.0785222,-0.6250677,0.0002172054,-0.048733033,-0.0006425582,0.0035097753,-0.014332957,0.009845282,-0.005787674,0.44575778,-1.4674485,2.005821,-2.1077392,-1.5702266,2.4207978,-0.04857689,0.07048461,-0.08556606,-6.571083e-12,0.008507994,-0.04273929,-0.24899697,0.40222588,-9.404425,0.7933669,47.737934,-0.7839376,-1.8455315,-3.1282933,-0.46829242,0.10895254,-0.25244403,27.25,28.375,27.4375,31.0,32.75,33.5
0.100095406,-1.0377597,-0.79672194,-0.40412214,-0.01641999,0.027389806,-0.16079968,-0.37519962,-0.3281617,0.05996441,3.0784588,-0.62518746,0.00016963945,-0.047838226,0.00013295871,0.001691492,-0.012271341,0.0064593107,-0.0033520518,0.4456377,-1.467304,2.0056293,-2.1077392,-1.5702146,2.4207606,-0.048941113,0.0725802,-0.08371392,-4.290448e-13,0.0081151845,-0.045538984,-0.22984336,0.30645782,-9.404425,0.7709874,47.73077,-0.8667756,-1.9586649,-3.309049,-0.4823929,0.11245346,-0.2393803,27.25,28.375,27.4375,31.0,32.75,33.5
0.102053046,-1.1929199,-1.2106861,-0.5094577,0.0035708644,0.013869075,-0.15531072,-0.3752966,-0.32817623,0.05998736,3.0784454,-0.6251081,0.000110468405,-0.04979641,-0.00047353405,0.0027228845,-0.013682252,0.008568991,-0.0043716123,0.44557738,-1.4671717,2.0054257,-2.1077154,-1.5702146,2.4206526,-0.0497984,0.07398838,-0.0876347,-2.801356e-14,0.00847359,-0.045374274,-0.2681506,0.24899697,-9.385271,0.8247004,47.744205,-0.7999428,-1.9257326,-3.1697273,-0.47414458,0.113601446,-0.258796,27.25,28.375,27.4375,31.0,32.75,33.5
0.10405221,-1.2575684,-1.1342084,-0.279198,0.0063247676,0.0049782083,-0.15355638,-0.3753969,-0.3281823,0.059986334,3.0783615,-0.62512976,0.00010699868,-0.050418258,-0.00080293446,0.0024635354,-0.014159992,0.007918147,-0.004953038,0.44545737,-1.4670274,2.0052803,-2.107763,-1.5701541,2.4205568,-0.05020381,0.07600459,-0.08926825,-1.8290853e-15,0.009185478,-0.045197498,-0.1340753,0.17238252,-9.385271,0.7866488,47.70032,-0.8885926,-1.9370816,-3.18468,-0.45894027,0.094981596,-0.29133695,27.25,28.375,27.4375,31.0,32.75,33.5
0.106052116,-1.806518,-1.2879112,-0.47392794,0.01694402,-0.011574675,-0.14381577,-0.37548527,-0.32816663,0.059986547,3.0784087,-0.62508136,8.858942e-05,-0.051346887,-0.00065985357,0.0023445175,-0.013687712,0.008045413,-0.0039626504,0.445373,-1.466883,2.0051124,-2.1077268,-1.5701908,2.4204364,-0.05096954,0.07771484,-0.09088845,-1.194262e-16,0.008701833,-0.0469519,-0.1340753,0.21068975,-9.308657,0.82694155,47.713753,-0.8851348,-1.9260423,-3.1315608,-0.44794658,0.096054345,-0.31861755,27.25,28.375,27.4375,31.0,32.75,33.5
0.108051956,-0.7577364,-0.73654974,-0.21705309,0.0019281268,0.015313597,-0.1598415,-0.37561303,-0.3281578,0.059996072,3.0783615,-0.62516654,2.8446002e-05,-0.05192642,-0.0011712044,0.0027714837,-0.014185892,0.008972871,-0.0020293128,0.4452412,-1.4667151,2.0049088,-2.1077392,-1.5701908,2.420364,-0.05054484,0.078311585,-0.092535295,-7.797678e-18,0.008752835,-0.048459142,-0.11492168,0.15322891,-9.232041,0.784413,47.729877,-0.9708526,-1.9714681,-3.1055245,-0.4352839,0.10442436,-0.32814205,27.25,28.375,27.4375,31.0,32.75,33.5
0.11005192,-0.97069037,-0.99715793,-0.23715734,0.003585482,0.012774518,-0.15799734,-0.37570179,-0.3281685,0.05999232,3.0783443,-0.62510663,6.502486e-05,-0.053287156,-0.00075021683,0.0017089084,-0.013857794,0.0069159013,-0.0036206278,0.4451564,-1.4665462,2.0047286,-2.1077268,-1.5701541,2.420244,-0.052942052,0.08251447,-0.094739676,-5.0913267e-19,0.009339074,-0.049263842,-0.076614454,0.30645782,-9.251195,0.800085,47.746887,-0.95189774,-1.893825,-3.1324553,-0.4437288,0.118576504,-0.33932924,27.25,28.375,27.4375,31.0,32.75,33.5
0.11205174,-1.0924317,-0.65465665,-0.1869207,-0.007964744,0.007738256,-0.15958151,-0.37582016,-0.32817855,0.060009226,3.078262,-0.62520605,6.396637e-05,-0.05413139,-0.0013575184,0.0030498884,-0.015385647,0.0094734235,-0.0055354247,0.4450364,-1.4663788,2.0045002,-2.107703,-1.5701064,2.4201965,-0.052726876,0.08132736,-0.096517056,-3.3242725e-20,0.009616075,-0.04713303,-0.076614454,0.34476504,-9.32781,0.83589023,47.729877,-0.954787,-1.9169586,-3.162001,-0.4401155,0.10002801,-0.38882196,27.25,28.375,27.4375,31.0,32.75,33.5
0.1140523,-0.710814,-0.7525757,-0.2687448,-0.010204662,0.01659749,-0.16526383,-0.3759207,-0.32816955,0.059991285,3.078281,-0.62514997,7.8983605e-05,-0.05355774,-0.001854527,0.0022231177,-0.014005132,0.0082783075,-0.00242501,0.44492918,-1.4661864,2.0043323,-2.1077154,-1.5701069,2.420052,-0.05076848,0.0833199,-0.09683252,-2.1705124e-21,0.008884985,-0.048283804,-0.05746084,0.2873042,-9.385271,0.77545905,47.71554,-1.130615,-1.8128419,-3.1974463,-0.41013294,0.11138301,-0.4188962,27.25,28.375,27.4375,31.0,32.75,33.5
0.11605251,-1.0095714,-0.8995133,-0.38150835,-0.010235131,0.0071995063,-0.15596901,-0.37602752,-0.32817823,0.060009785,3.078202,-0.62519085,1.4865132e-07,-0.054703053,-0.0016353136,0.0011489738,-0.013578628,0.0062363567,-0.0016725749,0.44483253,-1.4660652,2.0041645,-2.1077507,-1.5700821,2.419991,-0.052527316,0.087509796,-0.09899426,-1.4171895e-22,0.009380129,-0.050792996,0.0,0.2681506,-9.346964,0.7284641,47.759426,-1.1319488,-2.1150622,-3.1225762,-0.4029081,0.129179,-0.42372286,27.25,28.375,27.4375,31.0,32.75,33.5
0.1180523,-0.98751307,-1.3420551,-0.47675776,0.003157574,0.0051682056,-0.15520208,-0.3761645,-0.32816717,0.0600256,3.078173,-0.625223,-4.380407e-05,-0.05490289,-0.0013964825,0.0011318271,-0.014423431,0.0052414327,-0.0008593732,0.4446882,-1.4658858,2.003925,-2.1077263,-1.5700816,2.4198706,-0.05393495,0.087602235,-0.09922451,0.00067063374,0.010576064,-0.0530149,-0.038307227,0.2681506,-9.232041,0.80456203,47.71554,-1.096923,-1.8396084,-3.236318,-0.41589558,0.09111227,-0.4282503,27.25,28.375,27.4375,31.0,32.75,33.5
0.12005214,-1.0930803,-0.8627448,-0.48449558,0.0008857693,-0.009184181,-0.15612379,-0.3762936,-0.32817978,0.06004338,3.0781233,-0.6251929,-9.537063e-05,-0.055679258,-0.0010694014,0.00040624014,-0.013271833,0.0041250084,-0.00017130327,0.44457993,-1.4657049,2.0036852,-2.1077263,-1.5700582,2.41975,-0.05484867,0.090425394,-0.10073054,0.00086185354,0.010018764,-0.05461424,-0.05746084,0.22984336,-9.32781,0.784413,47.72719,-1.0859076,-1.971122,-3.2311754,-0.4263994,0.104567245,-0.4635985,27.25,28.375,27.4375,31.0,32.75,33.5
0.12205198,-0.89193255,-1.0025648,-0.3012041,0.007401902,-0.007585418,-0.15162307,-0.37639153,-0.32818446,0.060025107,3.078115,-0.6251699,-5.7474423e-05,-0.0561958,-0.0015560573,0.00077877956,-0.0137356445,0.005015215,0.0034599386,0.44448414,-1.4655012,2.0035055,-2.1077387,-1.5700339,2.419641,-0.05440542,0.09097332,-0.102183804,0.000767794,0.010052983,-0.057801455,-0.095768064,0.24899697,-9.289503,0.83365434,47.734352,-1.2320194,-1.9685112,-3.278931,-0.40528205,0.117777206,-0.4517708,27.25,28.375,27.4375,31.0,32.75,33.5
0.12405178,-0.8518789,-0.85234654,-0.40592864,0.016207796,-0.00011900188,-0.1564392,-0.37651673,-0.32820573,0.06004043,3.0780597,-0.6250797,-0.00011333926,-0.05858742,-0.0016290868,0.0017332032,-0.014600672,0.007231419,0.005441655,0.44438738,-1.4653207,2.003277,-2.1077626,-1.5699981,2.419495,-0.056277927,0.092623115,-0.10620289,0.00076995906,0.009879699,-0.061652195,-0.076614454,0.30645782,-9.289502,0.83365434,47.685097,-1.2249216,-1.9993329,-3.2189083,-0.39483166,0.11153892,-0.44374746,27.25,28.375,27.4375,31.0,32.75,33.5
0.12605223,-1.5007513,-1.0014132,-0.4681466,0.022764584,-0.0041375943,-0.14377946,-0.37660852,-0.32820696,0.060033884,3.0780592,-0.6250592,-5.967502e-05,-0.057842873,-0.00074354646,0.00021221633,-0.0131680835,0.004249826,0.008137844,0.44429106,-1.4651407,2.0030854,-2.1077263,-1.5699743,2.4193861,-0.057245906,0.093957864,-0.10420093,0.0007456069,0.009873303,-0.0653176,0.019153614,0.24899697,-9.346964,0.8314132,47.711964,-1.208866,-2.0156965,-3.3313134,-0.38886386,0.102904156,-0.42196107,27.25,28.375,27.4375,31.0,32.75,33.5
0.12805194,-1.1698854,-0.5637992,-0.2240521,0.0019590799,0.0063504484,-0.15854226,-0.37673464,-0.3281969,0.060040638,3.0780404,-0.6250729,-9.0427406e-05,-0.059669733,-0.0011658218,0.0007180957,-0.014368294,0.00520933,0.011444561,0.44415858,-1.4649602,2.0028684,-2.107715,-1.5699738,2.4192648,-0.058520827,0.096167564,-0.10781683,0.0007711371,0.010542233,-0.06989722,-0.05746084,0.19153613,-9.32781,0.83589023,47.701214,-1.283762,-2.0096583,-3.3732748,-0.37717214,0.10415002,-0.39822197,27.25,28.375,27.4375,31.0,32.75,33.5
0.13005297,-1.8617545,-0.8162968,-0.26288214,0.00019273626,-0.0023434476,-0.15442204,-0.37686253,-0.32822415,0.060061708,3.0779908,-0.6249457,-0.00011765047,-0.05964626,-0.00059074257,-5.2691907e-05,-0.0135123255,0.0036209177,0.014705117,0.4440623,-1.4647683,2.0026057,-2.1077025,-1.5699257,2.4190955,-0.059497602,0.09736316,-0.10744074,0.0010087916,0.010460403,-0.07413401,-0.15322891,0.22984336,-9.270349,0.7486078,47.716442,-1.1855931,-1.8738708,-3.334311,-0.37601435,0.1056887,-0.34765244,27.25,28.375,27.4375,31.0,32.75,33.5
0.13205189,-1.6940031,-0.6611084,-0.55871975,-0.002299356,0.008944658,-0.1533527,-0.37694225,-0.32820645,0.060017016,3.0780652,-0.62484306,-4.0056344e-05,-0.060508225,9.5995354e-05,0.0004928307,-0.012784188,0.004275012,0.017354414,0.44396585,-1.4645528,2.002473,-2.1077144,-1.5699381,2.4189258,-0.060905665,0.097125456,-0.10873837,0.002272081,0.009519511,-0.07819085,-0.24899697,0.21068975,-9.3661175,0.8605109,47.711964,-1.2398372,-2.0191622,-3.3774586,-0.37606016,0.1027383,-0.29881123,27.25,28.375,27.4375,31.0,32.75,33.5
0.1340526,-1.9911858,-0.8171445,-0.5302974,0.0024770352,0.009372905,-0.15277602,-0.3771051,-0.3282159,0.060056735,3.0779865,-0.6248836,-0.00012046038,-0.060647387,0.00042565825,0.00025087417,-0.012395088,0.003108107,0.020280976,0.44382146,-1.4643608,2.0021622,-2.1076777,-1.5699142,2.4188168,-0.061723247,0.097889796,-0.10927123,0.0032665276,0.009680129,-0.08193425,-0.15322891,0.1340753,-9.346964,0.8403672,47.687782,-1.2438906,-1.7616259,-3.470149,-0.3799864,0.09595249,-0.24651693,27.25,28.375,27.4375,31.0,32.75,33.5
0.1360519,-1.3057195,-0.14957045,-0.25934318,-0.0014878181,0.022854317,-0.16894679,-0.37722832,-0.32821944,0.06005929,3.0779262,-0.624756,-0.00013911692,-0.06292333,-4.4725395e-05,0.0008342305,-0.013473635,0.004456298,0.021011593,0.44367713,-1.4641919,2.001981,-2.1077259,-1.5698541,2.4186006,-0.06311938,0.100733906,-0.113749884,0.0032268045,0.010073303,-0.0840577,-0.28730422,0.1340753,-9.3661175,0.800085,47.71554,-1.2624097,-2.0140224,-3.3521414,-0.38353845,0.108003125,-0.21046163,27.25,28.375,27.4375,31.0,32.75,33.5
0.13805167,-2.0309803,-0.3715379,-0.34647164,0.009885158,0.014536905,-0.15334563,-0.37732342,-0.3282093,0.06003886,3.07799,-0.62467235,-7.327837e-05,-0.062707394,0.0005656082,-0.00014460935,-0.01257963,0.002889539,0.021712255,0.44358087,-1.463976,2.0017788,-2.1076782,-1.5698661,2.4184442,-0.063956514,0.101820976,-0.11263817,0.0028283484,0.009936314,-0.085596405,-0.4405331,0.15322891,-9.308657,0.8179876,47.709274,-1.2337716,-1.8121086,-3.54595,-0.37547687,0.12226738,-0.17539766,27.25,28.375,27.4375,31.0,32.75,33.5
0.14005254,-2.0673585,-0.21090433,-0.47861424,0.0056995316,0.025975814,-0.16098613,-0.37746358,-0.32822508,0.060041606,3.0779476,-0.6245872,-9.967018e-05,-0.06524181,-2.8775767e-05,0.00076901366,-0.014260087,0.0052413694,0.01981458,0.4434604,-1.4637476,2.001526,-2.1077025,-1.5698298,2.418276,-0.06542213,0.10415228,-0.11717941,0.0021951562,0.010438879,-0.08516115,-0.34476504,0.17238252,-9.32781,0.78888994,47.682407,-1.3387737,-1.8495907,-3.3038135,-0.3750522,0.105975896,-0.161766,27.25,28.375,27.4375,31.0,32.75,33.5
0.14205235,-1.7972159,-0.45692107,-0.5967351,0.008338533,0.038198844,-0.1664146,-0.37760776,-0.32822743,0.060047694,3.0778923,-0.6245591,-9.9338424e-05,-0.06690974,0.00046004422,0.001238027,-0.014678022,0.0064219083,0.015625821,0.4433036,-1.4635317,2.0012739,-2.107702,-1.5697821,2.418109,-0.06770755,0.10499808,-0.119190365,0.0021194422,0.0103091225,-0.08325605,-0.34476507,0.11492168,-9.404425,0.83589023,47.684196,-1.233605,-1.7977058,-3.365189,-0.3524075,0.096290044,-0.13961661,27.25,28.375,27.4375,31.0,32.75,33.5
0.14405209,-2.1988413,-0.9343611,-0.6755034,0.007407648,0.0352789,-0.1591979,-0.37773952,-0.32821324,0.060066808,3.077896,-0.6244649,-0.00012991873,-0.068023965,0.00088421896,0.001169823,-0.013987105,0.006271864,0.014181099,0.4431591,-1.4633635,2.0010335,-2.1076543,-1.5697821,2.4179053,-0.06909149,0.10676554,-0.12114372,0.0027406726,0.00975027,-0.083193354,-0.51714754,0.19153613,-9.461885,0.85155696,47.70211,-1.248554,-1.606678,-3.362107,-0.35379,0.103723705,-0.14465123,27.25,28.375,27.4375,31.0,32.75,33.5
0.14605254,-2.3413432,-0.82713956,-0.8050445,-0.009196447,0.039051857,-0.15676847,-0.37786502,-0.32820043,0.060052596,3.0778751,-0.62452203,-0.00011681611,-0.068362206,0.001127288,0.00074066507,-0.013280671,0.004237693,0.006840577,0.44301483,-1.4631473,2.00083,-2.1076658,-1.5697702,2.4177995,-0.06997482,0.10877517,-0.12281291,0.004537622,0.009981863,-0.076735616,-0.68953013,0.17238252,-9.481039,0.8023209,47.73525,-1.2351217,-1.6814234,-3.352365,-0.3639618,0.11577201,-0.20328975,27.25,28.375,27.4375,31.0,32.75,33.5
0.1480525,-2.289961,-0.71270007,-0.45650917,-0.017123451,0.05307092,-0.15967181,-0.37803692,-0.32820305,0.06008148,3.0778666,-0.6244459,-0.00022839945,-0.06938395,0.0014036259,0.000656707,-0.012952288,0.0036685623,0.0021208837,0.4428824,-1.462919,2.0005062,-2.107641,-1.5697945,2.417621,-0.07133419,0.11065316,-0.12491873,0.0054176524,0.0099308165,-0.073373325,-0.6512228,0.22984336,-9.442732,0.8314132,47.71823,-1.2246057,-1.7245555,-3.313758,-0.37940204,0.10955399,-0.24447985,27.25,28.375,27.4375,31.0,32.75,33.5
0.15005253,-2.1156058,-1.3685313,-0.84707993,-0.008667115,0.063453235,-0.1624741,-0.3781788,-0.32818958,0.0600892,3.0778291,-0.62449515,-0.00022002867,-0.070436254,0.0013301893,0.00031268335,-0.013063036,0.0030877076,0.0020476372,0.442714,-1.4627143,2.0002544,-2.1076057,-1.5697702,2.417488,-0.07233485,0.11327796,-0.12704748,0.00540198,0.010278182,-0.07429926,-0.53630114,0.21068975,-9.634268,0.84708,47.713753,-1.1804607,-1.7038505,-3.2990403,-0.38058025,0.12236935,-0.24194217,27.25,28.375,27.4375,31.0,32.75,33.5
0.15205227,-2.4669092,-1.2448951,-0.67687845,-0.016732806,0.055741537,-0.16085678,-0.37830475,-0.3281836,0.060057577,3.0778224,-0.62443894,-0.00012900817,-0.07188176,0.0015120088,0.00065341336,-0.013722595,0.0044675893,-0.00218158,0.4425576,-1.4624507,2.0000384,-2.1076176,-1.5697216,2.4172976,-0.07392839,0.11417612,-0.12866393,0.0045940443,0.010274754,-0.07166271,-0.5554548,0.2681506,-9.653421,0.8247004,47.713753,-1.254236,-1.6629171,-3.3602633,-0.38024205,0.12835425,-0.30903786,27.25,28.375,27.4375,31.0,32.75,33.5
0.15405239,-2.7062871,-1.887544,-0.91560376,-0.0043981676,0.047902443,-0.1439565,-0.378443,-0.32818937,0.060051758,3.0777783,-0.6244293,-9.904498e-05,-0.07328529,0.0013619016,0.0003578782,-0.013705204,0.004667333,-0.001961384,0.4424132,-1.4622099,1.9997858,-2.1076176,-1.5696744,2.417153,-0.0747948,0.117167555,-0.13116914,0.0039409804,0.010169734,-0.07274706,-0.57460845,0.21068975,-9.5385,0.84484416,47.71554,-1.2398666,-1.8486934,-3.3668141,-0.38021332,0.11398017,-0.3221647,27.25,28.375,27.4375,31.0,32.75,33.5
0.15605241,-2.657179,-1.0826144,-0.8191899,-0.013867652,0.037265662,-0.15406606,-0.3785913,-0.32817397,0.06005984,3.0777867,-0.62441254,-0.00014998789,-0.07470164,0.0026567045,0.00018112804,-0.013221895,0.004502393,-0.00334577,0.4422681,-1.4619943,1.9995235,-2.1075938,-1.5696982,2.4169965,-0.07819736,0.118208244,-0.13196485,0.004054706,0.00980668,-0.0747642,-0.47884035,0.30645782,-9.461885,0.83813137,47.713753,-1.0276779,-1.7044497,-3.3310096,-0.37174347,0.13855593,-0.31499547,27.25,28.375,27.4375,31.0,32.8125,33.5
0.15805224,-1.8528404,-0.86574554,-0.6712765,-0.008413928,0.043212596,-0.1633861,-0.37877095,-0.3281786,0.060075626,3.0777214,-0.62441796,-0.00021692824,-0.07521903,0.0018951684,0.0006099102,-0.014086801,0.0047789835,-0.0027282443,0.4421003,-1.4617423,1.9992117,-2.1076057,-1.5696739,2.4168406,-0.077637665,0.119207986,-0.13422582,0.0046970793,0.010473768,-0.07482054,-0.51714754,0.2681506,-9.442732,0.7642693,47.70659,-1.2057718,-1.7840773,-3.33784,-0.3810512,0.14368206,-0.3397863,27.3125,28.375,27.4375,31.0,32.8125,33.5
0.16005212,-1.9159185,-0.57607,-0.51419896,-0.004893713,0.02700414,-0.1625913,-0.3789211,-0.3281746,0.060093556,3.0776927,-0.62439454,-0.00031707823,-0.07688863,0.0030286817,-1.62865e-05,-0.013146191,0.0042881537,-0.00659416,0.44196728,-1.4615496,1.9989604,-2.1076176,-1.5696863,2.4166968,-0.08077773,0.121872716,-0.13567607,0.004330811,0.009835552,-0.07409226,-0.5554548,0.22984336,-9.423578,0.8023209,47.739727,-1.0962944,-1.7307564,-3.3051486,-0.3697809,0.15340607,-0.36909866,27.3125,28.375,27.4375,31.0,32.8125,33.5
0.16205204,-1.9565055,-0.60569316,-0.44385636,0.011884441,0.014890484,-0.1596084,-0.37906817,-0.3281782,0.060080096,3.077661,-0.6243871,-0.00025814006,-0.07888092,0.0027272436,0.00045719274,-0.014204617,0.005656265,-0.004966526,0.44181064,-1.4612736,1.9986833,-2.1076062,-1.5696381,2.4165397,-0.082193315,0.12411588,-0.13917448,0.0039033047,0.01020228,-0.07713338,-0.36391866,0.21068975,-9.3661175,0.8179876,47.71286,-0.91712236,-1.7985585,-3.3104715,-0.35026893,0.16670686,-0.35601526,27.3125,28.375,27.4375,31.0,32.8125,33.5
0.16405274,-1.7944754,-0.2255329,-0.18037064,0.0077029713,0.008885,-0.16058172,-0.37924773,-0.328187,0.06010669,3.0775578,-0.6244631,-0.00034112157,-0.078655764,0.002754494,-0.0007598323,-0.01394236,0.0031879311,-0.006522553,0.4416426,-1.461045,1.9983724,-2.1076176,-1.5696014,2.4164324,-0.082550764,0.12652282,-0.13902855,0.0036945639,0.011027984,-0.07593398,-0.30645782,0.11492168,-9.3661175,0.7911258,47.678825,-1.0997659,-1.8348082,-3.3481464,-0.3527031,0.14004064,-0.40693432,27.3125,28.375,27.4375,31.0,32.8125,33.5
0.16605271,-1.0790724,-0.30943593,-0.28022164,0.0076836143,0.022121264,-0.16187902,-0.37942535,-0.32817036,0.060120657,3.0775423,-0.62443906,-0.00041417254,-0.08091834,0.002841204,0.00059305126,-0.015598404,0.006122823,-0.005177997,0.44146183,-1.4608055,1.998073,-2.1076066,-1.5696138,2.4162388,-0.08483873,0.12653928,-0.14210308,0.0033951213,0.011273043,-0.07956428,-0.30645782,0.019153614,-9.32781,0.78217715,47.72271,-0.9108516,-1.7859898,-3.2659035,-0.33318484,0.15987292,-0.38229567,27.3125,28.375,27.4375,31.0,32.8125,33.5
0.1680526,-1.3449839,-0.17908406,-0.1947297,0.013266692,0.011989738,-0.15530708,-0.37956905,-0.32816607,0.06007908,3.0775325,-0.62447304,-0.00029134913,-0.08285747,0.0026090273,0.000100288744,-0.01569974,0.0052894917,-0.0010922487,0.44129336,-1.4604803,1.9978083,-2.1076062,-1.5695652,2.4160929,-0.086382784,0.13125929,-0.14627805,0.0035699664,0.011714628,-0.08519197,-0.095768064,0.019153614,-9.251195,0.82022345,47.71465,-0.9097358,-2.0227478,-3.1918733,-0.33195987,0.16263452,-0.35849884,27.3125,28.375,27.4375,31.0,32.8125,33.5
0.17005286,-1.5694337,-0.21219537,-0.41325015,0.017476058,0.0086305505,-0.15827212,-0.37974888,-0.32815513,0.06010362,3.0774674,-0.62443924,-0.00034509998,-0.08148034,0.0035108998,-0.0024349028,-0.013381371,-0.00025968105,0.0005498668,0.44108924,-1.4602638,1.9975098,-2.1075938,-1.5695294,2.4158762,-0.086986326,0.1343519,-0.14409316,0.004307023,0.012004102,-0.087437995,-0.22984336,0.076614454,-9.270349,0.8179876,47.728977,-0.93516827,-1.831912,-3.3024101,-0.32757205,0.16219158,-0.34441042,27.3125,28.375,27.4375,31.0,32.8125,33.5
0.17205305,-1.352956,-0.16125895,-0.27052185,0.014234032,0.020427164,-0.15877154,-0.3799369,-0.32813454,0.060109094,3.0774345,-0.6245283,-0.00037412444,-0.08347808,0.0045439866,-0.0016487966,-0.0136241615,0.00064630364,0.0024662842,0.44088385,-1.4599881,1.9971865,-2.1075695,-1.5695294,2.4157307,-0.09052365,0.13475077,-0.14665513,0.0055557606,0.011843271,-0.09289028,-0.2681506,0.1340753,-9.270349,0.800085,47.72808,-0.7126626,-2.0189755,-3.162672,-0.33928722,0.16832723,-0.28545427,27.3125,28.375,27.4375,31.0,32.8125,33.5
0.17405267,-1.8296047,-0.4331422,-0.31528467,0.013281217,0.018106433,-0.15702254,-0.38008228,-0.32813552,0.060102344,3.0774357,-0.62438875,-0.00036559606,-0.083511576,0.0040294644,-0.0021570902,-0.013543309,-0.0007938836,0.008865979,0.44074035,-1.459736,1.9969229,-2.1075695,-1.5695051,2.4155002,-0.089918874,0.13694617,-0.14808826,0.006138543,0.012390897,-0.09868435,-0.3256114,0.15322891,-9.270349,0.84708,47.711964,-0.80699295,-1.9148192,-3.3198195,-0.34555328,0.17783217,-0.22172311,27.3125,28.375,27.4375,31.0,32.8125,33.5
0.17605326,-1.8254018,-0.7129474,-0.25184733,0.0075579416,0.026491733,-0.15958053,-0.38026252,-0.32811743,0.060122453,3.0774221,-0.62434864,-0.00040911665,-0.08582774,0.0055775256,-0.0018906139,-0.013379006,5.073759e-06,0.008494374,0.44054675,-1.459496,1.9966,-2.1075213,-1.5695051,2.4152834,-0.094481185,0.13803871,-0.14997347,0.0062871403,0.011906844,-0.1028733,-0.34476504,0.2681506,-9.174581,0.8224646,47.69763,-0.70628655,-1.9221857,-3.3409653,-0.3562528,0.17134647,-0.17132595,27.3125,28.375,27.4375,31.0,32.8125,33.5
0.17805256,-2.0362525,-0.780421,-0.12735179,-0.0012078788,0.022292532,-0.15718883,-0.38042983,-0.32813102,0.06010214,3.0774024,-0.62428355,-0.00035080395,-0.085505344,0.0039468,-0.001356258,-0.014343147,0.0007740506,0.014894541,0.4403918,-1.4591603,1.9962748,-2.1075213,-1.5694574,2.4150906,-0.09146836,0.13847506,-0.15178782,0.006567045,0.01245138,-0.10626005,-0.34476504,0.2681506,-9.289503,0.80456203,47.701214,-0.88534224,-1.8520315,-3.353673,-0.33970755,0.18895014,-0.11767173,27.3125,28.375,27.4375,31.0,32.8125,33.5
0.18005288,-2.225269,-0.65265644,-0.17847155,-0.0067321765,0.016507251,-0.15198725,-0.38061357,-0.32810432,0.060100894,3.0773907,-0.6242819,-0.00040573912,-0.08688558,0.0040333713,-0.00073343824,-0.014997891,0.002140408,0.013225771,0.44018728,-1.4588966,1.9959882,-2.1075332,-1.5694693,2.4148867,-0.092801824,0.13905616,-0.15389459,0.006578602,0.012461726,-0.105923094,-0.34476504,0.15322891,-9.270349,0.83589023,47.67345,-0.82297283,-1.8478041,-3.273362,-0.32891643,0.19879603,-0.06770549,27.3125,28.375,27.4375,31.0,32.8125,33.5
0.18205325,-1.5152668,-0.550822,-0.16600406,-0.0061441064,0.024799846,-0.16177444,-0.3807617,-0.32808706,0.060076796,3.0773897,-0.6242251,-0.00027173894,-0.08710851,0.0037142688,-0.0012819109,-0.015295569,0.00093850296,0.011130919,0.43998337,-1.4586085,1.9957131,-2.107485,-1.5694088,2.4146476,-0.092870496,0.14107439,-0.15490432,0.0065347236,0.0132337585,-0.10389717,-0.3256114,0.19153613,-9.270349,0.78217715,47.66271,-0.9296684,-1.78545,-3.3579912,-0.35290375,0.2022582,-0.070342004,27.3125,28.375,27.4375,31.0,32.8125,33.5
0.18405288,-1.7392279,-0.77779645,-0.261427,0.007893084,0.0051592416,-0.15265943,-0.38096246,-0.32810074,0.060109604,3.0773067,-0.6241714,-0.0004014063,-0.088039845,0.0032039376,-0.0003647687,-0.016544193,0.0027506526,0.008351688,0.43981537,-1.4583572,1.995365,-2.1075094,-1.5693849,2.4144568,-0.092927,0.14092346,-0.15685129,0.0064616697,0.013598257,-0.101171926,-0.24899697,0.2681506,-9.289502,0.8179876,47.66271,-0.90240943,-1.7298026,-3.3704724,-0.34032762,0.20762442,-0.09348722,27.3125,28.375,27.4375,31.0,32.8125,33.5
0.18605193,-1.2480317,-0.5846007,-0.36986393,0.007280968,0.008391682,-0.15600275,-0.38112962,-0.32808146,0.060096677,3.0773354,-0.6241599,-0.00031374968,-0.08890117,0.0028478636,-0.00043310883,-0.016690971,0.0027296336,0.0042436197,0.43962333,-1.4580446,1.9950289,-2.1074255,-1.5693725,2.4142542,-0.09305746,0.14301077,-0.1590724,0.0065508797,0.013726754,-0.09719369,-0.15322891,0.2681506,-9.174581,0.80456203,47.677036,-0.9587026,-1.9390177,-3.440411,-0.34933996,0.20598973,-0.11275889,27.3125,28.375,27.4375,31.0,32.8125,33.5
0.18805173,-1.420964,-0.9904473,-0.5567359,0.012171362,0.0018183003,-0.15010737,-0.3813241,-0.32807934,0.060097784,3.0772705,-0.6241673,-0.00038051524,-0.088507295,0.0028683033,-0.001858641,-0.015144747,0.00022133825,0.0013585947,0.43943164,-1.4577565,1.994718,-2.1074736,-1.5693487,2.4140756,-0.092471205,0.14597538,-0.15914707,0.006590852,0.013399036,-0.093720935,-0.076614454,0.22984336,-9.346964,0.86945957,47.672558,-1.077952,-1.7072189,-3.3565927,-0.3341403,0.21069683,-0.1661366,27.3125,28.375,27.4375,31.0,32.8125,33.5
0.19005267,-1.1093382,-1.0030696,-0.64418113,0.0029096778,-0.0020347375,-0.15259153,-0.38151294,-0.3280699,0.06009777,3.077247,-0.6241642,-0.00039823714,-0.09020578,0.0024295202,-0.00011846019,-0.016781025,0.0038313663,-0.0023228335,0.43923935,-1.4574573,1.9943832,-2.1074612,-1.5693368,2.4138846,-0.09305109,0.14499879,-0.16207308,0.006530561,0.013338108,-0.09061763,-0.076614454,0.24899697,-9.404425,0.86945957,47.686886,-1.0462908,-1.6824995,-3.2440314,-0.33319175,0.24979,-0.20322436,27.3125,28.375,27.4375,31.0,32.8125,33.5
0.19205202,-0.71940744,-0.83484167,-0.71186787,-0.012798009,0.001681121,-0.15984352,-0.3816978,-0.32805213,0.06008738,3.07719,-0.62424934,-0.0003526677,-0.091353424,0.0025181484,-4.3007025e-05,-0.016860694,0.0036911233,-0.0042999675,0.43901098,-1.4571573,1.9940714,-2.1074493,-1.5692886,2.4137168,-0.094252266,0.14681727,-0.16445719,0.0071953475,0.013467692,-0.08984033,0.019153614,0.24899697,-9.500193,0.88289046,47.691364,-1.0319034,-1.7224741,-3.3671038,-0.3464819,0.2343456,-0.2452147,27.3125,28.375,27.4375,31.0,32.8125,33.5
0.19405347,-1.1106007,-1.336705,-0.9301873,-0.007184548,-0.018363854,-0.14881968,-0.3818575,-0.32805637,0.06007596,3.0771723,-0.6242285,-0.00030426309,-0.092306234,0.003001097,-5.743794e-05,-0.016208697,0.0034654958,-0.007417655,0.43885446,-1.4568573,1.993759,-2.107425,-1.5692533,2.4135497,-0.09560846,0.14816484,-0.16615368,0.008030455,0.012970054,-0.088078,0.076614454,0.2681506,-9.5385,0.8403672,47.70211,-1.0815656,-1.6992865,-3.3358889,-0.3465501,0.2642637,-0.28590608,27.3125,28.375,27.4375,31.0,32.8125,33.5
0.19605243,-0.2774452,-1.0533739,-1.0358211,-0.011714321,-0.011147428,-0.1618335,-0.38204157,-0.32804915,0.060071133,3.0771134,-0.6243137,-0.0002298349,-0.0927994,0.002945365,-0.0016119434,-0.015576877,0.00058728154,-0.009629627,0.4386384,-1.4565445,1.9934119,-2.1073768,-1.5691928,2.4133945,-0.0963099,0.15273553,-0.16767627,0.007860287,0.013615927,-0.0865663,0.076614454,0.2681506,-9.576807,0.8806493,47.705692,-1.041439,-1.5907427,-3.3226752,-0.33391875,0.26026964,-0.33669454,27.3125,28.375,27.4375,31.0,32.8125,33.5
0.1980518,-0.62538475,-1.2290031,-1.0602198,-0.012173908,-0.018109856,-0.14783493,-0.3822313,-0.32803342,0.06007355,3.0771139,-0.62429297,-0.00029905912,-0.09456422,0.0026083628,0.0003064712,-0.017398028,0.0044514574,-0.008542152,0.43845803,-1.4562575,1.9930876,-2.1073768,-1.5692166,2.4132013,-0.09718012,0.15129866,-0.17051274,0.007864853,0.013625136,-0.0885222,0.076614454,0.30645782,-9.576807,0.85155696,47.68599,-1.0375273,-1.5755032,-3.4150195,-0.34102786,0.27498946,-0.35102084,27.3125,28.375,27.4375,31.0,32.8125,33.5
0.20005175,-0.67357355,-1.4684418,-1.2678974,-0.012892721,-0.0090973,-0.15510993,-0.38242602,-0.32803315,0.06007828,3.0771084,-0.6242367,-0.00029988054,-0.09471102,0.0021159507,-0.0006898663,-0.018087287,0.0020832776,-0.012108261,0.4382779,-1.4559327,1.9927052,-2.1073291,-1.5692042,2.412987,-0.09741769,0.15438223,-0.17169023,0.007803937,0.015250428,-0.085192844,0.11492168,0.30645782,-9.672575,0.8717007,47.672558,-1.067759,-1.7866061,-3.398282,-0.3306536,0.27886856,-0.44224977,27.3125,28.375,27.4375,31.0,32.8125,33.5
0.20205165,-1.5694082,-1.5948626,-1.5253719,-0.018004589,-0.025836825,-0.146218,-0.38261148,-0.3280065,0.060060967,3.0770168,-0.62441045,-0.00025642393,-0.09595139,0.003241933,-0.0018842715,-0.017553985,-0.0005814674,-0.014402231,0.43802485,-1.4556445,1.9924301,-2.107353,-1.5691437,2.4128542,-0.100969814,0.15788229,-0.17299128,0.008252831,0.015900822,-0.08644991,0.076614454,0.30645782,-9.825804,0.8940802,47.685097,-1.0350727,-1.8311064,-3.392774,-0.35589495,0.2765941,-0.46424326,27.3125,28.375,27.4375,31.0,32.8125,33.5
0.2040524,-1.2241784,-1.9156352,-1.3498085,-0.030007461,0.0048906635,-0.15300016,-0.38278988,-0.32802454,0.060068104,3.07702,-0.62427324,-0.00027473265,-0.09584024,0.0018021651,-0.0024080614,-0.0175926,-0.0016386352,-0.008904264,0.4378937,-1.4553318,1.9920582,-2.1073172,-1.5691317,2.4126372,-0.09846468,0.16099809,-0.17534481,0.008437268,0.016386153,-0.08944081,0.038307227,0.3256114,-9.787497,0.8605109,47.709274,-1.156405,-1.8793702,-3.3730474,-0.36383778,0.27283671,-0.48896664,27.3125,28.375,27.4375,31.0,32.8125,33.5
0.20605242,-1.606355,-1.8578277,-1.0805961,-0.041863255,0.008906573,-0.15617952,-0.38298956,-0.32801053,0.0600754,3.0769808,-0.6243016,-0.00028031494,-0.09694786,0.0033629867,-0.0033775824,-0.016623048,-0.004094066,-0.006039603,0.43767646,-1.4550318,1.9916996,-2.107281,-1.5691079,2.412443,-0.10238995,0.16341351,-0.17607997,0.009406826,0.016561303,-0.09622998,0.0,0.40222588,-9.787497,0.83589023,47.723602,-1.1009699,-1.9644597,-3.4891434,-0.36357906,0.2975389,-0.46649328,27.3125,28.375,27.4375,31.0,32.8125,33.5
0.20805229,-1.7030559,-1.3649246,-0.9891249,-0.043188285,0.021841645,-0.15982074,-0.38316932,-0.32803124,0.060071193,3.076943,-0.6241941,-0.00021300944,-0.09749031,0.0019259566,-0.002796792,-0.017675797,-0.002417436,0.0003691302,0.43750924,-1.4546958,1.9913276,-2.1072452,-1.5690359,2.4122136,-0.10029361,0.16455646,-0.17860019,0.008834764,0.016803917,-0.10054079,-0.05746084,0.38307226,-9.749189,0.88960326,47.705692,-1.1575431,-1.9329522,-3.4200354,-0.37005636,0.28185168,-0.42565262,27.3125,28.375,27.4375,31.0,32.8125,33.5
0.2100518,-1.4272727,-1.4001566,-1.0397747,-0.026516225,0.030204918,-0.15958868,-0.38336068,-0.3280333,0.060053963,3.0768998,-0.6241614,-0.00015559031,-0.09901288,0.0014305632,-0.0021959415,-0.01933847,-0.0008164168,0.008319116,0.43730485,-1.4543478,1.99098,-2.1072452,-1.5689753,2.4119945,-0.101194106,0.16575696,-0.18119419,0.008094253,0.017637223,-0.10938973,-0.038307227,0.40222588,-9.615114,0.84708,47.716442,-1.1906903,-1.9307885,-3.5253568,-0.3631689,0.29244822,-0.36839542,27.3125,28.375,27.4375,31.0,32.8125,33.5
0.21205173,-1.955983,-1.5194414,-0.84229964,-0.01932455,0.018570995,-0.14777966,-0.38358772,-0.3280066,0.06006649,3.0768633,-0.624171,-0.00025757914,-0.09973357,0.0017210613,-0.0028727471,-0.019451592,-0.0018542384,0.012432101,0.43706432,-1.4540478,1.9906205,-2.1072576,-1.5689873,2.4117649,-0.10265878,0.16791815,-0.18199192,0.0076329177,0.018193446,-0.114965394,-0.17238252,0.34476504,-9.500193,0.8179876,47.694946,-1.1551127,-1.8223586,-3.3937697,-0.365139,0.28409845,-0.284571,27.3125,28.375,27.4375,31.0,32.8125,33.5
0.21405268,-1.888251,-1.018414,-0.82231057,-0.016309006,0.014206129,-0.15265238,-0.38378525,-0.32801518,0.060070883,3.0768425,-0.62401193,-0.000270581,-0.10261968,0.0018609447,-0.00065314997,-0.022421854,0.0030067794,0.013871754,0.43688327,-1.4537251,1.9902486,-2.1072457,-1.568951,2.4114873,-0.10579749,0.16640082,-0.1852248,0.006734468,0.018830791,-0.11954145,-0.24899697,0.3256114,-9.404425,0.8157518,47.703007,-1.1600903,-1.7699438,-3.3595781,-0.34468716,0.26472285,-0.2367852,27.3125,28.375,27.4375,31.0,32.8125,33.5
0.2160519,-1.6125624,-0.9776539,-0.7706929,-0.012460059,0.027316777,-0.14718278,-0.383993,-0.3280124,0.060076028,3.076753,-0.6240676,-0.00027397505,-0.10226734,0.00035342245,-0.0010348125,-0.022690902,0.0027583789,0.01915549,0.43665642,-1.4534129,1.9898895,-2.1072462,-1.5688909,2.4113069,-0.10284998,0.16855912,-0.18666756,0.006144396,0.019186955,-0.12187563,-0.38307226,0.30645782,-9.404425,0.88960326,47.7254,-1.3084406,-1.8317769,-3.4140592,-0.3263048,0.27849776,-0.1830393,27.3125,28.375,27.4375,31.0,32.8125,33.5
0.21805218,-1.7861537,-1.3111374,-0.7173017,-0.010209568,0.044869214,-0.15550739,-0.38418144,-0.32802266,0.060064495,3.076761,-0.62391895,-0.00022300053,-0.10441101,0.0022959565,-0.0015596893,-0.021921055,0.0018495844,0.013124553,0.43648657,-1.4530528,1.9895066,-2.10721,-1.5688547,2.4110434,-0.10805606,0.17084229,-0.18814936,0.0064996164,0.018870302,-0.12105005,-0.45968673,0.28730422,-9.423578,0.88960326,47.709274,-1.2317739,-1.8111638,-3.4451983,-0.32492596,0.29640085,-0.16224283,27.3125,28.375,27.4375,31.0,32.8125,33.5
0.22005208,-1.7816011,-0.43517634,-0.55828065,-0.018507931,0.057209432,-0.15824242,-0.3843985,-0.32801303,0.060055956,3.0767272,-0.62385446,-0.00019374066,-0.10373483,0.0010949369,-0.001163404,-0.02308974,0.0020072595,0.012579938,0.43624738,-1.4526933,1.9891232,-2.107198,-1.568807,2.4107685,-0.10581409,0.17038238,-0.18868268,0.0068580997,0.0198626,-0.118263274,-0.51714754,0.17238252,-9.423578,0.91198283,47.716442,-1.2172405,-1.763628,-3.391715,-0.3316465,0.27843088,-0.177634,27.3125,28.375,27.4375,31.0,32.8125,33.5
0.22205244,-1.9851245,-0.38700488,-0.21127513,0.002562013,0.055792183,-0.15914206,-0.38460782,-0.3280335,0.06008135,3.076617,-0.62385535,-0.0002296358,-0.10554348,0.0013781436,-0.00049447746,-0.024046702,0.0025416801,0.0054260194,0.43605453,-1.4523933,1.9887279,-2.1071851,-1.5687345,2.4105904,-0.10826937,0.17160927,-0.19187172,0.0079333335,0.020504694,-0.113561384,-0.63206923,0.095768064,-9.385271,0.92093146,47.744205,-1.2020721,-1.7579243,-3.4758658,-0.3298846,0.28281495,-0.21456547,27.3125,28.375,27.4375,31.0,32.8125,33.5
0.22405243,-1.9233065,0.18406688,-0.16560654,0.020229656,0.05714513,-0.16067077,-0.38482958,-0.3280186,0.060059544,3.0765986,-0.6238551,-0.00023507724,-0.10776193,0.0018422086,-6.2448635e-05,-0.02476709,0.0041451477,-0.0013340958,0.43582556,-1.4520097,1.988356,-2.10721,-1.5687226,2.410364,-0.11096004,0.17321704,-0.19455954,0.007254555,0.020471578,-0.10948987,-0.59376204,0.05746084,-9.155427,0.8314132,47.695843,-1.122359,-1.7244155,-3.4268765,-0.31026193,0.26722002,-0.27640098,27.3125,28.375,27.4375,31.0,32.8125,33.5
0.22605278,-2.522982,0.46477553,0.04385439,0.04632008,0.03644584,-0.15153375,-0.3850604,-0.3280253,0.06008675,3.0764976,-0.62389284,-0.00026977554,-0.10928731,0.0019899174,0.000507864,-0.02579799,0.0060803243,-0.0039204974,0.43559697,-1.4516864,1.9879254,-2.1071746,-1.5686625,2.410172,-0.11255534,0.173634,-0.19614857,0.0062462534,0.020593438,-0.10849622,-0.49799395,-0.11492168,-9.232041,0.88289046,47.70032,-1.0650992,-1.5621859,-3.3582397,-0.3023117,0.27534315,-0.32646656,27.3125,28.375,27.4375,31.0,32.8125,33.5
0.22805259,-1.8863729,0.5983813,-0.13828118,0.060818337,0.046557255,-0.16245103,-0.38530084,-0.3280085,0.06009553,3.0764732,-0.6238303,-0.00034590357,-0.11119285,0.0022639285,0.00079684594,-0.026422607,0.006946648,-0.005723605,0.4353565,-1.4513383,1.9875172,-2.1071746,-1.5686625,2.409896,-0.114768125,0.17555033,-0.19897173,0.0061092554,0.020799194,-0.10890285,-0.57460845,-0.1340753,-9.270349,0.88960326,47.70032,-1.0060846,-1.5762224,-3.3798919,-0.28961307,0.26357588,-0.33590293,27.3125,28.375,27.4375,31.0,32.8125,33.5
0.23005241,-1.8530276,0.97578603,-0.24424104,0.061377145,0.044103645,-0.15293276,-0.3855271,-0.32803014,0.06008615,3.076349,-0.62382555,-0.00031925415,-0.11286364,0.00234987,0.0015891485,-0.02703686,0.008511818,-0.007565865,0.43512794,-1.4509544,1.9871215,-2.1072218,-1.5685543,2.4096804,-0.11622359,0.17636022,-0.20184006,0.0065057054,0.020700887,-0.10851341,-0.57460845,-0.21068975,-9.232041,0.8247004,47.693153,-0.934785,-1.485871,-3.3506846,-0.27526054,0.2698106,-0.35119152,27.3125,28.375,27.4375,31.0,32.8125,33.5
0.23205239,-1.6746345,0.5903843,-0.2998662,0.06824779,0.04944915,-0.15663344,-0.3857268,-0.32800877,0.060092747,3.0763233,-0.6238972,-0.00028008097,-0.11404206,0.0028698635,0.0016185566,-0.025984103,0.007603841,-0.008327,0.43489924,-1.4506425,1.986739,-2.1071374,-1.5685309,2.4095,-0.117752925,0.17849082,-0.20482662,0.008639673,0.020131294,-0.109280705,-0.57460845,-0.17238252,-9.308656,0.8537928,47.694054,-0.87193143,-1.4825566,-3.2163157,-0.28380758,0.28789273,-0.37966496,27.3125,28.375,27.4375,31.0,32.8125,33.5
0.23405251,-1.7805684,0.15336566,-0.60796446,0.051942345,0.053648863,-0.16060951,-0.3859499,-0.32799911,0.06006939,3.0762932,-0.62387174,-0.00019241551,-0.11412702,0.0029253226,0.00015702916,-0.024552613,0.004375801,-0.009006387,0.4346474,-1.4502338,1.9863309,-2.1071131,-1.5684704,2.4092362,-0.11788042,0.18255475,-0.2063119,0.009602149,0.020192003,-0.108728245,-0.59376204,-0.19153613,-9.385271,0.8605109,47.681515,-0.85814697,-1.6297649,-3.2935889,-0.2913371,0.27217114,-0.39084262,27.3125,28.375,27.4375,31.0,32.8125,33.5
0.23605251,-2.1772776,-0.23940489,-0.51736045,0.02658604,0.056979038,-0.15488945,-0.38618672,-0.32799113,0.060082283,3.076268,-0.62388176,-0.00030375074,-0.11454439,0.0030750518,-0.0012436897,-0.022989351,0.001780287,-0.0031448617,0.4344433,-1.4498852,1.9859122,-2.1071131,-1.5684947,2.409042,-0.118231975,0.18675625,-0.2079737,0.010090355,0.019885398,-0.114938706,-0.57460845,-0.05746084,-9.404425,0.8672237,47.68599,-0.9191927,-1.6948538,-3.3625717,-0.29500267,0.28708658,-0.40632254,27.3125,28.375,27.4375,31.0,32.8125,33.5
0.23805253,-2.1856062,-0.8223691,-0.72904,0.00916718,0.06461352,-0.15689409,-0.3863937,-0.3279647,0.06006456,3.0762491,-0.62393403,-0.00022553619,-0.11560657,0.0028954342,-0.00047714668,-0.022892104,0.0032243368,0.0010992793,0.4341911,-1.4495258,1.9855403,-2.107065,-1.5684589,2.408825,-0.118271366,0.18729843,-0.21058513,0.010911194,0.019192036,-0.11922196,-0.45968673,0.13407528,-9.385271,0.8985519,47.66539,-0.9972498,-1.7148075,-3.3270483,-0.30322063,0.3021636,-0.37231416,27.3125,28.375,27.4375,31.0,32.8125,33.5
0.24005236,-2.2438717,-0.9815336,-0.80845547,-0.020262264,0.06927443,-0.15496586,-0.38661566,-0.32796422,0.06006562,3.0762038,-0.6238643,-0.0001580768,-0.11776216,0.003577682,0.00012647465,-0.02360744,0.0041489494,0.0045352057,0.4339502,-1.4491539,1.9851087,-2.107005,-1.5683869,2.4085464,-0.12148725,0.18857738,-0.21360247,0.011536683,0.019461619,-0.1258722,-0.51714754,0.30645782,-9.404425,0.91198283,47.684196,-0.9648708,-1.7586895,-3.1044898,-0.32608497,0.30307293,-0.29886043,27.3125,28.375,27.4375,31.0,32.8125,33.5
0.24205257,-2.0543072,-1.650197,-0.87829036,-0.025111694,0.06016041,-0.15459137,-0.38687134,-0.32794198,0.06007773,3.0762305,-0.623768,-0.00023699355,-0.11695054,0.0020268532,-0.0001435717,-0.023265362,0.0036348356,0.014752688,0.4337115,-1.44877,1.984641,-2.1069567,-1.5684227,2.4082446,-0.11776434,0.19022116,-0.21497175,0.011886888,0.019384261,-0.13236535,-0.36391866,0.36391866,-9.423578,0.87393653,47.691364,-1.1608332,-1.735065,-3.2512429,-0.32035908,0.3007839,-0.20193535,27.3125,28.375,27.4375,31.0,32.8125,33.5
0.24405245,-1.3936335,-2.0529647,-1.0786239,-0.035357025,0.04534695,-0.15455851,-0.38713068,-0.32791495,0.06007065,3.076156,-0.6238681,-0.00028752023,-0.117802076,0.0045389947,-0.002025241,-0.021073442,0.00053234753,0.014050261,0.43342176,-1.4483855,1.9842356,-2.106993,-1.5683993,2.4080272,-0.12260635,0.19281544,-0.21359152,0.011668779,0.018719213,-0.13650456,-0.28730422,0.40222588,-9.5385,0.87393653,47.683304,-0.92619026,-1.8406258,-3.4444675,-0.31540552,0.32552823,-0.12558515,27.3125,28.375,27.4375,31.0,32.8125,33.5
0.24605271,-1.5132715,-2.6149192,-0.8715918,-0.04994779,0.01745795,-0.14884904,-0.3873647,-0.32790792,0.06008063,3.076139,-0.6237659,-0.0002678578,-0.11846561,0.0037085197,-0.002228286,-0.02155758,0.0009064057,0.017174825,0.4331823,-1.4480138,1.9837807,-2.106921,-1.5683626,2.4077263,-0.12173455,0.19512935,-0.21558869,0.010822858,0.019003214,-0.13875552,-0.24899697,0.4213795,-9.519346,0.9612189,47.692257,-1.0409074,-1.7392623,-3.4112368,-0.3156193,0.33637047,-0.11230691,27.3125,28.375,27.4375,31.0,32.8125,33.5
0.24805275,-1.199141,-2.7461815,-1.1332774,-0.040748585,-0.0017958477,-0.13894503,-0.3875953,-0.32789406,0.060065757,3.0760765,-0.6237948,-0.00022745777,-0.118775226,0.0038376048,-0.002407951,-0.022240505,0.001160793,0.012023326,0.43291813,-1.4476303,1.9833859,-2.1069214,-1.568303,2.4074883,-0.1224774,0.19533834,-0.21523504,0.009744464,0.01951077,-0.13434651,-0.21068975,0.47884035,-9.500193,0.86498255,47.689575,-1.0237489,-1.7061021,-3.5699546,-0.30415162,0.3532528,-0.13009962,27.3125,28.375,27.4375,31.0,32.8125,33.5
0.25005183,-0.43770668,-1.9624451,-1.0568092,-0.04312961,0.00902996,-0.16923027,-0.3878473,-0.32790312,0.060069207,3.0760114,-0.62376547,-0.00031016854,-0.120090686,0.0042216843,-0.0028282302,-0.02231327,0.00123882,0.0057784785,0.43270156,-1.4472343,1.9829434,-2.1069582,-1.5682787,2.407262,-0.12424583,0.19757368,-0.21663356,0.008803621,0.019543743,-0.12986729,0.0,0.51714754,-9.519346,0.8985519,47.694946,-1.0751002,-1.7259979,-3.608078,-0.29185325,0.34737512,-0.1708652,27.3125,28.375,27.4375,31.0,32.8125,33.5
0.25205168,-1.013036,-1.9685085,-0.7894438,-0.02673476,-0.011452192,-0.14702167,-0.38808778,-0.3278899,0.060062427,3.075999,-0.6236683,-0.00024915635,-0.12007361,0.0027915454,-0.0030424313,-0.023396749,0.0012727601,0.0034907165,0.43243805,-1.4468262,1.9824885,-2.106898,-1.5682305,2.4069397,-0.12211668,0.1994901,-0.21816473,0.007931271,0.020500548,-0.12544902,0.038307227,0.4213795,-9.423578,0.88960326,47.694054,-1.1160688,-1.7272038,-3.5350528,-0.26721987,0.36287016,-0.21562076,27.3125,28.375,27.4375,31.0,32.8125,33.5
0.25405237,-0.5475818,-1.469291,-0.7769119,-0.016098663,-0.011286904,-0.15123229,-0.38833618,-0.3279032,0.06005759,3.0759325,-0.62360173,-0.00025458634,-0.123178676,0.003245314,-0.0023607486,-0.02563293,0.0023557178,-0.005388071,0.43220884,-1.4464062,1.9820322,-2.1069105,-1.56817,2.4066777,-0.12656157,0.20194393,-0.22254874,0.007937547,0.022067988,-0.12101075,0.095768064,0.51714754,-9.289502,0.8537928,47.71286,-1.019888,-1.816412,-3.4634972,-0.25925475,0.3624466,-0.26380903,27.3125,28.375,27.4375,31.0,32.8125,33.5
0.2560514,-0.10746663,-1.1002558,-0.5755175,-0.00998269,-0.008103756,-0.1517622,-0.38860422,-0.3278943,0.060084537,3.0758424,-0.62365997,-0.00035223746,-0.123275355,0.0015398414,-0.0019942771,-0.02763905,0.002486913,-0.0065382468,0.43194556,-1.4460465,1.9815649,-2.106898,-1.5681452,2.4064627,-0.12455021,0.2032774,-0.2249741,0.008065364,0.023838405,-0.117844746,0.076614454,0.4405331,-9.232041,0.8985519,47.72808,-1.1196215,-1.8317455,-3.50837,-0.26249528,0.34486878,-0.32321343,27.3125,28.375,27.4375,31.0,32.8125,33.5
0.25805253,-0.109328926,-0.61661017,-0.73053205,-0.012332926,-0.011288563,-0.16861509,-0.38884312,-0.32787925,0.06004739,3.0757883,-0.62372786,-0.0002132338,-0.124308795,0.0016738073,-0.002655072,-0.02743637,0.0016077963,-0.009821829,0.43165696,-1.4455904,1.9811333,-2.1068742,-1.5680612,2.4062235,-0.12569135,0.20625849,-0.22684337,0.007847754,0.024011515,-0.11570203,0.11492168,0.38307226,-9.32781,0.842603,47.70211,-1.046381,-1.8424411,-3.4778833,-0.24046525,0.33507836,-0.37961638,27.3125,28.375,27.4375,31.0,32.8125,33.5
0.26005235,-0.27645293,-1.0888473,-0.6413462,-0.012799802,-0.008560861,-0.15482984,-0.3891129,-0.3278852,0.060068045,3.075715,-0.6237534,-0.00032255246,-0.12556376,0.0020671983,-0.0024130105,-0.027385645,0.0020723601,-0.013607171,0.43142864,-1.4451947,1.9806427,-2.1068742,-1.5680493,2.4060209,-0.12723175,0.2073942,-0.22885647,0.008326587,0.023777133,-0.113453984,0.19153613,0.2681506,-9.3661175,0.8784135,47.71554,-1.0620543,-1.7016094,-3.465357,-0.23370974,0.3512541,-0.44674456,27.3125,28.375,27.4375,31.0,32.8125,33.5
0.26205227,-0.91925544,-1.4265808,-0.5739169,-0.007973938,-0.023796378,-0.14626636,-0.38932526,-0.32786873,0.060026508,3.0757005,-0.6237877,-0.0001780637,-0.12884746,0.0010023118,0.0009302466,-0.030490799,0.008489218,-0.014005047,0.43117636,-1.4447639,1.9802464,-2.1068385,-1.5679892,2.405792,-0.12805729,0.20616786,-0.23534405,0.008926773,0.023899881,-0.113880254,-0.019153614,0.3256114,-9.212888,0.87617236,47.713753,-1.0507628,-1.6362646,-3.2852569,-0.23472016,0.34734058,-0.5148914,27.3125,28.375,27.4375,31.0,32.8125,33.5
0.26405206,-0.46181965,-1.1232646,-0.7038832,-0.0044314535,-0.013440916,-0.15417457,-0.3896092,-0.32788986,0.060063235,3.075588,-0.6238008,-0.0003111784,-0.12970261,0.00021059724,0.0012239777,-0.031584065,0.008113121,-0.010528747,0.43094835,-1.4443681,1.9797186,-2.106838,-1.567953,2.405587,-0.12798621,0.20818812,-0.2386182,0.010080059,0.02507285,-0.11727994,-0.038307227,0.2681506,-9.251195,0.8873621,47.70211,-1.1190608,-1.6137912,-3.1970644,-0.22278398,0.33573955,-0.49986136,27.3125,28.375,27.4375,31.0,32.8125,33.5
0.26605207,-0.6427499,-0.9222731,-0.9077916,0.0039234357,-0.0005212803,-0.15747315,-0.38987324,-0.3278733,0.06006679,3.0755227,-0.62378275,-0.00032634396,-0.13057527,0.0005500389,0.00096936576,-0.032915775,0.007690579,-0.0025177076,0.43065968,-1.4439723,1.9792637,-2.106826,-1.5679044,2.4052956,-0.13017473,0.20922738,-0.2391233,0.009409031,0.026490588,-0.12747695,-0.038307227,0.28730422,-9.212888,0.86498255,47.7254,-1.0327411,-1.6377428,-3.217032,-0.23021638,0.32284606,-0.46314913,27.3125,28.375,27.4375,31.0,32.8125,33.5
0.26805195,-1.2402529,-1.082544,-1.1092731,0.010872593,0.004685375,-0.14895424,-0.3901188,-0.327889,0.060058676,3.075431,-0.6237979,-0.0002237113,-0.13052799,0.00076002,0.00069098035,-0.033592872,0.0058376365,0.003876909,0.4304073,-1.4435288,1.9787735,-2.1067774,-1.5677961,2.4050646,-0.1313412,0.20978263,-0.23947857,0.010646978,0.027902637,-0.13503736,-0.076614454,0.30645782,-9.423578,0.85826975,47.696735,-1.0277365,-1.5676997,-3.3024478,-0.22416306,0.32104912,-0.39120787,27.3125,28.375,27.4375,31.0,32.8125,33.5
0.2700519,-1.599095,-1.2786303,-0.8081739,-0.0066925017,0.022168767,-0.1500558,-0.39033297,-0.3278796,0.060035802,3.075468,-0.62362826,-0.00015175545,-0.13050875,0.0016453865,-0.0015750732,-0.03159193,0.0009279712,0.012313841,0.43019062,-1.4431201,1.9783558,-2.1067293,-1.5677713,2.4047375,-0.13303265,0.21448737,-0.23991065,0.011708079,0.028153757,-0.14516619,-0.11492168,0.2681506,-9.461885,0.88960326,47.7254,-0.9442815,-1.681709,-3.4410439,-0.23874444,0.28913298,-0.27307332,27.3125,28.375,27.4375,31.0,32.8125,33.5
0.27205187,-1.7245278,-1.2701852,-0.45362526,-0.031820476,0.05436319,-0.15656908,-0.3906241,-0.32787544,0.060042012,3.0753558,-0.62365884,-0.00014950032,-0.13082506,0.0014361826,-0.0024022635,-0.032274093,-0.0013571015,0.017260203,0.4298789,-1.4426761,1.9778403,-2.1067173,-1.5676869,2.4044595,-0.13383551,0.2172176,-0.24128015,0.012172235,0.029749982,-0.15091176,-0.24899697,0.21068975,-9.442732,0.8493211,47.709274,-1.0973407,-1.8357116,-3.5000787,-0.23536453,0.27069566,-0.20323852,27.3125,28.375,27.4375,31.0,32.8125,33.5
0.27405202,-2.6721382,-1.3277539,-0.74987984,-0.0063207382,0.04145745,-0.14369935,-0.39085656,-0.32787842,0.060021147,3.0753243,-0.6235567,-6.7160116e-05,-0.13042763,0.0006367049,-0.003209027,-0.03243467,-0.0029825764,0.020099802,0.42963877,-1.4422442,1.9773973,-2.1066935,-1.5676149,2.4041598,-0.13246119,0.21943924,-0.24200614,0.01210694,0.030575473,-0.1523763,-0.45968673,0.17238252,-9.346964,0.83589023,47.70659,-1.054208,-1.8108602,-3.5942326,-0.2334995,0.2644117,-0.13949105,27.3125,28.375,27.4375,31.0,32.8125,33.5
0.276052,-1.7859068,-0.7147222,-0.8008048,0.011459662,0.062539965,-0.15888417,-0.39112574,-0.32787168,0.06000052,3.0752745,-0.62347233,-1.5306829e-05,-0.13235907,0.0017944605,-0.0031447746,-0.032790348,-0.0017901049,0.013523855,0.42934963,-1.4417765,1.976919,-2.106694,-1.5675429,2.4038246,-0.13599613,0.22038144,-0.24305373,0.010991472,0.030395623,-0.14933436,-0.4405331,0.13407528,-9.423578,0.9030289,47.703007,-0.9942343,-1.8969915,-3.7992997,-0.21126434,0.22196937,-0.14137474,27.3125,28.375,27.4375,31.0,32.8125,33.5
0.27805185,-1.8430685,-0.2545925,-0.2377256,0.017234622,0.06306975,-0.14825661,-0.39139634,-0.3278622,0.05999682,3.0751832,-0.6235709,-5.806027e-06,-0.13403776,-0.00017172571,-0.0020997922,-0.033558037,0.0011647185,0.010761957,0.42906272,-1.4413445,1.9764389,-2.1066816,-1.5674833,2.4036112,-0.13331275,0.22321965,-0.24867249,0.010768598,0.029848317,-0.1438851,-0.59376204,0.21068975,-9.32781,0.9097417,47.684196,-1.1607103,-1.9135969,-3.6400275,-0.20251618,0.21612176,-0.21520762,27.3125,28.375,27.4375,31.0,32.8125,33.5
0.28005263,-1.9098617,-0.31787068,-0.34174687,0.034754924,0.049880676,-0.15316388,-0.39169386,-0.3278883,0.060029905,3.0750773,-0.623437,-9.254341e-05,-0.13576503,-0.0004094889,-0.0011598776,-0.034948345,0.0035526825,0.0032647315,0.42881033,-1.4409131,1.9758757,-2.1066706,-1.5674108,2.403289,-0.13438852,0.22373433,-0.2513506,0.010179052,0.030118592,-0.13745838,-0.6895301,0.15322891,-9.193734,0.8717007,47.688675,-1.1049447,-1.9350436,-3.5505993,-0.2057548,0.1902858,-0.2895531,27.3125,28.375,27.4375,31.0,32.8125,33.5
0.28205234,-2.0662174,0.09037041,-0.45346698,0.022332752,0.04424003,-0.14903294,-0.39193514,-0.3278842,0.059994712,3.0750678,-0.62337846,2.4658591e-05,-0.13718008,-0.00045966107,-1.5363386e-06,-0.03687031,0.0053046755,0.0003108356,0.42855796,-1.4404342,1.9754089,-2.106634,-1.5673503,2.4030015,-0.13604647,0.22320259,-0.2535859,0.010562087,0.031129437,-0.13616225,-0.57460845,0.13407528,-9.289502,0.8940802,47.694946,-1.1715567,-1.7324662,-3.4956403,-0.17247559,0.19339737,-0.33333638,27.3125,28.375,27.4375,31.0,32.8125,33.5
0.28405192,-1.7720159,-0.9184012,-0.49716812,0.024026493,0.05736046,-0.14940745,-0.39223203,-0.32790485,0.060015462,3.074965,-0.6233582,-4.2124662e-05,-0.13908988,-0.00048001937,0.0013639805,-0.037804663,0.007913071,-0.0010792711,0.42830533,-1.4399785,1.9748458,-2.106622,-1.5672911,2.4027498,-0.13734895,0.22326449,-0.25700998,0.01118003,0.030907886,-0.13607046,-0.59376204,0.19153613,-9.232041,0.87617236,47.675243,-1.0729462,-1.7872841,-3.3966165,-0.17028674,0.16224356,-0.33848965,27.3125,28.375,27.4375,31.0,32.8125,33.5
0.2860519,-2.5592544,-1.2228192,-0.48568583,0.0074312678,0.04749493,-0.14956589,-0.39246708,-0.32786226,0.0599713,3.0749469,-0.62347233,0.00016069665,-0.14009944,0.0011014171,0.00029322904,-0.03626543,0.0054453616,-0.0046262485,0.42798033,-1.4395226,1.9744142,-2.106538,-1.5672191,2.4024985,-0.14073929,0.22590695,-0.2579062,0.012338624,0.03052465,-0.1359171,-0.842759,0.2681506,-9.404425,0.92764956,47.694946,-1.0502188,-1.7429537,-3.3224804,-0.16438977,0.14538415,-0.35995972,27.3125,28.375,27.4375,31.0,32.8125,33.5
0.28805166,-2.0808003,-1.3756714,-0.656205,-0.004938992,0.07639257,-0.15602328,-0.39274272,-0.3278804,0.05996777,3.0748758,-0.62339777,0.00014021623,-0.14085014,0.00025690376,0.00080133195,-0.035832137,0.0058506294,-0.0015714199,0.42774093,-1.4390552,1.9738983,-2.106549,-1.567159,2.402222,-0.13933341,0.22782208,-0.26172295,0.014074519,0.02997475,-0.1375631,-0.80445176,0.30645782,-9.385271,0.97464454,47.685097,-1.0969181,-1.7860541,-3.3618765,-0.17719185,0.14079246,-0.38953167,27.3125,28.375,27.4375,31.0,32.8125,33.5
0.29005203,-2.9171271,-1.7517844,-0.585275,-0.016708834,0.080009885,-0.13988921,-0.39302772,-0.327859,0.05996269,3.0748367,-0.6234632,0.00021463842,-0.14176111,-0.00036613402,0.0019260248,-0.037350018,0.0077968384,0.0038537455,0.42742893,-1.4385761,1.973348,-2.1064537,-1.5671109,2.401956,-0.13920034,0.22740324,-0.26399523,0.014397695,0.030560447,-0.14285465,-0.7852981,0.24899697,-9.251195,0.9164598,47.672558,-1.1197612,-1.6852787,-3.3646762,-0.18278855,0.12362747,-0.3522182,27.3125,28.375,27.4375,31.0,32.8125,33.5
0.29205215,-2.594849,-1.0902104,-0.64346313,-0.0085591115,0.093706995,-0.14504151,-0.3933413,-0.3278633,0.05995864,3.0747626,-0.62338537,0.00015408474,-0.14243811,0.00026622944,0.0016544042,-0.037106864,0.007329918,0.010328212,0.42714033,-1.4380726,1.9727978,-2.106489,-1.5670627,2.4016287,-0.14079566,0.22837964,-0.2646371,0.014633148,0.030569455,-0.15092187,-0.7278373,0.21068975,-9.308657,0.9030289,47.657326,-1.0555539,-1.5779324,-3.3674998,-0.17503783,0.0973801,-0.27702487,27.3125,28.375,27.4375,31.0,32.8125,33.5
0.29405257,-2.3311865,-0.47488964,-0.69892585,0.0053332206,0.08781049,-0.15444368,-0.3936232,-0.3278595,0.059964526,3.074692,-0.62328875,0.00018794784,-0.14314955,-4.8596967e-06,0.000630709,-0.036834147,0.006049193,0.019242866,0.42684042,-1.4376278,1.9722718,-2.1064413,-1.5669788,2.4012778,-0.14096284,0.23210287,-0.26646414,0.014069267,0.030880097,-0.16000105,-0.5554548,0.24899697,-9.442732,0.9701675,47.701214,-1.1364379,-1.7086078,-3.4904668,-0.16801289,0.08220936,-0.19634935,27.3125,28.375,27.4375,31.0,32.8125,33.5
0.29605246,-2.044622,-0.4547589,-0.6622723,0.00742267,0.07988991,-0.14391606,-0.39391103,-0.32786462,0.059956368,3.0746515,-0.623185,0.00018572305,-0.14379542,0.0006229448,-0.00067708286,-0.035610624,0.004017338,0.020069513,0.42657596,-1.4371356,1.9717325,-2.1064298,-1.5669311,2.400954,-0.14235829,0.23547983,-0.26737937,0.013988601,0.030621387,-0.16222161,-0.45968673,0.21068975,-9.461885,0.9186956,47.684196,-1.0842695,-1.8111277,-3.5861726,-0.1619269,0.085294485,-0.10193835,27.3125,28.375,27.4375,31.0,32.8125,33.5
0.29805246,-1.4322335,-0.72433794,-0.5798052,0.018087745,0.0588447,-0.15564685,-0.39421448,-0.32784674,0.059951045,3.0745974,-0.623231,0.0001886352,-0.14502278,0.000566478,-0.00042488304,-0.03571694,0.0055036414,0.019882336,0.42626387,-1.4366438,1.9711813,-2.1063936,-1.5668949,2.400678,-0.14280258,0.23671412,-0.26930094,0.013297058,0.03010798,-0.1624775,-0.30645782,0.24899697,-9.346964,0.9612189,47.66539,-1.1264007,-1.8816832,-3.56814,-0.15356131,0.06795676,-0.080996834,27.3125,28.375,27.4375,31.0,32.8125,33.5
0.30005252,-0.32242432,-0.2993941,-0.841913,0.00950559,0.03607791,-0.1520371,-0.39452302,-0.32785437,0.05993285,3.0745578,-0.6230919,0.0001720701,-0.14553703,0.001332306,-0.0011120068,-0.034335054,0.004899988,0.014435755,0.42598745,-1.4361048,1.9706196,-2.1064174,-1.5668477,2.40032,-0.14383703,0.23826316,-0.2695695,0.013140695,0.029099667,-0.15806496,-0.15322891,0.19153613,-9.423578,0.9231726,47.678825,-1.1391697,-1.9031878,-3.552053,-0.12547936,0.057669766,-0.08657279,27.3125,28.375,27.4375,31.0,32.8125,33.5
0.30205292,-0.7838416,-0.9606724,-0.8423833,0.01423643,-0.0049536563,-0.14101885,-0.3948441,-0.32783288,0.059953347,3.0744715,-0.6231354,7.181284e-05,-0.14855903,0.0017582652,0.0001844435,-0.03414643,0.008338883,0.0061037834,0.4256627,-1.4356602,1.9700679,-2.1064055,-1.5668238,2.400034,-0.14595231,0.2398254,-0.27445894,0.013409606,0.027502464,-0.15184489,-0.1340753,0.21068975,-9.385271,0.88960326,47.694946,-1.1489147,-1.9902103,-3.6455197,-0.118180774,0.06885095,-0.14819306,27.3125,28.375,27.4375,31.0,32.8125,33.5
0.3040518,0.16902933,-0.7122631,-0.86103636,0.014305684,-0.012415924,-0.14440632,-0.39510703,-0.32783327,0.05992973,3.074471,-0.62304085,0.00015849437,-0.14939073,0.0008520606,0.00043019015,-0.03381684,0.008957724,0.0020415226,0.4254115,-1.4351575,1.96954,-2.106346,-1.5667762,2.399724,-0.1444812,0.24215637,-0.27793568,0.0141230365,0.0269266,-0.14631133,0.076614454,0.21068975,-9.308656,0.8784135,47.709274,-1.1626787,-2.0710864,-3.3707762,-0.1068004,0.082572095,-0.22287855,27.3125,28.375,27.4375,31.0,32.8125,33.5
0.30605236,0.14735007,-0.45550266,-1.036836,0.02028669,-0.0409796,-0.15191269,-0.39544255,-0.3278002,0.059928376,3.0743573,-0.6231962,0.00011231583,-0.15113512,0.001856485,0.00057182816,-0.033307135,0.009382274,-0.008117879,0.42503846,-1.4346658,1.9689897,-2.1063573,-1.5667285,2.399463,-0.14719084,0.24363539,-0.28017747,0.0147000505,0.026281966,-0.13885945,0.05746084,0.15322891,-9.500193,0.85826975,47.709274,-0.9659269,-1.9814963,-3.3688326,-0.09315652,0.07352699,-0.33320707,27.3125,28.375,27.4375,31.0,32.8125,33.5
0.3080521,-0.16526026,-0.66887754,-0.9697298,0.008640497,-0.040164467,-0.14277902,-0.3957245,-0.32779297,0.059918575,3.0742936,-0.62330127,0.00018375515,-0.1527891,0.0022784579,0.00030127034,-0.03280811,0.008926819,-0.013324676,0.42474982,-1.4341732,1.9684385,-2.1062853,-1.5666684,2.3992484,-0.14902498,0.24671695,-0.28331777,0.01538331,0.026005208,-0.13548577,0.019153614,0.28730422,-9.404425,0.8537928,47.692257,-0.9683471,-2.0413017,-3.355082,-0.0994177,0.077847816,-0.3759487,27.3125,28.375,27.4375,31.0,32.8125,33.5
0.31005195,-0.40263927,-1.3877347,-0.99383694,0.006839151,-0.022228682,-0.14552188,-0.3959938,-0.3277952,0.059886973,3.0742815,-0.6232031,0.0002443149,-0.15260738,0.0033799922,-0.00043256523,-0.031575818,0.0069036386,-0.016614513,0.42449746,-1.4336581,1.967925,-2.106273,-1.5666207,2.3989365,-0.15057293,0.24719644,-0.28256658,0.016511124,0.025718575,-0.13374545,0.1340753,0.3256114,-9.442732,0.94331104,47.71554,-0.8709126,-2.024999,-3.382009,-0.108178385,0.07152092,-0.48255533,27.3125,28.375,27.4375,31.0,32.8125,33.5
0.3120527,-0.8812294,-1.3592696,-1.1763508,-0.02423326,-0.009127776,-0.14577222,-0.39630386,-0.32780477,0.059902135,3.074203,-0.62318623,0.00026384695,-0.15376326,0.0039876336,0.00019131415,-0.03154848,0.0071190773,-0.015380392,0.4242089,-1.4331553,1.9673017,-2.1061885,-1.5665487,2.3986478,-0.15243377,0.24749264,-0.2848662,0.018359574,0.025622906,-0.13683914,0.13407528,0.2681506,-9.5385,0.90750587,47.70659,-0.9667623,-1.9509423,-3.5253253,-0.1086902,0.09143078,-0.50781125,27.3125,28.375,27.4375,31.0,32.8125,33.5
0.3140526,-0.98490244,-2.0829499,-1.1982775,-0.03676916,0.011469882,-0.14663558,-0.3965918,-0.32779208,0.05989333,3.0741687,-0.6232098,0.00029763463,-0.15311141,0.0026912438,-9.8341065e-05,-0.030654764,0.0057770596,-0.0037398038,0.423922,-1.4326634,1.966751,-2.106128,-1.566513,2.3983803,-0.14921549,0.24963374,-0.2871574,0.020148138,0.025387537,-0.14526103,0.15322891,0.28730422,-9.557653,0.9321212,47.698532,-1.1085565,-1.8800924,-3.4771268,-0.12000771,0.07370724,-0.4560891,27.3125,28.375,27.4375,31.0,32.8125,33.5
0.31605172,-0.82924086,-2.3573036,-1.0912849,-0.038798988,0.026899245,-0.1552271,-0.39694378,-0.32779,0.05990083,3.074065,-0.62325996,0.00026053662,-0.15456894,0.0028987187,0.0011521238,-0.031074578,0.007836226,0.0061266758,0.4235856,-1.4321123,1.9661039,-2.1061037,-1.5664529,2.398089,-0.15035772,0.24923457,-0.28997,0.02137481,0.024967467,-0.15626787,0.038307227,0.38307226,-9.634268,1.0238806,47.70838,-1.0217454,-1.8973979,-3.4183493,-0.115569614,0.095121205,-0.38193882,27.3125,28.375,27.4375,31.0,32.8125,33.5
0.31805262,-1.3571862,-2.017651,-1.0801216,-0.03296822,0.033424463,-0.15369788,-0.39723426,-0.32779455,0.05990688,3.0740159,-0.6230911,0.00030788503,-0.15411444,0.0037727177,-0.0002688345,-0.029715752,0.004942511,0.015325331,0.42329732,-1.4316334,1.9655308,-2.1060317,-1.5663689,2.3977017,-0.1514264,0.25094342,-0.28888267,0.021839038,0.024958398,-0.16653553,-0.076614454,0.3256114,-9.615114,0.9388393,47.685097,-1.0683479,-1.8694792,-3.4793162,-0.11963825,0.10734666,-0.24781486,27.3125,28.375,27.4375,31.0,32.8125,33.5
0.32005244,-1.586389,-1.3412129,-1.2601727,-0.017402383,0.026748585,-0.15101951,-0.39754376,-0.32775572,0.059886023,3.0739994,-0.6230854,0.00030283828,-0.15551047,0.00362336,-0.00055641466,-0.030282892,0.0049783606,0.018863063,0.42296106,-1.4311287,1.9650034,-2.1060202,-1.566357,2.3973644,-0.15248875,0.2537878,-0.29145578,0.02133049,0.025474457,-0.1711331,-0.038307227,0.28730422,-9.730036,0.96569055,47.704796,-1.0311258,-1.7908766,-3.5264034,-0.12371887,0.1029868,-0.1540059,27.3125,28.375,27.4375,31.0,32.8125,33.5
0.32205185,-1.364766,-1.1732967,-1.1646581,-0.010988141,0.035739902,-0.14008398,-0.39784423,-0.32777068,0.059901524,3.0739255,-0.6229946,0.00033154854,-0.15818304,0.0037476725,0.0012693108,-0.032201055,0.009655122,0.016317518,0.4226842,-1.4306377,1.9643921,-2.1059368,-1.5662731,2.3970406,-0.15466893,0.2530708,-0.29467204,0.020232366,0.025305748,-0.17076561,-0.11492168,0.28730422,-9.768343,0.97464454,47.716442,-1.0297178,-1.8030782,-3.6280322,-0.114958994,0.09977915,-0.13549551,27.3125,28.375,27.4375,31.0,32.8125,33.5
0.32405174,-1.6644694,-1.4336567,-0.7516231,-0.0067641037,0.044107433,-0.14490373,-0.39816332,-0.3277641,0.059896555,3.073866,-0.6229664,0.00028882083,-0.15960747,0.0039005345,0.00094912224,-0.031287353,0.010751694,0.011313207,0.42238408,-1.4301219,1.963818,-2.1059368,-1.5662373,2.396731,-0.15512872,0.25568134,-0.29677048,0.019093415,0.024018932,-0.16622004,-0.26815057,0.30645782,-9.500193,0.94331104,47.691364,-0.9911628,-1.8438315,-3.48525,-0.11157313,0.10426411,-0.1807437,27.3125,28.375,27.4375,31.0,32.8125,33.5
0.32605052,-1.7479432,-0.82537764,-0.90394026,0.01615661,0.043072924,-0.14467478,-0.39848483,-0.32777116,0.05989518,3.073773,-0.6229521,0.00027796387,-0.16098489,0.0043367567,0.0009718414,-0.031438008,0.011568619,0.0018485363,0.42208365,-1.4295943,1.9632195,-2.1059253,-1.5661653,2.3964338,-0.1567645,0.2570364,-0.29835126,0.01849764,0.023810273,-0.15838918,-0.2681506,0.24899697,-9.481039,0.9567419,47.69763,-0.94177175,-1.8680019,-3.5328445,-0.11080891,0.119763665,-0.25338998,27.3125,28.375,27.4375,31.0,32.8125,33.5
0.32809913,-1.5876938,-0.23267283,-0.77487534,0.014529162,0.04621208,-0.1470544,-0.39882782,-0.32775396,0.059899013,3.0737326,-0.6228852,0.000196662,-0.16125926,0.003023749,0.00081497955,-0.032239053,0.011387104,0.0014547392,0.42176026,-1.4290663,1.9626082,-2.1059134,-1.5661529,2.3960743,-0.15494354,0.25941238,-0.30079603,0.018401183,0.024622008,-0.15617011,-0.11492168,0.17238252,-9.557653,0.9231726,47.686886,-0.98082453,-1.9843776,-3.5111284,-0.076566346,0.10441436,-0.32542503,27.3125,28.375,27.4375,31.0,32.8125,33.5
0.33009744,-1.4106644,-0.5805632,-0.4902761,0.009303715,0.05506048,-0.1535206,-0.39913604,-0.32776314,0.059900597,3.0736525,-0.62285167,0.00027029452,-0.16233236,0.003512576,0.00014554957,-0.031125458,0.00966806,-0.001606116,0.42145956,-1.4285388,1.961986,-2.105829,-1.5660566,2.3957632,-0.15635821,0.2627305,-0.30349657,0.019824069,0.02431012,-0.15452293,-0.30645782,0.038307227,-9.519346,0.9410752,47.675243,-0.9999105,-1.9743936,-3.5148358,-0.069368154,0.12189854,-0.34130964,27.3125,28.375,27.4375,31.0,32.8125,33.5
0.33210415,-1.348177,-0.16212131,-0.6482904,0.007989216,0.047056288,-0.15242876,-0.39947605,-0.32775608,0.059903163,3.073599,-0.62285924,0.00018935137,-0.1633966,0.0047027147,-0.000260334,-0.029946873,0.008562244,-0.0036354708,0.42115873,-1.4279988,1.9613632,-2.1058166,-1.5660456,2.3954744,-0.15884581,0.26443738,-0.30493018,0.021055352,0.023705013,-0.1549801,-0.38307226,0.11492168,-9.423578,0.900793,47.689575,-1.0267637,-2.0223353,-3.4200072,-0.0724912,0.14033672,-0.34694043,27.3125,28.375,27.4375,31.0,32.8125,33.5
0.33410507,-1.8210927,-0.15596247,-0.6379361,0.016604165,0.027850308,-0.15242681,-0.39984065,-0.3277586,0.059940353,3.073472,-0.62288666,9.143503e-05,-0.16392443,0.003492545,0.0008881062,-0.03084513,0.010995756,0.0034358012,0.4208237,-1.4274838,1.9606818,-2.105769,-1.5659856,2.3951733,-0.15678969,0.26422364,-0.30748147,0.02127338,0.023566987,-0.15999195,-0.47884035,0.19153613,-9.576807,0.88960326,47.693153,-1.1856289,-1.9062946,-3.4772532,-0.071954995,0.1543479,-0.37259716,27.3125,28.375,27.4375,31.0,32.8125,33.5
0.33610672,-1.8210944,-0.78695846,-0.55121315,0.0029992429,0.044868898,-0.15690748,-0.40011573,-0.32772702,0.059904598,3.0735185,-0.622797,0.00021759572,-0.16452788,0.00355536,0.00046256816,-0.030578146,0.010022591,0.008847968,0.42052355,-1.4269569,1.9601415,-2.1056726,-1.5659612,2.3948114,-0.15735717,0.2663419,-0.30920267,0.02191201,0.023730533,-0.16597259,-0.4213795,0.13407528,-9.481039,0.92764956,47.691364,-1.1667978,-1.8969738,-3.4864864,-0.077670306,0.15420127,-0.30169028,27.3125,28.375,27.4375,31.0,32.8125,33.5
0.33805346,-2.2639914,-0.86493194,-0.405447,-0.0035569703,0.043350913,-0.15347548,-0.40047312,-0.32774287,0.059913334,3.0734117,-0.62271094,0.00014550603,-0.16561042,0.0026374017,0.0027573502,-0.032350507,0.014181134,0.019906769,0.4202117,-1.4263937,1.9594835,-2.1056845,-1.5658892,2.39446,-0.15636821,0.2640598,-0.31215572,0.022694536,0.02370477,-0.17603959,-0.21068975,0.076614454,-9.442732,0.9321212,47.685097,-1.2683524,-1.7323061,-3.4407492,-0.078348264,0.16280828,-0.21071169,27.3125,28.375,27.4375,31.0,32.8125,33.5
0.3400523,-1.6622905,-0.54393727,-0.48920113,0.0005234268,0.051171463,-0.15397733,-0.40079525,-0.32772717,0.059917394,3.0734007,-0.62261033,0.000110330024,-0.16680604,0.0035661256,0.0028040535,-0.032449704,0.014124336,0.024168057,0.41991058,-1.4258786,1.9588736,-2.1056244,-1.5658773,2.3940978,-0.15897256,0.26481143,-0.3133623,0.023202302,0.02385352,-0.18290398,-0.4213795,0.05746084,-9.385271,0.9231726,47.66987,-1.0880196,-1.6646879,-3.42003,-0.075264126,0.17849958,-0.09978397,27.3125,28.375,27.4375,31.0,32.8125,33.5
0.34205228,-1.3243525,0.155508,-0.33357298,0.0007375981,0.058205716,-0.15991215,-0.40115288,-0.32772684,0.059939377,3.0732858,-0.62254894,6.304503e-05,-0.16851856,0.0046042716,0.0027490722,-0.03198428,0.014303179,0.022242015,0.4195621,-1.425351,1.9582142,-2.1055882,-1.5657934,2.393726,-0.16176978,0.2665748,-0.3154678,0.023600502,0.023381365,-0.183773,-0.45968673,0.0,-9.423578,0.947788,47.658226,-1.1628509,-1.6377294,-3.5203743,-0.07394026,0.2019358,-0.03953034,27.3125,28.375,27.4375,31.0,32.8125,33.5
0.34405217,-1.8364886,0.023169387,-0.47865283,0.020285554,0.048314482,-0.15784806,-0.4014769,-0.32773867,0.059937883,3.0732536,-0.62237126,4.624056e-05,-0.16780755,0.0039644088,0.0015514052,-0.031031812,0.012221355,0.017963152,0.41928682,-1.4247992,1.9575804,-2.1055524,-1.5657452,2.3933444,-0.1598359,0.26914456,-0.31581807,0.023655642,0.023352519,-0.17755897,-0.4213795,-0.038307227,-9.270349,0.9097417,47.677036,-1.283531,-1.5892966,-3.5116591,-0.06921321,0.21734232,-0.08215898,27.3125,28.375,27.4375,31.0,32.8125,33.5
0.34605205,-1.389929,0.17407317,-0.53358525,0.028333819,0.046395395,-0.15197101,-0.40179497,-0.32771644,0.059949424,3.0732036,-0.62240374,4.9432194e-05,-0.16817836,0.003954854,0.0005513333,-0.031076144,0.010299582,0.0096608745,0.41896272,-1.4243068,1.9569706,-2.1054566,-1.5657095,2.3930473,-0.16047063,0.2719886,-0.31688946,0.0235941,0.024157329,-0.16988853,-0.4213795,-0.076614454,-9.385271,1.0149267,47.72271,-1.3441925,-1.7156708,-3.6970634,-0.049901932,0.22533478,-0.14556785,27.3125,28.375,27.4375,31.0,32.8125,33.5
0.3480519,-1.2535144,0.25442123,-0.7295255,0.025944123,0.027334223,-0.15734269,-0.4021563,-0.32771555,0.059949636,3.0730767,-0.6224949,7.64014e-05,-0.16916455,0.0034792994,0.00011642379,-0.032014813,0.009082653,0.0028362637,0.41860324,-1.4237189,1.9562887,-2.105409,-1.5656132,2.3927615,-0.16108017,0.27517092,-0.31977066,0.024012573,0.025498258,-0.16366808,-0.3256114,-0.13407528,-9.461885,0.9791215,47.67166,-1.3492419,-1.8242264,-3.6403034,-0.049763344,0.21243793,-0.24784574,27.3125,28.375,27.4375,31.0,32.8125,33.5
0.35005167,-1.4693466,-0.7449857,-0.6678649,0.02901167,0.016606906,-0.14759047,-0.4025198,-0.32767242,0.0599624,3.0730278,-0.6225841,-5.410766e-05,-0.17157133,0.0037616857,0.00010476157,-0.03138212,0.009584888,-0.0055960575,0.41824338,-1.4232026,1.9556645,-2.1053846,-1.565637,2.3924642,-0.1628498,0.2790915,-0.32448775,0.024582297,0.02470465,-0.15700231,-0.24899697,0.1340753,-9.442732,0.9768804,47.686886,-1.3125279,-1.8567017,-3.4381132,-0.04738402,0.22727077,-0.36005488,27.3125,28.375,27.4375,31.0,32.8125,33.5
0.3520526,-1.2857095,-0.7124088,-0.66820693,0.010712276,0.011813731,-0.15452917,-0.40287426,-0.32768112,0.059980366,3.072936,-0.62254655,-0.00010615555,-0.17318243,0.004130824,0.0010730111,-0.03193825,0.011298883,-0.010557364,0.41793126,-1.4226497,1.9549812,-2.1053364,-1.5655769,2.3921409,-0.164525,0.2791894,-0.32712078,0.025326708,0.024520732,-0.1537138,-0.15322891,0.19153613,-9.346964,0.95002913,47.694054,-1.2827827,-1.9346529,-3.479351,-0.049646858,0.24806042,-0.41678768,27.3125,28.375,27.4375,31.0,32.8125,33.5
0.35405174,-0.8420558,-0.62657773,-0.7164843,0.0009372733,0.010008641,-0.15707083,-0.4031953,-0.32767949,0.05996888,3.0729094,-0.622503,-8.4692045e-05,-0.17409928,0.004585243,0.00077434414,-0.03201053,0.009775032,-0.012343285,0.41764334,-1.4220847,1.954348,-2.1052759,-1.5655407,2.3918295,-0.16637218,0.2812343,-0.32926163,0.026796842,0.025211632,-0.15377262,-0.095768064,0.24899697,-9.32781,0.9455522,47.686886,-1.1772056,-1.8154905,-3.4555192,-0.049785912,0.272727,-0.48204994,27.3125,28.375,27.4375,31.0,32.8125,33.5
0.35605198,-1.2069889,-1.3726478,-0.7959042,-0.005439121,0.0017202062,-0.16316928,-0.4035356,-0.32764918,0.059962086,3.0728548,-0.6225236,-2.996415e-05,-0.17519528,0.004132425,0.0016594866,-0.03266699,0.010634027,-0.0053444835,0.41727218,-1.4215319,1.9537123,-2.1051915,-1.5654801,2.3914785,-0.16642267,0.28209096,-0.33278757,0.028468838,0.025493518,-0.1608203,-0.05746084,0.36391866,-9.385271,0.88960326,47.686886,-1.1812943,-1.8491309,-3.4016166,-0.07645201,0.27710992,-0.49423003,27.3125,28.375,27.4375,31.0,32.8125,33.5
0.35805213,-1.2207669,-1.7071706,-0.8358554,-0.028634515,0.014661061,-0.15266016,-0.40390548,-0.3276593,0.059993204,3.072758,-0.6224224,-0.00015431158,-0.17656499,0.004888547,0.0029126147,-0.033810645,0.012095207,0.002649678,0.41695932,-1.4209917,1.9530181,-2.1051672,-1.5654324,2.3911154,-0.16904578,0.28076297,-0.33458102,0.029860158,0.026015013,-0.17143333,-0.17238252,0.45968673,-9.404425,0.9298854,47.685097,-1.0488617,-1.71947,-3.4184384,-0.08894287,0.30134812,-0.35994908,27.3125,28.375,27.4375,31.0,32.8125,33.5
0.36005196,-1.4578046,-1.7018257,-0.6871377,-0.05088229,0.025628012,-0.16504493,-0.40424347,-0.3276295,0.059982963,3.0727108,-0.6225003,-9.240351e-05,-0.17559022,0.006312801,0.0008458108,-0.03165246,0.007702229,0.012526576,0.41659978,-1.420427,1.9523734,-2.1050713,-1.5653843,2.390811,-0.17055835,0.28263038,-0.33236173,0.030741993,0.025874993,-0.18282515,-0.15322891,0.5554548,-9.423578,0.87617236,47.67793,-1.0861142,-1.6462815,-3.5474107,-0.11803049,0.32054037,-0.24852872,27.3125,28.375,27.4375,31.0,32.8125,33.5
0.3620518,-1.4467694,-2.1022732,-0.89958614,-0.04771925,0.031528767,-0.1649372,-0.40459606,-0.3276299,0.059985336,3.0726874,-0.62233895,-5.1100767e-05,-0.17553085,0.0065552937,0.0007943305,-0.032418203,0.0060728006,0.017369341,0.41627595,-1.419826,1.9516553,-2.1049626,-1.5653242,2.3903897,-0.17165257,0.2827393,-0.3329044,0.032402325,0.027267197,-0.18875927,-0.22984336,0.38307226,-9.5385,1.0261165,47.694946,-1.0040027,-1.5729165,-3.7989044,-0.1278231,0.3239607,-0.16005456,27.3125,28.375,27.4375,31.0,32.8125,33.5
0.36405265,-1.3650678,-1.839532,-0.7561128,-0.048401218,0.037529424,-0.15342404,-0.40496492,-0.32761338,0.060000844,3.0725975,-0.6223017,-0.00013177353,-0.1767104,0.006399962,0.0014907381,-0.03344751,0.0067042243,0.01489684,0.41591644,-1.4192852,1.9509953,-2.1049387,-1.565276,2.390019,-0.1725668,0.28350118,-0.33575636,0.033507153,0.027968548,-0.18719581,-0.21068975,0.40222588,-9.576807,0.96569055,47.686886,-1.0348829,-1.5007788,-3.7228484,-0.14991693,0.32629675,-0.13473861,27.3125,28.375,27.4375,31.0,32.8125,33.5
0.36605203,-1.7933526,-1.7719693,-0.8112451,-0.032820486,0.0049044923,-0.153673,-0.4053302,-0.32759997,0.060018905,3.0725203,-0.6223069,-0.00022974538,-0.17766826,0.005526974,0.0012625381,-0.034932688,0.0062133647,0.00796059,0.4155809,-1.4187435,1.9503254,-2.104903,-1.5652512,2.389697,-0.17254964,0.28638613,-0.3386369,0.033323415,0.029514946,-0.18023428,-0.17238252,0.30645782,-9.5385,1.1089219,47.704796,-1.0156488,-1.615812,-3.6662588,-0.17496406,0.3289534,-0.20792449,27.3125,28.375,27.4375,31.0,32.8125,33.5
0.36805198,-1.197182,-0.62564874,-0.7957415,-0.03324098,0.011860396,-0.1618601,-0.4056599,-0.32759145,0.0600093,3.072468,-0.62222326,-0.00015148474,-0.17947176,0.0053947987,-2.5095505e-05,-0.035540096,0.0053065983,0.0002025297,0.4152449,-1.4181776,1.9496797,-2.10482,-1.5651668,2.3893158,-0.17414713,0.29160476,-0.34140357,0.03144452,0.030407622,-0.17406934,-0.3256114,0.36391866,-9.576807,0.88960326,47.68599,-0.87710154,-1.7139566,-3.5597336,-0.16232763,0.33340186,-0.30000997,27.3125,28.375,27.4375,31.0,32.8125,33.5
0.37005213,-1.185824,-0.8243236,-0.8135005,-0.022130797,0.024616553,-0.17023909,-0.40604427,-0.32758948,0.060036674,3.0723486,-0.6222741,-0.00019310205,-0.18205331,0.005031438,0.0009252197,-0.03676234,0.0073361597,-0.0031080567,0.41488522,-1.4176004,1.9489363,-2.1047356,-1.5650948,2.3890038,-0.17554161,0.29409364,-0.34667927,0.03189323,0.030710943,-0.17214754,-0.26815057,0.36391866,-9.481039,0.9567419,47.698532,-0.97853225,-1.7313627,-3.582736,-0.1550983,0.3456459,-0.33575773,27.3125,28.375,27.4375,31.0,32.8125,33.5
0.37205216,-1.450516,-0.8694112,-0.380504,-0.01824646,0.034054626,-0.1622518,-0.40639797,-0.32758483,0.06002946,3.0722618,-0.62225574,-0.00016132,-0.18306139,0.0046686595,0.001038921,-0.03762199,0.006454985,-0.004429773,0.41453773,-1.4170107,1.9482654,-2.1046875,-1.5650104,2.3886564,-0.17622498,0.296344,-0.35004407,0.033485565,0.03185949,-0.17150393,-0.22984336,0.30645782,-9.404425,0.9455522,47.686886,-0.9650669,-1.8410869,-3.3923826,-0.18618777,0.3449636,-0.38780087,27.3125,28.375,27.4375,31.0,32.8125,33.5
0.37405196,-1.0379488,-0.07517533,-0.6356904,-0.009128494,0.032559365,-0.17153314,-0.40676764,-0.32759428,0.06006694,3.0721736,-0.62221676,-0.00023819649,-0.18309328,0.004228155,0.0007674197,-0.03817287,0.005572055,-0.0036980058,0.41422644,-1.4164579,1.9475235,-2.1045911,-1.5649618,2.3883326,-0.17581291,0.29761115,-0.3511222,0.033900138,0.032741427,-0.17181812,-0.24899697,0.3256114,-9.346964,0.9835985,47.674347,-1.0351737,-1.8337612,-3.4739017,-0.19141161,0.35039687,-0.39005747,27.3125,28.375,27.4375,31.0,32.8125,33.5
0.37605217,-1.6262894,-0.90593284,-0.62360275,-0.0073332274,0.032235447,-0.16981268,-0.40712562,-0.3275911,0.060049783,3.072092,-0.6221743,-0.00020631381,-0.18216842,0.0041073887,-0.00011460015,-0.037212167,0.0027146551,0.0045144665,0.41387925,-1.4158452,1.9468535,-2.1045663,-1.5648779,2.3879697,-0.17484613,0.29904053,-0.35135636,0.03577395,0.033057846,-0.17906258,-0.30645782,0.36391866,-9.3661175,0.95226496,47.694946,-1.1186535,-1.7307104,-3.556597,-0.2151212,0.3446133,-0.3330741,27.3125,28.375,27.4375,31.0,32.8125,33.5
