Tylouw/Master_Thesis_Code/training_data/batch_1/big_rod_t0.2/sample_65_session_3.csv
timestamp[s],tcp_force_x[N],tcp_force_y[N],tcp_force_z[N],tcp_force_rx[Nm?],tcp_force_ry[Nm?],tcp_force_rz[Nm?],tcp_pose_x[m],tcp_pose_y[m],tcp_pose_z[m],tcp_pose_rx[rot_vec_x],tcp_pose_ry[rot_vec_y],tcp_pose_rz[rot_vec_z],tcp_velo_x[m/s],tcp_velo_y[m/s],tcp_velo_z[m/s],tcp_velo_rx[rot_vec_x/s],tcp_velo_ry[rot_vec_y/s],tcp_velo_rz[rot_vec_z/s],q1[rad],q2[rad],q3[rad],q4[rad],q5[rad],q6[rad],qd1[rad/s],qd2[rad/s],qd3[rad/s],qd4[rad/s],qd5[rad/s],qd6[rad/s],tool_acc_x,tool_acc_y,tool_acc_z,current_of_whole_robot[A],voltage_of_whole_robot[V],current_J1[A],current_J2[A],current_J3[A],current_J4[A],current_J5[A],current_J6[A],temp_J1[C],temp_J2[C],temp_J3[C],temp_J4[C],temp_J5[C],temp_J6[C]
7.179915e-07,-1.0013835,-1.0212721,0.0005293532,-0.03644572,0.018709358,0.0017172515,-0.37285453,-0.3282227,0.059915368,-3.0784612,0.6248046,-0.00038182974,0.0024797407,0.0011652464,-0.003517684,0.0035844024,-0.007813367,1.9211736e-06,0.4481742,-1.4708371,2.0096085,-2.1076791,-1.5706495,2.4230556,-4.936877e-05,0.0036437234,0.0038081685,0.0011424277,0.00016593037,-5.3651987e-05,0.11492168,0.2681506,-8.810662,0.7463667,47.734352,-0.084387966,-2.819201,-2.49219,-0.49810752,0.10284917,-0.12556042,27.0,28.1875,27.125,30.5625,32.25,32.875
0.002054766,-0.6118137,-1.642683,-0.4016864,-0.009622912,0.023628138,-0.002960767,-0.3728765,-0.32821393,0.059924927,-3.078464,0.6248044,-0.0002822004,-0.00062576256,-0.0003345858,-0.003005698,-0.0007083068,0.0010775098,5.8209853e-06,0.4481623,-1.4708487,2.0096085,-2.1077197,-1.5706857,2.4230433,-4.8482303e-05,0.004819802,0.0038835527,-0.009981964,0.0001570245,-5.3209067e-05,0.019153614,0.24899697,-8.868123,0.7553206,47.705692,-0.1625827,-2.822317,-2.3515291,-0.4776889,0.11087677,-0.12841718,27.0,28.1875,27.125,30.5625,32.25,32.875
0.004054372,-0.63640815,-0.8309296,-0.25655487,-0.019672574,0.020616809,-0.009532211,-0.3728855,-0.3282119,0.05991618,-3.0784647,0.6248047,-0.00028057257,-0.0020734281,-0.001032908,-0.0020536454,-0.003157378,0.0061600106,7.2863495e-06,0.44815025,-1.4708252,2.0096085,-2.1077445,-1.5706857,2.4230313,-4.762711e-05,0.0038020515,0.0038691994,-0.014591635,0.00015153243,-5.2599615e-05,0.038307227,0.22984336,-8.963891,0.683705,47.723602,-0.0932708,-3.0370736,-2.5601454,-0.35130262,0.09526434,-0.13806011,27.0,28.1875,27.125,30.5625,32.25,32.875
0.00605393,-0.4656365,-0.6107841,-0.26807788,0.0007438269,0.004859418,-0.008020892,-0.37289906,-0.328208,0.059920233,-3.0784848,0.62490565,-0.0002618854,-0.0010382996,-0.00053045526,-0.0014526374,-0.0017880438,0.0033482604,6.209356e-06,0.44811413,-1.4708377,2.0096204,-2.1077774,-1.5706614,2.4230556,-4.6801542e-05,0.0022822872,0.0028690726,-0.008944285,0.00014658258,-5.199276e-05,-0.019153614,0.2681506,-8.963891,0.71279734,47.696735,-0.104884624,-2.9610248,-2.5169458,-0.35317248,0.10901955,-0.1252617,27.0,28.1875,27.125,30.5625,32.25,32.875
0.008054384,0.05730689,0.22346571,-0.7242877,0.027868452,-0.0132077355,-0.0072950376,-0.37287924,-0.32820484,0.059895925,-3.078446,0.62487847,-0.00035167855,-0.00031966885,-0.00018148421,-0.0010245885,-0.0007207436,0.0011566079,5.5708824e-06,0.44812617,-1.4708022,2.0096314,-2.107752,-1.5706614,2.4230556,-4.6004116e-05,0.00137018,0.0019026785,-0.004628073,0.00014195722,-5.1398973e-05,-0.019153614,0.1340753,-9.078813,0.7284641,47.70659,-0.12044525,-2.9188116,-2.479507,-0.40685147,0.10666312,-0.1322708,27.0,28.1875,27.125,30.5625,32.25,32.875
0.010054566,-0.41030538,0.6302373,-1.0807129,0.044106897,-0.038099732,-0.0065682703,-0.37285036,-0.3282207,0.05988546,-3.078452,0.6248219,-0.0003934625,-0.0001006638,-7.791178e-05,-0.0009178156,-0.00014775559,-7.35898e-05,3.2596197e-06,0.4481742,-1.4708021,2.0096552,-2.1077516,-1.5706495,2.4230676,-5.5157965e-05,0.001486687,0.0010531242,-0.0025381094,0.00016150046,-5.8370355e-05,-0.019153614,0.076614454,-9.2703495,0.73741806,47.694054,-0.5444134,-2.330513,-3.0264835,-0.45294297,0.10177775,-0.20983285,27.0,28.1875,27.125,30.5625,32.25,32.875
0.012053845,-0.27013016,0.1894432,-1.4073977,0.0180027,-0.0075507057,-0.014176726,-0.372867,-0.32822242,0.059868444,-3.0784433,0.6248197,-0.00041220398,0.00017374351,6.743876e-05,-0.003966786,0.003105815,-0.006838525,0.00035845535,0.4481623,-1.4707391,2.0096304,-2.107775,-1.5706495,2.4230554,-8.361743e-05,0.009289301,-0.00088942936,-0.00089154975,0.00016000027,-0.00044010265,0.17238252,0.076614454,-9.442732,0.7530795,47.687782,-0.65005577,-2.5494103,-3.1416717,-0.46727014,0.10049185,-0.22609329,27.0,28.1875,27.125,30.5625,32.25,32.875
0.014054293,-0.88848275,-1.048577,-1.2704622,-0.015954297,0.01639612,-0.01037666,-0.37291482,-0.32818836,0.059886917,-3.0783975,0.6249258,-0.00033662334,-0.0051682307,0.0015639188,-0.0039336183,0.002860632,-0.0063620107,0.0004241121,0.44808733,-1.4707371,2.0095804,-2.1077507,-1.5706977,2.4230525,-0.007761507,0.015922725,-0.008294433,-0.0006571683,0.00015560395,-0.008178199,0.038307227,0.13407528,-9.557653,0.7150385,47.70838,-0.29206133,-2.7694645,-2.973905,-0.46841466,0.09642691,-0.21002653,27.0,28.1875,27.125,30.5625,32.25,32.875
0.016054338,-1.4555162,-1.7252562,-1.573988,-0.05234833,0.05387296,-0.016162777,-0.3728806,-0.32820174,0.059869494,-3.0784047,0.6248283,-0.00048706276,-0.0055142194,0.0022269455,-0.004114306,0.003204583,-0.007072184,0.0041766036,0.448111,-1.4707131,2.0095804,-2.107691,-1.5706495,2.4230144,-0.009321286,0.016217483,-0.008322345,-0.00013530189,0.00015125905,-0.013490566,-0.30645782,0.24899697,-9.672575,0.77545905,47.682407,-0.31190223,-2.7181964,-3.199224,-0.46867406,0.1043248,-0.16055067,27.0,28.1875,27.125,30.5625,32.25,32.875
0.018053766,-2.433239,-2.450577,-1.3850464,-0.069229074,0.08328906,-0.026565757,-0.37286302,-0.32819986,0.05984771,-3.0783842,0.62478477,-0.0005466664,-0.0049493704,0.0018650937,-0.004042987,0.00335114,-0.0074145203,0.0054701893,0.44812343,-1.4706893,2.0096042,-2.107691,-1.5706495,2.4230022,-0.008138514,0.015910858,-0.008299011,0.00051994406,0.0001684277,-0.013601678,-0.4405331,0.2681506,-9.749189,0.78888994,47.686886,-0.51181936,-2.392962,-3.4876008,-0.48815715,0.11010273,-0.18636474,27.0,28.1875,27.125,30.5625,32.25,32.875
0.020054076,-2.6564486,-2.1849167,-1.4879105,-0.07615147,0.10015184,-0.03757254,-0.37285897,-0.3281978,0.059817288,-3.0783489,0.6247401,-0.0006366829,-0.0057195,0.0017697249,-0.004354253,0.0035881568,-0.007954863,0.0047326144,0.4481232,-1.4706165,2.0095913,-2.1076791,-1.5706495,2.4229786,-0.008672813,0.018155519,-0.010075529,0.0006414528,0.00018458671,-0.013397061,-0.4405331,0.2681506,-9.730036,0.72622824,47.683304,-0.62941664,-2.4036388,-3.5212348,-0.4972365,0.11254813,-0.2038326,27.0,28.1875,27.125,30.5625,32.25,32.875
0.022053992,-2.798862,-1.8287847,-1.4586991,-0.05015739,0.090387955,-0.048107475,-0.37287277,-0.32819995,0.05983209,-3.078374,0.62478435,-0.0006298276,-0.008138404,0.0016896548,-0.003662473,0.0025717453,-0.0064175907,0.0026929395,0.44809854,-1.4706277,2.009567,-2.1076672,-1.5706257,2.4229784,-0.010888581,0.020430798,-0.014151896,0.00061610114,0.00042592504,-0.013570828,-0.57460845,0.30645782,-9.80665,0.8023209,47.67166,-0.6356634,-2.496993,-3.4501443,-0.4983317,0.11015004,-0.22717276,27.0,28.1875,27.125,30.5625,32.25,32.875
0.024053931,-2.2890787,-1.2938147,-1.6101232,-0.031769115,0.07344789,-0.05580064,-0.37290838,-0.32819566,0.059826832,-3.0783706,0.62474483,-0.0005925326,-0.009272625,0.00189487,-0.0032160908,0.0011284199,-0.00579209,0.002571666,0.4480738,-1.4705678,2.0095189,-2.107691,-1.570649,2.4229295,-0.013000868,0.020582011,-0.0152975,0.00041715387,0.0014517473,-0.015563174,-0.59376204,0.34476504,-9.844957,0.77545905,47.681515,-0.6490847,-2.3820984,-3.4182763,-0.4895567,0.10983012,-0.24141446,27.0,28.1875,27.125,30.5625,32.25,32.875
0.026053973,-2.3955252,-1.6482873,-1.7478456,-0.019458594,0.054227296,-0.07384089,-0.37293825,-0.32818258,0.05981428,-3.0783556,0.6247985,-0.0006332258,-0.010065527,0.0012947273,-0.0022328258,-0.00078406057,-0.0042182226,0.0046218545,0.44801363,-1.4705081,2.0094821,-2.107691,-1.5706366,2.4229047,-0.01329402,0.020029297,-0.016933046,0.0003546663,0.0024879999,-0.017907789,-0.7278373,0.36391866,-9.749189,0.76874626,47.703007,-0.77227247,-2.317976,-3.4428735,-0.490433,0.08663879,-0.23248619,27.0,28.1875,27.125,30.5625,32.25,32.875
0.028054003,-1.8539749,-1.4182041,-1.6475314,-0.03106616,0.06866762,-0.09358851,-0.3729639,-0.3281756,0.059813786,-3.0783377,0.62481475,-0.00066334475,-0.011239766,0.001613324,-0.002493362,-0.00087294134,-0.0046550776,0.0037435112,0.4479771,-1.4704593,2.0094216,-2.1076553,-1.5706366,2.4228806,-0.015141178,0.022086745,-0.018581046,0.00029947635,0.0027525483,-0.018875888,-0.7086837,0.38307226,-9.80665,0.7105615,47.709274,-0.66599447,-2.2756364,-3.505739,-0.49639875,0.084590554,-0.2030206,27.0,28.1875,27.125,30.5625,32.25,32.875
0.030054055,-1.8248526,-0.8848602,-1.3825399,-0.045786627,0.08815449,-0.115602866,-0.37298208,-0.32817575,0.05980843,-3.0783472,0.6248168,-0.00067424815,-0.012599856,0.0017743182,-0.002208598,-0.000906404,-0.0037646666,0.0024944635,0.44795272,-1.470423,2.0093968,-2.1076672,-1.5706247,2.4228563,-0.016437372,0.023414774,-0.020681918,0.00025684937,0.0023923859,-0.018920792,-0.6703765,0.21068975,-9.768343,0.8179876,47.698532,-0.68075526,-2.2572155,-3.4467275,-0.48979336,0.10053841,-0.20216867,27.0,28.1875,27.125,30.5625,32.25,32.875
0.032054123,-1.5617243,-1.0237478,-1.0833911,-0.034133192,0.10874889,-0.13530105,-0.37302327,-0.3281782,0.059814464,-3.0783668,0.6247838,-0.0006164462,-0.014133224,0.0016015408,-0.0013383469,-0.0015624072,-0.0017719226,0.001069305,0.44792825,-1.4703751,2.0093358,-2.107691,-1.5706371,2.422809,-0.017318683,0.024010243,-0.023324624,0.0002247105,0.0021158871,-0.018374596,-0.61291564,0.15322891,-9.691729,0.7597976,47.686886,-0.69819766,-2.2767804,-3.403811,-0.47782955,0.09002415,-0.20777428,27.0,28.1875,27.125,30.5625,32.25,32.875
0.034053724,-2.3338616,-0.45181128,-0.9488449,-0.01563095,0.08945921,-0.14303498,-0.37302127,-0.32819673,0.05979254,-3.0784018,0.62479156,-0.0007291606,-0.015343617,0.0014240607,-0.0009595379,-0.0018660427,-0.0007890335,0.00042845283,0.44791606,-1.4703146,2.0093224,-2.107703,-1.5705651,2.422797,-0.017979644,0.025310112,-0.025615023,0.00019972336,0.0019583036,-0.018392863,-0.59376204,0.038307227,-9.5385,0.71951014,47.698532,-0.7459831,-2.290894,-3.4444811,-0.48208398,0.09013144,-0.21151899,27.0,28.1875,27.125,30.5625,32.25,32.875
0.03605373,-1.9454032,-0.50455624,-1.2939887,0.01872509,0.07627006,-0.14792073,-0.37311208,-0.32818928,0.05982193,-3.0783887,0.6248267,-0.00055626157,-0.016474755,0.0010604673,-0.00012949882,-0.0029987004,0.0008170465,0.0009314908,0.4478679,-1.4702426,2.0091789,-2.1077154,-1.5706366,2.4227726,-0.018538749,0.025515895,-0.027741512,0.00017974434,0.0022801699,-0.019454177,-0.38307226,0.05746084,-9.500193,0.70608455,47.70032,-0.6860697,-2.2710748,-3.423479,-0.47633487,0.07182727,-0.21372986,27.0,28.1875,27.125,30.5625,32.25,32.875
0.038053755,-1.3834666,-0.20933837,-1.1829156,0.038886398,0.050387003,-0.16201161,-0.37312445,-0.3281695,0.059797026,-3.0783527,0.62481964,-0.00063242,-0.017692469,0.0009905273,0.0002746354,-0.004230875,0.0014122896,7.172259e-05,0.44781935,-1.4701823,2.009167,-2.107703,-1.5706366,2.4227242,-0.020087698,0.026396682,-0.029619245,0.000103572966,0.0031274548,-0.02014397,-0.26815057,-0.076614454,-9.404425,0.75755644,47.694946,-0.693352,-2.1613688,-3.3739522,-0.47842526,0.06570113,-0.22433755,27.0,28.1875,27.125,30.5625,32.25,32.875
0.040053748,-1.0847373,0.1079042,-1.0339069,0.031101141,0.022037605,-0.17179857,-0.3731705,-0.3281897,0.059819076,-3.0784168,0.62477463,-0.0005537092,-0.01869821,0.00062640273,0.0005528948,-0.0050533046,0.0018942173,0.0003878004,0.4478071,-1.4701461,2.009082,-2.1077268,-1.5706242,2.4226758,-0.02067438,0.02775664,-0.031744193,7.632405e-05,0.0036565762,-0.021046065,-0.17238252,-0.095768064,-9.461885,0.7665104,47.713753,-0.7411665,-2.1803608,-3.3528504,-0.4690011,0.06113851,-0.205408,27.0,28.1875,27.125,30.5625,32.25,32.875
0.04205373,-0.67423815,-0.38300964,-1.1754181,0.027098974,0.016155541,-0.1718153,-0.37319043,-0.3281717,0.059794214,-3.07838,0.6248245,-0.00063871493,-0.019703701,0.0005769347,0.0005655565,-0.0050898935,0.0021016148,0.00062680413,0.44774702,-1.4700735,2.0090568,-2.1077154,-1.5706123,2.4226515,-0.021452205,0.029456148,-0.033638813,6.92303e-05,0.00359413,-0.022061577,-0.095768064,0.019153614,-9.346964,0.77545905,47.687782,-0.69824684,-2.2288885,-3.3433385,-0.4692335,0.07468805,-0.18938324,27.0,28.1875,27.125,30.5625,32.25,32.875
0.044054523,-0.21828309,-0.63947254,-1.2003734,0.010443429,0.023407083,-0.16085218,-0.37323302,-0.32818145,0.059794474,-3.0783947,0.62484705,-0.00066256616,-0.02060376,0.0009567993,0.0005104036,-0.004666615,0.002298816,0.001117845,0.44771042,-1.4699893,2.008961,-2.107703,-1.5705885,2.4226272,-0.02266384,0.030612275,-0.034782227,6.420776e-05,0.0031238836,-0.02376242,0.0,0.05746084,-9.404425,0.7665104,47.72719,-0.66391516,-2.209774,-3.3629494,-0.4621788,0.07166266,-0.18901344,27.0,28.1875,27.125,30.5625,32.25,32.875
0.046054237,-0.36176518,-1.2008655,-1.1574098,0.001771034,0.027654024,-0.14864814,-0.3732853,-0.32815945,0.05980333,-3.0783863,0.62486386,-0.0006097217,-0.022020906,0.0012296367,0.000980235,-0.004752086,0.003548577,0.0013151465,0.447638,-1.469953,2.008901,-2.107703,-1.5706128,2.4225664,-0.024144107,0.031441826,-0.036769953,5.9924474e-05,0.002655675,-0.025437638,-0.038307227,0.13407528,-9.461885,0.7530795,47.684196,-0.6115668,-2.1221735,-3.3769536,-0.46442318,0.07819163,-0.19199759,27.0,28.1875,27.125,30.5625,32.25,32.875
0.048054308,-0.68124366,-1.3573385,-1.2722596,-0.018189544,0.0314149,-0.1480669,-0.3733204,-0.32816377,0.05979943,-3.078408,0.6248687,-0.00065829436,-0.023346405,0.0013269403,0.0013911481,-0.0049387473,0.0045857015,0.0021388934,0.4475896,-1.4698808,2.008828,-2.107691,-1.5705765,2.4225183,-0.025335072,0.032507896,-0.03889465,0.00010474823,0.0023694837,-0.027450368,-0.038307227,0.22984336,-9.385271,0.7217513,47.683304,-0.59937704,-2.1297338,-3.387948,-0.4352595,0.078963846,-0.1578534,27.0,28.1875,27.125,30.5625,32.25,32.875
0.050053947,-0.80811214,-1.4520769,-1.2178198,-0.022460219,0.02823065,-0.14941762,-0.37337613,-0.32816717,0.05980781,-3.0784163,0.62488896,-0.00060274807,-0.023910174,0.001505251,0.0012119375,-0.0045899325,0.0043947264,0.0029365905,0.44755337,-1.4698086,2.008732,-2.107703,-1.5705885,2.4224937,-0.02602134,0.033693593,-0.03979621,0.00014421735,0.0021362414,-0.028933069,-0.019153614,0.2681506,-9.442732,0.7396539,47.68599,-0.62725127,-2.0415456,-3.415188,-0.43864074,0.069481455,-0.15049526,27.0,28.1875,27.125,30.5625,32.25,32.875
0.052054156,-1.0772772,-1.8135469,-1.3768579,-0.024036886,0.013001636,-0.13032696,-0.3734041,-0.32814407,0.05978983,-3.0783896,0.6248638,-0.0006352694,-0.02498199,0.0014543664,0.0012704657,-0.0048930566,0.0045444593,0.003232911,0.44749293,-1.469748,2.0087068,-2.107703,-1.5706009,2.422421,-0.027034847,0.03535905,-0.04177039,0.00018570435,0.0023392176,-0.030241957,0.019153614,0.22984336,-9.481039,0.7933669,47.67166,-0.6134207,-1.9951077,-3.4687476,-0.45230433,0.074945845,-0.14562383,27.0,28.1875,27.125,30.5625,32.25,32.875
0.054054007,-1.0167537,-1.8195602,-1.3393083,-0.03497384,0.004043986,-0.13625741,-0.3734712,-0.32813382,0.05980671,-3.0784128,0.6248103,-0.00057987287,-0.025735635,0.0013488582,0.0016876358,-0.0056251865,0.0053202417,0.003978617,0.4474207,-1.4696879,2.0085995,-2.107691,-1.5706128,2.4223125,-0.027733453,0.035611823,-0.042996105,0.00014098038,0.0026616808,-0.031686053,-0.038307227,0.2873042,-9.576807,0.71279734,47.698532,-0.5779988,-2.0108638,-3.4708061,-0.433622,0.07937412,-0.13426812,27.0,28.1875,27.125,30.5625,32.25,32.875
0.05605413,-1.1772722,-2.077026,-1.3958434,-0.030565228,-0.004187567,-0.14313838,-0.37350413,-0.32815856,0.05980924,-3.0784712,0.62480277,-0.00062115776,-0.02685216,0.0011065797,0.0023489532,-0.0062199663,0.006752497,0.0040314198,0.44739658,-1.4696159,2.0085146,-2.107691,-1.5705527,2.4222763,-0.028229713,0.036144666,-0.04510691,0.00017260273,0.0025741758,-0.032233573,-0.095768064,0.34476504,-9.672575,0.8157518,47.67614,-0.6564196,-1.9540939,-3.4951305,-0.42586592,0.07233859,-0.1292549,27.0,28.1875,27.125,30.5625,32.25,32.875
0.058057208,-1.2352412,-2.0316389,-1.5882449,-0.04275,0.0029598984,-0.13788337,-0.37356743,-0.32813975,0.059812542,-3.0784369,0.6248528,-0.0005456491,-0.027639778,0.0012159655,0.00207908,-0.0060675303,0.006280053,0.004782677,0.44733632,-1.4695435,2.0084302,-2.107703,-1.5706009,2.4222517,-0.029189907,0.037986167,-0.04652833,0.00024263526,0.0026386818,-0.033943973,-0.038307227,0.45968673,-9.557653,0.7217513,47.660015,-0.6156771,-1.8957856,-3.5478575,-0.41216457,0.07515107,-0.12055834,27.0,28.1875,27.125,30.5625,32.25,32.875
0.060054503,-1.6380825,-2.3414521,-1.4059378,-0.037520967,0.011760121,-0.13826643,-0.37362772,-0.3281456,0.05984213,-3.078492,0.6247866,-0.00052464666,-0.028731642,0.0011594411,0.0022998825,-0.006029979,0.0065987404,0.0058994913,0.44727606,-1.4694949,2.0082982,-2.1076548,-1.5705765,2.4221432,-0.029951578,0.03955505,-0.048874013,0.000749833,0.0024639769,-0.035820525,-0.019153614,0.45968673,-9.595961,0.80456203,47.695843,-0.63750714,-1.8825155,-3.5151076,-0.41308305,0.07504581,-0.08567268,27.0,28.1875,27.125,30.5625,32.25,32.875
0.062053796,-1.4741743,-2.1151903,-1.4236633,-0.04240449,0.037851546,-0.1327374,-0.37368724,-0.32813588,0.059823718,-3.0784774,0.6248227,-0.00053996354,-0.029282844,0.001406829,0.00199969,-0.005532674,0.005742475,0.0047747586,0.44720373,-1.4693748,2.0082138,-2.1076787,-1.5705765,2.4220953,-0.030858101,0.041136052,-0.05006235,0.00134478,0.0023849853,-0.035601415,-0.11492168,0.36391866,-9.595961,0.84708,47.704796,-0.64873314,-1.8188013,-3.5433133,-0.41295803,0.089772575,-0.08417151,27.0,28.1875,27.125,30.5625,32.25,32.875
0.064055845,-1.8182333,-2.0768025,-1.3307425,-0.034242816,0.03908097,-0.13803554,-0.37373382,-0.32813734,0.05982437,-3.078507,0.62486875,-0.00058664737,-0.0298853,0.0012337865,0.0014825866,-0.00533273,0.0045867194,0.0032614395,0.44713154,-1.4693017,2.0081294,-2.1076667,-1.5705284,2.422048,-0.031290136,0.043741595,-0.051800605,0.0016068529,0.0027023775,-0.03451938,-0.17238252,0.40222588,-9.595961,0.7665104,47.716442,-0.6416191,-1.9071276,-3.5531569,-0.4208477,0.0824087,-0.09067445,27.0,28.1875,27.125,30.5625,32.25,32.875
0.06605431,-1.6430581,-1.7487131,-1.2434005,-0.024249597,0.04023931,-0.13282013,-0.37380144,-0.32816553,0.059851963,-3.0785704,0.62472755,-0.000486058,-0.031160556,0.00086787035,0.0022086198,-0.006752187,0.0058273603,0.002972501,0.44713122,-1.4692178,2.007974,-2.1076667,-1.5705403,2.4219518,-0.03225607,0.04437754,-0.054165047,0.0015998315,0.0034430258,-0.03519607,-0.1340753,0.3256114,-9.404425,0.7553206,47.67614,-0.6303808,-1.8794512,-3.5333462,-0.40969715,0.06314623,-0.10351233,27.0,28.1875,27.125,30.5625,32.25,32.875
0.068054065,-1.6821617,-1.4276919,-1.1962888,-0.013548356,0.035003863,-0.13791405,-0.3738777,-0.32812983,0.059854254,-3.0785441,0.6247989,-0.00044808365,-0.0322947,0.00031917257,0.00241603,-0.00753841,0.0064515765,0.003701823,0.44701105,-1.4691453,2.007889,-2.1076667,-1.5705642,2.4218795,-0.03253908,0.046294942,-0.056679245,0.0012918488,0.003877151,-0.03620728,-0.15322891,0.3256114,-9.404425,0.7463667,47.694946,-0.66149396,-1.8965967,-3.5000548,-0.4058997,0.069044635,-0.111308515,27.0,28.1875,27.125,30.5625,32.25,32.875
0.07005378,-1.3632438,-0.9583236,-1.0552199,-0.015573374,0.038520027,-0.13458134,-0.3739597,-0.32815248,0.059875663,-3.0786061,0.6247717,-0.00039625913,-0.03280859,0.00022713609,0.0019043798,-0.007148484,0.0057929205,0.0042555775,0.44696304,-1.4690367,2.0077207,-2.1076667,-1.5705403,2.4218068,-0.032779634,0.048476778,-0.057850577,0.001045118,0.0038094963,-0.037000127,-0.2681506,0.24899697,-9.423578,0.81351066,47.684196,-0.7344767,-1.8802638,-3.4800951,-0.38847744,0.0676817,-0.10936235,27.0,28.1875,27.125,30.5625,32.25,32.875
0.07205375,-1.3826745,-0.9303048,-0.95625514,-0.006735174,0.04710903,-0.14107083,-0.3740056,-0.32814494,0.059853982,-3.078594,0.6247876,-0.00047857204,-0.034602728,-4.299852e-05,0.0030944669,-0.008071798,0.008454814,0.0051907497,0.44689074,-1.4689167,2.0076358,-2.1076548,-1.570516,2.421746,-0.03367139,0.04883706,-0.060972515,0.001009617,0.0034832025,-0.03882471,-0.30645782,0.22984336,-9.346964,0.8112748,47.67166,-0.72740316,-1.8242462,-3.5144546,-0.37740374,0.08917566,-0.09142683,27.0,28.1875,27.125,30.5625,32.25,32.875
0.0740543,-1.8321375,-1.2042189,-0.99559075,0.0062156236,0.039269198,-0.13532071,-0.37410888,-0.3281628,0.05989614,-3.0786867,0.6247302,-0.00031429352,-0.035916414,-0.00037411187,0.002802606,-0.007977029,0.008132218,0.003815281,0.44683066,-1.4688436,2.007467,-2.1076906,-1.570516,2.4216385,-0.034267843,0.05220554,-0.06400484,0.0010053711,0.0035366605,-0.03804299,-0.21068975,0.11492168,-9.308657,0.784413,47.716442,-0.7623282,-1.8522477,-3.337134,-0.36811933,0.066820815,-0.0942425,27.0,28.1875,27.125,30.5625,32.25,32.875
0.07605397,-1.4502878,-0.73787236,-0.93235224,-0.004289017,0.04902921,-0.1329552,-0.37415442,-0.3281718,0.05988134,-3.0786827,0.62471235,-0.00033065295,-0.035898525,6.183753e-05,0.0019921665,-0.007453433,0.0064191837,0.0013705767,0.4468062,-1.4687234,2.0073717,-2.1077025,-1.570516,2.4216034,-0.035248656,0.053578928,-0.06367846,0.0010758511,0.0038056616,-0.036579624,-0.30645782,0.11492168,-9.270349,0.7709874,47.667187,-0.72765386,-1.9500735,-3.520226,-0.3453768,0.06066299,-0.11713284,27.0,28.1875,27.125,30.5625,32.25,32.875
0.07805343,-1.7717104,-1.0270671,-0.83123773,0.0014176889,0.037638728,-0.12966648,-0.37420446,-0.32815117,0.059872534,-3.078651,0.6247241,-0.00039082157,-0.036721304,1.4042666e-06,0.0031365375,-0.0076545207,0.0075344504,0.0027023116,0.44672206,-1.4686278,2.0072758,-2.1076543,-1.570516,2.4215307,-0.035668015,0.052996594,-0.066104814,0.0029932603,0.0035028597,-0.038329575,-0.30645782,0.1340753,-9.270349,0.73741806,47.672558,-0.7862259,-1.7076349,-3.4874883,-0.36459392,0.06607334,-0.12939128,27.0,28.1875,27.125,30.5625,32.25,32.875
0.08005425,-1.4241413,-0.7688429,-0.7332424,0.0076459707,0.03891754,-0.13692725,-0.37432256,-0.32815677,0.059895985,-3.0787015,0.6247344,-0.00028489166,-0.039448775,-0.00045748855,0.0043962877,-0.00860699,0.009508504,0.0019845376,0.44662553,-1.4684952,2.0070817,-2.1076777,-1.570516,2.4214344,-0.037264235,0.055473447,-0.07200002,0.0042201504,0.0035035599,-0.039204188,-0.36391866,0.1340753,-9.289502,0.7396539,47.686886,-0.7200463,-1.7913206,-3.2824917,-0.37896562,0.066937596,-0.13431667,27.0,28.1875,27.125,30.5625,32.25,32.875
0.08205538,-2.0758965,-0.87847567,-0.9557133,0.013721495,0.023032265,-0.12855658,-0.3743737,-0.32816207,0.05989721,-3.0787234,0.6247204,-0.00033806192,-0.038305108,0.0006223115,0.0014035554,-0.0056790723,0.003914067,0.0012383761,0.4465653,-1.4683977,2.0069635,-2.1076415,-1.5704807,2.4213626,-0.038103197,0.05959407,-0.06963418,0.0040464005,0.0032835577,-0.039297383,-0.36391866,0.095768064,-9.289502,0.8179876,47.684196,-0.7587664,-1.870832,-3.3958693,-0.36830592,0.07421633,-0.14277369,27.0,28.1875,27.125,30.5625,32.25,32.875
0.08405383,-1.5172802,-1.126329,-0.7781174,-0.00034089913,0.043757025,-0.13805622,-0.3744996,-0.3281738,0.059941772,-3.0787873,0.6247325,-0.00017429219,-0.04090189,-0.00045936834,0.0038235625,-0.008396812,0.009061348,0.0010181621,0.44648105,-1.4682902,2.006746,-2.1076539,-1.5704921,2.421278,-0.03855756,0.059066378,-0.07451152,0.0036342738,0.0035063152,-0.039528556,-0.2681506,0.038307227,-9.32781,0.78217715,47.713753,-0.74665546,-1.9546267,-3.3582397,-0.36414105,0.07080587,-0.15561792,27.0,28.1875,27.125,30.5625,32.25,32.875
0.08605378,-2.0609152,-1.3222524,-0.77475905,-0.004834266,0.037506443,-0.13242288,-0.37455043,-0.32815367,0.059924506,-3.0787525,0.6247631,-0.00023317002,-0.041778613,-0.0012300537,0.004163035,-0.009519829,0.009785486,0.0019286926,0.44639716,-1.4681818,2.0066612,-2.1076305,-1.5704921,2.4212177,-0.038365077,0.060504027,-0.07681377,0.0033586852,0.0042001656,-0.040246245,-0.34476504,0.15322891,-9.3661175,0.800085,47.68599,-0.8478092,-1.7294014,-3.3220828,-0.33203205,0.08132194,-0.1636812,27.0,28.1875,27.125,30.5625,32.25,32.875
0.088054076,-2.3944955,-1.3225596,-1.0237882,-0.012520169,0.029019162,-0.13265881,-0.37463662,-0.32818848,0.059920117,-3.0788312,0.6246267,-0.00022358283,-0.04290157,-0.00036798132,0.0031099697,-0.008403965,0.0075684893,-0.00019440184,0.44636026,-1.468001,2.0064805,-2.1076658,-1.5704564,2.4210858,-0.04095777,0.06401872,-0.078401335,0.0039148643,0.00415038,-0.0407143,-0.34476504,0.19153613,-9.346964,0.7642693,47.698532,-0.7826862,-1.8502922,-3.241724,-0.33859843,0.05912777,-0.18482786,27.0,28.1875,27.125,30.5625,32.25,32.875
0.09005372,-1.8924377,-1.4688976,-0.9416313,-0.015505376,0.036364753,-0.1347075,-0.3747254,-0.32814798,0.059916064,-3.078766,0.62472856,-0.00022150802,-0.043843187,-0.00013943452,0.0032181644,-0.0075873015,0.006913092,-0.00051274436,0.44622803,-1.4678807,2.0063493,-2.1076295,-1.5704921,2.4210255,-0.041917566,0.06581941,-0.08104483,0.0057021067,0.0036952242,-0.041353792,-0.34476504,0.2681506,-9.32781,0.8247004,47.67166,-0.7263867,-1.8012819,-3.3589478,-0.3448004,0.068081066,-0.20847292,27.0,28.1875,27.125,30.5625,32.25,32.875
0.09205337,-1.8045032,-1.8465711,-1.0400417,-0.012196843,0.033605084,-0.13158959,-0.37481213,-0.32816812,0.059921276,-3.0788276,0.6247228,-0.0002235713,-0.044408966,0.00089806196,0.0027103603,-0.0064474153,0.005097991,-0.00190033,0.4461552,-1.4677362,2.006181,-2.1076405,-1.5704445,2.4209414,-0.044201497,0.06720713,-0.08174575,0.0071478006,0.0034539315,-0.042249426,-0.28730422,0.2681506,-9.442732,0.85826975,47.686886,-0.7344216,-1.9459004,-3.0973017,-0.3644368,0.068125054,-0.23372674,27.0,28.1875,27.125,30.5625,32.25,32.875
0.09405363,-1.9960494,-1.5184816,-1.0366511,-0.025780004,0.025848527,-0.1323573,-0.3749018,-0.32815987,0.05994271,-3.0788171,0.62470156,-0.00016037637,-0.044122927,0.0012176721,0.0015606957,-0.00506926,0.0029187694,-0.0015956357,0.446083,-1.4676278,2.0060017,-2.1075928,-1.5704807,2.4208574,-0.044329125,0.06932863,-0.08149316,0.007334107,0.003153251,-0.04268108,-0.2681506,0.34476504,-9.442732,0.7351769,47.68599,-0.688313,-1.8807101,-3.3268814,-0.36621648,0.07633434,-0.23989463,27.0,28.1875,27.125,30.5625,32.25,32.875
0.09605343,-1.4244853,-1.5594499,-1.0387448,-0.03432655,0.046110183,-0.13417684,-0.37499243,-0.32815254,0.059947062,-3.0788298,0.62468266,-0.00014313706,-0.046340734,-0.00015194411,0.0029192294,-0.006687823,0.0058784387,0.0018012446,0.4459873,-1.4674954,2.0058434,-2.107581,-1.5704807,2.4207485,-0.043866508,0.071446456,-0.08693402,0.0072885915,0.0033259834,-0.045612004,-0.2681506,0.30645782,-9.385271,0.79560274,47.68599,-0.76800954,-1.9119375,-3.2297146,-0.36275572,0.07545069,-0.25662652,27.0,28.1875,27.125,30.5625,32.25,32.875
0.09805391,-2.059393,-1.7425416,-0.991308,-0.034362104,0.032891724,-0.12825944,-0.37509742,-0.32816035,0.059960656,3.0788407,-0.62468493,0.000109434346,-0.04618821,0.0007484221,0.0014390606,-0.006165263,0.0028778727,0.00088526565,0.44589064,-1.4673507,2.0056531,-2.107581,-1.5704564,2.420652,-0.045961805,0.07334794,-0.085565925,0.006950109,0.0041534905,-0.04679286,-0.17238252,0.2681506,-9.423578,0.8023209,47.71017,-0.75427794,-1.8862706,-3.2722402,-0.36655712,0.08606011,-0.23887387,27.0,28.1875,27.125,30.5625,32.25,32.875
0.1000538,-1.3684746,-1.5494052,-0.95030195,-0.030920899,0.04386509,-0.13642457,-0.3751865,-0.32814786,0.059944414,3.078834,-0.62476134,0.00019146985,-0.04833091,7.769886e-05,0.002373767,-0.007653732,0.0048190365,-0.000962359,0.44577026,-1.4671705,2.0054839,-2.1075451,-1.5704321,2.4205801,-0.046957046,0.075344905,-0.08990653,0.0069003236,0.0046487525,-0.045938566,-0.22984336,0.24899697,-9.346964,0.78888994,47.692257,-0.75048167,-1.9861841,-3.2093787,-0.35486,0.07753113,-0.30826914,27.0,28.1875,27.125,30.5625,32.25,32.875
0.10205343,-1.2364374,-1.3519485,-1.0011258,-0.03060644,0.03114991,-0.12693098,-0.37530848,-0.32814655,0.059965592,3.0788176,-0.624719,7.825827e-05,-0.049186844,-2.3939407e-05,0.0021299792,-0.0075913053,0.004453397,-0.00017797023,0.44567403,-1.4670261,2.0052793,-2.107557,-1.5704564,2.4204597,-0.047590435,0.07750903,-0.09174601,0.006931592,0.0047502257,-0.047354758,-0.13407528,0.30645782,-9.270349,0.8403672,47.688675,-0.6976986,-1.8714867,-3.2028475,-0.35148072,0.06573962,-0.31104383,27.0,28.1875,27.125,30.5625,32.25,32.875
0.10405386,-1.1707716,-1.2020288,-1.0363426,-0.015995001,0.020908484,-0.13208717,-0.37538007,-0.32815766,0.059972953,3.0787883,-0.6247326,8.835237e-05,-0.050176986,0.00012145799,0.0020624648,-0.007492497,0.0048539364,-8.796682e-05,0.44561383,-1.4669056,2.0051243,-2.1075332,-1.5704321,2.4204118,-0.04856683,0.07896795,-0.09311183,0.00652215,0.004485516,-0.048419576,-0.11492168,0.30645782,-9.270349,0.81351066,47.71554,-0.7192388,-1.9983635,-3.2183504,-0.35275018,0.08412779,-0.31556764,27.0,28.1875,27.125,30.5625,32.25,32.875
0.10605468,-0.8215865,-0.496018,-0.7807024,-0.015486614,0.021991218,-0.13941686,-0.37549222,-0.3281584,0.05997215,3.0787675,-0.62470746,6.772733e-05,-0.05087281,-0.00019011453,0.0024823213,-0.007996047,0.006054136,0.0020229344,0.4455059,-1.4667258,2.0049312,-2.1075456,-1.5704201,2.420291,-0.048547704,0.07934528,-0.0944182,0.0061526806,0.0044212104,-0.050510235,-0.24899697,0.22984336,-9.212888,0.800085,47.693153,-0.7663549,-1.8724666,-3.176911,-0.33832496,0.056879498,-0.321572,27.0,28.1875,27.125,30.5625,32.25,32.875
0.10805411,-1.3854384,-0.75663495,-0.7539072,-0.015483227,0.009251785,-0.13412608,-0.3756238,-0.32816827,0.05997924,3.0787232,-0.624738,2.2173432e-05,-0.051748414,-0.00037319565,0.0013807614,-0.0073097544,0.0039961645,0.00021732875,0.44539765,-1.4665208,2.0046918,-2.107557,-1.5704082,2.4202075,-0.049154498,0.083831616,-0.09687639,0.0062774317,0.0046867314,-0.0493095,-0.11492168,0.22984336,-9.270349,0.80679786,47.685097,-0.79677355,-2.0269253,-3.1323218,-0.3251131,0.072148785,-0.35904527,27.0,28.1875,27.125,30.5625,32.25,32.875
0.11005385,-1.0789303,-0.90436125,-0.7460485,-0.021972703,0.021402689,-0.13858974,-0.3757016,-0.32815462,0.059982363,3.0787437,-0.62474203,6.7362744e-05,-0.052250747,-0.0005349499,0.0025564723,-0.008175483,0.0051819747,-0.0010708412,0.4453015,-1.4663894,2.0045235,-2.1074846,-1.5704077,2.4201114,-0.049470127,0.082488485,-0.098435335,0.007735866,0.004956141,-0.048337247,-0.11492168,0.22984336,-9.232041,0.779936,47.66539,-0.80698645,-1.905244,-3.1267457,-0.33582425,0.08600938,-0.43503493,27.0,28.1875,27.125,30.5625,32.25,32.875
0.11205347,-0.91078115,-0.6252077,-0.7534223,-0.025792534,0.024433978,-0.13385178,-0.37582645,-0.3281787,0.059989754,3.0786762,-0.6246891,6.575255e-05,-0.05244051,-0.0006738315,0.0020115098,-0.007852454,0.0035521898,0.0011876314,0.44519356,-1.4661852,2.0042846,-2.107497,-1.5703477,2.419979,-0.04963876,0.08462485,-0.09973092,0.008507517,0.0053687603,-0.05076385,-0.05746084,0.22984336,-9.289502,0.800085,47.68599,-0.931775,-1.8790827,-3.193891,-0.35256615,0.060524456,-0.43436587,27.0,28.1875,27.125,30.5625,32.25,32.875
0.11405406,-1.5676445,-1.2310815,-0.9401036,-0.019360268,0.00836289,-0.12804595,-0.3759108,-0.32815483,0.059981633,3.0787218,-0.6247553,9.355151e-05,-0.053567745,-0.00025174842,0.0009556582,-0.007624996,0.0017892661,0.0012489458,0.44509682,-1.466028,2.0041163,-2.107437,-1.5703834,2.419918,-0.05180143,0.08823679,-0.1011978,0.008048601,0.0059165275,-0.052987345,-0.019153614,0.15322891,-9.308657,0.7709874,47.694054,-0.8259134,-2.042993,-3.1743996,-0.3554104,0.07057795,-0.4450575,27.0,28.1875,27.125,30.5625,32.25,32.875
0.11605419,-1.0328217,-1.3354146,-0.8946186,-0.018331997,0.022464726,-0.1360191,-0.37604776,-0.32818058,0.060005162,3.0786595,-0.62468266,-3.1221996e-05,-0.053182084,-0.0013107304,0.0011338781,-0.007557394,0.0023652283,0.0059646126,0.4450137,-1.4658483,2.0038755,-2.1074846,-1.5703715,2.4197977,-0.049243238,0.08871396,-0.10214112,0.008026562,0.0056119696,-0.055143166,-0.038307227,0.21068975,-9.308656,0.8112748,47.677036,-0.9472164,-1.9633627,-3.1961093,-0.3389178,0.07645333,-0.44961852,27.0,28.1875,27.125,30.5625,32.25,32.875
0.11805413,-1.6397617,-1.4806681,-0.89847946,-0.010577301,0.001751325,-0.117581256,-0.37614256,-0.32817674,0.060009554,3.0786884,-0.6245912,-4.02063e-05,-0.053547703,-0.0008710267,0.00014950606,-0.006799344,0.000358722,0.0077981427,0.44492912,-1.4656917,2.0036848,-2.1074488,-1.5703834,2.4196525,-0.050502762,0.09121698,-0.1027008,0.008220249,0.005791329,-0.058235828,-0.076614454,0.19153613,-9.289502,0.7597976,47.689575,-1.0908287,-1.9469225,-3.3326368,-0.33625156,0.06490559,-0.46110785,27.0,28.1875,27.125,30.5625,32.25,32.875
0.12005414,-1.1645006,-1.1006894,-0.88721997,-0.00636822,0.011375378,-0.12939563,-0.37626,-0.32816705,0.060005546,3.0786674,-0.6246419,-2.9964507e-05,-0.05455113,-0.0011719946,0.00049595605,-0.007356558,0.001285041,0.011261818,0.44479716,-1.4654998,2.0034797,-2.107437,-1.5703715,2.419555,-0.050887495,0.09231131,-0.10467184,0.008022722,0.005892111,-0.06208301,-0.095768064,0.17238252,-9.289503,0.7866488,47.694946,-1.0496575,-2.050468,-3.2885296,-0.3481298,0.061349623,-0.4554985,27.0,28.1875,27.125,30.5625,32.25,32.875
0.12205392,-1.151648,-0.6758275,-0.9274553,-0.0022613497,-0.00084178586,-0.13263485,-0.3763892,-0.328169,0.06001813,3.0786295,-0.62463415,-7.706823e-05,-0.05680869,-0.0011535188,0.00094719493,-0.0083981315,0.0022350678,0.01216723,0.4446762,-1.465319,2.0032518,-2.107437,-1.5703591,2.419434,-0.053284947,0.09474388,-0.10839923,0.008011994,0.0064198216,-0.065383725,0.05746084,0.21068975,-9.232041,0.7105615,47.68599,-1.0529213,-2.0546048,-3.227798,-0.3252272,0.05587241,-0.4209706,27.0,28.1875,27.125,30.5625,32.25,32.875
0.12405327,-1.0144839,-0.95484364,-0.8411125,0.0046209292,0.00080181274,-0.13229081,-0.37647069,-0.32817426,0.06000119,3.078669,-0.62450397,-1.8290903e-05,-0.055288635,-0.001070558,-0.0005166714,-0.007159793,-0.0009798568,0.017887738,0.4446047,-1.465127,2.0030735,-2.107413,-1.5703472,2.4192765,-0.05224131,0.09588672,-0.106387414,0.0082934275,0.006688125,-0.07006232,0.0,0.21068975,-9.346964,0.7665104,47.707485,-1.0921178,-2.0269077,-3.4459305,-0.3223915,0.057328157,-0.40405667,27.0,28.1875,27.125,30.5625,32.25,32.875
0.12605412,-1.2468667,-1.0084168,-0.8821464,-0.006792187,0.0051540565,-0.13323885,-0.3765994,-0.32816333,0.06001061,3.0787063,-0.62437487,-5.7135734e-05,-0.057668965,-0.0016274701,0.0011554719,-0.008515746,0.0026306012,0.021716377,0.44448447,-1.4649351,2.0028322,-2.1073768,-1.570371,2.4190712,-0.053087194,0.0964631,-0.11089022,0.00837824,0.0063523916,-0.07473363,-0.05746084,0.21068975,-9.32781,0.8023209,47.67345,-1.1708065,-1.9302567,-3.383288,-0.32169843,0.04987709,-0.36404997,27.0,28.1875,27.125,30.5625,32.25,32.875
0.12805401,-1.0618858,-1.0531309,-0.9642266,-0.01238761,0.01683824,-0.13267976,-0.37669107,-0.32817927,0.059989773,3.0786955,-0.6243127,2.0906662e-05,-0.05736199,-0.0004177712,-0.001245519,-0.0059346245,-0.0023785785,0.024232686,0.44439977,-1.464718,2.0026405,-2.1073763,-1.5703233,2.4189491,-0.054944586,0.10063574,-0.11018401,0.009137326,0.0061778454,-0.07910728,-0.076614454,0.19153613,-9.308657,0.8090337,47.64837,-1.1502004,-1.9817846,-3.440547,-0.32812437,0.050632127,-0.3105583,27.0,28.1875,27.125,30.5625,32.25,32.875
0.13005374,-1.5851091,-1.2915378,-1.132679,-0.014237375,0.012995706,-0.12988876,-0.37683684,-0.32819155,0.060037002,3.078624,-0.6243347,-2.079476e-05,-0.058175165,-0.00030112691,0.00042436676,-0.007290254,0.00043037027,0.02757364,0.44426742,-1.4645514,2.0023296,-2.107293,-1.5702871,2.4188397,-0.055877488,0.09782748,-0.111057565,0.009704884,0.0061997,-0.083380915,-0.019153614,0.19153613,-9.5385,0.84484416,47.691364,-1.1241955,-1.8634691,-3.5141082,-0.33027357,0.0697698,-0.2539412,27.0,28.1875,27.125,30.5625,32.25,32.875
0.1320535,-1.3972079,-1.395108,-1.0200058,-0.023414647,0.02931893,-0.12961926,-0.37693366,-0.32817367,0.060001977,3.0786822,-0.62419325,4.0715768e-05,-0.05890352,-1.522611e-05,-0.00028429623,-0.0070313443,-0.0013947138,0.028395051,0.4441469,-1.4643348,2.0021737,-2.1073048,-1.5702871,2.4186237,-0.05741445,0.10053182,-0.112566374,0.010267994,0.006744882,-0.0857392,-0.05746084,0.1340753,-9.461885,0.8627467,47.694946,-1.1646546,-1.7820029,-3.5748742,-0.34356984,0.04960832,-0.21684629,27.0,28.1875,27.125,30.5625,32.25,32.875
0.13405406,-1.770911,-1.3394233,-1.038923,-0.017912017,0.027038418,-0.13402109,-0.37705046,-0.3281676,0.059988566,3.0786953,-0.6241376,0.00010786149,-0.060207184,-0.00024756422,0.0003247392,-0.008089741,3.9740396e-05,0.029255945,0.44401464,-1.464107,2.0019448,-2.1072686,-1.5702633,2.4184551,-0.058347158,0.10125264,-0.114702895,0.009935932,0.0070765433,-0.08753208,-0.30645782,0.1340753,-9.32781,0.80679786,47.70032,-1.0790768,-1.9132947,-3.3886185,-0.33850008,0.061035074,-0.17234306,27.0,28.1875,27.125,30.5625,32.25,32.875
0.1360541,-1.8813212,-1.134181,-1.1220113,-0.008458814,0.024295552,-0.12747508,-0.37718332,-0.32819688,0.06001973,3.0786521,-0.6239752,-1.5415519e-05,-0.061709642,-0.00030880742,0.0003491837,-0.008119619,0.00037190106,0.027888905,0.44394222,-1.4639385,2.001693,-2.107293,-1.5702513,2.418287,-0.059482206,0.1037711,-0.11755914,0.00996288,0.0069644516,-0.08729716,-0.3256114,0.1340753,-9.423578,0.72622824,47.68599,-1.0881559,-1.8343987,-3.634759,-0.34415278,0.053512774,-0.15692759,27.0,28.1875,27.125,30.5625,32.25,32.875
0.13805373,-1.6544758,-1.2731891,-1.312337,-0.003677166,0.035095997,-0.13025847,-0.37729782,-0.32816634,0.059993796,3.0786998,-0.62390965,8.8239336e-05,-0.06251054,-6.972064e-05,0.00015801218,-0.007654638,0.0005685541,0.025466083,0.44377398,-1.4637104,2.0014899,-2.1072447,-1.570239,2.418072,-0.06027471,0.105179854,-0.118626945,0.009647668,0.0064511052,-0.08566578,-0.28730422,0.17238252,-9.442732,0.8090337,47.67345,-1.071792,-1.8029537,-3.482924,-0.34016138,0.05514512,-0.1430909,27.0,28.1875,27.125,30.5625,32.25,32.875
0.14005335,-1.7530757,-0.8929265,-1.2323517,-0.012673443,0.03793328,-0.1334543,-0.3774228,-0.32817665,0.05999335,3.0787125,-0.6238547,6.007234e-05,-0.06475099,-0.00030576435,0.0011014693,-0.00892954,0.0027749618,0.023448503,0.44368953,-1.4634821,2.0012362,-2.1072328,-1.5702513,2.4179518,-0.0619494,0.10665183,-0.12237516,0.009382586,0.0066482443,-0.08532061,-0.2681506,0.21068975,-9.442732,0.85155696,47.687782,-1.1423272,-1.8205922,-3.452485,-0.3232568,0.04612474,-0.14356323,27.0,28.1875,27.125,30.5625,32.25,32.875
0.14205378,-1.9001584,-1.1189154,-1.3124669,-0.016429838,0.048064012,-0.13327354,-0.37756553,-0.3281679,0.06001517,3.078716,-0.6237631,3.0341891e-05,-0.065797254,-0.00077270786,0.0015586617,-0.0097489385,0.0032545547,0.017438976,0.44354522,-1.4632901,2.0009606,-2.1071732,-1.5702513,2.4177501,-0.06233961,0.10801457,-0.12507024,0.009927687,0.007179993,-0.079700224,-0.5363012,0.21068975,-9.481039,0.784413,47.64927,-1.1523056,-1.7863567,-3.428493,-0.33490917,0.039678708,-0.19302672,27.0,28.1875,27.125,30.5625,32.25,32.875
0.14405333,-2.2659822,-1.6937425,-1.5123707,-0.019595403,0.055469815,-0.12918606,-0.3776909,-0.32817224,0.06000932,3.078707,-0.6237063,5.3336662e-05,-0.067092136,-0.00041435176,0.002211415,-0.010131232,0.004245025,0.011896692,0.44342467,-1.4630624,2.0007198,-2.1071603,-1.570227,2.4175954,-0.06408543,0.108259104,-0.12700322,0.010559474,0.0070978752,-0.075902715,-0.59376204,0.2681506,-9.595961,0.8717007,47.739727,-1.2427995,-1.7548478,-3.3842978,-0.33609843,0.03551099,-0.24466555,27.0,28.1875,27.125,30.5625,32.25,32.875
0.14605363,-2.5298812,-1.8008025,-1.5040393,-0.025185775,0.057034504,-0.13580588,-0.3778256,-0.32818717,0.06002442,3.0786674,-0.6236605,1.6749756e-05,-0.06815101,0.00017724923,0.0018529878,-0.009827009,0.0039608576,0.010604233,0.443316,-1.4628581,2.000457,-2.1071494,-1.5702032,2.4174633,-0.066009276,0.10994828,-0.1279989,0.010256561,0.0069467495,-0.07653269,-0.47884035,0.2681506,-9.595961,0.8112748,47.693153,-1.0816934,-1.6533167,-3.457841,-0.33181846,0.044438556,-0.25077102,27.0,28.1875,27.125,30.5625,32.25,32.875
0.14805326,-2.6708796,-1.7747061,-1.4180405,-0.036147892,0.055979114,-0.12786952,-0.37797058,-0.32818577,0.060039677,3.0786285,-0.62367415,3.734987e-05,-0.069622144,0.00029118438,0.0016968974,-0.00961059,0.0036931315,0.006480875,0.4431596,-1.4626415,2.000169,-2.1070888,-1.5701674,2.4173205,-0.06744716,0.11276906,-0.13086715,0.010641932,0.006862196,-0.07384508,-0.57460845,0.28730422,-9.576807,0.83365434,47.694946,-1.1274431,-1.6889036,-3.4079714,-0.34100163,0.046786413,-0.31066817,27.0,28.1875,27.125,30.5625,32.25,32.875
0.15005393,-2.4845233,-1.3750297,-1.2831358,-0.046763033,0.06589255,-0.1417474,-0.37812302,-0.32818595,0.06003805,3.078609,-0.6236506,2.1085523e-05,-0.07030347,0.00041556242,0.001038643,-0.009268428,0.0025972098,0.006642615,0.44301525,-1.4623895,1.9998945,-2.1070888,-1.570155,2.417164,-0.068362564,0.115284644,-0.13214254,0.010540331,0.0070229084,-0.07492115,-0.57460845,0.22984336,-9.595961,0.84484416,47.694054,-1.1908311,-1.5735978,-3.3886876,-0.3490905,0.036241878,-0.32370067,27.0,28.1875,27.125,30.5625,32.25,32.875
0.1520542,-2.7510002,-1.4765404,-1.305686,-0.029148497,0.057597358,-0.13781506,-0.37826794,-0.3281629,0.060044397,3.0786145,-0.6236126,-4.5780627e-05,-0.071598165,0.00043442077,0.00048432266,-0.009037758,0.0022638745,0.007235506,0.442859,-1.4621962,1.9996666,-2.1070893,-1.5701793,2.4169836,-0.06947554,0.118505985,-0.13430256,0.009879202,0.0069553484,-0.07662479,-0.5746084,0.24899697,-9.557653,0.8023209,47.686886,-1.1620283,-1.7484765,-3.3962193,-0.34263977,0.02744852,-0.31744725,27.0,28.1875,27.125,30.5625,32.25,32.875
0.15405416,-2.435358,-1.2054847,-1.4086363,-0.019288745,0.055288687,-0.13495266,-0.37840426,-0.3281896,0.060032357,3.0786147,-0.6235356,1.9082689e-05,-0.07239499,0.00049624726,-0.0006616587,-0.008320112,0.00045679306,0.0069557982,0.44276267,-1.4618957,1.9993538,-2.107053,-1.5701431,2.4168394,-0.07035517,0.122435145,-0.13598582,0.009576902,0.0070757167,-0.07722341,-0.40222588,0.30645782,-9.653421,0.800085,47.686886,-1.0720392,-1.7335849,-3.428281,-0.3203988,0.031684756,-0.34246284,27.0,28.1875,27.125,30.5625,32.25,32.875
0.15605411,-1.5515432,-1.2565215,-1.1904888,-0.021980751,0.07069443,-0.14217983,-0.3785861,-0.3281948,0.060076013,3.0785213,-0.6235359,-0.00010889074,-0.07514966,9.989869e-05,0.0016874536,-0.010644232,0.0054866336,0.005403897,0.44259405,-1.4617044,1.9990424,-2.107053,-1.5701193,2.416683,-0.07198993,0.12148808,-0.14026919,0.009270107,0.007021833,-0.07730299,-0.53630114,0.28730422,-9.634268,0.8179876,47.692257,-1.1379027,-1.7292321,-3.3054264,-0.32707298,0.043679513,-0.35392797,27.0,28.1875,27.125,30.5625,32.25,32.875
0.15805398,-2.25342,-1.4308144,-1.0526073,-0.009510991,0.044008046,-0.13164502,-0.37872717,-0.328166,0.060066674,3.0785239,-0.62359303,-7.783896e-05,-0.074892856,6.0325754e-05,0.000333189,-0.0103335,0.0034679724,0.007823868,0.44241408,-1.4614757,1.998803,-2.1070182,-1.5701188,2.4165385,-0.072041176,0.123941235,-0.13965327,0.008158641,0.007604767,-0.079774745,-0.45968673,0.28730422,-9.404425,0.7418897,47.683304,-1.1342846,-1.7087178,-3.4492178,-0.32750165,0.033404447,-0.37082714,27.0,28.1875,27.125,30.5625,32.25,32.875
0.16005376,-1.5708393,-0.983579,-1.1658117,-0.012017014,0.05135782,-0.1368209,-0.37888846,-0.32819745,0.060077623,3.0784671,-0.62350714,-0.00013328796,-0.077175155,0.001339692,0.00014297976,-0.010426284,0.0036993374,0.0030453473,0.4423046,-1.4612113,1.9984912,-2.1070426,-1.5700825,2.4163828,-0.07641859,0.12609926,-0.14151002,0.007612235,0.007590739,-0.07937159,-0.47884035,0.19153613,-9.385271,0.784413,47.658226,-0.92069757,-1.7645948,-3.380396,-0.29573035,0.026033586,-0.40225482,27.0,28.1875,27.125,30.5625,32.25,32.875
0.16205342,-1.6762655,-0.5990654,-0.80960053,-0.019775411,0.04749211,-0.13979194,-0.3790678,-0.32819542,0.06010361,3.0784318,-0.62347645,-0.00024978412,-0.07756929,0.00020050428,0.00035108373,-0.010419327,0.0044948906,0.010043713,0.4421493,-1.4609832,1.9981793,-2.1070426,-1.570095,2.416213,-0.0743697,0.12789088,-0.14398926,0.007587429,0.007249131,-0.08431844,-0.34476504,0.17238252,-9.346964,0.88289046,47.707485,-1.1706405,-1.7598858,-3.3518639,-0.2985211,0.025230622,-0.3821609,27.0,28.1875,27.125,30.5625,32.25,32.875
0.16405421,-1.4218689,-0.77590686,-0.9541668,-0.0064291335,0.048716106,-0.1398745,-0.3792165,-0.32818446,0.060081866,3.078439,-0.6234581,-0.0001792743,-0.07924491,0.0012694049,-0.00066289183,-0.009239958,0.0029837769,0.010301734,0.4419803,-1.4606944,1.9979042,-2.1070182,-1.5700711,2.4160318,-0.07753348,0.13173307,-0.14595443,0.0075871716,0.00682512,-0.08773843,-0.40222588,0.11492168,-9.308657,0.8537928,47.701214,-1.0765153,-1.7450545,-3.3795385,-0.28476375,0.050105575,-0.35395268,27.0,28.1875,27.125,30.5625,32.25,32.875
0.1660537,-1.7216909,-0.8622902,-1.0195111,0.0029744979,0.035548374,-0.1339501,-0.37935725,-0.328189,0.060078464,3.0784383,-0.62336093,-0.00015625343,-0.0810338,0.0018739227,0.0001387665,-0.010609216,0.004178297,0.011501599,0.4418471,-1.4604429,1.9976281,-2.106994,-1.5700468,2.4158382,-0.080702215,0.131762,-0.14791486,0.007855961,0.007551524,-0.09210675,-0.36391866,0.13407528,-9.289503,0.77545905,47.667187,-0.8246475,-1.8392003,-3.2595253,-0.26849663,0.035849884,-0.3299135,27.0,28.1875,27.125,30.5625,32.25,32.875
0.16805354,-1.7692727,-1.5211258,-0.9702925,0.017052175,0.028994387,-0.13137567,-0.3795484,-0.32820526,0.060111556,3.0783796,-0.62326914,-0.00025106606,-0.08194595,0.00087502296,-0.001137233,-0.009600503,0.0019350492,0.018116003,0.44169143,-1.4601889,1.9972686,-2.106982,-1.570023,2.415633,-0.07963791,0.1379946,-0.1519943,0.008168046,0.0076036565,-0.097653,-0.40222588,0.13407528,-9.251195,0.8314132,47.65464,-1.0548344,-2.0202672,-3.304029,-0.25770363,0.032835644,-0.25645202,27.0,28.1875,27.125,30.5625,32.25,32.875
0.17005417,-1.7414188,-1.2877456,-0.96406615,0.008089247,0.029434158,-0.12847082,-0.37971565,-0.32817292,0.060100775,3.0784159,-0.62325466,-0.00024501284,-0.08248367,0.0021756396,-0.0011803719,-0.009027774,0.0017975199,0.02083696,0.4414986,-1.4599138,1.9969805,-2.1069462,-1.5700473,2.4154267,-0.08218945,0.1373526,-0.15129346,0.008481648,0.0071486165,-0.102925934,-0.21068975,0.19153613,-9.232041,0.86498255,47.68062,-0.93331087,-1.7883122,-3.3466713,-0.26747,0.032113142,-0.20273821,27.0,28.1875,27.125,30.5625,32.25,32.875
0.17205396,-1.6464267,-1.140917,-0.7218594,-0.0032637548,0.032157622,-0.13018386,-0.37986916,-0.32817724,0.06009455,3.0784097,-0.62311727,-0.00025137368,-0.083481155,0.0024954518,-0.00090219994,-0.008916103,0.0023689705,0.02384771,0.44135427,-1.45965,1.9967054,-2.1069582,-1.5700234,2.4151976,-0.083400294,0.13804416,-0.15281492,0.008849519,0.0068067242,-0.107146256,-0.2681506,0.17238252,-9.193734,0.842603,47.674347,-0.7980509,-1.8906639,-3.38027,-0.2531785,0.036567356,-0.13098723,27.0,28.1875,27.125,30.5625,32.25,32.875
0.17405438,-1.4136447,-1.4029065,-0.60619473,-0.0025857533,0.03458357,-0.13120247,-0.38006753,-0.32817963,0.060116608,3.0783656,-0.62306947,-0.00032806044,-0.084397696,0.0021727232,-0.00062408834,-0.009452452,0.0025310337,0.025165956,0.4411742,-1.459374,1.9963464,-2.1069458,-1.570011,2.4149935,-0.08384011,0.1394712,-0.15520199,0.009436034,0.0072285156,-0.10890283,-0.28730422,0.22984336,-9.11712,0.83813137,47.71823,-0.85715455,-1.8131189,-3.377425,-0.24667561,0.05016552,-0.069713004,27.0,28.1875,27.125,30.5625,32.25,32.875
0.17605416,-1.6586897,-0.98757803,-0.40813535,-0.012881307,0.029976679,-0.1329311,-0.38022894,-0.32816768,0.060105026,3.078371,-0.62301505,-0.00027573324,-0.086640745,0.003398213,-0.00015509149,-0.010011248,0.0028859344,0.019751405,0.44099265,-1.4590863,1.996046,-2.1069095,-1.5699872,2.4147775,-0.0882995,0.14053099,-0.15768653,0.010303559,0.0075770104,-0.10794685,-0.28730422,0.1340753,-9.002198,0.8672237,47.685097,-0.7322938,-1.8274775,-3.3458786,-0.26153028,0.033841033,-0.06339299,27.0,28.1875,27.125,30.5625,32.25,32.875
0.17805398,-1.4618232,-0.85317147,-0.52200025,-0.008531109,0.031604506,-0.1367784,-0.38038996,-0.3281717,0.060096677,3.0783763,-0.6229017,-0.0002796802,-0.08648453,0.0024178727,-0.0003316306,-0.010030279,0.0028635464,0.019137349,0.4408493,-1.4587982,1.995746,-2.10691,-1.5699753,2.414563,-0.08630422,0.14197612,-0.15886469,0.010049647,0.0076013105,-0.105336554,-0.28730422,0.17238252,-9.021352,0.7038487,47.703007,-0.7842225,-1.7556874,-3.3124948,-0.2439439,0.03481309,-0.06473866,27.0,28.1875,27.125,30.5625,32.25,32.875
0.18005364,-1.4877186,-0.46350998,-0.51759255,-0.0022404934,0.025292726,-0.13844797,-0.38057336,-0.32814494,0.06009611,3.0783782,-0.6229052,-0.00030304643,-0.08824086,0.0029530108,-0.0003118517,-0.010398947,0.0032827721,0.012741206,0.44064447,-1.4585218,1.9954356,-2.1068861,-1.5699867,2.4143603,-0.08890259,0.14387827,-0.160982,0.009726224,0.0077507077,-0.10153731,-0.21068975,0.19153613,-9.078813,0.8179876,47.658226,-0.7746748,-1.762211,-3.3254943,-0.24019727,0.022762546,-0.09488348,27.0,28.1875,27.125,30.5625,32.25,32.875
0.18205339,-1.8970457,-0.8245899,-0.6716154,0.008286256,0.015862666,-0.13786982,-0.38075793,-0.328166,0.06010468,3.0783455,-0.6227662,-0.00030050424,-0.08844457,0.0031742968,-0.0013697814,-0.0095890425,0.00057575776,0.008491573,0.44048798,-1.4582095,1.9950641,-2.1068614,-1.5699385,2.4141214,-0.08972716,0.14686501,-0.16213445,0.010688521,0.0081743365,-0.09811154,-0.34476504,0.22984336,-9.155427,0.83589023,47.67166,-0.553575,-1.7206542,-3.471406,-0.22627611,0.04197608,-0.15172824,27.0,28.1875,27.125,30.5625,32.25,32.875
0.18405429,-1.2535274,-0.41885814,-0.67560863,-0.0034304266,0.036136314,-0.14281206,-0.38093913,-0.32814494,0.060106903,3.0783043,-0.62279785,-0.00030850264,-0.08920617,0.002854671,0.000582388,-0.010943847,0.0042650183,0.0054241703,0.44027233,-1.4579474,1.9947656,-2.1068494,-1.5699147,2.413931,-0.08951185,0.14388473,-0.16341385,0.011036797,0.007826732,-0.09482828,-0.38307226,0.21068975,-9.136273,0.83589023,47.723602,-0.7834631,-1.6852415,-3.3942165,-0.22172718,0.039378487,-0.18725881,27.0,28.1875,27.125,30.5625,32.25,32.875
0.18605426,-1.2252505,-0.5704575,-1.005155,0.0032796743,0.03979451,-0.14086857,-0.3811198,-0.32813588,0.060108777,3.0783093,-0.62281924,-0.00032026123,-0.09057377,0.002695952,0.00061778777,-0.010692551,0.004723898,0.002008107,0.44010392,-1.4576464,1.9944166,-2.1068017,-1.5699271,2.4137754,-0.09008601,0.14637631,-0.16632594,0.011149278,0.007397366,-0.09198411,-0.21068975,0.15322891,-9.193734,0.84708,47.68062,-0.7459193,-1.773733,-3.2653413,-0.20294511,0.031657528,-0.23333582,27.0,28.1875,27.125,30.5625,32.25,32.875
0.188054,-1.4710042,-0.8051434,-0.99065036,0.0016786555,0.03674319,-0.13298596,-0.38132402,-0.32810426,0.060096048,3.0782728,-0.622926,-0.0003483906,-0.09114111,0.0024173716,0.0005357305,-0.011019785,0.0040022554,0.0023294853,0.4398641,-1.4573346,1.9941052,-2.106825,-1.5699266,2.4136071,-0.090408206,0.14809479,-0.16825406,0.011872674,0.00800295,-0.09262688,-0.22984336,0.11492168,-9.3661175,0.90750587,47.70838,-0.81099856,-1.6214964,-3.3216329,-0.21864948,0.046814542,-0.2625718,27.0,28.1875,27.125,30.5625,32.25,32.875
0.19005375,-1.6132377,-0.903067,-1.0063808,-0.005910067,0.029729875,-0.13142216,-0.38147703,-0.32811677,0.060094144,3.0782745,-0.6228322,-0.00025759888,-0.09167876,0.0017764817,0.00057485455,-0.01148256,0.004153184,-6.443197e-05,0.4397203,-1.4570347,1.9937576,-2.1067412,-1.5698789,2.4134047,-0.08987391,0.14968371,-0.170142,0.011840587,0.008349123,-0.08969798,-0.15322891,0.17238252,-9.385271,0.8224646,47.698532,-0.9213589,-1.5853233,-3.387425,-0.20632465,0.036660463,-0.31063852,27.0,28.1875,27.125,30.5625,32.25,32.875
0.1920554,-1.4634945,-1.1886165,-1.3375916,-0.0034685552,0.024824405,-0.12972325,-0.3816655,-0.32812244,0.06009199,3.0782576,-0.6227687,-0.00031731292,-0.09196193,0.0016123248,0.0006657359,-0.010893218,0.0040737176,0.0025671967,0.4395644,-1.456723,1.9934219,-2.106765,-1.5698789,2.4132116,-0.08943445,0.15060255,-0.17161667,0.012723769,0.00785571,-0.09188875,-0.19153613,0.19153613,-9.404425,0.8247004,47.670765,-1.0102268,-1.6122181,-3.371706,-0.2168575,0.044405658,-0.34621012,27.0,28.1875,27.125,30.5625,32.25,32.875
0.19405366,-1.4401491,-0.87207365,-1.4924585,-0.0133575285,0.01551693,-0.13202398,-0.38184854,-0.3280737,0.060075484,3.0783088,-0.6229165,-0.00024402028,-0.09304725,0.0015066463,0.0002639078,-0.010079842,0.0039418787,-0.0017621678,0.4393363,-1.456398,1.9930743,-2.1066573,-1.5699152,2.4130695,-0.08967249,0.15360989,-0.17406207,0.012625636,0.0071615865,-0.08779573,-0.1340753,0.3256114,-9.461885,0.7620334,47.71286,-1.0129845,-1.8019927,-3.4307337,-0.21716389,0.048251748,-0.4117738,27.0,28.1875,27.125,30.5625,32.25,32.875
0.19605353,-0.72963274,-1.143163,-1.5216416,-0.028138021,0.026367525,-0.14196824,-0.3820557,-0.3280687,0.06007376,3.0782778,-0.6229675,-0.00028502048,-0.09329844,0.0015986245,-0.0012706005,-0.008609591,0.0008434387,-0.0015093819,0.43914437,-1.4560614,1.9927043,-2.1066568,-1.5699152,2.4129136,-0.0899985,0.15796293,-0.17556873,0.013210684,0.007151067,-0.088373,-0.076614454,0.24899697,-9.557653,0.8247004,47.693153,-1.0618478,-1.6834658,-3.4667258,-0.20717064,0.06556968,-0.4554317,27.0,28.1875,27.125,30.5625,32.25,32.875
0.19805458,-0.9963185,-1.488241,-1.8463504,-0.042734798,0.017461646,-0.14182085,-0.38224944,-0.32808927,0.060105417,3.078176,-0.6229268,-0.00032186438,-0.094229884,0.0018465016,-0.0012781553,-0.009026167,0.00071587967,-0.00018231651,0.43896383,-1.4557976,1.9923333,-2.106633,-1.5698432,2.4127207,-0.09151233,0.15912198,-0.17690635,0.013335832,0.007590096,-0.091212794,0.076614454,0.3256114,-9.710882,0.86498255,47.677036,-1.0540612,-1.7433906,-3.432819,-0.20233819,0.071187735,-0.4752856,27.0,28.1875,27.125,30.5625,32.25,32.875
0.20005423,-0.8047138,-1.5710024,-1.8748403,-0.06429213,0.018812692,-0.13964275,-0.3824285,-0.32806414,0.0600758,3.0782473,-0.6228603,-0.0002950077,-0.09516782,0.0019936436,-0.0020650313,-0.008537333,-0.0014567517,0.0043501547,0.43878326,-1.4554489,1.9920081,-2.1066086,-1.5698789,2.41249,-0.09287725,0.16276662,-0.17945737,0.014417075,0.008068314,-0.09710927,0.05746084,0.3256114,-9.844957,0.8493211,47.68599,-0.97720873,-1.8337388,-3.4939175,-0.20947632,0.05878888,-0.4711247,27.0,28.1875,27.125,30.5625,32.25,32.875
0.2020539,-1.1470914,-2.3944573,-1.8428226,-0.06508376,0.01858112,-0.13453656,-0.38261956,-0.3280467,0.060077876,3.0782616,-0.62280387,-0.00032026222,-0.09596146,0.0023719375,-0.0028401802,-0.0076508145,-0.0025768925,0.008573328,0.43859094,-1.4551486,1.9916614,-2.1065733,-1.5698913,2.4122608,-0.0940033,0.16550429,-0.18076636,0.014384093,0.0077439332,-0.10245709,0.11492168,0.34476504,-9.864111,0.89631605,47.70032,-1.0140785,-2.0170507,-3.4810615,-0.20722413,0.08070792,-0.43080252,27.0,28.1875,27.125,30.5625,32.25,32.875
0.20405412,-1.7008253,-2.5096505,-1.8367541,-0.06074537,0.009732141,-0.12805787,-0.3828074,-0.3280498,0.060086507,3.078232,-0.6227539,-0.0002730527,-0.09683027,0.0019242299,-0.0026020776,-0.007988883,-0.0018072168,0.016464727,0.43839908,-1.4548367,1.9912785,-2.1065013,-1.5698427,2.4120417,-0.09385912,0.16690432,-0.18289396,0.014283336,0.007724256,-0.11020297,0.05746084,0.36391866,-9.730036,0.8537928,47.72002,-1.0794437,-1.9742877,-3.4921348,-0.20940545,0.10976495,-0.39830416,27.0,28.1875,27.125,30.5625,32.25,32.875
0.20605373,-0.9125293,-1.9692215,-1.677826,-0.053781286,0.024583012,-0.12982425,-0.38300052,-0.32806158,0.060087636,3.0781982,-0.62268627,-0.0002429377,-0.09868134,0.00047492396,-0.0015676329,-0.010309686,0.0005833367,0.023358468,0.43821916,-1.4545004,1.9908937,-2.106465,-1.5697945,2.411824,-0.09344893,0.16888866,-0.18737331,0.013636632,0.008806816,-0.11668431,0.11492168,0.4213795,-9.691729,0.87393653,47.686886,-1.0786579,-1.9963336,-3.444733,-0.18717977,0.077490225,-0.29956594,27.0,28.1875,27.125,30.5625,32.25,32.875
0.2080534,-1.5208794,-1.8684167,-1.6791365,-0.04074664,0.002553081,-0.1302494,-0.38321117,-0.32806775,0.060098086,3.078198,-0.6224928,-0.00038604176,-0.10043794,0.001813589,-0.0011646046,-0.0112735005,0.00165001,0.024357075,0.43806157,-1.4541893,1.9905347,-2.1065133,-1.5698184,2.411546,-0.097704746,0.16854455,-0.18783203,0.013065652,0.009241253,-0.12193793,0.095768064,0.4405331,-9.595961,0.8247004,47.690468,-0.98610246,-1.8519568,-3.4940553,-0.18074271,0.074831456,-0.25566947,27.0,28.1875,27.125,30.5625,32.25,32.875
0.21005328,-0.71984124,-1.4994276,-1.5930597,-0.043033943,0.01739724,-0.13442971,-0.38341442,-0.32806128,0.060070354,3.0781987,-0.62245053,-0.00030518233,-0.10032204,0.00022211431,-0.000943637,-0.011752541,0.0022626955,0.030773507,0.437847,-1.4537934,1.9901522,-2.10649,-1.5697821,2.4113052,-0.0946885,0.16996334,-0.18997534,0.013040684,0.00941023,-0.12533727,0.0,0.4213795,-9.519346,0.78217715,47.66987,-1.1819336,-2.0071049,-3.3876648,-0.17549232,0.08403524,-0.17287205,27.0,28.1875,27.125,30.5625,32.25,32.875
0.212054,-1.1877573,-1.7531976,-1.4177158,-0.036532953,0.012779019,-0.12778284,-0.383604,-0.32807896,0.060073823,3.0781858,-0.6222584,-0.00031552778,-0.1020636,0.0014762452,-0.001760111,-0.011826439,0.0009815984,0.026728764,0.43768945,-1.4534688,1.9897803,-2.106478,-1.5697459,2.4110296,-0.098892845,0.17275615,-0.19115983,0.012565453,0.010022168,-0.12549582,-0.1340753,0.38307226,-9.481039,0.84484416,47.703007,-1.0806692,-1.9366457,-3.4177527,-0.15114723,0.08040315,-0.14993703,27.0,28.1875,27.125,30.5625,32.25,32.875
0.21405368,-1.0186207,-1.8721979,-1.5337788,-0.035820384,0.032651894,-0.12679905,-0.38382155,-0.32807425,0.060095493,3.0781498,-0.62219334,-0.00035309803,-0.102340154,0.0004028566,-0.0010964341,-0.011934228,0.0019264389,0.025605196,0.43747422,-1.4531574,1.9893731,-2.1064298,-1.569722,2.4107785,-0.09686626,0.1735184,-0.19380257,0.013548205,0.009720536,-0.12234378,-0.21068975,0.3256114,-9.519346,0.89631605,47.74241,-1.1372759,-1.9318292,-3.4636178,-0.15292694,0.085712165,-0.16915312,27.0,28.1875,27.125,30.5625,32.25,32.875
0.2160536,-1.734957,-2.1635754,-1.4048948,-0.029579872,0.024256993,-0.118729524,-0.384008,-0.32808435,0.060094345,3.0781288,-0.62215406,-0.0003176097,-0.10260863,0.00084425986,-0.0013266811,-0.011353762,0.0013733014,0.019948713,0.43730587,-1.4528219,1.9889911,-2.1063821,-1.5696863,2.4105885,-0.09766322,0.17413618,-0.19412315,0.0140009625,0.009425915,-0.11748406,-0.15322891,0.24899697,-9.442732,0.83365434,47.694946,-1.1687251,-1.7801802,-3.6115384,-0.13366859,0.08707996,-0.21717313,27.0,28.1875,27.125,30.5625,32.25,32.875
0.21805437,-1.7743392,-1.279157,-1.0274345,-0.03645535,0.037408523,-0.13160752,-0.38422972,-0.32806587,0.06009192,3.0781245,-0.622098,-0.00034746568,-0.10427828,0.0006779833,-0.0008525065,-0.012705067,0.0017712945,0.0142497895,0.43707728,-1.4524738,1.9886059,-2.1063693,-1.5696858,2.4103258,-0.09943732,0.17593752,-0.19739427,0.014533338,0.010476571,-0.11355774,-0.22984336,0.24899697,-9.32781,0.9321212,47.688675,-1.1664696,-1.8354554,-3.5202339,-0.13351166,0.09105995,-0.29224172,27.0,28.1875,27.125,30.5625,32.25,32.875
0.22005357,-1.6490494,-0.7452321,-1.040328,-0.00945746,0.03655089,-0.13183197,-0.38441244,-0.32806098,0.060084686,3.0781603,-0.62199235,-0.0003162656,-0.10604617,0.0013988205,-0.00037689746,-0.013174911,0.0029137004,0.010053221,0.4369084,-1.4521383,1.9882349,-2.1063092,-1.5696858,2.4100866,-0.10221474,0.1766229,-0.19930004,0.0145207215,0.010411876,-0.11213776,-0.22984336,0.13407528,-9.289502,0.86945957,47.675243,-1.1746112,-1.6088042,-3.4803867,-0.123622164,0.087098315,-0.33448565,27.0,28.1875,27.125,30.5625,32.25,32.875
0.22205338,-1.6970026,-0.23262313,-0.95362943,0.011376042,0.035913922,-0.1296236,-0.3846616,-0.32806632,0.06009475,3.0780733,-0.62197334,-0.000377126,-0.10656975,0.00027684149,0.0010034721,-0.014505503,0.0056442954,0.011474216,0.4366689,-1.4517673,1.9878038,-2.106333,-1.5696381,2.4098465,-0.10053872,0.1756259,-0.20143001,0.014618146,0.0104695195,-0.11188104,-0.28730422,0.038307227,-9.3661175,0.86498255,47.679718,-1.1892991,-1.5937518,-3.4893398,-0.121034384,0.08123727,-0.33757803,27.0,28.1875,27.125,30.5625,32.25,32.875
0.22405428,-1.7502517,0.08488378,-1.040086,0.028176669,0.039486945,-0.1307968,-0.38486648,-0.32808238,0.060096744,3.0780249,-0.6219071,-0.0003772744,-0.10884009,0.0009780404,0.0010512349,-0.014918474,0.006108286,0.007370461,0.43648788,-1.4514191,1.9874085,-2.106322,-1.56959,2.4096305,-0.10386697,0.17811239,-0.20432958,0.014442192,0.010646257,-0.11110332,-0.3256114,0.0,-9.270349,0.8851263,47.705692,-1.2418585,-1.5512354,-3.4642704,-0.08624646,0.067588516,-0.35423255,27.0,28.1875,27.125,30.5625,32.25,32.875
0.22605449,-1.6928768,0.21416155,-0.98554397,0.045951422,0.04341884,-0.12630625,-0.38505578,-0.32807443,0.060089383,3.0780072,-0.62192166,-0.00031220217,-0.109281994,0.0007548458,0.0010949748,-0.014300684,0.006278539,0.009377821,0.4362842,-1.4510833,1.9870371,-2.1062615,-1.5695542,2.4094384,-0.103346966,0.1793637,-0.20600729,0.014985386,0.010013099,-0.11258977,-0.4405331,-0.11492168,-9.155427,0.8717007,47.689575,-1.1174948,-1.4664207,-3.3861666,-0.09763697,0.0865733,-0.38239008,27.0,28.1875,27.125,30.5625,32.25,32.875
0.22805402,-2.2031474,-0.1805253,-1.2200824,0.050163105,0.043888144,-0.128168,-0.3852986,-0.32808912,0.060106933,3.0779707,-0.6217996,-0.00040475596,-0.10989733,0.0009925237,0.0010737276,-0.014716931,0.0055697397,0.0075166333,0.43609154,-1.4507117,1.9865822,-2.106261,-1.5695418,2.4091744,-0.10469873,0.1802686,-0.20720424,0.01574456,0.010699949,-0.11207934,-0.5554548,-0.019153614,-9.32781,0.8537928,47.707485,-1.1431621,-1.4940808,-3.3782656,-0.07873184,0.08412805,-0.41917518,27.0,28.1875,27.125,30.5625,32.25,32.875
0.23005357,-2.2532318,-0.015037895,-1.1622791,0.022278313,0.05938836,-0.13207,-0.3855349,-0.32807678,0.060113028,3.077914,-0.62189996,-0.00038380243,-0.11101834,0.0015336556,0.0001303731,-0.013654075,0.0027159152,0.012353603,0.43583882,-1.4503388,1.9861382,-2.1062005,-1.5695056,2.4089918,-0.106757276,0.18441883,-0.21016912,0.017608186,0.010950547,-0.11897316,-0.51714754,-0.095768064,-9.346964,0.8672237,47.684196,-1.0509021,-1.5337899,-3.2750916,-0.077845365,0.07499644,-0.38139358,27.0,28.1875,27.125,30.5625,32.25,32.875
0.23205325,-1.898596,-0.2162505,-1.0239176,0.0047150496,0.0852659,-0.14057676,-0.38573015,-0.32806438,0.06011222,3.0779486,-0.62173223,-0.00038215172,-0.11283841,0.0021358624,0.00010051397,-0.012113202,0.002156138,0.015234831,0.4356463,-1.4500144,1.9857668,-2.1061518,-1.569506,2.4086905,-0.10861695,0.1876674,-0.21424176,0.019601315,0.009792103,-0.123711474,-0.5363012,-0.05746084,-9.32781,0.88960326,47.701214,-1.0531857,-1.6496401,-3.3551292,-0.09564598,0.07528208,-0.3598913,27.0,28.1875,27.125,30.5625,32.25,32.875
0.23405407,-2.1443965,-0.29758158,-1.3812131,-0.0015641397,0.08202377,-0.13248812,-0.38596326,-0.32803735,0.060101554,3.0779595,-0.62175024,-0.0003504621,-0.11356404,0.0031097922,0.0003081285,-0.01144567,0.0017244556,0.020870797,0.43539348,-1.4496189,1.9853357,-2.1060913,-1.569506,2.4084477,-0.1106873,0.18772084,-0.21521491,0.02120619,0.009377226,-0.13141789,-0.49799395,0.05746084,-9.404425,0.7866488,47.71554,-0.9603186,-1.7681682,-3.2890363,-0.106359385,0.0947981,-0.29206383,27.0,28.1875,27.125,30.5625,32.25,32.875
0.23605354,-2.9876564,-1.5694989,-1.3866642,0.0037780185,0.075113095,-0.12125429,-0.38618243,-0.32803193,0.06008877,3.0779808,-0.6216549,-0.00028167875,-0.11482133,0.003198933,-0.000100348734,-0.011408891,0.0009938107,0.026780745,0.43517718,-1.4492109,1.9848927,-2.1060197,-1.5694822,2.4081695,-0.11204362,0.19068417,-0.21771742,0.021435529,0.0096509205,-0.13868299,-0.6703765,0.17238252,-9.461885,0.8247004,47.677036,-0.9115431,-1.7363613,-3.2270799,-0.11813833,0.10345234,-0.20642439,27.0,28.1875,27.125,30.5625,32.25,32.875
0.23805316,-2.7574608,-1.6381147,-1.4640702,-0.014589409,0.08085094,-0.12294982,-0.38642448,-0.32803687,0.060103267,3.07795,-0.62153393,-0.0003334969,-0.11534502,0.0039917366,-0.00076939986,-0.0100782765,0.00020356104,0.026362326,0.43496072,-1.4488387,1.9844383,-2.105996,-1.5694588,2.4078817,-0.11330435,0.19224235,-0.21799885,0.021445686,0.008786792,-0.13952416,-0.6512229,0.15322891,-9.404425,0.8179876,47.705692,-0.88208556,-1.7074249,-3.3501475,-0.12238112,0.11521636,-0.12903851,27.0,28.1875,27.125,30.5625,32.25,32.875
0.24005386,-2.3727083,-1.5169926,-1.550268,-0.030386832,0.0825001,-0.13011324,-0.38663766,-0.32802638,0.060092967,3.0779862,-0.6214259,-0.0003022795,-0.1160694,0.0045326836,-0.0021848914,-0.008443197,-0.0019534854,0.026387217,0.43475637,-1.4484541,1.9840182,-2.1059358,-1.5694588,2.4076056,-0.11447207,0.19624044,-0.21929036,0.021389527,0.008208121,-0.14071554,-0.68953013,0.21068975,-9.595961,0.82022345,47.68062,-0.8630488,-1.726915,-3.5275369,-0.10560711,0.115528725,-0.09385511,27.0,28.1875,27.125,30.5625,32.25,32.875
0.2420537,-3.025393,-2.4467688,-1.4999886,-0.025972566,0.06316056,-0.10348404,-0.3868858,-0.32801706,0.06010656,3.0779517,-0.62140137,-0.00035130105,-0.116445296,0.0044635576,-0.002044796,-0.00879907,-0.0015005633,0.022394672,0.43451622,-1.4480827,1.9835638,-2.1059005,-1.5694469,2.4073548,-0.11466285,0.19648641,-0.21991265,0.02120433,0.00834144,-0.13691317,-0.7661445,0.24899697,-9.461885,0.85826975,47.690468,-0.9253423,-1.6246952,-3.5786462,-0.11608973,0.12689131,-0.119233415,27.0,28.1875,27.125,30.5625,32.25,32.875
0.24405324,-2.1745234,-1.9788923,-1.1520655,-0.03692002,0.07510305,-0.12189098,-0.38713485,-0.32797176,0.060096633,3.0779712,-0.6214857,-0.00036817216,-0.11706978,0.004284866,-0.0017405507,-0.0090207625,-0.00054158526,0.017199382,0.43424043,-1.4476874,1.9831332,-2.1058524,-1.5694827,2.4071295,-0.114633314,0.19694714,-0.22115567,0.02101612,0.0081292,-0.13168772,-0.6703765,0.30645782,-9.289502,0.8537928,47.70032,-0.9481554,-1.6034932,-3.6606517,-0.099667564,0.12397595,-0.19230601,27.0,28.1875,27.125,30.5625,32.25,32.875
0.24605381,-1.8034495,-1.4042772,-1.4305559,-0.031517006,0.06544554,-0.12442104,-0.38737863,-0.3280013,0.060105626,3.0779083,-0.621321,-0.00037687653,-0.11857114,0.0036601939,-0.0016551857,-0.009487244,0.0002048914,0.012489559,0.4340365,-1.4472789,1.982653,-2.105841,-1.5694107,2.406831,-0.114753276,0.19986543,-0.22461914,0.020693533,0.0082336515,-0.12709513,-0.47884035,0.3256114,-9.346964,0.9835985,47.681515,-1.0202112,-1.6681646,-3.6263564,-0.11283064,0.16090928,-0.2749915,27.0,28.1875,27.125,30.5625,32.25,32.875
0.24805349,-1.8217272,-1.9130931,-1.4238199,-0.011551458,0.0467198,-0.11760139,-0.38763335,-0.32797953,0.060104486,3.0778925,-0.62133944,-0.000432183,-0.119978406,0.0033301574,-0.0013972807,-0.010216797,0.0010332188,0.008135205,0.433784,-1.446883,1.9822096,-2.1058285,-1.5694226,2.4065924,-0.11546368,0.20181866,-0.22742231,0.020480718,0.008542186,-0.12344925,-0.26815057,0.34476504,-9.32781,0.8784135,47.692257,-0.8951185,-1.6537356,-3.4954727,-0.091326624,0.15946364,-0.3231929,27.0,28.1875,27.125,30.5625,32.25,32.875
0.25005406,-1.501505,-1.6300502,-1.3915337,-0.011787484,0.023871556,-0.12035426,-0.38787597,-0.32796067,0.060098905,3.077915,-0.62132543,-0.000453852,-0.1212076,0.0037186162,-0.00191976,-0.010363286,0.0005133834,0.0038910732,0.43355566,-1.4464746,1.9817542,-2.1057808,-1.5694469,2.4063528,-0.11737877,0.20426771,-0.22892578,0.019940605,0.008887388,-0.12111914,-0.30645782,0.34476504,-9.32781,0.92093146,47.65464,-1.075109,-1.7657101,-3.5188322,-0.07517018,0.14628828,-0.38020355,27.0,28.1875,27.125,30.5625,32.25,32.875
0.25205368,-0.8866582,-1.4642843,-1.2445704,-0.019120237,0.02208593,-0.121455036,-0.38811022,-0.32794887,0.06007197,3.0779085,-0.6213641,-0.0003849968,-0.12250635,0.0032854406,-0.0013207064,-0.010689967,0.002174032,0.0017097134,0.43331563,-1.4460311,1.9813107,-2.1057446,-1.5694226,2.406138,-0.11732911,0.2055283,-0.23178603,0.019900126,0.008474535,-0.118886724,-0.22984336,0.36391866,-9.385271,0.8985519,47.67166,-0.89034855,-1.7142353,-3.4807491,-0.07226106,0.16042034,-0.42603028,27.0,28.1875,27.125,30.5625,32.25,32.875
0.25405315,-0.6177585,-1.2505597,-1.3457274,-0.023201972,0.011291953,-0.1318098,-0.38835344,-0.32794946,0.06007723,3.07786,-0.621336,-0.0003689546,-0.123802125,0.0032066375,-0.0014728447,-0.010544049,0.0018753936,-6.952582e-05,0.43307528,-1.445635,1.9808439,-2.105697,-1.5693744,2.4058864,-0.11819539,0.20832817,-0.23477387,0.020427292,0.008465375,-0.1179718,-0.076614454,0.3256114,-9.3661175,0.9030289,47.72629,-0.96639633,-1.6649278,-3.432447,-0.04792943,0.18679911,-0.48634696,27.0,28.1875,27.125,30.5625,32.25,32.875
0.2560542,-0.950171,-1.5455166,-1.0862358,-0.027957372,0.0033984093,-0.123250246,-0.38860148,-0.32794613,0.06008412,3.077833,-0.6213091,-0.0004027864,-0.12517716,0.0024227586,-0.000813843,-0.011879562,0.0026802076,0.0022401582,0.43284726,-1.445239,1.9803761,-2.1056612,-1.569362,2.4056454,-0.11841171,0.21012436,-0.23852448,0.021094346,0.009342252,-0.12049575,0.076614454,0.3256114,-9.32781,0.83589023,47.66808,-0.9763631,-1.6524001,-3.3246856,-0.05129755,0.18021718,-0.51949114,27.0,28.1875,27.125,30.5625,32.25,32.875
0.25805575,-0.96343255,-1.4661673,-1.3098162,-0.016022101,0.00502308,-0.12060346,-0.38888794,-0.32793373,0.0600954,3.0777893,-0.62129694,-0.00046606263,-0.12791891,0.0026731356,0.0014089633,-0.014107652,0.00684255,0.007400974,0.43257007,-1.4448081,1.9798616,-2.1056364,-1.5693501,2.4053664,-0.12130335,0.20886815,-0.24237548,0.021501517,0.009632127,-0.12854613,0.11492168,0.38307226,-9.232041,0.8403672,47.68599,-0.914566,-1.6333516,-3.2207985,-0.037386257,0.17501315,-0.5057346,27.0,28.1875,27.125,30.5625,32.25,32.875
0.26005375,-0.28076634,-0.93860704,-1.4553455,-0.009380488,0.0068743355,-0.13290465,-0.3891276,-0.3279183,0.06007634,3.0778198,-0.6212964,-0.00043244232,-0.12676693,0.0014584931,0.0004542682,-0.013250298,0.004507926,0.01865515,0.43234336,-1.4443643,1.9793938,-2.1055772,-1.569362,2.4051359,-0.118113175,0.2113237,-0.24324346,0.022402754,0.009840085,-0.13661009,0.11492168,0.40222588,-9.289503,0.8985519,47.68062,-1.0562849,-1.5322764,-3.2617674,-0.04062981,0.19192657,-0.43914163,27.0,28.1875,27.125,30.5625,32.25,32.875
0.26205337,-0.40275583,-1.1215435,-1.4265171,-0.017092112,0.012391105,-0.13663384,-0.38938397,-0.32793286,0.060084477,3.077794,-0.6211712,-0.00044131855,-0.12792356,0.0024149118,6.784809e-05,-0.013357721,0.0030767978,0.026863236,0.4321262,-1.4439323,1.9788793,-2.1055286,-1.5693258,2.404844,-0.121243924,0.21306396,-0.24460338,0.023295738,0.010556985,-0.14794818,0.11492168,0.38307226,-9.346964,0.8717007,47.686886,-0.88103276,-1.6149743,-3.234905,-0.05027064,0.1958056,-0.31891835,27.0,28.1875,27.125,30.5625,32.25,32.875
0.26405418,-1.4615933,-2.4502666,-1.5596476,-0.009402455,-0.0055829375,-0.11598436,-0.3896175,-0.32790503,0.06005398,3.077853,-0.6210631,-0.00036354896,-0.12726563,0.0024097925,-0.0004974777,-0.012460073,0.0018144341,0.034088526,0.43187466,-1.4434891,1.9784378,-2.1054685,-1.5693263,2.404518,-0.12038386,0.21363011,-0.24415785,0.02381794,0.010272795,-0.15431446,0.076614454,0.34476504,-9.404425,0.88960326,47.71554,-1.098428,-1.5405393,-3.2747717,-0.042416602,0.20374212,-0.23584756,27.0,28.1875,27.125,30.5625,32.25,32.875
0.26605403,-0.9266159,-1.4534396,-1.3501959,-0.044945404,0.009171467,-0.12823497,-0.3898896,-0.3279163,0.06007406,3.077808,-0.6209764,-0.00042890746,-0.12766472,0.0030022627,-0.0019493572,-0.011409679,-0.0018129502,0.035385586,0.4316462,-1.4430685,1.9779114,-2.1054323,-1.569302,2.4042413,-0.12209626,0.21744847,-0.24550219,0.025086064,0.010852384,-0.15732251,0.095768064,0.30645782,-9.481039,0.83813137,47.694946,-1.0618833,-1.6855849,-3.4287558,-0.055492792,0.2081861,-0.17049277,27.0,28.1875,27.125,30.5625,32.25,32.875
0.2680536,-0.5398625,-1.6550126,-1.2737092,-0.057692036,0.02518993,-0.133613,-0.3901374,-0.32788798,0.060063247,3.077819,-0.6208834,-0.0003472437,-0.12803198,0.003369725,-0.0034565618,-0.010096774,-0.005127772,0.033171713,0.4313578,-1.4426477,1.977444,-2.1053479,-1.5692657,2.4038937,-0.123102926,0.22159225,-0.24701408,0.026021075,0.011037963,-0.1561147,0.095768064,0.2681506,-9.404425,0.8784135,47.687782,-1.0004449,-1.9092543,-3.5320625,-0.061507337,0.21352342,-0.15111548,27.0,28.1875,27.125,30.5625,32.25,32.875
0.27005312,-0.38716146,-2.0023615,-1.4567144,-0.029333089,0.008518894,-0.118499756,-0.3903916,-0.32789284,0.060056664,3.077787,-0.62080574,-0.00031781266,-0.12865523,0.0036470038,-0.003883368,-0.009740984,-0.0057337782,0.025109444,0.43111753,-1.4422041,1.9769524,-2.105312,-1.5692176,2.4036093,-0.1239892,0.22327189,-0.24802822,0.026055783,0.010958716,-0.14893796,0.019153614,0.24899697,-9.3661175,0.9030289,47.677036,-1.047325,-1.835674,-3.5229907,-0.062847175,0.23938297,-0.22217643,27.0,28.1875,27.125,30.5625,32.25,32.875
0.2720543,-0.69504344,-1.1995544,-1.3616613,-0.022704171,-0.009211383,-0.11169657,-0.39063486,-0.32789698,0.06002778,3.0778039,-0.620697,-0.00026341403,-0.13046698,0.0030564202,-0.0025988028,-0.011698392,-0.0035389517,0.018038327,0.43090138,-1.4417249,1.9764742,-2.1052878,-1.5691937,2.4033234,-0.12490276,0.22383162,-0.25178206,0.026432687,0.01180172,-0.14277908,-0.095768064,0.22984336,-9.308657,0.84484416,47.686886,-1.0677066,-1.8671281,-3.534245,-0.057231963,0.21845004,-0.29099792,27.0,28.1875,27.125,30.5625,32.25,32.875
0.27405423,-0.75511754,-1.0439674,-1.1414624,-0.01212839,0.0087691285,-0.12304904,-0.39090258,-0.32790157,0.060016908,3.0777767,-0.6206349,-0.00021540945,-0.13117054,0.00304763,-0.003143173,-0.011407103,-0.004536879,0.015359273,0.43064916,-1.441244,1.9759473,-2.1052396,-1.5691451,2.403036,-0.12547076,0.22637683,-0.25356615,0.026706573,0.011947902,-0.14066702,-0.1340753,0.28730422,-9.097966,0.8940802,47.705692,-1.0823591,-1.9201907,-3.586382,-0.07016183,0.21533427,-0.35046977,27.0,28.1875,27.125,30.5625,32.25,32.875
0.27605447,-0.92636174,-0.86706716,-1.3610204,0.010003985,0.005308349,-0.123121135,-0.39115933,-0.32787693,0.06001177,3.077823,-0.6205102,-0.00026609728,-0.13268904,0.0032204178,-0.001962062,-0.012840771,-0.0029308973,0.013426532,0.43040848,-1.4408255,1.97548,-2.1052043,-1.5691813,2.402712,-0.1273918,0.22593942,-0.2560635,0.027579298,0.0125793675,-0.14065444,-0.11492168,0.28730422,-9.193734,0.9030289,47.704796,-0.99433327,-1.9788816,-3.6902034,-0.05757561,0.21811599,-0.37388623,27.0,28.1875,27.125,30.5625,32.25,32.875
0.278054,-1.245567,-1.0886339,-1.1732881,0.0065774512,0.019392274,-0.118378825,-0.391418,-0.32788777,0.06002599,3.0777674,-0.620499,-0.000224798,-0.13503943,0.0025215973,-1.4532554e-05,-0.015069666,0.0002333423,0.012576075,0.4301681,-1.4403944,1.9749402,-2.1051075,-1.5691208,2.402472,-0.12845387,0.22620542,-0.26113605,0.028589893,0.013279576,-0.14086376,-0.2873042,0.2681506,-9.174581,0.9231726,47.681515,-0.9423474,-1.698555,-3.4848833,-0.06833964,0.21564966,-0.39072418,27.0,28.1875,27.125,30.5625,32.25,32.875
0.28005388,-2.3248634,-1.7702239,-1.1312941,-0.000695613,0.027487872,-0.11838752,-0.39167213,-0.32786182,0.0600044,3.0777667,-0.6204969,-0.00013085127,-0.13548271,0.0027962648,4.1258823e-05,-0.014087043,-0.0007206641,0.014155089,0.42988032,-1.4399388,1.97446,-2.105035,-1.569085,2.4021833,-0.12889203,0.22737986,-0.26317918,0.03074919,0.012781941,-0.14288089,-0.5363012,0.30645782,-9.136273,0.88960326,47.64837,-1.0819603,-1.7282188,-3.3578496,-0.10250883,0.22043759,-0.40805098,27.0,28.1875,27.125,30.5625,32.25,32.875
0.28205353,-1.7600054,-1.2562845,-1.2461883,-0.026692275,0.07930795,-0.1307298,-0.39192152,-0.32787234,0.059981726,3.0777495,-0.62047124,1.5875985e-05,-0.135343,0.0021827738,-0.0004934439,-0.013599144,-0.0035285288,0.020556714,0.42964005,-1.4394349,1.9739221,-2.1049383,-1.569013,2.4019294,-0.1280113,0.23021938,-0.26586416,0.03337011,0.013506597,-0.14840181,-0.59376204,0.28730422,-9.289503,0.8873621,47.635834,-1.0374528,-1.6860297,-3.4537115,-0.124809414,0.21558264,-0.3796311,27.0,28.1875,27.125,30.5625,32.25,32.875
0.28405413,-2.487171,-1.359946,-1.3363736,-0.038199387,0.10351857,-0.12847602,-0.39222595,-0.32787558,0.060004532,3.0777555,-0.62029505,-4.480907e-05,-0.13692668,0.0031119885,-7.460662e-05,-0.013777309,-0.0035788424,0.026073307,0.4293873,-1.4389553,1.9733104,-2.1048539,-1.569013,2.4015663,-0.13107064,0.23106736,-0.2682239,0.034869783,0.013705601,-0.15697637,-0.6895301,0.21068975,-9.461885,0.83589023,47.677036,-1.0793825,-1.7662268,-3.3797133,-0.16611402,0.22860622,-0.2956003,27.0,28.1875,27.125,30.5625,32.25,32.875
0.2860539,-2.8035421,-2.0126615,-1.2126212,-0.044113267,0.13074732,-0.13203107,-0.39247656,-0.32784823,0.059982438,3.0778022,-0.620201,1.573236e-05,-0.13642709,0.0018954838,0.00024953327,-0.014717719,-0.0026747517,0.038258884,0.42912406,-1.4385004,1.9728316,-2.1047823,-1.569013,2.4012387,-0.12861083,0.23078354,-0.2686292,0.034362767,0.014186551,-0.16670291,-0.7086837,0.2681506,-9.481039,0.8157518,47.66091,-1.1730196,-1.632668,-3.3948932,-0.1865577,0.19872229,-0.19871202,27.0,28.1875,27.125,30.5625,32.25,32.875
0.28805393,-3.4245005,-1.5851245,-1.3519707,-0.031197656,0.12202225,-0.12713416,-0.39274317,-0.32784873,0.059958767,3.0777647,-0.62017417,0.00018403446,-0.13796115,0.0026411125,0.00032681072,-0.013967695,-0.0022272435,0.03955087,0.42883548,-1.4379847,1.9722823,-2.1046865,-1.5689167,2.4009383,-0.13058099,0.23242356,-0.27089864,0.034926068,0.013308791,-0.16996452,-0.7278373,0.095768064,-9.5385,0.900793,47.651955,-1.1710912,-1.5500672,-3.5173934,-0.20244154,0.2108539,-0.11121732,27.0,28.1875,27.125,30.5625,32.25,32.875
0.29005373,-3.0165346,-1.0955694,-1.4414253,-0.0071489597,0.11385993,-0.12034846,-0.39301914,-0.3278193,0.059930712,3.07785,-0.62000084,0.00019594327,-0.13862348,0.0027527711,-0.00055845076,-0.013706629,-0.0036464748,0.03684258,0.42857122,-1.4374806,1.9717668,-2.1046393,-1.5689529,2.4005554,-0.13145283,0.23534144,-0.27223873,0.034741018,0.0136508,-0.16812772,-0.7278373,0.076614454,-9.557653,0.9791215,47.672558,-1.1020479,-1.6628238,-3.574687,-0.22857761,0.22817037,-0.08041676,27.0,28.1875,27.125,30.5625,32.25,32.875
0.29205355,-2.7644517,-1.1638741,-1.3967558,0.015070976,0.092587024,-0.11486923,-0.3933286,-0.32783055,0.059947804,3.0777907,-0.61989754,0.00012483382,-0.1404559,0.003581051,-0.00071606296,-0.013666955,-0.0030673002,0.029473867,0.4283062,-1.4369999,1.9711798,-2.1046154,-1.5689167,2.4002337,-0.13421236,0.23732848,-0.27407935,0.03408753,0.013378011,-0.16351613,-0.7469909,0.15322891,-9.423578,0.92093146,47.658226,-0.93682235,-1.8998215,-3.630422,-0.22453342,0.21914439,-0.122643,27.0,28.1875,27.125,30.5625,32.25,32.875
0.29405388,-1.4867462,0.3513068,-1.2689091,0.0035600932,0.086477175,-0.1234861,-0.39360768,-0.32783467,0.05995718,3.0777595,-0.6197991,0.00011538287,-0.14070454,0.004255888,-0.0017532954,-0.013159857,-0.0054022297,0.01959741,0.42805395,-1.4365445,1.9706305,-2.1045554,-1.5688804,2.3999243,-0.1358705,0.23941417,-0.27426398,0.03451497,0.013883283,-0.15529743,-0.57460845,-0.019153614,-9.442732,0.8605109,47.684196,-1.0973864,-1.8408883,-3.598031,-0.24745384,0.21441127,-0.18515,27.0,28.1875,27.125,30.5625,32.25,32.875
0.296054,-1.7963324,-0.2697923,-1.4290732,0.03228759,0.03927092,-0.11723695,-0.39388263,-0.32780832,0.059918422,3.0778008,-0.61979204,0.00023104777,-0.14297673,0.0033754152,-0.0006049833,-0.014003107,-0.001672891,0.013759359,0.42776597,-1.4360052,1.9700907,-2.104472,-1.5688695,2.399627,-0.13550998,0.24117446,-0.27877495,0.03352079,0.013072128,-0.14909706,-0.51714754,-0.13407528,-9.442732,0.88289046,47.70032,-0.9626075,-1.8112957,-3.632678,-0.23859219,0.2245619,-0.25940877,27.0,28.1875,27.125,30.5625,32.25,32.875
0.29805395,-0.7001274,-0.05214572,-1.2765125,0.019030731,0.05679755,-0.12135456,-0.39417872,-0.327796,0.059915684,3.0777698,-0.6198065,0.00023862097,-0.14521769,0.0029250502,-0.00089032424,-0.01467207,-0.0001407583,0.009305352,0.42747754,-1.435513,1.9695271,-2.1044123,-1.5688452,2.3993518,-0.13641024,0.24518718,-0.2822721,0.031335235,0.0130322855,-0.14554043,-0.57460845,-0.1340753,-9.385271,0.8806493,47.681515,-1.0408077,-1.8659613,-3.5022144,-0.22887582,0.23777458,-0.3382436,27.0,28.1875,27.125,30.5625,32.25,32.875
0.300054,-0.73739415,-0.2953395,-1.5568622,0.025291838,0.049395952,-0.1157179,-0.39447233,-0.3278086,0.05991827,3.077744,-0.61972815,0.00021643966,-0.14676735,0.0028192247,-0.0004141554,-0.015105446,0.0015006894,0.00276992,0.42723745,-1.4350091,1.9689406,-2.1043646,-1.5688213,2.3990664,-0.13719988,0.24653472,-0.2849144,0.030954296,0.012740083,-0.13979267,-0.34476504,0.0,-9.32781,0.8717007,47.689575,-1.0586646,-1.9035532,-3.3986511,-0.21473429,0.25256807,-0.4446152,27.0,28.1875,27.125,30.5625,32.25,32.875
0.30205363,-1.8008423,-1.3141294,-1.6151379,0.026784917,0.029438963,-0.11187671,-0.3947644,-0.32778573,0.059903536,3.0777285,-0.61972314,0.00028025464,-0.14702292,0.0025578013,-0.00057629205,-0.014305881,-0.00023404717,0.0030223576,0.42692578,-1.434505,1.9683875,-2.1042917,-1.5687851,2.398754,-0.13678697,0.24872375,-0.2877182,0.03348823,0.012729154,-0.13963151,-0.3256114,0.114921674,-9.404425,0.95226496,47.64389,-1.1078588,-1.9787378,-3.409356,-0.2618206,0.260334,-0.50800914,27.0,28.1875,27.125,30.5625,32.25,32.875
0.30405423,-0.9466785,-0.5233612,-1.4375694,-0.026881592,0.04996553,-0.13116267,-0.39507613,-0.3277693,0.059919704,3.0777183,-0.6197373,0.00020126495,-0.14680174,0.0032731155,-0.0014273346,-0.013234725,-0.0029648833,0.007895566,0.42664936,-1.4340255,1.9677914,-2.1042197,-1.5688094,2.398488,-0.13788766,0.2501174,-0.28784636,0.035162408,0.0129021155,-0.14560525,-0.19153613,0.21068975,-9.289502,0.93436235,47.704796,-1.0950632,-2.003466,-3.4638724,-0.2922054,0.24859196,-0.50144905,27.0,28.1875,27.125,30.5625,32.25,32.875
0.30605394,-0.88945484,-1.3790005,-1.4872671,-0.040068146,0.05230946,-0.13939224,-0.3953486,-0.32775846,0.059905104,3.077705,-0.61972857,0.0003321272,-0.14820944,0.0032050153,-0.00089178147,-0.013261609,-0.0015359233,0.017515037,0.42636108,-1.4335222,1.9672278,-2.1041,-1.5687493,2.3981962,-0.13843842,0.2513733,-0.29068083,0.03546228,0.012333109,-0.15577471,-0.019153614,0.22984336,-9.634268,0.95226496,47.67345,-1.0908804,-1.9532636,-3.498203,-0.32341033,0.26136607,-0.43025732,27.0,28.1875,27.125,30.5625,32.25,32.875
0.30805355,-1.4945314,-2.0420558,-1.4376045,-0.055494316,0.028851531,-0.12747584,-0.39568034,-0.32775965,0.059911747,3.0776975,-0.61958534,0.00025742946,-0.14924908,0.0031005824,-0.00091411103,-0.013592378,-0.0013808608,0.028590366,0.42608485,-1.4329826,1.9665931,-2.1040637,-1.5687493,2.397832,-0.13913816,0.2532073,-0.29285568,0.035549637,0.012589167,-0.16754808,-0.05746084,0.22984336,-9.519346,0.9567419,47.68599,-1.113431,-1.9746481,-3.4231265,-0.31504068,0.27712405,-0.31852338,27.0,28.1875,27.125,30.5625,32.25,32.875
0.31005442,-0.7216167,-1.7523786,-1.5266817,-0.06526963,0.03852775,-0.12417572,-0.39594352,-0.32772353,0.05987375,3.0778108,-0.61948806,0.00036245672,-0.14933513,0.0028938598,-0.00086187845,-0.013737354,-0.00070375873,0.0376687,0.42582121,-1.432455,1.9660548,-2.1039445,-1.5687851,2.3974936,-0.13860366,0.2532556,-0.29303813,0.035020806,0.012431471,-0.17609327,-0.038307227,0.3256114,-9.5385,0.86945957,47.66808,-1.1877308,-1.9551412,-3.3982334,-0.34536588,0.30261913,-0.22377348,27.0,28.1875,27.125,30.5625,32.25,32.875
0.31205425,-0.86852,-1.8825079,-1.7749765,-0.046177715,0.02509979,-0.12519503,-0.3962685,-0.3277358,0.059891954,3.077703,-0.61940825,0.000359323,-0.15082236,0.0022811762,5.3260574e-05,-0.016443752,0.0014591798,0.039699946,0.42550862,-1.4319521,1.9654325,-2.1038973,-1.5686888,2.397145,-0.13960068,0.25350964,-0.29528987,0.03395246,0.014013859,-0.17912012,0.019153614,0.28730422,-9.5385,0.9164598,47.657326,-1.1194378,-1.8738467,-3.5889347,-0.34232336,0.2952785,-0.15376869,27.0,28.1875,27.125,30.5625,32.25,32.875
0.3140539,-0.96440965,-1.7408586,-1.8990902,-0.045612335,0.022442574,-0.114719324,-0.39655977,-0.3277026,0.059847284,3.0778193,-0.6193602,0.0004276648,-0.15328749,0.0038405298,4.8533184e-05,-0.017081557,0.0025840267,0.030202216,0.42524317,-1.4313643,1.964846,-2.1038015,-1.5687488,2.3968353,-0.14444217,0.2548201,-0.29661578,0.03266443,0.014105089,-0.1744644,-0.05746084,0.38307226,-9.672575,0.8940802,47.678825,-1.0575829,-1.7693512,-3.635396,-0.33884686,0.29792115,-0.17991449,27.0,28.1875,27.125,30.5625,32.25,32.875
0.31605345,-0.97842824,-1.861265,-1.7416779,-0.04230956,0.021646792,-0.11911688,-0.39688522,-0.32772434,0.05989228,3.0776792,-0.61927736,0.00032168793,-0.15415958,0.0023274978,0.0009585564,-0.018908842,0.00509438,0.023495762,0.42495596,-1.4309211,1.9642352,-2.1037781,-1.5686644,2.3965144,-0.14265996,0.25550863,-0.2993517,0.031671785,0.014744832,-0.16597247,-0.05746084,0.3256114,-9.519346,0.90750587,47.694946,-1.0406903,-1.9151171,-3.5681462,-0.32241142,0.30606645,-0.24351808,27.0,28.1875,27.125,30.5625,32.25,32.875
0.3180538,-0.9067158,-1.5746834,-1.9519515,-0.040077332,0.029505845,-0.11730678,-0.3972079,-0.3277155,0.059876684,3.077677,-0.6192226,0.00035988528,-0.15618007,0.003120687,0.00074682717,-0.01941865,0.005640715,0.017168803,0.42465478,-1.4303457,1.9636015,-2.103707,-1.5686406,2.3961797,-0.1457909,0.25774938,-0.3013305,0.030703614,0.014975715,-0.16277547,-0.076614454,0.34476504,-9.557653,0.91198283,47.679718,-0.9222677,-1.7436651,-3.5446205,-0.30733305,0.29149905,-0.32654956,27.0,28.1875,27.125,30.5625,32.25,32.875
0.32005396,-1.2646885,-1.6639445,-1.8161842,-0.026895314,0.02989788,-0.11478206,-0.3975058,-0.3277029,0.059876837,3.0776722,-0.61910564,0.0003679189,-0.15663308,0.00223825,8.5547385e-05,-0.020181699,0.0045940178,0.017083164,0.42436713,-1.4298537,1.9630259,-2.103635,-1.5686158,2.39582,-0.14514104,0.26086798,-0.30338404,0.030281281,0.016101385,-0.16203882,0.0,0.30645782,-9.615114,0.900793,47.672558,-0.95437586,-1.9206243,-3.626631,-0.32742777,0.28898695,-0.35347196,27.0,28.1875,27.125,30.5625,32.25,32.875
0.32205382,-0.8769521,-1.5545747,-1.9751475,-0.023899885,0.028312955,-0.12111625,-0.39783007,-0.32769,0.05987471,3.077592,-0.619166,0.00035249122,-0.15819773,0.0024051706,-6.0815005e-06,-0.020251352,0.005237351,0.016079225,0.42404237,-1.4293375,1.962439,-2.1036108,-1.5685681,2.3955433,-0.1464566,0.26321363,-0.3058599,0.02981108,0.015905604,-0.16234823,0.1340753,0.2681506,-9.653421,0.98135734,47.650166,-0.8459606,-1.8523419,-3.601315,-0.3121005,0.30250192,-0.36360723,27.0,28.1875,27.125,30.5625,32.25,32.875
0.32405373,-0.82201433,-1.9419453,-1.7316741,-0.039106146,0.027014071,-0.12310356,-0.39813763,-0.32769,0.059876014,3.0776014,-0.61903185,0.00035011568,-0.15855591,0.0028118154,-0.001863701,-0.019085456,0.0021550206,0.018214446,0.42377838,-1.4288089,1.9618162,-2.1035273,-1.5685557,2.3951948,-0.14749007,0.2675632,-0.30662945,0.029532367,0.016116891,-0.16551599,0.076614454,0.36391866,-9.519346,0.8717007,47.70032,-1.1120101,-2.0962381,-3.527045,-0.29526022,0.30031207,-0.40126133,27.0,28.1875,27.125,30.5625,32.25,32.875
0.3260533,-1.2765559,-2.179651,-1.5556935,-0.045472816,0.018530874,-0.11547431,-0.39847004,-0.32770082,0.05989293,3.0775542,-0.6189213,0.00033212427,-0.16042913,0.0015393752,3.2811622e-05,-0.020567898,0.0066647725,0.025362909,0.42349088,-1.4282699,1.9611458,-2.1034443,-1.568508,2.3948445,-0.14623459,0.26762593,-0.31110317,0.029249724,0.01562284,-0.17140609,-0.15322891,0.38307226,-9.557653,0.86498255,47.68062,-1.0959778,-2.0827742,-3.531444,-0.28638577,0.30343238,-0.32851082,27.0,28.1875,27.125,30.5625,32.25,32.875
0.32805434,-0.8343533,-2.0710738,-1.8359587,-0.041699946,0.033665583,-0.13674591,-0.39876446,-0.3276962,0.059862837,3.0775728,-0.6187855,0.00041329378,-0.16107772,0.0018989181,-1.4672888e-06,-0.020920308,0.006744111,0.034322727,0.42321438,-1.4277067,1.9605602,-2.1033843,-1.5684718,2.3944812,-0.1474742,0.2681444,-0.31174436,0.029186824,0.015919728,-0.18160614,-0.038307227,0.47884035,-9.634268,0.89631605,47.686886,-1.0817642,-2.0310123,-3.5705605,-0.2967643,0.31061757,-0.22511344,27.0,28.1875,27.125,30.5625,32.25,32.875
0.33005407,-0.95103824,-1.9570245,-1.7299459,-0.05627863,0.044636346,-0.13523807,-0.39910376,-0.3277138,0.059878614,3.077511,-0.61859643,0.0003629876,-0.1631897,0.0013322454,0.0010235423,-0.02237713,0.00913495,0.041378625,0.4229261,-1.4271666,1.9599012,-2.103348,-1.5684117,2.394083,-0.14826028,0.26970512,-0.31597975,0.029115044,0.016286803,-0.18944485,-0.095768064,0.34476507,-9.557653,0.9701675,47.686886,-1.0433131,-1.9313658,-3.5660014,-0.26671824,0.32726395,-0.12551942,27.0,28.1875,27.125,30.5625,32.25,32.875
0.33205354,-1.5646691,-2.4381256,-1.2774222,-0.06058715,0.035897516,-0.11856445,-0.39944825,-0.3277031,0.059905514,3.077467,-0.61851007,0.00026525426,-0.16495813,0.0013653089,0.0027944606,-0.024038464,0.012881326,0.04150817,0.42261353,-1.4266646,1.9592546,-2.1032884,-1.5683998,2.3937225,-0.14960663,0.26814675,-0.31833428,0.02894073,0.016283434,-0.19091873,-0.21068975,0.28730422,-9.461885,0.91198283,47.675243,-0.99828184,-1.8874512,-3.503111,-0.2455692,0.31447887,-0.041628458,27.0,28.1875,27.125,30.5625,32.25,32.875
0.3340549,-1.6732069,-1.7521302,-1.1251471,-0.05005282,0.039958507,-0.12388783,-0.3997562,-0.3276868,0.059885927,3.0774856,-0.6183832,0.00031658422,-0.16621354,0.0012627987,0.0035541474,-0.025479373,0.014920722,0.034356974,0.42231354,-1.4261138,1.9586557,-2.103217,-1.568376,2.3933413,-0.15059896,0.2680316,-0.31990048,0.028165609,0.016750328,-0.18475969,-0.28730422,0.34476504,-9.385271,0.95897776,47.681515,-1.0040176,-1.6822231,-3.5212722,-0.23760718,0.31273654,-0.06398316,27.0,28.1875,27.125,30.5625,32.25,32.875
0.33605367,-1.722715,-1.0817466,-1.5567104,-0.0071684965,0.037624765,-0.11516648,-0.40010235,-0.32770723,0.059913278,3.0774157,-0.61827767,0.00018865349,-0.16684847,0.0016436597,0.0025770108,-0.025304152,0.013831866,0.024827333,0.42204905,-1.4255859,1.9579862,-2.103193,-1.5683516,2.3930202,-0.15184578,0.27045175,-0.3203483,0.027247863,0.017049313,-0.17647445,-0.4405331,0.15322891,-9.500193,0.9321212,47.672558,-1.0052251,-1.6430621,-3.5144734,-0.22642319,0.31578678,-0.15082476,27.0,28.1875,27.125,30.5625,32.25,32.875
0.33805332,-1.2958566,-0.40620282,-1.425412,0.0033133281,0.049511787,-0.12631848,-0.40045503,-0.32769135,0.05992654,3.0773609,-0.61826867,0.0001343535,-0.16753541,0.00067783514,0.0034536368,-0.027232226,0.015062212,0.019240241,0.4217133,-1.4250467,1.9573277,-2.1031334,-1.5683273,2.3926861,-0.1512843,0.27061054,-0.3227347,0.02755549,0.018309224,-0.17032397,-0.34476504,-0.019153614,-9.5385,1.0082139,47.685097,-1.0355136,-1.5905821,-3.6325865,-0.193293,0.2994631,-0.24734133,27.0,28.1875,27.125,30.5625,32.25,32.875
0.34005377,-1.6129154,-0.2010166,-1.0842605,-0.00041040283,0.052034765,-0.12986581,-0.40076834,-0.32770732,0.059908215,3.0773132,-0.6181679,0.00018602614,-0.16809139,0.00036352949,0.0029984869,-0.027199961,0.0142869055,0.011863946,0.42143708,-1.4244711,1.956705,-2.1030977,-1.5682548,2.3923533,-0.15119143,0.2730085,-0.32462734,0.027769942,0.01859057,-0.16285364,-0.4213795,0.0,-9.481039,0.95226496,47.64389,-1.0529253,-1.6452053,-3.6467037,-0.188876,0.2852571,-0.34123027,27.0,28.1875,27.125,30.5625,32.25,32.875
0.34205335,-1.8194528,-0.27896225,-1.3363832,0.022480024,0.0602247,-0.12789913,-0.40111825,-0.3277173,0.059922643,3.0772228,-0.6181709,0.00012378593,-0.17075868,0.00069771416,0.0027038604,-0.02702116,0.015122917,0.006406379,0.42113632,-1.4239188,1.9560336,-2.1030614,-1.5682071,2.3920662,-0.15349281,0.27732393,-0.328842,0.026987217,0.018090269,-0.15969342,-0.57460845,-0.15322891,-9.404425,0.9298854,47.64389,-0.9100269,-1.7546976,-3.632884,-0.1546526,0.2884466,-0.44396684,27.0,28.1875,27.125,30.5625,32.25,32.875
0.34405416,-1.744579,-0.11348133,-1.314279,0.03555769,0.062056236,-0.12891057,-0.40145403,-0.32770845,0.059945025,3.0771585,-0.6181174,9.319378e-05,-0.17129834,0.000107429645,0.0019997293,-0.026844366,0.014322579,0.008330081,0.4208129,-1.4234142,1.9553875,-2.102978,-1.568159,2.391718,-0.15279925,0.28051245,-0.33094364,0.026719263,0.018269934,-0.16092123,-0.40222588,-0.17238252,-9.481039,0.96569055,47.70211,-1.1612648,-1.8967998,-3.4884923,-0.10183952,0.2894605,-0.49191952,27.0,28.1875,27.125,30.5625,32.25,32.875
0.3460539,-1.9582896,-0.11782534,-0.95188624,0.007181381,0.07556211,-0.13998464,-0.401817,-0.32771796,0.059967704,3.0771031,-0.618061,-1.7112998e-05,-0.172157,-8.335187e-05,0.0024249558,-0.026606003,0.014028781,0.018258529,0.42052475,-1.4228501,1.9546803,-2.1029294,-1.5681475,2.391402,-0.15293792,0.28202698,-0.33430412,0.028963175,0.018209998,-0.17098561,-0.34476504,-0.095768064,-9.500193,0.94331104,47.677036,-1.2107953,-1.9370351,-3.473805,-0.09810467,0.30162594,-0.4448078,27.0,28.1875,27.125,30.5,32.1875,32.875
0.34805357,-2.2594867,-0.55219245,-0.9139209,0.012608708,0.06699067,-0.1316823,-0.40213412,-0.32771155,0.059949763,3.07713,-0.61794347,5.7204757e-05,-0.17223728,-0.0005515731,0.0027016706,-0.025754053,0.012651017,0.032071825,0.42023715,-1.4222606,1.9540228,-2.1028202,-1.5681232,2.391038,-0.15186217,0.28349906,-0.33756176,0.032396283,0.018016798,-0.18372321,-0.38307226,-0.038307227,-9.385271,0.9679317,47.687782,-1.2538651,-1.8370461,-3.419999,-0.09107341,0.29076257,-0.35587454,27.0,28.1875,27.125,30.5,32.1875,32.875
0.3500533,-1.8479134,-0.26537853,-1.3678513,0.014480424,0.05093561,-0.13614552,-0.40249386,-0.3277053,0.059968114,3.0770555,-0.61786765,-4.8322668e-06,-0.17302848,0.0009874558,0.0015995401,-0.024688141,0.010115949,0.037849747,0.41989988,-1.4217191,1.9533509,-2.1027725,-1.5680751,2.3906631,-0.15518396,0.28575152,-0.3379837,0.033353157,0.01811717,-0.19282146,-0.40222588,0.13407528,-9.423578,0.9388393,47.672558,-1.0521504,-1.902966,-3.3381486,-0.097773805,0.28751546,-0.22460634,27.0,28.1875,27.125,30.5,32.1875,32.875
0.35205403,-1.7771467,-0.5427835,-1.2018335,-0.009274861,0.0560323,-0.13515584,-0.402843,-0.32770726,0.059979532,3.0770192,-0.61764795,-4.91428e-05,-0.17397204,0.0023724572,0.0017926599,-0.023176761,0.009936811,0.039028157,0.41958725,-1.4211665,1.9526819,-2.1027238,-1.5680279,2.3902183,-0.15746139,0.28593168,-0.33920193,0.03519926,0.01683695,-0.19627675,-0.5554548,0.13407528,-9.461885,0.9612189,47.66539,-1.1773071,-1.8178642,-3.548936,-0.09152324,0.3036141,-0.14160019,27.0,28.1875,27.125,30.5,32.1875,32.875
0.35405403,-2.0320358,-1.7070289,-1.1784736,-0.022340285,0.064421274,-0.1327818,-0.40321207,-0.3276959,0.059992075,3.0770323,-0.61755604,-0.00015553362,-0.17312741,0.0017458308,0.0017732384,-0.022573097,0.009073321,0.036080405,0.41928816,-1.4205778,1.9519628,-2.102651,-1.5680636,2.3898606,-0.15532507,0.28604114,-0.33978248,0.03669088,0.016646167,-0.19119215,-0.4213795,0.22984336,-9.461885,0.98807013,47.67793,-1.233722,-1.7386893,-3.7111945,-0.122759506,0.29300845,-0.14873526,27.0,28.1875,27.125,30.5,32.1875,32.875
0.3560537,-2.0060928,-1.3461721,-1.3074789,-0.049435977,0.061913744,-0.1310262,-0.4035499,-0.32771212,0.060009077,3.0769718,-0.6173754,-0.00013764277,-0.17359616,0.0022259452,0.0017979238,-0.022067912,0.009675948,0.028164916,0.41898796,-1.4200252,1.95127,-2.1025555,-1.5679802,2.3894556,-0.15594268,0.28611907,-0.34003857,0.03652867,0.015937831,-0.1838941,-0.4405331,0.22984336,-9.461885,0.97240865,47.67166,-1.2724817,-1.6215693,-3.7846937,-0.12740049,0.3010115,-0.22786368,27.0,28.1875,27.125,30.5,32.1875,32.875
0.358054,-1.944648,-1.8792957,-1.42433,-0.053372312,0.065051675,-0.12219104,-0.40387645,-0.32768273,0.059982654,3.0769823,-0.61735964,-5.429641e-05,-0.17529811,0.0014690505,0.0028289254,-0.023501674,0.012400616,0.023516344,0.41865262,-1.4194367,1.9506344,-2.1024601,-1.5679559,2.3891094,-0.15589046,0.287084,-0.34353018,0.035980042,0.016119197,-0.17919238,-0.5554548,0.34476504,-9.461885,0.9097417,47.66987,-1.2798046,-1.484958,-3.69094,-0.07448031,0.32212937,-0.31731963,27.0,28.1875,27.125,30.5,32.1875,32.875
0.360054,-1.5377687,-2.0760088,-1.3771034,-0.04764242,0.055214632,-0.13360643,-0.4042428,-0.3276838,0.060012896,3.0769153,-0.6172902,-0.00016189013,-0.17631404,0.0017987436,0.0018201271,-0.022856725,0.009342696,0.018408913,0.41834062,-1.4188939,1.9499296,-2.102399,-1.5679315,2.388763,-0.15755844,0.2913869,-0.3467556,0.037956826,0.01678724,-0.1757494,-0.30645782,0.38307226,-9.519346,0.9679317,47.661808,-1.2803226,-1.5700445,-3.6631932,-0.068033256,0.32052636,-0.37329704,27.0,28.1875,27.125,30.5,32.1875,32.875
0.36205393,-1.3250172,-1.8188014,-1.5783137,-0.03893847,0.030771825,-0.13794634,-0.40458056,-0.3276872,0.060012624,3.076906,-0.61724776,-0.0001663288,-0.178915,0.0017884079,0.0024881852,-0.024052557,0.010834185,0.018036652,0.41806445,-1.4183048,1.9492329,-2.1023033,-1.5679196,2.3884618,-0.15979372,0.29398718,-0.35148844,0.038251124,0.017275672,-0.17760968,-0.21068975,0.38307226,-9.576807,1.0149267,47.657326,-1.2668334,-1.6754242,-3.58328,-0.0752804,0.30763656,-0.40066004,27.0,28.1875,27.125,30.5,32.1875,32.875
0.36405367,-1.2038819,-1.7044284,-1.5036258,-0.042249084,0.012365818,-0.13482822,-0.40496463,-0.32766724,0.06002061,3.076846,-0.6171922,-0.0002211603,-0.18041629,0.001183154,0.0024500687,-0.0252724,0.010926439,0.02263336,0.41769296,-1.4177152,1.9485277,-2.1022556,-1.5678834,2.3880637,-0.16041028,0.29706246,-0.35507995,0.03821167,0.01837562,-0.18281929,-0.05746084,0.3256114,-9.595961,0.98135734,47.69763,-1.1096077,-1.727728,-3.4503617,-0.04935377,0.31613988,-0.4065811,27.0,28.1875,27.125,30.5,32.1875,32.875
0.36605322,-0.8993958,-1.9355954,-1.4129456,-0.03083347,0.0074132457,-0.14209381,-0.4053338,-0.32767737,0.060051206,3.076755,-0.61713,-0.0003118247,-0.18114375,0.0017023889,0.0014602348,-0.024737345,0.009212933,0.030960895,0.41738063,-1.4171617,1.9478091,-2.1021955,-1.5678347,2.3877244,-0.16190612,0.2999287,-0.3563056,0.038395837,0.018625999,-0.19264004,-0.095768064,0.30645782,-9.404425,0.9321212,47.658226,-1.0233791,-1.8237538,-3.3984513,-0.024649056,0.3087887,-0.30282727,27.0,28.1875,27.125,30.5,32.1875,32.875
0.36805412,-1.0413206,-1.7358712,-1.7459358,-0.01878088,0.0009217678,-0.12684697,-0.4056817,-0.3276924,0.060050532,3.0767205,-0.6169076,-0.0002883127,-0.18216456,0.0034082546,0.00089048035,-0.024144085,0.008111775,0.037845872,0.41707996,-1.4165602,1.9471039,-2.1021235,-1.5677632,2.3872895,-0.16559476,0.3008246,-0.3562934,0.03878501,0.018565847,-0.20321357,-0.1340753,0.40222588,-9.481039,0.97464454,47.690468,-1.0208216,-1.8567387,-3.5866473,-0.0088680405,0.31016195,-0.18054277,27.0,28.1875,27.125,30.5,32.1875,32.875
0.3700539,-1.1437545,-1.9576907,-1.2856904,-0.04506852,0.023661122,-0.13708459,-0.40606788,-0.32764953,0.060068637,3.0767212,-0.61684626,-0.00034374397,-0.18191515,0.0028299654,0.00040910588,-0.024139406,0.0055987923,0.040820662,0.4166973,-1.4159837,1.9463729,-2.1020033,-1.5677747,2.386869,-0.16479257,0.30303487,-0.3583996,0.040988334,0.019597616,-0.20538414,-0.05746084,0.45968673,-9.461885,0.9791215,47.670765,-1.0130112,-1.7975748,-3.635094,-0.012836268,0.28447396,-0.08787151,27.0,28.1875,27.125,30.5,32.1875,32.875
0.37205368,-1.4165132,-2.61556,-0.9754191,-0.059744835,0.04380968,-0.14092632,-0.40641153,-0.32766515,0.060073525,3.076671,-0.61674315,-0.0003334079,-0.1819783,0.0036138985,-0.00025061212,-0.023806062,0.0031137504,0.03426425,0.41640928,-1.415395,1.9456662,-2.1019194,-1.5677146,2.3865232,-0.16652933,0.30417448,-0.35873938,0.042597722,0.020300856,-0.20056358,-0.15322891,0.51714754,-9.32781,0.95226496,47.66271,-1.0636994,-1.5851845,-3.6708117,-0.026220411,0.29550022,-0.108092695,27.0,28.1875,27.125,30.5,32.1875,32.875
0.37405345,-1.422482,-2.1636133,-0.9536873,-0.05464403,0.038815346,-0.1329004,-0.40679595,-0.32767048,0.060081817,3.0766397,-0.6165484,-0.00038600102,-0.18229185,0.0035346255,-0.0019171627,-0.023034412,-0.0006972752,0.025872998,0.41608548,-1.4147676,1.9449123,-2.1018589,-1.5676783,2.3860822,-0.16696711,0.30904585,-0.3609855,0.0437579,0.021131415,-0.19260678,-0.17238252,0.4213795,-9.289502,0.9254084,47.685097,-0.9728725,-1.7466729,-3.7030854,-0.02116409,0.2713235,-0.20311481,27.0,28.1875,27.125,30.5,32.1875,32.875
0.37605324,-1.2198913,-1.3334593,-0.6342125,-0.03926268,0.022641504,-0.1333532,-0.4071565,-0.32766905,0.06008807,3.0766022,-0.61639154,-0.0004029023,-0.18489006,0.0035815197,0.0007138407,-0.025721878,0.00339195,0.01580534,0.4157611,-1.4141803,1.9442061,-2.1017869,-1.5676297,2.385665,-0.16944927,0.30728376,-0.3654373,0.04513638,0.021925196,-0.1850183,-0.038307227,0.24899697,-9.097966,0.9679317,47.686886,-0.79587865,-1.7494788,-3.6008925,-0.039345805,0.2581347,-0.28859562,27.0,28.1875,27.125,30.5,32.1875,32.875
