Tylouw/Master_Thesis_Code/training_data/batch_1/big_rod_t0.2/sample_31_session_1.csv
timestamp[s],tcp_force_x[N],tcp_force_y[N],tcp_force_z[N],tcp_force_rx[Nm?],tcp_force_ry[Nm?],tcp_force_rz[Nm?],tcp_pose_x[m],tcp_pose_y[m],tcp_pose_z[m],tcp_pose_rx[rot_vec_x],tcp_pose_ry[rot_vec_y],tcp_pose_rz[rot_vec_z],tcp_velo_x[m/s],tcp_velo_y[m/s],tcp_velo_z[m/s],tcp_velo_rx[rot_vec_x/s],tcp_velo_ry[rot_vec_y/s],tcp_velo_rz[rot_vec_z/s],q1[rad],q2[rad],q3[rad],q4[rad],q5[rad],q6[rad],qd1[rad/s],qd2[rad/s],qd3[rad/s],qd4[rad/s],qd5[rad/s],qd6[rad/s],tool_acc_x,tool_acc_y,tool_acc_z,current_of_whole_robot[A],voltage_of_whole_robot[V],current_J1[A],current_J2[A],current_J3[A],current_J4[A],current_J5[A],current_J6[A],temp_J1[C],temp_J2[C],temp_J3[C],temp_J4[C],temp_J5[C],temp_J6[C]
8.660136e-07,-0.26168197,-0.7967437,0.001810394,-0.037206672,0.02674517,-0.014619974,-0.3728849,-0.32820755,0.05994548,-3.078457,0.624919,-0.0003119037,0.0031720109,0.0015154538,-0.0041359216,0.0044822823,-0.0096263215,-6.783085e-05,0.44812617,-1.470873,2.0095732,-2.1076548,-1.5706614,2.4230795,-6.47636e-05,0.0039278404,0.0047261035,0.001963444,0.00014563634,-0.0,0.11492168,0.038307227,-8.983045,0.69937176,47.70659,-0.21854472,-2.9389207,-2.4022872,-0.50210416,0.07927668,-0.04747677,26.375,27.25,26.375,29.5,30.8125,31.25
0.002052193,0.22646448,-0.46393487,-0.18294576,-0.02881492,0.031420227,-0.01805025,-0.37288854,-0.3282093,0.059941407,-3.0784786,0.624827,-0.00030654544,-0.00017392759,-0.00010264343,-0.0029850095,-0.00048043925,0.0006432674,-6.2907515e-05,0.44812617,-1.4708611,2.0095732,-2.107671,-1.5706614,2.4230194,-6.324656e-05,0.0039442996,0.004662062,-0.009394805,0.00014285157,-0.0,0.076614454,0.11492168,-8.90643,0.7172743,47.686886,-0.17922547,-2.8420148,-2.3532543,-0.46543452,0.06718922,-0.04736112,26.375,27.25,26.375,29.5,30.8125,31.25
0.004052119,-0.018107075,-0.51032645,-0.4959232,-0.019105423,0.025196727,-0.011060681,-0.37290227,-0.3282136,0.059939,-3.0784593,0.62490004,-0.00025246752,-0.0014200995,-0.0006957168,-0.0023338941,-0.002224784,0.0043183374,-6.01319e-05,0.4481382,-1.4708371,2.0095608,-2.1077073,-1.5706857,2.4230795,-6.1799e-05,0.0037513382,0.0041481936,-0.012755863,0.00011386138,-0.0,0.038307227,0.095768064,-8.963891,0.7105615,47.68599,-0.21177152,-3.0736914,-2.61038,-0.37944752,0.082561,-0.048893064,26.375,27.25,26.375,29.5,30.8125,31.25
0.00605194,0.18032312,-0.036884237,-0.38512766,-0.017328551,0.017373659,-0.019053658,-0.37286633,-0.32819623,0.059895508,-3.0784166,0.6248914,-0.00034260377,-0.0006479283,-0.00032118984,-0.0018247245,-0.0010700128,0.0019462095,-5.9653656e-05,0.4481382,-1.4708257,2.0096557,-2.1077416,-1.5706857,2.4230795,-6.0416176e-05,0.0027179872,0.0030182607,-0.007954312,0.00010943361,-0.0,0.05746084,0.038307227,-9.059659,0.7284641,47.672558,-0.22692049,-3.009836,-2.5455954,-0.37693292,0.08793335,-0.040489394,26.375,27.25,26.375,29.5,30.8125,31.25
0.008051997,0.14242332,0.21462512,-0.85800755,0.013208898,-0.0072734486,-0.00648221,-0.37287888,-0.32822394,0.059910607,-3.0784876,0.6248869,-0.0003565868,0.00012248306,5.1894625e-05,-0.001446123,4.9002418e-05,-0.00035671477,-5.9223836e-05,0.4481382,-1.470814,2.009608,-2.1077402,-1.5706257,2.4230676,-5.9093894e-05,0.001816888,0.0021501943,-0.003624748,0.0001067296,-0.0,0.0,0.076614454,-9.155427,0.70608455,47.677036,-0.20265456,-2.9843845,-2.4170961,-0.42928347,0.0644495,-0.068659425,26.375,27.25,26.375,29.5,30.8125,31.25
0.010051884,0.4956785,0.37125018,-1.2946614,0.028674545,-0.0076921545,-0.01438427,-0.37288114,-0.328197,0.05989122,-3.0783868,0.6249619,-0.00037406763,0.00040739204,0.00019661989,-0.0013015496,0.00059497094,-0.0014790283,-7.09016e-05,0.44812617,-1.4707781,2.0096076,-2.1077158,-1.5706857,2.4231153,-7.050851e-05,0.0016457089,0.0015442932,-0.001599601,0.00010424985,-0.0,-0.05746084,0.11492168,-9.193734,0.7217513,47.672558,-0.5836232,-2.3002255,-3.0354235,-0.47414047,0.08249172,-0.0918508,26.375,27.25,26.375,29.5,30.8125,31.25
0.012051874,0.025633534,0.034815013,-1.290738,0.0036212422,0.002903699,-0.018638337,-0.3728347,-0.32819393,0.059858236,-3.0783794,0.6248842,-0.0005148772,-4.367868e-05,0.00014438924,-0.003142411,0.002351951,-0.0051360726,-0.00037808352,0.4481381,-1.4707766,2.0096786,-2.1077034,-1.5706495,2.4230795,-0.00038548736,0.0073627625,-0.0006193844,-0.0010957646,0.00010188881,-5.739405e-06,0.095768064,0.095768064,-9.32781,0.7620334,47.690468,-0.676965,-2.1301098,-3.258579,-0.4732597,0.06648199,-0.1462712,26.375,27.25,26.375,29.5,30.8125,31.25
0.014052048,0.06722273,-0.8649408,-1.5614991,-0.024414027,0.030545462,-0.01620231,-0.37286827,-0.32820675,0.05986592,-3.0784051,0.6248733,-0.000498498,-0.005304765,0.0014712126,-0.004441683,0.0034558675,-0.0074675987,-0.0055509177,0.44812357,-1.4707245,2.0096037,-2.107703,-1.5706376,2.423055,-0.0076756426,0.017732294,-0.009192277,-0.0003130792,9.9632794e-05,-0.0021164808,-0.095768064,0.11492168,-9.576807,0.71279734,47.672558,-0.43887264,-2.8965378,-2.9376597,-0.48011488,0.069842376,-0.17033854,26.375,27.25,26.375,29.5,30.8125,31.25
0.016052334,-1.2553078,-1.6716989,-1.6700169,-0.056455154,0.040913425,-0.01363927,-0.37287018,-0.3281923,0.059853468,-3.078366,0.62486285,-0.0005201694,-0.006146373,0.0022219922,-0.003846435,0.0030032322,-0.0065273764,-0.0026555792,0.44811076,-1.4707009,2.0096037,-2.107691,-1.5706614,2.4230406,-0.0098514985,0.01663639,-0.009418736,-3.5054087e-05,9.74746e-05,-0.0071877963,-0.30645782,0.2681506,-9.749189,0.7105615,47.655537,-0.33349943,-2.7748485,-3.0669215,-0.480556,0.07433193,-0.14296426,26.375,27.25,26.375,29.5,30.8125,31.25
0.0180524,-1.4163746,-1.5591257,-1.5021371,-0.09645977,0.09230221,-0.035494126,-0.3728748,-0.3282012,0.059837293,-3.0783415,0.6248367,-0.0005809593,-0.0050177146,0.002012103,-0.004531021,0.0036889194,-0.007945124,0.0004981737,0.44812325,-1.470629,2.0095565,-2.1076672,-1.5706614,2.42304,-0.008428117,0.016839787,-0.008080307,-2.2887812e-06,9.5407995e-05,-0.008918952,-0.4405331,0.30645782,-9.844957,0.7620334,47.693153,-0.5457787,-2.5109808,-3.4915638,-0.4803002,0.078597374,-0.114821315,26.375,27.25,26.375,29.5,30.8125,31.25
0.02005233,-2.254757,-2.4965487,-1.6063409,-0.09157644,0.11189324,-0.024186414,-0.37286884,-0.32818988,0.05983742,-3.0783553,0.6247824,-0.0006062977,-0.0061992737,0.0014697043,-0.0038254492,0.0029461952,-0.0064087696,0.00017669455,0.4480993,-1.4706526,2.0095794,-2.1076553,-1.5706495,2.4229803,-0.008482809,0.017774014,-0.010722986,-1.4944106e-07,9.342697e-05,-0.008650425,-0.5746084,0.4213795,-9.730036,0.7933669,47.672558,-0.6400926,-2.3955028,-3.5253987,-0.4772081,0.07647243,-0.1435471,26.375,27.25,26.375,29.5,30.8125,31.25
0.022052106,-1.9122912,-1.4939468,-1.3616041,-0.084536135,0.11473577,-0.03266462,-0.37291038,-0.32819694,0.059847023,-3.0783577,0.62488025,-0.0005614477,-0.008428772,0.001421956,-0.0035375664,0.0025281927,-0.0055535473,-0.0019593008,0.44807473,-1.4706037,2.0095065,-2.1076672,-1.5706495,2.4230165,-0.010421973,0.020775,-0.01467597,-9.757434e-09,9.152662e-05,-0.0084507335,-0.61291564,0.38307226,-9.844957,0.7486078,47.658226,-0.7235653,-2.4964395,-3.3842745,-0.4893276,0.07238572,-0.17262284,26.375,27.25,26.375,29.5,30.8125,31.25
0.024052039,-1.8282524,-1.3711259,-1.524743,-0.050969806,0.09057877,-0.038309935,-0.37290415,-0.32818678,0.059814263,-3.0783088,0.6247935,-0.00060215633,-0.009584549,0.002017919,-0.00333432,0.0022881476,-0.005095883,-0.0033084557,0.44808584,-1.4705436,2.0095184,-2.1076791,-1.5706857,2.4229798,-0.012605503,0.021292526,-0.015710501,-6.370906e-10,0.00010644734,-0.009284444,-0.61291564,0.4213795,-9.80665,0.7553206,47.682407,-0.6943617,-2.4154694,-3.3682437,-0.494842,0.08517562,-0.19588381,26.375,27.25,26.375,29.5,30.8125,31.25
0.026051698,-1.732506,-1.023465,-1.5363414,-0.038430355,0.065407194,-0.05304895,-0.3729361,-0.32819837,0.05981829,-3.0783565,0.624841,-0.00064221106,-0.010451305,0.0018305682,-0.0024091916,0.0013933091,-0.003241346,-0.0020709238,0.4480378,-1.4704959,2.0094569,-2.1076791,-1.5706257,2.4229553,-0.013039242,0.020635014,-0.01711176,-4.159747e-11,0.000105460735,-0.010954975,-0.6703765,0.28730422,-9.825804,0.7284641,47.668976,-0.7910043,-2.3237042,-3.4284022,-0.46618086,0.07526838,-0.18944806,26.375,27.25,26.375,29.5,30.8125,31.25
0.028052643,-1.454686,-1.2149254,-1.4337747,-0.03198214,0.06662785,-0.054296765,-0.37292042,-0.32817334,0.059786562,-3.078282,0.6248651,-0.0007523874,-0.011974588,0.0021511854,-0.0021964381,0.0011014162,-0.0026791291,-0.002872537,0.44801304,-1.4704593,2.0094812,-2.107643,-1.5706376,2.422955,-0.01503863,0.022131374,-0.019241631,-2.716017e-12,0.00011850204,-0.012151274,-0.51714754,0.21068975,-9.691729,0.7239871,47.67166,-0.81510615,-2.312316,-3.4381723,-0.46037248,0.08484964,-0.20514806,26.375,27.25,26.375,29.5,30.8125,31.25
0.030052628,-1.8680097,-1.2105238,-1.4357452,-0.0282715,0.062065713,-0.07299716,-0.3729895,-0.3281832,0.059795633,-3.0782983,0.6248867,-0.0006800821,-0.013120504,0.0022350524,-0.0023524072,0.0011607134,-0.002812894,-0.002735626,0.44797674,-1.4703628,2.00936,-2.1076672,-1.5706495,2.4229302,-0.01623765,0.024288947,-0.021253286,-1.7733653e-13,0.00011834864,-0.013485651,-0.51714754,0.05746084,-9.5385,0.7105615,47.670765,-0.7748312,-2.4051082,-3.4810996,-0.45763123,0.08062006,-0.21420929,26.375,27.25,26.375,29.5,30.8125,31.25
0.03205252,-1.1304662,-0.40010962,-1.1219997,-0.034971222,0.090800524,-0.08839237,-0.37301606,-0.32816365,0.059794836,-3.0782743,0.6248624,-0.0006449803,-0.014528834,0.0020776642,-0.0017323543,0.00048624302,-0.0014559039,-0.001607539,0.44794038,-1.4703386,2.0093353,-2.1076672,-1.5706857,2.4228818,-0.017231463,0.025252527,-0.023733016,-1.1578808e-14,0.00013180941,-0.015605939,-0.61291564,0.13407528,-9.5385,0.779936,47.67166,-0.72494173,-2.29395,-3.397778,-0.45901257,0.07385515,-0.20535427,26.375,27.25,26.375,29.5,30.8125,31.25
0.034051657,-1.8647938,-0.49346665,-1.1102445,-0.007250985,0.072528966,-0.094007745,-0.37302226,-0.32818183,0.05977629,-3.0782928,0.6249042,-0.0007467403,-0.01572524,0.0018348554,-0.0012934383,-7.218856e-05,-0.00047716586,-0.0007765022,0.44792813,-1.4702663,2.0092986,-2.1076672,-1.5706257,2.4228933,-0.017912697,0.026437752,-0.026041789,-7.560134e-16,0.0002047492,-0.017116802,-0.4405331,0.019153614,-9.595961,0.7396539,47.640312,-0.7814053,-2.3187478,-3.3633518,-0.45834273,0.07817236,-0.17721853,26.375,27.25,26.375,29.5,30.8125,31.25
0.036051996,-1.2868258,-0.12490147,-1.2460494,0.019592652,0.074657895,-0.10906694,-0.37310517,-0.32817465,0.059810054,-3.0783067,0.624926,-0.0005539775,-0.016899481,0.0015283277,-0.00031914652,-0.0011305014,0.0014794418,-0.0014169827,0.4478799,-1.4702303,2.0091898,-2.107703,-1.5706857,2.422857,-0.018470835,0.026315637,-0.02814298,-4.936227e-17,0.00030879403,-0.01703341,-0.36391866,-0.05746084,-9.595961,0.6635613,47.698532,-0.7454016,-2.2376194,-3.3707094,-0.45422292,0.0709045,-0.18433371,26.375,27.25,26.375,29.5,30.8125,31.25
0.038051937,-0.8216703,-0.1861849,-1.2260001,0.038073376,0.055367287,-0.12411477,-0.37312824,-0.32815826,0.059782997,-3.0782826,0.62501866,-0.0006903782,-0.018062746,0.0017397387,-0.00024393508,-0.0013283532,0.0017304067,-0.0033581136,0.44779545,-1.4701462,2.009154,-2.1076791,-1.5706376,2.4228334,-0.01996864,0.027717393,-0.02985595,-3.2230034e-18,0.00037405285,-0.016588999,-0.30645782,-0.1340753,-9.576807,0.779936,47.705692,-0.74215496,-2.2030883,-3.389512,-0.44579148,0.086314954,-0.18145075,26.375,27.25,26.375,29.5,30.8125,31.25
0.040051624,-0.63284403,0.6089913,-1.0478927,0.017884327,0.027256375,-0.14518088,-0.37315303,-0.32817665,0.059794355,-3.0783014,0.6249655,-0.000675454,-0.019032909,0.0014583274,-0.00019075944,-0.0018833195,0.0017905665,-0.0040088017,0.44780713,-1.4700975,2.0090692,-2.1076553,-1.5706371,2.4228096,-0.02064025,0.02949285,-0.031927627,-2.1043909e-19,0.00084402855,-0.016609386,-0.21068975,-0.11492168,-9.500193,0.75084364,47.688675,-0.72111166,-2.2322497,-3.3525066,-0.43166572,0.07816001,-0.21329063,26.375,27.25,26.375,29.5,30.8125,31.25
0.042052522,-0.07286541,0.025041046,-1.0236007,0.012943786,0.0253754,-0.15302002,-0.37319162,-0.32817194,0.059785083,-3.0783086,0.62506294,-0.00068304566,-0.020225007,0.0012324611,0.00022688806,-0.0025390699,0.0026677265,-0.0042665927,0.447747,-1.4700372,2.0090325,-2.107691,-1.5706133,2.4228094,-0.021436902,0.030677333,-0.034187056,-1.374017e-20,0.0010506049,-0.01714713,-0.17238252,-0.076614454,-9.3661175,0.7709874,47.66808,-0.70901394,-2.2055423,-3.322288,-0.43435305,0.059598055,-0.20086977,26.375,27.25,26.375,29.5,30.8125,31.25
0.0440522,-0.3236131,-0.541595,-1.3419297,-0.0044401516,0.014757592,-0.16310592,-0.37326872,-0.32815996,0.059794452,-3.0783043,0.62504244,-0.00057729264,-0.021379199,0.001191933,0.0008296574,-0.0030010089,0.0040309974,-0.0037930321,0.44768658,-1.4699532,2.0089242,-2.1077154,-1.570661,2.422737,-0.022285132,0.031135172,-0.036074094,-8.971349e-22,0.00087316305,-0.018467307,-0.11492168,-0.038307227,-9.404425,0.7530795,47.65643,-0.7120754,-2.13177,-3.3981962,-0.42737743,0.08598474,-0.19451803,26.375,27.25,26.375,29.5,30.8125,31.25
0.04605256,-0.2114711,-1.0684117,-1.2315612,-0.02783673,0.026331982,-0.17297745,-0.37328136,-0.32816583,0.059786998,-3.078297,0.62504125,-0.00059287844,-0.022312734,0.0015467189,0.0008288481,-0.0029210413,0.0041829306,-0.0044546565,0.44768614,-1.469905,2.0088885,-2.1077154,-1.570661,2.4227366,-0.023705175,0.03218396,-0.037224837,-5.85765e-23,0.00073219097,-0.019224593,-0.095768064,0.095768064,-9.423578,0.7463667,47.672558,-0.68881834,-2.112927,-3.4161572,-0.40522134,0.070762664,-0.1943555,26.375,27.25,26.375,29.5,30.8125,31.25
0.048052505,-0.7642817,-1.449519,-1.2882719,-0.040173654,0.025009004,-0.1613195,-0.3733573,-0.32815087,0.059812758,-3.078279,0.6250956,-0.0005118441,-0.023291402,0.0016934071,0.0011119259,-0.003102575,0.004793215,-0.0048679854,0.4476138,-1.4698447,2.008755,-2.1076791,-1.5706977,2.4227006,-0.02479564,0.032936007,-0.038729027,0.00012300718,0.0006294904,-0.019900514,-0.05746084,0.22984336,-9.500193,0.7709874,47.696735,-0.63911384,-2.1118822,-3.4251523,-0.39473882,0.09152095,-0.16759528,26.375,27.25,26.375,29.5,30.8125,31.25
0.05005173,-0.24862051,-1.4676125,-1.5045605,-0.03483223,0.031266894,-0.15446919,-0.37338087,-0.32813907,0.05979717,-3.0783012,0.62508094,-0.00062957825,-0.024374548,0.0017425012,0.0015655675,-0.0034252133,0.0056339065,-0.004754678,0.4475295,-1.4697845,2.0087192,-2.1076553,-1.5706376,2.4226043,-0.025816197,0.03362598,-0.040591944,0.00039981832,0.0005520616,-0.021033108,-0.05746084,0.2681506,-9.557653,0.7418897,47.678825,-0.64427376,-2.084607,-3.463295,-0.40278643,0.079019755,-0.17139927,26.375,27.25,26.375,29.5,30.8125,31.25
0.052051693,-0.59789485,-1.8147613,-1.559384,-0.032313175,0.02051782,-0.14620242,-0.37344435,-0.32813552,0.059809797,-3.0782924,0.6251365,-0.0005629687,-0.024517963,0.0020282299,0.0014726995,-0.0025710657,0.0038335484,-0.0037515794,0.44748124,-1.4697125,2.008611,-2.1076543,-1.5706614,2.422592,-0.026487632,0.03473936,-0.042161904,0.0028483153,0.00056335935,-0.022707252,-0.038307227,0.30645782,-9.595961,0.7732232,47.681515,-0.6865495,-1.9881091,-3.4600892,-0.41582355,0.080919564,-0.17641586,26.375,27.25,26.375,29.5,30.8125,31.25
0.054052517,-0.005820936,-1.6635954,-1.6166734,-0.044242546,0.026353713,-0.13835777,-0.37349045,-0.3281385,0.05982506,-3.0783172,0.62515986,-0.0005033827,-0.025588427,0.0020869407,0.001908453,-0.002929107,0.0046507553,-0.0037948634,0.44744495,-1.4696763,2.008539,-2.1076663,-1.5706614,2.4225671,-0.02754432,0.035411496,-0.0439513,0.0030738935,0.00053001876,-0.023719452,-0.076614454,0.4405331,-9.519346,0.76874626,47.686886,-0.6462171,-1.9737873,-3.4842973,-0.3982708,0.10085282,-0.15233847,26.375,27.25,26.375,29.5,30.8125,31.25
0.056051806,-0.44849303,-1.697518,-1.4735789,-0.050049745,0.019224713,-0.14400278,-0.37353656,-0.3281267,0.059820786,-3.078312,0.62519795,-0.00052981626,-0.026489556,0.0017908121,0.0018717623,-0.0031491737,0.005203592,-0.0031846978,0.4473728,-1.4696038,2.0084665,-2.1076543,-1.5706495,2.4225194,-0.02777092,0.037139807,-0.045617595,0.0024186205,0.00048391544,-0.024554674,-0.019153614,0.4213795,-9.576807,0.7933669,47.709274,-0.6730026,-1.9304049,-3.459537,-0.39345554,0.08409327,-0.1613215,26.375,27.25,26.375,29.5,30.8125,31.25
0.05805164,-0.19758438,-1.8360468,-1.4548384,-0.06757529,0.03999797,-0.14560013,-0.37356445,-0.3281252,0.059798356,-3.0782943,0.62515503,-0.0006149938,-0.02769082,0.0016377863,0.0021136603,-0.0035820154,0.0060979933,-0.0024377562,0.4473365,-1.4694954,2.0083935,-2.107631,-1.5706376,2.4224586,-0.02856922,0.038552307,-0.04763992,0.0020349433,0.00047997953,-0.026098398,-0.019153614,0.4405331,-9.672575,0.7597976,47.696735,-0.720366,-1.9095683,-3.5392199,-0.37933743,0.095473364,-0.13682792,26.375,27.25,26.375,29.5,30.8125,31.25
0.06005247,-0.7535665,-2.0873306,-1.483694,-0.064665,0.039019603,-0.139386,-0.37366048,-0.3281416,0.059848256,-3.0783732,0.6251898,-0.00041020382,-0.028746251,0.0015388103,0.0021641601,-0.0038238412,0.0066089113,-0.0020651435,0.44728822,-1.4694589,2.00825,-2.1076787,-1.5706495,2.4224222,-0.029332018,0.040142454,-0.049414817,0.0016540159,0.00047628977,-0.027232302,0.0,0.38307226,-9.576807,0.78217715,47.66539,-0.6454301,-1.9045848,-3.510032,-0.3632148,0.10390201,-0.119327314,26.375,27.25,26.375,29.5,30.8125,31.25
0.062052283,-1.3361433,-1.9291326,-1.5604514,-0.054088503,0.028488414,-0.1321139,-0.3737138,-0.32814172,0.05984345,-3.0783556,0.62516636,-0.00045592999,-0.029528167,0.001639921,0.0016718684,-0.0033163817,0.00548769,-0.0018134533,0.44723997,-1.4693382,2.0081174,-2.1076305,-1.5706495,2.4223616,-0.030244181,0.042725705,-0.051234,0.0021201363,0.00049967173,-0.028394869,-0.019153614,0.34476504,-9.500193,0.7620334,47.684196,-0.68265104,-1.88151,-3.50872,-0.35461903,0.10144572,-0.1033003,26.375,27.25,26.375,29.5,30.8125,31.25
0.064052075,-0.3033214,-1.1496257,-1.2173793,-0.04652178,0.04678351,-0.13996592,-0.37375745,-0.32812673,0.05983103,-3.0783482,0.6252609,-0.0004945093,-0.03003816,0.0015447941,0.0019167718,-0.003141659,0.0052672084,-0.0013182843,0.44715595,-1.469266,2.0080693,-2.107642,-1.5706257,2.4223375,-0.030480064,0.043608546,-0.053042065,0.003320589,0.00043617625,-0.02912494,-0.21068975,0.30645782,-9.481039,0.75084364,47.677036,-0.675996,-1.9301008,-3.5370522,-0.36755335,0.12352825,-0.099023566,26.375,27.25,26.375,29.5,30.8125,31.25
0.066051655,-0.30207607,-0.74262446,-1.0606347,-0.029158171,0.044542696,-0.14667672,-0.3738433,-0.32814693,0.059861917,-3.0784504,0.62524384,-0.00042007345,-0.031373594,0.0015251597,0.0022346445,-0.003377293,0.0056135375,-0.002132897,0.44708344,-1.4691936,2.0079243,-2.1076658,-1.5705775,2.4222414,-0.031688344,0.04528399,-0.05575587,0.003945984,0.00049767306,-0.029516978,-0.11492168,0.30645782,-9.557653,0.68818194,47.65912,-0.71492517,-1.8422298,-3.513075,-0.3704762,0.110985875,-0.08720492,26.375,27.25,26.375,29.5,30.8125,31.25
0.068052515,-0.5406781,-1.0693824,-0.876882,-0.012810031,0.044213403,-0.14500333,-0.37391078,-0.32812604,0.059869558,-3.0784113,0.6252733,-0.00033268702,-0.032489497,0.0010073395,0.002348863,-0.0045927293,0.005617732,-0.0013149679,0.44702327,-1.469121,2.007827,-2.1076658,-1.5706371,2.4222047,-0.032459237,0.047332253,-0.058250297,0.0038571004,0.0015869283,-0.03110595,-0.19153614,0.2873042,-9.423578,0.7732232,47.695843,-0.6821273,-1.8708743,-3.4045315,-0.3556177,0.09855354,-0.092131466,26.375,27.25,26.375,29.5,30.8125,31.25
0.07005251,-0.7388249,-0.57294786,-0.9512995,-0.027392384,0.04551725,-0.1360386,-0.37395656,-0.3281185,0.05985718,-3.0783963,0.62519264,-0.00036725248,-0.032901783,0.00060193747,0.0023081938,-0.005212827,0.0058032405,5.6522622e-05,0.44697526,-1.4690129,2.0077312,-2.107642,-1.5706486,2.4221084,-0.032387953,0.048369113,-0.05917613,0.0033085907,0.0020614099,-0.032406237,-0.17238252,0.19153613,-9.404425,0.779936,47.690468,-0.73786753,-1.847434,-3.551285,-0.34854853,0.08421248,-0.05388739,26.375,27.25,26.375,29.5,30.8125,31.25
0.07205242,-0.90596956,-0.7934766,-0.9204388,-0.024812452,0.05270552,-0.13948147,-0.37405255,-0.3281584,0.05989717,-3.0785103,0.6251398,-0.00025147165,-0.035358336,-0.00027299364,0.0035884588,-0.007033041,0.008520019,-0.0015144047,0.44693893,-1.4689163,2.007539,-2.1076663,-1.5706128,2.4220247,-0.03327488,0.05026908,-0.06416829,0.0031638069,0.0025220502,-0.03171948,-0.28730422,0.17238252,-9.3661175,0.7463667,47.701214,-0.69225967,-1.8299398,-3.332193,-0.32880622,0.074763596,-0.06363234,26.375,27.25,26.375,29.5,30.75,31.25
0.07405219,-1.0524149,-0.4088081,-0.6343913,-0.027703248,0.052104857,-0.14073916,-0.374113,-0.32814285,0.05987644,-3.0784442,0.62528044,-0.00032831877,-0.034973875,0.0001078563,0.0016971318,-0.004858952,0.0046748486,-0.0025176066,0.44685486,-1.4687711,2.0074189,-2.10763,-1.5706128,2.422037,-0.03343469,0.05420175,-0.06429936,0.0037707102,0.0022233909,-0.030875191,-0.30645782,0.11492168,-9.308657,0.76874626,47.67793,-0.75549686,-1.9228575,-3.367025,-0.31512016,0.07808088,-0.07758346,26.375,27.25,26.375,29.5,30.75,31.25
0.076051824,-1.0219994,-0.5754163,-0.8242513,-0.012342443,0.054622352,-0.13554044,-0.37416565,-0.3281297,0.05987451,-3.07841,0.6252356,-0.00032418576,-0.03546851,0.0003375528,0.0028260793,-0.0050863246,0.005518717,-0.0025450673,0.44680658,-1.4686759,2.0073102,-2.1075928,-1.5706486,2.4219651,-0.034200568,0.052734144,-0.065749705,0.005828873,0.002064717,-0.03161335,-0.30645782,0.076614454,-9.32781,0.7172743,47.66987,-0.80427945,-1.8465044,-3.4079175,-0.33238238,0.08976289,-0.08171056,26.375,27.25,26.375,29.5,30.75,31.25
0.078052595,-0.81893384,-0.336887,-0.754183,-0.008198004,0.050176777,-0.1398422,-0.37426668,-0.32815307,0.05990306,-3.078498,0.625349,-0.0002852417,-0.03744839,-0.00019788703,0.0039092307,-0.0057641203,0.0073517696,-0.0025270325,0.44671053,-1.4685676,2.0071285,-2.1076052,-1.570577,2.4219286,-0.03485162,0.05444513,-0.07032808,0.0067533725,0.0018797088,-0.032279216,-0.22984336,0.076614454,-9.270349,0.75084364,47.678825,-0.83665323,-1.7228469,-3.4054108,-0.33667588,0.06619672,-0.060890093,26.375,27.25,26.375,29.5,30.75,31.25
0.08005243,-0.5895757,0.042739924,-0.8824194,-0.010640326,0.04890662,-0.14625578,-0.37433636,-0.3281584,0.05991085,-3.0785213,0.6252771,-0.00020501325,-0.038150758,0.00037245292,0.0030867986,-0.0049199793,0.005680588,-0.0040611653,0.4466738,-1.4684708,2.0070097,-2.107629,-1.5706013,2.4218442,-0.03652698,0.05700625,-0.07133433,0.0070697907,0.0018406465,-0.032419387,-0.19153613,0.13407528,-9.232041,0.71951014,47.658226,-0.77990955,-1.7609975,-3.1875212,-0.34143686,0.07991327,-0.06344621,26.375,27.25,26.375,29.5,30.75,31.25
0.0820517,-1.1773751,-0.4243019,-0.7552887,-0.009692221,0.034640163,-0.13489075,-0.37439856,-0.3281245,0.059901662,-3.0784893,0.62529,-0.0002664949,-0.039168365,0.00047811723,0.0020338162,-0.004358663,0.0038577667,-0.0040998403,0.4465534,-1.4683735,2.006913,-2.107581,-1.5706009,2.421736,-0.037824847,0.061079156,-0.07336736,0.006915543,0.0021158531,-0.033677258,-0.3256114,0.17238252,-9.251195,0.7642693,47.655537,-0.73916423,-1.9066741,-3.412107,-0.3146246,0.07460348,-0.070445105,26.375,27.25,26.375,29.5,30.75,31.25
0.08405257,-1.1218864,-0.9438771,-0.94106275,-0.021579932,0.040067796,-0.13203235,-0.37448218,-0.32813284,0.05991237,-3.0784829,0.6253279,-0.00026487326,-0.04024957,4.309859e-05,0.0041580177,-0.0061360546,0.007196751,-0.004366916,0.4464933,-1.4682306,2.0067203,-2.1075327,-1.5706009,2.4217005,-0.03808246,0.05853432,-0.07569737,0.0080108205,0.0022751265,-0.033667427,-0.4405331,0.076614454,-9.251195,0.78217715,47.642998,-0.7983186,-1.7537352,-3.2870727,-0.3261059,0.07711536,-0.06580812,26.375,27.25,26.375,29.5,30.75,31.25
0.08605192,-1.1830591,-1.2309428,-1.0410511,-0.021602077,0.045105964,-0.13201556,-0.3745765,-0.32813603,0.059923723,-3.078515,0.62541115,-0.00022916684,-0.04099444,-0.0005597787,0.003512212,-0.005794421,0.005657982,-0.005178211,0.44639742,-1.4681095,2.006564,-2.1075447,-1.5705765,2.4216526,-0.037853424,0.062447406,-0.078658044,0.008593731,0.0026290305,-0.03262539,-0.38307226,0.17238252,-9.308657,0.79560274,47.66987,-0.80064315,-1.7759595,-3.2440925,-0.32851788,0.06823245,-0.05979255,26.375,27.25,26.375,29.5,30.75,31.25
0.0880518,-1.0284497,-0.9113125,-1.0782337,-0.034743153,0.05611294,-0.14046812,-0.37465504,-0.32814586,0.05992238,-3.0785267,0.62543464,-0.00022716173,-0.04150087,0.00015386863,0.0028582965,-0.0048298617,0.0037043716,-0.007692215,0.44633672,-1.467965,2.006408,-2.1075442,-1.5705646,2.421605,-0.039625585,0.06440328,-0.07957952,0.0097386185,0.002603886,-0.031882968,-0.38307226,0.2681506,-9.404425,0.68146914,47.709274,-0.77791977,-1.9001709,-3.269815,-0.32615638,0.06831818,-0.1105977,26.375,27.25,26.375,29.5,30.75,31.25
0.09005162,-1.2417568,-1.1275333,-0.9771101,-0.042622894,0.050491966,-0.13496155,-0.37473693,-0.32813412,0.05992677,-3.0785024,0.62548625,-0.00025639322,-0.043508854,-0.00012459872,0.0036051031,-0.0052606934,0.0050304662,-0.007022145,0.4462405,-1.4678327,2.0062387,-2.107484,-1.5705646,2.4215443,-0.040778216,0.066552915,-0.08382618,0.010454327,0.0024121627,-0.033702757,-0.2681506,0.30645782,-9.3661175,0.78217715,47.689575,-0.7434827,-1.8324528,-3.196807,-0.34876722,0.068175405,-0.100562304,26.375,27.25,26.375,29.5,30.75,31.25
0.09205242,-1.136394,-1.7613646,-1.2202752,-0.029318253,0.049532577,-0.124220654,-0.37479576,-0.32812148,0.05992282,-3.0784683,0.6254804,-0.0002663183,-0.043607637,0.0010944799,0.0021969685,-0.0041434714,0.0030726932,-0.008836294,0.44617966,-1.4677243,2.0061204,-2.1074483,-1.5705885,2.4214842,-0.04303849,0.06810327,-0.0820687,0.0093946215,0.0022498763,-0.034149174,-0.3256114,0.4213795,-9.404425,0.80456203,47.679718,-0.73582625,-1.8608449,-3.3286047,-0.34766173,0.061116405,-0.10444077,26.375,27.25,26.375,29.5,30.75,31.25
0.0940523,-1.2673893,-1.5887634,-1.0337888,-0.043660704,0.046432294,-0.13711946,-0.37491906,-0.328138,0.059953295,-3.0785441,0.6254582,-0.00018339964,-0.04493733,0.0010253821,0.0022924466,-0.0041185333,0.0034493825,-0.009913333,0.44608334,-1.4675797,2.0058916,-2.1074483,-1.5705651,2.4213645,-0.04396823,0.07024375,-0.084683776,0.00954187,0.002062979,-0.033999544,-0.3256114,0.30645782,-9.442732,0.74413085,47.63404,-0.68477607,-1.8434308,-3.32647,-0.34837794,0.05723965,-0.12021516,26.375,27.25,26.375,29.5,30.75,31.25
0.09605251,-0.7102173,-1.3534817,-1.0416157,-0.0535407,0.054161046,-0.13827334,-0.37499446,-0.32812127,0.05995099,-3.0784965,0.6255626,-0.0001755969,-0.045280423,0.00044625095,0.002046415,-0.0038027978,0.0030852105,-0.0087543,0.44599983,-1.4674593,2.005759,-2.1074245,-1.570589,2.4213524,-0.04309281,0.07235348,-0.08648391,0.0096968515,0.0019317004,-0.03428162,-0.21068975,0.38307226,-9.346964,0.7620334,47.67345,-0.76237106,-1.9051529,-3.1797397,-0.33331856,0.05286821,-0.12522955,26.375,27.25,26.375,29.5,30.75,31.25
0.09805247,-0.9698762,-1.1375649,-1.0904849,-0.049581937,0.04153399,-0.13141681,-0.37508208,-0.32813135,0.059941642,-3.0785363,0.625474,-0.00022572023,-0.046389543,0.0006096704,0.0017427551,-0.00380221,0.0030019549,-0.0094783325,0.44591537,-1.4672788,2.0055792,-2.1074126,-1.5705532,2.4212077,-0.04440943,0.074477375,-0.08802042,0.009186113,0.0019624594,-0.034872916,-0.21068975,0.30645782,-9.404425,0.80456203,47.704796,-0.8103171,-1.8542207,-3.2926164,-0.33345413,0.0760603,-0.15164514,26.375,27.25,26.375,29.5,30.75,31.25
0.10005227,-0.8487041,-1.2160373,-0.95423955,-0.03780725,0.03758903,-0.13508585,-0.3751981,-0.32813588,0.05996714,-3.078564,0.62555754,-0.00013670925,-0.047954235,0.0007062225,0.0022362943,-0.0042284764,0.0037058648,-0.010322131,0.4458187,-1.4671465,2.0053751,-2.1074126,-1.5705527,2.4211597,-0.046040334,0.0759031,-0.09086605,0.0097870175,0.002041668,-0.035658285,-0.11492168,0.3256114,-9.385271,0.7396539,47.66808,-0.7071706,-1.9435712,-3.2253857,-0.32101077,0.06084738,-0.15304913,26.375,27.25,26.375,29.5,30.75,31.25
0.1020521,-0.8993894,-1.0281277,-1.0721892,-0.030816168,0.02397346,-0.13070954,-0.37529567,-0.328123,0.05997134,-3.0785387,0.6255528,-0.00012924483,-0.04921697,0.00048143283,0.0021885543,-0.0045090066,0.004217472,-0.011028103,0.44572246,-1.4669901,2.0051825,-2.1073644,-1.5705765,2.421064,-0.046762116,0.078160435,-0.09311719,0.009197534,0.0020681794,-0.035672326,-0.1340753,0.24899697,-9.346964,0.75084364,47.692257,-0.7629113,-1.8703562,-3.189591,-0.32937694,0.064253874,-0.17685366,26.375,27.25,26.375,29.5,30.75,31.25
0.10405194,-0.9480117,-1.3740691,-1.0971152,-0.021929057,0.018950166,-0.12756775,-0.37540564,-0.32811844,0.059959847,-3.078531,0.62562764,-0.00011447593,-0.049911544,3.9505663e-05,0.0019188423,-0.0046825283,0.0043049394,-0.010473629,0.44561458,-1.4667977,2.0050027,-2.1073892,-1.5705765,2.4210038,-0.046620674,0.080288805,-0.09469526,0.00849333,0.0021830907,-0.036084075,-0.1340753,0.28730422,-9.289502,0.7597976,47.691364,-0.7630292,-1.9885178,-3.2361727,-0.3227848,0.069657445,-0.19076127,26.375,27.25,26.375,29.5,30.75,31.25
0.10605189,-0.5911818,-0.80451286,-0.9314215,-0.03001867,0.029858904,-0.1311658,-0.37551153,-0.3281285,0.05998057,-3.078522,0.6256836,-4.7596168e-05,-0.0509651,4.206222e-05,0.0024492035,-0.005071011,0.0052236193,-0.010559052,0.44555423,-1.4666417,2.0047753,-2.107353,-1.5706009,2.4209797,-0.0475295,0.08083757,-0.09661043,0.008862693,0.0021360428,-0.03690624,-0.1340753,0.24899697,-9.346964,0.77545905,47.705692,-0.7547583,-1.8552935,-3.1781435,-0.3135864,0.0609624,-0.19221205,26.375,27.25,26.375,29.5,30.75,31.25
0.10805182,-0.78357023,-1.0505337,-1.0398126,-0.022262681,0.02600986,-0.13331702,-0.37562153,-0.32813698,0.05998172,-3.078582,0.6257147,-0.00010216749,-0.051899806,6.9294288e-06,0.0014399493,-0.0042798654,0.0032300123,-0.011223768,0.445422,-1.4664602,2.0045702,-2.107341,-1.5705284,2.4208593,-0.048383694,0.08509721,-0.099081665,0.009216716,0.0022778783,-0.037093908,-0.15322891,0.2681506,-9.461885,0.71951014,47.694946,-0.8221737,-2.1014605,-3.186178,-0.3210349,0.04718956,-0.21036552,26.375,27.25,26.375,29.5,30.75,31.25
0.11005179,-0.7634484,-1.3402327,-1.0344958,-0.02253484,0.030404866,-0.1277819,-0.37573555,-0.32812983,0.05999019,-3.0785618,0.6257679,-9.042515e-05,-0.052077778,-0.0002678742,0.0027542147,-0.00533404,0.005329108,-0.009291584,0.44531408,-1.4662818,2.0043433,-2.107293,-1.5705408,2.4207873,-0.04804032,0.08268883,-0.099584274,0.00977885,0.0023256566,-0.03868307,-0.095768064,0.28730422,-9.423578,0.78217715,47.66271,-0.7942196,-1.890163,-3.230208,-0.32361662,0.05010151,-0.22395776,26.375,27.25,26.375,29.5,30.75,31.25
0.112051815,-0.89700437,-1.3077105,-0.88318646,-0.02835455,0.030076502,-0.12432946,-0.37579232,-0.32812098,0.059980888,-3.0785425,0.6257041,-0.00012565321,-0.05226362,-0.00056820194,0.00091023836,-0.0033117915,0.0013801835,-0.006820218,0.44525427,-1.4661598,2.0042222,-2.1072567,-1.5705527,2.4206903,-0.04755262,0.08856019,-0.102074616,0.010832784,0.0021971671,-0.040664535,-0.1340753,0.3256114,-9.3661175,0.7396539,47.686886,-0.9082405,-1.9737511,-3.203063,-0.32730103,0.051206842,-0.21847212,26.375,27.25,26.375,29.5,30.75,31.25
0.11405185,-0.35780367,-0.6284987,-0.9720888,-0.040666316,0.04254292,-0.13737628,-0.37593845,-0.3281439,0.059994087,-3.0785754,0.62580806,-4.775746e-05,-0.053324204,0.0002630502,0.0015983029,-0.0039244685,0.0030528652,-0.009734438,0.44515744,-1.465933,2.0039475,-2.1072805,-1.5705408,2.4206543,-0.049930718,0.08721962,-0.10210122,0.010427822,0.0020320835,-0.04012813,-0.05746084,0.24899697,-9.32781,0.8403672,47.658226,-0.8547559,-1.9618392,-3.3002162,-0.3016055,0.06080658,-0.25029737,26.375,27.25,26.375,29.5,30.75,31.25
0.11605188,-0.5483111,-0.96669656,-1.0595607,-0.033949997,0.036341347,-0.1290786,-0.37604275,-0.32812986,0.060001817,-3.0785642,0.62582517,-6.306776e-05,-0.05381377,-8.679047e-06,0.000558744,-0.0030874363,0.0014289327,-0.00995464,0.44503745,-1.4657757,2.003743,-2.107221,-1.5705413,2.4205465,-0.049804453,0.09095966,-0.103803806,0.010216935,0.001971629,-0.039779965,0.0,0.2681506,-9.32781,0.7038487,47.661808,-0.8767239,-2.0365407,-3.322988,-0.30762628,0.05552585,-0.27463752,26.375,27.25,26.375,29.5,30.75,31.25
0.11805179,-0.94407964,-1.0214692,-0.9291896,-0.021775484,0.016463831,-0.13010235,-0.3761547,-0.3281436,0.060022213,-3.0786126,0.62585187,1.3304301e-05,-0.053898703,-0.0009951774,0.00022493907,-0.0028882218,0.0010882933,-0.0062517202,0.44495407,-1.4656312,2.0035398,-2.1072328,-1.5705289,2.4204738,-0.04799255,0.093291216,-0.10558374,0.01005932,0.0019373077,-0.041669354,-0.038307227,0.19153613,-9.346964,0.7329411,47.687782,-1.0668792,-2.027831,-3.3204803,-0.303918,0.06041742,-0.28758752,26.375,27.25,26.375,29.5,30.75,31.25
0.120051816,-0.4238569,-0.6185898,-0.77130055,-0.019923931,0.02505503,-0.130775,-0.37627217,-0.32814848,0.060022462,-3.0786126,0.62589115,2.8118215e-05,-0.055638265,-0.0007735917,0.0006154051,-0.0034633714,0.0023398672,-0.0077372566,0.4448574,-1.4654269,2.0033114,-2.107221,-1.5705289,2.4204018,-0.04993681,0.09465873,-0.107907176,0.009638275,0.0019127121,-0.04212635,-0.038307227,0.17238252,-9.308656,0.7351769,47.62867,-1.0169753,-1.9734169,-3.394979,-0.29383323,0.047105722,-0.31395474,26.375,27.25,26.375,29.5,30.75,31.25
0.12205176,-0.36363035,-0.59024096,-0.908929,-0.012275326,0.016997986,-0.12722842,-0.37637013,-0.3281443,0.059995662,-3.0785887,0.6258661,-3.171668e-05,-0.056025736,-0.0006701444,0.0004703516,-0.0035028853,0.0023767373,-0.006277423,0.44476137,-1.4651992,2.0031192,-2.107209,-1.5705289,2.4202933,-0.050472647,0.095335394,-0.10825529,0.009259578,0.0019291833,-0.044121765,-0.05746084,0.24899697,-9.270349,0.77545905,47.67166,-1.1146045,-2.0344548,-3.2958221,-0.2754112,0.066278905,-0.30685323,26.375,27.25,26.375,29.5,30.75,31.25
0.12405253,-0.04057939,-0.45169607,-0.8749245,-0.01735229,0.025160149,-0.13594258,-0.37648115,-0.3281524,0.060007673,-3.0786097,0.62587225,1.2453638e-05,-0.057560746,-0.00050302455,0.00043421602,-0.0035826103,0.002579762,-0.008868292,0.4446766,-1.4650307,2.0029032,-2.107197,-1.5705289,2.42021,-0.052135147,0.097679816,-0.110758275,0.009200838,0.0019102339,-0.04319147,-0.05746084,0.17238252,-9.3661175,0.84484416,47.684196,-1.0285065,-1.9150507,-3.412825,-0.2760692,0.06013202,-0.3116035,26.375,27.25,26.375,29.5,30.75,31.25
0.12605196,-0.6960687,-0.85487086,-0.7775157,-0.026637865,0.014775577,-0.12941422,-0.3766128,-0.32815403,0.060011134,3.078581,-0.6259615,-3.8946987e-06,-0.05709587,-0.0009492373,0.00067503186,-0.0036114573,0.002657625,-0.009264696,0.44454515,-1.4648153,2.0026524,-2.1071732,-1.570505,2.420138,-0.050852764,0.09718557,-0.11091536,0.009770803,0.0019047215,-0.041512847,-0.095768064,0.24899697,-9.346964,0.83365434,47.66987,-1.1655085,-1.8953835,-3.4194279,-0.2654103,0.05175952,-0.3748612,26.375,27.25,26.375,29.5,30.75,31.25
0.1280518,-0.62930465,-0.73669237,-0.7293923,-0.035414975,0.025705637,-0.12952979,-0.37674162,-0.32815567,0.06003547,3.0785534,-0.62597555,-0.00011576402,-0.05801766,-0.00038637,-0.00014120319,-0.0025666642,0.0006497104,-0.009361897,0.44444853,-1.4646584,2.0024235,-2.1071727,-1.5705289,2.4200537,-0.052662473,0.10037401,-0.11279205,0.010720605,0.0018264129,-0.043223802,-0.11492168,0.24899697,-9.32781,0.8224646,47.70032,-1.1792911,-2.014087,-3.4775002,-0.2813737,0.05871351,-0.39499003,26.375,27.25,26.375,29.5,30.75,31.25
0.1300519,-0.4883837,-0.6407232,-0.9869398,-0.029936425,0.03721615,-0.13720872,-0.3768406,-0.3281453,0.060006656,-3.0785735,0.6260175,-4.7561743e-06,-0.05882033,0.00010391965,0.00063511904,-0.0028501456,0.0018091195,-0.00875922,0.44434008,-1.4644071,2.002196,-2.1071007,-1.5705289,2.419969,-0.0541145,0.09935874,-0.11363272,0.011408974,0.0015797599,-0.04527823,-0.019153614,0.1340753,-9.3661175,0.71951014,47.651955,-1.1227376,-1.8042555,-3.4860234,-0.27897012,0.0726511,-0.42448372,26.375,27.25,26.375,29.5,30.75,31.25
0.13205191,-0.57760507,-0.749953,-0.87190706,-0.02682417,0.034441296,-0.13302487,-0.37696728,-0.32814384,0.06001514,3.0785913,-0.6259814,-6.5934444e-05,-0.060551796,-0.00035252172,5.350791e-06,-0.002487582,0.0011462091,-0.0072705206,0.44423193,-1.4642255,2.001979,-2.1071126,-1.5705413,2.4198363,-0.05476064,0.104358576,-0.1176755,0.011206071,0.001530747,-0.047409736,-0.05746084,0.19153613,-9.32781,0.7933669,47.64389,-1.1496795,-1.9690156,-3.3827217,-0.28383762,0.064007334,-0.43270645,26.375,27.25,26.375,29.5,30.75,31.25
0.13405165,-0.72066116,-0.9377406,-0.93449455,-0.028094731,0.03271192,-0.13568248,-0.37711114,-0.32815513,0.060048293,3.0784945,-0.6260575,-0.00013644672,-0.060816288,0.0002452683,0.00041402373,-0.0028635415,0.001979134,-0.0069052926,0.44409955,-1.4640588,2.0017164,-2.1071007,-1.570505,2.4197638,-0.056078587,0.102845125,-0.11692398,0.011056393,0.001518073,-0.049093444,-0.095768064,0.1340753,-9.404425,0.900793,47.63046,-1.0882628,-1.8057711,-3.5722952,-0.2582085,0.07442275,-0.43046603,26.375,27.25,26.375,29.5,30.75,31.25
0.13605191,-0.75400126,-0.60527754,-0.95061696,-0.031167613,0.033288147,-0.13052917,-0.3772366,-0.328168,0.060069986,3.0784674,-0.6260708,-0.0001543601,-0.06241539,1.520994e-05,0.00016483327,-0.0030559276,0.0015662671,-0.00600051,0.44400302,-1.4638659,2.0014403,-2.1070411,-1.5704931,2.4196792,-0.05729306,0.10641332,-0.12034011,0.011194097,0.0018639492,-0.051210634,-0.19153613,0.1340753,-9.404425,0.8112748,47.609863,-1.2022203,-1.8673898,-3.3443494,-0.27158737,0.072007336,-0.42883924,26.375,27.25,26.375,29.5,30.75,31.25
0.13805172,-0.9425612,-0.51859105,-1.0145898,-0.027233409,0.03251848,-0.13219185,-0.3773496,-0.32816032,0.0600257,3.0785146,-0.62609786,-7.484685e-05,-0.063968234,-0.000520416,0.00084567466,-0.0042428058,0.0030235383,-0.003388224,0.4438949,-1.4635777,2.0012238,-2.1070411,-1.5705045,2.4195821,-0.05795345,0.10785959,-0.12350011,0.011080204,0.0022998317,-0.054482006,-0.17238252,0.24899697,-9.346964,0.7933669,47.651955,-1.1146653,-1.8685186,-3.4076967,-0.26750737,0.075313486,-0.42422786,26.375,27.25,26.375,29.5,30.75,31.25
0.1400524,-1.004066,-1.0897157,-1.2866813,-0.025264077,0.046068024,-0.12767531,-0.37747198,-0.3281503,0.060027972,3.0785306,-0.6260994,-7.172771e-05,-0.06546175,-0.0005388646,0.0016580196,-0.005020664,0.0042626983,-0.0018414463,0.44377443,-1.4633739,2.0009825,-2.1069925,-1.5705165,2.4194608,-0.059343226,0.1085267,-0.12626544,0.011724401,0.0024660022,-0.057417322,-0.22984336,0.2681506,-9.481039,0.7866488,47.658226,-1.156105,-1.7250608,-3.4285326,-0.2701645,0.0611846,-0.41978052,26.375,27.25,26.375,29.5,30.75,31.25
0.14205226,-1.0073925,-1.2337775,-1.2780911,-0.037922096,0.060243137,-0.13179578,-0.3775836,-0.32814792,0.06003824,3.0785234,-0.6260778,-3.207868e-05,-0.06655467,-0.0003653592,0.0017128533,-0.0053269477,0.004312288,0.0006165887,0.44365385,-1.4631937,2.0007436,-2.1069205,-1.5704926,2.4193277,-0.06079138,0.10994661,-0.1280115,0.011875205,0.0027181066,-0.06132274,-0.2681506,0.24899697,-9.500193,0.8224646,47.653748,-1.0655237,-1.7524438,-3.386437,-0.2603516,0.054091185,-0.40429616,26.375,27.25,26.375,29.5,30.75,31.25
0.14405222,-1.6011354,-1.2546465,-1.3654476,-0.05075588,0.06356785,-0.12859358,-0.37773168,-0.32813543,0.060044546,3.0785298,-0.62607664,-0.00011181907,-0.06728106,-0.00050507707,0.0020348127,-0.005258926,0.0048294743,0.004061313,0.44352186,-1.4629778,2.000491,-2.1069205,-1.5705284,2.4191945,-0.06096008,0.11080223,-0.12983765,0.012407001,0.0024354286,-0.06493467,-0.36391866,0.28730422,-9.576807,0.74413085,47.67345,-1.178783,-1.7482831,-3.412387,-0.27031368,0.06969726,-0.35517457,26.375,27.25,26.375,29.5,30.75,31.25
0.14605168,-2.104011,-1.9799868,-1.6116072,-0.039295156,0.07388732,-0.13031904,-0.3778528,-0.3281355,0.06003344,3.0785236,-0.6260746,-3.043374e-05,-0.06816591,-0.00014781638,0.0013773793,-0.004345022,0.0033377514,0.006280183,0.44338945,-1.4627372,2.0002396,-2.1068723,-1.5704926,2.4190617,-0.062265914,0.11374043,-0.1317711,0.013145297,0.0022459964,-0.068457864,-0.47884035,0.30645782,-9.576807,0.86498255,47.658226,-1.2001204,-1.5632515,-3.3749723,-0.28512046,0.06735613,-0.31889606,26.375,27.25,26.375,29.5,30.75,31.25
0.14805175,-1.664031,-1.4601876,-1.3677542,-0.047413416,0.0821838,-0.13546446,-0.3780018,-0.32815322,0.060041416,3.0785084,-0.6259924,-6.354637e-05,-0.06971843,-0.00023632844,0.0015956913,-0.00476798,0.004406269,0.008132655,0.4432812,-1.462485,1.9999403,-2.1068609,-1.5704807,2.4189043,-0.06340538,0.11563255,-0.13426416,0.012601111,0.0021664433,-0.07144777,-0.4405331,0.2681506,-9.653421,0.8291774,47.670765,-1.1405554,-1.6800692,-3.400251,-0.2762076,0.078526065,-0.26432595,26.375,27.25,26.375,29.5,30.75,31.25
0.15005173,-2.0097857,-1.6378304,-1.4819552,-0.044062033,0.06641771,-0.12729491,-0.37815282,-0.3281567,0.06003931,3.0784652,-0.6260406,-6.771983e-05,-0.07040649,0.00017536391,-0.00011272632,-0.0033197708,0.0014402317,0.010051807,0.4431366,-1.4622315,1.9996651,-2.1068609,-1.5704569,2.4187953,-0.0647336,0.12042839,-0.13565476,0.012498825,0.0021294204,-0.07469351,-0.4405331,0.24899697,-9.576807,0.842603,47.66987,-1.2377594,-1.8502576,-3.4099917,-0.27689046,0.07836762,-0.22847828,26.375,27.25,26.375,29.5,30.75,31.25
0.15205164,-1.6306733,-1.155734,-1.1530277,-0.05467638,0.06468961,-0.13808967,-0.37829918,-0.3281621,0.06005132,3.0785003,-0.62593293,-0.00013299429,-0.071956396,0.00036394334,0.000665485,-0.0048232405,0.0034271975,0.009316925,0.44303983,-1.4619923,1.9993652,-2.1068256,-1.5704926,2.4186273,-0.066778906,0.1202779,-0.13710596,0.011656681,0.0026332657,-0.07600356,-0.49799395,0.30645782,-9.595961,0.80456203,47.685097,-1.2283812,-1.6950219,-3.3542547,-0.26431453,0.05846145,-0.18509999,26.375,27.25,26.375,29.5,30.75,31.25
0.15405205,-1.261876,-0.9578958,-1.1610684,-0.05000637,0.061858676,-0.14611228,-0.37844405,-0.32814765,0.0600509,3.0784647,-0.62592626,-0.000114120725,-0.07474981,-4.4301214e-05,0.0016748015,-0.0064233323,0.0062527205,0.008248805,0.44285938,-1.4617757,1.9991239,-2.1068132,-1.5704569,2.4184473,-0.068623014,0.12248318,-0.14168237,0.010791691,0.0028584364,-0.07677662,-0.45968673,0.28730422,-9.615114,0.7911258,47.689575,-1.1046721,-1.7883549,-3.2912998,-0.24511692,0.06604393,-0.16728334,26.375,27.25,26.375,29.5,30.75,31.25
0.15605177,-1.4546345,-0.9326712,-1.0193903,-0.039753024,0.050671753,-0.13565092,-0.37860116,-0.32814556,0.060060047,3.0784729,-0.6258512,-0.00012711133,-0.074344605,0.0007912841,0.00011544735,-0.004723129,0.0033874847,0.0067808027,0.44271508,-1.4615237,1.9988135,-2.1067655,-1.5704569,2.4182553,-0.06958254,0.12460225,-0.14048348,0.010792653,0.0025540798,-0.07626814,-0.38307226,0.21068975,-9.576807,0.8179876,47.67166,-1.1358117,-1.7298069,-3.459346,-0.22670183,0.05964934,-0.13491556,26.375,27.25,26.375,29.5,30.75,31.25
0.1580517,-1.4478418,-0.5897032,-0.94495773,-0.030827416,0.041641254,-0.13682503,-0.37875596,-0.32814863,0.060060292,3.078443,-0.62588507,-0.00017277988,-0.07596863,0.0006455968,0.00053195725,-0.0053442814,0.004813782,0.0042492007,0.4425827,-1.4612715,1.998537,-2.106778,-1.5704569,2.418148,-0.07068718,0.12620105,-0.1431165,0.010272485,0.0025009355,-0.07483916,-0.3256114,0.11492168,-9.461885,0.80456203,47.694946,-1.1194047,-1.7804894,-3.3595705,-0.20774767,0.07436922,-0.13074386,26.375,27.25,26.375,29.5,30.75,31.25
0.16005254,-1.2548352,-0.760568,-0.86793274,-0.0119107785,0.05387068,-0.122784264,-0.37891403,-0.3281515,0.060064852,3.0784302,-0.6258642,-0.00017422134,-0.07699466,0.00029807584,0.000113512455,-0.00524891,0.004302802,0.0018725599,0.44243866,-1.4610068,1.9982256,-2.1067421,-1.5704445,2.4179928,-0.07100178,0.12934323,-0.14563899,0.010156131,0.0026292198,-0.072775334,-0.4405331,0.095768064,-9.346964,0.7463667,47.699425,-1.134559,-1.8034797,-3.3253655,-0.20054314,0.066463366,-0.14231133,26.375,27.25,26.375,29.5,30.75,31.25
0.16205166,-0.99935544,-0.24940467,-0.7453728,-0.014690841,0.052159805,-0.143106,-0.37908012,-0.32814845,0.06007445,3.078375,-0.62589484,-0.00021026291,-0.07917077,0.0016817062,0.00080655003,-0.0059558004,0.00526568,-0.005227677,0.44226888,-1.4607673,1.9979385,-2.1067417,-1.5704206,2.4178493,-0.07563298,0.12940703,-0.14745957,0.010741309,0.002857278,-0.070305616,-0.30645782,0.1340753,-9.308657,0.84708,47.686886,-0.9852451,-1.7915797,-3.350429,-0.18728802,0.07483019,-0.163639,26.375,27.25,26.375,29.5,30.75,31.25
0.16405247,-1.0065701,-0.521186,-0.78554976,-0.0012714139,0.04808824,-0.13438544,-0.37922266,-0.32814223,0.060058463,3.078391,-0.6259376,-0.000188577,-0.07907663,0.0002052292,-0.00014500708,-0.0057500815,0.003423997,-0.007932188,0.4421379,-1.46049,1.9976629,-2.1067178,-1.5704321,2.4177432,-0.07315836,0.13364334,-0.15002008,0.010815108,0.0034520645,-0.06512524,-0.30645782,0.1340753,-9.32781,0.83813137,47.686886,-1.0803435,-2.0006342,-3.2441988,-0.17347698,0.044542756,-0.2012063,26.375,27.25,26.375,29.5,30.75,31.25
0.16605236,-1.0811995,-0.17928886,-0.72303724,-0.011923,0.04362062,-0.13209398,-0.37940538,-0.32814968,0.060089793,3.0783129,-0.6259824,-0.00029760646,-0.08089345,0.00072257256,-0.0011307392,-0.0048844144,0.0011277195,-0.012832175,0.44198108,-1.460261,1.9973377,-2.1067178,-1.5704201,2.4176245,-0.075832486,0.13874352,-0.15366195,0.011803132,0.0036526744,-0.0628967,-0.36391866,0.15322891,-9.289502,0.7665104,47.67166,-1.0614018,-1.8300205,-3.2872152,-0.1629411,0.05233027,-0.24063608,26.375,27.25,26.375,29.5,30.75,31.25
0.1680523,-1.1757313,-0.6910922,-0.86567926,-0.007893706,0.037472207,-0.12812613,-0.37954542,-0.3281576,0.06007017,3.0783489,-0.6259522,-0.00023612386,-0.08229724,0.0023261115,-0.0004542076,-0.0050774897,0.0023665186,-0.015296589,0.4418715,-1.4599502,1.9970278,-2.1066697,-1.5704206,2.4174917,-0.07979798,0.137243,-0.15365964,0.012100846,0.0032957734,-0.064397946,-0.34476504,0.11492168,-9.232041,0.7978386,47.67166,-0.87733334,-1.8765996,-3.3331156,-0.15886858,0.051422555,-0.24234809,26.375,27.25,26.375,29.5,30.75,31.25
0.17005214,-0.7869668,-0.36889893,-0.5039526,-0.018044617,0.044067383,-0.1412324,-0.37974828,-0.3281348,0.06008751,3.0782936,-0.6260948,-0.0003198724,-0.081778124,0.0016642752,-0.0008004771,-0.0042099957,0.001226342,-0.015610621,0.44165647,-1.459686,1.9966925,-2.1066568,-1.5704325,2.417373,-0.07785043,0.13869509,-0.15474595,0.013137521,0.0030028254,-0.06213534,-0.36391866,0.11492168,-9.193734,0.81351066,47.666286,-1.0604942,-1.9215128,-3.3616714,-0.14655414,0.05559936,-0.29289773,26.375,27.25,26.375,29.5,30.75,31.25
0.17205201,-1.2354766,-0.24021932,-0.5722324,-0.029758038,0.03569695,-0.14325936,-0.37988925,-0.32816488,0.060093526,3.0782754,-0.6260138,-0.00032669745,-0.08341637,0.002558516,-0.0009697516,-0.0038520168,0.0006530891,-0.01720203,0.44157127,-1.4594218,1.9963807,-2.106633,-1.5704087,2.4172397,-0.080887735,0.1408382,-0.1569303,0.013852264,0.0029233464,-0.063579746,-0.36391866,0.15322891,-9.11712,0.82022345,47.66987,-0.9417436,-1.9391304,-3.4169698,-0.14620078,0.049524017,-0.3077797,26.375,27.25,26.375,29.5,30.75,31.25
0.17405182,-1.3315887,-0.6877661,-0.54831934,-0.018607851,0.037572335,-0.13382973,-0.3800799,-0.32813978,0.060093284,3.0782456,-0.6261227,-0.00034087288,-0.084476486,0.0026605586,-0.00041794838,-0.0041217804,0.0011869745,-0.016516952,0.44135508,-1.459134,1.9960569,-2.1066086,-1.5704087,2.4170954,-0.081973985,0.14146543,-0.15915619,0.014853867,0.0029385844,-0.06535003,-0.34476507,0.095768064,-9.078813,0.83813137,47.658226,-0.950191,-1.8728583,-3.3460817,-0.14604309,0.066774,-0.3038712,26.375,27.25,26.375,29.5,30.75,31.25
0.1760518,-0.87735856,-0.39683273,-0.42388153,-0.01626663,0.04295673,-0.13693844,-0.38025516,-0.32813072,0.060105227,3.0782073,-0.6261536,-0.0003746307,-0.085144505,0.002810846,-0.00071755366,-0.003973475,0.00044081206,-0.016606748,0.44117457,-1.4588817,1.9957446,-2.1065848,-1.5703968,2.4169393,-0.08292192,0.14321129,-0.16052042,0.015211119,0.0031241917,-0.06620738,-0.24899697,0.05746084,-9.174581,0.88289046,47.675243,-0.849887,-1.7969593,-3.3643196,-0.13608786,0.05364506,-0.30293807,26.375,27.25,26.375,29.5,30.75,31.25
0.17805165,-1.0243392,-0.057387173,-0.5534982,-0.015823886,0.033055827,-0.13311252,-0.38042796,-0.32810524,0.060093857,3.078201,-0.62626964,-0.00036873593,-0.08689733,0.003716845,-0.00061060436,-0.0039979457,0.00069719146,-0.020005515,0.4409817,-1.4585937,1.9954461,-2.106561,-1.5704087,2.4168198,-0.08605333,0.14465219,-0.16246094,0.015468642,0.003032741,-0.06593877,-0.36391866,0.11492168,-9.136273,0.8023209,47.692257,-0.800504,-1.8294733,-3.4271097,-0.13004413,0.07486976,-0.31940085,26.375,27.25,26.375,29.5,30.75,31.25
0.18005244,-1.2191995,-0.6442406,-0.78812116,-0.001720585,0.03301045,-0.13452072,-0.38060868,-0.3281205,0.060108516,3.0781977,-0.62624794,-0.0003830193,-0.08700784,0.0029600442,-0.0006187181,-0.004271336,0.00064282113,-0.018293263,0.44084984,-1.4582822,1.9950508,-2.106489,-1.5704087,2.416675,-0.08487333,0.14590657,-0.16390336,0.015588766,0.0033016612,-0.066470385,-0.28730422,0.1340753,-9.174581,0.69041777,47.655537,-0.72390294,-1.7219629,-3.4535074,-0.12098693,0.06541611,-0.35644534,26.375,27.25,26.375,29.5,30.75,31.25
0.18205234,-1.5176193,-0.44817135,-0.76414096,-0.013428324,0.025798395,-0.13214675,-0.38077036,-0.32811365,0.060100432,3.0781791,-0.62630117,-0.00039602845,-0.087944336,0.0031443685,0.00035827677,-0.005293478,0.0020542552,-0.017433895,0.44069344,-1.4580067,1.9947637,-2.1064885,-1.5704082,2.4165545,-0.08621464,0.14491168,-0.16520981,0.016177263,0.0036246167,-0.06867102,-0.40222588,0.1340753,-9.289502,0.75084364,47.660015,-0.80519646,-1.8331252,-3.4380631,-0.12389288,0.05879095,-0.35675457,26.375,27.25,26.375,29.5,30.75,31.25
0.18405226,-1.5487113,-0.65740144,-0.965884,-0.017330812,0.029314868,-0.126394,-0.3809633,-0.32810804,0.06012304,3.0781422,-0.626373,-0.00044073735,-0.09002559,0.004206975,-0.00017516506,-0.0049132816,0.0010545168,-0.02264032,0.44051206,-1.4577299,1.9943913,-2.1064289,-1.5704082,2.4164228,-0.09003556,0.14827515,-0.16783147,0.016502136,0.0037047353,-0.0672836,-0.34476504,0.13407528,-9.32781,0.800085,47.658226,-0.5639192,-1.725938,-3.3033724,-0.11582969,0.049744643,-0.38423347,26.375,27.25,26.375,29.5,30.75,31.25
0.18605231,-0.8840235,-0.50751734,-0.7523391,-0.03221556,0.051126666,-0.13732354,-0.38112321,-0.3281031,0.0600962,3.0781405,-0.6263891,-0.00037193036,-0.090268485,0.0030355037,0.0008645738,-0.0054669175,0.0026432099,-0.017033467,0.44034502,-1.4574069,1.9940914,-2.106416,-1.5703839,2.4162662,-0.08789773,0.14814544,-0.17033403,0.017464798,0.0035246953,-0.07075152,-0.21068975,0.21068975,-9.346964,0.78888994,47.675243,-0.8416056,-1.6072624,-3.4128394,-0.10390711,0.06318345,-0.36526436,26.375,27.25,26.375,29.5,30.75,31.25
0.18805195,-1.4609377,-0.65947354,-0.82587206,-0.027074093,0.034952518,-0.13054891,-0.38129053,-0.3280728,0.060076907,3.078147,-0.62650144,-0.00031145604,-0.091207065,0.0034040106,0.00052880443,-0.004644834,0.002114654,-0.012338801,0.4401408,-1.457107,1.9937919,-2.1063683,-1.5703844,2.4161315,-0.08901207,0.1502773,-0.1720752,0.017906088,0.0030030764,-0.07655899,-0.17238252,0.15322891,-9.32781,0.7933669,47.682407,-0.81074125,-1.610612,-3.3435361,-0.105171636,0.051545054,-0.31487644,26.375,27.25,26.375,29.5,30.75,31.25
0.19005187,-0.81935334,-0.4929558,-0.9522413,-0.023092795,0.051453877,-0.13492681,-0.38149786,-0.32807237,0.060075678,3.0781372,-0.62649995,-0.00029956695,-0.09166266,0.0033258619,0.00060768245,-0.0044144196,0.0021455216,-0.012186586,0.43994877,-1.4567469,1.9933842,-2.1063206,-1.5703725,2.41594,-0.08905888,0.15118293,-0.17343274,0.018430639,0.0027805336,-0.07675711,-0.24899697,0.21068975,-9.3661175,0.8023209,47.651955,-0.8137822,-1.5431703,-3.400464,-0.09170778,0.060027055,-0.32253173,26.375,27.25,26.375,29.5,30.75,31.25
0.19205184,-0.97388345,-0.66143674,-1.370486,-0.017079256,0.037242774,-0.12983893,-0.38166845,-0.32807168,0.060082637,3.0781133,-0.6264919,-0.00028788866,-0.09219095,0.0027060737,8.039217e-05,-0.0041424893,0.0006587999,-0.007010173,0.43978083,-1.4564698,1.9930495,-2.106272,-1.5703486,2.4157703,-0.08857892,0.15452302,-0.17617114,0.01929186,0.0031665931,-0.08145218,-0.21068975,0.2681506,-9.404425,0.8537928,47.66539,-0.90437233,-1.7903353,-3.4388576,-0.10916388,0.059448436,-0.29134533,26.375,27.25,26.375,29.5,30.75,31.25
0.19405173,-0.35205773,-1.0178462,-1.4181969,-0.024854418,0.044552214,-0.13956186,-0.38189,-0.32802847,0.060082506,3.0781548,-0.6265747,-0.00035484147,-0.092509456,0.0025680077,-0.001117936,-0.0030221746,-0.001688342,-0.002444098,0.4395529,-1.4561338,1.9926656,-2.1062238,-1.5704206,2.415589,-0.088528775,0.15841505,-0.17789999,0.019724995,0.003151027,-0.08596672,-0.1340753,0.2681506,-9.461885,0.82694155,47.682407,-0.99074054,-1.5196154,-3.4397871,-0.10995051,0.06295457,-0.22401315,26.375,27.25,26.375,29.5,30.75,31.25
0.19605814,-1.091377,-1.4003799,-1.6310663,-0.03983739,0.017819678,-0.12846194,-0.38204348,-0.32804555,0.06009205,3.0781188,-0.62654567,-0.00028224746,-0.09293927,0.0022893574,-0.0008325777,-0.0033809058,-0.0013303541,0.00128941,0.43940917,-1.4558578,1.992318,-2.10614,-1.5703605,2.415432,-0.0884554,0.15890089,-0.17921658,0.0200849,0.0033215673,-0.08962645,-0.019153614,0.24899697,-9.5385,0.82022345,47.691364,-0.99960786,-1.7205935,-3.4569163,-0.12540339,0.045107514,-0.17102079,26.375,27.25,26.375,29.5,30.75,31.25
0.19805212,-0.35146603,-1.6902369,-1.6901292,-0.05754111,0.030017296,-0.13779372,-0.38224193,-0.328047,0.06008165,3.0781066,-0.6265608,-0.00026772768,-0.094020955,0.002288551,-0.0016631585,-0.0022783175,-0.0027331593,0.0037740131,0.4392289,-1.4554971,1.9919356,-2.106116,-1.5703486,2.415263,-0.08907905,0.16299272,-0.18202214,0.02054099,0.002916133,-0.09273225,-0.05746084,0.24899697,-9.615114,0.82694155,47.71554,-0.98722786,-1.7970595,-3.3612304,-0.12090108,0.064007625,-0.14238031,26.375,27.25,26.375,29.5,30.75,31.25
0.20005211,-0.59967375,-1.7918899,-1.7412398,-0.07102798,0.03260717,-0.13909476,-0.38239995,-0.32801422,0.06005951,3.0781696,-0.6265154,-0.0001870178,-0.09447326,0.0024948,-0.002676507,-0.00096088526,-0.0045014964,0.0048990264,0.43903664,-1.4551965,1.9916357,-2.106044,-1.5703605,2.4150345,-0.0895107,0.16617738,-0.1833626,0.02085888,0.0024665454,-0.09428751,0.076614454,0.30645782,-9.768343,0.8179876,47.699425,-1.0463009,-1.9504049,-3.4638062,-0.10288599,0.07310042,-0.08533715,26.375,27.25,26.375,29.5,30.75,31.25
0.20205194,-0.96893454,-1.6989231,-1.6077571,-0.07917942,0.017286109,-0.1285393,-0.38261953,-0.3280319,0.060092986,3.0781364,-0.6264134,-0.00035907738,-0.096084096,0.0026356152,-0.0024043445,-0.0014908932,-0.0033326978,0.0025267787,0.4388921,-1.4548966,1.9912285,-2.106056,-1.5703844,2.414831,-0.09112165,0.16767721,-0.18556857,0.02027993,0.0024540203,-0.09352437,-0.2681506,0.36391866,-9.672575,0.8493211,47.72808,-0.9808011,-1.9321339,-3.4474692,-0.107297175,0.07531309,-0.054575786,26.375,27.25,26.375,29.5,30.75,31.25
0.2040519,-0.22381844,-1.700528,-1.5932988,-0.068803504,0.027459467,-0.13270919,-0.38281855,-0.32800105,0.06007136,3.0780885,-0.6265977,-0.0002536308,-0.09827209,0.002104554,-0.0013131074,-0.0028967932,-0.00095296884,-0.00077114813,0.4386278,-1.4545486,1.9908799,-2.1060078,-1.5703367,2.4146879,-0.09215029,0.1692055,-0.18981558,0.020250995,0.002701103,-0.09125294,0.038307227,0.36391866,-9.653421,0.7351769,47.666286,-0.95047605,-1.9322413,-3.3953137,-0.09326835,0.07627502,-0.048318133,26.375,27.25,26.375,29.5,30.75,31.25
0.20605187,-0.72375154,-1.57093,-1.5178862,-0.062401656,0.0125872465,-0.1209982,-0.3830147,-0.3280079,0.06006346,3.0781136,-0.6265272,-0.00029243322,-0.099441245,0.0015838365,-0.0004909915,-0.0041541485,0.0005375367,-0.004150316,0.43848395,-1.4541892,1.9904956,-2.1059964,-1.5703605,2.4144971,-0.09248593,0.16973966,-0.19238351,0.020397399,0.003201683,-0.08820855,-0.019153614,0.53630114,-9.519346,0.78888994,47.691364,-1.0479577,-1.8568957,-3.4732943,-0.08804762,0.0871097,-0.0598189,26.375,27.25,26.375,29.5,30.75,31.25
0.20805174,-0.51537806,-1.5121269,-1.4964584,-0.05085408,0.01204463,-0.12849225,-0.38320762,-0.32803026,0.0600905,3.0780277,-0.62653106,-0.00030746078,-0.099243805,0.0018407928,-0.0015180547,-0.0035474675,-0.0017862518,-0.007871831,0.4383157,-1.4539006,1.9901017,-2.1059487,-1.5703,2.4143424,-0.093024686,0.17167573,-0.19231626,0.020759318,0.0036436338,-0.085026,0.019153614,0.5554548,-9.481039,0.800085,47.70659,-1.0558909,-1.9933001,-3.371331,-0.07766289,0.091413304,-0.09510639,26.375,27.25,26.375,29.5,30.75,31.25
0.21005248,-0.7210879,-1.2530134,-1.4909298,-0.049090993,0.0016717202,-0.12311822,-0.38342333,-0.32800704,0.060091335,3.0780854,-0.6265253,-0.00034666283,-0.09999709,0.0021110342,-0.002251255,-0.0030467235,-0.0034308897,-0.012350603,0.43812317,-1.4535406,1.9896826,-2.1058762,-1.5703601,2.4141393,-0.094282955,0.17451464,-0.193976,0.02127614,0.0038830459,-0.08180468,0.019153614,0.47884035,-9.5385,0.68146914,47.65912,-1.1013316,-1.951123,-3.409205,-0.0707736,0.06705659,-0.13962886,26.375,27.25,26.375,29.5,30.75,31.25
0.21205251,-0.7295637,-1.7701776,-1.2819703,-0.045211498,0.007219478,-0.12302056,-0.38362074,-0.32802075,0.06007871,3.0780566,-0.6265782,-0.0003509647,-0.10127263,0.0008795308,-0.0007025641,-0.004438719,-0.0005028732,-0.013538909,0.43796745,-1.4531691,1.9892977,-2.1058757,-1.5703481,2.4140205,-0.093059726,0.17463937,-0.19783394,0.021768518,0.0038944813,-0.079391174,0.019153614,0.38307226,-9.404425,0.7351769,47.667187,-1.090622,-1.8349192,-3.4196348,-0.08153688,0.08163132,-0.18169767,26.375,27.25,26.375,29.5,30.75,31.25
0.21405242,-0.71686697,-1.3828323,-0.9069388,-0.06906388,0.026567265,-0.12738737,-0.38382685,-0.3280125,0.060084507,3.078018,-0.6266482,-0.00036800044,-0.101915546,0.0010749701,-0.0007824208,-0.0042478847,-0.000776431,-0.016592946,0.43776348,-1.4528453,1.9889158,-2.1058404,-1.5703362,2.4138653,-0.093880005,0.17579469,-0.1990906,0.022200128,0.0038369768,-0.07715661,-0.11492168,0.3256114,-9.3661175,0.8023209,47.668976,-1.2244382,-1.7993664,-3.5403252,-0.07234715,0.06384375,-0.20201278,26.375,27.25,26.375,29.5,30.75,31.25
0.21605253,-0.63945836,-0.773864,-0.8271117,-0.0580102,0.04022587,-0.13647744,-0.38405016,-0.3280227,0.060097437,3.0779598,-0.62665534,-0.00041973227,-0.10299694,0.0016224263,-0.001143774,-0.004470972,-0.0012665619,-0.018105533,0.4375706,-1.4524974,1.9884957,-2.105828,-1.5703119,2.4136846,-0.096046425,0.17747843,-0.20013118,0.021907791,0.0042489464,-0.07780982,-0.038307227,0.2681506,-9.346964,0.7911258,47.685097,-1.0489788,-1.7158802,-3.4239397,-0.05744549,0.08227208,-0.23554814,26.375,27.25,26.375,29.5,30.75,31.25
0.21805227,-0.6685639,-0.5737953,-0.84428406,-0.030615786,0.03812329,-0.1340579,-0.38425204,-0.3280276,0.060101487,3.0779438,-0.62669235,-0.00043400924,-0.10358888,0.000765916,-0.00042113944,-0.006450582,-0.00046301333,-0.019743312,0.43740267,-1.4521505,1.988089,-2.1057804,-1.5703114,2.413542,-0.09587425,0.17764232,-0.20207344,0.022114923,0.005698241,-0.07600026,-0.1340753,0.22984336,-9.289502,0.77545905,47.668976,-1.2185471,-1.5860918,-3.4359121,-0.042424776,0.06259165,-0.26795757,26.375,27.25,26.375,29.5,30.75,31.25
0.22005199,-1.0261743,-0.16705412,-0.79957646,-0.013490998,0.02899909,-0.12485604,-0.38446355,-0.3280152,0.060098294,3.0779333,-0.62672925,-0.00040615024,-0.105299816,0.00062100624,0.001085499,-0.008294196,0.0019833662,-0.023096338,0.43718633,-1.4517908,1.9876817,-2.1057203,-1.570299,2.4133503,-0.097444385,0.17699844,-0.20499341,0.022681495,0.0063263522,-0.07421679,-0.1340753,0.21068975,-9.193734,0.82694155,47.691364,-1.2336107,-1.5735688,-3.4255056,-0.03965275,0.035057142,-0.31630826,26.375,27.25,26.375,29.5,30.75,31.25
0.22205177,-0.46821588,0.52740747,-0.872772,-0.006901565,0.038654674,-0.132431,-0.38467565,-0.32804382,0.060105722,3.0778215,-0.6268386,-0.0003998291,-0.10666653,1.781641e-05,0.0014682517,-0.008715834,0.0029774532,-0.020419896,0.43700618,-1.4514309,1.9872607,-2.1057084,-1.570227,2.4132528,-0.09742189,0.17916498,-0.20837916,0.022829188,0.0062867627,-0.07686833,-0.21068975,0.11492168,-9.193734,0.7777002,47.64837,-1.214342,-1.566319,-3.3749356,-0.038529925,0.06341158,-0.34034818,26.375,27.25,26.375,29.5,30.75,31.25
0.22405191,-0.8191556,0.49533677,-0.8657097,0.01978256,0.02438056,-0.13059057,-0.3848621,-0.32803378,0.060082637,3.0778556,-0.6268893,-0.00030734856,-0.10863767,0.0010523283,0.001782136,-0.008436432,0.0037680364,-0.027149761,0.4368249,-1.4510472,1.9868664,-2.1056244,-1.5702275,2.413099,-0.10059953,0.18042727,-0.21067126,0.023263086,0.0056889877,-0.07331475,-0.26815057,-0.019153614,-9.174581,0.784413,47.667187,-1.0450362,-1.5397617,-3.364784,-0.023049716,0.03393756,-0.39086816,26.375,27.25,26.375,29.5,30.75,31.25
0.22605205,-0.7844544,0.6507154,-1.09173,0.010145835,0.03617637,-0.13469423,-0.3850994,-0.3280253,0.06010654,3.0778015,-0.6269523,-0.00042258253,-0.10803964,-3.8458187e-05,0.0015302097,-0.007976263,0.002995963,-0.02394071,0.43661004,-1.4507234,1.9864477,-2.1056125,-1.5702394,2.4129307,-0.09792021,0.18190104,-0.21195537,0.023968615,0.005605184,-0.07384329,-0.3256114,-0.038307227,-9.270349,0.90750587,47.693153,-1.3208585,-1.4971951,-3.44773,-0.024902152,0.02543608,-0.44378203,26.375,27.25,26.375,29.5,30.75,31.25
0.22805187,-1.0361985,0.31047857,-0.91360193,-0.004754062,0.052133318,-0.13194802,-0.38530204,-0.32803527,0.060100198,3.0777874,-0.6269513,-0.0003559352,-0.11019103,0.0018551184,0.00055401324,-0.007239873,0.00039452853,-0.026857913,0.43642795,-1.4503386,1.9860162,-2.10554,-1.5702037,2.41275,-0.103523895,0.18561165,-0.2142083,0.025182957,0.0060360166,-0.07652894,-0.30645782,-0.076614454,-9.32781,0.8023209,47.686886,-1.0179118,-1.5289347,-3.3681476,-0.023746748,0.028258206,-0.4597785,26.375,27.25,26.375,29.5,30.75,31.25
0.23005185,-0.8142686,0.2255094,-1.0038033,-0.018391201,0.08164949,-0.149914,-0.38549337,-0.32799417,0.060071386,3.0778368,-0.6270919,-0.0002556259,-0.11008385,0.0012158767,-9.295981e-05,-0.0058231354,-0.0014784202,-0.022754645,0.4362008,-1.4499665,1.9856447,-2.1054437,-1.5702275,2.4126046,-0.10184343,0.18868332,-0.21659307,0.026794462,0.0055362293,-0.07895055,-0.45968673,-0.076614454,-9.404425,0.8090337,47.63673,-1.2203,-1.6400828,-3.262761,-0.03953475,0.0350959,-0.46324116,26.375,27.25,26.375,29.5,30.75,31.25
0.23205172,-1.6937084,-0.4099092,-1.0529556,-0.015560169,0.08422705,-0.13903028,-0.38572165,-0.32799944,0.06009091,3.0777788,-0.6271347,-0.00029293497,-0.11281917,0.001557602,0.001599716,-0.006407245,0.001342177,-0.01801346,0.435996,-1.4496186,1.9852003,-2.105395,-1.5702037,2.412434,-0.10433688,0.18923786,-0.22150335,0.028354838,0.0048750835,-0.08618198,-0.5746084,0.019153614,-9.481039,0.8023209,47.64479,-1.1029645,-1.785681,-3.256329,-0.061124876,0.033166032,-0.44200492,26.375,27.25,26.375,29.5,30.75,31.25
0.2340525,-2.2815557,-0.7442969,-1.2769942,-0.032457434,0.093404174,-0.12535033,-0.3859404,-0.32801962,0.06009628,3.0777943,-0.62700313,-0.00025292335,-0.113117315,0.0023843641,0.00020711678,-0.004408314,-0.0016147695,-0.016003288,0.4358275,-1.4492104,1.9847101,-2.1052992,-1.5701803,2.4121819,-0.10568274,0.1925424,-0.2223217,0.02939931,0.0043129507,-0.08953697,-0.61291564,0.11492168,-9.423578,0.8224646,47.65106,-1.0847002,-1.7309802,-3.3326554,-0.063245244,0.032967854,-0.40480608,26.375,27.25,26.375,29.5,30.75,31.25
0.23605224,-1.7829919,-0.6623837,-1.1507063,-0.04500872,0.110096626,-0.13465482,-0.38616642,-0.32798082,0.060088076,3.0777838,-0.6271888,-0.00025761328,-0.1126782,0.003584696,-0.0012658312,-0.0028900395,-0.0049998495,-0.010601729,0.43557486,-1.4488502,1.9843153,-2.105251,-1.5702041,2.4120467,-0.10747931,0.19411509,-0.22095194,0.030167896,0.004371561,-0.09673607,-0.57460845,0.15322891,-9.461885,0.8672237,47.664497,-1.0298834,-1.7563536,-3.4336486,-0.08728424,0.041839603,-0.35583115,26.375,27.25,26.375,29.5,30.75,31.25
0.2380523,-1.8790559,-0.8448625,-1.2488016,-0.04136655,0.08951152,-0.14201736,-0.38641024,-0.32798445,0.060110696,3.0777216,-0.62717515,-0.00029601285,-0.11393962,0.004481707,-0.002263796,-0.0017369654,-0.0068398467,-0.007757475,0.4353461,-1.4484894,1.9838494,-2.1052034,-1.5701684,2.4118176,-0.10997196,0.19763465,-0.22277732,0.030635996,0.00410669,-0.10207117,-0.5554548,0.21068975,-9.442732,0.779936,47.65464,-0.9089164,-1.7103417,-3.4319496,-0.101811334,0.029287796,-0.27385047,26.375,27.25,26.375,29.5,30.75,31.25
0.24005216,-2.059999,-1.1635379,-1.2147489,-0.041076194,0.075257815,-0.13088061,-0.3866183,-0.32796323,0.060068425,3.077799,-0.6272085,-0.00018186145,-0.11422478,0.0049966252,-0.002614451,-0.0017553109,-0.0073768576,-0.0052413633,0.43514195,-1.4480345,1.9834183,-2.1051195,-1.5701922,2.4116247,-0.11125021,0.19807257,-0.22249675,0.030395823,0.00433915,-0.105866425,-0.59376204,0.22984336,-9.385271,0.7642693,47.677036,-0.9086472,-1.6868675,-3.556448,-0.114670545,0.027648155,-0.24077728,26.375,27.25,26.375,29.5,30.75,31.25
0.2420523,-1.8907415,-0.9177477,-1.0716,-0.041965283,0.0708903,-0.12558408,-0.3868432,-0.32795158,0.06007516,3.0777957,-0.62718695,-0.00019613291,-0.11498239,0.005287263,-0.0023178947,-0.0019439508,-0.006616404,-0.0037549473,0.43492532,-1.4476749,1.9829868,-2.1050594,-1.5701922,2.4113953,-0.11226108,0.19817734,-0.22335811,0.030385824,0.0041889125,-0.10836316,-0.6703765,0.19153613,-9.423578,0.91198283,47.660015,-0.90233153,-1.623291,-3.6344833,-0.11630317,0.0222446,-0.17658831,26.375,27.25,26.375,29.5,30.75,31.25
0.24405217,-1.3528636,-1.1527206,-1.1421152,-0.021741863,0.064137906,-0.13141008,-0.38710687,-0.327956,0.06009628,3.0777044,-0.6272652,-0.00022386762,-0.11547363,0.005534296,-0.0027915086,-0.0008614718,-0.008190568,-0.004518989,0.43467313,-1.4472791,1.9824847,-2.1050112,-1.570144,2.4112039,-0.11283641,0.20048141,-0.22527042,0.031885214,0.003874178,-0.10817301,-0.5554548,0.17238252,-9.442732,0.92764956,47.658226,-0.8578941,-1.604978,-3.5916138,-0.12009733,0.036449537,-0.15987083,26.375,27.25,26.375,29.5,30.75,31.25
0.24605216,-0.95891654,-0.41315472,-0.9631228,-0.033062518,0.07202728,-0.13001436,-0.3873143,-0.32795134,0.06006659,3.0777383,-0.62721443,-0.00010967162,-0.117028095,0.00506189,-0.0021591673,-0.0012752942,-0.0070280395,-0.0064250473,0.43446904,-1.4468473,1.9820527,-2.1049387,-1.5701202,2.410964,-0.11314175,0.20238239,-0.2290856,0.032573994,0.0037436474,-0.10657038,-0.5363012,0.2681506,-9.385271,0.7732232,47.674347,-0.87212265,-1.6475625,-3.5399952,-0.1365625,0.043658454,-0.15670419,26.375,27.25,26.375,29.5,30.75,31.25
0.24805202,-0.8404574,-0.48471847,-0.91252786,-0.026830887,0.07167529,-0.1270856,-0.3875896,-0.3279418,0.060086336,3.077692,-0.62728417,-0.00023719713,-0.1185551,0.00470184,-0.002142618,-0.0017435179,-0.006130406,-0.010770214,0.43422902,-1.446451,1.9815611,-2.1049273,-1.570144,2.4107738,-0.1137256,0.20498395,-0.23193982,0.03181217,0.0037885606,-0.10280679,-0.5554548,0.2681506,-9.251195,0.83365434,47.681515,-0.91544276,-1.740731,-3.5887494,-0.14675808,0.027548289,-0.16871652,26.375,27.25,26.375,29.5,30.75,31.25
0.2500518,-1.0360775,-0.3624812,-1.2051888,-0.021975348,0.060413077,-0.13115367,-0.38784224,-0.32792348,0.060095027,3.0776725,-0.6273415,-0.00025164665,-0.120137356,0.0045802505,-0.0018715574,-0.0024466675,-0.0049408525,-0.016707307,0.43397683,-1.446055,1.9810814,-2.1048553,-1.570144,2.4105601,-0.1148541,0.20676784,-0.2344982,0.03121038,0.0039170184,-0.09799661,-0.40222588,0.2681506,-9.270349,0.82694155,47.677036,-0.96842504,-1.7315166,-3.4421356,-0.124171644,0.03629131,-0.23084351,26.375,27.25,26.375,29.5,30.75,31.25
0.25205174,-0.3595474,-0.6905315,-1.0039312,-0.02952421,0.06216085,-0.13995147,-0.3880733,-0.32789546,0.060087636,3.0777116,-0.62744474,-0.00022039255,-0.1203968,0.0036539063,-0.0022148758,-0.0017686352,-0.006409458,-0.01834442,0.43374944,-1.4456463,1.9806155,-2.104747,-1.5701803,2.4103925,-0.1132734,0.2100043,-0.23780574,0.03289533,0.003908475,-0.09477724,-0.095768064,0.1340753,-9.308656,0.7486078,47.6636,-0.92998934,-1.6846282,-3.483718,-0.16459647,0.037281547,-0.272475,26.375,27.25,26.375,29.5,30.75,31.25
0.25405163,-0.27877274,-0.98911786,-0.9727509,-0.037768885,0.036079448,-0.1210856,-0.38829657,-0.32790133,0.06005952,3.0777125,-0.62742865,-0.00012721599,-0.124017864,0.0045298724,-0.0007691402,-0.003115463,-0.0033004445,-0.02373459,0.4335436,-1.4451908,1.9801582,-2.104699,-1.570144,2.4101768,-0.117859945,0.21119261,-0.24258411,0.033102643,0.003809046,-0.09397114,-0.15322891,0.24899697,-9.251195,0.87393653,47.687782,-0.95724565,-1.625373,-3.275868,-0.17659658,0.03713765,-0.3230026,26.375,27.25,26.375,29.5,30.75,31.25
0.2560526,-0.04656523,-0.46344998,-1.0908484,-0.027031723,0.012994369,-0.13160731,-0.38858292,-0.3279182,0.060099684,3.0775945,-0.627499,-0.00024640004,-0.12564486,0.0028862471,0.001974919,-0.0054822224,0.0020578469,-0.02160547,0.43330434,-1.4447962,1.9796184,-2.104675,-1.5701083,2.4099967,-0.1160463,0.20949575,-0.24712217,0.03348569,0.003709547,-0.09428413,-0.15322891,0.2681506,-9.155427,0.74413085,47.687782,-0.92713153,-1.5627799,-3.119575,-0.18318714,0.06356082,-0.3132339,26.375,27.25,26.375,29.5,30.75,31.25
0.2580521,-0.004050502,-0.951653,-1.2303344,-0.007958115,0.0070774085,-0.1184292,-0.38882738,-0.32789147,0.060068972,3.0776308,-0.6276214,-0.00014814509,-0.12452692,0.0034067768,-0.00017917319,-0.0034148959,-0.0036480497,-0.02188758,0.43305224,-1.4443158,1.9791278,-2.1045787,-1.5701202,2.4098167,-0.11629083,0.21304329,-0.2467609,0.035621718,0.004226018,-0.09424776,-0.17238252,0.36391866,-9.270349,0.78888994,47.70659,-0.997211,-1.5980568,-3.2721415,-0.21451649,0.027073365,-0.3199451,26.375,27.25,26.375,29.5,30.75,31.25
0.26005203,-0.20061183,-0.8914723,-1.3541933,-0.023885796,0.01254415,-0.12721886,-0.38906273,-0.32788202,0.06006532,3.0776362,-0.6275853,-0.00011865922,-0.12501974,0.003057541,-0.00044659936,-0.0030024364,-0.0043184967,-0.022773316,0.43282437,-1.4439079,1.9786619,-2.1045067,-1.5701083,2.409566,-0.11591166,0.21526392,-0.24888048,0.036304314,0.0041274717,-0.09298165,0.05746084,0.34476504,-9.308657,0.7665104,47.64121,-1.0381169,-1.5476546,-3.2794812,-0.23213923,0.057674754,-0.37236947,26.375,27.25,26.375,29.5,30.75,31.25
0.26205197,-0.008407957,-1.3384261,-1.2859837,-0.03457838,0.033973113,-0.13145338,-0.38931108,-0.32785434,0.060044374,3.07765,-0.6277985,-9.160304e-05,-0.12689164,0.003627396,0.00053393014,-0.0043981243,-0.0017576354,-0.022873608,0.43258333,-1.443453,1.9781827,-2.1044352,-1.570144,2.4094565,-0.11859325,0.21469721,-0.25039002,0.035468757,0.004311786,-0.09556262,0.095768064,0.28730422,-9.308657,0.842603,47.661808,-0.82413006,-1.4874269,-3.3644795,-0.23007779,0.042938545,-0.38220793,26.375,27.25,26.375,29.5,30.75,31.25
0.26405203,-0.81467944,-1.8154169,-1.1958086,-0.051133707,0.020334039,-0.12034,-0.38956508,-0.32783213,0.060062487,3.077618,-0.6278675,-6.427853e-05,-0.12459313,0.0034936282,-0.002870726,-0.0013487089,-0.0089726765,-0.02109127,0.43230847,-1.4430679,1.9776815,-2.1043155,-1.5701202,2.409229,-0.11644256,0.21988228,-0.24873082,0.036455918,0.00457112,-0.095195055,0.05746084,0.22984336,-9.3661175,0.82694155,47.667187,-1.1588436,-1.7923347,-3.4615922,-0.25180417,0.050813027,-0.41653883,26.375,27.25,26.375,29.5,30.75,31.25
0.26605198,-0.5306281,-1.8613775,-1.0733397,-0.056625284,0.028095694,-0.1241553,-0.3897839,-0.32783824,0.060026966,3.0776334,-0.6278673,3.6228583e-05,-0.12543963,0.0041090515,-0.0036639648,-0.0005129932,-0.011204796,-0.016124867,0.43211553,-1.4425995,1.9772257,-2.1042674,-1.5700954,2.4090343,-0.11833202,0.2228545,-0.2506616,0.03779744,0.0047408203,-0.1020504,0.24899697,0.2681506,-9.385271,0.8672237,47.67614,-0.94410914,-1.7570263,-3.4390929,-0.27944008,0.02975002,-0.3737504,26.375,27.25,26.375,29.5,30.75,31.25
0.2680519,0.2774386,-1.10868,-1.19426,-0.04735569,0.018424291,-0.13482806,-0.39006242,-0.327833,0.06004567,3.0776181,-0.6279215,-4.6764476e-06,-0.12746854,0.0035847018,-0.0025059446,-0.0015012987,-0.007995589,-0.01374614,0.4318755,-1.4421561,1.9766625,-2.104171,-1.5701083,2.4088304,-0.11869516,0.22382675,-0.2543601,0.037198372,0.004286663,-0.104789555,0.21068975,0.30645782,-9.308656,0.8291774,47.658226,-1.1180768,-1.8712018,-3.5101054,-0.29362953,0.04785403,-0.33259982,26.375,27.25,26.375,29.5,30.75,31.25
0.27005178,0.5841711,-1.144712,-1.17583,-0.028689127,0.010719961,-0.13663767,-0.39032716,-0.3278171,0.06003484,3.077586,-0.62798727,-8.509515e-06,-0.12856764,0.0038524359,-0.0029011911,-0.0019338559,-0.0074113165,-0.009493494,0.43161124,-1.4417125,1.9761833,-2.1041481,-1.5700959,2.4086115,-0.12011562,0.22545153,-0.25499028,0.03549691,0.004431391,-0.11046198,0.1340753,0.4213795,-9.270349,0.7933669,47.65912,-1.0681704,-1.7752142,-3.455308,-0.30162445,0.035476238,-0.2903161,26.375,27.25,26.375,29.5,30.75,31.25
0.2720517,0.2590063,-0.94870365,-0.83285767,-0.037455484,-9.1629365e-05,-0.13067256,-0.39057866,-0.32782075,0.060034048,3.0775845,-0.627947,5.2576383e-06,-0.13058977,0.0034200568,-0.002208137,-0.003040753,-0.0049244957,-0.0053741033,0.43139485,-1.441268,1.9756688,-2.1040766,-1.570084,2.4083705,-0.120918594,0.22715235,-0.25834048,0.03442947,0.0043876246,-0.11538219,0.15322891,0.34476507,-9.270349,0.8179876,47.640312,-1.0621381,-2.005722,-3.527789,-0.2932812,0.05682028,-0.22397943,26.375,27.25,26.375,29.5,30.75,31.25
0.27405238,0.406846,-0.8748587,-1.0418657,-0.041065212,0.001519873,-0.13088402,-0.3908458,-0.3278056,0.060020033,3.0775776,-0.62796074,3.0250256e-05,-0.13255905,0.002950353,-0.00092582824,-0.004333729,-0.0019628818,-0.00017912553,0.43113065,-1.4408011,1.9751648,-2.104029,-1.570072,2.408116,-0.121574886,0.22776303,-0.26202777,0.03428106,0.0043162615,-0.12123153,0.076614454,0.38307226,-9.174581,0.78888994,47.67614,-1.0603998,-1.9121138,-3.488333,-0.29196835,0.062290274,-0.13618574,26.375,27.25,26.375,29.5,30.75,31.25
0.27605313,-0.39238235,-1.447028,-1.0469662,-0.03703523,0.005133468,-0.11736551,-0.39108685,-0.3278067,0.06001274,3.0776186,-0.6279321,0.000106301355,-0.13418008,0.0024873244,0.00018586323,-0.005483567,0.00031739438,-0.0023839206,0.43092668,-1.440334,1.9746255,-2.1038973,-1.570072,2.4078894,-0.12205904,0.22833247,-0.26536068,0.034492336,0.004394054,-0.11950964,-0.17238252,0.4405331,-9.136273,0.8314132,47.674347,-1.1014638,-1.7349333,-3.4000084,-0.28734106,0.061101597,-0.10883108,26.375,27.25,26.375,29.5,30.75,31.25
0.27805197,-0.5677751,-1.4635804,-1.0604119,-0.060569767,0.04412286,-0.13090032,-0.39135057,-0.32779855,0.059991274,3.0776277,-0.6279538,0.00013829564,-0.1351168,0.0025206236,0.00033147726,-0.005832022,0.0004408212,-0.00308036,0.43068624,-1.4398428,1.9741105,-2.1038492,-1.5700716,2.4076617,-0.12298068,0.22954741,-0.26726937,0.034928963,0.0046537635,-0.119734384,-0.21068975,0.49799395,-9.251195,0.8090337,47.682407,-1.0020748,-1.6399887,-3.3927712,-0.29564446,0.063235424,-0.07152417,26.375,27.25,26.375,29.5,30.75,31.25
0.28005207,-1.2533869,-2.1141546,-1.1759906,-0.06520303,0.0636869,-0.120744,-0.39159828,-0.32778007,0.059969507,3.0776315,-0.62795746,0.00027713287,-0.13593043,0.0031693126,-0.000733987,-0.0051570116,-0.0016580524,-0.0091269165,0.43040958,-1.4393743,1.9736079,-2.103741,-1.5700239,2.407387,-0.12492187,0.23266059,-0.26851875,0.0352583,0.00490521,-0.11562884,-0.3256114,0.40222588,-9.3661175,0.8291774,47.674347,-1.0711011,-1.6954058,-3.3342204,-0.3114937,0.04764027,-0.10874887,26.375,27.25,26.375,29.5,30.75,31.25
0.2820519,-1.99591,-2.0954359,-1.1636834,-0.06938253,0.070977524,-0.1215495,-0.39185548,-0.32779065,0.059966885,3.0776594,-0.62796617,0.00031276853,-0.13738516,0.0028162892,-6.1747305e-05,-0.0070998687,-0.00022061166,-0.0141176535,0.4302171,-1.438883,1.9730328,-2.1036217,-1.5700349,2.4071968,-0.12616782,0.23339406,-0.27087808,0.034761067,0.00606071,-0.111884505,-0.47884035,0.40222588,-9.3661175,0.79560274,47.652847,-0.98063517,-1.7871065,-3.5302334,-0.32567286,0.052167993,-0.1322862,26.375,27.25,26.375,29.5,30.75,31.25
0.28405198,-2.0188723,-2.1232104,-1.1548699,-0.06734263,0.10211297,-0.12582308,-0.39215085,-0.32777077,0.059960794,3.0775867,-0.6280668,0.00030069196,-0.13870475,0.0018231055,0.0011931765,-0.009279498,0.0026772597,-0.017509917,0.4299056,-1.4384158,1.9725174,-2.1036098,-1.5699991,2.4069576,-0.12583324,0.23333763,-0.27361795,0.03401597,0.0068307985,-0.10815705,-0.7469909,0.30645782,-9.346964,0.9030289,47.650166,-1.1221852,-1.6267087,-3.4574244,-0.33873022,0.028394451,-0.19660588,26.375,27.25,26.375,29.5,30.75,31.25
0.2860521,-2.3860507,-1.0659107,-1.2883854,-0.057631735,0.109502666,-0.12945393,-0.39242718,-0.32776555,0.059958205,3.077572,-0.6281625,0.0003452706,-0.13893534,0.0018782897,0.00038128346,-0.00902527,0.0022028359,-0.020873617,0.4296532,-1.437924,1.9719442,-2.1035025,-1.5699872,2.4067671,-0.12598751,0.23505934,-0.273521,0.032736003,0.0067927768,-0.10494749,-0.8236054,0.24899697,-9.461885,0.84708,47.698532,-1.044732,-1.6160517,-3.4500475,-0.32046482,0.017449478,-0.23993275,26.375,27.25,26.375,29.5,30.75,31.25
0.2880521,-2.2280328,-0.5013684,-1.4346117,-0.025117751,0.116732426,-0.12857178,-0.39267984,-0.32777703,0.059947588,3.0775273,-0.6281943,0.00045901007,-0.1408148,0.0027800652,0.0001770641,-0.0090402765,0.003120222,-0.026298208,0.4294124,-1.4374443,1.9714054,-2.1034071,-1.5699152,2.406552,-0.12887992,0.23689494,-0.27495125,0.031499397,0.0064157364,-0.10241397,-0.7469909,0.15322891,-9.615114,0.87617236,47.682407,-1.0819631,-1.6960928,-3.5831425,-0.30149353,0.017698951,-0.28498954,26.375,27.25,26.375,29.5,30.75,31.25
0.29005194,-2.11659,-0.3260435,-1.0519832,-0.017909303,0.12783091,-0.13173144,-0.3929753,-0.32778522,0.059938103,3.077457,-0.6283331,0.00043699224,-0.14176998,0.0015025574,0.0005373386,-0.010071181,0.0052517266,-0.026420139,0.42916104,-1.4369286,1.9708422,-2.1033952,-1.5698913,2.4063966,-0.12724525,0.23859116,-0.2774509,0.029938545,0.006462206,-0.100655526,-0.8619126,0.1340753,-9.423578,0.8403672,47.67345,-1.1195347,-1.7546613,-3.6640463,-0.28370446,0.024163041,-0.33934605,26.375,27.25,26.375,29.5,30.75,31.25
0.292052,-1.3896859,0.41037804,-0.9582667,-0.004587161,0.13105817,-0.13939025,-0.39324564,-0.32777482,0.059914693,3.0774832,-0.6283205,0.00045747665,-0.14296095,0.0016689227,-0.0007302774,-0.009894694,0.0043465737,-0.029377317,0.42892057,-1.4364241,1.9703153,-2.1033485,-1.5699033,2.4061453,-0.12858167,0.24257807,-0.2787668,0.028162833,0.006670664,-0.09903375,-0.6512228,-0.019153614,-9.385271,0.88289046,47.689575,-1.171924,-1.773871,-3.5628633,-0.25414452,0.006343145,-0.39000195,26.375,27.25,26.375,29.5,30.75,31.25
0.29405203,-1.305374,0.66630256,-1.3862141,0.010322866,0.09680504,-0.12590098,-0.39356664,-0.32777467,0.059931815,3.0774047,-0.62849736,0.00033996993,-0.14575525,0.0009434681,0.00021986247,-0.011090138,0.007606883,-0.031501457,0.4286563,-1.4359323,1.969715,-2.1033247,-1.5699152,2.4060018,-0.12929896,0.24535131,-0.2839449,0.027106341,0.0063993973,-0.09762285,-0.61291564,-0.11492168,-9.481039,0.8560339,47.703903,-1.0954161,-1.8315771,-3.4952693,-0.21992135,0.010595749,-0.45404363,26.375,27.25,26.375,29.5,30.75,31.25
0.29605195,-0.8272102,0.7482308,-1.2781688,0.007237412,0.0771921,-0.13619755,-0.3938595,-0.32775652,0.059922267,3.077409,-0.62857527,0.00032039,-0.14817007,0.002011501,2.4959916e-05,-0.010770764,0.008298958,-0.033602837,0.42839113,-1.4354284,1.9691538,-2.1032655,-1.5699395,2.405785,-0.13279037,0.24812266,-0.28661498,0.026510768,0.0058173905,-0.09901047,-0.61291564,-0.17238252,-9.442732,0.84708,47.699425,-0.8952806,-1.8325473,-3.407053,-0.19693333,0.013634422,-0.49027884,26.375,27.25,26.375,29.5,30.75,31.25
0.29805228,-0.72422016,0.3402837,-1.5753105,0.023426607,0.04801785,-0.12888676,-0.39418593,-0.32774967,0.05992137,3.077323,-0.62870795,0.0002929364,-0.14965366,0.0016633712,0.0009022279,-0.010757072,0.010772582,-0.029486122,0.42807958,-1.4349009,1.9685539,-2.1032412,-1.5699042,2.4055676,-0.13257207,0.24901468,-0.2897581,0.026529115,0.004780793,-0.10290586,-0.45968673,-0.019153614,-9.423578,0.8179876,47.683304,-1.0984066,-1.8973389,-3.4586465,-0.18007335,0.027739558,-0.49105525,26.375,27.25,26.375,29.5,30.75,31.25
0.30005258,-0.49806127,-0.27910993,-1.733604,0.008425409,0.04979422,-0.13030213,-0.39448273,-0.32773572,0.059921842,3.0772946,-0.6288121,0.0002807747,-0.14966533,0.0020099343,-0.00020451566,-0.008803275,0.008313586,-0.02021485,0.42780346,-1.4344085,1.9679793,-2.1031692,-1.5699042,2.4053605,-0.13259289,0.25192386,-0.2909402,0.027860614,0.0040311944,-0.1121965,-0.4405331,-0.05746084,-9.519346,0.7866488,47.691364,-0.93173254,-2.0259488,-3.5257325,-0.18152004,0.035017103,-0.45325804,26.375,27.25,26.375,29.5,30.75,31.25
0.30205238,-0.9641893,-0.90622574,-1.66819,-0.014543205,0.05109926,-0.12928502,-0.39476767,-0.32771203,0.05991906,3.0773501,-0.62880176,0.0002690574,-0.14996694,0.0027757087,-0.0007668406,-0.0076438473,0.006506331,-0.015895655,0.42755094,-1.433917,1.9674047,-2.103061,-1.5699519,2.4050949,-0.13392794,0.25339365,-0.29177722,0.02935376,0.0037284766,-0.11785041,-0.4405331,0.0,-9.5385,0.83365434,47.68062,-1.0658377,-1.9912648,-3.4938436,-0.16704226,0.04625767,-0.39414406,26.375,27.25,26.375,29.5,30.75,31.25
0.3040523,-1.1873317,-0.8787914,-1.6425819,-0.04082107,0.06440907,-0.12679738,-0.3950526,-0.32772446,0.059892863,3.077289,-0.62887967,0.0003669877,-0.1508721,0.0024297666,-5.95035e-05,-0.008338758,0.00731273,-0.0063129077,0.42728686,-1.433366,1.9668297,-2.1030128,-1.5698804,2.4048874,-0.13411516,0.25393197,-0.29437867,0.030410502,0.0040251864,-0.12761994,-0.22984336,0.095768064,-9.5385,0.85155696,47.709274,-1.0708477,-1.9678171,-3.5552692,-0.16508082,0.025911639,-0.28378612,26.375,27.25,26.375,29.5,30.75,31.25
0.30605236,-1.284537,-1.3970565,-1.672741,-0.045799557,0.07013616,-0.12782925,-0.39538932,-0.32771564,0.059907522,3.0772727,-0.62885445,0.00022897498,-0.15236041,0.0017253583,0.0015887587,-0.010318843,0.010366859,-0.0018222869,0.4270108,-1.4328502,1.9662064,-2.1029885,-1.5699161,2.4045982,-0.13428256,0.25325558,-0.29756197,0.03066824,0.0045711286,-0.13227706,-0.28730422,0.17238252,-9.595961,0.80456203,47.687782,-1.024342,-2.0152092,-3.4944215,-0.15046135,0.029316604,-0.21295856,26.375,27.25,26.375,29.5,30.75,31.25
0.3080523,-0.7675511,-0.9861178,-1.7438961,-0.05438759,0.08526707,-0.13063912,-0.39567906,-0.3277105,0.05991159,3.0772622,-0.6288324,0.00029543453,-0.15220876,0.0025144627,0.00082329236,-0.009293479,0.008034151,-8.548644e-05,0.42673445,-1.4323477,1.9655975,-2.1028564,-1.5698804,2.4043097,-0.13548855,0.2543478,-0.29748777,0.032057945,0.004607686,-0.13522047,-0.2681506,0.19153613,-9.691729,0.84484416,47.65643,-1.0921959,-1.9704901,-3.5459087,-0.14462654,0.020048056,-0.15722206,26.375,27.25,26.375,29.5,30.75,31.25
0.31005225,-0.86727697,-0.8552817,-1.7588981,-0.047168713,0.064219594,-0.1239847,-0.3959566,-0.32768515,0.059859246,3.0773067,-0.62891823,0.00036584144,-0.15286376,0.0024810727,0.0010907839,-0.0090693515,0.008219812,-0.0014128172,0.42647043,-1.4317843,1.9650701,-2.1028202,-1.5699042,2.404094,-0.13565812,0.2552222,-0.2994636,0.03308159,0.004317784,-0.13406204,-0.22984336,0.24899697,-9.730036,0.82022345,47.64121,-1.0583913,-1.8524023,-3.6053348,-0.13791771,0.043572865,-0.1267455,26.375,27.25,26.375,29.5,30.75,31.25
0.31205222,-0.3168046,-1.302472,-1.7015845,-0.03978225,0.04805667,-0.11917717,-0.3962762,-0.32767847,0.059868302,3.0772793,-0.62889683,0.00033354916,-0.15437226,0.0022010924,0.0016578393,-0.009800444,0.009701335,-0.007432779,0.4261824,-1.4312687,1.9644483,-2.1027486,-1.5698923,2.4037964,-0.13629554,0.25659558,-0.30242804,0.03302061,0.0043709953,-0.12867795,-0.17238252,0.21068975,-9.672575,0.84708,47.67166,-1.0994534,-1.8558416,-3.6413388,-0.13700673,0.052660406,-0.1321514,26.375,27.25,26.375,29.5,30.75,31.25
0.31405202,-0.0343844,-1.1490133,-1.5725337,-0.041969605,0.032879576,-0.124831975,-0.39662656,-0.32769886,0.05990165,3.0771925,-0.6289186,0.00019427318,-0.15490966,0.00209618,0.0011083046,-0.00875485,0.0085429875,-0.0120570855,0.4259184,-1.4307406,1.9637645,-2.102712,-1.5698804,2.4035575,-0.13610078,0.25938687,-0.3046836,0.03397299,0.003911604,-0.12385676,-0.11492168,0.28730422,-9.576807,0.90750587,47.686886,-1.086033,-1.8129342,-3.5494435,-0.11615807,0.040041223,-0.2133033,26.375,27.25,26.375,29.5,30.75,31.25
0.31605205,0.60552645,-1.1449978,-1.5821813,-0.03793023,0.03569872,-0.11975219,-0.39691952,-0.32765985,0.05988954,3.077198,-0.6290599,0.0002057693,-0.15641277,0.0029217862,0.0010188388,-0.008452563,0.008648595,-0.020567773,0.4256174,-1.4302489,1.9632148,-2.102628,-1.5699042,2.4033444,-0.13851418,0.26105368,-0.30654314,0.03418983,0.0035872678,-0.117758304,-0.019153614,0.34476504,-9.519346,0.8537928,47.679718,-0.9884439,-1.830453,-3.6027932,-0.08582936,0.0644795,-0.27584073,26.375,27.25,26.375,29.5,30.75,31.25
0.3180521,0.42208683,-1.3338416,-1.7667798,-0.02928226,0.023642983,-0.11932367,-0.3972385,-0.3276654,0.059883233,3.0771224,-0.6291599,0.00022069101,-0.15768063,0.002671643,0.0009826241,-0.009240328,0.009090561,-0.02230781,0.42532948,-1.4296973,1.962592,-2.1025808,-1.569856,2.4031289,-0.13931175,0.2631858,-0.3089068,0.033698086,0.004121911,-0.116815016,0.11492168,0.40222588,-9.423578,0.8717007,47.63404,-1.156345,-1.9143553,-3.554771,-0.06640059,0.06907379,-0.31249812,26.375,27.25,26.375,29.5,30.75,31.25
0.32005197,-0.15613425,-1.4487976,-1.5984981,-0.03669316,0.004808054,-0.115107074,-0.39756015,-0.32764807,0.059876677,3.0770998,-0.6292312,0.0002063763,-0.15899263,0.0023589537,0.00103854,-0.009725755,0.009073232,-0.022424927,0.42502925,-1.4291574,1.9619797,-2.1025202,-1.569856,2.4028764,-0.13997278,0.26570466,-0.31215695,0.034245297,0.0045706853,-0.11735774,0.05746084,0.38307226,-9.423578,0.83589023,47.667187,-0.9742038,-1.9241843,-3.5817108,-0.03584149,0.06445059,-0.32191598,26.375,27.25,26.375,29.5,30.75,31.25
0.3220521,-0.004214784,-1.3816259,-1.4941773,-0.04224781,0.018787727,-0.11601558,-0.3978934,-0.3276639,0.059920296,3.0770223,-0.62923604,0.00011198754,-0.15912391,0.0033236379,0.00045118178,-0.008874188,0.006012644,-0.025138915,0.4247644,-1.4286658,1.9612993,-2.102424,-1.5698317,2.4026248,-0.1420206,0.2670722,-0.31311303,0.036975414,0.005074009,-0.11669181,-0.019153614,0.3256114,-9.404425,0.7620334,47.66987,-0.9855927,-2.0352535,-3.5223317,-0.045653634,0.058152888,-0.33573768,26.375,27.25,26.375,29.5,30.75,31.25
0.32405236,-0.35445118,-1.3400185,-1.5271436,-0.04101788,0.021527372,-0.12018093,-0.39821276,-0.3276366,0.059897713,3.0770242,-0.6294288,0.00013867838,-0.16043608,0.0036570458,0.00022551647,-0.00845487,0.005120291,-0.026130283,0.42446396,-1.4280902,1.960677,-2.1023395,-1.5698556,2.4024448,-0.14355512,0.2697899,-0.31612876,0.038258795,0.0050543463,-0.11723377,0.0,0.45968673,-9.423578,0.84708,47.666286,-0.9072263,-2.026428,-3.5102725,-0.040947482,0.063148215,-0.38779724,26.375,27.25,26.375,29.5,30.75,31.25
0.32605213,-0.259702,-1.6178195,-1.478185,-0.05184158,0.02464241,-0.12507385,-0.398548,-0.32764238,0.059903357,3.0769756,-0.62943596,7.362879e-05,-0.1613648,0.004015384,0.0013330199,-0.008894976,0.0063313055,-0.024629712,0.42418778,-1.4275393,1.960029,-2.1023028,-1.5698436,2.4021797,-0.14476548,0.2687744,-0.31801328,0.03987946,0.0049672443,-0.11994418,0.15322891,0.40222588,-9.500193,0.8224646,47.64927,-1.0219765,-1.9246132,-3.4415574,-0.0355119,0.06684823,-0.37316322,26.375,27.25,26.375,29.5,30.75,31.25
0.32805207,-0.40093157,-2.077619,-1.3583386,-0.066620894,0.024987184,-0.11770761,-0.39885715,-0.3276498,0.05990674,3.0769424,-0.6294045,0.00011991129,-0.16131818,0.0019107775,0.0018049154,-0.009415746,0.007046561,-0.015370524,0.4239134,-1.4269997,1.9593824,-2.1021945,-1.569796,2.4018903,-0.1408506,0.27060893,-0.32149807,0.040674545,0.0051469677,-0.1252871,0.1340753,0.30645782,-9.3661175,0.84708,47.65912,-1.1055353,-1.833793,-3.5077426,-0.030835934,0.0843828,-0.32094038,26.375,27.25,26.375,29.5,30.75,31.25
0.33005205,-0.2191085,-1.5743071,-1.2323054,-0.065865,0.021510188,-0.1226955,-0.3991922,-0.32763544,0.059928484,3.0769227,-0.6294543,3.804902e-05,-0.16247405,0.002208951,0.0026345004,-0.010343068,0.008352351,-0.009800839,0.42362446,-1.4264846,1.9587244,-2.1020992,-1.5698198,2.4016354,-0.14240117,0.27020574,-0.32318243,0.04119375,0.0054657753,-0.13240704,-0.038307227,0.28730422,-9.251195,0.7620334,47.642998,-0.9991399,-1.6948419,-3.4779735,-0.012555943,0.08884448,-0.2598288,26.375,27.25,26.375,29.5,30.75,31.25
0.332052,-0.07785927,-1.0260082,-1.151088,-0.04754516,0.030627463,-0.12388125,-0.39953953,-0.3276352,0.05994095,3.0768442,-0.629512,-2.1815824e-06,-0.16345552,0.0021498636,0.003241394,-0.011439543,0.0089946715,-0.0042827446,0.42331222,-1.4259336,1.9580544,-2.102039,-1.5697831,2.4013696,-0.14342155,0.27052954,-0.3252375,0.04189852,0.006214069,-0.13894524,-0.05746084,0.34476504,-9.308657,0.85155696,47.634937,-1.092557,-1.6228931,-3.4641554,-0.007174357,0.061314285,-0.17166191,26.375,27.25,26.375,29.5,30.75,31.25
0.33405173,-0.31381738,-0.46699953,-1.3015528,-0.028589888,0.026280215,-0.12223164,-0.39985818,-0.32764372,0.059943497,3.0768738,-0.6293822,-2.6483467e-05,-0.16400808,0.00232859,0.0027864913,-0.011373898,0.0074764173,-0.002060604,0.42307183,-1.4253701,1.9573845,-2.1019433,-1.5697955,2.4010448,-0.14442849,0.2725649,-0.32689947,0.04293707,0.006782797,-0.14217414,-0.05746084,0.22984336,-9.404425,0.86498255,47.64837,-1.0368952,-1.6348526,-3.560768,0.00124879,0.057263374,-0.08906287,26.375,27.25,26.375,29.5,30.75,31.25
0.33605173,-0.30629623,-0.29845384,-1.2724955,-0.013258174,0.023646947,-0.122836426,-0.4002073,-0.3276268,0.05997314,3.0768197,-0.62944674,-0.00014133853,-0.16407056,0.0031088796,0.002099268,-0.010535528,0.0053535737,-0.0014854624,0.42275956,-1.4248664,1.956726,-2.1018708,-1.5698069,2.4007802,-0.145814,0.27379385,-0.32715848,0.044248976,0.0069082207,-0.14413458,0.0,0.15322891,-9.385271,0.95226496,47.66539,-1.0563748,-1.4525008,-3.6778798,0.005997844,0.073215425,-0.058150575,26.375,27.25,26.375,29.5,30.75,31.25
0.33805174,-0.94423485,-0.4001029,-0.9941068,-0.003233198,0.029991224,-0.09938119,-0.40048888,-0.32762828,0.05992076,3.0768232,-0.62945116,6.247761e-05,-0.16617474,0.0030718364,0.0022188537,-0.010117094,0.005150796,-0.007824826,0.4224831,-1.4242542,1.9561251,-2.1017745,-1.5697354,2.4005063,-0.14712986,0.27766272,-0.3324062,0.04599363,0.0065864017,-0.139109,-0.34476504,0.019153614,-9.193734,0.8560339,47.67345,-1.0665718,-1.5954229,-3.4857473,0.0026906354,0.05407228,-0.06903552,26.375,27.25,26.375,29.5,30.75,31.25
0.34005174,-0.4071811,0.5685754,-1.3246901,0.012165721,0.04862181,-0.12261839,-0.40084067,-0.3276188,0.05994406,3.0767765,-0.62948334,-4.9831906e-05,-0.16633628,0.003809192,0.0011207693,-0.009141561,0.0013831039,-0.014294968,0.42218262,-1.4237261,1.9554552,-2.1017134,-1.5697464,2.4002323,-0.14886907,0.28044897,-0.33376426,0.04839634,0.007253647,-0.13437775,-0.3256114,-0.019153614,-9.212888,0.79560274,47.655537,-1.0024443,-1.8313572,-3.4223175,-0.025111658,0.06023464,-0.102899715,26.375,27.25,26.375,29.5,30.75,31.25
0.34205204,-0.8204856,0.6079435,-1.2071818,0.032701317,0.044472877,-0.118274555,-0.40117303,-0.32764772,0.05997641,3.0767002,-0.6294906,-7.822972e-05,-0.16701151,0.0038577137,0.0003445064,-0.007682131,-0.0019884675,-0.02150634,0.42193028,-1.423186,1.9547371,-2.1015928,-1.5696987,2.3999946,-0.14939108,0.2847161,-0.3377895,0.05183028,0.00730625,-0.12768634,-0.17238252,-0.038307227,-9.385271,0.8717007,47.650166,-0.9619918,-1.828862,-3.3739147,-0.0529679,0.046216555,-0.15766829,26.375,27.25,26.375,29.5,30.75,31.25
0.34405202,-0.9014732,0.49744216,-0.7470864,0.01328958,0.06650537,-0.11689761,-0.40147388,-0.32761618,0.059945818,3.076717,-0.62964946,5.9634644e-05,-0.16793343,0.0045851916,0.0010723216,-0.0069791614,-0.0021360554,-0.026585609,0.42161766,-1.4226086,1.9541143,-2.1014478,-1.5696872,2.3997793,-0.15092877,0.2847452,-0.3403058,0.054742772,0.0067119435,-0.12414462,-0.38307226,-0.019153614,-9.232041,0.9410752,47.658226,-0.9911643,-1.836921,-3.366438,-0.09594974,0.06712273,-0.2219671,26.375,27.25,26.375,29.5,30.75,31.25
0.34605226,-0.7174627,0.21142167,-0.9822206,0.0136768855,0.07913188,-0.121356405,-0.4018065,-0.32760248,0.059945937,3.0767097,-0.62968767,6.3900734e-05,-0.16702935,0.0035941508,0.00052204245,-0.0055097993,-0.004357958,-0.030277325,0.42131907,-1.4220436,1.9534434,-2.101339,-1.5696872,2.3995059,-0.14793566,0.28692812,-0.34223896,0.05711924,0.006276779,-0.11745894,-0.61291564,0.05746084,-9.251195,0.9388393,47.68062,-1.1144062,-1.8466295,-3.328396,-0.13020784,0.05622539,-0.3131832,26.375,27.25,26.375,29.5,30.75,31.25
0.34805253,-1.1655862,-0.27899376,-1.1324098,0.00933598,0.08351363,-0.12094966,-0.40214893,-0.32760772,0.059972115,3.0766914,-0.6297611,2.7588963e-05,-0.16668306,0.0041254987,0.00015751731,-0.0043924754,-0.0065096826,-0.031692155,0.42105493,-1.4214789,1.9527024,-2.1011832,-1.5696992,2.3992903,-0.14836952,0.28749496,-0.3427443,0.059478335,0.0061420803,-0.11647819,-0.5554548,0.038307227,-9.442732,0.8291774,47.660015,-1.074296,-1.8415062,-3.4723918,-0.18104851,0.050284132,-0.3471719,26.375,27.25,26.375,29.5,30.75,31.25
0.35005245,-1.5142566,-0.9442912,-1.1948828,-0.016041573,0.08912252,-0.113478,-0.40247852,-0.3275866,0.059971478,3.0766568,-0.6298721,6.9180605e-05,-0.1663941,0.004783515,0.00014609756,-0.003702,-0.007898682,-0.035751592,0.42073056,-1.4209261,1.9520439,-2.1010625,-1.5696753,2.39904,-0.14911707,0.287017,-0.34279564,0.061559733,0.006078568,-0.11316712,-0.59376204,0.038307227,-9.461885,0.92093146,47.617924,-1.168355,-1.6930075,-3.645112,-0.20424643,0.056976244,-0.44236374,26.375,27.25,26.375,29.5,30.75,31.25
0.3520524,-1.6541318,-1.3721858,-1.2235857,-0.03509731,0.08774845,-0.11571135,-0.40280727,-0.32755858,0.059982143,3.0766473,-0.63004196,9.2378534e-05,-0.16642742,0.005761087,-0.0011253639,-0.0018755887,-0.010721457,-0.035827786,0.42041817,-1.4203854,1.9513625,-2.1008952,-1.5696877,2.3988352,-0.1504217,0.28938493,-0.34301895,0.0627413,0.0055613713,-0.11439533,-0.59376204,0.15322891,-9.404425,0.99702406,47.66808,-1.2088921,-1.6370835,-3.7537785,-0.26332405,0.053372093,-0.4916993,26.375,27.25,26.375,29.5,30.75,31.25
0.3540523,-1.7095616,-1.5427703,-1.382559,-0.035379685,0.08214359,-0.11493231,-0.4031534,-0.3275516,0.059983633,3.0766227,-0.63016766,0.00016304209,-0.16840105,0.004943395,0.0010568245,-0.0036361597,-0.005666914,-0.030098286,0.42010638,-1.4197729,1.9506196,-2.1007273,-1.5696634,2.3986053,-0.1500719,0.28824762,-0.3467643,0.0623025,0.0050940076,-0.11977345,-0.45968673,0.22984336,-9.500193,0.9768804,47.64479,-1.2928724,-1.5366983,-3.734819,-0.29282552,0.07179955,-0.48393786,26.375,27.25,26.375,29.5,30.75,31.25
0.35605222,-1.1019793,-0.8800919,-1.5008307,-0.050166246,0.08954664,-0.12692407,-0.40350133,-0.32754704,0.059999827,3.0765622,-0.63020897,8.667314e-05,-0.16973984,0.0050186915,0.0017961464,-0.003732668,-0.0047637597,-0.023049762,0.4198059,-1.419232,1.9499491,-2.1006668,-1.5696515,2.3983388,-0.15095356,0.28914037,-0.34994954,0.063742824,0.004822472,-0.12770195,-0.45968673,0.21068975,-9.5385,0.8560339,47.661808,-1.1742239,-1.462275,-3.6524749,-0.32185456,0.085470274,-0.4239998,26.375,27.25,26.375,29.5,30.75,31.25
0.35805213,-1.2060776,-0.9905441,-1.6655046,-0.047162212,0.0731647,-0.11838054,-0.4038256,-0.3275379,0.06000098,3.0765624,-0.6302249,0.00012877432,-0.17339744,0.005292905,0.0009647449,-0.0047734804,-0.0030983777,-0.017199518,0.41951668,-1.4186659,1.9492654,-2.1005251,-1.5696396,2.3980598,-0.15443744,0.2950982,-0.35420737,0.06010931,0.0050787264,-0.13703306,-0.34476504,0.17238252,-9.576807,0.93436235,47.67345,-1.0095022,-1.5160285,-3.616464,-0.33362448,0.087934524,-0.34077427,26.375,27.25,26.375,29.5,30.75,31.25
0.36005223,-1.3190702,-1.3620808,-1.529642,-0.05002313,0.07397657,-0.11130323,-0.40420103,-0.32752138,0.060019817,3.076493,-0.6302811,0.00010524896,-0.17502673,0.004275231,0.0008217833,-0.0059155123,-0.0014134475,-0.00805759,0.41915712,-1.4180876,1.9485348,-2.1004179,-1.5696033,2.3977447,-0.15394923,0.29842174,-0.35735986,0.057949014,0.0054356516,-0.14568476,-0.4213795,0.21068975,-9.615114,0.83365434,47.664497,-1.1691017,-1.7618552,-3.4891334,-0.32303128,0.07916275,-0.23979524,26.375,27.25,26.375,29.5,30.75,31.25
0.36205226,-1.0222722,-1.0787301,-1.6301557,-0.055574108,0.08168492,-0.115231074,-0.4045301,-0.32751343,0.0600167,3.0765715,-0.63019824,0.00011036236,-0.17591071,0.0036894626,0.00039896404,-0.0060299854,-0.000947496,-0.0027933032,0.41890562,-1.4174863,1.9478167,-2.1002629,-1.5696515,2.3974319,-0.15338664,0.30111852,-0.35940185,0.056821547,0.005341164,-0.15038534,-0.28730422,0.21068975,-9.5385,0.88960326,47.672558,-1.1736732,-1.7248492,-3.3523989,-0.30295599,0.08347308,-0.16534588,26.375,27.25,26.375,29.5,30.75,31.25
0.36405239,-1.0042096,-1.2860932,-1.6614281,-0.049926776,0.086866945,-0.11641828,-0.40489212,-0.32751253,0.06001636,3.0765204,-0.6303198,0.00012180517,-0.17605516,0.0038582296,-0.00015117212,-0.0058174958,-0.0012977952,-0.0019520214,0.41859397,-1.4168613,1.9470757,-2.1001556,-1.5696276,2.397203,-0.15359122,0.30212036,-0.3593215,0.056152638,0.0052903583,-0.15143128,-0.40222588,0.36391866,-9.653421,0.8806493,47.66091,-1.2822666,-1.7179978,-3.579273,-0.34262577,0.10232718,-0.13578238,26.375,27.25,26.375,29.5,30.75,31.25
0.36605242,-0.79215014,-2.1294024,-1.7213017,-0.05349248,0.08459162,-0.114274144,-0.4052546,-0.32750538,0.060042992,3.0764806,-0.63035464,2.2083574e-05,-0.17851682,0.0037252058,-0.000751177,-0.007183915,0.0016210015,-0.010612496,0.4182941,-1.4163077,1.9463576,-2.1000612,-1.5696396,2.3969305,-0.15520044,0.3055618,-0.360901,0.05106149,0.005344207,-0.14437783,-0.22984336,0.45968673,-9.691729,0.94331104,47.62867,-1.2883358,-1.7857645,-3.6659257,-0.29680675,0.096839555,-0.1642268,26.375,27.25,26.375,29.5,30.75,31.25
0.36805242,-0.8896017,-2.3623147,-1.4220573,-0.089448154,0.078845486,-0.1143051,-0.40563175,-0.3274865,0.060056884,3.0764205,-0.6304607,-2.5206627e-05,-0.1796198,0.004099298,-0.00024461283,-0.008465841,0.004078919,-0.01873628,0.41794613,-1.415719,1.945628,-2.0999663,-1.5696276,2.3966568,-0.1566807,0.3047348,-0.36081153,0.04902909,0.005516864,-0.1377344,-0.26815057,0.47884035,-9.519346,0.94331104,47.64121,-1.1845816,-1.6658378,-3.829401,-0.273498,0.11980489,-0.21601397,26.375,27.25,26.375,29.5,30.75,31.25
0.37005225,-0.6593228,-2.3042648,-1.2306303,-0.09636075,0.067294165,-0.11936951,-0.4059609,-0.32749873,0.06005173,3.0763927,-0.6304366,3.7422345e-05,-0.18154389,0.004173289,-6.144656e-05,-0.009098833,0.0061078887,-0.023708584,0.41767046,-1.4151181,1.9449219,-2.099847,-1.5695795,2.39637,-0.1580354,0.30662623,-0.36321324,0.04743367,0.0052608633,-0.13411534,-0.22984336,0.49799395,-9.461885,1.0149267,47.62688,-1.1313722,-1.6286488,-3.703897,-0.2429553,0.111472905,-0.28838468,26.375,27.25,26.375,29.5,30.75,31.25
0.37205207,-0.4094994,-1.986963,-1.3234966,-0.07095735,0.042925447,-0.122559145,-0.40636924,-0.32749146,0.06005981,3.0763378,-0.6304434,-0.00010771549,-0.18419471,0.0032301801,0.000120913384,-0.010314072,0.008442734,-0.024484325,0.41733465,-1.4144804,1.9441675,-2.0998356,-1.5695919,2.396046,-0.15836859,0.3108794,-0.3682953,0.04563497,0.005427045,-0.13366935,-0.038307227,0.40222588,-9.423578,0.96569055,47.65643,-1.0426241,-1.6354575,-3.6772847,-0.2026254,0.12478872,-0.3130722,26.375,27.25,26.375,29.5,30.75,31.25
0.37405196,-0.24556816,-1.3546052,-1.175649,-0.051804777,0.021079415,-0.12310362,-0.40674162,-0.32748494,0.060072932,3.0762799,-0.63058716,-0.00016642426,-0.18774612,0.0035618655,0.0020444654,-0.012993056,0.0136836395,-0.029055065,0.41702178,-1.4138794,1.9434241,-2.0997398,-1.5695919,2.3958306,-0.16184482,0.3107738,-0.37234262,0.04391078,0.005749804,-0.13257298,-0.019153614,0.34476507,-9.3661175,0.8717007,47.640312,-0.91204786,-1.5918895,-3.6121118,-0.16556773,0.13850774,-0.3403331,26.375,27.25,26.375,29.5,30.75,31.25
0.37605187,0.2735409,-1.0417764,-1.0386181,-0.034914106,0.028098708,-0.12072758,-0.40711984,-0.32747322,0.060084824,3.07621,-0.63066554,-0.00024464133,-0.1895038,0.002694881,0.0030352343,-0.014778759,0.016542675,-0.028132634,0.41668692,-1.4132904,1.9427055,-2.0996811,-1.569579,2.395554,-0.16179593,0.31185606,-0.37580013,0.04295205,0.0062319255,-0.1334448,-0.15322891,0.45968673,-9.289502,0.900793,47.622402,-0.9663992,-1.5792344,-3.5352292,-0.12001134,0.13008243,-0.35945114,26.375,27.25,26.375,29.5,30.75,31.25
0.37805322,-0.3061439,-1.0919088,-1.1178749,-0.020363376,0.021818025,-0.12036593,-0.4074979,-0.32748634,0.060096473,3.076135,-0.63066924,-0.0002729385,-0.19036362,0.002844165,0.0024079015,-0.014523577,0.01573041,-0.029583447,0.41637513,-1.4126643,1.9419388,-2.0995972,-1.5695313,2.3952546,-0.16262133,0.31447202,-0.3775657,0.04295535,0.0063366345,-0.1328183,-0.21068975,0.53630114,-9.32781,0.95226496,47.653748,-1.0101935,-1.5584238,-3.5241313,-0.07795636,0.124255754,-0.38337314,26.375,27.25,26.375,29.5,30.75,31.25
