Tylouw/Master_Thesis_Code/training_data/batch_1/big_rod_t0.2/sample_37_session_1.csv
timestamp[s],tcp_force_x[N],tcp_force_y[N],tcp_force_z[N],tcp_force_rx[Nm?],tcp_force_ry[Nm?],tcp_force_rz[Nm?],tcp_pose_x[m],tcp_pose_y[m],tcp_pose_z[m],tcp_pose_rx[rot_vec_x],tcp_pose_ry[rot_vec_y],tcp_pose_rz[rot_vec_z],tcp_velo_x[m/s],tcp_velo_y[m/s],tcp_velo_z[m/s],tcp_velo_rx[rot_vec_x/s],tcp_velo_ry[rot_vec_y/s],tcp_velo_rz[rot_vec_z/s],q1[rad],q2[rad],q3[rad],q4[rad],q5[rad],q6[rad],qd1[rad/s],qd2[rad/s],qd3[rad/s],qd4[rad/s],qd5[rad/s],qd6[rad/s],tool_acc_x,tool_acc_y,tool_acc_z,current_of_whole_robot[A],voltage_of_whole_robot[V],current_J1[A],current_J2[A],current_J3[A],current_J4[A],current_J5[A],current_J6[A],temp_J1[C],temp_J2[C],temp_J3[C],temp_J4[C],temp_J5[C],temp_J6[C]
6.349874e-07,-0.32839227,-0.84523803,-0.25360292,-0.027836043,0.021641783,-0.008491923,-0.37288892,-0.32821566,0.05993313,-3.078459,0.6248032,-0.00026206006,0.002304987,0.0010576206,-0.003601337,0.0034052876,-0.007423878,4.5470693e-05,0.44816232,-1.4708371,2.0095732,-2.107703,-1.5706977,2.4230433,-1.1825153e-16,0.0039715283,0.003813929,0.00038025653,0.0001567729,-4.7532158e-05,0.076614454,0.22984336,-8.944737,0.75084364,47.703903,-0.1538087,-2.9014158,-2.3860292,-0.4886983,0.08814213,-0.10506627,26.4375,27.375,26.375,29.625,30.875,31.375
0.002051994,-0.9888803,-1.1278632,-0.38567266,-0.0052911113,0.0052555823,0.007267969,-0.3728985,-0.32822055,0.05995487,-3.0784996,0.62487,-0.00024637615,-0.0005916831,-0.00034222996,-0.002798702,-0.0010202077,0.001734627,4.8122503e-05,0.44813824,-1.4708729,2.0095608,-2.1076949,-1.5706614,2.4230556,-1.5864951e-18,0.004066727,0.004330995,-0.010403685,0.000153432,-4.7278274e-05,0.0,0.28730422,-8.925584,0.683705,47.678825,-0.16376157,-2.849348,-2.2719073,-0.4549461,0.09084481,-0.085567,26.4375,27.375,26.375,29.625,30.875,31.375
0.004051943,-0.8214092,-0.6048622,-0.40387702,-0.015023472,0.0097304145,-0.0032014996,-0.37288693,-0.32820854,0.059936374,-3.0784857,0.62486666,-0.00027546674,-0.0011055337,-0.0005855092,-0.0026476674,-0.0019386924,0.0036676286,4.797423e-05,0.4481262,-1.470873,2.009609,-2.1077197,-1.5706614,2.4230433,-2.1284856e-20,0.0038692188,0.0047377576,-0.012752988,0.00013925473,-4.6689256e-05,0.038307227,0.15322891,-9.002198,0.7463667,47.67345,-0.17791091,-2.9960628,-2.6122556,-0.37894768,0.078857094,-0.09767011,26.4375,27.375,26.375,29.625,30.875,31.375
0.006052544,-0.47425547,-0.15366188,-0.43294847,-0.0106029175,0.0029283282,-0.0066612577,-0.37287349,-0.32820845,0.05991408,-3.078449,0.624898,-0.000336982,-0.00035632835,-0.00021771474,-0.001972776,-0.00096756354,0.0016995709,4.6389403e-05,0.44813824,-1.4708377,2.009621,-2.1077178,-1.5706614,2.4230795,-2.855635e-22,0.0024045284,0.003731853,-0.008087833,0.00012515785,-4.6093064e-05,0.019153614,0.076614454,-9.040505,0.7530795,47.70032,-0.15730348,-2.9713106,-2.5653358,-0.37392128,0.092286766,-0.09801322,26.4375,27.375,26.375,29.625,30.875,31.375
0.00805186,-0.4059557,0.53120995,-0.67689407,0.017563324,-0.02344411,-0.002510281,-0.37286294,-0.3282074,0.059895318,-3.0784278,0.6248359,-0.00034269755,0.00023219605,6.853828e-05,-0.0015178387,-5.6678156e-05,-0.00017015012,4.5128974e-05,0.44816232,-1.4708141,2.0096433,-2.1077406,-1.5706857,2.4230676,-3.831199e-24,0.0015672292,0.0027075359,-0.0041464265,0.00012112062,-4.551046e-05,-0.019153614,0.11492168,-9.059659,0.7150385,47.67166,-0.20781782,-2.9138494,-2.455172,-0.4313453,0.090757206,-0.09401481,26.4375,27.375,26.375,29.625,30.875,31.375
0.010052555,-0.01728192,0.9144877,-1.1335249,0.034281053,-0.02540724,0.0024426214,-0.37287727,-0.32820365,0.05989399,-3.0784178,0.62483406,-0.00033276016,0.00034554137,0.00012434408,-0.001360782,0.0003885166,-0.0010836648,4.4588323e-05,0.44815028,-1.4707901,2.00962,-2.1077402,-1.5706977,2.4230556,-5.140042e-26,0.0016765506,0.0018173786,-0.0023493676,0.000117903575,-4.4942357e-05,-0.019153614,0.019153614,-9.193734,0.7732232,47.701214,-0.57009584,-2.281098,-3.0891862,-0.45795885,0.08546369,-0.16027878,26.4375,27.375,26.375,29.625,30.875,31.375
0.012052093,0.025271334,0.90024304,-1.3026152,0.011775684,-0.009880764,-0.006559729,-0.37288696,-0.3281955,0.05989793,-3.0783906,0.6248862,-0.00036658815,0.00041817012,0.0002135488,-0.0044105574,0.003334191,-0.0072088805,-1.2421566e-05,0.44812617,-1.470775,2.0095832,-2.1076915,-1.5706977,2.4230676,-0.000105397005,0.009497091,6.703641e-05,-0.0016228536,0.00011489009,-9.1245056e-05,0.05746084,0.019153614,-9.385271,0.779936,47.681515,-0.6515621,-2.4403172,-3.258328,-0.442037,0.076903895,-0.20097774,26.4375,27.375,26.375,29.625,30.875,31.375
0.014051749,-0.9247896,-0.4110927,-1.2560014,-0.007484975,-0.0012770089,-0.0052130716,-0.37287074,-0.3282144,0.059879318,-3.0784361,0.62483674,-0.00045060003,-0.00661855,0.00064255827,-0.002861238,0.0016309493,-0.003721026,-3.9781306e-05,0.44813573,-1.4707489,2.0096028,-2.1077158,-1.5706376,2.4230404,-0.00732055,0.016709607,-0.011503988,-0.0011467544,0.000112029695,-0.007271071,-0.095768064,0.17238252,-9.519346,0.7486078,47.68599,-0.43813568,-2.798926,-2.9342144,-0.44456074,0.07829823,-0.14267036,26.4375,27.375,26.375,29.625,30.875,31.375
0.016052334,-1.4093211,-1.3444734,-1.4989252,-0.041876215,0.032997217,-0.010540921,-0.3728528,-0.32819036,0.059841156,-3.078332,0.6247756,-0.0005309979,-0.005818121,0.0013941628,-0.0039329627,0.0028541107,-0.006229598,0.0030264237,0.44814748,-1.4706889,2.0096161,-2.1076791,-1.5706977,2.4230273,-0.007997398,0.017249947,-0.00975335,-0.0006479952,9.856434e-05,-0.011015226,-0.2873042,0.28730422,-9.634268,0.65908957,47.67614,-0.3657583,-2.7123156,-3.142753,-0.4397794,0.06211427,-0.11011223,26.4375,27.375,26.375,29.625,30.875,31.375
0.018052531,-2.2270174,-2.2652247,-1.5624728,-0.07229432,0.06894743,-0.012677955,-0.37288412,-0.328178,0.059847973,-3.0783222,0.62486994,-0.0005429495,-0.0050563742,0.0014641517,-0.004532199,0.0037519713,-0.008061914,0.0034356932,0.4480876,-1.4706646,2.0095685,-2.1076553,-1.5706857,2.4230275,-0.0074270316,0.017826974,-0.009226328,0.00028858858,8.609867e-05,-0.010854606,-0.28730422,0.30645782,-9.844957,0.70608455,47.694054,-0.53465456,-2.4315598,-3.496934,-0.45697415,0.051192503,-0.15071073,26.4375,27.375,26.375,29.625,30.875,31.375
0.020052105,-2.3708975,-2.2098107,-1.4230742,-0.096516155,0.099598415,-0.028020285,-0.37286744,-0.3282021,0.059840906,-3.0783584,0.6247625,-0.00060814177,-0.0058846083,0.0011727696,-0.0039666323,0.004018373,-0.008612097,0.0024313498,0.44812354,-1.4706402,2.0095546,-2.1076415,-1.5706495,2.4229918,-0.007632926,0.019319072,-0.0127669675,0.002948928,8.344246e-05,-0.010054573,-0.3256114,0.3256114,-9.710882,0.8090337,47.683304,-0.6441843,-2.4464383,-3.4596756,-0.46261898,0.060211573,-0.17180473,26.4375,27.375,26.375,29.625,30.875,31.375
0.022051817,-2.6256196,-2.0097606,-1.490561,-0.069329925,0.093859866,-0.035771802,-0.37288308,-0.32817084,0.059820842,-3.0782835,0.624805,-0.0006483419,-0.0070475666,0.0013234831,-0.0042136763,0.0043158694,-0.009238974,0.0018604518,0.44807506,-1.4705914,2.0095417,-2.1076176,-1.5706857,2.4229794,-0.008975052,0.021849906,-0.0150869675,0.0034314767,8.150989e-05,-0.0108241495,-0.6703764,0.34476504,-9.653421,0.7530795,47.691364,-0.66495454,-2.471337,-3.3992558,-0.48484817,0.066169664,-0.19176006,26.4375,27.375,26.375,29.625,30.875,31.375
0.024052422,-1.8812308,-1.2061739,-1.6182595,-0.05209753,0.08975254,-0.052202314,-0.372887,-0.32817438,0.059802625,-3.0782568,0.6247805,-0.00068158517,-0.008979722,0.0014423972,-0.0033787494,0.0030773163,-0.0066778264,0.0016320555,0.4480862,-1.4705315,2.009518,-2.107618,-1.5706977,2.4229786,-0.010956108,0.022230625,-0.017156454,0.002274876,7.970227e-05,-0.012575164,-0.61291564,0.51714754,-9.825804,0.8403672,47.728977,-0.61686087,-2.3783543,-3.3921838,-0.47717565,0.047235586,-0.19123879,26.4375,27.375,26.375,29.625,30.875,31.375
0.026052369,-1.7574342,-0.8539494,-1.4460438,-0.04346844,0.07367507,-0.06602848,-0.37291378,-0.32820886,0.0598101,-3.078341,0.62475914,-0.0006763303,-0.0102230655,0.0015054331,-0.0023653074,0.0018217762,-0.0040723644,0.0019524209,0.44808593,-1.4704839,2.0094569,-2.1076548,-1.5706376,2.4229543,-0.012203248,0.021233724,-0.018192315,0.0014159927,7.7975754e-05,-0.014141947,-0.6703765,0.4405331,-9.691729,0.75084364,47.703007,-0.70586133,-2.2572048,-3.436305,-0.45961788,0.044453464,-0.21752879,26.4375,27.375,26.375,29.625,30.875,31.375
0.028051868,-1.509982,-0.80028576,-1.2401843,-0.04336726,0.06701354,-0.08056728,-0.372954,-0.32818776,0.05981832,-3.0783222,0.6247928,-0.0006391126,-0.011503616,0.001245408,-0.002095116,0.0012969439,-0.0029929483,0.00298287,0.44802573,-1.4704593,2.0094082,-2.1076424,-1.5706614,2.4229176,-0.012877791,0.022788057,-0.02039061,0.000859125,7.632256e-05,-0.015845204,-0.68953013,0.30645782,-9.653421,0.7217513,47.721813,-0.773525,-2.273885,-3.4780476,-0.436261,0.029314227,-0.2040003,26.4375,27.375,26.375,29.625,30.875,31.375
0.03005226,-1.9875759,-1.0702311,-1.279343,-0.027415223,0.05770848,-0.09029877,-0.37296265,-0.32821086,0.059803028,-3.078344,0.6247207,-0.00071752805,-0.013342449,0.0014030297,-0.0019410707,0.0008869216,-0.0021155141,0.0028294367,0.44803706,-1.4703748,2.0093482,-2.1076314,-1.5706257,2.4228811,-0.014835672,0.02496735,-0.02301794,0.00033912077,5.729947e-05,-0.01764754,-0.7469909,0.24899697,-9.691729,0.7978386,47.701214,-0.7325442,-2.3789809,-3.4301357,-0.43172795,0.023768736,-0.19732508,26.4375,27.375,26.375,29.625,30.875,31.375
0.03205189,-1.3962485,-0.61043614,-1.0318779,-0.020106133,0.07954246,-0.11193513,-0.37300867,-0.3281968,0.059814095,-3.0783415,0.6247976,-0.0006605255,-0.014694584,0.0013158668,-0.0015454461,0.00046939575,-0.0012520484,0.0020392397,0.44797677,-1.4703504,2.0092986,-2.107643,-1.5706376,2.4228692,-0.015899038,0.02635759,-0.025475847,0.00044744287,5.4994867e-05,-0.017919037,-0.6512229,0.17238252,-9.672575,0.78217715,47.711964,-0.752685,-2.3282943,-3.4288821,-0.40582252,0.025213722,-0.17231858,26.4375,27.375,26.375,29.625,30.875,31.375
0.0340526,-1.6263387,-0.05897539,-0.99779654,-0.006691912,0.068210684,-0.1310602,-0.3730459,-0.32819542,0.05979954,-3.0783308,0.62477666,-0.0006912215,-0.016086904,0.001338349,-0.0009910346,9.144591e-05,-0.00047332706,0.00063200505,0.44794026,-1.4702541,2.009226,-2.1076424,-1.5706376,2.422821,-0.01720604,0.027492119,-0.028147776,0.0011192749,5.382423e-05,-0.017817222,-0.5554548,0.019153614,-9.557653,0.76874626,47.70032,-0.707871,-2.2999759,-3.435226,-0.40041757,0.012525516,-0.19328494,26.4375,27.375,26.375,29.625,30.875,31.375
0.036052473,-1.45058,0.24481127,-0.7897224,0.018206976,0.06307595,-0.14078961,-0.37308052,-0.328178,0.059788153,-3.0782986,0.6248089,-0.00068206474,-0.016879689,0.0011061378,-0.00027433972,-0.00037549407,0.0004949361,0.00023497819,0.44789213,-1.4701942,2.0091894,-2.1076548,-1.5706614,2.4227972,-0.017487947,0.027634786,-0.030122016,0.0018754778,5.2778465e-05,-0.01770112,-0.40222588,0.076614454,-9.461885,0.7933669,47.721813,-0.73465717,-2.2214575,-3.4150662,-0.4078044,0.003950955,-0.18973719,26.4375,27.375,26.375,29.625,30.875,31.375
0.038051996,-1.7215737,0.2652392,-1.0245699,0.036200512,0.033923976,-0.14489713,-0.3731265,-0.3281874,0.059797484,-3.0783315,0.62475795,-0.00063663645,-0.018019453,0.00092289684,5.330072e-05,-0.0006183396,0.0013307332,-9.3208924e-05,0.44786796,-1.4701338,2.0091045,-2.1076667,-1.5706614,2.4227371,-0.018078864,0.028981544,-0.032360416,0.0019090845,-9.443973e-05,-0.017961994,-0.2873042,-0.076614454,-9.461885,0.7418897,47.711063,-0.71478975,-2.1363473,-3.363965,-0.39715844,0.0054209167,-0.17882937,26.4375,27.375,26.375,29.625,30.875,31.375
0.04005253,-0.9732509,0.31141835,-0.96014833,0.036409453,0.03397313,-0.15730001,-0.37315315,-0.32819796,0.059808087,-3.0783546,0.6248014,-0.0006031482,-0.019381888,0.0009862576,0.00011596733,-0.0007569839,0.0017029273,-0.000898045,0.44785544,-1.4701092,2.0090559,-2.1076787,-1.5706495,2.4227488,-0.019409146,0.030943668,-0.03464018,0.0018314843,-0.00013529816,-0.018485658,-0.17238252,-0.019153614,-9.500193,0.7329411,47.69763,-0.69682825,-2.2209377,-3.3228574,-0.37031874,-0.004049202,-0.1942156,26.4375,27.375,26.375,29.625,30.875,31.375
0.04205193,-0.13420637,0.40088966,-1.0397687,0.01621697,0.03844855,-0.18185045,-0.37322032,-0.32817274,0.059799988,-3.0783117,0.62486935,-0.00056886335,-0.01999693,0.0008205767,0.00011087734,-0.000838725,0.0018772385,-0.00042536992,0.44777146,-1.4700129,2.0089715,-2.1076906,-1.5706857,2.4227128,-0.019649664,0.032161437,-0.03594322,0.0017234533,-0.00014035687,-0.01919784,-0.1340753,0.0,-9.404425,0.7284641,47.70838,-0.73255706,-2.2216797,-3.3379626,-0.34244114,-0.0044587804,-0.18242732,26.4375,27.375,26.375,29.625,30.875,31.375
0.044052407,-0.77758604,-0.5885019,-1.0705768,0.00755488,0.017219312,-0.15863264,-0.37326956,-0.3281921,0.059829548,-3.0783596,0.6248019,-0.00046848517,-0.021244269,0.0006571737,0.0009846321,-0.0016225333,0.0035833095,-0.00034045993,0.44777116,-1.4699769,2.0088642,-2.1076906,-1.5706977,2.4226644,-0.02045022,0.032312695,-0.03815543,0.0019068999,-0.00017584086,-0.02008195,-0.095768064,0.076614454,-9.442732,0.65684843,47.696735,-0.6572588,-2.086008,-3.3863077,-0.34734118,-0.009468589,-0.17856228,26.4375,27.375,26.375,29.625,30.875,31.375
0.04605232,-0.5666803,-0.8013709,-1.1875765,-0.007484205,0.008498114,-0.13621293,-0.3732894,-0.32818478,0.059799552,-3.0783234,0.62492925,-0.0006461295,-0.021941803,0.000995097,0.0011102642,-0.0012085516,0.0027875297,-9.967232e-05,0.4476986,-1.4698688,2.0088031,-2.1076415,-1.5706376,2.4226758,-0.021696156,0.033377085,-0.039997865,0.0035826252,-0.00020720644,-0.02156782,-0.076614454,0.095768064,-9.481039,0.7463667,47.694946,-0.6841496,-2.076471,-3.4445662,-0.3252334,-0.016955443,-0.1784216,26.4375,27.375,26.375,29.625,30.875,31.375
0.048051782,-0.86658126,-1.0475222,-1.3459522,-0.008122477,0.000676298,-0.1370405,-0.37334007,-0.32818776,0.05981023,-3.0783718,0.6248814,-0.00059814623,-0.022090217,0.0016844138,0.0010537945,0.00038045662,0.00087333174,0.0005063888,0.44765037,-1.4698206,2.0087311,-2.1076648,-1.5706261,2.4225917,-0.022718014,0.0342057,-0.041479148,0.006650896,-0.0008070296,-0.02319441,-0.076614454,0.24899697,-9.500193,0.784413,47.672558,-0.6776228,-2.0036936,-3.4120412,-0.3485778,-0.024043389,-0.16857886,26.4375,27.375,26.375,29.625,30.875,31.375
0.050052565,-0.8096093,-1.0584126,-1.2768674,-0.014565108,0.002813448,-0.13317998,-0.37337047,-0.32815722,0.059804868,-3.0782986,0.624847,-0.00057367067,-0.022944992,0.0018039864,0.0010032663,0.00080642215,0.00044969976,0.0007899582,0.447614,-1.4697721,2.008682,-2.107629,-1.5706981,2.4225433,-0.023580445,0.03595256,-0.043465964,0.007455934,-0.0010115416,-0.02433873,-0.019153614,0.2681506,-9.557653,0.8023209,47.71554,-0.63343656,-2.0084772,-3.4524002,-0.35611153,-0.029934127,-0.15418139,26.4375,27.375,26.375,29.625,30.875,31.375
0.052052166,-0.78509825,-1.5276356,-1.5175933,-0.020554977,0.012258271,-0.1306922,-0.37340796,-0.32814547,0.059791654,-3.078253,0.6248757,-0.0006236481,-0.02393237,0.0019241505,0.0013145334,0.0010670007,0.0017330984,0.0012981299,0.4475659,-1.469676,2.0085986,-2.1075928,-1.5707101,2.422519,-0.024161788,0.036614645,-0.044832814,0.0071187946,-0.0018074414,-0.02542549,0.0,0.3256114,-9.500193,0.7463667,47.694946,-0.6492969,-2.027111,-3.4603438,-0.36638677,-0.03587701,-0.14307612,26.4375,27.375,26.375,29.625,30.875,31.375
0.054051623,-0.48377487,-1.9148688,-1.5569042,-0.027359704,0.022339497,-0.13807972,-0.37349617,-0.3281667,0.05982877,-3.0783162,0.6248689,-0.00053001137,-0.025093839,0.0016565964,0.0018594404,0.00036702855,0.0029744317,0.0017769651,0.4475175,-1.4695919,2.0084183,-2.107581,-1.5706981,2.4224584,-0.024769453,0.03745983,-0.046986885,0.0070053786,-0.0017168112,-0.026510876,-0.019153614,0.34476504,-9.461885,0.7777002,47.711964,-0.67268944,-1.9160123,-3.481002,-0.34454298,-0.018884547,-0.13165419,26.4375,27.375,26.375,29.625,30.875,31.375
0.056052677,-0.74143773,-1.9736152,-1.6249485,-0.035641015,0.016320238,-0.13244155,-0.3735094,-0.32815588,0.059807654,-3.0782714,0.62486017,-0.00059395755,-0.025829557,0.0018267214,0.0016579627,0.0007143823,0.001851878,0.0019818926,0.44749317,-1.4695194,2.0083816,-2.1075566,-1.5707101,2.4224343,-0.02587183,0.039398845,-0.04892032,0.008160891,-0.001548055,-0.02781731,0.0,0.38307226,-9.576807,0.7418897,47.685097,-0.6216656,-1.905745,-3.4607399,-0.3465375,-0.041712888,-0.12481934,26.4375,27.375,26.375,29.625,30.875,31.375
0.058052327,-1.5633777,-2.1010752,-1.9115348,-0.039672606,-0.010951565,-0.119398214,-0.37357178,-0.32813898,0.059813783,-3.0782638,0.6248379,-0.0005570076,-0.02633529,0.0018762855,0.0016266468,0.0009414228,0.00078059995,0.0028117176,0.4474209,-1.469447,2.0082853,-2.1075442,-1.5707339,2.4223492,-0.026594337,0.040822677,-0.05074927,0.009628019,-0.0012903494,-0.029369313,-0.019153614,0.4213795,-9.615114,0.800085,47.67166,-0.61508024,-1.840131,-3.4879186,-0.35979933,-0.047308028,-0.117036656,26.4375,27.375,26.375,29.625,30.875,31.375
0.060051814,-0.93298805,-1.7329005,-1.4288895,-0.04103614,0.010651893,-0.13266128,-0.3736318,-0.32814687,0.059821658,-3.0782938,0.62488186,-0.0006027531,-0.027028633,0.0017029181,0.0014163933,0.00083191,0.0002674109,0.0030952678,0.44734886,-1.4693506,2.0081532,-2.1075084,-1.5706862,2.4223008,-0.027107766,0.04275598,-0.052431334,0.00979213,-0.00097329123,-0.030165697,-0.076614454,0.49799395,-9.691729,0.7530795,47.682407,-0.6363253,-1.83266,-3.5563173,-0.35421538,-0.06153971,-0.098699704,26.4375,27.375,26.375,29.625,30.875,31.375
0.062052347,-0.84286237,-1.8017958,-1.4302672,-0.034037404,0.029555432,-0.1343025,-0.37369904,-0.3281514,0.059836805,-3.0783222,0.62483084,-0.00050488417,-0.028100714,0.0016304406,0.0014005993,0.00083593884,0.00035784562,0.0030771517,0.4473124,-1.4692779,2.008044,-2.1075323,-1.5707101,2.422229,-0.027909966,0.044714645,-0.05457203,0.009893628,-0.0010189716,-0.03094819,-0.15322891,0.45968673,-9.653421,0.7866488,47.679718,-0.6439009,-1.889473,-3.5462656,-0.3583809,-0.045422625,-0.10323484,26.4375,27.375,26.375,29.625,30.875,31.375
0.06405192,-1.4111947,-1.5647067,-1.2023538,-0.030646995,0.028946888,-0.12681985,-0.37375927,-0.32816556,0.05985461,-3.0783713,0.624782,-0.0004569574,-0.029317914,0.0014249949,0.0018983564,0.00043977733,0.0012199066,0.00454881,0.4472763,-1.4692057,2.0079238,-2.1075318,-1.5706981,2.4221563,-0.02861082,0.045925964,-0.05713945,0.010301121,-0.0010387899,-0.03311911,-0.076614454,0.36391866,-9.557653,0.8179876,47.683304,-0.6643486,-1.8467524,-3.4857771,-0.37148428,-0.06409652,-0.07739284,26.4375,27.375,26.375,29.625,30.875,31.375
0.0660525,-1.4179412,-1.4136599,-1.1716161,-0.019748861,0.03100546,-0.12518805,-0.3738028,-0.3281482,0.059854373,-3.078304,0.6248261,-0.00048242838,-0.03049054,0.0010347619,0.002049292,9.4664254e-05,0.0019307192,0.0045225997,0.44722825,-1.4691211,2.0078151,-2.1074603,-1.5707339,2.4221444,-0.028936138,0.04789399,-0.05957729,0.009979495,-0.0010426148,-0.033416305,-0.17238252,0.40222588,-9.308656,0.7351769,47.65464,-0.66233206,-1.8549674,-3.463669,-0.3508979,-0.076935366,-0.0639524,26.4375,27.375,26.375,29.625,30.875,31.375
0.06805205,-1.3109683,-1.3759613,-1.0690378,-0.012043422,0.032920923,-0.12629765,-0.37387204,-0.3281476,0.05985051,-3.078337,0.62489104,-0.0005138712,-0.030954257,0.0010663526,0.0015199821,0.00054592226,0.0010444346,0.0030701915,0.44713202,-1.4690127,2.0077078,-2.1074727,-1.5706862,2.4220846,-0.029392306,0.049952142,-0.060626503,0.009966604,-0.0010674747,-0.032419078,-0.21068975,0.30645782,-9.423578,0.7038487,47.666286,-0.699818,-1.7815514,-3.5230231,-0.3376739,-0.08212577,-0.06301058,26.4375,27.375,26.375,29.625,30.875,31.375
0.07005243,-1.3434371,-0.77517366,-0.9294757,-0.02118442,0.028530769,-0.13038795,-0.37394118,-0.32816166,0.059873536,-3.0783665,0.62482107,-0.00048315575,-0.033400595,0.00037899552,0.0031526336,-0.0009765804,0.0041418294,0.0016262172,0.44709566,-1.4689164,2.007538,-2.107424,-1.5706862,2.422001,-0.030331282,0.05103759,-0.06568544,0.010488865,-0.0010422328,-0.031911124,-0.2681506,0.24899697,-9.346964,0.7732232,47.658226,-0.63796604,-1.808861,-3.3428106,-0.35406816,-0.09739537,-0.079304636,26.4375,27.375,26.375,29.625,30.875,31.375
0.07205182,-1.2899396,-0.97079664,-0.9681532,-0.008700414,0.03412944,-0.123745106,-0.37399343,-0.32815504,0.05984513,-3.0783453,0.6248541,-0.00051356247,-0.033147458,0.00038579782,0.0014748599,0.00032814627,0.0014082732,0.0033712334,0.4470358,-1.4687836,2.0074656,-2.1074603,-1.5706862,2.4219644,-0.030112762,0.054609016,-0.06563383,0.009894464,-0.0010396418,-0.033436906,-0.28730422,0.21068975,-9.32781,0.7642693,47.694054,-0.7005458,-1.788792,-3.39957,-0.34122378,-0.098216854,-0.05791747,26.4375,27.375,26.375,29.625,30.875,31.375
0.07405277,-1.6486737,-1.1057034,-0.8021763,0.0011749004,0.02882129,-0.1230902,-0.37406838,-0.32814854,0.05988149,-3.0783544,0.624837,-0.00047175132,-0.03412082,0.0002675048,0.0024414067,-0.00036900764,0.0032624726,0.003479293,0.4469636,-1.4687237,2.0072973,-2.1073763,-1.5706981,2.4218805,-0.030645989,0.054069195,-0.0673159,0.010143019,-0.0012148509,-0.03407703,-0.3256114,0.22984336,-9.289502,0.7597976,47.694054,-0.7398046,-1.8760834,-3.4845104,-0.3196752,-0.119812116,-0.05836823,26.4375,27.375,26.375,29.625,30.875,31.375
0.07605215,-1.2074329,-0.61146086,-0.6494608,-0.0055940486,0.047187563,-0.13035545,-0.37415415,-0.32816207,0.059887707,-3.0783696,0.6247814,-0.0004022741,-0.036839575,-0.00064249116,0.004266935,-0.002054968,0.0069194455,0.003414706,0.44692734,-1.4685796,2.0071275,-2.1073883,-1.570722,2.4218078,-0.031346634,0.055389963,-0.07304691,0.010526079,-0.0012852172,-0.034709495,-0.3256114,0.15322891,-9.346964,0.7486078,47.698532,-0.71019113,-1.6736057,-3.385838,-0.33537346,-0.14113012,-0.08191379,26.4375,27.375,26.375,29.625,30.875,31.375
0.0780526,-1.7824862,-1.017052,-1.0211707,0.010452698,0.03699206,-0.11787351,-0.37422442,-0.3281726,0.0598892,-3.0784025,0.62471086,-0.00042762203,-0.036969278,-0.00028469387,0.0032197556,-0.0009001481,0.005465955,0.0041659167,0.44686723,-1.4684472,2.006973,-2.1073644,-1.5706981,2.4216995,-0.03184916,0.05761728,-0.072993904,0.0100575965,-0.0016997318,-0.03596198,-0.34476504,0.21068975,-9.270349,0.784413,47.701214,-0.7467936,-1.8008112,-3.2769103,-0.33037016,-0.12729535,-0.06958008,26.4375,27.375,26.375,29.625,30.875,31.375
0.08005217,-1.5913581,-0.78426373,-0.84654164,-0.006257875,0.045565512,-0.12483372,-0.37429437,-0.32815936,0.059890326,-3.0783799,0.62476444,-0.0003898864,-0.038098596,-0.00041242535,0.0021827877,0.00012659773,0.0036068473,0.0025486858,0.44679505,-1.4683497,2.0068634,-2.1073644,-1.570722,2.4216638,-0.032541487,0.06243563,-0.07598406,0.010349336,-0.0018268331,-0.035034396,-0.36391866,0.19153613,-9.212888,0.78888994,47.694054,-0.81164527,-1.9064982,-3.3579893,-0.3202396,-0.13661411,-0.07269193,26.4375,27.375,26.375,29.625,30.875,31.375
0.08205198,-1.4256285,-0.76619595,-0.7795125,-0.008566275,0.04414062,-0.12403731,-0.3743781,-0.32818463,0.05992134,-3.0784142,0.6247536,-0.00035535006,-0.039916683,-0.00086854276,0.004749588,-0.0018541932,0.008626407,0.00059454294,0.44675884,-1.4682307,2.0066478,-2.1073043,-1.5707105,2.4216166,-0.03306043,0.059778105,-0.07902608,0.010668216,-0.0022128453,-0.033597246,-0.3256114,0.15322891,-9.270349,0.76874626,47.67166,-0.7964473,-1.7077239,-3.318015,-0.30948478,-0.1463107,-0.10798046,26.4375,27.375,26.375,29.625,30.875,31.375
0.08405251,-1.5297133,-0.41642952,-0.8514486,-0.023323173,0.0420735,-0.13242942,-0.37444356,-0.32814124,0.05989627,-3.0783308,0.62475574,-0.0004007011,-0.041342076,-0.00044787276,0.0038238927,-0.0009736698,0.007457003,0.00010800991,0.4466502,-1.4680976,2.0065506,-2.107268,-1.5707582,2.42152,-0.034932707,0.0637563,-0.08120125,0.01029911,-0.002509522,-0.034980226,-0.34476504,0.15322891,-9.289502,0.78888994,47.658226,-0.8089355,-1.7605463,-3.2929025,-0.32844198,-0.15435815,-0.10128873,26.4375,27.375,26.375,29.625,30.875,31.375
0.086051695,-1.5502208,-0.79111385,-0.97428495,-0.021585325,0.039539818,-0.12833501,-0.37452117,-0.3281785,0.059931,-3.0784044,0.62475145,-0.0003463339,-0.042108003,-9.527746e-05,0.0033289131,-0.00023818872,0.006287913,7.012959e-05,0.44662568,-1.468001,2.0063593,-2.1072443,-1.5707225,2.4214835,-0.036174648,0.06605323,-0.0827362,0.010910745,-0.0026676513,-0.036183074,-0.21068975,0.22984336,-9.308656,0.8247004,47.711063,-0.7388828,-1.8625435,-3.339141,-0.3197121,-0.163708,-0.098431885,26.4375,27.375,26.375,29.625,30.875,31.375
0.088052206,-1.4528601,-1.3642257,-0.85760653,-0.0145750465,0.046128158,-0.12582839,-0.37460694,-0.32817718,0.059921723,-3.078413,0.62473416,-0.0003976368,-0.04333106,-0.00016756865,0.0033581837,0.00065462734,0.0071086846,-0.00014757422,0.44652972,-1.4678326,2.00619,-2.1072204,-1.5706991,2.4213758,-0.036347155,0.06827869,-0.08524581,0.010844967,-0.0038331172,-0.036133725,-0.2681506,0.2681506,-9.346964,0.8493211,47.686886,-0.78975064,-1.7845271,-3.0781171,-0.31373113,-0.1526768,-0.10499866,26.4375,27.375,26.375,29.625,30.875,31.375
0.090051845,-1.9404043,-1.2496434,-1.0145088,-0.01776108,0.042336117,-0.1220232,-0.37468615,-0.328162,0.059918005,-3.0783827,0.6247463,-0.00039201905,-0.042733133,0.00043521408,0.0021419802,0.0032499982,0.0051442715,0.00046497124,0.4464459,-1.4677001,2.0060475,-2.1071966,-1.5707234,2.4213035,-0.035921257,0.06994924,-0.08438691,0.011212141,-0.0053233793,-0.036317796,-0.3256114,0.30645782,-9.346964,0.7530795,47.684196,-0.76308113,-1.859551,-3.3179674,-0.3288521,-0.13917011,-0.12690237,26.4375,27.375,26.375,29.625,30.875,31.375
0.09205242,-1.4926721,-1.0952274,-1.0697092,-0.022679014,0.054581244,-0.1198914,-0.37479627,-0.32815686,0.05994381,-3.078387,0.6247675,-0.00028125104,-0.045765314,0.00065393734,0.0032845875,0.0036525452,0.007781847,-0.0015647647,0.44636106,-1.4675797,2.005853,-2.1071837,-1.5707597,2.4212315,-0.03804255,0.072376736,-0.0898794,0.012075429,-0.006832335,-0.03640345,-0.34476504,0.30645782,-9.404425,0.80456203,47.711063,-0.8160725,-1.8126798,-3.231616,-0.30869094,-0.16024902,-0.1497243,26.4375,27.375,26.375,29.625,30.875,31.375
0.09405194,-1.519341,-1.3760217,-0.9282201,-0.0138196945,0.047970206,-0.11884266,-0.37486613,-0.3281604,0.059922095,-3.0783648,0.6248204,-0.00036616006,-0.04605498,0.0016163891,0.0022621532,0.005978512,0.007043543,-0.0017934183,0.44628868,-1.4673992,2.005699,-2.1071603,-1.5707363,2.421195,-0.038897756,0.074118875,-0.08932261,0.011453093,-0.008613786,-0.037026126,-0.3256114,0.24899697,-9.346964,0.842603,47.699425,-0.7648985,-1.9162936,-3.285492,-0.31782806,-0.117533386,-0.16426413,26.4375,27.375,26.375,29.625,30.875,31.375
0.096052006,-1.4549444,-0.8938453,-0.99457234,-0.011174813,0.03426659,-0.12157537,-0.37498596,-0.32817063,0.05994977,-3.0783927,0.6247692,-0.00026704793,-0.04875942,0.0022606319,0.002769513,0.0074415863,0.00940981,-0.003351461,0.4462162,-1.467243,2.005458,-2.1071365,-1.5707611,2.4210873,-0.04095221,0.07675647,-0.09337882,0.011375352,-0.010961266,-0.037515838,-0.19153613,0.22984336,-9.3661175,0.7418897,47.73077,-0.6839018,-1.8847196,-3.1969972,-0.3063122,-0.083176576,-0.1706627,26.4375,27.375,26.375,29.625,30.875,31.375
0.09805174,-1.1337261,-0.6824678,-0.9710621,-0.014789333,0.03576405,-0.12474513,-0.37511402,-0.32816538,0.059974562,-3.0784116,0.6247928,-0.00015413767,-0.050107084,0.0031866652,0.0025803798,0.009701598,0.010223697,-0.0037890058,0.4461076,-1.4670982,2.005242,-2.1071365,-1.5707864,2.4209912,-0.042275783,0.078573205,-0.09495436,0.011381298,-0.013351652,-0.038397145,-0.24899697,0.22984336,-9.404425,0.7284641,47.692257,-0.64038455,-1.9122435,-3.204174,-0.31404504,-0.058858193,-0.18004286,26.4375,27.375,26.375,29.625,30.875,31.375
0.100052394,-1.3212745,-0.8407589,-0.9802577,-0.014141795,0.0278881,-0.115620166,-0.37519118,-0.3281472,0.059952755,-3.0783284,0.62483245,-0.00018372039,-0.0505168,0.0021601948,0.002653284,0.008467083,0.010161287,-0.001812622,0.4460359,-1.4669181,2.0050857,-2.1071007,-1.570834,2.420955,-0.04147575,0.08024063,-0.09693056,0.011206587,-0.012217963,-0.039573357,-0.21068975,0.2681506,-9.289502,0.7553206,47.67166,-0.68867373,-1.9003143,-3.1303263,-0.27385867,-0.052289095,-0.20407146,26.4375,27.375,26.375,29.625,30.875,31.375
0.102051824,-1.2001204,-0.8888013,-0.99644893,-0.012233144,0.019967975,-0.12865104,-0.3752921,-0.32815778,0.05996849,-3.078355,0.62477916,-0.00015519638,-0.051000856,0.0012459204,0.0027550748,0.006646518,0.008951026,-0.0017561779,0.44596386,-1.4667616,2.0048692,-2.1070645,-1.5708331,2.4208465,-0.04164502,0.08208559,-0.099422455,0.012151461,-0.010055317,-0.039801862,-0.21068975,0.2681506,-9.308657,0.779936,47.672558,-0.7224064,-1.9230947,-3.1539323,-0.2889445,-0.07530118,-0.23021103,26.4375,27.375,26.375,29.625,30.875,31.375
0.10405234,-0.6366016,-1.0698936,-0.83340764,-0.019237103,0.026908908,-0.12724581,-0.3754262,-0.32816243,0.059998255,-3.0783792,0.6248225,-2.8341357e-05,-0.051752243,0.0013608242,0.0022761172,0.005543964,0.00747351,-0.0012078783,0.4458672,-1.4666057,2.0046294,-2.1070645,-1.5708565,2.420774,-0.043622755,0.08403679,-0.100472614,0.012099399,-0.0084225945,-0.042330682,-0.21068975,0.22984336,-9.3661175,0.7933669,47.688675,-0.6526748,-1.828733,-3.1490526,-0.27654085,-0.08802188,-0.23460126,26.4375,27.375,26.375,29.625,30.875,31.375
0.10605263,-0.7096493,-0.80495477,-0.97324467,-0.035330616,0.015413972,-0.12418409,-0.37549692,-0.32813895,0.05997435,-3.0783303,0.62481135,-0.00013457549,-0.052587986,0.0009324666,0.002457171,0.004415437,0.0069264774,-0.0010317285,0.4457589,-1.4664371,2.004485,-2.1070044,-1.570856,2.420665,-0.044402316,0.08565584,-0.10286033,0.012869396,-0.0071752556,-0.04328656,-0.17238252,0.28730422,-9.442732,0.80456203,47.689575,-0.7154999,-2.0679927,-3.1660445,-0.26655048,-0.08133773,-0.22237837,26.4375,27.375,26.375,29.625,30.875,31.375
0.10805217,-0.8528211,-1.0565379,-0.97211444,-0.037774812,0.01587751,-0.120761745,-0.3755806,-0.32814297,0.05996034,-3.0783312,0.62483233,-0.00018713158,-0.053056873,0.0006769165,0.0032765693,0.0034922084,0.00774621,-0.0022808292,0.4456748,-1.4662577,2.0043166,-2.106992,-1.5708321,2.420594,-0.044654153,0.085004665,-0.10424034,0.013761997,-0.0066967467,-0.042289592,-0.19153613,0.30645782,-9.346964,0.8179876,47.682407,-0.6796253,-1.7942305,-3.2039282,-0.2596469,-0.107647374,-0.25878656,26.4375,27.375,26.375,29.625,30.875,31.375
0.11005165,-0.5470475,-1.1044158,-0.9313103,-0.030662958,0.030513175,-0.12874727,-0.3757328,-0.32816055,0.059990652,-3.078359,0.6248947,-7.5213444e-05,-0.053165004,0.0013080839,0.00066530117,0.006344176,0.0025636232,-0.0022121894,0.44557843,-1.4660518,2.0040176,-2.1069796,-1.570844,2.4205332,-0.045690183,0.09125802,-0.10532689,0.014500648,-0.007033702,-0.043392815,-0.17238252,0.30645782,-9.346964,0.81351066,47.713753,-0.6920047,-2.047864,-3.2672694,-0.25777316,-0.103750736,-0.27953884,26.4375,27.375,26.375,29.625,30.875,31.375
0.11205213,-0.76873475,-0.5958739,-0.92664,-0.033118047,0.03384094,-0.1352748,-0.37583593,-0.3281502,0.060000125,-3.0783484,0.62485385,-5.124013e-05,-0.0540961,0.0012754513,0.0015385317,0.0061027994,0.0047448194,-0.001041362,0.44548243,-1.4658964,2.003814,-2.1069324,-1.5708684,2.4204133,-0.04596141,0.0906952,-0.10668708,0.014351736,-0.0077594235,-0.04483286,-0.095768064,0.2681506,-9.212888,0.78217715,47.689575,-0.7324163,-1.9523097,-3.2331276,-0.2584299,-0.10121736,-0.29661447,26.4375,27.375,26.375,29.625,30.875,31.375
0.114051715,-0.9271844,-1.0905912,-0.9486106,-0.01080067,0.030031675,-0.12819155,-0.37596926,-0.32814804,0.060015038,-3.0783472,0.6248713,1.4740224e-05,-0.054448567,0.0011620934,0.00036567223,0.006670583,0.0022171226,4.6888057e-05,0.4453742,-1.4657034,2.0035617,-2.106908,-1.5708922,2.4203162,-0.046436097,0.094415724,-0.10818199,0.014647314,-0.007184084,-0.04639572,-0.13407528,0.24899697,-9.251195,0.83589023,47.693153,-0.81361073,-1.967736,-3.389116,-0.247164,-0.106200516,-0.3076139,26.4375,27.375,26.375,29.625,30.875,31.375
0.11605176,-0.70921326,-0.41900423,-0.80311424,-0.014996969,0.026654445,-0.12997007,-0.3760401,-0.32815656,0.05998511,-3.0783305,0.62481123,-4.5188066e-05,-0.055088315,0.0009570271,0.00036713216,0.0063082036,0.0023126681,-0.00019174238,0.4453262,-1.4654995,2.0034058,-2.1069086,-1.5708922,2.420233,-0.046806987,0.09563466,-0.10951862,0.014521297,-0.0069036284,-0.046527162,-0.076614454,0.21068975,-9.270349,0.8940802,47.709274,-0.726519,-2.011067,-3.3881311,-0.2527477,-0.10822136,-0.32048213,26.4375,27.375,26.375,29.625,30.875,31.375
0.11805213,-0.91420895,-0.50432676,-0.7783144,-0.007477262,0.01775181,-0.12618591,-0.37618703,-0.32816976,0.060023576,-3.0783796,0.6248604,7.382879e-05,-0.055519305,0.00025632678,0.0006018888,0.00625708,0.0028200673,-0.0015901566,0.4452186,-1.4653312,2.0031292,-2.1068957,-1.5708922,2.42015,-0.04574479,0.09689454,-0.11151942,0.014783113,-0.007074748,-0.044065647,-0.11492168,0.22984336,-9.289502,0.8179876,47.70211,-0.8699211,-1.9965363,-3.1962833,-0.22826552,-0.12116717,-0.3773811,26.4375,27.375,26.375,29.625,30.875,31.375
0.12005257,-0.24213767,-0.30817726,-0.7458133,-0.014992089,0.024059689,-0.12625282,-0.37627295,-0.32814625,0.060007464,-3.0782883,0.62480295,5.0874274e-05,-0.05690605,0.0012647085,0.00023694642,0.0073669325,0.0026162872,-0.0026711568,0.4451456,-1.4651389,2.002938,-2.1068242,-1.5709642,2.420053,-0.04824935,0.098835796,-0.112851694,0.014834966,-0.007995049,-0.045486026,-0.095768064,0.21068975,-9.346964,0.779936,47.672558,-0.7955001,-2.0003827,-3.4392552,-0.23170087,-0.103677735,-0.40897572,26.4375,27.375,26.375,29.625,30.875,31.375
0.12205196,-0.70984167,-0.53060925,-0.8553064,-0.013050566,0.013947155,-0.123051286,-0.37641686,-0.3281623,0.06003252,-3.0783226,0.6248651,0.000114045724,-0.0571719,0.0006308454,0.0003792369,0.007400063,0.0030317015,0.0010350117,0.44503805,-1.4649351,2.0026505,-2.1068003,-1.5709523,2.41998,-0.04713722,0.09990413,-0.114401795,0.014955405,-0.008204799,-0.048079178,-0.05746084,0.11492168,-9.404425,0.779936,47.687782,-0.9485655,-1.9022357,-3.2895334,-0.20332786,-0.095015325,-0.4138804,26.4375,27.375,26.375,29.625,30.875,31.375
0.12405249,-0.9564394,-0.95790076,-0.81812066,-0.017024772,0.015194869,-0.13048255,-0.3765074,-0.32815695,0.060014218,-3.0782964,0.6247997,6.3574545e-05,-0.057147212,2.1466472e-05,-0.00059100345,0.008387589,0.0011010554,0.004393728,0.44495448,-1.4647303,2.0024583,-2.106764,-1.5709642,2.4198592,-0.045916397,0.10336236,-0.11610484,0.015365985,-0.008270886,-0.050215162,-0.038307227,0.19153613,-9.346964,0.800085,47.684196,-1.052813,-1.9091122,-3.4836848,-0.20064235,-0.09987332,-0.42427534,26.4375,27.375,26.375,29.625,30.875,31.375
0.12605228,-0.8143113,-0.7394806,-0.7563895,-0.021852747,0.022945413,-0.12236089,-0.37662983,-0.32814693,0.060015425,-3.0782835,0.6248556,9.133817e-05,-0.058106873,0.00055285235,0.00083726493,0.007788173,0.0032466433,0.0045170696,0.4448339,-1.4645393,2.0022423,-2.1067522,-1.5709766,2.4197752,-0.047493376,0.10111825,-0.117177375,0.016486939,-0.008652929,-0.05191501,-0.05746084,0.21068975,-9.308657,0.6971306,47.68062,-1.0526536,-1.7836062,-3.492681,-0.19657442,-0.1125161,-0.42521742,26.4375,27.375,26.375,29.625,30.875,31.375
0.12805186,-1.0613508,-0.7945231,-0.9313847,-0.009557534,0.017894872,-0.12513773,-0.37673947,-0.32817376,0.060017526,-3.0783029,0.6247613,9.169127e-05,-0.060451616,0.00033065057,0.001226964,0.008327898,0.0050614323,0.00618985,0.4447858,-1.4643108,2.0019772,-2.106716,-1.5709771,2.419666,-0.048309408,0.10444182,-0.121713944,0.01629701,-0.009931754,-0.054398395,-0.019153614,0.22984336,-9.289503,0.78888994,47.688675,-1.1029309,-1.8274732,-3.3636494,-0.1793491,-0.077426836,-0.43993363,26.4375,27.375,26.375,29.625,30.875,31.375
0.13005264,-0.9743979,-0.63571674,-0.917098,-0.0036765402,0.017737009,-0.1264837,-0.37687996,-0.3281618,0.06003194,-3.0782976,0.62479675,0.00015687503,-0.060119607,0.0009294087,0.00066376344,0.008254473,0.0032677033,0.0083700055,0.44465315,-1.4641191,2.0017273,-2.106692,-1.5710009,2.4195564,-0.049673684,0.10447608,-0.120573044,0.016702274,-0.009089407,-0.05794543,0.038307227,0.21068975,-9.308657,0.8179876,47.70032,-1.0036438,-1.8332198,-3.5956976,-0.17729968,-0.08846415,-0.42452383,26.4375,27.375,26.375,29.625,30.875,31.375
0.1320521,-0.74075025,-0.61787444,-0.8650811,-0.010028962,0.017223142,-0.12669775,-0.37699795,-0.3281567,0.060017522,-3.0782788,0.6247334,0.00012179874,-0.061142627,-1.1810044e-05,0.0009697802,0.008456536,0.004069244,0.013073124,0.4445456,-1.4638785,2.0014865,-2.1066554,-1.5710129,2.419412,-0.04844961,0.10700798,-0.12419468,0.01715387,-0.009626354,-0.061420858,0.0,0.21068975,-9.270349,0.7732232,47.711063,-1.1693318,-1.7486646,-3.3396091,-0.15587513,-0.08026376,-0.4123249,26.4375,27.375,26.375,29.625,30.875,31.375
0.13405262,-1.0341895,-0.88931787,-1.0764108,-0.0060827816,0.005488733,-0.11974928,-0.37713075,-0.3281539,0.060043275,-3.0782971,0.6246963,0.00020516,-0.06328054,-0.00011215292,0.0013616341,0.008081679,0.0046820343,0.015612259,0.44443712,-1.4637098,2.0012333,-2.1066196,-1.5710367,2.4192781,-0.05020559,0.10993021,-0.12848078,0.017798377,-0.009556994,-0.0657138,-0.095768064,0.22984336,-9.3661175,0.8291774,47.677036,-1.1477972,-1.8615495,-3.400494,-0.1476182,-0.072304994,-0.37651464,26.4375,27.375,26.375,29.625,30.875,31.375
0.13605364,-0.8914208,-0.9419996,-1.2239784,-0.010712119,0.011042789,-0.13031216,-0.37725043,-0.3281598,0.060024068,-3.0782804,0.6246727,0.00015964388,-0.06411421,6.938374e-05,0.0017737193,0.007826583,0.004532307,0.018183522,0.4443406,-1.4634461,2.0009806,-2.1065948,-1.5710367,2.4191692,-0.051467102,0.110513784,-0.13040917,0.01916483,-0.009266598,-0.06954596,-0.11492168,0.22984336,-9.500193,0.7978386,47.655537,-1.1150372,-1.8438802,-3.328043,-0.14497595,-0.079450354,-0.3562672,26.4375,27.375,26.375,29.625,30.875,31.375
0.1380523,-1.1493477,-0.8818314,-1.1790553,-0.035557944,0.011037212,-0.12655962,-0.37737003,-0.3281658,0.06003577,-3.078278,0.6246121,0.00012858033,-0.065193735,-0.0002298019,0.002265052,0.007294149,0.0051440788,0.021530678,0.4442444,-1.46323,2.0006936,-2.1064994,-1.5710367,2.4190357,-0.051995944,0.11169261,-0.13300245,0.019794464,-0.009055593,-0.07342063,-0.1340753,0.36391866,-9.519346,0.83589023,47.66808,-1.1396065,-1.7750971,-3.3473656,-0.13748415,-0.073707476,-0.30568057,26.4375,27.375,26.375,29.625,30.875,31.375
0.14005192,-1.1093544,-1.1188132,-1.1364994,-0.054323174,0.029157404,-0.12380058,-0.3775077,-0.3281758,0.060047653,-3.078305,0.6245009,0.0001685352,-0.065950565,0.0003707691,0.0021369455,0.008017169,0.0051247426,0.02388464,0.44414797,-1.4630022,2.0004065,-2.1064632,-1.5710491,2.4188666,-0.053339873,0.11259443,-0.1337729,0.01998988,-0.009700507,-0.07711712,-0.15322891,0.34476504,-9.576807,0.8023209,47.707485,-1.1043907,-1.7420845,-3.3756003,-0.14334868,-0.07491605,-0.24579681,26.4375,27.375,26.375,29.625,30.875,31.375
0.14205247,-1.1576222,-1.3418493,-1.1844444,-0.053865366,0.046049036,-0.1285668,-0.37761635,-0.32814455,0.0600249,-3.0782473,0.6243913,9.617073e-05,-0.06688987,0.00013583725,0.0019931507,0.0075782514,0.004143657,0.0257133,0.4440157,-1.4627738,2.00019,-2.1063912,-1.5710844,2.4186735,-0.054262463,0.115025625,-0.1363425,0.020817285,-0.008893555,-0.07986743,-0.15322891,0.34476504,-9.615114,0.7933669,47.658226,-1.1380615,-1.6668311,-3.3447196,-0.14354362,-0.07269174,-0.20350498,26.4375,27.375,26.375,29.625,30.875,31.375
0.14405188,-1.5425091,-1.5149038,-1.2510972,-0.044825263,0.057016674,-0.12503925,-0.37777188,-0.3281546,0.06004744,-3.0782864,0.6243423,0.0001555948,-0.06796493,0.00030838652,0.0022000351,0.0077043856,0.004268838,0.025715444,0.44389537,-1.4625458,1.9998783,-2.106355,-1.5710849,2.4185178,-0.05540658,0.116365835,-0.13849235,0.021566974,-0.009060598,-0.081012614,-0.19153613,0.30645782,-9.595961,0.7709874,47.651955,-1.1075363,-1.6378983,-3.407117,-0.13610911,-0.08280846,-0.16859569,26.4375,27.375,26.375,29.625,30.875,31.375
0.14605217,-2.0784464,-1.6916897,-1.3516235,-0.032308515,0.053656716,-0.1196198,-0.37789693,-0.32816723,0.060047913,-3.0782902,0.6242268,0.00017603207,-0.068368055,0.000583654,0.00019891493,0.009565563,0.00041951076,0.025352575,0.44382295,-1.4623041,1.9996022,-2.1063192,-1.5711087,2.418373,-0.05624348,0.121823765,-0.14004971,0.021939287,-0.009091257,-0.081484966,-0.3256114,0.2681506,-9.595961,0.82694155,47.690468,-1.1823992,-1.8265039,-3.4046042,-0.1414757,-0.08883794,-0.14101413,26.4375,27.375,26.375,29.625,30.875,31.375
0.14805259,-2.5731773,-1.5528623,-1.1997819,-0.021422999,0.036711216,-0.12140528,-0.37802422,-0.32815957,0.060047545,-3.0782783,0.62416786,0.00015732943,-0.069201455,0.0006879456,0.0016185383,0.007893456,0.0029286782,0.023136692,0.4437026,-1.4620775,1.999339,-2.106259,-1.5711206,2.4182177,-0.05744432,0.11939755,-0.14065829,0.021987122,-0.008661443,-0.080470584,-0.4405331,0.2681506,-9.653421,0.80456203,47.694946,-1.0648787,-1.4604182,-3.4228182,-0.13282882,-0.0696484,-0.13570775,26.4375,27.375,26.375,29.625,30.875,31.375
0.15005223,-1.9325918,-1.2232454,-1.2043033,-0.02440351,0.050118282,-0.1262879,-0.37815517,-0.3281622,0.060044043,-3.0782928,0.624,0.00017799468,-0.07040924,0.0004396131,2.8384911e-06,0.008647717,7.095048e-05,0.019605855,0.4436063,-1.4618357,1.9990743,-2.1062353,-1.5711445,2.418015,-0.05840127,0.12561764,-0.14382531,0.02183587,-0.008122571,-0.077894844,-0.51714754,0.2681506,-9.5385,0.83813137,47.71554,-1.1665792,-1.726027,-3.3175576,-0.12752546,-0.08958406,-0.1436544,26.4375,27.375,26.375,29.625,30.875,31.375
0.15205187,-1.6864836,-0.9000091,-1.0086962,-0.024558958,0.05196819,-0.13032386,-0.37833533,-0.3281712,0.060074344,-3.0783203,0.6240452,0.0002515987,-0.07205159,0.00050683203,0.000200679,0.008392979,0.00074032246,0.01728072,0.44346192,-1.4615835,1.9987153,-2.1061876,-1.5711445,2.4178956,-0.05991937,0.12771204,-0.14662077,0.021822628,-0.008181379,-0.077086285,-0.4213795,0.22984336,-9.5385,0.8493211,47.692257,-1.201224,-1.7273407,-3.5234337,-0.12188498,-0.10002376,-0.13376017,26.4375,27.375,26.375,29.625,30.875,31.375
0.15405262,-1.6200318,-0.37455904,-1.0284998,-0.029190985,0.048167806,-0.12643665,-0.37848768,-0.32818815,0.060081266,-3.0783422,0.62399507,0.00030508582,-0.0728749,0.00078838173,0.0001652949,0.008215221,0.0005883001,0.009995163,0.44336534,-1.4613197,1.9984049,-2.1061752,-1.5711564,2.4177651,-0.06130453,0.12876008,-0.14776778,0.02198394,-0.007953972,-0.071185835,-0.47884035,0.24899697,-9.481039,0.7978386,47.658226,-1.1692365,-1.7585965,-3.416006,-0.10612388,-0.09267102,-0.20016444,26.4375,27.375,26.375,29.625,30.875,31.375
0.15605159,-1.8059323,-0.46395934,-0.89699626,-0.02141575,0.041163206,-0.12982328,-0.37863344,-0.32818717,0.060090072,-3.0783572,0.6239232,0.00030356343,-0.07420017,0.000664942,-0.00026903776,0.00810352,-0.00031932877,0.006155612,0.44323283,-1.461079,1.9981049,-2.1061156,-1.5711559,2.417586,-0.062552266,0.13219158,-0.15064812,0.022203729,-0.0074692834,-0.06859275,-0.49799395,0.19153613,-9.500193,0.8179876,47.678825,-1.152286,-1.7836497,-3.3982627,-0.08144383,-0.110530674,-0.24664746,26.4375,27.375,26.375,29.625,30.875,31.375
0.158052,-1.5591801,-0.5891152,-0.82849044,-0.009845244,0.05288389,-0.12813082,-0.37877205,-0.32818043,0.060061365,-3.0783346,0.6239758,0.00024740672,-0.07587882,0.00051055383,0.0009083647,0.007969724,0.0017256234,0.0066124215,0.4430887,-1.4607912,1.9978522,-2.106115,-1.5711445,2.4174778,-0.063215934,0.13282204,-0.1543444,0.023366569,-0.008233675,-0.069709785,-0.51714754,0.21068975,-9.32781,0.842603,47.64389,-1.1625998,-1.7712908,-3.3814695,-0.07223015,-0.116942056,-0.24897888,26.4375,27.375,26.375,29.625,30.875,31.375
0.16005254,-1.848756,-0.38165796,-0.85589397,0.002314949,0.05009873,-0.12527196,-0.37893212,-0.3281816,0.060095884,-3.078339,0.6239021,0.00035035078,-0.07524244,0.0017521911,-0.0016169243,0.011632461,-0.0030786544,0.0032997984,0.4429803,-1.4605742,1.9975165,-2.1060426,-1.5711926,2.417323,-0.06410353,0.13691549,-0.15328994,0.02413113,-0.009476083,-0.067283265,-0.53630114,0.22984336,-9.193734,0.8224646,47.67345,-1.0768131,-1.9781526,-3.4371524,-0.084859535,-0.08201954,-0.28277862,26.4375,27.375,26.375,29.625,30.875,31.375
0.16205205,-1.9912268,-0.22338392,-0.57323897,0.012412725,0.046926986,-0.12645514,-0.37912196,-0.32817984,0.060113933,-3.078345,0.623883,0.00041683356,-0.076715134,0.001702862,-0.0014907713,0.011568063,-0.0030830263,0.0033030764,0.4428239,-1.4602861,1.9971455,-2.105995,-1.571217,2.4171543,-0.065321386,0.13936818,-0.15649673,0.024857515,-0.009420281,-0.06850286,-0.45968673,0.24899697,-9.155427,0.8672237,47.687782,-1.129077,-1.8225574,-3.284552,-0.077426426,-0.10560742,-0.29822886,26.4375,27.375,26.375,29.625,30.875,31.375
0.16405249,-1.6236737,-0.15556194,-0.6324284,-0.0001955572,0.05107685,-0.13389511,-0.37924784,-0.32817554,0.060096744,-3.0783172,0.6238769,0.00035550926,-0.0776336,0.0019778959,-0.0014919123,0.011475002,-0.003532256,0.003484969,0.44270352,-1.4600222,1.9968818,-2.1059468,-1.571217,2.417034,-0.06680468,0.14071624,-0.15818155,0.025557132,-0.009150396,-0.070167124,-0.4405331,0.076614454,-9.174581,0.83589023,47.682407,-1.0943666,-1.930717,-3.3473473,-0.053775504,-0.09617877,-0.30449516,26.4375,27.375,26.375,29.625,30.875,31.375
0.16605209,-1.6849327,-0.4017781,-0.5420571,-0.004425817,0.033702783,-0.118557885,-0.37943524,-0.32818773,0.060113143,-3.0783598,0.6238471,0.00042867294,-0.07887717,0.0020623726,-0.0014099816,0.011601374,-0.0031941594,0.0030719389,0.44255918,-1.459734,1.9965223,-2.1059344,-1.571217,2.4168658,-0.06785374,0.14255518,-0.160495,0.025779516,-0.009410978,-0.07080178,-0.38307226,0.1340753,-9.136273,0.92093146,47.694054,-1.0451927,-1.888116,-3.3925195,-0.046440065,-0.10231461,-0.32754254,26.4375,27.375,26.375,29.625,30.875,31.375
0.16805254,-1.6776836,-0.46911314,-0.48395443,-0.008359423,0.024660526,-0.12401534,-0.3795782,-0.3281764,0.060097046,-3.0782964,0.6237392,0.00040957204,-0.07992334,0.0020680316,-0.0013234625,0.011762692,-0.0031796854,0.0012945513,0.44245088,-1.4594338,1.9962105,-2.1058629,-1.571277,2.4166985,-0.068657756,0.14431815,-0.16282818,0.026401814,-0.009571384,-0.0698262,-0.34476504,0.21068975,-9.059659,0.90750587,47.694946,-1.1802732,-1.8172929,-3.3868184,-0.043874685,-0.09043409,-0.34303892,26.4375,27.375,26.375,29.625,30.875,31.375
0.17005213,-1.277407,-0.19607371,-0.41796678,-0.01371974,0.02045949,-0.12751953,-0.37975746,-0.32817766,0.060113676,-3.0783067,0.62383664,0.00046927627,-0.08210658,0.002917825,-0.00066106074,0.011460706,-0.0018660133,0.0008757743,0.4422936,-1.45917,1.9958748,-2.105839,-1.571277,2.416601,-0.071945235,0.14525716,-0.16552083,0.026836442,-0.009863914,-0.07269337,-0.34476504,0.076614454,-9.136273,0.83365434,47.688675,-0.96208334,-1.8420758,-3.3026843,-0.039468177,-0.102682285,-0.35501134,26.4375,27.375,26.375,29.625,30.875,31.375
0.17205165,-1.1738517,0.008299159,-0.3706988,-0.013251628,0.016509883,-0.12603937,-0.37992728,-0.32816252,0.06011353,-3.0782735,0.623926,0.00043690996,-0.08189433,0.0020817227,-0.00072440004,0.011514735,-0.0021266595,0.001520802,0.44211423,-1.4588821,1.9955395,-2.1057665,-1.571277,2.4164817,-0.07019211,0.14637943,-0.16674025,0.027191242,-0.009805826,-0.071584426,-0.2873042,0.076614454,-9.059659,0.7777002,47.66539,-1.1057267,-1.795268,-3.360202,-0.01556777,-0.09388898,-0.35788986,26.4375,27.375,26.375,29.625,30.875,31.375
0.17405201,-0.9873309,-0.0035340786,-0.574032,-0.002485684,0.018097332,-0.13253233,-0.38011616,-0.32814923,0.06011174,-3.0782526,0.62392133,0.0004835334,-0.083330356,0.0030503222,-0.00092760025,0.011542435,-0.0027673307,0.0005746896,0.44194534,-1.4585701,1.9951924,-2.1057422,-1.5713128,2.416313,-0.07339273,0.14799681,-0.16821139,0.027629184,-0.009559833,-0.073838554,-0.21068975,0.17238252,-8.963891,0.7597976,47.67793,-1.0390797,-1.7727557,-3.4263535,-0.026508989,-0.09269386,-0.3830477,26.4375,27.375,26.375,29.625,30.875,31.375
0.17605174,-1.0061585,0.025715122,-0.63641787,0.0065850546,0.018135969,-0.12826851,-0.38026097,-0.32817015,0.060125016,-3.0782676,0.6237884,0.0005216821,-0.085081585,0.0038472796,-0.0005146335,0.011040182,-0.0026732148,0.0037461703,0.4418719,-1.4583067,1.9948562,-2.1056821,-1.5713371,2.4161549,-0.07667704,0.14904192,-0.17058572,0.028649438,-0.009149639,-0.080293976,-0.2681506,0.095768064,-9.021352,0.85826975,47.71017,-0.79187214,-1.662456,-3.2454653,-0.031007728,-0.08737926,-0.34674242,26.4375,27.375,26.375,29.625,30.875,31.375
0.17805228,-1.0380664,-0.4036561,-0.78158706,0.012929911,0.020511225,-0.12002763,-0.38044003,-0.32815734,0.060128603,-3.0782564,0.6238225,0.00047952353,-0.085728094,0.0026759992,0.0009088772,0.01041702,-0.00053026574,0.006624356,0.44168088,-1.4580071,1.9944967,-2.1055982,-1.5713252,2.4159868,-0.07477657,0.14883678,-0.17397809,0.030043116,-0.00950988,-0.08126941,-0.19153614,0.15322891,-9.097966,0.83365434,47.737934,-0.98406374,-1.7914796,-3.3454823,-0.013393732,-0.13247249,-0.33489984,26.4375,27.375,26.375,29.625,30.875,31.375
0.18005192,-1.4279826,-0.4990643,-0.79372495,0.0035279586,0.02075389,-0.12747814,-0.38058597,-0.32813835,0.06009471,-3.0781777,0.6237283,0.00040199768,-0.08646626,0.003928144,-0.00045484863,0.011904903,-0.0037874794,0.008230596,0.44154775,-1.4576703,1.9941844,-2.1055257,-1.5713729,2.415805,-0.07775421,0.15213628,-0.17481647,0.031153603,-0.009472345,-0.08585184,-0.22984336,0.095768064,-9.174581,0.7732232,47.687782,-0.88902783,-1.7204076,-3.349289,-0.02511927,-0.091385126,-0.2863551,26.4375,27.375,26.375,29.625,30.875,31.375
0.18205243,-1.3364955,-0.41803044,-0.9285314,-0.00376382,0.024009649,-0.12721707,-0.38075507,-0.32811585,0.06008708,-3.0781424,0.6237573,0.00033857577,-0.08734619,0.003897082,-7.52735e-05,0.011360881,-0.0038932776,0.012068236,0.44135544,-1.4573705,1.9938501,-2.1054418,-1.5713724,2.4156356,-0.078780375,0.15303862,-0.17698711,0.03227751,-0.0089449715,-0.090715155,-0.21068975,0.1340753,-9.289503,0.78888994,47.713753,-0.8391182,-1.6450293,-3.457081,-0.021064851,-0.09153788,-0.24992365,26.4375,27.375,26.375,29.625,30.875,31.375
0.18405196,-1.1604552,-0.9494403,-1.0364041,0.0051947213,0.026620014,-0.1274477,-0.38094652,-0.3281121,0.060093895,-3.078132,0.6235789,0.00036797344,-0.08827811,0.0041124523,0.00014813806,0.012166875,-0.0036571007,0.015976883,0.44121116,-1.4570348,1.9934429,-2.105358,-1.571421,2.4153817,-0.07940098,0.15429021,-0.17917818,0.033341024,-0.009780909,-0.095241696,-0.19153613,0.1340753,-9.32781,0.784413,47.72271,-0.76306814,-1.6146767,-3.2941103,-0.048386227,-0.10404558,-0.18789905,26.4375,27.375,26.375,29.625,30.875,31.375
0.18605179,-1.303752,-0.78531486,-1.2848547,-0.007988256,0.026907612,-0.1228144,-0.38110977,-0.32809937,0.060076617,-3.078101,0.6235526,0.00029131083,-0.08958188,0.00462528,0.0005774872,0.012002481,-0.003250664,0.017468618,0.4410427,-1.4567114,1.9931067,-2.105285,-1.571421,2.415201,-0.08143961,0.15498073,-0.18117213,0.0342022,-0.009816758,-0.098770484,-0.2681506,0.19153613,-9.346964,0.8224646,47.71554,-0.831764,-1.5661854,-3.5004768,-0.04702329,-0.105925046,-0.13272554,26.4375,27.375,26.375,29.625,30.875,31.375
0.18805245,-1.620711,-0.8115009,-1.5350552,-0.011158959,0.018100455,-0.11866688,-0.38128862,-0.3280791,0.060082015,-3.0780568,0.623562,0.00026561745,-0.08960033,0.00466912,-0.00039848627,0.012696329,-0.006122005,0.019177115,0.44086245,-1.4564105,1.9927357,-2.1051772,-1.5714449,2.4150324,-0.081884325,0.15782762,-0.18244061,0.035508562,-0.009224927,-0.10092375,-0.30645782,0.21068975,-9.442732,0.7351769,47.684196,-0.63791,-1.7890534,-3.4357038,-0.07027142,-0.10057791,-0.07709523,26.4375,27.375,26.375,29.625,30.875,31.375
0.19005193,-1.3832668,-0.60838896,-1.5760455,-0.026949344,0.03500188,-0.12527764,-0.38145557,-0.328066,0.060063273,-3.078021,0.6234594,0.00020965852,-0.089927234,0.0052956645,-0.0020797371,0.01552398,-0.009682758,0.017312935,0.4407061,-1.4560738,1.9923881,-2.1051047,-1.5714687,2.4148169,-0.08259753,0.16248861,-0.184155,0.03698983,-0.010271093,-0.09976889,-0.2681506,0.21068975,-9.710882,0.80679786,47.698532,-0.69560826,-1.6342666,-3.4907777,-0.08278809,-0.12246056,-0.053198792,26.4375,27.375,26.375,29.625,30.875,31.375
0.19205235,-1.6498374,-1.2074792,-1.7314826,-0.02644375,0.041211978,-0.11975215,-0.3816355,-0.32806897,0.060065746,-3.0780334,0.6234272,0.00015708627,-0.092004664,0.006479957,-0.0017893186,0.0152116865,-0.009821427,0.011048135,0.44053656,-1.4557501,1.9920038,-2.1050208,-1.5714449,2.414626,-0.08680969,0.16389012,-0.18668316,0.038110152,-0.009936142,-0.09771542,-0.21068975,0.22984336,-9.691729,0.76874626,47.70211,-0.6203956,-1.752121,-3.4519658,-0.1186176,-0.0944955,-0.043095477,26.4375,27.375,26.375,29.625,30.875,31.375
0.19405192,-1.348805,-1.2823704,-1.5801352,-0.037162535,0.053252574,-0.12365417,-0.38182873,-0.32803684,0.060058873,-3.077964,0.6234509,0.00017958388,-0.09058532,0.005234987,-0.003110067,0.01645852,-0.013918724,0.011040092,0.440346,-1.4554253,1.9916447,-2.1049602,-1.571505,2.4144592,-0.08359934,0.16740263,-0.18809988,0.040245518,-0.009319353,-0.09449734,-0.22984336,0.19153613,-9.615114,0.800085,47.678825,-0.7076154,-1.8488585,-3.508782,-0.14667246,-0.11470379,-0.07236019,26.4375,27.375,26.375,29.625,30.875,31.375
0.19605178,-1.6602141,-1.5416651,-1.4940425,-0.03113944,0.04900681,-0.120411836,-0.3820075,-0.3280375,0.060074445,-3.077963,0.62341493,0.00016062015,-0.09146169,0.0055814623,-0.003784012,0.01732874,-0.015569877,0.006142721,0.44018924,-1.4551247,1.9912504,-2.104852,-1.571505,2.4142804,-0.084910214,0.17042243,-0.19017021,0.04116305,-0.009407696,-0.090909205,-0.19153613,0.22984336,-9.615114,0.90527004,47.686886,-0.73151886,-1.9614018,-3.5084581,-0.17846826,-0.13170004,-0.09905109,26.4375,27.375,26.375,29.625,30.875,31.375
0.19805217,-1.6109078,-1.1114092,-1.5304666,-0.032399546,0.044808455,-0.121045575,-0.38219604,-0.32804108,0.060067583,-3.0779548,0.6232983,0.00015639447,-0.09420658,0.0043292823,-0.0021789127,0.015898416,-0.010271856,0.003732163,0.44004562,-1.454765,1.9908527,-2.1047933,-1.5715293,2.4140654,-0.08429679,0.17198855,-0.19520561,0.03923285,-0.010388778,-0.08787949,-0.28730422,0.24899697,-9.576807,0.8784135,47.692257,-0.8142931,-1.9058375,-3.4748156,-0.16997382,-0.108101465,-0.16232505,26.4375,27.375,26.375,29.625,30.875,31.375
0.20005167,-1.0294884,-0.6552745,-1.3796368,-0.02600471,0.049883466,-0.12749642,-0.3823966,-0.32801378,0.06006407,-3.077904,0.62332773,0.0001559186,-0.09481841,0.003762606,-0.00197891,0.015236089,-0.010169985,0.001344496,0.4398417,-1.4544291,1.9904708,-2.1047208,-1.571565,2.4138865,-0.08408924,0.17332403,-0.1972886,0.039601713,-0.0098404195,-0.08528397,-0.24899697,0.30645782,-9.557653,0.85826975,47.670765,-0.8128475,-1.9669783,-3.450235,-0.18051288,-0.10703015,-0.18976489,26.4375,27.375,26.375,29.625,30.875,31.375
0.20205216,-1.0923941,-1.0693029,-1.4627113,-0.018129881,0.03664217,-0.1199157,-0.382579,-0.32801434,0.06006534,-3.0778756,0.6233026,0.00014752742,-0.09432153,0.0038310054,-0.0026135158,0.01618368,-0.011588146,0.00012749356,0.4396978,-1.4540936,1.9900755,-2.1046374,-1.5715889,2.4137309,-0.08355922,0.17423734,-0.19702168,0.04010753,-0.0100956485,-0.083536424,-0.22984336,0.2681506,-9.576807,0.9254084,47.686886,-0.9028486,-1.7709826,-3.4576783,-0.18116185,-0.13194948,-0.23007628,26.4375,27.375,26.375,29.625,30.875,31.375
0.20405164,-1.0622519,-1.319151,-1.506081,-0.016433487,0.0252165,-0.1160556,-0.38275787,-0.32797867,0.060033847,-3.0777984,0.6233445,3.5942863e-05,-0.09418955,0.0038037596,-0.002549898,0.017146045,-0.012795937,9.4455165e-05,0.43948206,-1.4537342,1.9897283,-2.1045525,-1.5716013,2.4135513,-0.08309155,0.17492963,-0.19852312,0.042417932,-0.0104621295,-0.08303368,-0.15322891,0.30645782,-9.576807,0.8224646,47.690468,-0.9614284,-1.8976302,-3.470631,-0.21613525,-0.10247581,-0.23567137,26.4375,27.375,26.375,29.625,30.875,31.375
0.20605223,-1.4149379,-1.4147836,-1.4606832,-0.031992633,0.010773913,-0.11347309,-0.38298002,-0.32799152,0.060077548,-3.0778215,0.62335056,0.00014536547,-0.09541901,0.0034488898,-0.0021402207,0.016611883,-0.012867821,-0.0029888053,0.4393259,-1.453422,1.9892615,-2.104468,-1.5716246,2.4133964,-0.08379883,0.17687845,-0.20199223,0.043773353,-0.0099479165,-0.080657735,-0.11492168,0.36391866,-9.461885,0.8806493,47.679718,-0.9780169,-1.8865399,-3.4423852,-0.2467291,-0.122198544,-0.3250513,26.4375,27.375,26.375,29.625,30.875,31.375
0.20805176,-0.9721392,-1.496679,-1.4734709,-0.04574391,0.013604929,-0.11857738,-0.38317707,-0.32796615,0.060065906,-3.07775,0.62342906,9.3343915e-05,-0.09704624,0.003351024,-0.0024829037,0.01708147,-0.011241684,-0.001028956,0.43912184,-1.4530616,1.9888653,-2.1043732,-1.5716494,2.4132507,-0.08423147,0.17979659,-0.20402461,0.041612938,-0.011083975,-0.08304507,-0.15322891,0.34476504,-9.519346,0.8179876,47.717335,-1.0543017,-1.9094485,-3.5494008,-0.25110626,-0.11635374,-0.35484993,26.4375,27.375,26.375,29.625,30.875,31.375
0.21005215,-0.9081211,-1.5480429,-1.049914,-0.049992464,0.02079602,-0.124928094,-0.38334402,-0.32796323,0.060037203,-3.0776916,0.623383,-1.7475992e-05,-0.098016985,0.0034706183,-0.0017093988,0.016409477,-0.009294825,-0.005888168,0.43897742,-1.4526784,1.9884824,-2.1042774,-1.5716614,2.4130852,-0.085104376,0.17913699,-0.20504268,0.041245535,-0.011313325,-0.07905674,-0.019153614,0.28730422,-9.3661175,0.7709874,47.703903,-1.0083187,-1.7747166,-3.5505219,-0.2492904,-0.10480416,-0.39449686,26.4375,27.375,26.375,29.625,30.875,31.375
0.21205264,-0.8068769,-1.3856285,-1.2100089,-0.037717123,0.013413978,-0.114642784,-0.38356587,-0.3279777,0.06006188,-3.07771,0.6233286,8.944857e-05,-0.09896762,0.0033109451,-0.0011597935,0.015481709,-0.009397474,-0.0062915576,0.43883312,-1.4523302,1.988027,-2.1042292,-1.5716971,2.412905,-0.086172275,0.17996423,-0.20760901,0.042675067,-0.010430154,-0.07972283,-0.038307227,0.2681506,-9.32781,0.85826975,47.716442,-0.94378924,-1.7556841,-3.496692,-0.26251405,-0.11458699,-0.42857957,26.4375,27.375,26.375,29.625,30.875,31.375
0.21405223,-0.81610775,-1.2392294,-1.1649289,-0.017461544,0.0038784635,-0.1159133,-0.3837752,-0.3279558,0.06004609,-3.0776732,0.6233188,3.9688617e-05,-0.10066544,0.0032755602,-0.0006536116,0.015431815,-0.008229591,-0.004537929,0.43861687,-1.4519467,1.9876193,-2.1041572,-1.5717095,2.4126875,-0.08722008,0.18177916,-0.21095991,0.043127835,-0.010896538,-0.082520775,-0.019153614,0.28730422,-9.404425,0.88960326,47.703007,-0.9631579,-1.6973207,-3.532052,-0.30085486,-0.123148724,-0.4678019,26.4375,27.375,26.375,29.625,30.875,31.375
0.21605173,-0.56964684,-0.8235061,-1.1307845,-0.002451938,-0.004349743,-0.116637714,-0.38396534,-0.3279553,0.060043573,-3.077636,0.6233288,5.7387464e-05,-0.10236176,0.002262264,0.00035189718,0.012930051,-0.0056295916,-0.0014763987,0.43847254,-1.4515991,1.987224,-2.104098,-1.5717448,2.4125545,-0.08753493,0.18269427,-0.21406159,0.04188564,-0.009750587,-0.08589762,-0.019153614,0.24899697,-9.232041,0.8940802,47.693153,-1.0193174,-1.6015725,-3.3678875,-0.3013186,-0.122703865,-0.46692955,26.4375,27.375,26.375,29.625,30.875,31.375
0.21805196,-0.68411213,-0.54718566,-1.338944,0.009397555,-0.00906022,-0.11518884,-0.38416743,-0.3279516,0.060029138,-3.0776114,0.6233962,1.1976188e-06,-0.10505763,0.0013971945,0.0016271346,0.011111072,-0.0016406471,0.0054675974,0.43828046,-1.4512151,1.9868153,-2.1040385,-1.5717329,2.4124079,-0.08817983,0.18444943,-0.21865258,0.04032813,-0.009821482,-0.09348291,0.05746084,0.2681506,-9.232041,0.83365434,47.65106,-0.9807595,-1.5539309,-3.3038616,-0.29687995,-0.14104405,-0.42500576,26.4375,27.375,26.375,29.625,30.875,31.375
0.22005248,-0.13174324,-0.50876135,-1.585697,0.0061033233,0.009161159,-0.1179156,-0.38438857,-0.32796076,0.060063813,-3.077653,0.6232499,5.5729226e-05,-0.10606111,0.0020813632,0.0014910267,0.011396454,-0.0012855097,0.007409788,0.43811187,-1.4508797,1.9863371,-2.1039307,-1.5717453,2.412143,-0.08998761,0.18533383,-0.2192794,0.03986435,-0.010233953,-0.0972318,0.05746084,0.28730422,-9.289503,0.8873621,47.65912,-1.0404699,-1.4341766,-3.4025779,-0.27773368,-0.13629209,-0.40469208,26.4375,27.375,26.375,29.625,30.875,31.375
0.22205177,-0.7342482,-1.0591823,-1.3622115,-0.011846526,0.006161512,-0.118373886,-0.38458797,-0.32796055,0.06005934,-3.0776324,0.62316096,3.657011e-06,-0.10611665,0.00097589,0.0012181359,0.011043632,-0.002244941,0.019124968,0.43794438,-1.4504955,1.9858941,-2.103823,-1.5717567,2.411923,-0.08839663,0.18771333,-0.22150314,0.040410362,-0.009525907,-0.107355855,-0.019153614,0.21068975,-9.385271,0.9298854,47.657326,-1.0234202,-1.546294,-3.3583837,-0.30890325,-0.11970517,-0.32903185,26.4375,27.375,26.375,29.625,30.875,31.375
0.2240522,-1.5684729,-1.6202868,-1.3579221,-0.025336506,0.005302465,-0.1194718,-0.3848225,-0.32796326,0.060078006,-3.0776198,0.6231,7.6198405e-05,-0.107322216,0.0008654933,0.0006110976,0.011544723,-0.0028880737,0.02198575,0.43777615,-1.4501109,1.985403,-2.103739,-1.5718049,2.4117186,-0.08905449,0.19128452,-0.22413258,0.040253174,-0.00971487,-0.11087235,-0.11492168,0.24899697,-9.3661175,0.8784135,47.707485,-1.1238664,-1.5785358,-3.297756,-0.31005195,-0.13224174,-0.2653541,26.4375,27.375,26.375,29.625,30.875,31.375
0.22605182,-1.4842148,-1.2467282,-1.588175,-0.042304102,0.024119044,-0.116957836,-0.38500172,-0.32793063,0.06005591,-3.0775583,0.6230095,3.7643767e-06,-0.10921632,0.0017909936,-0.00055760704,0.012473954,-0.004588662,0.02247004,0.43758297,-1.4497617,1.985042,-2.1036437,-1.5718411,2.411477,-0.09227257,0.19591297,-0.22664602,0.040062264,-0.009856003,-0.11457154,-0.15322891,0.34476504,-9.442732,0.8314132,47.745995,-0.9441631,-1.8511827,-3.1751304,-0.3131895,-0.14855233,-0.20068273,26.4375,27.375,26.375,29.625,30.875,31.375
0.22805224,-1.8563128,-1.9527912,-1.7344621,-0.042107478,0.037025593,-0.10812719,-0.38520858,-0.32795304,0.06005885,-3.077567,0.62295204,-6.85474e-05,-0.10881991,0.0012311378,-0.0013731756,0.012542952,-0.005795757,0.025015214,0.43742752,-1.4493539,1.9845523,-2.1035235,-1.5718168,2.411285,-0.091118045,0.19769502,-0.22671017,0.0394651,-0.0094159655,-0.115962595,-0.038307227,0.36391866,-9.557653,0.85155696,47.71554,-1.1936429,-1.8349218,-3.3684564,-0.31176937,-0.13469683,-0.16228724,26.4375,27.375,26.375,29.625,30.875,31.375
0.23005171,-2.4066536,-2.0865624,-1.485313,-0.06143314,0.0445532,-0.11384946,-0.3854067,-0.32796454,0.060042284,-3.0775788,0.6227433,-0.00010330246,-0.10941524,0.0012752532,-0.0012162293,0.011993464,-0.0048567923,0.023969637,0.4372836,-1.4489466,1.9841217,-2.1034648,-1.5718287,2.4110096,-0.09172034,0.19780597,-0.22708356,0.03864189,-0.009323712,-0.11551895,-0.2681506,0.38307226,-9.5385,0.784413,47.67166,-1.1804464,-1.6828257,-3.5365255,-0.30642366,-0.15282202,-0.13900346,26.4375,27.375,26.375,29.625,30.875,31.375
0.23205225,-2.2908704,-2.0537417,-1.6255561,-0.054373845,0.05359154,-0.10978898,-0.38564098,-0.32795167,0.06006518,-3.0775652,0.6227032,-5.557993e-05,-0.11037438,0.0011678777,-0.001411859,0.012033294,-0.0040960982,0.020552207,0.43707934,-1.4485871,1.9836429,-2.1033576,-1.571865,2.4107823,-0.092043675,0.19958767,-0.22844568,0.03754946,-0.009684654,-0.1124229,-0.45968673,0.4405331,-9.557653,0.9410752,47.691364,-1.1068978,-1.5996612,-3.5182498,-0.30942574,-0.1520792,-0.14971574,26.4375,27.375,26.375,29.625,30.875,31.375
0.23405164,-2.0945413,-1.9855844,-1.4875572,-0.04233775,0.053272057,-0.106037326,-0.38588902,-0.32794473,0.06007079,-3.077562,0.62265027,7.4796894e-06,-0.11267986,0.002216044,-0.0009755195,0.010823552,-0.0020109431,0.011661739,0.4368739,-1.4481796,1.9831637,-2.1033103,-1.5719007,2.4105446,-0.09605455,0.20004724,-0.22966257,0.035905622,-0.0094713885,-0.10754307,-0.53630114,0.4405331,-9.519346,0.85826975,47.711964,-1.0706987,-1.627239,-3.636823,-0.29602173,-0.16540611,-0.21773556,26.4375,27.375,26.375,29.625,30.875,31.375
0.23605227,-2.155653,-1.5366523,-1.5689521,-0.04758252,0.055399984,-0.111309595,-0.38609436,-0.32795107,0.06005978,-3.077545,0.62266594,-2.4318466e-05,-0.113492884,0.00052316044,-0.00095412787,0.009822058,-0.0006281044,0.009850053,0.4367067,-1.4477834,1.9827322,-2.1032507,-1.5719007,2.4103897,-0.09377017,0.20290722,-0.23263182,0.034341216,-0.009158257,-0.10344524,-0.49799395,0.2681506,-9.500193,0.97240865,47.71017,-1.2278891,-1.6766078,-3.6993852,-0.25196198,-0.17486733,-0.27226573,26.4375,27.375,26.375,29.625,30.875,31.375
0.23805173,-1.7381518,-1.1274959,-1.2732955,-0.030509945,0.06475709,-0.13176852,-0.38633153,-0.3279496,0.06005129,-3.0775447,0.62261,1.2807813e-05,-0.11674474,0.0012236168,-0.00014182884,0.009212086,0.0025890628,0.0053101997,0.43651357,-1.4473634,1.9822763,-2.1032274,-1.571925,2.410162,-0.097275734,0.20478547,-0.23637757,0.033035625,-0.009975271,-0.10240653,-0.49799395,0.24899697,-9.557653,0.9254084,47.672558,-1.1933037,-1.6669418,-3.5953245,-0.23454785,-0.17310229,-0.30516142,26.4375,27.375,26.375,29.625,30.875,31.375
0.24005221,-2.1351368,-1.0600917,-1.3759034,-0.0136106005,0.051467285,-0.11429785,-0.3865493,-0.32795712,0.060043678,-3.077515,0.6225649,-3.9263956e-05,-0.11662637,0.0005955019,-0.0008973206,0.009244536,0.0012904597,0.0063785445,0.43634588,-1.4469314,1.9817857,-2.1031196,-1.571937,2.4099703,-0.09627996,0.20709682,-0.2372671,0.03279978,-0.00946371,-0.10247918,-0.6512228,0.13407528,-9.442732,0.92764956,47.675243,-1.1301781,-1.6817088,-3.5777426,-0.22100838,-0.16166013,-0.32963097,26.4375,27.375,26.375,29.625,30.875,31.375
0.24205174,-2.2083247,-0.5074373,-1.1158593,-0.014883086,0.0644993,-0.12088239,-0.38680515,-0.32794717,0.060054664,-3.077529,0.622607,4.472304e-06,-0.11865825,0.00086449477,-0.0009999098,0.008652666,0.0016039669,0.003812387,0.43610504,-1.4465351,1.981306,-2.103072,-1.571937,2.4097543,-0.09871713,0.21000469,-0.24026623,0.032353528,-0.0090640085,-0.10234948,-0.6895301,0.11492168,-9.461885,0.88289046,47.653748,-1.1470034,-1.6886749,-3.5680742,-0.18901229,-0.20872949,-0.34319383,26.4375,27.375,26.375,29.625,30.875,31.375
0.24405216,-2.0613468,-0.22062221,-0.8985473,-0.011757097,0.07394666,-0.12220491,-0.3870554,-0.32795417,0.06006138,-3.077536,0.62261003,1.771605e-05,-0.12109804,0.0007799557,0.0004151374,0.007767764,0.005430379,0.0017323574,0.43590063,-1.4461038,1.980791,-2.103,-1.571937,2.4095511,-0.10004699,0.21045552,-0.24396063,0.031757224,-0.009885304,-0.10159533,-0.5554548,0.1340753,-9.404425,0.88960326,47.68599,-1.0751617,-1.6797729,-3.5024495,-0.1625256,-0.20344545,-0.36914086,26.4375,27.375,26.375,29.625,30.875,31.375
0.24605156,-1.8229398,-0.3588539,-0.9305994,0.0021726147,0.08141871,-0.13080737,-0.3872929,-0.32794425,0.060049318,-3.0774918,0.6226,4.579196e-05,-0.12315324,0.000920335,0.00047173796,0.007474931,0.005745727,0.0008027737,0.435708,-1.4456718,1.9803237,-2.1029522,-1.5719851,2.4093583,-0.10208963,0.21350192,-0.2476409,0.031972975,-0.009762417,-0.10270632,-0.51714754,0.076614454,-9.289502,0.76874626,47.687782,-0.9828515,-1.6644331,-3.4068308,-0.1210113,-0.19033885,-0.36708194,26.4375,27.375,26.375,29.625,30.875,31.375
0.24805206,-2.1942518,-0.12493352,-0.98325634,0.009122848,0.06300521,-0.118676394,-0.3875295,-0.32793602,0.060038295,-3.0774992,0.6225822,1.7577107e-05,-0.12508899,0.0008875193,0.0016375812,0.0068195867,0.0067758234,0.00084124965,0.4354794,-1.4452521,1.9798673,-2.1029036,-1.5719727,2.409118,-0.10371705,0.214678,-0.2522105,0.03415243,-0.0096101025,-0.10437052,-0.6703764,0.076614454,-9.251195,0.88289046,47.695843,-0.9451153,-1.531452,-3.284638,-0.116650134,-0.22538412,-0.39912838,26.4375,27.375,26.375,29.625,30.875,31.375
0.2500525,-1.8010229,0.4559999,-1.1266367,0.014164612,0.059936482,-0.12573831,-0.3878024,-0.32795072,0.060073756,-3.077541,0.62253016,0.00014558976,-0.12631871,0.00179481,0.0026421316,0.0071028625,0.008550094,0.005162738,0.43528655,-1.4448451,1.9793161,-2.1028435,-1.5719975,2.4088876,-0.10570033,0.21350831,-0.25349566,0.03510826,-0.010612284,-0.11067358,-0.6703765,0.095768064,-9.308657,0.9365982,47.707485,-0.82436275,-1.5445386,-3.2935483,-0.09592928,-0.21816254,-0.33909628,26.4375,27.375,26.375,29.625,30.875,31.375
0.25205207,-1.5174065,0.25985104,-1.1776296,0.015748342,0.07045865,-0.12240346,-0.38805878,-0.3279281,0.060060397,-3.0774667,0.6224925,0.0001619639,-0.12601046,0.0027840268,0.00091283023,0.009725855,0.0038512389,0.009164674,0.43507034,-1.4443767,1.9788021,-2.1027586,-1.5720695,2.4086578,-0.10690558,0.21699889,-0.25411177,0.03758398,-0.011014599,-0.115879305,-0.63206923,0.038307227,-9.385271,0.91421866,47.686886,-0.7756052,-1.5330307,-3.3634462,-0.08206504,-0.2174404,-0.30489722,26.4375,27.375,26.375,29.625,30.875,31.375
0.25405246,-1.7319359,-0.2191139,-1.1821823,-0.0014307398,0.07022146,-0.11964291,-0.38826197,-0.32792574,0.060024504,-3.0774472,0.6224083,-1.2818568e-05,-0.12626715,0.003126544,0.00077883166,0.010778548,0.0025563077,0.015050793,0.43486622,-1.4439211,1.9783481,-2.10265,-1.5720333,2.4084039,-0.10739684,0.21814719,-0.2556428,0.039578926,-0.011442467,-0.12225406,-0.51714754,0.05746084,-9.3661175,0.91198283,47.672558,-0.7846564,-1.4365537,-3.4590473,-0.097089246,-0.20880014,-0.24332052,26.4375,27.375,26.375,29.625,30.875,31.375
0.25605196,-1.9900088,-0.643373,-1.0517358,-0.014659012,0.06840904,-0.116455026,-0.38855228,-0.3279099,0.060067017,-3.0774426,0.6223649,0.00021229548,-0.1266598,0.0033861839,0.00034406266,0.011711137,0.0021763665,0.021201614,0.43465006,-1.4435377,1.9778098,-2.1026027,-1.5721301,2.4081616,-0.10766609,0.21960126,-0.2563498,0.03954752,-0.012123592,-0.12867326,-0.45968673,0.019153614,-9.423578,0.842603,47.658226,-0.80393755,-1.4997191,-3.504984,-0.093495846,-0.22683975,-0.18640277,26.4375,27.375,26.375,29.625,30.875,31.375
0.2580521,-2.3303838,-0.7195677,-0.98334926,-0.019273203,0.0562607,-0.11261675,-0.3887972,-0.32790083,0.06004317,-3.0774117,0.6223402,0.00013413817,-0.12747577,0.0033427482,-0.0008343812,0.012373446,0.000286703,0.020910526,0.4344218,-1.4430571,1.9773053,-2.1025183,-1.5721301,2.4079223,-0.10831769,0.22376768,-0.25840703,0.039427478,-0.011942647,-0.12903191,-0.40222588,-0.076614454,-9.289502,0.80456203,47.668976,-0.7814963,-1.663095,-3.4745164,-0.04289389,-0.19977792,-0.14184193,26.4375,27.375,26.375,29.625,30.875,31.375
0.26005265,-1.4792038,-0.6643891,-1.1219891,-0.0033313748,0.05202081,-0.11553462,-0.38905352,-0.32788402,0.06004206,-3.0773933,0.62239265,0.00011450838,-0.12839063,0.0036242083,-0.0014346739,0.013895046,-0.0013538083,0.021235181,0.43416965,-1.4426246,1.9768027,-2.102434,-1.5721301,2.4077055,-0.109066196,0.22713476,-0.26127905,0.041058898,-0.012639692,-0.13010164,-0.22984336,-0.076614454,-9.232041,0.7642693,47.64927,-0.82166195,-1.7343708,-3.553534,-0.06284192,-0.2220099,-0.09796576,26.4375,27.375,26.375,29.625,30.875,31.375
0.26205224,-0.6631816,-0.44163445,-1.2316549,0.014588471,0.035692323,-0.106314056,-0.3893313,-0.32789904,0.060057864,-3.0774212,0.6222091,0.00021805662,-0.12950824,0.0034112106,-0.0010054692,0.013145335,-0.00070783356,0.015764486,0.43398938,-1.442157,1.9762276,-2.1023743,-1.5721778,2.4074075,-0.109814845,0.22824286,-0.26370177,0.041470073,-0.012225642,-0.12538005,-0.1340753,0.019153614,-9.270349,0.8179876,47.66539,-0.91313195,-1.7733412,-3.6408637,-0.04348603,-0.22623166,-0.110936195,26.4375,27.375,26.375,29.625,30.875,31.375
0.26405212,-0.50919414,-0.2822167,-1.3256953,0.016098643,-0.002829982,-0.11990881,-0.38957977,-0.32787475,0.060025223,-3.0773394,0.6220978,0.00021931135,-0.13037299,0.0020571293,-0.00019532054,0.012436647,0.001043878,0.013458203,0.43378597,-1.4416654,1.975736,-2.1023147,-1.5722617,2.4071455,-0.107904285,0.22960965,-0.26727083,0.04177977,-0.012330037,-0.121160395,-0.038307227,0.17238252,-9.346964,0.8985519,47.63673,-0.8857751,-1.7643921,-3.549417,-0.014776222,-0.21550539,-0.15799513,26.4375,27.375,26.375,29.625,30.875,31.375
0.26605213,-0.07559381,-0.72883445,-1.1945169,0.010023482,-0.02111638,-0.10826848,-0.38984388,-0.32786927,0.060038704,-3.0773356,0.62209964,0.00024195241,-0.1332733,0.0031302292,0.0008990386,0.011889233,0.003093273,0.005461081,0.43355677,-1.4412333,1.9751972,-2.102218,-1.5722741,2.4069183,-0.11203201,0.23054229,-0.27110305,0.042593475,-0.012696283,-0.11728837,-0.038307227,0.34476504,-9.212888,0.8985519,47.685097,-0.8578963,-1.9547429,-3.4089994,0.015340233,-0.22350445,-0.19598243,26.4375,27.375,26.375,29.625,30.875,31.375
0.26805177,-0.47574267,-1.3263084,-1.4516046,-0.0014620131,-0.045039754,-0.10688926,-0.39009452,-0.32784346,0.060020532,-3.0772629,0.62206674,0.00016877525,-0.13368763,0.0020154277,0.0015016029,0.0122772055,0.0037154525,0.004112495,0.43331754,-1.4407543,1.9746698,-2.1020863,-1.5723103,2.4066682,-0.10982394,0.23202081,-0.27462387,0.044235423,-0.013319699,-0.113727525,-0.076614454,0.4213795,-9.193734,0.78217715,47.677036,-0.8663155,-1.7658978,-3.4593902,0.01836432,-0.21486354,-0.25797126,26.4375,27.375,26.375,29.625,30.875,31.375
0.27005243,-0.15360804,-1.7683517,-1.3548578,-0.03534362,-0.018397635,-0.1166101,-0.3903659,-0.32783738,0.060015347,-3.0772147,0.6221355,0.00015786155,-0.13394618,0.0024752798,0.0014346472,0.013778475,0.0018150042,0.0010413724,0.43308926,-1.4402632,1.9741067,-2.101989,-1.5723346,2.4064894,-0.1104196,0.23338789,-0.27684757,0.047447957,-0.01388264,-0.11124981,0.0,0.45968673,-9.385271,0.87617236,47.66539,-0.9157516,-1.6353885,-3.3874054,0.015123548,-0.19981346,-0.30162656,26.4375,27.375,26.375,29.625,30.875,31.375
0.2720519,-1.3656224,-3.3855445,-1.3650886,-0.059049957,-0.0024343657,-0.10249154,-0.3906623,-0.32782555,0.060050722,-3.0772386,0.62219787,0.00023093828,-0.13354011,0.002620692,0.0010272625,0.014628248,-0.0011990716,-0.0011906668,0.4328132,-1.4398435,1.9735311,-2.1018922,-1.5723346,2.4062495,-0.110554695,0.23474233,-0.27824572,0.050582554,-0.013377971,-0.10915495,-0.05746084,0.6703765,-9.308656,0.82694155,47.688675,-0.8764873,-1.539154,-3.349118,-0.0039246925,-0.20148641,-0.37309223,26.4375,27.375,26.375,29.625,30.875,31.375
0.27405238,-1.5791658,-3.111029,-1.3586801,-0.08350325,0.025791379,-0.1079887,-0.390898,-0.32780486,0.060004734,-3.0771046,0.6222502,6.270624e-05,-0.13462745,0.0036397658,0.0006273553,0.015596491,-0.0039790617,-0.006250777,0.43259615,-1.4393033,1.9729923,-2.1017358,-1.5723699,2.4060826,-0.11344932,0.23733343,-0.28109574,0.053767677,-0.013106474,-0.10698718,-0.19153613,0.61291564,-9.308656,0.95226496,47.701214,-0.8778753,-1.6648736,-3.3431668,-0.0409213,-0.21760918,-0.4263087,26.4375,27.375,26.375,29.625,30.875,31.375
0.27605215,-1.5486807,-2.8437994,-1.4175992,-0.07660557,0.0378448,-0.11286145,-0.39115125,-0.32780415,0.05999232,-3.0770652,0.62220067,1.9559846e-05,-0.13297915,0.002158014,0.0003616517,0.015669793,-0.006741228,-0.0027088022,0.43239352,-1.4388119,1.972442,-2.1016266,-1.5723938,2.4058545,-0.10993367,0.23825039,-0.28226602,0.056550693,-0.012019218,-0.107016,-0.095768064,0.5746084,-9.385271,0.86498255,47.681515,-1.0782858,-1.7432146,-3.3676713,-0.08129355,-0.21932802,-0.48706502,26.4375,27.375,26.375,29.625,30.875,31.375
0.27805215,-1.4307299,-1.9714426,-0.9130158,-0.08543864,0.047266643,-0.116860196,-0.39142367,-0.32780823,0.060013555,-3.0770764,0.6221651,5.6276658e-05,-0.13416256,0.0040594996,7.0808965e-05,0.016491752,-0.008655683,-0.003946291,0.43217576,-1.4383681,1.9718684,-2.1015184,-1.5724057,2.4056134,-0.114376314,0.23913534,-0.28317425,0.058646955,-0.011965551,-0.11022164,-0.038307227,0.61291564,-9.251195,0.85826975,47.709274,-0.9573983,-1.588855,-3.4744885,-0.11737497,-0.2145293,-0.5140567,26.4375,27.375,26.375,29.625,30.875,31.375
0.28005263,-1.1778052,-1.9792289,-1.1274348,-0.035787042,0.030068351,-0.106937535,-0.39170188,-0.32780802,0.05999001,-3.0770187,0.622166,2.681072e-05,-0.13356033,0.0025711637,-5.1896193e-05,0.015820418,-0.0093923155,0.006368321,0.43196094,-1.4378169,1.9712814,-2.1014345,-1.5724415,2.405407,-0.11161229,0.24046743,-0.28463563,0.05914053,-0.011068199,-0.11777361,0.095768064,0.49799395,-9.232041,0.8291774,47.660015,-1.057009,-1.6454995,-3.5831485,-0.14764473,-0.2501197,-0.47512618,26.4375,27.375,26.375,29.625,30.875,31.375
0.28205237,-0.47110072,-0.39755595,-1.1307105,-0.019680217,0.007968748,-0.12542498,-0.39199132,-0.3278052,0.060005777,-3.0770445,0.62210983,5.2985448e-05,-0.13404685,0.0030800246,-0.00095266005,0.01659583,-0.011566878,0.012020565,0.4317085,-1.4373488,1.9706954,-2.1013386,-1.5724415,2.4051166,-0.112979054,0.24306424,-0.28580713,0.05999839,-0.010873696,-0.12479281,0.05746084,0.34476504,-9.251195,0.87393653,47.694946,-1.0777199,-1.6956711,-3.4671762,-0.13631108,-0.26939318,-0.40109247,26.4375,27.375,26.375,29.625,30.875,31.375
0.28405216,-0.23650561,-0.093509376,-0.9865055,-0.0018092222,-0.0047342414,-0.12359197,-0.39224714,-0.32778263,0.05996461,-3.0769649,0.62199074,-4.1649564e-05,-0.13568023,0.0031791094,-0.00092538935,0.0167765,-0.011442918,0.022101473,0.43148,-1.4368091,1.9701556,-2.1012304,-1.5724891,2.4048243,-0.1142867,0.24575624,-0.2891719,0.060605068,-0.011129344,-0.13617769,0.11492168,0.2681506,-9.136273,0.8537928,47.677036,-1.0093012,-1.6733577,-3.6424687,-0.16981255,-0.25456303,-0.309059,26.4375,27.375,26.375,29.625,30.875,31.375
0.28605253,0.18282907,0.19878283,-0.94618106,0.02593637,-0.018001925,-0.12015594,-0.39253813,-0.32779795,0.059987385,-3.076968,0.6219501,8.750977e-06,-0.13707514,0.0025634267,-0.00069040974,0.016378954,-0.011437332,0.027433421,0.431276,-1.436317,1.9695204,-2.1011107,-1.5725135,2.404595,-0.11446424,0.24862528,-0.29331124,0.061686873,-0.010785118,-0.14168629,0.17238252,0.095768064,-9.174581,0.89631605,47.716442,-1.0404338,-1.7996137,-3.4094944,-0.17273438,-0.27857062,-0.21219376,26.4375,27.375,26.375,29.625,30.875,31.375
0.28805193,0.59756446,0.54609877,-1.2531409,0.03570817,-0.01278295,-0.12334455,-0.39278862,-0.3277965,0.059958357,-3.0769377,0.6218843,-8.647367e-05,-0.13830209,0.0026894815,-0.00093312166,0.017112287,-0.012179739,0.030256994,0.43105987,-1.4358007,1.9689816,-2.1010144,-1.5725135,2.404342,-0.11539198,0.25154644,-0.29644957,0.062877014,-0.011164978,-0.14543411,0.076614454,0.095768064,-9.251195,0.7933669,47.68599,-1.0231837,-1.8722442,-3.3832455,-0.19867557,-0.28480503,-0.1573937,26.4375,27.375,26.375,29.625,30.875,31.375
0.29005238,-0.1477531,0.20622587,-1.0371622,0.02485825,-0.007845708,-0.11146821,-0.3930581,-0.3277863,0.05995703,-3.0768893,0.6216824,-0.00015000955,-0.13937895,0.0029137882,-0.00083703286,0.017577035,-0.012511883,0.029181005,0.43084335,-1.4352847,1.9683579,-2.1008227,-1.5725616,2.404006,-0.116417706,0.25333378,-0.29912356,0.06425162,-0.011467246,-0.1453809,-0.038307227,0.15322891,-9.270349,0.85826975,47.70211,-1.0197614,-1.9994667,-3.333943,-0.22060305,-0.2738821,-0.13761243,26.4375,27.375,26.375,29.625,30.875,31.375
0.29205206,-1.1814427,-0.2662688,-1.435411,0.015850022,4.518509e-06,-0.11511749,-0.3933239,-0.3277721,0.059929125,-3.076826,0.62163556,-0.00030672876,-0.13891424,0.0036680277,-0.001600278,0.019140603,-0.016077094,0.021342078,0.43059117,-1.4347335,1.96776,-2.100654,-1.5725616,2.403733,-0.11733822,0.2546938,-0.29977152,0.0674429,-0.011404882,-0.13846171,-0.019153614,0.15322891,-9.251195,0.842603,47.693153,-0.97789836,-1.9522295,-3.2887182,-0.2812582,-0.31235427,-0.15772507,26.4375,27.375,26.375,29.625,30.875,31.375
0.29405248,-1.2155887,-0.9074277,-1.1581126,-0.008344671,0.03512451,-0.11324605,-0.39358822,-0.3277742,0.0599281,-3.0768192,0.62157923,-0.0003807523,-0.14112677,0.0037801268,-0.0017349377,0.019073108,-0.014110582,0.014582193,0.43036258,-1.4342414,1.967173,-2.1005108,-1.5725497,2.4034705,-0.11880787,0.2576783,-0.30248854,0.065372646,-0.01217729,-0.13316633,-0.22984336,0.0,-9.308656,0.89631605,47.67166,-0.96927285,-1.9554739,-3.4395428,-0.28166917,-0.304327,-0.21603492,26.4375,27.375,26.375,29.625,30.875,31.375
0.29605204,-1.7901323,-1.118397,-1.2007883,-0.036614355,0.045167673,-0.11532218,-0.39388373,-0.32774112,0.059919935,-3.0767243,0.62158257,-0.0003916365,-0.14236274,0.003790564,-0.0017218768,0.018454336,-0.01320693,0.008519707,0.4300983,-1.4337139,1.9665622,-2.1003678,-1.5726217,2.403221,-0.11986943,0.2591654,-0.30411705,0.064431794,-0.012001828,-0.12816425,-0.28730422,0.0,-9.404425,0.98135734,47.682407,-0.97048175,-1.9378372,-3.359355,-0.3004244,-0.31030422,-0.29014933,26.4375,27.375,26.375,29.625,30.875,31.375
0.2980518,-2.0120828,-1.0363815,-1.2609483,-0.039362215,0.058770597,-0.113930136,-0.3941863,-0.32775658,0.0599345,-3.076731,0.62158334,-0.00038111865,-0.14263533,0.004602611,-0.0016232315,0.019219663,-0.013451754,0.006664265,0.4298701,-1.4331874,1.9659051,-2.1002471,-1.5726217,2.4029927,-0.12108025,0.25877935,-0.30428135,0.06552471,-0.012595502,-0.12751828,-0.36391866,-0.019153614,-9.461885,0.93436235,47.686886,-1.0243742,-1.9110153,-3.484129,-0.3204502,-0.32332766,-0.31870943,26.4375,27.375,26.375,29.625,30.875,31.375
0.3000524,-2.2169719,-0.39342424,-1.6176727,-0.027458688,0.07164811,-0.11198945,-0.3944416,-0.32774824,0.059904557,-3.0766778,0.6214373,-0.00049489463,-0.14416055,0.0029049162,-0.0014056877,0.01716594,-0.009248141,0.008615717,0.42965436,-1.432648,1.9653305,-2.100106,-1.572646,2.402693,-0.11920874,0.26088423,-0.3061909,0.060646333,-0.012512894,-0.1275951,-0.5746084,0.095768064,-9.557653,0.9455522,47.658226,-1.0005552,-1.7668798,-3.5867727,-0.31680772,-0.32603425,-0.3420855,26.4375,27.375,26.375,29.625,30.875,31.375
0.30205202,-2.5743942,-0.69031984,-1.5972389,-0.0071055153,0.08043537,-0.114373356,-0.39472243,-0.3277357,0.059909575,-3.0766232,0.621485,-0.00056176004,-0.14650296,0.003604681,-0.0007516096,0.015462734,-0.0056072897,0.0052845487,0.4294015,-1.4321446,1.9647077,-2.0999267,-1.572658,2.4024773,-0.12235868,0.2607853,-0.30699077,0.057521656,-0.012500298,-0.12741238,-0.51714754,0.095768064,-9.749189,0.9567419,47.687782,-1.0440375,-1.8015081,-3.6344357,-0.28037685,-0.3283801,-0.3650416,26.4375,27.375,26.375,29.625,30.875,31.375
0.30405185,-2.6225598,-0.5213445,-1.4892087,-0.02741405,0.095879026,-0.1158275,-0.39502683,-0.32772845,0.059899323,-3.0765867,0.62143517,-0.0005362189,-0.14697716,0.0023168775,-0.0007463895,0.01456434,-0.004093888,0.009698382,0.42916235,-1.431593,1.9640869,-2.0998442,-1.5727061,2.4022121,-0.12038927,0.26242924,-0.3085957,0.055718053,-0.0123300385,-0.12985606,-0.6703765,0.05746084,-9.615114,0.9545008,47.698532,-1.050839,-1.6511613,-3.691578,-0.26270387,-0.34585834,-0.3723746,26.4375,27.375,26.375,29.625,30.875,31.375
0.30605224,-2.5596633,-0.52364373,-1.7686499,-0.023798773,0.09877082,-0.116879195,-0.39532104,-0.327722,0.059894104,-3.076561,0.62144727,-0.00055755355,-0.14934805,0.0020168435,-0.00036265614,0.013125031,-0.001361966,0.013490721,0.42890984,-1.4310651,1.9634756,-2.099737,-1.572718,2.4019709,-0.12181075,0.26469353,-0.3116526,0.053411655,-0.01218514,-0.13506798,-0.61291564,0.15322891,-9.557653,0.94331104,47.684196,-1.088819,-1.8052653,-3.7454386,-0.21681145,-0.35719627,-0.3361988,26.4375,27.375,26.375,29.625,30.875,31.375
0.30805174,-2.6697962,-1.1442335,-1.8772132,-0.0145443855,0.09855752,-0.11462076,-0.39563447,-0.32772005,0.05989617,-3.076567,0.62136644,-0.00052037754,-0.15149808,0.0019384162,0.0007606677,0.012053355,0.0025245424,0.01980513,0.42865738,-1.4305261,1.9628404,-2.0996544,-1.5727419,2.4016676,-0.12291323,0.26492578,-0.3142508,0.05177778,-0.012849756,-0.14248136,-0.5554548,0.1340753,-9.672575,0.82022345,47.667187,-1.0138506,-1.8150945,-3.7106035,-0.19149894,-0.3676629,-0.27214736,26.4375,27.375,26.375,29.625,30.875,31.375
0.31005228,-2.6664653,-1.1750505,-1.5993327,-0.031612907,0.097121544,-0.120051704,-0.39592758,-0.3277059,0.05989203,-3.0765493,0.62126565,-0.00057367043,-0.15354224,0.0030419216,-0.00015994787,0.012213084,0.002229931,0.02371283,0.4283922,-1.429998,1.9622177,-2.099511,-1.5727538,2.4013422,-0.12649034,0.2683079,-0.31576613,0.05022457,-0.012902409,-0.14996406,-0.6512229,0.11492168,-9.749189,0.8940802,47.684196,-0.89769125,-1.8306649,-3.6677947,-0.17554969,-0.36747482,-0.18134531,26.4375,27.375,26.375,29.625,30.875,31.375
0.3120519,-2.102383,-0.6682477,-1.7592033,-0.039309893,0.08000178,-0.12117605,-0.3962251,-0.32771635,0.059883162,-3.076561,0.6211096,-0.0005536759,-0.15504089,0.0020310339,0.000438614,0.012688074,0.0049473858,0.029592313,0.42817694,-1.4294462,1.9615949,-2.0994394,-1.5727786,2.4010284,-0.124749005,0.27059487,-0.31973678,0.049623895,-0.014481955,-0.15409449,-0.6895301,0.15322891,-9.730036,0.83813137,47.67614,-0.95163286,-1.8419383,-3.739646,-0.14338838,-0.37658256,-0.100832045,26.4375,27.375,26.375,29.625,30.875,31.375
0.3140522,-2.0630007,-1.104617,-1.8308641,-0.024506006,0.07053744,-0.11013757,-0.39655364,-0.3277095,0.059880357,-3.0765357,0.62108624,-0.00052529597,-0.15663877,0.0029525822,-0.0006002158,0.01386073,0.0036005862,0.027844077,0.42791173,-1.42887,1.9609245,-2.099343,-1.5728148,2.4007523,-0.12730141,0.27451235,-0.32196322,0.049635924,-0.014997005,-0.15489541,-0.6895301,0.22984336,-9.768343,0.84484416,47.6636,-0.7394659,-1.9727104,-3.6602445,-0.105799206,-0.3812135,-0.048398837,26.4375,27.375,26.375,29.625,30.875,31.375
0.31605175,-2.0184586,-1.3044662,-1.8390028,-0.029354725,0.066122115,-0.10243135,-0.39688492,-0.32769826,0.059898257,-3.0765145,0.62096894,-0.0004317231,-0.15711556,0.0027714204,-0.0010891458,0.015089564,0.003027205,0.023861177,0.4276601,-1.4283296,1.9602422,-2.0992239,-1.5728873,2.4004307,-0.12666501,0.2770351,-0.32396755,0.050148103,-0.015868392,-0.15027241,-0.5554548,0.17238252,-9.787497,0.88960326,47.6636,-0.9174391,-2.0753303,-3.7584772,-0.086092845,-0.36157572,-0.06479528,26.4375,27.375,26.375,29.625,30.875,31.375
0.31805217,-0.9802836,-1.2959766,-1.8162779,-0.03675017,0.08376159,-0.118237615,-0.39720798,-0.32769623,0.059905734,-3.0765295,0.62085843,-0.0003572965,-0.1578045,0.0025510679,-0.00035452025,0.01440109,0.0038376527,0.018100247,0.42740828,-1.4277908,1.9595956,-2.099151,-1.5729226,2.4001083,-0.1268998,0.27698275,-0.3259635,0.051176347,-0.015564562,-0.14474736,-0.4213795,0.24899697,-9.710882,0.91198283,47.661808,-1.0027152,-2.0341887,-3.6772041,-0.068234,-0.37358585,-0.1146024,26.4375,27.375,26.375,29.625,30.875,31.375
0.32005265,-1.2989873,-1.6288097,-1.4969095,-0.037237383,0.06552885,-0.11150522,-0.39754593,-0.32769993,0.05990743,-3.0765283,0.6209006,-0.0003452442,-0.15932496,0.002459203,0.00018974867,0.01439435,0.0049745566,0.010785418,0.427132,-1.4272029,1.9589008,-2.099055,-1.5729231,2.399859,-0.12755954,0.2785847,-0.32936087,0.051947463,-0.0160211,-0.13808937,-0.45968673,0.28730422,-9.634268,0.87617236,47.666286,-0.8784194,-1.981617,-3.6290228,-0.040562697,-0.37831324,-0.20682423,26.4375,27.375,26.375,29.625,30.875,31.375
0.3220523,-1.0801435,-1.1510983,-1.2848495,-0.03313652,0.046769187,-0.1038311,-0.39785212,-0.32769614,0.059902575,-3.076486,0.6208177,-0.00028109964,-0.15961327,0.002521184,0.0014314459,0.014066291,0.0053429613,0.0048817755,0.42691582,-1.4266527,1.9582661,-2.0989702,-1.5729955,2.399597,-0.1278905,0.2771129,-0.33134687,0.054933757,-0.015861958,-0.13251738,-0.36391866,0.21068975,-9.461885,0.98807013,47.691364,-1.0152097,-1.9197235,-3.583725,-0.0222575,-0.37515026,-0.25613013,26.4375,27.375,26.375,29.625,30.875,31.375
0.32405233,-0.5906832,-0.7633841,-1.6629474,-0.022777477,0.029763624,-0.111651786,-0.39818296,-0.32766166,0.05989934,-3.0764365,0.62090456,-0.0002901655,-0.16107419,0.002453042,0.0023788144,0.013360431,0.007898859,0.0022538844,0.42659163,-1.4261018,1.9576191,-2.0988514,-1.5730194,2.3993337,-0.12855604,0.27713728,-0.33359566,0.05453768,-0.01628216,-0.13055234,-0.21068975,0.19153613,-9.481039,0.9947882,47.688675,-0.9584138,-1.6933604,-3.6028695,-0.022075232,-0.37333974,-0.32558703,26.4375,27.375,26.375,29.625,30.875,31.375
0.32605198,-0.52029514,-1.1272717,-1.6157615,-0.0043868013,0.008394119,-0.10040398,-0.39853027,-0.327659,0.059917234,-3.0764065,0.62099665,-0.00019146415,-0.16144556,0.0027056213,0.0017330602,0.014267187,0.0070783542,-0.0033324615,0.42632765,-1.4255382,1.9569138,-2.0987546,-1.5730671,2.3991315,-0.12887171,0.27903268,-0.33444232,0.054615583,-0.016753685,-0.12528038,0.05746084,0.21068975,-9.423578,0.98807013,47.71286,-0.992844,-1.6803534,-3.7205975,0.014217596,-0.38077432,-0.4374745,26.4375,27.375,26.375,29.625,30.875,31.375
0.32805255,-0.0859157,-0.6253523,-1.3178612,-0.017759655,-0.0025825584,-0.10562978,-0.39886254,-0.32764482,0.059930537,-3.0763917,0.6209734,-7.6216646e-05,-0.16366617,0.0018339894,0.0037687593,0.012020944,0.010839853,-0.0035854839,0.4260635,-1.4250115,1.9562668,-2.098683,-1.5731272,2.3988552,-0.12930469,0.2789497,-0.3392643,0.055153158,-0.01626611,-0.12546082,-0.019153614,0.095768064,-9.32781,0.87617236,47.681515,-0.96123296,-1.6155012,-3.763166,0.044650555,-0.36914885,-0.4742512,26.4375,27.375,26.375,29.625,30.875,31.375
0.3300519,0.45610064,-0.52628833,-1.37914,-0.0060344213,-1.3766513e-05,-0.109420426,-0.3991656,-0.32764965,0.059916873,-3.076368,0.6209647,-0.00016647893,-0.16401443,0.0016130959,0.0033837736,0.013772579,0.008200014,0.0021340384,0.42581183,-1.4244237,1.9555944,-2.0985382,-1.5731152,2.3986015,-0.12871803,0.28230038,-0.34320053,0.05885311,-0.016787326,-0.13058953,0.11492168,0.095768064,-9.308657,0.90750587,47.67614,-1.0710512,-1.5975003,-3.515655,0.05005443,-0.37661448,-0.48112053,26.4375,27.375,26.375,29.625,30.875,31.375
0.33205268,0.37738413,-0.19157356,-1.4728854,0.0046863444,-0.0073721637,-0.113758296,-0.3995399,-0.3276367,0.059936862,-3.0763671,0.6209214,3.5455776e-07,-0.16515365,0.001670977,0.0024360572,0.014151933,0.006262217,0.009587035,0.4255233,-1.4238467,1.9548768,-2.0984786,-1.5731872,2.3982866,-0.12989926,0.2864836,-0.34609732,0.059450507,-0.016342854,-0.139225,0.32561144,0.076614454,-9.423578,1.0328293,47.691364,-0.99154,-1.810058,-3.4786148,0.04452701,-0.39053136,-0.43842357,26.4375,27.375,26.375,29.625,30.875,31.375
0.33405244,0.29789147,-0.12263443,-1.3845278,0.011472145,-0.010748326,-0.12536491,-0.39986825,-0.3276496,0.059951343,-3.0763865,0.6209595,-1.0378586e-05,-0.16670978,0.0031740565,0.0019082896,0.01540868,0.004119013,0.016135186,0.42525816,-1.4232829,1.9541696,-2.098346,-1.5731634,2.3980432,-0.13359955,0.2892311,-0.34870148,0.061752107,-0.016621439,-0.14947179,0.3256114,0.11492168,-9.442732,0.86498255,47.691364,-1.0312544,-1.9508598,-3.4479816,0.08245699,-0.38621336,-0.34052467,26.4375,27.375,26.375,29.625,30.875,31.375
0.33605194,0.017051222,-0.25452954,-1.1459839,0.00013746966,0.0052516065,-0.114853725,-0.40019462,-0.32764566,0.059958417,-3.076366,0.6207766,2.3791297e-05,-0.16673061,0.0024227973,0.0023254019,0.016632874,0.0021858383,0.02647802,0.4250188,-1.4227065,1.953462,-2.0982,-1.5732235,2.3976927,-0.13189116,0.29119784,-0.3531192,0.066435084,-0.016957333,-0.15810369,0.1340753,0.17238252,-9.32781,0.92764956,47.703007,-0.92744553,-1.8672497,-3.3530037,0.05717513,-0.40066248,-0.2376293,26.4375,27.375,26.375,29.625,30.875,31.375
0.3380518,-0.6282549,-0.77890617,-1.5456318,0.011543858,0.0004385413,-0.10116222,-0.40052876,-0.3276331,0.059971377,-3.076353,0.6207155,6.1203056e-05,-0.16558817,0.0044837366,0.00066306256,0.019654436,-0.0045445724,0.02757033,0.42474177,-1.4221526,1.9527692,-2.0980666,-1.5732592,2.3973796,-0.13455977,0.29269522,-0.35232967,0.07150572,-0.016931081,-0.16186629,-0.076614454,0.2873042,-9.251195,0.8672237,47.694946,-0.9023042,-1.8250831,-3.412109,0.0023225201,-0.3884014,-0.16036654,26.4375,27.375,26.375,29.625,30.875,31.375
0.3400524,-0.66361433,-1.1135626,-1.5071802,-0.0066853235,0.018229544,-0.10130048,-0.40085673,-0.32762665,0.059968878,-3.0763109,0.6206109,5.1880328e-05,-0.1642128,0.0057908897,-0.00053277897,0.02299457,-0.009534706,0.02693167,0.4244896,-1.421552,1.9520525,-2.0979102,-1.5733079,2.397068,-0.135015,0.29360476,-0.35181615,0.075997956,-0.017917475,-0.1616802,0.038307227,0.3256114,-9.385271,0.9365982,47.682407,-0.84894395,-1.8612695,-3.7075431,-0.026094893,-0.38229167,-0.11857849,26.4375,27.375,26.375,29.625,30.875,31.375
0.34205198,-0.5697363,-1.6193857,-1.4328381,-0.03001206,0.026607543,-0.102065206,-0.40116143,-0.32763344,0.059983946,-3.0763211,0.62048095,1.3534931e-05,-0.16287504,0.0065684556,-0.0006578998,0.024455039,-0.0136146005,0.022179568,0.42424956,-1.4210116,1.9513587,-2.0977285,-1.5733079,2.396746,-0.1354179,0.29278705,-0.3519349,0.08126036,-0.017557759,-0.1573331,-0.05746084,0.38307226,-9.423578,0.8627467,47.685097,-0.96005464,-1.7443908,-3.7432632,-0.08542232,-0.3789415,-0.17954135,26.4375,27.375,26.375,29.625,30.875,31.375
0.34405243,-0.78460073,-2.066548,-1.365046,-0.04868915,0.020247214,-0.10209196,-0.4015047,-0.3275818,0.05997659,-3.0762115,0.6204996,9.072253e-06,-0.16283843,0.00575347,-0.00030918693,0.026054814,-0.015081671,0.016388582,0.4239263,-1.4204228,1.9506634,-2.0975597,-1.5733923,2.3964489,-0.133194,0.29481205,-0.35616156,0.08546423,-0.018413022,-0.1493129,-0.11492168,0.40222588,-9.423578,0.9388393,47.675243,-1.0352317,-1.6498492,-3.7628272,-0.17621017,-0.38149905,-0.26983795,26.4375,27.375,26.375,29.625,30.875,31.375
0.34605232,-0.811282,-1.5741771,-1.223796,-0.05726093,0.012693343,-0.112999804,-0.40186235,-0.3276143,0.060008503,-3.0762618,0.6203761,9.033189e-05,-0.16411957,0.0063610235,0.0010464503,0.026151033,-0.014183515,0.012298645,0.42369753,-1.4198221,1.9498724,-2.0974267,-1.5734042,2.396137,-0.13491446,0.2941051,-0.35931364,0.08854675,-0.018862223,-0.1469424,-0.21068975,0.4405331,-9.308656,0.9365982,47.622402,-0.9190299,-1.4827492,-3.6661675,-0.21774846,-0.38428736,-0.28546095,26.4375,27.375,26.375,29.625,30.875,31.375
0.3480519,-0.84041214,-1.4403795,-1.3424015,-0.036014322,0.025223615,-0.10932617,-0.4021687,-0.32758278,0.05999687,-3.076172,0.6203575,-1.9009993e-05,-0.16535991,0.0053187557,0.0024112624,0.024917541,-0.012328254,0.012118983,0.42341018,-1.4192455,1.9491895,-2.0972111,-1.5734395,2.39585,-0.13411592,0.29470277,-0.36361614,0.0900447,-0.018526694,-0.14596178,-0.19153613,0.2873042,-9.346964,0.9567419,47.67345,-1.1059262,-1.4651972,-3.6134033,-0.27118674,-0.3750124,-0.32201734,26.4375,27.375,26.375,29.625,30.875,31.375
0.35005236,-0.704895,-1.029828,-1.7633265,-0.014145895,0.031195054,-0.11090756,-0.40248877,-0.32756728,0.059998266,-3.0760953,0.6203417,-3.1735864e-05,-0.1674063,0.005851613,0.0013543925,0.025911413,-0.01365111,0.010509999,0.42315724,-1.4186673,1.9484829,-2.0970309,-1.5735,2.3955975,-0.1363794,0.29991242,-0.36736187,0.09018146,-0.018911868,-0.14661169,-0.038307227,0.22984336,-9.442732,0.9097417,47.672558,-1.015033,-1.475018,-3.4563732,-0.3254759,-0.3796007,-0.3568046,26.4375,27.375,26.375,29.625,30.875,31.375
0.35205185,-0.8139913,-0.91200656,-1.4363791,-0.006090815,0.04349207,-0.11119122,-0.4028365,-0.32757518,0.06000586,-3.0760925,0.6203033,-2.6497606e-05,-0.16839615,0.005859008,-0.0003071213,0.026241006,-0.014863376,0.008958348,0.4228931,-1.4180528,1.9477285,-2.0968883,-1.5735124,2.3953102,-0.1371718,0.30447018,-0.36846292,0.08796063,-0.018727409,-0.14585175,-0.24899697,0.3256114,-9.461885,0.98135734,47.658226,-1.0495669,-1.7818472,-3.3971786,-0.33190888,-0.37564623,-0.41038838,26.4375,27.375,26.375,29.625,30.875,31.375
0.35405165,-1.8118676,-1.0445979,-1.3806747,-0.014263055,0.042257022,-0.11339885,-0.40317485,-0.32755935,0.060024697,-3.076046,0.62023216,-3.3354972e-05,-0.1705016,0.0056032985,-0.00041824538,0.02507016,-0.011746964,0.014726482,0.42261684,-1.4174759,1.9469751,-2.0966742,-1.5735601,2.394996,-0.13812095,0.3067965,-0.37013373,0.083952084,-0.01897726,-0.15256593,-0.45968673,0.24899697,-9.461885,1.0149267,47.69763,-0.98907006,-1.6646204,-3.5725708,-0.31822318,-0.3702508,-0.35251135,26.4375,27.375,26.375,29.625,30.875,31.375
0.35605228,-2.0862327,-1.3908489,-1.2766145,-0.028476674,0.08142675,-0.11891993,-0.40350342,-0.327558,0.060028154,-3.0760238,0.62014574,-8.979808e-05,-0.1716432,0.0057776044,-0.0003898191,0.024813626,-0.010260371,0.0225575,0.42235234,-1.4168746,1.9462336,-2.096483,-1.5735725,2.3946807,-0.13895376,0.3077467,-0.3711353,0.082511716,-0.01939052,-0.16122682,-0.30645782,0.15322891,-9.481039,0.9612189,47.68062,-0.95161116,-1.7231153,-3.604394,-0.30312815,-0.36269772,-0.26964888,26.4375,27.375,26.375,29.625,30.875,31.375
0.3580518,-2.152689,-1.2388664,-1.2108806,-0.052381307,0.091348715,-0.120867416,-0.40387267,-0.32755163,0.060062967,-3.07602,0.62006307,2.1666143e-05,-0.17379916,0.0055321297,-0.0009011529,0.023777643,-0.0070057106,0.030607812,0.42207614,-1.4162972,1.9454564,-2.09633,-1.5736321,2.3943539,-0.13983881,0.31064796,-0.37229225,0.077334076,-0.019810244,-0.17016006,-0.24899697,0.11492168,-9.557653,0.95226496,47.687782,-0.97633266,-1.7229658,-3.7143896,-0.28365964,-0.3729632,-0.15566754,26.4375,27.375,26.375,29.625,30.875,31.375
0.36005232,-2.3566587,-1.6992629,-0.6211017,-0.0615693,0.0989916,-0.12198931,-0.40420458,-0.32753012,0.060051113,-3.075995,0.6199009,-8.3335135e-06,-0.1761545,0.004219911,0.00053913053,0.021252742,-0.00017813063,0.03548455,0.4217887,-1.4156966,1.9447612,-2.0961878,-1.5736688,2.3939688,-0.13888732,0.31069255,-0.3746952,0.07240807,-0.020339763,-0.1740808,-0.40222588,0.13407528,-9.3661175,0.97464454,47.64479,-0.9993838,-1.672203,-3.746397,-0.22770742,-0.3584069,-0.07760863,26.4375,27.375,26.375,29.625,30.875,31.375
0.36205187,-2.0351732,-1.0692796,-0.48579302,-0.05547867,0.0890879,-0.12378342,-0.40457764,-0.32754838,0.060065594,-3.0760305,0.6198148,5.713578e-05,-0.17911218,0.0042281533,0.0015854929,0.020668183,0.0034547898,0.03160459,0.42152393,-1.4150593,1.943971,-2.09608,-1.5736808,2.3936462,-0.14053562,0.31266844,-0.37934363,0.071529895,-0.02129467,-0.17184429,-0.5746084,0.15322891,-9.155427,0.98807013,47.642998,-0.9141631,-1.4993336,-3.725825,-0.17748448,-0.33811018,-0.0621197,26.4375,27.375,26.375,29.625,30.875,31.375
0.36405247,-1.4843271,-0.118401766,-1.2274178,-0.009477452,0.060155895,-0.12056628,-0.40493715,-0.32752502,0.060072955,-3.075998,0.6197942,7.242724e-05,-0.18264347,0.004272919,0.0016120939,0.019288024,0.007942403,0.021467807,0.42121127,-1.4144579,1.9432276,-2.095926,-1.5737175,2.3933253,-0.14294906,0.3162096,-0.38251978,0.06651882,-0.02187559,-0.16411597,-0.4405331,0.1340753,-9.251196,0.947788,47.629562,-1.0955999,-1.6106397,-3.6028938,-0.1284083,-0.35258642,-0.1008911,26.4375,27.375,26.375,29.625,30.875,31.375
0.36605185,-1.4470059,-0.2418591,-1.3878945,0.016109353,0.03734492,-0.11087952,-0.40531626,-0.32753155,0.060072534,-3.0760086,0.61970127,0.00014566146,-0.18297961,0.0028050707,0.0021962528,0.018664487,0.010081884,0.016398733,0.42093638,-1.4137969,1.942449,-2.0958426,-1.5737532,2.3929915,-0.14020409,0.316941,-0.384731,0.06580533,-0.022165237,-0.15630072,-0.6703765,0.22984336,-9.385271,0.9634547,47.63136,-1.1227045,-1.5871017,-3.5407114,-0.07528637,-0.32694438,-0.16188094,26.4375,27.375,26.375,29.625,30.875,31.375
0.36805248,-1.5450009,-0.9756706,-1.1658808,-0.002923588,0.051814407,-0.116888575,-0.40568474,-0.32751524,0.060105428,-3.0759614,0.6196928,0.00026174827,-0.18394941,0.0026411216,0.002400257,0.018543819,0.010084669,0.012031791,0.42066023,-1.4132195,1.9416713,-2.0956752,-1.5738372,2.3927166,-0.14060296,0.31860512,-0.3875245,0.06687644,-0.022045977,-0.1523328,-0.7086837,0.28730422,-9.346964,1.005978,47.64658,-1.1753486,-1.5897112,-3.5664186,-0.040532988,-0.30602553,-0.2655447,26.4375,27.375,26.375,29.625,30.875,31.375
0.3700519,-2.00931,-1.4808943,-1.0478449,-0.033179577,0.06920457,-0.11855436,-0.40605292,-0.3275046,0.060101807,-3.0759103,0.61966753,0.0002654861,-0.18379755,0.0033183636,0.0021581184,0.01951553,0.008370484,0.004853288,0.42037192,-1.4125584,1.9408826,-2.0955184,-1.5738853,2.3924196,-0.14141448,0.3188985,-0.3879909,0.06901919,-0.022220194,-0.14596508,-0.80445176,0.3256114,-9.308656,1.005978,47.617023,-1.158478,-1.4730978,-3.6371794,-0.04629857,-0.3142365,-0.3565058,26.4375,27.375,26.375,29.625,30.875,31.375
0.3720523,-1.9305016,-1.7909111,-1.1885891,-0.05199862,0.088075586,-0.12321409,-0.40639782,-0.32750344,0.06011565,-3.0758858,0.6196246,0.00031905973,-0.18392,0.0038316147,0.00092085387,0.02172519,0.0050506536,0.0016860873,0.42011997,-1.4119695,1.9401397,-2.0953739,-1.5739335,2.3921444,-0.14186098,0.32240027,-0.38990474,0.071362875,-0.022875397,-0.14324158,-0.59376204,0.38307226,-9.385271,1.0417832,47.64121,-1.2573435,-1.4275856,-3.6395526,-0.05232367,-0.29696092,-0.44702703,26.4375,27.375,26.375,29.625,30.875,31.375
0.37405172,-2.2720861,-1.9956608,-1.155656,-0.054642882,0.07391152,-0.11399958,-0.4067507,-0.32746994,0.060072538,-3.0757904,0.6196243,0.00020569368,-0.18383792,0.0044694347,-0.00034988488,0.0241768,0.0020315372,0.0017266261,0.4197958,-1.4112713,1.9393977,-2.095218,-1.5739697,2.3918328,-0.14210925,0.3253661,-0.39107537,0.073314555,-0.023899859,-0.14352387,-0.22984336,0.24899697,-9.3661175,1.0417832,47.658226,-1.1560044,-1.6089947,-3.7853837,-0.034379736,-0.27486566,-0.4800301,26.4375,27.375,26.375,29.625,30.875,31.375
