Tylouw/Master_Thesis_Code/training_data/batch_1/big_rod_t0.2/sample_9_session_1.csv
timestamp[s],tcp_force_x[N],tcp_force_y[N],tcp_force_z[N],tcp_force_rx[Nm?],tcp_force_ry[Nm?],tcp_force_rz[Nm?],tcp_pose_x[m],tcp_pose_y[m],tcp_pose_z[m],tcp_pose_rx[rot_vec_x],tcp_pose_ry[rot_vec_y],tcp_pose_rz[rot_vec_z],tcp_velo_x[m/s],tcp_velo_y[m/s],tcp_velo_z[m/s],tcp_velo_rx[rot_vec_x/s],tcp_velo_ry[rot_vec_y/s],tcp_velo_rz[rot_vec_z/s],q1[rad],q2[rad],q3[rad],q4[rad],q5[rad],q6[rad],qd1[rad/s],qd2[rad/s],qd3[rad/s],qd4[rad/s],qd5[rad/s],qd6[rad/s],tool_acc_x,tool_acc_y,tool_acc_z,current_of_whole_robot[A],voltage_of_whole_robot[V],current_J1[A],current_J2[A],current_J3[A],current_J4[A],current_J5[A],current_J6[A],temp_J1[C],temp_J2[C],temp_J3[C],temp_J4[C],temp_J5[C],temp_J6[C]
8.480274e-07,-0.40005398,-0.058427576,0.4305977,-0.029040169,0.01172543,-0.024133058,-0.3728897,-0.32821393,0.059943285,-3.07846,0.6248809,-0.0002586802,0.0028981436,0.0013970298,-0.0038931223,0.0038284445,-0.008357888,-4.1874817e-05,0.44815025,-1.4708612,2.0095737,-2.107691,-1.5706857,2.4230795,-0.00011617301,0.00341065,0.005008499,0.0007715995,0.00018341986,-7.733002e-05,0.076614454,0.21068975,-8.963891,0.7642693,47.73256,-0.18130344,-2.8789306,-2.4904752,-0.5155558,0.17930178,-0.12211476,26.125,27.0,26.125,29.125,30.1875,30.625
0.002052287,-0.27274454,-0.1243317,0.4557723,-0.010739002,0.013593513,-0.013142533,-0.3728962,-0.32821918,0.059939135,-3.078458,0.6248611,-0.00024027926,-0.0013125032,-0.0006393374,-0.0022186576,-0.002290066,0.004305986,-3.6404723e-05,0.4481623,-1.4708374,2.0095608,-2.1077077,-1.5706977,2.4230795,-0.00011372649,0.0033011471,0.0043175635,-0.012492449,0.00017886315,-7.602359e-05,0.15322891,0.19153613,-8.963891,0.7530795,47.713753,-0.21484798,-2.7667184,-2.3495572,-0.44799006,0.17820191,-0.11567687,26.125,27.0,26.125,29.125,30.1875,30.625
0.00405178,-0.40353337,-0.09620719,0.12705666,-0.0026978224,0.007863468,-0.015893517,-0.3728857,-0.3282056,0.059906226,-3.0784419,0.6248774,-0.00029710983,-0.0018587013,-0.0008945645,-0.002081262,-0.0029689623,0.005719036,-5.1080282e-05,0.4481382,-1.4708134,2.009621,-2.1077554,-1.5706857,2.4230676,-0.00012777139,0.003532643,0.0041126823,-0.014086723,0.00017452723,-7.476061e-05,0.095768064,0.24899697,-8.963891,0.68146914,47.705692,-0.18272105,-2.9824188,-2.5338335,-0.36302185,0.17933586,-0.11736843,26.125,27.0,26.125,29.125,30.1875,30.625
0.006051815,-0.33374825,0.24804296,0.1193267,0.010794325,-0.0054270406,-0.01674324,-0.37289715,-0.32820684,0.05991979,-3.078439,0.6248768,-0.0002722232,-0.0007241035,-0.00034436546,-0.0017984188,-0.001306474,0.0022957078,-5.308599e-05,0.4481382,-1.4708138,2.0095842,-2.1077292,-1.5706977,2.4230676,-0.00012728915,0.0025914377,0.0032058787,-0.008433058,0.00017039684,-7.353884e-05,0.0,0.19153614,-9.078813,0.7284641,47.701214,-0.12816074,-3.0422385,-2.5143223,-0.39375365,0.17912725,-0.12883526,26.125,27.0,26.125,29.125,30.1875,30.625
0.008051773,0.32276943,0.9895347,-0.24028589,0.032616653,-0.019591244,-0.018428678,-0.37286603,-0.32820272,0.059894003,-3.078441,0.6248775,-0.00039294068,-6.114055e-05,-2.3542407e-05,-0.001503895,-0.00025035354,0.00012417034,-5.24914e-05,0.44812617,-1.470814,2.0096433,-2.1077282,-1.5706495,2.4230556,-0.00012479594,0.0019837313,0.002300739,-0.0045054695,0.00016645703,-7.235637e-05,-0.05746084,0.095768064,-9.040505,0.7486078,47.70211,-0.15465887,-2.973259,-2.5060158,-0.43884197,0.16957422,-0.12078422,26.125,27.0,26.125,29.125,30.1875,30.625
0.010051795,0.50705606,1.2832814,-0.63076526,0.041307695,-0.022527864,-0.01790522,-0.3728861,-0.32822096,0.059900146,-3.0784492,0.62489784,-0.00033716534,0.00017613109,9.126339e-05,-0.0013592967,0.00020938108,-0.0008168741,-4.439794e-05,0.44815025,-1.470778,2.0095952,-2.1077516,-1.5706614,2.4230914,-0.00012237206,0.0018224865,0.0017427704,-0.002738926,0.0001626957,-7.822538e-05,-0.038307227,0.05746084,-9.232041,0.6702794,47.716442,-0.6055206,-2.3596997,-3.078432,-0.47893396,0.15621912,-0.20281133,26.125,27.0,26.125,29.125,30.1875,30.625
0.01205225,0.711387,1.1575689,-0.61637324,0.005847537,0.004174424,-0.024611408,-0.37286037,-0.32820854,0.05987459,-3.0784154,0.624949,-0.000477362,-6.3038926e-05,0.0001188907,-0.0031359692,0.002036276,-0.004613495,-0.00028562674,0.44812605,-1.4707646,2.009631,-2.1077158,-1.5706257,2.4231033,-0.00039353175,0.0070556486,-0.00011369466,-0.0019023117,0.00015910013,-0.00010646154,0.095768064,0.076614454,-9.404425,0.7620334,47.696735,-0.6894612,-2.1558754,-3.1859446,-0.47563645,0.16735175,-0.23394045,26.125,27.0,26.125,29.125,30.1875,30.625
0.014052147,0.11566752,0.13551277,-0.88252234,-0.017086564,0.026172461,-0.031501524,-0.3728701,-0.32817972,0.05986033,-3.0783663,0.6248999,-0.00050434127,-0.006007123,0.0013950343,-0.0037149638,0.0023419498,-0.005293378,-0.0011718445,0.44808722,-1.4707369,2.0096276,-2.1076915,-1.5706614,2.4230402,-0.008208538,0.01664604,-0.009406037,-0.0014562601,0.0001556607,-0.007028271,-0.05746084,0.19153613,-9.500193,0.82694155,47.699425,-0.3266275,-2.870459,-2.9542446,-0.48559734,0.17737071,-0.239039,26.125,27.0,26.125,29.125,30.1875,30.625
0.016051793,-1.2641721,-0.9488483,-1.0380809,-0.03906533,0.03587915,-0.029362364,-0.3728734,-0.32818735,0.059864767,-3.0783527,0.6248564,-0.00045564727,-0.0056230854,0.002018927,-0.004297049,0.0031313384,-0.0069272025,0.0048047607,0.44812307,-1.4707248,2.0096042,-2.1076915,-1.5706977,2.4230506,-0.009030587,0.016872263,-0.008467718,-0.0008078331,0.00015238793,-0.013827638,-0.2873042,0.30645782,-9.730036,0.7418897,47.723602,-0.33709633,-2.7230985,-3.1661067,-0.47731298,0.16139801,-0.17053199,26.125,27.0,26.125,29.125,30.1875,30.625
0.018052084,-2.1327093,-1.4245977,-0.92239386,-0.068964675,0.07051925,-0.0362791,-0.37287703,-0.32818085,0.059838545,-3.0783348,0.62477404,-0.0005571324,-0.0048497757,0.0019319837,-0.0042624343,0.0033591765,-0.0074067703,0.0067861835,0.44809943,-1.4706533,2.0095804,-2.1076672,-1.5706857,2.422978,-0.008165094,0.015928622,-0.0076661957,-0.00013482601,0.00015621819,-0.014944419,-0.5554548,0.2681506,-9.730036,0.78888994,47.71554,-0.5539183,-2.4615312,-3.4705915,-0.49226457,0.1851538,-0.17139414,26.125,27.0,26.125,29.125,30.1875,30.625
0.02005188,-1.777745,-1.4005753,-0.9204896,-0.07525399,0.108108036,-0.056126993,-0.3728639,-0.32816398,0.059815675,-3.078299,0.62486285,-0.00065583386,-0.0061624036,0.0016776519,-0.003945618,0.0030098995,-0.0066857487,0.006791434,0.4480632,-1.4706407,2.0096161,-2.1076553,-1.5706614,2.4230015,-0.008879705,0.017704409,-0.0103689,-8.803175e-06,0.00015155254,-0.015662411,-0.49799395,0.30645782,-9.730036,0.7866488,47.683304,-0.66397023,-2.374344,-3.487189,-0.513709,0.1850307,-0.18493906,26.125,27.0,26.125,29.125,30.1875,30.625
0.02205177,-2.1818056,-1.123036,-0.8531278,-0.05037759,0.09129723,-0.070482224,-0.3728729,-0.3281721,0.059815448,-3.0783243,0.62479246,-0.00066490885,-0.0089716185,0.0019418237,-0.0032834462,0.0022185773,-0.0051138164,0.004745384,0.44806215,-1.4706157,2.0095894,-2.1076553,-1.5706495,2.4229534,-0.011950165,0.020254206,-0.014686558,-5.7478445e-07,0.00017400309,-0.01668387,-0.51714754,0.30645782,-9.730036,0.77545905,47.70032,-0.6076108,-2.4000757,-3.3692222,-0.5000468,0.19174337,-0.19742388,26.125,27.0,26.125,29.125,30.1875,30.625
0.024051618,-1.6629775,-0.52614635,-1.1291612,-0.023164377,0.06940493,-0.084368795,-0.37291187,-0.3281865,0.059815396,-3.0783505,0.6247206,-0.00061066047,-0.009341612,0.002142987,-0.0033255315,0.0022087186,-0.005180163,0.0051868944,0.44806185,-1.4705439,2.0095189,-2.107691,-1.5706614,2.422905,-0.012689347,0.020670386,-0.015048263,-3.752932e-08,0.00021072304,-0.017864352,-0.63206923,0.30645782,-9.768343,0.80679786,47.664497,-0.70014495,-2.443615,-3.4842653,-0.51620734,0.19097207,-0.19708833,26.125,27.0,26.125,29.125,30.1875,30.625
0.026051965,-1.2722951,-0.23901135,-0.98753023,-0.024044706,0.061526008,-0.10157886,-0.37295324,-0.32819602,0.05982757,-3.0783882,0.62478566,-0.00057124655,-0.01053138,0.0018860956,-0.0022121882,0.0005723875,-0.0032017524,0.005139711,0.44802552,-1.4705082,2.0094573,-2.1077154,-1.5706371,2.4229045,-0.013702804,0.02004939,-0.016921187,-2.4503959e-09,0.0008247211,-0.018830834,-0.7469909,0.24899697,-9.730036,0.7396539,47.66987,-0.74042267,-2.288354,-3.4633331,-0.5067482,0.18700543,-0.21054858,26.125,27.0,26.125,29.125,30.1875,30.625
0.028052004,-1.3941219,-0.24711576,-0.8028411,-0.027967578,0.05490447,-0.118473195,-0.37296405,-0.3282052,0.05982859,-3.078405,0.6247128,-0.000598776,-0.011698213,0.0021637497,-0.0023595938,0.00036412798,-0.0034798104,0.0038357466,0.4480249,-1.4704715,2.0094092,-2.107691,-1.5706252,2.4228563,-0.015493551,0.021881908,-0.01859424,-1.5999335e-10,0.001128811,-0.019316953,-0.842759,0.21068975,-9.710882,0.75084364,47.6421,-0.76670706,-2.2413754,-3.406423,-0.50678456,0.16484249,-0.19406798,26.125,27.0,26.125,29.125,30.1875,30.625
0.03005202,-1.5707865,-0.8881357,-0.8919956,-0.0102561945,0.057586886,-0.12265155,-0.3729945,-0.32817724,0.059804816,-3.0783598,0.62474304,-0.0006469801,-0.012848087,0.0020193781,-0.0021475498,-0.00051301386,-0.0032085697,0.0026122862,0.4479526,-1.4703993,2.0093844,-2.107691,-1.5706371,2.4228086,-0.016719796,0.023315076,-0.020654352,-1.04464215e-11,0.0017964114,-0.019319722,-0.59376204,0.15322891,-9.672575,0.7396539,47.686886,-0.73430854,-2.2730098,-3.444228,-0.51969427,0.17809081,-0.20025267,26.125,27.0,26.125,29.125,30.1875,30.625
0.032052036,-1.4296054,-0.0106061725,-0.6920459,-0.016986134,0.0758294,-0.15205884,-0.37300783,-0.32817706,0.059796475,-3.0783381,0.62477773,-0.0006766605,-0.014323975,0.0019054962,-0.0014251256,-0.0012675833,-0.0016507979,0.0011983338,0.4479401,-1.4703512,2.0093482,-2.1076791,-1.5706371,2.4228206,-0.017848067,0.02406769,-0.023137806,-6.8207663e-13,0.0017962779,-0.019032475,-0.5363012,0.15322891,-9.595961,0.74413085,47.72002,-0.75744736,-2.244796,-3.437539,-0.49804765,0.16694582,-0.18223125,26.125,27.0,26.125,29.125,30.1875,30.625
0.034051813,-1.9868678,-0.18789795,-0.71297455,0.019311268,0.063093506,-0.15988256,-0.37304553,-0.32817814,0.05979388,-3.078341,0.62472075,-0.0006641299,-0.015691664,0.0016491294,-0.0006837002,-0.0020036448,-3.6402635e-05,0.00027722243,0.44791585,-1.4702789,2.0092747,-2.1076791,-1.570649,2.4227605,-0.018581057,0.024807878,-0.02565192,-4.4534732e-14,0.0017553418,-0.018842641,-0.4405331,0.0,-9.500193,0.7150385,47.696735,-0.77263963,-2.2801218,-3.4186127,-0.49529928,0.17547093,-0.20552118,26.125,27.0,26.125,29.125,30.1875,30.625
0.03605197,-1.1885055,0.4624295,-0.5808016,0.0313364,0.07137335,-0.16479011,-0.37307793,-0.32818106,0.059800275,-3.0783935,0.62471277,-0.0006540141,-0.016924093,0.0014152552,6.313634e-05,-0.0028250644,0.0015189949,0.00021794839,0.4478677,-1.4702547,2.009239,-2.107703,-1.5706133,2.4227006,-0.019302482,0.02526127,-0.027862554,-2.9078e-15,0.0018178103,-0.019503461,-0.34476507,-0.05746084,-9.481039,0.7933669,47.71465,-0.7381055,-2.2263308,-3.373426,-0.49804983,0.1870051,-0.20024548,26.125,27.0,26.125,29.125,30.1875,30.625
0.038051672,-1.0824254,0.6569141,-0.7464034,0.046801522,0.048465896,-0.16450013,-0.3731229,-0.32816452,0.059794106,-3.0783687,0.624842,-0.0006530111,-0.017886795,0.0012977455,0.00031546995,-0.0034258836,0.0019858368,0.0003856976,0.4477953,-1.4701945,2.0091898,-2.1077154,-1.5706128,2.422712,-0.020181619,0.026308805,-0.029592222,-1.8985856e-16,0.002153175,-0.02054984,-0.24899697,-0.05746084,-9.423578,0.7777002,47.72271,-0.7146704,-2.2270393,-3.3237047,-0.48984003,0.18390162,-0.19342667,26.125,27.0,26.125,29.125,30.1875,30.625
0.04005174,-0.72553146,0.8625413,-0.7577431,0.036653027,0.027180215,-0.14613852,-0.37318954,-0.32817096,0.059827905,-3.0784082,0.6248303,-0.00048512238,-0.018916436,0.0013466482,0.0003286659,-0.0036689742,0.0020692938,0.00031922164,0.447771,-1.47017,2.0090935,-2.1077507,-1.5706486,2.4226756,-0.021330062,0.027864262,-0.031329643,-1.2396409e-17,0.0023342317,-0.021630643,-0.15322891,-0.11492168,-9.404425,0.80456203,47.741516,-0.7041031,-2.2072182,-3.3805695,-0.48529133,0.17526768,-0.19194391,26.125,27.0,26.125,29.125,30.1875,30.625
0.042051613,-0.43601477,0.2489883,-0.68969864,0.035772994,0.014526228,-0.15092814,-0.37320706,-0.32814738,0.05978651,-3.078326,0.62487125,-0.0006353875,-0.019781131,0.001182924,0.00022981303,-0.0038753434,0.0019229151,0.0011378201,0.4477107,-1.4700495,2.0090454,-2.107703,-1.5706486,2.4226513,-0.021971684,0.029724853,-0.03314856,-8.093969e-19,0.002576487,-0.023090271,-0.1340753,-0.05746084,-9.3661175,0.79560274,47.731667,-0.7069206,-2.191578,-3.3604412,-0.47961658,0.18084279,-0.1866049,26.125,27.0,26.125,29.125,30.1875,30.625
0.044052597,-0.3107362,-0.16311276,-0.9836255,0.011857831,0.00986267,-0.14784361,-0.37326652,-0.3281697,0.05982338,-3.0784261,0.6248145,-0.00054894673,-0.020651208,0.0014255971,0.0004326298,-0.0037730788,0.0025590719,0.001358134,0.44767436,-1.4700253,2.0089371,-2.1077154,-1.5706128,2.422567,-0.022965733,0.030359833,-0.034310617,-5.284784e-20,0.0022081777,-0.024302855,-0.11492168,0.0,-9.461885,0.7172743,47.721813,-0.66908616,-2.2023118,-3.3912783,-0.4707191,0.16301541,-0.17054792,26.125,27.0,26.125,29.125,30.1875,30.625
0.046051767,-0.42549652,-0.47043937,-0.88134164,-0.0053094244,0.0096466,-0.14561105,-0.37330535,-0.32815394,0.059810996,-3.0783923,0.6248463,-0.00054162036,-0.021973552,0.0015514655,0.0009227616,-0.0040885666,0.0037423521,0.0013208911,0.44762585,-1.4699532,2.008889,-2.1077268,-1.5706371,2.4225426,-0.024244089,0.031149456,-0.036303297,-3.4505863e-21,0.0019754292,-0.025542215,-0.076614454,0.15322891,-9.500193,0.7553206,47.707485,-0.66050076,-2.1189892,-3.3722034,-0.47891408,0.17941532,-0.1557273,26.125,27.0,26.125,29.125,30.1875,30.625
0.04805162,-0.78934634,-1.0715293,-0.9261657,-0.0014046371,0.010550277,-0.13453119,-0.37331453,-0.3281497,0.059793383,-3.0783675,0.62480325,-0.0006408556,-0.023225654,0.0016880961,0.0012988842,-0.0043744897,0.00466609,0.0012226062,0.4476014,-1.4698812,2.0088394,-2.1076791,-1.5706252,2.4224944,-0.0255377,0.03207985,-0.038189434,-2.252986e-22,0.0018269992,-0.0267361,-0.05746084,0.17238252,-9.557653,0.7642693,47.686886,-0.6023896,-2.0338101,-3.376169,-0.46563902,0.19249988,-0.1573274,26.125,27.0,26.125,29.125,30.1875,30.625
0.050051745,-0.23264486,-0.8439208,-0.92844325,-0.01400011,0.025307216,-0.14113925,-0.37335345,-0.32814533,0.059790507,-3.078394,0.62476885,-0.0006650653,-0.023946553,0.0016787689,0.0013583676,-0.0046715518,0.004785806,0.0019111995,0.44754133,-1.4698209,2.0087798,-2.1076791,-1.5706009,2.4224095,-0.026316041,0.033086702,-0.039432906,-1.471039e-23,0.002039823,-0.028202577,0.0,0.2873042,-9.576807,0.75084364,47.692257,-0.613914,-1.9729419,-3.444296,-0.4569137,0.18736148,-0.14903978,26.125,27.0,26.125,29.125,30.1875,30.625
0.05205256,-0.22175221,-1.0059637,-0.8219562,-0.020313933,0.021818334,-0.14275807,-0.3734387,-0.32813302,0.05981733,-3.0784035,0.6248853,-0.00053667644,-0.02494664,0.0015810585,0.001394236,-0.005390446,0.004780186,0.0023264026,0.44745687,-1.4697725,2.0086706,-2.107703,-1.5706247,2.4223967,-0.027473953,0.034618795,-0.04117565,-9.834314e-05,0.0026885692,-0.029775495,0.05746084,0.4213795,-9.557653,0.7597976,47.713753,-0.62928843,-1.9231889,-3.4545386,-0.46970093,0.18375,-0.13528343,26.125,27.0,26.125,29.125,30.1875,30.625
0.054052435,-0.03555219,-0.8649945,-0.84156895,-0.037707724,0.0164016,-0.14585297,-0.37350106,-0.32812488,0.059824646,-3.078418,0.62488866,-0.000507546,-0.025752593,0.001408464,0.0018934516,-0.0064643566,0.005209909,0.0025785689,0.44738454,-1.4697003,2.0085747,-2.107703,-1.5706242,2.4223247,-0.028404202,0.03495962,-0.04279315,0.00032358468,0.0034690222,-0.030958487,0.019153614,0.4213795,-9.519346,0.75755644,47.731667,-0.5616374,-1.9554074,-3.4882817,-0.45989597,0.1869522,-0.120917164,26.125,27.0,26.125,29.125,30.1875,30.625
0.056051757,-0.5020029,-1.187162,-1.0318395,-0.040636793,0.0021214332,-0.13671155,-0.37353283,-0.32814014,0.05982954,-3.0784442,0.6247597,-0.00050787197,-0.026671503,0.0011615144,0.0023390718,-0.007195372,0.0059933793,0.0022586193,0.44738436,-1.4696282,2.0084789,-2.1076791,-1.5706242,2.4222407,-0.028986901,0.035671722,-0.044619814,0.00041437,0.0037853576,-0.031220684,-0.019153614,0.38307226,-9.653421,0.8179876,47.7451,-0.5996266,-1.8833007,-3.5180588,-0.44719,0.17953001,-0.11336705,26.125,27.0,26.125,29.125,30.1875,30.625
0.05805257,-0.10869585,-1.0998505,-1.1312085,-0.052077863,0.021332681,-0.14583606,-0.3735841,-0.32814586,0.059848867,-3.0784898,0.62482554,-0.00048258438,-0.0275705,0.0012314657,0.0022020424,-0.0071361135,0.0058175996,0.0033933746,0.44732404,-1.4695917,2.0083945,-2.1076791,-1.570588,2.4222157,-0.02994406,0.03741825,-0.046236333,0.00046960366,0.0038057314,-0.03331123,-0.076614454,0.5363012,-9.634268,0.7530795,47.737038,-0.60516095,-1.860331,-3.5027478,-0.44135597,0.18107016,-0.10708243,26.125,27.0,26.125,29.125,30.1875,30.625
0.060052503,-0.41269398,-0.9646982,-0.96373624,-0.052619882,0.02623226,-0.14415307,-0.37364358,-0.32813627,0.059830435,-3.0784864,0.6248055,-0.00049839506,-0.028467,0.00095687073,0.0018550765,-0.007289469,0.004918509,0.0046294336,0.44725186,-1.4694711,2.0083096,-2.1077025,-1.570588,2.4221315,-0.030590884,0.040193677,-0.04855901,0.0007594349,0.0043279068,-0.035193432,-0.038307227,0.4405331,-9.615114,0.7486078,47.716442,-0.64471996,-1.9514694,-3.5222127,-0.44551933,0.173713,-0.08973877,26.125,27.0,26.125,29.125,30.1875,30.625
0.06205226,-0.9604821,-1.5315433,-0.8892148,-0.026921913,0.022957405,-0.12810017,-0.3737086,-0.32813352,0.059845667,-3.0785024,0.6248476,-0.00048039676,-0.028958239,0.00080732454,0.0019662634,-0.0076675904,0.0048681065,0.0037341209,0.44717962,-1.4693989,2.00819,-2.1076787,-1.5705761,2.4220836,-0.030994577,0.040988293,-0.049753085,0.001040304,0.0046903403,-0.03470165,-0.1340753,0.40222588,-9.481039,0.7866488,47.71554,-0.6219912,-1.8989964,-3.5128834,-0.45348978,0.15401444,-0.089094505,26.125,27.0,26.125,29.125,30.1875,30.625
0.06405204,-0.6079986,-1.1548386,-1.0253724,-0.02468529,0.041320868,-0.13601853,-0.37374708,-0.32813308,0.059828162,-3.0785031,0.6248096,-0.0004963924,-0.029819967,0.00058869476,0.0017725157,-0.007903955,0.004504998,0.0021836928,0.4471435,-1.4693022,2.0081294,-2.1077025,-1.5705756,2.4220238,-0.031611037,0.043137174,-0.051671263,0.0010337421,0.00505666,-0.03376696,-0.11492168,0.36391866,-9.404425,0.8112748,47.682407,-0.6327231,-1.8995941,-3.509214,-0.43567163,0.16903374,-0.10731014,26.125,27.0,26.125,29.125,30.1875,30.625
0.06605169,-0.5748235,-0.8589884,-0.8536739,-0.013484588,0.038395084,-0.14004655,-0.3738421,-0.32813203,0.0598576,-3.078566,0.6248032,-0.00040268214,-0.031184882,0.00037908283,0.0023299567,-0.00880581,0.0057139914,0.0023449329,0.4470472,-1.4692299,2.0079854,-2.107715,-1.5705637,2.4219155,-0.032640666,0.044160824,-0.05404624,0.00090481044,0.0053450307,-0.034956317,-0.114921674,0.34476504,-9.461885,0.8157518,47.696735,-0.66157746,-1.9047348,-3.5156343,-0.4289738,0.161423,-0.10709946,26.125,27.0,26.125,29.125,30.1875,30.625
0.06805254,-1.0012492,-0.5508594,-0.6544637,-0.006905239,0.027374398,-0.13660441,-0.37388852,-0.32812685,0.05984527,-3.0785542,0.6248001,-0.00045977655,-0.03209741,-0.00013226272,0.0025342067,-0.008902372,0.0064333323,0.0037147116,0.44698724,-1.4691216,2.007889,-2.1076906,-1.5705518,2.4218552,-0.032347154,0.045895327,-0.05641096,0.0008461483,0.0051148506,-0.036030654,-0.19153613,0.28730422,-9.385271,0.7709874,47.694946,-0.7480667,-1.8598251,-3.4862862,-0.43131736,0.14144161,-0.08831095,26.125,27.0,26.125,29.125,30.1875,30.625
0.07005242,-0.93802714,-0.7797543,-0.55096173,0.014393917,0.029846257,-0.13718088,-0.37398008,-0.32814994,0.059881397,-3.0786452,0.6248755,-0.00036976417,-0.033058226,-3.0558826e-05,0.0023391522,-0.008880985,0.0061978507,0.0038620739,0.446915,-1.4690491,2.0077322,-2.107715,-1.5705036,2.4218185,-0.033456743,0.04778992,-0.058036134,0.00080015464,0.005198024,-0.037285917,-0.17238252,0.21068975,-9.385271,0.7642693,47.664497,-0.7167113,-1.8830206,-3.4246411,-0.41336825,0.14449228,-0.08039385,26.125,27.0,26.125,29.125,30.1875,30.625
0.072052225,-0.75625104,0.07405852,-0.34704697,0.003420058,0.041367725,-0.14335069,-0.37401512,-0.3281475,0.059864245,-3.0786397,0.6247592,-0.00042937408,-0.034759983,-0.00031533136,0.0033258619,-0.009886135,0.008370379,0.004408169,0.44687855,-1.4689411,2.0076473,-2.1076906,-1.5705036,2.4217103,-0.03443281,0.048463415,-0.061025765,0.00072307134,0.005157144,-0.03880635,-0.21068975,0.21068975,-9.32781,0.77545905,47.687782,-0.76169825,-1.80919,-3.4866502,-0.39763194,0.15237908,-0.07970227,26.125,27.0,26.125,29.125,30.1875,30.625
0.07405195,-1.2211277,0.086148106,-0.38801068,0.0072647156,0.03283761,-0.1301042,-0.3740996,-0.32813495,0.05988409,-3.0786347,0.6247968,-0.0003624901,-0.03607532,-0.0008941413,0.0030939202,-0.010029751,0.008035578,0.0033052755,0.44679448,-1.4688559,2.0075028,-2.1076667,-1.5705274,2.4216504,-0.034712486,0.05203415,-0.06443856,0.0008035777,0.005426888,-0.037980855,-0.2873042,0.17238252,-9.32781,0.7620334,47.691364,-0.76157194,-1.8166144,-3.297555,-0.38976142,0.119782366,-0.0833643,26.125,27.0,26.125,29.125,30.1875,30.625
0.07605426,-1.0931929,-0.18093613,-0.45721975,0.009897191,0.0429228,-0.14025858,-0.37418005,-0.3281503,0.059890326,-3.078699,0.6247916,-0.0002966137,-0.035640277,-0.00030309215,0.0020006804,-0.008554651,0.0057247165,0.00145102,0.44673428,-1.4687476,2.007383,-2.1077263,-1.5705036,2.421579,-0.035200257,0.05350733,-0.06366461,0.0012802259,0.005101317,-0.03661381,-0.2681506,0.1340753,-9.404425,0.7642693,47.690468,-0.7579006,-1.9588329,-3.448663,-0.37684327,0.15174478,-0.12157415,26.125,27.0,26.125,29.125,30.1875,30.625
0.07805212,-1.0690106,0.38940254,-0.22571039,-0.008083951,0.043327246,-0.1359133,-0.37423703,-0.32813075,0.05988256,-3.078655,0.62484,-0.00039677924,-0.037082773,-0.0002715404,0.003500153,-0.009103348,0.008554531,0.0022862428,0.4466381,-1.4686283,2.0072505,-2.107642,-1.5704921,2.4215186,-0.036060616,0.05247538,-0.06613889,0.0020008343,0.004367999,-0.03830737,-0.28730422,0.076614454,-9.404425,0.77545905,47.686886,-0.7595649,-1.7455916,-3.5265741,-0.39179295,0.15173236,-0.12750284,26.125,27.0,26.125,29.125,30.1875,30.625
0.08005201,-0.8416712,0.3019593,-0.3221477,0.001979745,0.047230285,-0.1440342,-0.3743382,-0.32815564,0.059910066,-3.0787318,0.62477964,-0.00023532334,-0.040110953,-0.00046195963,0.0048724725,-0.009976612,0.01076269,0.0008543045,0.4466012,-1.4685196,2.0070817,-2.107702,-1.5705041,2.4214344,-0.038320772,0.05484415,-0.07219176,0.0033165247,0.0041969283,-0.039131187,-0.4213795,0.11492168,-9.32781,0.83589023,47.68599,-0.74698454,-1.779125,-3.2061486,-0.39166123,0.1362493,-0.13350895,26.125,27.0,26.125,29.125,30.1875,30.625
0.08205201,-1.1716977,0.20239197,-0.2652333,0.0036896372,0.03573885,-0.1403139,-0.3743933,-0.32815883,0.05990677,-3.0787601,0.62468904,-0.00027762493,-0.038455542,0.00052554853,0.001575041,-0.006588377,0.0042543393,0.0007727581,0.4465411,-1.4684101,2.0069635,-2.1076777,-1.5704802,2.4213142,-0.038510468,0.05922826,-0.06952197,0.0035980837,0.0039580488,-0.039239995,-0.38307226,0.19153613,-9.346964,0.78888994,47.695843,-0.72161424,-1.847045,-3.3990588,-0.3812058,0.14147528,-0.14110392,26.125,27.0,26.125,29.125,30.1875,30.625
0.084051825,-1.2706316,-0.07444282,-0.40651172,-0.0012054773,0.03903712,-0.13629691,-0.37446237,-0.32814324,0.059900343,-3.078735,0.6247023,-0.0002927121,-0.04061907,-0.0007211115,0.0037488176,-0.00883077,0.008899037,0.0017583077,0.44645736,-1.4682904,2.0068414,-2.1076543,-1.5704921,2.421242,-0.03812187,0.05895438,-0.07415258,0.0033447938,0.003964399,-0.03983427,-0.4213795,0.22984336,-9.308657,0.7396539,47.67166,-0.76828206,-1.9157442,-3.290022,-0.37650436,0.13958205,-0.15287033,26.125,27.0,26.125,29.125,30.1875,30.625
0.086051814,-1.4507663,-0.75803214,-0.42060596,-0.0026793196,0.038541615,-0.12838928,-0.3745533,-0.32814854,0.05991705,-3.0787847,0.6247512,-0.00026562644,-0.041867767,-0.0007410243,0.0043024905,-0.0102675725,0.009911838,0.00070834404,0.4463608,-1.4681826,2.0066845,-2.1076543,-1.5704564,2.4211698,-0.039780665,0.05934697,-0.07579289,0.003057461,0.0048220716,-0.040443204,-0.2681506,0.19153613,-9.289502,0.78217715,47.658226,-0.8505098,-1.6334265,-3.239819,-0.35105073,0.14291377,-0.1705716,26.125,27.0,26.125,29.125,30.1875,30.625
0.08805161,-1.176258,-0.8445201,-0.6198684,-0.006234394,0.043329585,-0.12709895,-0.37465596,-0.32814276,0.059933513,-3.078808,0.6249104,-0.00021759907,-0.042847656,-0.00050497364,0.0035976816,-0.009530942,0.00816055,0.0002904996,0.44624025,-1.4680736,2.0065296,-2.1076658,-1.5704316,2.4211457,-0.041158855,0.06273859,-0.07809642,0.0038684404,0.0049141604,-0.04140176,-0.34476504,0.24899697,-9.404425,0.7978386,47.703007,-0.75453424,-1.8005624,-3.286129,-0.36583966,0.13666654,-0.18765897,26.125,27.0,26.125,29.125,30.1875,30.625
0.09005244,-1.1237521,-0.5019373,-0.55045354,-0.01846499,0.041667815,-0.1388015,-0.37473395,-0.32815,0.059933577,-3.0788102,0.62481475,-0.00022151157,-0.044132378,0.00011958308,0.0035609659,-0.00895269,0.0077788397,-0.0011910838,0.44619158,-1.4679173,2.0063493,-2.1076295,-1.570444,2.4210372,-0.04324146,0.06449422,-0.080157526,0.004768868,0.0045548785,-0.042001046,-0.36391866,0.22984336,-9.404425,0.8157518,47.70659,-0.72476506,-1.8436365,-3.2950897,-0.37111408,0.14697371,-0.20961434,26.125,27.0,26.125,29.125,30.1875,30.625
0.092052296,-0.83831793,-0.47383103,-0.49751592,-0.022785725,0.04440058,-0.13443328,-0.37482178,-0.32816237,0.059952237,3.078813,-0.6248157,0.00019889709,-0.04477039,0.0006355213,0.0030336939,-0.007766188,0.0063149915,-0.0013254025,0.44611925,-1.4677968,2.0061686,-2.1076057,-1.5704201,2.4209652,-0.044480037,0.06669366,-0.081626646,0.005874097,0.004117699,-0.043103572,-0.30645782,0.2681506,-9.3661175,0.7665104,47.72629,-0.64917266,-1.8743315,-3.1106718,-0.37878853,0.15363127,-0.22074646,26.125,27.0,26.125,29.125,30.1875,30.625
0.09405228,-1.3660767,-0.912003,-0.67048943,-0.0146929305,0.032747313,-0.13277964,-0.3749128,-0.32813814,0.059937406,3.0788078,-0.62489104,0.00018938808,-0.04410255,0.00078650535,0.0017698959,-0.0065909433,0.004224242,-0.0005753025,0.4459995,-1.4676524,2.0060494,-2.1076295,-1.5704321,2.4208932,-0.04404071,0.06843215,-0.08055712,0.0054598716,0.003961605,-0.04341437,-0.38307226,0.30645782,-9.423578,0.75084364,47.729877,-0.7431723,-1.7988741,-3.3058896,-0.388086,0.15143752,-0.24181552,26.125,27.0,26.125,29.125,30.1875,30.625
0.0960524,-1.1175948,-0.664826,-0.5191169,-0.028309435,0.041936085,-0.13817853,-0.3750142,-0.32814416,0.05995718,3.078811,-0.6247746,0.00011699245,-0.046428327,-0.00022138203,0.0029145356,-0.008166682,0.0066831196,0.0021342242,0.44592717,-1.4675198,2.0058553,-2.1076171,-1.570444,2.420748,-0.044475824,0.07071272,-0.085684635,0.0054075057,0.0043142275,-0.046555944,-0.30645782,0.3256114,-9.32781,0.7105615,47.71286,-0.81175756,-1.8560696,-3.2266045,-0.35755056,0.14610437,-0.24296105,26.125,27.0,26.125,29.125,30.1875,30.625
0.09805265,-1.1320927,-1.0995297,-0.56112427,-0.015950283,0.03127931,-0.1334812,-0.37512118,-0.3281443,0.059971742,3.0787358,-0.62485623,9.335711e-05,-0.04666725,0.00090838893,0.0016729429,-0.0076012393,0.004184521,0.00022966207,0.44580632,-1.4673876,2.0056765,-2.1076171,-1.5704077,2.4206877,-0.04718062,0.07242622,-0.08468328,0.0051911213,0.0048863585,-0.047357097,-0.24899697,0.24899697,-9.251195,0.7418897,47.70032,-0.71735954,-1.8801272,-3.1599383,-0.3626509,0.15821284,-0.24892122,26.125,27.0,26.125,29.125,30.1875,30.625
0.10005249,-0.8527601,-0.46352327,-0.52869296,-0.020294324,0.022168601,-0.13757916,-0.37521034,-0.32814884,0.05996281,3.0787535,-0.62480253,0.000107785505,-0.048332788,0.00036989767,0.0021223563,-0.00826298,0.005151318,-0.0014844815,0.44573417,-1.4672071,2.0054958,-2.1076057,-1.5704077,2.42058,-0.04777831,0.074828744,-0.08840586,0.005353191,0.0050590797,-0.046238437,-0.15322891,0.2681506,-9.385271,0.74413085,47.694946,-0.70833063,-1.8812392,-3.2426276,-0.3540575,0.14419448,-0.28305075,26.125,27.0,26.125,29.125,30.1875,30.625
0.10205223,-0.8338074,-0.3039237,-0.5092499,-0.020093694,0.01606635,-0.13534766,-0.3753308,-0.32815334,0.060001936,3.0787191,-0.6248144,-1.8486051e-05,-0.04927564,1.424984e-05,0.0026018075,-0.008799691,0.0059172492,-0.00030827272,0.44564998,-1.4670868,2.0052683,-2.1075814,-1.5704316,2.4205077,-0.048049465,0.07580463,-0.090668716,0.005716603,0.0052138767,-0.047684226,-0.13407528,0.24899697,-9.3661175,0.7530795,47.72271,-0.76135737,-1.9822457,-3.1494565,-0.35594618,0.14259781,-0.31445718,26.125,27.0,26.125,29.125,30.1875,30.625
0.104052156,-0.69690853,-0.5029788,-0.5884501,-0.0043277866,0.014196447,-0.13174908,-0.37540945,-0.32813147,0.059974574,3.078745,-0.62485814,8.4063875e-05,-0.050108615,0.000116966396,0.002268528,-0.008157052,0.0049777213,9.860667e-05,0.44552982,-1.4669065,2.0051243,-2.1075451,-1.5704197,2.4204116,-0.04885795,0.07824356,-0.09278683,0.006522525,0.00503381,-0.048898324,-0.17238252,0.19153613,-9.32781,0.8717007,47.704796,-0.76055396,-1.8477125,-3.1163254,-0.3650573,0.15729767,-0.33227807,26.125,27.0,26.125,29.125,30.1875,30.625
0.106051594,-0.6637698,-0.2570081,-0.66996634,0.0006161756,0.012684505,-0.1338458,-0.3755521,-0.3281574,0.06000741,3.0786703,-0.6247645,-4.3411448e-05,-0.05102168,0.000118547556,0.0022302857,-0.008171873,0.005454929,0.0017748006,0.44543365,-1.4667381,2.004872,-2.1075814,-1.5703958,2.4202666,-0.049535118,0.07966818,-0.094169654,0.006046352,0.0048444807,-0.051249675,-0.1340753,0.17238252,-9.346964,0.7777002,47.68599,-0.70730543,-1.9731905,-3.157428,-0.3560078,0.13261768,-0.33035922,26.125,27.0,26.125,29.125,30.1875,30.625
0.1080525,-0.8393627,-0.19377623,-0.3723836,-0.010716943,0.016219946,-0.135571,-0.37559995,-0.32815266,0.059977062,3.0787141,-0.6247177,5.859529e-05,-0.051471066,5.195733e-06,0.0016441565,-0.007720511,0.0044634636,-0.00017078429,0.44537348,-1.4665816,2.0047638,-2.1075575,-1.5703839,2.4201717,-0.04972935,0.08203948,-0.095449165,0.0060443915,0.004858253,-0.049497586,-0.076614454,0.19153613,-9.32781,0.76874626,47.711964,-0.82890415,-1.8127048,-3.1274083,-0.3444971,0.14694747,-0.37436244,26.125,27.0,26.125,29.125,30.1875,30.625
0.11005231,-1.2818233,-0.77790564,-0.51286197,-0.0014330922,0.011834327,-0.12787792,-0.37571606,-0.32812762,0.059988428,3.0787048,-0.6247719,3.178875e-05,-0.05209158,-0.00091281603,0.0025906807,-0.009088462,0.0057694796,0.0005993247,0.44522986,-1.4664377,2.0045712,-2.1075213,-1.5703958,2.4200633,-0.048997514,0.0820883,-0.097805455,0.0065817744,0.005528287,-0.049535517,-0.1340753,0.1340753,-9.289502,0.7911258,47.693153,-0.8852422,-2.0676556,-3.1256895,-0.33999747,0.15316087,-0.4205293,26.125,27.0,26.125,29.125,30.1875,30.625
0.11205218,-0.9298157,-0.46560782,-0.497336,-0.013575703,0.013931566,-0.13356367,-0.37583444,-0.32815236,0.060000945,3.078633,-0.6248338,6.4332457e-06,-0.05319333,-0.00020343217,0.0029532525,-0.00938815,0.0062611704,0.00033444987,0.44514504,-1.4662464,2.0043318,-2.1075213,-1.5703596,2.4200263,-0.0513413,0.0820998,-0.09874484,0.006939245,0.005589236,-0.051613826,-0.1340753,0.19153613,-9.3661175,0.8247004,47.7254,-0.89503485,-1.7417028,-3.1736548,-0.35181582,0.13522999,-0.43960965,26.125,27.0,26.125,29.125,30.1875,30.625
0.114052124,-0.924927,-0.73501575,-0.68736744,-0.0055114357,0.011855624,-0.13178964,-0.37592462,-0.32813376,0.059988834,3.0786726,-0.6248025,4.413701e-05,-0.05303492,-0.00010660497,0.0005986533,-0.007004965,0.0012272988,0.0024938162,0.44503695,-1.4660764,2.004164,-2.1074846,-1.5703715,2.4198937,-0.051377334,0.08808994,-0.10019578,0.007969818,0.005603677,-0.05380798,0.038307227,0.15322891,-9.289503,0.7642693,47.701214,-0.86939496,-2.0689228,-3.1545165,-0.3640381,0.14486676,-0.45568925,26.125,27.0,26.125,29.125,30.1875,30.625
0.11605223,-0.62468725,-0.33277926,-0.65858364,-0.01921871,0.012754405,-0.13763395,-0.3760454,-0.32815596,0.060016092,3.0786257,-0.62475234,-9.31113e-06,-0.052935444,-0.0010970148,0.0016418227,-0.0076246834,0.0033167698,0.0069266385,0.44495362,-1.4659094,2.0039122,-2.1074607,-1.5703477,2.4197853,-0.049183205,0.086839184,-0.10125917,0.008134596,0.005265734,-0.056045532,-0.038307227,0.21068975,-9.270349,0.7597976,47.693153,-1.0847065,-1.8347863,-3.2454066,-0.34666443,0.1612053,-0.46903795,26.125,27.0,26.125,29.125,30.1875,30.625
0.118052065,-0.86495656,-0.5933706,-0.5838593,-0.013025094,0.004197482,-0.13233708,-0.3761494,-0.32815436,0.060016397,3.0786161,-0.6246915,-5.3395885e-05,-0.053669307,-0.00058948045,0.00020382564,-0.0070859888,0.0008701376,0.007976152,0.44485697,-1.4657521,2.003744,-2.107485,-1.5703477,2.419652,-0.05116103,0.0905843,-0.10196644,0.007536083,0.00583256,-0.059072267,0.019153614,0.19153613,-9.308656,0.8112748,47.692257,-0.9668716,-1.9985443,-3.3095179,-0.3480805,0.14974353,-0.47402814,26.125,27.0,26.125,29.125,30.1875,30.625
0.12005184,-0.62450993,-0.6627152,-0.5966653,-0.0027560832,0.004877629,-0.13322619,-0.37626922,-0.3281629,0.06001175,3.0785942,-0.62466586,-4.410566e-05,-0.054789923,-0.00062178605,0.00031071462,-0.007557225,0.0012518807,0.010698001,0.4447487,-1.465536,2.0035164,-2.107485,-1.5703233,2.4195306,-0.05226188,0.09207052,-0.103828736,0.0073667294,0.006091132,-0.0628939,0.038307227,0.19153613,-9.32781,0.7597976,47.686886,-1.1415576,-2.01194,-3.2748427,-0.36184692,0.15428826,-0.45236507,26.125,27.0,26.125,29.125,30.1875,30.625
0.122052565,-0.291711,-0.42831877,-0.6981733,-0.005222889,0.008655551,-0.13665158,-0.3763876,-0.32815564,0.060008485,3.0785944,-0.6246256,-5.802905e-05,-0.05680018,-0.0010592929,0.0010405702,-0.0087130405,0.0026518658,0.013338595,0.44462824,-1.4653436,2.0033119,-2.1074846,-1.5703229,2.4193852,-0.053521406,0.09414386,-0.10784351,0.0075471485,0.0065262932,-0.06679189,0.0,0.15322891,-9.308657,0.78217715,47.688675,-0.9941893,-1.9729807,-3.2560704,-0.3341475,0.1353248,-0.43453807,26.125,27.0,26.125,29.125,30.1875,30.625
0.12405241,-0.23423995,-0.5490767,-0.5839363,2.8923673e-06,0.0065104994,-0.14026965,-0.3765076,-0.32816863,0.060042262,3.0785892,-0.6245065,-0.00011703754,-0.05537,-0.0009994032,-5.2706946e-05,-0.0076925997,0.00036024774,0.01938402,0.44454464,-1.4651878,2.0030491,-2.107425,-1.5703229,2.419228,-0.05237842,0.09448435,-0.10574349,0.0076156463,0.006599987,-0.07169535,0.038307227,0.19153613,-9.32781,0.8247004,47.67166,-1.1768157,-1.9529581,-3.3931043,-0.34485394,0.13200653,-0.39574194,26.125,27.0,26.125,29.125,30.1875,30.625
0.12605385,-0.72123533,-0.37919247,-0.56513685,-0.0022855217,0.004752904,-0.13483974,-0.37662503,-0.32815847,0.06002159,3.0785904,-0.6245239,-7.518811e-05,-0.05752362,-0.00096795027,0.0006027812,-0.0082170805,0.0017938137,0.021890258,0.44441196,-1.4649596,2.002845,-2.107425,-1.570311,2.4191062,-0.05424802,0.09645388,-0.10949826,0.0078843115,0.0064495094,-0.07606876,0.019153614,0.24899697,-9.32781,0.8090337,47.685097,-1.1787715,-1.9671882,-3.3560855,-0.33777562,0.13800392,-0.36262548,26.125,27.0,26.125,29.125,30.1875,30.625
0.12805158,-0.7111311,-0.36135384,-0.6251376,-0.006496129,0.012092952,-0.14186472,-0.37674987,-0.32818833,0.060062904,3.0784988,-0.6244067,-0.00015404094,-0.057557646,-0.00032779842,-0.00032288177,-0.007271104,-0.00032718526,0.024825305,0.44431558,-1.4648274,2.0026047,-2.107425,-1.5702513,2.4189484,-0.055501863,0.098134175,-0.10935719,0.008390714,0.0065185754,-0.08025702,0.038307227,0.2681506,-9.32781,0.83813137,47.667187,-1.1208241,-1.9004345,-3.4268665,-0.3238104,0.1450769,-0.30910525,26.125,27.0,26.125,29.125,30.1875,30.625
0.13005173,-1.089266,-1.1281141,-0.75188696,0.004807774,0.0043308027,-0.13137476,-0.3768405,-0.32815695,0.060003944,3.0786192,-0.6242948,1.5585712e-05,-0.058319815,-0.000322034,0.0004263878,-0.008179912,0.0006534924,0.028382555,0.44418332,-1.4645519,2.002425,-2.1073768,-1.5702633,2.4187312,-0.05643673,0.09762864,-0.110666074,0.008928784,0.0069058356,-0.08475009,-0.038307227,0.22984336,-9.404425,0.8605109,47.674347,-1.1420354,-1.945113,-3.423107,-0.3448865,0.13596123,-0.26659608,26.125,27.0,26.125,29.125,30.1875,30.625
0.13205265,-0.9797219,-0.57088274,-0.629899,-0.0177647,0.0094601475,-0.13871837,-0.37696728,-0.32815582,0.060026865,3.0786047,-0.6242334,-6.895481e-05,-0.058597125,-0.00026756217,-7.878014e-05,-0.008593606,-0.00093574735,0.029263992,0.44407508,-1.4643958,2.0021975,-2.1073644,-1.5702747,2.4185867,-0.05747963,0.09923418,-0.111375496,0.009286505,0.0079673845,-0.086674795,-0.076614454,0.19153613,-9.385271,0.8247004,47.69763,-1.1741216,-1.7850169,-3.4541194,-0.3464435,0.14364307,-0.20516764,26.125,27.0,26.125,29.125,30.1875,30.625
0.13405226,-0.6329698,-0.5160657,-0.602334,-0.0043404996,0.022451773,-0.13592346,-0.37707618,-0.32816938,0.06004164,3.0785804,-0.6241335,-6.446179e-05,-0.060889117,-0.00029031752,0.0002906332,-0.009042387,0.00032512617,0.028916648,0.44397834,-1.4642267,2.001969,-2.1073291,-1.5702385,2.4184308,-0.059376113,0.10201836,-0.11525528,0.009055617,0.0078250365,-0.08822082,-0.21068975,0.11492168,-9.251195,0.8291774,47.686886,-1.1353747,-1.9616398,-3.356964,-0.3280847,0.12824741,-0.18700743,26.125,27.0,26.125,29.125,30.1875,30.625
0.13605241,-1.123383,-0.20511748,-0.78322977,0.004509754,0.014650708,-0.14025082,-0.37719575,-0.32816458,0.06001995,3.0785916,-0.6240588,-1.0188624e-05,-0.061078258,2.5253792e-06,-0.00020777882,-0.008334083,-0.00057940034,0.027951485,0.44384626,-1.4639869,2.001754,-2.1073287,-1.5702151,2.4182508,-0.059898168,0.10328073,-0.115570806,0.009233749,0.0075716996,-0.08777732,-0.22984336,0.13407528,-9.346964,0.78217715,47.67345,-1.165155,-1.7934222,-3.601587,-0.35439152,0.13115484,-0.16891432,26.125,27.0,26.125,29.125,30.1875,30.625
0.1380523,-1.3945122,-0.37356624,-0.85228634,0.013572731,0.018505275,-0.12906337,-0.3773258,-0.3281648,0.06001637,3.078636,-0.6239166,-7.3100305e-06,-0.06276047,-0.00026743131,0.00017891025,-0.009573673,0.000489667,0.024322862,0.4437377,-1.4637468,2.0014894,-2.1072934,-1.5702266,2.4180481,-0.061314337,0.10509459,-0.118362315,0.008710554,0.008224035,-0.085563734,-0.21068975,0.1340753,-9.289502,0.8314132,47.682407,-1.1526506,-1.8398635,-3.317393,-0.3321833,0.12447865,-0.16728926,26.125,27.0,26.125,29.125,30.1875,30.625
0.14005221,-1.6603429,-0.47611094,-0.93081105,0.015683755,0.022243116,-0.12490822,-0.3774437,-0.32817644,0.06003427,3.0785658,-0.62382627,8.835428e-07,-0.06460423,-0.0006699206,0.00090252707,-0.010221338,0.0022021148,0.023018697,0.44360542,-1.4635903,2.001273,-2.1072814,-1.5701545,2.4178684,-0.062082402,0.10692077,-0.122063026,0.008768065,0.008070823,-0.085024655,-0.4213795,0.15322891,-9.404425,0.779936,47.675243,-1.1365919,-1.8638601,-3.3548336,-0.342228,0.107213885,-0.15279311,26.125,27.0,26.125,29.125,30.1875,30.625
0.14205252,-1.5274339,-0.43061012,-0.81375873,0.0059546493,0.039655305,-0.13576978,-0.3775677,-0.32819512,0.06004311,3.0785677,-0.62369496,-1.7438313e-05,-0.0657027,-0.00074375427,0.00129002,-0.010294242,0.0026610277,0.016422037,0.44352123,-1.4633743,2.0010087,-2.1072571,-1.5701426,2.4177022,-0.06281396,0.10819708,-0.12455757,0.009540513,0.007936994,-0.07915781,-0.45968673,0.114921674,-9.500193,0.75084364,47.684196,-1.1712674,-1.7593628,-3.3678567,-0.35141915,0.11624167,-0.20871758,26.125,27.0,26.125,29.125,30.1875,30.625
0.14405166,-1.7844055,-0.60762393,-0.98817015,-0.0007535633,0.051745363,-0.13028477,-0.3777173,-0.32816356,0.060042564,3.0785663,-0.62377405,1.250403e-05,-0.06709345,-0.00012060937,0.0018441126,-0.010332562,0.0036800867,0.011746418,0.4433285,-1.4631467,2.000745,-2.107197,-1.5701431,2.4175591,-0.06491405,0.10848329,-0.12628105,0.010042854,0.0075306543,-0.07658112,-0.47884035,0.19153613,-9.500193,0.7709874,47.67793,-1.2469716,-1.7304494,-3.321546,-0.34234774,0.1072642,-0.26245105,26.125,27.0,26.125,29.125,30.1875,30.625
0.14605193,-2.1747699,-1.192965,-1.0961407,-0.0057599596,0.051807415,-0.13305049,-0.37782353,-0.32817146,0.060035367,3.078597,-0.6237047,1.7579408e-05,-0.06809332,0.00024364218,0.0018187173,-0.010874466,0.0035507276,0.0095456205,0.4432558,-1.4629307,2.0005176,-2.1071732,-1.5701545,2.4174395,-0.06683303,0.10953081,-0.12738912,0.009985504,0.008072712,-0.07629927,-0.38307226,0.24899697,-9.634268,0.7978386,47.66271,-1.2032187,-1.5338174,-3.355894,-0.3514142,0.1041694,-0.26297435,26.125,27.0,26.125,29.125,30.1875,30.625
0.14805205,-1.9146461,-1.0013766,-1.0285853,-0.025060272,0.05792049,-0.13782315,-0.37796617,-0.3281731,0.06004499,3.0785713,-0.62364256,6.356478e-05,-0.06909761,0.00052553136,0.0008864838,-0.009228727,0.0016634363,0.0067984993,0.4430995,-1.4627016,2.0002286,-2.1071126,-1.5701073,2.4172478,-0.06776828,0.11365411,-0.13004965,0.010939992,0.0073922426,-0.074484706,-0.5363012,0.22984336,-9.634268,0.78888994,47.66987,-1.140427,-1.583338,-3.3523297,-0.36008435,0.09882517,-0.33856285,26.125,27.0,26.125,29.125,30.1875,30.625
0.150052,-2.1890783,-1.0266322,-1.0867054,-0.03073332,0.05535496,-0.13284315,-0.37810946,-0.32816032,0.0600252,3.078541,-0.6236932,8.771061e-05,-0.07027467,0.0010055613,0.0007056228,-0.008612063,0.0020638502,0.007260622,0.44293112,-1.4624497,2.0000012,-2.1071365,-1.570083,2.417115,-0.06919074,0.11531633,-0.13140967,0.010546919,0.0066610184,-0.076367304,-0.63206923,0.22984336,-9.634268,0.8179876,47.707485,-1.1811495,-1.6448133,-3.3527632,-0.36147943,0.10628857,-0.3415257,26.125,27.0,26.125,29.125,30.1875,30.625
0.15205185,-1.8503917,-0.8871196,-0.9696451,-0.019958777,0.06832017,-0.14034736,-0.37826952,-0.32815963,0.060044706,3.0785136,-0.6236488,1.4016007e-05,-0.07160884,0.0010027684,6.658918e-05,-0.008357278,0.0017418636,0.0073276367,0.4427868,-1.4622325,1.9997143,-2.1071255,-1.570083,2.4169466,-0.07027912,0.118755735,-0.1335692,0.009669011,0.0065678256,-0.07752021,-0.6703765,0.2681506,-9.519346,0.7709874,47.72092,-1.150009,-1.9033704,-3.3363876,-0.3619577,0.11732399,-0.332605,26.125,27.0,26.125,29.125,30.1875,30.625
0.15405214,-1.8833709,-0.9108313,-0.96356034,-0.017071754,0.06268922,-0.1385223,-0.37841067,-0.32814768,0.060033903,3.0785031,-0.62364846,2.5139272e-05,-0.07251278,0.00091487897,0.00023102337,-0.009425732,0.0020040055,0.0060670744,0.44263035,-1.461993,1.9994744,-2.1071255,-1.5700711,2.4167914,-0.071457356,0.11967503,-0.13493119,0.009416107,0.0074183503,-0.07743791,-0.51714754,0.2681506,-9.519346,0.83813137,47.709274,-1.1720316,-1.6550813,-3.3538275,-0.34210223,0.11937992,-0.34936383,26.125,27.0,26.125,29.125,30.1875,30.625
0.15605184,-2.3862839,-0.84804106,-0.77347773,-0.018056469,0.045037698,-0.13222305,-0.37857848,-0.32816353,0.060066245,3.0784647,-0.6235429,-9.654407e-05,-0.074819684,0.00040321905,0.0016112697,-0.010813985,0.005572778,0.006931111,0.44251016,-1.461777,1.9991616,-2.107126,-1.5700711,2.4166105,-0.07233655,0.12045562,-0.13881537,0.008702951,0.007143752,-0.0791776,-0.51714754,0.24899697,-9.519346,0.84708,47.70211,-1.155168,-1.7665548,-3.391922,-0.3492589,0.113487996,-0.37551308,26.125,27.0,26.125,29.125,30.1875,30.625
0.15805168,-1.8982029,-0.8027531,-0.7361015,-0.0105416,0.042273395,-0.1348106,-0.37870595,-0.3281552,0.06004523,3.0784929,-0.6235319,2.0408184e-05,-0.07505472,0.0023857595,-0.00070148666,-0.0085633425,0.0017211083,0.003123669,0.44236478,-1.4615003,1.9988874,-2.1070535,-1.5700473,2.4164548,-0.07595847,0.12363236,-0.13692227,0.008081785,0.0067565558,-0.07899268,-0.6512229,0.34476504,-9.32781,0.8537928,47.701214,-1.0957385,-1.7245173,-3.4325361,-0.3271691,0.11912918,-0.38150543,26.125,27.0,26.125,29.125,30.1875,30.625
0.16005246,-1.4136149,-0.44645423,-0.7634485,-0.01010514,0.04664364,-0.13580973,-0.37888852,-0.3281676,0.06007183,3.078414,-0.6235331,-7.7081044e-05,-0.076419786,0.0014927123,-0.00010726185,-0.008836292,0.0032853158,0.005342823,0.4422091,-1.46126,1.9985636,-2.107066,-1.5700234,2.41631,-0.07517944,0.12576842,-0.14069906,0.008197224,0.0063350773,-0.08042929,-0.5554548,0.19153614,-9.3661175,0.7709874,47.70211,-1.0120646,-1.7751445,-3.2847092,-0.31922758,0.13274433,-0.4229173,26.125,27.0,26.125,29.125,30.1875,30.625
0.16205244,-1.6744376,-0.17534561,-0.6829554,-0.012520147,0.03151404,-0.14198583,-0.379045,-0.32815427,0.06005599,3.0784562,-0.62348014,-0.00013603336,-0.07754196,0.0014479881,-0.00010152071,-0.00951159,0.0034877986,0.01115177,0.44207674,-1.4609839,1.9983,-2.1070898,-1.5700711,2.4161396,-0.07641034,0.12740806,-0.14248462,0.0078696245,0.006859247,-0.08746829,-0.36391866,0.095768064,-9.385271,0.8717007,47.687782,-1.1370038,-1.7976336,-3.2766669,-0.31756538,0.12738591,-0.3820645,26.125,27.0,26.125,29.125,30.1875,30.625
0.1640522,-0.90663457,-0.24762051,-0.3498566,-0.00039765725,0.04067318,-0.14398986,-0.3791922,-0.32817248,0.060083773,3.0784001,-0.6233175,-0.00012826207,-0.07983017,0.0026491734,-0.00016199346,-0.010076009,0.0031443466,0.007969833,0.44193098,-1.4607797,1.9979995,-2.107042,-1.5699986,2.4158995,-0.08109199,0.12958595,-0.14483592,0.00811792,0.0075178943,-0.088966735,-0.2681506,0.076614454,-9.308656,0.7978386,47.684196,-0.9506681,-1.7146733,-3.2901137,-0.29476744,0.12276596,-0.34725985,26.125,27.0,26.125,29.125,30.1875,30.625
0.16605195,-1.3434701,-0.027384695,-0.58255965,0.0028244252,0.016732814,-0.14122479,-0.37936926,-0.3281565,0.060081117,3.0783854,-0.6233669,-0.00016892265,-0.08065148,0.0013850154,1.0149509e-05,-0.010474393,0.00409158,0.014984326,0.44175187,-1.4605031,1.9976996,-2.107042,-1.570011,2.4157534,-0.07938454,0.1321146,-0.14796598,0.0076959548,0.007471546,-0.09427131,-0.24899697,0.1340753,-9.346964,0.7978386,47.684196,-0.9354499,-1.9836376,-3.1378055,-0.2960068,0.111082,-0.3052154,26.125,27.0,26.125,29.125,30.1875,30.625
0.16805236,-1.1406281,-0.26209623,-0.4898953,0.0114287995,0.019004796,-0.13230382,-0.37952498,-0.3281617,0.06007825,3.0783763,-0.62324774,-0.0001733823,-0.081676304,0.0022425577,-0.002080657,-0.008549962,0.00012316126,0.018207235,0.441607,-1.4602377,1.9974126,-2.107042,-1.5699872,2.4155354,-0.08183094,0.13798508,-0.1497962,0.008072535,0.0074310405,-0.09993861,-0.36391866,0.19153613,-9.193734,0.80679786,47.69763,-0.9340567,-1.8676904,-3.3408735,-0.2947506,0.11788657,-0.24258165,26.125,27.0,26.125,29.125,30.1875,30.625
0.17005228,-1.5210421,-0.14962253,-0.43263608,0.00850862,0.015157307,-0.14345776,-0.37973398,-0.3281456,0.06010431,3.0783012,-0.6232885,-0.0002136169,-0.08247996,0.0026662506,-0.0012202045,-0.009429207,0.0016413025,0.021325672,0.44136655,-1.4599746,1.9970535,-2.1070058,-1.5699505,2.4153302,-0.08337674,0.13657671,-0.15027437,0.008218539,0.007586479,-0.10460261,-0.21068975,0.15322891,-9.097966,0.7172743,47.689575,-0.8771074,-1.8937254,-3.3685231,-0.2863236,0.12579633,-0.19608486,26.125,27.0,26.125,29.125,30.1875,30.625
0.17205213,-0.5739966,0.00015355993,-0.34373182,0.009702429,0.039485395,-0.14516358,-0.37988213,-0.3281535,0.060096495,3.0783224,-0.6231957,-0.0002396057,-0.083655134,0.0028557014,-0.0010686556,-0.009921678,0.0019064941,0.023638265,0.4412579,-1.4596988,1.996766,-2.1070058,-1.5699629,2.4151611,-0.08495909,0.13781287,-0.152046,0.008304518,0.007919135,-0.108496636,-0.2681506,0.05746084,-9.212888,0.86498255,47.67166,-0.8659437,-1.8792927,-3.3582072,-0.28228238,0.11684379,-0.12114374,26.125,27.0,26.125,29.125,30.1875,30.625
0.17405209,-1.3602391,-0.2816125,-0.25738773,0.006746758,0.020961182,-0.12986216,-0.38005888,-0.32813025,0.060086884,3.0783615,-0.6230489,-0.0002502874,-0.084536776,0.003130937,-0.0011384435,-0.0099706985,0.0012988165,0.0228642,0.44106552,-1.4594105,1.996466,-2.106994,-1.5699748,2.4148724,-0.08640734,0.13929226,-0.15373081,0.009038156,0.008222479,-0.10917016,-0.2681506,0.095768064,-9.155427,0.7911258,47.637623,-0.8730911,-1.9222482,-3.378519,-0.2661096,0.13300656,-0.08180885,26.125,27.0,26.125,29.125,30.1875,30.625
0.17605214,-1.2454897,-0.19031894,-0.18066025,0.0027510838,0.03175371,-0.13973448,-0.38021123,-0.32814053,0.060081802,3.078325,-0.6229858,-0.00019289066,-0.08586356,0.0030675062,-0.00074108184,-0.010291185,0.0027065035,0.020301202,0.44090918,-1.4591347,1.9961666,-2.10697,-1.5699147,2.4146814,-0.08720757,0.14041948,-0.15582687,0.008605146,0.007905799,-0.10740571,-0.3256114,0.15322891,-9.136273,0.80456203,47.689575,-0.6556845,-1.8539562,-3.3078313,-0.26678163,0.12781061,-0.059581924,26.125,27.0,26.125,29.125,30.1875,30.625
0.17805228,-0.7760908,-0.14317909,-0.4115245,0.011851125,0.036560174,-0.14189357,-0.38040164,-0.3281194,0.06008623,3.0782795,-0.62301743,-0.00024104255,-0.08665442,0.0029195417,-0.0007071215,-0.010594194,0.002304104,0.016448367,0.44069296,-1.4588708,1.9958667,-2.1069815,-1.5699028,2.414491,-0.08787444,0.14204411,-0.15789485,0.009282687,0.008353088,-0.10421855,-0.3256114,0.17238252,-9.174581,0.78217715,47.65464,-0.78108627,-1.8411099,-3.2295237,-0.25246727,0.118633434,-0.09284291,26.125,27.0,26.125,29.125,30.1875,30.625
0.18005195,-1.0305188,-0.20061345,-0.4123707,0.018499522,0.021084726,-0.13456197,-0.38058287,-0.32812768,0.06010463,3.0782442,-0.62293726,-0.00025086984,-0.08854855,0.0045495466,-0.0009202825,-0.010108909,0.0018196127,0.008548724,0.4405235,-1.4585946,1.9955076,-2.1069338,-1.5698665,2.4142761,-0.09238269,0.14361669,-0.15929613,0.009760427,0.008121216,-0.100825846,-0.22984336,0.15322891,-9.097966,0.7732232,47.68062,-0.58794695,-1.8190372,-3.3830347,-0.24906787,0.12398498,-0.13940766,26.125,27.0,26.125,29.125,30.1875,30.625
0.18205263,-0.91364235,-0.1704255,-0.37742922,0.020962805,0.023057003,-0.1360864,-0.38075837,-0.3281106,0.06008858,3.0782683,-0.6229043,-0.00024600842,-0.087694705,0.0036539687,-0.0012064708,-0.009344814,0.0008651143,0.007669301,0.4403445,-1.4582832,1.9951962,-2.106921,-1.5698789,2.4140737,-0.089714006,0.1446188,-0.1599987,0.010649063,0.007834711,-0.09727739,-0.22984336,0.19153613,-9.212888,0.9186956,47.686886,-0.7181834,-1.7169925,-3.3298936,-0.25671926,0.13559267,-0.1662351,26.125,27.0,26.125,29.125,30.1875,30.625
0.18405233,-0.799777,0.11769658,-0.50272715,0.0076641534,0.033504725,-0.13879149,-0.38093418,-0.3280865,0.060078684,3.0782623,-0.6229438,-0.0001779371,-0.089449905,0.0037100546,9.248673e-05,-0.0102789365,0.0037491098,0.0033330573,0.44012794,-1.4579835,1.9948729,-2.1068614,-1.5698551,2.4138827,-0.091049224,0.14420769,-0.16254787,0.010605713,0.0074410834,-0.094275005,-0.28730422,0.22984336,-9.212888,0.8717007,47.698532,-0.73706996,-1.8021368,-3.3206196,-0.25425056,0.1259923,-0.2176084,26.125,27.0,26.125,29.125,30.1875,30.625
0.18605246,-1.3902955,-0.4080705,-0.5894995,0.0116916625,0.022452028,-0.13156301,-0.38110724,-0.32807648,0.060070165,3.078249,-0.62292135,-0.00018098744,-0.09073933,0.0031865851,0.00011801534,-0.010476761,0.0037483282,0.0024259754,0.4399479,-1.457695,1.9945725,-2.1068614,-1.5698427,2.4136906,-0.09127815,0.14713755,-0.16599566,0.011041592,0.0076160966,-0.09359467,-0.22984336,0.24899697,-9.174581,0.88960326,47.686886,-0.77892935,-1.7802043,-3.4248705,-0.23741427,0.12085764,-0.25655937,26.125,27.0,26.125,29.125,30.1875,30.625
0.18805222,-1.6118047,-0.86000246,-0.77876425,0.0036147072,0.023425678,-0.12121274,-0.38130865,-0.32806468,0.060076717,3.0782266,-0.6229371,-0.00025191525,-0.09048786,0.0032042512,0.0003233297,-0.010225351,0.003675501,0.0008838933,0.43975616,-1.4573957,1.9942254,-2.1068609,-1.5698551,2.4135118,-0.09090127,0.14655821,-0.16604897,0.011846981,0.0074258866,-0.09167558,-0.17238252,0.21068975,-9.32781,0.8493211,47.684196,-0.85552144,-1.6541963,-3.4044616,-0.25817305,0.14789386,-0.29388013,26.125,27.0,26.125,29.125,30.1875,30.625
0.19005199,-0.7986886,-0.68701273,-0.65162283,-0.008827009,0.039615333,-0.14499456,-0.38148174,-0.32805446,0.0600669,3.078239,-0.6229017,-0.00020839048,-0.09125482,0.0027461823,0.000285289,-0.01012505,0.0036953222,-6.1361745e-05,0.43957624,-1.4570837,1.9938906,-2.1068127,-1.5698432,2.4133084,-0.09060159,0.14868009,-0.16842508,0.012127999,0.00732043,-0.09042923,-0.11492168,0.21068975,-9.3661175,0.8717007,47.733456,-0.9572022,-1.6920786,-3.383174,-0.25982735,0.14848681,-0.34839064,26.125,27.0,26.125,29.125,30.1875,30.625
0.19205181,-1.2100967,-0.68091947,-0.89378387,-0.009038387,0.009096478,-0.13010333,-0.38165727,-0.328067,0.06006562,3.0782065,-0.62287474,-0.00019018218,-0.09277599,0.0018698637,0.0012346876,-0.011331834,0.0057349578,0.0006796983,0.4394204,-1.4567719,1.9935421,-2.1067889,-1.5698069,2.41314,-0.09040487,0.14997466,-0.17208038,0.012133594,0.0075397952,-0.090971455,-0.076614454,0.24899697,-9.404425,0.7732232,47.719128,-1.0063925,-1.6362754,-3.3953004,-0.24180898,0.14212108,-0.3597867,26.125,27.0,26.125,29.125,30.1875,30.625
0.19405179,0.2319974,-0.13525347,-1.0864142,-0.02313103,0.027303988,-0.14251176,-0.3818365,-0.32805738,0.060065825,3.0782168,-0.6228777,-0.00019768179,-0.092104204,0.0020902501,-0.0014878586,-0.010020512,0.0005220414,-0.0021583682,0.43925223,-1.4564703,1.9931959,-2.1067417,-1.5698189,2.4129727,-0.09086114,0.15496829,-0.17132878,0.011658921,0.008570105,-0.08859009,0.0,0.2681506,-9.634268,0.8224646,47.709274,-1.0132495,-1.7699893,-3.4977102,-0.25186294,0.15765257,-0.43643832,26.125,27.0,26.125,29.125,30.1875,30.625
0.19605166,-0.4616601,-0.590066,-1.3102783,-0.024629643,-0.0011048255,-0.1338786,-0.38202676,-0.3280485,0.060071163,3.078171,-0.6228307,-0.00018384978,-0.093588464,0.0020980297,-0.00060118065,-0.010362501,0.0026715621,-0.0015798509,0.4390358,-1.4561831,1.9928592,-2.1067173,-1.5697707,2.4127328,-0.09171546,0.15528876,-0.17376392,0.011692075,0.007965083,-0.09002093,0.038307227,0.28730422,-9.557653,0.8179876,47.684196,-1.0163696,-1.6069343,-3.447677,-0.22585274,0.14935398,-0.47484362,26.125,27.0,26.125,29.125,30.1875,30.625
0.19805257,-0.32655147,-1.043708,-1.6538646,-0.032332573,0.0005578421,-0.1358127,-0.38220882,-0.32802236,0.060053274,3.0782084,-0.62289387,-0.00014380968,-0.09469123,0.0027006597,-0.0011329637,-0.009385692,0.001840328,-7.1906994e-05,0.43884325,-1.4558469,1.9925131,-2.1066573,-1.5697955,2.4125752,-0.09339456,0.15781613,-0.17549032,0.012062323,0.007430079,-0.09320677,0.095768064,0.30645782,-9.691729,0.8403672,47.716442,-0.9879677,-1.7121953,-3.4081903,-0.22751376,0.17747939,-0.50152045,26.125,27.0,26.125,29.125,30.1875,30.625
0.2000524,-0.30411386,-1.3451267,-1.5589967,-0.040544324,0.0027841202,-0.12986416,-0.38238177,-0.32802698,0.06004808,3.0781765,-0.62286353,-0.0001244959,-0.09556983,0.0026943965,-0.0019351101,-0.008913754,0.00033347722,0.0068681394,0.43867508,-1.455546,1.9921879,-2.1066453,-1.5697588,2.4123924,-0.09424655,0.16130573,-0.1776289,0.012286009,0.007646133,-0.100997284,0.05746084,0.36391866,-9.787497,0.8537928,47.70211,-0.97967464,-1.8442473,-3.4581208,-0.2321227,0.18926632,-0.44633,26.125,27.0,26.125,29.125,30.1875,30.625
0.20205224,-0.66893685,-1.3826513,-1.4250151,-0.051233415,0.0055313325,-0.13593501,-0.38262713,-0.32802275,0.060072754,3.0781455,-0.6227774,-0.00025324392,-0.09575949,0.0022513473,-0.0028927985,-0.009495442,-0.0021313818,0.011102406,0.43845898,-1.4552099,1.9917578,-2.1066453,-1.5697702,2.4121268,-0.0945732,0.16443472,-0.17902322,0.012534507,0.009230698,-0.10555749,0.095768064,0.3256114,-9.749189,0.8090337,47.711063,-0.9983859,-1.9487102,-3.4644434,-0.22562319,0.1713831,-0.4250882,26.125,27.0,26.125,29.125,30.1875,30.625
0.20405215,-0.501396,-1.7141529,-1.3897222,-0.048171334,0.022677526,-0.13517016,-0.38280565,-0.32801896,0.060073867,3.0781388,-0.622713,-0.00022876743,-0.09726061,0.0019601388,-0.0023664234,-0.01011427,-0.00058819866,0.02089164,0.43827876,-1.4549098,1.9914106,-2.1065972,-1.5697459,2.4119074,-0.095229894,0.16585794,-0.18178734,0.01222843,0.009137814,-0.1160016,0.22984336,0.38307226,-9.710882,0.87393653,47.705692,-1.0002089,-1.904605,-3.4407315,-0.22250646,0.18398896,-0.34726512,26.125,27.0,26.0625,29.125,30.1875,30.625
0.20605241,-0.7155995,-1.1695385,-1.2991629,-0.036548886,0.01400165,-0.13000911,-0.3829997,-0.32802808,0.06005353,3.0781033,-0.6226094,-0.00018865171,-0.09848166,0.0030940855,-0.0026852628,-0.009423553,-0.0013083578,0.021936454,0.4380858,-1.4545499,1.9910625,-2.1066215,-1.5696868,2.4116545,-0.0981356,0.16734463,-0.18290305,0.012815891,0.008821981,-0.11995121,0.11492168,0.38307226,-9.634268,0.8537928,47.699425,-1.0225886,-2.0235817,-3.4584477,-0.22652867,0.17739484,-0.2976548,26.125,27.0,26.0625,29.125,30.1875,30.625
0.20805192,-0.5944214,-0.9746601,-1.244178,-0.026114166,0.006869946,-0.1305393,-0.38320267,-0.32803437,0.06007124,3.0780976,-0.6224878,-0.0002488358,-0.09905512,0.0010870129,-0.001812042,-0.011214546,0.0012951556,0.02961091,0.43791896,-1.4542382,1.9906672,-2.1065862,-1.5696863,2.4114127,-0.095189884,0.16827752,-0.18570334,0.011569792,0.00934128,-0.12467792,-0.038307227,0.4405331,-9.634268,0.842603,47.694946,-1.1468012,-1.8445413,-3.348535,-0.19770378,0.17265402,-0.23641428,26.125,27.0,26.0625,29.125,30.1875,30.625
0.21005169,-0.69081855,-0.6165971,-0.98870236,-0.028249176,0.010131982,-0.14062822,-0.3834012,-0.32802847,0.06008555,3.0780787,-0.6223887,-0.0002965417,-0.10088656,0.001884635,-0.0019249113,-0.011196357,0.0013504623,0.027822109,0.43772593,-1.4539493,1.9903077,-2.1065624,-1.5696744,2.4111605,-0.09818879,0.17043205,-0.18788664,0.011560788,0.009304693,-0.1258861,-0.095768064,0.4213795,-9.3661175,0.8940802,47.72808,-1.1599125,-2.0824533,-3.3560112,-0.19058618,0.18695197,-0.18751565,26.125,27.0,26.0625,29.125,30.1875,30.625
0.21205238,-0.73120564,-1.0159996,-1.1730163,-0.015241245,0.01711927,-0.1302764,-0.38359392,-0.32803136,0.060082145,3.07806,-0.6223087,-0.00020950242,-0.10108125,0.0011960221,-0.002270227,-0.011094517,0.0007621413,0.027774138,0.43752226,-1.453602,1.9899124,-2.1064904,-1.5696143,2.4109094,-0.09711359,0.17257683,-0.18956794,0.0116813565,0.009455554,-0.12476212,-0.15322891,0.38307226,-9.461885,0.9164598,47.695843,-1.1044484,-1.7865899,-3.4314604,-0.18014984,0.20047283,-0.1816433,26.125,27.0,26.0625,29.125,30.1875,30.625
0.21405216,-0.7607389,-0.9549171,-1.0432267,-0.020695949,0.031397592,-0.1353009,-0.38378918,-0.32802644,0.060066123,3.0780704,-0.62221766,-0.00022330951,-0.10169397,0.0011278479,-0.0018061664,-0.012583202,0.0009696042,0.022777654,0.43734172,-1.4532545,1.9895648,-2.1065018,-1.5696138,2.410671,-0.098297,0.17241706,-0.19059089,0.012039438,0.01071397,-0.120949365,-0.22984336,0.36391866,-9.500193,0.88289046,47.719128,-1.1824399,-1.8430574,-3.4393842,-0.15208822,0.18557113,-0.21355405,26.125,27.0,26.0625,29.125,30.1875,30.625
0.21605211,-1.8121275,-1.258242,-0.82730854,-0.026363287,0.020220509,-0.123236366,-0.38400242,-0.32803416,0.060076244,3.0780504,-0.62215996,-0.00025465127,-0.102398776,0.0018695162,-0.0020032842,-0.0120455725,2.4206029e-05,0.016137253,0.4371611,-1.4529067,1.9891461,-2.106465,-1.5696014,2.4104571,-0.100165814,0.17346439,-0.19160332,0.013088031,0.0106283175,-0.11617703,-0.22984336,0.30645782,-9.442732,0.8560339,47.691364,-1.1251097,-1.805253,-3.4228218,-0.16298169,0.16670941,-0.2625565,26.125,27.0,26.0625,29.125,30.1875,30.625
0.21805203,-1.6238647,-1.0298551,-0.66925144,-0.024287181,0.03238011,-0.1258755,-0.3842053,-0.3280153,0.060070507,3.0780492,-0.62210304,-0.00021830921,-0.10416263,0.0017820072,-0.0012685545,-0.012374113,0.0019471527,0.012357141,0.436933,-1.4525713,1.9887747,-2.106418,-1.569578,2.410194,-0.10112194,0.17472626,-0.19474724,0.013093195,0.010102867,-0.11335102,-0.34476504,0.24899697,-9.32781,0.84484416,47.711063,-1.2024438,-1.7359211,-3.4625592,-0.15706429,0.18449964,-0.3172807,26.125,27.0,26.0625,29.125,30.1875,30.625
0.2200519,-1.7322019,-0.7341798,-0.62305117,-0.00139902,0.03596444,-0.12820098,-0.38445127,-0.32802784,0.060101226,3.0779722,-0.6220479,-0.00039870307,-0.10526093,0.0008357881,0.00062301743,-0.014786478,0.005039707,0.012490199,0.43674108,-1.452248,1.988355,-2.106465,-1.5695776,2.4099777,-0.10083601,0.17317067,-0.1975048,0.013582456,0.010993339,-0.113196045,-0.28730422,0.19153613,-9.251195,0.8023209,47.688675,-1.1629047,-1.6172285,-3.480093,-0.15139721,0.19121248,-0.34039783,26.125,27.0,26.0625,29.125,30.1875,30.625
0.2220517,-1.23008,0.6080517,-0.40397587,0.0029479468,0.042780075,-0.13551965,-0.38463268,-0.3280376,0.06006564,3.0779843,-0.62195486,-0.00025235448,-0.10689025,0.0011743081,0.00081697793,-0.014884983,0.0061422167,0.010846498,0.4365607,-1.4518403,1.9879712,-2.106418,-1.5695175,2.4097378,-0.102562696,0.17472805,-0.19965278,0.013142687,0.010604748,-0.11327821,-0.36391866,0.076614454,-9.32781,0.8537928,47.698532,-1.2607436,-1.6005251,-3.4635,-0.14212857,0.17593133,-0.37171522,26.125,27.0,26.0625,29.125,30.1875,30.625
0.22405256,-1.2978204,0.89873916,-0.30260637,0.0321324,0.03693065,-0.13272393,-0.38485447,-0.32802075,0.06007119,3.0779507,-0.6219494,-0.0002602543,-0.10845902,0.0010838222,0.0011679962,-0.01570008,0.0069405707,0.00865949,0.43632004,-1.4515043,1.9875759,-2.1063826,-1.5694937,2.4094982,-0.10394724,0.17646003,-0.20244022,0.01313323,0.011004859,-0.11247398,-0.49799395,0.038307227,-9.155427,0.9164598,47.678825,-1.0607424,-1.5038407,-3.4017344,-0.10876718,0.17108193,-0.4012233,26.125,27.0,26.0625,29.125,30.1875,30.625
0.22605255,-1.1177213,0.94946045,-0.50271565,0.049117822,0.041876063,-0.13294317,-0.38509163,-0.3280176,0.060088504,3.0779076,-0.62199914,-0.00035917683,-0.110383,0.0013532505,0.0018128813,-0.016210407,0.008331034,0.0070281955,0.4361153,-1.4511564,1.9871453,-2.1063697,-1.5695056,2.4093304,-0.10596259,0.17775181,-0.20547555,0.01340279,0.01088505,-0.11285553,-0.45968673,-0.05746084,-9.059659,0.9254084,47.71465,-1.1315737,-1.5787991,-3.3510299,-0.111232355,0.17253946,-0.41075355,26.125,27.0,26.0625,29.125,30.1875,30.625
0.22805221,-1.0727873,1.2193308,-0.43761912,0.050375775,0.04596355,-0.1326589,-0.38529447,-0.32803258,0.060077377,3.0778418,-0.6219059,-0.0003131988,-0.1123773,0.0014228523,0.002904031,-0.01664316,0.010324339,0.009850596,0.43591088,-1.4507967,1.9867724,-2.1063821,-1.5694221,2.4090762,-0.10745463,0.17863922,-0.20922625,0.014294712,0.010440125,-0.117167674,-0.51714754,-0.17238252,-9.174581,0.87393653,47.694054,-1.0962994,-1.4876822,-3.328517,-0.102918446,0.1651997,-0.43274182,26.125,27.0,26.0625,29.125,30.1875,30.625
0.23005176,-1.1151638,1.0395803,-0.79375166,0.041437376,0.05584697,-0.13946794,-0.38552377,-0.3280107,0.060104594,3.0778217,-0.6219005,-0.00035482837,-0.11253977,0.0020409396,0.001695832,-0.015409694,0.0071839252,0.0137375295,0.4356704,-1.4504844,1.9863423,-2.1062977,-1.5694216,2.4088352,-0.108805165,0.18155515,-0.21006654,0.015594504,0.010662003,-0.12240441,-0.38307226,-0.17238252,-9.289503,0.9030289,47.672558,-1.0292114,-1.5306574,-3.3799806,-0.10279391,0.18773684,-0.3837462,26.125,27.0,26.0625,29.125,30.1875,30.625
0.23205253,-1.1918068,0.6574058,-0.6669473,0.026220435,0.06305841,-0.14579242,-0.38572723,-0.32800198,0.06008016,3.0778632,-0.6218088,-0.0003069813,-0.113597736,0.0033852612,0.00052276434,-0.013460222,0.0046030097,0.018394133,0.4354775,-1.4500877,1.985947,-2.106261,-1.5694221,2.40858,-0.11169758,0.18494748,-0.21152557,0.016836725,0.009988846,-0.1299527,-0.40222588,-0.15322891,-9.346964,1.0395473,47.66987,-0.99369574,-1.5989008,-3.348557,-0.101169065,0.18230593,-0.32186735,26.125,27.0,26.0625,29.125,30.1875,30.625
0.2340523,-1.8646588,0.09808539,-0.9217603,0.01670114,0.058732286,-0.12763833,-0.38595957,-0.32800034,0.060078666,3.0778406,-0.6217061,-0.00030249805,-0.11490656,0.0038532412,8.652967e-05,-0.011869114,0.0036120864,0.02328538,0.43524906,-1.4497027,1.985515,-2.1062367,-1.5693868,2.4082906,-0.11294011,0.18825682,-0.21460214,0.018191222,0.008972272,-0.13608415,-0.49799395,0.019153614,-9.346964,0.8985519,47.674347,-0.907924,-1.8587005,-3.2593663,-0.108320944,0.19176143,-0.24853685,26.125,27.0,26.0625,29.125,30.1875,30.625
0.23605226,-1.639563,-0.07887232,-0.82213587,-0.0024892245,0.08015184,-0.13613121,-0.38620257,-0.32799557,0.06009551,3.0778325,-0.62158567,-0.00033498768,-0.11593769,0.0040830034,-0.000100457524,-0.011361945,0.0024682,0.027174773,0.4350206,-1.4493308,1.9850472,-2.1061761,-1.569374,2.4079883,-0.1141919,0.1907177,-0.21734223,0.019731427,0.009004539,-0.14122367,-0.7278373,0.11492168,-9.346964,0.90527004,47.67793,-0.940042,-1.8372827,-3.1906056,-0.11143261,0.18368201,-0.13985243,26.125,27.0,26.0625,29.125,30.1875,30.625
0.23805232,-2.2352269,-0.5100958,-0.98411536,-0.011786521,0.07023628,-0.1279337,-0.3864247,-0.32796344,0.060086686,3.0778291,-0.62152684,-0.0002707895,-0.116055235,0.0044460315,-0.0002574952,-0.011140961,0.0013930283,0.02860713,0.4347446,-1.4489716,1.9846524,-2.106116,-1.5693382,2.4076762,-0.1150422,0.19119985,-0.21783666,0.020821495,0.009259342,-0.14350672,-0.6703765,0.21068975,-9.32781,0.8717007,47.686886,-0.8960832,-1.7139595,-3.3175793,-0.13008144,0.20060527,-0.12629274,26.125,27.0,26.0625,29.125,30.1875,30.625
0.24005255,-2.3010643,-1.2176284,-1.0971476,-0.008351744,0.062359747,-0.123156115,-0.3866246,-0.32795963,0.060069066,3.0778832,-0.6214058,-0.00020878547,-0.11553821,0.0049775103,-0.0012744986,-0.009685346,-0.0003058589,0.024045024,0.4345645,-1.4485762,1.9842342,-2.106044,-1.5693387,2.407414,-0.11509843,0.19223225,-0.2167448,0.020849543,0.0086458465,-0.13900165,-0.6703765,0.22984336,-9.500193,0.87393653,47.68062,-0.87356734,-1.6153411,-3.485735,-0.12973532,0.21812637,-0.12502277,26.125,27.0,26.0625,29.125,30.1875,30.625
0.24205238,-2.316972,-1.4613583,-0.9479935,-0.024902215,0.06321905,-0.11898861,-0.38686267,-0.3279587,0.060078755,3.0778527,-0.621363,-0.0002576587,-0.11642283,0.0045173536,-0.00096414116,-0.010250358,0.0008977095,0.019974634,0.43434864,-1.4482048,1.9837912,-2.1060202,-1.5693268,2.4071755,-0.114925236,0.1932934,-0.21858203,0.020294528,0.008649401,-0.13475649,-0.7469909,0.2681506,-9.481039,0.8224646,47.701214,-0.9631525,-1.6076539,-3.542915,-0.14159699,0.23263949,-0.16120578,26.125,27.0,26.0625,29.125,30.1875,30.625
0.24405232,-1.9951018,-1.2838589,-0.7827979,-0.03670235,0.061193135,-0.1269579,-0.38711268,-0.32792664,0.060064968,3.077856,-0.6213463,-0.00025602328,-0.1164469,0.004181617,-0.0016946534,-0.0100575,-5.125473e-05,0.015906183,0.43407285,-1.4477967,1.9833611,-2.1059968,-1.5693268,2.4068892,-0.114370316,0.19532387,-0.21913533,0.01975551,0.008867201,-0.13013262,-0.63206923,0.2873042,-9.346964,0.85826975,47.70032,-0.9951174,-1.6726768,-3.5973182,-0.11469797,0.22765458,-0.2336311,26.125,27.0,26.0625,29.125,30.1875,30.625
0.24605224,-1.2337319,-1.0963244,-1.0016894,-0.0294465,0.055823337,-0.12619208,-0.38735387,-0.32793072,0.060089923,3.0777981,-0.6213199,-0.00032232286,-0.117762364,0.0051130266,-0.0022499557,-0.009856347,-0.00060610013,0.009330736,0.4338557,-1.4474481,1.9829057,-2.1059606,-1.5693024,2.4066632,-0.117175564,0.1973287,-0.22006075,0.019264434,0.008920417,-0.12636101,-0.34476504,0.3256114,-9.442732,0.8627467,47.672558,-0.86516905,-1.6005328,-3.6211047,-0.12102249,0.23763911,-0.2850444,26.125,27.0,26.0625,29.125,30.1875,30.625
0.24805215,-1.1446967,-0.83069867,-0.9931313,-0.032385882,0.03225691,-0.12539215,-0.38758767,-0.32789984,0.060065445,3.077841,-0.6213286,-0.00025786785,-0.11910872,0.0042219767,-0.0018531497,-0.010949379,0.00079760933,0.006215031,0.4336041,-1.4470164,1.9824623,-2.1058896,-1.5693139,2.406412,-0.11684992,0.19940862,-0.22322996,0.018615969,0.009303793,-0.12291826,-0.30645782,0.3256114,-9.404425,0.8784135,47.707485,-1.0451291,-1.6890552,-3.6663556,-0.09636311,0.23970866,-0.35357445,26.125,27.0,26.0625,29.125,30.1875,30.625
0.25005186,-0.34666416,-0.7027973,-0.90013826,-0.03261377,0.019352911,-0.13203967,-0.3878448,-0.32790676,0.06006234,3.077801,-0.621265,-0.00033633658,-0.12090763,0.0041188607,-0.0016304163,-0.011833519,0.0015867943,0.0023586738,0.43338737,-1.4465964,1.9820074,-2.1059253,-1.5693024,2.4061608,-0.11842611,0.20170216,-0.22632048,0.018324457,0.009774576,-0.12063562,-0.22984336,0.34476504,-9.232041,0.8918391,47.72629,-0.87165517,-1.6716032,-3.6043024,-0.09408456,0.2553782,-0.4183116,26.125,27.0,26.0625,29.125,30.1875,30.625
0.25205168,-0.18822093,-0.9105641,-1.1469793,-0.0117911305,0.0005120442,-0.13528305,-0.3881034,-0.32788897,0.06007084,3.0777593,-0.6212773,-0.00038431905,-0.12231208,0.0039372616,-0.0015929218,-0.011912892,0.0021919042,-0.0002101629,0.43312326,-1.446212,1.981552,-2.1059015,-1.56929,2.40591,-0.119075306,0.2041012,-0.22912802,0.01815289,0.009591201,-0.11871369,-0.19153613,0.28730422,-9.308656,0.8403672,47.73077,-0.90668726,-1.7863096,-3.5625021,-0.05509708,0.2639329,-0.48898625,26.125,27.0,26.0625,29.125,30.1875,30.625
0.2540523,-0.56732535,-0.5924913,-0.9716699,-0.0096870195,-0.009312695,-0.12556542,-0.38835815,-0.3278842,0.060065538,3.07772,-0.6212873,-0.00036572214,-0.12321245,0.0037440641,-0.0008148109,-0.012660441,0.0032793356,0.0006116278,0.43287122,-1.4457809,1.9810728,-2.1058652,-1.5692543,2.4056695,-0.11953743,0.2041633,-0.23123154,0.018901315,0.009815544,-0.119996764,0.038307227,0.28730422,-9.308656,0.95897776,47.674347,-0.9971726,-1.7462864,-3.5800505,-0.06939342,0.2733255,-0.51957923,26.125,27.0,26.0625,29.125,30.1875,30.625
0.25605214,-0.07600724,-0.68590605,-0.8327261,-0.009151571,0.009383212,-0.13471383,-0.38861474,-0.3278713,0.060073778,3.0777066,-0.62130255,-0.00044782073,-0.12535658,0.00417569,9.1960464e-05,-0.013850942,0.004305798,0.0024533472,0.43264195,-1.4453857,1.9806055,-2.105841,-1.5692776,2.4054518,-0.122514896,0.20515211,-0.23473868,0.019992031,0.01047481,-0.124813974,0.076614454,0.36391866,-9.289502,0.85826975,47.71286,-0.9399224,-1.6799824,-3.4836545,-0.062933914,0.27231875,-0.54388267,26.125,27.0,26.0625,29.125,30.1875,30.625
0.25805202,-0.2984038,-0.4541295,-0.89715093,-0.008140407,0.0009986013,-0.13390365,-0.38884333,-0.32787225,0.06006619,3.0776553,-0.62128276,-0.00033984683,-0.12618373,0.001714116,0.0011659863,-0.015189586,0.006590995,0.015830688,0.43239155,-1.4449774,1.9801487,-2.105769,-1.5691937,2.4051957,-0.11874888,0.2072638,-0.23969468,0.020225992,0.0107342,-0.13442282,0.15322891,0.30645782,-9.251195,0.8918391,47.696735,-1.1032791,-1.6409929,-3.3291407,-0.0430375,0.27388918,-0.47369072,26.125,27.0,26.0625,29.125,30.1875,30.625
0.26005182,-0.40056473,-0.6641533,-0.84851134,0.0021939017,-0.002721759,-0.12700585,-0.3891099,-0.327874,0.060058583,3.077641,-0.6212176,-0.00033237587,-0.12886338,0.0024999387,0.0025888085,-0.016856711,0.009010107,0.024217129,0.43214998,-1.4445105,1.9796342,-2.1057332,-1.5691699,2.4049156,-0.12273235,0.20716968,-0.2430697,0.020821538,0.01124936,-0.14679126,0.076614454,0.38307226,-9.174581,0.8403672,47.67166,-0.9098254,-1.5588825,-3.1559906,-0.047436655,0.29125684,-0.3703001,26.125,27.0,26.0625,29.125,30.1875,30.625
0.26205257,-0.8731075,-0.90039885,-0.9503277,0.0050271363,-0.014032383,-0.12203023,-0.3893619,-0.3278444,0.06006157,3.0776656,-0.6211411,-0.00034208794,-0.12784459,0.0019860815,0.0020612273,-0.016755113,0.0071530296,0.032847393,0.43188655,-1.4441148,1.9791669,-2.1056607,-1.5691813,2.4046016,-0.121266015,0.20774698,-0.2427906,0.021703074,0.011950073,-0.1539558,0.11492168,0.4213795,-9.270349,0.9254084,47.694946,-1.1411448,-1.6435655,-3.2578926,-0.04949435,0.28657988,-0.2632598,26.125,27.0,26.0625,29.125,30.1875,30.625
0.26405233,-0.22252487,-0.79620117,-1.1159774,-0.020577507,0.0018608205,-0.12793837,-0.38959613,-0.32785082,0.060057953,3.077648,-0.62102115,-0.00027028454,-0.1292447,0.002343105,0.0021557151,-0.016378958,0.00702838,0.035907574,0.4316581,-1.4436952,1.9786876,-2.1055882,-1.5691217,2.4043007,-0.1228375,0.20978723,-0.24562877,0.02279141,0.011663864,-0.15858617,0.1340753,0.4405331,-9.519346,0.82694155,47.66091,-1.099525,-1.5167582,-3.3071802,-0.05580205,0.28096974,-0.19511037,26.125,27.0,26.0625,29.125,30.1875,30.625
0.26605225,-0.4234173,-1.4683468,-1.1475927,-0.03065765,0.004678116,-0.12665223,-0.38986984,-0.32784337,0.060056817,3.0776162,-0.6209748,-0.00029013716,-0.12906255,0.0029344384,-0.00016181986,-0.014533069,0.0020341398,0.035532776,0.43139374,-1.4432505,1.9781855,-2.1055644,-1.5690974,2.4040117,-0.12394011,0.21467568,-0.2461191,0.023708517,0.012086108,-0.15931307,0.076614454,0.36391866,-9.500193,0.8717007,47.687782,-1.0479858,-1.6058635,-3.391666,-0.051453598,0.28490913,-0.16268516,26.125,27.0,26.0625,29.125,30.1875,30.625
0.26805207,-0.6574465,-1.610422,-0.8984223,-0.045219775,0.008343247,-0.1242151,-0.39012355,-0.32784382,0.06006309,3.0776215,-0.620809,-0.0003492546,-0.12895495,0.003606028,-0.002013772,-0.012483402,-0.0014361899,0.026544612,0.43117762,-1.4428414,1.9777063,-2.1055405,-1.5690979,2.4036918,-0.12471581,0.21835646,-0.24619594,0.024106098,0.011673137,-0.15109965,0.038307227,0.38307226,-9.442732,0.8717007,47.66808,-1.0407578,-1.7777523,-3.468585,-0.06293993,0.27687037,-0.20464838,26.125,27.0,26.0625,29.125,30.1875,30.625
0.27005178,-0.7040544,-1.287963,-0.8989398,-0.03565765,0.016296493,-0.12581635,-0.3903746,-0.32781914,0.060024433,3.0776587,-0.6207428,-0.00023297306,-0.1294817,0.0038737687,-0.0026009006,-0.012674235,-0.0025235035,0.019681545,0.4309013,-1.4423498,1.9772285,-2.1054804,-1.5690736,2.4033697,-0.12595093,0.22008036,-0.24685858,0.023949534,0.012281564,-0.14547223,0.0,0.24899697,-9.404425,0.84708,47.66808,-1.0171839,-1.7763529,-3.5773363,-0.06723421,0.31653252,-0.26592782,26.125,27.0,26.0625,29.125,30.1875,30.625
0.27205253,-0.5428054,-0.6262855,-0.8408232,-0.013869152,0.016085844,-0.12694435,-0.3906608,-0.32784104,0.060064595,3.07756,-0.62068653,-0.00036562973,-0.13131942,0.0034725762,-0.0022710664,-0.013908464,-0.0016479229,0.015648734,0.43067297,-1.4419537,1.9766887,-2.1054685,-1.5690368,2.403119,-0.1271686,0.2225671,-0.25043955,0.023734145,0.013045199,-0.14265335,0.019153614,0.24899697,-9.3661175,0.9030289,47.68599,-0.9589981,-1.8441744,-3.5279007,-0.06465485,0.29755098,-0.3278998,26.125,27.0,26.0625,29.125,30.1875,30.625
0.2740522,-0.24074285,-0.0663729,-0.9458644,0.0050526797,0.015215967,-0.1342043,-0.39090875,-0.32782292,0.06003813,3.077585,-0.62065345,-0.0002933134,-0.13222213,0.003691872,-0.0024442633,-0.0147340745,-0.0022921283,0.013824385,0.43041998,-1.4414862,1.97621,-2.105409,-1.5690249,2.4028425,-0.12890068,0.22401564,-0.25180945,0.02389784,0.014055746,-0.14256111,-0.095768064,0.21068975,-9.442732,0.9164598,47.66091,-0.9458705,-1.7855995,-3.6221805,-0.056355365,0.29280135,-0.34825325,26.125,27.0,26.0625,29.125,30.1875,30.625
0.27605218,-0.42291707,-0.22721183,-0.7211012,0.016382884,0.017264832,-0.13155751,-0.39115357,-0.32781035,0.060015805,3.0775669,-0.62061185,-0.00021818644,-0.13406463,0.0033217333,-0.0013514435,-0.01632031,-0.00014343989,0.012240372,0.4301559,-1.4410429,1.9757541,-2.1053727,-1.5689763,2.402555,-0.13002913,0.2247517,-0.25525272,0.023998793,0.014591305,-0.14210422,-0.17238252,0.24899697,-9.232041,0.8851263,47.67166,-0.9234181,-1.7432948,-3.6431148,-0.04647737,0.2825396,-0.36858934,26.125,27.0,26.0625,29.125,30.1875,30.625
0.2780519,-0.87180895,-0.12467531,-0.48633397,0.0071254764,0.017690564,-0.12807721,-0.39143473,-0.3278209,0.060027465,3.0775237,-0.62048656,-0.00023251602,-0.13572721,0.0028312118,9.232373e-05,-0.017635651,0.002171437,0.013109598,0.4299041,-1.4405874,1.9752039,-2.1053245,-1.5689281,2.4022307,-0.13057321,0.22493377,-0.2590842,0.025007945,0.014826405,-0.14351527,-0.34476504,0.2681506,-9.136273,0.87617236,47.685097,-1.02302,-1.7239622,-3.4757178,-0.04092614,0.30127573,-0.38374475,26.125,27.0,26.0625,29.125,30.1875,30.625
0.28005204,-0.7705618,-0.102040745,-0.82803416,0.0036195556,0.037126135,-0.13606495,-0.3916522,-0.32778692,0.059977822,3.0776136,-0.6204446,-9.1295056e-05,-0.13637474,0.0020597856,0.00031840088,-0.01748787,0.0017598096,0.018571047,0.4296641,-1.4401196,1.9747714,-2.1052396,-1.56894,2.4019535,-0.12962066,0.22717054,-0.26262158,0.026753629,0.014850562,-0.14802432,-0.57460845,0.24899697,-9.212888,0.8717007,47.66987,-0.92874444,-1.6953757,-3.4502935,-0.050634317,0.28630373,-0.35752797,26.125,27.0,26.0625,29.125,30.1875,30.625
0.2820519,-1.9380767,-0.74040246,-0.93484783,-0.004020816,0.051747903,-0.12480377,-0.39194897,-0.32779253,0.060001366,3.0775378,-0.6203866,-8.361193e-05,-0.1378149,0.002942739,0.00045873408,-0.01742082,0.00087049266,0.023470948,0.42937502,-1.4396638,1.9741849,-2.1051552,-1.5688685,2.401638,-0.13255234,0.22868727,-0.26518366,0.028662767,0.015178225,-0.15585437,-0.5554548,0.24899697,-9.3661175,0.9388393,47.672558,-1.024451,-1.6878281,-3.491571,-0.07337189,0.28861725,-0.28952485,26.125,27.0,26.0625,29.125,30.1875,30.625
0.2840517,-2.3256404,-0.9787461,-0.83466554,-0.020977488,0.083686054,-0.12534934,-0.39220417,-0.32778478,0.059965257,3.0775647,-0.62026966,5.339748e-05,-0.13711235,0.0019853213,0.0002761902,-0.016847067,-0.0003330919,0.035548955,0.42911217,-1.4391484,1.9736704,-2.1050832,-1.5688204,2.401299,-0.13006519,0.22990803,-0.26661527,0.030235412,0.015160265,-0.16544601,-0.59376204,0.24899697,-9.308656,0.947788,47.67793,-1.1370549,-1.734395,-3.4020224,-0.0996979,0.27313635,-0.18767789,26.125,27.0,26.0625,29.125,30.1875,30.625
0.28605255,-2.5729167,-1.2616007,-0.63821054,-0.020586276,0.10167919,-0.13146804,-0.39248157,-0.3277796,0.059979383,3.077556,-0.6201908,3.452975e-05,-0.13848175,0.002305825,0.0010000007,-0.017712718,0.00036192074,0.036676962,0.4288593,-1.4387051,1.9731191,-2.1049988,-1.5688084,2.4009984,-0.13202694,0.23025127,-0.26899227,0.031286806,0.015665222,-0.16853468,-0.7661445,0.30645782,-9.32781,0.9030289,47.655537,-1.0828191,-1.6627398,-3.3068717,-0.13018793,0.28581095,-0.11555098,26.125,27.0,26.0625,29.125,30.1875,30.625
0.28805238,-3.3247635,-1.1115879,-0.8983208,-0.011051125,0.09320193,-0.11222924,-0.3927545,-0.32776836,0.059977204,3.077539,-0.6200526,3.7989754e-05,-0.13904689,0.0022418879,0.0016825151,-0.017733878,0.0008442046,0.03693606,0.42858338,-1.4382619,1.9726161,-2.1049626,-1.5687722,2.4006386,-0.13214764,0.2302537,-0.2710137,0.032870345,0.015489821,-0.1689136,-0.80445176,0.22984336,-9.423578,0.92764956,47.652847,-1.1316092,-1.5463467,-3.4819639,-0.15926573,0.2881167,-0.06374857,26.125,27.0,26.0625,29.125,30.1875,30.625
0.2900524,-2.3424006,-0.32769224,-0.9486873,0.00030484755,0.10158881,-0.12220433,-0.39301842,-0.327776,0.05995015,3.077558,-0.6199068,0.0001453844,-0.1396481,0.003417113,0.00012353844,-0.016693063,-0.0018751759,0.029996516,0.42834255,-1.4377338,1.9720658,-2.1048906,-1.5687245,2.4003046,-0.13481392,0.23329382,-0.27095383,0.03267985,0.01566044,-0.16464092,-0.80445176,0.1340753,-9.461885,0.88960326,47.678825,-0.8921087,-1.5665361,-3.4525828,-0.18061346,0.27303132,-0.08267386,26.125,27.0,26.0625,29.125,30.1875,30.625
0.2920524,-1.6758248,0.051947843,-0.7975261,0.008045376,0.09495836,-0.13093665,-0.393341,-0.32776076,0.059975047,3.0775223,-0.6198662,5.4105065e-05,-0.1412598,0.0046592904,-0.0012306722,-0.015728908,-0.002817608,0.019486021,0.42804155,-1.4372658,1.9714674,-2.104832,-1.5687245,2.3999832,-0.13799758,0.23692828,-0.27168757,0.03102989,0.015172884,-0.15731178,-0.6512229,0.05746084,-9.404425,0.8672237,47.687782,-1.0220158,-1.6226742,-3.6080785,-0.16602334,0.26914328,-0.1518135,26.125,27.0,26.0625,29.125,30.1875,30.625
0.29405218,-0.9354539,0.55564874,-0.68843377,0.0067963786,0.08947405,-0.13365291,-0.39361364,-0.32776225,0.059956893,3.077511,-0.6198093,0.0001050454,-0.14190336,0.003656242,-0.0012494822,-0.016170338,-0.0017158836,0.014735776,0.42779,-1.4367619,1.970929,-2.1047838,-1.5686883,2.3996978,-0.13652691,0.23888128,-0.27370775,0.029909737,0.015101301,-0.15108968,-0.7278373,-0.019153614,-9.346964,0.90527004,47.666286,-1.0332887,-1.6929586,-3.5718818,-0.16204758,0.28402758,-0.22488678,26.125,27.0,26.0625,29.125,30.1875,30.625
0.29605234,-1.0453515,0.8815707,-0.7841813,0.015689638,0.059669375,-0.13124338,-0.39389583,-0.32774556,0.0599391,3.0774732,-0.61984247,0.00016663976,-0.14276074,0.003836459,-0.0011411475,-0.014922166,-0.0014854895,0.009527101,0.42749003,-1.4362699,1.9704031,-2.1047356,-1.5686411,2.3994236,-0.13663319,0.24042693,-0.2760747,0.031045372,0.013860254,-0.14598627,-0.5363012,-0.05746084,-9.442732,0.95897776,47.647476,-1.0072877,-1.8134258,-3.6651726,-0.17897382,0.29437226,-0.34556973,26.125,27.0,26.0625,29.125,30.1875,30.625
0.2980522,-0.6292472,0.5703529,-0.85717493,0.034086835,0.05315362,-0.120272994,-0.39420426,-0.3277387,0.059946295,3.0774174,-0.6198343,0.00011181724,-0.14427203,0.004036367,-0.0017990058,-0.014476484,-0.0023558175,0.003013731,0.4272014,-1.4357895,1.9698385,-2.1047122,-1.5686167,2.3991373,-0.13810337,0.2442466,-0.2790209,0.031146722,0.013812585,-0.14094035,-0.36391866,-0.05746084,-9.461885,0.8537928,47.675243,-1.0079724,-1.8621136,-3.5257587,-0.1795235,0.29699418,-0.40200186,26.125,27.0,26.0625,29.125,30.1875,30.625
0.30005202,-0.12714256,1.1274152,-0.83710235,0.02317543,0.0522633,-0.13036606,-0.39448774,-0.3277292,0.05993916,3.0774255,-0.6198158,0.00015357998,-0.14581645,0.003635809,-0.0010415906,-0.0145155275,-0.0005293763,0.0021256295,0.42693752,-1.4352857,1.9692634,-2.1046164,-1.5686053,2.3988612,-0.13805893,0.24573903,-0.2826669,0.031627905,0.01308134,-0.14000626,-0.19153613,-0.019153614,-9.346964,0.82694155,47.69763,-1.0313634,-2.0163574,-3.409863,-0.18524504,0.30726534,-0.47604573,26.125,27.0,26.0625,29.125,30.1875,30.625
0.3020519,-0.21920715,0.7771222,-1.0085828,0.019339738,0.037252866,-0.13642593,-0.3947779,-0.32769686,0.05990549,3.0774586,-0.6197819,0.00024544372,-0.14622937,0.0040690564,-0.0009591783,-0.01419055,-0.0018124705,0.005995739,0.42662543,-1.4347467,1.9687141,-2.104543,-1.5685924,2.398524,-0.13921545,0.24647605,-0.2843288,0.03387063,0.013317082,-0.14503357,-0.17238252,0.11492168,-9.3661175,0.8717007,47.701214,-1.0622336,-1.8606203,-3.3960996,-0.20943367,0.30903158,-0.4846487,26.125,27.0,26.0625,29.125,30.1875,30.625
0.30405167,-0.37956315,-0.032197457,-0.9113142,0.008090169,0.025212646,-0.13806747,-0.39508393,-0.32768434,0.059903387,3.0774322,-0.61978865,0.0002251396,-0.1468411,0.0037716087,-0.0012032322,-0.013546634,-0.0030456157,0.01641346,0.42633766,-1.4342426,1.9681376,-2.1044948,-1.568581,2.3982441,-0.13900277,0.2491636,-0.28732485,0.035594616,0.013255884,-0.15523696,-0.076614454,0.15322891,-9.442732,0.8560339,47.696735,-1.0673329,-1.9934988,-3.5656664,-0.239892,0.3139889,-0.42647016,26.125,27.0,26.0625,29.125,30.1875,30.625
0.30605257,-0.54301023,-0.89365286,-1.2647563,-0.0155695435,0.008685322,-0.12079485,-0.39537966,-0.32767546,0.05990483,3.0774298,-0.61968637,0.00027501505,-0.14764816,0.0036764874,-0.0014255358,-0.013990433,-0.0029813654,0.02726855,0.42604923,-1.4337388,1.9675397,-2.1043875,-1.5685447,2.3978925,-0.13961825,0.25083685,-0.28871718,0.035103496,0.01364243,-0.166707,0.019153614,0.2681506,-9.5385,0.8985519,47.705692,-1.0927275,-1.98231,-3.4579868,-0.2551327,0.3367783,-0.3328622,26.125,27.0,26.0625,29.125,30.1875,30.625
0.30805248,-0.1115115,-1.2696041,-1.070559,-0.05155111,0.019359635,-0.12496287,-0.39567617,-0.32766485,0.05990397,3.077432,-0.6196235,0.00028610756,-0.14894685,0.0036579357,-0.00043028555,-0.014860155,-0.00039624766,0.035180844,0.4257732,-1.4332361,1.9669532,-2.1043036,-1.5685328,2.3975773,-0.14035727,0.25036228,-0.29046735,0.03463947,0.01337355,-0.17535762,0.038307227,0.2681506,-9.500193,0.8560339,47.677036,-1.1692727,-1.920439,-3.4737082,-0.26207656,0.3319013,-0.22711429,26.125,27.0,26.0625,29.125,30.1875,30.625
0.31005237,-0.7464595,-1.8461561,-1.2261801,-0.058071334,0.0023938373,-0.116735,-0.39596835,-0.32765844,0.059913136,3.0774455,-0.61939436,0.0002502354,-0.1497383,0.0034210398,0.00038849632,-0.015256036,0.00055810914,0.03933664,0.42550877,-1.4327692,1.9663895,-2.1042435,-1.5685209,2.3971684,-0.1404348,0.25047356,-0.29286408,0.035906978,0.0133512765,-0.17958975,0.038307227,0.24899697,-9.557653,0.8784135,47.651955,-1.0948576,-1.8661542,-3.4803433,-0.28700608,0.3441655,-0.16224097,26.125,27.0,26.0625,29.125,30.1875,30.625
0.31205225,-0.05599212,-1.3706893,-1.2095509,-0.050495658,0.005368821,-0.12766497,-0.39628786,-0.32762453,0.05989663,3.0774517,-0.6194206,0.00030997983,-0.1516631,0.0050867484,2.777587e-05,-0.015290465,-0.0003352999,0.029629221,0.42517096,-1.4322175,1.9657801,-2.1041477,-1.5685085,2.3968465,-0.14519234,0.25232735,-0.2943764,0.03636049,0.013738084,-0.17463976,-0.038307227,0.32561144,-9.481039,0.9410752,47.68062,-0.9299393,-1.8695884,-3.5327845,-0.32966954,0.34974858,-0.16691115,26.125,27.0,26.0625,29.125,30.1875,30.625
0.3140522,-0.6715694,-1.1365879,-1.252174,-0.04154289,-0.0040384084,-0.118606746,-0.3965808,-0.32762316,0.05989027,3.0774539,-0.61930877,0.0003328353,-0.1517397,0.004411145,-7.5310486e-06,-0.016121551,0.00016671862,0.023225402,0.42490792,-1.4317021,1.9651941,-2.1040761,-1.5684847,2.3965137,-0.14423124,0.25293797,-0.29490772,0.03547178,0.014277235,-0.16727468,-0.019153614,0.4213795,-9.5385,0.91198283,47.679718,-1.0098883,-1.7471914,-3.56994,-0.322766,0.35772443,-0.22873902,26.125,27.0,26.0625,29.125,30.1875,30.625
0.31605217,0.13149813,-0.7069234,-1.0176575,-0.04574825,0.029187702,-0.13666898,-0.3968887,-0.32762307,0.05988276,3.0774174,-0.61928546,0.00037744336,-0.15259907,0.0049805194,-0.001248497,-0.01693574,-0.0019782113,0.016462855,0.42461878,-1.4311625,1.9645828,-2.1040046,-1.568436,2.396215,-0.14689945,0.25588813,-0.2953416,0.034572367,0.015896505,-0.1631801,0.019153614,0.4213795,-9.557653,0.9097417,47.650166,-0.9111513,-1.7423033,-3.6069598,-0.3422777,0.35314775,-0.30388165,26.125,27.0,26.0625,29.125,30.1875,30.625
0.31805184,-0.08433068,-0.83227783,-1.1674645,-0.030844422,0.034073498,-0.12985128,-0.3972192,-0.32762533,0.05991471,3.077356,-0.6191375,0.00024976587,-0.15399936,0.0032586493,1.6791573e-05,-0.019330803,0.00090527267,0.017101817,0.4243313,-1.4306945,1.9639734,-2.1039808,-1.5684117,2.3958433,-0.14541225,0.2569442,-0.29940164,0.0339658,0.0169013,-0.16232799,0.019153614,0.38307226,-9.519346,0.8985519,47.70032,-0.9029603,-1.7982213,-3.6662662,-0.34429228,0.34763646,-0.34781498,26.125,27.0,26.0625,29.125,30.1875,30.625
0.32005194,-0.32390642,-0.330855,-0.9794025,-0.045100655,0.026490754,-0.13808405,-0.39749256,-0.32761154,0.059888437,3.0773642,-0.6191572,0.00037355832,-0.15503602,0.003319544,-0.0003982527,-0.019364037,0.0008459673,0.016855724,0.4240549,-1.4301667,1.9634098,-2.1038735,-1.568376,2.3955784,-0.14627695,0.2592546,-0.30107242,0.0333785,0.016942568,-0.16294676,0.038307227,0.3256114,-9.595961,0.8851263,47.668976,-0.91297466,-1.8490014,-3.6401038,-0.33535463,0.34987015,-0.36212647,26.125,27.0,26.0625,29.125,30.1875,30.625
0.32205194,-0.7216779,-1.3880829,-1.218168,-0.027090158,0.017464051,-0.12510388,-0.39783195,-0.327604,0.05988847,3.077316,-0.6191487,0.00033591912,-0.1570871,0.0036189319,-0.00017202653,-0.020293985,0.0019416853,0.015592092,0.42374238,-1.4296151,1.9627751,-2.1038377,-1.5683511,2.395267,-0.14862628,0.26128802,-0.30390242,0.03280452,0.017344125,-0.16403015,0.05746084,0.38307226,-9.461885,0.9455522,47.67793,-0.989537,-1.845694,-3.5648384,-0.34303814,0.3344859,-0.39426008,26.125,27.0,26.0625,29.125,30.1875,30.625
0.32405168,-0.37996018,-1.1042318,-0.9140951,-0.043133784,0.035808127,-0.1428688,-0.39814717,-0.32759157,0.059883803,3.0772636,-0.61909413,0.000360885,-0.15735334,0.0027404078,-0.0005713396,-0.020101601,0.002227553,0.023761397,0.42341903,-1.4290991,1.9621886,-2.10379,-1.568292,2.3949165,-0.14689478,0.26354188,-0.30549392,0.031992048,0.01706167,-0.17046654,0.019153614,0.4213795,-9.385271,0.8291774,47.658226,-1.0750741,-1.9990144,-3.6105742,-0.34488648,0.3344267,-0.34723386,26.125,27.0,26.0625,29.125,30.1875,30.625
0.3260524,-1.0905052,-1.2762913,-1.0787703,-0.023866698,0.024369854,-0.12972482,-0.39842927,-0.32757103,0.059867833,3.077334,-0.61893046,0.00041203387,-0.15959463,0.0024005142,-0.00031122428,-0.021038672,0.0035468678,0.032517806,0.42315453,-1.428583,1.961614,-2.1036828,-1.5683035,2.3945413,-0.148197,0.26668355,-0.3096683,0.031461764,0.017371755,-0.18052362,0.019153614,0.3256114,-9.385271,0.9097417,47.67166,-1.09234,-1.9801363,-3.6353865,-0.3278086,0.35462916,-0.24124074,26.125,27.0,26.0625,29.125,30.1875,30.625
0.32805222,-0.68637127,-0.6108621,-1.0661151,-0.024916193,0.02627251,-0.13282034,-0.39881033,-0.32758364,0.05989722,3.0772443,-0.6188495,0.0003167533,-0.1610831,0.002428306,-2.2674423e-05,-0.021901455,0.0048440085,0.039772134,0.42283016,-1.4280076,1.9608816,-2.103635,-1.5682553,2.3941782,-0.14947976,0.2679953,-0.311807,0.030785443,0.017655764,-0.18905781,-0.076614454,0.2681506,-9.481039,0.9612189,47.67345,-1.0698032,-2.0484247,-3.475906,-0.32581758,0.3536169,-0.1238843,26.125,27.0,26.0625,29.125,30.1875,30.625
0.33005232,-0.7395631,-0.6960879,-0.7653615,-0.04077569,0.031768467,-0.13452362,-0.39911762,-0.32760635,0.059902083,3.0772173,-0.61859345,0.00031233832,-0.16214193,0.0022818279,0.00084737176,-0.023373447,0.0068356046,0.04151063,0.42257792,-1.4274808,1.9602603,-2.103587,-1.5681952,2.3937697,-0.15028645,0.26746562,-0.31321707,0.03032538,0.018193176,-0.19160181,-0.21068975,0.28730422,-9.442732,0.84484416,47.666286,-0.98088264,-1.9443774,-3.530648,-0.30570635,0.3353032,-0.06937951,26.125,27.0,26.0625,29.125,30.1875,30.625
0.3320521,-1.1730864,-1.0826416,-0.5148497,-0.04303927,0.042904582,-0.13246623,-0.3994291,-0.32760888,0.05989564,3.0771945,-0.61843944,0.00039383685,-0.16358644,0.0020675429,0.0009057405,-0.024463527,0.007446885,0.03532098,0.42227757,-1.4269294,1.9596256,-2.1034915,-1.5681227,2.3933764,-0.15140331,0.26954076,-0.31571996,0.029753203,0.018925121,-0.18652786,-0.34476504,0.24899697,-9.308656,0.9858343,47.658226,-0.97123826,-1.8821349,-3.4712448,-0.28897187,0.3348195,-0.07643224,26.125,27.0,26.0625,29.125,30.1875,30.625
0.33405197,-1.1181558,-0.14027114,-0.7144888,-0.029188575,0.04037014,-0.1333263,-0.39976072,-0.3275858,0.059897732,3.0771594,-0.61841655,0.00034227542,-0.16500834,0.0017225307,0.0025370882,-0.02657391,0.010963661,0.026516115,0.42195347,-1.4264144,1.9590262,-2.1034558,-1.5681108,2.3930428,-0.15208645,0.26800692,-0.31769517,0.029176315,0.019406691,-0.17840463,-0.30645782,0.15322891,-9.404425,1.0126908,47.675243,-0.96502686,-1.7678363,-3.490768,-0.28549564,0.3133999,-0.14328946,26.125,27.0,26.0625,29.125,30.1875,30.625
0.33605185,-0.9766774,-0.039814733,-0.6384114,-0.011204456,0.04772055,-0.1359074,-0.40007913,-0.32759333,0.059898168,3.0771446,-0.6183216,0.0003346709,-0.1663667,0.0020946802,0.0028114126,-0.026421761,0.012289181,0.018455798,0.42168915,-1.4258633,1.958381,-2.1033843,-1.5680875,2.3927214,-0.15328166,0.2689899,-0.31950793,0.028853789,0.018719569,-0.17153832,-0.49799395,0.15322891,-9.500193,0.95226496,47.65643,-1.0761913,-1.6264906,-3.4600568,-0.28904074,0.32399833,-0.2548013,26.125,27.0,26.0625,29.125,30.1875,30.625
0.33805174,-1.5786757,0.09213861,-0.68774676,-0.004043667,0.049003135,-0.1371687,-0.40040988,-0.3276089,0.05990754,3.0770457,-0.61828536,0.0003356557,-0.1666368,0.00057500356,0.0030122926,-0.027453925,0.012978579,0.0133415535,0.42138994,-1.4253235,1.9577335,-2.103336,-1.568003,2.3924124,-0.15098825,0.27068508,-0.32196653,0.028564641,0.019378345,-0.16412826,-0.57460845,0.11492168,-9.3661175,0.98807013,47.66271,-1.105688,-1.684191,-3.49403,-0.2705732,0.33136517,-0.3493787,26.125,27.0,26.0625,29.125,30.1875,30.625
0.34005263,-1.3638178,1.0201354,-0.6431597,0.0017178125,0.05380502,-0.14488038,-0.40078992,-0.32759166,0.05992214,3.0769668,-0.6182905,0.00023698632,-0.16632895,0.0010847995,0.0015332798,-0.026856123,0.010275679,0.008979895,0.4210294,-1.4247601,1.9570526,-2.1033132,-1.5679783,2.3920655,-0.15184352,0.27283987,-0.3211239,0.028278477,0.019956391,-0.1606203,-0.4405331,-0.038307227,-9.404425,0.9388393,47.66808,-1.0139415,-1.5611769,-3.6299865,-0.25201938,0.30171016,-0.42353234,26.125,27.0,26.0625,29.125,30.1875,30.625
0.34205255,-1.5259246,0.75428593,-0.56106967,0.009704421,0.05864903,-0.13394287,-0.40109766,-0.32759607,0.059911404,3.076944,-0.61820906,0.000283652,-0.16790147,0.0012096727,0.001143311,-0.026610414,0.0104663605,0.008629823,0.4207533,-1.4242077,1.9564303,-2.1032407,-1.5679306,2.3917418,-0.15301017,0.275971,-0.32384238,0.027808867,0.01965372,-0.16143543,-0.40222588,-0.076614454,-9.423578,0.94331104,47.71554,-1.2097825,-1.7270828,-3.6589115,-0.2276411,0.29709467,-0.48344898,26.125,27.0,26.0625,29.125,30.1875,30.625
0.3440524,-1.6300601,0.6445699,-0.66198134,0.018256223,0.04825957,-0.1441703,-0.40144685,-0.3276041,0.059934057,3.0768676,-0.6181666,0.00016779981,-0.16998531,0.0004861711,0.0016754547,-0.027660582,0.011897548,0.017953847,0.4204652,-1.4236798,1.9557709,-2.103217,-1.5679063,2.3914373,-0.15349127,0.27895615,-0.32861966,0.027900716,0.020058911,-0.17123587,-0.2873042,-0.095768064,-9.404425,0.93436235,47.678825,-1.183202,-1.8559828,-3.6156874,-0.21133971,0.29464823,-0.45938826,26.125,27.0,26.0625,29.125,30.1875,30.625
0.3460524,-1.2545675,0.9025967,-0.72559303,0.023076668,0.046789393,-0.14077605,-0.4017923,-0.3276123,0.059947524,3.076826,-0.6180358,0.00015201437,-0.17020474,-0.00034454124,0.0005634245,-0.026649388,0.0099357385,0.031401884,0.42016575,-1.4231151,1.9550761,-2.103133,-1.5678586,2.3910618,-0.15192433,0.28331983,-0.33135575,0.028524281,0.019967679,-0.1831146,-0.24899697,-0.11492168,-9.385271,0.93436235,47.66987,-1.310281,-1.9157026,-3.4865694,-0.18670624,0.2926058,-0.35464805,26.125,27.0,26.0625,29.125,30.1875,30.625
0.34805235,-0.8192426,0.83058083,-0.67791414,0.021990994,0.047412984,-0.14961448,-0.40211016,-0.32758722,0.059922967,3.0768108,-0.6179522,0.00021335793,-0.17228785,0.00061366864,0.0013565759,-0.02727295,0.012061116,0.038037002,0.41982856,-1.4225622,1.9544896,-2.1030848,-1.5678109,2.3906746,-0.15501587,0.2834262,-0.3333842,0.028295409,0.019687545,-0.19284102,-0.28730422,-0.095768064,-9.442732,0.91198283,47.683304,-1.1449622,-1.9495552,-3.4415426,-0.17725936,0.2859548,-0.21123473,26.125,27.0,26.0625,29.125,30.1875,30.625
0.3500523,-0.9956019,0.12483039,-0.786667,0.023039805,0.038028266,-0.14102651,-0.4024592,-0.32760495,0.05995837,3.0767474,-0.61776555,9.482709e-05,-0.17426854,0.001245091,0.0014517851,-0.027719116,0.012825523,0.03960675,0.41955164,-1.4220452,1.9538072,-2.1030376,-1.5677747,2.3902895,-0.15769072,0.2853995,-0.33592537,0.028007783,0.01981452,-0.19708203,-0.3256114,0.095768064,-9.481039,0.947788,47.7245,-1.0990118,-1.8963611,-3.4736705,-0.14243172,0.27017218,-0.15682681,26.125,27.0,26.0625,29.125,30.1875,30.625
0.35205212,-1.4014397,-0.15731323,-0.7421064,-0.010266051,0.040814992,-0.13259946,-0.4028012,-0.32761106,0.05994429,3.0767324,-0.6176111,0.0001262231,-0.17437552,0.0006905332,0.0016893024,-0.027509887,0.012901077,0.036400374,0.41925222,-1.4214324,1.9531249,-2.102977,-1.567727,2.389896,-0.15644456,0.28615543,-0.33774552,0.02909178,0.019591039,-0.19262902,-0.4213795,0.2681506,-9.442732,0.8918391,47.72092,-1.2511508,-1.8285997,-3.4874668,-0.10706301,0.2740875,-0.15472913,26.125,27.0,26.0625,29.125,30.1875,30.625
0.35405412,-1.4155908,-0.9365986,-0.87144566,-0.034857303,0.05651997,-0.14372039,-0.40314594,-0.32758787,0.059960045,3.0767305,-0.61755544,9.950713e-05,-0.17296548,0.0013394153,0.0013047203,-0.025828768,0.009931108,0.02981719,0.41892847,-1.4208924,1.9524435,-2.102856,-1.567727,2.389538,-0.15608345,0.28532073,-0.3368098,0.032375548,0.01927056,-0.18568604,-0.5363012,0.3256114,-9.442732,0.91421866,47.66808,-1.2962804,-1.7200557,-3.5798593,-0.12457738,0.27222595,-0.24058032,26.125,27.0,26.0625,29.125,30.1875,30.625
0.3560521,-1.3988328,-1.3896439,-0.9960457,-0.052713733,0.063248925,-0.13709658,-0.40349945,-0.32758772,0.059981324,3.0766568,-0.6174846,0.000106961474,-0.17218262,0.0017443503,5.4964377e-05,-0.024828564,0.005834242,0.02437462,0.418593,-1.4203391,1.9517373,-2.1027482,-1.5676545,2.389168,-0.15648359,0.28728375,-0.3368645,0.034619465,0.020031685,-0.18064278,-0.34476504,0.40222588,-9.595961,1.048496,47.66987,-1.3901699,-1.6609151,-3.7248118,-0.13985723,0.26936415,-0.33068442,26.125,27.0,26.0625,29.125,30.1875,30.625
0.35805187,-1.1190239,-1.4548879,-0.84345925,-0.06673163,0.055633835,-0.1496106,-0.40385547,-0.3275756,0.059968106,3.076658,-0.61741024,7.880097e-05,-0.17448069,0.0020094556,0.0021403648,-0.026527252,0.009841521,0.018828733,0.41828084,-1.4197268,1.9510554,-2.1027,-1.5676545,2.3888097,-0.15859714,0.28579232,-0.34018373,0.035075016,0.019951683,-0.17720914,-0.28730422,0.4405331,-9.615114,0.92093146,47.68062,-1.2902328,-1.5880625,-3.8272593,-0.13742778,0.2704537,-0.38702327,26.125,27.0,26.0625,29.125,30.1875,30.625
0.3600517,-1.3033795,-1.584039,-0.9503275,-0.06159234,0.037806697,-0.13645037,-0.40423614,-0.3275567,0.060008492,3.0765898,-0.61741394,-9.9344885e-05,-0.17623504,0.002515865,0.0029238497,-0.026552962,0.011518565,0.01870224,0.41794488,-1.4192101,1.9503602,-2.1026514,-1.5676669,2.3884852,-0.16033715,0.28644326,-0.3429974,0.035706498,0.019322928,-0.17881954,-0.22984336,0.45968673,-9.615114,0.97464454,47.67793,-1.2397691,-1.4865142,-3.7530906,-0.1264087,0.2799961,-0.3945921,26.125,27.0,26.0625,29.125,30.1875,30.625
0.36205244,-0.63301194,-1.4532044,-1.1218938,-0.03065255,0.027106794,-0.1451043,-0.4045592,-0.32757455,0.059999865,3.0765202,-0.6172808,-1.35660985e-05,-0.17760913,0.0027588957,0.0012083976,-0.025947988,0.008685764,0.021862173,0.41764492,-1.418632,1.9497012,-2.1025798,-1.5675586,2.388111,-0.16210978,0.29228848,-0.34593102,0.03566792,0.019931164,-0.18374959,-0.19153613,0.34476504,-9.634268,0.9365982,47.67793,-1.202215,-1.5169579,-3.6841927,-0.12037052,0.25002852,-0.40079796,26.125,27.0,26.0625,29.125,30.1875,30.625
0.36405236,-0.6509217,-1.052146,-1.2436279,-0.022850543,0.012966897,-0.14850728,-0.4049646,-0.32759476,0.060048923,3.0764074,-0.61711633,-0.00019733106,-0.18005809,0.0013390454,0.0017346813,-0.028312806,0.011448415,0.031984802,0.41732156,-1.4180658,1.9489349,-2.102557,-1.5675105,2.3876998,-0.16200936,0.29579386,-0.35083032,0.033620633,0.021019945,-0.19376452,-0.076614454,0.36391866,-9.672575,0.9634547,47.692257,-1.1696262,-1.7234988,-3.6071348,-0.08190341,0.24836501,-0.3319233,26.125,27.0,26.0625,29.125,30.1875,30.625
0.36605233,-0.19553605,-0.9539209,-0.9781743,-0.029704312,0.016428357,-0.1564048,-0.405309,-0.32755005,0.060024634,3.076458,-0.6170055,-0.00013376547,-0.18254769,0.0016755108,0.0022418518,-0.029490082,0.012574979,0.039537556,0.416961,-1.4174641,1.9482754,-2.1024487,-1.56751,2.387264,-0.16484587,0.29811937,-0.35488218,0.033878166,0.021653935,-0.20415248,-0.095768064,0.34476504,-9.615114,0.92764956,47.66271,-0.9679107,-1.8274486,-3.376282,-0.06975775,0.2322009,-0.20168637,26.125,27.0,26.0625,29.125,30.1875,30.625
0.36805215,-0.504213,-0.97956836,-0.9701966,-0.026070971,0.017843131,-0.14413404,-0.40568042,-0.3275678,0.060041435,3.076403,-0.6168392,-0.00019357694,-0.18287377,0.0022241683,0.0019630343,-0.02883115,0.01091239,0.0411798,0.4166615,-1.4168634,1.947534,-2.1023881,-1.5674618,2.386868,-0.16597126,0.2993412,-0.356267,0.03585323,0.021755649,-0.20691828,-0.24899697,0.47884035,-9.404425,0.87393653,47.687782,-1.1374838,-1.7941658,-3.518102,-0.05929176,0.22883642,-0.13128942,26.125,27.0,26.0625,29.125,30.1875,30.625
0.37005198,-0.6551119,-0.6781614,-0.84827334,-0.029291054,0.02769677,-0.14273228,-0.4060116,-0.32757095,0.06003429,3.0763278,-0.6167501,-0.00013440358,-0.18246572,0.002939694,3.4433197e-05,-0.02750949,0.006391076,0.03501079,0.4163378,-1.4162979,1.9468874,-2.102328,-1.567366,2.3864985,-0.16714844,0.30270684,-0.35617203,0.037070844,0.022377552,-0.20192556,-0.22984336,0.40222588,-9.461885,0.8605109,47.670765,-0.97590005,-1.7790987,-3.5883412,-0.034692954,0.21712682,-0.13793506,26.125,27.0,26.0625,29.125,30.1875,30.625
0.37205172,-0.71260124,-0.8339326,-0.5995303,-0.044978194,0.050141826,-0.15560357,-0.4064147,-0.32753718,0.060045537,3.0763419,-0.6166412,-0.00021379939,-0.18294394,0.0027508242,0.00097561016,-0.02846473,0.007245515,0.026424225,0.41596624,-1.4156734,1.946122,-2.1022317,-1.5673894,2.3860576,-0.16730398,0.30188686,-0.35785002,0.038375985,0.022899982,-0.19349295,-0.05746084,0.3256114,-9.481039,0.91421866,47.667187,-1.0160627,-1.7856069,-3.6392922,-0.034065947,0.1851629,-0.20788984,26.125,27.0,26.0625,29.125,30.1875,30.625
0.3740524,-1.0308602,-1.0065147,-0.16344896,-0.045329288,0.044049233,-0.14445212,-0.40679905,-0.32755667,0.060081363,3.0762017,-0.616559,-0.0002931474,-0.18347248,0.0035595133,0.00051989086,-0.028008081,0.006107768,0.01699309,0.4156301,-1.4151086,1.9453806,-2.102184,-1.5672935,2.3856883,-0.1690132,0.3030058,-0.3584047,0.0390376,0.022952892,-0.18576814,-0.05746084,0.22984336,-9.308657,0.9925471,47.64837,-0.92461,-1.5620918,-3.6355593,-0.04449618,0.19886392,-0.30909523,26.125,27.0,26.0625,29.125,30.1875,30.625
0.37605238,-0.7888599,-0.6950336,-0.23435134,-0.01956977,0.029235255,-0.13681453,-0.40713897,-0.32754168,0.060055405,3.076197,-0.61654294,-0.00021077723,-0.18522252,0.0038924692,1.889576e-05,-0.027987322,0.0053062923,0.007955225,0.41530594,-1.4144831,1.9446987,-2.1020882,-1.5672573,2.385355,-0.17100891,0.3066581,-0.36173728,0.03944931,0.023231162,-0.17872486,-0.30645782,0.19153613,-9.155427,0.95002913,47.65912,-0.89327765,-1.6124665,-3.6990404,-0.022470383,0.17612699,-0.40954,26.125,27.0,26.0625,29.125,30.1875,30.625
