Tylouw/Master_Thesis_Code/training_data/batch_1/big_rod_t0.2/sample_21_session_1.csv
timestamp[s],tcp_force_x[N],tcp_force_y[N],tcp_force_z[N],tcp_force_rx[Nm?],tcp_force_ry[Nm?],tcp_force_rz[Nm?],tcp_pose_x[m],tcp_pose_y[m],tcp_pose_z[m],tcp_pose_rx[rot_vec_x],tcp_pose_ry[rot_vec_y],tcp_pose_rz[rot_vec_z],tcp_velo_x[m/s],tcp_velo_y[m/s],tcp_velo_z[m/s],tcp_velo_rx[rot_vec_x/s],tcp_velo_ry[rot_vec_y/s],tcp_velo_rz[rot_vec_z/s],q1[rad],q2[rad],q3[rad],q4[rad],q5[rad],q6[rad],qd1[rad/s],qd2[rad/s],qd3[rad/s],qd4[rad/s],qd5[rad/s],qd6[rad/s],tool_acc_x,tool_acc_y,tool_acc_z,current_of_whole_robot[A],voltage_of_whole_robot[V],current_J1[A],current_J2[A],current_J3[A],current_J4[A],current_J5[A],current_J6[A],temp_J1[C],temp_J2[C],temp_J3[C],temp_J4[C],temp_J5[C],temp_J6[C]
6.6298526e-07,-1.0773214,0.08126226,0.8535942,-0.024961052,-0.0074380874,-0.01327534,-0.3728769,-0.3282229,0.059938326,-3.078491,0.6247908,-0.00029607766,0.0030434974,0.0014749793,-0.0039162724,0.004047856,-0.008651822,7.323205e-06,0.4481623,-1.4708613,2.0095851,-2.107691,-1.5706614,2.4230313,-8.347037e-05,0.0032965941,0.005099248,0.0011551342,0.00011420702,-9.388724e-05,0.05746084,0.2681506,-8.944737,0.779936,47.7254,-0.10509433,-2.855257,-2.5433345,-0.52736485,0.04069795,-0.11703759,26.25,27.125,26.1875,29.3125,30.5,31.0
0.002055488,-0.11610197,0.13666628,0.97996104,-0.01709238,0.013438903,-0.028251579,-0.37288266,-0.3282044,0.059911143,-3.078468,0.62478614,-0.00037553883,-0.00096583605,-0.00046418843,-0.0023552412,-0.0018982975,0.0036499156,1.1079643e-05,0.44811413,-1.4708136,2.009596,-2.1076953,-1.5706495,2.4229832,-8.237899e-05,0.0030762958,0.004751055,-0.011939802,0.000112423695,-9.250869e-05,0.076614454,0.22984336,-8.963891,0.6971306,47.70659,-0.11992258,-2.7443442,-2.2556982,-0.4465618,0.06738345,-0.1062201,26.25,27.125,26.1875,29.3125,30.5,31.0
0.004054598,-0.6906244,0.21317025,0.71644473,-0.0103501715,-0.004644946,-0.023894306,-0.37290868,-0.3282167,0.059934676,-3.0785038,0.62479293,-0.00020648507,-0.0015547245,-0.0007491667,-0.002331692,-0.0026055148,0.005113814,1.1548402e-05,0.4481382,-1.4708372,2.0095847,-2.1077678,-1.5706857,2.423007,-8.131564e-05,0.0035439986,0.0046361214,-0.013918352,0.00011069514,-9.116993e-05,0.095768064,0.11492168,-9.040505,0.7284641,47.698532,-0.05736335,-3.0714397,-2.5389528,-0.36575282,0.066073984,-0.10481998,26.25,27.125,26.1875,29.3125,30.5,31.0
0.006053854,-0.37250766,0.49240288,0.60356843,0.0037271436,-0.011346772,-0.022923756,-0.37289175,-0.3282109,0.059902996,-3.0784671,0.62488276,-0.0003069869,-0.0007538865,-0.00036170508,-0.0018607465,-0.0012529823,0.002325242,1.0447996e-05,0.44812617,-1.4708017,2.0096204,-2.1077774,-1.5706614,2.4230556,-8.027953e-05,0.0027635035,0.0031985252,-0.008600988,0.00010901913,-8.986936e-05,0.019153614,0.19153613,-9.078813,0.7665104,47.696735,-0.10547386,-2.9522676,-2.5447726,-0.39061594,0.058706358,-0.101808816,26.25,27.125,26.1875,29.3125,30.5,31.0
0.008054117,-0.055711642,1.04935,0.29199937,0.036197565,-0.03759724,-0.016365042,-0.3728745,-0.3281895,0.059884034,-3.0784047,0.624831,-0.00036084082,-0.00032655167,-0.0001548277,-0.001193592,-0.0005458369,0.0008721779,9.670485e-06,0.44812617,-1.4707901,2.0096428,-2.1077406,-1.5706977,2.4230313,-7.9269455e-05,0.0017700213,0.0018565544,-0.004649546,0.00010739309,-8.860541e-05,-0.05746084,0.15322891,-9.136273,0.73069996,47.728977,-0.07233004,-2.9763746,-2.4699824,-0.42442006,0.07736178,-0.10776165,26.25,27.125,26.1875,29.3125,30.5,31.0
0.010054614,0.06507166,1.5658097,-0.21977739,0.04245929,-0.043385852,-0.0140116075,-0.3728932,-0.3282266,0.059910968,-3.0784817,0.6249047,-0.00033032594,-0.00014290476,-6.203148e-05,-0.00090902677,-0.00017561523,0.00011218575,8.035126e-06,0.4481382,-1.4707903,2.0095837,-2.1077516,-1.5706376,2.4230795,-8.564966e-05,0.0014291437,0.0011447078,-0.0027514498,0.0001058148,-9.3526905e-05,-0.05746084,0.0,-9.308657,0.6971306,47.737038,-0.48880312,-2.3080995,-3.0230513,-0.4615928,0.06571508,-0.1525151,26.25,27.125,26.1875,29.3125,30.5,31.0
0.012053808,-0.122367434,1.0151533,-0.21834551,0.012958595,-0.020817181,-0.026874462,-0.37286055,-0.32820222,0.059868943,-3.0783918,0.6248864,-0.00045802444,-0.0003443411,-0.00014631919,-0.0030880172,0.0020046816,-0.004425623,8.006296e-06,0.4481382,-1.4707524,2.0096304,-2.1077158,-1.5706614,2.4230795,-0.00011418611,0.007789228,-0.0010276013,-0.0019048072,0.00010428232,-0.00011997663,0.095768064,0.05746084,-9.481039,0.7620334,47.709274,-0.6152835,-2.2106175,-3.1698947,-0.46246892,0.062143095,-0.18101873,26.25,27.125,26.1875,29.3125,30.5,31.0
0.01405378,-0.9879239,-0.15744844,-0.34785396,-0.01955119,-0.0044188513,-0.022221021,-0.37288165,-0.32820886,0.059875418,-3.078429,0.6248568,-0.00042602775,-0.005414723,0.0013925101,-0.0039861347,0.0026713114,-0.005846669,-0.0041274717,0.44812346,-1.4707371,2.0096042,-2.1077397,-1.5706495,2.4230416,-0.0076284613,0.016371315,-0.008481643,-0.0014637812,0.00010279341,-0.0034930506,0.0,0.095768064,-9.557653,0.7486078,47.716442,-0.33663368,-2.8510628,-2.9415607,-0.4605431,0.07706926,-0.20010105,26.25,27.125,26.1875,29.3125,30.5,31.0
0.016054038,-1.8785286,-1.0796709,-0.5322955,-0.051586658,0.025151065,-0.024385054,-0.37288693,-0.3282113,0.059865583,-3.0784154,0.6248132,-0.0004719969,-0.0053503723,0.002007689,-0.0039263484,0.0030270773,-0.0065823286,0.00032575344,0.4481232,-1.4706894,2.009569,-2.1077154,-1.5706495,2.4230158,-0.008725486,0.015721427,-0.008169933,-0.0003092315,0.00010134641,-0.009043935,-0.30645782,0.21068975,-9.749189,0.73741806,47.694946,-0.3336033,-2.7067013,-3.1830344,-0.48990828,0.07457733,-0.15678166,26.25,27.125,26.1875,29.3125,30.5,31.0
0.0180542,-2.493873,-1.9753032,-0.5543624,-0.06503961,0.0629869,-0.02868592,-0.372879,-0.32820326,0.059851415,-3.0783734,0.62482315,-0.0005218242,-0.0048917504,0.0020442514,-0.004355211,0.0035342088,-0.007633613,0.002362539,0.44812334,-1.4706653,2.0095694,-2.107691,-1.5706614,2.4230275,-0.0083765,0.016130488,-0.007701192,-2.0190606e-05,0.00010008719,-0.01073204,-0.4405331,0.32561144,-9.691729,0.7553206,47.66808,-0.5104619,-2.422737,-3.4170046,-0.48379964,0.08481167,-0.15507416,26.25,27.125,26.1875,29.3125,30.5,31.0
0.020054527,-2.305913,-1.1454538,-0.49008024,-0.07626874,0.081426084,-0.044108722,-0.37288362,-0.32819015,0.059843168,-3.078345,0.6247597,-0.00054239423,-0.006050387,0.001811831,-0.0039918036,0.0031270355,-0.0067785764,0.0021721374,0.4481109,-1.4706408,2.009556,-2.1076672,-1.5706857,2.422979,-0.008988765,0.017457036,-0.009993951,-1.3183023e-06,9.10672e-05,-0.011152306,-0.51714754,0.38307226,-9.787497,0.6725152,47.716442,-0.56241876,-2.449089,-3.498715,-0.4812882,0.08621551,-0.15811689,26.25,27.125,26.1875,29.3125,30.5,31.0
0.022053689,-1.7551874,-0.76935595,-0.38030896,-0.049930792,0.08479694,-0.060852032,-0.37289158,-0.3282091,0.059827942,-3.078395,0.6248278,-0.0005694367,-0.008202107,0.0016190369,-0.0035803556,0.0025737965,-0.005700304,0.00083620567,0.44809863,-1.4706041,2.009567,-2.1077392,-1.5706257,2.423003,-0.010601765,0.020221677,-0.013970786,-8.607573e-08,0.00011412138,-0.0114265885,-0.7086837,0.36391866,-9.768343,0.69937176,47.701214,-0.64371157,-2.4665158,-3.362711,-0.5114813,0.087397434,-0.17289685,26.25,27.125,26.1875,29.3125,30.5,31.0
0.02405397,-1.8496909,-0.07111721,-0.45644376,-0.029646188,0.057820152,-0.068547755,-0.37292346,-0.32821146,0.059832413,-3.0783842,0.6248456,-0.00058443536,-0.009119356,0.0021281464,-0.0034642243,0.00241596,-0.005429005,-0.00015685425,0.44807392,-1.470544,2.0094826,-2.107703,-1.5706257,2.4229908,-0.012408445,0.020692488,-0.014754751,-5.62013e-09,0.0001364351,-0.012239711,-0.6895301,0.40222588,-9.825804,0.7665104,47.71554,-0.65538216,-2.419162,-3.422218,-0.48718628,0.09404242,-0.18447772,26.25,27.125,26.1875,29.3125,30.5,31.0
0.026053954,-1.6347805,-0.26310372,-0.44549593,-0.018885886,0.046675693,-0.07349268,-0.37291116,-0.32819277,0.059799824,-3.078361,0.6247446,-0.0006740934,-0.010283987,0.0016836689,-0.002146718,-2.4422905e-06,-0.0033551925,6.411409e-05,0.44804966,-1.4705085,2.0095184,-2.107703,-1.5706252,2.4229064,-0.013495975,0.019657359,-0.016641164,-3.6695438e-10,0.0014119034,-0.013549932,-0.63206923,0.22984336,-9.80665,0.7418897,47.72092,-0.7706239,-2.3666306,-3.467447,-0.4983468,0.07007135,-0.17192438,26.25,27.125,26.1875,29.3125,30.5,31.0
0.028054273,-1.6753252,-0.2761394,-0.36528015,-0.026802743,0.050024576,-0.094718486,-0.37296614,-0.3282022,0.059833203,-3.078397,0.6248484,-0.0006216513,-0.011779397,0.0018774157,-0.0022033798,-0.0007637021,-0.0032861796,-0.0011629969,0.44800088,-1.4704837,2.0094092,-2.1076791,-1.5706009,2.4229178,-0.015661264,0.021672415,-0.018625773,-0.00042444092,0.0020631172,-0.014487715,-0.63206923,0.24899697,-9.691729,0.784413,47.685097,-0.7415298,-2.302929,-3.4577405,-0.51245964,0.076220155,-0.17537634,26.25,27.125,26.1875,29.3125,30.5,31.0
0.030053763,-1.4074609,-0.1301103,-0.2819091,-0.030656856,0.06928737,-0.10395719,-0.37299484,-0.32821164,0.05982338,-3.0783954,0.6248481,-0.000594863,-0.012969791,0.0018114209,-0.0021042228,-0.0010639325,-0.0029262758,-0.0014999177,0.44800052,-1.4704112,2.0093606,-2.1077154,-1.5706128,2.4229176,-0.016694829,0.02341845,-0.020753479,-0.000497853,0.002172938,-0.015182982,-0.63206923,0.15322891,-9.653421,0.779936,47.69763,-0.73500454,-2.2870493,-3.3598795,-0.49320328,0.06684923,-0.18536761,26.25,27.125,26.1875,29.3125,30.5,31.0
0.032054015,-2.3770342,-0.28852955,-0.27379444,-0.016658809,0.06505238,-0.10826812,-0.3730419,-0.3281979,0.059823945,-3.078389,0.6249047,-0.0005527163,-0.014310058,0.001589847,-0.0014458256,-0.0015002643,-0.0014179125,-0.0011479617,0.4479403,-1.4703631,2.009312,-2.1077392,-1.5706252,2.4228935,-0.017315792,0.024348292,-0.0233002,-0.00042871916,0.0019074128,-0.016153662,-0.59376204,0.11492168,-9.595961,0.7530795,47.70838,-0.70750403,-2.2710805,-3.3417673,-0.48779154,0.06778602,-0.19521351,26.25,27.125,26.1875,29.3125,30.5,31.0
0.034054603,-1.972012,0.43382022,0.01652462,0.004667506,0.070817076,-0.13434766,-0.37304336,-0.3281943,0.059800856,-3.0783734,0.62482435,-0.0006794776,-0.015503108,0.001484121,-0.0008591172,-0.001943952,-0.00019895786,-0.000833963,0.44791597,-1.470291,2.0092747,-2.107691,-1.5706013,2.422821,-0.018111266,0.025064893,-0.025470894,-0.00026468412,0.0017731444,-0.017261649,-0.45968673,0.05746084,-9.481039,0.75084364,47.681515,-0.76550937,-2.2550979,-3.4086633,-0.4872804,0.07455337,-0.18579158,26.25,27.125,26.1875,29.3125,30.5,31.0
0.036053702,-1.6679051,0.74462634,-0.051526256,0.031846255,0.057689972,-0.14436676,-0.37307885,-0.3282074,0.059813913,-3.0784166,0.62489134,-0.0006278526,-0.01657465,0.00124817,-9.8551674e-05,-0.0028727655,0.0013427509,-0.0015782107,0.4478918,-1.4702669,2.0092266,-2.1077268,-1.570577,2.4228332,-0.018753078,0.025181847,-0.027333155,-0.00031138238,0.0019397322,-0.017158294,-0.34476504,-0.095768064,-9.442732,0.71279734,47.683304,-0.7012987,-2.2302089,-3.3339334,-0.4924689,0.08202842,-0.16251919,26.25,27.125,26.1875,29.3125,30.5,31.0
0.038053945,-1.0702769,1.4336231,0.21485473,0.03215524,0.035286486,-0.16043279,-0.37312144,-0.32817438,0.059796657,-3.0783453,0.6249353,-0.0005999925,-0.01789895,0.0011322435,0.0005816797,-0.003973888,0.0026514542,-0.0030480425,0.44783133,-1.4701948,2.0091898,-2.1077392,-1.5706366,2.4228094,-0.02002247,0.025690574,-0.029439272,-0.00037283808,0.0023608585,-0.016957404,-0.30645782,-0.11492168,-9.442732,0.73741806,47.68062,-0.71389234,-2.1849515,-3.2567263,-0.5004065,0.07727201,-0.1763073,26.25,27.125,26.1875,29.3125,30.5,31.0
0.040054247,-0.7517266,1.1823851,-0.003317812,0.035693508,0.0067695035,-0.15837364,-0.37318105,-0.3281861,0.059819724,-3.0784059,0.62498724,-0.0005182043,-0.018902788,0.0009762833,0.00057372643,-0.0046717077,0.0025271017,-0.0046328725,0.447783,-1.4701583,2.009105,-2.1077745,-1.5706128,2.4227858,-0.021100285,0.027436096,-0.031325407,-0.0004241446,0.0030414772,-0.016450105,-0.22984336,-0.1340753,-9.385271,0.77545905,47.71465,-0.7131936,-2.202827,-3.347185,-0.4800574,0.08327601,-0.1890259,26.25,27.125,26.1875,29.3125,30.5,31.0
0.042054877,-0.75229144,0.55356306,-0.33728927,0.028240023,-0.013436571,-0.16133286,-0.37321246,-0.32818213,0.05979236,-3.078363,0.62501687,-0.00059328496,-0.019931432,0.00093252194,0.0005306736,-0.004617886,0.0028387906,-0.0049596485,0.44774687,-1.4700379,2.009033,-2.107763,-1.5706128,2.4227736,-0.0218242,0.029233517,-0.033150315,-0.0006535724,0.0028525775,-0.016845604,-0.15322891,-0.05746084,-9.442732,0.7463667,47.70211,-0.7441437,-2.2225034,-3.34438,-0.47100854,0.068601295,-0.1781024,26.25,27.125,26.1875,29.3125,30.5,31.0
0.04405397,-1.1400402,-0.08480612,-0.2685822,0.015386018,-0.014680285,-0.15770859,-0.37326297,-0.32818505,0.059819024,-3.0784183,0.62500906,-0.00051572715,-0.020637035,0.0010989694,0.0006287921,-0.00453748,0.0031761713,-0.0050410028,0.44769838,-1.4700257,2.008961,-2.1077745,-1.5706009,2.4227133,-0.022626653,0.029962365,-0.034183253,-0.00061773864,0.0026330063,-0.017565347,-0.11492168,0.019153614,-9.404425,0.75084364,47.693153,-0.68127894,-2.2066884,-3.3322906,-0.46307743,0.083847255,-0.16716245,26.25,27.125,26.1875,29.3125,30.5,31.0
0.046054535,-0.836131,-0.019711941,-0.2923238,-0.009983667,-0.001610572,-0.14385639,-0.37331483,-0.32815865,0.059817806,-3.0783617,0.6250752,-0.0005105909,-0.021950599,0.0014442053,0.0010081765,-0.004739829,0.0040402953,-0.0060189436,0.44762576,-1.4699535,2.0088766,-2.1077392,-1.5706366,2.4226892,-0.024333537,0.030741787,-0.03593491,-0.0005118964,0.0024375068,-0.018292826,-0.05746084,0.17238252,-9.404425,0.7418897,47.688675,-0.673797,-2.1322033,-3.335917,-0.4563362,0.077381775,-0.15722026,26.25,27.125,26.1875,29.3125,30.5,31.0
0.048054516,-0.79297096,-0.5972356,-0.3165028,-0.007428754,0.0077615883,-0.14783335,-0.37330166,-0.32815638,0.059784934,-3.078329,0.6249913,-0.0006425179,-0.023098063,0.0015186215,0.0014701708,-0.0052099978,0.0049530077,-0.0061078463,0.44762537,-1.4698815,2.0088646,-2.107703,-1.5706247,2.4226406,-0.025532732,0.031393416,-0.03774164,-0.0003830888,0.0024603389,-0.019402258,0.019153614,0.19153613,-9.423578,0.7217513,47.672558,-0.61216974,-2.0905974,-3.3723378,-0.45774442,0.08935416,-0.16440865,26.25,27.125,26.1875,29.3125,30.5,31.0
0.050054505,-0.91366106,-0.32423034,-0.11974312,-0.021555701,0.0001362828,-0.14749533,-0.37337682,-0.32816097,0.059814442,-3.0783854,0.62507963,-0.00058667426,-0.023957198,0.0015598384,0.0015320074,-0.005813136,0.004833712,-0.00640624,0.44754112,-1.4698333,2.008744,-2.107703,-1.5705885,2.4226043,-0.026787087,0.032534443,-0.0391662,-0.00025431503,0.0030544377,-0.020358237,0.05746084,0.24899697,-9.519346,0.7083204,47.694054,-0.59229356,-1.9935427,-3.3585038,-0.4700085,0.09392595,-0.15105563,26.25,27.125,26.1875,29.3125,30.5,31.0
0.052053846,-0.18144472,-0.55930436,-0.36301038,-0.027718633,0.0074924054,-0.1552391,-0.37344256,-0.32816264,0.0598194,-3.078397,0.6251207,-0.0005160209,-0.024604404,0.0014475737,0.0013842423,-0.00662511,0.0038747455,-0.006865224,0.44749254,-1.4697487,2.0086482,-2.1077392,-1.5706004,2.42258,-0.027935611,0.034101002,-0.040646058,0.00016789575,0.0042002085,-0.021048864,0.05746084,0.34476504,-9.500193,0.72622824,47.687782,-0.6376068,-1.9811053,-3.4383836,-0.47120088,0.080218434,-0.12600255,26.25,27.125,26.1875,29.3125,30.5,31.0
0.05405394,-0.41504428,-0.9892778,-0.4521761,-0.029483119,-0.009249463,-0.14379624,-0.3734556,-0.328137,0.059786282,-3.0783367,0.62512743,-0.00063584663,-0.025427364,0.001322938,0.0015910987,-0.0071630124,0.0041225194,-0.0068435255,0.4474325,-1.4696646,2.0086234,-2.107703,-1.5706004,2.4225318,-0.028699404,0.035101425,-0.04225718,0.00032132212,0.0045728073,-0.02183445,0.038307227,0.36391866,-9.595961,0.7396539,47.64121,-0.6117313,-1.9924729,-3.4621315,-0.46172464,0.07172605,-0.13691168,26.25,27.125,26.1875,29.3125,30.5,31.0
0.05605436,-0.49144965,-0.9866589,-0.45338953,-0.040129323,-0.007222726,-0.14052421,-0.37350976,-0.32815263,0.059804734,-3.0783768,0.6251743,-0.0005988903,-0.026339134,0.0013236755,0.0020389117,-0.00734065,0.0052070343,-0.0063196137,0.44739616,-1.4696045,2.0085151,-2.107703,-1.5705761,2.4225197,-0.029313397,0.03553018,-0.04376134,0.0003438513,0.004261331,-0.022970553,-0.05746084,0.38307226,-9.634268,0.7597976,47.667187,-0.64162576,-1.9408948,-3.4442472,-0.45583892,0.08403144,-0.13651097,26.25,27.125,26.1875,29.3125,30.5,31.0
0.058054492,-0.38711005,-0.95929533,-0.60280627,-0.04803305,0.010694114,-0.14276119,-0.37356308,-0.328157,0.059821133,-3.078405,0.62516063,-0.0005790063,-0.027470991,0.0012967614,0.0023293358,-0.007742981,0.0059082657,-0.006584938,0.44734788,-1.4695443,2.008406,-2.1076791,-1.5705642,2.4224594,-0.03032394,0.036666505,-0.045668513,0.00030867234,0.0043171896,-0.023714447,-0.095768064,0.4213795,-9.576807,0.7239871,47.71554,-0.635371,-1.9037106,-3.478722,-0.44951874,0.06264498,-0.13071635,26.25,27.125,26.1875,29.3125,30.5,31.0
0.06005387,-1.0559199,-1.1444392,-0.5961341,-0.03973654,0.009770855,-0.13538265,-0.37361404,-0.32814988,0.059814755,-3.0784326,0.6252031,-0.00060008257,-0.028304826,0.0010642768,0.0020344227,-0.00778382,0.0054291743,-0.005582258,0.44726363,-1.4694717,2.0083463,-2.107703,-1.5705279,2.422398,-0.030801728,0.03906299,-0.047618896,0.00027720648,0.004557265,-0.02519379,-0.11492168,0.4405331,-9.615114,0.7486078,47.739727,-0.6146957,-1.8899083,-3.4921246,-0.4543863,0.09513057,-0.12677707,26.25,27.125,26.1875,29.3125,30.5,31.0
0.06205398,-0.9352969,-0.84092575,-0.29419503,-0.042260163,0.024985861,-0.143473,-0.3736959,-0.32814205,0.059837166,-3.0784044,0.6251399,-0.00043444085,-0.02903018,0.0007794336,0.0021716629,-0.008726954,0.00541344,-0.0053114407,0.4472394,-1.4693873,2.0082023,-2.107703,-1.5706238,2.4223382,-0.031498637,0.040172566,-0.049163166,0.0003127103,0.0054125413,-0.026161792,-0.1340753,0.51714754,-9.595961,0.7866488,47.71465,-0.59104425,-1.8999162,-3.473505,-0.44940397,0.06892071,-0.10405539,26.25,27.125,26.1875,29.3125,30.5,31.0
0.064054064,-1.540642,-1.1486894,-0.54051214,-0.022970175,0.0184612,-0.1271217,-0.37375933,-0.32815,0.059840135,-3.0784647,0.6253065,-0.00049593434,-0.029609423,0.0003807379,0.0019145176,-0.009522058,0.004556326,-0.0054776575,0.44713125,-1.4693028,2.0081055,-2.1077154,-1.570527,2.4223263,-0.032002065,0.04216888,-0.050779816,0.000361319,0.0064982004,-0.02649965,-0.15322891,0.36391866,-9.519346,0.7284641,47.703903,-0.62351716,-1.8885633,-3.458366,-0.4478382,0.051962927,-0.0892815,26.25,27.125,26.1875,29.3125,30.5,31.0
0.06605462,-1.5658458,-0.5235806,-0.34183028,-0.017873904,0.013318262,-0.13409078,-0.37380576,-0.32813382,0.059838697,-3.0784576,0.62526643,-0.00052588445,-0.030979618,0.00039017588,0.0022944766,-0.009364173,0.0056653386,-0.005414275,0.44705898,-1.4692305,2.008021,-2.1076791,-1.5705274,2.42223,-0.032833457,0.043609478,-0.05326151,0.0004733595,0.0058709388,-0.027391713,-0.19153613,0.24899697,-9.423578,0.6926589,47.66271,-0.6545391,-1.9018601,-3.4457445,-0.43617898,0.051038504,-0.08217889,26.25,27.125,26.1875,29.3125,30.5,31.0
0.06805394,-1.3714331,-0.31768647,-0.20296666,-0.007959603,0.016937066,-0.13168757,-0.37387392,-0.32812816,0.059830815,-3.078437,0.62526095,-0.00047645537,-0.031972513,6.638336e-05,0.0024472217,-0.00909985,0.0063388385,-0.0037542207,0.447011,-1.4691101,2.0079124,-2.107703,-1.5705637,2.4221814,-0.032758866,0.04544414,-0.055644777,0.00053003535,0.005336625,-0.028974406,-0.24899697,0.2681506,-9.3661175,0.8112748,47.698532,-0.69790506,-1.8437726,-3.4655042,-0.43394634,0.07610146,-0.05882613,26.25,27.125,26.1875,29.3125,30.5,31.0
0.07005429,-1.5242484,-0.049478196,-0.16729698,-0.008957289,0.018483318,-0.13673946,-0.37396303,-0.32814142,0.059865624,-3.0785215,0.6253742,-0.00041408365,-0.03305158,0.0003060095,0.0023263409,-0.008617181,0.006441145,-0.0038789362,0.4469148,-1.4690495,2.0077689,-2.1077154,-1.5705041,2.4221451,-0.033853177,0.04728771,-0.057401482,0.00056350563,0.0048568565,-0.029941304,-0.22984336,0.21068975,-9.385271,0.6971306,47.696735,-0.74911916,-1.8756547,-3.464736,-0.42745006,0.05700995,-0.05577762,26.25,27.125,26.1875,29.3125,30.5,31.0
0.07205446,-1.3518171,-0.05244835,-0.025671927,-0.004111283,0.025684174,-0.13927236,-0.37402382,-0.32815775,0.059881154,-3.0785296,0.6253001,-0.0003358535,-0.03419629,0.0003059924,0.0026942352,-0.009004323,0.007332874,-0.0060661044,0.44691443,-1.4689534,2.0076249,-2.107703,-1.5705398,2.4220977,-0.034860563,0.048222367,-0.059265796,0.00052080944,0.004817942,-0.028760016,-0.21068975,0.15322891,-9.519346,0.78217715,47.67614,-0.7424084,-1.814316,-3.467836,-0.4246152,0.06299878,-0.074397005,26.25,27.125,26.1875,29.3125,30.5,31.0
0.07405375,-1.1100235,-0.17463452,-0.042777568,-0.0047993194,0.0360641,-0.13888827,-0.3741069,-0.32813832,0.059885554,-3.078546,0.62538064,-0.00030177526,-0.035910964,-0.00058844144,0.0032680407,-0.010325397,0.008472974,-0.0069457763,0.44679424,-1.4688686,2.007527,-2.1077268,-1.5705274,2.4220257,-0.03519273,0.050725967,-0.063324764,0.00047564882,0.0055104755,-0.028210705,-0.21068975,0.22984336,-9.32781,0.7642693,47.693153,-0.7533592,-1.8665067,-3.2785258,-0.4131567,0.07511204,-0.07556346,26.25,27.125,26.1875,29.3125,30.5,31.0
0.076053634,-1.095378,0.28423536,0.11949639,-0.005496194,0.03343974,-0.14069124,-0.37415698,-0.32815614,0.059884567,-3.0785663,0.62542355,-0.00033650742,-0.035411153,-0.00019148685,0.0017308026,-0.00911205,0.0053985366,-0.0070603914,0.4467581,-1.46876,2.0074074,-2.1077154,-1.5704917,2.4220138,-0.03564101,0.05319758,-0.06252828,0.0005048373,0.005746597,-0.028544884,-0.24899697,0.21068975,-9.32781,0.7709874,47.713753,-0.8104142,-1.9631777,-3.4373837,-0.40086412,0.056422785,-0.08490253,26.25,27.125,26.1875,29.3125,30.5,31.0
0.07805391,-1.0076505,0.41785666,0.16669643,-0.0036816008,0.039045796,-0.14793167,-0.3742381,-0.32815498,0.059890587,-3.078615,0.6254522,-0.00035206243,-0.036727704,-0.00031850187,0.0033276896,-0.010437683,0.008550326,-0.006403058,0.4466498,-1.4686527,2.0072758,-2.1077154,-1.5704435,2.4219172,-0.03646814,0.05157722,-0.064440794,0.00062522944,0.0055782935,-0.030028086,-0.38307226,0.11492168,-9.232041,0.80456203,47.71554,-0.78603226,-1.7775769,-3.4268978,-0.39948994,0.049087994,-0.061460305,26.25,27.125,26.1875,29.3125,30.5,31.0
0.08005376,-0.92660946,0.43209127,0.035257816,0.0026763594,0.036751837,-0.1383108,-0.3743129,-0.32816935,0.059908357,-3.0786498,0.6254802,-0.00030118405,-0.040234715,-0.000413322,0.0048844027,-0.0115805315,0.012016053,-0.008895157,0.4466009,-1.4685563,2.007129,-2.107715,-1.5704316,2.4218814,-0.03913613,0.0537103,-0.070405714,0.0008400248,0.0051020854,-0.030199088,-0.38307226,0.19153613,-9.289503,0.77545905,47.692257,-0.77641976,-1.767115,-3.24222,-0.3968814,0.061504558,-0.06321167,26.25,27.125,26.1875,29.3125,30.5,31.0
0.08205447,-0.8329057,0.53104424,0.22112118,0.004308973,0.03905977,-0.1488408,-0.37440062,-0.32816046,0.0599219,-3.0786376,0.6254954,-0.00022745291,-0.03894394,0.00015381297,0.0022742322,-0.008911819,0.0062189386,-0.008258979,0.4465289,-1.4684471,2.006975,-2.107702,-1.5704674,2.4218206,-0.03909498,0.057825807,-0.069190845,0.0018897803,0.0052054212,-0.030794512,-0.40222588,0.17238252,-9.289502,0.784413,47.690468,-0.74159634,-1.8250016,-3.2922885,-0.38504618,0.065245174,-0.057329163,26.25,27.125,26.1875,29.3125,30.5,31.0
0.0840546,-1.6488518,0.37721717,0.06716178,-0.0018121421,0.018960152,-0.13541833,-0.37445635,-0.3281322,0.05988726,-3.0785959,0.6255435,-0.00035489735,-0.040007047,-0.0007495375,0.0028526678,-0.009861843,0.0071847457,-0.0064326846,0.44640923,-1.4683025,2.00689,-2.1076782,-1.5704435,2.4217362,-0.038643356,0.05944041,-0.072363354,0.0021662759,0.005637511,-0.032168306,-0.47884035,0.17238252,-9.270349,0.7665104,47.694946,-0.90121543,-1.9575783,-3.2815747,-0.3981843,0.05906021,-0.06123229,26.25,27.125,26.1875,29.3125,30.5,31.0
0.08605411,-1.4462353,-0.1392531,-0.018016469,-0.005692769,0.032078926,-0.13259663,-0.37454858,-0.32815927,0.05992985,-3.0786755,0.6255414,-0.00025679168,-0.041760746,-0.0005922155,0.0044676433,-0.011213283,0.010270283,-0.008325799,0.4463604,-1.4682194,2.0066984,-2.1076663,-1.5704197,2.4216762,-0.040436447,0.05814219,-0.07470331,0.0024392882,0.0055238567,-0.032066457,-0.40222588,0.24899697,-9.289502,0.7665104,47.668976,-0.8275168,-1.6686275,-3.230906,-0.3900096,0.046981,-0.073379956,26.25,27.125,26.1875,29.3125,30.5,31.0
0.08805421,-2.0294027,-0.45397785,-0.16647269,-0.010073001,0.013918313,-0.1291127,-0.37465158,-0.32816368,0.05994318,3.0786796,-0.6255441,0.00013329604,-0.042914703,-0.0003423573,0.0034518156,-0.010385864,0.008659288,-0.011080047,0.44629994,-1.4680862,2.0065296,-2.107702,-1.5704559,2.421617,-0.041904185,0.062202968,-0.07681369,0.0022985318,0.005471261,-0.03077755,-0.36391866,0.19153613,-9.308657,0.83365434,47.67614,-0.7967114,-1.8075557,-3.1797695,-0.3832727,0.047486234,-0.0840683,26.25,27.125,26.1875,29.3125,30.5,31.0
0.09005433,-1.9238209,-0.86935484,-0.20872886,-0.015348038,0.01965529,-0.12577116,-0.3747219,-0.3281441,0.05993128,3.0786762,-0.6255832,0.00017601562,-0.04383189,0.0005616086,0.0029382424,-0.009580381,0.00782541,-0.013065748,0.44619116,-1.4679658,2.0064218,-2.10769,-1.5704435,2.421533,-0.044170767,0.06383225,-0.07746337,0.0024211046,0.0051039294,-0.0310574,-0.34476504,0.22984336,-9.461885,0.7709874,47.689575,-0.710777,-1.8839238,-3.2215805,-0.37035853,0.06746469,-0.09461439,26.25,27.125,26.1875,29.3125,30.5,31.0
0.09205452,-1.3380895,-0.67867327,-0.12651433,-0.024241686,0.03279859,-0.13872339,-0.37479746,-0.32815516,0.05991202,3.0786333,-0.6256123,0.00028913564,-0.04549112,0.00014370037,0.00359525,-0.010355098,0.008807955,-0.012417651,0.4460948,-1.4677855,2.006265,-2.1076782,-1.5703715,2.4214604,-0.045055058,0.06570757,-0.08118607,0.0030498337,0.005372219,-0.032588094,-0.38307226,0.24899697,-9.404425,0.7709874,47.68599,-0.70158005,-1.8689365,-3.1199455,-0.37786037,0.06563092,-0.09334752,26.25,27.125,26.1875,29.3125,30.5,31.0
0.094053686,-1.6790894,-0.99855345,-0.33048075,-0.014735086,0.01785323,-0.12673038,-0.37492502,-0.32815692,0.059959486,3.078556,-0.6257308,0.00011846475,-0.044418182,0.00024896394,0.0021861691,-0.009016968,0.0052820775,-0.011963374,0.44599923,-1.4676889,2.0060499,-2.1076777,-1.5703958,2.4214487,-0.04448505,0.06771748,-0.080388494,0.0039991215,0.005694786,-0.03247265,-0.30645782,0.24899697,-9.423578,0.7642693,47.64837,-0.7883705,-1.8133965,-3.333197,-0.39566922,0.07143646,-0.088762194,26.25,27.125,26.1875,29.3125,30.5,31.0
0.0960546,-1.1390401,-0.51780516,-0.105298124,-0.029348105,0.02744595,-0.14096908,-0.37500998,-0.32815513,0.059970222,3.0785716,-0.6256962,0.00010655581,-0.045550056,-9.08427e-05,0.002390458,-0.009732163,0.0051889797,-0.012929408,0.44592682,-1.4675565,2.0058687,-2.10763,-1.5704073,2.4213529,-0.045319114,0.069665454,-0.08313892,0.004574689,0.0063763256,-0.032339923,-0.30645782,0.3256114,-9.385271,0.7530795,47.69763,-0.8246503,-1.8881528,-3.2563448,-0.3956772,0.051871255,-0.10870814,26.25,27.125,26.1875,29.3125,30.5,31.0
0.09805426,-1.4166142,-0.53248054,-0.06478775,-0.023486486,0.018587774,-0.13541101,-0.3751089,-0.32814482,0.059948586,3.0785747,-0.62571657,0.000121940975,-0.047139432,0.00048931706,0.0023636927,-0.009849684,0.005646963,-0.015123279,0.445818,-1.4673642,2.0057123,-2.1076539,-1.5704073,2.4212565,-0.04776306,0.071331576,-0.08482158,0.004128424,0.0062808576,-0.03258857,-0.30645782,0.2681506,-9.3661175,0.7866488,47.692257,-0.6524402,-1.8739715,-3.1473076,-0.37443817,0.06186814,-0.12585789,26.25,27.125,26.1875,29.3125,30.5,31.0
0.100055,-1.4180136,-0.708992,-0.30516547,-0.01500988,0.008853071,-0.12691803,-0.3751938,-0.32813895,0.059946448,3.0784998,-0.62589335,0.00016903439,-0.048294056,0.00044044742,0.002045335,-0.00974536,0.0057934807,-0.015282143,0.44569772,-1.4672318,2.0055687,-2.107642,-1.5703591,2.421256,-0.048589338,0.073824994,-0.086679496,0.0034087219,0.006119053,-0.033254065,-0.21068975,0.24899697,-9.385271,0.76874626,47.72719,-0.7046946,-1.9578837,-3.310505,-0.37738815,0.070472114,-0.14287183,26.25,27.125,26.1875,29.3125,30.5,31.0
0.10205413,-1.47214,-0.38860357,-0.11791585,-0.021574186,0.0062401756,-0.12913758,-0.3753274,-0.32813278,0.0599773,3.0784347,-0.62595725,6.414735e-05,-0.04942058,3.75643e-05,0.0023223793,-0.010353132,0.0066040023,-0.01498999,0.44556555,-1.4670992,2.0053523,-2.107642,-1.5703591,2.4211721,-0.048962094,0.07541395,-0.089014396,0.0031615773,0.006316735,-0.03391705,-0.17238252,0.24899697,-9.385271,0.7486078,47.66091,-0.76133466,-1.8976324,-3.1452358,-0.3508914,0.06647847,-0.15023316,26.25,27.125,26.1875,29.3125,30.5,31.0
0.104053974,-0.8665026,-0.3903026,0.03741731,-0.016817138,0.013911418,-0.13317221,-0.3754115,-0.32814762,0.059985396,3.078443,-0.62584364,3.461662e-05,-0.05041036,-0.00045150286,0.0026681174,-0.011308813,0.006885784,-0.015116865,0.44551742,-1.4669552,2.0051725,-2.10763,-1.5703591,2.4210522,-0.049424116,0.07688022,-0.09151332,0.003525841,0.0070545604,-0.03425148,-0.19153613,0.21068975,-9.32781,0.80679786,47.705692,-0.78490984,-1.9482276,-3.1408334,-0.35307735,0.05989131,-0.16679887,26.25,27.125,26.1875,29.3125,30.5,31.0
0.10605443,-0.68685925,0.012811052,-0.23859246,-0.013423442,0.0065582423,-0.1370165,-0.37550566,-0.32815015,0.059981678,3.0784023,-0.62595016,5.9044218e-05,-0.050731763,-0.00015965047,0.001975294,-0.010478805,0.0047547016,-0.015512678,0.44542113,-1.4667866,2.0049927,-2.1076176,-1.5703353,2.4210277,-0.050361227,0.079231024,-0.09280458,0.0047480515,0.007224787,-0.034792267,-0.17238252,0.22984336,-9.212888,0.71279734,47.64658,-0.7722072,-1.8872095,-3.1522765,-0.3480541,0.03893482,-0.18112424,26.25,27.125,26.1875,29.3125,30.5,31.0
0.108053766,-1.2363932,-0.2602204,0.017635496,-0.0025865734,-0.001665837,-0.1254244,-0.37562206,-0.3281293,0.059976283,3.0784218,-0.62603134,4.0202543e-05,-0.0514956,-0.00014975034,0.0020329247,-0.010334592,0.0046009403,-0.015353335,0.44530103,-1.4665946,2.0047882,-2.1075933,-1.570371,2.420956,-0.051005006,0.08060576,-0.09460869,0.005378311,0.0071591698,-0.03559431,-0.11492168,0.22984336,-9.308656,0.8247004,47.713753,-0.7846412,-1.8925948,-3.1386425,-0.35230106,0.046360385,-0.20216945,26.25,27.125,26.1875,29.3125,30.5,31.0
0.11005394,-0.8601874,-0.14284134,0.03257821,-0.0061293812,0.005824998,-0.13994469,-0.37572405,-0.3281553,0.06000279,3.0783262,-0.626011,-5.812678e-06,-0.051804256,-0.00059651944,0.0012774358,-0.0092740655,0.0038553479,-0.013818937,0.44521734,-1.4664735,2.004597,-2.1076057,-1.570311,2.4208717,-0.05000035,0.083625674,-0.096126355,0.0050108624,0.00652278,-0.036121167,-0.15322891,0.30645782,-9.289502,0.7777002,47.713753,-0.94996345,-2.0976143,-3.1978204,-0.3605392,0.06862743,-0.20757517,26.25,27.125,26.1875,29.3125,30.5,31.0
0.1120542,-1.2183163,-0.21950692,-0.08407178,-0.0114443125,0.0041022087,-0.13382147,-0.37582275,-0.32815316,0.0599809,3.0783582,-0.62603736,4.0457544e-05,-0.05372717,-0.00010565319,0.002894094,-0.011064362,0.0071284836,-0.015021705,0.44513232,-1.4662466,2.004392,-2.1075819,-1.5703229,2.4207993,-0.052770153,0.08184123,-0.09783021,0.004773845,0.006724276,-0.037688024,-0.1340753,0.3256114,-9.32781,0.72622824,47.687782,-0.7915543,-1.9282968,-3.127758,-0.3525019,0.07057895,-0.21924075,26.25,27.125,26.1875,29.3125,30.5,31.0
0.114053726,-1.0798186,-0.1450488,0.07907229,-0.020465726,0.005093841,-0.12928085,-0.37594023,-0.32816744,0.060009353,3.0782626,-0.6260924,-6.7377245e-05,-0.05304778,-0.0010585865,0.00077691476,-0.010076225,0.0023984122,-0.011616555,0.44503686,-1.4661249,2.0042007,-2.1076171,-1.5702986,2.4207504,-0.05113008,0.08746398,-0.09930382,0.0053172535,0.007872144,-0.039452247,-0.038307227,0.30645782,-9.308656,0.7642693,47.686886,-0.89906985,-2.0088258,-3.19865,-0.33903798,0.053165704,-0.22604424,26.25,27.125,26.1875,29.3125,30.5,31.0
0.11605449,-0.8456834,-0.37431127,0.062855646,-0.02113245,0.008067596,-0.14262016,-0.37604308,-0.3281618,0.06001129,3.0782073,-0.62611884,-1.1793015e-05,-0.053380992,-0.0013145483,0.0020447157,-0.01073468,0.0040929425,-0.010958393,0.44489312,-1.4659698,2.00402,-2.1075928,-1.5702385,2.4206302,-0.050836857,0.08571454,-0.100569844,0.0065238923,0.007738345,-0.039816916,-0.038307227,0.22984336,-9.3661175,0.84484416,47.693153,-1.1141092,-2.020474,-3.198563,-0.35939384,0.048500564,-0.23038566,26.25,27.125,26.1875,29.3125,30.5,31.0
0.11805368,-0.54203975,-0.4966791,-0.01894073,-0.015197304,0.009149336,-0.13087669,-0.37616935,-0.32816845,0.060031317,3.0781953,-0.62613654,-9.2440205e-05,-0.053538658,-0.00042008449,0.00016868589,-0.008543479,0.000582526,-0.013133796,0.44480857,-1.4657887,2.0037692,-2.107569,-1.5702633,2.4205585,-0.05232467,0.08964368,-0.10068237,0.006820154,0.00727361,-0.03912784,0.019153614,0.17238252,-9.3661175,0.800085,47.68599,-1.0499175,-2.0471995,-3.267221,-0.35549372,0.04982574,-0.2627352,26.25,27.125,26.1875,29.3125,30.5,31.0
0.120053984,-0.25802022,-0.14807546,-0.04472342,-0.008149237,0.006215464,-0.1370922,-0.3762791,-0.32815677,0.060014505,3.0781856,-0.6262884,-4.825933e-05,-0.055492114,-5.4736738e-05,0.00036703332,-0.00864361,0.001550856,-0.014044258,0.44468787,-1.4655726,2.0035641,-2.1075451,-1.5702633,2.420534,-0.0545214,0.09175538,-0.10341484,0.006526128,0.0069403965,-0.04041196,0.0,0.19153613,-9.308656,0.80456203,47.728977,-1.0472063,-2.0453641,-3.279316,-0.3527884,0.055788673,-0.2892027,26.25,27.125,26.1875,29.3125,30.5,31.0
0.12205406,-0.50908136,0.16481003,0.14891395,-0.00044199207,-0.0059120315,-0.13736607,-0.37637052,-0.32815394,0.060011458,3.0781906,-0.62621224,-3.63651e-05,-0.055402193,-0.0007667925,-0.00019813213,-0.009386165,0.0005538073,-0.01250817,0.44459197,-1.4654162,2.0033963,-2.1075337,-1.5702509,2.42039,-0.05382926,0.09355563,-0.103963636,0.005852893,0.008037572,-0.0412565,-0.05746084,0.19153613,-9.32781,0.78217715,47.70838,-1.0447062,-2.047882,-3.3216448,-0.33966196,0.0587719,-0.2925843,26.25,27.125,26.1875,29.3125,30.5,31.0
0.124054156,-0.88124293,-0.058715254,0.07210155,0.002069354,-0.0118612,-0.13277166,-0.3764743,-0.32816556,0.060002174,3.0781512,-0.62626094,-9.621403e-07,-0.056667153,-0.0012243233,0.00059654843,-0.010687136,0.0023816687,-0.011241683,0.44449592,-1.4652126,2.0031931,-2.1075337,-1.5702146,2.4203293,-0.054347456,0.09401923,-0.106217645,0.005435092,0.008421208,-0.043040182,-0.076614454,0.13407528,-9.251195,0.8314132,47.698532,-1.1973664,-1.9904191,-3.1863477,-0.34116977,0.0507569,-0.30361682,26.25,27.125,26.1875,29.3125,30.5,31.0
0.12605378,-0.8479108,0.4916196,-0.054933768,-0.011964745,-0.0063057113,-0.14116515,-0.37660506,-0.32817245,0.0600267,3.0781324,-0.62625843,-7.040309e-05,-0.05688354,-0.00030850686,-0.00035322036,-0.00963766,6.852518e-05,-0.0129594635,0.44439927,-1.4650322,2.00293,-2.1074975,-1.5702266,2.4202337,-0.05627042,0.095759325,-0.10614112,0.0061583365,0.008472635,-0.043245047,-0.1340753,0.21068975,-9.32781,0.7217513,47.683304,-1.081784,-2.052172,-3.4181519,-0.3223398,0.051670782,-0.3197538,26.25,27.125,26.1875,29.3125,30.5,31.0
0.12805395,-1.0876652,0.15490973,-0.0644845,-0.008271397,-0.0043896236,-0.1346976,-0.3767379,-0.32818267,0.06003796,3.078041,-0.6262981,-0.00011480727,-0.05789502,-0.00037367328,0.00041540305,-0.009915662,0.0010574114,-0.016013961,0.44426697,-1.4648522,2.002714,-2.1075332,-1.5701789,2.420138,-0.056912825,0.09604433,-0.10846765,0.0071905227,0.008298836,-0.040831067,-0.05746084,0.22984336,-9.346964,0.78888994,47.684196,-1.1578608,-1.9551463,-3.2532604,-0.35264623,0.05100724,-0.37922803,26.25,27.125,26.1875,29.3125,30.5,31.0
0.13005464,-0.6615815,-0.11292199,-0.08134258,-0.01832851,0.01757821,-0.1354349,-0.37684983,-0.32816565,0.060030986,3.0780287,-0.6264301,-8.416036e-05,-0.05833039,-2.1692595e-05,-0.00057587406,-0.009279144,-0.0011851757,-0.016335456,0.44413453,-1.4646597,2.0025094,-2.107497,-1.5701789,2.4200895,-0.0582022,0.098866664,-0.109426185,0.0076253046,0.008686613,-0.041798744,-0.13407528,0.2873042,-9.270349,0.7642693,47.687782,-1.0845178,-2.0719295,-3.397677,-0.34879243,0.052516855,-0.41058302,26.25,27.125,26.1875,29.3125,30.5,31.0
0.13205376,-1.0292867,-0.017687136,0.18570945,-0.025036847,0.021373563,-0.14259912,-0.3769287,-0.32818645,0.060017228,3.0780175,-0.62638897,3.308346e-05,-0.059559252,3.0535884e-05,0.00073492236,-0.01053325,0.0013063645,-0.015337176,0.44406214,-1.4644564,2.0023057,-2.1074488,-1.5701188,2.419993,-0.059423495,0.09753255,-0.11100606,0.007754464,0.008744433,-0.044018168,-0.21068975,0.17238252,-9.232041,0.8112748,47.689575,-1.1828047,-1.7887943,-3.4807663,-0.36529392,0.040248804,-0.41073504,26.25,27.125,26.1875,29.3125,30.5,31.0
0.13405395,-1.1114445,0.02016005,-0.12641004,-0.01594484,0.019289777,-0.14430292,-0.37706488,-0.32817674,0.06001439,3.0780084,-0.62648255,2.3809453e-05,-0.061090633,0.00018545128,-0.00024502078,-0.009337018,5.6539626e-05,-0.014536945,0.4439297,-1.4642272,2.002054,-2.107425,-1.5701307,2.4199202,-0.060692757,0.10234778,-0.11407005,0.0076491386,0.008195434,-0.04608447,-0.21068975,0.17238252,-9.385271,0.800085,47.694946,-1.0558436,-1.8709913,-3.489386,-0.35647583,0.04583399,-0.4039815,26.25,27.125,26.1875,29.3125,30.5,31.0
0.1360544,-1.0258216,0.023207521,-0.07274738,-0.007979482,0.02661039,-0.13233799,-0.37718984,-0.32815978,0.060021814,3.0779817,-0.62653446,-6.8670256e-06,-0.06101567,0.0005144432,-9.7513424e-05,-0.010016286,6.110011e-08,-0.014184149,0.44378555,-1.4640601,2.00185,-2.107413,-1.5701302,2.419812,-0.061645046,0.10126321,-0.11322803,0.0076504876,0.008837065,-0.047390807,-0.22984336,0.21068975,-9.385271,0.7866488,47.716442,-1.1279298,-1.829541,-3.5057354,-0.34007615,0.046016753,-0.43039197,26.25,27.125,26.1875,29.3125,30.5,31.0
0.13805449,-1.6992733,0.06053992,-0.16446148,-0.007221649,0.013485464,-0.13565502,-0.3773148,-0.32816592,0.060033705,3.0779116,-0.6265778,-6.8415575e-06,-0.06369476,-5.761141e-05,0.0012844537,-0.011525471,0.002684196,-0.01375264,0.4436529,-1.4638798,2.001621,-2.1074007,-1.5700825,2.4197154,-0.06308405,0.10311935,-0.11854829,0.008046069,0.009040492,-0.049257968,-0.2681506,0.1340753,-9.404425,0.7777002,47.67793,-1.1301918,-1.7655504,-3.4317117,-0.35200343,0.046274632,-0.44558704,26.25,27.125,26.1875,29.3125,30.5,31.0
0.14005385,-1.6886501,-0.01920205,-0.31784534,-0.0025326405,0.024293546,-0.13107839,-0.37745005,-0.3281646,0.060026567,3.077902,-0.626574,5.6506456e-06,-0.06369935,0.00011003324,0.00015117617,-0.010563549,0.00074527913,-0.011219178,0.44352087,-1.4636393,2.0013692,-2.1073892,-1.5700701,2.4195824,-0.06335022,0.10566453,-0.11874354,0.007863491,0.009004713,-0.05205705,-0.2681506,0.17238252,-9.461885,0.8537928,47.688675,-1.2615184,-1.8721013,-3.4499729,-0.36071926,0.023488527,-0.4243966,26.25,27.125,26.1875,29.3125,30.5,31.0
0.14205392,-1.4556518,0.1257727,-0.33326596,-0.005402341,0.04109485,-0.14362536,-0.37756872,-0.32818046,0.06004214,3.0778437,-0.6265612,6.6138787e-06,-0.06553997,4.7775673e-05,0.0013487285,-0.012490435,0.0028768084,-0.010256995,0.44341213,-1.4634596,2.0011299,-2.107365,-1.5700225,2.4194732,-0.06540835,0.1055975,-0.12143039,0.007867324,0.00982859,-0.055076428,-0.30645782,0.15322891,-9.404425,0.7978386,47.691364,-1.1972412,-1.7187057,-3.3657718,-0.3441226,0.02430829,-0.41142765,26.25,27.125,26.1875,29.3125,30.5,31.0
0.1440544,-2.217294,-0.48278695,-0.58385324,-0.00870736,0.03289219,-0.13394712,-0.37770683,-0.32815653,0.06002723,3.07787,-0.6266804,1.770649e-05,-0.06687593,0.00037775328,0.0015381865,-0.012390399,0.003210876,-0.008647736,0.4432677,-1.4632076,2.0008776,-2.1073291,-1.5700582,2.4194,-0.06703136,0.10707606,-0.12362847,0.008329828,0.0095915785,-0.058307447,-0.38307226,0.22984336,-9.500193,0.7620334,47.678825,-1.1684198,-1.7499814,-3.3512197,-0.3509084,0.002282423,-0.397973,26.25,27.125,26.1875,29.3125,30.5,31.0
0.14605442,-2.2487447,-1.1603992,-0.7249726,-0.010656967,0.043186784,-0.13025463,-0.37782967,-0.3281681,0.060035367,3.0778368,-0.6266153,4.8243917e-05,-0.06777628,0.00072459993,0.0014002054,-0.011325138,0.0030760537,-0.006215729,0.44314733,-1.4630035,2.0006254,-2.107293,-1.5700105,2.4192433,-0.06784945,0.1088321,-0.12541257,0.008945367,0.008687405,-0.061555315,-0.40222588,0.2681506,-9.500193,0.784413,47.655537,-1.1383334,-1.7494797,-3.3291755,-0.3788786,0.030068535,-0.3799138,26.25,27.125,26.1875,29.3125,30.5,31.0
0.1480537,-2.5021524,-0.9046412,-0.361588,-0.026121546,0.042513482,-0.13145034,-0.37797216,-0.32818252,0.06003992,3.0778027,-0.62662643,1.5399708e-05,-0.06920128,0.00080218137,0.001328575,-0.011389193,0.002982842,-0.004219497,0.44303882,-1.462763,2.0003493,-2.107293,-1.5699986,2.4191463,-0.06930391,0.11131129,-0.12806432,0.009177871,0.008784434,-0.06500398,-0.38307226,0.19153613,-9.595961,0.8179876,47.65643,-1.1651855,-1.5416703,-3.3797388,-0.36175793,0.03893301,-0.3190166,26.25,27.125,26.1875,29.3125,30.5,31.0
0.1500539,-2.5241103,-1.0228636,-0.5552059,-0.025154565,0.04491061,-0.13060777,-0.3780996,-0.32815582,0.060042445,3.0777872,-0.6266403,5.3858457e-05,-0.0704047,0.0007859232,0.001026199,-0.011645062,0.0027479413,-0.0021773307,0.44285855,-1.4625825,2.0001333,-2.1072452,-1.5699743,2.4189768,-0.07053574,0.11384215,-0.13009664,0.008785757,0.009112832,-0.0682768,-0.47884035,0.17238252,-9.576807,0.76874626,47.664497,-1.1525794,-1.6696488,-3.3537517,-0.38671708,0.02212729,-0.2852001,26.25,27.125,26.1875,29.3125,30.5,31.0
0.15205374,-2.2149284,-0.94085896,-0.6585826,-0.015534866,0.046227355,-0.13627295,-0.37827444,-0.32817045,0.060053926,3.0777595,-0.62657565,-6.0386676e-05,-0.07111617,0.001283559,-0.0010073398,-0.0095048575,-0.0005975937,-0.00013814171,0.44273803,-1.4623169,1.999822,-2.1072814,-1.5699867,2.4188197,-0.07173414,0.11944899,-0.13163444,0.008660437,0.008616641,-0.07151138,-0.45968673,0.28730422,-9.615114,0.7172743,47.675243,-1.119309,-1.7980281,-3.3433847,-0.36989498,0.026078854,-0.24690765,26.25,27.125,26.1875,29.3125,30.5,31.0
0.15405403,-1.843422,-0.43031016,-0.4593189,-0.02272299,0.044386495,-0.14341725,-0.3784289,-0.32815868,0.060063127,3.0776842,-0.62667537,-4.6118155e-05,-0.07259727,0.0016188158,0.00066352135,-0.010663483,0.003499667,0.000525379,0.44254568,-1.4621022,1.9995583,-2.1072576,-1.5699385,2.4186993,-0.07316275,0.11699665,-0.13259792,0.007886491,0.007908663,-0.07360227,-0.38307226,0.22984336,-9.653421,0.82022345,47.658226,-1.149399,-1.6728431,-3.4018126,-0.36337566,0.053941462,-0.20455995,26.25,27.125,26.1875,29.3125,30.5,31.0
0.15605378,-2.3448825,-0.598384,-0.5466491,-0.016634526,0.027321642,-0.13146086,-0.37858424,-0.3281383,0.060055736,3.0777192,-0.62666327,-0.00010400089,-0.07335097,0.0016649731,-0.00081639993,-0.010122188,0.0007864306,0.00017045079,0.4424013,-1.4618491,1.9992956,-2.107258,-1.5699867,2.418543,-0.07433777,0.121653154,-0.13432798,0.007639486,0.008579055,-0.07442119,-0.4213795,0.2681506,-9.576807,0.87393653,47.709274,-1.1534609,-1.832592,-3.3546758,-0.36605483,0.050893728,-0.1746968,26.25,27.125,26.1875,29.3125,30.5,31.0
0.15805416,-1.3925451,-0.4638397,-0.3723004,-0.014774814,0.04070708,-0.13389856,-0.37873745,-0.3281597,0.060064394,3.077652,-0.626593,-8.166004e-05,-0.07574155,0.001925712,0.00026160877,-0.011559145,0.0033619106,-0.00260859,0.4422562,-1.4615973,1.9989947,-2.1072457,-1.5699147,2.4183629,-0.077044465,0.12223597,-0.13735698,0.0071489303,0.008771335,-0.07434679,-0.5554548,0.24899697,-9.481039,0.8403672,47.703903,-0.9705275,-1.7109221,-3.226069,-0.3500387,0.028165855,-0.1487643,26.25,27.125,26.1875,29.3125,30.5,31.0
0.16005425,-1.0567018,0.09924148,-0.107783176,-0.017272715,0.04318645,-0.14586759,-0.37889478,-0.32816657,0.060082424,3.077601,-0.6266025,-0.0001173059,-0.07678527,0.0011422716,0.00043717344,-0.012526837,0.0042853756,-0.003227924,0.4421125,-1.4613692,1.9986957,-2.1072218,-1.5698904,2.4182317,-0.076791085,0.12418524,-0.13975808,0.0063529126,0.009248076,-0.07347223,-0.49799395,0.15322891,-9.385271,0.8247004,47.71554,-1.1989774,-1.8143318,-3.369576,-0.33481652,0.03369934,-0.12359998,26.25,27.125,26.1875,29.3125,30.5,31.0
0.1620544,-1.7655818,-0.29656655,-0.19366194,-0.00047586043,0.01701732,-0.13663855,-0.37905908,-0.3281779,0.060092717,3.0775554,-0.6265959,-0.00018072923,-0.07814685,0.0023239737,-4.0331175e-05,-0.012188397,0.003541098,-0.008952033,0.44197923,-1.461117,1.9983963,-2.1072342,-1.5698785,2.4181004,-0.08018025,0.12589319,-0.14056402,0.006269043,0.009262726,-0.07113606,-0.36391866,0.22984336,-9.289502,0.842603,47.683304,-1.0000434,-1.7566603,-3.3723698,-0.3275026,0.05791174,-0.12537605,26.25,27.125,26.1875,29.3125,30.5,31.0
0.16405444,-1.6893063,-0.17312455,-0.20812137,0.005153132,0.011818912,-0.13581912,-0.37922287,-0.32815516,0.060083155,3.0775354,-0.62666994,-0.00022089663,-0.07913677,0.002273711,-0.0003545785,-0.011807552,0.0029566842,-0.010058195,0.4417989,-1.4608648,1.9981445,-2.107258,-1.5698904,2.417969,-0.08085957,0.1285488,-0.14289741,0.006638931,0.0091670705,-0.07070732,-0.34476504,0.095768064,-9.270349,0.8157518,47.634937,-0.87814796,-1.8114913,-3.301427,-0.32007807,0.04657799,-0.14397608,26.25,27.125,26.1875,29.3125,30.5,31.0
0.16605374,-1.9522378,-0.00624257,-0.055425785,0.008017564,-0.004731232,-0.12726712,-0.3793608,-0.3281524,0.06008136,3.077495,-0.62670183,-0.00013312223,-0.08006249,0.0022241974,-0.0011716147,-0.010548845,0.001156347,-0.014839794,0.44163096,-1.4606234,1.997868,-2.107198,-1.5698308,2.4178262,-0.08129964,0.13267554,-0.14585003,0.0076345517,0.008791378,-0.06636368,-0.2681506,0.1340753,-9.270349,0.8179876,47.70211,-0.94680744,-1.9092743,-3.3555307,-0.32485467,0.046497133,-0.15798536,26.25,27.125,26.1875,29.3125,30.5,31.0
0.16805378,-1.5282929,0.26509163,-0.06565362,0.008818941,0.006305072,-0.133475,-0.37954286,-0.32813177,0.060092155,3.077457,-0.62675464,-0.00021824655,-0.08099845,0.0025263068,-0.0005782366,-0.012441654,0.0022468457,-0.020753006,0.44143817,-1.4603842,1.9975814,-2.10721,-1.5698422,2.4176714,-0.083479114,0.13177922,-0.14609563,0.006975783,0.0100372415,-0.06263028,-0.34476504,0.15322891,-9.212888,0.7396539,47.701214,-0.80702925,-1.8324859,-3.2421684,-0.31409964,0.048781637,-0.22698377,26.25,27.125,26.1875,29.3125,30.5,31.0
0.17005402,-1.2227547,0.2397456,0.037702754,0.0070845494,0.017268466,-0.13875142,-0.3797104,-0.3281299,0.060085047,3.0774295,-0.62682724,-0.00018057195,-0.08286049,0.0024804529,-0.00064091093,-0.012123852,0.0028877137,-0.02275047,0.44126976,-1.4600836,1.9972566,-2.1071742,-1.5698184,2.417552,-0.08461991,0.13503832,-0.1495398,0.0067218035,0.009468149,-0.061770786,-0.28730422,0.095768064,-9.32781,0.7396539,47.73077,-0.90555274,-2.0450983,-3.1733837,-0.299342,0.037530527,-0.25061476,26.25,27.125,26.1875,29.3125,30.5,31.0
0.17205425,-1.3627608,-0.13158415,-0.018650493,0.0038882338,0.01698379,-0.1426509,-0.37987635,-0.32812953,0.06010368,3.0773637,-0.62692875,-0.00024074603,-0.08298467,0.0030065095,-0.0012467612,-0.010720138,0.0014734543,-0.02263147,0.44111368,-1.4598556,1.9969586,-2.1071613,-1.5698065,2.4174678,-0.08522487,0.13651437,-0.15001911,0.007608455,0.008808859,-0.06249352,-0.22984336,0.1340753,-9.308656,0.8157518,47.672558,-0.9302668,-1.9824114,-3.3271847,-0.3128171,0.052868456,-0.23366758,26.25,27.125,26.1875,29.3125,30.5,31.0
0.17405422,-1.6994413,-0.24453157,0.19787942,-0.0074159256,0.016919356,-0.1377693,-0.38005474,-0.32810625,0.0600926,3.0773642,-0.62700945,-0.00023712439,-0.08430126,0.0046321936,-0.0016718404,-0.009947841,-0.00020986536,-0.028995233,0.44092008,-1.4595556,1.9966463,-2.107137,-1.5698189,2.4173248,-0.08938827,0.1380229,-0.15107656,0.009008667,0.008828539,-0.060292903,-0.36391866,0.22984336,-9.232041,0.8314132,47.711964,-0.6497541,-1.9552041,-3.3641012,-0.29183352,0.07379939,-0.28045198,26.25,27.125,26.1875,29.3125,30.5,31.0
0.1760544,-1.5991485,-0.2666775,0.16400474,-0.007015514,0.019697942,-0.13826244,-0.38021025,-0.32809725,0.060078397,3.0773237,-0.627094,-0.00018745667,-0.08458282,0.0036427518,-0.0015744526,-0.010582548,-7.506121e-05,-0.025749525,0.4407407,-1.4592798,1.9963707,-2.1071255,-1.5697821,2.4172034,-0.088088706,0.13955355,-0.15304168,0.0090539185,0.0093423715,-0.062238257,-0.34476504,0.30645782,-9.212888,0.76874626,47.687782,-0.8031683,-1.8442166,-3.3725119,-0.29509377,0.06564356,-0.298816,26.25,27.125,26.1875,29.3125,30.5,31.0
0.17805374,-1.3492254,-0.5244497,0.16865109,0.004985097,0.023179168,-0.13518803,-0.38038522,-0.32810435,0.060089186,3.0772722,-0.62714344,-0.00020984038,-0.08715508,0.004804494,-0.0006266873,-0.011123801,0.0017515664,-0.028490333,0.44058314,-1.459004,1.996035,-2.1071012,-1.5697588,2.4170835,-0.092289194,0.14000233,-0.15585648,0.0095421,0.00905203,-0.06369592,-0.2681506,0.21068975,-9.174581,0.8247004,47.67166,-0.6752703,-1.8246038,-3.368778,-0.29572883,0.07491715,-0.3026648,26.25,27.125,26.1875,29.3125,30.5,31.0
0.18005432,-1.1493216,0.018473545,0.26863918,-0.0064223097,0.027363235,-0.13956475,-0.3805724,-0.32810408,0.060100667,3.0772047,-0.6271851,-0.00023380588,-0.086320154,0.0035917603,-0.0011220492,-0.011543209,0.0006936427,-0.025494708,0.44039217,-1.4587281,1.9957002,-2.1070893,-1.569722,2.4169273,-0.08979026,0.14133358,-0.15618256,0.009316664,0.0098857535,-0.064192384,-0.19153613,0.11492168,-9.136273,0.7217513,47.684196,-0.7217099,-1.7829959,-3.377263,-0.2920545,0.05562014,-0.2965937,26.25,27.125,26.1875,29.3125,30.5,31.0
0.18205439,-1.2606016,0.13674505,0.2013198,0.007050385,0.012443394,-0.13489085,-0.38075098,-0.32807913,0.060091846,3.0771487,-0.62734807,-0.00027921033,-0.087736465,0.0037627502,-0.0008832104,-0.011877371,0.0012054229,-0.027280133,0.44018754,-1.458464,1.9954361,-2.1071255,-1.569722,2.4168317,-0.09136279,0.14287685,-0.15851901,0.009506106,0.009968708,-0.063977726,-0.36391866,0.13407528,-9.155427,0.84708,47.682407,-0.7925527,-1.7808278,-3.3834126,-0.27461165,0.06014191,-0.3105439,26.25,27.125,26.1875,29.3125,30.5,31.0
0.18405424,-1.3938584,0.22448687,0.22295702,0.003522547,0.013898439,-0.13835786,-0.38092214,-0.32806826,0.060071852,3.077178,-0.6273718,-0.00017634784,-0.08808488,0.0038121021,-0.002019955,-0.010592043,-0.0005192963,-0.026806494,0.44000772,-1.4581153,1.9950761,-2.1070416,-1.5697101,2.4166632,-0.091421984,0.14624587,-0.15967932,0.009409957,0.009534576,-0.06450985,-0.34476504,0.15322891,-9.212888,0.8224646,47.675243,-0.87395066,-1.8715096,-3.480411,-0.27760637,0.06839851,-0.35249352,26.25,27.125,26.1875,29.3125,30.5,31.0
0.18605399,-1.8665099,0.1529762,0.095582284,3.54844e-05,0.0045091435,-0.13740465,-0.38111383,-0.3280563,0.060085706,3.0771313,-0.6274181,-0.0002518921,-0.08885733,0.003430241,-0.00034490373,-0.011594104,0.00257188,-0.024577038,0.43981597,-1.4578528,1.9947532,-2.1070416,-1.5697101,2.4165065,-0.091061905,0.14416195,-0.16136426,0.00996009,0.009128954,-0.06637799,-0.28730422,0.21068975,-9.212888,0.79560274,47.704796,-0.92920214,-1.6300883,-3.3799229,-0.26904806,0.06594213,-0.33999437,26.25,27.125,26.1875,29.3125,30.5,31.0
0.18805417,-1.4188383,0.08157243,-0.15523143,-0.00040280545,0.0068752803,-0.13695033,-0.38129738,-0.3280681,0.06009515,3.0770686,-0.6275215,-0.0002737069,-0.08978042,0.0029753968,0.0003114108,-0.012526163,0.0034562359,-0.026149916,0.43965977,-1.4575531,1.9943937,-2.1070173,-1.5696863,2.416423,-0.09128704,0.14480339,-0.16374187,0.010499567,0.0095944395,-0.06502899,-0.19153613,0.22984336,-9.3661175,0.9231726,47.694054,-0.93789816,-1.6697751,-3.3047304,-0.2953199,0.07280858,-0.37487713,26.25,27.125,26.1875,29.3125,30.5,31.0
0.19005445,-0.9370751,-0.008984913,-0.10748348,-0.013806093,0.012574776,-0.14799109,-0.38148028,-0.32805184,0.06008549,3.0770504,-0.6275739,-0.00028746625,-0.0903466,0.002377051,-0.00044736193,-0.012184418,0.0022528863,-0.022592062,0.4394679,-1.4572525,1.9940823,-2.1070178,-1.5696863,2.4162664,-0.09075289,0.14839078,-0.16600913,0.010417595,0.009797048,-0.06805092,-0.05746084,0.21068975,-9.32781,0.8112748,47.674347,-0.98752356,-1.6469499,-3.4238265,-0.28627503,0.08019504,-0.3800282,26.25,27.125,26.1875,29.3125,30.5,31.0
0.19205378,-1.2304388,-0.4319069,-0.35904253,-0.013377624,-0.0040759514,-0.1300818,-0.3816499,-0.32803303,0.060083073,3.0770345,-0.6276433,-0.0002604059,-0.09157861,0.0027843954,-0.0002760587,-0.011590076,0.0029181486,-0.017686576,0.4392755,-1.4569765,1.9937705,-2.106969,-1.5696748,2.4161196,-0.09199697,0.1496796,-0.16794087,0.010722187,0.008978489,-0.07419897,-0.038307227,0.24899697,-9.404425,0.80456203,47.73525,-0.9996713,-1.6262522,-3.395677,-0.2771898,0.08886999,-0.3232706,26.25,27.125,26.1875,29.3125,30.5,31.0
0.19405398,-1.0571411,-0.47408432,-0.6966951,-0.004133049,-0.022969337,-0.12996009,-0.38185486,-0.32805303,0.06010254,3.0769258,-0.62769926,-0.00026772157,-0.092598684,0.0025127134,-2.0617945e-06,-0.012737557,0.0038990825,-0.018231757,0.43908322,-1.4566648,1.9933747,-2.1069458,-1.5696019,2.4159763,-0.092741534,0.15059021,-0.16944398,0.009944173,0.009601236,-0.07439706,0.019153614,0.2681506,-9.3661175,0.8627467,47.685097,-1.0573043,-1.6172062,-3.315069,-0.28534263,0.093079366,-0.32908076,26.25,27.125,26.1875,29.3125,30.5,31.0
0.19605424,-0.43739247,-0.348959,-0.7024623,-0.012455103,-0.014917045,-0.14291415,-0.3820361,-0.32803297,0.060080905,3.0769732,-0.6277072,-0.00023007015,-0.094470546,0.00279098,0.0008472284,-0.012854393,0.0061758044,-0.015403369,0.43890268,-1.4563171,1.9930271,-2.1068976,-1.5696267,2.4157948,-0.09427326,0.15126418,-0.17217727,0.009899998,0.008735327,-0.07875555,0.038307227,0.30645782,-9.519346,0.87393653,47.677036,-1.0167515,-1.652287,-3.3717422,-0.27615035,0.10582297,-0.29817432,26.25,27.125,26.1875,29.3125,30.5,31.0
0.19805428,-0.1446538,-0.34793034,-0.7731776,-0.024705132,-0.011121005,-0.14382172,-0.38222638,-0.32801345,0.06007178,3.076938,-0.6278125,-0.00025754367,-0.09457127,0.0028913682,-0.0011595993,-0.010853683,0.0024103196,-0.011215049,0.43869868,-1.4560153,1.9927157,-2.10691,-1.5696267,2.4156613,-0.094352975,0.15649642,-0.173529,0.010284745,0.008529229,-0.08302188,0.038307227,0.28730422,-9.615114,0.7933669,47.693153,-1.0610533,-1.9119146,-3.4399874,-0.27269828,0.123938344,-0.23711517,26.25,27.125,26.1875,29.3125,30.5,31.0
0.20005414,-1.045349,-0.84752095,-0.8466346,-0.03181649,-0.025140824,-0.13281547,-0.38238528,-0.32798982,0.060049348,3.0769708,-0.6278163,-0.00015423968,-0.09514987,0.002899819,-0.00134563,-0.011629858,0.0015444609,-0.008245861,0.43850648,-1.4557039,1.9924043,-2.1068375,-1.5696143,2.4154675,-0.09553615,0.15780832,-0.17467423,0.010575198,0.009596429,-0.087174885,0.019153614,0.30645782,-9.634268,0.7732232,47.682407,-1.0513141,-1.7822481,-3.417181,-0.2744379,0.13169213,-0.17629425,26.25,27.125,26.1875,29.3125,30.5,31.0
0.20205493,-0.72024137,-0.9069981,-0.87355435,-0.052911382,0.0045157624,-0.14328758,-0.38256365,-0.32798374,0.060029577,3.0769577,-0.627813,-8.6374246e-05,-0.095956594,0.0029384873,-0.0023313179,-0.011129931,-0.00063552347,-0.006116698,0.43831405,-1.4553673,1.9920701,-2.1068132,-1.569578,2.4152749,-0.09657354,0.16166064,-0.17687471,0.011115896,0.010066854,-0.09034041,0.019153614,0.4213795,-9.672575,0.85826975,47.6636,-1.0555551,-1.9447277,-3.4900823,-0.26449624,0.11934554,-0.13224226,26.25,27.125,26.1875,29.3125,30.5,31.0
0.2040541,-1.3784503,-1.6030815,-1.1155967,-0.052281935,-0.0010375559,-0.12834975,-0.38274986,-0.3279769,0.06004143,3.076961,-0.62777483,-0.00012524409,-0.09653934,0.0032411905,-0.0028793092,-0.010872018,-0.002208689,-0.0051433067,0.43814564,-1.4550791,1.9917115,-2.106765,-1.56959,2.4150825,-0.097883426,0.16377617,-0.17818353,0.011844472,0.010504121,-0.09262297,0.0,0.36391866,-9.787497,0.80456203,47.67166,-1.0772843,-1.928503,-3.5321262,-0.29382014,0.13545321,-0.087218545,26.25,27.125,26.1875,29.3125,30.5,31.0
0.20605445,-1.277647,-1.4357787,-0.7748309,-0.056240637,0.00077305915,-0.13490306,-0.38298273,-0.3279968,0.060079794,3.07681,-0.62785876,-0.00020980307,-0.09724305,0.0022778371,-0.002510864,-0.012062088,-0.0012664094,-0.004926855,0.43792978,-1.4547791,1.9912905,-2.1067655,-1.5695175,2.4149384,-0.09708886,0.16504957,-0.18039273,0.0114283,0.011187875,-0.092042506,-0.038307227,0.38307226,-9.730036,0.8627467,47.70211,-1.0264981,-1.9979644,-3.4687333,-0.29960364,0.13103285,-0.06225332,26.25,27.125,26.1875,29.3125,30.5,31.0
0.20805366,-1.4955266,-1.2553424,-0.80867857,-0.051220343,-0.009219348,-0.12843636,-0.3831688,-0.3279749,0.060049295,3.0768332,-0.62788415,-0.00014980548,-0.09919887,0.0018380727,-0.0018515905,-0.01326979,0.0012217831,-0.007903022,0.43772566,-1.4544194,1.9909548,-2.1067421,-1.5695175,2.4147475,-0.09793906,0.16663446,-0.18341888,0.010104167,0.01121207,-0.089914896,-0.1340753,0.4405331,-9.595961,0.8537928,47.701214,-1.2502115,-1.8674053,-3.5291862,-0.2595148,0.12231077,-0.03683748,26.25,27.125,26.1875,29.3125,30.5,31.0
0.21005405,-0.91088325,-0.71339184,-0.62940264,-0.043265834,0.013934557,-0.13738172,-0.3833414,-0.32798925,0.060032584,3.0768175,-0.62776774,-0.00010446448,-0.10049979,0.001997124,-0.0012927828,-0.01398056,0.003216123,-0.0119230645,0.43756914,-1.454084,1.99062,-2.1067426,-1.5694698,2.4145205,-0.09917848,0.16674168,-0.18464531,0.009119651,0.011004465,-0.08713331,-0.1340753,0.40222588,-9.576807,0.83589023,47.72719,-0.98857653,-1.8230239,-3.5055127,-0.24400768,0.15140152,-0.05511391,26.25,27.125,26.1875,29.3125,30.5,31.0
0.21205452,-1.4405061,-0.62667,-0.8010091,-0.020304509,0.0029057483,-0.13716292,-0.38358095,-0.32799453,0.060071476,3.0767374,-0.6278105,-0.00028154135,-0.10178355,0.0016886962,-0.000443437,-0.015317256,0.0048123375,-0.015626157,0.43737698,-1.4537845,1.9902004,-2.1067545,-1.5694817,2.4143655,-0.10001351,0.1670586,-0.18698996,0.009131455,0.01154452,-0.08426279,-0.19153613,0.34476504,-9.615114,0.88289046,47.71554,-1.1852846,-1.8431611,-3.4320219,-0.23103184,0.14664963,-0.07970218,26.25,27.125,26.1875,29.3125,30.5,31.0
0.21405375,-1.7433363,-0.53471917,-0.6065788,-0.022321967,0.006139136,-0.12826097,-0.383785,-0.32798502,0.060072456,3.0766697,-0.6279148,-0.00024987152,-0.102755815,0.0018379948,-0.0010641414,-0.015094872,0.0038990004,-0.020332986,0.4371485,-1.4534597,1.9898285,-2.1067183,-1.5694336,2.414211,-0.10118972,0.16987355,-0.1887176,0.008967982,0.011725395,-0.08073078,-0.28730422,0.34476504,-9.595961,0.90750587,47.71017,-1.1564636,-1.9513919,-3.4234407,-0.23128676,0.14087,-0.12157421,26.25,27.125,26.1875,29.3125,30.5,31.0
0.21605405,-1.491334,-0.5501155,-0.5315221,-0.025367353,0.020453954,-0.13614248,-0.38397956,-0.32798186,0.060042538,3.0766492,-0.6279889,-0.00019527308,-0.103076465,0.0020778554,-0.001777697,-0.015102945,0.0015901736,-0.024434717,0.43695614,-1.4530758,1.9894694,-2.1067183,-1.5694093,2.4140677,-0.1025032,0.17205319,-0.18980154,0.009958383,0.012706783,-0.07794273,-0.4213795,0.28730422,-9.5385,0.8627467,47.692257,-1.2044199,-1.8779429,-3.560095,-0.2248236,0.14578494,-0.1569662,26.25,27.125,26.1875,29.3125,30.5,31.0
0.21805435,-1.3523842,-0.5487761,-0.20318784,-0.020885725,0.03869172,-0.13962093,-0.38421425,-0.32797813,0.060064826,3.076601,-0.62805784,-0.00029533988,-0.10353476,0.0020683042,-0.001695031,-0.01495359,0.0020032055,-0.026422646,0.43675193,-1.4527402,1.9890393,-2.1066945,-1.5694212,2.413913,-0.10260429,0.17265724,-0.19071911,0.009961596,0.012399841,-0.07605439,-0.51714754,0.22984336,-9.481039,0.8403672,47.71017,-1.0841429,-1.8201604,-3.5355983,-0.23340446,0.15165082,-0.18411952,26.25,27.125,26.1875,29.3125,30.5,31.0
0.22005416,-1.4326217,0.28526026,-0.012537361,-0.027611265,0.043714873,-0.14357707,-0.38439572,-0.32800105,0.060065977,3.076504,-0.62811387,-0.00021913236,-0.10492345,0.0017232597,-0.0010405999,-0.015568728,0.003059124,-0.0280387,0.4365721,-1.4524162,1.9886674,-2.1066577,-1.5693253,2.4137807,-0.10318119,0.17401187,-0.19392496,0.01060379,0.012506556,-0.075013414,-0.4405331,0.1340753,-9.404425,0.92764956,47.72092,-1.3237228,-1.7923892,-3.517694,-0.21538332,0.16134465,-0.2363658,26.25,27.125,26.1875,29.3125,30.5,31.0
0.22205438,-1.8245733,0.423509,-0.028811986,-0.0032137649,0.036517274,-0.13618033,-0.3846179,-0.32798865,0.060079027,3.0764596,-0.62818265,-0.0002804827,-0.10651873,0.002087706,-0.0008037649,-0.016357465,0.003929017,-0.029696496,0.43635514,-1.4520926,1.9882716,-2.1066344,-1.5693253,2.4136126,-0.10540362,0.1752402,-0.19577485,0.010105872,0.012854939,-0.07557632,-0.40222588,0.05746084,-9.32781,0.8493211,47.69763,-1.0446739,-1.6552452,-3.474492,-0.2147832,0.14844742,-0.23727295,26.25,27.125,26.1875,29.3125,30.5,31.0
0.22405365,-2.2241201,0.74314576,-0.0544822,0.020088632,0.028595703,-0.13253249,-0.38483712,-0.32798815,0.06007108,3.076412,-0.62819475,-0.00027691765,-0.10809259,0.0018777902,0.00074516283,-0.01798773,0.007405739,-0.03319499,0.43613884,-1.4517217,1.9878763,-2.1066344,-1.5692891,2.4134102,-0.10630771,0.1740301,-0.19792007,0.009623594,0.012859255,-0.07298062,-0.7086837,-0.076614454,-9.251195,0.9030289,47.691364,-1.2041432,-1.5476911,-3.5155215,-0.19419128,0.16167554,-0.2870856,26.25,27.125,26.1875,29.3125,30.5,31.0
0.22605431,-1.6972028,1.5152217,0.12852818,0.027637688,0.040175326,-0.15181209,-0.38507125,-0.32796422,0.06008232,3.0762944,-0.6284596,-0.00034308087,-0.10979766,0.0020534229,0.001045712,-0.018755602,0.0076920064,-0.035236694,0.43587413,-1.4514096,1.9875053,-2.1066463,-1.5692648,2.413326,-0.10841464,0.1759281,-0.20088598,0.010111098,0.013438239,-0.073043376,-0.57460845,-0.15322891,-9.289502,0.9231726,47.672558,-1.125093,-1.4970514,-3.449327,-0.1762602,0.14853945,-0.33156544,26.25,27.125,26.1875,29.3125,30.5,31.0
0.22805446,-2.0771182,1.2660041,-0.15011527,0.05419534,0.0327802,-0.13468644,-0.38527536,-0.3279626,0.060063567,3.0762548,-0.6285087,-0.0003087962,-0.11135306,0.0024242103,0.0013177424,-0.018540151,0.008299311,-0.03637994,0.43566963,-1.4510378,1.9871334,-2.1066458,-1.569229,2.4131575,-0.11007953,0.17757148,-0.20353015,0.010660039,0.012985821,-0.073563464,-0.47884035,-0.11492168,-9.212888,0.8605109,47.67793,-1.0174695,-1.5834289,-3.3415737,-0.17391777,0.17214695,-0.33259875,26.25,27.125,26.1875,29.3125,30.5,31.0
0.23005442,-1.9336398,1.4841087,-0.16200352,0.048211295,0.03156881,-0.1420971,-0.38551643,-0.32798043,0.060098615,3.0761821,-0.6285162,-0.00039067262,-0.11304227,0.003035896,0.0016343882,-0.01900026,0.008575719,-0.041954346,0.43547675,-1.4506899,1.9866542,-2.1065977,-1.5692047,2.412979,-0.1127988,0.17889793,-0.20593621,0.011294412,0.013288001,-0.070706055,-0.5746084,-0.11492168,-9.3661175,0.8605109,47.67345,-0.946222,-1.4541502,-3.2672405,-0.15489209,0.15882789,-0.42276397,26.25,27.125,26.1875,29.3125,30.5,31.0
0.23205367,-1.8880216,0.8342491,-0.09215538,0.0321642,0.041105997,-0.13521038,-0.38570797,-0.327949,0.06007242,3.0761685,-0.6287052,-0.00027583036,-0.11397653,0.0036705579,0.00044005393,-0.017057497,0.0061656367,-0.041383114,0.43523625,-1.4503293,1.9862951,-2.1065257,-1.5691813,2.4128582,-0.11421465,0.18308486,-0.20818937,0.012375541,0.01254115,-0.07269244,-0.53630114,-0.15322891,-9.3661175,0.89631605,47.68062,-0.84136677,-1.546608,-3.2966309,-0.16920716,0.15991102,-0.45329154,26.25,27.125,26.1875,29.3125,30.5,31.0
0.23405407,-2.0843253,0.04272501,-0.32148772,0.02140247,0.053380214,-0.1352455,-0.38592362,-0.32796353,0.06007818,3.0760944,-0.62876487,-0.00027614692,-0.115314655,0.003941256,0.00037924954,-0.016704874,0.005763847,-0.040081292,0.43504384,-1.4499693,1.9858745,-2.1065013,-1.5691332,2.4127128,-0.11570124,0.18544924,-0.21096689,0.013312165,0.012395484,-0.075478844,-0.5363012,-0.11492168,-9.385271,0.92093146,47.679718,-0.87740785,-1.585593,-3.3374782,-0.1556702,0.17538176,-0.4437341,26.25,27.125,26.1875,29.3125,30.5,31.0
0.23605433,-1.8775918,0.3897063,-0.4080351,-0.0072446316,0.06568531,-0.14758654,-0.386207,-0.3279404,0.06010881,3.0760486,-0.62885046,-0.00042995822,-0.11622079,0.004480906,0.0006912672,-0.015919432,0.005742126,-0.037928358,0.43477938,-1.4495972,1.9853834,-2.106477,-1.5691699,2.412508,-0.11692464,0.18620381,-0.2129521,0.0149011845,0.011706607,-0.07885328,-0.61291564,0.076614454,-9.346964,0.8537928,47.698532,-0.8393947,-1.7046001,-3.3503978,-0.17212851,0.19376922,-0.45886338,26.25,27.125,26.1875,29.3125,30.5,31.0
0.2380545,-2.6824627,-0.6544734,-0.46908668,-0.0112199765,0.051381167,-0.1356962,-0.38638777,-0.32792357,0.06007029,3.0760138,-0.62899315,-0.00028202147,-0.11749094,0.003903953,0.0008909234,-0.016210273,0.0063751694,-0.030905485,0.43455148,-1.4492252,1.9850477,-2.1064408,-1.5691098,2.4123738,-0.11687645,0.18863177,-0.21622716,0.015069218,0.011703217,-0.085826814,-0.63206923,0.2681506,-9.442732,0.8224646,47.70032,-0.92779624,-1.7403164,-3.1345544,-0.17378154,0.2060148,-0.39628357,26.25,27.125,26.1875,29.3125,30.5,31.0
0.24005453,-2.541117,-0.6451142,-0.3934125,-0.036593176,0.060593728,-0.12966383,-0.38663787,-0.32790476,0.06007379,3.0759702,-0.6290978,-0.0003252318,-0.1169183,0.003708063,-0.00030275417,-0.016044242,0.0035692311,-0.027449265,0.43429956,-1.4488413,1.9846052,-2.106417,-1.5691093,2.412193,-0.11661186,0.19084606,-0.21610522,0.015352294,0.0127445115,-0.08901814,-0.5554548,0.30645782,-9.423578,0.8537928,47.67793,-0.9164244,-1.7189636,-3.2313433,-0.16308154,0.21281978,-0.3828856,26.25,27.125,26.1875,29.3125,30.5,31.0
0.24205402,-2.6586916,-1.4297687,-0.6516959,-0.025662292,0.044978388,-0.1243174,-0.38689265,-0.327888,0.060092892,3.0759254,-0.62913877,-0.00039957376,-0.11700679,0.0036341362,-0.0016680512,-0.014431808,0.001610984,-0.01818273,0.4340479,-1.4484806,1.9841503,-2.1063817,-1.5691093,2.411973,-0.11604249,0.19449867,-0.21708745,0.015154855,0.012122319,-0.09771351,-0.4405331,0.19153613,-9.385271,0.93436235,47.675243,-1.0145689,-1.6966408,-3.4297514,-0.16554981,0.22242825,-0.31093764,26.25,27.125,26.1875,29.3125,30.5,31.0
0.24405381,-1.8477238,-0.9867959,-0.4724047,-0.03903888,0.043134503,-0.13358681,-0.38714576,-0.32787836,0.060108136,3.0758595,-0.6292603,-0.00041932886,-0.11785193,0.004287505,-0.0018194432,-0.014509308,0.001067922,-0.017435795,0.433795,-1.4480972,1.983673,-2.1063216,-1.569085,2.4118047,-0.11808657,0.19544797,-0.21796387,0.015550769,0.012429033,-0.10050377,-0.24899697,0.34476504,-9.3661175,0.89631605,47.67614,-0.80459344,-1.6455946,-3.4672847,-0.17776693,0.21756783,-0.24879491,26.25,27.125,26.1875,29.3125,30.5,31.0
0.24605441,-1.2696041,-1.1641974,-0.48768222,-0.031561676,0.020522477,-0.12888315,-0.38737613,-0.32786486,0.060081445,3.075851,-0.6292369,-0.00038267815,-0.11870311,0.0044547254,-0.0015828506,-0.0146242855,0.0022178951,-0.014689109,0.43355504,-1.4476777,1.9832648,-2.1063216,-1.5690612,2.4115515,-0.1187885,0.19583708,-0.21889673,0.015014688,0.012052386,-0.10395199,-0.21068975,0.47884035,-9.385271,0.86945957,47.692257,-1.0565424,-1.614064,-3.5682719,-0.15994072,0.24427372,-0.19276237,26.25,27.125,26.1875,29.3125,30.5,31.0
0.24805449,-0.910275,-0.9881946,-0.32423535,-0.039219406,0.0017842256,-0.1323859,-0.38762015,-0.32785097,0.06009218,3.075819,-0.6292681,-0.0004672263,-0.119499,0.004263062,-0.0022171903,-0.014884698,0.0012223646,-0.013785416,0.4333268,-1.4473174,1.9828342,-2.1063092,-1.5690736,2.4113472,-0.119464666,0.19870633,-0.22065087,0.014695309,0.012712407,-0.105529815,-0.11492168,0.40222588,-9.346964,0.85826975,47.694946,-0.85492826,-1.7060668,-3.645167,-0.13007778,0.25376275,-0.15158309,26.25,27.125,26.1875,29.3125,30.5,31.0
0.2500537,-0.723951,-1.2592572,-0.54821503,-0.0258032,-0.027366161,-0.127276,-0.3878674,-0.32784277,0.06008659,3.0757778,-0.6293184,-0.00043431637,-0.12125555,0.003954418,-0.0017675154,-0.016112762,0.002992536,-0.015340528,0.43307436,-1.4468976,1.9823664,-2.106262,-1.5690373,2.4111316,-0.120548345,0.20035617,-0.22336368,0.013641305,0.013077192,-0.10505655,0.0,0.4405331,-9.3661175,0.8806493,47.666286,-0.9290235,-1.7184422,-3.6443403,-0.12751512,0.25249946,-0.13802181,26.25,27.125,26.1875,29.3125,30.5,31.0
0.2520543,-0.20118478,-1.0494814,-0.23542424,-0.023318741,-0.017842203,-0.13465269,-0.38811225,-0.3278445,0.060080685,3.0757031,-0.62938094,-0.00043325496,-0.12239215,0.0034886473,-0.0017756739,-0.016386678,0.0030710208,-0.017666476,0.43283427,-1.4464895,1.981923,-2.106262,-1.5689887,2.4109404,-0.1207073,0.20291312,-0.22634049,0.01387925,0.013289761,-0.102887295,-0.038307227,0.4213795,-9.289503,0.9097417,47.655537,-0.94541967,-1.7589122,-3.5119197,-0.09755124,0.2673015,-0.14708199,26.25,27.125,26.1875,29.3125,30.5,31.0
0.2540544,-0.6099703,-0.705186,-0.31931415,-0.018133763,-0.024705755,-0.12640515,-0.38838676,-0.3278419,0.06009568,3.075642,-0.6294303,-0.0005377803,-0.12395626,0.0039924774,-0.0015469681,-0.017232986,0.0028645215,-0.024572577,0.43259308,-1.4460816,1.9814318,-2.1062615,-1.5689887,2.4107382,-0.12344356,0.20436414,-0.22874472,0.014658858,0.0141455205,-0.098715074,0.019153614,0.4213795,-9.232041,0.8672237,47.657326,-0.8596717,-1.7510378,-3.4789588,-0.09226353,0.2830884,-0.18352146,26.25,27.125,26.1875,29.3125,30.5,31.0
0.25605452,-0.105579756,-0.20625964,-0.20333834,-0.017273968,-0.01874003,-0.1367757,-0.38862956,-0.3278238,0.060092214,3.0756361,-0.62944895,-0.00050820265,-0.123632714,0.0022785724,-0.0017897383,-0.017573839,0.0013909272,-0.026229272,0.43234244,-1.4456735,1.980966,-2.1061895,-1.5689763,2.4105003,-0.12050417,0.20718561,-0.2317435,0.016025657,0.015062941,-0.094117515,0.1340753,0.36391866,-9.289502,0.89631605,47.687782,-1.147166,-1.6734629,-3.5009768,-0.09160091,0.27984515,-0.22944339,26.25,27.125,26.1875,29.3125,30.5,31.0
0.25805402,-0.025628682,-0.70999515,-0.19598834,-0.013515669,-0.01232173,-0.13706055,-0.38887748,-0.3278172,0.060079087,3.0755243,-0.6296397,-0.000499315,-0.1259431,0.0023640362,-0.00055858097,-0.019404665,0.0035342802,-0.031610824,0.43207747,-1.4452661,1.9805449,-2.1062133,-1.5689162,2.410369,-0.12304076,0.20777945,-0.23537815,0.016355779,0.015822116,-0.09127007,0.11492168,0.36391866,-9.232041,0.8985519,47.703007,-0.8809043,-1.6417203,-3.4098368,-0.09356095,0.27516586,-0.2735669,26.25,27.125,26.1875,29.3125,30.5,31.0
0.2600545,-0.5055454,-0.5209573,-0.14013135,-0.019377504,-0.022680022,-0.1268475,-0.3891063,-0.32782,0.060063638,3.0755186,-0.6296954,-0.00048469577,-0.12752594,0.0012740035,0.0017299404,-0.021825477,0.0077170073,-0.03130799,0.43188572,-1.4448355,1.9800891,-2.106177,-1.5689157,2.410213,-0.12258437,0.20627533,-0.23910326,0.01677439,0.01626367,-0.09111514,0.05746084,0.3256114,-9.155427,0.842603,47.69763,-1.1112615,-1.6464276,-3.2129302,-0.08930266,0.27249983,-0.30160224,26.25,27.125,26.1875,29.3125,30.5,31.0
0.2620544,-0.4984783,-0.12910368,-0.39456248,-0.009384232,-0.029194096,-0.1310413,-0.3894106,-0.32781568,0.060087208,3.0754128,-0.6298081,-0.0005295168,-0.12894124,0.0018383107,0.0012380905,-0.021153394,0.006832098,-0.03256959,0.43158522,-1.4443913,1.9795259,-2.106129,-1.568868,2.4099967,-0.12455888,0.20928258,-0.24156429,0.017324546,0.016031766,-0.091825485,0.076614454,0.38307226,-9.519346,0.8717007,47.679718,-1.0531616,-1.5899351,-3.1312938,-0.076739654,0.2686886,-0.3229564,26.25,27.125,26.1875,29.3125,30.5,31.0
0.26405358,-0.65988874,-0.23097107,-0.59904027,-0.006264098,-0.029395426,-0.12355581,-0.38961262,-0.32779878,0.06006151,3.0754006,-0.6298634,-0.0004341529,-0.12900606,0.0019144175,0.00075951347,-0.021276005,0.005123166,-0.033389572,0.43135685,-1.4440078,1.9791435,-2.1060812,-1.5688318,2.4098046,-0.1252094,0.21064562,-0.24227113,0.018173313,0.016856711,-0.09165647,0.038307227,0.4405331,-9.346964,0.8717007,47.72629,-1.0927149,-1.6000743,-3.2445164,-0.0745478,0.28078943,-0.34785724,26.25,27.125,26.1875,29.3125,30.5,31.0
0.26605383,-1.0887417,-0.6380491,-0.6677082,-0.0251436,-0.02205832,-0.12822887,-0.38987264,-0.32779792,0.060057044,3.0753632,-0.6299525,-0.00040985452,-0.12978812,0.0019509911,0.0012640354,-0.02117604,0.005054854,-0.03489379,0.4311168,-1.4435523,1.9786285,-2.1060202,-1.568808,2.4096253,-0.12579688,0.21139556,-0.24478666,0.020047745,0.016794903,-0.090738945,0.038307227,0.36391866,-9.500193,0.86945957,47.689575,-1.1139542,-1.4430468,-3.2187116,-0.086475246,0.28527334,-0.36738133,26.25,27.125,26.1875,29.3125,30.5,31.0
0.26805428,-1.1878362,-1.1548419,-0.53711283,-0.034761928,-0.0054955357,-0.122390024,-0.390126,-0.3278002,0.060053155,3.0752695,-0.63006693,-0.0003947327,-0.12919539,0.0028776561,-0.0012554593,-0.01922326,-0.0008326378,-0.034291003,0.43086427,-1.4431317,1.9781622,-2.1060073,-1.5687474,2.4094565,-0.12735416,0.2157812,-0.24434692,0.021398662,0.017493425,-0.09289841,-0.076614454,0.30645782,-9.385271,0.86945957,47.694946,-1.0788772,-1.7927237,-3.3632522,-0.08631183,0.276534,-0.38841552,26.25,27.125,26.1875,29.3125,30.5,31.0
0.27005434,-1.5151832,-0.9218078,-0.4923769,-0.038085707,0.011649878,-0.13231285,-0.3903763,-0.32780316,0.06005967,3.0752354,-0.63007975,-0.00033147962,-0.1291981,0.0032950146,-0.0029189,-0.01805907,-0.0040851384,-0.035735227,0.43062395,-1.442699,1.9776367,-2.1059,-1.5686992,2.4092288,-0.12821853,0.21932003,-0.24466039,0.02162151,0.017792441,-0.0923183,-0.15322891,0.24899697,-9.32781,0.8537928,47.74868,-0.9990928,-1.792525,-3.4297905,-0.10540582,0.30244106,-0.40272462,26.25,27.125,26.1875,29.3125,30.5,31.0
0.27205363,-1.1179581,-0.1800791,-0.5532317,-0.022145096,0.020534648,-0.14633688,-0.3906202,-0.32778123,0.06002905,3.0751889,-0.630279,-0.00027843946,-0.12987167,0.0039352723,-0.0036398969,-0.017724564,-0.0053716013,-0.032442454,0.4303594,-1.442255,1.9772052,-2.1058881,-1.5686754,2.4090948,-0.13002375,0.22124764,-0.24527536,0.02163344,0.01803075,-0.097416274,-0.038307227,0.19153613,-9.461885,0.800085,47.688675,-0.999128,-1.8666178,-3.5205865,-0.10113502,0.28950658,-0.39120162,26.25,27.125,26.1875,29.3125,30.5,31.0
0.2740539,-1.4213841,0.3567513,-0.17934887,-0.011504322,0.009734795,-0.13941419,-0.3908703,-0.32777748,0.06003105,3.0751529,-0.630252,-0.00023503232,-0.13217457,0.0032774874,-0.0018237121,-0.020279007,-0.001565137,-0.029788228,0.43010697,-1.4418358,1.9767131,-2.1058166,-1.5686268,2.4088304,-0.13114391,0.22111987,-0.24928284,0.02125791,0.018762687,-0.101188526,-0.019153614,0.095768064,-9.442732,0.8717007,47.698532,-0.9426558,-1.794776,-3.6590846,-0.09093979,0.27768716,-0.32767093,26.25,27.125,26.1875,29.3125,30.5,31.0
0.27605405,-1.4687104,0.13661836,-0.15034758,0.0049018883,0.017911226,-0.13555217,-0.39117503,-0.32779157,0.060045697,3.0750132,-0.63039327,-0.0003399601,-0.13380633,0.004236701,-0.0030633302,-0.019456312,-0.0029693544,-0.0275887,0.42984214,-1.4413791,1.9761742,-2.1058524,-1.5685796,2.408672,-0.1340778,0.22519767,-0.25095725,0.020494524,0.01861723,-0.10631831,-0.38307226,0.17238252,-9.346964,0.947788,47.67793,-1.0360366,-1.8568819,-3.5577793,-0.08185263,0.28118894,-0.29078758,26.25,27.125,26.1875,29.3125,30.5,31.0
0.27805427,-1.7978488,0.10797508,-0.23712762,0.020332461,0.026841404,-0.13473777,-0.39140442,-0.32777467,0.060016744,3.0750325,-0.63039136,-0.00020163032,-0.13434175,0.0018030535,-0.0016843706,-0.021211607,0.0004468164,-0.01767538,0.42959145,-1.4409237,1.9757065,-2.1057575,-1.5685428,2.408418,-0.13005053,0.22566016,-0.25457525,0.019833254,0.018783117,-0.112203926,-0.3256114,0.15322891,-9.289502,0.8627467,47.68599,-1.0774417,-1.9084713,-3.5605798,-0.066470206,0.265123,-0.22569568,26.25,27.125,26.1875,29.3125,30.5,31.0
0.2800542,-1.9025079,0.25825122,-0.2665602,0.017036011,0.040139962,-0.12596059,-0.39170605,-0.32775706,0.06002621,3.0749784,-0.6304753,-0.00027753293,-0.13677083,0.0020993622,0.00027502977,-0.023404365,0.0036786401,-0.015167347,0.42930236,-1.4404691,1.9751676,-2.1057332,-1.5685428,2.4081886,-0.13296224,0.22459123,-0.258124,0.0206139,0.019444436,-0.117621094,-0.45968673,0.1340753,-9.270349,0.8493211,47.70032,-1.0232177,-1.752749,-3.4666433,-0.057277203,0.27276844,-0.15584028,26.25,27.125,26.1875,29.3125,30.5,31.0
0.28205436,-1.4875847,0.40960434,0.033187877,-0.007630973,0.06626238,-0.1387584,-0.3919483,-0.32774743,0.059996303,3.0749576,-0.63054675,-0.00012917854,-0.13733229,0.0010097831,0.0013995807,-0.02360309,0.005548665,-0.013374631,0.42903915,-1.4399892,1.9746765,-2.1056488,-1.5684828,2.4079728,-0.13091815,0.22480327,-0.26131302,0.021821711,0.01883749,-0.11737002,-0.68953013,0.19153613,-9.232041,0.8851263,47.717335,-1.1983464,-1.8053753,-3.4414759,-0.05766485,0.28122064,-0.10792282,26.25,27.125,26.1875,29.3125,30.5,31.0
0.28405452,-2.555346,-0.24976322,-0.1686948,-0.013903455,0.060634777,-0.14233753,-0.392229,-0.32776526,0.05999888,3.0749092,-0.6304977,-0.00015664625,-0.1385141,0.0019162428,0.0008024575,-0.02255845,0.004133904,-0.014142272,0.42881045,-1.43951,1.9741253,-2.1056244,-1.5684475,2.40772,-0.13324015,0.2274208,-0.26323804,0.022863442,0.018485436,-0.11892262,-0.7086837,0.22984336,-9.232041,0.82694155,47.690468,-1.1226789,-1.718782,-3.4157543,-0.08673449,0.26524487,-0.114299595,26.25,27.125,26.1875,29.3125,30.5,31.0
0.28605372,-2.2846842,-0.29918405,-0.34367585,-0.032540254,0.07992722,-0.13098691,-0.39248002,-0.32775,0.05998028,3.0748606,-0.63058805,-2.724222e-05,-0.13953847,0.0025095094,0.00015959547,-0.022031993,0.0026685742,-0.021114739,0.42852205,-1.4390538,1.9736346,-2.1055405,-1.5683755,2.4074945,-0.13515604,0.2300914,-0.26503286,0.023541788,0.018602734,-0.113865934,-0.7469909,0.22984336,-9.346964,0.8090337,47.688675,-1.1936299,-1.7665201,-3.4203806,-0.08744243,0.28651616,-0.12660477,26.25,27.125,26.1875,29.3125,30.5,31.0
0.2880539,-3.3232834,-1.0148295,-0.17350973,-0.027196618,0.07195879,-0.1258768,-0.39276734,-0.32773888,0.059984926,3.0748308,-0.6306602,-5.6847493e-05,-0.1402564,0.0021854364,0.0011291419,-0.022597345,0.004336894,-0.024604362,0.42825806,-1.4385868,1.9730839,-2.10548,-1.5683755,2.4072797,-0.13491951,0.2296007,-0.26694527,0.02419002,0.018421061,-0.110138826,-0.842759,0.22984336,-9.404425,0.9701675,47.728977,-1.062309,-1.7545036,-3.3830328,-0.09995921,0.3025894,-0.14568818,26.25,27.125,26.1875,29.3125,30.5,31.0
0.29005426,-3.1394553,-0.876544,-0.3174635,-0.015213844,0.06901644,-0.13012202,-0.39307028,-0.32773146,0.059978146,3.0747333,-0.6307986,-7.234224e-05,-0.1422348,0.0035221141,0.0012701913,-0.022968443,0.004943611,-0.032241166,0.42795637,-1.4380956,1.9725455,-2.1054804,-1.5683273,2.4070773,-0.13896596,0.23053445,-0.2683811,0.023988757,0.018506408,-0.106546886,-0.8619126,0.22984336,-9.385271,0.8940802,47.73077,-0.91445804,-1.6035442,-3.4290254,-0.099322855,0.29939976,-0.18859378,26.25,27.125,26.1875,29.3125,30.5,31.0
0.29205444,-2.3361611,-0.6495292,-0.55742806,0.00018654531,0.07702475,-0.13142434,-0.39332932,-0.32771814,0.059957672,3.0746925,-0.6309447,3.567204e-05,-0.14181857,0.0030943127,-0.00012714171,-0.02231784,0.0026209792,-0.03507338,0.42768085,-1.4376153,1.9720315,-2.105397,-1.5682787,2.4068985,-0.1379418,0.23359185,-0.2686515,0.023585305,0.018868351,-0.10269087,-0.90021986,0.19153614,-9.500193,0.9164598,47.694946,-1.0620697,-1.6920621,-3.4947567,-0.09546471,0.30347672,-0.22887301,26.25,27.125,26.1875,29.3125,30.5,31.0
0.29405454,-2.4899876,-0.04734565,-0.4344306,0.0023117599,0.06529445,-0.12669778,-0.3936221,-0.32771516,0.05994134,3.074646,-0.63099444,5.5272798e-05,-0.14238183,0.0030671405,-0.0010402001,-0.021585718,0.001211318,-0.037657645,0.42740485,-1.4370987,1.9714803,-2.1053727,-1.5682434,2.4066598,-0.13817823,0.23677205,-0.2702793,0.023623096,0.018783275,-0.100341775,-0.7661445,0.1340753,-9.423578,0.80456203,47.657326,-1.1013196,-1.8052003,-3.5588336,-0.081047505,0.28463823,-0.2717252,26.25,27.125,26.1875,29.3125,30.5,31.0
0.29605386,-1.7882617,0.36506507,-0.30107352,0.0167431,0.067347005,-0.1256947,-0.39392802,-0.3276881,0.059943855,3.0746,-0.6311206,-1.598131e-05,-0.14362046,0.0030582787,-0.00074082875,-0.022440558,0.002236453,-0.04113555,0.4271045,-1.4366314,1.9709414,-2.1053488,-1.5682548,2.4064445,-0.13929535,0.23778538,-0.27210236,0.023143595,0.019135362,-0.097979024,-0.5554548,0.076614454,-9.481039,0.9186956,47.67345,-1.073765,-1.7898474,-3.5646753,-0.060236238,0.292989,-0.32375628,26.25,27.125,26.1875,29.3125,30.5,31.0
0.29805383,-1.4307534,0.38364923,-0.39577436,0.031103535,0.049946975,-0.13070296,-0.39425582,-0.32770306,0.059966512,3.0744255,-0.63129574,-4.9831087e-05,-0.14526796,0.0026345432,-0.00042514608,-0.02290936,0.0037210903,-0.042940635,0.42679256,-1.4361402,1.9703296,-2.1053255,-1.5681585,2.4062648,-0.13962698,0.24005474,-0.27537432,0.0226134,0.01894958,-0.09650186,-0.28730422,-0.019153614,-9.404425,0.82694155,47.677036,-1.1158781,-1.8514911,-3.5886762,-0.07708149,0.2923345,-0.36752978,26.25,27.125,26.1875,29.3125,30.5,31.0
0.3000544,-1.2048237,0.62169,-0.28325057,0.020281801,0.023719933,-0.13502593,-0.3945133,-0.32768148,0.05991981,3.074464,-0.6314209,2.2764207e-05,-0.14645955,0.002696273,-0.0003646028,-0.022818428,0.003952475,-0.04565653,0.426552,-1.4356117,1.969828,-2.1052773,-1.5681828,2.4060977,-0.14050038,0.24192253,-0.27784586,0.02304277,0.018759329,-0.0946596,-0.24899697,-0.076614454,-9.346964,0.82022345,47.65912,-1.0686702,-2.0276413,-3.4211335,-0.056092314,0.31177682,-0.4182285,26.25,27.125,26.1875,29.3125,30.5,31.0
0.30205452,-0.37924582,0.09746846,-0.65908617,0.032651015,0.00052999414,-0.1239765,-0.39484122,-0.32765725,0.05992637,3.0743675,-0.6316127,-3.215339e-05,-0.14789635,0.0024921107,0.0002303754,-0.02307536,0.005040352,-0.046539158,0.42621613,-1.435121,1.969253,-2.1052535,-1.568159,2.4058943,-0.14103538,0.2434142,-0.28117537,0.023792548,0.018547487,-0.09430936,-0.05746084,0.0,-9.308656,0.8940802,47.683304,-1.0711527,-1.9638019,-3.3439312,-0.058884066,0.29252902,-0.4724829,26.25,27.125,26.1875,29.3125,30.5,31.0
0.3040539,0.3634526,0.33378595,-0.62989515,0.019562429,-0.017692525,-0.1368815,-0.39512047,-0.32765147,0.059925735,3.0743144,-0.6317153,2.8711744e-05,-0.14819667,0.0030319092,-0.0008514259,-0.02159692,0.0023443415,-0.04487251,0.42593968,-1.4346409,1.9686893,-2.1051567,-1.5681113,2.405689,-0.14199753,0.24642615,-0.28255454,0.025242874,0.018322662,-0.09693788,-0.05746084,0.19153613,-9.270349,0.90527004,47.66808,-1.0875711,-1.978054,-3.4050894,-0.053232823,0.32579,-0.48438424,26.25,27.125,26.1875,29.3125,30.5,31.0
0.3060541,-0.027928831,-0.19049509,-0.77095425,-0.005164852,-0.03656947,-0.138144,-0.39541498,-0.32762417,0.05990718,3.074261,-0.63191473,6.758698e-05,-0.1498023,0.0037732418,-0.00045356198,-0.02094417,0.0028919266,-0.042724755,0.4256268,-1.4341373,1.968151,-2.1051085,-1.5680875,2.4055078,-0.14402534,0.2477142,-0.28533497,0.026527688,0.017508462,-0.10111286,0.038307227,0.22984336,-9.346964,0.86945957,47.66987,-1.0739197,-1.9933995,-3.4902291,-0.07765689,0.3449509,-0.49253368,26.25,27.125,26.1875,29.3125,30.5,31.0
0.3080541,-0.31992102,-0.6576839,-0.96586215,-0.020939475,-0.04816246,-0.13357864,-0.39572123,-0.32762268,0.05989879,3.074222,-0.6319371,6.1872764e-05,-0.14918582,0.003426455,-0.0011538552,-0.020328421,0.00022840004,-0.03187724,0.42535144,-1.4336096,1.9675645,-2.1050718,-1.5680631,2.4052517,-0.14309831,0.24954313,-0.28636795,0.028442515,0.018071791,-0.11103271,0.1340753,0.3256114,-9.461885,0.83589023,47.713753,-1.1400068,-2.0306575,-3.4467854,-0.08113912,0.34886158,-0.41030276,26.25,27.125,26.1875,29.3125,30.5,31.0
0.3100544,0.043618817,-1.154386,-0.8370889,-0.047315944,-0.020442013,-0.14405082,-0.3959952,-0.32760757,0.05989331,3.0742218,-0.63203186,0.00013568929,-0.14988217,0.004485922,-0.0013449775,-0.019731315,-0.0019207353,-0.028440017,0.42508644,-1.433118,1.9669899,-2.1049392,-1.5680512,2.4050462,-0.14572282,0.250729,-0.28800285,0.031116074,0.018423958,-0.117095076,0.1340753,0.3256114,-9.5385,0.8627467,47.73077,-0.90021527,-1.9222667,-3.477562,-0.11314283,0.3645139,-0.34829867,26.25,27.125,26.1875,29.3125,30.5,31.0
0.31205454,-0.7082683,-1.5317283,-0.7317817,-0.05053924,-0.0147463195,-0.13167633,-0.39631486,-0.3276152,0.0598956,3.074122,-0.63208413,0.00014267222,-0.15102561,0.004868009,-0.0010060361,-0.020277083,-0.0022405228,-0.022122962,0.4247857,-1.4325911,1.9663795,-2.104903,-1.5679787,2.4047914,-0.14764675,0.25170448,-0.29034016,0.032577757,0.019073365,-0.1253343,0.11492168,0.28730422,-9.595961,0.8537928,47.687782,-0.9452759,-1.8486214,-3.4707193,-0.13985139,0.34577996,-0.2608435,26.25,27.125,26.1875,29.3125,30.5,31.0
0.31405464,-0.69509023,-1.0041835,-1.0666385,-0.045737233,0.0039051527,-0.13694616,-0.39661884,-0.32760096,0.05991228,3.0740836,-0.6321118,0.000108021675,-0.15220015,0.0046654665,-4.6676138e-05,-0.022641547,-0.0006288714,-0.01882837,0.42449751,-1.432124,1.965793,-2.1048195,-1.5679663,2.4045258,-0.14908731,0.251155,-0.29195562,0.032314505,0.020574981,-0.1300677,0.17238252,0.45968673,-9.519346,0.85826975,47.677036,-0.8996661,-1.8974667,-3.5481286,-0.16089734,0.3458616,-0.20275292,26.25,27.125,26.1875,29.3125,30.5,31.0
0.31605417,-1.0132846,-1.0077049,-0.9057806,-0.036470644,0.0063336324,-0.13399908,-0.3969252,-0.32757646,0.059892148,3.0740304,-0.6322544,0.00015711364,-0.1528701,0.004816882,-0.000703247,-0.02365381,-0.0020133627,-0.018461803,0.42417294,-1.4315963,1.9652299,-2.1047719,-1.5679296,2.4042974,-0.15074247,0.2532117,-0.29284018,0.03199917,0.022069527,-0.13208863,0.19153614,0.4213795,-9.615114,0.9858343,47.69763,-1.0006813,-1.7653356,-3.586557,-0.16631685,0.34525478,-0.14124535,26.25,27.125,26.1875,29.3125,30.5,31.0
0.31805432,-0.79386485,-0.8536106,-1.045925,-0.037164893,0.005457632,-0.13329008,-0.3972254,-0.32756066,0.059877977,3.073992,-0.6323216,0.00023545088,-0.15133522,0.0031163844,-0.0017113119,-0.0237633,-0.0054512797,-0.016477901,0.4238623,-1.4310682,1.9646438,-2.104687,-1.5678815,2.404034,-0.14718471,0.2558289,-0.2940079,0.033642046,0.023580544,-0.13051452,0.11492168,0.36391866,-9.653421,0.8717007,47.716442,-1.1231768,-1.8184167,-3.6006248,-0.19306606,0.32414043,-0.11864666,26.25,27.125,26.1875,29.3125,30.5,31.0
0.32005438,-0.5516248,-0.96467084,-0.89225763,-0.035162725,-0.002094791,-0.12688026,-0.39752007,-0.3275866,0.05987177,3.07392,-0.632294,0.00029709816,-0.15383202,0.0029896288,-1.9875008e-05,-0.025550598,-0.0016776696,-0.025733162,0.4236096,-1.4305294,1.964033,-2.1046274,-1.5677975,2.4037735,-0.14892389,0.25577343,-0.29787892,0.033389676,0.023639042,-0.122996375,-0.038307227,0.3256114,-9.5385,0.87617236,47.7254,-0.9959158,-1.8133967,-3.6942976,-0.20896816,0.30294198,-0.15574682,26.25,27.125,26.1875,29.3125,30.5,31.0
0.32205445,-0.322078,-0.5836602,-0.6746226,-0.029951114,0.0106931105,-0.12932903,-0.3978421,-0.32759246,0.05989905,3.0737884,-0.6323819,0.00028332934,-0.15452668,0.0030796367,-0.00055849773,-0.025778592,-0.0027617821,-0.030188715,0.42329752,-1.4300495,1.9634098,-2.1045558,-1.5677131,2.4035337,-0.14993075,0.25799802,-0.2993122,0.033498805,0.024294501,-0.119544946,-0.095768064,0.38307226,-9.404425,0.83365434,47.668976,-1.1167604,-1.811842,-3.620895,-0.22471884,0.30401734,-0.22019881,26.25,27.125,26.1875,29.3125,30.5,31.0
0.32405373,-0.21742189,0.006419038,-0.8944003,-0.017062169,0.002559776,-0.1308253,-0.398149,-0.32756573,0.059866156,3.0737891,-0.6325016,0.00037363655,-0.15515181,0.0025779917,-0.00061830366,-0.027270561,-0.004187561,-0.036525235,0.42298517,-1.429474,1.9628118,-2.1044714,-1.5677003,2.4032962,-0.1506328,0.2599501,-0.30181152,0.034719747,0.02622254,-0.11391028,0.076614454,0.24899697,-9.519346,0.88960326,47.711964,-1.1009734,-1.8586757,-3.5502708,-0.21911886,0.28556052,-0.2853205,26.25,27.125,26.1875,29.3125,30.5,31.0
0.3260541,-0.78229886,-0.18655992,-0.6786933,-0.0148591725,0.0007534831,-0.13322978,-0.3984737,-0.3275939,0.0598931,3.0736399,-0.6325871,0.00028844315,-0.15609603,0.00356415,-0.0017472027,-0.026338018,-0.0061057736,-0.03981656,0.42272037,-1.4289819,1.9621886,-2.1044595,-1.5676283,2.4031045,-0.15302974,0.26293054,-0.3027679,0.034840524,0.026170935,-0.11301218,0.019153614,0.30645782,-9.481039,0.8806493,47.723602,-1.0346576,-1.874537,-3.5464993,-0.25608265,0.27099273,-0.31411386,26.25,27.125,26.1875,29.3125,30.5,31.0
0.32805413,-0.90689814,-0.44487733,-0.6444965,-0.018035384,0.015494067,-0.12825674,-0.39878526,-0.32757053,0.059876487,3.0735815,-0.63272846,0.00032363387,-0.15881084,0.002844135,-0.0016999219,-0.027493646,-0.0034819203,-0.04004939,0.42239612,-1.4284533,1.961615,-2.1044123,-1.5675925,2.4028764,-0.15377682,0.26705337,-0.30708763,0.032184847,0.026136285,-0.113523416,-0.114921674,0.21068975,-9.385271,0.800085,47.705692,-0.9455141,-2.0972655,-3.5638747,-0.24661562,0.258349,-0.3284602,26.25,27.125,26.1875,29.3125,30.5,31.0
0.33005428,-1.1019335,-0.13849956,-0.83378094,-0.010899026,0.026350932,-0.12409345,-0.39909795,-0.3275542,0.0598706,3.0735345,-0.63287264,0.00038583967,-0.16030082,0.002901617,-0.0003450029,-0.02861454,-0.000775349,-0.04109557,0.42208377,-1.4279145,1.9609908,-2.104304,-1.5675563,2.4026604,-0.15489057,0.2661915,-0.30939448,0.032438364,0.026045581,-0.113590956,-0.19153613,0.30645782,-9.442732,0.800085,47.692257,-0.95746344,-2.0432205,-3.4948978,-0.25896937,0.24937946,-0.33816487,26.25,27.125,26.1875,29.3125,30.5,31.0
0.33205375,-1.8875463,-0.6786711,-1.0256628,-0.0043827095,0.02409361,-0.12423219,-0.39944035,-0.3275837,0.05991088,3.073404,-0.63290244,0.00031511782,-0.16020143,0.0022046482,-5.8830563e-05,-0.02898516,-0.0017075343,-0.039943296,0.421808,-1.4273994,1.9602965,-2.104232,-1.5674847,2.4024205,-0.15384474,0.26696047,-0.31152093,0.0345078,0.02678086,-0.11369379,-0.19153613,0.24899697,-9.481039,0.8873621,47.650166,-0.9968025,-1.9230165,-3.5602636,-0.27398425,0.22575647,-0.36296356,26.25,27.125,26.1875,29.3125,30.5,31.0
0.33405373,-1.5541893,-0.56050384,-0.50953203,-0.034085438,0.05228632,-0.13235493,-0.3997384,-0.3275755,0.059891302,3.0733511,-0.6329867,0.00040308796,-0.16107754,0.0018939554,0.00023395372,-0.030138303,-0.0017153069,-0.03811272,0.42150748,-1.4268597,1.9597105,-2.10416,-1.5674242,2.4021797,-0.15452956,0.26813528,-0.31381518,0.035181835,0.027837895,-0.116208464,-0.40222588,0.22984336,-9.423578,0.8605109,47.688675,-0.93499225,-1.8802437,-3.4648838,-0.30492812,0.20628238,-0.35822076,26.25,27.125,26.1875,29.3125,30.5,31.0
0.336054,-1.4878242,-0.19832356,-0.2727505,-0.036766913,0.055239018,-0.13264246,-0.40006286,-0.32758108,0.059905626,3.073229,-0.63309383,0.00041832708,-0.16300346,0.0024920367,0.0016440192,-0.031749602,0.0015465877,-0.03569119,0.42119512,-1.4263453,1.9590758,-2.1040885,-1.5673398,2.4019504,-0.15713339,0.26675397,-0.3154543,0.03460127,0.027988939,-0.12123204,-0.49799395,0.076614454,-9.3661175,0.9030289,47.71465,-1.085731,-1.7010758,-3.4749591,-0.3288666,0.17959434,-0.33296067,26.25,27.125,26.1875,29.3125,30.5,31.0
0.33805418,-1.7270843,-0.13404632,-0.5944826,-0.0031231132,0.048183236,-0.12444827,-0.4003747,-0.32757303,0.059887245,3.0732193,-0.6331431,0.00048479618,-0.16348366,0.0014238326,0.00231259,-0.0321467,0.0039240336,-0.02662238,0.4209079,-1.4257702,1.9584407,-2.1039932,-1.5673159,2.4016955,-0.1550279,0.26707634,-0.317323,0.033851653,0.027387794,-0.12819593,-0.5554548,0.05746084,-9.500193,0.85155696,47.68062,-1.1160581,-1.6759877,-3.4504704,-0.32972723,0.17258784,-0.24595356,26.25,27.125,26.1875,29.3125,30.5,31.0
0.3400544,-2.0949767,0.13631202,-0.6886472,0.009245827,0.04480063,-0.12049679,-0.40074188,-0.3275627,0.059909634,3.073095,-0.63319147,0.00040394877,-0.16441184,0.0009718315,0.002427832,-0.032938004,0.004896562,-0.021302938,0.4205479,-1.4252428,1.9577831,-2.1039693,-1.5672559,2.4013822,-0.15499924,0.2685112,-0.3191773,0.033094533,0.02773796,-0.13348268,-0.4405331,0.0,-9.557653,0.8537928,47.688675,-1.1852009,-1.5870454,-3.5955987,-0.31140986,0.16136366,-0.17847636,26.25,27.125,26.1875,29.3125,30.5,31.0
0.3420544,-2.0864618,0.3723497,-0.5411683,0.014614385,0.04920059,-0.12325735,-0.40106556,-0.32757437,0.059925266,3.073023,-0.63321096,0.00038985763,-0.16442052,0.0011059395,0.0007939858,-0.03203011,0.0025589992,-0.016879832,0.42027187,-1.4247136,1.9571251,-2.103886,-1.5672077,2.401128,-0.15518203,0.27191672,-0.3192917,0.032337464,0.02788157,-0.13808687,-0.3256114,0.019153614,-9.442732,0.9164598,47.69763,-1.1955149,-1.582805,-3.6276171,-0.3028782,0.1284854,-0.08896816,26.25,27.125,26.1875,29.3125,30.5,31.0
0.3440546,-1.6482915,0.6065238,-0.7377465,0.023364093,0.056239463,-0.12322653,-0.40138838,-0.32756907,0.059900217,3.0729697,-0.6332587,0.00045855457,-0.16692379,0.0018696282,0.001594907,-0.033264928,0.004950565,-0.018207936,0.4199585,-1.4241271,1.9565023,-2.1038382,-1.5671481,2.4008517,-0.15855311,0.27263865,-0.32192037,0.0315807,0.028034044,-0.14012888,-0.36391866,-0.019153614,-9.385271,0.90750587,47.67614,-1.1180964,-1.7899551,-3.6596713,-0.32247776,0.11109079,-0.060327973,26.25,27.125,26.1875,29.3125,30.5,31.0
0.34605378,-1.3298889,0.8669188,-0.773167,0.023106182,0.05037668,-0.12027267,-0.40172374,-0.3275611,0.0599025,3.0728648,-0.6333745,0.0004788515,-0.16862887,0.0020903472,0.0006564483,-0.032059345,0.0042179176,-0.024260907,0.41962263,-1.4235867,1.9558667,-2.1037781,-1.5670766,2.400602,-0.15964587,0.27739513,-0.32530034,0.031369563,0.027223898,-0.13516611,-0.38307226,-0.095768064,-9.442732,0.96569055,47.71017,-1.2135031,-1.8193488,-3.5677118,-0.31989798,0.109180406,-0.06660426,26.25,27.125,26.1875,29.3125,30.5,31.0
0.34805444,-1.2995774,0.39847234,-0.45403257,0.019252615,0.05507561,-0.12906115,-0.40205127,-0.3275742,0.059910048,3.072792,-0.6333619,0.0004492195,-0.16938892,0.0015217033,-0.00033163553,-0.030678071,0.0034202714,-0.027770715,0.419347,-1.4230453,1.9552206,-2.103731,-1.5670284,2.4003284,-0.15845552,0.2817723,-0.32812926,0.03111311,0.026282258,-0.13046329,-0.36391866,0.076614454,-9.481039,0.8940802,47.70211,-1.1908834,-1.9725512,-3.5268426,-0.30675074,0.08900083,-0.09050003,26.25,27.125,26.1875,29.3125,30.5,31.0
0.35005364,-1.7019885,-0.21506473,-0.7199566,0.023108749,0.04911237,-0.117750265,-0.40240902,-0.3275691,0.059943292,3.072659,-0.6334709,0.00040657932,-0.17155921,0.0010473415,0.0022433046,-0.03254044,0.009136494,-0.032875877,0.41899878,-1.4225298,1.9545368,-2.103647,-1.5669569,2.400066,-0.15876146,0.27965477,-0.33163786,0.030763254,0.025654783,-0.12566124,-0.4213795,0.17238252,-9.423578,0.88960326,47.678825,-1.2605895,-1.8805219,-3.4670153,-0.3104422,0.07226746,-0.14527646,26.25,27.125,26.1875,29.3125,30.5,31.0
0.3520538,-0.80996805,0.32546324,-0.7657171,0.0061201593,0.05719545,-0.12783784,-0.40274632,-0.3275602,0.05993917,3.0726168,-0.6335979,0.00040622207,-0.17213199,0.0010421053,0.0013106865,-0.031328782,0.007906591,-0.037803393,0.41869926,-1.4219521,1.9538668,-2.103563,-1.566945,2.3998516,-0.1586467,0.28295204,-0.3334661,0.030903693,0.025039956,-0.12061821,-0.34476504,0.22984336,-9.442732,0.97240865,47.703007,-1.3650584,-1.9249382,-3.4808311,-0.28656662,0.088255174,-0.20900668,26.25,27.125,26.1875,29.3125,30.5,31.0
0.3540541,-2.0920806,-0.83633465,-0.7600034,-0.010571685,0.034693446,-0.107737504,-0.4030802,-0.32753608,0.059923008,3.072548,-0.6337395,0.00045200592,-0.17411509,0.00085790467,0.0025689949,-0.032354087,0.010864019,-0.044223946,0.41835177,-1.4213876,1.9532446,-2.1035035,-1.5668968,2.3996017,-0.15955983,0.2833641,-0.33694625,0.030848164,0.024761582,-0.11510961,-0.36391866,0.30645782,-9.423578,0.8224646,47.668976,-1.2900188,-1.7828844,-3.435333,-0.3005891,0.077772304,-0.2734948,26.25,27.125,26.1875,29.3125,30.5,31.0
0.3560546,-1.5776305,-1.2424885,-0.89249897,-0.028286118,0.044982005,-0.121803865,-0.4034326,-0.3275435,0.05995198,3.0724218,-0.6339048,0.00041710504,-0.17435417,0.00248785,0.0015630287,-0.030570203,0.009597343,-0.047623098,0.4180396,-1.420847,1.9525384,-2.1034076,-1.5668372,2.3994095,-0.1618186,0.2841039,-0.33559814,0.030656602,0.023660397,-0.11396941,-0.36391866,0.30645782,-9.576807,0.98807013,47.658226,-1.2779222,-1.6766268,-3.5479558,-0.29624912,0.07603376,-0.3472876,26.25,27.125,26.1875,29.3125,30.5,31.0
0.35805395,-0.99445677,-0.9152474,-0.8903119,-0.051407307,0.053367384,-0.13033241,-0.40380487,-0.32754886,0.059973557,3.0723011,-0.63399804,0.00032859365,-0.17403896,0.0035571118,0.00035302865,-0.02864219,0.00766406,-0.052605037,0.41771585,-1.4202818,1.9518341,-2.1033714,-1.56679,2.3991601,-0.1626844,0.28528798,-0.33437908,0.030803746,0.022693625,-0.10985265,-0.22984336,0.38307226,-9.672575,0.9410752,47.713753,-1.1632669,-1.606279,-3.6871023,-0.29281616,0.089355625,-0.4168762,26.25,27.125,26.1875,29.3125,30.5,31.0
0.36005414,-0.79886675,-1.266675,-1.2195051,-0.06439647,0.0400498,-0.11966121,-0.4041327,-0.32752144,0.059940204,3.0722983,-0.6341316,0.00041656586,-0.17640266,0.0037464076,0.0021381646,-0.030014865,0.011956748,-0.054805543,0.41739148,-1.4196693,1.951187,-2.103276,-1.5667776,2.3989198,-0.16444497,0.28441697,-0.33751395,0.03033809,0.022198632,-0.10941347,-0.24899697,0.4405331,-9.615114,0.97464454,47.70659,-1.0516891,-1.5503033,-3.8180482,-0.29578766,0.07169397,-0.4547848,26.25,27.125,26.1875,29.3125,30.5,31.0
0.36205447,-0.8910465,-1.6320245,-0.9603688,-0.051591188,0.028789725,-0.12500615,-0.4045023,-0.32751817,0.059970256,3.0721467,-0.6343298,0.0003093597,-0.17927821,0.0047142874,0.003009511,-0.031059323,0.014502714,-0.0557155,0.4170547,-1.4191405,1.9505047,-2.1032403,-1.5667299,2.398727,-0.16829458,0.28546524,-0.3407059,0.02975554,0.022142045,-0.11234916,-0.11492168,0.40222588,-9.615114,0.89631605,47.666286,-0.95299304,-1.5057721,-3.7548795,-0.26465794,0.085785456,-0.47818235,26.25,27.125,26.1875,29.3125,30.5,31.0
0.3640543,-0.5723021,-0.9100724,-1.1619902,-0.046479136,0.02448236,-0.12736684,-0.40488997,-0.3275216,0.05999268,3.0719945,-0.6344834,0.0002143221,-0.18032694,0.0039441274,0.0014188442,-0.030795537,0.012902252,-0.048363157,0.41670793,-1.4185623,1.9497856,-2.1032164,-1.5666698,2.3984964,-0.16781569,0.29135147,-0.34367913,0.028453076,0.02257942,-0.11921739,-0.095768064,0.36391866,-9.730036,0.8717007,47.684196,-1.0912353,-1.5972458,-3.6961012,-0.2536255,0.08680686,-0.45287842,26.25,27.125,26.1875,29.3125,30.5,31.0
0.36605364,-0.76060015,-0.75046897,-0.93747795,-0.034672905,0.031676285,-0.13257103,-0.40522027,-0.32748783,0.059990343,3.0719376,-0.6346384,0.00029169815,-0.18211493,0.0041392012,0.0009359994,-0.030706093,0.013117899,-0.041367617,0.41634816,-1.4180202,1.9491395,-2.1030853,-1.5666217,2.398241,-0.16932401,0.2948529,-0.34657946,0.02773959,0.022430222,-0.12772042,-0.15322891,0.36391866,-9.634268,0.91421866,47.705692,-0.97401357,-1.7799674,-3.5178576,-0.20581768,0.090455115,-0.3873716,26.25,27.125,26.1875,29.3125,30.5,31.0
0.3680538,-1.1141666,-0.8855166,-1.0013379,-0.030184746,0.03249129,-0.13369444,-0.4055997,-0.32750648,0.06001747,3.0718389,-0.63457435,0.00011555474,-0.18468535,0.0036762822,0.0022209184,-0.031134486,0.016188443,-0.03333617,0.41606018,-1.4174552,1.9484323,-2.1030972,-1.5665983,2.3979266,-0.16983868,0.29688218,-0.35212478,0.028320974,0.021620806,-0.13626179,-0.038307227,0.36391866,-9.576807,0.9097417,47.707485,-0.9800486,-1.7793639,-3.4102192,-0.22503087,0.0757416,-0.29400855,26.25,27.125,26.1875,29.3125,30.5,31.0
0.37005413,-1.2322412,-0.26402548,-0.7016562,-0.03678899,0.037066605,-0.1269347,-0.40597203,-0.32749295,0.06001951,3.0717592,-0.63474697,0.000120604935,-0.18551719,0.0044512264,0.0013876408,-0.030701205,0.015373796,-0.028627116,0.4157116,-1.4168419,1.9477018,-2.1030014,-1.566562,2.3976965,-0.17167735,0.29892755,-0.35260564,0.02771622,0.021581635,-0.14280897,-0.15322891,0.38307226,-9.500193,1.0037369,47.72092,-0.8477559,-1.8137405,-3.447846,-0.19374308,0.06871598,-0.21219501,26.25,27.125,26.1875,29.3125,30.5,31.0
0.37205443,-0.90902597,-0.33289468,-0.63736045,-0.024611434,0.047207728,-0.12958008,-0.40634805,-0.3274899,0.060021892,3.071647,-0.63477856,5.616702e-05,-0.18721436,0.005086654,0.0014251457,-0.03143035,0.01612665,-0.028877947,0.4153642,-1.416253,1.9470204,-2.1030014,-1.566502,2.397384,-0.17422816,0.3003899,-0.3543861,0.027075708,0.021968573,-0.1451057,-0.3256114,0.40222588,-9.461885,0.87617236,47.716442,-0.8902178,-1.7127957,-3.5696015,-0.1869234,0.07604327,-0.151806,26.25,27.125,26.1875,29.3125,30.5,31.0
0.37405384,-1.5583999,-0.78905237,-0.45888072,-0.034482498,0.046660125,-0.12410584,-0.4067268,-0.3274971,0.060067046,3.0715294,-0.6348094,-5.3159823e-05,-0.18704113,0.00444846,0.0016463186,-0.031111706,0.017056419,-0.027615894,0.41504157,-1.4157124,1.9462775,-2.102918,-1.5664543,2.3970964,-0.172305,0.30047873,-0.35512868,0.027020982,0.021324305,-0.14444306,-0.22984336,0.38307226,-9.500193,0.87617236,47.698532,-1.0182546,-1.8107016,-3.6061091,-0.1292844,0.08007271,-0.119800076,26.25,27.125,26.25,29.3125,30.5,31.0
0.37605384,-1.586263,-1.2210323,-0.05968265,-0.037811108,0.04945523,-0.11468393,-0.40711868,-0.32747442,0.060071114,3.0714405,-0.63490933,-0.0001347032,-0.18744971,0.0055152625,0.0013985306,-0.029410664,0.015611262,-0.034703713,0.41467002,-1.4151112,1.9455718,-2.102893,-1.5664304,2.3967993,-0.17371722,0.3014047,-0.3563189,0.029284582,0.020356603,-0.13876742,-0.30645782,0.36391866,-9.289502,0.97240865,47.68062,-0.9272287,-1.5980654,-3.6589139,-0.11265,0.09000658,-0.17732319,26.25,27.125,26.25,29.3125,30.5,31.0
