Tylouw/Master_Thesis_Code/training_data/batch_1/big_rod_t0.2/sample_29_session_1.csv
timestamp[s],tcp_force_x[N],tcp_force_y[N],tcp_force_z[N],tcp_force_rx[Nm?],tcp_force_ry[Nm?],tcp_force_rz[Nm?],tcp_pose_x[m],tcp_pose_y[m],tcp_pose_z[m],tcp_pose_rx[rot_vec_x],tcp_pose_ry[rot_vec_y],tcp_pose_rz[rot_vec_z],tcp_velo_x[m/s],tcp_velo_y[m/s],tcp_velo_z[m/s],tcp_velo_rx[rot_vec_x/s],tcp_velo_ry[rot_vec_y/s],tcp_velo_rz[rot_vec_z/s],q1[rad],q2[rad],q3[rad],q4[rad],q5[rad],q6[rad],qd1[rad/s],qd2[rad/s],qd3[rad/s],qd4[rad/s],qd5[rad/s],qd6[rad/s],tool_acc_x,tool_acc_y,tool_acc_z,current_of_whole_robot[A],voltage_of_whole_robot[V],current_J1[A],current_J2[A],current_J3[A],current_J4[A],current_J5[A],current_J6[A],temp_J1[C],temp_J2[C],temp_J3[C],temp_J4[C],temp_J5[C],temp_J6[C]
6.1799074e-07,-0.65114766,-0.8071976,0.3508919,-0.007940142,0.0048516872,-0.012841275,-0.37289816,-0.32822037,0.05995233,-3.0784895,0.62486804,-0.00026735073,0.0037020312,0.0017989777,-0.0053578783,0.005374827,-0.011353715,-5.830888e-06,0.4481382,-1.4708605,2.0095494,-2.1076791,-1.5706614,2.4230556,-7.911728e-05,0.0053612413,0.0061676665,0.0010322172,9.0728725e-05,-7.661311e-05,0.13407528,0.22984336,-8.90643,0.7418897,47.696735,-0.23768514,-2.9151254,-2.5160356,-0.5040865,0.071325295,-0.11296651,26.375,27.25,26.3125,29.5,30.6875,31.1875
0.002051993,-0.15812618,-0.35749087,0.35601625,-0.008217188,0.012469561,-0.010422032,-0.3729015,-0.32823488,0.059953857,-3.0785522,0.62486094,-0.00023638915,0.00011198422,6.217471e-05,-0.0041465224,0.00019802681,-0.000646286,-1.994548e-06,0.4481382,-1.4708724,2.0095737,-2.1077435,-1.5706257,2.4230433,-7.775034e-05,0.0056149554,0.005801803,-0.0107488325,8.94407e-05,-7.533065e-05,0.05746084,0.17238252,-8.90643,0.7530795,47.71465,-0.23072186,-2.8903852,-2.4032187,-0.46317476,0.08144635,-0.11865344,26.375,27.25,26.3125,29.5,30.6875,31.1875
0.00405253,-0.5750804,-0.6164283,0.49091572,0.01707355,0.00047959384,-0.01310866,-0.37289357,-0.32823098,0.059925813,-3.0784898,0.62484854,-0.00027516516,-0.0016098989,-0.0007705922,-0.0024157865,-0.0024509232,0.004843399,-4.0660498e-07,0.4481623,-1.4708133,2.0095732,-2.107744,-1.5706614,2.4230676,-7.6429715e-05,0.003972811,0.0043112542,-0.013711519,8.8188615e-05,-7.4090334e-05,0.095768064,0.17238252,-8.810662,0.7217513,47.70032,-0.25367373,-3.071127,-2.5301054,-0.35861915,0.06417291,-0.107384786,26.375,27.25,26.3125,29.5,30.6875,31.1875
0.006051623,-0.48104542,0.029733444,0.20105961,0.027575431,-0.017358705,-0.008494699,-0.372895,-0.32822955,0.05991958,-3.0785058,0.62485206,-0.00027225277,-0.000852042,-0.00040397275,-0.0017813706,-0.0013787724,0.0026362443,-1.2716773e-06,0.44815025,-1.4708138,2.0095956,-2.1077774,-1.5706495,2.4230556,-7.515342e-05,0.0026993947,0.00313389,-0.008806961,8.697117e-05,-7.289014e-05,0.095768064,0.095768064,-8.848969,0.7038487,47.691364,-0.1776784,-2.9864097,-2.49872,-0.39775032,0.06307287,-0.12026705,26.375,27.25,26.3125,29.5,30.6875,31.1875
0.008052571,0.28076053,0.5012076,-0.12550172,0.057442397,-0.027230745,-0.010664939,-0.3728933,-0.32821804,0.059908494,-3.0784776,0.62486565,-0.00029267033,-0.00019950076,-8.8182926e-05,-0.0010344153,-0.00058854086,0.0010132472,-2.1258306e-06,0.4481382,-1.4708022,2.009608,-2.107776,-1.5706614,2.4230556,-7.391881e-05,0.0011532654,0.002120776,-0.0044425707,8.5786975e-05,-7.1728326e-05,0.05746084,0.11492168,-8.944737,0.7217513,47.678825,-0.23595402,-2.9538364,-2.4580243,-0.42343214,0.06781113,-0.10739192,26.375,27.25,26.3125,29.5,30.6875,31.1875
0.01005252,0.5449656,0.8495118,-0.38981432,0.061638694,-0.021357767,-0.018196838,-0.37285042,-0.3282101,0.05987296,-3.0784183,0.62483406,-0.00042614597,6.11634e-05,4.278065e-05,-0.0008827472,-0.00014439244,9.8847166e-05,-4.957794e-06,0.4481623,-1.4707783,2.0096552,-2.1077402,-1.5706614,2.4230676,-8.2298655e-05,0.00089874584,0.00165601,-0.0027067284,8.4634485e-05,-7.75573e-05,0.019153614,0.038307227,-9.251195,0.75084364,47.667187,-0.567274,-2.1726913,-3.1441352,-0.4321289,0.050664354,-0.15608115,26.375,27.25,26.3125,29.5,30.6875,31.1875
0.012052714,0.6481514,0.7422324,-0.485016,0.023304543,-0.0022200593,-0.017600331,-0.37287796,-0.32821062,0.059896544,-3.0784287,0.624913,-0.0003724106,0.0008528086,0.00044837582,-0.005502025,0.0046759755,-0.009856836,-1.0430947e-05,0.4481382,-1.4707866,2.009607,-2.1077268,-1.5706614,2.4230914,-0.0001124759,0.011603831,6.111454e-05,-0.0007555899,5.4975862e-05,-0.000100116515,0.05746084,0.038307227,-9.3661175,0.73069996,47.705692,-0.67604136,-2.467277,-3.3410897,-0.459445,0.039305624,-0.18427324,26.375,27.25,26.3125,29.5,30.6875,31.1875
0.014051663,-0.66865826,-0.56393963,-0.87258965,0.0018776952,0.0047956733,-0.013713459,-0.37287903,-0.3281969,0.059871837,-3.0783777,0.6248098,-0.00042432843,-0.005913622,0.000199985,-0.0032741162,0.0023829073,-0.0050640632,-0.005616661,0.44813597,-1.4707246,2.0095904,-2.107703,-1.5706977,2.4230313,-0.0057856776,0.017639123,-0.01177839,-0.0002643678,2.093559e-05,-0.00015909108,-0.019153614,0.095768064,-9.442732,0.7329411,47.692257,-0.54498994,-2.8376584,-2.9514637,-0.44900706,0.04088486,-0.194639,26.375,27.25,26.3125,29.5,30.6875,31.1875
0.016052445,-1.2925698,-1.0361736,-0.9294237,-0.034823645,0.035350353,-0.013801661,-0.37288132,-0.32818517,0.059855916,-3.0783405,0.62495315,-0.00053471146,-0.0062236153,0.0015225587,-0.0037912284,0.0029848064,-0.0063007395,-0.0012791024,0.4480872,-1.4706888,2.0095794,-2.1076672,-1.5706614,2.4230766,-0.008549522,0.017658632,-0.010670723,-1.7261327e-05,1.2985695e-05,-0.007261217,-0.40222588,0.30645782,-9.672575,0.7553206,47.677036,-0.32572544,-2.671493,-3.098965,-0.44121453,0.016801277,-0.14619924,26.375,27.25,26.3125,29.5,30.6875,31.1875
0.018051784,-1.5200876,-2.303303,-1.0589108,-0.05564797,0.08728624,-0.026773252,-0.37287322,-0.32818115,0.0598497,-3.078306,0.624829,-0.00056156475,-0.0053219544,0.0013913608,-0.0045521585,0.0037307907,-0.007822384,0.0016545958,0.44811156,-1.4706645,2.009556,-2.107619,-1.5706977,2.423028,-0.007474675,0.018310636,-0.009644823,-1.1270414e-06,8.478731e-07,-0.009120563,-0.47884035,0.38307226,-9.787497,0.68818194,47.693153,-0.52476466,-2.414907,-3.5217078,-0.4307407,0.023373801,-0.14111245,26.375,27.25,26.3125,29.5,30.6875,31.1875
0.020051798,-2.2204444,-2.2674873,-0.92698765,-0.07460902,0.10148594,-0.02638291,-0.3728807,-0.32821497,0.05984794,-3.078372,0.6248046,-0.0005630764,-0.005891185,0.0011510936,-0.0040259864,0.0043838657,-0.009175801,0.0009162425,0.44813567,-1.470628,2.0095308,-2.1076658,-1.5706495,2.4230285,-0.0075419834,0.01985315,-0.013389518,0.003704338,5.5360054e-08,-0.008448115,-0.51714754,0.38307226,-9.787497,0.7777002,47.711964,-0.6594258,-2.393247,-3.4984102,-0.46455985,0.017165542,-0.15508127,26.375,27.25,26.3125,29.5,30.6875,31.1875
0.022051755,-2.091036,-1.6541703,-0.94811815,-0.057266794,0.10127446,-0.031865362,-0.3728935,-0.32820186,0.059839725,-3.078344,0.62476045,-0.00063834316,-0.006597464,0.0013618139,-0.004475812,0.0050074426,-0.010479473,0.00014853547,0.44809934,-1.4705794,2.0094826,-2.1076062,-1.5706495,2.4229681,-0.00858252,0.022212287,-0.015136183,0.004536956,3.6146162e-09,-0.0087197665,-0.61291564,0.5363012,-9.864111,0.7284641,47.71554,-0.7523998,-2.467378,-3.401348,-0.46770573,0.005895483,-0.162215,26.375,27.25,26.3125,29.5,30.6875,31.1875
0.024052555,-2.0789082,-1.397713,-1.225516,-0.030466022,0.08057477,-0.040297788,-0.3728947,-0.3282001,0.05981155,-3.078325,0.6248324,-0.0006782639,-0.008196878,0.0010698388,-0.0036812844,0.0037437887,-0.007871323,0.0012623037,0.44808686,-1.4705313,2.0095055,-2.1076543,-1.5706376,2.423003,-0.0094890315,0.022665927,-0.01715157,0.0032003967,2.3600863e-10,-0.01073837,-0.59376204,0.5554548,-9.902418,0.7284641,47.672558,-0.73602736,-2.4546604,-3.4581616,-0.4581963,-0.00065564737,-0.14418556,26.375,27.25,26.3125,29.5,30.6875,31.1875
0.026052348,-1.4477363,-1.2119421,-1.0591291,-0.028811306,0.06424008,-0.057322267,-0.37290576,-0.32816878,0.05978765,-3.0782747,0.62470764,-0.0007067311,-0.0098723555,0.0010842091,-0.0027160686,0.0024331876,-0.0051619587,0.00027638162,0.44805047,-1.4704834,2.009505,-2.1076424,-1.5706857,2.4228952,-0.011040179,0.022489963,-0.018932415,0.0021468839,1.5409675e-11,-0.011302245,-0.51714754,0.4405331,-9.844957,0.8224646,47.645687,-0.7530596,-2.2710917,-3.5340617,-0.4368567,-0.0029302,-0.16343752,26.375,27.25,26.3125,29.5,30.6875,31.1875
0.028052215,-1.3059138,-0.90366375,-0.9196211,-0.027298283,0.05372094,-0.06525265,-0.3729711,-0.32819402,0.05982975,-3.0783372,0.6248752,-0.0006057045,-0.011272529,0.0012715609,-0.002638055,0.0024860913,-0.0042829257,-0.0009985334,0.4480139,-1.4704589,2.0093844,-2.1076548,-1.5706495,2.4229553,-0.01237229,0.024165569,-0.020824926,0.0015963856,-0.00043274023,-0.0113569815,-0.7086837,0.34476504,-9.768343,0.7777002,47.666286,-0.82631356,-2.3544226,-3.5080528,-0.41530633,-0.021132195,-0.16788378,26.375,27.25,26.3125,29.5,30.6875,31.1875
0.030052042,-1.426779,-0.86555153,-0.98555166,-0.010015034,0.054042198,-0.0751939,-0.3729693,-0.32817748,0.05978926,-3.0782306,0.62479603,-0.0006971472,-0.013200276,0.0014418524,-0.0020010176,0.0025424403,-0.0023131415,-0.0020825216,0.44802538,-1.4703506,2.0093477,-2.1076071,-1.5707101,2.422931,-0.013829934,0.02555461,-0.023766967,0.001400941,-0.0013450596,-0.0117265545,-0.61291564,0.28730422,-9.672575,0.7866488,47.694946,-0.825313,-2.3515375,-3.4216492,-0.39864367,-0.008253865,-0.1854494,26.375,27.25,26.3125,29.5,30.6875,31.1875
0.03205194,-1.2256922,-0.28426206,-0.5816104,-0.0015426498,0.07271673,-0.093160585,-0.37301376,-0.32819924,0.05979786,-3.078308,0.62488896,-0.0006893293,-0.014940431,0.0015297483,-0.0015370287,0.002520134,-0.0006621081,-0.0032306046,0.44797704,-1.4703022,2.0092857,-2.1076548,-1.5706381,2.4229307,-0.015102089,0.027082603,-0.026425777,0.0010372675,-0.0020460738,-0.011847276,-0.5554548,0.15322891,-9.576807,0.75084364,47.683304,-0.7801331,-2.3296347,-3.4152565,-0.38497293,-0.050523236,-0.19579205,26.375,27.25,26.3125,29.5,30.6875,31.1875
0.03405201,-1.5089517,0.11897008,-0.5128384,0.01560608,0.07043748,-0.100192025,-0.37303564,-0.32818156,0.05979356,-3.0782783,0.6248644,-0.00069719285,-0.016802665,0.0018003548,-0.00065893005,0.001957828,0.0013046148,-0.004022047,0.44794032,-1.4702661,2.0092504,-2.107631,-1.5706624,2.4228826,-0.017066007,0.027614279,-0.02903866,0.0011029633,-0.0023975903,-0.013017315,-0.4213795,-0.05746084,-9.519346,0.78217715,47.70659,-0.782457,-2.301987,-3.3663454,-0.370183,-0.012738001,-0.1991123,26.375,27.25,26.3125,29.5,30.6875,31.1875
0.03605236,-1.0215776,0.7270164,-0.45146805,0.02953751,0.060548827,-0.12077467,-0.37309173,-0.32819593,0.05980775,-3.0782957,0.6249255,-0.0006373193,-0.01712668,0.0017033508,-0.00037381006,0.0023718602,0.00076287665,-0.0033105756,0.44791627,-1.4701939,2.0091412,-2.107642,-1.5706624,2.4228945,-0.01708286,0.028368112,-0.030934379,0.0029127898,-0.0025358961,-0.013744744,-0.38307226,-0.038307227,-9.442732,0.7172743,47.705692,-0.7741223,-2.1879568,-3.3548717,-0.37577716,-0.01931578,-0.18615046,26.375,27.25,26.3125,29.5,30.6875,31.1875
0.038052045,-0.5687669,0.9038554,-0.47442707,0.038891055,0.047690112,-0.1292296,-0.3731397,-0.32818475,0.059801765,-3.0782764,0.62495935,-0.00059970457,-0.017865703,0.001637767,-0.00012933431,0.002388673,0.00018969896,-0.0025895091,0.44786805,-1.4701217,2.0090811,-2.1076658,-1.5706867,2.42287,-0.017786548,0.029690016,-0.03330636,0.004485252,-0.0023050301,-0.015168842,-0.34476504,-0.1340753,-9.442732,0.7239871,47.70838,-0.7279705,-2.2443519,-3.3413935,-0.3745958,-0.044221662,-0.19815952,26.375,27.25,26.3125,29.5,30.6875,31.1875
0.040051993,-0.5103561,0.6084408,-0.56097007,0.051309336,0.031493388,-0.13380565,-0.37314928,-0.3281853,0.059794,-3.0782928,0.6249048,-0.00065225153,-0.018953362,0.0015791209,-0.00027037418,0.0025575415,2.3567645e-05,-0.0023756463,0.44784385,-1.4700849,2.0090559,-2.1076539,-1.5706624,2.4228096,-0.018607937,0.032006778,-0.03556381,0.004649271,-0.0023907607,-0.016202187,-0.21068975,-0.11492168,-9.481039,0.7978386,47.678825,-0.7500179,-2.1882071,-3.3359356,-0.3598425,-0.06865637,-0.18163913,26.375,27.25,26.3125,29.5,30.6875,31.1875
0.042034328,-0.22696875,0.5870031,-0.61621875,0.03514187,0.026298458,-0.15630448,-0.37322646,-0.32819468,0.059813898,-3.078317,0.62491006,-0.0005390127,-0.020118235,0.0012202181,0.0003624593,0.0021844106,0.0015967572,-0.0022410464,0.44780773,-1.4700007,2.0089233,-2.1076777,-1.5706867,2.4227738,-0.018752543,0.03287414,-0.03795722,0.004596415,-0.0027398206,-0.01647927,-0.19153613,0.019153614,-9.481039,0.7709874,47.701214,-0.7747655,-2.183279,-3.3507233,-0.33802795,-0.036676675,-0.17728403,26.375,27.25,26.3125,29.5,30.6875,31.1875
0.044022977,-0.2186802,-0.38040495,-0.5409358,0.032740615,0.016372178,-0.15982038,-0.3732404,-0.32816708,0.059785467,-3.0782192,0.62492883,-0.0006677262,-0.020854436,0.0017561205,0.000248676,0.003118995,0.00086475414,-0.0040173503,0.44775924,-1.4699045,2.0088637,-2.1075933,-1.5707105,2.4227495,-0.020071615,0.0342219,-0.039456114,0.00581349,-0.0032674305,-0.01601982,-0.17238252,0.0,-9.404425,0.679228,47.698532,-0.7480734,-2.151413,-3.3568902,-0.31489697,-0.053087346,-0.17382897,26.375,27.25,26.3125,29.5,30.6875,31.1875
0.046052333,-0.33090854,-0.44293433,-0.5867822,0.016373577,0.012442148,-0.16559318,-0.3732644,-0.32818943,0.05977982,-3.0782678,0.6250552,-0.0007340524,-0.021372337,0.0022617911,0.00026703294,0.004555613,6.585675e-05,-0.004758709,0.4477229,-1.4698441,2.0088155,-2.1076162,-1.5706271,2.4227858,-0.020849545,0.035309423,-0.041136242,0.00775282,-0.004215643,-0.01605378,-0.095768064,0.0,-9.519346,0.75084364,47.723602,-0.7460139,-2.1474926,-3.4108775,-0.32874826,-0.04963562,-0.1787034,26.375,27.25,26.3125,29.5,30.6875,31.1875
0.048052043,-0.4841461,-0.830636,-0.8378331,0.0067134607,0.011332175,-0.15995604,-0.37335417,-0.3281664,0.05981965,-3.0782518,0.62501323,-0.00053537986,-0.022367874,0.002196104,0.00095604843,0.0044217827,0.0010002502,-0.005383931,0.4476629,-1.4698081,2.008682,-2.1076047,-1.5707229,2.4227018,-0.021433024,0.035750855,-0.043415055,0.008689203,-0.0045008734,-0.016010653,0.0,0.13407528,-9.5385,0.7709874,47.711063,-0.71366715,-2.0668437,-3.398833,-0.34110737,-0.04541725,-0.18144408,26.375,27.25,26.3125,29.5,30.6875,31.1875
0.050052237,-0.5311012,-0.8745977,-0.7987648,-0.007329933,0.006049501,-0.16149123,-0.37337908,-0.32814634,0.0597948,-3.07819,0.6250585,-0.00064203196,-0.023112424,0.0023316506,0.0010281836,0.004701334,0.000798089,-0.0058570295,0.44760248,-1.469712,2.0086224,-2.107556,-1.5707229,2.4226775,-0.022248877,0.03695507,-0.04508008,0.009453515,-0.0046688444,-0.016351707,-0.038307227,0.17238252,-9.442732,0.784413,47.701214,-0.71894723,-2.0782743,-3.3867104,-0.3382104,-0.057178214,-0.17127158,26.375,27.25,26.3125,29.5,30.6875,31.1875
0.052052148,-0.111214295,-0.9784286,-0.91132283,-0.016320894,0.01195206,-0.15626106,-0.37342474,-0.32814485,0.059807483,-3.0781953,0.6250598,-0.00060051633,-0.023720214,0.0023646487,0.001265561,0.0044453484,0.00023578167,-0.0062977173,0.44756624,-1.4696637,2.0085375,-2.1075437,-1.5707349,2.4226415,-0.023181194,0.03778413,-0.04683805,0.010776383,-0.0041954145,-0.016843662,0.019153614,0.3256114,-9.442732,0.7351769,47.707485,-0.6580171,-2.0391684,-3.4477534,-0.33917558,-0.06649734,-0.16763788,26.375,27.25,26.3125,29.5,30.6875,31.1875
0.054051973,-0.43974274,-1.529431,-0.94074506,-0.013162254,0.0016917831,-0.14109005,-0.37344056,-0.32813108,0.059775747,-3.0781412,0.62501097,-0.0006687351,-0.024604404,0.0023897814,0.0013928264,0.004512497,0.00031143217,-0.0068667377,0.44754207,-1.4695673,2.0085018,-2.1075318,-1.5707587,2.4225938,-0.023965348,0.03910835,-0.048701324,0.01127609,-0.004292926,-0.017057104,-0.038307227,0.40222588,-9.423578,0.7777002,47.711964,-0.6991534,-1.9574543,-3.4980125,-0.34773248,-0.077567205,-0.17015249,26.375,27.25,26.3125,29.5,30.6875,31.1875
0.056052156,0.03156297,-1.478766,-0.85106504,-0.025489565,0.019834554,-0.15099695,-0.37350866,-0.3281445,0.059800383,-3.0781517,0.6250705,-0.0006224795,-0.025540862,0.0024914884,0.001450148,0.0049953945,0.00021861246,-0.006396744,0.44750565,-1.469483,2.0083444,-2.1074955,-1.5707592,2.4225934,-0.024733994,0.040758897,-0.050821993,0.012039816,-0.00469116,-0.01829374,-0.095768064,0.40222588,-9.5385,0.7642693,47.716442,-0.70306575,-1.9258623,-3.4779983,-0.3515905,-0.082696885,-0.15583205,26.375,27.25,26.3125,29.5,30.6875,31.1875
0.058052327,-0.51741505,-1.6414579,-0.76747406,-0.03298548,0.015531762,-0.14494757,-0.37356597,-0.3281229,0.059803803,-3.078112,0.62517667,-0.000627608,-0.026306279,0.0028313622,0.0012541756,0.006574768,-0.0002080842,-0.005912913,0.44742143,-1.4694104,2.0082486,-2.1074588,-1.5707716,2.4225805,-0.025223132,0.042716287,-0.05276531,0.01309735,-0.0059332848,-0.019262789,0.019153614,0.4213795,-9.5385,0.75084364,47.694054,-0.6677288,-1.874929,-3.5312653,-0.35486,-0.06487267,-0.14657617,26.375,27.25,26.3125,29.5,30.6875,31.1875
0.060052227,-0.7647014,-1.605847,-0.66234666,-0.029408434,0.020912556,-0.14691085,-0.37362453,-0.32815963,0.059824813,-3.0781813,0.6250762,-0.0005895115,-0.027150972,0.0030386255,0.0011137614,0.0077876714,-0.00018556573,-0.0058012353,0.44742137,-1.469314,2.0080917,-2.107447,-1.5707482,2.422509,-0.025629122,0.04457592,-0.054599147,0.013580322,-0.007038748,-0.01977715,0.0,0.38307226,-9.519346,0.7463667,47.66091,-0.71330345,-1.9261237,-3.5220084,-0.36268604,-0.075604536,-0.1397993,26.375,27.25,26.3125,29.5,30.6875,31.1875
0.06205193,-0.93213445,-1.7440503,-0.73153585,-0.022836927,0.02788107,-0.14040488,-0.37365982,-0.32814693,0.059825014,-3.078137,0.62510455,-0.0006388194,-0.02862261,0.0028338234,0.0014750991,0.00761944,0.0012725544,-0.005282234,0.44737315,-1.4692416,2.0079954,-2.107375,-1.5707597,2.4224842,-0.026247831,0.04624519,-0.05714798,0.0130733885,-0.007526332,-0.020911533,-0.019153614,0.38307226,-9.519346,0.75084364,47.691364,-0.6789979,-1.8686045,-3.5154567,-0.36956847,-0.06488416,-0.13274379,26.375,27.25,26.3125,29.5,30.6875,31.1875
0.06405177,-1.0259281,-1.3581393,-0.5308643,-0.017809307,0.030424815,-0.1407956,-0.37372783,-0.3281431,0.059818774,-3.078138,0.6251244,-0.000595518,-0.030458098,0.0024672993,0.002010767,0.0070375265,0.0038104628,-0.0049929633,0.44731286,-1.4691331,2.007899,-2.107412,-1.5707725,2.4224362,-0.026825748,0.047899805,-0.059860524,0.011592556,-0.008108741,-0.021775352,-0.15322891,0.40222588,-9.5385,0.7284641,47.68599,-0.6631571,-1.8642805,-3.5017948,-0.36195526,-0.07717248,-0.12641262,26.375,27.25,26.3125,29.5,30.6875,31.1875
0.06605237,-0.9420946,-0.917983,-0.6149972,-0.01749421,0.033960145,-0.14595155,-0.37378725,-0.32812476,0.05983896,-3.0780969,0.6251919,-0.0005881902,-0.0313559,0.0025375371,0.0017545283,0.007896241,0.0043439963,-0.0044054394,0.44724086,-1.4690725,2.007767,-2.1073282,-1.5707968,2.4224117,-0.027084036,0.04983745,-0.061254643,0.01094164,-0.009119006,-0.022617554,-0.15322891,0.34476504,-9.404425,0.71951014,47.684196,-0.6961528,-1.8377969,-3.5110292,-0.3494882,-0.052374393,-0.11335427,26.375,27.25,26.3125,29.5,30.6875,31.1875
0.06805224,-1.0315311,-0.95158094,-0.4070588,-0.008961351,0.032656927,-0.136011,-0.37386554,-0.32812634,0.059838105,-3.0781102,0.62519366,-0.00053033384,-0.03330835,0.0019510183,0.0029601369,0.006925003,0.0075653912,-0.0039272746,0.4471808,-1.4689525,2.0076454,-2.107364,-1.5708088,2.4223511,-0.027390903,0.05066427,-0.064793184,0.010329591,-0.009644817,-0.0233994,-0.15322891,0.36391866,-9.404425,0.7709874,47.691364,-0.72992146,-1.8145462,-3.4736576,-0.34301296,-0.05493074,-0.08878739,26.375,27.25,26.3125,29.5,30.6875,31.1875
0.07005224,-0.759865,-0.4820289,-0.31251493,-0.011805949,0.038133286,-0.14476517,-0.37392652,-0.32812583,0.059845902,-3.07809,0.62524754,-0.00051895395,-0.03437572,0.0016115734,0.0023959621,0.0070067625,0.0066372766,-0.0040296228,0.44713256,-1.4688555,2.0075128,-2.1073287,-1.5708207,2.4223392,-0.02793568,0.054240312,-0.0674131,0.010243649,-0.009323088,-0.023840366,-0.24899697,0.22984336,-9.3661175,0.7486078,47.709274,-0.75725853,-1.8468319,-3.3255835,-0.32764727,-0.056075465,-0.094413556,26.375,27.25,26.3125,29.5,30.6875,31.1875
0.07205201,-0.8791855,-0.7861176,-0.45413873,0.00092952495,0.037480634,-0.13507739,-0.37399286,-0.32813,0.059861865,-3.0781074,0.6251745,-0.00045229623,-0.034738597,0.0016519898,0.0020224797,0.0069569303,0.005622206,-0.0046841516,0.44709632,-1.4687711,2.0073807,-2.1073163,-1.5708445,2.4222553,-0.028663116,0.055738498,-0.068262026,0.010485477,-0.008839633,-0.023913946,-0.24899697,0.2681506,-9.385271,0.8090337,47.677036,-0.7866272,-1.9025824,-3.5082922,-0.33047342,-0.04332381,-0.09376607,26.375,27.25,26.3125,29.5,30.6875,31.1875
0.074051954,-0.63694006,-0.41251072,-0.33202156,-0.0064947796,0.043623094,-0.14537098,-0.3741076,-0.32814702,0.059891306,-3.0781355,0.6252561,-0.00036155444,-0.036245596,0.00087627576,0.0037195804,0.0053878175,0.008917021,-0.0034779112,0.44702446,-1.4686276,2.0071528,-2.1073043,-1.570845,2.422231,-0.028551342,0.05513262,-0.07154972,0.010728742,-0.0088541405,-0.025007246,-0.28730422,0.24899697,-9.404425,0.779936,47.686886,-0.7741555,-1.7521224,-3.5277104,-0.32076007,-0.048599586,-0.080745436,26.375,27.25,26.3125,29.5,30.6875,31.1875
0.076052405,-1.1668929,-0.9803014,-0.2695647,0.00948288,0.03234027,-0.13990082,-0.37414163,-0.32813796,0.05986819,-3.0780795,0.6252441,-0.00048216662,-0.037967194,0.00027821,0.0043034013,0.004502573,0.009580704,-0.003187171,0.44697616,-1.468495,2.0070436,-2.1072319,-1.5708445,2.4221823,-0.029324839,0.057577927,-0.07576202,0.011512032,-0.008352694,-0.026069038,-0.3256114,0.15322891,-9.385271,0.8157518,47.6636,-0.7969575,-1.7545099,-3.2081356,-0.3123725,-0.07389973,-0.06858913,26.375,27.25,26.3125,29.5,30.6875,31.1875
0.0780523,-1.0110362,-0.73513114,-0.38188097,0.013602213,0.037956055,-0.14130525,-0.3742257,-0.32812268,0.05987766,-3.078061,0.62531793,-0.00036429652,-0.037683632,0.0006957611,0.0019774367,0.0063718157,0.0048784013,-0.0033889993,0.44690377,-1.4684093,2.0069358,-2.1072676,-1.5708927,2.4221585,-0.03008249,0.062458556,-0.07585633,0.01177073,-0.008004079,-0.026625313,-0.3256114,0.19153613,-9.385271,0.84484416,47.672558,-0.80422133,-1.8988532,-3.428525,-0.322065,-0.07453513,-0.06942806,26.375,27.25,26.3125,29.5,30.6875,31.1875
0.08005219,-1.2309525,-0.26025775,-0.2342253,0.0020267214,0.03740849,-0.14574327,-0.3743325,-0.32815525,0.059910152,-3.0781062,0.6252886,-0.00028723959,-0.039549384,-7.757505e-05,0.0041649733,0.0041800807,0.008965663,-0.0043156096,0.44686776,-1.4682541,2.0066826,-2.1072319,-1.5708922,2.4220986,-0.030449092,0.06119394,-0.07956815,0.012113321,-0.007798935,-0.02606432,-0.3256114,0.21068975,-9.404425,0.78888994,47.68062,-0.76211214,-1.8305881,-3.3415117,-0.31947652,-0.0769989,-0.07352327,26.375,27.25,26.3125,29.5,30.6875,31.1875
0.08205386,-1.2334489,-0.7619992,-0.32864484,0.007994661,0.03607593,-0.1295666,-0.3744033,-0.3281341,0.059896573,-3.078057,0.6253757,-0.00032217402,-0.04060158,-0.0004734711,0.004007472,0.0037499869,0.008031042,-0.0059664487,0.44677156,-1.4681214,2.0065625,-2.107208,-1.5709037,2.422063,-0.031183045,0.06406739,-0.08254744,0.012872708,-0.007011678,-0.025146753,-0.38307226,0.22984336,-9.404425,0.7978386,47.682407,-0.86684954,-1.7309108,-3.218462,-0.30734327,-0.09290181,-0.079423636,26.375,27.25,26.3125,29.5,30.6875,31.1875
0.08405234,-1.0658499,-0.56709665,-0.31668445,-0.00063789496,0.039425664,-0.13875403,-0.37446445,-0.32814214,0.05990446,-3.078051,0.6253739,-0.00036522676,-0.041043606,-0.0005017769,0.003070251,0.0044472567,0.0064705187,-0.0060346816,0.44672346,-1.4680005,2.006395,-2.107136,-1.5708922,2.4220147,-0.03155344,0.067126974,-0.08373169,0.012705684,-0.006969801,-0.0254476,-0.40222588,0.24899697,-9.3661175,0.7777002,47.69763,-0.8284764,-1.8077083,-3.2924795,-0.30095816,-0.09123193,-0.065555885,26.375,27.25,26.3125,29.5,30.6875,31.1875
0.08605195,-1.0975629,-1.0164802,-0.5163093,0.0013636986,0.042415045,-0.13553867,-0.3745393,-0.328135,0.059906434,-3.0780113,0.6253472,-0.00033261275,-0.043577157,-0.0006045885,0.004298134,0.00401739,0.008865081,-0.006275872,0.4466748,-1.4678682,2.0062368,-2.1070998,-1.5709404,2.4219546,-0.03320396,0.06880311,-0.088587865,0.013540612,-0.0076258024,-0.02685261,-0.36391866,0.22984336,-9.404425,0.7329411,47.707485,-0.86320376,-1.8774171,-3.1362865,-0.30239576,-0.11103266,-0.059624914,26.375,27.25,26.3125,29.5,30.6875,31.1875
0.08805185,-0.9271083,-0.6612896,-0.4556073,-0.011799756,0.051150434,-0.13639946,-0.37464643,-0.32815215,0.059928365,-3.0780578,0.6254147,-0.00024097096,-0.043583266,0.0007530453,0.0029222788,0.006609857,0.006551016,-0.00769031,0.4466022,-1.4677358,2.0060465,-2.107124,-1.5709289,2.4219184,-0.03484543,0.070741504,-0.087649025,0.013874671,-0.008959267,-0.027077995,-0.4213795,0.24899697,-9.404425,0.7016076,47.666286,-0.7960762,-1.7984126,-3.2957253,-0.28712586,-0.09292962,-0.06312751,26.375,27.25,26.3125,29.5,30.6875,31.1875
0.09005164,-1.158812,-1.0208422,-0.4361618,-0.0073137567,0.05199132,-0.13942379,-0.37470996,-0.3281422,0.05992374,-3.0780342,0.6254681,-0.0002973554,-0.045236085,0.0005777962,0.0036259934,0.0075281314,0.008278342,-0.007605361,0.44651818,-1.4676152,2.0059135,-2.1070755,-1.5709175,2.4218707,-0.03493498,0.07258168,-0.09148499,0.014714235,-0.010540485,-0.027246669,-0.38307226,0.2681506,-9.404425,0.79560274,47.67345,-0.7828523,-1.9516456,-3.3007715,-0.29788104,-0.085884765,-0.056190833,26.375,27.25,26.3125,29.5,30.6875,31.1875
0.092052385,-1.1866317,-1.1229867,-0.4320801,-0.011481866,0.053298216,-0.13949756,-0.37483263,-0.32815018,0.059954777,-3.0780609,0.62537515,-0.00018976095,-0.04444929,0.0011145489,0.0018850802,0.009836255,0.00505224,-0.0065106456,0.44644627,-1.4674588,2.0056622,-2.1070397,-1.5709532,2.4217377,-0.034756463,0.0751588,-0.0903926,0.014951548,-0.011225155,-0.028162485,-0.30645782,0.36391866,-9.270349,0.83589023,47.699425,-0.80362976,-1.83814,-3.262995,-0.30664265,-0.08139144,-0.06333536,26.375,27.25,26.3125,29.5,30.6875,31.1875
0.09405225,-1.299564,-0.9347424,-0.38674006,-0.0023076553,0.044380147,-0.13817479,-0.37492132,-0.3281392,0.059945438,-3.078002,0.6254974,-0.00019531552,-0.046378825,0.0008778462,0.0026756756,0.010162813,0.0070930277,-0.006355086,0.4463621,-1.4672905,2.005493,-2.1070158,-1.570978,2.4217374,-0.035246737,0.07705949,-0.09440059,0.015361326,-0.012409238,-0.028803179,-0.28730422,0.38307226,-9.385271,0.77545905,47.705692,-0.8835747,-1.9485259,-3.2294526,-0.29480845,-0.060394958,-0.054211102,26.375,27.25,26.3125,29.5,30.6875,31.1875
0.09605162,-1.3798693,-0.6015918,-0.4400473,-0.0039231717,0.02943817,-0.1324427,-0.37500727,-0.32813966,0.059940867,-3.0779834,0.6254571,-0.00018857689,-0.04851568,0.0013756154,0.0030595348,0.009876294,0.008638894,-0.010009657,0.44630128,-1.4671222,2.0053127,-2.1069915,-1.5710019,2.421654,-0.037821807,0.07869554,-0.09695614,0.014763306,-0.012824495,-0.027720775,-0.19153613,0.34476504,-9.385271,0.7530795,47.698532,-0.78520966,-1.8799198,-3.182338,-0.2906494,-0.05773396,-0.07019242,26.375,27.25,26.3125,29.5,30.6875,31.1875
0.098052554,-1.115379,-0.5862883,-0.2640842,-0.0056135096,0.023260511,-0.12940848,-0.37512434,-0.32815978,0.059973553,-3.078029,0.62554497,-0.00012279015,-0.049285483,0.0011023305,0.0028622483,0.009562286,0.0082317805,-0.011959735,0.4462171,-1.4669781,2.0050738,-2.1069677,-1.570978,2.421619,-0.038299568,0.08076146,-0.09878649,0.014758113,-0.012366516,-0.026248856,-0.19153613,0.2681506,-9.3661175,0.7463667,47.694054,-0.74093527,-1.9309638,-3.1957402,-0.26936272,-0.066533834,-0.10470037,26.375,27.25,26.3125,29.5,30.6875,31.1875
0.10005248,-0.63791156,-0.5542588,-0.40152857,-0.0071164924,0.020275606,-0.14560923,-0.3752211,-0.32815263,0.0599816,-3.0779893,0.6255746,-3.676225e-05,-0.050673433,0.001482245,0.0026917495,0.009771823,0.008199402,-0.012574931,0.4461564,-1.4668335,2.0048935,-2.1069558,-1.5710377,2.421582,-0.04013444,0.08293252,-0.10078198,0.014699882,-0.012545638,-0.027466968,-0.19153613,0.2681506,-9.3661175,0.7642693,47.71465,-0.7306353,-1.8924737,-3.144495,-0.23649786,-0.059991173,-0.100005016,26.375,27.25,26.3125,29.5,30.6875,31.1875
0.10205221,-0.8117121,-1.0300955,-0.593236,0.00844598,0.0092952745,-0.12888154,-0.37532365,-0.32813987,0.05995918,-3.0779195,0.6256178,-0.00012871614,-0.051194277,0.0017217031,0.002597967,0.010918273,0.007388068,-0.011567829,0.44604838,-1.4665933,2.0046642,-2.1068838,-1.5710505,2.42151,-0.04057492,0.08446073,-0.10261829,0.016234547,-0.013233002,-0.028911302,-0.095768064,0.2681506,-9.3661175,0.7418897,47.719128,-0.7534683,-1.8438983,-3.195457,-0.23167086,-0.042410985,-0.08364114,26.375,27.25,26.3125,29.5,30.6875,31.1875
0.10405211,-0.56507945,-0.71301556,-0.5434954,0.002683968,0.01698775,-0.13207963,-0.37541994,-0.32813734,0.059968513,-3.07792,0.6256747,-7.418403e-05,-0.05170513,0.0014003236,0.0020435438,0.012457211,0.0066913106,-0.010577535,0.44596463,-1.4664602,2.0044963,-2.1068838,-1.5710624,2.4214618,-0.039685596,0.087559976,-0.10487158,0.016683437,-0.014323548,-0.029008936,-0.21068975,0.24899697,-9.32781,0.72622824,47.666286,-0.79335153,-2.080604,-3.1026967,-0.23031068,-0.030709714,-0.10346521,26.375,27.25,26.3125,29.5,30.6875,31.1875
0.10605179,-0.48140198,-0.5102673,-0.4555307,-0.0007015128,0.030288013,-0.1425923,-0.3755488,-0.32813942,0.059999973,-3.0779254,0.6257337,2.2428687e-05,-0.05272039,0.0016167025,0.003290898,0.011680201,0.008539369,-0.012016246,0.44586828,-1.4663051,2.004245,-2.106847,-1.5710863,2.4214017,-0.040924106,0.08618348,-0.10644184,0.017626148,-0.014418788,-0.028808994,-0.17238252,0.21068975,-9.270349,0.800085,47.696735,-0.8132178,-1.7933782,-3.214742,-0.23311612,-0.043960184,-0.103015736,26.375,27.25,26.3125,29.5,30.6875,31.1875
0.10805256,-1.243794,-0.928398,-0.4894071,0.0010793962,0.020861017,-0.13701198,-0.37564635,-0.32814533,0.05999245,-3.0778682,0.6256266,1.6904964e-05,-0.053043555,0.0020155292,0.00061045046,0.013502849,0.003311357,-0.013075169,0.44583172,-1.4660752,2.0039928,-2.106775,-1.5711464,2.421306,-0.042365663,0.09282066,-0.107640095,0.017685484,-0.013812838,-0.029190384,-0.15322891,0.22984336,-9.270349,0.8157518,47.696735,-0.7065902,-2.0308318,-3.2448733,-0.2198281,-0.017084224,-0.119381465,26.375,27.25,26.3125,29.5,30.6875,31.1875
0.11005247,-0.43184164,-0.91397595,-0.09462454,-0.013748946,0.031189602,-0.14184485,-0.3757292,-0.3281254,0.059976924,-3.0778039,0.6257088,-1.884614e-05,-0.05402023,0.0016581254,0.0023844948,0.011405782,0.0065678167,-0.013195472,0.4457356,-1.4659088,2.0038369,-2.1067393,-1.5711702,2.4212694,-0.042886525,0.09034426,-0.108988754,0.017664164,-0.013329344,-0.029590886,-0.15322891,0.15322891,-9.193734,0.8179876,47.694054,-0.74952996,-1.7990922,-3.268876,-0.21635914,-0.040326156,-0.1427145,26.375,27.25,26.3125,29.5,30.6875,31.1875
0.1120523,-0.47937492,-0.5895856,-0.20633641,-0.021420926,0.019286856,-0.14278367,-0.37585166,-0.32812455,0.059980653,-3.0777774,0.62577933,1.699518e-05,-0.054511826,0.0015525084,0.0013817181,0.012697062,0.004841126,-0.012513061,0.4456396,-1.4657036,2.003597,-2.1067154,-1.571194,2.421221,-0.042830076,0.09402594,-0.1108244,0.017931921,-0.013753442,-0.030214604,-0.11492168,0.17238252,-9.232041,0.86945957,47.703007,-0.7881804,-1.9951193,-3.3356543,-0.20880547,-0.03284967,-0.1394877,26.375,27.25,26.3125,29.5,30.6875,31.1875
0.11405236,-0.66862833,-0.8276138,-0.5254456,0.0011817113,0.0014118725,-0.13153939,-0.37597972,-0.32813904,0.060004998,-3.077815,0.625749,0.00014199359,-0.055360332,0.0012747354,0.0010205623,0.012233265,0.00434821,-0.012968571,0.4455673,-1.4655349,2.0033581,-2.1067274,-1.5712179,2.4211252,-0.043482132,0.09642364,-0.11255661,0.017507242,-0.013124821,-0.030411975,-0.05746084,0.19153613,-9.289502,0.7351769,47.684196,-0.81945086,-1.9683213,-3.3475552,-0.16390297,-0.038862344,-0.14401704,26.375,27.25,26.3125,29.5,30.6875,31.1875
0.1160526,-0.38494104,-0.519859,-0.43384704,0.0019111937,0.0024883975,-0.13245603,-0.37608683,-0.32813933,0.060018294,-3.0777936,0.62586015,0.00014357433,-0.05566113,0.0011373993,0.0006298667,0.012378125,0.0035547926,-0.013106376,0.44547126,-1.4653668,2.0031288,-2.1066678,-1.5712179,2.4211013,-0.04362046,0.09809412,-0.11353712,0.017593693,-0.012915651,-0.030412128,-0.076614454,0.095768064,-9.270349,0.7642693,47.693153,-0.84978354,-2.035464,-3.2479196,-0.15813476,-0.046277344,-0.16369176,26.375,27.25,26.3125,29.5,30.6875,31.1875
0.11805243,-0.6823836,-0.34971508,-0.28111315,0.008383071,0.0006287786,-0.14053267,-0.37621456,-0.32813442,0.06002167,-3.0777464,0.62588835,0.0002129037,-0.056192655,0.00050479255,0.0009789022,0.01081268,0.0029008691,-0.013127127,0.44538707,-1.4651508,2.0028775,-2.106643,-1.5712775,2.421041,-0.044037327,0.09912674,-0.11574207,0.018672472,-0.011223452,-0.030810446,-0.22984336,0.17238252,-9.251195,0.7351769,47.685097,-0.8319385,-1.9238017,-3.5127878,-0.14450172,-0.049869478,-0.182189,26.375,27.25,26.3125,29.5,30.6875,31.1875
0.120052196,-0.42604393,0.01041782,-0.2608357,0.0005879502,0.01172068,-0.13882747,-0.37632605,-0.32814112,0.06002021,-3.077744,0.62594557,0.00019954059,-0.05603004,0.0005914105,4.5955247e-05,0.011602655,0.00029793044,-0.012442278,0.44529107,-1.4649465,2.00265,-2.1066186,-1.5712656,2.4209812,-0.044311892,0.10145449,-0.11642833,0.019717488,-0.01081497,-0.031770177,-0.24899697,0.17238252,-9.346964,0.78888994,47.681515,-0.8730904,-1.9246087,-3.4288177,-0.15098882,-0.060905457,-0.19540438,26.375,27.25,26.3125,29.5,30.6875,31.1875
0.122052126,-0.58178675,-0.6022229,-0.4018304,0.00986848,0.021029836,-0.13909325,-0.37642065,-0.32815278,0.059997577,-3.0777004,0.625993,9.701648e-05,-0.05649439,0.00028101937,-0.00015406834,0.011938084,-0.00033437798,-0.011799143,0.44521928,-1.4646943,2.0024102,-2.106559,-1.5712532,2.4209447,-0.044110794,0.10342284,-0.11830749,0.02034287,-0.010850822,-0.032210175,-0.17238252,0.22984336,-9.2703495,0.7933669,47.687782,-1.0137615,-1.9153547,-3.490713,-0.14318758,-0.066046834,-0.21267931,26.375,27.25,26.3125,29.5,30.6875,31.1875
0.124051966,-0.94281155,-0.859206,-0.36173037,0.004758938,0.022549931,-0.13212012,-0.3765362,-0.32813933,0.060005747,-3.0776818,0.62589407,0.00014211625,-0.057581875,0.0009721067,0.000767356,0.011799185,0.0012499591,-0.012293952,0.4451225,-1.4645149,2.0021827,-2.1065109,-1.5713013,2.4207888,-0.04598746,0.102281034,-0.1193303,0.021016093,-0.011409464,-0.033590753,-0.13407528,0.17238252,-9.308657,0.8023209,47.67793,-0.94094837,-1.8249176,-3.4744167,-0.14496648,-0.05853516,-0.21050918,26.375,27.25,26.3125,29.5,30.6875,31.1875
0.1260521,-0.7382835,-0.5056072,-0.47960722,-0.007361723,0.021104164,-0.13797982,-0.37665004,-0.32813433,0.06001272,-3.077646,0.6259417,0.00015139143,-0.05862769,-6.939427e-05,0.0011291661,0.011675687,0.0019604226,-0.008929476,0.44502702,-1.4643226,2.001941,-2.1064508,-1.5713257,2.4207277,-0.04482441,0.104831904,-0.12311293,0.021550504,-0.011612478,-0.03578922,-0.076614454,0.24899697,-9.32781,0.8717007,47.657326,-0.98673373,-1.7447095,-3.3865962,-0.119328395,-0.07281964,-0.2174142,26.375,27.25,26.3125,29.5,30.6875,31.1875
0.12805201,-0.17689915,-0.3432798,-0.40175053,-0.0046394677,0.031437878,-0.14104253,-0.3767711,-0.32815868,0.060027596,-3.0776665,0.6260029,0.00018505083,-0.05924884,-0.0009971524,0.0019067428,0.010893133,0.0031475923,-0.008244471,0.4449553,-1.464119,2.0016768,-2.106427,-1.5713133,2.4206917,-0.043758053,0.105418526,-0.12569633,0.022138134,-0.011420014,-0.035407264,-0.17238252,0.2681506,-9.385271,0.85826975,47.65106,-1.0988272,-1.8116591,-3.5629482,-0.10833292,-0.05626563,-0.21716055,26.375,27.25,26.3125,29.5,30.6875,31.1875
0.13005206,-0.76122373,-0.53992355,-0.5956727,0.0027698572,0.0074943625,-0.13530011,-0.37690672,-0.32816553,0.060040615,-3.0776577,0.6260028,0.0002602815,-0.059958752,-0.00018618333,0.0008938145,0.011979268,0.0009394878,-0.011068486,0.44487056,-1.4639021,2.0014021,-2.1064022,-1.5713495,2.4206083,-0.0458755,0.10822564,-0.12662663,0.022720383,-0.011449549,-0.034700237,-0.076614454,0.28730422,-9.251195,0.83813137,47.660015,-1.1158373,-1.6977496,-3.4712477,-0.1141241,-0.05937197,-0.2425918,26.375,27.25,26.3125,29.5,30.6875,31.1875
0.13205388,-0.09325039,-0.24160182,-0.5562401,-0.0046693087,0.017782867,-0.14033218,-0.3770144,-0.32814446,0.06001748,-3.077571,0.62608063,0.00017742587,-0.06175311,-0.000642531,0.0016020394,0.012371238,0.002241501,-0.011262108,0.4447506,-1.4636616,2.0011733,-2.1063297,-1.5713738,2.4205482,-0.045991883,0.11069233,-0.13126062,0.023882203,-0.012374179,-0.03461748,-0.095768064,0.28730422,-9.308656,0.800085,47.658226,-1.1223304,-1.8074998,-3.361473,-0.09671475,-0.06812946,-0.26183188,26.375,27.25,26.3125,29.5,30.6875,31.1875
0.13405232,-0.25247386,-0.87848055,-0.6264145,0.004510672,0.0148642305,-0.14410527,-0.37713555,-0.3281507,0.060038645,-3.0775504,0.62607634,0.00022730575,-0.06280347,-9.5906784e-05,0.001909625,0.012432316,0.0019463134,-0.01159929,0.44467777,-1.4634697,2.0008967,-2.1062577,-1.5714101,2.4204755,-0.047987,0.111444004,-0.13313691,0.025295725,-0.012303728,-0.036274932,-0.11492168,0.2681506,-9.500193,0.8179876,47.684196,-1.0540366,-1.753864,-3.3810854,-0.10652125,-0.026571803,-0.2710375,26.375,27.25,26.3125,29.5,30.6875,31.1875
0.13605186,-1.3479762,-1.4167634,-0.890354,0.00037555615,0.002860513,-0.12304367,-0.37726837,-0.32813144,0.060031876,-3.077471,0.62621254,0.00021383267,-0.06316472,-0.0008365988,0.0022854416,0.0131169,0.002112831,-0.009610315,0.44454643,-1.4632298,2.0006335,-2.106197,-1.5714458,2.4204395,-0.046435017,0.112922646,-0.13600443,0.026827913,-0.012998069,-0.03670865,-0.17238252,0.24899697,-9.442732,0.73069996,47.70838,-1.2072778,-1.7230086,-3.2898092,-0.10979851,-0.04672379,-0.2884074,26.375,27.25,26.3125,29.5,30.6875,31.1875
0.1380521,-1.0188583,-0.8107797,-0.88752097,-0.023220964,0.023444077,-0.1313058,-0.37736726,-0.3281554,0.060033094,-3.0774856,0.6260614,0.00020919087,-0.06385616,-0.0008057172,0.00225833,0.012484705,0.0009872894,-0.009770558,0.4445101,-1.4630138,2.0003812,-2.106149,-1.5714573,2.4203072,-0.04780824,0.114337735,-0.13777922,0.027926117,-0.011945816,-0.037922688,-0.17238252,0.34476504,-9.557653,0.78217715,47.694946,-1.2339623,-1.6342833,-3.4260373,-0.1131351,-0.03512925,-0.31295785,26.375,27.25,26.3125,29.5,30.6875,31.1875
0.14005186,-0.7687721,-1.1844772,-0.90871954,-0.031269535,0.041778013,-0.14098032,-0.37751633,-0.32814744,0.06004212,-3.0774517,0.6261322,0.00023034823,-0.06487796,-0.0006174536,0.0018951728,0.01247722,-0.00033973815,-0.0114000905,0.44437745,-1.4627732,2.0000813,-2.1060889,-1.5714811,2.4202232,-0.049436677,0.11690528,-0.14000174,0.028771514,-0.011372003,-0.037921324,-0.19153613,0.3256114,-9.576807,0.81351066,47.68599,-1.1350956,-1.6826975,-3.3689237,-0.12191731,-0.055874303,-0.30889812,26.375,27.25,26.3125,29.5,30.6875,31.1875
0.1420517,-1.165412,-2.0510118,-1.1630105,-0.027717214,0.0343446,-0.1352318,-0.3776561,-0.32815662,0.06007147,-3.0774508,0.6262108,0.00025960163,-0.065731935,-0.00084023055,0.0022032263,0.011902324,-6.994445e-05,-0.013752458,0.44426918,-1.4625691,1.9997696,-2.106005,-1.5714811,2.4201643,-0.05003064,0.11795658,-0.14199357,0.029220397,-0.010970903,-0.03616283,-0.19153613,0.3256114,-9.615114,0.80456203,47.711063,-1.1841273,-1.713851,-3.3374023,-0.08427105,-0.072432086,-0.37218505,26.375,27.25,26.3125,29.5,30.6875,31.1875
0.14405248,-1.1731756,-1.7994127,-0.86727804,-0.040910445,0.040527746,-0.1363217,-0.37777728,-0.32812244,0.06003064,-3.0773137,0.626316,0.00017891661,-0.06632996,-0.0006012445,0.0003953694,0.013573705,-0.003598117,-0.014513511,0.44413692,-1.4622796,1.9995297,-2.1059453,-1.5715412,2.4201155,-0.050991714,0.1233289,-0.14392403,0.029678792,-0.01097199,-0.03635987,-0.28730422,0.51714754,-9.653421,0.7553206,47.704796,-1.1643237,-1.839037,-3.4034524,-0.10886354,-0.06851938,-0.39233723,26.375,27.25,26.3125,29.5,30.6875,31.1875
0.14605217,-1.6439224,-1.7209061,-0.85993737,-0.026770182,0.02822413,-0.134969,-0.3779016,-0.32813245,0.06003768,-3.0772827,0.6263475,0.00016094079,-0.06790152,-0.0008556784,0.0022300014,0.012602033,0.00037717473,-0.012811038,0.4440528,-1.4620409,1.9992307,-2.1058614,-1.5715541,2.4200552,-0.05133669,0.121824585,-0.14651148,0.029762931,-0.011810631,-0.038404096,-0.22984336,0.30645782,-9.653421,0.83813137,47.71554,-1.2011974,-1.7099526,-3.4251308,-0.11353889,-0.071714595,-0.39910114,26.375,27.25,26.3125,29.5,30.6875,31.1875
0.14805204,-1.7509924,-1.6022404,-0.9531227,-0.00827871,0.022900559,-0.12102519,-0.37805688,-0.32815105,0.06006382,-3.077338,0.6262815,0.0002747902,-0.06819279,-0.00035113146,0.00059833843,0.013248134,-0.0027277595,-0.012730298,0.4439561,-1.4618237,1.9989308,-2.1058614,-1.5715655,2.4199104,-0.0530201,0.12539567,-0.1466687,0.029424436,-0.011059905,-0.040170055,-0.34476504,0.28730422,-9.615114,0.7866488,47.686886,-1.182724,-1.9091179,-3.392418,-0.09231211,-0.07827857,-0.40901393,26.375,27.25,26.3125,29.5,30.6875,31.1875
0.15005195,-0.8360131,-1.1417692,-0.8042443,-0.0031450014,0.041854687,-0.13387853,-0.37818757,-0.32815593,0.060061753,-3.0772977,0.6264073,0.00024339819,-0.06982083,-0.00097416877,0.0012171093,0.012477923,-0.001201047,-0.011902037,0.44384816,-1.4615717,1.9986433,-2.1058013,-1.5715655,2.4198864,-0.05330796,0.1273375,-0.15024586,0.029347818,-0.0110302465,-0.04128362,-0.2681506,0.24899697,-9.519346,0.83813137,47.684196,-1.2015101,-1.5664407,-3.337237,-0.082679845,-0.08712502,-0.41899383,26.375,27.25,26.3125,29.5,30.6875,31.1875
0.1520518,-2.125598,-1.346219,-0.8166289,0.014140986,0.011601835,-0.12164742,-0.37834474,-0.32816654,0.060084265,-3.0772762,0.62644076,0.00030646886,-0.07053657,-0.00028707623,-0.00044375483,0.014556318,-0.0038236426,-0.01183846,0.4437516,-1.4613186,1.9982957,-2.1057303,-1.5716017,2.4198136,-0.05470036,0.13181484,-0.15140854,0.029292716,-0.01178448,-0.042736977,-0.30645782,0.24899697,-9.423578,0.7329411,47.625084,-1.2249956,-1.7840617,-3.3737166,-0.0647802,-0.082583815,-0.42416507,26.375,27.25,26.3125,29.5,30.6875,31.1875
0.15405165,-1.369702,-0.5392849,-0.5562567,0.0022409593,0.031000407,-0.12928897,-0.37847418,-0.3281574,0.060055006,-3.0772018,0.6264445,0.00024919122,-0.07202429,3.474319e-05,-0.00047041412,0.014578011,-0.0035206364,-0.011773636,0.44364294,-1.4610187,1.99802,-2.1056821,-1.571638,2.419717,-0.05649918,0.13382518,-0.15358528,0.029190479,-0.01194436,-0.0445979,-0.22984336,0.21068975,-9.423578,0.80679786,47.678825,-1.3180745,-1.8051513,-3.3350368,-0.05159568,-0.12060574,-0.43390727,26.375,27.25,26.3125,29.5,30.6875,31.1875
0.15605246,-1.3666369,-0.38325033,-0.37606928,0.008109368,0.035782892,-0.13890965,-0.3786493,-0.32819423,0.060101088,-3.0772862,0.6264802,0.00030903707,-0.07384309,-0.00023807763,0.00066617195,0.013942632,-0.0013254768,-0.010155558,0.44352278,-1.4607786,1.9976352,-2.105622,-1.5715898,2.4196086,-0.057329454,0.1346489,-0.1572683,0.029793866,-0.012317652,-0.047044467,-0.4213795,0.095768064,-9.404425,0.83589023,47.701214,-1.1697204,-1.7531524,-3.2296166,-0.031334497,-0.089842886,-0.42554945,26.375,27.25,26.3125,29.5,30.6875,31.1875
0.15805224,-1.3024961,-0.36207294,-0.35311437,0.012124382,0.04146012,-0.14008364,-0.37880018,-0.32820836,0.060103152,-3.077258,0.6264728,0.00034006243,-0.07496407,-0.00026744572,-0.00018292404,0.014579291,-0.0035112493,-0.008773336,0.44343823,-1.4604894,1.9972996,-2.105574,-1.5716256,2.4195232,-0.05849022,0.13901429,-0.16042674,0.030827688,-0.011961415,-0.049585998,-0.34476504,0.22984336,-9.308656,0.842603,47.674347,-1.2706606,-1.9498581,-3.3160264,-0.04403029,-0.1006883,-0.4100961,26.375,27.25,26.3125,29.5,30.6875,31.1875
0.1600521,-1.3942047,-0.6831677,-0.25836313,0.015647853,0.047666267,-0.13523799,-0.37894452,-0.32818282,0.060109593,-3.077206,0.6264607,0.00035276852,-0.074812844,0.000777631,-0.0025406668,0.017808612,-0.008172527,-0.0072455616,0.4432939,-1.4602606,1.9970125,-2.10549,-1.5716738,2.4193783,-0.05965966,0.14377451,-0.16053784,0.031770606,-0.01288161,-0.05228052,-0.34476504,0.095768064,-9.232041,0.7911258,47.7451,-1.221451,-1.841614,-3.3777575,-0.033332184,-0.13004564,-0.3972772,26.375,27.25,26.3125,29.5,30.6875,31.1875
0.16205186,-1.3783559,-0.19474895,-0.1982408,0.0070995726,0.054159828,-0.14331982,-0.37910193,-0.3281848,0.060102418,-3.0771723,0.62649053,0.00035934945,-0.07591064,0.0008794389,-0.0014807459,0.017199205,-0.006348591,-0.005316158,0.44317368,-1.4599617,1.9966897,-2.1054533,-1.5716985,2.4192812,-0.0606359,0.14305212,-0.16234778,0.032388564,-0.013119862,-0.055184826,-0.36391866,0.095768064,-9.232041,0.779936,47.647476,-1.2254286,-1.836186,-3.4697046,-0.031740006,-0.11097959,-0.36864412,26.375,27.25,26.3125,29.5,30.6875,31.1875
0.16405162,-1.5083158,-0.22328296,0.12597221,0.01135254,0.046775177,-0.1353293,-0.37926435,-0.32820043,0.060116053,-3.0771897,0.62643474,0.0003995276,-0.076848246,0.0006527787,-0.0013472844,0.016913746,-0.006737745,-0.0027822459,0.4430655,-1.4596853,1.9963416,-2.1054056,-1.57171,2.4191363,-0.061298665,0.14489858,-0.16496193,0.033378176,-0.012700371,-0.058381222,-0.40222588,0.076614454,-9.232041,0.87393653,47.672558,-1.2772864,-1.848746,-3.3615575,-0.044375658,-0.13135031,-0.3344018,26.375,27.25,26.3125,29.5,30.6875,31.1875
0.16605158,-1.4549842,-0.14148156,0.1926727,0.01555312,0.042841323,-0.13407615,-0.37943843,-0.32819322,0.060128417,-3.0771384,0.6265774,0.00044717075,-0.07830249,0.0009301724,-0.0010737272,0.017636606,-0.0063485675,-0.0013354293,0.44292104,-1.459409,1.9959935,-2.105345,-1.5717462,2.4190876,-0.06252102,0.146794,-0.16796745,0.034442317,-0.013527028,-0.06104719,-0.38307226,0.13407528,-9.059659,0.8157518,47.664497,-1.2439642,-1.8159215,-3.3446608,-0.039975125,-0.1466395,-0.28693005,26.375,27.25,26.3125,29.5,30.6875,31.1875
0.16805238,-0.8523689,0.34879807,0.3233975,0.01470767,0.045676835,-0.14778781,-0.37958428,-0.32819843,0.06011271,-3.077125,0.6264963,0.0003846003,-0.07896844,0.0013390138,-0.0006558254,0.01800625,-0.0062337867,-0.0002971183,0.44280067,-1.4590975,1.9956707,-2.1052845,-1.5717462,2.4189186,-0.063583165,0.14689238,-0.16939071,0.03581916,-0.013916005,-0.0631458,-0.36391866,0.15322891,-9.059659,0.7709874,47.66091,-1.1994449,-1.7867639,-3.3814955,-0.03160382,-0.1364412,-0.26394346,26.375,27.25,26.3125,29.5,30.6875,31.1875
0.17005238,-1.3362616,-0.059639875,0.24008635,0.03543245,0.01652375,-0.13042842,-0.37973517,-0.3281886,0.0601108,-3.0770633,0.62646353,0.00037000582,-0.07974432,0.0016443315,-0.0006731038,0.018951077,-0.006890966,0.001322864,0.4426804,-1.4588095,1.995334,-2.1051881,-1.5717949,2.418786,-0.064423054,0.14850901,-0.1715259,0.037330594,-0.014495594,-0.06560279,-0.2681506,0.095768064,-9.002198,0.83813137,47.67166,-1.185257,-1.7086048,-3.3192134,-0.024534736,-0.12799487,-0.22639161,26.375,27.25,26.3125,29.5,30.6875,31.1875
0.1720522,-1.0560397,0.32881737,0.2216522,0.031223947,0.013483366,-0.13612555,-0.379907,-0.32819113,0.060109198,-3.0770388,0.6264204,0.00036170712,-0.08173624,0.001571769,0.00045439682,0.018490478,-0.005174083,0.00067771605,0.44254795,-1.4584857,1.9949626,-2.1051166,-1.5718187,2.4186301,-0.06580194,0.14963427,-0.17569566,0.038623206,-0.01482453,-0.06633334,-0.36391866,0.095768064,-8.963891,0.80679786,47.695843,-1.1247295,-1.7439454,-3.3789172,-0.043116607,-0.15378168,-0.18349397,26.375,27.25,26.3125,29.5,30.6875,31.1875
0.17405201,-0.9713385,-0.13212071,0.096822955,0.036401846,0.007941316,-0.13264832,-0.38005435,-0.32816666,0.0601013,-3.0769491,0.6264793,0.00032721265,-0.08084981,0.0030222435,-0.00209596,0.022058686,-0.012233494,-0.00087934546,0.44240338,-1.4582089,1.9946517,-2.1050193,-1.5718669,2.418534,-0.06755078,0.15397303,-0.17546086,0.041952237,-0.015025074,-0.06652416,-0.3256114,0.15322891,-8.963891,0.83589023,47.70211,-1.1553147,-1.7065613,-3.3935752,-0.071013294,-0.14196399,-0.17250176,26.375,27.25,26.3125,29.5,30.6875,31.1875
0.17605188,-1.118626,-0.004204842,0.13587716,0.018921658,0.0076132063,-0.13718854,-0.38021836,-0.32819512,0.0601036,-3.0769656,0.6264256,0.00027427595,-0.08253539,0.0032273098,0.0003565418,0.020418024,-0.008720809,-0.0028886816,0.4422945,-1.4578747,1.9942564,-2.104935,-1.571843,2.4183898,-0.06937451,0.15108585,-0.17836098,0.043863013,-0.0150512755,-0.06633755,-0.34476504,0.05746084,-9.021352,0.82022345,47.71286,-0.9906465,-1.5778778,-3.3562527,-0.11803101,-0.14945358,-0.14776959,26.375,27.25,26.3125,29.5,30.6875,31.1875
0.17805168,-0.9106532,-0.22209492,-0.12579742,0.017856624,0.011953744,-0.14101051,-0.38039362,-0.32818446,0.06010801,-3.0769134,0.62645346,0.00030293266,-0.08322962,0.0029374755,0.0004524175,0.02099451,-0.007945732,-0.0035268627,0.44215098,-1.4575744,1.9938968,-2.104863,-1.5718912,2.4182706,-0.06883612,0.15251324,-0.18019463,0.04381485,-0.01591032,-0.06515765,-0.30645782,0.1340753,-9.021352,0.94331104,47.71465,-1.1411269,-1.6743543,-3.330077,-0.09465136,-0.15725577,-0.13238883,26.375,27.25,26.3125,29.5,30.6875,31.1875
0.1800526,-0.96727395,-0.49521506,-0.3875024,0.026080126,0.020059628,-0.13143247,-0.38054487,-0.3281529,0.060092382,-3.0768285,0.62643826,0.00021559854,-0.08491821,0.0036352363,0.00041502764,0.021872647,-0.00916759,-0.0075326953,0.44198197,-1.4572741,1.9935721,-2.1047423,-1.5719274,2.4181032,-0.07140814,0.1553893,-0.18385859,0.046080858,-0.016191848,-0.06371979,-0.17238252,0.095768064,-9.212888,0.92093146,47.672558,-1.0666158,-1.5549412,-3.3362465,-0.14039133,-0.15078527,-0.111994356,26.375,27.25,26.3125,29.5,30.6875,31.1875
0.18205236,-1.1989757,-0.295754,-0.6742869,0.019976271,0.010594662,-0.13003267,-0.3807131,-0.328149,0.060091656,-3.0767567,0.62650317,0.00018614222,-0.08501328,0.005004193,-0.0009446716,0.022751441,-0.01309299,-0.01266772,0.44184878,-1.4569501,1.9931897,-2.1046345,-1.5719627,2.41802,-0.07459493,0.15742968,-0.18337408,0.047475427,-0.015307202,-0.0617733,-0.19153613,0.076614454,-9.212888,0.7978386,47.652847,-0.80684626,-1.5599501,-3.4589763,-0.17991401,-0.1538388,-0.14119269,26.375,27.25,26.3125,29.5,30.6875,31.1875
0.18405217,-0.99488586,-0.465496,-0.68413526,0.023127148,0.014546691,-0.13992997,-0.38089013,-0.3281069,0.06008329,-3.0766368,0.6264961,0.00015598362,-0.084360845,0.00437686,-0.0009989042,0.024070254,-0.015554049,-0.012253166,0.44166964,-1.4566264,1.9928192,-2.104501,-1.5720471,2.4178522,-0.0727077,0.1589867,-0.1858728,0.05120064,-0.015452058,-0.060298353,-0.15322891,0.11492168,-9.308657,0.86945957,47.701214,-0.99218917,-1.4073453,-3.4212565,-0.22978571,-0.17243752,-0.13300997,26.375,27.25,26.3125,29.5,30.6875,31.1875
0.18605226,-1.1169364,-0.5568931,-0.87241346,0.008861937,0.015188788,-0.13553062,-0.38105342,-0.32812408,0.060080834,-3.076624,0.6266527,6.705154e-05,-0.08606698,0.0049941964,-0.00067589775,0.023014015,-0.014478786,-0.020324,0.44152454,-1.4563026,1.9924463,-2.104418,-1.571999,2.4178066,-0.075653926,0.15967771,-0.18726772,0.05048754,-0.014961455,-0.05517345,-0.2681506,0.11492168,-9.442732,0.8023209,47.684196,-0.93992877,-1.618334,-3.4182403,-0.26123422,-0.18480116,-0.20233437,26.375,27.25,26.3125,29.5,30.6875,31.1875
0.18805216,-1.3409573,-1.0163381,-1.2021933,-0.0042764735,0.023439486,-0.13926263,-0.38121414,-0.3281167,0.060076825,-3.0765595,0.6266013,6.3111092e-06,-0.08783469,0.004793538,-0.0012730465,0.023806667,-0.013777645,-0.022341222,0.4413924,-1.4559774,1.9920644,-2.1042864,-1.5720352,2.417651,-0.076118775,0.16387832,-0.19027455,0.049000602,-0.015992917,-0.053614605,-0.30645782,0.11492168,-9.576807,0.7978386,47.677036,-0.889091,-1.7185733,-3.4295928,-0.2640163,-0.18694633,-0.23618695,26.375,27.25,26.3125,29.5,30.6875,31.1875
0.190052,-1.5095005,-1.3944016,-1.1598732,-0.016164916,0.028388904,-0.13202924,-0.38143277,-0.32807857,0.060101952,-3.0764484,0.626713,0.00010619426,-0.087838106,0.005656132,-0.0028525675,0.026262203,-0.018063106,-0.023472304,0.44120008,-1.455665,1.9916323,-2.1041658,-1.5721434,2.417543,-0.07741278,0.16766123,-0.19142589,0.051285077,-0.016385157,-0.05377594,-0.19153613,0.19153613,-9.691729,0.87393653,47.67166,-0.8175415,-1.7248263,-3.5195327,-0.28663433,-0.1895223,-0.25941983,26.375,27.25,26.3125,29.5,30.6875,31.1875
0.1920519,-1.8430133,-1.4651412,-0.86794215,-0.024126252,0.034572747,-0.13629737,-0.38156998,-0.32807493,0.060064673,-3.0763855,0.62675864,-6.827638e-05,-0.08876708,0.0060263597,-0.0037274759,0.027875954,-0.019631322,-0.024216384,0.44105577,-1.4553163,1.9913086,-2.1040704,-1.5721196,2.4174354,-0.07834947,0.17127338,-0.19365534,0.052011028,-0.01718883,-0.05396286,-0.24899697,0.19153613,-9.691729,0.85826975,47.67793,-0.87719226,-1.8213763,-3.4469895,-0.33589998,-0.1906771,-0.24204862,26.375,27.25,26.3125,29.5,30.6875,31.1875
0.19405176,-1.7756518,-1.372737,-0.93363315,-0.020335553,0.04024385,-0.13414975,-0.38174924,-0.32806098,0.060057435,-3.0762882,0.62681746,-8.915722e-05,-0.09135207,0.005609153,-0.0029299785,0.026065178,-0.01725652,-0.027689597,0.4409109,-1.4549682,1.9909137,-2.1039631,-1.5721792,2.41734,-0.08021958,0.17351682,-0.1978002,0.0509868,-0.016581383,-0.052357536,-0.30645782,0.2681506,-9.595961,0.82694155,47.71286,-0.64709914,-2.0076878,-3.5011144,-0.35889202,-0.20392916,-0.292712,26.375,27.25,26.3125,29.5,30.6875,31.1875
0.19605185,-1.713641,-0.7122169,-1.1648409,-0.013396292,0.031446904,-0.14084789,-0.38197258,-0.32806644,0.06009677,-3.076301,0.6268936,-2.4970236e-06,-0.09250545,0.004421754,-0.002691008,0.024561342,-0.014800306,-0.025102012,0.44073147,-1.4546562,1.9904579,-2.1038802,-1.5721911,2.4172068,-0.079170644,0.17525502,-0.19972222,0.04830046,-0.016282836,-0.053896032,-0.2681506,0.22984336,-9.576807,0.82022345,47.737934,-0.8105681,-1.8673868,-3.5226555,-0.35629562,-0.20594658,-0.3027305,26.375,27.25,26.3125,29.5,30.6875,31.1875
0.19805264,-1.466058,-1.3037841,-1.2146908,-0.0017818703,0.03285471,-0.13279137,-0.3821207,-0.3280481,0.06004263,-3.0761683,0.62692463,-0.00013950944,-0.09460041,0.005278983,-0.002683032,0.023285123,-0.0131679345,-0.026800891,0.4405982,-1.4542605,1.9901227,-2.1037967,-1.5722388,2.4171102,-0.08286571,0.17632903,-0.20046352,0.04593735,-0.015845386,-0.05589006,-0.24899697,0.3256114,-9.653421,0.7530795,47.70032,-0.7169386,-1.8831817,-3.4954493,-0.35060364,-0.2225922,-0.2862699,26.375,27.25,26.3125,29.5,30.6875,31.1875
0.20005211,-1.7379187,-1.6496631,-1.0470351,-0.017487766,0.033039972,-0.14012945,-0.38232592,-0.3280342,0.060064454,-3.0761106,0.6270069,-6.856215e-05,-0.09466796,0.0040656496,-0.003471164,0.023261392,-0.013373166,-0.023933765,0.44043112,-1.4539479,1.9897035,-2.1037023,-1.5722989,2.4170022,-0.08068214,0.17939043,-0.20175183,0.044332325,-0.015746757,-0.056572575,-0.3256114,0.38307226,-9.576807,0.8537928,47.701214,-0.6792409,-1.8730464,-3.5267754,-0.3401382,-0.22736356,-0.28831774,26.375,27.25,26.3125,29.5,30.6875,31.1875
0.20205198,-1.8642163,-1.592385,-1.1492646,-0.03105071,0.030947858,-0.14091426,-0.38251856,-0.3280219,0.060055256,-3.0760567,0.62705374,-0.00015923915,-0.09697954,0.0038875898,-0.0023858794,0.022989219,-0.009658347,-0.024770916,0.44023877,-1.4535761,1.9892834,-2.1035821,-1.5722998,2.4168463,-0.08142845,0.18048666,-0.20528346,0.043293227,-0.017101746,-0.05647434,-0.36391866,0.36391866,-9.595961,0.8560339,47.687782,-0.8127663,-1.7779858,-3.5286214,-0.335887,-0.22776784,-0.31837088,26.375,27.25,26.3125,29.5,30.6875,31.1875
0.20405182,-2.2549891,-2.0628707,-0.9891304,-0.03469077,0.04034611,-0.13339794,-0.38271216,-0.32800838,0.060059253,-3.0759842,0.62717366,-0.00010440458,-0.097811446,0.0034156865,-0.0021443407,0.021910116,-0.008543615,-0.025375204,0.44008252,-1.4532526,1.9889005,-2.1035225,-1.5723594,2.4167745,-0.0815617,0.18136944,-0.20665054,0.042302433,-0.016607786,-0.056003682,-0.3256114,0.30645782,-9.615114,0.80456203,47.670765,-0.8615535,-1.7776673,-3.6952755,-0.32685754,-0.24210587,-0.3381272,26.375,27.25,26.3125,29.5,30.6875,31.1875
0.20605175,-2.0308084,-1.8023354,-0.7220932,-0.04386148,0.048155025,-0.13781007,-0.38288888,-0.3280041,0.060028188,-3.0759053,0.627194,-0.00022928174,-0.09843501,0.0031207697,-0.0024570953,0.021588687,-0.007992893,-0.023658324,0.4399266,-1.4528449,1.9884933,-2.1034157,-1.5723714,2.4166417,-0.08153939,0.18292108,-0.20740582,0.040864497,-0.016567737,-0.05769571,-0.36391866,0.34476504,-9.595961,0.85155696,47.6636,-0.8642949,-1.8354193,-3.6560855,-0.3189522,-0.23861083,-0.35267174,26.375,27.25,26.3125,29.5,30.6875,31.1875
0.20805165,-1.444836,-1.5460619,-0.78092235,-0.029190442,0.052296788,-0.1417161,-0.3831237,-0.3279973,0.06005445,-3.0758672,0.6273957,-0.00016308023,-0.099892616,0.0019036403,-0.0020987282,0.020045133,-0.0059157345,-0.021629628,0.439723,-1.4524968,1.9880265,-2.1033328,-1.5723952,2.4165692,-0.08082739,0.18522722,-0.21044627,0.039053313,-0.016069166,-0.059012074,-0.30645782,0.3256114,-9.442732,0.9455522,47.707485,-0.93121874,-1.7378261,-3.5841823,-0.27934438,-0.2657568,-0.33712518,26.375,27.25,26.3125,29.5,30.6875,31.1875
0.21005242,-1.6560789,-1.313775,-0.7037323,-0.00081168965,0.03240813,-0.1297081,-0.38330784,-0.32801133,0.06005339,-3.0758564,0.6273556,-0.00014072408,-0.10208462,0.0013554366,-0.00058615144,0.019075697,-0.0013743542,-0.023135886,0.4396031,-1.4521492,1.9876307,-2.103285,-1.5724195,2.416426,-0.080978684,0.18542968,-0.21391167,0.037797228,-0.017134516,-0.057651754,-0.22984336,0.2681506,-9.461885,0.8179876,47.704796,-1.0414048,-1.6735562,-3.551831,-0.2615171,-0.27670375,-0.36539477,26.375,27.25,26.3125,29.5,30.6875,31.1875
0.21205246,-0.6313277,-0.42330468,-0.64379823,0.0014170486,0.03550476,-0.15131077,-0.38352656,-0.3279879,0.06003869,-3.0757773,0.6274526,-0.0001391338,-0.104409024,0.0004463929,0.001328246,0.017091913,0.004581841,-0.020132123,0.4393992,-1.4517545,1.9872111,-2.1032264,-1.5724677,2.4162931,-0.08076167,0.18481126,-0.21712974,0.035390664,-0.017893484,-0.060433473,-0.17238252,0.24899697,-9.500193,0.8717007,47.707485,-1.026119,-1.5846775,-3.4863024,-0.24478145,-0.26211813,-0.37083066,26.375,27.25,26.3125,29.5,30.6875,31.1875
0.21405233,-0.61583906,-0.29993838,-0.75374764,0.013222266,0.01462651,-0.14289224,-0.38373336,-0.32799312,0.06004424,-3.0757318,0.62744063,-8.433669e-05,-0.10691969,-0.00044255803,0.0022898891,0.015018182,0.0074120895,-0.015666427,0.4392667,-1.4513819,1.9867667,-2.1031544,-1.5725273,2.4161594,-0.08169733,0.18709084,-0.2216678,0.034186732,-0.017241493,-0.065833755,-0.1340753,0.2681506,-9.404425,0.84484416,47.71823,-1.0647434,-1.6101081,-3.381188,-0.17936239,-0.27641732,-0.3333959,26.375,27.25,26.3125,29.5,30.6875,31.1875
0.21605211,-0.70680165,-0.44602326,-0.886425,0.010684048,-0.0013723337,-0.14412996,-0.38395306,-0.32799363,0.060052253,-3.0757196,0.6275717,-5.7098183e-05,-0.10706982,-0.0004425245,0.0020607128,0.015478957,0.005926219,-0.015358897,0.4390746,-1.4510221,1.9863361,-2.1031063,-1.5725273,2.416051,-0.0819066,0.18852508,-0.22317228,0.035792816,-0.017025732,-0.06635108,-0.038307227,0.24899697,-9.500193,0.86945957,47.68599,-1.0569521,-1.5692441,-3.3573494,-0.17327979,-0.3063256,-0.31247604,26.375,27.25,26.3125,29.5,30.6875,31.1875
0.21805234,-0.63885456,-0.6736465,-0.9132384,-0.002808315,-0.014390175,-0.13471118,-0.38417906,-0.32802075,0.060082287,-3.0757327,0.62755436,2.2730635e-05,-0.10821051,-0.00022423937,0.0018641533,0.01574698,0.0055535436,-0.014326653,0.4389423,-1.4506502,1.985833,-2.1030219,-1.5725511,2.4159064,-0.08319434,0.1907293,-0.22533987,0.0361994,-0.017114194,-0.06867029,-0.019153614,0.21068975,-9.442732,0.84484416,47.679718,-0.9952207,-1.5052705,-3.345352,-0.14168788,-0.30708662,-0.30033207,26.375,27.25,26.3125,29.5,30.6875,31.1875
0.2200521,-0.19547822,-1.1274002,-0.89179605,-0.00032138784,-0.0011508551,-0.14013876,-0.38437247,-0.3280039,0.060060866,-3.075657,0.6275554,-6.991615e-06,-0.10963292,-2.2991248e-05,0.001360786,0.017435651,0.005683386,-0.010642097,0.43877396,-1.4502656,1.9854368,-2.1029508,-1.5726002,2.4157488,-0.08369269,0.19423343,-0.22814089,0.036087234,-0.018715128,-0.07284539,0.05746084,0.3256114,-9.423578,0.8179876,47.684196,-1.076189,-1.6758289,-3.305591,-0.11312638,-0.2983559,-0.2619955,26.375,27.25,26.3125,29.5,30.6875,31.1875
0.22205211,-0.6185523,-0.48929054,-0.88113785,-0.01978216,0.0019465019,-0.14272432,-0.38460693,-0.3280003,0.060059614,-3.0756433,0.62756914,8.581169e-08,-0.11004115,0.0006812546,-8.4079904e-05,0.02098775,0.0025332682,-0.0075578564,0.43856993,-1.449857,1.9849695,-2.1028898,-1.5726126,2.4155555,-0.08403343,0.1987273,-0.23040575,0.03821381,-0.020599313,-0.07626338,0.0,0.36391866,-9.576807,0.83589023,47.67166,-1.0389436,-1.7328894,-3.2403712,-0.108858764,-0.3019108,-0.22192466,26.375,27.25,26.3125,29.5,30.6875,31.1875
0.2240521,-0.5599281,-0.8610235,-0.74988115,-0.016316125,0.022627866,-0.15107295,-0.3848368,-0.3279773,0.060057867,-3.0755534,0.627587,7.2303024e-05,-0.110110685,0.00096470857,-0.00033643903,0.021563007,0.0012577018,-0.005250507,0.43838993,-1.4494616,1.9845155,-2.1028178,-1.572709,2.4153986,-0.08456378,0.19957916,-0.23114043,0.03947868,-0.020584045,-0.07910081,-0.019153614,0.38307226,-9.519346,0.800085,47.64389,-1.1229496,-1.7088945,-3.2853165,-0.11202222,-0.28317025,-0.15887702,26.375,27.25,26.3125,29.5,30.6875,31.1875
0.22605212,-0.9909432,-1.4736401,-0.7358189,-0.021930955,0.026031997,-0.13950713,-0.38504943,-0.3279961,0.0600879,-3.0755491,0.6275269,0.00015961578,-0.10970599,0.0005774006,-0.0007012393,0.021394184,-0.0016492569,-0.0029627972,0.4382699,-1.4491137,1.9840363,-2.1027215,-1.5727562,2.415242,-0.08435931,0.20115705,-0.23271228,0.04201751,-0.01919646,-0.0811886,0.0,0.38307226,-9.442732,0.88289046,47.658226,-1.1280241,-1.7574062,-3.4648583,-0.10391766,-0.31273735,-0.11790468,26.375,27.25,26.3125,29.5,30.6875,31.1875
0.22805187,-0.94397837,-1.4492763,-0.8533089,-0.035517156,0.01925979,-0.13377777,-0.38525286,-0.32800114,0.06007188,-3.0755057,0.62755793,7.91557e-05,-0.11030795,0.0017330247,-0.00069989095,0.021471407,-0.0034138495,-0.00496796,0.43810087,-1.4486941,1.9835819,-2.1026242,-1.5727557,2.4150982,-0.08741042,0.20131202,-0.23347779,0.044250943,-0.018522905,-0.082235694,0.038307227,0.47884035,-9.423578,0.8806493,47.677036,-1.0745268,-1.7304393,-3.4706073,-0.11519325,-0.33169106,-0.07891588,26.375,27.25,26.3125,29.5,30.6875,31.1875
0.23005159,-0.5355446,-1.6239929,-0.7883763,-0.03482831,0.008277708,-0.13834584,-0.38548222,-0.3279718,0.06006414,-3.075389,0.62756985,9.317113e-05,-0.11036419,0.00012456368,-0.00071785203,0.020515984,-0.0024221803,-0.0031159448,0.43790987,-1.448274,1.9831032,-2.102506,-1.572852,2.41493,-0.08470012,0.20297615,-0.23506081,0.04285571,-0.018090576,-0.08137636,-0.038307227,0.40222588,-9.461885,0.95226496,47.666286,-1.1670468,-1.8084753,-3.6306725,-0.077076375,-0.36257476,-0.062135898,26.375,27.25,26.3125,29.5,30.6875,31.1875
0.23205253,-0.826208,-2.0875356,-0.61352295,-0.040565588,0.008958745,-0.13587491,-0.38569453,-0.3279918,0.060074393,-3.0753925,0.62749517,0.00013036747,-0.11213362,0.00047239964,-0.00050165347,0.021063747,-0.0016116515,-0.0066213054,0.43777758,-1.4478903,1.982634,-2.102433,-1.5728763,2.414751,-0.08627097,0.20513427,-0.23813815,0.04327638,-0.018933224,-0.07943767,-0.1340753,0.2681506,-9.481039,0.9030289,47.65912,-1.2561253,-1.7961258,-3.5669503,-0.056647554,-0.33828646,-0.052918613,26.375,27.25,26.3125,29.5,30.6875,31.1875
0.23405246,-0.96603984,-1.566478,-0.577957,-0.03132752,0.0013286861,-0.14043674,-0.38590547,-0.32798925,0.060047787,-3.0753176,0.62759805,4.8678892e-05,-0.11320697,0.0011670965,-0.0007003298,0.022729857,-0.0023721699,-0.010676329,0.4375968,-1.4474463,1.982179,-2.102349,-1.5728887,2.4146445,-0.087636806,0.20729043,-0.24055946,0.0449428,-0.020124597,-0.07674223,-0.1340753,0.36391866,-9.423578,0.86945957,47.66539,-1.0831332,-1.7004867,-3.501878,-0.06812672,-0.34981382,-0.03988999,26.375,27.25,26.3125,29.5,30.6875,31.1875
0.23605235,-0.9566086,-0.904014,-0.7019872,-0.008903788,0.00035051804,-0.1325159,-0.3861605,-0.32800388,0.060090344,-3.0753546,0.6276069,0.00018732018,-0.11353593,0.000885481,-0.0012093761,0.023257233,-0.0041693365,-0.013345928,0.43741688,-1.4470863,1.981665,-2.102289,-1.5729121,2.4144657,-0.08752193,0.20999193,-0.24280599,0.046339456,-0.019833121,-0.07395936,-0.17238252,0.36391866,-9.423578,0.8537928,47.68599,-1.2480514,-1.6613973,-3.5066965,-0.053434037,-0.3621201,-0.07754492,26.375,27.25,26.3125,29.5,30.6875,31.1875
0.23805226,-0.9476913,-0.6678347,-0.44396457,-0.0009686863,0.02143868,-0.13916841,-0.38640234,-0.32800314,0.060087025,-3.0752888,0.6276322,0.00018510032,-0.11504105,0.0005039483,-0.00061525084,0.022022149,-0.0033670017,-0.016822001,0.43723655,-1.4466307,1.9811381,-2.1021812,-1.5729603,2.41431,-0.088566355,0.21152383,-0.24608657,0.04683438,-0.019061051,-0.07152766,-0.15322891,0.28730422,-9.3661175,0.8940802,47.666286,-1.246657,-1.670116,-3.5101318,-0.038616776,-0.3671047,-0.10762109,26.375,27.25,26.3125,29.5,30.6875,31.1875
0.24005204,-0.9180351,-0.48291296,-0.3314731,0.010218139,0.026215184,-0.1427014,-0.38661015,-0.32799712,0.060064994,-3.0752027,0.6276931,0.00012573006,-0.115772344,0.00063018734,-0.0010216571,0.022655385,-0.0044616056,-0.02009417,0.43706837,-1.4461986,1.9806827,-2.1020849,-1.5729965,2.4141912,-0.08929557,0.21390688,-0.24811883,0.047744326,-0.019176695,-0.06898186,-0.22984336,0.22984336,-9.251195,0.8672237,47.651955,-1.1715425,-1.733705,-3.4738398,-0.019373514,-0.4094839,-0.13813701,26.375,27.25,26.3125,29.5,30.6875,31.1875
0.24205197,-1.0412542,-0.33223823,-0.44608766,0.021076592,0.02694904,-0.13342595,-0.3868673,-0.32799655,0.060073417,-3.0751498,0.6278389,0.00019971513,-0.11965929,0.0009799739,0.0013555334,0.0207701,-0.0002696763,-0.025730431,0.43687502,-1.4457672,1.9801663,-2.1020243,-1.5730442,2.414096,-0.09319171,0.21438912,-0.25448215,0.04902729,-0.019250851,-0.067238905,-0.36391866,0.076614454,-9.289503,0.8112748,47.675243,-1.1187656,-1.6457374,-3.3322995,-0.011446747,-0.41298348,-0.14945355,26.375,27.25,26.3125,29.5,30.6875,31.1875
0.24405204,-1.1753415,0.15935539,-0.33190262,0.02406253,0.027840752,-0.14138262,-0.38712734,-0.32800248,0.06008784,-3.0751143,0.627907,0.00024737624,-0.12009682,-0.0004086152,0.0022419977,0.020775162,0.00072866277,-0.024466095,0.43668383,-1.445324,1.9796146,-2.101928,-1.5730804,2.4139524,-0.09063996,0.21561101,-0.25837108,0.050790686,-0.019680755,-0.06594866,-0.4405331,0.0,-9.193734,0.83365434,47.670765,-1.2392955,-1.6230714,-3.1700284,-0.011704726,-0.40009648,-0.1837158,26.375,27.25,26.3125,29.5,30.6875,31.1875
0.24605165,-1.6186403,-0.3981315,-0.3741848,0.045093514,0.026326414,-0.12795779,-0.3873099,-0.32799914,0.060062557,-3.0750206,0.62785035,0.0001532832,-0.12065162,0.0015058509,0.0014587912,0.023108628,-0.0019508442,-0.028969629,0.43655077,-1.444904,1.9791716,-2.1017954,-1.5731286,2.4137964,-0.09395159,0.2169648,-0.25872856,0.05321019,-0.020663897,-0.06475177,-0.5554548,0.019153614,-9.193734,0.9097417,47.693153,-1.2982647,-1.5369983,-3.2294745,-0.017084647,-0.4337473,-0.22538193,26.375,27.25,26.3125,29.5,30.6875,31.1875
0.24805254,-1.5936372,0.1808478,-0.36773413,0.03434364,0.045814764,-0.12966968,-0.38757542,-0.3280202,0.060085718,-3.0750365,0.62798625,0.00014662308,-0.12024207,0.0008890295,0.0015318276,0.024102524,-0.004065256,-0.02560293,0.43633538,-1.4444604,1.9785961,-2.1016862,-1.5730928,2.413664,-0.09236308,0.21844633,-0.26146236,0.056792382,-0.020672936,-0.06652973,-0.59376204,0.11492168,-9.289502,0.82022345,47.685097,-1.1117846,-1.4472334,-3.323509,-0.028008986,-0.4381559,-0.23868522,26.375,27.25,26.3125,29.5,30.6875,31.1875
0.25005245,-2.1343782,-0.425608,-0.15392618,0.033946652,0.0543902,-0.14069842,-0.38779876,-0.32800573,0.06007944,-3.0749314,0.62804335,0.00010935184,-0.11982734,0.0024504769,0.00088968634,0.026773848,-0.007691906,-0.030104762,0.43615487,-1.4440293,1.978094,-2.1015418,-1.5731534,2.4135332,-0.09423097,0.21902855,-0.2616427,0.060808603,-0.021555873,-0.063892305,-0.4405331,0.0,-9.174581,0.91198283,47.677036,-1.1910422,-1.2835047,-3.294482,-0.07386592,-0.43072385,-0.26249468,26.375,27.25,26.3125,29.5,30.6875,31.1875
0.2520525,-2.3345644,-0.514037,-0.18018126,0.02751157,0.06865579,-0.13001108,-0.38802186,-0.32799965,0.0600733,-3.0748587,0.6280691,6.0744587e-05,-0.11980393,0.0043069916,-0.00063454447,0.029912094,-0.012211435,-0.033990134,0.43597382,-1.4435968,1.9775923,-2.1014087,-1.5731891,2.413378,-0.09694777,0.2216068,-0.2618191,0.06382922,-0.02249069,-0.0627196,-0.53630114,-0.11492168,-9.251195,0.8605109,47.658226,-1.1444154,-1.3879812,-3.3712933,-0.09573256,-0.45341933,-0.30741853,26.375,27.25,26.3125,29.5,30.6875,31.1875
0.25405234,-1.9234204,0.24670771,-0.102353126,0.035824936,0.062195692,-0.13884637,-0.3882891,-0.32797956,0.06006943,-3.0747666,0.62820125,8.32543e-05,-0.12015909,0.0053815953,-0.0022152057,0.03350738,-0.015954033,-0.03301663,0.43574554,-1.4431281,1.977053,-2.101312,-1.5732502,2.4132445,-0.09803498,0.22592077,-0.263699,0.06629738,-0.024179766,-0.064773075,-0.45968673,-0.21068975,-9.212888,0.8717007,47.674347,-1.0896119,-1.5900129,-3.482317,-0.143086,-0.44404393,-0.3296934,26.375,27.25,26.3125,29.5,30.6875,31.1875
0.2560522,-1.8408948,0.7303029,-0.17723551,0.048273202,0.04029726,-0.12872061,-0.38854885,-0.32796022,0.060070872,-3.0746372,0.62835026,9.734105e-05,-0.12099545,0.0066953995,-0.0035236196,0.036376357,-0.018359918,-0.0371874,0.4355407,-1.4426596,1.9764909,-2.101168,-1.5733346,2.4131498,-0.100048065,0.22946179,-0.26504916,0.06749976,-0.025770895,-0.06260787,-0.47884035,-0.22984336,-9.212888,0.95002913,47.679718,-0.9419699,-1.7129147,-3.4820814,-0.17470503,-0.43897444,-0.3364774,26.375,27.25,26.3125,29.5,30.6875,31.1875
0.25805253,-1.0170373,0.9342449,-0.28055346,0.05380074,0.032999992,-0.13810003,-0.38877714,-0.3279434,0.06006412,-3.0745513,0.628411,3.763887e-05,-0.12299974,0.0069135367,-0.0030883215,0.03635013,-0.017610379,-0.04017457,0.43533614,-1.4422276,1.9759883,-2.1010244,-1.5733708,2.4129946,-0.101899855,0.23173603,-0.26889285,0.06837545,-0.026078265,-0.061467484,-0.36391866,-0.15322891,-9.097966,0.9388393,47.672558,-0.8803098,-1.771133,-3.5659118,-0.19417149,-0.43769598,-0.43185186,26.375,27.25,26.3125,29.5,30.6875,31.1875
0.2600525,-0.59480566,0.9825544,-0.34023258,0.055800274,0.02403226,-0.14701544,-0.38901716,-0.32793012,0.060043536,-3.0744338,0.62853825,2.8441582e-06,-0.12451558,0.006996786,-0.0025019564,0.035974167,-0.016046386,-0.039123334,0.4351438,-1.4417485,1.9754723,-2.1009166,-1.5734309,2.4128973,-0.10305684,0.23263586,-0.27134138,0.06833379,-0.026417078,-0.0636714,-0.30645782,-0.11492168,-9.097966,0.8873621,47.688675,-0.82472426,-1.7283938,-3.472473,-0.20239156,-0.44307876,-0.45497867,26.375,27.25,26.3125,29.5,30.6875,31.1875
0.26205242,-0.82970184,0.33348832,-0.3824596,0.046376385,0.0145002855,-0.13625793,-0.38924348,-0.32790586,0.060015917,-3.0743093,0.6286078,-0.00013377689,-0.12607644,0.007431246,-0.001915491,0.037620667,-0.015513773,-0.037198823,0.43492746,-1.441268,1.9749569,-2.1007478,-1.5734671,2.412741,-0.10397201,0.23442164,-0.2753408,0.07074839,-0.028159153,-0.06649942,-0.51714754,-0.019153614,-9.136273,0.84484416,47.66091,-0.81186783,-1.8192227,-3.4505377,-0.24913594,-0.41257936,-0.45426515,26.375,27.25,26.3125,29.5,30.6875,31.1875
0.26405224,-1.3902576,-0.32245666,-0.5057194,0.021941492,0.014942875,-0.1328405,-0.3895165,-0.3278794,0.060034294,-3.0741968,0.62875485,-8.436315e-05,-0.12717474,0.008084368,-0.0017837979,0.03894776,-0.013612242,-0.035577413,0.43469912,-1.440825,1.9743813,-2.1005929,-1.573552,2.4126194,-0.10469272,0.23493287,-0.2760974,0.06981644,-0.030181088,-0.06883284,-0.51714754,0.17238252,-9.174581,0.85155696,47.65912,-0.8081768,-1.7312825,-3.2891333,-0.2867657,-0.38750368,-0.44125602,26.375,27.25,26.3125,29.5,30.6875,31.1875
0.26605216,-1.5592508,-1.766303,-0.7847291,0.0052723195,0.04042408,-0.12729275,-0.38973898,-0.3278771,0.06001207,-3.0741022,0.6286929,-0.00024561357,-0.12902674,0.007395132,-0.00070614286,0.038543865,-0.010661448,-0.029140308,0.4345193,-1.4403216,1.9738196,-2.1003897,-1.5735768,2.4124136,-0.10433631,0.23627238,-0.2801451,0.06965609,-0.031095887,-0.074903466,-0.40222588,0.34476504,-9.346964,0.8627467,47.678825,-0.85897005,-1.6325722,-3.4371653,-0.29340744,-0.38110733,-0.42495114,26.375,27.25,26.3125,29.5,30.6875,31.1875
0.26805216,-1.8965284,-2.0258229,-0.52761644,-0.049668513,0.0705645,-0.13991109,-0.39000222,-0.32784888,0.060002252,-3.0739594,0.6287956,-0.00024907148,-0.12941407,0.007249669,-0.0010153548,0.03991251,-0.011537241,-0.02554838,0.43430367,-1.4398301,1.973256,-2.1002452,-1.5736727,2.412281,-0.10372265,0.2385459,-0.28240603,0.07099421,-0.03198921,-0.07787495,-0.45968673,0.34476504,-9.3661175,0.81351066,47.65106,-0.9513624,-1.5877829,-3.3793616,-0.31710505,-0.34990364,-0.39454752,26.375,27.25,26.3125,29.5,30.6875,31.1875
0.27005178,-2.161097,-2.4523816,-0.63509476,-0.068389945,0.084662095,-0.14288197,-0.39028144,-0.32781473,0.05999397,-3.0737991,0.628835,-0.000219588,-0.13054107,0.0069398005,-0.0014380957,0.040383685,-0.009894917,-0.020724097,0.43408775,-1.4393138,1.9726585,-2.1000907,-1.5738052,2.412111,-0.10327021,0.24098432,-0.28374907,0.06858001,-0.033138685,-0.08223846,-0.4405331,0.36391866,-9.3661175,0.8873621,47.664497,-0.9536861,-1.6451659,-3.5634978,-0.3449241,-0.32542288,-0.35759968,26.375,27.25,26.3125,29.5,30.6875,31.1875
0.2720517,-2.1635368,-2.4344893,-0.8315848,-0.06630571,0.08097317,-0.14657387,-0.390524,-0.32781234,0.059981268,-3.0737286,0.62893224,-0.00029726414,-0.13452373,0.0067724423,0.00032815765,0.037222117,-0.0030465873,-0.015619046,0.43388256,-1.4388348,1.9721183,-2.0999606,-1.5738171,2.411976,-0.106252216,0.24146555,-0.28746265,0.06423584,-0.03319936,-0.090320244,-0.36391866,0.49799395,-9.500193,0.90750587,47.685097,-0.8272058,-1.6591778,-3.5238528,-0.29139155,-0.31315407,-0.25528103,26.375,27.25,26.3125,29.5,30.6875,31.1875
0.27405253,-2.388752,-2.9434652,-0.89400715,-0.05755616,0.071194984,-0.12533782,-0.3907853,-0.327777,0.059956767,-3.0736096,0.6288866,-0.0003162966,-0.13459313,0.004984998,0.00033744634,0.035225242,-0.0012207526,-0.012379108,0.43365577,-1.4383312,1.9715799,-2.0998418,-1.5739125,2.4117367,-0.10360105,0.24253833,-0.28815386,0.061336786,-0.03217605,-0.09090963,-0.36391866,0.51714754,-9.423578,0.86945957,47.666286,-1.0963912,-1.6349455,-3.562241,-0.26374915,-0.3198446,-0.24135333,26.375,27.25,26.3125,29.5,30.6875,31.1875
0.27605236,-1.7659947,-2.1007538,-0.95709294,-0.037309207,0.04594005,-0.13209394,-0.39106032,-0.32778254,0.059953623,-3.0735583,0.62887645,-0.00030318918,-0.13816188,0.0061805057,0.0006388726,0.034055933,0.0028591594,-0.014603726,0.43346187,-1.4378158,1.9709815,-2.099735,-1.5739611,2.4115436,-0.10831724,0.24429873,-0.29001725,0.057229664,-0.032854073,-0.093395665,-0.28730422,0.45968673,-9.32781,0.85155696,47.657326,-0.77090526,-1.5839269,-3.625577,-0.22835025,-0.2993561,-0.2075652,26.375,27.25,26.3125,29.5,30.6875,31.1875
0.2780524,-0.76399815,-1.0162789,-0.897284,-0.022870295,0.032401875,-0.13997594,-0.39134818,-0.32774174,0.059937734,-3.0734317,0.6289623,-0.00024833303,-0.13925767,0.0050809593,0.00013550109,0.034769773,0.0052567017,-0.011212017,0.43321112,-1.4373113,1.9704303,-2.0996535,-1.5740694,2.4113634,-0.10602528,0.24771117,-0.2920977,0.054005463,-0.034529574,-0.09448507,-0.19153613,0.4405331,-9.519346,0.947788,47.68062,-1.0258356,-1.68732,-3.7584946,-0.1843571,-0.25902697,-0.15980433,26.375,27.25,26.3125,29.5,30.6875,31.1875
0.28005233,-1.1611047,-1.4496516,-0.70622754,-0.0036273098,0.012609701,-0.11697317,-0.39165434,-0.3277626,0.059961542,-3.0734296,0.62892437,-0.00014662181,-0.14127462,0.0044059716,0.0005724259,0.033236504,0.008159433,-0.012836874,0.43301877,-1.4367955,1.9697717,-2.0995576,-1.5741175,2.411148,-0.10651647,0.24970797,-0.29491627,0.05154153,-0.034361966,-0.093351625,-0.1340753,0.30645782,-9.346964,0.8940802,47.688675,-0.9877962,-1.6505206,-3.546899,-0.13087866,-0.23301923,-0.13541192,26.375,27.25,26.3125,29.5,30.6875,31.1875
0.28205222,-0.75673383,-1.0686302,-0.9912659,0.008848451,0.0013197571,-0.13304044,-0.39194646,-0.32774687,0.059949614,-3.0733435,0.6290404,-0.0001231079,-0.14241856,0.003287165,0.0010589168,0.03190294,0.008964702,-0.014085993,0.43277898,-1.4362679,1.9691843,-2.0994742,-1.5741771,2.4109924,-0.10589941,0.25179797,-0.29858118,0.051816177,-0.033494998,-0.09148638,-0.019153614,0.28730422,-9.32781,0.91198283,47.66987,-1.0416152,-1.7903521,-3.6133866,-0.08327648,-0.21432933,-0.14484894,26.375,27.25,26.3125,29.5,30.6875,31.1875
0.2840523,-0.16142946,-0.7741641,-1.3855754,0.019385118,0.008420493,-0.13633099,-0.39220613,-0.3277262,0.059926555,-3.0732226,0.62911534,-0.00012485683,-0.14397494,0.0038115876,0.00036026744,0.03241622,0.007156055,-0.020276206,0.43257397,-1.4357626,1.9686445,-2.0993779,-1.5742611,2.4108503,-0.10828965,0.25569844,-0.30176967,0.052960094,-0.033203103,-0.08768382,-0.019153614,0.3256114,-9.461885,0.8940802,47.66808,-0.89412993,-1.9259876,-3.5366483,-0.04722196,-0.21114719,-0.16596596,26.375,27.25,26.3125,29.5,30.6875,31.1875
0.28605214,-0.7810735,-1.2483487,-1.3445374,0.0047517978,-0.0034994506,-0.12448078,-0.39248228,-0.3277205,0.059908997,-3.0731292,0.6290952,-0.00020538099,-0.14333092,0.0027233404,0.0002604866,0.033093277,0.0057791844,-0.021109296,0.4323591,-1.4351999,1.9680103,-2.099209,-1.5743092,2.4106355,-0.10561506,0.25720426,-0.30385926,0.05507989,-0.03324048,-0.08417217,-0.019153614,0.28730422,-9.595961,0.8717007,47.692257,-1.115879,-2.017939,-3.5492415,-0.048071995,-0.17951985,-0.21362484,26.375,27.25,26.3125,29.5,30.6875,31.1875
0.28805205,-0.9107991,-1.8253019,-1.2329447,-0.021380657,0.0025495533,-0.13288945,-0.39278477,-0.32771927,0.059915803,-3.073062,0.6291238,-0.00011633439,-0.14453529,0.0043197745,-0.00035092433,0.033956144,0.0035242469,-0.028636327,0.43215364,-1.4346724,1.9673766,-2.0991132,-1.5743932,2.4104571,-0.10957842,0.25916505,-0.3052118,0.056880035,-0.033068977,-0.08060924,0.05746084,0.2681506,-9.576807,0.9097417,47.694054,-0.9063864,-1.9621432,-3.5528984,-0.043691453,-0.16550425,-0.25808907,26.375,27.25,26.3125,29.5,30.6875,31.1875
0.29005185,-0.3907461,-1.3446964,-1.1013521,-0.05218782,0.013149661,-0.14005901,-0.39306638,-0.32771152,0.059900466,-3.072958,0.6292542,-0.00012394086,-0.14495072,0.0035724589,-0.00018301547,0.034931317,0.002697256,-0.028722612,0.4319383,-1.4341325,1.9667763,-2.0990045,-1.5744528,2.4103372,-0.10810091,0.26155216,-0.30900922,0.059446003,-0.033612363,-0.07903993,0.038307227,0.36391866,-9.5385,0.9097417,47.692257,-1.1139125,-2.02632,-3.5480332,-0.02837077,-0.16654201,-0.28586936,26.375,27.25,26.3125,29.5,30.6875,31.1875
0.29205173,0.007257888,-1.6252733,-1.2348601,-0.030624341,0.014340059,-0.14255278,-0.393368,-0.32772318,0.059924282,-3.0729122,0.6293211,-6.77414e-05,-0.14589444,0.0035569898,0.00032411815,0.03515296,0.0025195868,-0.02932039,0.43173423,-1.4336169,1.9661053,-2.09886,-1.5745009,2.4101813,-0.10868217,0.26274952,-0.31214577,0.061629426,-0.03374269,-0.07902213,0.038307227,0.17238252,-9.519346,0.9321212,47.666286,-1.1030099,-2.004028,-3.4686863,-0.048281938,-0.116070025,-0.3136617,26.375,27.25,26.3125,29.5,30.6875,31.1875
0.29405248,-0.19309261,-1.121961,-1.3145162,-0.01897517,-0.006942428,-0.13550934,-0.39367422,-0.32768443,0.05988616,-3.0727696,0.6294649,-8.545132e-05,-0.14571588,0.004120527,-0.0011059819,0.035037372,0.0005723936,-0.030230483,0.43145776,-1.4330297,1.9655088,-2.0987766,-1.5745853,2.4100137,-0.11003689,0.26430905,-0.31042978,0.06005354,-0.032834034,-0.07946901,0.05746084,0.22984336,-9.595961,0.9567419,47.699425,-1.0305262,-1.9752278,-3.5773873,0.0018938491,-0.11786561,-0.3200759,26.375,27.25,26.3125,29.5,30.6875,31.1875
0.29605237,-0.27970454,-0.8444857,-1.4025347,0.0009867583,-0.02133873,-0.13178551,-0.3939475,-0.32768527,0.05990459,-3.0727026,0.62948793,-6.148356e-05,-0.14640385,0.0033655677,-0.0006876477,0.03356964,0.0008045838,-0.030153424,0.4312659,-1.4325501,1.9648856,-2.0986097,-1.5746449,2.4098454,-0.10994207,0.265357,-0.31280828,0.06054441,-0.031606287,-0.079455025,0.095768064,0.19153613,-9.691729,0.9298854,47.705692,-1.098896,-1.9103565,-3.607597,0.04435501,-0.12112412,-0.32502025,26.375,27.25,26.3125,29.5,30.6875,31.1875
0.29805243,-0.027844887,-0.69869834,-1.2170284,0.0077155065,-0.009461937,-0.14022507,-0.39426985,-0.3277062,0.059901077,-3.0726855,0.62960017,-2.5147034e-05,-0.14709924,0.0032056116,0.00018958325,0.03233269,-0.0002024329,-0.03198001,0.4310375,-1.4319636,1.9642147,-2.0985482,-1.5746559,2.4096897,-0.1111303,0.26560956,-0.31601155,0.06388236,-0.030060327,-0.078823656,-0.076614454,0.019153614,-9.557653,0.8717007,47.698532,-1.0765805,-1.8558967,-3.6369338,0.022930484,-0.105388656,-0.3525877,26.375,27.25,26.3125,29.5,30.6875,31.1875
0.3000522,-0.5778293,-0.18300462,-1.1222221,-4.512937e-05,-0.0025803926,-0.13441244,-0.39454472,-0.32770285,0.05988388,-3.0726006,0.62958235,-2.421426e-05,-0.14801934,0.0030062771,-4.7322355e-05,0.03143417,-0.00069739344,-0.03259373,0.4308451,-1.431423,1.9636167,-2.0984404,-1.5747279,2.4094977,-0.11210637,0.26766032,-0.31791377,0.063791886,-0.02904928,-0.07918809,-0.095768064,0.05746084,-9.481039,0.88960326,47.694946,-1.0263385,-1.8466752,-3.5837836,0.049945287,-0.11873537,-0.36982918,26.375,27.25,26.3125,29.5,30.6875,31.1875
0.30205217,-0.6662811,-0.4887153,-1.3826189,0.024783641,0.015631696,-0.13870925,-0.39485732,-0.32769522,0.05989541,-3.0724986,0.62980986,1.22161955e-05,-0.14863831,0.0029464548,0.00083987584,0.030289032,-0.0010256313,-0.031825468,0.4306047,-1.4308841,1.9629463,-2.098296,-1.574787,2.409413,-0.11316381,0.2673632,-0.32030952,0.06628171,-0.027881095,-0.081018426,-0.076614454,-0.019153614,-9.519346,0.8918391,47.687782,-1.0545791,-1.9217253,-3.673242,0.055389952,-0.12669046,-0.3655652,26.375,27.25,26.3125,29.5,30.6875,31.1875
0.3040521,-1.0889425,-0.29898635,-1.2918514,0.023392437,0.01905098,-0.14051443,-0.39512008,-0.327662,0.059881683,-3.0723515,0.62983584,-6.46664e-05,-0.14871056,0.0034829928,0.00047682264,0.031557024,-0.0051163114,-0.03252243,0.43037638,-1.4303687,1.9623464,-2.0980904,-1.5748714,2.4092207,-0.11445865,0.26957014,-0.32323098,0.07122541,-0.027336555,-0.081615016,-0.05746084,-0.019153614,-9.634268,0.87393653,47.67614,-0.9977193,-1.8257017,-3.627452,0.020469382,-0.1334847,-0.3945988,26.375,27.25,26.3125,29.5,30.6875,31.1875
0.30605194,-0.7852772,-0.4508054,-0.9137266,0.012983102,0.047974456,-0.14088887,-0.39545885,-0.32767236,0.059920274,-3.0723526,0.6299095,2.6217464e-05,-0.14881377,0.0039276946,-0.00020389188,0.032705132,-0.0098299505,-0.02716137,0.4301239,-1.4298407,1.9616283,-2.0979574,-1.5748948,2.4090145,-0.11582089,0.27260178,-0.32633594,0.07602098,-0.026431222,-0.08834337,-0.19153614,0.095768064,-9.500193,0.89631605,47.71465,-0.90276337,-1.8829643,-3.637505,-0.038175963,-0.12501393,-0.34660953,26.375,27.25,26.3125,29.5,30.6875,31.1875
0.30805182,-1.4753258,-0.00990394,-0.95039934,0.022460837,0.021107225,-0.1283339,-0.3957365,-0.32768345,0.059895843,-3.0722826,0.6299316,-2.1949605e-05,-0.1481992,0.0034665633,-0.00036129114,0.032981016,-0.013246272,-0.024682486,0.4299324,-1.4292651,1.9610056,-2.0978482,-1.5749301,2.4088464,-0.11511389,0.27404922,-0.32870412,0.080142274,-0.025269207,-0.09011883,-0.34476507,0.19153613,-9.385271,0.9835985,47.7245,-1.0586646,-1.8983302,-3.53237,-0.05969683,-0.14324376,-0.31558436,26.375,27.25,26.3125,29.5,30.6875,31.1875
0.3100516,-1.4948124,0.021945436,-0.9307027,0.023484683,0.032812808,-0.13784225,-0.39603364,-0.32764336,0.059885144,-3.0721633,0.630077,-0.00011824941,-0.1478845,0.003992924,-0.0012509528,0.034815412,-0.017939923,-0.021068022,0.4296317,-1.4287245,1.9603719,-2.0976546,-1.5749663,2.4086525,-0.115853675,0.27678892,-0.33093572,0.08463482,-0.025007527,-0.094471544,-0.45968673,0.1340753,-9.5385,0.88960326,47.71554,-0.9565656,-2.0067868,-3.6892197,-0.1173589,-0.1611624,-0.2662044,26.375,27.25,26.3125,29.5,30.6875,31.1875
0.31205225,-0.7322853,0.14229968,-0.7243771,0.008247832,0.060059767,-0.14908367,-0.39633945,-0.3276688,0.0599023,-3.0721414,0.6300308,-6.071075e-05,-0.14809434,0.004619499,-0.0014277364,0.036139432,-0.020693105,-0.017652802,0.42945153,-1.4281737,1.9596761,-2.097522,-1.5750145,2.4084468,-0.117018975,0.27826762,-0.3332213,0.08846736,-0.025080582,-0.09905179,-0.4405331,0.05746084,-9.500193,0.9679317,47.677036,-1.0804895,-2.0420914,-3.6201563,-0.1769926,-0.17009482,-0.1974045,26.375,27.25,26.3125,29.5,30.6875,31.1875
0.31405216,-1.4194854,-0.5229097,-0.60033286,0.015947517,0.052042097,-0.13160498,-0.39664066,-0.32764664,0.05990014,-3.072012,0.6300782,-9.410753e-05,-0.14849094,0.0042507825,-0.0006943362,0.036348145,-0.021151267,-0.014017623,0.4292118,-1.4276104,1.9589943,-2.0973175,-1.5750984,2.4082541,-0.11654426,0.27885202,-0.33640417,0.091541156,-0.025106808,-0.1022093,-0.45968673,0.076614454,-9.308657,0.90750587,47.672558,-0.9905052,-1.8647977,-3.5601761,-0.23330264,-0.16729748,-0.16975254,26.375,27.25,26.3125,29.5,30.6875,31.1875
0.31605205,-1.3622643,-0.37604535,-0.515487,0.014835355,0.052564703,-0.13347618,-0.39693692,-0.32764798,0.059899654,-3.0719543,0.63006467,-9.927793e-05,-0.14884079,0.0042063207,-0.00023532528,0.03656648,-0.021226408,-0.012467079,0.42899576,-1.4270595,1.9583358,-2.097173,-1.5751461,2.4080377,-0.11652344,0.27906758,-0.3382419,0.09330619,-0.025290461,-0.10373694,-0.7278373,0.19153613,-9.212888,0.8851263,47.689575,-1.1268606,-1.8917878,-3.5470023,-0.28563637,-0.15520948,-0.09993413,26.375,27.25,26.3125,29.5,30.6875,31.1875
0.318052,-0.9122861,-0.06664303,-0.76745987,0.02190928,0.053310677,-0.13676322,-0.3972396,-0.32764283,0.05991818,-3.071896,0.63003516,-0.0001427986,-0.15028617,0.0045291106,0.00042372016,0.03571251,-0.019779054,-0.01596452,0.42875525,-1.4265208,1.9576286,-2.096946,-1.5751823,2.4077868,-0.11831106,0.27929452,-0.34015003,0.09331374,-0.025128111,-0.10202574,-0.3830723,0.15322891,-9.289503,0.800085,47.68599,-1.0581048,-1.6826041,-3.5962381,-0.31062368,-0.16216096,-0.100933984,26.375,27.25,26.3125,29.5,30.6875,31.1875
0.32005182,-1.3745041,-0.6537369,-0.62425405,0.023007423,0.037023097,-0.13065463,-0.39756715,-0.32764024,0.059931826,-3.071822,0.63015497,-9.079515e-05,-0.15202983,0.0049056313,0.0011070595,0.034650344,-0.016684743,-0.018528102,0.4285146,-1.4259576,1.9569234,-2.096803,-1.5752429,2.4076312,-0.12011589,0.2790994,-0.34117702,0.09127281,-0.025460087,-0.10126473,-0.1340753,0.15322891,-9.289502,0.87393653,47.66271,-1.0406824,-1.5013144,-3.667201,-0.31431812,-0.1770124,-0.07788665,26.375,27.25,26.3125,29.5,30.6875,31.1875
0.32205173,-1.237402,-0.98282045,-0.5711527,0.0042861938,0.031664457,-0.12469719,-0.39788324,-0.32762855,0.05994163,-3.071717,0.63024956,-8.564633e-05,-0.15520923,0.003720218,0.002326979,0.03235198,-0.011034051,-0.022659542,0.4282744,-1.425394,1.9562157,-2.0966127,-1.5753144,2.4074643,-0.12031665,0.28131405,-0.34581244,0.08760526,-0.025732487,-0.09732837,-0.34476504,0.1340753,-9.251195,0.9030289,47.675243,-0.93095386,-1.5980868,-3.669053,-0.2875009,-0.1795612,-0.108121656,26.375,27.25,26.3125,29.5,30.6875,31.1875
0.3240526,-0.7593549,-0.7431409,-0.5682034,0.00062330643,0.037886478,-0.13132975,-0.39818907,-0.32760662,0.05993023,-3.071616,0.6303087,-0.0001497236,-0.15897274,0.0044490444,0.0030455086,0.031111557,-0.0066359825,-0.029667392,0.42800918,-1.4248185,1.9555453,-2.0964344,-1.5753626,2.4072497,-0.12420096,0.28344515,-0.34933367,0.08448555,-0.026447367,-0.09419664,-0.34476504,0.1340753,-9.308657,0.94331104,47.672558,-0.9318906,-1.4429636,-3.513133,-0.28007606,-0.17459989,-0.14532104,26.375,27.25,26.3125,29.5,30.6875,31.1875
0.3260517,-0.7701716,-0.90482074,-0.69561267,0.0020041952,0.044318322,-0.13298659,-0.39850414,-0.3275966,0.05992384,-3.0715253,0.6303858,-0.00018385996,-0.16133313,0.0021346577,0.003481275,0.028364012,-0.0006993957,-0.030559521,0.4277582,-1.4242299,1.954851,-2.096269,-1.5754107,2.4070592,-0.12183671,0.28653845,-0.3525785,0.07810039,-0.026430322,-0.0909357,-0.21068975,0.019153614,-9.3661175,0.9612189,47.674347,-0.9338214,-1.5715438,-3.4506958,-0.20603463,-0.1739974,-0.18507303,26.375,27.25,26.3125,29.5,30.6875,31.1875
0.3280518,-1.2658587,-0.8948865,-1.0584421,0.0017920032,0.042384543,-0.13138665,-0.39882275,-0.32760707,0.05994664,-3.071466,0.63048923,-0.00014115825,-0.16264436,0.0021117514,0.0028213353,0.028524742,-0.00067900924,-0.03409798,0.42754182,-1.4236783,1.9541315,-2.0961015,-1.5754589,2.4069157,-0.122663915,0.28979164,-0.3546808,0.07700157,-0.026584884,-0.08822218,-0.22984336,0.038307227,-9.32781,0.947788,47.690468,-0.93544376,-1.6710676,-3.410687,-0.16018297,-0.18271966,-0.2232705,26.375,27.25,26.3125,29.5,30.6875,31.1875
0.33005187,-1.4741582,-1.3197811,-1.0092205,0.013608193,0.043429434,-0.12873955,-0.39912155,-0.3275978,0.059933983,-3.0713723,0.630566,-0.0001515076,-0.16443272,0.0015103288,0.001647793,0.028256632,-0.00056639017,-0.03649257,0.42731377,-1.4231129,1.9534854,-2.0959713,-1.5755185,2.4067483,-0.12305951,0.29514253,-0.35768482,0.07443925,-0.026399808,-0.086220324,-0.4213795,0.21068975,-9.423578,0.93436235,47.66987,-0.97859347,-1.8177714,-3.4274893,-0.15430999,-0.19225949,-0.27624142,26.375,27.25,26.3125,29.5,30.6875,31.1875
0.3320526,-1.2798618,-0.72894377,-0.6756565,-0.011605315,0.06736489,-0.13892858,-0.39947084,-0.3275853,0.059957396,-3.07129,0.6307224,-0.00010353943,-0.16499594,0.0010039143,0.0023086565,0.026292054,0.0020521288,-0.037623707,0.42703795,-1.422537,1.9527334,-2.095792,-1.5755781,2.4065814,-0.1229103,0.29403675,-0.35760182,0.07225674,-0.025700022,-0.084943675,-0.40222588,0.3256114,-9.500193,0.8717007,47.658226,-0.9515691,-1.784683,-3.481989,-0.09801006,-0.2029562,-0.3010704,26.375,27.25,26.3125,29.5,30.6875,31.1875
0.33405235,-1.420729,-0.85010076,-1.1569017,-0.016162204,0.065953955,-0.13286124,-0.39981246,-0.32758376,0.05995122,-3.0712166,0.6308603,-0.00010677113,-0.16407517,0.0015717307,0.00016711013,0.02888048,-0.0024927408,-0.038845874,0.42677388,-1.4219112,1.9520024,-2.09566,-1.5756148,2.4064136,-0.122726716,0.297505,-0.35712138,0.07351595,-0.026170574,-0.08353509,-0.30645782,0.40222588,-9.634268,0.9612189,47.66271,-1.0153564,-1.7772431,-3.7598567,-0.07892409,-0.20830026,-0.3519083,26.375,27.25,26.3125,29.5,30.6875,31.1875
0.33605233,-1.6407365,-2.103164,-1.1005732,-0.030471807,0.06586438,-0.12801586,-0.40014538,-0.32758093,0.05995851,-3.0711315,0.630862,-6.711829e-05,-0.1643709,0.002255949,0.00010948073,0.03002659,-0.0030185345,-0.040954363,0.42654562,-1.4213105,1.9512609,-2.0954916,-1.5756987,2.406198,-0.12354749,0.2978442,-0.35784033,0.074845485,-0.026995722,-0.08224255,-0.30645782,0.49799395,-9.557653,0.99702406,47.703007,-1.0146224,-1.7393677,-3.8369536,-0.06709095,-0.20172764,-0.40013725,26.375,27.25,26.3125,29.5,30.6875,31.1875
0.33805233,-1.6277248,-2.6655936,-1.1472465,-0.055953935,0.059125554,-0.12838756,-0.40046173,-0.32757178,0.05997351,-3.071067,0.63100284,-8.120005e-05,-0.16547686,0.0023333188,0.00045168676,0.03153579,-0.0023348723,-0.041643947,0.42628163,-1.4207692,1.9505666,-2.0953119,-1.5757235,2.406031,-0.12339052,0.29957187,-0.36108848,0.076369144,-0.028659116,-0.08138523,-0.36391866,0.49799395,-9.557653,0.9186956,47.707485,-1.0770532,-1.6597812,-3.8527203,-0.06943512,-0.19322495,-0.44123173,26.375,27.25,26.3125,29.5,30.6875,31.1875
0.34005225,-0.9709535,-2.5466316,-1.3878976,-0.059546225,0.042419765,-0.12585385,-0.40080065,-0.32753646,0.05996647,-3.0709047,0.63121694,-4.7528654e-05,-0.16705361,0.0015979916,0.0019970834,0.030117882,0.00035843044,-0.041033935,0.4260057,-1.4201684,1.94986,-2.095156,-1.5758318,2.4059105,-0.12332195,0.29961914,-0.36503837,0.077213466,-0.02849789,-0.081924744,-0.24899697,0.49799395,-9.653421,0.93436235,47.679718,-1.0818939,-1.6950762,-3.7915366,-0.041994885,-0.18769994,-0.4723171,26.375,27.25,26.3125,29.5,30.6875,31.1875
0.34205228,-0.69429886,-2.4418204,-1.5526209,-0.049662404,0.02449784,-0.12130019,-0.40114594,-0.3275325,0.05996625,-3.0708034,0.63126993,-2.1934657e-05,-0.1688091,0.001237217,0.00305054,0.028530095,0.0027054711,-0.03961803,0.4257656,-1.4195318,1.9490937,-2.094988,-1.5759152,2.4057174,-0.124274775,0.30014592,-0.36818826,0.077015705,-0.028043775,-0.08429365,-0.21068975,0.4213795,-9.749189,0.91421866,47.678825,-1.1664181,-1.523993,-3.674704,-0.051286273,-0.1931604,-0.49630994,26.375,27.25,26.3125,29.5,30.6875,31.1875
0.34405234,-0.4791042,-1.4788936,-1.467929,-0.04453906,0.0066495794,-0.1315747,-0.40150386,-0.32752934,0.059975483,-3.0707471,0.6314093,7.270914e-05,-0.16979581,0.0006140983,0.0032216324,0.02887499,0.0008283619,-0.035626616,0.42550147,-1.4189305,1.9483618,-2.0948913,-1.5759748,2.405548,-0.124097995,0.30354849,-0.3734887,0.08073151,-0.027600288,-0.08810963,-0.095768064,0.36391866,-9.787497,0.9612189,47.68062,-1.1141275,-1.5084693,-3.4748614,-0.030812006,-0.20150855,-0.473612,26.375,27.25,26.3125,29.5,30.6875,31.1875
0.3460525,0.26320955,-0.7751228,-1.458051,-0.017196497,0.0014863369,-0.14255424,-0.40183884,-0.32754296,0.05999846,-3.070709,0.631475,0.00011233508,-0.17122687,0.0025632118,0.0011640048,0.030635538,-0.0034324147,-0.03153932,0.4252719,-1.4183519,1.9476079,-2.0947235,-1.5760111,2.405365,-0.12875752,0.3085557,-0.37490255,0.08168887,-0.027482547,-0.09685654,-0.17238253,0.3256114,-9.768343,0.9858343,47.7451,-1.026492,-1.7656662,-3.6346335,-0.022627555,-0.19811742,-0.4340672,26.375,27.25,26.3125,29.5,30.6875,31.1875
0.34805253,-0.19032012,-0.662793,-1.5686175,0.0131847,0.0034194887,-0.13331456,-0.40219653,-0.32756135,0.060011186,-3.0707028,0.6315652,0.00013088576,-0.16895476,0.0024222312,-0.000644132,0.033267163,-0.010476068,-0.02522249,0.42500877,-1.4177265,1.9468311,-2.09459,-1.5760106,2.4051595,-0.12679106,0.31137425,-0.3753264,0.08676417,-0.026984083,-0.10121081,-0.21068975,0.2873042,-9.672575,0.8605109,47.705692,-1.0209247,-1.8748538,-3.6557097,-0.0630125,-0.2423935,-0.37026513,26.375,27.25,26.3125,29.5,30.6875,31.1875
0.35005236,-1.0207605,-0.72639734,-1.1932249,0.017208025,-0.0003732807,-0.12045388,-0.40253577,-0.32753563,0.06000682,-3.0705686,0.63161033,0.00011823984,-0.16771732,0.004149004,-0.002071278,0.036101274,-0.018720737,-0.019454045,0.42474374,-1.4171008,1.9460768,-2.094384,-1.5761069,2.4049408,-0.12926126,0.31347573,-0.37635645,0.09430808,-0.026199808,-0.109452784,0.0,0.19153613,-9.576807,0.947788,47.69763,-0.92654455,-1.9115379,-3.7594872,-0.15380828,-0.24351843,-0.30018085,26.375,27.25,26.3125,29.5,30.6875,31.1875
0.35205233,0.087979704,-0.4565365,-1.0646124,0.019476505,0.028684651,-0.13694943,-0.40287703,-0.3275632,0.06002872,-3.0705698,0.6316854,0.00011436468,-0.16812515,0.0043600583,-0.001621246,0.036323145,-0.019743215,-0.016686302,0.4245037,-1.4164996,1.9452981,-2.0942152,-1.5760945,2.404748,-0.12996277,0.31387636,-0.37868235,0.097232156,-0.025999423,-0.11292312,0.17238252,0.17238252,-9.385271,0.947788,47.688675,-0.9407807,-2.037556,-3.8142319,-0.17051142,-0.26984417,-0.21805155,26.375,27.25,26.3125,29.5,30.6875,31.1875
0.35405213,-0.7287894,-0.6210226,-0.68308574,0.034329567,-0.009645706,-0.122625396,-0.40325546,-0.32754853,0.06006362,-3.0705132,0.6317105,0.0002581851,-0.16994861,0.0045459503,-0.0009125858,0.037402805,-0.019580826,-0.014968588,0.42422736,-1.4159114,1.9445075,-2.0940588,-1.5761913,2.4044952,-0.13095176,0.3162961,-0.38395357,0.100351214,-0.027068747,-0.11562341,-0.019153614,0.11492168,-9.270349,1.0149267,47.692257,-0.9535573,-1.8177342,-3.7461343,-0.2226029,-0.28075594,-0.16351524,26.375,27.25,26.3125,29.5,30.6875,31.1875
0.35605192,0.25907007,-0.04908197,-0.38215446,0.02745432,-0.005017441,-0.13688578,-0.40358117,-0.32752392,0.06005544,-3.0703824,0.63171893,0.00023472638,-0.17080256,0.00307911,0.00061217323,0.037131503,-0.016960924,-0.011447823,0.42397612,-1.4152981,1.9437755,-2.0938547,-1.5762872,2.404267,-0.12830351,0.31664896,-0.3883709,0.101896875,-0.02792694,-0.11648755,0.095768064,0.11492168,-9.155427,0.92093146,47.685097,-1.0366805,-1.804394,-3.4871235,-0.24785513,-0.2952803,-0.121342055,26.375,27.25,26.3125,29.5,30.6875,31.1875
0.3580519,-0.023038128,-0.015168258,-0.65257424,0.046257272,-0.022790361,-0.12476846,-0.40393853,-0.32752287,0.06006047,-3.0703108,0.6317644,0.00022557806,-0.17298083,0.0035444258,0.0013733358,0.03578681,-0.015424207,-0.017014118,0.423711,-1.4146485,1.942974,-2.0936635,-1.5763353,2.4040403,-0.13115785,0.3176083,-0.39144632,0.102060065,-0.027341295,-0.11377647,0.0,0.019153614,-9.232041,0.92764956,47.668976,-0.91675735,-1.764833,-3.5505962,-0.26791385,-0.3179568,-0.12585972,26.375,27.25,26.3125,29.5,30.6875,31.1875
0.36005256,0.27289614,0.2812661,-0.81309974,0.047058903,-0.016503897,-0.12876357,-0.4042734,-0.32754546,0.060084388,-3.0702724,0.63179594,0.00018440449,-0.17323922,0.0024017314,0.0010936263,0.036030576,-0.015262286,-0.021186076,0.4234841,-1.414036,1.9421605,-2.093424,-1.5763472,2.4038386,-0.12898009,0.32009843,-0.39382127,0.10192769,-0.027621083,-0.10742286,-0.1340753,0.076614454,-9.155427,0.9791215,47.682407,-1.109117,-1.5619022,-3.4796076,-0.28042313,-0.31321225,-0.14209417,26.375,27.25,26.3125,29.5,30.6875,31.1875
0.36205256,-0.5943797,-0.40535533,-0.72056794,0.02125821,0.011280069,-0.12241944,-0.40462252,-0.3275364,0.060085036,-3.0701776,0.63187534,0.00017274171,-0.1751347,0.0027254133,0.0005875005,0.035973318,-0.0140793575,-0.028098777,0.42321953,-1.4133981,1.9413818,-2.0932333,-1.5764073,2.4036367,-0.13068712,0.32307538,-0.3958145,0.0998603,-0.028055744,-0.102211945,-0.21068975,0.19153613,-9.136273,0.9567419,47.675243,-1.0370883,-1.6622996,-3.4477968,-0.2673838,-0.33827636,-0.21839544,26.375,27.25,26.3125,29.5,30.6875,31.1875
0.36405239,-1.2357253,-0.90878886,-0.48635942,-0.011181731,0.041534204,-0.13117802,-0.40496066,-0.32750523,0.060093734,-3.070027,0.6319607,0.00017458524,-0.17629145,0.0029981185,0.0003838858,0.03603521,-0.012142857,-0.033426896,0.4229553,-1.4127978,1.940617,-2.0929945,-1.5765156,2.4034462,-0.13142762,0.32415953,-0.3962329,0.09746622,-0.028909517,-0.097617015,-0.24899697,0.21068975,-9.193734,0.96569055,47.675243,-1.026388,-1.3426917,-3.4789104,-0.25141275,-0.3432707,-0.25057846,26.375,27.25,26.3125,29.5,30.6875,31.1875
0.3660524,-2.075371,-1.7198254,-0.3060315,-0.044729214,0.08243007,-0.12621395,-0.40531173,-0.3275337,0.06011187,-3.0699925,0.63201195,0.0001497518,-0.17855796,0.003114827,0.00097378786,0.034621224,-0.008190295,-0.03566374,0.42272657,-1.4121487,1.9397792,-2.0927804,-1.5765275,2.4032545,-0.1331169,0.3248527,-0.39783844,0.09419099,-0.029258808,-0.09706574,-0.38307226,0.24899697,-9.251195,0.91198283,47.64927,-0.9446068,-1.5021152,-3.6212838,-0.21290964,-0.33623457,-0.28839684,26.375,27.25,26.3125,29.5,30.6875,31.1875
0.36805254,-2.6096692,-2.3577826,-0.33580658,-0.04868023,0.10371152,-0.12800124,-0.4056773,-0.3275245,0.06012657,-3.069936,0.6321918,0.00016698387,-0.18000492,0.003236259,4.2548807e-05,0.034317844,-0.0071220365,-0.036480524,0.42242634,-1.4115349,1.9390005,-2.0926144,-1.5765518,2.4030745,-0.1342325,0.32781968,-0.39856142,0.09083645,-0.029437322,-0.09736256,-0.4405331,0.30645782,-9.232041,0.90750587,47.67793,-0.9439671,-1.582876,-3.7918835,-0.1893713,-0.36906257,-0.3061392,26.375,27.25,26.3125,29.5,30.6875,31.1875
0.3700524,-2.4753356,-2.261052,-0.41154158,-0.041825406,0.107905865,-0.12761126,-0.40604532,-0.32748216,0.06011795,-3.0697684,0.6323093,0.0001778607,-0.18354937,0.0024235507,0.0005317972,0.032707453,-0.002662827,-0.037613317,0.4221261,-1.4108729,1.9382113,-2.0924118,-1.576672,2.4028704,-0.13523878,0.3319011,-0.4037785,0.08722667,-0.02982792,-0.0972284,-0.47884035,0.3256114,-9.232041,0.9925471,47.688675,-0.9399178,-1.4717492,-3.6375346,-0.11562264,-0.37589836,-0.33156407,26.375,27.25,26.3125,29.5,30.6875,31.1875
0.37205243,-2.13272,-1.477656,-0.50561327,-0.015215849,0.08134591,-0.12258605,-0.4064022,-0.32751957,0.060123276,-3.0697682,0.63232815,0.00021241394,-0.18490425,0.0023873013,0.0007568306,0.033319153,-0.0016244492,-0.03830781,0.42191002,-1.4102118,1.9374088,-2.0922916,-1.5766844,2.4026666,-0.13548976,0.33382425,-0.40680724,0.08763451,-0.030816417,-0.09677866,-0.57460845,0.34476504,-9.174581,0.9545008,47.690468,-0.9036889,-1.7057787,-3.6212003,-0.09551488,-0.37719214,-0.33888227,26.375,27.25,26.3125,29.5,30.6875,31.1875
0.37405223,-1.2622443,-1.0337381,-0.58176863,0.012330042,0.067192234,-0.13601159,-0.40677166,-0.3275076,0.060108297,-3.0696597,0.6324598,0.00022598257,-0.18742152,0.0029687812,0.0009426104,0.0326561,0.0018579856,-0.040422548,0.42163315,-1.4095267,1.9366201,-2.0921495,-1.5767564,2.4024868,-0.13787776,0.33534068,-0.40844288,0.08429129,-0.031657074,-0.097044885,-0.8236054,0.47884035,-9.289502,0.97240865,47.6421,-0.93701965,-1.5634129,-3.6433575,-0.03851699,-0.37764227,-0.36447662,26.375,27.25,26.3125,29.5,30.6875,31.1875
