Tylouw/Master_Thesis_Code/training_data/batch_1/big_rod_t0.2/sample_67_session_3.csv
timestamp[s],tcp_force_x[N],tcp_force_y[N],tcp_force_z[N],tcp_force_rx[Nm?],tcp_force_ry[Nm?],tcp_force_rz[Nm?],tcp_pose_x[m],tcp_pose_y[m],tcp_pose_z[m],tcp_pose_rx[rot_vec_x],tcp_pose_ry[rot_vec_y],tcp_pose_rz[rot_vec_z],tcp_velo_x[m/s],tcp_velo_y[m/s],tcp_velo_z[m/s],tcp_velo_rx[rot_vec_x/s],tcp_velo_ry[rot_vec_y/s],tcp_velo_rz[rot_vec_z/s],q1[rad],q2[rad],q3[rad],q4[rad],q5[rad],q6[rad],qd1[rad/s],qd2[rad/s],qd3[rad/s],qd4[rad/s],qd5[rad/s],qd6[rad/s],tool_acc_x,tool_acc_y,tool_acc_z,current_of_whole_robot[A],voltage_of_whole_robot[V],current_J1[A],current_J2[A],current_J3[A],current_J4[A],current_J5[A],current_J6[A],temp_J1[C],temp_J2[C],temp_J3[C],temp_J4[C],temp_J5[C],temp_J6[C]
8.579809e-07,-1.0054199,-1.8156806,-0.20432444,-0.0150362905,0.015696285,0.00090518425,-0.37285647,-0.32821947,0.059927102,-3.0784862,0.6248482,-0.00037518513,0.002240315,0.001072697,-0.0034965666,0.0033191072,-0.007226824,-8.3878745e-05,0.44815025,-1.470873,2.009621,-2.1076791,-1.5706257,2.4230556,-8.1825034e-05,0.0037960936,0.003764176,0.0003905463,0.00014889547,-0.0,0.05746084,0.21068975,-8.925584,0.78217715,47.71286,-0.29568043,-2.8938804,-2.3774357,-0.4948514,0.11011082,-0.049717262,27.0,28.1875,27.125,30.5625,32.25,32.875
0.002054695,-1.188949,-2.1509063,-0.32011762,-0.0004869428,0.009556578,0.0027549795,-0.3728882,-0.32820463,0.059915677,-3.078445,0.62480056,-0.00026064354,-0.00026027695,-0.0001318598,-0.0033666005,-0.00043181618,0.00056212756,-7.976394e-05,0.44815025,-1.4708248,2.009609,-2.107743,-1.5707096,2.4230313,-8.036382e-05,0.004706134,0.0049107075,-0.010311058,0.00013261667,-0.0,0.0,0.21068975,-8.963891,0.74413085,47.71286,-0.2750117,-2.8304813,-2.3604958,-0.46476668,0.09673749,-0.03429859,27.0,28.1875,27.125,30.5625,32.25,32.875
0.004054194,-1.2514075,-1.5259955,-0.32754028,-0.0054389522,0.002969303,0.002303998,-0.37289006,-0.3282013,0.05991376,-3.0784526,0.6248989,-0.00026637618,-0.0012504722,-0.00060861575,-0.002735116,-0.0019618573,0.00374668,-7.7420875e-05,0.44812617,-1.470837,2.0096323,-2.1077678,-1.5706857,2.4230676,-7.895378e-05,0.0042283526,0.0046175467,-0.013073136,0.00012491581,-0.0,0.0,0.2681506,-8.925584,0.7105615,47.691364,-0.24319744,-3.1304057,-2.5880265,-0.36550564,0.09938268,-0.052588962,27.0,28.1875,27.125,30.5625,32.25,32.875
0.006053924,-1.1078036,-1.192093,-0.537105,0.017203055,-0.016240403,0.008080977,-0.37289414,-0.32819468,0.05989617,-3.0784159,0.6248722,-0.00029028198,-0.00085005315,-0.00041407597,-0.0016925276,-0.0013553551,0.0025095036,-7.66468e-05,0.44812617,-1.4707898,2.0096204,-2.107766,-1.5707096,2.4230556,-7.7592544e-05,0.002659621,0.002877865,-0.0083869,0.0001212862,-0.0,0.13407528,0.19153613,-8.887277,0.7038487,47.692257,-0.29559442,-3.0251732,-2.506482,-0.38168618,0.09102518,-0.04715338,27.0,28.1875,27.125,30.5625,32.25,32.875
0.008054258,-0.38412827,-0.4000301,-0.9684684,0.050411984,-0.03213565,0.002591346,-0.37287295,-0.32820997,0.059899077,-3.078423,0.62487316,-0.0002751759,-0.00028796567,-0.00014152913,-0.00096035376,-0.00054175104,0.0008412335,-7.605602e-05,0.4481742,-1.4708142,2.0096428,-2.107776,-1.5707096,2.4231033,-7.627715e-05,0.0013869333,0.0015860298,-0.0039663003,0.000118086056,-0.0,0.038307227,0.15322891,-9.097966,0.7553206,47.716442,-0.30548966,-2.9839442,-2.482508,-0.42939,0.093989536,-0.04587093,27.0,28.1875,27.125,30.5625,32.25,32.875
0.010054231,-0.47109014,-0.011793077,-1.3036848,0.056587886,-0.038660534,0.011310262,-0.37288705,-0.32820407,0.059902187,-3.07843,0.6248365,-0.00027636538,-0.000121978184,-5.545898e-05,-0.0006079361,-0.000299472,0.0003503546,-8.48979e-05,0.44815025,-1.4708023,2.00962,-2.107764,-1.5707096,2.4230556,-8.488022e-05,0.00082090445,0.0010140978,-0.0022809387,0.000115065355,-0.0,0.05746084,0.13407528,-9.308657,0.7486078,47.694054,-0.61069214,-2.28226,-3.1153038,-0.45256227,0.07400255,-0.10211945,27.0,28.1875,27.125,30.5625,32.25,32.875
0.012054008,-0.59304684,-0.7465725,-1.4188185,0.025535053,-0.014670446,2.5448455e-06,-0.37286174,-0.32820064,0.05986155,-3.0784185,0.6248341,-0.00045643296,-8.219724e-05,0.00010614577,-0.004033894,0.0029705747,-0.0064505227,-0.00032685357,0.4481261,-1.4707514,2.0096543,-2.1077511,-1.5706495,2.4230313,-0.00035706302,0.009533144,-0.0008433381,-0.001589535,0.00011219621,-2.79346e-05,0.095768064,0.038307227,-9.500193,0.8112748,47.699425,-0.6890935,-2.3659952,-3.257419,-0.44132942,0.081187144,-0.16509956,27.0,28.1875,27.125,30.5625,32.25,32.875
0.014054049,-1.1435201,-1.6942047,-1.5305058,-0.011324962,0.018886227,-0.0010345947,-0.37287095,-0.3282101,0.059856977,-3.078404,0.6248337,-0.00048648915,-0.00551918,0.0016852996,-0.004394782,0.0031607274,-0.006878431,-0.0054748543,0.44813544,-1.4707006,2.0096037,-2.1077273,-1.5706495,2.4230423,-0.00827969,0.01732347,-0.008677095,-0.0010784686,0.00010946679,-0.00279676,-0.05746084,0.1340753,-9.519346,0.784413,47.71554,-0.44494706,-2.7828503,-3.0060825,-0.44093361,0.07966613,-0.19090874,27.0,28.1875,27.125,30.5625,32.25,32.875
0.016054332,-2.2002614,-2.8077962,-1.5223763,-0.03548218,0.04226928,0.0017827565,-0.37286603,-0.32819018,0.059863698,-3.0783489,0.6248386,-0.00047065038,-0.005924005,0.0018243244,-0.003998928,0.0029574018,-0.006457919,0.00026700235,0.44813514,-1.4707247,2.0096037,-2.1076791,-1.5706977,2.423052,-0.008907981,0.017010443,-0.009361774,-0.0005492069,0.000106867104,-0.009166701,-0.2873042,0.30645782,-9.615114,0.7083204,47.696735,-0.4423627,-2.740383,-3.197056,-0.44436502,0.07735064,-0.11618072,27.0,28.1875,27.125,30.5625,32.25,32.875
0.01805467,-2.388961,-2.7380502,-1.4828894,-0.06417339,0.081435256,-0.011146436,-0.37287205,-0.32818937,0.05984314,-3.078353,0.6248763,-0.0006031337,-0.0058994247,0.0014603692,-0.0038033687,0.0031421268,-0.0068414626,0.0031662034,0.44808736,-1.4706646,2.0095794,-2.1076548,-1.5706376,2.4230273,-0.008199552,0.017516067,-0.010638415,0.0006477945,0.000104388004,-0.0113569815,-0.38307226,0.34476504,-9.787497,0.7620334,47.71554,-0.5703378,-2.431347,-3.5431561,-0.45079803,0.06842124,-0.12529433,27.0,28.1875,27.125,30.5625,32.25,32.875
0.020054413,-2.507084,-2.7827811,-1.3508664,-0.05982742,0.10440248,-0.020705711,-0.37284562,-0.32819134,0.059810575,-3.078341,0.6247779,-0.0006371406,-0.006075623,0.0017286086,-0.003829094,0.0040158215,-0.008647973,0.0021738722,0.4481232,-1.4706403,2.009638,-2.1077015,-1.5706495,2.4230032,-0.008864783,0.018632568,-0.012411582,0.0033110678,0.00010202105,-0.011029423,-0.47884035,0.40222588,-9.768343,0.78217715,47.71554,-0.59799314,-2.3952656,-3.440421,-0.48688293,0.072803,-0.15705886,27.0,28.1875,27.125,30.5625,32.25,32.875
0.022053858,-2.7045577,-2.599501,-1.5594655,-0.0382566,0.0896754,-0.028730392,-0.37288284,-0.32820275,0.059821215,-3.0783482,0.62478006,-0.0006219613,-0.007764589,0.0012942143,-0.0036190469,0.0034863201,-0.0075602713,0.001560101,0.44811076,-1.4705796,2.0095417,-2.1076782,-1.5706495,2.4229913,-0.009584499,0.021236682,-0.015610799,0.0026964345,9.975942e-05,-0.011132845,-0.6703765,0.40222588,-9.883265,0.74413085,47.716442,-0.6785983,-2.5303624,-3.36818,-0.47180262,0.05776941,-0.17843466,27.0,28.1875,27.125,30.5625,32.25,32.875
0.024054088,-2.7449534,-2.0802002,-1.7096243,-0.033943385,0.08014993,-0.04519813,-0.3728997,-0.32818732,0.059807304,-3.0783174,0.624774,-0.0006558178,-0.008977392,0.001474639,-0.0032698244,0.0027524063,-0.006042156,0.00121731,0.4480744,-1.4705316,2.0095184,-2.1076667,-1.5706614,2.422955,-0.01102564,0.021606749,-0.016567381,0.0015964473,9.7595774e-05,-0.012230238,-0.59376204,0.51714754,-9.80665,0.7597976,47.70659,-0.6663507,-2.3921642,-3.4894872,-0.47233847,0.06309393,-0.19926226,27.0,28.1875,27.125,30.5625,32.25,32.875
0.026053892,-2.3416567,-2.228757,-1.7165244,-0.031497497,0.07338296,-0.05263622,-0.3729301,-0.32817402,0.059820667,-3.0783029,0.62478846,-0.0006164295,-0.010322466,0.0012931396,-0.002177905,0.0014728965,-0.0033902596,0.0024153169,0.4480382,-1.4705198,2.0094693,-2.1076424,-1.5706857,2.4229298,-0.011905424,0.021026105,-0.01828793,0.00095254276,9.552387e-05,-0.014306893,-0.61291564,0.40222588,-9.710882,0.7597976,47.707485,-0.78002954,-2.3017974,-3.5285852,-0.4512973,0.055240702,-0.20096314,27.0,28.1875,27.125,30.5625,32.25,32.875
0.028053885,-2.0411782,-2.167805,-1.4719198,-0.028317943,0.067134574,-0.06531419,-0.37296,-0.32817325,0.05979515,-3.0782814,0.62476504,-0.0006084519,-0.01191843,0.0012624905,-0.0018502029,0.0008925423,-0.0021746857,0.0028537684,0.44802564,-1.4704233,2.009433,-2.107691,-1.5707096,2.4229054,-0.013292612,0.022614948,-0.020654306,0.00038239374,8.4336854e-05,-0.01613067,-0.6703765,0.28730422,-9.691729,0.7642693,47.73077,-0.7765595,-2.2902806,-3.4934769,-0.42813402,0.0457463,-0.19952911,27.0,28.1875,27.125,30.5625,32.25,32.875
0.030054264,-2.8268654,-1.9850178,-1.3752372,-0.021554794,0.047868863,-0.07445598,-0.3729578,-0.3281829,0.059780538,-3.0782907,0.62476766,-0.00071341277,-0.013085122,0.0014462487,-0.0020858992,0.0010277426,-0.0024450014,0.0025282064,0.4480131,-1.4703747,2.0094078,-2.1076672,-1.5706614,2.4228933,-0.014694039,0.02485602,-0.022567794,0.00035765726,7.392751e-05,-0.017205007,-0.63206923,0.19153613,-9.710882,0.7866488,47.71554,-0.77623534,-2.349256,-3.4891362,-0.41337636,0.052919798,-0.18721448,27.0,28.1875,27.125,30.5625,32.25,32.875
0.032054797,-1.7704935,-1.2972771,-1.1384141,-0.013868462,0.07571663,-0.105558224,-0.3730054,-0.32818234,0.05978746,-3.078313,0.624792,-0.00072061626,-0.014815543,0.0017252456,-0.0015543639,0.0005165269,-0.0013872923,0.00013856468,0.44795257,-1.4703143,2.009323,-2.1076553,-1.5706376,2.4228451,-0.016789928,0.026034663,-0.025128957,0.00056587,7.188433e-05,-0.016909588,-0.5554548,0.095768064,-9.730036,0.7553206,47.71017,-0.7680044,-2.313453,-3.453607,-0.4124903,0.04615864,-0.18544462,27.0,28.1875,27.125,30.5625,32.25,32.875
0.03405386,-2.0541422,-1.2224286,-1.3610889,0.013731364,0.06195342,-0.11009466,-0.37301415,-0.32817155,0.05975368,-3.0782623,0.62476295,-0.00077364163,-0.015554702,0.0015686678,-0.0013614853,0.0005260044,-0.0014122467,-7.230466e-05,0.44794038,-1.47023,2.0093105,-2.1076667,-1.5706614,2.4228213,-0.017167594,0.027316581,-0.027155839,0.0013370062,7.044074e-05,-0.017075198,-0.34476504,0.038307227,-9.576807,0.77545905,47.695843,-0.7349489,-2.3058643,-3.393959,-0.40645027,0.03859512,-0.17957981,27.0,28.1875,27.125,30.5625,32.25,32.875
0.036054753,-2.0407774,-1.1447423,-1.088093,0.040263567,0.049864896,-0.12197709,-0.3730694,-0.32820454,0.05980074,-3.0783474,0.62481886,-0.0006713768,-0.017190536,0.0014021713,-0.00026998992,-0.00054344715,0.0008074361,-0.0009326654,0.44792792,-1.470218,2.0091894,-2.1076667,-1.5706257,2.422833,-0.01833905,0.027503306,-0.029881444,0.001412583,6.90865e-05,-0.017384637,-0.36391866,-0.05746084,-9.5385,0.7083204,47.687782,-0.7319139,-2.291706,-3.3720486,-0.4114484,0.029509831,-0.19358209,27.0,28.1875,27.125,30.5625,32.25,32.875
0.038054064,-1.5051651,-0.55516243,-1.2559977,0.036934387,0.042243488,-0.13902886,-0.37311175,-0.3281974,0.059779257,-3.0783496,0.62481964,-0.0006983447,-0.018058494,0.0011954536,-0.0001762002,-0.00073739927,0.0012034087,-0.00056414714,0.44786784,-1.4701217,2.0091412,-2.1077025,-1.5706137,2.4227731,-0.018736916,0.02894278,-0.031654272,0.0013051644,6.778544e-05,-0.018149702,-0.21068975,-0.19153613,-9.576807,0.7530795,47.73883,-0.70821255,-2.2669103,-3.3947036,-0.38055193,0.017098442,-0.18883026,27.0,28.1875,27.125,30.5625,32.25,32.875
0.040055048,-1.8527286,-0.7434478,-1.2391232,0.042209197,0.015625892,-0.14510083,-0.37317836,-0.32818446,0.059807893,-3.078322,0.62485147,-0.00055479934,-0.019309381,0.0008618573,-2.2236585e-05,-0.0010218265,0.0018219381,-4.1329542e-05,0.44783166,-1.470085,2.0090325,-2.1076906,-1.5706857,2.4227605,-0.019234043,0.031023841,-0.034254834,0.0011425426,5.100591e-05,-0.019167671,-0.19153613,-0.15322891,-9.423578,0.7933669,47.70211,-0.76487666,-2.2369134,-3.3958535,-0.36688328,0.014670052,-0.19652534,27.0,28.1875,27.125,30.5625,32.25,32.875
0.042054176,-1.6428303,-1.2124003,-1.2254803,0.037384667,0.0067681284,-0.15197255,-0.37319294,-0.32815295,0.059779163,-3.078265,0.6248403,-0.000675025,-0.020638162,0.0010336313,0.0004310712,-0.0013744661,0.0028211917,-2.064228e-05,0.44775915,-1.4700128,2.0090082,-2.1076424,-1.5706857,2.4226882,-0.020681234,0.031868946,-0.03624524,0.0012346029,-7.043495e-05,-0.020634,-0.15322891,-0.038307227,-9.481039,0.78888994,47.723602,-0.67812854,-2.2189748,-3.401748,-0.3557344,0.016610853,-0.17907625,27.0,28.1875,27.125,30.5625,32.25,32.875
0.044054262,-0.7984717,-0.97862244,-1.2130182,0.008117022,0.01990671,-0.15726432,-0.37321687,-0.32816043,0.05978282,-3.0782986,0.6248084,-0.0006833849,-0.021308776,0.0010902224,0.00071343814,-0.0013950305,0.002974161,0.0004966275,0.44773495,-1.4699765,2.00896,-2.1076424,-1.5706614,2.4226398,-0.021362314,0.03249515,-0.03774758,0.0019644403,-0.00012012608,-0.02183146,-0.11492168,0.019153614,-9.385271,0.75084364,47.692257,-0.69765604,-2.2083611,-3.3990605,-0.34161997,0.015496435,-0.19216941,27.0,28.1875,27.125,30.5625,32.25,32.875
0.046054076,-0.56146055,-0.77109265,-1.2262875,-0.009610394,0.013041686,-0.14831209,-0.3732848,-0.32815495,0.05978669,-3.078312,0.62484926,-0.00064019405,-0.021397473,0.0012747161,0.0008477288,-0.0006548152,0.0015275688,0.0012069828,0.4476629,-1.4698926,2.0088642,-2.1076653,-1.5706614,2.4225917,-0.021759698,0.033157613,-0.03937612,0.004554945,-0.00015850697,-0.022938808,-0.076614454,0.15322891,-9.308656,0.7866488,47.689575,-0.6930502,-2.164833,-3.4626546,-0.34841973,0.004812164,-0.17391261,27.0,28.1875,27.125,30.5625,32.25,32.875
0.048054278,-1.0623896,-1.9637378,-1.4325683,0.010577307,-0.005689389,-0.12811448,-0.37333366,-0.3281546,0.059804827,-3.078304,0.62480825,-0.0005485441,-0.022383433,0.0014315603,0.0012835169,-0.00058906974,0.0014601651,0.0021850178,0.44765037,-1.4698445,2.008767,-2.107653,-1.5707096,2.4225547,-0.022927282,0.03411023,-0.041771587,0.006085591,-0.00019060743,-0.025083233,0.019153614,0.13407528,-9.461885,0.7150385,47.701214,-0.6627795,-2.0498815,-3.4385343,-0.36466494,0.003317657,-0.15822625,27.0,28.1875,27.125,30.5625,32.25,32.875
0.050054442,-1.4430135,-2.1033545,-1.5180008,-0.000773913,-0.007115853,-0.12932862,-0.37336698,-0.32814276,0.05977817,-3.0782552,0.6249134,-0.00063437305,-0.023438562,0.0017521225,0.0010317034,8.519739e-05,0.0015993608,0.0024645564,0.44759,-1.4697361,2.0087063,-2.107641,-1.5706981,2.4225662,-0.024030149,0.036024794,-0.043234985,0.005803205,-0.0008647544,-0.02646294,0.05746084,0.24899697,-9.461885,0.78217715,47.693153,-0.62944186,-1.9872571,-3.461759,-0.36984694,0.003847703,-0.14645,27.0,28.1875,27.125,30.5625,32.25,32.875
0.052054185,-0.8125454,-2.1708603,-1.4618757,-0.019696338,0.012029207,-0.13560455,-0.37340364,-0.32815188,0.05980071,-3.0783005,0.624846,-0.0006016802,-0.024450345,0.0017747281,0.0013565139,-0.00011442238,0.0022152183,0.0030551516,0.44756573,-1.4697118,2.0086224,-2.1076167,-1.5706862,2.4224942,-0.024928965,0.036956247,-0.045060616,0.006056148,-0.0009545709,-0.027951028,0.019153614,0.30645782,-9.557653,0.78217715,47.709274,-0.6476491,-1.996186,-3.5147288,-0.36118,0.016067827,-0.13829774,27.0,28.1875,27.125,30.5625,32.25,32.875
0.054054093,-0.97742367,-2.3979135,-1.5787462,-0.029720023,0.012128459,-0.12591504,-0.37347835,-0.3281537,0.05980249,-3.0782974,0.6248444,-0.0005475111,-0.025152622,0.0018206734,0.0018623522,-0.000405117,0.002517715,0.0036829116,0.44751734,-1.4695917,2.0084894,-2.107629,-1.5707101,2.4224453,-0.025736103,0.037171565,-0.046693277,0.00707353,-0.00082459307,-0.029385515,-0.05746084,0.34476504,-9.519346,0.81351066,47.70032,-0.64528877,-2.0319393,-3.493887,-0.3412196,-0.010348222,-0.11731641,27.0,28.1875,27.125,30.5625,32.25,32.875
0.05605406,-0.90581244,-2.1376135,-1.5980289,-0.040184014,0.009173176,-0.13875102,-0.373503,-0.32813367,0.059793603,-3.0782502,0.6248913,-0.00062421244,-0.025856886,0.0018927206,0.001713325,-3.442541e-05,0.001739008,0.0043273508,0.44745725,-1.4695314,2.0084298,-2.1075685,-1.5707101,2.4224205,-0.026508313,0.038995214,-0.048563268,0.007981977,-0.0008263441,-0.030800972,-0.05746084,0.30645782,-9.595961,0.7978386,47.674347,-0.69272184,-1.8810022,-3.5179195,-0.3587852,-0.009124663,-0.11835694,27.0,28.1875,27.125,30.5625,32.25,32.875
0.05805428,-0.71389985,-2.5115817,-1.6111002,-0.030389752,0.020366734,-0.13505723,-0.37354276,-0.32813162,0.059770573,-3.0782492,0.62487143,-0.0006660156,-0.026334623,0.0017223738,0.0016435082,0.0002794332,0.00087131275,0.0052332715,0.44740915,-1.4694229,2.0083687,-2.1075919,-1.5706981,2.4223602,-0.026680117,0.04070269,-0.05055708,0.009186196,-0.00073681213,-0.031877767,-0.019153614,0.45968673,-9.595961,0.75084364,47.70838,-0.66665494,-1.8864667,-3.5840468,-0.37480956,-0.010252952,-0.11071717,27.0,28.1875,27.125,30.5625,32.25,32.875
0.060054507,-1.0112606,-2.4071264,-1.5805972,-0.034573063,0.018721983,-0.12696376,-0.37363067,-0.32813585,0.059816837,-3.0783064,0.6248446,-0.00056256296,-0.027295439,0.0015480228,0.0018127804,3.0432741e-07,0.0012715765,0.0052536516,0.44733697,-1.4693745,2.0082014,-2.107556,-1.5706977,2.422264,-0.02727018,0.042117856,-0.052514195,0.009246104,-0.0006599644,-0.032487053,-0.076614454,0.45968673,-9.595961,0.8112748,47.705692,-0.68880045,-1.860414,-3.5680795,-0.36974174,-0.030331936,-0.09517512,27.0,28.1875,27.125,30.5625,32.25,32.875
0.062053904,-1.4390918,-2.326843,-1.4861369,-0.02978529,0.02548887,-0.12522979,-0.37369096,-0.32815,0.059826896,-3.0783374,0.6248112,-0.0005449266,-0.027966946,0.001594576,0.0013139101,0.00058401003,8.5933505e-05,0.006980786,0.4473007,-1.4692777,2.0080693,-2.1075442,-1.5706857,2.422203,-0.027952818,0.044663213,-0.054296754,0.009804779,-0.0006765023,-0.03489551,-0.095768064,0.49799395,-9.557653,0.7709874,47.703007,-0.673234,-1.9167898,-3.5819945,-0.3658564,-0.03171782,-0.07755855,27.0,28.1875,27.125,30.5625,32.25,32.875
0.064054176,-1.7877607,-2.6314862,-1.3566703,-0.016780462,0.027645258,-0.12241881,-0.37375548,-0.32814917,0.059839733,-3.078363,0.6247976,-0.0004994479,-0.029219689,0.0012926653,0.0018401908,-6.0522972e-05,0.0013575973,0.007516396,0.44724056,-1.4692055,2.0079606,-2.1075442,-1.5706857,2.4221313,-0.028534861,0.04575563,-0.05667399,0.009663937,-0.0006500256,-0.03601161,-0.1340753,0.4213795,-9.519346,0.76874626,47.70211,-0.7106322,-1.8678422,-3.544403,-0.364107,-0.037392642,-0.05362407,27.0,28.1875,27.125,30.5625,32.25,32.875
0.06605379,-1.335993,-2.0061178,-1.2965528,-0.018265476,0.04232447,-0.12704048,-0.37380296,-0.32813382,0.05982919,-3.0783312,0.6247727,-0.000574603,-0.030382102,0.00079486024,0.0022537892,-0.00050073914,0.0023157082,0.006118,0.44716853,-1.469097,2.0078518,-2.107484,-1.5706857,2.4220479,-0.02863325,0.04736874,-0.05941604,0.009738896,-0.0006743377,-0.03470965,-0.22984336,0.3256114,-9.423578,0.7709874,47.713753,-0.74620086,-1.8734465,-3.480686,-0.37950164,-0.053540967,-0.06782208,27.0,28.1875,27.125,30.5625,32.25,32.875
0.06805387,-1.7277622,-2.4130933,-1.3343852,0.0012430438,0.033184484,-0.118306085,-0.37385488,-0.32814837,0.05984476,-3.078361,0.6247983,-0.0005673811,-0.030985499,0.0009424995,0.0017073571,-0.00016797596,0.0015682613,0.004650962,0.44713223,-1.4690247,2.0077312,-2.1074603,-1.5706614,2.4220238,-0.02946911,0.049400415,-0.060329452,0.009439324,-0.00065253733,-0.034077585,-0.22984336,0.28730422,-9.289502,0.77545905,47.71554,-0.7372316,-1.8568764,-3.5661125,-0.3519137,-0.058490735,-0.08388463,27.0,28.1875,27.125,30.5625,32.25,32.875
0.07005449,-1.770953,-1.9306536,-1.1532725,-0.0029601185,0.028644573,-0.114437506,-0.37391952,-0.3281475,0.059834067,-3.0783658,0.624741,-0.00058209244,-0.03347243,0.000268145,0.0032393131,-0.0018462798,0.0050886218,0.005348819,0.4470719,-1.4688925,2.0076106,-2.1074603,-1.5706614,2.4219272,-0.030437667,0.050413392,-0.06487805,0.00907478,-0.0006728776,-0.03574098,-0.22984336,0.2681506,-9.270349,0.80456203,47.719128,-0.6738934,-1.8375063,-3.4692302,-0.34418428,-0.05054923,-0.07796891,27.0,28.1875,27.125,30.5625,32.25,32.875
0.07205381,-1.5344306,-1.5636832,-1.2701393,-0.0030124318,0.034972556,-0.12516081,-0.37400937,-0.32813513,0.059850488,-3.07836,0.6247195,-0.0004769852,-0.03362744,0.00013791859,0.0019588529,-0.00033802772,0.002420335,0.006275596,0.44700003,-1.4687952,2.007466,-2.1074603,-1.5707101,2.4218428,-0.030187944,0.054437693,-0.06652199,0.009751345,-0.0008797762,-0.036416236,-0.2681506,0.22984336,-9.289502,0.7620334,47.701214,-0.75760007,-1.8720059,-3.4200988,-0.34964368,-0.09225038,-0.07653828,27.0,28.1875,27.125,30.5625,32.25,32.875
0.07405411,-1.4732535,-1.6955112,-0.9664826,0.0061153895,0.037674867,-0.12951398,-0.37407944,-0.32814115,0.05986477,-3.0783722,0.6247795,-0.0004592489,-0.034135636,0.00041350577,0.002429337,-0.00038479545,0.0026788684,0.0065203705,0.44693974,-1.4686995,2.0073225,-2.107436,-1.5706981,2.4218185,-0.031112041,0.05414097,-0.067516185,0.01078934,-0.0009487022,-0.03758476,-0.3256114,0.30645782,-9.289502,0.8112748,47.695843,-0.74127376,-1.8982148,-3.5325599,-0.3450091,-0.08258474,-0.08689955,27.0,28.1875,27.125,30.5625,32.25,32.875
0.076054156,-2.019911,-1.6846836,-0.98853654,0.008258843,0.031194486,-0.10960604,-0.3741528,-0.3281252,0.05987883,-3.0783632,0.62472034,-0.00040972768,-0.036449313,-0.00018166505,0.0037765752,-0.0019576934,0.005931928,0.0061277677,0.44686738,-1.4686152,2.0071895,-2.1073997,-1.5707339,2.4217105,-0.032085452,0.055146433,-0.0715887,0.010241504,-0.0009455491,-0.038162846,-0.2873042,0.11492168,-9.385271,0.71951014,47.691364,-0.8080815,-1.6958616,-3.3789167,-0.33695424,-0.07931417,-0.06779065,27.0,28.1875,27.125,30.5625,32.25,32.875
0.0780542,-1.3703265,-1.7592154,-1.0316005,0.015006726,0.046600237,-0.120842636,-0.37422863,-0.3281406,0.05988286,-3.0783973,0.6247854,-0.00043850017,-0.037414707,-0.00053253566,0.0038373703,-0.0020682735,0.0061060307,0.0046018036,0.44679528,-1.4684829,2.0070322,-2.1073883,-1.5706862,2.4216747,-0.032307602,0.057155978,-0.07398528,0.010425666,-0.00092413474,-0.036857408,-0.24899697,0.1340753,-9.3661175,0.7463667,47.70838,-0.75595284,-1.7667887,-3.2746515,-0.3441273,-0.09517738,-0.07345726,27.0,28.1875,27.125,30.5625,32.25,32.875
0.08005482,-1.6342274,-1.6363854,-1.0686349,0.007139496,0.041439466,-0.1252192,-0.37429863,-0.32813802,0.059886657,-3.0784125,0.6246935,-0.00041499472,-0.037703816,-0.0002507184,0.0020156177,-0.00040485704,0.00260625,0.0031481802,0.446735,-1.4683735,2.0069005,-2.1073759,-1.5706981,2.4215553,-0.033101596,0.061941434,-0.07512667,0.010656164,-0.00091315724,-0.036196448,-0.28730422,0.21068975,-9.155427,0.8537928,47.691364,-0.783592,-1.8856611,-3.4588418,-0.34616143,-0.09507847,-0.10107055,27.0,28.1875,27.125,30.5625,32.25,32.875
0.08205402,-2.2426922,-1.6701773,-1.1027963,0.0027646334,0.030589063,-0.11578444,-0.37437347,-0.3281463,0.059889097,-3.078399,0.6246709,-0.00039044805,-0.03956319,-0.00094802113,0.004319129,-0.002633197,0.0075244717,0.004323179,0.44669884,-1.4682304,2.0067322,-2.1073525,-1.570722,2.421507,-0.033384144,0.060008585,-0.0782021,0.010265429,-0.0010360406,-0.03765214,-0.3256114,0.17238252,-9.251195,0.8090337,47.744205,-0.78411007,-1.7973748,-3.2767649,-0.33064845,-0.12261264,-0.10908281,27.0,28.1875,27.125,30.5625,32.25,32.875
0.08405418,-1.5010595,-1.6238289,-1.0091902,-0.0012365014,0.045015436,-0.12858877,-0.37446257,-0.328155,0.059915997,-3.0784292,0.6246777,-0.0003578529,-0.04128612,-0.0007636633,0.003973476,-0.0023463664,0.007073756,0.003212456,0.44662634,-1.4681212,2.0065396,-2.1073043,-1.5707101,2.4214349,-0.035235107,0.063514546,-0.08129632,0.010384572,-0.0011047792,-0.038389932,-0.3256114,0.19153613,-9.251195,0.7620334,47.70032,-0.7511065,-1.736388,-3.296486,-0.33075994,-0.12246449,-0.119071074,27.0,28.1875,27.125,30.5625,32.25,32.875
0.086053975,-1.8876776,-1.9570252,-1.1640197,-4.151127e-05,0.040930018,-0.11925055,-0.37451562,-0.3281549,0.05990208,-3.0784302,0.62456226,-0.0004046473,-0.04181722,-0.00030102525,0.0032343264,-0.0010086562,0.0059173773,0.0027236172,0.446578,-1.4679886,2.0064204,-2.1072805,-1.5707101,2.4213145,-0.036099415,0.06581602,-0.082189344,0.010599273,-0.0018145475,-0.038763165,-0.34476504,0.24899697,-9.289502,0.7620334,47.67345,-0.72017586,-1.8810124,-3.3318343,-0.33114192,-0.13000609,-0.13449182,27.0,28.1875,27.125,30.5625,32.25,32.875
0.088054046,-1.9098877,-1.8454489,-1.1360787,-0.016128076,0.04204064,-0.1280871,-0.37463218,-0.3281815,0.05992914,-3.0785203,0.62461925,-0.00035496507,-0.043738957,-0.00096618483,0.0039155707,-0.001619537,0.0073789954,0.002174614,0.44648182,-1.467844,2.006202,-2.1072924,-1.57065,2.4212425,-0.03651842,0.06835287,-0.0866203,0.010913773,-0.0018994466,-0.038630236,-0.40222588,0.2681506,-9.385271,0.7732232,47.684196,-0.7306484,-1.8365828,-3.1944964,-0.3388089,-0.13923772,-0.15143241,27.0,28.1875,27.125,30.5625,32.25,32.875
0.09005461,-1.9012815,-1.731355,-1.1664206,-0.021579377,0.04086104,-0.12948912,-0.37471637,-0.32814944,0.059916627,-3.0784254,0.6246948,-0.00036162176,-0.04286889,-0.0006497172,0.0027113424,-0.00024936072,0.0045418246,0.0031715883,0.44638595,-1.4676878,2.006048,-2.1072438,-1.5707101,2.421206,-0.036308955,0.06982345,-0.085648686,0.011619662,-0.0019084678,-0.039418206,-0.38307226,0.34476504,-9.346964,0.80679786,47.687782,-0.85045236,-1.9323914,-3.3024974,-0.34487855,-0.13261813,-0.17262399,27.0,28.1875,27.125,30.5625,32.25,32.875
0.09205389,-2.0487561,-2.373855,-1.3516121,-0.01389077,0.0366628,-0.11670299,-0.37481153,-0.32816717,0.05994384,-3.078454,0.62460524,-0.00027918105,-0.044974152,-0.00043472328,0.0031117862,-0.00069266395,0.0054652896,0.0014951519,0.4463492,-1.4675552,2.0058315,-2.107208,-1.5707339,2.42111,-0.038604997,0.072022066,-0.08902822,0.011775103,-0.0019122488,-0.0400356,-0.36391866,0.30645782,-9.423578,0.779936,47.694946,-0.73085093,-1.870141,-3.328782,-0.342336,-0.15394995,-0.17839664,27.0,28.1875,27.125,30.5625,32.25,32.875
0.09405366,-2.1440063,-2.5276659,-1.2813101,-0.01555137,0.032808084,-0.11389305,-0.3748792,-0.32818058,0.059937842,-3.0784984,0.6246727,-0.00034814916,-0.045094617,0.000100607016,0.0021151942,0.00037092948,0.0036962484,0.0011194755,0.4462648,-1.4674231,2.0056999,-2.107208,-1.5706624,2.421062,-0.039576024,0.07399605,-0.08891866,0.011749745,-0.0021078207,-0.04063035,-0.2681506,0.3256114,-9.3661175,0.8023209,47.682407,-0.7633009,-1.9030347,-3.1964884,-0.35031402,-0.15765537,-0.20416787,27.0,28.1875,27.125,30.5625,32.25,32.875
0.09605415,-2.1561303,-2.1960313,-1.1934049,-0.019044407,0.025310112,-0.115056604,-0.37500122,-0.32814252,0.059950333,-3.0784323,0.6246401,-0.00021475428,-0.04727864,0.00022502423,0.0024572064,0.00012944857,0.0053893775,0.00024192783,0.4461561,-1.4672785,2.0055068,-2.1071842,-1.5707706,2.4209416,-0.041417092,0.07629771,-0.09206356,0.010958421,-0.0026280384,-0.04159053,-0.30645782,0.2681506,-9.32781,0.83589023,47.71465,-0.68437696,-1.8581661,-3.2788231,-0.32313365,-0.15339842,-0.2106279,27.0,28.1875,27.125,30.5625,32.25,32.875
0.09805452,-1.7363604,-1.8596201,-1.1905766,-0.015313479,0.030071657,-0.1284242,-0.3750792,-0.3281545,0.059960835,-3.0784607,0.62464654,-0.00024837063,-0.048708923,0.00040132419,0.0026847525,0.0002474403,0.0067899586,-0.0004460699,0.44608387,-1.4671459,2.005326,-2.1071365,-1.5707349,2.4208698,-0.042544927,0.07764571,-0.09391686,0.010254903,-0.0033440858,-0.04202756,-0.30645782,0.28730422,-9.289502,0.76874626,47.694054,-0.71152246,-1.9637717,-3.2701812,-0.3134864,-0.15394162,-0.23762602,27.0,28.1875,27.125,30.5625,32.25,32.875
0.10005394,-1.5932791,-2.041718,-1.162276,-0.0016339846,0.030207317,-0.11756577,-0.37517637,-0.32815462,0.059949145,-3.078436,0.6246007,-0.00025714844,-0.049632538,-0.0004209934,0.0031442528,0.0005178822,0.008146689,0.0036143335,0.44601232,-1.466942,2.005123,-2.1071126,-1.5707587,2.420773,-0.041259278,0.079406835,-0.0969641,0.010434788,-0.004181093,-0.044798672,-0.15322891,0.34476504,-9.32781,0.800085,47.694054,-0.7851849,-1.80281,-3.2057147,-0.30089456,-0.1433655,-0.23921263,27.0,28.1875,27.125,30.5625,32.25,32.875
0.10205445,-1.3425666,-1.7582786,-1.1762236,0.0018275363,0.030472754,-0.12486377,-0.37527686,-0.32816213,0.059970032,-3.078488,0.62457186,-0.00019321282,-0.05055224,7.1238486e-05,0.0024788778,0.0015410982,0.0070971674,0.0030061493,0.4459279,-1.4668212,2.0049422,-2.1071126,-1.5707473,2.420664,-0.042682152,0.082060695,-0.0984095,0.010616229,-0.004651244,-0.04561156,-0.15322891,0.34476504,-9.251195,0.7486078,47.71286,-0.75330985,-1.9832209,-3.2164946,-0.32208478,-0.15322983,-0.23117632,27.0,28.1875,27.125,30.5625,32.25,32.875
0.10405446,-1.198546,-1.563249,-1.0794778,-0.0017149934,0.023497684,-0.12504134,-0.37538436,-0.32817513,0.059979424,-3.0785115,0.6246361,-0.0002120576,-0.05217072,0.0007358385,0.0026997984,0.002730915,0.008602055,0.00056640606,0.4458313,-1.4666411,2.0047143,-2.107077,-1.570712,2.4206047,-0.044207886,0.08342412,-0.10037668,0.0103828525,-0.0063770195,-0.0446931,-0.11492168,0.30645782,-9.3661175,0.842603,47.707485,-0.70546067,-1.7724582,-3.2017274,-0.2887003,-0.14474621,-0.28324658,27.0,28.1875,27.125,30.5625,32.25,32.875
0.10605384,-1.4533029,-1.5322509,-1.073385,-0.010447604,0.018816272,-0.123430766,-0.3754967,-0.32816058,0.059968688,-3.0784667,0.62462646,-0.00018326372,-0.053218156,0.0014402278,0.0020890827,0.0053014723,0.008019359,0.0010192692,0.44573507,-1.4664361,2.0045106,-2.107065,-1.5707601,2.4205084,-0.045061126,0.08636934,-0.10239809,0.011097448,-0.008448282,-0.045993965,-0.15322891,0.36391866,-9.3661175,0.75084364,47.696735,-0.6694641,-2.083846,-3.1648679,-0.28765833,-0.10536052,-0.29179448,27.0,28.1875,27.125,30.5625,32.25,32.875
0.108054005,-1.6989337,-1.9787679,-1.1907903,-0.0011595032,0.01903508,-0.11773355,-0.37561145,-0.3281575,0.05997562,-3.0784519,0.6246228,-0.000117823256,-0.054280046,0.002226052,0.0032005156,0.007942546,0.01164126,0.0024726177,0.44565108,-1.4662571,2.0042946,-2.107052,-1.5707978,2.4204242,-0.04481292,0.08508629,-0.10363758,0.011501754,-0.012393205,-0.047191914,-0.17238252,0.22984336,-9.346964,0.7866488,47.716442,-0.7651658,-1.7904575,-3.1775436,-0.27344686,-0.06750777,-0.3218842,27.0,28.1875,27.125,30.5625,32.25,32.875
0.11005443,-1.9195023,-2.0012455,-1.2097573,-0.00091584056,0.021056756,-0.11448092,-0.37574434,-0.3281658,0.06000171,-3.0785127,0.62459517,-6.7085246e-05,-0.054249797,0.0030086255,0.00047699737,0.011795066,0.0061529246,0.004036538,0.44553098,-1.4660872,2.0040424,-2.1070282,-1.5707744,2.4202793,-0.04548824,0.09159194,-0.10488275,0.012857122,-0.013501052,-0.04942862,-0.24899697,0.21068975,-9.3661175,0.72622824,47.71286,-0.7826188,-2.0454042,-3.2668238,-0.29241836,-0.044896394,-0.3203983,27.0,28.1875,27.125,30.5625,32.25,32.875
0.11205462,-1.5797606,-1.8772765,-1.0994903,-0.0071787904,0.032856945,-0.111652724,-0.37583238,-0.32816356,0.059995625,-3.0784752,0.62456954,-6.4245476e-05,-0.054907758,0.0022096923,0.0022140108,0.008804112,0.008520402,0.002506451,0.44547078,-1.4659084,2.0038512,-2.106992,-1.5708092,2.420208,-0.045699496,0.08928599,-0.106437005,0.01328398,-0.011825208,-0.048111998,-0.038307227,0.24899697,-9.32781,0.8224646,47.693153,-0.7890295,-1.7924012,-3.3022485,-0.28775883,-0.03359416,-0.35258418,27.0,28.1875,27.125,30.5625,32.25,32.875
0.11405403,-1.2821156,-1.7101499,-1.0016731,-0.012945736,0.028510876,-0.12748583,-0.37595078,-0.32816088,0.059999123,-3.078486,0.6245331,2.0478717e-06,-0.05473311,0.001504978,0.000918824,0.007748885,0.004941995,0.0009843038,0.44537473,-1.4657276,2.0036466,-2.107004,-1.5708326,2.420088,-0.0458875,0.09291035,-0.107531056,0.013517618,-0.009330736,-0.046781417,-0.05746084,0.22984336,-9.289502,0.8224646,47.70032,-0.8245258,-1.9876137,-3.3403525,-0.27556664,-0.06665906,-0.40653527,27.0,28.1875,27.125,30.5625,32.25,32.875
0.1160538,-1.1833858,-1.7810047,-1.0951872,-0.007208132,0.010422635,-0.12001758,-0.37603086,-0.32813987,0.05997965,-3.0784218,0.6245374,-6.6737746e-05,-0.054787815,0.0006174853,0.0005080177,0.006010206,0.0034990124,0.0035190287,0.44527888,-1.465547,2.0034788,-2.1069443,-1.570856,2.4200032,-0.04573268,0.094786264,-0.10861722,0.013270625,-0.007146959,-0.049163565,-0.1340753,0.1340753,-9.346964,0.7620334,47.692257,-0.8472652,-1.9612349,-3.3733566,-0.26524615,-0.07528175,-0.42631826,27.0,28.1875,27.125,30.5625,32.25,32.875
0.11805377,-1.5837277,-1.9668341,-1.2030393,0.00676109,-0.011192861,-0.10959948,-0.3761662,-0.3281537,0.05999378,-3.078429,0.6246147,-2.299617e-05,-0.056661986,-0.0002753096,0.0011371395,0.0041544517,0.004444442,0.004732152,0.4451825,-1.4653304,2.0032022,-2.10692,-1.5708555,2.4199543,-0.046576865,0.097340725,-0.11291252,0.013353185,-0.0058868984,-0.051220454,-0.095768064,0.17238252,-9.32781,0.76874626,47.709274,-0.9520819,-2.0623567,-3.211008,-0.24401832,-0.10805887,-0.43133205,27.0,28.1875,27.125,30.5625,32.25,32.875
0.12005415,-1.0192165,-1.4761137,-1.271178,0.0020818536,-0.0011957173,-0.11611842,-0.3762853,-0.3281488,0.060000103,-3.0784416,0.6245787,1.7913284e-05,-0.05620025,0.0006881942,0.00028703365,0.0051033404,0.0022618456,0.0055888738,0.44507408,-1.4651508,2.0029871,-2.1069086,-1.5708674,2.419822,-0.048006024,0.097592026,-0.11139735,0.013962879,-0.0057981913,-0.053507693,-0.095768064,0.17238252,-9.251195,0.8717007,47.709274,-0.85763377,-1.9096718,-3.3962054,-0.24575609,-0.10874185,-0.44198936,27.0,28.1875,27.125,30.5625,32.25,32.875
0.122054435,-1.3450438,-1.4794528,-1.2308719,0.011229038,-0.0037909218,-0.11857798,-0.37642846,-0.32816043,0.06003705,-3.0784767,0.62465936,0.00012166173,-0.05700479,-0.00096817483,0.00080023654,0.0045638336,0.003479189,0.010447461,0.444967,-1.4649822,2.002711,-2.1068842,-1.5708674,2.419761,-0.045578334,0.10005256,-0.115333155,0.014105851,-0.005839217,-0.05593637,-0.076614454,0.17238252,-9.385271,0.8247004,47.704796,-1.0100113,-2.0180135,-3.2432814,-0.21589744,-0.10770178,-0.45198968,27.0,28.1875,27.125,30.5625,32.25,32.875
0.12405459,-1.8494389,-1.7565908,-1.1554545,0.0066108764,0.00014008359,-0.11439141,-0.3765331,-0.32817206,0.060039077,-3.0785077,0.6244724,0.00010655986,-0.057074636,-0.0004109682,0.00028761866,0.005293196,0.001478869,0.012666591,0.44489455,-1.4647783,2.0024707,-2.106836,-1.5708674,2.419568,-0.046806313,0.101216555,-0.115781404,0.015507273,-0.0056356783,-0.05938374,-0.05746084,0.22984336,-9.270349,0.7620334,47.64837,-1.1262684,-1.8242385,-3.4594612,-0.22602418,-0.11919744,-0.43805224,27.0,28.1875,27.125,30.5625,32.25,32.875
0.12605411,-1.29251,-1.8088036,-1.2350962,-0.0020410677,0.027452782,-0.115471184,-0.3766186,-0.32816178,0.060005486,-3.0784562,0.624364,4.8789094e-05,-0.057821285,-0.0004272633,0.0006579762,0.0048715044,0.0020287943,0.014892024,0.4448224,-1.4645506,2.002291,-2.1068113,-1.5709032,2.419435,-0.047525145,0.101617835,-0.1171631,0.0158057,-0.0054990468,-0.062327087,0.038307227,0.24899697,-9.270349,0.81351066,47.658226,-1.0827261,-2.030847,-3.4718099,-0.22538094,-0.11152841,-0.4483737,27.0,28.1875,27.125,30.5625,32.25,32.875
0.12805417,-1.8390114,-2.2487016,-1.243154,0.0010620867,0.003747934,-0.11482713,-0.3767678,-0.3281731,0.06003608,-3.0785043,0.6243916,0.00012696831,-0.060098708,-0.00056186295,0.0021131616,0.0033527028,0.0048372564,0.017363552,0.44470167,-1.4643588,2.002004,-2.1067874,-1.5708917,2.4193256,-0.04940051,0.10194852,-0.12093784,0.016058983,-0.0053399517,-0.066672474,0.0,0.22984336,-9.346964,0.7978386,47.694946,-1.0785222,-1.6976018,-3.4991555,-0.223122,-0.10819158,-0.40065262,27.0,28.1875,27.125,30.5625,32.25,32.875
0.13005435,-1.3839041,-1.531298,-1.2930917,-0.021178067,0.012946229,-0.123975724,-0.37685466,-0.32816333,0.06002071,-3.0784984,0.6242339,5.0056813e-05,-0.059377477,0.0001274803,6.1965316e-06,0.006173572,0.0011323215,0.021929206,0.44460562,-1.4641658,2.0018127,-2.1067278,-1.5708922,2.419132,-0.049385358,0.10532122,-0.11987845,0.016186148,-0.0062954663,-0.07122118,-0.076614454,0.22984336,-9.404425,0.88289046,47.685097,-1.0154684,-1.9601061,-3.550723,-0.20848873,-0.099679425,-0.3614657,27.0,28.1875,27.125,30.5625,32.25,32.875
0.13205378,-1.509401,-2.0683043,-1.2461746,-0.007961209,0.0052479007,-0.1212181,-0.3769818,-0.32818606,0.060030017,-3.0785336,0.6241421,8.2629216e-05,-0.061857656,-0.0008320001,0.0017667719,0.0051276474,0.005333447,0.026143003,0.44453388,-1.4639381,2.0015347,-2.106704,-1.5708922,2.4189987,-0.04920908,0.10642918,-0.12513597,0.016094342,-0.0071683377,-0.07525416,-0.05746084,0.22984336,-9.346964,0.83365434,47.678825,-1.1728735,-1.8068678,-3.3519979,-0.19654977,-0.10639431,-0.3244835,27.0,28.1875,27.125,30.5625,32.25,32.875
0.13405381,-1.2046834,-1.7713605,-1.4965694,-0.0005512837,0.008826168,-0.11591858,-0.37712383,-0.32819188,0.060049627,-3.0785604,0.62410784,0.00015272366,-0.06337292,-0.00043288496,0.0016505857,0.005617746,0.0054514436,0.02810895,0.44442517,-1.4637336,2.0012586,-2.1066797,-1.5709041,2.4188654,-0.050959256,0.10877963,-0.12751304,0.01622388,-0.0076631093,-0.07896812,-0.05746084,0.3256114,-9.308657,0.84708,47.684196,-1.1043875,-1.7987206,-3.4279537,-0.17821112,-0.09512101,-0.29557985,27.0,28.1875,27.125,30.5625,32.25,32.875
0.13605459,-1.5207883,-1.8071692,-1.4875818,0.001718921,0.004613586,-0.120529175,-0.37725237,-0.32815716,0.060027696,-3.0785158,0.62407815,0.00014158644,-0.06459845,-0.0006487673,0.0020270334,0.0049647293,0.006293116,0.030853515,0.44426882,-1.4635055,2.0010545,-2.1066682,-1.5709399,2.4186964,-0.05177578,0.11008654,-0.12983477,0.016191833,-0.007443377,-0.08252779,-0.1340753,0.3256114,-9.404425,0.85826975,47.690468,-1.1290164,-1.8289819,-3.3643818,-0.16329879,-0.08173525,-0.23164365,27.0,28.1875,27.125,30.5625,32.25,32.875
0.13805479,-1.9140741,-2.3371804,-1.5114151,0.0031977592,0.008946052,-0.1200946,-0.37737218,-0.32819298,0.06003808,-3.0785692,0.6238966,0.00014420132,-0.06542938,-0.00042101438,0.0021687148,0.005497983,0.0058454163,0.031377252,0.4442206,-1.4632653,2.0007546,-2.1066196,-1.5709285,2.4185283,-0.05273446,0.11142829,-0.13199766,0.01764747,-0.0077329758,-0.08400879,-0.22984336,0.3256114,-9.500193,0.7978386,47.707485,-1.0982863,-1.7626798,-3.3492754,-0.17708145,-0.089007095,-0.1887938,27.0,28.1875,27.125,30.5625,32.25,32.875
0.14005442,-2.4898531,-2.3581607,-1.5345992,-0.012607386,0.014424424,-0.117741734,-0.37750772,-0.32816362,0.060037814,-3.0785253,0.6238474,0.00015850486,-0.06593491,0.00018914728,0.002192537,0.006833823,0.0053300667,0.031615376,0.44407645,-1.4630495,2.0005033,-2.1065595,-1.5709766,2.4183593,-0.053638674,0.11216866,-0.13324408,0.019190747,-0.008718881,-0.085148916,-0.28730422,0.3256114,-9.481039,0.8112748,47.693153,-1.1288753,-1.69053,-3.3447142,-0.17158544,-0.09321798,-0.15026648,27.0,28.1875,27.125,30.5625,32.25,32.875
0.142054,-2.6342897,-2.465715,-1.7477915,-0.01986866,0.033247627,-0.117129326,-0.3775947,-0.32818374,0.060031265,-3.078544,0.62366086,8.6023756e-05,-0.067510985,0.00022894933,0.0023627635,0.006529556,0.005769051,0.02960119,0.4440277,-1.4628333,2.000263,-2.1064875,-1.5709642,2.418192,-0.055162665,0.11429656,-0.1360396,0.01933185,-0.008642209,-0.08465655,-0.28730422,0.30645782,-9.500193,0.784413,47.72719,-1.12388,-1.6819805,-3.3689315,-0.17900309,-0.07687391,-0.14548033,27.0,28.1875,27.125,30.5625,32.25,32.875
0.14405394,-2.2909064,-2.5358126,-1.6734066,-0.030368803,0.050171528,-0.12096271,-0.37775218,-0.32817137,0.060054,-3.078528,0.62358207,0.0001450186,-0.06835562,0.00012105109,0.0022306377,0.006689881,0.0052583995,0.026567457,0.44389576,-1.462605,1.9999398,-2.1064036,-1.5710124,2.418013,-0.05573743,0.11640963,-0.13823327,0.019938273,-0.008569098,-0.082196414,-0.30645782,0.3256114,-9.461885,0.7911258,47.698532,-1.1150501,-1.7547314,-3.3812242,-0.18820061,-0.077185,-0.14661083,27.0,28.1875,27.125,30.5625,32.25,32.875
0.14605395,-2.410826,-2.781274,-1.6686114,-0.033013612,0.051241145,-0.11646389,-0.37789562,-0.32818207,0.060048185,-3.0785768,0.6235551,0.00013861344,-0.069161996,0.0004640134,0.0005612227,0.008188162,0.0023115203,0.023687713,0.44376314,-1.4623518,1.9996761,-2.1064155,-1.5709766,2.4178576,-0.057013176,0.121473745,-0.14004487,0.019993413,-0.008658343,-0.08059067,-0.36391866,0.28730422,-9.576807,0.8090337,47.70032,-1.0945014,-1.5739875,-3.3365636,-0.17262083,-0.07192438,-0.13780284,27.0,28.1875,27.125,30.5625,32.25,32.875
0.1480541,-2.3320475,-2.4524639,-1.7888442,-0.034414824,0.042513568,-0.118069686,-0.37802818,-0.32815763,0.060038432,-3.0785072,0.623525,0.00010699291,-0.070024654,0.00053325115,0.00071527547,0.0073918216,0.0025861897,0.017080203,0.44363078,-1.4620998,1.999401,-2.1063316,-1.5710243,2.4177155,-0.058286346,0.12220452,-0.14119475,0.01981823,-0.008063362,-0.07525609,-0.4213795,0.30645782,-9.557653,0.78888994,47.70838,-1.0915049,-1.7096858,-3.3655086,-0.16461703,-0.0918403,-0.21498355,27.0,28.1875,27.125,30.5625,32.25,32.875
0.15005453,-2.2823546,-2.645549,-1.6457947,-0.014793085,0.036828797,-0.1206729,-0.37817165,-0.32820082,0.060060207,-3.0786076,0.62343067,0.0001770323,-0.07145151,-0.00040626747,6.590259e-05,0.006853504,0.0013952105,0.015065059,0.4435587,-1.4618702,1.9991001,-2.106344,-1.570988,2.417572,-0.05845186,0.12726606,-0.14530417,0.019710291,-0.0070684096,-0.07340563,-0.45968673,0.2681506,-9.5385,0.83589023,47.701214,-1.1887788,-1.9177904,-3.306301,-0.16684674,-0.10625586,-0.25906685,27.0,28.1875,27.125,30.5625,32.25,32.875
0.15205401,-2.025981,-2.1947296,-1.5912741,-0.014290791,0.043217003,-0.123183265,-0.37832364,-0.328192,0.060062062,-3.0785964,0.6233333,0.00023693306,-0.07181767,-0.00014599187,0.0005332171,0.0058587412,0.002348637,0.013559244,0.44343823,-1.4616193,1.998813,-2.1063201,-1.5710357,2.4173925,-0.059563022,0.12603852,-0.14495298,0.019292785,-0.0065783598,-0.07301223,-0.4213795,0.24899697,-9.500193,0.84484416,47.71554,-1.151547,-1.6972378,-3.4312267,-0.13719974,-0.09102976,-0.2519426,27.0,28.1875,27.125,30.5625,32.25,32.875
0.15405434,-2.3600922,-1.5299922,-1.415653,-0.010461723,0.033735495,-0.12304538,-0.3784987,-0.32819194,0.06007709,-3.0786014,0.62341255,0.00027990734,-0.07302156,0.0004205302,-2.8478684e-05,0.007006919,0.0017700974,0.010165953,0.4432819,-1.4613546,1.9984778,-2.106284,-1.5710362,2.4172852,-0.061129734,0.12878561,-0.14675088,0.019361492,-0.0073683793,-0.0711832,-0.36391866,0.17238252,-9.423578,0.8605109,47.70032,-1.1800048,-1.7149007,-3.371194,-0.1310336,-0.09804366,-0.3034711,27.0,28.1875,27.125,30.5625,32.25,32.875
0.15605405,-1.998964,-1.4397298,-1.2943751,9.417261e-06,0.036135778,-0.11945864,-0.37866294,-0.32820138,0.06010308,-3.078639,0.6233238,0.00035142017,-0.07489847,0.0009529428,0.00040234812,0.007400281,0.0028018232,0.009882604,0.44316113,-1.4611148,1.9981421,-2.1062362,-1.5710486,2.4171045,-0.063229665,0.13039525,-0.14967144,0.019909259,-0.008168082,-0.07299713,-0.38307226,0.17238252,-9.423578,0.7665104,47.65912,-1.1389873,-1.7854545,-3.4164932,-0.11405968,-0.09782116,-0.3195569,27.0,28.1875,27.125,30.5625,32.25,32.875
0.15805393,-2.1838849,-1.3162404,-1.0842923,0.0028509449,0.037531078,-0.12204938,-0.37880287,-0.3281825,0.0600802,-3.0786026,0.6233353,0.00034230674,-0.07604925,0.0010923382,0.00014185785,0.007839392,0.002094211,0.009971363,0.4430168,-1.4608501,1.9979018,-2.1062357,-1.5710725,2.4169722,-0.064418696,0.13304295,-0.1521975,0.020611972,-0.008267337,-0.07427294,-0.38307226,0.1340753,-9.442732,0.8090337,47.705692,-1.1333932,-1.7884344,-3.3786225,-0.106011786,-0.07589452,-0.30750337,27.0,28.1875,27.125,30.5625,32.25,32.875
0.16005446,-2.081134,-1.0301468,-1.1128287,0.012052667,0.03844254,-0.12834439,-0.37894458,-0.3282053,0.060094967,-3.0786633,0.6232523,0.00033590585,-0.07612121,0.00139854,-0.0016200712,0.009261884,-0.001292671,0.00901018,0.4429085,-1.4606092,1.9975904,-2.106188,-1.5710362,2.4168046,-0.06513762,0.13716601,-0.1527861,0.020748625,-0.008100478,-0.074030235,-0.4405331,0.15322891,-9.346964,0.83589023,47.66987,-1.1266315,-1.9173691,-3.3464732,-0.08972848,-0.08447676,-0.31635988,27.0,28.1875,27.125,30.5625,32.25,32.875
0.16205402,-2.3299117,-0.99258494,-1.0599372,0.009826931,0.029823702,-0.12405156,-0.3791392,-0.32819727,0.060095765,-3.0786114,0.6233179,0.00038067007,-0.07823205,0.0012136663,0.00011568916,0.008248256,0.001865314,0.008424169,0.44275215,-1.460274,1.9972066,-2.1061394,-1.5710844,2.416696,-0.06633262,0.13698277,-0.15681149,0.021666031,-0.0085449265,-0.07463657,-0.4213795,0.11492168,-9.308657,0.84708,47.698532,-1.0866425,-1.8411729,-3.2675486,-0.07259565,-0.079790965,-0.36992157,27.0,28.1875,27.125,30.5625,32.25,32.875
0.16405405,-2.2919974,-1.1346388,-0.7568432,0.0051515508,0.033669244,-0.124065794,-0.37928328,-0.32818857,0.06010005,-3.078597,0.6232379,0.00041176457,-0.07810352,0.0018645308,-0.0011378613,0.009749157,-0.0016399471,0.00874741,0.44263172,-1.4600334,1.9969195,-2.1060908,-1.5711206,2.4165277,-0.067500964,0.13965185,-0.15729663,0.02328733,-0.008397713,-0.07612818,-0.4213795,0.038307227,-9.308657,0.86498255,47.68599,-1.0867105,-1.9710476,-3.3968587,-0.08652947,-0.0961354,-0.35469288,27.0,28.1875,27.125,30.5625,32.25,32.875
0.16605449,-1.984086,-1.2094576,-0.85173255,0.008205203,0.037095733,-0.12565082,-0.37945047,-0.32820636,0.06011614,-3.078655,0.62319183,0.00044642072,-0.07872677,0.0015537399,-0.0013180202,0.009656724,-0.0027604706,0.008581019,0.44249955,-1.459769,1.9965843,-2.1060665,-1.5710963,2.4163597,-0.06781656,0.14190842,-0.15966599,0.024371844,-0.007834197,-0.076277286,-0.38307226,0.05746084,-9.308657,0.8314132,47.705692,-1.0980678,-1.9268172,-3.442614,-0.07141078,-0.08182579,-0.382962,27.0,28.1875,27.125,30.5625,32.25,32.875
0.16805467,-2.0231838,-1.6929183,-0.7945374,0.015270176,0.032620344,-0.11555855,-0.37960476,-0.32820633,0.06011002,-3.0786378,0.6231483,0.0004552518,-0.08067639,0.0028024265,-0.0011419507,0.0096984245,-0.0028630812,0.0100716585,0.44237834,-1.4594812,1.9962715,-2.1060307,-1.5711206,2.4162138,-0.07184716,0.14325488,-0.16180405,0.02526804,-0.007832553,-0.081797324,-0.38307226,0.15322891,-9.174581,0.7732232,47.691364,-1.0039041,-1.8146942,-3.3233113,-0.075786754,-0.09214933,-0.38753682,27.0,28.1875,27.125,30.5625,32.25,32.875
0.1700541,-1.4220921,-1.3864346,-0.79719436,0.01114561,0.04525703,-0.12690726,-0.37975508,-0.32819057,0.06010439,-3.0786092,0.62310153,0.00040512986,-0.08153961,0.0017651139,-0.00038735286,0.009003366,-0.0014883918,0.01386986,0.4422227,-1.4592053,1.9959596,-2.1059468,-1.5711321,2.4160328,-0.07066114,0.14441654,-0.1649593,0.025717972,-0.007803677,-0.084407374,-0.22984336,0.11492168,-9.097966,0.84708,47.687782,-1.0266933,-1.8340746,-3.327909,-0.06666152,-0.11261372,-0.32930574,27.0,28.1875,27.125,30.5625,32.25,32.875
0.17205456,-1.7155234,-1.2239234,-0.6933769,0.020217096,0.03161356,-0.12554723,-0.37994072,-0.32819724,0.060110718,-3.0786428,0.6230296,0.0004749404,-0.08230601,0.0020889442,-0.00041967517,0.009105204,-0.0014528605,0.016596396,0.44207826,-1.4589055,1.995613,-2.1059468,-1.5711445,2.4158394,-0.071831465,0.14533848,-0.16597037,0.025814487,-0.007909998,-0.08830382,-0.30645782,0.05746084,-9.155427,0.86945957,47.70211,-1.0791123,-1.7584985,-3.37988,-0.055695973,-0.09991036,-0.33587566,27.0,28.1875,27.125,30.5625,32.25,32.875
0.17405367,-1.6181885,-1.1695793,-0.88578063,0.030502526,0.029504225,-0.1304137,-0.38011587,-0.32819864,0.06012205,-3.078644,0.62300956,0.0004990165,-0.08409094,0.0033521878,-0.0006246169,0.009605782,-0.0017091623,0.018156186,0.44193307,-1.4586173,1.9952539,-2.1058867,-1.5711564,2.4156818,-0.07549816,0.1471535,-0.16761406,0.026084801,-0.008255953,-0.093528785,-0.19153613,0.095768064,-9.059659,0.8717007,47.684196,-0.9274599,-1.7965765,-3.4056456,-0.054800335,-0.08484444,-0.2662387,27.0,28.1875,27.125,30.5625,32.25,32.875
0.17605413,-1.6400785,-1.3175075,-0.88896525,0.031506628,0.01970256,-0.12264322,-0.38026124,-0.32818657,0.06011841,-3.0786335,0.6229074,0.0004647083,-0.0855396,0.002455269,0.0010688156,0.008300931,0.0013641517,0.023656303,0.4417893,-1.4583541,1.994954,-2.1058142,-1.5711683,2.4154758,-0.074975796,0.14686148,-0.17136496,0.026786724,-0.008401495,-0.09850417,-0.24899697,0.19153613,-9.059659,0.7978386,47.690468,-0.87893414,-1.6892263,-3.2898073,-0.052882403,-0.09676623,-0.19789359,27.0,28.1875,27.125,30.5625,32.25,32.875
0.17805442,-1.7663124,-1.4506027,-0.97260475,0.018143298,0.009318657,-0.11951789,-0.38044262,-0.32817385,0.06011213,-3.0786192,0.6228074,0.0004552894,-0.086114846,0.003141916,0.0003862333,0.009882544,-7.005096e-05,0.027026482,0.44162074,-1.4580295,1.9945949,-2.1057546,-1.5711926,2.415247,-0.0761704,0.14906096,-0.17249008,0.027681204,-0.009222235,-0.10306677,-0.15322891,0.095768064,-9.136273,0.82022345,47.70032,-0.94457936,-1.8310055,-3.4441109,-0.028288279,-0.08477771,-0.14203939,27.0,28.1875,27.125,30.5625,32.25,32.875
0.1800549,-1.287762,-2.1013968,-1.0652527,0.016801102,0.021032913,-0.12095892,-0.38062406,-0.32816136,0.060113795,-3.0786157,0.62272847,0.0004761943,-0.08688889,0.00367016,-0.000497146,0.010444018,-0.002437765,0.028187994,0.4414523,-1.4577295,1.9942473,-2.1057065,-1.5712165,2.41503,-0.07813046,0.1520889,-0.17408277,0.028618747,-0.008720743,-0.106188096,-0.24899697,0.15322891,-9.174581,0.83589023,47.68599,-0.79923236,-1.5956305,-3.4573612,-0.04463253,-0.07295951,-0.08449729,27.0,28.1875,27.125,30.5625,32.25,32.875
0.18205467,-1.256441,-1.1321572,-1.2586919,-0.01450167,0.0144939665,-0.12695692,-0.38078558,-0.3281286,0.06011678,-3.0785673,0.6226807,0.00044898476,-0.087912865,0.0038825304,0.0002798779,0.009861605,-0.0016247678,0.025849637,0.44127187,-1.457466,1.9939235,-2.1055982,-1.5712522,2.4148262,-0.07950197,0.15192923,-0.17596221,0.029668799,-0.008549082,-0.10522043,-0.24899697,0.15322891,-9.289503,0.8314132,47.685097,-0.8210613,-1.5598239,-3.378126,-0.04988893,-0.08491394,-0.05855728,27.0,28.1875,27.125,30.5625,32.25,32.875
0.18405376,-1.5802032,-1.7678324,-1.4048723,-0.0049601593,0.0036613918,-0.12050172,-0.38092458,-0.32810882,0.060054496,-3.0784962,0.62261075,0.00024056599,-0.08932589,0.0034272552,0.0011689353,0.009453898,-0.00033081078,0.023114014,0.44110367,-1.4570819,1.9936236,-2.1055262,-1.5712403,2.4146235,-0.07972597,0.1531521,-0.17967366,0.030815654,-0.008754713,-0.10270521,-0.21068975,0.19153613,-9.423578,0.86498255,47.664497,-0.7137085,-1.6346555,-3.3807445,-0.051176257,-0.087161176,-0.05729094,27.0,28.1875,27.125,30.5625,32.25,32.875
0.18605427,-1.5393232,-1.7584805,-1.4655731,-0.008663727,0.018654129,-0.12623265,-0.38113,-0.3281348,0.06009462,-3.0785785,0.6224965,0.00036035007,-0.09020816,0.005474394,0.0001798643,0.010171494,-0.002600488,0.014875965,0.44097006,-1.4567945,1.9932045,-2.1054904,-1.5712403,2.4144084,-0.084490314,0.15425478,-0.17875044,0.031148802,-0.008422123,-0.09923344,-0.36391866,0.22984336,-9.423578,0.83365434,47.692257,-0.5881675,-1.5264564,-3.4999378,-0.0640731,-0.09161486,-0.0915619,27.0,28.1875,27.125,30.5625,32.25,32.875
0.18805444,-1.6693013,-1.9679161,-1.7651228,0.001418361,0.028884338,-0.11509684,-0.38128933,-0.32810593,0.060090985,-3.0784886,0.6224406,0.00030682687,-0.09004777,0.003886583,-0.0008599316,0.010448051,-0.0049772956,0.013781686,0.44081494,-1.4564928,1.9928449,-2.105346,-1.5712999,2.41423,-0.08185274,0.15892012,-0.18172355,0.031717174,-0.0076715746,-0.09550002,-0.2681506,0.19153613,-9.500193,0.842603,47.716442,-0.73413724,-1.7075316,-3.459353,-0.056631178,-0.06888056,-0.13247107,27.0,28.1875,27.125,30.5625,32.25,32.875
0.190054,-2.5548804,-2.1543396,-1.8996453,-0.0012797863,0.024890432,-0.10883261,-0.3814988,-0.3280934,0.060092174,-3.07849,0.62252027,0.00030956138,-0.09128249,0.004681229,-0.0008954197,0.010723375,-0.005667633,0.007849487,0.44059825,-1.4561574,1.9924616,-2.1053097,-1.571288,2.4140632,-0.08439183,0.16037066,-0.18356293,0.032849863,-0.0076273084,-0.09210621,-0.36391866,0.22984336,-9.615114,0.9567419,47.694946,-0.70246565,-1.4916091,-3.422986,-0.069276586,-0.081363186,-0.16124187,27.0,28.1875,27.125,30.5625,32.25,32.875
0.19205438,-1.9824675,-1.9614075,-1.918127,-0.023590222,0.050829887,-0.12281177,-0.38166958,-0.3280709,0.06006976,-3.078437,0.6224546,0.0002672099,-0.09234741,0.004818527,-0.00067184947,0.011145094,-0.0056619328,0.004053135,0.44042984,-1.4558214,1.9921259,-2.1052496,-1.5713247,2.4138608,-0.08527742,0.16191432,-0.18610947,0.034026537,-0.008020094,-0.08919299,-0.34476504,0.21068975,-9.672575,0.84708,47.685097,-0.49646384,-1.6050217,-3.4068937,-0.08941301,-0.103057384,-0.21723911,27.0,28.1875,27.125,30.5625,32.25,32.875
0.19405393,-2.261445,-2.1674209,-1.841397,-0.02359799,0.048719406,-0.11908867,-0.38184685,-0.32808673,0.06008198,-3.078478,0.622346,0.00024094355,-0.09191554,0.0042746784,-0.0022184374,0.012442525,-0.009160037,0.0052751247,0.44028634,-1.4555085,1.991731,-2.1051657,-1.5713004,2.4136446,-0.08404756,0.166142,-0.18752015,0.03492698,-0.007705483,-0.089184545,-0.28730422,0.19153613,-9.768343,0.8314132,47.670765,-0.7402229,-1.7827411,-3.4686856,-0.108424395,-0.08556969,-0.23042186,27.0,28.1875,27.125,30.5625,32.25,32.875
0.19605419,-1.8202143,-2.5185263,-1.8390198,-0.016680058,0.063759916,-0.12143556,-0.38203204,-0.3280822,0.06009361,-3.078437,0.6224166,0.00024642728,-0.09276688,0.0041724313,-0.0028450117,0.012812392,-0.010507109,0.0019238502,0.4401302,-1.4551957,1.9913348,-2.1050694,-1.5713242,2.413538,-0.08471503,0.16937524,-0.18983234,0.035380263,-0.007472312,-0.08649947,-0.34476504,0.28730422,-9.691729,0.8157518,47.67345,-0.68669903,-1.8142164,-3.4600203,-0.119099796,-0.09460432,-0.26528558,27.0,28.1875,27.125,30.5625,32.25,32.875
0.19805405,-1.7368944,-1.9084506,-1.866507,-0.02022174,0.052913886,-0.123191096,-0.3822171,-0.32806242,0.060083043,-3.0784132,0.6224114,0.00022597508,-0.094007365,0.0038053435,-0.0025094482,0.01275832,-0.00937767,0.0008676091,0.43993828,-1.4548719,1.9909881,-2.1050217,-1.5713366,2.413346,-0.08477571,0.17112881,-0.19259451,0.035343952,-0.00791501,-0.085501134,-0.22984336,0.22984336,-9.653421,0.8717007,47.70838,-0.80682206,-1.8968349,-3.5257397,-0.11715479,-0.08723536,-0.33864495,27.0,28.1875,27.125,30.5625,32.25,32.875
0.2000543,-1.307105,-1.395955,-1.7777267,-0.01229789,0.04213433,-0.119915925,-0.382437,-0.32806575,0.060088266,-3.078412,0.6223714,0.00023544011,-0.09430145,0.0036262833,-0.0026866482,0.013586821,-0.010146508,0.0020512743,0.43975842,-1.4544879,1.9905328,-2.1049497,-1.5713485,2.4131417,-0.08435697,0.17284925,-0.19442973,0.036505736,-0.008341545,-0.08626437,-0.17238252,0.24899697,-9.672575,0.900793,47.688675,-0.83480144,-1.8826458,-3.4618812,-0.15214841,-0.120565906,-0.34939593,27.0,28.1875,27.125,30.5625,32.25,32.875
0.202054,-1.8496737,-2.023633,-1.6634206,-0.0016637436,0.016032763,-0.117064066,-0.38262448,-0.32806012,0.06009342,-3.078407,0.62231374,0.00032469505,-0.095406674,0.0030316818,-0.0016826015,0.012161434,-0.008402518,-0.00066170655,0.43961444,-1.4541882,1.9901847,-2.1049373,-1.5713962,2.4129627,-0.08453733,0.17295942,-0.1969521,0.03672815,-0.007796895,-0.08373177,-0.28730422,0.24899697,-9.576807,0.8717007,47.71554,-0.887248,-1.8684874,-3.456347,-0.1525693,-0.09296937,-0.41857567,27.0,28.1875,27.125,30.5625,32.25,32.875
0.20405425,-0.97410893,-2.1302488,-1.560586,-0.012887464,0.033113815,-0.124168865,-0.3828115,-0.32803476,0.060079955,-3.078327,0.6223342,0.00019830883,-0.09608283,0.0025085448,-0.001760579,0.0121391555,-0.007419576,0.0018525416,0.43941075,-1.453816,1.989766,-2.1047819,-1.5714086,2.4127822,-0.083824806,0.17458437,-0.19839557,0.035645045,-0.008213076,-0.08553061,-0.13407528,0.2681506,-9.481039,0.83365434,47.686886,-1.0018296,-1.9304032,-3.434917,-0.14890663,-0.10256153,-0.4696594,27.0,28.1875,27.125,30.5625,32.25,32.875
0.20605458,-1.9852947,-2.2441635,-1.7821181,-0.021695651,0.003544144,-0.11628802,-0.38300595,-0.32804716,0.060087685,-3.078366,0.62230164,0.00023053295,-0.097140625,0.0025893562,-0.001985795,0.012818249,-0.0085498635,0.0037940142,0.43925434,-1.4534922,1.9893821,-2.1047575,-1.5713962,2.4126008,-0.084760316,0.17740597,-0.20142023,0.037157837,-0.008350184,-0.08840597,-0.05746084,0.36391866,-9.5385,0.83589023,47.691364,-1.0091996,-1.9655621,-3.4603157,-0.15838677,-0.10381621,-0.47193062,27.0,28.1875,27.125,30.5625,32.25,32.875
0.20805372,-1.7611271,-2.6602476,-1.6133585,-0.0313492,0.0038638231,-0.11113083,-0.38319808,-0.3280411,0.060087685,-3.0783312,0.62225175,0.00023131607,-0.09718995,0.0031786682,-0.0024935873,0.01417388,-0.01029072,0.010835325,0.43909812,-1.4531441,1.9889754,-2.1046731,-1.5714325,2.4124181,-0.085516974,0.1786422,-0.20204024,0.03868409,-0.008843065,-0.09620274,-0.038307227,0.28730422,-9.461885,0.8605109,47.688675,-1.0539749,-1.8179686,-3.564839,-0.18113956,-0.10336568,-0.45438677,27.0,28.1875,27.125,30.5625,32.25,32.875
0.21005434,-1.2086016,-2.8066323,-1.4322152,-0.03412035,0.008712376,-0.1195724,-0.3834128,-0.32800457,0.0600824,-3.0782678,0.6222186,0.00024181887,-0.09826283,0.0034705366,-0.0023496107,0.014230894,-0.010113758,0.013642214,0.43888152,-1.4527847,1.9885682,-2.1045897,-1.5714926,2.4121892,-0.08684455,0.1798459,-0.20388377,0.03917698,-0.008981577,-0.10033564,0.05746084,0.30645782,-9.3661175,0.87393653,47.674347,-0.951598,-1.8147635,-3.5064328,-0.20733675,-0.080270365,-0.4210105,27.0,28.1875,27.125,30.5625,32.25,32.875
0.21205467,-1.0028086,-2.25371,-1.5604285,-0.023147212,-0.0026998613,-0.121179625,-0.38360813,-0.32803443,0.060093317,-3.0783165,0.62210625,0.00023077086,-0.099120446,0.0034438889,-0.0021654377,0.014850687,-0.01074461,0.02250114,0.43874943,-1.4524244,1.9881252,-2.1045167,-1.5714687,2.411981,-0.0872943,0.18168445,-0.20686495,0.041147817,-0.009282297,-0.10964248,0.095768064,0.34476504,-9.212888,0.9254084,47.71286,-0.9786454,-1.8144433,-3.4665775,-0.21702616,-0.08980021,-0.3490438,27.0,28.1875,27.125,30.5625,32.25,32.875
0.21405366,-0.87748706,-2.0319667,-1.3658162,-0.0035780165,-0.011449386,-0.11121473,-0.38382334,-0.32801354,0.060100548,-3.0782843,0.62198365,0.00029874293,-0.10079764,0.0027838894,-0.0011124066,0.013122086,-0.0080044605,0.02678877,0.43856928,-1.4520768,1.9877051,-2.1044457,-1.5715402,2.4117289,-0.087736234,0.18225124,-0.20976286,0.040248577,-0.008894231,-0.11437101,0.076614454,0.24899697,-9.155427,0.87617236,47.70032,-1.002252,-1.6544515,-3.4901512,-0.24098626,-0.08588256,-0.26670635,27.0,28.1875,27.125,30.5625,32.25,32.875
0.21605399,-0.76860964,-1.8870529,-1.2811277,0.013057864,-0.016415993,-0.11785748,-0.3839922,-0.32801142,0.060060028,-3.0782573,0.62193644,0.00015797013,-0.1031195,0.0017077698,0.0007939008,0.009535735,-0.0027743566,0.030375572,0.43840122,-1.4516823,1.9873446,-2.1043866,-1.5715164,2.411535,-0.088382855,0.18152522,-0.21282394,0.03777144,-0.007894738,-0.11860359,0.05746084,0.2873042,-9.174581,0.91198283,47.695843,-0.9914581,-1.523085,-3.422845,-0.2197652,-0.07585174,-0.23287135,27.0,28.1875,27.125,30.5625,32.25,32.875
0.2180539,-0.12860335,-1.299864,-1.2981734,0.011348745,-0.0005722039,-0.12313038,-0.3841999,-0.32802132,0.06007155,-3.0782776,0.621747,0.00015003062,-0.10397177,0.00096863287,0.0010191675,0.009233166,-0.002984203,0.033000957,0.4382454,-1.4513099,1.9868783,-2.1042783,-1.5715283,2.4112587,-0.08793436,0.18378653,-0.21619064,0.038932532,-0.007540329,-0.1207793,0.05746084,0.28730422,-9.11712,0.8560339,47.713753,-1.0515797,-1.5174477,-3.3751273,-0.23724702,-0.08516727,-0.18466473,27.0,28.1875,27.125,30.5625,32.25,32.875
0.22005458,-1.1201729,-1.2279751,-1.3122957,0.014586073,-0.024037499,-0.11898066,-0.3844181,-0.32800508,0.060082152,-3.0782657,0.6217077,0.00017040863,-0.10471077,0.0023719575,0.00076127506,0.010137382,-0.0048843725,0.029807692,0.4380402,-1.4509622,1.9864467,-2.1041934,-1.5715526,2.4110308,-0.09110842,0.18457733,-0.21703295,0.041084107,-0.0075515793,-0.12076014,0.076614454,0.15322891,-9.232041,0.87393653,47.691364,-0.9694399,-1.5086374,-3.3940158,-0.24863803,-0.117064774,-0.16280636,27.0,28.1875,27.125,30.5625,32.25,32.875
0.22205383,-1.0635142,-1.6400275,-1.3422437,0.007957377,-0.008660355,-0.10984542,-0.38462988,-0.32799563,0.06008829,-3.0782843,0.6216148,0.00016774637,-0.104520045,0.0012146827,0.0006773061,0.010992412,-0.0055873203,0.029642044,0.43783727,-1.4506142,1.9860281,-2.1041214,-1.5715526,2.4107678,-0.08840985,0.18677253,-0.2196832,0.04254158,-0.008030457,-0.117893584,0.0,0.22984336,-9.232041,0.8224646,47.688675,-1.1499488,-1.4223824,-3.3981948,-0.2679798,-0.09778176,-0.16762334,27.0,28.1875,27.125,30.5625,32.25,32.875
0.22405423,-0.83805346,-1.3679389,-1.2351682,-0.009400534,0.014995043,-0.122835495,-0.38482365,-0.3280045,0.060073253,-3.0782652,0.6214818,0.000101434634,-0.106636256,0.0022799578,8.1921266e-05,0.011270014,-0.0070499545,0.020671194,0.43769202,-1.4502056,1.9855846,-2.104026,-1.5715646,2.4105422,-0.09241748,0.19043744,-0.22265606,0.043293267,-0.0076718414,-0.112928756,-0.1340753,0.24899697,-9.346964,0.8717007,47.672558,-1.1088129,-1.5651693,-3.2821875,-0.2992741,-0.10625866,-0.19954306,27.0,28.1875,27.125,30.5625,32.25,32.875
0.22605379,-1.5138835,-1.4103816,-1.5979761,-0.008979611,0.017706534,-0.12029641,-0.3850379,-0.32800683,0.060076192,-3.0782468,0.6214391,0.00010615303,-0.10737328,0.00059618533,-0.0010816318,0.011994834,-0.008625703,0.019265162,0.4375248,-1.44982,1.9851283,-2.1039422,-1.5715884,2.410351,-0.0898792,0.19677535,-0.22710513,0.043139134,-0.0076712784,-0.10898097,-0.22984336,0.28730422,-9.404425,0.8873621,47.694054,-1.0962782,-1.6975092,-3.263504,-0.3296492,-0.11526348,-0.26146308,27.0,28.1875,27.125,30.5625,32.25,32.875
0.22805393,-1.9624279,-2.1849184,-1.5471089,-0.012042333,0.038351774,-0.11184624,-0.38523555,-0.3280111,0.060073365,-3.0782554,0.621385,3.6060643e-05,-0.10815358,0.0012495775,-0.0016092438,0.01250487,-0.008968477,0.016242445,0.43734413,-1.4494483,1.9846977,-2.1038463,-1.5715646,2.4101357,-0.09149141,0.19823748,-0.22747125,0.042573635,-0.007995608,-0.10756903,-0.17238252,0.34476504,-9.481039,0.8806493,47.711063,-1.124639,-1.7276223,-3.309411,-0.3348816,-0.11509718,-0.31184414,27.0,28.1875,27.125,30.5625,32.25,32.875
0.23005402,-2.3824368,-2.4456713,-1.4403688,-0.037796758,0.050823353,-0.10877142,-0.3854425,-0.327977,0.060058784,-3.0781746,0.621331,3.64955e-07,-0.108351745,0.0018205877,-0.0017706533,0.012446033,-0.008781518,0.0150268655,0.4371398,-1.4490652,1.9842786,-2.1037385,-1.5716242,2.4099083,-0.09262972,0.19784933,-0.22657901,0.04186759,-0.008031584,-0.10749166,-0.30645782,0.28730422,-9.442732,0.95226496,47.686886,-1.1250923,-1.7222494,-3.4642608,-0.32609758,-0.10936922,-0.32551137,27.0,28.1875,27.125,30.5625,32.25,32.875
0.23205453,-2.5079281,-2.421411,-1.5821546,-0.04842224,0.058034,-0.11695537,-0.38566864,-0.32799286,0.060079943,-3.0781932,0.6212756,1.32512705e-05,-0.10952836,0.0015894251,-0.0012650853,0.011231155,-0.00680539,0.014171112,0.43697184,-1.4486816,1.9837769,-2.1036317,-1.5716242,2.4097037,-0.09332802,0.19818701,-0.22788046,0.04052484,-0.0077739507,-0.10733391,-0.38307226,0.36391866,-9.5385,0.9254084,47.694054,-1.1906476,-1.7130256,-3.5157704,-0.3596378,-0.11594424,-0.36182195,27.0,28.1875,27.125,30.5625,32.25,32.875
0.23405382,-2.5387022,-2.478385,-1.7275193,-0.04974739,0.06305621,-0.13013093,-0.38586769,-0.32801273,0.060070824,-3.0782034,0.6211629,-4.545549e-05,-0.10998791,0.0017512994,-0.0019628282,0.011791245,-0.006707798,0.014515029,0.43682745,-1.4482734,1.9833225,-2.1035483,-1.5716127,2.409488,-0.0935967,0.19985731,-0.2278821,0.039006338,-0.008332336,-0.10794446,-0.40222588,0.28730422,-9.576807,0.8717007,47.672558,-1.0637048,-1.7999,-3.6221466,-0.338023,-0.13586617,-0.38473117,27.0,28.1875,27.125,30.5625,32.25,32.875
0.23605414,-2.328577,-2.2928967,-1.584591,-0.053116962,0.07392271,-0.12312192,-0.38610232,-0.3279852,0.060056243,-3.0781653,0.621116,-8.463331e-05,-0.11084683,0.001382543,-0.0024619089,0.012136052,-0.0062438794,0.014230383,0.43658784,-1.4478533,1.9828671,-2.1034653,-1.5716366,2.4092243,-0.0932354,0.20250991,-0.22948484,0.037680097,-0.008854715,-0.10729544,-0.51714754,0.30645782,-9.595961,0.88960326,47.666286,-1.2534888,-1.8161836,-3.689446,-0.32392514,-0.109273866,-0.40764648,27.0,28.1875,27.125,30.5625,32.25,32.875
0.23805422,-2.0742185,-2.2512603,-1.4386762,-0.038768046,0.08019875,-0.12288388,-0.38633037,-0.32799414,0.060083278,-3.0782013,0.621084,-2.5676445e-05,-0.11422717,0.0025472906,-0.0018573744,0.0106077725,-0.0037016866,0.015165275,0.43640587,-1.4475057,1.9823998,-2.1033933,-1.5716366,2.409018,-0.09845464,0.20410998,-0.23233838,0.035974465,-0.008556157,-0.11344857,-0.6512228,0.30645782,-9.5385,0.82694155,47.696735,-0.9864993,-1.6952834,-3.7645798,-0.32009876,-0.12622222,-0.3926255,27.0,28.1875,27.125,30.5625,32.25,32.875
0.24005508,-2.4640622,-1.5575068,-1.5773343,-0.02564034,0.061771136,-0.11983267,-0.38656366,-0.3279812,0.0600444,-3.078137,0.6210865,-6.713657e-05,-0.11555759,0.0010917699,-0.001572462,0.009610024,-0.0014638881,0.02096478,0.43620265,-1.4470259,1.981944,-2.103359,-1.5716723,2.408825,-0.09679733,0.20678762,-0.23567224,0.034170877,-0.008620454,-0.117587626,-0.6895301,0.30645782,-9.442732,0.93436235,47.672558,-1.167631,-1.6703404,-3.5963135,-0.28608048,-0.13880774,-0.35219818,27.0,28.1875,27.125,30.5625,32.25,32.875
0.24205367,-3.1228642,-2.037713,-1.6873082,-0.0055944663,0.04935178,-0.106844865,-0.38683096,-0.3279853,0.06008547,-3.0781999,0.62098,4.7844675e-05,-0.118011855,0.0013163161,-0.0010952409,0.008539832,0.0007858299,0.025540795,0.43598586,-1.4466537,1.9814171,-2.1032875,-1.5716842,2.408534,-0.09926304,0.20866498,-0.23861185,0.032730855,-0.008607029,-0.12462799,-0.61291564,0.2681506,-9.385271,0.88960326,47.672558,-1.1193104,-1.6778363,-3.5801954,-0.2608879,-0.15868661,-0.29518515,27.0,28.1875,27.125,30.5625,32.25,32.875
0.24405389,-2.5813937,-1.5579666,-1.5403265,-0.0066337697,0.072247684,-0.12042287,-0.38706708,-0.32799408,0.060076434,-3.0782247,0.620848,7.4157564e-05,-0.120386526,0.0010642086,-6.981906e-05,0.007133103,0.0037453987,0.029811239,0.43580523,-1.4462221,1.9809488,-2.1032636,-1.5716966,2.4082682,-0.100785896,0.20991762,-0.24224198,0.031822026,-0.008594502,-0.13041921,-0.59376204,0.24899697,-9.3661175,0.947788,47.691364,-1.0582426,-1.7106013,-3.6089723,-0.2481467,-0.14109506,-0.22864328,27.0,28.1875,27.125,30.5625,32.25,32.875
0.24605423,-2.525946,-1.361583,-1.5812211,0.004932823,0.074873425,-0.11307946,-0.38728845,-0.32798302,0.060052928,-3.0782068,0.6207467,2.3006864e-05,-0.122706175,0.0011179029,0.0011311804,0.005820584,0.0066257534,0.03267685,0.43560055,-1.4457909,1.9805058,-2.1032035,-1.5717086,2.4080029,-0.1027856,0.21047297,-0.24562103,0.03147197,-0.008638268,-0.13528219,-0.57460845,0.15322891,-9.404425,0.8247004,47.66091,-0.9745451,-1.7063518,-3.502906,-0.2081745,-0.15989615,-0.14132449,27.0,28.1875,27.125,30.5625,32.25,32.875
0.24805452,-2.8989432,-1.3134292,-1.4021254,0.011147651,0.06168393,-0.10622046,-0.38754922,-0.3279968,0.06007716,-3.0782423,0.62059903,6.448955e-05,-0.12473732,0.001121364,0.0017863925,0.005456847,0.008260974,0.033619717,0.43540812,-1.4453593,1.9799422,-2.1030962,-1.571721,2.4077141,-0.10422053,0.21227993,-0.24927963,0.031683005,-0.009003452,-0.13765733,-0.63206923,0.11492168,-9.385271,0.86498255,47.713753,-0.9380214,-1.5605547,-3.3034282,-0.19908172,-0.16800858,-0.10819416,27.0,28.1875,27.125,30.5625,32.25,32.875
0.2500541,-2.7815516,-1.3449396,-1.4727374,0.027791698,0.059554234,-0.10528912,-0.38779372,-0.32796636,0.060066298,-3.078205,0.6206521,6.953281e-05,-0.12638178,0.0011780742,0.0023398446,0.0049642455,0.009758584,0.028018681,0.43515584,-1.4449514,1.9794987,-2.103048,-1.5717448,2.4075,-0.10552879,0.21348555,-0.25196084,0.031593375,-0.009190984,-0.13336252,-0.63206923,0.17238252,-9.308656,0.86945957,47.666286,-0.897625,-1.6113666,-3.2328722,-0.18453121,-0.16381785,-0.08699641,27.0,28.1875,27.125,30.5625,32.25,32.875
0.2520543,-2.3444743,-1.2264417,-1.7147641,0.029108552,0.06828043,-0.11423031,-0.3880418,-0.327987,0.060080435,-3.078267,0.62043786,0.00013774302,-0.12718794,0.0016643655,0.0016804319,0.0052692476,0.0088599045,0.02227003,0.43498716,-1.4445313,1.9789842,-2.103,-1.5717567,2.40719,-0.10711284,0.21557938,-0.25281942,0.031303324,-0.009080915,-0.12919791,-0.7469909,0.095768064,-9.404425,0.88960326,47.67166,-0.80744433,-1.5507224,-3.3435297,-0.14368181,-0.15890716,-0.13086486,27.0,28.1875,27.125,30.5625,32.25,32.875
0.25405443,-2.4723477,-1.3191397,-1.6747217,0.013266708,0.0662048,-0.10522726,-0.3882898,-0.3279775,0.060054127,-3.0782495,0.62043536,6.4793465e-05,-0.12732011,0.0018648118,0.0013531371,0.0058004167,0.007974112,0.01763166,0.43474722,-1.4440526,1.9784936,-2.1029403,-1.5717448,2.4069512,-0.10742791,0.21657994,-0.25344175,0.03195734,-0.009190742,-0.12487381,-0.6703765,0.095768064,-9.423578,0.84484416,47.684196,-0.8108287,-1.4867473,-3.2753272,-0.11294088,-0.16172422,-0.19330114,27.0,28.1875,27.125,30.5625,32.25,32.875
0.2560545,-2.7264588,-1.9066536,-1.6691678,0.0022879248,0.06763667,-0.09859387,-0.38854033,-0.32797766,0.06005958,-3.0782375,0.6203779,0.00010874349,-0.12687741,0.0028173649,0.00045270348,0.008304917,0.0049521234,0.012537126,0.43455496,-1.4436206,1.9779795,-2.1028674,-1.571781,2.406725,-0.108063556,0.21800937,-0.25366282,0.03454749,-0.010179126,-0.12041322,-0.47884035,0.038307227,-9.461885,0.88960326,47.689575,-0.86122954,-1.3889108,-3.41344,-0.11267534,-0.17062077,-0.25509107,27.0,28.1875,27.125,30.5625,32.25,32.875
0.25805396,-2.1481848,-1.7622368,-1.4777914,0.0018013197,0.06796978,-0.1118374,-0.38881898,-0.32795867,0.06006664,-3.0782049,0.6203924,0.00013852477,-0.12738575,0.0025792462,-0.00089021644,0.009615784,0.0019274958,0.009411323,0.434303,-1.4431634,1.9774283,-2.1027715,-1.5718168,2.4064865,-0.10801559,0.22293583,-0.25648856,0.035739254,-0.010096344,-0.11723781,-0.4213795,0.038307227,-9.442732,0.8537928,47.71554,-0.9030429,-1.6551323,-3.5292742,-0.115181,-0.17559806,-0.32821113,27.0,28.1875,27.125,30.5625,32.25,32.875
0.26005435,-1.8106923,-1.4244745,-1.5236955,0.011443786,0.05506199,-0.11426001,-0.38904968,-0.32793656,0.060037334,-3.0781522,0.62036216,0.0001084214,-0.12716062,0.0027042152,-0.0021021604,0.011732229,-0.00078287645,0.007890365,0.43408713,-1.4427191,1.9769853,-2.1027234,-1.571853,2.4062588,-0.107449144,0.22606371,-0.25763482,0.037106097,-0.010880444,-0.115147494,-0.22984336,0.019153614,-9.3661175,0.8985519,47.66271,-0.8687215,-1.766535,-3.5429654,-0.08739556,-0.1544796,-0.38373536,27.0,28.1875,27.125,30.5625,32.25,32.875
0.26205367,-1.2921135,-1.0373986,-1.5737567,0.033884857,0.022797696,-0.112307176,-0.38932344,-0.32794672,0.06006161,-3.0781927,0.620374,0.00019558193,-0.12938054,0.0034179953,-0.0018973233,0.011976957,-0.0007549304,0.0026267583,0.43386996,-1.442299,1.9764465,-2.1026747,-1.571853,2.4060442,-0.110425346,0.22873174,-0.2614779,0.03836033,-0.011111013,-0.11285831,-0.095768064,0.076614454,-9.346964,0.900793,47.667187,-0.76828337,-1.8060081,-3.5644155,-0.08603034,-0.14925815,-0.42139792,27.0,28.1875,27.125,30.5625,32.25,32.875
0.26405376,-0.57937664,-0.88192743,-1.5945045,0.034201764,0.0024667496,-0.11648062,-0.38958827,-0.3279279,0.060031716,-3.078131,0.6203581,0.00015240106,-0.1296579,0.0020225763,-0.0013978989,0.011033478,0.0008264199,0.0051333136,0.4336311,-1.4417834,1.9759191,-2.1026032,-1.5718893,2.4058037,-0.108107574,0.22951813,-0.26347572,0.03773296,-0.010933326,-0.11304575,-0.019153614,0.095768064,-9.289502,0.89631605,47.658226,-1.0593252,-1.8332255,-3.5281434,-0.065630816,-0.18383798,-0.48822618,27.0,28.1875,27.125,30.5625,32.25,32.875
0.26605377,-0.5469655,-1.9576375,-1.4159353,0.027807875,-0.020811964,-0.11278938,-0.38983908,-0.32792023,0.060011137,-3.0781093,0.6203925,0.00011916334,-0.13213135,0.0033373735,-0.002063289,0.011920324,0.00067704974,0.004747659,0.4334015,-1.441315,1.9754285,-2.1025555,-1.5718898,2.4055986,-0.11206129,0.23322438,-0.26609144,0.037146125,-0.011689368,-0.11660986,-0.019153614,0.19153613,-9.232041,0.8717007,47.672558,-0.7187196,-1.9174675,-3.5912137,-0.022783844,-0.15489686,-0.49500287,27.0,28.1875,27.125,30.5625,32.25,32.875
0.26805374,-0.23601772,-2.1718779,-1.3484286,0.001514972,-0.025710855,-0.12008226,-0.39011294,-0.32789674,0.060029544,-3.0780463,0.6203528,0.00022183942,-0.13301179,0.0023549094,-0.0004736202,0.011150926,0.0015964445,0.0152499275,0.43318608,-1.4408836,1.9748763,-2.1024463,-1.5719856,2.405367,-0.11110655,0.2334076,-0.270787,0.040472925,-0.011387254,-0.12615669,0.038307227,0.24899697,-9.155427,0.95002913,47.72002,-0.922155,-1.8596976,-3.4615903,-0.023942314,-0.1656392,-0.4615226,27.0,28.1875,27.125,30.5625,32.25,32.875
0.270054,-0.75846213,-2.2500608,-1.349845,-0.030507388,-0.029731063,-0.118954755,-0.39037547,-0.32789314,0.060024135,-3.0780475,0.62029123,0.00016380838,-0.13382636,0.0023479087,0.00080628216,0.011455486,0.0028164287,0.022000661,0.43294612,-1.4404049,1.9743251,-2.102338,-1.5719737,2.4050887,-0.11116002,0.23276569,-0.2736777,0.043018274,-0.012187412,-0.13295797,-0.019153614,0.4405331,-9.212888,0.92764956,47.703903,-0.8993285,-1.7397245,-3.3378084,-0.031279653,-0.14996152,-0.3913988,27.0,28.1875,27.125,30.5625,32.25,32.875
0.2720544,-0.68603927,-3.007308,-1.4708451,-0.049065817,-0.0040029916,-0.11860622,-0.39063478,-0.32786873,0.060003277,-3.077993,0.62013996,0.00014136663,-0.13436796,0.0017621221,0.0015636322,0.011140113,0.0027303216,0.033205993,0.43271825,-1.4399136,1.9737977,-2.1022413,-1.5720338,2.4047737,-0.110645294,0.23349506,-0.27688727,0.045417126,-0.011885263,-0.14364757,0.0,0.57460845,-9.212888,0.8537928,47.66987,-1.0149217,-1.7645123,-3.4266691,-0.047317915,-0.14557147,-0.2913332,27.0,28.1875,27.125,30.5625,32.25,32.875
0.27405384,-1.6211847,-3.9681642,-1.6046754,-0.059960905,0.013963768,-0.1146394,-0.3909092,-0.32788613,0.060017433,-3.078016,0.62006307,0.00015146802,-0.13448718,0.0012327955,0.00065874564,0.010964623,-0.00028916763,0.039269686,0.4325144,-1.4394333,1.9731997,-2.1021335,-1.5720328,2.4045193,-0.110607676,0.23694736,-0.27914593,0.046875387,-0.010466606,-0.14967602,0.019153614,0.61291564,-9.289502,0.90750587,47.672558,-0.9352062,-1.7139187,-3.3537402,-0.052467972,-0.1319453,-0.18691088,27.0,28.1875,27.125,30.5625,32.25,32.875
0.27605373,-1.1231945,-3.1480622,-1.4901665,-0.08254449,0.04254362,-0.12213233,-0.39115506,-0.3278851,0.060019758,-3.0780046,0.6199253,0.00010058371,-0.13488688,0.0016263386,0.00043683077,0.01154675,-0.001698511,0.040786624,0.43231037,-1.4389777,1.972648,-2.101989,-1.5720457,2.404231,-0.1116144,0.23824716,-0.28058073,0.048526257,-0.01041482,-0.15219896,-0.019153614,0.7469909,-9.32781,0.9097417,47.67166,-1.1593953,-1.7027934,-3.490543,-0.06841537,-0.1693571,-0.13842142,27.0,28.1875,27.125,30.5625,32.25,32.875
0.2780537,-1.7166162,-3.2783077,-1.4040688,-0.08019769,0.049863443,-0.10298102,-0.39143196,-0.32787928,0.059998143,-3.0780048,0.61977243,6.1450555e-05,-0.13577306,0.001021007,0.0010748227,0.010528969,-0.00081237656,0.039333254,0.43206996,-1.4384505,1.9720868,-2.1019175,-1.5720567,2.4038956,-0.11150709,0.23903671,-0.2831836,0.049105167,-0.009871593,-0.15063813,-0.13407528,0.6703765,-9.32781,0.88960326,47.694946,-0.909438,-1.7076461,-3.4128838,-0.07523109,-0.17014164,-0.113941826,27.0,28.1875,27.125,30.5625,32.25,32.875
0.280054,-1.3908955,-2.9588296,-1.4800316,-0.055525918,0.047046684,-0.11893607,-0.39170775,-0.32786185,0.059991207,-3.0779905,0.61963934,3.496935e-05,-0.1357109,0.0013688854,0.00056984136,0.010326351,-0.002160318,0.030639669,0.4318178,-1.4379591,1.9715236,-2.1018088,-1.5720805,2.4035625,-0.11247748,0.23961957,-0.28284943,0.049330696,-0.009120843,-0.14291687,-0.114921674,0.49799395,-9.270349,0.9545008,47.658226,-1.1135981,-1.5952289,-3.5998778,-0.04621104,-0.16782013,-0.20191526,27.0,28.1875,27.125,30.5625,32.25,32.875
0.28205425,-1.1500723,-1.9951992,-1.4300066,-0.031723276,0.024442296,-0.114586405,-0.39196646,-0.32786453,0.059980493,-3.0779734,0.6195055,3.3822285e-05,-0.13692048,0.001722084,0.00055677857,0.010146973,-0.002363844,0.022910658,0.43162528,-1.4374673,1.9709743,-2.1017253,-1.5721163,2.403289,-0.11422514,0.24125959,-0.28490227,0.04985507,-0.00887436,-0.13693494,-0.038307227,0.4405331,-9.308657,0.96569055,47.70032,-1.0198221,-1.6123056,-3.613401,-0.043643355,-0.15698458,-0.25621885,27.0,28.1875,27.125,30.5625,32.25,32.875
0.28405464,-0.8226528,-2.025843,-1.4718041,0.0012877333,0.012907055,-0.112313606,-0.39226973,-0.32785487,0.05996676,-3.0779378,0.61953837,6.692545e-05,-0.13765684,0.0018246932,0.00019538292,0.010855381,-0.0035786973,0.020069474,0.43137285,-1.4369272,1.970385,-2.1016767,-1.572153,2.403062,-0.11483456,0.24372539,-0.28728187,0.051165704,-0.009011163,-0.13470174,-0.038307227,0.2681506,-9.212888,0.90750587,47.66987,-1.0328858,-1.7966193,-3.6192074,-0.05299238,-0.18039978,-0.31666145,27.0,28.1875,27.125,30.5625,32.25,32.875
0.28605372,-0.2316588,-0.88121605,-1.4568727,0.013810989,0.0028274597,-0.11974741,-0.3925519,-0.3278596,0.05996854,-3.077933,0.619574,3.553676e-05,-0.13834833,0.0017913219,-0.00032003818,0.0115041705,-0.005646873,0.019565744,0.4311329,-1.4364235,1.9697875,-2.1015685,-1.5721406,2.4028454,-0.11542757,0.24687096,-0.2902123,0.0530993,-0.008742125,-0.13479023,0.038307227,0.21068975,-9.193734,0.8784135,47.657326,-1.0277913,-1.7394905,-3.4732006,-0.065378934,-0.20783287,-0.33113974,27.0,28.1875,27.125,30.5625,32.25,32.875
0.2880539,-0.24052416,-0.31731945,-1.4560158,0.04049883,-0.0060676397,-0.117410526,-0.39282098,-0.32788184,0.059973624,-3.0779707,0.619371,5.8467464e-05,-0.1394339,0.0018812744,-0.00053051836,0.012623704,-0.006871922,0.018942578,0.4309527,-1.4359313,1.9692005,-2.101484,-1.572153,2.402534,-0.1160848,0.24993609,-0.2937833,0.055184703,-0.009250927,-0.13482141,-0.076614454,0.11492168,-9.232041,0.8537928,47.698532,-1.0268583,-1.8275759,-3.4128194,-0.074268445,-0.19187512,-0.35542384,27.0,28.1875,27.125,30.5625,32.25,32.875
0.29005468,-0.47930932,-0.4763478,-1.5370804,0.049849037,-0.00034281384,-0.11503144,-0.39309043,-0.32786074,0.05996117,-3.0779097,0.61935705,-1.5887432e-05,-0.13999046,0.0023716092,-0.0016035215,0.014281055,-0.010456434,0.019195987,0.43070033,-1.435427,1.9686259,-2.101339,-1.5721768,2.402281,-0.117333174,0.2539117,-0.29656732,0.057934638,-0.009274839,-0.13632123,-0.15322891,0.076614454,-9.289503,0.9768804,47.68599,-0.9843611,-1.8982819,-3.4401877,-0.09916252,-0.18536386,-0.38544777,27.0,28.1875,27.125,30.5625,32.25,32.875
0.29205415,-0.5439563,-0.7734832,-1.8223426,0.046185516,0.0074655986,-0.1139316,-0.39335924,-0.32786754,0.05994744,-3.077892,0.6192363,-0.00010953293,-0.14050516,0.002542693,-0.0011361184,0.0137831895,-0.011835598,0.022669448,0.43048388,-1.4348875,1.9680146,-2.101195,-1.5721763,2.4019918,-0.11863991,0.2543725,-0.2989634,0.06090251,-0.0082644075,-0.14110313,-0.076614454,0.095768064,-9.251195,0.83365434,47.687782,-0.9755717,-1.9702361,-3.428625,-0.13914633,-0.21687138,-0.35437056,27.0,28.1875,27.125,30.5625,32.25,32.875
0.29405412,-0.9242068,-1.5339754,-1.5854069,0.017778045,0.028482066,-0.11830227,-0.39362833,-0.32786104,0.059929438,-3.0778654,0.6191496,-0.0002060351,-0.14040856,0.0033544172,-0.0020242347,0.015333791,-0.0153722055,0.028875127,0.43024337,-1.4343599,1.9674286,-2.101062,-1.5721763,2.401701,-0.1199669,0.25642404,-0.30003035,0.06376509,-0.008218877,-0.14863536,-0.15322891,0.0,-9.308657,0.85155696,47.657326,-0.9827596,-1.9642851,-3.3913763,-0.19436575,-0.24016085,-0.28766063,27.0,28.1875,27.125,30.5625,32.25,32.875
0.29605424,-1.5456661,-1.6992055,-1.5894179,-0.011709832,0.044051446,-0.11446312,-0.39394704,-0.32782754,0.059932947,-3.0778182,0.619116,-0.00019451762,-0.14097822,0.0029539652,-0.0015221867,0.016134707,-0.015341482,0.03769832,0.42994344,-1.4338324,1.9667934,-2.1009295,-1.572225,2.4013865,-0.119082555,0.2576965,-0.3032545,0.06600306,-0.008982059,-0.15657075,-0.21068975,-0.019153614,-9.32781,0.86945957,47.672558,-1.0030383,-2.0110981,-3.413426,-0.23843297,-0.21790136,-0.18392459,27.0,28.1875,27.125,30.5625,32.25,32.875
0.29805392,-1.8323895,-1.2619132,-1.453285,-0.013895304,0.0508606,-0.11713523,-0.39418918,-0.3278365,0.059916824,-3.0778134,0.618922,-0.00035534718,-0.14280635,0.0035939638,-0.0008311554,0.015651941,-0.014178455,0.03956779,0.42973867,-1.4333172,1.966206,-2.1007497,-1.5722007,2.4010615,-0.12165249,0.258347,-0.3058529,0.0666879,-0.0090593835,-0.16100794,-0.28730422,-0.019153614,-9.346964,0.8247004,47.687782,-0.7973765,-1.925111,-3.3250215,-0.27896398,-0.21973106,-0.11812355,27.0,28.1875,27.125,30.5625,32.25,32.875
0.3000545,-1.9663978,-1.2761942,-1.6655797,0.0057700668,0.06075873,-0.115721874,-0.39449006,-0.32782125,0.059921283,-3.0777946,0.6187806,-0.0003307638,-0.14124513,0.0036135581,-0.0013908261,0.01698666,-0.016899759,0.04321312,0.42948747,-1.4328017,1.9655846,-2.1006296,-1.5722488,2.400725,-0.120192125,0.25811645,-0.30497408,0.06905657,-0.0091428235,-0.16319382,-0.45968673,-0.038307227,-9.557653,0.9410752,47.66987,-1.0404633,-2.0245097,-3.443039,-0.3369475,-0.23945373,-0.035077818,27.0,28.1875,27.125,30.5625,32.25,32.875
0.30205372,-1.5732323,-0.9746016,-1.6512884,0.016987212,0.08266264,-0.121500015,-0.3947663,-0.32783923,0.059911627,-3.077821,0.61857754,-0.00042895926,-0.14362319,0.003207589,-0.0010526121,0.014945784,-0.012835202,0.037576735,0.42927104,-1.4322509,1.96495,-2.1004875,-1.572225,2.4003787,-0.121438585,0.25975367,-0.306738,0.064646974,-0.009000513,-0.15880194,-0.45968673,-0.05746084,-9.461885,0.91198283,47.707485,-0.9186901,-1.8425858,-3.548586,-0.3282014,-0.25382134,-0.06780818,27.0,28.1875,27.125,30.5625,32.25,32.875
0.30405387,-2.3871968,-1.1903656,-1.5504864,0.019203404,0.07774338,-0.114126384,-0.39502838,-0.32782072,0.05988994,-3.0777438,0.6185449,-0.00054632657,-0.14534362,0.0024888518,0.00023408595,0.013468386,-0.008248636,0.03189609,0.42903116,-1.4317237,1.9643639,-2.10032,-1.5722488,2.4001286,-0.12107849,0.25947466,-0.3089824,0.06239149,-0.009586682,-0.1527571,-0.5554548,-0.038307227,-9.442732,0.8672237,47.66808,-1.1023211,-1.8012788,-3.6106539,-0.31348997,-0.2602649,-0.105324954,27.0,28.1875,27.125,30.5625,32.25,32.875
0.30605426,-2.3384178,-1.6028332,-1.647468,0.018190391,0.087961815,-0.10767186,-0.3953498,-0.3278008,0.05989613,-3.0777125,0.618542,-0.00048941636,-0.14617248,0.003100769,-0.0007788645,0.013986375,-0.010148637,0.024205197,0.4287548,-1.4311962,1.9637297,-2.1002247,-1.572297,2.399855,-0.12297765,0.2624483,-0.31021413,0.06259206,-0.009262601,-0.14696568,-0.7086837,-0.11492168,-9.519346,0.9612189,47.70032,-1.0170463,-1.6859593,-3.576197,-0.32682282,-0.26419392,-0.2067714,27.0,28.1875,27.125,30.5625,32.25,32.875
0.3080543,-2.935492,-1.6713173,-1.9034516,0.007318069,0.075086735,-0.106809855,-0.39561585,-0.3277877,0.059873488,-3.0776634,0.618422,-0.0006164907,-0.14900109,0.0030371426,-0.0001865077,0.012818123,-0.005753486,0.014210609,0.42851415,-1.4306561,1.9631308,-2.1000588,-1.5723089,2.399546,-0.124617286,0.2642722,-0.31297097,0.05905537,-0.01004529,-0.13860506,-0.5746084,0.038307227,-9.615114,0.8672237,47.701214,-1.0311202,-1.786036,-3.6608481,-0.33142626,-0.26569623,-0.28581285,27.0,28.1875,27.125,30.5625,32.25,32.875
0.3100539,-2.947571,-2.393031,-2.0434625,-0.0080493335,0.08488578,-0.10129953,-0.39592722,-0.32777113,0.059860203,-3.0776196,0.61843437,-0.0006426018,-0.15146504,0.0026163554,-4.3709726e-05,0.011753218,-0.002103775,0.010802373,0.42823768,-1.4300921,1.9624966,-2.0999515,-1.5723337,2.3992832,-0.125417,0.26693884,-0.31560725,0.05526343,-0.010610054,-0.13599207,-0.7469909,0.076614454,-9.825804,0.9768804,47.70032,-0.90681505,-1.8100998,-3.652854,-0.28109014,-0.26394844,-0.3401732,27.0,28.1875,27.125,30.5625,32.25,32.875
0.31205422,-3.1164002,-2.802722,-2.1578155,-0.012653075,0.08222744,-0.097028375,-0.39621627,-0.3277597,0.05986436,-3.0775895,0.6183731,-0.0006407482,-0.15372652,0.0035655936,1.2542763e-05,0.011220222,-0.00033150183,0.0039829253,0.4279968,-1.4295884,1.9618853,-2.0998209,-1.5723695,2.3990083,-0.12876275,0.26844943,-0.31717625,0.05348824,-0.010866784,-0.13251616,-0.59376204,0.13407528,-9.787497,0.9410752,47.687782,-0.85956395,-1.9049728,-3.6019425,-0.2633047,-0.27247268,-0.4399076,27.0,28.1875,27.125,30.5625,32.25,32.875
0.31405458,-2.3921287,-2.6205213,-2.1081202,-0.025141375,0.08915115,-0.11349431,-0.39653042,-0.3277623,0.059867397,-3.077592,0.6183138,-0.0006322718,-0.15503554,0.0025788299,7.160594e-06,0.011456906,0.0016975524,0.006973777,0.4277455,-1.4290366,1.9612268,-2.0997136,-1.5723819,2.39872,-0.12722449,0.2713746,-0.32026893,0.051904943,-0.011938158,-0.13396318,-0.6512228,0.24899697,-9.787497,0.92093146,47.66091,-0.88917226,-1.896452,-3.6316376,-0.2485502,-0.265436,-0.5047515,27.0,28.1875,27.125,30.5625,32.25,32.875
0.31605378,-2.7578552,-2.6969056,-2.1667528,-0.026403403,0.08461671,-0.10501133,-0.39688668,-0.32775986,0.059898593,-3.077619,0.61825633,-0.0004428305,-0.15543236,0.0024967436,-0.0013947656,0.011923743,0.00033301074,0.014377437,0.42748106,-1.4285085,1.9605445,-2.0996664,-1.5724419,2.3984168,-0.12735048,0.2748282,-0.3207753,0.050367776,-0.011801149,-0.14149374,-0.5554548,0.40222588,-9.749189,0.8851263,47.658226,-0.88003457,-1.958845,-3.612066,-0.20869385,-0.26589257,-0.46798795,27.0,28.1875,27.125,30.5625,32.25,32.875
0.31805393,-2.4361742,-2.9783168,-2.2070236,-0.030012835,0.08715868,-0.116667286,-0.39719966,-0.32775286,0.05989448,-3.0775828,0.61822426,-0.00044255555,-0.1580795,0.0019100319,0.00014858866,0.010213678,0.0048613143,0.02383654,0.42722896,-1.4279451,1.959886,-2.0995471,-1.5724777,2.3981497,-0.12812994,0.2755694,-0.32497984,0.04897556,-0.012155505,-0.15172872,-0.38307226,0.40222588,-9.864111,0.88960326,47.716442,-0.93143666,-1.9967668,-3.707233,-0.18875667,-0.26827696,-0.38636303,27.0,28.1875,27.125,30.5625,32.25,32.875
0.32005423,-2.2956865,-3.320166,-1.7761661,-0.04421336,0.080773346,-0.111422956,-0.39751968,-0.32777026,0.059893142,-3.0776258,0.61814874,-0.00045170882,-0.1595453,0.0014767473,0.0009400104,0.00925653,0.0072295135,0.034511376,0.42697698,-1.4273701,1.9592155,-2.0994637,-1.5724539,2.3978455,-0.12833768,0.27627927,-0.32759872,0.04831381,-0.012288907,-0.1626098,-0.3256114,0.30645782,-9.615114,0.9791215,47.684196,-0.9250585,-1.8244302,-3.6442757,-0.13404949,-0.2607891,-0.27892244,27.0,28.1875,27.125,30.5625,32.1875,32.875
0.32205382,-1.602342,-2.7487092,-1.8439862,-0.04284454,0.07354509,-0.11469734,-0.39785144,-0.32774967,0.0598964,-3.0776038,0.61804515,-0.00038653557,-0.16043448,0.0014498103,0.0008647958,0.009282967,0.0077766706,0.04164112,0.42670077,-1.4268178,1.9585575,-2.0993674,-1.5725139,2.397508,-0.12871334,0.2777533,-0.32915,0.047877736,-0.012554208,-0.17011374,-0.34476507,0.4213795,-9.500193,0.9186956,47.67166,-0.98964554,-1.9270976,-3.6839905,-0.11796848,-0.28821096,-0.18817416,27.0,28.1875,27.125,30.5625,32.1875,32.875
0.32405424,-1.0677782,-2.3075888,-2.0820866,-0.026813366,0.041630313,-0.11701095,-0.39815694,-0.3277299,0.05986395,-3.0775793,0.61790395,-0.00043977072,-0.16211636,0.0011302884,0.0029391276,0.007488343,0.01190046,0.043151718,0.42642468,-1.4262321,1.9579457,-2.099284,-1.5725378,2.3971472,-0.12933333,0.27589172,-0.3319687,0.04805032,-0.012644296,-0.17224261,-0.095768064,0.4213795,-9.653421,0.947788,47.685097,-0.9501554,-1.7107258,-3.607408,-0.09153572,-0.28087303,-0.121618666,27.0,28.1875,27.125,30.5625,32.1875,32.875
0.32605445,-1.312774,-2.3443902,-1.9254626,-0.033515617,0.011977311,-0.10021396,-0.39853334,-0.3277466,0.059906747,-3.07767,0.6178683,-0.00023420285,-0.1626595,0.00096578355,0.002970244,0.0073877336,0.011633799,0.037824634,0.4261486,-1.4256927,1.9572276,-2.09926,-1.5725497,2.3968377,-0.12947825,0.2771534,-0.33378956,0.048814945,-0.012407655,-0.16706243,-0.15322891,0.30645782,-9.691729,0.9410752,47.661808,-0.9824744,-1.6455448,-3.654592,-0.064744815,-0.2759165,-0.166817,27.0,28.1875,27.125,30.5625,32.1875,32.875
0.32805446,-0.5025681,-2.4332576,-1.6595682,-0.027525665,0.0022793433,-0.10546842,-0.39884827,-0.3277394,0.05988884,-3.0776389,0.61773074,-0.0002660536,-0.16353805,0.0012745821,0.002698489,0.008296652,0.011261298,0.029036649,0.4258965,-1.425093,1.9565576,-2.09914,-1.5725864,2.3965042,-0.13019931,0.2791625,-0.33577543,0.0495161,-0.013077429,-0.15899199,-0.076614454,0.28730422,-9.500193,0.94331104,47.66808,-0.9460822,-1.6490302,-3.7123566,-0.024937578,-0.27385354,-0.23252004,27.0,28.1875,27.125,30.5625,32.1875,32.875
0.33005485,0.14234869,-1.8981942,-1.7443379,-0.01648569,-0.004894722,-0.10954667,-0.3992037,-0.3277503,0.059921443,-3.0776942,0.61774474,-0.00014788486,-0.16483656,0.0013601158,0.0033511159,0.0079575535,0.011507063,0.024326421,0.42561993,-1.4245528,1.9558505,-2.099068,-1.5725859,2.3962297,-0.13142517,0.28025573,-0.33907428,0.051360875,-0.012850632,-0.15550838,0.019153614,0.22984336,-9.385271,0.9567419,47.70211,-0.9966803,-1.7496336,-3.5439014,0.0040563215,-0.27220532,-0.319431,27.0,28.1875,27.125,30.5625,32.1875,32.875
0.3320546,-0.16534303,-1.183284,-1.6936629,0.0030523546,-0.024903437,-0.1157195,-0.39952734,-0.3277365,0.059929363,-3.077689,0.6176081,-9.4131756e-05,-0.16524963,0.00071210146,0.0027805986,0.00880818,0.0085305,0.02440813,0.4253563,-1.424013,1.9551915,-2.0989583,-1.5726336,2.395882,-0.13074142,0.28436694,-0.3433304,0.05455731,-0.012394759,-0.15490602,0.15322891,0.0,-9.461885,0.91198283,47.717335,-1.0018908,-1.7995765,-3.5125606,-0.02375053,-0.29738736,-0.33187813,27.0,28.1875,27.125,30.5625,32.1875,32.875
0.33405462,0.27604994,-0.9793515,-1.812277,0.027140653,-0.025541319,-0.12311721,-0.39985123,-0.32774115,0.05992931,-3.077683,0.6175888,-8.6106156e-05,-0.16749328,0.0009788441,0.0021569752,0.008557719,0.008625063,0.022761527,0.42510346,-1.4234365,1.9545091,-2.0988514,-1.572646,2.3956182,-0.13306317,0.28858563,-0.34662327,0.053435344,-0.012215504,-0.15557952,0.2681506,0.019153614,-9.500193,0.8985519,47.688675,-0.82316834,-1.8949255,-3.4007418,0.018554317,-0.28593922,-0.34217757,27.0,28.1875,27.125,30.5625,32.1875,32.875
0.33605468,-0.25832886,-0.81032604,-1.3799335,0.01654704,-0.009904126,-0.11885205,-0.40019983,-0.32772923,0.059949335,-3.0777,0.617534,1.715892e-05,-0.16820186,0.00101995,0.0026227327,0.0076987334,0.00823852,0.021843726,0.42481515,-1.422896,1.9538268,-2.098767,-1.5726813,2.395294,-0.1341818,0.28902155,-0.34870318,0.055065036,-0.011264467,-0.15578341,0.05746084,0.038307227,-9.3661175,0.92764956,47.66271,-0.933848,-2.1497068,-3.4222171,0.046768177,-0.2970933,-0.39320293,27.0,28.1875,27.125,30.5625,32.1875,32.875
0.33805397,-0.569746,-1.0102496,-1.3824497,0.012052307,0.006845401,-0.12116017,-0.40051466,-0.32773584,0.059938118,-3.0777168,0.61739975,-7.318532e-05,-0.16900484,0.0020648295,0.0020767485,0.009228442,0.0058248616,0.02553927,0.42455044,-1.4222953,1.953133,-2.098622,-1.5726575,2.3949437,-0.13633184,0.29136828,-0.35090932,0.057744604,-0.011678745,-0.16162662,-0.038307227,0.15322891,-9.251195,0.90750587,47.67166,-0.830652,-1.8414483,-3.4266047,0.06021481,-0.31571674,-0.32714295,27.0,28.1875,27.125,30.5625,32.1875,32.875
0.3400543,-0.7109811,-1.5239799,-1.4847628,0.011725907,0.023383243,-0.12893376,-0.40086165,-0.32773018,0.05997019,-3.0777056,0.6172553,3.0150635e-05,-0.16643365,0.0019354296,0.0002089339,0.011317179,-0.0016180221,0.03664526,0.42429927,-1.4217416,1.952391,-2.0984647,-1.5727295,2.3946042,-0.13457292,0.29369456,-0.3505718,0.06268538,-0.010514736,-0.17097867,0.1340753,0.2681506,-9.423578,0.86498255,47.653748,-0.93560255,-1.9460974,-3.5532322,0.03599321,-0.34611756,-0.25559014,27.0,28.1875,27.125,30.5625,32.1875,32.875
0.34205368,-1.6155161,-2.5683515,-1.638914,-0.017918056,0.020769453,-0.114148065,-0.4011874,-0.32771802,0.059959196,-3.077697,0.6170573,-1.37751e-05,-0.16644374,0.0020776377,0.00038554176,0.011808937,-0.0014886218,0.045652617,0.4240229,-1.4211411,1.9516968,-2.0983212,-1.5727533,2.3942058,-0.13434818,0.2934398,-0.35102382,0.06345305,-0.011039288,-0.17975956,0.05746084,0.28730422,-9.500193,0.9254084,47.683304,-0.90944993,-1.7576075,-3.69944,0.037375156,-0.3323618,-0.1566692,27.0,28.1875,27.125,30.5625,32.1875,32.875
0.34405455,-1.7885997,-2.9430776,-1.3554951,-0.050017525,0.028244093,-0.11292872,-0.4015281,-0.32772774,0.059979774,-3.077724,0.61690784,7.399699e-05,-0.16753566,0.0035699315,0.0006855352,0.013597192,-0.0029588023,0.04578399,0.4237826,-1.420576,1.9509782,-2.098212,-1.57279,2.3938692,-0.13715334,0.29425293,-0.35367957,0.06735966,-0.012059556,-0.1826932,-0.13407528,0.30645782,-9.442732,0.9947882,47.67166,-0.9544612,-1.8023043,-3.7518086,0.012387803,-0.33421052,-0.072765246,27.0,28.1875,27.125,30.5625,32.1875,32.875
0.34605372,-1.6606947,-2.86397,-1.473994,-0.046587553,0.034854606,-0.117799185,-0.40186217,-0.3277281,0.05998488,-3.0777383,0.61679614,5.227482e-05,-0.16691954,0.0026618447,0.0016405714,0.014104711,-0.003442412,0.04473951,0.4235073,-1.4199882,1.9502605,-2.098067,-1.57279,2.3935227,-0.13467138,0.2937051,-0.35625333,0.0711365,-0.01232012,-0.17916568,-0.36391866,0.38307226,-9.404425,1.0373062,47.70211,-1.0873507,-1.6384668,-3.7100792,-0.02761333,-0.34171277,-0.050029166,27.0,28.1875,27.125,30.5625,32.1875,32.875
0.34805378,-1.6686411,-2.492854,-1.716202,-0.023527546,0.025802381,-0.105805114,-0.40219465,-0.32773352,0.059987146,-3.0777628,0.6166715,4.6784528e-05,-0.16709945,0.0034250543,0.0018054771,0.015544847,-0.005397624,0.036340978,0.42324284,-1.4193997,1.9495538,-2.0979464,-1.57279,2.3931777,-0.13573231,0.2942268,-0.3582704,0.07502108,-0.012817254,-0.17182654,-0.38307226,0.3256114,-9.481039,1.0238806,47.73525,-1.0137595,-1.4670863,-3.643177,-0.049097806,-0.3311743,-0.12344489,27.0,28.1875,27.125,30.5625,32.1875,32.875
0.3500542,-1.0998201,-1.5142657,-1.7166659,-0.011398454,0.029181754,-0.11863104,-0.40253332,-0.3277182,0.060012944,-3.0777476,0.616578,9.756146e-05,-0.16932143,0.0026768702,0.002773438,0.014828815,-0.005399348,0.026156021,0.42296672,-1.4188569,1.9488343,-2.0977771,-1.5728377,2.3928456,-0.1364753,0.29769874,-0.3653696,0.07836331,-0.01215882,-0.16238354,-0.19153613,0.2681506,-9.634268,1.0283576,47.66987,-1.0190198,-1.583076,-3.4729223,-0.09827633,-0.33061934,-0.23371531,27.0,28.1875,27.125,30.5625,32.1875,32.875
0.3520545,-0.3433084,-1.0252904,-1.3595463,-0.011677062,0.038990337,-0.1345894,-0.40288118,-0.32771683,0.06002464,-3.0777357,0.61659753,7.579341e-05,-0.17021954,0.0038210135,0.001539081,0.01707356,-0.00908855,0.019363279,0.42267787,-1.4182556,1.94808,-2.0976088,-1.5728377,2.392571,-0.13878424,0.30184993,-0.36813575,0.08127247,-0.012690839,-0.15789685,-0.26815057,0.3256114,-9.442732,0.9835985,47.704796,-0.95303154,-1.6457852,-3.4746325,-0.1385752,-0.35361496,-0.29439008,27.0,28.1875,27.125,30.5625,32.1875,32.875
0.3540538,-1.5119467,-1.1365283,-1.3624729,0.010915718,0.01719526,-0.11151829,-0.4032231,-0.32772616,0.060037788,-3.0777612,0.6165666,0.00011305086,-0.16934107,0.0043007475,6.3955864e-05,0.018502839,-0.0140911015,0.014667763,0.42241368,-1.4176781,1.9473628,-2.0975,-1.5728377,2.3922846,-0.1392677,0.3043964,-0.36853284,0.08427556,-0.011930475,-0.15368773,-0.51714754,0.24899697,-9.346964,0.9298854,47.666286,-1.0082883,-1.7925866,-3.5450459,-0.17981282,-0.3861398,-0.39267933,27.0,28.1875,27.125,30.5625,32.1875,32.875
0.3560541,-1.4940753,-1.3846722,-1.4149716,0.019183269,0.04356615,-0.11844812,-0.40357858,-0.3277027,0.06006092,-3.0777004,0.61649615,0.00014140802,-0.16890168,0.0052764155,-0.0013908595,0.020642186,-0.018507151,0.012154934,0.42212567,-1.4170887,1.9465846,-2.0972836,-1.5729097,2.3919609,-0.1404203,0.30701303,-0.36900064,0.0870212,-0.0120755555,-0.15232699,-0.36391866,0.22984336,-9.481039,0.9254084,47.666286,-0.9146925,-1.6836777,-3.550476,-0.23679051,-0.3616817,-0.4627452,27.0,28.1875,27.125,30.5625,32.1875,32.875
0.35805425,-1.9167999,-1.06762,-1.1723702,-0.01531473,0.04970449,-0.12838672,-0.40389317,-0.3276819,0.060041573,-3.0776324,0.6164613,8.170376e-06,-0.16895165,0.005244629,-0.0013124826,0.021405553,-0.019550191,0.015354118,0.42183754,-1.4164757,1.9458784,-2.0970795,-1.5729216,2.39166,-0.14005879,0.3078559,-0.3708311,0.089262605,-0.012372689,-0.15516219,-0.2681506,0.15322891,-9.3661175,0.9791215,47.687782,-0.98234373,-1.8294396,-3.6692822,-0.29421633,-0.37567413,-0.48483247,27.0,28.1875,27.125,30.5625,32.1875,32.875
0.36005476,-2.408433,-2.0773869,-0.6451844,-0.041315038,0.063825354,-0.12675893,-0.4042477,-0.3277115,0.060071234,-3.0776846,0.61629176,7.609584e-05,-0.17074086,0.0057818135,-0.0011350245,0.02073669,-0.018685332,0.024512883,0.4216086,-1.4158748,1.9450878,-2.096936,-1.572934,2.391319,-0.14249173,0.30934265,-0.37303236,0.08888222,-0.012139408,-0.16675422,-0.36391866,0.095768064,-9.2703495,0.9701675,47.670765,-0.8952775,-1.649834,-3.684589,-0.3332538,-0.3855781,-0.41258135,27.0,28.1875,27.125,30.5625,32.1875,32.875
0.36205417,-2.244137,-1.9676543,-0.5514505,-0.028156934,0.064404756,-0.12579216,-0.404582,-0.3276936,0.06008065,-3.0776672,0.61614406,0.00010036157,-0.17213543,0.0042454917,-0.0006941724,0.020259231,-0.014761223,0.04015158,0.42133364,-1.4153095,1.9443816,-2.0967815,-1.5729822,2.3909545,-0.1399123,0.31144983,-0.37594062,0.085869744,-0.013352129,-0.17980774,-0.49799395,0.0,-9.078813,1.044019,47.64389,-1.0718906,-1.5716493,-3.5444465,-0.33687288,-0.38594633,-0.3205803,27.0,28.1875,27.125,30.5625,32.1875,32.875
0.36405435,-1.7007103,-0.7755999,-0.85397285,0.006775777,0.04565588,-0.13382131,-0.40494862,-0.3276785,0.06007704,-3.0776615,0.6160439,0.00010246856,-0.1753511,0.0031135953,0.0004563066,0.017161746,-0.008884129,0.046508208,0.4210216,-1.4146719,1.9436272,-2.0966518,-1.5730056,2.3905811,-0.14056042,0.3133176,-0.37986264,0.081268236,-0.012966707,-0.18681094,-0.17238252,0.019153614,-9.212888,0.9679317,47.667187,-0.97837466,-1.7735741,-3.5254397,-0.3006398,-0.3983382,-0.1969787,27.0,28.1875,27.125,30.5625,32.1875,32.875
0.36605442,-1.1411291,-0.80804765,-0.9088352,0.03368906,0.029825263,-0.12853865,-0.40532938,-0.32768017,0.060120653,-3.0776982,0.6158394,0.00021979143,-0.17852832,0.0026396126,0.0014714404,0.015682654,-0.0038545018,0.046841554,0.42074507,-1.4140831,1.9428123,-2.096485,-1.5730542,2.3901727,-0.14165854,0.3154141,-0.38405916,0.07816014,-0.0136826,-0.1882385,-0.22984335,0.15322891,-9.251195,0.96569055,47.679718,-1.0507115,-1.5139661,-3.4870214,-0.2756406,-0.38653284,-0.12761419,27.0,28.1875,27.125,30.5625,32.1875,32.875
0.36805472,-1.3889741,-0.9966666,-0.82857513,0.018915785,0.026903143,-0.12593935,-0.40567818,-0.3276891,0.06010241,-3.077706,0.6157096,0.00014365821,-0.18096936,0.0016873388,0.0016138784,0.013331021,0.0012328874,0.041010533,0.42046908,-1.4134095,1.9420465,-2.0963438,-1.5730423,2.389815,-0.14178747,0.31761804,-0.38573796,0.0720434,-0.013633105,-0.1825341,-0.6703764,0.3256114,-9.021352,0.9567419,47.70838,-1.0926037,-1.558888,-3.5222616,-0.20165604,-0.39953017,-0.16765395,27.0,28.1875,27.125,30.5625,32.1875,32.875
0.37005413,-1.8485721,-1.6883895,-1.0085696,0.0006546089,0.035197396,-0.1313479,-0.40604046,-0.32767186,0.06011626,-3.077654,0.615683,0.00017839961,-0.1818966,0.0009666478,0.0020310846,0.013290612,0.0042915735,0.03564106,0.42018172,-1.412797,1.9412688,-2.0961645,-1.5731028,2.3895183,-0.14028688,0.3183683,-0.38727796,0.07003104,-0.014844679,-0.1756593,-0.51714754,0.34476504,-9.078813,1.005978,47.6636,-1.1769656,-1.3244816,-3.4766555,-0.1588124,-0.411375,-0.2505531,27.0,28.1875,27.125,30.5625,32.1875,32.875
0.37205443,-2.402792,-2.1602361,-0.8944993,-0.04673916,0.07002971,-0.121933416,-0.40637234,-0.32766622,0.060090803,-3.0776157,0.6155247,8.558809e-05,-0.18281212,0.0023457971,0.0016555401,0.01381037,0.0024138258,0.028334383,0.41991645,-1.4121356,1.9405268,-2.0959966,-1.5731262,2.3891594,-0.14354359,0.3195852,-0.3884488,0.071913004,-0.014560846,-0.17160898,-0.53630114,0.30645782,-9.232041,1.0283576,47.684196,-0.9975369,-1.4004073,-3.6146216,-0.18213227,-0.39627314,-0.34186816,27.0,28.1875,27.125,30.5625,32.1875,32.875
0.3740538,-2.882008,-3.32303,-1.1849214,-0.07234162,0.08396989,-0.12709698,-0.40674302,-0.32765082,0.060101867,-3.0776196,0.61543316,0.00011628144,-0.18513669,0.003591693,0.0007150327,0.014099082,0.0032266052,0.02156839,0.41960338,-1.4115218,1.9397615,-2.0958536,-1.573151,2.3887892,-0.14711052,0.32288894,-0.38968387,0.06922166,-0.015158813,-0.168407,-0.51714754,0.28730422,-9.32781,0.9768804,47.685097,-1.1231554,-1.5008258,-3.7428608,-0.12621269,-0.39865017,-0.3840525,27.0,28.1875,27.125,30.5625,32.1875,32.875
0.3760539,-3.0269883,-3.7187643,-0.98417807,-0.07193855,0.094323695,-0.11967175,-0.40710655,-0.32766846,0.060113404,-3.0776412,0.6153189,0.000108529755,-0.18424076,0.0028784503,-0.0012711802,0.016180716,-0.0006053359,0.025250982,0.41934013,-1.4108717,1.9389471,-2.0956852,-1.573151,2.3884523,-0.14470378,0.32745954,-0.3908244,0.07013363,-0.015503947,-0.16968103,-0.53630114,0.2681506,-9.270349,1.0238806,47.657326,-1.1308279,-1.6321113,-3.7255712,-0.12393393,-0.4039334,-0.39275485,27.0,28.1875,27.125,30.5625,32.1875,32.875
