Tylouw/Master_Thesis_Code/training_data/batch_1/big_rod_t0.2/sample_24_session_1.csv
timestamp[s],tcp_force_x[N],tcp_force_y[N],tcp_force_z[N],tcp_force_rx[Nm?],tcp_force_ry[Nm?],tcp_force_rz[Nm?],tcp_pose_x[m],tcp_pose_y[m],tcp_pose_z[m],tcp_pose_rx[rot_vec_x],tcp_pose_ry[rot_vec_y],tcp_pose_rz[rot_vec_z],tcp_velo_x[m/s],tcp_velo_y[m/s],tcp_velo_z[m/s],tcp_velo_rx[rot_vec_x/s],tcp_velo_ry[rot_vec_y/s],tcp_velo_rz[rot_vec_z/s],q1[rad],q2[rad],q3[rad],q4[rad],q5[rad],q6[rad],qd1[rad/s],qd2[rad/s],qd3[rad/s],qd4[rad/s],qd5[rad/s],qd6[rad/s],tool_acc_x,tool_acc_y,tool_acc_z,current_of_whole_robot[A],voltage_of_whole_robot[V],current_J1[A],current_J2[A],current_J3[A],current_J4[A],current_J5[A],current_J6[A],temp_J1[C],temp_J2[C],temp_J3[C],temp_J4[C],temp_J5[C],temp_J6[C]
6.919727e-07,0.3238265,-0.8333451,-0.2173033,-0.045626044,0.050866593,-0.018875707,-0.3729103,-0.32822385,0.059975006,-3.0785165,0.62489235,-0.00013942593,0.0034045319,0.0016351447,-0.004367117,0.004720339,-0.010129833,8.191856e-06,0.44815025,-1.4709089,2.0095613,-2.1077263,-1.5706857,2.4230795,-8.141484e-05,0.0039757728,0.005192856,0.002005662,0.00015057613,-9.29513e-05,0.05746084,0.15322891,-8.868123,0.86945957,47.701214,-0.23775715,-2.8669395,-2.4659526,-0.48745984,0.14561528,-0.12994558,26.3125,27.1875,26.25,29.375,30.5625,31.0625
0.002052397,-0.12281181,-0.37721303,-0.15040505,-0.039074477,0.028145844,-0.0070872167,-0.37289396,-0.328216,0.059960615,-3.0784905,0.6248489,-0.00021003606,0.0006508646,0.00030386122,-0.0038074255,0.0008642053,-0.0021505824,1.0348457e-05,0.44815025,-1.4708967,2.0095737,-2.1076944,-1.5706857,2.4230556,-8.037611e-05,0.0048165736,0.005206455,-0.0077109085,0.00014649106,-9.107018e-05,0.019153614,0.22984336,-8.734048,0.73069996,47.72002,-0.23682685,-2.824576,-2.4137201,-0.49976307,0.13252379,-0.115106285,26.3125,27.1875,26.25,29.375,30.5625,31.0625
0.004052095,-0.3736951,-0.7371505,-0.17487733,-0.0132497735,0.020129317,-0.0087267645,-0.3728949,-0.3282188,0.05993855,-3.0784929,0.6249069,-0.0002447905,-0.0011688301,-0.00057548995,-0.002862167,-0.0016637814,0.0030874154,1.1461992e-05,0.4481382,-1.4708608,2.009596,-2.1077435,-1.5706614,2.4230795,-7.936363e-05,0.0046285684,0.004330655,-0.01246322,0.00014262184,-8.926345e-05,0.05746084,0.095768064,-8.925584,0.73069996,47.70032,-0.1927686,-3.0616856,-2.5415251,-0.37091827,0.1366317,-0.11967321,26.3125,27.1875,26.25,29.375,30.5625,31.0625
0.006052401,-0.15491353,-0.3959378,-0.44153982,-0.008892076,0.012106818,-0.005572505,-0.37285095,-0.32822737,0.05990799,-3.0784805,0.6248275,-0.00033312544,-0.00040671596,-0.00020572887,-0.0021263803,-0.00068285986,0.0010755897,9.6835365e-06,0.44818625,-1.4708494,2.0096557,-2.107753,-1.5706495,2.4230795,-7.837638e-05,0.003081113,0.0032242164,-0.0075711184,0.00013895181,-8.752726e-05,0.076614454,0.1340753,-9.021352,0.7284641,47.70211,-0.1911378,-3.0030103,-2.4719892,-0.3906224,0.120886,-0.121732704,26.3125,27.1875,26.25,29.375,30.5625,31.0625
0.008051794,0.43672368,0.22098176,-0.9401309,0.005093082,0.0058600176,-0.0063887746,-0.3728733,-0.32820624,0.05991886,-3.0784616,0.62488174,-0.0003494079,0.000113471295,4.2766736e-05,-0.0014875612,0.00018148083,-0.0007237466,8.3660625e-06,0.44812617,-1.4708498,2.00962,-2.107704,-1.5706495,2.4230556,-7.741328e-05,0.002123002,0.001814106,-0.0032067369,0.00014655762,-8.585732e-05,0.095768064,0.11492168,-9.136273,0.6948948,47.687782,-0.19575563,-2.9242988,-2.4765725,-0.44191188,0.13512939,-0.1159252,26.3125,27.1875,26.25,29.375,30.5625,31.0625
0.010051686,0.2905485,-0.017037028,-1.1187496,0.021892013,0.0015934004,-0.008607703,-0.37287924,-0.32818747,0.05990123,-3.078401,0.6249075,-0.0003054031,0.00016559265,6.912571e-05,-0.0008069284,0.000103817,-0.00057273003,2.3100668e-07,0.44812617,-1.4708263,2.0096428,-2.1077397,-1.5707096,2.4230795,-8.366891e-05,0.0009829829,0.0011251965,-0.0015475905,0.00015342551,-8.424985e-05,0.076614454,0.076614454,-9.346964,0.7530795,47.693153,-0.6367671,-2.2177968,-3.1263165,-0.4687058,0.123589545,-0.15717721,26.3125,27.1875,26.25,29.375,30.5625,31.0625
0.012052603,0.25911757,-0.13149564,-1.2807661,-0.008549419,0.023575945,-0.012160479,-0.37290674,-0.3282374,0.05990426,-3.0785258,0.62483644,-0.00030066053,0.00016520954,0.00014239099,-0.004207071,0.0034831841,-0.0074897213,-7.293114e-05,0.44813818,-1.4707631,2.0095828,-2.1078107,-1.5706257,2.4230313,-0.00019374616,0.009963928,-0.0011576634,-0.00054727687,0.0001022348,-0.00011855656,0.05746084,0.076614454,-9.423578,0.78217715,47.672558,-0.66116655,-2.4386861,-3.214085,-0.45410198,0.11560826,-0.18608376,26.3125,27.1875,26.25,29.375,30.5625,31.0625
0.014052969,-0.02376441,-1.2443895,-1.4692874,-0.03171109,0.047849312,-0.010484767,-0.37286565,-0.32820117,0.05987401,-3.0784106,0.62487364,-0.00045630056,-0.0053590024,0.0012532654,-0.0042145466,0.0033339884,-0.0071776514,-0.004130245,0.44812354,-1.4707605,2.0096276,-2.1077154,-1.5706495,2.4230545,-0.007303852,0.017674789,-0.009708874,-5.3219268e-05,8.290049e-05,-0.0031651026,-0.038307227,0.1340753,-9.5385,0.800085,47.698532,-0.34798235,-2.8749118,-3.0064318,-0.46471363,0.1040721,-0.21676713,26.3125,27.1875,26.25,29.375,30.5625,31.0625
0.016051695,-0.90434724,-1.6665831,-1.6216918,-0.066384554,0.06291926,-0.0146460235,-0.3728653,-0.3281836,0.05984799,-3.078342,0.62479866,-0.0005013334,-0.005425739,0.0015846251,-0.0042848736,0.0034297893,-0.0073720748,0.0007728814,0.4481234,-1.4707007,2.0096161,-2.107691,-1.5706977,2.4230163,-0.007984726,0.017506499,-0.009374808,-3.474838e-06,7.833391e-05,-0.008749344,-0.30645782,0.2681506,-9.634268,0.7463667,47.68599,-0.41296172,-2.6589398,-3.2021506,-0.46237868,0.12363453,-0.15867424,26.3125,27.1875,26.25,29.375,30.5625,31.0625
0.018052198,-1.3181679,-2.4738522,-1.6760666,-0.08180006,0.10177725,-0.018905884,-0.3728689,-0.3281898,0.059854396,-3.0783482,0.6247793,-0.0005274299,-0.0050841174,0.0013401157,-0.004209376,0.00337553,-0.007251393,0.0022685335,0.44812366,-1.4706889,2.0095804,-2.1076553,-1.5706857,2.4230037,-0.0072112726,0.017108375,-0.009112221,-2.2688208e-07,7.50063e-05,-0.00947176,-0.40222588,0.36391866,-9.844957,0.7530795,47.716442,-0.5159306,-2.4020696,-3.5112333,-0.4533011,0.10379139,-0.14857149,26.3125,27.1875,26.25,29.375,30.5625,31.0625
0.020052277,-1.9979334,-2.485465,-1.3548819,-0.09160027,0.11170734,-0.023366263,-0.37288672,-0.3281816,0.059829373,-3.078349,0.6248,-0.00058058125,-0.0066662077,0.00083683885,-0.004059597,0.003098417,-0.006685718,0.0009160011,0.44807556,-1.4706279,2.009579,-2.107691,-1.5706614,2.4229684,-0.0077042226,0.02005663,-0.012690201,-1.48137795e-08,7.200152e-05,-0.008609555,-0.45968673,0.38307226,-9.825804,0.72622824,47.685097,-0.6657254,-2.3971696,-3.474643,-0.46151727,0.096443936,-0.16392548,26.3125,27.1875,26.25,29.375,30.5625,31.0625
0.022052119,-2.452057,-2.0217848,-1.7709844,-0.079155914,0.094309136,-0.028822374,-0.37287802,-0.3281899,0.05982498,-3.0783393,0.6247409,-0.00062475685,-0.008159665,0.0010030585,-0.0037923215,0.0028973434,-0.006272274,-0.0004437101,0.44809905,-1.4706036,2.0095541,-2.1076553,-1.5706614,2.4229562,-0.0093758665,0.02176956,-0.01527667,0.00041373493,6.923123e-05,-0.00891978,-0.61291564,0.4213795,-9.768343,0.7530795,47.71554,-0.70710534,-2.3759723,-3.3437355,-0.45317173,0.08536351,-0.19468985,26.3125,27.1875,26.25,29.375,30.5625,31.0625
0.024052098,-1.7638755,-1.9060872,-1.641704,-0.0528692,0.09649699,-0.04103652,-0.3729111,-0.32820347,0.05983905,-3.0783699,0.6247468,-0.0005919524,-0.009214478,0.0015234244,-0.003315988,0.0027727531,-0.0060107117,-0.00097290095,0.44808632,-1.4705675,2.0094821,-2.1076548,-1.5706495,2.4229434,-0.011312214,0.022000223,-0.016867118,0.0014837156,6.666666e-05,-0.010326253,-0.68953013,0.49799395,-9.825804,0.78217715,47.682407,-0.6915659,-2.4037223,-3.4252353,-0.44147006,0.08523875,-0.18451631,26.25,27.1875,26.25,29.375,30.5625,31.0625
0.026052563,-1.5940506,-1.6992537,-1.4725095,-0.050509065,0.08050085,-0.05262553,-0.37291655,-0.3282059,0.059815727,-3.078331,0.6247968,-0.00065023324,-0.01015522,0.0016478631,-0.00269908,0.0020887987,-0.004591796,-0.0006662504,0.44808593,-1.4704956,2.0094569,-2.1076548,-1.5706495,2.422979,-0.0124003505,0.02169118,-0.017888006,0.0012382957,6.428539e-05,-0.011720405,-0.7661445,0.36391866,-9.825804,0.70608455,47.66987,-0.6784999,-2.2869327,-3.5285172,-0.4443425,0.07974695,-0.2034911,26.25,27.1875,26.25,29.375,30.5625,31.0625
0.028052637,-1.4332043,-1.3740704,-1.4959977,-0.0484562,0.081456184,-0.06314131,-0.37296158,-0.32818496,0.059819367,-3.0783176,0.62485105,-0.0006241091,-0.011632544,0.0014207357,-0.0024726458,0.0017092497,-0.0037784395,-0.0005869015,0.44801363,-1.4704589,2.0094082,-2.1076548,-1.5706614,2.4229424,-0.013305245,0.023777824,-0.020645421,0.0010113413,4.68585e-05,-0.012702557,-0.7086837,0.30645782,-9.787497,0.7665104,47.647476,-0.78496855,-2.272594,-3.4298563,-0.43455812,0.08322325,-0.2053486,26.25,27.1875,26.25,29.375,30.5625,31.0625
0.030052409,-1.8832855,-1.713884,-1.4010595,-0.0377526,0.08026996,-0.06884346,-0.37297902,-0.32818434,0.05981037,-3.078288,0.62482685,-0.00063146173,-0.013346052,0.0015857309,-0.0023271441,0.0014290283,-0.003174412,-0.0017325468,0.44801298,-1.4703983,2.0093596,-2.1076424,-1.5706857,2.4229305,-0.015164933,0.02591835,-0.023292268,0.0008514752,3.103283e-05,-0.013414593,-0.51714754,0.22984336,-9.710882,0.6635613,47.716442,-0.7699636,-2.329615,-3.4778461,-0.41886112,0.07397838,-0.21154775,26.25,27.1875,26.25,29.375,30.5625,31.0625
0.03205236,-1.4372869,-0.8490661,-1.2010866,-0.03709876,0.09842327,-0.09209769,-0.37303308,-0.32818514,0.059824105,-3.0783267,0.62489206,-0.0006209084,-0.014636974,0.0015718513,-0.0019692974,0.0010171037,-0.002324878,-0.0013943214,0.4479407,-1.4703501,2.0092752,-2.1076424,-1.5706495,2.422894,-0.01630974,0.027149286,-0.025464006,0.0008484308,2.9099248e-05,-0.014896122,-0.61291564,0.038307227,-9.615114,0.7396539,47.685097,-0.7713953,-2.2592928,-3.4256368,-0.4236257,0.06776449,-0.21093926,26.25,27.1875,26.25,29.375,30.5625,31.0625
0.034051687,-1.1771985,-0.48145473,-1.0731926,-0.014799039,0.101242475,-0.10052147,-0.37305233,-0.32818785,0.059803437,-3.0783193,0.6248909,-0.0006365456,-0.015982993,0.001456143,-0.0015293852,0.00049208634,-0.0012437803,-0.0014163395,0.44792828,-1.4702777,2.0092514,-2.1076787,-1.5706495,2.4228818,-0.017315803,0.028368216,-0.027790548,0.0007540744,2.8128889e-05,-0.01587855,-0.51714754,-0.019153614,-9.672575,0.779936,47.655537,-0.64267534,-2.2796965,-3.4478636,-0.39880237,0.048209466,-0.21520925,26.25,27.1875,26.25,29.375,30.5625,31.0625
0.036052372,-0.981584,-0.5670556,-1.0866237,0.017228644,0.085850395,-0.11267022,-0.37309605,-0.3281982,0.059830572,-3.0783288,0.62491167,-0.0005781098,-0.017336885,0.0012006959,-0.0003589199,-0.000655368,0.0011349706,-0.0009693376,0.447916,-1.4702419,2.0091417,-2.1076424,-1.5706614,2.4228814,-0.018064125,0.027990794,-0.030063447,0.0007629808,2.7272392e-05,-0.017072571,-0.3256114,-0.05746084,-9.461885,0.8179876,47.70032,-0.7363322,-2.1798654,-3.3972213,-0.39373702,0.0483976,-0.1937246,26.25,27.1875,26.25,29.375,30.5625,31.0625
0.038052287,-0.31956112,0.17945312,-1.2540663,0.01779547,0.07669415,-0.13216314,-0.37311062,-0.32818604,0.059802465,-3.078308,0.62486947,-0.0006376422,-0.018505424,0.0010067684,1.4586046e-05,-0.001118432,0.0021330211,-0.0017197034,0.44787982,-1.4701697,2.0091298,-2.1076553,-1.5706614,2.4228215,-0.018747933,0.029173885,-0.032182906,0.0005992899,6.8646973e-06,-0.01700447,-0.2681506,0.038307227,-9.481039,0.7978386,47.713753,-0.7758506,-2.1397145,-3.3886108,-0.3623672,0.04315662,-0.19413485,26.25,27.1875,26.25,29.375,30.5625,31.0625
0.04005234,-0.6075356,0.19318917,-1.134094,0.022250826,0.041598387,-0.14007176,-0.37317222,-0.32818374,0.059820503,-3.0783324,0.62497103,-0.00054708414,-0.019700324,0.00085399667,4.6132627e-05,-0.0012135039,0.0023376753,-0.0027346248,0.4478195,-1.470133,2.0090563,-2.107691,-1.5706614,2.4228215,-0.01954047,0.031311918,-0.034618713,0.0006714849,4.4821567e-07,-0.016780293,-0.21068975,0.0,-9.500193,0.7239871,47.71017,-0.6970744,-2.2131712,-3.3723054,-0.3601106,0.02714003,-0.20588803,26.25,27.1875,26.25,29.375,30.5625,31.0625
0.042052303,-0.8398065,-0.59806377,-1.1333002,0.020152297,0.023152284,-0.1468429,-0.37319413,-0.32818583,0.059807852,-3.078328,0.6248933,-0.00061957777,-0.020323254,0.00087942294,-6.317346e-05,-0.00093594426,0.0017553198,-0.0037414161,0.4477954,-1.4700484,2.0089843,-2.1076548,-1.5706495,2.4227495,-0.02015399,0.03288209,-0.03625655,0.0013845254,2.926528e-08,-0.016386004,-0.19153613,0.038307227,-9.461885,0.73741806,47.701214,-0.7552239,-2.2045236,-3.3481069,-0.3316505,0.018613778,-0.20310307,26.25,27.1875,26.25,29.375,30.5625,31.0625
0.0440522,-0.2623383,-0.4398392,-1.0279111,-0.010145611,0.033129122,-0.1647264,-0.37326282,-0.32817635,0.059806086,-3.0783176,0.6249687,-0.0005792929,-0.020848926,0.0009054373,0.00047061706,-0.00095297134,0.0017912876,-0.003952838,0.4477231,-1.4699526,2.0088885,-2.1076782,-1.5706614,2.4227257,-0.020676306,0.033022244,-0.037992336,0.0029401295,1.9108135e-09,-0.016696298,-0.095768064,0.11492168,-9.461885,0.7933669,47.66271,-0.73700076,-2.1734366,-3.3780193,-0.33006316,0.01080695,-0.20374821,26.25,27.1875,26.25,29.375,30.5625,31.0625
0.046051808,0.03164538,-0.59871596,-0.90222806,-0.02638985,0.037323594,-0.18118657,-0.37327346,-0.32817927,0.059800986,-3.0782986,0.6250032,-0.00063490635,-0.021644587,0.0010162328,0.0008399915,-0.00086686696,0.0016070597,-0.0041715256,0.4477108,-1.4699044,2.008839,-2.1076415,-1.5706495,2.4227374,-0.021607738,0.033862967,-0.04009889,0.004409403,1.2476248e-10,-0.017408082,-0.11492168,0.11492168,-9.442732,0.7486078,47.698532,-0.6955811,-2.1714115,-3.3751988,-0.35247973,0.008765209,-0.20108292,26.25,27.1875,26.25,29.375,30.5625,31.0625
0.0480518,-0.35380316,-1.2411871,-1.2368233,-0.028855005,0.03354854,-0.17156728,-0.37332577,-0.32818067,0.059808277,-3.078299,0.6250231,-0.0005940467,-0.022986695,0.0017612032,0.0012064776,0.00033350624,0.0028191803,-0.005287092,0.44767427,-1.4698324,2.008743,-2.107641,-1.5706619,2.4227133,-0.023135418,0.034556694,-0.041803714,0.0048529576,-0.0016091655,-0.017815879,0.0,0.17238252,-9.404425,0.80456203,47.689575,-0.6549337,-1.9864347,-3.374588,-0.3351875,0.015257792,-0.18932383,26.25,27.1875,26.25,29.375,30.5625,31.0625
0.050052036,-0.3955995,-2.0038955,-1.3654879,-0.03103716,0.032191694,-0.158677,-0.37337524,-0.32817256,0.059801787,-3.0782661,0.62511253,-0.000624102,-0.023864051,0.0018450959,0.0012515346,0.0006107456,0.002552009,-0.005116412,0.447614,-1.4697361,2.0086467,-2.1076171,-1.5706619,2.422713,-0.0239942,0.036135256,-0.043826897,0.005658667,-0.0017468351,-0.018843796,0.05746084,0.19153613,-9.461885,0.8314132,47.723602,-0.65770656,-2.058545,-3.4242637,-0.32669103,0.027924677,-0.18293083,26.25,27.1875,26.25,29.375,30.5625,31.0625
0.05205188,-0.4065045,-1.9880869,-1.4017493,-0.039674453,0.024594245,-0.14446917,-0.37341806,-0.32816127,0.059799314,-3.0782816,0.62503815,-0.0006240097,-0.024450412,0.0018819139,0.0012159209,0.0005310385,0.0021475311,-0.004442573,0.44755384,-1.4696757,2.0085862,-2.1076171,-1.5706619,2.4226046,-0.024758566,0.03729267,-0.045125183,0.006128481,-0.0015023808,-0.020281693,-0.038307227,0.3256114,-9.500193,0.7463667,47.71554,-0.6554537,-2.0286853,-3.421186,-0.34318358,0.01820102,-0.1757194,26.25,27.1875,26.25,29.375,30.5625,31.0625
0.054051783,0.09973773,-1.8426234,-1.4502956,-0.04759608,0.033730835,-0.1460027,-0.37347046,-0.3281522,0.059810363,-3.0782628,0.6250722,-0.0005854472,-0.02544975,0.0016497804,0.0020481688,-0.00033542485,0.0033152942,-0.0038218137,0.4475056,-1.4696157,2.0084894,-2.1075928,-1.5706862,2.42258,-0.025410317,0.037378173,-0.047274172,0.006762489,-0.0012300988,-0.021553677,-0.076614454,0.4405331,-9.576807,0.7777002,47.694946,-0.67277396,-1.970541,-3.4829297,-0.32587177,0.010125708,-0.15978357,26.25,27.1875,26.25,29.375,30.5625,31.0625
0.05605241,-0.28983563,-2.1255016,-1.5215895,-0.051716663,0.022892848,-0.13884869,-0.37353843,-0.32814872,0.059819393,-3.0782642,0.62505347,-0.00056012254,-0.026107937,0.0017765911,0.0017387066,-1.7675515e-05,0.002233356,-0.00392387,0.4474453,-1.4695193,2.0083573,-2.1075685,-1.5706981,2.422508,-0.026364043,0.039363857,-0.048925396,0.0075398013,-0.0010502591,-0.022404663,-0.038307227,0.4405331,-9.634268,0.7866488,47.701214,-0.59851325,-1.8487602,-3.502811,-0.33293676,-0.0026605446,-0.16364428,26.25,27.1875,26.25,29.375,30.5625,31.0625
0.058052246,-0.3070293,-1.7337124,-1.3875276,-0.059235785,0.024804847,-0.14223951,-0.37360358,-0.32815456,0.059830233,-3.0782883,0.62511605,-0.00048582896,-0.026602605,0.0017858329,0.001472004,0.00058744743,0.00089397415,-0.0036393001,0.44739708,-1.4694468,2.008261,-2.1076043,-1.5706981,2.4224958,-0.026849803,0.041427694,-0.050896585,0.008916187,-0.001016415,-0.023174023,0.019153614,0.4213795,-9.634268,0.7620334,47.661808,-0.5913148,-1.9307942,-3.4861395,-0.33762258,-0.0035443055,-0.14501795,26.25,27.1875,26.25,29.375,30.5625,31.0625
0.060052205,-0.79827976,-2.2761352,-1.3642852,-0.047478717,0.025331363,-0.13801222,-0.37363964,-0.3281464,0.059833292,-3.0782666,0.62514937,-0.00051626615,-0.027218672,0.0017369309,0.0014803658,0.0006598008,0.00054776476,-0.0033985237,0.44734895,-1.4693863,2.0081766,-2.107556,-1.5706981,2.4224713,-0.027369782,0.04274978,-0.052515898,0.009556369,-0.0009348261,-0.023933934,-0.038307227,0.40222588,-9.615114,0.7866488,47.675243,-0.61277944,-1.8735753,-3.5238414,-0.34565574,0.009793737,-0.13889998,26.25,27.1875,26.25,29.375,30.5625,31.0625
0.06205212,-0.5760582,-1.8423488,-1.357531,-0.052123055,0.048436753,-0.13460602,-0.3736869,-0.32815212,0.059828676,-3.0782442,0.62510586,-0.0005496626,-0.028353417,0.0015556741,0.0012807995,0.00062688993,0.000526471,-0.0031755157,0.44732475,-1.4692658,2.008044,-2.1075084,-1.5707101,2.422423,-0.028078943,0.04526056,-0.05476088,0.009294924,-0.00090269727,-0.024864329,-0.076614454,0.38307226,-9.519346,0.7642693,47.701214,-0.62122524,-1.8963076,-3.5040371,-0.3372534,-0.028673124,-0.12150259,26.25,27.1875,26.25,29.375,30.5625,31.0625
0.06405209,-0.83539313,-1.949923,-1.3391975,-0.044430457,0.051959276,-0.14050074,-0.3737425,-0.32813415,0.059839558,-3.0782433,0.6251439,-0.00053616636,-0.029297872,0.0013775087,0.0018104264,0.00021672952,0.0012332227,-0.0029356699,0.44724053,-1.4692177,2.0079606,-2.107484,-1.5707101,2.4223626,-0.0286367,0.04597878,-0.056905452,0.009906203,-0.00084186957,-0.025660852,-0.11492168,0.36391866,-9.461885,0.7620334,47.696735,-0.61375725,-1.82636,-3.5138106,-0.3373911,-0.036240265,-0.12178784,26.25,27.1875,26.25,29.375,30.5625,31.0625
0.06605235,-1.2598417,-1.7350138,-1.2634706,-0.03601439,0.042271413,-0.13453734,-0.37382877,-0.32815453,0.059856523,-3.0782883,0.62515354,-0.0004728065,-0.03007285,0.0011246632,0.0017551018,0.00048664154,0.0008506609,-0.00302321,0.44719243,-1.4690969,2.0077918,-2.107496,-1.5706981,2.422315,-0.028804936,0.048075728,-0.059248406,0.010614421,-0.00092162663,-0.025739923,-0.21068975,0.2681506,-9.442732,0.74413085,47.657326,-0.7048185,-1.7994413,-3.442985,-0.34017444,-0.036925487,-0.119736046,26.25,27.1875,26.25,29.375,30.5625,31.0625
0.06805228,-0.5638292,-1.1290743,-0.8880664,-0.03479985,0.05365754,-0.14291406,-0.3739037,-0.32814375,0.059862647,-3.0782766,0.62518865,-0.00042049444,-0.030969681,0.0011283003,0.0015870136,0.0004925393,0.0009642205,-0.0028464464,0.44712028,-1.4690006,2.007672,-2.1074965,-1.570722,2.4222662,-0.029579684,0.04980837,-0.060678583,0.010211444,-0.0009798125,-0.026690105,-0.24899697,0.28730422,-9.404425,0.7642693,47.675243,-0.7139301,-1.9002428,-3.5640388,-0.32577962,-0.043266773,-0.10411493,26.25,27.1875,26.25,29.375,30.5625,31.0625
0.07005206,-0.29847693,-0.8664681,-1.049812,-0.033100758,0.061799806,-0.14654882,-0.3739536,-0.32814863,0.059856467,-3.0782917,0.62519187,-0.00048218138,-0.033485834,0.00056074985,0.0031867425,-0.00068651856,0.0044759642,-0.0027175872,0.44705987,-1.4688923,2.007562,-2.1074727,-1.5706862,2.422206,-0.03047453,0.050841775,-0.06551639,0.010341901,-0.0014458641,-0.027709857,-0.21068975,0.19153613,-9.423578,0.784413,47.691364,-0.67197526,-1.7909145,-3.397139,-0.31615928,-0.05616786,-0.09259856,26.25,27.1875,26.25,29.375,30.5625,31.0625
0.072052054,-1.0706422,-1.2438729,-1.1341153,-0.012975791,0.038129423,-0.13150035,-0.37400913,-0.328163,0.05986642,-3.078322,0.6252548,-0.0004897893,-0.033035044,0.00067069853,0.001249009,0.00097398856,0.00086992024,-0.001482633,0.44701198,-1.4688072,2.0074427,-2.1074603,-1.57065,2.4221935,-0.030310823,0.054803815,-0.06540754,0.010241099,-0.0013841494,-0.02878067,-0.21068975,0.22984336,-9.289502,0.72622824,47.677036,-0.7447441,-1.9071636,-3.3893266,-0.3146106,-0.05403407,-0.07042119,26.25,27.1875,26.25,29.375,30.5625,31.0625
0.07405196,-0.4668785,-0.6584188,-0.7702512,-0.027663907,0.061141256,-0.13846113,-0.37409028,-0.32812935,0.059872124,-3.0782654,0.6252249,-0.00046127604,-0.034122486,0.00064771663,0.0022221522,-2.7171714e-05,0.0027436225,-0.0028051413,0.44691578,-1.4686996,2.0072978,-2.1074002,-1.5707101,2.422086,-0.031304363,0.05416619,-0.066958085,0.010304803,-0.0012946955,-0.028451057,-0.28730422,0.19153613,-9.232041,0.779936,47.686886,-0.7436137,-1.8512782,-3.4478197,-0.30982223,-0.06346515,-0.07461891,26.25,27.1875,26.25,29.375,30.5625,31.0625
0.07605265,-1.0468857,-1.1586785,-0.821774,-0.01280063,0.055197775,-0.13827698,-0.37416482,-0.32815027,0.059896164,-3.0783026,0.6253101,-0.00038194965,-0.036771026,-0.00033172226,0.004115505,-0.001884851,0.0063473666,-0.003982337,0.44687942,-1.4686154,2.0071528,-2.107412,-1.5706981,2.4220982,-0.031932443,0.05533091,-0.07270252,0.010831864,-0.0011853979,-0.027898794,-0.30645782,0.15322891,-9.32781,0.76874626,47.668976,-0.74357396,-1.7258749,-3.357295,-0.32217738,-0.06969119,-0.07054701,26.25,27.1875,26.25,29.375,30.5625,31.0625
0.07805246,-0.9302245,-0.88882434,-0.91997164,-0.014816442,0.05955147,-0.14015883,-0.3742004,-0.32816562,0.059880245,-3.0783157,0.6252553,-0.00050381746,-0.03660824,2.4936535e-05,0.0029596165,-0.00070848665,0.0040106466,-0.004625619,0.4468433,-1.4684829,2.0070326,-2.107364,-1.57065,2.4220262,-0.03241669,0.057596024,-0.072608024,0.011089396,-0.0012371149,-0.027739374,-0.28730422,0.15322891,-9.289502,0.76874626,47.695843,-0.7451763,-1.7044368,-3.2886508,-0.31927025,-0.12486409,-0.0799435,26.25,27.1875,26.25,29.375,30.5625,31.0625
0.08005232,-1.1771644,-0.99785596,-0.8405827,-0.017917672,0.0599024,-0.13438302,-0.37428328,-0.3281498,0.059877988,-3.0782816,0.6252286,-0.00045979873,-0.037939288,-0.00024446426,0.0021180033,-8.54196e-07,0.0025940312,-0.0039273044,0.44677103,-1.4683496,2.0068886,-2.107352,-1.5706981,2.4219418,-0.0330883,0.06238444,-0.075988166,0.011262875,-0.0012704588,-0.029106522,-0.30645782,0.15322891,-9.193734,0.7463667,47.711964,-0.77523303,-1.8982009,-3.3858423,-0.30147368,-0.10644708,-0.07861152,26.25,27.1875,26.25,29.375,30.5625,31.0625
0.082052685,-0.96240723,-1.0226399,-0.82497567,-0.020350926,0.066492766,-0.14109859,-0.37440267,-0.32814327,0.059906103,-3.0782886,0.62534595,-0.00039734587,-0.03989582,-0.0006085853,0.0045821085,-0.0018164306,0.008206807,-0.0042024083,0.44665083,-1.4682187,2.0066721,-2.1073163,-1.5706986,2.421894,-0.033623584,0.0597766,-0.0786454,0.010684226,-0.0020627666,-0.029363915,-0.30645782,0.11492168,-9.308656,0.7150385,47.689575,-0.7582123,-1.7138132,-3.2915745,-0.3063489,-0.104257196,-0.08037401,26.25,27.1875,26.25,29.375,30.5625,31.0625
0.08405257,-0.7791082,-0.9161784,-0.8884262,-0.026972571,0.06775384,-0.14765726,-0.3744541,-0.3281572,0.059909143,-3.078294,0.6252694,-0.00038698185,-0.041244313,-0.00024916083,0.003741661,-0.00047654158,0.007110411,-0.0052352496,0.4466384,-1.4681094,2.0065396,-2.1072924,-1.5707105,2.4218333,-0.0350171,0.063765824,-0.08112323,0.01074265,-0.00280286,-0.029721081,-0.34476504,0.2681506,-9.308656,0.7911258,47.693153,-0.7419855,-1.7724568,-3.1996243,-0.31315178,-0.110474735,-0.07958086,26.25,27.1875,26.25,29.375,30.5625,31.0625
0.086052045,-1.0080514,-1.3706285,-1.0169599,-0.026028642,0.06213771,-0.13785659,-0.37452945,-0.32814226,0.059898585,-3.078272,0.62526476,-0.00043463142,-0.04142352,0.00023631453,0.0029333807,0.00082255906,0.0048325574,-0.0051316475,0.44654208,-1.4679648,2.0063965,-2.1072562,-1.5707105,2.421737,-0.03595433,0.065997496,-0.082026646,0.01203013,-0.0029908952,-0.03076094,-0.4405331,0.2873042,-9.346964,0.75755644,47.684196,-0.7376131,-1.8122137,-3.2884102,-0.3113614,-0.1304062,-0.0714481,26.25,27.1875,26.25,29.375,30.5625,31.0625
0.08805209,-1.1656404,-1.4129678,-0.9932963,-0.042084172,0.06597586,-0.1381711,-0.37460977,-0.3281551,0.059916507,-3.0782793,0.6253057,-0.0004025884,-0.043378964,2.4464673e-05,0.0034530214,0.00092125207,0.006763052,-0.0059318505,0.44649374,-1.4678442,2.0062149,-2.1072204,-1.570711,2.4217134,-0.036689706,0.06821584,-0.08558207,0.011671803,-0.0039208736,-0.030691827,-0.38307226,0.3256114,-9.32781,0.78217715,47.703903,-0.78228647,-1.8725961,-3.139279,-0.32252324,-0.123287946,-0.061035,26.25,27.1875,26.25,29.375,30.5625,31.0625
0.09005206,-1.7064898,-1.846066,-0.97988486,-0.035010483,0.0536363,-0.12718746,-0.37469855,-0.32815096,0.059927456,-3.0782554,0.6253582,-0.000366882,-0.042709295,0.0002792877,0.0022301052,0.0025890847,0.0049193176,-0.0065076957,0.44642204,-1.467712,2.006036,-2.1071842,-1.5707353,2.4216776,-0.036075704,0.069842085,-0.08450179,0.0113502,-0.004626413,-0.029500967,-0.4405331,0.28730422,-9.385271,0.7620334,47.7254,-0.8672539,-1.7900257,-3.3267488,-0.31606448,-0.12626487,-0.08488684,26.25,27.1875,26.25,29.375,30.5625,31.0625
0.09205204,-1.2163231,-1.1416479,-0.884384,-0.05387657,0.069889784,-0.13942437,-0.37478808,-0.32814896,0.059916507,-3.078255,0.6253984,-0.00044425618,-0.045511723,0.00062631466,0.003087754,0.0032119825,0.007242929,-0.009178744,0.44631335,-1.4675314,2.0058544,-2.1071484,-1.5707,2.4215941,-0.038185336,0.072287194,-0.08928748,0.011869995,-0.0062006465,-0.028933236,-0.38307226,0.3256114,-9.404425,0.7329411,47.70032,-0.76601976,-1.8693526,-3.279016,-0.3137312,-0.10229539,-0.10473293,26.25,27.1875,26.25,29.375,30.5625,31.0625
0.094051994,-1.3868951,-1.7274845,-0.77397364,-0.037395045,0.06443111,-0.13830003,-0.37490425,-0.3281445,0.059936035,-3.0782475,0.6253389,-0.0002339486,-0.045640167,0.0019753787,0.0017841583,0.0060928366,0.005815007,-0.008939999,0.4462649,-1.4673991,2.005675,-2.1071966,-1.5707964,2.4215097,-0.03948593,0.074086666,-0.088207625,0.011525759,-0.008179194,-0.030469738,-0.2681506,0.22984336,-9.500193,0.7709874,47.694946,-0.805771,-1.857482,-3.2490544,-0.3055065,-0.09135491,-0.10472571,26.25,27.1875,26.25,29.375,30.5625,31.0625
0.09605264,-1.2091274,-1.5034176,-1.1208853,-0.031229284,0.06106186,-0.13819246,-0.37496954,-0.32815796,0.059928045,-3.0782442,0.6253002,-0.0003150391,-0.048576266,0.0029825876,0.0023579663,0.008986278,0.0092208795,-0.0101454565,0.44621623,-1.4672306,2.0054944,-2.1071365,-1.5707744,2.4214375,-0.041259028,0.0766435,-0.09227934,0.011231818,-0.012270087,-0.031026246,-0.19153613,0.30645782,-9.442732,0.7642693,47.694054,-0.66910386,-1.9346521,-3.2406743,-0.30461612,-0.050604593,-0.1113726,26.25,27.1875,26.25,29.375,30.5625,31.0625
0.09805156,-1.056597,-1.1395388,-0.83485925,-0.031485893,0.061729815,-0.1336878,-0.37507564,-0.32815146,0.059931397,-3.0782394,0.62539524,-0.0002861805,-0.049692214,0.0031920525,0.0025667925,0.009879221,0.009937247,-0.010564536,0.44610807,-1.4670742,2.0053146,-2.1071365,-1.5707744,2.4213893,-0.04189054,0.07806352,-0.0944418,0.011715947,-0.013387116,-0.031235501,-0.21068975,0.24899697,-9.385271,0.78217715,47.685097,-0.6818979,-1.8756435,-3.2042627,-0.28390867,-0.012957381,-0.12099041,26.25,27.1875,26.25,29.375,30.5625,31.0625
0.10005249,-0.25515404,-0.89908755,-1.008023,-0.031335153,0.07315404,-0.14196694,-0.37518933,-0.32814258,0.059947044,-3.0782192,0.6254286,-0.00022305487,-0.050110545,0.0023677796,0.002546659,0.009097576,0.009991035,-0.009793741,0.44601247,-1.4669179,2.0050986,-2.1071007,-1.5708097,2.4213173,-0.041165363,0.07971244,-0.09614454,0.011379239,-0.012708337,-0.03128137,-0.24899697,0.2681506,-9.3661175,0.80456203,47.71554,-0.75822204,-1.8928685,-3.2664144,-0.27289617,-0.020313716,-0.13679141,26.25,27.1875,26.25,29.375,30.5625,31.0625
0.10205264,-0.9346401,-1.152192,-0.9461757,-0.027283113,0.03488969,-0.12918927,-0.37529498,-0.32814863,0.059962574,-3.0782194,0.6254666,-0.000115638744,-0.05059927,0.0013766722,0.0023841693,0.0067215776,0.008675572,-0.010055401,0.44595215,-1.4667735,2.004907,-2.1071126,-1.570845,2.4212809,-0.041564345,0.081838354,-0.0981241,0.01138322,-0.009999391,-0.031422876,-0.19153613,0.2681506,-9.289502,0.784413,47.711063,-0.792699,-1.8989453,-3.188245,-0.26224035,-0.002498748,-0.14147612,26.25,27.1875,26.25,29.375,30.5625,31.0625
0.10405249,-0.5064422,-1.2716348,-1.0902716,-0.038418327,0.03328462,-0.13140997,-0.3753911,-0.32815886,0.05996578,-3.0782328,0.62547004,-0.00015425235,-0.051731903,0.0010264405,0.0024572436,0.004000651,0.0074437717,-0.0117190955,0.44586742,-1.4665934,2.0046904,-2.107065,-1.5708197,2.4211967,-0.043928336,0.08360799,-0.10034009,0.011756574,-0.007017301,-0.03212705,-0.19153613,0.22984336,-9.3661175,0.7642693,47.703903,-0.7178116,-1.8399837,-3.2259362,-0.25294366,-0.038241632,-0.15420446,26.25,27.1875,26.25,29.375,30.5625,31.0625
0.106052086,-0.018352777,-1.318825,-0.8623279,-0.05075322,0.032888845,-0.13413562,-0.3754943,-0.32814237,0.059973482,-3.0781877,0.62555736,-0.00014859592,-0.052030623,0.0006213987,0.0019825872,0.003352349,0.005796841,-0.011972597,0.44575936,-1.4664366,2.0044863,-2.1070044,-1.5708436,2.421149,-0.044295434,0.08583045,-0.101815045,0.012209354,-0.0057243146,-0.032241862,-0.21068975,0.2681506,-9.404425,0.7620334,47.705692,-0.7279051,-1.9895387,-3.1843548,-0.25298434,-0.079923436,-0.16164908,26.25,27.1875,26.25,29.375,30.5625,31.0625
0.10805221,-0.5286444,-1.450384,-0.9491395,-0.05050915,0.022076372,-0.13177003,-0.37561184,-0.32814795,0.059984904,-3.0782404,0.6256256,-0.00010844963,-0.05264421,0.00035166516,0.0031146617,0.0022908105,0.006893661,-0.01174474,0.44563922,-1.4662814,2.0042946,-2.1070278,-1.5708073,2.4210649,-0.044650473,0.08485788,-0.10366487,0.013583079,-0.005237827,-0.032825448,-0.17238252,0.28730422,-9.461885,0.7866488,47.689575,-0.79106206,-1.8070576,-3.2854943,-0.25813574,-0.07527283,-0.177783,26.25,27.1875,26.25,29.375,30.5625,31.0625
0.11005202,-0.7105071,-1.3681912,-0.956402,-0.040132854,0.033056643,-0.1301492,-0.37573653,-0.32814354,0.059988648,-3.078204,0.62569505,-6.0716735e-05,-0.05287232,0.00059218676,0.0007082257,0.004565416,0.0022142169,-0.01185276,0.4455429,-1.4660754,2.0040538,-2.107004,-1.5708436,2.4210167,-0.045267593,0.091164805,-0.105212875,0.014025328,-0.0052753594,-0.033332787,-0.15322891,0.24899697,-9.423578,0.779936,47.679718,-0.7274579,-1.9958864,-3.1987453,-0.24988377,-0.08192243,-0.18554269,26.25,27.1875,26.25,29.375,30.5625,31.0625
0.11205181,-0.72424895,-1.0171098,-0.9830296,-0.03664362,0.051912323,-0.1354141,-0.3758326,-0.32813627,0.059979986,-3.0781753,0.62570727,-5.173881e-05,-0.05353312,0.00071889715,0.0017744502,0.0042321547,0.0046590893,-0.011253767,0.44545898,-1.4658967,2.003874,-2.106992,-1.5708679,2.4209442,-0.045575123,0.089473024,-0.105790146,0.013945681,-0.0060301097,-0.03423785,-0.095768064,0.15322891,-9.3661175,0.76874626,47.675243,-0.7726357,-1.8487453,-3.3465314,-0.25315768,-0.08288409,-0.21379906,26.25,27.1875,26.25,29.375,30.5625,31.0625
0.11405187,-0.9587897,-0.97271556,-0.83090603,-0.028289707,0.05239306,-0.13609405,-0.37593275,-0.32815874,0.05999624,-3.0781887,0.62567204,-4.0085168e-05,-0.054484162,0.00090448203,0.00090506545,0.0054258746,0.0033292843,-0.01144161,0.44541073,-1.4657155,2.0036237,-2.1069324,-1.5708679,2.4208724,-0.04642575,0.09311302,-0.10785446,0.014085682,-0.0065382784,-0.03489807,-0.1340753,0.24899697,-9.346964,0.83589023,47.701214,-0.820613,-1.9440408,-3.3866625,-0.23027207,-0.063379884,-0.23303291,26.25,27.1875,26.25,29.375,30.5625,31.0625
0.11605224,-1.0800813,-0.7845085,-0.96915525,-0.022700932,0.0366409,-0.1235822,-0.37607548,-0.3281417,0.0600159,-3.078172,0.62576425,2.645087e-05,-0.054802388,0.0009456758,0.0004904016,0.0065891375,0.002561737,-0.009700142,0.44526652,-1.465535,2.0033715,-2.1068957,-1.5708922,2.420788,-0.0462812,0.09501104,-0.10914445,0.014671623,-0.007258059,-0.036493108,-0.076614454,0.24899697,-9.32781,0.784413,47.687782,-0.8157275,-1.9901247,-3.3636894,-0.22220385,-0.07271877,-0.23271811,26.25,27.1875,26.25,29.375,30.5625,31.0625
0.11805218,-0.7701703,-1.0657052,-0.9388155,-0.012463327,0.029381007,-0.12621838,-0.3761672,-0.32816243,0.060007215,-3.0781717,0.6257242,3.8903785e-05,-0.056477726,0.000582641,0.0010063872,0.00643295,0.0042983773,-0.00862298,0.44523072,-1.4653308,2.0031664,-2.1068962,-1.5709041,2.4207275,-0.046683695,0.09694753,-0.11240944,0.0143664945,-0.007873014,-0.03796943,-0.038307227,0.21068975,-9.270349,0.7933669,47.704796,-0.86600375,-1.9172515,-3.1984777,-0.20524344,-0.058383953,-0.2263917,26.25,27.1875,26.25,29.375,30.5625,31.0625
0.12005206,-0.3912621,-1.0824401,-0.93724066,-0.015191265,0.023413334,-0.13181695,-0.37626815,-0.32814604,0.06000596,-3.0781312,0.6257357,5.6154982e-05,-0.056551687,0.0018647504,0.00023950417,0.008055876,0.0024995473,-0.010353692,0.4451338,-1.465163,2.0029762,-2.10686,-1.5709409,2.420643,-0.048672274,0.097659424,-0.111644946,0.015212691,-0.008560203,-0.0382266,-0.05746084,0.15322891,-9.308656,0.779936,47.698532,-0.79957247,-1.9462576,-3.4575639,-0.20787612,-0.04967723,-0.2430089,26.25,27.1875,26.25,29.375,30.5625,31.0625
0.12205185,-0.33798555,-1.0165617,-0.7992721,-0.019645073,0.020183988,-0.13305813,-0.37641194,-0.3281538,0.060020253,-3.0781534,0.62583494,7.8731326e-05,-0.056909807,0.00039975267,0.00020164353,0.008112223,0.003057732,-0.008483391,0.4450028,-1.4649464,2.0026991,-2.106836,-1.570917,2.4205713,-0.04602741,0.10033683,-0.11444946,0.014861444,-0.008856693,-0.03744971,-0.17238252,0.19153613,-9.270349,0.7911258,47.672558,-0.93922126,-1.9399692,-3.307847,-0.18050653,-0.051858403,-0.2767596,26.25,27.1875,26.25,29.375,30.5625,31.0625
0.124051854,-0.129758,-0.6029925,-0.6911278,-0.040067326,0.03779729,-0.14339055,-0.376511,-0.32814813,0.060013235,-3.0781176,0.6258456,7.0350805e-05,-0.057527613,0.0002443063,0.00021148064,0.0076873046,0.0026771275,-0.007762697,0.4449187,-1.4647545,2.0024955,-2.1068003,-1.5709404,2.4204986,-0.04664267,0.10162019,-0.11600292,0.015288098,-0.008312985,-0.038785435,-0.1340753,0.15322891,-9.270349,0.8291774,47.682407,-1.1003101,-1.8550463,-3.456428,-0.17888632,-0.05630458,-0.287411,26.25,27.1875,26.25,29.375,30.5625,31.0625
0.12605229,-0.613591,-1.031652,-0.8230469,-0.026749218,0.036661554,-0.13607706,-0.37662306,-0.3281461,0.06001195,-3.0780797,0.6258383,0.00011410239,-0.0581755,0.00017599664,0.00073414104,0.006939661,0.0031162454,-0.0075403964,0.44484645,-1.4645506,2.002268,-2.1067755,-1.5709885,2.4204268,-0.04740649,0.10163696,-0.11738562,0.015931273,-0.0078289155,-0.0397718,-0.095768064,0.1340753,-9.251195,0.84708,47.689575,-1.0410073,-1.8811358,-3.4852705,-0.15598735,-0.06585523,-0.29578078,26.25,27.1875,26.25,29.375,30.5625,31.0625
0.12805206,-0.7012516,-1.0329967,-0.8545245,-0.024111273,0.039437067,-0.13634653,-0.37673938,-0.32816783,0.06001888,-3.078115,0.625865,6.902297e-05,-0.06029153,-0.00018950837,0.0019403336,0.0051353127,0.0050018,-0.007845311,0.44474974,-1.464335,2.0020034,-2.1067278,-1.5709399,2.4203424,-0.049148437,0.10265008,-0.121409014,0.016460814,-0.0070190253,-0.041207913,-0.11492168,0.22984336,-9.251195,0.78888994,47.690468,-1.1063197,-1.7259946,-3.4219809,-0.1691916,-0.063386336,-0.3129057,26.25,27.1875,26.25,29.375,30.5625,31.0625
0.13005239,-0.5403956,-0.8964555,-0.91551256,-0.026506878,0.040825766,-0.12874159,-0.37686488,-0.32815534,0.06002305,-3.0780954,0.6259001,0.000104885,-0.059554793,0.00046877333,0.00048085334,0.006590856,0.0019384746,-0.008377052,0.44462958,-1.4641427,2.0017765,-2.106704,-1.5709637,2.4202468,-0.049702797,0.10430859,-0.119982824,0.016765844,-0.0070110033,-0.041231327,-0.095768064,0.2681506,-9.346964,0.8157518,47.658226,-1.0350857,-1.8021653,-3.5606198,-0.16214314,-0.06431293,-0.32538512,26.25,27.1875,26.25,29.375,30.5625,31.0625
0.13205226,-0.7922443,-1.3503355,-0.9030813,-0.016448265,0.033944767,-0.12998287,-0.37698177,-0.3281472,0.060019508,-3.0780497,0.62591034,0.000110455505,-0.061776176,-0.00066137046,0.0016380438,0.0061764386,0.0048833247,-0.009808677,0.44453397,-1.4639262,2.0015347,-2.1066558,-1.5710005,2.4201636,-0.04895482,0.106862955,-0.1255033,0.016897257,-0.007915159,-0.03904642,-0.05746084,0.24899697,-9.270349,0.82694155,47.66539,-1.1692879,-1.7558062,-3.2892337,-0.1507702,-0.07572821,-0.3722018,26.25,27.1875,26.25,29.375,30.5625,31.0625
0.13405222,-0.78106844,-1.2780601,-1.1406344,-0.018074697,0.028978955,-0.12231282,-0.37711677,-0.32813892,0.06001524,-3.0780015,0.62601537,0.000116346884,-0.0629568,-0.00014922798,0.0015869924,0.006919483,0.0046166647,-0.011034119,0.44441321,-1.4636858,2.001271,-2.1066196,-1.5710243,2.4201148,-0.05057293,0.10865437,-0.12758043,0.017743167,-0.008474296,-0.0394368,-0.11492168,0.21068975,-9.3661175,0.85155696,47.653748,-1.0943233,-1.8006065,-3.4476986,-0.139296,-0.057431884,-0.40871537,26.25,27.1875,26.25,29.375,30.5625,31.0625
0.13605197,-0.55215305,-1.4236995,-1.3132137,-0.02471275,0.029098226,-0.13225767,-0.3772142,-0.3281511,0.06001946,-3.0780149,0.62599814,0.00010548317,-0.06405739,-2.6110814e-05,0.0021413807,0.006920751,0.0051789368,-0.009933441,0.44434085,-1.4635059,2.0010545,-2.1065834,-1.5710129,2.42003,-0.05160819,0.10939882,-0.12994458,0.018855441,-0.008720164,-0.041571155,-0.1340753,0.19153613,-9.500193,0.8247004,47.67166,-1.16255,-1.7510471,-3.375116,-0.1386989,-0.054091513,-0.4194587,26.25,27.1875,26.25,29.375,30.5625,31.0625
0.13805191,-0.93693084,-1.9483427,-1.4847617,-0.036719278,0.027836576,-0.124947794,-0.37736258,-0.3281474,0.060025714,-3.078009,0.6260154,0.00013031799,-0.065022744,0.00018564699,0.002331021,0.007640572,0.005577112,-0.008914033,0.4442087,-1.4632659,2.000767,-2.106547,-1.5710248,2.4199097,-0.052288476,0.11064686,-0.13194053,0.019553682,-0.009543692,-0.043268394,-0.076614454,0.24899697,-9.461885,0.8314132,47.711063,-1.1225133,-1.7482063,-3.360557,-0.13348554,-0.043732516,-0.41717467,26.25,27.1875,26.25,29.375,30.5625,31.0625
0.14005198,-0.9822689,-2.0212998,-1.4623904,-0.05308285,0.045234222,-0.124380335,-0.37749016,-0.3281546,0.060045894,-3.0779932,0.6260309,0.00016824773,-0.06597444,0.00071244093,0.0022628827,0.008817701,0.0055560092,-0.008356658,0.44412437,-1.4630617,2.000479,-2.106475,-1.5710496,2.4198372,-0.053395808,0.1121197,-0.13359149,0.020257728,-0.010599261,-0.04493043,-0.21068975,0.30645782,-9.500193,0.7709874,47.70211,-1.2003576,-1.6559792,-3.3713493,-0.14440401,-0.02310859,-0.42510054,26.25,27.1875,26.25,29.375,30.5625,31.0625
0.14205195,-1.3494698,-2.1480393,-1.6033251,-0.05809092,0.058184378,-0.123641714,-0.37762186,-0.32813427,0.0600355,-3.0779338,0.62607634,0.00015650116,-0.06695512,0.0008803945,0.0019728485,0.008606827,0.004687417,-0.008325721,0.44399193,-1.4628216,2.0002267,-2.1064274,-1.5710849,2.419741,-0.05493871,0.11425694,-0.13539386,0.02061081,-0.010040676,-0.046503644,-0.38307226,0.4405331,-9.576807,0.7866488,47.70838,-1.0960274,-1.6345066,-3.4681802,-0.1315668,-0.031362727,-0.44909286,26.25,27.1875,26.25,29.375,30.5625,31.0625
0.14405188,-1.8078337,-2.4162114,-1.6006055,-0.05288657,0.063031726,-0.1242874,-0.37775394,-0.32815686,0.06004346,-3.0779426,0.6260768,0.00014237584,-0.06756463,0.0007014517,0.0017999086,0.008529446,0.00388491,-0.00645666,0.4439077,-1.4625695,1.9999164,-2.1063673,-1.5710729,2.419656,-0.055403776,0.11614144,-0.1372597,0.021280639,-0.009629343,-0.04883734,-0.34476507,0.3256114,-9.595961,0.8247004,47.684196,-1.1687832,-1.6700709,-3.388054,-0.13659391,-0.029715426,-0.44144192,26.25,27.1875,26.25,29.375,30.5625,31.0625
0.14605232,-1.7231671,-2.176942,-1.5753185,-0.052307684,0.06901457,-0.12910393,-0.37789047,-0.32815814,0.0600504,-3.0779629,0.6261557,0.00012038857,-0.068271205,0.00064199936,0.0003796118,0.009151306,0.0009346046,-0.0039831474,0.4437634,-1.4623523,1.9996523,-2.1063306,-1.5710367,2.4195585,-0.0563689,0.12093351,-0.1393841,0.021540642,-0.008928744,-0.052275434,-0.2873042,0.34476504,-9.730036,0.8224646,47.696735,-1.1744884,-1.6797593,-3.3557925,-0.14079088,-0.025228709,-0.4192819,26.25,27.1875,26.25,29.375,30.5625,31.0625
0.14805236,-1.9171275,-1.5946258,-1.5177896,-0.049077526,0.06344469,-0.12930794,-0.3780231,-0.32815516,0.060054522,-3.07791,0.626144,0.00016193438,-0.06934004,0.00067349715,0.0014301845,0.0076679755,0.0027163113,-0.0029883299,0.4436791,-1.4621129,1.9993647,-2.106271,-1.5710963,2.419474,-0.057743102,0.11991821,-0.14071846,0.02163711,-0.008358054,-0.054644838,-0.34476507,0.36391866,-9.595961,0.8806493,47.705692,-1.1585534,-1.5862632,-3.4281983,-0.13164476,-0.032871027,-0.4172023,26.25,27.1875,26.25,29.375,30.5625,31.0625
0.15005244,-1.8354234,-1.8431128,-1.367002,-0.02878232,0.06585087,-0.121963225,-0.37816614,-0.3281699,0.06005145,-3.077953,0.62601644,0.00016556586,-0.071137086,0.00040008748,8.100743e-05,0.009027298,0.0012398269,0.0001481969,0.44357085,-1.461847,1.9990753,-2.1062596,-1.5710849,2.4192808,-0.058408484,0.126494,-0.14479275,0.021052407,-0.008962723,-0.05844227,-0.45968673,0.30645782,-9.5385,0.7933669,47.68599,-1.2189428,-1.7623429,-3.3092883,-0.11395191,-0.02782061,-0.38859978,26.25,27.1875,26.25,29.375,30.5625,31.0625
0.15205236,-2.0825546,-1.5271629,-1.3642753,-0.025669154,0.061387595,-0.12520705,-0.3783296,-0.32817706,0.060080335,-3.0779839,0.62607974,0.0002534083,-0.07246316,0.0008890476,0.0006166958,0.008695499,0.0030865858,0.0016242982,0.44343802,-1.4616313,1.9987653,-2.1062357,-1.5710849,2.4191837,-0.06014145,0.12639418,-0.1457665,0.020314338,-0.009456085,-0.061650436,-0.49799395,0.19153613,-9.500193,0.87617236,47.672558,-1.2288663,-1.6114837,-3.554303,-0.102624506,-0.02201501,-0.35673964,26.25,27.1875,26.25,29.375,30.5625,31.0625
0.15405239,-1.6216683,-0.9295058,-1.0791446,-0.030719465,0.06916608,-0.1328659,-0.37847918,-0.32813284,0.06006989,-3.0778534,0.62610984,0.00027811073,-0.07326235,0.0011187985,-7.778416e-05,0.008741041,0.0012605985,0.0030230056,0.4432936,-1.4613669,1.9984778,-2.1061518,-1.5711921,2.419075,-0.061748277,0.12919718,-0.14742331,0.020824607,-0.008721113,-0.06465549,-0.4405331,0.17238253,-9.461885,0.800085,47.678825,-1.1697652,-1.8032181,-3.411893,-0.08095821,-0.03385247,-0.3317667,26.25,27.1875,26.25,29.375,30.5625,31.0625
0.15605246,-1.5153528,-1.1384465,-1.0799627,-0.02118055,0.06315025,-0.12915221,-0.3786397,-0.32817072,0.06008777,-3.0779562,0.62607133,0.0002845952,-0.07434342,0.0012869793,0.0002090181,0.008750135,0.001255365,0.0044209394,0.4431732,-1.461103,1.9981421,-2.1061394,-1.5711211,2.4189177,-0.06298955,0.13045469,-0.14975044,0.021904925,-0.008726671,-0.06729402,-0.45968673,0.11492168,-9.481039,0.8605109,47.694054,-1.1403834,-1.7475002,-3.4149783,-0.080389544,-0.034919787,-0.2723543,26.25,27.1875,26.25,29.375,30.5625,31.0625
0.15805243,-1.693452,-1.0061765,-0.9300751,-0.018908657,0.05057047,-0.13295607,-0.37880385,-0.3281786,0.06009665,-3.0779576,0.6260704,0.00037804383,-0.07574185,0.0010026894,0.00023794582,0.0086708935,0.0011690992,0.006438665,0.443065,-1.4608386,1.9978293,-2.1061394,-1.5711564,2.418809,-0.063746005,0.133286,-0.1531113,0.022473056,-0.008621473,-0.07006662,-0.47884035,0.076614454,-9.481039,0.80679786,47.694946,-1.1298664,-1.717503,-3.4193833,-0.07364984,-0.041190725,-0.23049465,26.25,27.1875,26.25,29.375,30.5625,31.0625
0.16005227,-1.6954752,-0.96580195,-0.9723056,-0.005980578,0.045661252,-0.12626126,-0.37896875,-0.32817587,0.0601021,-3.0779617,0.62607104,0.00041614147,-0.07577514,0.0015335896,-0.0015190087,0.010281372,-0.0025445386,0.006687431,0.44292063,-1.4605734,1.997518,-2.106115,-1.5711683,2.4186647,-0.064824805,0.13722524,-0.15361933,0.023084017,-0.008483714,-0.07139392,-0.38307226,0.05746084,-9.308657,0.79560274,47.672558,-1.1711663,-1.9181604,-3.3837302,-0.05564086,-0.045632213,-0.20540015,26.25,27.1875,26.25,29.375,30.5625,31.0625
0.16205241,-1.4783709,-0.6354028,-0.9318357,-0.011549343,0.051277857,-0.12982611,-0.37915003,-0.32816786,0.06014385,-3.0779746,0.6260348,0.0005516955,-0.07705113,0.0012308904,-0.00033086227,0.008867974,-0.0010355602,0.006452882,0.44277626,-1.460358,1.9971703,-2.106055,-1.5712165,2.4184964,-0.06578075,0.1370585,-0.15640695,0.02406199,-0.0078527145,-0.07211565,-0.47884035,0.21068975,-9.251195,0.7463667,47.672558,-1.1479781,-1.7800384,-3.2743087,-0.045940798,-0.048339322,-0.17850432,26.25,27.1875,26.25,29.375,30.5625,31.0625
0.16405222,-1.6367179,-0.928555,-0.81065625,-0.008495546,0.048811417,-0.11973991,-0.37929162,-0.32816437,0.060112003,-3.0779455,0.6260297,0.0004897472,-0.07784951,0.0018162953,-0.0010008829,0.010292472,-0.0024255144,0.0051483675,0.4426437,-1.4600457,1.9968947,-2.1060426,-1.571217,2.4183645,-0.06708468,0.13968877,-0.15801916,0.024911588,-0.008550267,-0.07211253,-0.4405331,0.05746084,-9.289502,0.8179876,47.703903,-1.134996,-1.9818791,-3.4016147,-0.056734912,-0.051407263,-0.14530168,26.25,27.1875,26.25,29.375,30.5625,31.0625
0.16605225,-0.9169466,-0.77690786,-0.5492427,-0.013402913,0.06381495,-0.13636005,-0.37942833,-0.32815033,0.060103416,-3.07788,0.62603664,0.00041925226,-0.07862067,0.0022773575,-0.0013597689,0.011364952,-0.0033694624,0.0028835475,0.4425116,-1.4597694,1.9965838,-2.1059344,-1.5712408,2.4182453,-0.068216406,0.14170116,-0.15968104,0.025873452,-0.009122561,-0.07097691,-0.40222588,0.038307227,-9.174581,0.82694155,47.711964,-1.0676683,-1.8773737,-3.369491,-0.046646036,-0.047755383,-0.14399245,26.25,27.1875,26.25,29.375,30.5625,31.0625
0.16805221,-0.9623458,-0.428217,-0.5244338,-0.025927106,0.053199813,-0.14449027,-0.37959838,-0.32816052,0.06011421,-3.0779016,0.6260431,0.00046321,-0.08046915,0.00260237,-0.00093776576,0.010551707,-0.0030022708,-0.0020133608,0.44237873,-1.4594935,1.9962481,-2.1059105,-1.5712403,2.418114,-0.07081441,0.14336401,-0.16267534,0.026523378,-0.0085478285,-0.06867754,-0.4213795,0.15322891,-9.059659,0.8537928,47.70211,-1.1042725,-1.8077073,-3.4094448,-0.03707984,-0.050762992,-0.14583416,26.25,27.1875,26.25,29.375,30.5625,31.0625
0.1700522,-1.4240139,-1.1760331,-0.5393596,-0.011539586,0.040106505,-0.12695332,-0.37977818,-0.32816657,0.060128324,-3.077903,0.6260439,0.00052982755,-0.08163636,0.0024918702,-0.00051411695,0.010492083,-0.0024043228,-0.0029020265,0.44224653,-1.4592056,1.9958886,-2.1058738,-1.5712651,2.4179823,-0.071468964,0.1447165,-0.16535655,0.027284324,-0.008752365,-0.06844193,-0.45968673,0.21068975,-8.963891,0.7284641,47.6636,-0.9431941,-1.8514097,-3.327599,-0.025450652,-0.05735537,-0.14512593,26.25,27.1875,26.25,29.375,30.5625,31.0625
0.17205216,-1.4888949,-1.0504639,-0.52706194,-0.010928701,0.02583737,-0.118962675,-0.379923,-0.32812843,0.06011104,-3.0778165,0.6260289,0.00046947866,-0.08212854,0.0024402563,-0.00042566567,0.010801372,-0.0019425903,-0.008347572,0.4420784,-1.4589295,1.9956006,-2.1057785,-1.5713128,2.4178162,-0.0714469,0.14547363,-0.1664468,0.027333807,-0.009237355,-0.06297212,-0.30645782,0.22984336,-9.040505,0.8605109,47.66271,-1.1135886,-1.7676666,-3.3257923,-0.027995935,-0.036906272,-0.17738475,26.25,27.1875,26.25,29.375,30.5625,31.0625
0.17405209,-1.4088064,-1.1158457,-0.60828257,0.0031220685,0.021322569,-0.12324918,-0.38010094,-0.3281397,0.060126714,-3.0778534,0.62603956,0.00051694066,-0.08379861,0.003676036,-0.00048300534,0.011107282,-0.0022812292,-0.015212769,0.4419332,-1.4586536,1.9952534,-2.1057546,-1.5713009,2.417673,-0.07510355,0.1468915,-0.1680731,0.027981611,-0.009368472,-0.059762888,-0.22984336,0.17238252,-8.944737,0.8224646,47.677036,-0.930672,-1.708466,-3.4346275,-0.017810864,-0.026978254,-0.23073763,26.25,27.1875,26.25,29.375,30.5625,31.0625
0.17605211,-0.7183105,-0.91404206,-0.7536502,-0.003829916,0.038630437,-0.12738189,-0.38027653,-0.3281525,0.060127806,-3.0778391,0.6261141,0.0005166827,-0.0850391,0.00310194,0.00056832883,0.009890543,-0.00065640005,-0.016297001,0.44180095,-1.4583303,1.9948815,-2.1057065,-1.5713009,2.4175894,-0.07535928,0.1472815,-0.1711078,0.02863529,-0.008969026,-0.058933504,-0.30645782,0.19153613,-9.059659,0.8247004,47.713753,-0.81005216,-1.6331093,-3.2672892,-0.004160094,-0.031428184,-0.2670405,26.25,27.1875,26.25,29.375,30.5625,31.0625
0.17805202,-0.75215757,-1.0311798,-0.63283217,-0.0053797313,0.039198104,-0.13010895,-0.380442,-0.32812834,0.060123466,-3.0777643,0.62615645,0.00047424284,-0.086085275,0.0031719788,0.0005960406,0.010521951,-0.00072629214,-0.0164906,0.4416331,-1.4580299,1.9945339,-2.1055987,-1.5713371,2.4174578,-0.07600761,0.14927572,-0.17361711,0.029481497,-0.009517898,-0.05938533,-0.24899697,0.095768064,-9.11712,0.78217715,47.681515,-0.94564533,-1.727083,-3.4609122,-0.0053813104,-0.05233948,-0.2600932,26.25,27.1875,26.25,29.375,30.5625,31.0625
0.1800521,-0.99577755,-0.9454213,-0.7362845,-0.0195315,0.045585513,-0.1242733,-0.38063055,-0.32810396,0.060123615,-3.077725,0.62622696,0.0005459008,-0.08660104,0.0040542106,-0.0007345645,0.011527591,-0.0039522974,-0.020761836,0.4414522,-1.4577417,1.9942111,-2.1055858,-1.5713848,2.4173262,-0.078375705,0.15249187,-0.17438209,0.030372195,-0.009047675,-0.05748256,-0.30645782,0.17238252,-9.078813,0.8493211,47.698532,-0.8731821,-1.6023374,-3.4018579,-0.02373301,-0.020719957,-0.30125728,26.25,27.1875,26.25,29.375,30.5625,31.0625
0.1820521,-0.9685705,-1.0401243,-0.9223641,-0.01820816,0.04364862,-0.13220492,-0.38080218,-0.32809752,0.060102474,-3.0776696,0.62631035,0.00049655617,-0.087617785,0.003937894,0.00032270286,0.0104629835,-0.00266941,-0.0199349,0.44129583,-1.4573942,1.993863,-2.1055377,-1.5713967,2.4172292,-0.079286404,0.15201546,-0.1765623,0.031409122,-0.008639804,-0.05921968,-0.19153613,0.17238252,-9.174581,0.7665104,47.687782,-0.7908999,-1.5538273,-3.4184709,-0.038201958,-0.052305065,-0.30486357,26.25,27.1875,26.25,29.375,30.5625,31.0625
0.18405207,-1.451042,-1.3346,-0.98663765,-0.0150221735,0.02899345,-0.12719314,-0.38096884,-0.328106,0.060119625,-3.077659,0.6263265,0.00047985528,-0.088873915,0.0036345243,0.0010011059,0.010425651,-0.0019105448,-0.018435173,0.44116378,-1.4571064,1.9934796,-2.1054294,-1.5713967,2.4171088,-0.07959287,0.15341651,-0.18002018,0.03276226,-0.008936525,-0.061023496,-0.21068975,0.19153613,-9.251195,0.7866488,47.687782,-0.81446695,-1.5332186,-3.3371582,-0.014665134,-0.059495166,-0.30448487,26.25,27.1875,26.25,29.375,30.5625,31.0625
0.18605238,-0.8820941,-0.9148847,-1.0580384,-0.023770519,0.04467009,-0.13498233,-0.38112462,-0.32808474,0.06011167,-3.0776138,0.62631893,0.00041473284,-0.09025861,0.0053961943,0.00044195406,0.011401377,-0.0031454987,-0.021713283,0.4409944,-1.4568183,1.9931563,-2.1053336,-1.5714091,2.4169407,-0.08381348,0.15490606,-0.18056989,0.033353988,-0.009296673,-0.06196451,-0.21068975,0.17238252,-9.308657,0.8403672,47.690468,-0.7338933,-1.52128,-3.4854236,-0.031899806,-0.031555872,-0.31463587,26.25,27.1875,26.25,29.375,30.5625,31.0625
0.18805237,-0.5117791,-0.6298166,-1.0365149,-0.032788474,0.05407373,-0.13922103,-0.3812927,-0.32806417,0.060085706,-3.0775285,0.6264351,0.00031736257,-0.08960178,0.004586414,-0.0007613197,0.012392532,-0.0061051454,-0.020085977,0.44081518,-1.4564694,1.9928092,-2.1052496,-1.571421,2.416845,-0.081917785,0.15831974,-0.18188432,0.03435099,-0.008937413,-0.06169508,-0.21068975,0.21068975,-9.385271,0.8627467,47.66808,-0.7682874,-1.7017603,-3.4955919,-0.040748596,-0.046379313,-0.33335736,26.25,27.1875,26.25,29.375,30.5625,31.0625
0.19005233,-1.2998848,-1.3343605,-1.3918152,-0.020876046,0.039600134,-0.13324346,-0.38144746,-0.32806432,0.060058687,-3.0774775,0.62644476,0.00018362406,-0.09053688,0.0051736925,-0.0015974201,0.01336634,-0.008357789,-0.022362843,0.44067037,-1.4561094,1.9924492,-2.1051528,-1.5714091,2.416713,-0.08384349,0.1615991,-0.18394865,0.035588354,-0.008866307,-0.06134194,-0.28730422,0.2681506,-9.461885,0.7486078,47.690468,-0.7476295,-1.5392671,-3.467495,-0.06862703,-0.05284272,-0.36388332,26.25,27.1875,26.25,29.375,30.5625,31.0625
0.1920523,-1.1325009,-1.7277545,-1.4548703,-0.02916134,0.051803783,-0.1325963,-0.38166785,-0.3280588,0.060077056,-3.0774698,0.62652,0.0002908285,-0.09240811,0.006165069,-0.0008484079,0.01350792,-0.0073552746,-0.022988752,0.44048908,-1.4557856,1.992042,-2.1051285,-1.5714449,2.41658,-0.08690923,0.16201295,-0.18645696,0.036832478,-0.009424229,-0.06378016,-0.26815057,0.22984336,-9.5385,0.83589023,47.72092,-0.5411066,-1.6086092,-3.4278796,-0.06634191,-0.04750943,-0.34150055,26.25,27.1875,26.25,29.375,30.5625,31.0625
0.19405243,-1.3677644,-1.64239,-1.6486977,-0.038360436,0.049277987,-0.1326063,-0.38182393,-0.3280434,0.06007055,-3.0774045,0.62662107,0.00019725894,-0.091194265,0.0052525364,-0.0027403715,0.015105991,-0.012140912,-0.021500483,0.44032234,-1.4554849,1.9916953,-2.1050088,-1.5714449,2.4164848,-0.084488824,0.16659376,-0.18762513,0.038427368,-0.008835252,-0.06284763,-0.24899697,0.17238252,-9.615114,0.84484416,47.675243,-0.7751951,-1.762289,-3.5434651,-0.095456645,-0.06870146,-0.3628601,26.25,27.1875,26.25,29.375,30.5625,31.0625
0.1960523,-1.2133489,-1.3544614,-1.3891028,-0.050120536,0.056187868,-0.1406123,-0.38202107,-0.32802498,0.060073417,-3.0773714,0.62665176,0.00020222014,-0.09183265,0.0057290015,-0.00358654,0.01680252,-0.014593422,-0.020349048,0.44012985,-1.4551603,1.9913114,-2.1049364,-1.5714687,2.416316,-0.08555285,0.16994545,-0.1898852,0.04027399,-0.00933119,-0.06506075,-0.2681506,0.19153613,-9.576807,0.8493211,47.69763,-0.730186,-1.8240693,-3.4990957,-0.12107155,-0.050436415,-0.3843092,26.25,27.1875,26.25,29.375,30.5625,31.0625
0.1980523,-1.8605794,-2.095083,-1.4881227,-0.021613715,0.04188155,-0.12070992,-0.3821998,-0.3280389,0.060083482,-3.0773754,0.62666845,0.00021595054,-0.09394761,0.0048099332,-0.0024683375,0.015781276,-0.011618717,-0.014998166,0.43999788,-1.454848,1.9909276,-2.1048763,-1.5714687,2.4161942,-0.085421555,0.1717687,-0.19443068,0.039865155,-0.009689573,-0.07027686,-0.22984336,0.21068975,-9.500193,0.7777002,47.7254,-0.7723089,-1.8880591,-3.547259,-0.16605332,-0.059730176,-0.36083972,26.25,27.1875,26.25,29.375,30.5625,31.0625
0.20005222,-1.1232507,-1.2228717,-1.5160742,-0.029823994,0.046211183,-0.12872195,-0.382391,-0.3280179,0.060065944,-3.0773113,0.62667304,0.0001472359,-0.09418144,0.0040619364,-0.0028878658,0.01496952,-0.0116222,-0.012609471,0.43980628,-1.454476,1.9905323,-2.104781,-1.571493,2.416014,-0.08466232,0.17350909,-0.19515595,0.03849994,-0.008967616,-0.071906194,-0.1340753,0.2873042,-9.461885,0.842603,47.737934,-0.8196494,-1.8431374,-3.5457208,-0.14696991,-0.044412456,-0.32338896,26.25,27.1875,26.25,29.375,30.5625,31.0625
0.20205213,-1.3585975,-2.0992942,-1.639592,-0.01219767,0.036657296,-0.12310667,-0.38257596,-0.327996,0.06007108,-3.0772436,0.62675387,0.00013382091,-0.09464624,0.0038590136,-0.0022218733,0.014805918,-0.011143526,-0.01062985,0.4396263,-1.4541646,1.9901494,-2.1046727,-1.5715288,2.4158933,-0.08459788,0.17347348,-0.19700603,0.03987711,-0.009031016,-0.07382034,-0.17238252,0.24899697,-9.5385,0.8851263,47.703007,-0.8966292,-1.8665979,-3.408895,-0.17425069,-0.053228524,-0.30652207,26.25,27.1875,26.25,29.375,30.5625,31.0625
0.20405203,-0.61348206,-1.5332123,-1.480363,-0.04094242,0.04556424,-0.1320532,-0.3827711,-0.32798958,0.060062945,-3.0772192,0.62670726,0.00012590774,-0.09475001,0.0036443102,-0.0024418202,0.015727991,-0.011428059,-0.0054318793,0.43945864,-1.4538047,1.9897541,-2.1046135,-1.5715531,2.4157,-0.08375423,0.17479178,-0.19813144,0.040329017,-0.009753179,-0.078172304,-0.11492168,0.2873042,-9.595961,0.8537928,47.719128,-0.9661195,-1.874446,-3.553275,-0.18283677,-0.051244706,-0.2645684,26.25,27.1875,26.25,29.375,30.5625,31.0625
0.206052,-0.8529947,-2.085413,-1.5352134,-0.03911818,0.03590121,-0.12629342,-0.38298368,-0.32795888,0.06006152,-3.077129,0.62680066,0.00013418146,-0.09558095,0.0034573318,-0.0026721281,0.016227338,-0.013599927,-0.0019168175,0.43925443,-1.4534442,1.989334,-2.1045163,-1.5716132,2.415566,-0.08438538,0.17801943,-0.20186608,0.043001372,-0.009292677,-0.08231735,-0.076614454,0.3256114,-9.519346,0.88289046,47.686886,-1.0066255,-1.9700832,-3.5431335,-0.21581858,-0.045397267,-0.20811334,26.25,27.1875,26.25,29.375,30.5625,31.0625
0.20805188,-0.4604716,-1.8473171,-1.4379749,-0.06534002,0.037022144,-0.1317559,-0.38315982,-0.3279821,0.06007355,-3.0771544,0.6267275,0.00012136834,-0.096078426,0.003498771,-0.00281722,0.016550738,-0.014028245,0.00078070554,0.43913427,-1.4531208,1.9889272,-2.1044328,-1.5716008,2.4153972,-0.084775046,0.17934631,-0.20318294,0.043513693,-0.00940943,-0.08540358,-0.05746084,0.34476504,-9.576807,0.83813137,47.691364,-0.98693043,-1.8059456,-3.6068745,-0.2706174,-0.051562116,-0.17216742,26.25,27.1875,26.25,29.375,30.5625,31.0625
0.210052,-0.5613575,-2.2143316,-1.144094,-0.06620147,0.038248096,-0.13081123,-0.38339087,-0.3279728,0.06007561,-3.0771434,0.62672484,0.00015768004,-0.098167814,0.003648519,-0.002248545,0.015593212,-0.010644641,0.0018293592,0.43892968,-1.452737,1.9884843,-2.1043856,-1.5716246,2.4151926,-0.08643056,0.1801035,-0.20479815,0.04089731,-0.00999492,-0.08810502,-0.076614454,0.34476504,-9.461885,0.8851263,47.72808,-1.0022537,-1.8299285,-3.4818006,-0.24167624,-0.050142385,-0.123686984,26.25,27.1875,26.25,29.375,30.5625,31.0625
0.21205181,-0.54301053,-1.9546194,-1.1595896,-0.05486947,0.029654471,-0.12794259,-0.3835843,-0.32795835,0.060067378,-3.0771017,0.6267928,6.919976e-05,-0.0993067,0.0034937342,-0.0020251155,0.015500502,-0.009984474,0.001990789,0.43872553,-1.4523767,1.988077,-2.1042774,-1.5716137,2.4150364,-0.08694139,0.18170334,-0.2071888,0.041050192,-0.010205436,-0.08877478,-0.05746084,0.30645782,-9.346964,0.82022345,47.67793,-1.0117116,-1.8419398,-3.4602456,-0.24598064,-0.06748058,-0.08059318,26.25,27.1875,26.25,29.375,30.5625,31.0625
0.21405175,-0.48532826,-1.4573687,-1.1427767,-0.04611829,0.027628664,-0.13341723,-0.38377178,-0.32793948,0.06005112,-3.0770206,0.6266807,7.175603e-05,-0.10051921,0.0029426292,-0.0013253978,0.014350014,-0.009328252,6.957861e-05,0.43858138,-1.4520053,1.9876813,-2.1041934,-1.5716971,2.414833,-0.087431125,0.18293728,-0.21044222,0.041977163,-0.0094537325,-0.08734276,0.0,0.30645782,-9.385271,0.8985519,47.68599,-0.97707593,-1.6807392,-3.4773908,-0.2717996,-0.05615718,-0.06427531,26.25,27.1875,26.25,29.375,30.5625,31.0625
0.21605189,-1.1241096,-1.4707891,-1.0237597,-0.021975929,8.270536e-05,-0.119941875,-0.38394862,-0.32794556,0.060038596,-3.0770252,0.62670195,-7.162793e-06,-0.10229756,0.002695997,0.00020012926,0.013472793,-0.005993882,-0.0027480621,0.43841326,-1.4516581,1.9873093,-2.1041338,-1.5716609,2.4146779,-0.088054866,0.18254125,-0.21359085,0.04213685,-0.010084983,-0.08514553,0.038307227,0.28730422,-9.32781,0.84484416,47.707485,-0.9977135,-1.4937327,-3.48207,-0.27678186,-0.057096943,-0.048392475,26.25,27.1875,26.25,29.375,30.5625,31.0625
0.21805255,-0.31407356,-1.1011046,-0.97945386,-0.0053173085,0.011504393,-0.121244185,-0.38417408,-0.3279702,0.060071122,-3.0770712,0.62675184,4.3567015e-05,-0.10385044,0.0014943694,0.0009972645,0.011737025,-0.0039871386,-0.0049787415,0.43824542,-1.4513104,1.9868306,-2.1040618,-1.571637,2.4145355,-0.08759595,0.1843629,-0.21737437,0.041545868,-0.009369037,-0.0824557,0.0,0.36391866,-9.232041,0.9030289,47.693153,-1.0090909,-1.5369546,-3.4066782,-0.2883849,-0.06376182,-0.07197473,26.25,27.1875,26.25,29.375,30.5625,31.0625
0.22005236,-0.16896982,-0.66058826,-1.1846733,-0.009100056,0.009266476,-0.1298274,-0.38439563,-0.32793826,0.060066607,-3.0769942,0.6267775,8.2117e-05,-0.10627464,0.0025753197,0.0014173186,0.010768156,-0.002204397,-0.012205564,0.43803987,-1.4509386,1.98641,-2.1039908,-1.571709,2.4143562,-0.091730006,0.18523373,-0.21910694,0.040377703,-0.009255342,-0.07936173,0.0,0.40222588,-9.308657,0.9254084,47.68599,-0.93189186,-1.4795604,-3.4165711,-0.28570837,-0.0687867,-0.108665325,26.25,27.1875,26.25,29.375,30.5625,31.0625
0.2220522,-0.60490555,-1.3840322,-1.3035315,-0.016364126,0.008610456,-0.12352724,-0.38459957,-0.32794234,0.060072213,-3.076975,0.62677294,0.00010256319,-0.106271796,0.0013913749,0.0014453559,0.011148697,-0.0012756606,-0.012257411,0.43788502,-1.4505789,1.9859794,-2.1039188,-1.5717334,2.4142013,-0.08897791,0.18670851,-0.22076775,0.039886758,-0.009997356,-0.07655494,-0.019153614,0.24899697,-9.346964,0.8717007,47.696735,-1.1278989,-1.433174,-3.3373184,-0.29683524,-0.072988406,-0.12653294,26.25,27.1875,26.25,29.375,30.5625,31.0625
0.22405216,-0.624647,-1.4959967,-1.1971785,-0.040473036,0.030646093,-0.12510861,-0.38479322,-0.32793823,0.060069807,-3.0769248,0.62689996,-1.2773354e-05,-0.10807416,0.0024598679,0.00020264936,0.012346515,-0.0032926875,-0.01786314,0.43769202,-1.450206,1.985536,-2.1037753,-1.5717095,2.4140942,-0.09231291,0.19132127,-0.22316624,0.04001061,-0.010236973,-0.07428102,-0.15322891,0.2873042,-9.461885,0.86945957,47.672558,-1.1564007,-1.6161994,-3.356851,-0.29278046,-0.07046801,-0.1626418,26.25,27.1875,26.25,29.375,30.5625,31.0625
0.22605221,-0.8381826,-1.565827,-1.3305305,-0.05105249,0.048859302,-0.1336141,-0.3850054,-0.32794407,0.060068194,-3.0768924,0.6268352,1.4576817e-05,-0.108508095,0.00090281386,-0.00089135964,0.012580252,-0.005483347,-0.01750253,0.4375486,-1.4498086,1.9850796,-2.1037037,-1.5717567,2.413915,-0.09021844,0.19691157,-0.22706597,0.040398028,-0.009528515,-0.0725459,-0.21068975,0.24899697,-9.461885,0.8314132,47.65912,-1.0511544,-1.7561688,-3.222447,-0.308923,-0.099327505,-0.19062899,26.25,27.1875,26.25,29.375,30.5625,31.0625
0.22805215,-1.61058,-2.062883,-1.5228207,-0.05950113,0.056460872,-0.1227002,-0.38521105,-0.32793263,0.060035728,-3.076815,0.62687737,-9.650428e-05,-0.109243065,0.0015645643,-0.0012651734,0.013339773,-0.0054999185,-0.020106286,0.43735617,-1.449365,1.9846367,-2.1036074,-1.5717696,2.413759,-0.091560684,0.19803636,-0.22746024,0.040005635,-0.010219094,-0.071281455,-0.21068975,0.24899697,-9.519346,0.8605109,47.64837,-1.1599369,-1.6808681,-3.2558918,-0.31156406,-0.08799845,-0.24282223,26.25,27.1875,26.25,29.375,30.5625,31.0625
0.23005223,-1.8214707,-2.224389,-1.3185275,-0.07190375,0.074353024,-0.12638445,-0.38542637,-0.32792604,0.06004671,-3.0768056,0.6269139,-7.299313e-05,-0.11015381,0.0018833169,-0.00089697493,0.012401027,-0.004038294,-0.020252563,0.43716356,-1.449018,1.9842075,-2.1035364,-1.571781,2.4135907,-0.093024865,0.19762596,-0.22765508,0.038884185,-0.009993005,-0.07259984,-0.21068975,0.2681506,-9.500193,0.8985519,47.66271,-1.1282526,-1.7323918,-3.4837682,-0.31406954,-0.08829377,-0.2513535,26.25,27.1875,26.25,29.375,30.5625,31.0625
0.23205215,-1.8180673,-2.5816586,-1.571028,-0.05461234,0.07128355,-0.11664645,-0.38563606,-0.3279386,0.060061194,-3.0767698,0.6269274,-8.061621e-05,-0.11132329,0.0014520454,-0.0002724384,0.010725234,-0.0019962331,-0.023425668,0.43701962,-1.4486345,1.9837159,-2.1034052,-1.5718049,2.41346,-0.09361178,0.19786404,-0.2291197,0.03754917,-0.00934559,-0.07001399,-0.3256114,0.30645782,-9.519346,0.9186956,47.67345,-1.1977257,-1.6230594,-3.507175,-0.29555592,-0.1110071,-0.29030612,26.25,27.1875,26.25,29.375,30.5625,31.0625
0.23405205,-1.4690692,-2.001001,-1.4775344,-0.05082126,0.07273319,-0.12030442,-0.3858712,-0.32792816,0.060057312,-3.0767372,0.62707484,-5.7687736e-05,-0.11193641,0.001798394,-0.0009146715,0.010941718,-0.0020861677,-0.025005942,0.43680313,-1.4482385,1.9832739,-2.1033695,-1.5718168,2.41334,-0.094601795,0.19940722,-0.22914322,0.036201216,-0.0095069595,-0.069423005,-0.49799395,0.3256114,-9.653421,0.900793,47.67166,-1.0141158,-1.6745698,-3.6443503,-0.29205215,-0.09698786,-0.33712363,26.25,27.1875,26.25,29.375,30.5625,31.0625
0.236052,-2.021553,-1.9120783,-1.3751503,-0.05040378,0.06242463,-0.12009061,-0.38610393,-0.3279365,0.060069107,-3.07675,0.6270742,-2.2983304e-06,-0.11253244,0.0006397904,-0.0011457872,0.010361084,-0.0013351301,-0.021541096,0.4366237,-1.4478545,1.9828066,-2.1033223,-1.5718287,2.413159,-0.09303605,0.20189111,-0.23114423,0.034786683,-0.0093064215,-0.07132124,-0.47884035,0.2681506,-9.5385,0.92093146,47.679718,-1.2403965,-1.724621,-3.7889073,-0.26413584,-0.087542936,-0.33393472,26.25,27.1875,26.25,29.375,30.5625,31.0625
0.2380519,-1.959162,-1.6091045,-1.2795362,-0.037014782,0.06434146,-0.1224943,-0.38631973,-0.32792032,0.06004959,-3.0766566,0.6272142,-4.4099343e-05,-0.116418496,0.001789909,-0.00042848365,0.009038052,0.0017275278,-0.03059108,0.43642986,-1.4474348,1.9823626,-2.1032388,-1.571865,2.4130647,-0.09839961,0.20410205,-0.23494521,0.03304286,-0.009415763,-0.0676313,-0.61291564,0.24899697,-9.481039,0.9254084,47.70032,-0.9954151,-1.5775576,-3.689897,-0.22994089,-0.100939676,-0.40460432,26.25,27.1875,26.25,29.375,30.5625,31.0625
0.24005197,-1.830226,-1.043832,-1.2704334,-0.026756553,0.06350657,-0.1315408,-0.38655972,-0.32793415,0.0600556,-3.0766766,0.6272744,-1.2615736e-05,-0.117198184,0.0009013299,-0.00048148987,0.009134922,0.0030425389,-0.02784836,0.4362384,-1.4470265,1.9818839,-2.1032035,-1.5718526,2.4129086,-0.09692231,0.20630766,-0.23709817,0.031839192,-0.010065895,-0.0688938,-0.63206923,0.13407528,-9.442732,0.95226496,47.709274,-1.2045294,-1.6433336,-3.6296632,-0.19921345,-0.10580903,-0.45793852,26.25,27.1875,26.25,29.375,30.5625,31.0625
0.24205199,-1.3301032,-1.0360363,-1.1362232,-0.02114368,0.089077294,-0.13429964,-0.38681176,-0.32794207,0.060061518,-3.0766447,0.62732357,3.449789e-05,-0.11833252,0.0009902688,-0.00090449816,0.008640476,0.001958758,-0.026179727,0.436058,-1.4465826,1.981357,-2.103132,-1.5718888,2.4127634,-0.098588556,0.2089892,-0.23928085,0.03210199,-0.009166686,-0.072229624,-0.7469909,0.17238252,-9.308657,0.85155696,47.694946,-1.1343573,-1.6096494,-3.5089865,-0.17336896,-0.114080966,-0.46160153,26.25,27.1875,26.25,29.375,30.5625,31.0625
0.24405186,-2.221885,-1.1915777,-1.1605812,-0.012964863,0.07956342,-0.122710064,-0.3870499,-0.32794714,0.06006108,-3.0766702,0.62742466,1.6774808e-06,-0.12069286,0.0015290857,-0.0003770997,0.00853619,0.0029950803,-0.026603598,0.43582892,-1.4461744,1.9808897,-2.1030834,-1.5718411,2.4125943,-0.101312295,0.21112528,-0.24312845,0.032829873,-0.009518131,-0.07452664,-0.57460845,0.11492168,-9.385271,0.8806493,47.658226,-1.0376607,-1.6778344,-3.571986,-0.14893684,-0.1443729,-0.4636282,26.25,27.1875,26.25,29.375,30.5625,31.0625
0.2460519,-1.957655,-0.692482,-1.0340809,-0.014164552,0.08760864,-0.12929086,-0.38728523,-0.32791927,0.06006457,-3.0766034,0.6274841,4.2769327e-05,-0.12299823,0.0010777321,0.001657592,0.0064098905,0.007162993,-0.021379288,0.4356127,-1.4457917,1.9804338,-2.1029994,-1.5719007,2.412424,-0.10249219,0.21039729,-0.24703403,0.03277204,-0.009364787,-0.080929264,-0.57460845,0.076614454,-9.461885,0.88289046,47.687782,-0.9264327,-1.5547805,-3.3989778,-0.1343727,-0.137555,-0.42704344,26.25,27.1875,26.25,29.375,30.5625,31.0625
0.24805197,-2.1424928,-0.9971405,-0.91320544,-0.0072369566,0.08111125,-0.122819245,-0.3875409,-0.3279327,0.06005932,-3.0766165,0.6275444,6.135669e-05,-0.12518223,0.0015147225,0.0019931109,0.0062105777,0.008417521,-0.02054293,0.43540788,-1.4453357,1.9799293,-2.1029756,-1.5718888,2.4122555,-0.10486558,0.21248502,-0.2502009,0.03262589,-0.009720611,-0.08413649,-0.63206923,0.019153614,-9.32781,0.88960326,47.66271,-0.8615994,-1.5233779,-3.3436196,-0.1125504,-0.1363656,-0.40993547,26.25,27.1875,26.25,29.375,30.5625,31.0625
0.2500518,-1.1657401,-0.46253622,-0.9896359,-0.00025543635,0.09107211,-0.13546863,-0.38780653,-0.32792068,0.060079556,-3.0765746,0.62753206,0.0001571371,-0.12611163,0.0020272024,0.0021017506,0.007235446,0.007752544,-0.01612613,0.43520352,-1.4449159,1.9793905,-2.1028798,-1.5719613,2.4120493,-0.10609451,0.21395646,-0.25263366,0.03460883,-0.010372483,-0.08978002,-0.6512229,0.076614454,-9.308657,0.8717007,47.705692,-0.78596675,-1.5416884,-3.2895944,-0.08765314,-0.1543272,-0.35989332,26.25,27.1875,26.25,29.375,30.5625,31.0625
0.2520519,-1.638775,-0.5155637,-1.2337848,0.007494456,0.07980271,-0.1245234,-0.3880551,-0.3279415,0.060081914,-3.0766,0.62757206,0.0001610508,-0.12666972,0.0025900246,0.0018823575,0.008426242,0.0069951536,-0.010000393,0.43501106,-1.444472,1.978876,-2.1028311,-1.5719374,2.4118788,-0.10702215,0.21523647,-0.25392988,0.03580711,-0.011136854,-0.0968314,-0.6703765,0.13407528,-9.385271,0.85155696,47.66987,-0.8296684,-1.4987738,-3.3192124,-0.08035483,-0.1454231,-0.26178104,26.25,27.1875,26.25,29.375,30.5625,31.0625
0.25405177,-1.88124,-1.3051459,-1.383247,0.0027184992,0.07150924,-0.12431141,-0.38827562,-0.32791924,0.0600538,-3.0765326,0.6275575,7.476594e-05,-0.1263475,0.0032792357,0.00082368584,0.0098579265,0.0033160301,-0.0088140955,0.4347949,-1.4440289,1.9784211,-2.1027343,-1.5719613,2.4116626,-0.10809528,0.21730816,-0.25446978,0.038206607,-0.010891145,-0.09909066,-0.61291564,0.15322891,-9.385271,0.8918391,47.71286,-0.8223016,-1.4252455,-3.3234463,-0.07233456,-0.13945845,-0.2394435,26.25,27.1875,26.25,29.375,30.5625,31.0625
0.2560525,-1.4605074,-1.2525798,-1.0266421,-0.01623226,0.08550286,-0.13203059,-0.38855922,-0.3279067,0.060089614,-3.076512,0.62759006,0.0002030349,-0.12675354,0.0035317629,0.0010443531,0.010599011,0.0028782946,-0.0068041626,0.43456677,-1.4436213,1.9778599,-2.1026385,-1.5720218,2.4114578,-0.10849097,0.2178904,-0.25611007,0.039963707,-0.011375318,-0.101495385,-0.47884035,0.076614454,-9.3661175,0.7553206,47.703007,-0.8265599,-1.3384031,-3.484055,-0.08837893,-0.17040361,-0.18127498,26.25,27.1875,26.25,29.375,30.5625,31.0625
0.2580518,-1.6368173,-1.244186,-1.1985923,-0.022875618,0.06881304,-0.12552223,-0.388782,-0.32787883,0.06003244,-3.076405,0.627625,5.6211342e-05,-0.12699082,0.0033178409,-0.0007336516,0.012054422,0.00054577715,-0.005176261,0.43433896,-1.4431161,1.9774045,-2.102555,-1.5720462,2.4112659,-0.10797925,0.22260949,-0.25725356,0.039111283,-0.011733631,-0.102607824,-0.36391866,0.038307227,-9.308656,0.8605109,47.65912,-0.7639799,-1.6134869,-3.567577,-0.06686902,-0.16023642,-0.14803207,26.25,27.1875,26.25,29.375,30.5625,31.0625
0.26005185,-1.7782199,-1.264484,-1.253084,-0.008048116,0.051072918,-0.11146318,-0.3890545,-0.3278723,0.060035415,-3.0764055,0.6276826,0.00010748652,-0.12747265,0.0027035659,-0.0020383887,0.012467881,-0.0012654517,-0.0059502944,0.43409908,-1.4426715,1.97689,-2.1025188,-1.5720571,2.4110622,-0.10741556,0.22706391,-0.25921264,0.038429987,-0.011349041,-0.10126972,-0.26815057,-0.019153614,-9.32781,0.82694155,47.681515,-0.90432096,-1.7331657,-3.6603062,-0.039541118,-0.14644367,-0.13497543,26.25,27.1875,26.25,29.375,30.5625,31.0625
0.2620519,-0.72394973,-0.5762613,-1.1727457,-0.0058809165,0.043402623,-0.12127649,-0.38932946,-0.3278676,0.060058054,-3.0763955,0.62777954,0.00019012766,-0.1299871,0.00383462,-0.0013643608,0.012836639,-0.0005525502,-0.012485379,0.43386984,-1.4422514,1.9763497,-2.1024468,-1.5720819,2.410895,-0.11114745,0.22876981,-0.26316082,0.040182114,-0.011981685,-0.09846373,-0.11492168,0.05746084,-9.308657,0.88960326,47.699425,-0.74164677,-1.7571523,-3.515235,-0.023888271,-0.14727715,-0.15514818,26.25,27.1875,26.25,29.375,30.5625,31.0625
0.26405224,-0.123188734,-0.88062334,-1.0173144,0.004311874,0.024097502,-0.12284968,-0.3895894,-0.32786816,0.060056332,-3.0763683,0.6277172,0.00023127403,-0.12958142,0.0026359959,-0.0011826238,0.01304752,-0.00038949377,-0.014230258,0.43367884,-1.4417841,1.9758118,-2.1023743,-1.5721301,2.410669,-0.10832639,0.22961392,-0.26479337,0.040912468,-0.012240322,-0.093896516,-0.019153614,0.22984336,-9.308657,0.9231726,47.690468,-0.9278717,-1.7185214,-3.5908418,-0.006514239,-0.16109444,-0.19064493,26.25,27.1875,26.25,29.375,30.5625,31.0625
0.26605204,0.58064115,-0.63187075,-0.9451344,-0.020967903,0.010548563,-0.13045809,-0.38984004,-0.3278389,0.060034253,-3.0762978,0.62782305,0.0001904157,-0.13215372,0.004034277,-0.0013018552,0.013607005,-0.00059552555,-0.02289922,0.43342525,-1.4413273,1.9753321,-2.1023023,-1.5721544,2.410491,-0.11273207,0.23255767,-0.26811454,0.041715007,-0.012668631,-0.08962971,-0.11492168,0.30645782,-9.136273,0.8112748,47.65912,-0.6912638,-1.8855594,-3.5782745,0.01805264,-0.16331768,-0.23656721,26.25,27.1875,26.25,29.375,30.5625,31.0625
0.26805198,0.023258334,-1.5862772,-1.2065874,-0.015665974,-0.020456232,-0.12155524,-0.3901256,-0.32782954,0.060044464,-3.0762706,0.62781525,0.0002217392,-0.13313861,0.0028402305,0.00022395448,0.012957368,0.0019972413,-0.02284677,0.43318614,-1.4408487,1.9747456,-2.102194,-1.5721902,2.410251,-0.11093644,0.2326246,-0.27207407,0.042980287,-0.013172745,-0.08788366,-0.15322891,0.4405331,-9.212888,0.8023209,47.689575,-0.9046941,-1.756907,-3.4830463,0.02448302,-0.15710396,-0.29719573,26.25,27.1875,26.25,29.375,30.5625,31.0625
0.27005187,0.38109544,-1.6673701,-1.246249,-0.0502626,-0.0009999574,-0.13079843,-0.39039275,-0.32782596,0.060046587,-3.076214,0.62801546,0.0002177655,-0.13419414,0.0025408473,0.0014719942,0.012727912,0.00317916,-0.023147395,0.432958,-1.4403815,1.974193,-2.1020977,-1.5722021,2.4101553,-0.11099514,0.2326706,-0.27561238,0.045301087,-0.013464203,-0.08763973,-0.05746084,0.51714754,-9.212888,0.83589023,47.691364,-0.9203414,-1.6892879,-3.468359,0.025877144,-0.1645189,-0.3029665,26.25,27.1875,26.25,29.375,30.5625,31.0625
0.27205163,-0.25948307,-2.628543,-1.1887497,-0.07198293,0.013853908,-0.12367494,-0.39063257,-0.32780123,0.06001881,-3.076084,0.62800676,0.00013113179,-0.13404271,0.002367337,0.001230347,0.013975377,0.0011938738,-0.022220004,0.43275434,-1.439878,1.9736542,-2.1019413,-1.5722746,2.4099634,-0.11025313,0.2344009,-0.27773517,0.04801092,-0.013773807,-0.08782215,-0.05746084,0.53630114,-9.289502,0.8023209,47.683304,-1.0107323,-1.6154151,-3.3370652,0.02295111,-0.12355794,-0.32118496,26.25,27.1875,26.25,29.375,30.5625,31.0625
0.27405247,-1.0153311,-3.0791335,-1.147953,-0.08813781,0.03141723,-0.12622762,-0.39088938,-0.32779694,0.060010247,-3.0760512,0.62809575,9.643897e-05,-0.13399336,0.002347213,0.00017610128,0.014248056,-0.0032654149,-0.023148842,0.43252596,-1.4394096,1.9731268,-2.1018565,-1.5722741,2.409795,-0.11114223,0.2378494,-0.27998757,0.05096905,-0.012153616,-0.08778551,-0.019153614,0.61291564,-9.308657,0.83589023,47.694054,-0.86773056,-1.6659918,-3.3361807,-0.0013682802,-0.1561329,-0.340716,26.25,27.1875,26.25,29.375,30.5625,31.0625
0.27605227,-1.2222847,-3.2688835,-1.3452024,-0.07401522,0.036213417,-0.11411927,-0.39114442,-0.32780302,0.06000413,-3.076001,0.6280663,3.864699e-05,-0.13387991,0.0022032866,0.00028528538,0.014602861,-0.0047093276,-0.024000145,0.4323343,-1.4389064,1.9725407,-2.1017115,-1.5722979,2.409592,-0.11087082,0.23852547,-0.28167367,0.053435504,-0.011874587,-0.08666261,-0.11492168,0.63206923,-9.346964,0.8717007,47.694946,-1.1165631,-1.6915185,-3.4757957,-0.043757964,-0.16319178,-0.37286943,26.25,27.1875,26.25,29.375,30.5625,31.0625
0.27805233,-1.3447362,-2.8703082,-1.1895695,-0.07938784,0.049897723,-0.115746416,-0.39142507,-0.32778144,0.0600031,-3.0759387,0.6282058,2.6881073e-05,-0.13332245,0.0025699013,-0.00015677113,0.014754607,-0.007558479,-0.02211742,0.43206987,-1.4384272,1.9719781,-2.1016028,-1.5723213,2.4094229,-0.11164958,0.23895475,-0.28178224,0.055752248,-0.010822585,-0.08932733,-0.1340753,0.57460845,-9.289502,0.8918391,47.694054,-0.92157686,-1.5260339,-3.4948702,-0.07335686,-0.15628439,-0.39186573,26.25,27.1875,26.25,29.375,30.5625,31.0625
0.28005257,-1.1186529,-2.180987,-1.1812477,-0.06156082,0.04294643,-0.12172243,-0.3916962,-0.32777902,0.060007825,-3.0758977,0.62835145,3.270979e-05,-0.13349451,0.00277786,-0.00082863454,0.015609518,-0.009872994,-0.023369761,0.43184173,-1.437959,1.9714173,-2.101507,-1.5723337,2.4092913,-0.11220172,0.24124187,-0.2833191,0.05745902,-0.010632114,-0.08862705,-0.05746084,0.4213795,-9.308657,0.94331104,47.67166,-1.0766695,-1.636414,-3.593085,-0.09098819,-0.18273103,-0.40667325,26.25,27.1875,26.25,29.375,30.5625,31.0625
0.2820524,-0.18884964,-1.5579462,-1.0714872,-0.037852272,0.044884637,-0.13057768,-0.39195523,-0.3277754,0.05998362,-3.0758295,0.6283339,-2.5807667e-05,-0.13465177,0.0033608773,-0.00046821663,0.016114593,-0.009562224,-0.019652719,0.43163726,-1.4374318,1.9708532,-2.1013987,-1.5723695,2.409085,-0.113765195,0.2420171,-0.28542143,0.058702752,-0.011239168,-0.09390442,-0.019153614,0.3256114,-9.289502,1.0194036,47.709274,-1.0630329,-1.7062119,-3.5838823,-0.11144176,-0.19008821,-0.40333122,26.25,27.1875,26.25,29.375,30.5625,31.0625
0.2840523,-0.7135552,-0.97790104,-1.1053218,-0.019903356,0.016772116,-0.118029684,-0.39225826,-0.3277702,0.059969973,-3.0758069,0.6284235,-7.0330236e-05,-0.13478065,0.0033438862,-0.0013221308,0.016187487,-0.012034461,-0.016272942,0.43136132,-1.43688,1.9702424,-2.1013148,-1.5723575,2.4088683,-0.11435079,0.24453361,-0.28666237,0.059691183,-0.0102842,-0.09787167,0.038307227,0.30645782,-9.289502,0.9298854,47.65106,-0.97462356,-1.6991968,-3.5111203,-0.1269033,-0.20274329,-0.3323751,26.25,27.1875,26.25,29.375,30.5625,31.0625
0.2860521,0.4095958,-0.15497299,-1.0092334,-0.008188729,0.020262782,-0.1315027,-0.39250284,-0.32778552,0.05995523,-3.0757957,0.6283029,-0.00014907113,-0.13717777,0.0027936741,-0.0005372082,0.015917642,-0.010409188,-0.011924989,0.43118086,-1.4363756,1.9696792,-2.101195,-1.5723575,2.4086144,-0.11498814,0.24766058,-0.29231945,0.06062313,-0.010744655,-0.102852,0.05746084,0.22984336,-9.174581,0.96569055,47.655537,-1.0859721,-1.7655151,-3.4691803,-0.1385458,-0.2065075,-0.28939584,26.25,27.1875,26.25,29.375,30.5625,31.0625
0.28805217,-0.17649442,-0.27014986,-1.1923342,0.017989598,-0.006464058,-0.11441614,-0.39279273,-0.32778728,0.05996165,-3.0757647,0.6284282,-0.00010033664,-0.13803457,0.0027629412,-0.0014393005,0.016747491,-0.012465895,-0.007532666,0.43095285,-1.4358834,1.9690918,-2.1011221,-1.5723814,2.408469,-0.11561263,0.25165877,-0.29511696,0.061623733,-0.010651655,-0.107867695,-0.019153614,0.1340753,-9.32781,0.9030289,47.658226,-1.1028454,-1.857209,-3.360606,-0.15529826,-0.2160429,-0.22503579,26.25,27.1875,26.25,29.375,30.5625,31.0625
0.2900519,0.035473876,0.06304894,-1.020835,0.015990593,0.014685196,-0.13092783,-0.39307293,-0.3277688,0.05995099,-3.0756998,0.6284515,-0.00019842469,-0.13981251,0.0028011606,-0.0011200679,0.016576592,-0.012334948,-0.004612756,0.43068826,-1.4353551,1.968481,-2.1009548,-1.5723933,2.4082277,-0.11712739,0.25418165,-0.29911453,0.06289592,-0.010577357,-0.11229975,-0.095768064,0.0,-9.270349,0.83589023,47.71017,-0.9889855,-1.8863479,-3.4191513,-0.17873178,-0.23921129,-0.17967376,26.25,27.1875,26.25,29.375,30.5625,31.0625
0.29205176,-0.089178756,-0.18913525,-1.3679855,0.01585918,0.02191541,-0.12512197,-0.39333835,-0.32775417,0.059935085,-3.0756078,0.62847054,-0.00028932173,-0.13980448,0.0038736293,-0.0014487831,0.018279912,-0.013979432,-0.0049766973,0.4304598,-1.4348279,1.967883,-2.1007864,-1.57243,2.4080234,-0.118409716,0.25449803,-0.2993189,0.06498436,-0.011451332,-0.11321502,-0.11492168,0.095768064,-9.308656,0.9186956,47.711063,-1.0015912,-1.9378145,-3.405528,-0.21669215,-0.23225868,-0.106669664,26.25,27.1875,26.25,29.375,30.5625,31.0625
0.29405266,-0.91432613,-1.0133308,-1.1886339,-0.0039566765,0.037108723,-0.11848518,-0.39359298,-0.3277456,0.05990406,-3.0755477,0.62841964,-0.0003774373,-0.14017598,0.004471423,-0.002040537,0.019576922,-0.016641743,-0.0058305874,0.43024334,-1.4343007,1.9673327,-2.1006777,-1.5724539,2.4077833,-0.119667545,0.2567941,-0.3012865,0.06761115,-0.011532756,-0.11361719,-0.30645782,0.095768064,-9.346964,0.81351066,47.692257,-0.9659635,-2.0015817,-3.4957485,-0.2755553,-0.24078967,-0.09024021,26.25,27.1875,26.25,29.375,30.5625,31.0625
0.29605243,-1.160867,-1.304272,-1.2437402,-0.026231349,0.06215659,-0.123325504,-0.39388397,-0.32774323,0.059922352,-3.075489,0.6284288,-0.00040518708,-0.14190009,0.0037923837,-0.0015296345,0.018650848,-0.012965233,-0.009536358,0.4300155,-1.4337851,1.9666613,-2.100475,-1.5724896,2.4075692,-0.11930618,0.25811115,-0.30340666,0.06469031,-0.012238642,-0.109545566,-0.3256114,0.11492168,-9.308657,0.88289046,47.70032,-0.9547149,-1.9598017,-3.459794,-0.27456766,-0.25590345,-0.10218984,26.25,27.1875,26.25,29.375,30.5625,31.0625
0.29805243,-1.8114358,-1.5813673,-1.4058636,-0.026294751,0.07486125,-0.1113789,-0.3941446,-0.3277039,0.059880115,-3.0753746,0.6285432,-0.0005350552,-0.14381696,0.004463048,-0.0006563037,0.01710872,-0.010519354,-0.015582847,0.42973828,-1.4332579,1.966134,-2.1003559,-1.5725139,2.4073784,-0.122280605,0.25762957,-0.30475459,0.063652664,-0.011873937,-0.10647269,-0.47884035,-0.019153614,-9.461885,0.85826975,47.666286,-0.78633654,-1.949761,-3.3783202,-0.2970736,-0.23555991,-0.13911271,26.25,27.1875,26.25,29.375,30.5625,31.0625
0.3000522,-1.7900283,-1.3576539,-1.6137837,-0.030430837,0.09552715,-0.11682612,-0.39444512,-0.32774955,0.0599207,-3.0754223,0.62853307,-0.00047491185,-0.14273582,0.0033524767,-0.0010328483,0.017378543,-0.012023861,-0.016865954,0.42955965,-1.4327549,1.9654411,-2.1002238,-1.572502,2.4071877,-0.11947635,0.25864458,-0.30542403,0.064793125,-0.01148113,-0.102387264,-0.59376204,0.038307227,-9.672575,0.800085,47.7254,-1.0475819,-1.85725,-3.5749578,-0.3137969,-0.26422215,-0.17118296,26.25,27.1875,26.25,29.375,30.5625,31.0625
0.3020519,-2.3052337,-1.5360383,-1.7422007,-0.018826358,0.096007235,-0.11865586,-0.39472792,-0.32773575,0.05989455,-3.075357,0.6285792,-0.0005965858,-0.1454301,0.0031674602,-0.000544355,0.015354806,-0.007325752,-0.021546345,0.42929503,-1.4321916,1.9648303,-2.1000817,-1.572502,2.4069607,-0.12120121,0.26004535,-0.30719274,0.060050342,-0.01162026,-0.099428326,-0.5554548,0.1340753,-9.615114,0.7911258,47.699425,-0.9001361,-1.8229349,-3.6037753,-0.29027814,-0.30457795,-0.21018137,26.25,27.1875,26.25,29.375,30.5625,31.0625
0.3040518,-1.7410098,-1.3931086,-1.7548382,-0.023362909,0.12685698,-0.12420337,-0.39501002,-0.32770705,0.059876714,-3.0752652,0.62858063,-0.00063288264,-0.1471184,0.0021905217,0.0002615808,0.013673514,-0.0031909372,-0.024196517,0.4290432,-1.431664,1.9642433,-2.099951,-1.5725621,2.406722,-0.12058275,0.26082584,-0.30935377,0.056969993,-0.011827243,-0.09615655,-0.57460845,0.038307227,-9.710882,0.9835985,47.707485,-1.0705638,-1.6952136,-3.622907,-0.2516543,-0.29027063,-0.28268737,26.25,27.1875,26.25,29.375,30.5625,31.0625
0.30605164,-2.1008618,-1.2926304,-1.8821657,-0.02129178,0.11483187,-0.12565522,-0.39531618,-0.32771268,0.059879903,-3.07524,0.6287308,-0.0005940915,-0.14935979,0.0026563685,3.5353496e-05,0.013607458,-0.0017644098,-0.028376706,0.4288028,-1.4311361,1.963621,-2.09988,-1.572574,2.406579,-0.12284955,0.2637093,-0.3118504,0.05526038,-0.012365813,-0.09423977,-0.59376204,0.038307227,-9.615114,0.8717007,47.70838,-1.0388448,-1.6388706,-3.580616,-0.24520518,-0.29509598,-0.32300276,26.25,27.1875,26.25,29.375,30.5625,31.0625
0.3080525,-2.1976352,-1.1859989,-1.9437392,-0.020188209,0.1013291,-0.11596398,-0.39561078,-0.32768917,0.059853442,-3.0751336,0.6287663,-0.0006466169,-0.15121447,0.0025251494,0.00062062615,0.012602054,0.0016355203,-0.030737307,0.42855042,-1.4305606,1.9629987,-2.0997493,-1.5726341,2.406363,-0.12371067,0.26444834,-0.3136065,0.052763615,-0.012880512,-0.09273625,-0.7278373,0.038307227,-9.691729,0.79560274,47.685097,-0.9770665,-1.716827,-3.6223593,-0.21104832,-0.3066995,-0.36031008,26.25,27.1875,26.25,29.375,30.5625,31.0625
0.3100524,-1.858435,-1.3039734,-1.905429,-0.026158972,0.104096144,-0.125504,-0.39592102,-0.32768497,0.059873793,-3.075137,0.62894154,-0.0005999026,-0.15288742,0.0024951824,0.00015385737,0.012204796,0.002403313,-0.032925982,0.42827356,-1.4300804,1.9623879,-2.0996659,-1.5726222,2.4061954,-0.12495326,0.26754,-0.31576154,0.050963186,-0.012841663,-0.091789186,-0.7278373,0.15322891,-9.730036,0.85155696,47.695843,-0.87668,-1.7930684,-3.683503,-0.17914285,-0.30587927,-0.40852338,26.25,27.1875,26.25,29.375,30.5625,31.0625
0.31205243,-1.8862903,-1.4088789,-2.1575325,-0.031486638,0.089740545,-0.12229787,-0.39622512,-0.32769778,0.059869006,-3.0750928,0.62899166,-0.00061075645,-0.15498434,0.0037963346,-0.00014643972,0.012752811,0.0033751128,-0.03753866,0.42805684,-1.4295049,1.961718,-2.0995467,-1.5726465,2.406016,-0.12837915,0.2695127,-0.31718817,0.04976149,-0.013750112,-0.09059797,-0.6512228,0.21068975,-9.844957,0.9365982,47.667187,-0.9752833,-1.8343501,-3.7320385,-0.14784831,-0.30245873,-0.45949203,26.25,27.1875,26.25,29.375,30.5625,31.0625
0.31405208,-1.455589,-1.309284,-1.9245393,-0.044856247,0.09474923,-0.12442771,-0.3965526,-0.3276893,0.05988315,-3.0750449,0.62905604,-0.0005273494,-0.15589388,0.002720624,-0.0005214277,0.013391654,0.0034337356,-0.03484588,0.42780542,-1.4289647,1.9610475,-2.0994394,-1.572707,2.4058115,-0.12664019,0.273406,-0.32089615,0.04977945,-0.0143640395,-0.0915478,-0.59376204,0.22984336,-9.749189,0.86945957,47.689575,-0.83673775,-1.8337386,-3.7025852,-0.12615994,-0.33130246,-0.48657098,26.25,27.1875,26.25,29.375,30.5625,31.0625
0.31605187,-2.1565309,-1.9062434,-2.0338042,-0.042269543,0.07559724,-0.1124392,-0.39686865,-0.3276725,0.059872445,-3.0749834,0.62927294,-0.0005356286,-0.15668692,0.0032190636,-0.0014323172,0.01492023,0.002214891,-0.032436814,0.42751703,-1.4284123,1.9604248,-2.0993555,-1.572719,2.4056668,-0.12749,0.27645662,-0.3224859,0.050052907,-0.015260957,-0.09480249,-0.51714754,0.2681506,-9.730036,0.94331104,47.682407,-0.91196847,-2.1065836,-3.6807475,-0.09394799,-0.31109554,-0.4924255,26.25,27.1875,26.25,29.375,30.5625,31.0625
0.31805262,-1.6690152,-2.259682,-2.0243666,-0.047665294,0.09394135,-0.12247906,-0.3971868,-0.32766348,0.05987891,-3.0749404,0.6292607,-0.0005078318,-0.15844266,0.002752312,0.00022235693,0.013613904,0.0046165837,-0.027111981,0.42726496,-1.4278615,1.9597534,-2.0992234,-1.5727671,2.4054132,-0.12808509,0.2764554,-0.3267605,0.051580008,-0.015086934,-0.10072134,-0.32561144,0.24899697,-9.825804,0.9634547,47.713753,-0.95825016,-2.020465,-3.6553028,-0.08865162,-0.3098241,-0.4801752,26.25,27.1875,26.25,29.375,30.5625,31.0625
0.32005244,-1.6643347,-2.1583202,-1.6169844,-0.07032527,0.09371484,-0.1201209,-0.39751884,-0.32766286,0.05989818,-3.074906,0.6294398,-0.00044354956,-0.15909766,0.0024614083,0.0004906455,0.013560161,0.005131625,-0.019177262,0.427001,-1.4273221,1.959071,-2.0991151,-1.572791,2.4052658,-0.1278411,0.27743903,-0.3287441,0.05206664,-0.0152664045,-0.10841126,-0.19153613,0.30645782,-9.672575,0.84708,47.703007,-0.9852183,-1.9135405,-3.6868176,-0.06572132,-0.30532676,-0.39371157,26.25,27.1875,26.25,29.375,30.5625,31.0625
0.32205233,-1.213537,-2.2463143,-1.6375476,-0.048522837,0.07834026,-0.11477378,-0.39786318,-0.32763064,0.059888624,-3.0748577,0.6294256,-0.00036493092,-0.16050933,0.0021843032,0.0015789634,0.012153074,0.007041418,-0.012172982,0.4267008,-1.426747,1.9584244,-2.099055,-1.572863,2.4049635,-0.12866816,0.27747947,-0.33151856,0.052448243,-0.014795273,-0.11624344,-0.22984336,0.3256114,-9.519346,0.8314132,47.67345,-0.9728834,-1.9567242,-3.603706,-0.03496328,-0.32392442,-0.3480679,26.25,27.1875,26.25,29.375,30.5625,31.0625
0.3240521,-0.58871746,-1.6156273,-1.7269192,-0.04003537,0.046848852,-0.12302588,-0.3981736,-0.32763287,0.059893258,-3.074835,0.62947625,-0.00033135843,-0.16052891,0.0022139775,0.002450616,0.012142231,0.0069294,-0.00638538,0.4264608,-1.4262084,1.9577783,-2.0989583,-1.5728868,2.4047585,-0.12863553,0.27640715,-0.3330364,0.05511654,-0.014745782,-0.121999025,-0.076614454,0.3256114,-9.615114,0.9254084,47.68599,-1.0000502,-1.6859691,-3.6086206,-0.033556357,-0.31704038,-0.23434901,26.25,27.1875,26.25,29.375,30.5625,31.0625
0.32605198,-0.510825,-1.601102,-1.7476065,-0.03290184,0.01874524,-0.1178559,-0.39848796,-0.327632,0.05989141,-3.074836,0.6294736,-0.00033479635,-0.16130172,0.0026341728,0.0019799343,0.012554973,0.0070293117,-0.0034923584,0.42619658,-1.4256567,1.9571322,-2.098863,-1.5728868,2.4044929,-0.12962739,0.27790534,-0.3336194,0.05427013,-0.015173467,-0.12588209,0.019153614,0.21068975,-9.576807,0.95226496,47.66539,-0.9774438,-1.5989759,-3.6390383,-0.031625923,-0.34722364,-0.17907357,26.25,27.1875,26.25,29.375,30.5625,31.0625
0.3280518,-0.06526241,-1.1574391,-1.5302274,-0.032292064,9.5926425e-06,-0.116291076,-0.39886957,-0.32761443,0.05990645,-3.0747917,0.6295202,-0.0001564583,-0.16252728,0.0022345998,0.0021145332,0.012436974,0.008163827,-0.001707225,0.42590874,-1.4250575,1.9564012,-2.0988033,-1.5729831,2.4042404,-0.12952313,0.27991745,-0.33627334,0.053811308,-0.015535244,-0.12756148,0.038307227,0.24899697,-9.404425,0.9567419,47.658226,-1.0039318,-1.6291695,-3.6332908,0.03517222,-0.33826643,-0.13043854,26.25,27.1875,26.25,29.375,30.5625,31.0625
0.33005163,0.4391513,-1.0225524,-1.5344683,-0.01702216,0.00043850264,-0.118074104,-0.3991837,-0.32761687,0.059911493,-3.0747793,0.62959653,-0.00018557013,-0.16571574,0.0025661036,0.003988344,0.011389236,0.012084023,-0.0064870412,0.4256436,-1.4245057,1.9557303,-2.0986717,-1.5729712,2.4040248,-0.13220048,0.2804327,-0.34143952,0.054464407,-0.01620645,-0.12545435,0.0,0.2681506,-9.3661175,0.93436235,47.694946,-0.9983034,-1.7378881,-3.6691685,0.06319858,-0.322601,-0.13649677,26.25,27.1875,26.25,29.375,30.5625,31.0625
0.3320526,0.6432056,-0.4603924,-1.488768,-0.0034952508,-0.002414105,-0.11937933,-0.39955106,-0.3276234,0.05993964,-3.0747988,0.62962353,-1.0223282e-05,-0.16503727,0.0014205885,0.0029260998,0.012526223,0.007320487,-0.0120467795,0.42538062,-1.423942,1.9550112,-2.0986216,-1.5730189,2.4037766,-0.130018,0.28491616,-0.34520584,0.058560878,-0.0152465915,-0.117715456,0.076614454,0.11492168,-9.346964,1.0149267,47.691364,-1.0512321,-1.7045801,-3.5053096,0.06541163,-0.3284517,-0.1694661,26.25,27.1875,26.25,29.375,30.5625,31.0625
0.33405238,1.0118455,-0.39874464,-1.6184304,0.016139118,-0.0020591735,-0.12132146,-0.39984956,-0.32762706,0.05992963,-3.0747602,0.6296372,-9.0240734e-05,-0.16712113,0.0028010623,0.0024469357,0.013095593,0.0061323326,-0.01959312,0.42513898,-1.4233657,1.9543408,-2.0984662,-1.5730189,2.403549,-0.1341069,0.28799102,-0.3480175,0.05962004,-0.015279497,-0.114255644,0.22984336,0.19153613,-9.346964,0.87393653,47.666286,-0.79133624,-1.9120824,-3.390133,0.056231894,-0.3469487,-0.23440453,26.25,27.1875,26.25,29.375,30.5625,31.0625
0.33605227,0.14455661,-0.7597738,-1.322048,0.003909253,0.0019009699,-0.11340914,-0.40021333,-0.32762876,0.05996929,-3.0747595,0.6297742,5.844277e-05,-0.16820408,0.0023736556,0.0031433145,0.012548497,0.0058696833,-0.024967423,0.42486313,-1.4228247,1.9536103,-2.0983694,-1.5730547,2.4033592,-0.13446966,0.28953993,-0.35210386,0.062173355,-0.014656441,-0.10924603,0.05746084,0.22984336,-9.289502,0.90750587,47.639416,-0.9079186,-1.8839033,-3.456348,0.07531235,-0.36101705,-0.28952363,26.25,27.1875,26.25,29.375,30.5625,31.0625
0.33805206,-0.23821968,-1.1453102,-1.6026388,0.0043134214,0.010904228,-0.11393492,-0.40050027,-0.32761645,0.05994079,-3.0746896,0.62974125,-7.451465e-05,-0.16727743,0.0038624348,0.0018423009,0.015669562,0.0004135589,-0.026938835,0.42461058,-1.422236,1.9529642,-2.0982,-1.5730671,2.4030955,-0.1358889,0.29122704,-0.35229787,0.06693646,-0.0152533315,-0.108691186,0.038307227,0.24899697,-9.251195,0.9030289,47.694946,-0.84079325,-1.7941175,-3.454074,0.05756792,-0.36320406,-0.3034422,26.25,27.1875,26.25,29.375,30.5625,31.0625
0.34005183,-0.27222076,-1.0843499,-1.6277438,-0.012725119,0.028320752,-0.117116556,-0.4008418,-0.32760605,0.059968866,-3.0746305,0.62988013,1.5212989e-05,-0.16402905,0.004312667,-0.0005697549,0.019202294,-0.008323518,-0.024912575,0.42434722,-1.4216946,1.952248,-2.0980542,-1.5731267,2.402927,-0.13412546,0.2934317,-0.3507268,0.07256519,-0.014858097,-0.108957596,0.095768064,0.30645782,-9.404425,0.8090337,47.72092,-0.8799824,-1.8802392,-3.6138706,0.001995151,-0.39446604,-0.3306055,26.25,27.1875,26.25,29.375,30.5625,31.0625
0.34205174,-0.59056276,-1.6767436,-1.4481304,-0.04106929,0.03639032,-0.110613234,-0.40117133,-0.32760614,0.059965506,-3.0745811,0.62992877,-3.8271843e-05,-0.16416587,0.005383119,-0.000506992,0.021528421,-0.010495498,-0.026523545,0.42408282,-1.4210819,1.9515165,-2.0978858,-1.5731395,2.4026997,-0.13524032,0.29402244,-0.35268894,0.076874085,-0.01608741,-0.108456776,0.05746084,0.3256114,-9.404425,0.90750587,47.709274,-0.81858253,-1.7721338,-3.7714515,-0.04263668,-0.37164032,-0.34562916,26.25,27.1875,26.25,29.375,30.5625,31.0625
0.3440517,-1.1729658,-2.355407,-1.3627299,-0.051668286,0.029838465,-0.113244556,-0.40151295,-0.32757726,0.059981298,-3.0745149,0.63006794,-2.7147906e-05,-0.1639461,0.005620174,0.00039661993,0.021895744,-0.012023692,-0.026695378,0.42377093,-1.4205295,1.9508098,-2.097716,-1.5731753,2.4024837,-0.1355172,0.29302394,-0.35481995,0.081537805,-0.01579537,-0.10856289,-0.076614454,0.3256114,-9.3661175,0.8605109,47.650166,-1.0872144,-1.7207003,-3.7298226,-0.09534696,-0.38021836,-0.36145365,26.25,27.1875,26.25,29.375,30.5625,31.0625
0.3460519,-0.8880796,-2.0767474,-1.6995984,-0.049353607,0.027958857,-0.108667545,-0.40180936,-0.32756752,0.05997403,-3.0744417,0.630069,-9.059961e-05,-0.1638559,0.005242521,0.000918406,0.022916796,-0.013183082,-0.02337812,0.4235314,-1.4199651,1.9501394,-2.0975358,-1.5732111,2.4022548,-0.13432053,0.29369983,-0.35779247,0.08529986,-0.016264504,-0.1106802,-0.22984336,0.38307226,-9.385271,0.93436235,47.678825,-1.032939,-1.551455,-3.738434,-0.15764366,-0.37535453,-0.3726912,26.25,27.1875,26.25,29.375,30.5625,31.0625
0.34805197,-1.2507247,-2.3344414,-1.7615447,-0.019710027,0.030685758,-0.10469411,-0.40215912,-0.32756078,0.05997931,-3.0744145,0.63011914,-0.0001298166,-0.16524735,0.005772357,0.0018673923,0.023434654,-0.012956041,-0.020260273,0.42323083,-1.4193519,1.9493865,-2.097367,-1.5732116,2.4019895,-0.13588865,0.29430273,-0.36152738,0.08842294,-0.01684982,-0.11536272,-0.17238252,0.3256114,-9.423578,1.0149267,47.68599,-0.99567497,-1.466299,-3.7154388,-0.21025476,-0.38317233,-0.33901453,26.25,27.1875,26.25,29.375,30.5625,31.0625
0.3500521,-0.9006338,-1.8305075,-1.8155254,-0.009765213,0.03516619,-0.118064076,-0.40247533,-0.32757908,0.060002055,-3.0743723,0.6301452,-0.000116666815,-0.1668224,0.005423433,0.002231422,0.023078848,-0.012916505,-0.0156757,0.4230265,-1.4187862,1.9486426,-2.097175,-1.5732473,2.4018073,-0.13660455,0.29694173,-0.36588186,0.08993402,-0.016564151,-0.12066205,-0.038307227,0.24899697,-9.461885,1.0194036,47.70032,-1.0355254,-1.5187151,-3.4496236,-0.26155102,-0.37096182,-0.2832418,26.25,27.1875,26.25,29.375,30.5625,31.0625
0.35205218,-0.7421237,-1.4184632,-1.6657684,-0.022341784,0.04878894,-0.11506846,-0.4028313,-0.32757947,0.06001331,-3.0743668,0.6301416,-6.959707e-05,-0.16876233,0.006155421,0.000773055,0.0247388,-0.014599905,-0.011473312,0.42274982,-1.4181844,1.9478997,-2.0970552,-1.5732716,2.4015296,-0.1388226,0.3026296,-0.3691985,0.08975792,-0.017410934,-0.12707776,-0.15322891,0.2873042,-9.461885,0.90750587,47.694946,-0.96123034,-1.6115041,-3.3319325,-0.30710685,-0.37649134,-0.21125509,26.25,27.1875,26.25,29.375,30.5625,31.0625
0.35405228,-1.0103242,-1.3230587,-1.4224613,-0.03028401,0.06733477,-0.11452603,-0.40317672,-0.3275476,0.06002539,-3.0742543,0.63020945,-6.071623e-05,-0.16921234,0.005977272,-0.0003083083,0.024252504,-0.015269564,-0.0053695105,0.42246178,-1.4175944,1.9471468,-2.0968406,-1.5733551,2.401299,-0.13915391,0.30518675,-0.3693737,0.087751985,-0.016724242,-0.13351396,-0.5554548,0.3256114,-9.385271,0.9365982,47.711964,-0.9265883,-1.6629126,-3.5299678,-0.31664962,-0.3986576,-0.12050915,26.25,27.1875,26.25,29.375,30.5625,31.0625
0.35605228,-1.3696243,-1.5709411,-1.3944465,-0.03482323,0.09759228,-0.12552808,-0.403518,-0.32754728,0.06003217,-3.0742576,0.6301733,-0.00010496489,-0.17148355,0.006058671,0.00020174895,0.023414182,-0.011269092,-0.007197403,0.4221734,-1.4169936,1.9464039,-2.0966742,-1.5733436,2.400988,-0.14042366,0.30627352,-0.37122753,0.084528215,-0.017619241,-0.13295095,-0.26815057,0.15322891,-9.461885,0.9365982,47.711063,-0.8834131,-1.7113006,-3.6783676,-0.31431603,-0.39585575,-0.09017706,26.25,27.1875,26.25,29.375,30.5625,31.0625
0.3580524,-2.263257,-2.1159227,-1.4165338,-0.035614688,0.08815032,-0.11379463,-0.4038425,-0.3275421,0.060034618,-3.0742016,0.6301237,-0.00015342144,-0.17186707,0.0062155295,-0.0013420394,0.02386494,-0.013166487,-0.00877997,0.42192104,-1.4163924,1.9456619,-2.096471,-1.5733799,2.4007125,-0.14110027,0.30976412,-0.37160954,0.083327554,-0.01726854,-0.1320446,-0.21068975,0.095768064,-9.615114,0.8493211,47.68062,-0.9321399,-1.6645895,-3.6730087,-0.313383,-0.38861355,-0.04437852,26.25,27.1875,26.25,29.375,30.5625,31.0625
0.36005217,-2.5704448,-2.2225938,-0.8714844,-0.062136617,0.101377286,-0.10084885,-0.4042107,-0.32753843,0.060049295,-3.074211,0.6302061,-7.050133e-05,-0.17490192,0.006260548,-0.000779108,0.021238731,-0.007207099,-0.015511822,0.4216203,-1.4158031,1.9449328,-2.09639,-1.5733918,2.4004624,-0.14345726,0.3105621,-0.37254387,0.076957636,-0.01731779,-0.12766919,-0.59376204,0.22984336,-9.251195,0.95897776,47.64927,-0.926733,-1.711515,-3.7562218,-0.2798273,-0.4002068,-0.08333138,26.25,27.1875,26.25,29.375,30.5625,31.0625
0.36205208,-1.5330398,-1.3445919,-0.9644134,-0.051601365,0.12155733,-0.11320547,-0.40455326,-0.3274984,0.060036045,-3.0740821,0.6302557,-0.00010201969,-0.17777333,0.0035446002,0.001288497,0.01873143,0.0023314068,-0.016561165,0.42132175,-1.4151781,1.9442018,-2.0962002,-1.5734762,2.400212,-0.13966198,0.31149837,-0.3771546,0.07090663,-0.018959612,-0.12281414,-0.61291564,0.15322891,-9.11712,0.99702406,47.66808,-1.0807434,-1.5780373,-3.7060146,-0.20428872,-0.39286974,-0.1222911,26.25,27.1875,26.25,29.375,30.5625,31.0625
0.3640519,-1.7038509,-1.1568446,-1.4653252,-0.006241937,0.09189485,-0.11184388,-0.40493014,-0.32752925,0.06007377,-3.0741284,0.6303072,1.4100525e-05,-0.17989448,0.003498935,0.0014493429,0.018693293,0.0036082724,-0.023884097,0.4210694,-1.4145762,1.9433988,-2.0960925,-1.5734762,2.3999863,-0.14083712,0.31451645,-0.3811178,0.07068575,-0.019433267,-0.11666436,-0.40222588,0.095768064,-9.3661175,0.9321212,47.699425,-0.9368092,-1.6429002,-3.6116996,-0.1806578,-0.38652134,-0.17002134,26.25,27.1875,26.25,29.375,30.5625,31.0625
0.36605167,-0.9189759,-0.7649875,-1.4015174,-0.0052832547,0.087839596,-0.11629205,-0.40529948,-0.32751086,0.060078297,-3.0740454,0.63038695,6.162415e-05,-0.18280171,0.0028676018,0.002339155,0.017117672,0.009203832,-0.026927426,0.42078114,-1.4139395,1.9426211,-2.0959384,-1.5735487,2.399759,-0.1413362,0.31622538,-0.38434458,0.06644951,-0.020295119,-0.11411469,-0.68953013,0.24899697,-9.3661175,0.9321212,47.677036,-1.1340944,-1.6168851,-3.5848289,-0.11724034,-0.39153606,-0.22782075,26.25,27.1875,26.25,29.375,30.5625,31.0625
0.36805162,-1.5578445,-1.64078,-1.2932189,-0.012376229,0.07508093,-0.109628364,-0.40564704,-0.3275063,0.060062964,-3.0739815,0.63049173,3.273698e-05,-0.18403354,0.002871292,0.0023151997,0.017751329,0.010524279,-0.03295025,0.4205053,-1.41329,1.9418787,-2.0958068,-1.5735735,2.3995574,-0.14146082,0.31809875,-0.3864889,0.065787196,-0.02141056,-0.1082107,-0.7852981,0.30645782,-9.32781,0.8560339,47.69763,-1.1717948,-1.5408182,-3.584661,-0.074291915,-0.3571682,-0.29975563,26.25,27.1875,26.25,29.375,30.5625,31.0625
0.37005243,-1.4537307,-1.8369045,-1.211802,-0.028908469,0.0887135,-0.11327555,-0.4060031,-0.3274931,0.06007139,-3.0739214,0.630574,9.552348e-05,-0.18380944,0.0027317384,0.0018913781,0.018742127,0.008985744,-0.03220186,0.42022964,-1.412689,1.9411372,-2.0956748,-1.5736331,2.3993413,-0.14068069,0.31957623,-0.38776085,0.06737969,-0.021685025,-0.10817802,-0.7086837,0.38307226,-9.3661175,0.9455522,47.698532,-1.2073796,-1.4455874,-3.6109934,-0.059646025,-0.36080718,-0.35012507,26.25,27.1875,26.25,29.375,30.5625,31.0625
0.37205246,-1.8435712,-2.2163258,-1.409783,-0.04093899,0.08962049,-0.10353295,-0.40637895,-0.32749993,0.06009071,-3.0738907,0.63068724,0.00014105877,-0.18491934,0.004570137,0.0014437336,0.020208232,0.0070800586,-0.040032703,0.41995206,-1.4120518,1.9403232,-2.0955179,-1.5736579,2.399139,-0.14437373,0.3209918,-0.3890629,0.0696103,-0.022233674,-0.10403866,-0.7086837,0.30645782,-9.385271,0.92764956,47.67345,-0.9524486,-1.5589482,-3.721609,-0.06011164,-0.35150933,-0.42330855,26.25,27.1875,26.25,29.375,30.5625,31.0625
0.37405246,-1.4669055,-2.248028,-1.3995184,-0.055406522,0.10393162,-0.115793124,-0.40676358,-0.3274749,0.060093183,-3.07382,0.63080555,0.0002291721,-0.18463063,0.0059635397,-0.0007714861,0.023312295,0.0019355444,-0.04079767,0.41964015,-1.411414,1.9395579,-2.09541,-1.5737294,2.3989105,-0.14599814,0.32497263,-0.38927776,0.07179326,-0.022968143,-0.10489605,-0.51714754,0.2681506,-9.442732,0.97240865,47.687782,-1.1090127,-1.5404899,-3.8305805,-0.03970369,-0.33504936,-0.48453075,26.25,27.1875,26.25,29.375,30.5625,31.0625
