Tylouw/Master_Thesis_Code/training_data/batch_1/big_rod_t0.2/sample_34_session_1.csv
timestamp[s],tcp_force_x[N],tcp_force_y[N],tcp_force_z[N],tcp_force_rx[Nm?],tcp_force_ry[Nm?],tcp_force_rz[Nm?],tcp_pose_x[m],tcp_pose_y[m],tcp_pose_z[m],tcp_pose_rx[rot_vec_x],tcp_pose_ry[rot_vec_y],tcp_pose_rz[rot_vec_z],tcp_velo_x[m/s],tcp_velo_y[m/s],tcp_velo_z[m/s],tcp_velo_rx[rot_vec_x/s],tcp_velo_ry[rot_vec_y/s],tcp_velo_rz[rot_vec_z/s],q1[rad],q2[rad],q3[rad],q4[rad],q5[rad],q6[rad],qd1[rad/s],qd2[rad/s],qd3[rad/s],qd4[rad/s],qd5[rad/s],qd6[rad/s],tool_acc_x,tool_acc_y,tool_acc_z,current_of_whole_robot[A],voltage_of_whole_robot[V],current_J1[A],current_J2[A],current_J3[A],current_J4[A],current_J5[A],current_J6[A],temp_J1[C],temp_J2[C],temp_J3[C],temp_J4[C],temp_J5[C],temp_J6[C]
6.07979e-07,-0.513632,-1.2711757,-0.15193793,-0.03515462,0.030538013,0.003649364,-0.3729037,-0.32819933,0.059938934,-3.0784495,0.6248401,-0.00023506326,0.0020772556,0.0010165569,-0.003388751,0.002921977,-0.0063684043,-0.00011575914,0.44812617,-1.4708492,2.0095732,-2.1077034,-1.5707096,2.4230313,-0.000113769296,0.0034654515,0.0040950524,-0.00055535696,0.00013324292,-0.0,0.05746084,0.21068975,-8.983045,0.7418897,47.692257,-0.14705935,-2.813599,-2.4645457,-0.50984234,0.07111113,-0.06593439,26.4375,27.3125,26.375,29.5625,30.8125,31.3125
0.002052431,-0.65843296,-0.7433497,-0.14205362,-0.030729495,0.023621764,0.0058536716,-0.3728956,-0.32821035,0.059935585,-3.0784745,0.62482595,-0.0002522066,-0.00038281427,-0.00017312505,-0.0025205233,-0.0008130955,0.0013639826,-0.0001112917,0.4481382,-1.4708493,2.0095847,-2.1077192,-1.5706857,2.4230313,-0.000111751215,0.003329677,0.004208682,-0.009120443,0.00013003444,-0.0,0.0,0.22984336,-8.810662,0.8247004,47.672558,-0.21502426,-2.795703,-2.3000422,-0.46002445,0.0747443,-0.06054861,26.4375,27.3125,26.375,29.5625,30.8125,31.3125
0.004052159,-0.45401967,-0.9275602,-0.24009933,-0.01609598,0.024458652,0.0046576103,-0.37287408,-0.32820418,0.059903838,-3.078424,0.62479615,-0.00030470133,-0.0013020906,-0.000617819,-0.0021893592,-0.0020618904,0.0039526527,-0.00010834496,0.4481623,-1.4708135,2.009621,-2.107731,-1.5707096,2.4230433,-0.00010980348,0.0034685873,0.0039186613,-0.011843474,0.00012697648,-0.0,0.0,0.1340753,-8.868123,0.7217513,47.67166,-0.18371123,-3.063419,-2.576684,-0.3688082,0.0885496,-0.054467533,26.4375,27.3125,26.375,29.5625,30.8125,31.3125
0.006052257,-0.5166738,-0.06749725,-0.2586576,-0.014931956,0.00135931,0.0022382876,-0.37286237,-0.32820734,0.05989406,-3.0784378,0.6248958,-0.00039184108,-0.0005885991,-0.00027238321,-0.0015865313,-0.001045932,0.0018652325,-0.00010734871,0.4481382,-1.4708139,2.0096433,-2.1077292,-1.5706495,2.4230795,-0.00010792271,0.0022688939,0.002791278,-0.007194872,0.00012405927,-0.0,0.038307227,0.13407528,-9.021352,0.7351769,47.699425,-0.19163758,-3.0057833,-2.524994,-0.39687335,0.08922413,-0.052684717,26.4375,27.3125,26.375,29.5625,30.8125,31.3125
0.0080522355,-0.19390255,0.03757419,-0.7700227,0.021459606,-0.014947365,0.0033110008,-0.3728811,-0.32819697,0.05989851,-3.0784159,0.6248914,-0.00034408135,-0.00023068515,-0.00010592801,-0.001147927,-0.00047541832,0.0006523316,-0.000105973995,0.44812617,-1.4708021,2.00962,-2.1077282,-1.5706857,2.4230676,-0.00010610507,0.0015961151,0.0018489611,-0.004239497,0.00014013512,-0.0,-0.05746084,0.17238252,-9.040505,0.7284641,47.699425,-0.17578647,-2.925826,-2.4724011,-0.42820078,0.085345566,-0.050189663,26.4375,27.3125,26.375,29.5625,30.8125,31.3125
0.010052311,0.22671638,0.46605232,-0.9485259,0.020305123,-0.009793131,-0.0050239447,-0.3728754,-0.32821366,0.059899688,-3.0784547,0.6248801,-0.0003642051,0.00018381368,0.000101276855,-0.0010049127,0.00024107569,-0.00082360615,-0.00011779009,0.4481382,-1.4708022,2.00962,-2.1077397,-1.5706495,2.4230676,-0.00011751336,0.0013379477,0.0012294297,-0.0017211427,0.00013828943,-0.0,-0.038307227,0.1340753,-9.251195,0.7329411,47.709274,-0.6277153,-2.339757,-2.9749224,-0.48138103,0.086989895,-0.11825049,26.4375,27.3125,26.375,29.5625,30.8125,31.3125
0.012052237,-0.11589583,-0.041729275,-1.3120478,-0.004329379,0.00605543,-0.0046733636,-0.3728786,-0.3282045,0.05990367,-3.0784445,0.6248782,-0.00035464295,0.0002025743,0.00015458048,-0.0031885423,0.0024676176,-0.005451493,-0.00019620542,0.44812614,-1.4708127,2.0096195,-2.1077273,-1.5706614,2.4230556,-0.0002030911,0.0071705915,-0.0003656714,-0.00082303333,0.00013539764,-5.535521e-06,0.038307227,0.11492168,-9.423578,0.7038487,47.68599,-0.7414726,-2.2181604,-3.1673656,-0.48693824,0.095098116,-0.16260305,26.4375,27.3125,26.375,29.5625,30.8125,31.3125
0.014052193,-0.43975124,-1.0010179,-1.4070346,-0.034159586,0.03501528,-0.011788265,-0.37286398,-0.3281998,0.05987985,-3.07839,0.6248679,-0.00040651433,-0.005363721,0.0022511573,-0.004121773,0.0031201465,-0.006874012,-0.004302241,0.44814706,-1.4707731,2.009628,-2.1077154,-1.5706857,2.423077,-0.009226826,0.015803203,-0.007769777,-0.0004877038,0.00014659991,-0.0049175383,0.019153614,0.15322891,-9.557653,0.7777002,47.68062,-0.41827697,-2.860645,-2.950483,-0.5059145,0.10459137,-0.16966894,26.4375,27.3125,26.375,29.5625,30.8125,31.3125
0.016052123,-1.3713645,-1.9186794,-1.5209128,-0.06040051,0.050462224,-0.006986031,-0.37288505,-0.32819086,0.059884496,-3.0783966,0.62490606,-0.00047138927,-0.0061373417,0.0026616734,-0.003688066,0.0026860032,-0.0060459096,-0.00022794005,0.4480865,-1.4707494,2.0095804,-2.1076672,-1.5706495,2.4230394,-0.01072115,0.015383439,-0.008309753,-0.0004631252,0.00017474132,-0.010485972,-0.2873042,0.22984336,-9.710882,0.7553206,47.682407,-0.40852508,-2.7129936,-3.011384,-0.5106963,0.13121465,-0.13549162,26.4375,27.3125,26.375,29.5625,30.8125,31.3125
0.018052025,-1.6789293,-2.1903875,-1.3506439,-0.08521243,0.09321874,-0.01957781,-0.37284157,-0.3281998,0.05983044,-3.0783722,0.62474626,-0.0006176507,-0.0054945345,0.0026842803,-0.0038238107,0.0028263922,-0.0064778477,0.0012957971,0.44813475,-1.4706779,2.0096285,-2.1076791,-1.5706376,2.422991,-0.010220921,0.014666281,-0.0072325356,-0.00037330916,0.00023643392,-0.011510417,-0.4213795,0.2873042,-9.730036,0.7709874,47.668976,-0.52460563,-2.5046434,-3.4269729,-0.5224857,0.11139727,-0.13665307,26.4375,27.3125,26.375,29.5625,30.8125,31.3125
0.020052105,-2.8211045,-2.2381394,-1.4427503,-0.08116084,0.091876134,-0.017352972,-0.3728604,-0.328175,0.05983126,-3.078313,0.6248704,-0.0006269048,-0.0057519316,0.00219794,-0.0043861237,0.0018183665,-0.008210126,-0.00018267623,0.44808644,-1.4706649,2.0096042,-2.107643,-1.5706605,2.4230278,-0.0106642125,0.016936982,-0.008448825,-0.00030924022,0.0018930349,-0.01047763,-0.4405331,0.30645782,-9.883265,0.78888994,47.658226,-0.6440759,-2.4151511,-3.5055356,-0.5307722,0.109745726,-0.17120114,26.4375,27.3125,26.375,29.5625,30.8125,31.3125
0.022052124,-2.5851347,-1.5586704,-1.556347,-0.068078786,0.08907834,-0.024145324,-0.372867,-0.32818893,0.05980052,-3.078334,0.6248555,-0.0007159008,-0.00809122,0.0014071935,-0.0034383687,-0.0009724537,-0.0069455225,-0.0014815759,0.44807392,-1.4705805,2.0095904,-2.1076791,-1.5706123,2.4230032,-0.012633228,0.019162925,-0.013075696,-0.00026375466,0.0038498992,-0.011148849,-0.5746084,0.22984336,-9.825804,0.72622824,47.679718,-0.6775508,-2.4145133,-3.3736951,-0.5495501,0.09085716,-0.20401117,26.4375,27.3125,26.375,29.5625,30.8125,31.3125
0.024052065,-2.3755615,-1.4905345,-1.6523904,-0.02533637,0.077630766,-0.041756462,-0.37292233,-0.328171,0.05981985,-3.0783587,0.6249563,-0.0006260228,-0.008952799,0.0011856114,-0.0029950116,-0.0021690594,-0.0062930756,-0.00042044916,0.44798955,-1.4705803,2.0095541,-2.1077154,-1.5706118,2.4229786,-0.01353524,0.019594625,-0.01455176,-0.00032850268,0.0046417164,-0.013112359,-0.61291564,0.3256114,-9.787497,0.7105615,47.686886,-0.7124686,-2.3789482,-3.3684049,-0.5398824,0.07660511,-0.21950728,26.4375,27.3125,26.375,29.5625,30.8125,31.3125
0.026052572,-1.7453914,-0.68497765,-1.5209016,-0.030065654,0.0776055,-0.061252024,-0.3729213,-0.3281741,0.05981463,-3.078341,0.6248367,-0.0006480302,-0.010487147,0.0016019265,-0.002340877,-0.0027977144,-0.0046561677,0.00015694709,0.4480128,-1.4705442,2.0095184,-2.1076796,-1.5706362,2.4229295,-0.015614126,0.019748397,-0.01615243,-0.0006295298,0.004493183,-0.015767425,-0.63206923,0.28730422,-9.80665,0.7284641,47.66808,-0.7687893,-2.3619857,-3.4754727,-0.5468297,0.1086515,-0.21197954,26.4375,27.3125,26.375,29.5625,30.8125,31.3125
0.028052408,-1.7680838,-0.93838567,-1.3948449,-0.038143475,0.08611177,-0.07444834,-0.3729645,-0.32817405,0.05982202,-3.0783823,0.624864,-0.0006785351,-0.011211553,0.0016405846,-0.0022518665,-0.0029936212,-0.004236057,0.001305469,0.4479407,-1.470496,2.009446,-2.1076677,-1.570588,2.4228692,-0.016337873,0.020558612,-0.017193254,-0.00086147035,0.00448392,-0.017638799,-0.7086837,0.21068975,-9.787497,0.76874626,47.677036,-0.79700136,-2.3241706,-3.406733,-0.55629337,0.072758466,-0.2049816,26.4375,27.3125,26.375,29.5625,30.8125,31.3125
0.03005245,-2.6356516,-1.2268744,-1.2826288,-0.04113307,0.07352212,-0.083790235,-0.3729844,-0.3281791,0.059806142,-3.0783668,0.6248617,-0.00068062224,-0.013480708,0.0011381838,-0.0012344745,-0.0054409923,-0.0009522552,0.00015880594,0.44794008,-1.4704239,2.0094087,-2.107692,-1.5705999,2.4228692,-0.017980311,0.02138116,-0.019954976,-0.0029451523,0.0052565197,-0.018133832,-0.7469909,0.17238252,-9.653421,0.78217715,47.683304,-0.72208893,-2.2386398,-3.3925161,-0.5350843,0.0913949,-0.19145386,26.4375,27.3125,26.375,29.5625,30.8125,31.3125
0.032052405,-2.1825192,-0.978548,-0.9713587,-0.04529798,0.087780185,-0.09974639,-0.3729987,-0.32818615,0.05980497,-3.0783753,0.62482494,-0.0006796406,-0.01425427,0.000413173,-0.0010750545,-0.00708608,-0.0007210991,-0.0009509163,0.44794002,-1.4703875,2.0093715,-2.1076925,-1.5705994,2.4228451,-0.018254526,0.022797983,-0.021751473,-0.0034912175,0.0066346875,-0.017299728,-0.7086837,0.15322891,-9.576807,0.69937176,47.66539,-0.70419586,-2.3309474,-3.4009817,-0.5321235,0.070387095,-0.19809088,26.4375,27.3125,26.375,29.5625,30.8125,31.3125
0.034052044,-2.5698848,-1.1947968,-1.1381704,-0.0134199215,0.06555482,-0.115074694,-0.37306488,-0.32819918,0.059811223,-3.0784202,0.62493056,-0.00064020365,-0.014896164,0.00010304485,-0.0009042231,-0.007866742,-0.0009954837,-0.001469773,0.44787976,-1.4703033,2.0092757,-2.1077402,-1.5705632,2.4228451,-0.018808465,0.023941284,-0.023521135,-0.0029575347,0.007455789,-0.017334998,-0.51714754,0.0,-9.461885,0.7732232,47.68062,-0.7642405,-2.2971091,-3.36861,-0.5339964,0.066947974,-0.19358009,26.4375,27.3125,26.375,29.5625,30.8125,31.3125
0.03605257,-1.9171021,-0.45446077,-1.1518881,0.008315453,0.05002412,-0.1269359,-0.37306687,-0.32819366,0.059799675,-3.0784137,0.6248913,-0.0006708401,-0.015921004,0.000368475,-0.0008468472,-0.008207318,-0.0013021711,-0.002249453,0.4478672,-1.4702787,2.0092752,-2.1077402,-1.5705627,2.422809,-0.020536043,0.025227685,-0.02517858,-0.0024590632,0.007892271,-0.018282918,-0.49799395,-0.038307227,-9.481039,0.7933669,47.67345,-0.76925606,-2.2343912,-3.3408318,-0.5418658,0.043201577,-0.20281175,26.4375,27.3125,26.375,29.5625,30.8125,31.3125
0.038052637,-0.7489486,0.22111958,-1.144199,0.015440005,0.04571957,-0.14722945,-0.37312892,-0.3281682,0.059811413,-3.0783973,0.6249645,-0.0006431634,-0.017278865,0.00026223142,8.6108004e-05,-0.008917683,0.00077097607,-0.0020096148,0.44777098,-1.4702308,2.0091903,-2.1077163,-1.5705746,2.4227605,-0.02138914,0.025275828,-0.027363138,-0.0024975562,0.00763015,-0.019373888,-0.2681506,-0.05746084,-9.461885,0.7978386,47.68599,-0.7408544,-2.2082305,-3.3158495,-0.54909134,0.03442111,-0.20389402,26.4375,27.3125,26.375,29.5625,30.8125,31.3125
0.040052835,-0.8309861,0.17286505,-1.1182842,0.02664004,0.028269012,-0.15704137,-0.37317327,-0.3281982,0.059814163,-3.0784864,0.62494487,-0.00062593236,-0.018613962,0.0003697137,5.3910946e-05,-0.009074234,0.0021407544,-0.0024325373,0.44774663,-1.4701586,2.0091183,-2.107776,-1.570515,2.4227126,-0.022493113,0.026798507,-0.0285994,-0.0040835203,0.0071729305,-0.020052135,-0.21068975,-0.17238252,-9.5385,0.7620334,47.709274,-0.70271003,-2.1740844,-3.3582249,-0.5277733,0.0383745,-0.19087155,26.4375,27.3125,26.375,29.5625,30.8125,31.3125
0.042052593,-0.5255321,-0.18562457,-1.0993167,0.018810168,0.037538864,-0.16336225,-0.37319145,-0.3281744,0.059797306,-3.0784075,0.6250054,-0.00066608953,-0.019960253,0.00056945975,0.00017040536,-0.008629476,0.0033606496,-0.0020713285,0.4477102,-1.4700981,2.0090826,-2.1077406,-1.5705518,2.422724,-0.023458252,0.028331388,-0.030406855,-0.004713236,0.006236904,-0.021375498,-0.076614454,-0.1340753,-9.519346,0.7777002,47.707485,-0.7430818,-2.208227,-3.3854024,-0.51883066,0.053498924,-0.19870579,26.4375,27.3125,26.375,29.5625,30.8125,31.3125
0.044051725,-0.9522557,-0.6915286,-0.95558786,-0.00069642684,0.030068165,-0.15106796,-0.3732202,-0.32814327,0.059783924,-3.078351,0.6250324,-0.00067658257,-0.021358231,0.0010694296,0.0003534651,-0.008000501,0.0039724302,-0.002144259,0.44764963,-1.4700497,2.0090573,-2.1077282,-1.5705875,2.4226875,-0.025100973,0.029758614,-0.032478243,-0.0043458203,0.00540024,-0.022942418,0.038307227,-0.038307227,-9.442732,0.7866488,47.693153,-0.6566061,-2.1593208,-3.3069725,-0.5001643,0.05936379,-0.19502375,26.4375,27.3125,26.375,29.5625,30.8125,31.3125
0.04605228,-1.0959591,-1.1947223,-1.2700775,-0.011170795,0.02328577,-0.12844798,-0.37329164,-0.3281821,0.05982378,-3.0784905,0.6250796,-0.000591965,-0.02226217,0.0014197779,0.00080853846,-0.00743172,0.0044828705,-0.0015437277,0.44760123,-1.4700137,2.0089371,-2.1077754,-1.5705041,2.4226508,-0.026079858,0.030212563,-0.03427934,-0.0032078275,0.0046679303,-0.024518887,-0.11492168,0.076614454,-9.442732,0.7665104,47.709274,-0.73184663,-2.1341352,-3.3961513,-0.51674914,0.080692664,-0.18583535,26.4375,27.3125,26.375,29.5625,30.8125,31.3125
0.048052277,-0.8695084,-1.2599775,-1.1464714,-0.023992145,0.016188106,-0.12778288,-0.37333766,-0.3281894,0.059814293,-3.0785007,0.62504333,-0.00061758765,-0.022843108,0.0016175357,0.0009609305,-0.0074774753,0.004113319,-0.00087329,0.447565,-1.4699057,2.0088403,-2.1077754,-1.5704921,2.4225907,-0.027111663,0.030861981,-0.035560362,-0.0022631,0.004867703,-0.026220987,-0.05746084,0.19153613,-9.576807,0.7978386,47.71465,-0.6383762,-2.0922604,-3.3735433,-0.5262436,0.09726943,-0.14812447,26.4375,27.3125,26.375,29.5625,30.8125,31.3125
0.05005256,-0.5679889,-1.4380664,-1.2854204,-0.034496058,0.009492788,-0.13235673,-0.37337404,-0.3281536,0.059795618,-3.078453,0.625072,-0.00064213894,-0.02361807,0.0018050185,0.0011681255,-0.00805369,0.0040222905,-0.00092478195,0.44748044,-1.4698455,2.008817,-2.107775,-1.5705155,2.4225302,-0.028541321,0.03143729,-0.03677683,-0.0017914122,0.005423961,-0.027599765,0.05746084,0.2681506,-9.5385,0.82694155,47.7254,-0.6200509,-2.0463748,-3.3389459,-0.5313595,0.07961415,-0.15453508,26.4375,27.3125,26.375,29.5625,30.8125,31.3125
0.052052613,-1.0435287,-1.7405188,-1.3592337,-0.029744878,-0.0038536268,-0.11623666,-0.37343436,-0.32814634,0.059835307,-3.0784793,0.62511593,-0.0005399952,-0.024434755,0.0018744038,0.0013421876,-0.008345018,0.004236948,-0.00047027634,0.44742006,-1.4698452,2.0087202,-2.1077511,-1.5705274,2.422494,-0.029523408,0.03230009,-0.038170476,-0.0015807685,0.00559306,-0.029035376,0.019153614,0.30645782,-9.519346,0.78888994,47.705692,-0.61782694,-2.025412,-3.4287233,-0.5429573,0.08671145,-0.13576803,26.4375,27.3125,26.375,29.5625,30.8125,31.3125
0.05405253,-0.47008494,-1.6060568,-1.4434211,-0.044338677,0.013899321,-0.12356615,-0.37348005,-0.32814285,0.059811473,-3.0784805,0.62503695,-0.0005709064,-0.025406092,0.0018245185,0.0015072956,-0.008212969,0.004598826,0.0005554653,0.4473719,-1.4697248,2.0086482,-2.107775,-1.5705274,2.4223964,-0.030118775,0.033742767,-0.040212292,-0.0012495174,0.005312758,-0.030654732,0.019153614,0.36391866,-9.461885,0.7911258,47.71554,-0.67155576,-2.0003452,-3.4736483,-0.55014145,0.09897734,-0.12170683,26.4375,27.3125,26.375,29.5625,30.8125,31.3125
0.056051955,-1.0093538,-1.9145663,-1.4643056,-0.04776888,0.015260654,-0.12440354,-0.37352413,-0.32812995,0.05980349,-3.078472,0.62509304,-0.00059652445,-0.026196593,0.001818185,0.0018107697,-0.00903825,0.005044771,0.00090826047,0.44729954,-1.469653,2.0085876,-2.107775,-1.5705155,2.4223602,-0.031191014,0.034165263,-0.041368365,-0.0012762042,0.005860974,-0.032080136,-0.095768064,0.40222588,-9.500193,0.7172743,47.701214,-0.6636449,-1.9802847,-3.4774384,-0.5442902,0.08921444,-0.113307655,26.4375,27.3125,26.375,29.5625,30.8125,31.3125
0.058051854,-1.3882896,-2.059773,-1.3163646,-0.048221327,0.025878353,-0.11921145,-0.37356266,-0.32812962,0.059815224,-3.0785189,0.6250455,-0.00061560347,-0.027549533,0.0013671139,0.002435045,-0.01048361,0.006792866,0.00069049245,0.44723934,-1.4696168,2.0085156,-2.1077516,-1.5704793,2.4222643,-0.031933393,0.034967296,-0.043476887,-0.0021713828,0.00640232,-0.032604076,-0.076614454,0.38307226,-9.481039,0.7777002,47.68599,-0.61380434,-1.8512893,-3.3893995,-0.54257965,0.09969722,-0.107982606,26.4375,27.3125,26.375,29.5625,30.8125,31.3125
0.060051844,-1.2072651,-1.8896918,-1.4447007,-0.056310162,0.03318835,-0.12126385,-0.37361646,-0.32813048,0.059821174,-3.078536,0.62514424,-0.00063583296,-0.027897615,0.00084999244,0.0021241368,-0.011674359,0.005790535,0.0019444682,0.44716725,-1.4695443,2.0084198,-2.1077402,-1.5704426,2.4222517,-0.03229059,0.036705002,-0.04462825,-0.0023724947,0.007906934,-0.034217056,-0.05746084,0.34476504,-9.615114,0.7642693,47.701214,-0.6698923,-1.885989,-3.4466896,-0.5553821,0.0870404,-0.09710865,26.4375,27.3125,26.375,29.5625,30.8125,31.3125
0.062051818,-0.9906466,-1.7341582,-1.4449793,-0.05371864,0.035629194,-0.131545,-0.37368327,-0.32812205,0.059819408,-3.0785394,0.6251059,-0.00058360444,-0.029054508,0.00063555426,0.0023425887,-0.012401055,0.0063085603,0.003228084,0.44710684,-1.4694479,2.0083234,-2.107764,-1.5704664,2.422167,-0.033220697,0.038207144,-0.046742998,-0.0025429635,0.008333827,-0.03642986,-0.076614454,0.34476504,-9.576807,0.7396539,47.66987,-0.7092843,-1.8782692,-3.4669728,-0.53576636,0.082439914,-0.07822789,26.4375,27.3125,26.375,29.5625,30.8125,31.3125
0.064051814,-1.5455712,-1.8083826,-1.340166,-0.039275028,0.025879577,-0.11905016,-0.37373388,-0.32813588,0.059825785,-3.0786142,0.6251218,-0.00058072066,-0.029729242,0.0010326775,0.0019585898,-0.011752371,0.0054093776,0.0016499995,0.4470466,-1.4693874,2.0082505,-2.1077993,-1.5704068,2.4221072,-0.034442138,0.039972853,-0.04791781,-0.0020392607,0.008138796,-0.036071625,-0.17238252,0.3256114,-9.481039,0.80456203,47.696735,-0.6872765,-1.8436098,-3.503622,-0.56365174,0.09387072,-0.06146419,26.4375,27.3125,26.375,29.5625,30.8125,31.3125
0.066051774,-1.3416647,-1.5548835,-1.1186968,-0.027665753,0.03534054,-0.123481266,-0.3737979,-0.3281544,0.059853174,-3.0786855,0.62509835,-0.00054133165,-0.030315604,0.0006444975,0.0016525643,-0.012116505,0.004583982,0.0006224335,0.44699848,-1.4693269,2.0081184,-2.1077874,-1.5703701,2.4220355,-0.034702316,0.042204116,-0.049698867,-0.0019034151,0.008823348,-0.035303608,-0.24899697,0.3256114,-9.442732,0.82694155,47.7254,-0.7650698,-1.8706299,-3.508955,-0.5643724,0.08362194,-0.08332411,26.4375,27.3125,26.375,29.5625,30.8125,31.3125
0.068051934,-1.7000421,-1.0561212,-0.96584934,-0.02673923,0.031619526,-0.11846558,-0.3738724,-0.328154,0.059858114,-3.0787086,0.6250846,-0.00046970387,-0.03154614,0.0001736862,0.002332655,-0.013782132,0.0057016984,0.00019911642,0.44693813,-1.4692307,2.0080097,-2.1078231,-1.570382,2.4219637,-0.035613365,0.042933382,-0.05203383,-0.00202902,0.009839189,-0.03579115,-0.2681506,0.22984336,-9.346964,0.75084364,47.721813,-0.7230624,-1.8559242,-3.5232341,-0.5642712,0.0747441,-0.08967468,26.4375,27.3125,26.375,29.5625,30.8125,31.3125
0.07005192,-1.4086765,-0.67429125,-0.85905105,-0.029063452,0.043570302,-0.12755416,-0.37393573,-0.3281441,0.05986055,-3.078711,0.6250846,-0.000496459,-0.03257468,-0.00019368695,0.0023179133,-0.014123309,0.00586669,0.0009620252,0.44685397,-1.4691341,2.00789,-2.1077878,-1.5703701,2.4218793,-0.0360053,0.045083907,-0.0543321,-0.0021769097,0.010070518,-0.036944773,-0.2681506,0.24899697,-9.3661175,0.7777002,47.701214,-0.7689974,-1.8541062,-3.4704347,-0.56136703,0.06811768,-0.07436298,26.4375,27.3125,26.375,29.5625,30.8125,31.3125
0.07205188,-1.2198747,-0.8618298,-0.92032284,-0.016925404,0.056440905,-0.12134148,-0.3739887,-0.32814237,0.059849657,-3.0787277,0.6251258,-0.00057285134,-0.03376552,-0.0004736423,0.0024327745,-0.015176153,0.0067254975,0.0005768491,0.44676977,-1.4690259,2.0077932,-2.1077754,-1.5703214,2.4218187,-0.03693861,0.046589945,-0.056013897,-0.0032298563,0.010642909,-0.037492633,-0.28730422,0.15322891,-9.461885,0.76874626,47.695843,-0.7699714,-1.87551,-3.4009342,-0.5384692,0.04656306,-0.058107525,26.4375,27.3125,26.375,29.5625,30.8125,31.3125
0.07405181,-1.6181972,-0.8479568,-0.82188606,-0.0180723,0.04861435,-0.1260234,-0.3740974,-0.32813692,0.05988301,3.0787532,-0.62518835,0.00038702964,-0.034840144,-0.0005649236,0.0029275126,-0.01598185,0.00814848,0.0012352959,0.44668546,-1.4689538,2.0076487,-2.107824,-1.5703577,2.4217703,-0.037805203,0.04695999,-0.057420533,-0.0038252906,0.0107558295,-0.039015505,-0.34476504,0.22984336,-9.3661175,0.7329411,47.66091,-0.85809296,-1.8485227,-3.4747586,-0.52835095,0.04053614,-0.06688793,26.4375,27.3125,26.375,29.5625,30.8125,31.3125
0.07605224,-1.1345377,-0.3136114,-0.58495575,-0.025924519,0.06194258,-0.1346226,-0.3741406,-0.32815766,0.059877872,3.078694,-0.62512004,0.00042496715,-0.036899243,-0.00070983154,0.0030690187,-0.015936598,0.008826901,-0.00045122046,0.44663692,-1.4688689,2.0075753,-2.1078598,-1.5702862,2.4216866,-0.03916355,0.05029406,-0.061430678,-0.003737071,0.010415354,-0.038683627,-0.3256114,0.17238252,-9.346964,0.7150385,47.666286,-0.72024,-1.8177992,-3.2903967,-0.52668226,0.044948492,-0.08620748,26.4375,27.3125,26.375,29.5625,30.8125,31.3125
0.07805218,-1.6288416,-0.6646749,-0.68036693,-0.009095867,0.045859996,-0.11742177,-0.37421635,-0.32814947,0.059882995,3.0787086,-0.6250858,0.00044260567,-0.0367044,-3.7376692e-05,0.001861893,-0.015071145,0.0060372804,-0.003737333,0.44655252,-1.4687485,2.0074203,-2.1078117,-1.5702857,2.4215791,-0.040530365,0.052160405,-0.060812328,-0.003332988,0.0108427955,-0.036765385,-0.28730422,0.095768064,-9.3661175,0.7978386,47.658226,-0.73488235,-1.9605017,-3.442295,-0.5392751,0.051140912,-0.10152701,26.4375,27.3125,26.375,29.5625,30.8125,31.3125
0.080052115,-1.1566,-0.6407549,-0.8856333,-0.009665881,0.052280024,-0.120310284,-0.37430054,-0.32815847,0.05989353,3.0786085,-0.6251034,0.00043426632,-0.037498113,-0.00049601105,0.0032794767,-0.016392289,0.008473745,-0.002423952,0.44644442,-1.4686531,2.0072997,-2.107848,-1.5702137,2.4214947,-0.0404683,0.050697006,-0.06255892,-0.0028873712,0.010983175,-0.038015593,-0.30645782,0.1340753,-9.232041,0.7978386,47.678825,-0.737537,-1.7055273,-3.4003768,-0.5353762,0.029553948,-0.116646245,26.4375,27.3125,26.375,29.5625,30.8125,31.3125
0.08205252,-1.4540777,-0.3290834,-0.75697553,-0.015434108,0.042964328,-0.121105835,-0.37439013,-0.32815018,0.0599001,3.078612,-0.6251228,0.00035476408,-0.03965438,-0.0013120708,0.00440617,-0.016821984,0.011058126,-0.0010736041,0.44637257,-1.4685324,2.0071547,-2.1078594,-1.5702504,2.4214346,-0.04038036,0.0528582,-0.067606784,-0.002514975,0.010247541,-0.03927323,-0.24899697,0.11492168,-9.270349,0.73069996,47.629562,-0.90824926,-1.8044493,-3.3564148,-0.53204244,0.053534396,-0.11501377,26.4375,27.3125,26.375,29.5625,30.8125,31.3125
0.084052384,-1.7304013,-0.65631676,-0.92164207,-0.0064626103,0.03698668,-0.11798081,-0.3744495,-0.32815754,0.059893284,3.0785847,-0.62509954,0.00041684098,-0.03992406,-0.00019046155,0.0022761545,-0.015300493,0.006793115,-0.0037359882,0.44629967,-1.4684113,2.0070345,-2.107848,-1.5702018,2.4213507,-0.043041654,0.05701918,-0.06731571,-0.0024620688,0.010717481,-0.03927255,-0.28730422,0.1340753,-9.174581,0.72622824,47.68062,-0.80116105,-1.8041497,-3.2749052,-0.5474781,0.03794814,-0.12155551,26.4375,27.3125,26.375,29.5625,30.8125,31.3125
0.08605196,-1.3659239,-0.6817119,-0.76184744,-0.019537933,0.04936683,-0.12401957,-0.37453762,-0.32816368,0.059900653,3.0785267,-0.6251452,0.00038066972,-0.04118782,-0.00014418343,0.002611284,-0.01556609,0.0075198524,-0.0043437313,0.44621533,-1.468291,2.006891,-2.1078718,-1.5701779,2.4213023,-0.044208635,0.058266096,-0.06949849,-0.0022940903,0.010642084,-0.039829735,-0.2681506,0.15322891,-9.3661175,0.8023209,47.686886,-0.8102566,-1.9638488,-3.37956,-0.5461534,0.018231409,-0.13231784,26.4375,27.3125,26.375,29.5625,30.8125,31.3125
0.08805196,-1.3379136,-1.2530907,-0.82119966,-0.027288381,0.052356247,-0.12751226,-0.37462875,-0.32816008,0.059933502,3.0785136,-0.62508553,0.00026655965,-0.043263298,0.0001389358,0.0043593943,-0.016875768,0.011085764,-0.006205496,0.44614252,-1.4682199,2.0067346,-2.1078594,-1.5702022,2.421194,-0.046361107,0.056965582,-0.07210755,-0.0021652905,0.010283559,-0.04011785,-0.30645782,0.2681506,-9.346964,0.7620334,47.696735,-0.7159591,-1.6401222,-3.2448077,-0.53485847,0.033012003,-0.15032437,26.4375,27.3125,26.375,29.5625,30.8125,31.3125
0.09005187,-1.208222,-1.310036,-0.9526414,-0.035007745,0.057776056,-0.12423459,-0.3746992,-0.3281389,0.059910044,3.0785086,-0.6251609,0.0003502381,-0.04369043,-0.0003287248,0.0033265606,-0.016019488,0.009056756,-0.0054873195,0.44602284,-1.4680746,2.006626,-2.1078475,-1.5701784,2.421122,-0.04592553,0.06107811,-0.07434463,-0.0018389054,0.010382421,-0.040399227,-0.4405331,0.28730422,-9.346964,0.83365434,47.68599,-0.78397435,-1.8764629,-3.2320957,-0.55757934,0.0438566,-0.16966645,26.4375,27.3125,26.375,29.5625,30.8125,31.3125
0.09205179,-1.4016441,-1.1355335,-0.80029774,-0.041665003,0.052020624,-0.12213904,-0.37477458,-0.3281497,0.059922405,3.0784564,-0.62513113,0.00032635752,-0.043852504,-0.00022955831,0.0027738297,-0.015369759,0.007953039,-0.005476032,0.44595054,-1.4679782,2.0064943,-2.107859,-1.5701421,2.421038,-0.046174455,0.06272419,-0.074945696,-0.0016051806,0.010274511,-0.04065826,-0.36391866,0.34476504,-9.423578,0.7709874,47.7245,-0.8578026,-1.7967386,-3.2761645,-0.5580331,0.05106864,-0.19008476,26.4375,27.3125,26.375,29.5625,30.8125,31.3125
0.09405172,-1.2254162,-1.2413731,-0.98735803,-0.04232821,0.05241706,-0.118923314,-0.37488517,-0.3281559,0.0599417,3.0784128,-0.62514305,0.000276099,-0.046356674,-0.00039591483,0.0037254435,-0.016947377,0.009784053,-0.00685124,0.44585377,-1.4678339,2.0062888,-2.1078475,-1.5701298,2.4209542,-0.048532944,0.064571284,-0.07917661,-0.0015540658,0.010902879,-0.041639138,-0.36391866,0.3256114,-9.461885,0.73741806,47.64121,-0.8311097,-1.8777913,-3.2043824,-0.5530887,0.04456964,-0.20107207,26.4375,27.3125,26.375,29.5625,30.8125,31.3125
0.096052356,-1.2614202,-1.8753395,-1.1005176,-0.030399352,0.049172845,-0.11743322,-0.37496787,-0.32813808,0.059923496,3.0784206,-0.6251831,0.00030911423,-0.045741662,0.00036273757,0.0022415805,-0.015602879,0.006719813,-0.0070172637,0.4457455,-1.4676776,2.0061586,-2.1078475,-1.5701298,2.42087,-0.04946379,0.06627573,-0.07769793,-0.0013916047,0.011015028,-0.042405088,-0.22984336,0.34476504,-9.385271,0.74413085,47.67614,-0.7963546,-1.8497293,-3.2583127,-0.5677823,0.050138578,-0.22231987,26.4375,27.3125,26.375,29.5625,30.8125,31.3125
0.09805168,-1.4328743,-1.2474715,-0.9921903,-0.054667152,0.04270589,-0.12152643,-0.3750527,-0.32814085,0.059931286,3.0783503,-0.6252061,0.00036380254,-0.046214584,0.00042924396,0.0017901963,-0.015063192,0.0061059445,-0.005089435,0.44562545,-1.4675571,2.0060027,-2.1078231,-1.5700577,2.4207733,-0.04984983,0.068114564,-0.078677595,-0.0014579815,0.010792514,-0.044717647,-0.2681506,0.3256114,-9.442732,0.80456203,47.694054,-0.78722596,-1.8949134,-3.3103766,-0.54855883,0.04495225,-0.2241017,26.4375,27.3125,26.375,29.5625,30.8125,31.3125
0.10005254,-1.8271374,-1.825819,-0.8554756,-0.04075319,0.03333598,-0.11952846,-0.37516913,-0.32815197,0.059950043,3.0783,-0.62519467,0.00025761867,-0.04869435,-0.00061771483,0.003128255,-0.016948393,0.008995313,-0.004133108,0.44554117,-1.4674127,2.005809,-2.107859,-1.5700577,2.4206884,-0.050409753,0.07014098,-0.083938465,-0.001643252,0.011241944,-0.0462301,-0.24899697,0.3256114,-9.385271,0.8537928,47.72629,-0.8268109,-1.890872,-3.1294913,-0.5631552,0.03794162,-0.2256791,26.4375,27.3125,26.375,29.5625,30.8125,31.3125
0.1020525,-0.8362042,-1.0740696,-0.8182053,-0.044492874,0.05363492,-0.12630245,-0.37528527,-0.32814807,0.059953682,3.078262,-0.6252267,0.00022570566,-0.048331864,0.00046944318,0.0013743583,-0.014581168,0.00626381,-0.006280508,0.4454209,-1.4672443,2.0056183,-2.1078713,-1.5700458,2.420593,-0.05146019,0.07244346,-0.08237857,-0.0020158738,0.010288239,-0.045131996,-0.22984336,0.2681506,-9.442732,0.7665104,47.70032,-0.8351418,-1.9240068,-3.3147042,-0.5664617,0.049303427,-0.25717044,26.4375,27.3125,26.375,29.5625,30.8125,31.3125
0.10405246,-0.87151295,-0.6245769,-0.85338223,-0.0413996,0.049813237,-0.12904832,-0.37534833,-0.3281547,0.059949018,3.0782502,-0.62518543,0.00024591578,-0.0504795,1.03944085e-05,0.0025389038,-0.015166557,0.009543086,-0.005868045,0.44536066,-1.4671239,2.0054967,-2.1078718,-1.5700225,2.4205086,-0.05192236,0.07361806,-0.08622544,-0.0025498471,0.009395422,-0.04600285,-0.095768064,0.30645782,-9.308656,0.7978386,47.71465,-0.84642076,-1.9710705,-3.1863432,-0.54520994,0.046007924,-0.29686195,26.4375,27.3125,26.375,29.5625,30.8125,31.3125
0.10605227,-0.8702469,-1.0449902,-0.89052373,-0.024214046,0.040646058,-0.123203315,-0.37548518,-0.32813552,0.059978537,3.0782225,-0.62519777,0.00013454657,-0.0510397,-0.000823415,0.002452637,-0.016320046,0.009542651,-0.0041903146,0.44521695,-1.4669917,2.0052807,-2.1078594,-1.5700458,2.4203763,-0.051543433,0.07548544,-0.08794205,-0.003199815,0.010437312,-0.047300782,-0.11492168,0.24899697,-9.32781,0.78217715,47.70659,-0.9569504,-1.9210665,-3.1564755,-0.5397424,0.04295925,-0.29549372,26.4375,27.3125,26.375,29.5625,30.8125,31.3125
0.10805214,-0.40467513,-0.692019,-0.81563437,-0.02172829,0.035780292,-0.13279341,-0.3756003,-0.3281541,0.059975788,3.078161,-0.6252236,8.316756e-05,-0.052571386,-0.00023485292,0.0022912307,-0.016600039,0.009257722,-0.0047928654,0.44513187,-1.4667993,2.005089,-2.1079195,-1.570022,2.4203153,-0.054263156,0.077479705,-0.089774735,-0.003223055,0.010813529,-0.0494164,-0.076614454,0.21068975,-9.2703495,0.77545905,47.686886,-0.8643131,-2.010951,-3.1341217,-0.5384505,0.037565622,-0.32105947,26.4375,27.3125,26.375,29.5625,30.8125,31.3125
0.110052064,-0.9975911,-0.73482424,-0.7355752,-0.021301953,0.017074104,-0.11805357,-0.37568867,-0.32816732,0.059996996,3.0781038,-0.62519234,0.00011050253,-0.05278743,-0.0013104532,0.0030031204,-0.017411944,0.010665965,-0.0033351155,0.4450365,-1.4666796,2.0048978,-2.1078718,-1.5699619,2.4202077,-0.05250776,0.0775707,-0.09152251,-0.0031834587,0.010939034,-0.049117625,-0.019153614,0.22984336,-9.308657,0.7530795,47.672558,-0.9570323,-1.8976123,-3.094745,-0.5299197,0.03347367,-0.34791803,26.4375,27.3125,26.375,29.5625,30.8125,31.3125
0.11205199,-0.8691563,-0.5270136,-0.8444673,-0.034385864,0.018205551,-0.12326246,-0.37581992,-0.3281664,0.06000857,3.07805,-0.62523973,2.1587388e-05,-0.05319295,-0.0014383454,0.0012995481,-0.016013201,0.0072499528,-0.0057175276,0.4449165,-1.4665099,2.0046928,-2.1079075,-1.5699619,2.4201243,-0.052754555,0.08287277,-0.093565345,-0.0027578296,0.011147971,-0.046979558,0.0,0.22984336,-9.270349,0.784413,47.698532,-1.1715868,-2.0806742,-3.0819626,-0.5356889,0.032899365,-0.38852793,26.4375,27.3125,26.375,29.5625,30.8125,31.3125
0.11405203,-0.78447145,-0.7034698,-0.65286183,-0.032396797,0.024923503,-0.120533474,-0.3759253,-0.32814634,0.059997782,3.078042,-0.6252756,1.9736557e-05,-0.05443155,-0.0012151893,0.003078895,-0.016740443,0.010784997,-0.0046188137,0.44478425,-1.4663433,2.0045369,-2.1079195,-1.5699624,2.4200156,-0.05368197,0.08044111,-0.095080264,-0.0023095228,0.010283888,-0.049004402,-0.038307227,0.22984336,-9.270349,0.8291774,47.694946,-1.0957996,-1.878267,-3.161974,-0.53647286,0.050624453,-0.41863856,26.4375,27.3125,26.375,29.5625,30.8125,31.3125
0.116052285,-0.7132508,-0.9479019,-0.76603454,-0.02942657,0.02360512,-0.12794457,-0.37600446,-0.32817584,0.059984695,3.0780015,-0.62524825,0.0001467904,-0.054911867,-0.00011070413,0.0013457574,-0.01531906,0.006960198,-0.0047563673,0.4447113,-1.4661382,2.0043328,-2.1078832,-1.569878,2.4199307,-0.056416333,0.08422568,-0.095440574,-0.0016642623,0.010647203,-0.05160141,0.019153614,0.24899697,-9.289502,0.784413,47.66271,-1.1018198,-1.9150536,-3.1512547,-0.54381424,0.05692488,-0.42890796,26.4375,27.3125,26.375,29.5625,30.8125,31.3125
0.11805217,-1.0567279,-0.99254805,-0.75960726,-0.03191917,0.021901185,-0.116344094,-0.3761485,-0.3281833,0.060029782,3.0779264,-0.6252312,-4.3588225e-05,-0.055219192,-0.00092241704,0.0017570062,-0.015798464,0.0077321455,-0.0014649767,0.4446037,-1.4660181,2.0041053,-2.107919,-1.5698899,2.4198222,-0.055219054,0.08490538,-0.09717362,-0.0015125157,0.010754469,-0.05369304,-0.05746084,0.22984336,-9.346964,0.8090337,47.698532,-1.0884572,-2.0856128,-3.0671787,-0.54675454,0.045042098,-0.4458653,26.4375,27.3125,26.375,29.5625,30.8125,31.3125
0.12005218,-1.3375194,-1.4103862,-0.89578646,-0.02577942,0.016422018,-0.113508075,-0.37624392,-0.32816476,0.060021423,3.0779266,-0.62526906,-2.8209553e-05,-0.05575207,-0.00049404503,0.0009519998,-0.014670036,0.0064162454,-8.4281564e-05,0.44448346,-1.4658616,2.0039494,-2.107907,-1.5698904,2.4197257,-0.056177877,0.08733605,-0.09804771,-0.0013914373,0.010302057,-0.056031417,-0.038307227,0.3256114,-9.32781,0.83589023,47.67166,-1.250369,-2.0285506,-3.2142167,-0.5488312,0.06433539,-0.44590974,26.4375,27.3125,26.375,29.5625,30.8125,31.3125
0.12205209,-1.0634779,-1.073462,-0.7594308,-0.020185532,0.021880195,-0.123104356,-0.37635922,-0.32816675,0.060010325,3.0778959,-0.62526226,3.4072214e-05,-0.056328554,-6.3110047e-06,0.00021772824,-0.014837901,0.004613336,0.0013923139,0.44435066,-1.4656453,2.0037339,-2.1078951,-1.5698417,2.4195926,-0.05821244,0.089311704,-0.098588295,-0.0012676783,0.011230339,-0.059543073,-0.05746084,0.15322891,-9.270349,0.73741806,47.689575,-1.1746964,-2.043252,-3.2378154,-0.55397534,0.05592137,-0.45175648,26.4375,27.3125,26.375,29.5625,30.8125,31.3125
0.124051906,-0.86720407,-1.0428715,-0.9750452,-0.01017002,0.018227484,-0.116891585,-0.3764666,-0.3281628,0.060016304,3.0779164,-0.6251679,7.880292e-06,-0.057581734,-0.00034387477,0.0007901631,-0.01593866,0.00564064,0.004213383,0.4442544,-1.4654773,2.0035298,-2.1078713,-1.5698532,2.419435,-0.05905685,0.0903158,-0.10102797,-0.001231887,0.011781183,-0.063207395,-0.095768064,0.19153613,-9.32781,0.7463667,47.682407,-1.1504618,-2.007023,-3.2187967,-0.5463499,0.07430995,-0.45623964,26.4375,27.3125,26.375,29.5625,30.8125,31.3125
0.12605233,-0.71413743,-0.73623717,-0.8177256,-0.018574517,0.01949806,-0.118720174,-0.3766122,-0.3281704,0.06001648,3.077831,-0.62520605,-8.843508e-05,-0.05885708,-0.00017425779,0.00076934224,-0.01560592,0.0063211294,0.0075769653,0.44412205,-1.4652731,2.0033262,-2.1079667,-1.5698298,2.4193375,-0.0600958,0.0921571,-0.10293544,-0.0016289884,0.011193517,-0.067606814,-0.095768064,0.1340753,-9.32781,0.7463667,47.68599,-1.1622951,-2.0223176,-3.288618,-0.5455246,0.070851475,-0.40954506,26.4375,27.3125,26.375,29.5625,30.8125,31.3125
0.12805241,-1.0029769,-0.6835054,-0.7926546,-0.018048719,0.021578602,-0.122828305,-0.37669152,-0.3281678,0.059995875,3.0778363,-0.6251289,1.6609174e-05,-0.059124947,0.0004450261,0.0003904415,-0.01581326,0.0055401106,0.010250135,0.44401348,-1.4650934,2.0031698,-2.1079428,-1.5697817,2.4191802,-0.06183015,0.09245121,-0.10234857,-0.0018878706,0.011717424,-0.07201562,-0.095768064,0.15322891,-9.270349,0.784413,47.667187,-1.1623697,-1.9136107,-3.2876325,-0.53701186,0.08451788,-0.36961693,26.4375,27.3125,26.375,29.5625,30.8125,31.3125
0.13005178,-1.6796222,-0.97524565,-0.78965145,-0.011304813,0.02198044,-0.11964233,-0.37682256,-0.32816005,0.05999973,3.0778444,-0.6250518,2.1367382e-06,-0.060476393,0.00037202332,0.00061937893,-0.015785595,0.006554053,0.013747657,0.44388124,-1.464889,2.0029304,-2.1079195,-1.5697817,2.418999,-0.062568665,0.09418098,-0.10474503,-0.0021186022,0.011256112,-0.07624939,-0.095768064,0.15322891,-9.289502,0.83589023,47.68599,-1.1943172,-2.0081778,-3.4040284,-0.5344777,0.07306678,-0.3196604,26.4375,27.3125,26.375,29.5625,30.8125,31.3125
0.13205172,-1.734174,-0.8914994,-0.8275647,-0.025808638,0.03837291,-0.116987854,-0.37695643,-0.32814506,0.060024824,3.0777855,-0.6250765,-7.469382e-05,-0.060299285,0.00091259123,-0.0012034368,-0.0148681495,0.0025187042,0.01626219,0.44372475,-1.4647561,2.0027263,-2.107919,-1.5697693,2.4188654,-0.06401088,0.09768369,-0.10451281,-0.001812672,0.012170936,-0.08020582,-0.17238252,0.095768064,-9.32781,0.8023209,47.679718,-1.2131617,-1.9373081,-3.385882,-0.53105676,0.08072723,-0.27412963,26.4375,27.3125,26.375,29.5625,30.8125,31.3125
0.13405171,-1.6273453,-1.016817,-0.795261,-0.025645865,0.044806696,-0.12112731,-0.37707338,-0.32816046,0.060021,3.077755,-0.6249922,-4.544371e-05,-0.06203342,0.0005821026,0.0012160623,-0.017657597,0.0067694527,0.01843759,0.44361624,-1.4645414,2.0024984,-2.107919,-1.5697211,2.4187083,-0.06538584,0.09489477,-0.10706979,-0.0014977594,0.012865441,-0.08375568,-0.24899697,0.15322891,-9.32781,0.7866488,47.65912,-1.160301,-1.8468754,-3.3751812,-0.5287142,0.08386478,-0.21817353,26.4375,27.3125,26.375,29.5625,30.8125,31.3125
0.13605203,-1.7328967,-0.9153812,-0.8042492,-0.024164235,0.05114094,-0.11467401,-0.37719187,-0.3281553,0.060027476,3.077762,-0.6248973,-7.957275e-06,-0.062229007,0.0006386192,0.0006540606,-0.017156363,0.005566266,0.01958859,0.44348428,-1.4643494,2.002258,-2.107859,-1.5696973,2.4185164,-0.06568427,0.09665903,-0.10781041,-0.0012148272,0.012929739,-0.08520472,-0.40222588,0.15322891,-9.308656,0.8224646,47.658226,-1.2027549,-1.7612034,-3.4533396,-0.53360313,0.08340514,-0.18015093,26.4375,27.3125,26.375,29.5625,30.8125,31.3125
0.13805208,-1.891295,-0.59882,-1.0410537,-0.0164946,0.04385286,-0.11654599,-0.3773131,-0.32816407,0.060026955,3.0777264,-0.624832,-4.3158045e-05,-0.0639433,0.00054725935,0.00076619064,-0.018015906,0.0055907816,0.01844645,0.44337565,-1.4641566,2.002055,-2.1078951,-1.569673,2.4183717,-0.06753832,0.09925733,-0.11099507,-0.0010179795,0.013695111,-0.08591446,-0.36391866,0.11492168,-9.32781,0.83813137,47.691364,-1.2563701,-1.9570186,-3.4427066,-0.5464461,0.09429927,-0.15296549,26.4375,27.3125,26.375,29.5625,30.8125,31.3125
0.14005211,-2.0846052,-0.83092785,-1.0691977,-0.0033036538,0.041475207,-0.112564206,-0.37745798,-0.32816905,0.06005009,3.077659,-0.624801,-9.8401e-05,-0.064017154,0.0017620794,-2.0291227e-05,-0.01698539,0.0040437523,0.015455499,0.44323084,-1.4639767,2.0018036,-2.1078951,-1.5696367,2.4182162,-0.06967219,0.099737585,-0.10977253,-0.0008759443,0.01343788,-0.085056946,-0.30645782,0.17238252,-9.442732,0.8112748,47.70838,-1.2873436,-1.793879,-3.5099623,-0.54396605,0.09701361,-0.15618023,26.4375,27.3125,26.375,29.5625,30.8125,31.3125
0.14205213,-1.595434,-0.46269122,-0.89633423,-0.013936149,0.04896681,-0.1183817,-0.37758392,-0.32816517,0.060023718,3.0776517,-0.6246857,-6.54609e-05,-0.06682956,0.0010611063,0.00094711327,-0.018222073,0.0062753786,0.012762172,0.44308645,-1.4637363,2.0016096,-2.1079428,-1.5696005,2.418001,-0.070946865,0.10289137,-0.11549668,-0.0008486832,0.0135868685,-0.08363459,-0.34476504,0.17238252,-9.404425,0.7553206,47.723602,-1.200139,-1.8283064,-3.3450193,-0.55034083,0.08670369,-0.15874577,26.4375,27.3125,26.375,29.5625,30.8125,31.3125
0.14405204,-1.8310286,-0.54211664,-0.87897396,-0.01867275,0.05095323,-0.120445415,-0.3777186,-0.32814133,0.060029533,3.0776362,-0.6247428,-0.00010606528,-0.067665555,0.0018750874,0.0009405457,-0.017560946,0.0065815835,0.008811112,0.44292995,-1.4635563,2.001395,-2.107931,-1.5696133,2.4178822,-0.072695665,0.10328638,-0.11595104,-0.0007809026,0.0128598,-0.08143125,-0.45968673,0.15322891,-9.404425,0.7911258,47.701214,-1.2703161,-1.8469851,-3.469491,-0.5463877,0.107181445,-0.14141211,26.4375,27.3125,26.375,29.5625,30.8125,31.3125
0.14605261,-1.7269424,-0.6549457,-0.87365645,-0.022470754,0.062441893,-0.118623115,-0.37784845,-0.32814157,0.06001933,3.0775993,-0.62468094,-4.8489124e-05,-0.06865874,0.0016069742,0.0010902409,-0.018618388,0.0064624255,0.0021871265,0.44277352,-1.4633282,2.0011666,-2.1079304,-1.5695528,2.417692,-0.07372064,0.10482738,-0.11806887,-0.00055151,0.013860124,-0.07583158,-0.51714754,0.11492168,-9.423578,0.83589023,47.691364,-1.1792362,-1.7788697,-3.3514776,-0.5483498,0.12000315,-0.21199377,26.4375,27.3125,26.375,29.5625,30.8125,31.3125
0.14805233,-2.0250096,-1.0344305,-1.0842308,-0.03093373,0.06585494,-0.115460806,-0.3780147,-0.32813737,0.06005234,3.0775633,-0.62467456,-0.00012368993,-0.07025534,0.0016934461,0.0014812899,-0.018907446,0.0074549117,-0.00041751878,0.44261703,-1.4631242,2.0008547,-2.1078827,-1.5695528,2.4175363,-0.0751593,0.106406495,-0.120744765,-0.00047368504,0.013696457,-0.07466291,-0.38307226,0.19153613,-9.481039,0.85826975,47.703007,-1.1719158,-1.6164458,-3.3248978,-0.5492397,0.11503821,-0.26118833,26.4375,27.3125,26.375,29.5625,30.8125,31.3125
0.15005222,-2.25655,-1.4011837,-1.0723784,-0.03682824,0.06597878,-0.11539601,-0.3781265,-0.32812908,0.060020555,3.0775435,-0.62467146,-6.2944873e-06,-0.07087814,0.0011418812,0.0012076857,-0.019755552,0.0066137435,-0.0019424725,0.44246095,-1.4628837,2.000662,-2.1078827,-1.5694922,2.4173808,-0.07540555,0.10870467,-0.12269091,-0.00042733384,0.014816742,-0.07338421,-0.4213795,0.22984336,-9.519346,0.9388393,47.701214,-1.2201364,-1.6834956,-3.3104954,-0.55485344,0.10151504,-0.27303186,26.4375,27.3125,26.375,29.5625,30.8125,31.3125
0.15205209,-2.3719134,-1.327688,-1.1016943,-0.0455149,0.061917752,-0.114844345,-0.37827614,-0.32816106,0.06005979,3.0774457,-0.62465465,-0.000120639816,-0.07278868,0.0028562213,0.00045473475,-0.018308213,0.005706812,-0.007228295,0.44236344,-1.462703,2.0003755,-2.1078947,-1.5694569,2.4172854,-0.079669245,0.11147989,-0.12405781,-0.00039015326,0.013903239,-0.07235864,-0.5554548,0.22984336,-9.615114,0.74413085,47.70659,-1.0514206,-1.7691138,-3.4060245,-0.5559139,0.12398291,-0.32105827,26.4375,27.3125,26.375,29.5625,30.8125,31.3125
0.15405183,-1.767116,-1.0196867,-1.0440822,-0.045131788,0.07476707,-0.13201244,-0.3784263,-0.3281091,0.060041495,3.0775206,-0.6246283,-0.0001327953,-0.073434375,0.0016194802,0.0012410535,-0.019428143,0.00731598,-0.0037022482,0.44217223,-1.4624633,2.000147,-2.1078708,-1.5695165,2.4170685,-0.07810737,0.11224615,-0.12672292,-0.00042569393,0.014222767,-0.074321866,-0.5746084,0.2681506,-9.615114,0.8537928,47.679718,-1.2070785,-1.627465,-3.2730627,-0.55069995,0.12880866,-0.32980838,26.4375,27.3125,26.375,29.5625,30.8125,31.3125
0.1560518,-2.023757,-1.9104877,-1.190182,-0.023423973,0.06776978,-0.116217226,-0.37859365,-0.32812867,0.060047638,3.0773764,-0.6247152,-0.00017173224,-0.074437484,0.0026893956,-3.037403e-06,-0.018089358,0.005239407,-0.005040877,0.44200322,-1.4622225,1.9998835,-2.1079423,-1.5694326,2.4169722,-0.08074801,0.11554608,-0.12754014,-0.00044744907,0.013909842,-0.07562144,-0.49799395,0.22984336,-9.557653,0.76874626,47.701214,-1.1694322,-1.9358554,-3.3341513,-0.56522655,0.16022344,-0.31270403,26.4375,27.3125,26.375,29.5625,30.8125,31.3125
0.1580518,-1.9623753,-1.4580909,-1.2654593,-0.029963806,0.060797565,-0.121706866,-0.3787494,-0.3281145,0.060055032,3.0773487,-0.6247127,-0.00016530603,-0.076471254,0.003597184,0.00041053465,-0.019495925,0.0057674185,-0.009184863,0.44182158,-1.4619949,1.999607,-2.1079066,-1.5694083,2.4167926,-0.08491389,0.11634477,-0.1293866,-0.00047773734,0.014954841,-0.075642526,-0.47884035,0.22984336,-9.519346,0.77545905,47.68599,-0.9220005,-1.7049441,-3.3649328,-0.57260656,0.13663961,-0.33020407,26.4375,27.3125,26.375,29.5625,30.8125,31.3125
0.16005178,-1.5935174,-1.0224099,-0.99181503,-0.045381937,0.057752565,-0.122336954,-0.37888142,-0.32810712,0.06005237,3.077322,-0.62470394,-0.0001292473,-0.07657263,0.0032876509,0.00013209708,-0.018735813,0.00573264,-0.006500924,0.44166616,-1.4617785,1.9993685,-2.1078827,-1.5693725,2.4166353,-0.08393775,0.117715664,-0.13025814,-0.00061125896,0.014283964,-0.07734932,-0.34476504,0.2681506,-9.5385,0.8224646,47.68062,-1.0538051,-1.8898818,-3.3360178,-0.56734216,0.1586171,-0.35036182,26.4375,27.3125,26.375,29.5625,30.8125,31.3125
0.1620517,-2.0379903,-1.4197352,-0.88789225,-0.037835512,0.04116863,-0.11494444,-0.37906975,-0.32810014,0.060060035,3.077255,-0.62480813,-0.0002206827,-0.07936895,0.0031667901,0.0009493306,-0.020427382,0.007455585,-0.0094652185,0.4414851,-1.4615142,1.9990672,-2.107919,-1.569372,2.416528,-0.08668013,0.12020708,-0.13487625,-0.0007655054,0.015074791,-0.07712365,-0.38307226,0.24899697,-9.289503,0.8403672,47.701214,-0.98150826,-1.8139594,-3.1668282,-0.5621011,0.16464387,-0.36404777,26.4375,27.3125,26.375,29.5625,30.8125,31.3125
0.1640526,-1.719875,-1.0026747,-0.88145465,-0.032550413,0.038732544,-0.1275732,-0.37921754,-0.3280847,0.06006698,3.0772538,-0.62473047,-0.00022388433,-0.079670295,0.0037035153,3.0280176e-05,-0.020036178,0.0067754695,-0.009473929,0.44131675,-1.4612983,1.9988045,-2.1078837,-1.5693601,2.4163115,-0.087867856,0.12162922,-0.13403085,-0.0022458846,0.015014696,-0.07830239,-0.34476507,0.21068975,-9.289503,0.8023209,47.694946,-0.8906107,-1.7531644,-3.4076984,-0.5486425,0.18517609,-0.3928536,26.4375,27.3125,26.375,29.5625,30.8125,31.3125
0.16605163,-1.7912091,-0.8446843,-0.85817236,-0.016162368,0.03205231,-0.11740573,-0.37940133,-0.32808244,0.060077213,3.0771625,-0.624746,-0.00030868014,-0.08091478,0.003135773,5.3089807e-05,-0.021410106,0.007289094,-0.0037020857,0.4411248,-1.4610579,1.9985288,-2.1079433,-1.5693239,2.416141,-0.088553734,0.12382496,-0.13632032,-0.0031933659,0.016048381,-0.08475717,-0.24899697,0.17238252,-9.3661175,0.8112748,47.70032,-0.95162123,-1.7893715,-3.2245898,-0.53844845,0.18613163,-0.3533662,26.4375,27.3125,26.375,29.5625,30.8125,31.3125
0.16805258,-1.6329837,-0.65095156,-0.6262841,-0.013074734,0.032503963,-0.1185192,-0.37957612,-0.3280877,0.06010759,3.0770996,-0.62465847,-0.00037908752,-0.08328995,0.0042062365,0.00023720629,-0.022224499,0.0076108146,-0.0068119024,0.44095498,-1.4608417,1.9982175,-2.1079314,-1.5692877,2.4159248,-0.093017235,0.1256336,-0.13876678,-0.003188711,0.016653724,-0.08610804,-0.34476504,0.05746084,-9.212888,0.7866488,47.672558,-0.69922125,-1.8438778,-3.267531,-0.534079,0.19027357,-0.32819015,26.4375,27.3125,26.375,29.5625,30.8125,31.3125
0.17005244,-1.1927593,-0.3266113,-0.631818,-0.0027669785,0.040828258,-0.1342624,-0.3797253,-0.32808226,0.060070753,3.0770314,-0.62477547,-0.00027934535,-0.083038025,0.00336532,-0.000942735,-0.021751948,0.0050461744,-0.00054655806,0.44076374,-1.4605408,1.9979771,-2.1079671,-1.5692152,2.4158154,-0.09162652,0.12938769,-0.14033599,-0.0028389704,0.017324757,-0.090981945,-0.22984336,0.13407528,-9.289503,0.78888994,47.66808,-0.88267815,-2.025201,-3.2348685,-0.5318332,0.19500035,-0.31545904,26.4375,27.3125,26.375,29.5625,30.8125,31.3125
0.17205244,-0.8609734,0.23819888,-0.628371,-0.0046855495,0.04932923,-0.1341209,-0.37991127,-0.32807773,0.060090654,3.0769672,-0.62468404,-0.00032379004,-0.08532168,0.0044337423,-0.0007246712,-0.022005111,0.005265036,0.00090334,0.4405583,-1.4603009,1.9976662,-2.1079671,-1.5691675,2.4155612,-0.09568755,0.13129076,-0.14309965,-0.002269343,0.017472116,-0.096490026,-0.19153613,0.19153613,-9.308657,0.7597976,47.66808,-0.7265398,-1.8450041,-3.1508188,-0.5358308,0.21278024,-0.24657583,26.4375,27.3125,26.375,29.5625,30.8125,31.3125
0.1740524,-1.7306218,0.029000113,-0.5269859,-0.010871024,0.03686706,-0.12742071,-0.38010028,-0.3280695,0.060122732,3.076894,-0.6247036,-0.000432889,-0.08581521,0.0031606657,0.00027070442,-0.022921395,0.0070689144,0.0077667926,0.44036704,-1.4600852,1.9973539,-2.1079667,-1.5691551,2.4153917,-0.093740255,0.13157718,-0.14581555,-0.0018511,0.017545892,-0.101403095,-0.19153613,0.17238252,-9.289502,0.80456203,47.657326,-0.7908931,-1.9311059,-3.304473,-0.5272033,0.2044121,-0.18253946,26.4375,27.3125,26.375,29.5625,30.8125,31.3125
0.17605242,-1.5234613,-0.6052956,-0.6182772,-0.017793542,0.04575499,-0.11992387,-0.38026074,-0.32805973,0.060103506,3.076864,-0.6246965,-0.00037142343,-0.085348286,0.003809912,-0.001574885,-0.021630047,0.0030964164,0.010380203,0.44017464,-1.4597964,1.9970783,-2.1079667,-1.5691074,2.4151988,-0.0948458,0.13457455,-0.14503321,-0.0014750677,0.018079609,-0.10512252,-0.15322891,0.15322891,-9.212888,0.8023209,47.67166,-0.78292274,-2.012314,-3.3030126,-0.5222571,0.21211918,-0.11556736,26.4375,27.3125,26.375,29.5625,30.8125,31.3125
0.17805234,-1.8706971,-0.7993762,-0.61344546,-0.028437896,0.045800555,-0.114742465,-0.38044083,-0.3280295,0.060089577,3.076876,-0.62463963,-0.00037028373,-0.08579792,0.0037415575,-0.0016638259,-0.021063276,0.003102333,0.012030949,0.4399587,-1.4595088,1.9967917,-2.1079667,-1.5691074,2.414946,-0.09471597,0.13584188,-0.14633477,-0.0011967851,0.01756667,-0.10664261,-0.15322891,0.21068975,-9.155427,0.7553206,47.658226,-0.89238536,-1.8609121,-3.3186598,-0.5298632,0.22546712,-0.057875305,26.4375,27.3125,26.375,29.5625,30.8125,31.3125
0.18005234,-1.356654,-0.6745352,-0.5590593,-0.03699806,0.050780155,-0.12515597,-0.38060763,-0.32802948,0.06008298,3.0768418,-0.6245384,-0.00035526638,-0.086433075,0.003323992,-0.0013554328,-0.021502716,0.0036644952,0.010640729,0.43977872,-1.4592329,1.9965042,-2.107979,-1.5690593,2.4147074,-0.094551295,0.136745,-0.14811982,-0.0010050904,0.017724091,-0.10508628,-0.19153613,0.15322891,-9.136273,0.85826975,47.67166,-0.90306026,-1.9356468,-3.3559163,-0.5244826,0.23839618,-0.058446318,26.4375,27.3125,26.375,29.5625,30.8125,31.3125
0.18205237,-1.2129302,-1.1953462,-0.70503384,-0.024809146,0.042014726,-0.11502899,-0.3807723,-0.32803482,0.060092293,3.0768106,-0.62449497,-0.00040449383,-0.08715389,0.0029418208,-0.00095565023,-0.02256684,0.0041636396,0.0072496487,0.43963474,-1.458981,1.9962038,-2.107979,-1.5690469,2.4145405,-0.094928816,0.13737871,-0.14980008,-0.00086637173,0.018473879,-0.10207094,-0.17238252,0.21068975,-9.193734,0.7553206,47.650166,-0.98664856,-1.8458251,-3.3175435,-0.52306056,0.25283653,-0.07998778,26.4375,27.3125,26.375,29.5625,30.8125,31.3125
0.18405221,-0.904618,-1.1954529,-0.752683,-0.019268392,0.02764423,-0.11750217,-0.38095903,-0.32802045,0.060092993,3.0767374,-0.6244999,-0.00036477027,-0.08787144,0.002385819,-0.0009816595,-0.022523588,0.0043261214,0.0047894097,0.43939498,-1.4587048,1.9958934,-2.1079667,-1.5689753,2.4143133,-0.09438781,0.1394696,-0.15211704,-0.00076138944,0.018361945,-0.09906775,-0.019153614,0.24899697,-9.155427,0.784413,47.635834,-1.0804579,-1.8625926,-3.2755566,-0.52016926,0.26272577,-0.10305038,26.4375,27.3125,26.375,29.5625,30.8125,31.3125
0.18605244,-0.7420767,-0.75188184,-0.71486014,-0.01896418,0.006417523,-0.12054475,-0.38115066,-0.32801464,0.060092732,3.076726,-0.62448066,-0.00039446648,-0.08863048,0.002392349,-0.0008847604,-0.023221882,0.00438924,0.00041139754,0.43921456,-1.4583931,1.9955457,-2.1079547,-1.5689749,2.4141226,-0.09541521,0.14034082,-0.15334515,-0.00076252,0.018964345,-0.09571595,-0.11492168,0.24899697,-9.136273,0.8224646,47.658226,-1.0551763,-1.8427479,-3.3627362,-0.53168684,0.2550246,-0.13236493,26.4375,27.3125,26.375,29.5625,30.8125,31.3125
0.1880524,-0.27291533,-0.74782014,-0.9525662,-0.021738673,0.0032258406,-0.121447645,-0.3813281,-0.32800633,0.06009825,3.0766847,-0.62445575,-0.00045641983,-0.0891844,0.0025446555,-0.0021125306,-0.022911772,0.0018484992,-0.003957172,0.43903413,-1.4581401,1.9952582,-2.1079786,-1.5689625,2.413932,-0.09666934,0.14398448,-0.1546232,-0.0006996347,0.019764338,-0.09259913,-0.095768064,0.2681506,-9.232041,0.85826975,47.68599,-1.0366979,-1.951765,-3.3681684,-0.5114131,0.27038142,-0.17760387,26.4375,27.3125,26.375,29.5625,30.8125,31.3125
0.1900523,0.09074087,-0.84896487,-0.78659016,-0.04006589,0.0067389337,-0.1299425,-0.38150647,-0.32801753,0.06010426,3.0766141,-0.6244235,-0.00048947905,-0.09130926,0.002140285,0.00048390712,-0.025345411,0.0068426505,-0.008106825,0.43886578,-1.4578658,1.9949459,-2.1080024,-1.5689148,2.4137528,-0.09778082,0.14160748,-0.15801196,-0.00048621054,0.019841306,-0.08955832,0.11492168,0.30645782,-9.174581,0.8493211,47.67793,-1.0456576,-1.5935767,-3.2617216,-0.5268465,0.3026455,-0.22931743,26.4375,27.3125,26.375,29.5625,30.8125,31.3125
0.19205241,-0.007857336,-1.121104,-1.0704627,-0.050593514,0.005916099,-0.12633604,-0.38168502,-0.3279926,0.060090248,3.076552,-0.62454534,-0.0003754793,-0.09166266,0.002591167,0.0001074826,-0.025381139,0.0059769214,-0.0085760495,0.4386134,-1.4575661,1.9946345,-2.1079543,-1.5688423,2.4135845,-0.09913547,0.14244238,-0.15813181,-0.00042100972,0.020243537,-0.090444356,0.095768064,0.3256114,-9.346964,0.8090337,47.683304,-1.0020151,-1.6727048,-3.4942284,-0.5174228,0.30034462,-0.2486046,26.4375,27.3125,26.375,29.5625,30.8125,31.3125
0.1940527,-0.55400646,-1.3050803,-1.0971621,-0.05996633,0.0058109444,-0.11826354,-0.38186085,-0.32796398,0.06007241,3.076531,-0.62467813,-0.00033118567,-0.09228867,0.0022925476,-0.0006211357,-0.025676042,0.004382992,-0.012335784,0.43839723,-1.4572656,1.9943365,-2.1079304,-1.5688304,2.413454,-0.099696696,0.14554852,-0.1599605,-0.00038376354,0.021179538,-0.087244876,0.05746084,0.34476504,-9.404425,0.8179876,47.66987,-1.0687892,-1.6902807,-3.3604293,-0.5201391,0.28969705,-0.31026238,26.4375,27.3125,26.375,29.5625,30.8125,31.3125
0.19605166,-0.85784745,-1.665791,-1.2716937,-0.05412375,0.0081824185,-0.11794088,-0.3820353,-0.32797354,0.060064532,3.0765173,-0.62461585,-0.00035138117,-0.0928962,0.0016444878,-0.00033315478,-0.026636753,0.004765404,-0.010438565,0.43825316,-1.4569539,1.9940113,-2.1079423,-1.568818,2.413273,-0.09944507,0.14662808,-0.16188079,-0.00029250784,0.021890169,-0.088888735,0.038307227,0.34476504,-9.442732,0.83813137,47.698532,-1.0785438,-1.7170669,-3.3876085,-0.5263813,0.30127695,-0.3309834,26.4375,27.3125,26.375,29.5625,30.8125,31.3125
0.19805174,-0.4353986,-1.0251639,-1.3297402,-0.047568463,0.008967877,-0.12512365,-0.38224605,-0.32795227,0.060063664,3.0764406,-0.62468135,-0.0003241609,-0.09479097,0.0025211775,3.065966e-05,-0.027700206,0.005311841,-0.017731788,0.43798798,-1.4566422,1.9936646,-2.1079304,-1.5687579,2.4130588,-0.10315334,0.14746821,-0.16369426,-0.00026281818,0.022618167,-0.085302144,0.19153613,0.34476504,-9.5385,0.94331104,47.687782,-0.95851207,-1.5682731,-3.4200034,-0.5253279,0.3066966,-0.3865589,26.4375,27.3125,26.375,29.5625,30.8125,31.3125
0.20005167,-0.85775834,-1.1505475,-1.4766955,-0.038649723,-0.0046945787,-0.111325294,-0.38241947,-0.3279531,0.060056794,3.0763936,-0.6247085,-0.00034459648,-0.09360915,0.0014740988,-0.00044708248,-0.02815435,0.0039897216,-0.015145414,0.43782085,-1.4563543,1.9933661,-2.1079543,-1.5687336,2.4129148,-0.100762166,0.14801468,-0.1632515,-0.0002444173,0.023596974,-0.0854967,0.095768064,0.2873042,-9.595961,0.8918391,47.731667,-1.1615179,-1.6923875,-3.4352403,-0.5126033,0.3078356,-0.4512887,26.4375,27.3125,26.375,29.5625,30.8125,31.3125
0.20205164,-0.8245147,-0.88081515,-1.5329205,-0.046753578,0.006912384,-0.12105225,-0.38258356,-0.32794824,0.060045473,3.0763566,-0.62468165,-0.00027233822,-0.09610828,0.0024673918,-0.0012701203,-0.028121762,0.0025387572,-0.016803827,0.43762723,-1.4560648,1.9930652,-2.1079304,-1.568673,2.4127092,-0.10513858,0.15265912,-0.16657071,-0.00022883581,0.024181578,-0.0882124,-0.038307227,0.3256114,-9.557653,0.7866488,47.711063,-1.0251449,-1.8000966,-3.437737,-0.52231085,0.29694068,-0.48072344,26.4375,27.3125,26.375,29.5625,30.8125,31.3125
0.2040525,-0.8148115,-1.6046842,-2.0061417,-0.030837014,0.03111964,-0.1188497,-0.38277203,-0.32794732,0.06004545,3.076275,-0.6247189,-0.00023492133,-0.096441135,0.0013954032,-0.0011115096,-0.028650325,0.0029437707,-0.01052769,0.437412,-1.4557654,1.99273,-2.1079185,-1.568601,2.4125278,-0.103577584,0.15425335,-0.16874975,-0.00021514934,0.024496963,-0.09292556,0.076614454,0.3256114,-9.672575,0.85826975,47.68062,-1.1169807,-1.733268,-3.4549236,-0.51755303,0.30935162,-0.49123493,26.4375,27.3125,26.375,29.5625,30.8125,31.3125
0.20605245,-1.2247511,-1.5865394,-1.8929855,-0.053916603,0.04933235,-0.120413296,-0.38298872,-0.32795918,0.060057607,3.0762062,-0.62466353,-0.0003045629,-0.096725844,0.0014022726,-0.0023055978,-0.028344953,0.0004999675,-0.0051730257,0.43721983,-1.4554409,1.9923471,-2.1079423,-1.5685648,2.4123101,-0.104288556,0.15756181,-0.16975367,-0.00015910396,0.025273845,-0.09898807,-0.095768064,0.30645782,-9.787497,0.92093146,47.694054,-1.2017328,-1.8575597,-3.5388622,-0.5094308,0.32200083,-0.42488128,26.4375,27.3125,26.375,29.5625,30.8125,31.3125
0.2080523,-2.4342139,-2.667188,-1.8096796,-0.051932495,0.043020125,-0.113860995,-0.3831971,-0.32794762,0.060069665,3.0761392,-0.6246658,-0.00034602228,-0.09783196,0.0012521596,-0.0025970505,-0.028429613,-1.5191248e-05,0.00020143755,0.43699148,-1.4551524,1.991999,-2.1079423,-1.5685285,2.412092,-0.1051118,0.16032678,-0.17224279,1.6785614e-05,0.025583308,-0.10518251,-0.11492168,0.30645782,-9.749189,0.9186956,47.670765,-1.207385,-1.9268925,-3.474442,-0.5145958,0.313055,-0.3976759,26.4375,27.3125,26.375,29.5625,30.8125,31.3125
0.21005224,-2.2012143,-2.204372,-1.7857583,-0.061687253,0.056729987,-0.10685501,-0.38339564,-0.32796517,0.060077067,3.0760589,-0.6245694,-0.0003000144,-0.09927916,0.002285998,-0.0026955446,-0.02836494,-0.000115953284,0.005782462,0.43678638,-1.4548284,1.9916166,-2.1079185,-1.5684327,2.411837,-0.10823201,0.16153984,-0.17344688,0.00016026158,0.025586778,-0.1138822,-0.24899697,0.36391866,-9.710882,0.8873621,47.672558,-1.0369432,-1.946471,-3.4806383,-0.50786626,0.31050864,-0.2958462,26.4375,27.3125,26.375,29.5625,30.8125,31.3125
0.21205217,-2.1801987,-1.5969026,-1.689772,-0.049489804,0.056241456,-0.113086574,-0.38359886,-0.3279647,0.060075197,3.075985,-0.6245318,-0.00037263116,-0.09929381,0.00082992675,-0.002686296,-0.028698737,7.00965e-05,0.0125518525,0.43658346,-1.4545285,1.9913038,-2.10799,-1.5683964,2.4116204,-0.10562529,0.16352634,-0.17572123,0.00015586732,0.025825547,-0.11804116,-0.34476504,0.24899697,-9.691729,0.85826975,47.71286,-1.3120989,-1.9674401,-3.4651036,-0.5067152,0.3216598,-0.25228745,26.4375,27.3125,26.375,29.5625,30.8125,31.3125
0.21405213,-1.6845299,-0.65924984,-1.3836108,-0.043480985,0.06721693,-0.121870644,-0.38376307,-0.32796142,0.060049977,3.0759933,-0.6243988,-0.00018966821,-0.102811284,0.0014298828,-0.0005882821,-0.031239253,0.0042673578,0.011629202,0.43637776,-1.4541812,1.9909562,-2.1079066,-1.5683125,2.4113307,-0.11009314,0.1630686,-0.18004587,8.188008e-05,0.026343592,-0.121586084,-0.4405331,0.22984336,-9.595961,0.8940802,47.692257,-1.0485822,-1.8636813,-3.4733992,-0.5083746,0.3209394,-0.2093136,26.4375,27.3125,26.375,29.5625,30.8125,31.3125
0.21605214,-1.5134168,-0.13436426,-1.2976239,-0.02201067,0.06604583,-0.12292149,-0.38398752,-0.32796374,0.060071267,3.0759423,-0.62436855,-0.0003072275,-0.102676444,0.0012974966,-0.001378134,-0.030985735,0.0026915038,0.012589844,0.436186,-1.4538685,1.9905623,-2.1079185,-1.5683125,2.4111269,-0.10995449,0.16490638,-0.18032831,6.733096e-05,0.026795058,-0.12240512,-0.63206923,0.19153614,-9.481039,0.8940802,47.66091,-1.1979251,-2.0252051,-3.4247742,-0.5055907,0.30993593,-0.18222645,26.4375,27.3125,26.375,29.5625,30.8125,31.3125
0.2180522,-2.1416707,-0.82014656,-1.34559,0.0055970545,0.05531994,-0.10669807,-0.3842027,-0.32797197,0.060067445,3.075854,-0.6243138,-0.00029004586,-0.104205266,0.0016103345,-0.0019338089,-0.030939193,0.0018070716,0.008695319,0.4359572,-1.4535207,1.9901894,-2.1079423,-1.5682281,2.4108753,-0.1120106,0.16828005,-0.1828643,6.212616e-05,0.027126795,-0.120563425,-0.59376204,0.11492168,-9.442732,0.8179876,47.66271,-1.1476367,-1.8750939,-3.3785248,-0.49979284,0.30485177,-0.16243029,26.4375,27.3125,26.375,29.5625,30.8125,31.3125
0.22005205,-1.8716577,-0.14077616,-1.0096232,-0.006506415,0.083332494,-0.123153806,-0.38441518,-0.32793593,0.060052462,3.0758064,-0.62436575,-0.00027115332,-0.10549521,0.0018746704,-0.0010768967,-0.03187592,0.0035419553,0.002806399,0.43568075,-1.4531974,1.9898666,-2.1079543,-1.5681919,2.4106376,-0.11361335,0.16786411,-0.18441096,5.8078054e-05,0.027237553,-0.116276205,-0.61291564,0.076614454,-9.442732,0.81351066,47.711964,-1.0455791,-1.832695,-3.4252653,-0.4945128,0.3150318,-0.20762762,26.4375,27.3125,26.375,29.5625,30.8125,31.3125
0.2220522,-2.0603273,-0.24578162,-1.0789341,-0.02243141,0.09219866,-0.12274412,-0.3846149,-0.32794514,0.06006464,3.0757203,-0.6243909,-0.00024885018,-0.106601804,0.0025956556,-0.0012679765,-0.032393977,0.0030166188,-0.004890714,0.43547577,-1.4528857,1.9894837,-2.1079185,-1.5681199,2.4104595,-0.11629722,0.16900785,-0.185294,5.4553442e-05,0.027924486,-0.11126108,-0.6512228,-0.05746084,-9.461885,0.7933669,47.71286,-1.0174931,-1.813189,-3.4638367,-0.488922,0.3061299,-0.28457692,26.4375,27.3125,26.375,29.5625,30.8125,31.3125
0.22405289,-2.2404134,-0.41815343,-0.65015036,-0.026647814,0.096485235,-0.12301028,-0.38486022,-0.32793283,0.06008785,3.075638,-0.624375,-0.00036151925,-0.107267514,0.0029759572,-0.0020520908,-0.032368805,0.0014097935,-0.008556017,0.43522313,-1.4525735,1.9890884,-2.1079423,-1.5680956,2.4102077,-0.11793282,0.17139843,-0.18621132,5.1434356e-05,0.028588885,-0.10922721,-0.7086837,-0.11492168,-9.3661175,0.8806493,47.694946,-0.9459704,-1.6922069,-3.4353156,-0.5011126,0.2945853,-0.3280788,26.4375,27.3125,26.375,29.5625,30.8125,31.3125
0.22605374,-2.4161336,-0.5131936,-0.6037276,-0.0070348405,0.08278891,-0.120072864,-0.38505957,-0.32795918,0.060080893,3.0755396,-0.6242979,-0.00028079186,-0.109423585,0.0028093732,0.00035806446,-0.034587514,0.0062567615,-0.009795905,0.4350187,-1.452215,1.988705,-2.1079423,-1.5679754,2.409968,-0.119394585,0.16914988,-0.18927078,4.865264e-05,0.028557904,-0.10944722,-0.7661445,-0.095768064,-9.232041,0.87617236,47.68062,-0.8941642,-1.6355524,-3.4362855,-0.48442352,0.2995208,-0.33283213,26.4375,27.3125,26.375,29.5625,30.8125,31.3125
0.22805277,-1.4881988,0.22468232,-0.7955822,0.01534238,0.079388626,-0.11922301,-0.38528696,-0.3279382,0.06007516,3.0754886,-0.6243451,-0.0003047258,-0.11098102,0.0029896235,0.00082859304,-0.03459651,0.007671367,-0.011056626,0.4347664,-1.4518671,1.9883331,-2.1079543,-1.567952,2.409752,-0.120603204,0.17037879,-0.19177213,4.6156707e-05,0.02797375,-0.10939305,-0.59376204,-0.11492168,-9.232041,0.85826975,47.67793,-0.8509623,-1.6057134,-3.431652,-0.47672075,0.2967797,-0.36150062,26.4375,27.3125,26.375,29.5625,30.8125,31.3125
0.23005214,-1.048509,0.76724416,-0.70129937,0.020307697,0.07477315,-0.12507056,-0.38553506,-0.32791427,0.060083255,3.07542,-0.6244084,-0.0003563491,-0.11143637,0.0029205678,0.00045735863,-0.0344858,0.007078123,-0.012268857,0.43449035,-1.4515188,1.9879264,-2.1079543,-1.5679277,2.4095244,-0.12087538,0.17211471,-0.1929136,4.390436e-05,0.028130805,-0.10845049,-0.5554548,-0.17238252,-9.232041,0.83589023,47.65643,-0.9603782,-1.5559816,-3.420235,-0.4730241,0.31375003,-0.39461708,26.4375,27.3125,26.375,29.5625,30.8125,31.3125
0.23205219,-1.1164191,0.90419143,-0.7609692,0.02247212,0.06039619,-0.12768424,-0.38575876,-0.32791975,0.060080685,3.0753374,-0.6245065,-0.00035799172,-0.1125644,0.0020448866,0.0011393705,-0.03637238,0.008139362,-0.0115610445,0.43427435,-1.4511474,1.9875182,-2.1079543,-1.5678796,2.4093804,-0.12098375,0.17323926,-0.19578363,4.1861513e-05,0.0293999,-0.109263025,-0.49799395,-0.05746084,-9.174581,0.9164598,47.6636,-0.9797846,-1.4550685,-3.4077978,-0.4505962,0.3062291,-0.38949224,26.4375,27.3125,26.375,29.5625,30.8125,31.3125
0.2340521,-1.1136768,0.31132996,-0.9616006,0.023353295,0.059140846,-0.118343644,-0.38594222,-0.32791728,0.06005599,3.0752335,-0.62448275,-0.0002341532,-0.11364866,0.0013121569,0.0019013084,-0.03787886,0.009540982,-0.009137623,0.43402258,-1.4508235,1.9872192,-2.1079786,-1.567747,2.4091272,-0.12099857,0.173986,-0.1984078,4.0107458e-05,0.030182721,-0.11169927,-0.4405331,-0.11492168,-9.232041,0.8985519,47.652847,-1.0887529,-1.4732454,-3.3093653,-0.45498556,0.28077924,-0.43017575,26.4375,27.3125,26.375,29.5625,30.8125,31.3125
0.23605217,-1.1257612,0.10637674,-1.1200502,-0.003802862,0.061424267,-0.12779602,-0.38617972,-0.3278877,0.060055383,3.0751963,-0.6245299,-0.00022821942,-0.115239,0.0006237815,0.0021353299,-0.039013725,0.010040126,-0.003413068,0.43374613,-1.4504635,1.9868106,-2.1079423,-1.5677232,2.4088852,-0.121554025,0.17681915,-0.20216706,6.222493e-05,0.031017063,-0.1179759,-0.2681506,-0.038307227,-9.481039,0.8627467,47.670765,-0.9356288,-1.5419395,-3.3092196,-0.45041576,0.27260438,-0.3631453,26.4375,27.3125,26.375,29.5625,30.8125,31.3125
0.23805222,-1.0697476,-1.1301554,-1.0698355,-0.026609361,0.057955086,-0.11959963,-0.38643876,-0.32788935,0.06010234,3.0750864,-0.62444764,-0.00036317084,-0.11684002,0.001962333,0.0009225092,-0.03873499,0.007584436,-0.0012775706,0.4334927,-1.4501626,1.9863676,-2.1079423,-1.5676745,2.4085948,-0.12585865,0.18049248,-0.20356263,0.00015941288,0.031831495,-0.124409735,-0.11492168,0.076614454,-9.3661175,0.8873621,47.70838,-0.9894444,-1.583729,-3.3913136,-0.42325717,0.27661484,-0.32443842,26.4375,27.3125,26.375,29.5625,30.8125,31.3125
0.24005224,-0.55805176,-1.543364,-1.2412729,-0.049720258,0.0509799,-0.11823659,-0.38668627,-0.32788205,0.060092025,3.0750394,-0.62443346,-0.0003719032,-0.116012976,0.0017867343,-0.001324237,-0.036170784,0.003167845,0.0061295964,0.43324134,-1.4497535,1.985937,-2.1079538,-1.5676388,2.408341,-0.124423,0.18535951,-0.20411906,0.0009654673,0.031383377,-0.13038,-0.1340753,0.21068975,-9.346964,0.9030289,47.716442,-0.9617549,-1.9726598,-3.340051,-0.44257343,0.25954473,-0.2689791,26.4375,27.3125,26.375,29.5625,30.8125,31.3125
0.24205267,-1.0699399,-1.7276989,-1.2807709,-0.068257876,0.02050979,-0.11770846,-0.38690135,-0.3278718,0.060056362,3.0749977,-0.6244213,-0.00027460218,-0.11697363,0.0019105641,-0.0016450488,-0.035309356,0.0025797598,0.012106517,0.43298903,-1.4493454,1.9855655,-2.1079657,-1.5675672,2.4080865,-0.12504366,0.18793999,-0.20651317,0.0017133343,0.030861935,-0.13697755,-0.095768064,0.38307226,-9.442732,0.8717007,47.71286,-0.99452496,-1.7604914,-3.2806325,-0.44569057,0.2668376,-0.1726281,26.4375,27.3125,26.375,29.5625,30.8125,31.3125
0.24405178,-0.9097112,-2.4335487,-1.5866842,-0.06081995,0.025504021,-0.10816485,-0.38712978,-0.3278533,0.06008296,3.0749338,-0.6243889,-0.0002926501,-0.118879385,0.0008637886,0.0008261752,-0.03793849,0.0068268348,0.012802711,0.43272528,-1.4490466,1.9851574,-2.1079056,-1.5675186,2.407811,-0.12505184,0.1866037,-0.21089469,0.0024878518,0.031473104,-0.13767794,-0.21068975,0.49799395,-9.481039,0.8090337,47.703007,-1.0621331,-1.7111224,-3.2624102,-0.44373143,0.27099413,-0.15739843,26.4375,27.3125,26.375,29.5625,30.8125,31.3125
0.24605273,-0.8576871,-2.3398914,-1.737411,-0.07635261,0.02486645,-0.10938684,-0.3873598,-0.3278588,0.06007882,3.0748758,-0.6243215,-0.00028169723,-0.11895136,0.00036242153,0.0006399151,-0.03972753,0.005951436,0.0103213545,0.4324969,-1.4486635,1.9847387,-2.1079056,-1.567458,2.4075482,-0.12541033,0.18737532,-0.21132664,0.002194964,0.03346728,-0.13555165,-0.019153614,0.61291564,-9.5385,0.86945957,47.694946,-1.002662,-1.7162778,-3.3226204,-0.4444006,0.25510916,-0.13250828,26.4375,27.3125,26.375,29.5625,30.8125,31.3125
0.24805203,-1.0769224,-2.967435,-1.7755808,-0.08321615,0.01988977,-0.10493174,-0.38760886,-0.32785764,0.060079917,3.0747802,-0.6243247,-0.00028731575,-0.119128,0.0016165873,-0.0007892954,-0.03987572,0.0029377618,0.0029787978,0.4322321,-1.4482787,1.9843091,-2.107918,-1.5673856,2.4072978,-0.12870811,0.18902063,-0.209865,0.0017633615,0.03486959,-0.13150404,0.019153614,0.7278373,-9.595961,0.8291774,47.694946,-1.113243,-1.7800202,-3.4640903,-0.44192767,0.22869301,-0.1747817,26.4375,27.3125,26.375,29.5625,30.8125,31.3125
0.25005218,-0.82562083,-2.8795755,-1.2681154,-0.10527449,0.025008468,-0.11282604,-0.38786414,-0.32785335,0.060102407,3.0746777,-0.6242862,-0.00032596817,-0.119395815,0.00080405636,-0.0011397367,-0.040110353,0.002751693,0.0002700138,0.4319564,-1.4479308,1.9838661,-2.107906,-1.5673131,2.4070115,-0.1275175,0.1911703,-0.21140482,0.0012297991,0.03516196,-0.12760027,-0.019153614,0.80445176,-9.442732,0.8403672,47.70211,-1.1040735,-1.8099229,-3.504233,-0.41700292,0.20932823,-0.21356985,26.4375,27.3125,26.375,29.5625,30.8125,31.3125
0.25205222,-0.18538134,-2.491384,-1.4434825,-0.09502048,0.026766704,-0.11581328,-0.38809723,-0.32784036,0.06006632,3.074622,-0.62435323,-0.00025427868,-0.11975852,0.0010312112,-0.0019688013,-0.04015266,0.0010190392,-0.0048574544,0.4316921,-1.4474992,1.9834713,-2.10793,-1.567253,2.4067965,-0.12864792,0.19333735,-0.21201128,0.0012263445,0.035916906,-0.12360229,0.05746084,0.7469909,-9.423578,0.84708,47.723602,-1.1008271,-1.6876929,-3.5283883,-0.41836676,0.19692451,-0.27913284,26.4375,27.3125,26.375,29.5625,30.8125,31.3125
0.25405234,-0.2536967,-2.252518,-1.5904791,-0.07077361,0.011923877,-0.10940798,-0.38834736,-0.32786524,0.06007818,3.0745227,-0.6242975,-0.00029270892,-0.12087984,0.0011398634,-0.0022378508,-0.041378513,0.00013242278,-0.010317633,0.43147522,-1.4471031,1.983004,-2.1079419,-1.5671805,2.4065578,-0.13069233,0.19539174,-0.21375951,0.0012128131,0.037402228,-0.12018059,0.095768064,0.59376204,-9.423578,0.9186956,47.679718,-1.0357766,-1.763364,-3.6318839,-0.38110676,0.18667209,-0.32213965,26.4375,27.3125,26.375,29.5625,30.8125,31.3125
0.25605237,-0.62241054,-2.092598,-1.4995198,-0.052021317,-0.02103216,-0.10121388,-0.3886216,-0.32783902,0.060089935,3.0744293,-0.62429845,-0.00032768716,-0.12199971,0.0007198712,-0.0019984625,-0.042226296,0.000722118,-0.0131954765,0.4311512,-1.4467309,1.9825605,-2.1079419,-1.56712,2.4062467,-0.13109957,0.1970801,-0.21624224,0.0011262546,0.037927724,-0.11770517,0.17238252,0.49799395,-9.251195,0.82694155,47.698532,-1.0832219,-1.7432576,-3.4841027,-0.39888442,0.15613708,-0.38454965,26.4375,27.3125,26.375,29.5625,30.8125,31.3125
0.25805223,-0.026442342,-1.5488642,-1.3411518,-0.035274114,-0.010756407,-0.109250255,-0.38881597,-0.32785517,0.060051084,3.07435,-0.6243422,-0.00015575711,-0.12326781,0.0006028086,-0.0017733533,-0.042771403,0.0013017423,-0.01665789,0.43093485,-1.4463114,1.9821771,-2.10793,-1.5669998,2.4060678,-0.13203834,0.19870144,-0.21866181,0.0011827556,0.03816714,-0.11518167,0.076614454,0.40222588,-9.251195,0.8537928,47.705692,-1.0147281,-1.8218408,-3.429483,-0.37621075,0.1356081,-0.4385688,26.4375,27.3125,26.375,29.5625,30.8125,31.3125
0.26005208,-0.25910932,-0.6799627,-1.1214714,-0.0332311,0.006678709,-0.10754526,-0.38906106,-0.32785356,0.060050014,3.0742664,-0.62440276,-0.00014631503,-0.12482185,0.00050843926,-0.0010281082,-0.044259083,0.0026751934,-0.018507162,0.43068245,-1.445916,1.9817342,-2.107918,-1.5669402,2.4058642,-0.13360184,0.19937219,-0.22118588,0.0011796958,0.038948204,-0.114892244,-0.038307227,0.38307226,-9.232041,0.9186956,47.692257,-0.94391394,-1.7275383,-3.451346,-0.35768384,0.105195224,-0.49230126,26.4375,27.3125,26.375,29.5625,30.8125,31.3125
0.26205194,-0.8618123,-0.90383816,-1.2109836,-0.0068840506,0.01710653,-0.1205753,-0.38932222,-0.32785287,0.06005072,3.0741842,-0.6243841,-0.00016722796,-0.12661009,0.00069334067,-0.00049857807,-0.04443732,0.003926261,-0.017209847,0.43041787,-1.4455076,1.9812778,-2.10793,-1.5668801,2.4055989,-0.13512917,0.20093867,-0.22431424,0.0015592427,0.03860264,-0.11771342,0.13407528,0.21068975,-9.289502,0.8985519,47.65106,-1.0170964,-1.8776983,-3.501683,-0.3578814,0.08195433,-0.5273579,26.4375,27.3125,26.375,29.5625,30.8125,31.3125
0.26405188,-1.7111509,-0.5038445,-1.0111729,-0.014932027,0.024486009,-0.11220164,-0.38959202,-0.32787085,0.060073223,3.0740135,-0.6244203,-0.00019154012,-0.12790541,0.0009967318,-0.00042177108,-0.04426851,0.0039732396,-0.009198193,0.43014133,-1.4451238,1.9807991,-2.1079414,-1.5667604,2.4053671,-0.13658728,0.20276491,-0.22677073,0.0022785873,0.038472258,-0.12717819,0.05746084,0.095768064,-9.270349,0.90527004,47.66808,-0.90237665,-1.7834337,-3.2944002,-0.33904004,0.07543006,-0.490277,26.4375,27.3125,26.375,29.5625,30.8125,31.3125
0.26605198,-1.3246583,-0.14999709,-0.6299766,-0.018605188,0.0522173,-0.11598439,-0.38983917,-0.32787013,0.060066804,3.073923,-0.62439835,-0.0001347848,-0.12991546,0.0008021999,0.0012992179,-0.04569814,0.006632922,-0.003875768,0.42986524,-1.444717,1.9803551,-2.107929,-1.5666641,2.4050891,-0.13796672,0.2025711,-0.23086207,0.0035986109,0.03868661,-0.13387723,-0.13407528,0.019153614,-9.155427,0.8717007,47.690468,-1.0281707,-1.6638587,-3.2181401,-0.3598667,0.040146206,-0.42809588,26.4375,27.3125,26.375,29.5625,30.8125,31.3125
0.26805255,-1.6109476,-0.10167201,-1.0071821,0.014368722,0.0618286,-0.11710969,-0.390091,-0.32785445,0.06003761,3.0739188,-0.6243331,-4.458397e-05,-0.13056979,1.0590152e-05,0.001377291,-0.044625852,0.0070752637,0.009350206,0.42958978,-1.4442487,1.9798883,-2.1078932,-1.5666164,2.4047737,-0.13620113,0.20508344,-0.23415843,0.0044936375,0.03755774,-0.1453391,-0.3256114,-0.038307227,-9.232041,0.842603,47.687782,-1.0544854,-1.6544011,-3.1761525,-0.36272097,0.028729632,-0.31042805,26.4375,27.3125,26.375,29.5625,30.8125,31.3125
0.2700517,-1.8464537,0.5584973,-1.31481,0.024566526,0.074305564,-0.11257306,-0.39035535,-0.327884,0.060075153,3.0737402,-0.6242754,-6.4633314e-05,-0.1318106,0.0014200704,0.0012800193,-0.042974483,0.0075316774,0.013297728,0.4293246,-1.4438891,1.9793967,-2.1078808,-1.5664734,2.4044957,-0.13864943,0.20585491,-0.234952,0.004851225,0.03590867,-0.15173297,-0.40222588,-0.019153614,-9.404425,0.9701675,47.655537,-0.95255774,-1.668174,-3.1684685,-0.3529243,0.025852311,-0.22287336,26.4375,27.3125,26.375,29.5625,30.8125,31.3125
0.27205172,-2.1453927,0.5121937,-1.2747133,0.015549953,0.09423342,-0.11306189,-0.39061993,-0.32787186,0.060065042,3.073681,-0.6241835,-6.9858965e-05,-0.13113739,0.0011284567,0.00018230898,-0.040726554,0.0057220072,0.017945303,0.42903748,-1.4434693,1.9789542,-2.1079047,-1.5664138,2.404159,-0.13657889,0.20834097,-0.23546945,0.0054982053,0.034639657,-0.15431017,-0.4213795,0.019153614,-9.481039,0.900793,47.701214,-1.1370536,-1.6100829,-3.2755337,-0.35845554,0.040263493,-0.15010309,26.4375,27.3125,26.375,29.5625,30.8125,31.3125
0.2740517,-2.227239,-0.40808943,-1.193044,0.0036162557,0.12070905,-0.11654816,-0.3908988,-0.32785475,0.060058426,3.0736501,-0.6242173,-8.858735e-05,-0.13208865,0.0027530452,-0.0012749531,-0.037817486,0.0035913896,0.013654712,0.42876074,-1.4430131,1.9784516,-2.1078808,-1.5664018,2.4039078,-0.13910596,0.21173473,-0.23615159,0.0059443824,0.03288331,-0.15254818,-0.7086837,-0.038307227,-9.423578,0.88960326,47.664497,-1.0705553,-1.6969538,-3.2779713,-0.36576563,0.035217173,-0.14654025,26.4375,27.3125,26.375,29.5625,30.8125,31.3125
0.27605256,-2.1575112,-0.57149214,-1.1170532,-0.0157235,0.1342797,-0.11572095,-0.39111394,-0.32785982,0.06003538,3.073627,-0.6241035,3.6192643e-05,-0.13227077,0.004546628,-0.0032133819,-0.034278028,-0.00017157543,0.003779858,0.4285321,-1.4425926,1.978021,-2.1078322,-1.5663184,2.4036112,-0.14136556,0.21513896,-0.23592915,0.007205265,0.031205919,-0.1449369,-0.842759,0.019153614,-9.461885,0.91421866,47.658226,-1.0949435,-1.882752,-3.3562844,-0.3687401,0.04482189,-0.2258085,26.4375,27.3125,26.375,29.5625,30.8125,31.3125
0.27805248,-2.4616518,-0.9057032,-1.1560154,-0.011660549,0.11863596,-0.10641132,-0.39137864,-0.32783392,0.060016982,3.0735648,-0.624132,7.610162e-05,-0.13250008,0.0047638477,-0.0034002068,-0.032463424,-0.00067567866,-0.0017290993,0.42822024,-1.442161,1.977578,-2.1078317,-1.5662588,2.4033253,-0.14087564,0.21648462,-0.23741822,0.0085586915,0.029751807,-0.13893951,-0.842759,0.0,-9.404425,0.90527004,47.66539,-1.0456085,-1.7595296,-3.5098917,-0.39515194,0.06398411,-0.29102388,26.4375,27.3125,26.375,29.5625,30.8125,31.3125
0.2800525,-2.0464373,-0.42034927,-1.3924022,-0.01105915,0.09509444,-0.11168759,-0.39165607,-0.32783023,0.060013745,3.0734763,-0.62413514,8.0400074e-05,-0.13438344,0.0061048334,-0.0029784872,-0.031629562,0.0011474161,-0.0063444367,0.4279312,-1.4417177,1.9770874,-2.1078317,-1.5661877,2.40305,-0.14381786,0.2168329,-0.23880881,0.008305118,0.02823798,-0.1372669,-0.6512228,-0.038307227,-9.289502,0.7978386,47.651955,-0.9827335,-1.8504531,-3.7358046,-0.37649012,0.07749559,-0.3364929,26.4375,27.3125,26.375,29.5625,30.8125,31.3125
0.28205267,-1.9936895,-0.11394823,-0.935571,-0.007226445,0.071135156,-0.114296615,-0.39196783,-0.3278176,0.060050152,3.0733976,-0.6240974,-0.00010173829,-0.13571703,0.0053822873,-0.0029534951,-0.031472575,0.0027650327,-0.005691015,0.42764372,-1.4413208,1.976561,-2.1078446,-1.5661877,2.4027495,-0.14294992,0.219582,-0.24176712,0.0071177105,0.027438048,-0.13704777,-0.7469909,0.17238253,-9.251195,0.88960326,47.64479,-1.1411213,-1.856979,-3.5958261,-0.36707056,0.10315611,-0.35401914,26.4375,27.3125,26.375,29.5625,30.8125,31.3125
0.28405192,-1.8602458,-0.8765874,-1.1195658,0.009786339,0.068699956,-0.10617427,-0.39221838,-0.3277846,0.06001293,3.0733395,-0.62427807,1.0901428e-05,-0.13773675,0.0048728823,-0.0017520213,-0.032248326,0.0070508616,-0.006121665,0.4273318,-1.440866,1.9761289,-2.1078207,-1.5661286,2.402558,-0.14287885,0.22008823,-0.24479066,0.0054315794,0.026354192,-0.13654737,-0.7086837,0.076614454,-9.251195,0.8627467,47.655537,-1.1577904,-1.9311202,-3.5191102,-0.34583238,0.12819383,-0.38422054,26.4375,27.3125,26.375,29.5625,30.8125,31.3125
0.28605166,-1.6926147,-0.8846616,-1.1041286,0.00633421,0.08435115,-0.10860578,-0.39246956,-0.32778218,0.059997022,3.0732963,-0.6241916,7.558761e-05,-0.14012934,0.0046123434,0.0003227714,-0.033764664,0.011942395,-0.0053246273,0.42706722,-1.4404231,1.9756616,-2.107797,-1.5660561,2.4022453,-0.14387333,0.21915896,-0.24847378,0.00499113,0.025710318,-0.13833839,-0.4213795,0.11492168,-9.270349,0.9097417,47.63852,-1.1721267,-1.6298232,-3.6076865,-0.33109754,0.15487361,-0.4000548,26.4375,27.3125,26.375,29.5625,30.8125,31.3125
0.28805253,-1.8302991,-1.3848598,-0.81760025,-0.01311635,0.08743897,-0.10811931,-0.39276382,-0.32776704,0.059995376,3.0732434,-0.6241971,6.1567436e-05,-0.14171542,0.004299004,0.0011003029,-0.03442,0.012874605,-0.00089588604,0.42676717,-1.4399554,1.9751333,-2.107772,-1.5660204,2.4019558,-0.14464839,0.2207428,-0.25242206,0.0062713823,0.025944734,-0.14353913,-0.59376204,0.21068975,-9.232041,0.9791215,47.67345,-1.144239,-1.7471478,-3.4440222,-0.34083062,0.14969733,-0.3581499,26.4375,27.3125,26.375,29.5625,30.8125,31.3125
0.29005262,-1.6921372,-1.3297235,-1.0134714,-0.029085722,0.082676314,-0.11085243,-0.39303783,-0.32776827,0.05999825,3.0731664,-0.6241766,8.242577e-05,-0.14263174,0.004151437,0.0007980091,-0.03384074,0.011393349,0.006583966,0.42649084,-1.4395114,1.9746188,-2.1077363,-1.5659484,2.401677,-0.14509684,0.22392187,-0.2558352,0.008147583,0.026065245,-0.15146483,-0.63206923,0.4405331,-9.212888,0.93436235,47.698532,-1.1830913,-1.7408228,-3.3804078,-0.34411192,0.16862895,-0.30595767,26.4375,27.3125,26.375,29.5625,30.8125,31.3125
0.29205188,-1.3447002,-1.3707749,-1.125395,-0.039639335,0.07818743,-0.118182994,-0.39332408,-0.32772315,0.05996052,3.0731478,-0.6241879,0.00014420903,-0.14372976,0.004454247,0.00082569255,-0.03406201,0.011384102,0.013808012,0.42614257,-1.4390197,1.974151,-2.1077363,-1.5659121,2.4013383,-0.14658657,0.2253461,-0.25770426,0.008563891,0.026300704,-0.1601781,-0.34476504,0.36391866,-9.270349,0.8403672,47.709274,-1.1954112,-1.7645352,-3.3729796,-0.35788453,0.17734097,-0.18068743,26.4375,27.3125,26.375,29.5625,30.8125,31.3125
0.29405177,-1.2272807,-1.9655831,-0.9980968,-0.059238587,0.07455524,-0.11856635,-0.39361632,-0.3277005,0.059962977,3.0731456,-0.6240889,9.71781e-05,-0.14439914,0.003964912,0.0017029536,-0.035049163,0.013480442,0.017582253,0.42585474,-1.4385645,1.9736241,-2.1077,-1.5659121,2.4009893,-0.14614312,0.2247859,-0.25909233,0.008218355,0.026353568,-0.16350745,-0.26815057,0.40222588,-9.308656,0.84708,47.64927,-1.2113938,-1.7095876,-3.3428416,-0.36654273,0.18446758,-0.11995093,26.4375,27.3125,26.375,29.5625,30.8125,31.3125
0.2960518,-0.91105974,-1.8701832,-1.2338085,-0.06680717,0.063762814,-0.11277738,-0.39392677,-0.32768273,0.059945125,3.0730338,-0.62412417,9.8168144e-05,-0.14585967,0.004904754,0.0018093263,-0.033718996,0.014371675,0.016630074,0.42550611,-1.4380732,1.973122,-2.1077478,-1.5658287,2.4006774,-0.14791691,0.22604407,-0.26094672,0.008584461,0.02479248,-0.16432977,-0.22984336,0.4213795,-9.232041,0.9298854,47.68062,-1.0890085,-1.624573,-3.3565598,-0.35439366,0.21512634,-0.067080066,26.4375,27.3125,26.375,29.5625,30.8125,31.3125
0.2980519,-0.5659814,-1.8954632,-1.3877754,-0.05511843,0.048601735,-0.106884874,-0.39422697,-0.32768837,0.059973553,3.0729883,-0.62402374,5.510239e-05,-0.14779264,0.0064236177,0.0009318914,-0.033601582,0.0127632385,0.0076032705,0.4252405,-1.4376171,1.9725236,-2.1076643,-1.5657924,2.4003553,-0.15255596,0.22916842,-0.26256078,0.00857746,0.025347337,-0.15993834,-0.15322891,0.4405331,-9.442732,0.8985519,47.72092,-1.0993483,-1.7141607,-3.4660058,-0.3578326,0.25695527,-0.10573547,26.4375,27.3125,26.375,29.5625,30.8125,31.3125
0.3000521,-0.6035724,-1.4911009,-1.2757207,-0.066852376,0.040483166,-0.10926911,-0.39450496,-0.3276764,0.05995594,3.0729334,-0.6239562,3.98787e-05,-0.14698489,0.0053428276,-0.00087496644,-0.034239992,0.009171784,0.0027591807,0.4249532,-1.4371603,1.9720567,-2.1077,-1.5657438,2.4000332,-0.15109845,0.23305815,-0.26275653,0.007869518,0.027400319,-0.15363076,-0.095768064,0.4213795,-9.346964,0.9634547,47.72271,-1.1079587,-1.841996,-3.3915076,-0.34043407,0.264754,-0.13899414,26.4375,27.3125,26.375,29.5625,30.8125,31.3125
0.302052,-0.7479148,-1.6707271,-1.2995192,-0.053898655,0.030388972,-0.10393069,-0.39481738,-0.32765713,0.059961848,3.0728774,-0.6239879,-4.8724513e-07,-0.1485645,0.0063797687,-0.0009020472,-0.035421424,0.009092633,-0.006631189,0.4246399,-1.4366809,1.9714941,-2.1076648,-1.5657195,2.3997474,-0.1548934,0.23393619,-0.2637035,0.007505071,0.02850123,-0.14803125,-0.019153614,0.34476504,-9.346964,0.8940802,47.73525,-0.92583585,-1.8884819,-3.514115,-0.31861958,0.28117847,-0.23116761,26.4375,27.3125,26.375,29.5625,30.8125,31.3125
0.30405185,-0.038151994,-1.1903558,-1.3918307,-0.03979743,0.029458245,-0.10834276,-0.3951051,-0.3276464,0.059928007,3.072782,-0.62406796,8.915105e-05,-0.14910679,0.005625317,-0.00091402733,-0.035772353,0.008995209,-0.013160841,0.42431608,-1.4361653,1.970992,-2.1076763,-1.5656232,2.399486,-0.15402834,0.23592666,-0.26611918,0.007860307,0.028837794,-0.14063461,0.038307227,0.2681506,-9.346964,0.8717007,47.70032,-0.93558335,-1.8603473,-3.50518,-0.3413214,0.29008812,-0.32649451,26.4375,27.3125,26.375,29.5625,30.8125,31.3125
0.30605197,-0.14455137,-1.3414493,-1.5413195,-0.023855511,0.006518697,-0.096258216,-0.395396,-0.32764104,0.059914492,3.0727098,-0.62405604,0.00012357501,-0.15053645,0.0051943255,-0.000620517,-0.037410475,0.009289081,-0.01755653,0.4240157,-1.435673,1.9704641,-2.1076643,-1.5655512,2.3991878,-0.1551746,0.23790227,-0.26915172,0.007973017,0.0302023,-0.13738005,0.076614454,0.21068975,-9.461885,0.9410752,47.689575,-0.8829535,-2.0712013,-3.5744867,-0.3256778,0.2838186,-0.37474412,26.4375,27.3125,26.375,29.5625,30.8125,31.3125
0.3080519,0.0002751241,-0.9379806,-1.1951895,-0.022767833,-0.009920984,-0.10225328,-0.3957228,-0.32760853,0.05992367,3.0726292,-0.62413615,5.1255938e-05,-0.15265062,0.005512204,0.00011661217,-0.038474556,0.011301155,-0.021561297,0.42366704,-1.435206,1.9699129,-2.107653,-1.5655268,2.3989,-0.15744963,0.23890051,-0.2719601,0.007516258,0.030350043,-0.13564634,0.17238252,0.24899697,-9.346964,0.97464454,47.684196,-0.96614563,-2.039453,-3.3874488,-0.3083891,0.31196153,-0.45499426,26.4375,27.3125,26.375,29.5625,30.8125,31.3125
0.31005165,0.14582211,-1.0878062,-1.2404053,-0.012218695,-0.01268426,-0.10988216,-0.39603695,-0.32760122,0.059944846,3.0725207,-0.6242066,-5.1671555e-05,-0.15281412,0.0044191023,-0.00040260385,-0.038692825,0.010191808,-0.017605674,0.42336777,-1.4347618,1.9693621,-2.1076524,-1.5654906,2.3986592,-0.15586679,0.24191602,-0.27435598,0.007842117,0.031031279,-0.13801308,0.11492168,0.24899697,-9.270349,0.92093146,47.691364,-1.002425,-1.996854,-3.3587546,-0.30398244,0.3271723,-0.5126391,26.4375,27.3125,26.375,29.5625,30.8125,31.3125
0.31205258,0.5037243,-0.6402368,-1.4253905,-0.01923324,0.0014723482,-0.10857676,-0.3963207,-0.32759625,0.059916787,3.0724823,-0.6241948,8.631512e-05,-0.15393896,0.0049128826,-0.0005232001,-0.038331594,0.009383914,-0.011355523,0.4230672,-1.4342222,1.9687995,-2.10758,-1.5654067,2.3983564,-0.15757915,0.24389951,-0.27676472,0.009214574,0.031061335,-0.14597629,0.1340753,0.38307226,-9.308656,0.85155696,47.65912,-1.0418591,-2.0457492,-3.330915,-0.29203042,0.32137942,-0.4554013,26.4375,27.3125,26.375,29.5625,30.8125,31.3125
0.31405255,-0.122774795,-1.0924917,-1.6198872,-0.015391174,-0.01106298,-0.11351663,-0.39661828,-0.32758674,0.059886955,3.0724235,-0.6241579,0.0001377445,-0.15413393,0.005363254,-0.001080872,-0.038331997,0.0074605555,-0.0020322134,0.42275482,-1.4336947,1.9682735,-2.1075914,-1.5653347,2.3980289,-0.15895806,0.24524689,-0.27739084,0.010320774,0.031900194,-0.15667662,0.2681506,0.2873042,-9.500193,0.900793,47.694054,-1.012972,-2.033555,-3.3319945,-0.29389992,0.34766057,-0.36650398,26.4375,27.3125,26.375,29.5625,30.8125,31.3125
0.31605244,-0.36894464,-1.2175107,-1.3724542,-0.055911202,0.009950886,-0.11249417,-0.39692158,-0.32759923,0.05990793,3.0723286,-0.62411344,0.00011060071,-0.15473899,0.0053582713,-0.00012125572,-0.04021838,0.007782996,0.00695121,0.42247814,-1.4332277,1.967686,-2.1075432,-1.5652622,2.397737,-0.16036943,0.24421403,-0.27885428,0.011819288,0.033545136,-0.16706565,0.019153614,0.30645782,-9.481039,0.84708,47.698532,-0.9152268,-1.9792988,-3.4699435,-0.31823784,0.3425958,-0.26301503,26.4375,27.3125,26.375,29.5625,30.8125,31.3125
0.31805235,-0.9254535,-1.7806194,-1.3157178,-0.072935745,0.036115937,-0.10704956,-0.39724132,-0.3275781,0.05989734,3.0722735,-0.6240809,0.00010906554,-0.15520976,0.0053614303,-0.00028592444,-0.040653795,0.0061270935,0.01112567,0.42214197,-1.4327127,1.9671243,-2.1075308,-1.5652136,2.397388,-0.16131954,0.2458818,-0.28088123,0.013553703,0.03465331,-0.17218602,-0.076614454,0.22984336,-9.442732,0.87393653,47.70032,-0.90882695,-1.9026471,-3.5068688,-0.33551288,0.34777215,-0.17930163,26.4375,27.3125,26.375,29.5625,30.8125,31.3125
0.32005224,-1.4259815,-1.7061828,-1.6528659,-0.06143183,0.04767477,-0.10601793,-0.3975308,-0.32755172,0.059876624,3.0722506,-0.6239995,0.0002185792,-0.15579288,0.0047018933,0.0003475538,-0.041812986,0.006762458,0.011147073,0.42180607,-1.432209,1.9665846,-2.1074588,-1.5651411,2.3970044,-0.16095044,0.24632502,-0.28311682,0.0143112745,0.035447564,-0.171837,-0.038307227,0.21068975,-9.653421,0.90750587,47.68062,-0.95351315,-1.8080475,-3.4132905,-0.35978574,0.36483318,-0.13339643,26.4375,27.3125,26.375,29.5625,30.8125,31.3125
0.32205233,-1.4818913,-1.2199703,-1.4142897,-0.05412601,0.07396377,-0.10220828,-0.39783067,-0.32754487,0.0598635,3.0721984,-0.6239733,0.00025784015,-0.1561889,0.0048239264,0.00026939978,-0.042834092,0.0061993976,0.004718087,0.42150542,-1.4316937,1.9660224,-2.107423,-1.5650805,2.3966944,-0.16209276,0.2468103,-0.28362912,0.01442216,0.036597766,-0.16654722,-0.3830723,0.19153613,-9.576807,0.97240865,47.694054,-0.88272387,-1.8428447,-3.388939,-0.36229217,0.35954782,-0.17834911,26.4375,27.3125,26.375,29.5625,30.8125,31.3125
0.3240522,-1.664731,-0.723781,-1.2457881,-0.042314626,0.09126226,-0.10760827,-0.39815328,-0.32754794,0.059869416,3.0720792,-0.6239534,0.00025297553,-0.15779111,0.0047757477,0.00051027146,-0.044683523,0.0070419842,-0.0045676427,0.4211812,-1.4311905,1.9654359,-2.1074111,-1.5649842,2.3963735,-0.16402103,0.24827538,-0.28574324,0.01352803,0.037925612,-0.15918274,-0.51714754,0.1340753,-9.481039,0.8851263,47.668976,-1.0099845,-1.6534646,-3.5490847,-0.35857236,0.33791226,-0.27560273,26.4375,27.3125,26.375,29.5625,30.8125,31.3125
0.32605225,-1.7252189,-0.18275778,-1.4563569,-0.021596242,0.08989228,-0.116739415,-0.39846942,-0.32756367,0.059889812,3.0719314,-0.62394154,0.00025555855,-0.15750587,0.003302602,0.00019988956,-0.04606263,0.0066793757,-0.0045595965,0.42086998,-1.4307104,1.964837,-2.1073754,-1.5648636,2.3960743,-0.1618386,0.24994965,-0.28685775,0.012749324,0.039340578,-0.15700112,-0.45968673,0.22984336,-9.634268,0.9254084,47.668976,-1.114182,-1.8695209,-3.5942917,-0.37207377,0.3561653,-0.321113,26.4375,27.3125,26.375,29.5625,30.8125,31.3125
0.32805234,-1.9844161,-0.46815008,-1.1669545,-0.012479923,0.090798594,-0.10348492,-0.39876553,-0.3275675,0.05988194,3.0718374,-0.6239416,0.00031205497,-0.15884914,0.0027875158,3.4456643e-05,-0.046704352,0.007489783,-0.0064759394,0.42057,-1.4302064,1.9642752,-2.1073406,-1.5647677,2.3957868,-0.16200721,0.2526785,-0.28943127,0.01160806,0.039591398,-0.15525022,-0.45968673,0.15322891,-9.519346,0.88960326,47.679718,-1.1249744,-1.8144529,-3.5688488,-0.3458559,0.3307667,-0.36221975,26.4375,27.3125,26.375,29.5625,30.8125,31.3125
0.33005235,-2.1229637,0.11696731,-1.2979056,-0.024899574,0.08600109,-0.10852401,-0.39911017,-0.32754785,0.05987125,3.0717838,-0.62392956,0.00025606237,-0.15915848,0.0021084608,-0.00041495997,-0.04686336,0.0070912796,-0.005499555,0.42023423,-1.4296547,1.9636759,-2.107352,-1.5647439,2.3954508,-0.16104816,0.25495005,-0.291035,0.011255294,0.039912704,-0.15526353,-0.4213795,0.13407528,-9.500193,0.98135734,47.65912,-1.2133275,-1.9591703,-3.552447,-0.3492372,0.32583302,-0.36300793,26.4375,27.3125,26.375,29.5625,30.8125,31.3125
0.33205253,-1.569456,-0.36653432,-1.3956109,-0.011127457,0.081314534,-0.12060242,-0.39945,-0.3275641,0.059901446,3.0716178,-0.6239316,0.00015995349,-0.1611705,0.002617254,-0.00041579467,-0.04738289,0.0077459197,-0.0026805818,0.4199213,-1.4291748,1.963065,-2.107364,-1.5646476,2.3951612,-0.16362011,0.25731435,-0.29373163,0.010836812,0.04016574,-0.16064684,-0.36391866,0.038307227,-9.576807,0.84484416,47.652847,-1.1033535,-1.9081647,-3.6332264,-0.3393528,0.335271,-0.36524236,26.4375,27.3125,26.375,29.5625,30.8125,31.3125
0.33405247,-1.4354908,-0.51634395,-1.2127855,-0.022675825,0.07665852,-0.11691567,-0.39974856,-0.3275312,0.059867945,3.0716112,-0.6239085,0.00026295014,-0.16293903,0.0034550063,-0.0003599393,-0.047286235,0.008657829,0.0011135008,0.4195844,-1.4286352,1.9625148,-2.1073043,-1.5645999,2.394811,-0.16615225,0.25883847,-0.29564723,0.010495778,0.039727792,-0.1669754,-0.40222588,0.05746084,-9.5385,0.8873621,47.63404,-1.1444747,-2.1392956,-3.565005,-0.3235277,0.3495165,-0.32960224,26.4375,27.3125,26.375,29.5625,30.8125,31.3125
0.33605266,-1.2596132,-0.4677664,-1.2988486,-0.032922924,0.07079022,-0.12896957,-0.40008235,-0.3275341,0.059879225,3.0714636,-0.62388957,0.0002612317,-0.16343871,0.0022973067,-0.00032830052,-0.04772197,0.009150372,0.013174177,0.41923732,-1.4281317,1.9619144,-2.107293,-1.5644797,2.3944714,-0.16442646,0.26103112,-0.29831752,0.010442517,0.039985977,-0.17730524,-0.28730422,0.1340753,-9.519346,0.8940802,47.65912,-1.2894897,-1.9765686,-3.53491,-0.33460504,0.3488664,-0.21361913,26.4375,27.3125,26.375,29.5625,30.8125,31.3125
0.33805186,-1.8204087,-0.98597294,-1.2181717,-0.03351563,0.057813387,-0.108229235,-0.4004393,-0.32755816,0.05990549,3.0713248,-0.62376046,0.00016700511,-0.16401045,0.0017256843,0.00015602232,-0.049492992,0.010016454,0.020284237,0.41892543,-1.4276043,1.9612578,-2.1073048,-1.5643829,2.3940973,-0.16452259,0.2611888,-0.29965985,0.010185351,0.041312605,-0.18450198,-0.36391866,0.24899697,-9.481039,0.88960326,47.64479,-1.2778893,-1.973872,-3.4955225,-0.31325796,0.33821395,-0.10680554,26.4375,27.3125,26.375,29.5625,30.8125,31.3125
0.34005198,-1.1600013,-0.9958461,-1.2009562,-0.048055705,0.06481193,-0.11204796,-0.40075094,-0.32754222,0.05990051,3.0712912,-0.623714,0.00023559661,-0.1652274,0.0009827517,0.0011454088,-0.05164798,0.011095285,0.020435235,0.41860175,-1.4270772,1.9606475,-2.1072085,-1.5643228,2.3937492,-0.16498424,0.2617998,-0.3029188,0.010994456,0.0428474,-0.18510962,-0.4405331,0.24899697,-9.500193,0.88960326,47.65912,-1.3743799,-1.9575795,-3.525886,-0.3386321,0.32557663,-0.059852187,26.4375,27.3125,26.375,29.5625,30.8125,31.3125
0.34205216,-1.0866877,-1.6739364,-1.34659,-0.04794383,0.05791113,-0.1147258,-0.40108493,-0.3275251,0.05989386,3.071202,-0.62366146,0.00024828012,-0.16627038,0.0012037246,0.0017843671,-0.053162724,0.01159886,0.012255174,0.41824195,-1.4265504,1.9600605,-2.1071966,-1.564238,2.3933685,-0.16680832,0.26168683,-0.3045102,0.011609951,0.044017408,-0.1787478,-0.2681506,0.3256114,-9.5385,0.8247004,47.679718,-1.319897,-1.7783377,-3.4269614,-0.3360222,0.30966538,-0.08460097,26.4375,27.3125,26.375,29.5625,30.8125,31.3125
0.3440522,-1.0407565,-1.8739783,-1.3818495,-0.062258832,0.04129315,-0.10867191,-0.40145975,-0.32753262,0.059923183,3.071054,-0.62365305,0.0001546971,-0.16815168,0.0006402011,0.0032393066,-0.056938432,0.014062443,0.0020344472,0.41789418,-1.4260112,1.9593772,-2.1071842,-1.5641531,2.3930352,-0.16869229,0.26130828,-0.3073786,0.011040829,0.046458192,-0.17039664,-0.3256114,0.2681506,-9.461885,0.95897776,47.657326,-1.2905731,-1.679321,-3.5062099,-0.32899708,0.29182228,-0.14441147,26.4375,27.3125,26.375,29.5625,30.8125,31.3125
0.34605253,-0.8717971,-1.7985303,-1.2852464,-0.05581505,0.03330447,-0.11320112,-0.4017787,-0.327508,0.0598983,3.0709908,-0.6236614,0.00015009344,-0.16985974,0.0014078331,0.0030312054,-0.05773142,0.01381116,-0.006652701,0.41755784,-1.4254835,1.9588383,-2.1072085,-1.5641054,2.3927126,-0.17183203,0.2633085,-0.3092567,0.010811644,0.047273353,-0.16484402,-0.22984336,0.22984336,-9.481039,0.9455522,47.674347,-1.23932,-1.7339182,-3.4979138,-0.33038354,0.26766598,-0.26468092,26.4375,27.3125,26.375,29.5625,30.8125,31.3125
0.3480526,-0.632751,-1.4035404,-1.321196,-0.043296836,0.023596218,-0.11427916,-0.40211794,-0.32754707,0.059925515,3.0708163,-0.6236091,0.00014188768,-0.17060818,-0.00023607916,0.0038957961,-0.06117646,0.015184435,-0.012558577,0.4172585,-1.4249562,1.9581679,-2.1071732,-1.5639604,2.3924036,-0.17092575,0.26387197,-0.31182617,0.0101494575,0.049856167,-0.15801743,-0.1340753,0.22984336,-9.385271,0.93436235,47.7245,-1.2580259,-1.6404705,-3.5163193,-0.3081522,0.26071814,-0.3465237,26.4375,27.3125,26.375,29.5625,30.8125,31.3125
0.3500516,-0.70173705,-1.2101002,-1.1091197,-0.03540983,0.025109824,-0.11722531,-0.40244827,-0.3275483,0.05992598,3.0706584,-0.6236555,0.00021098366,-0.17068097,0.00078455184,0.0018139429,-0.060851794,0.010891639,-0.01877759,0.4168981,-1.4244286,1.9575576,-2.107137,-1.563816,2.392093,-0.17358595,0.2673537,-0.31115255,0.010062112,0.051303327,-0.15445182,-0.11492168,0.24899697,-9.423578,0.8940802,47.709274,-1.1214969,-1.5528057,-3.45907,-0.30279505,0.2084588,-0.4295801,26.4375,27.3125,26.375,29.5625,30.8125,31.3125
0.35205257,-0.7722564,-0.9479028,-1.246309,-0.02731995,0.034335647,-0.11483008,-0.40279338,-0.3275174,0.059912376,3.070552,-0.6237476,0.00021685724,-0.17140472,0.0017616955,0.00027412304,-0.058923874,0.008174229,-0.019612223,0.4165141,-1.423888,1.956972,-2.1071365,-1.5637435,2.3917806,-0.17533651,0.27130285,-0.31243527,0.0107004335,0.050662644,-0.1553669,-0.095768064,0.2681506,-9.442732,0.8537928,47.69763,-1.0944928,-1.7950876,-3.651906,-0.29968736,0.18542533,-0.47274387,26.4375,27.3125,26.375,29.5625,30.8125,31.3125
0.35405254,-0.4770987,-0.6599434,-1.0543958,-0.018772166,0.04932652,-0.12760474,-0.4031567,-0.32753587,0.059946142,3.0704465,-0.6236039,8.595422e-05,-0.17298558,0.0017812945,0.0007334989,-0.060091335,0.009061814,-0.012060523,0.41621408,-1.42336,1.9562901,-2.107125,-1.5636839,2.391405,-0.17696099,0.27267283,-0.31522053,0.010917245,0.05144193,-0.16453248,0.019153614,0.19153613,-9.500193,0.9992599,47.686886,-1.0224469,-1.9099807,-3.5754132,-0.28651428,0.18094723,-0.4597842,26.4375,27.3125,26.375,29.5625,30.8125,31.3125
0.3560518,-0.2180723,-0.67175186,-0.91451126,-0.018806666,0.067617126,-0.13936098,-0.40349647,-0.32754734,0.059945635,3.070256,-0.6236558,0.00018556387,-0.17601031,0.0015600184,0.0016763427,-0.06293041,0.010563797,-0.005645949,0.41584215,-1.4228076,1.9556531,-2.1070888,-1.5635027,2.3910906,-0.1801213,0.27535984,-0.3206334,0.011231934,0.05348808,-0.17409572,-0.038307227,0.21068975,-9.270349,0.83589023,47.687782,-0.9920531,-1.8949411,-3.4992843,-0.27530944,0.1307312,-0.37843633,26.4375,27.3125,26.375,29.5625,30.8125,31.3125
0.35805184,-0.19581427,-0.32485533,-0.90434164,-0.02298604,0.054734677,-0.13753942,-0.4038466,-0.32754686,0.059969664,3.0701501,-0.62358683,8.6632426e-05,-0.17640878,0.00064512633,0.0021976633,-0.06341318,0.011735459,0.0068489127,0.4155191,-1.4223025,1.9550189,-2.107077,-1.5634431,2.3907387,-0.17860961,0.2760709,-0.32283372,0.01156074,0.053539447,-0.18507223,0.019153614,0.19153613,-9.3661175,0.88960326,47.693153,-1.0847101,-1.8305671,-3.4176087,-0.27049047,0.09228585,-0.24338083,26.4375,27.3125,26.375,29.5625,30.8125,31.3125
0.36005187,-1.0558065,-0.78856087,-0.9406926,-0.019198265,0.027558843,-0.11630056,-0.40419653,-0.32752314,0.059953593,3.0700529,-0.62360096,0.00016941989,-0.17775357,0.0015623865,0.0019026997,-0.06004121,0.012834477,0.011572384,0.41512376,-1.4217249,1.9543847,-2.1070282,-1.5633363,2.3903651,-0.1788939,0.2784736,-0.32515827,0.0119271735,0.05004726,-0.19009131,-0.038307227,0.21068975,-9.3661175,0.7866488,47.653748,-1.0242249,-1.9331621,-3.5078835,-0.26362866,0.113114454,-0.16980648,26.4375,27.3125,26.375,29.5625,30.8125,31.3125
0.36205196,-1.0501728,-1.162959,-0.8166492,-0.029705072,0.04107148,-0.11181266,-0.4045606,-0.32754278,0.059968017,3.0698974,-0.62349325,0.00010941844,-0.17889464,0.0023308943,0.0024137148,-0.059591267,0.01333863,0.007206087,0.4147877,-1.4211724,1.9537262,-2.1070516,-1.5632161,2.3899825,-0.18061623,0.2787406,-0.32709268,0.013336848,0.049454246,-0.1874429,-0.30645782,0.3256114,-9.289502,0.84708,47.6636,-1.001276,-1.77532,-3.4095793,-0.26497465,0.113794275,-0.14796455,26.4375,27.3125,26.375,29.5625,30.8125,31.3125
0.3640518,-0.96153545,-0.58783734,-0.9414122,-0.0418516,0.056250267,-0.12844838,-0.4049076,-0.327533,0.059972282,3.0698154,-0.62340254,0.0001484353,-0.18045697,0.0024129755,0.0032188364,-0.059300452,0.01526941,-0.00024638683,0.41442835,-1.4206188,1.9530672,-2.10698,-1.5631207,2.3895774,-0.18112572,0.2796303,-0.33022368,0.013915482,0.048388377,-0.1805009,-0.38307226,0.34476504,-9.32781,0.9030289,47.67166,-1.0166346,-1.6989229,-3.3030963,-0.26756507,0.09432916,-0.22610553,26.4375,27.3125,26.375,29.5625,30.8125,31.3125
0.36605188,-1.587396,-0.88700455,-1.2486414,-0.038188536,0.055159215,-0.12599741,-0.4052655,-0.3275192,0.059975058,3.0696976,-0.62341726,9.0603804e-05,-0.17900115,0.003436631,0.0023388793,-0.056441672,0.013679901,-0.0055431915,0.4140691,-1.4200792,1.9524463,-2.1069915,-1.5630497,2.3892431,-0.1803283,0.27867314,-0.3274541,0.014699844,0.046416525,-0.1744117,-0.19153613,0.2681506,-9.500193,0.8985519,47.670765,-1.0733597,-1.6481316,-3.6055965,-0.27768505,0.102054596,-0.30324417,26.4375,27.3125,26.375,29.5625,30.8125,31.3125
0.36805192,-1.963312,-1.2172663,-0.98695487,-0.04846897,0.069769196,-0.121162504,-0.40564126,-0.32752407,0.059988223,3.0695403,-0.62349844,0.0001066194,-0.17840557,0.003236178,0.0016424592,-0.053416524,0.01385509,-0.0051447246,0.41369867,-1.4194903,1.9517292,-2.1069324,-1.5629305,2.3889444,-0.17743881,0.28001645,-0.32752874,0.014516205,0.043587193,-0.17192873,-0.24899697,0.30645782,-9.595961,0.94331104,47.677036,-1.2813861,-1.4926887,-3.7258818,-0.2778775,0.1414131,-0.3321134,26.4375,27.3125,26.375,29.5625,30.8125,31.3125
0.37005177,-1.3561041,-0.43078005,-0.7862683,-0.060659606,0.10188675,-0.12878184,-0.40597928,-0.3275253,0.060006276,3.069441,-0.62343705,9.014689e-05,-0.17923635,0.0028689562,0.001006706,-0.052081384,0.013058018,-0.0035130742,0.41337517,-1.4189727,1.9510816,-2.1068718,-1.5628465,2.3885958,-0.17667657,0.2837855,-0.33069944,0.0152227385,0.042707,-0.17279716,-0.40222588,0.2681506,-9.442732,0.8537928,47.68062,-1.3043022,-1.5297375,-3.7592654,-0.2604882,0.12761489,-0.3759728,26.4375,27.3125,26.375,29.5625,30.8125,31.3125
0.37205264,-1.1818178,-0.14174376,-1.0105133,-0.03153488,0.09646714,-0.14056063,-0.40633836,-0.3275287,0.06000533,3.0693493,-0.62337893,9.012961e-05,-0.18101352,0.0039876476,0.00016281487,-0.050456088,0.012558467,-0.004727893,0.4130394,-1.4183826,1.9503998,-2.106836,-1.5627631,2.388236,-0.17911044,0.28735724,-0.33300933,0.015113913,0.041440874,-0.17401782,-0.21068975,0.3256114,-9.5385,0.9992599,47.6636,-1.3478634,-1.7247142,-3.6485846,-0.2579069,0.1443897,-0.37487024,26.4375,27.3125,26.375,29.5625,30.8125,31.3125
