Tylouw/Master_Thesis_Code/training_data/batch_1/big_rod_t0.2/sample_68_session_3.csv
timestamp[s],tcp_force_x[N],tcp_force_y[N],tcp_force_z[N],tcp_force_rx[Nm?],tcp_force_ry[Nm?],tcp_force_rz[Nm?],tcp_pose_x[m],tcp_pose_y[m],tcp_pose_z[m],tcp_pose_rx[rot_vec_x],tcp_pose_ry[rot_vec_y],tcp_pose_rz[rot_vec_z],tcp_velo_x[m/s],tcp_velo_y[m/s],tcp_velo_z[m/s],tcp_velo_rx[rot_vec_x/s],tcp_velo_ry[rot_vec_y/s],tcp_velo_rz[rot_vec_z/s],q1[rad],q2[rad],q3[rad],q4[rad],q5[rad],q6[rad],qd1[rad/s],qd2[rad/s],qd3[rad/s],qd4[rad/s],qd5[rad/s],qd6[rad/s],tool_acc_x,tool_acc_y,tool_acc_z,current_of_whole_robot[A],voltage_of_whole_robot[V],current_J1[A],current_J2[A],current_J3[A],current_J4[A],current_J5[A],current_J6[A],temp_J1[C],temp_J2[C],temp_J3[C],temp_J4[C],temp_J5[C],temp_J6[C]
7.780036e-07,-0.90446687,-1.163445,-0.41077092,-0.030873658,0.007405553,0.0099707935,-0.37289962,-0.32821444,0.059952807,-3.0784695,0.6248247,-0.0002315253,0.0031726642,0.0015408064,-0.0044904267,0.004195796,-0.009026104,-0.00011226385,0.44815025,-1.470861,2.009549,-2.1076791,-1.5706977,2.4230433,-0.00010905485,0.003967885,0.005930302,5.412692e-05,0.00014223349,9.058496e-26,0.1340753,0.15322891,-8.944737,0.7284641,47.752266,-0.19978231,-2.7884023,-2.5408792,-0.50086296,0.122054316,-0.02685991,27.0,28.1875,27.125,30.5625,32.25,32.9375
0.002052072,-1.0980392,-1.3389878,-0.32818544,-0.01215963,-0.0017120498,0.011348257,-0.3728996,-0.32820803,0.059930775,-3.0784647,0.6248239,-0.00024164502,-0.00058764435,-0.00027819644,-0.003301253,-0.00077719684,0.0012615041,-0.00010619312,0.4481382,-1.4708368,2.0095847,-2.107731,-1.5706977,2.4230313,-0.00010719943,0.0049493816,0.0046734684,-0.011097055,0.00013858316,5.914551e-27,0.095768064,0.19153613,-8.829816,0.72622824,47.721813,-0.18139003,-2.877369,-2.3832986,-0.4671262,0.13649784,-0.0025339995,27.0,28.1875,27.125,30.5625,32.25,32.9375
0.004052499,-0.7961276,-0.75382197,-0.37572473,-0.006942148,0.0053769248,9.283391e-05,-0.3728918,-0.32821065,0.05991575,-3.0784404,0.62487686,-0.00026945406,-0.0017211237,-0.00082610315,-0.0024894883,-0.0023982157,0.004624366,-0.000103275925,0.44815025,-1.4708132,2.009596,-2.107744,-1.5706977,2.4230795,-0.00010540572,0.0044700364,0.0039055701,-0.013582975,0.00013511552,3.861779e-28,0.0,0.24899697,-8.868123,0.69041777,47.711964,-0.18099989,-3.0977874,-2.5702333,-0.3457114,0.13740338,-0.011770038,27.0,28.1875,27.125,30.5625,32.25,32.9375
0.006052714,-0.77697855,-0.46734548,-0.43540576,0.007813175,-0.009947497,0.0047270013,-0.372876,-0.32819661,0.059888843,-3.0783966,0.6249064,-0.00034609644,-0.0007852993,-0.00037251864,-0.0014876147,-0.0014090914,0.0025990356,-0.000102952035,0.4481382,-1.4707899,2.0096319,-2.1077416,-1.5706977,2.4230914,-0.00010367132,0.0021466974,0.0028770012,-0.007977125,0.0001318171,2.5214659e-29,0.019153614,0.15322891,-8.90643,0.73069996,47.71286,-0.15842736,-2.9727147,-2.4802089,-0.37580884,0.13962297,0.005328576,27.0,28.1875,27.125,30.5625,32.25,32.9375
0.008052155,-0.01789327,0.3901944,-0.94274634,0.02419562,-0.025443906,-0.0072897533,-0.3729014,-0.32820463,0.059907086,-3.0784335,0.62485653,-0.00026091715,-7.506532e-05,-2.8467279e-05,-0.0010006888,-0.00047876243,0.00068861875,-0.00011758629,0.4481382,-1.4707904,2.0095956,-2.107764,-1.5707096,2.4230556,-0.000101992955,0.0009929879,0.0021003268,-0.003921844,0.00012867576,1.5411162e-05,0.076614454,0.095768064,-8.983045,0.7172743,47.72808,-0.19245745,-2.9197702,-2.4821281,-0.4245944,0.13277026,-0.012823347,27.0,28.1875,27.125,30.5625,32.25,32.9375
0.0100519005,0.34585726,0.2327035,-1.3970053,0.041845262,-0.021636881,-0.0040095435,-0.37285066,-0.3282017,0.059868995,-3.078402,0.62485033,-0.0004828564,0.00018138102,9.513571e-05,-0.0008995864,3.1195763e-05,-0.0003942453,-0.00011405599,0.4481382,-1.4707664,2.0096428,-2.1077034,-1.5706495,2.4230556,-0.000109806664,0.00092830515,0.0015189055,-0.0020788885,0.00014121155,3.820153e-06,0.076614454,0.11492168,-9.232041,0.7083204,47.701214,-0.5543863,-2.297659,-3.0274127,-0.4597248,0.15569232,-0.07313397,27.0,28.1875,27.125,30.5625,32.25,32.9375
0.012052273,0.019818716,-0.04311204,-1.3415525,0.01174303,-0.006087554,-0.0060317363,-0.37288377,-0.32821772,0.059875995,-3.078451,0.6247823,-0.00041217165,0.00024379675,0.00016753277,-0.004362669,0.0033205731,-0.0072463336,-0.00019511193,0.44813818,-1.4707272,2.0095947,-2.1077511,-1.5706495,2.423007,-0.00019683322,0.0098177735,-0.00044456226,-0.0014041685,0.00014293875,2.494287e-07,0.1340753,0.076614454,-9.32781,0.7351769,47.74868,-0.7015536,-2.4508624,-3.1802168,-0.46188793,0.14853825,-0.11815457,27.0,28.1875,27.125,30.5625,32.25,32.9375
0.014052264,-0.6090618,-0.8984495,-1.5985343,-0.014879156,0.018342039,-0.006789978,-0.37287092,-0.32818183,0.059856903,-3.0783503,0.62482303,-0.00044341167,-0.0059580714,0.0018413712,-0.003865639,0.0025853445,-0.0057544517,-0.00596544,0.44812304,-1.470725,2.009628,-2.1077158,-1.5707096,2.4230301,-0.008992885,0.016390234,-0.008824984,-0.0012599664,0.00014008251,-0.0030194374,0.05746084,0.114921674,-9.557653,0.84708,47.737934,-0.40962195,-2.896892,-2.8893695,-0.48409638,0.1493091,-0.15939566,27.0,28.1875,27.125,30.5625,32.25,32.9375
0.016052376,-1.4842963,-1.3991091,-1.6410918,-0.047773443,0.038691934,-0.0066749,-0.3728293,-0.3282023,0.059836037,-3.0783446,0.624839,-0.00060405745,-0.006513016,0.0020909982,-0.0032264069,0.0020781786,-0.0047396705,-0.0018783965,0.44815874,-1.4707015,2.009639,-2.1076677,-1.5706495,2.4230764,-0.009977214,0.015446124,-0.009325947,-0.0009498307,0.00015406462,-0.008090792,-0.34476504,0.24899697,-9.634268,0.76874626,47.728977,-0.26905242,-2.755455,-3.001627,-0.49623042,0.14650637,-0.115315735,27.0,28.1875,27.125,30.5625,32.25,32.9375
0.01805278,-2.2732844,-2.2083864,-1.7142118,-0.0690254,0.07768862,-0.004694722,-0.37286395,-0.32819372,0.05982324,-3.0783446,0.62479895,-0.000621149,-0.00543916,0.0022447468,-0.0042809066,0.0031677487,-0.0070892284,0.0002769949,0.44811097,-1.4706293,2.0095918,-2.1076791,-1.5706495,2.4230037,-0.009314754,0.016274214,-0.007891652,-0.00062290614,0.00019256888,-0.009584635,-0.4405331,0.28730422,-9.787497,0.75084364,47.699425,-0.5236073,-2.4952884,-3.3536427,-0.48695496,0.14834964,-0.1267182,27.0,28.1875,27.125,30.5625,32.25,32.9375
0.02005167,-2.6100438,-2.5655508,-1.6217903,-0.07047362,0.103143215,-0.01872993,-0.37288892,-0.32820368,0.059827868,-3.0783677,0.62480426,-0.0006034406,-0.005934495,0.0020926797,-0.00428812,0.0031389736,-0.0071814037,-0.00065369,0.44809887,-1.470593,2.0095441,-2.107691,-1.5706376,2.422992,-0.00952335,0.017405672,-0.009165575,-0.0004098536,0.00025677218,-0.00886179,-0.5363012,0.36391866,-9.749189,0.73069996,47.688675,-0.65808547,-2.4626594,-3.5439205,-0.5073595,0.15945318,-0.16220017,27.0,28.1875,27.125,30.5625,32.25,32.9375
0.022051759,-2.799067,-1.8587031,-1.560036,-0.067656316,0.100473255,-0.02450208,-0.37287387,-0.3281814,0.05980815,-3.0783033,0.62481123,-0.00067109603,-0.008102503,0.0014799967,-0.0037550193,0.0009018065,-0.0066761933,-0.0017750007,0.44808614,-1.4705801,2.009567,-2.1076553,-1.5706605,2.4229918,-0.011557578,0.02019556,-0.013466839,-0.0003298422,0.0020439522,-0.00977552,-0.45968673,0.40222588,-9.844957,0.76874626,47.71465,-0.6777785,-2.505331,-3.3562376,-0.5140606,0.16713893,-0.18738794,27.0,28.1875,27.125,30.5625,32.25,32.9375
0.02405219,-2.0419784,-1.1946485,-1.6540836,-0.04096587,0.08802666,-0.03933421,-0.37287623,-0.32819515,0.059787173,-3.0783172,0.62481374,-0.0007351382,-0.008994632,0.0016011696,-0.0035044814,-0.00013410936,-0.006442793,-0.0015937795,0.44808564,-1.47052,2.0095546,-2.1076791,-1.5706247,2.422991,-0.013159041,0.020668577,-0.014549422,-0.00038228827,0.0028726275,-0.0115592955,-0.63206923,0.3256114,-9.864111,0.7597976,47.70211,-0.68968827,-2.476776,-3.4143791,-0.517124,0.13810603,-0.20365348,27.0,28.1875,27.125,30.5625,32.25,32.9375
0.026051978,-1.5458499,-1.0976734,-1.7401526,-0.019132499,0.07967871,-0.058858607,-0.372914,-0.32818556,0.059807375,-3.078345,0.6248377,-0.00070017803,-0.010333509,0.0018775435,-0.002366173,-0.0010433907,-0.004243504,-0.0005858346,0.4480251,-1.4705204,2.009506,-2.1076672,-1.5706128,2.422942,-0.01480169,0.01967876,-0.016115382,-0.0002021068,0.0027349344,-0.014208762,-0.6895301,0.30645782,-9.80665,0.7083204,47.677036,-0.7991145,-2.3508193,-3.3928044,-0.53879386,0.132723,-0.20124635,27.0,28.1875,27.125,30.5625,32.25,32.9375
0.028051829,-1.4994215,-0.48020512,-1.4998766,-0.026122222,0.07197435,-0.07406497,-0.37292954,-0.32817787,0.059785724,-3.0782833,0.62486374,-0.00075289735,-0.011203569,0.002256801,-0.0026734378,-0.0005538513,-0.004529861,9.132424e-06,0.44801262,-1.4704359,2.0094573,-2.107643,-1.5706366,2.4229536,-0.016089229,0.021363212,-0.0172396,-0.00029158127,0.0024129448,-0.016089767,-0.7278373,0.28730422,-9.787497,0.7351769,47.692257,-0.7216668,-2.3877583,-3.4383821,-0.530148,0.14708015,-0.17662081,27.0,28.1875,27.125,30.5625,32.25,32.9375
0.030051686,-1.8719785,-0.9336297,-1.5326095,-0.02210297,0.069848105,-0.074950166,-0.37298298,-0.32819074,0.05979608,-3.0783339,0.6248742,-0.0006466303,-0.0131742535,0.002150926,-0.0022825731,-0.0013107508,-0.0023704926,-0.0010029549,0.44798815,-1.4703875,2.0093973,-2.1077163,-1.5706366,2.4229293,-0.017505167,0.02313763,-0.019728186,-0.0018506085,0.0021520287,-0.016490633,-0.7086837,0.28730422,-9.634268,0.7597976,47.694054,-0.71098006,-2.3781843,-3.415618,-0.52030224,0.15260398,-0.1950872,27.0,28.1875,27.125,30.5625,32.25,32.9375
0.032052618,-2.0212474,-0.8879456,-1.2418138,-0.025384147,0.07690111,-0.09835981,-0.37301093,-0.3281917,0.0597972,-3.0783587,0.62486047,-0.00069522107,-0.014532671,0.0014915566,-0.0015204907,-0.0024584343,-0.0003004218,-0.0009392072,0.44794026,-1.4703392,2.0093362,-2.107692,-1.5706009,2.4228697,-0.017588068,0.024068153,-0.022343054,-0.00252897,0.0022824747,-0.016635664,-0.6703765,0.076614454,-9.557653,0.7732232,47.709274,-0.75729847,-2.3412938,-3.3837194,-0.52305436,0.16461742,-0.18419176,27.0,28.1875,27.125,30.5625,32.25,32.9375
0.03405196,-1.9494108,-0.5710196,-1.3516431,-0.015763154,0.082460806,-0.10453051,-0.37302557,-0.32819036,0.05979073,-3.0783508,0.624917,-0.00072172144,-0.01582909,0.0010771463,-0.00084593205,-0.0043360693,0.00070768764,-0.001824006,0.44791567,-1.470303,2.0093114,-2.107692,-1.570588,2.4228814,-0.018834416,0.024784697,-0.024645263,-0.0026694182,0.0035326944,-0.016998341,-0.57460845,0.019153614,-9.615114,0.7933669,47.73614,-0.7351736,-2.2783887,-3.389193,-0.5223552,0.14945287,-0.1971513,27.0,28.1875,27.125,30.5625,32.25,32.9375
0.03605184,-1.6889026,-0.026391255,-1.2646321,0.006753085,0.060997874,-0.12013655,-0.37308714,-0.32817328,0.05979013,-3.0783434,0.6249349,-0.00066918257,-0.016536009,0.0006166194,-0.00020022884,-0.006957262,0.00075136573,-0.0028838713,0.44784337,-1.4702312,2.0092394,-2.1077163,-1.5706114,2.4228213,-0.020194016,0.024689736,-0.02611013,-0.0022926084,0.0058746585,-0.017302126,-0.4213795,0.0,-9.595961,0.8224646,47.74331,-0.755007,-2.2789938,-3.3580267,-0.50451183,0.11985207,-0.19289951,27.0,28.1875,27.125,30.5625,32.25,32.9375
0.038051996,-1.441646,0.11507601,-1.3778433,0.032190017,0.034836654,-0.12280551,-0.37311548,-0.32817444,0.059782743,-3.0783577,0.6249761,-0.0007176975,-0.017335467,0.00032840078,0.00018945908,-0.007768185,0.0012996424,-0.0022698166,0.44779518,-1.470171,2.0091903,-2.1077163,-1.5705751,2.422797,-0.020708825,0.025402175,-0.027821906,-0.0021395353,0.0063642347,-0.01843099,-0.3256114,-0.019153614,-9.595961,0.8023209,47.721813,-0.70596176,-2.258066,-3.3233464,-0.50892913,0.13072032,-0.20059235,27.0,28.1875,27.125,30.5625,32.25,32.9375
0.040052064,-1.0490754,-0.22945261,-1.3810966,0.045774736,0.014545919,-0.14004736,-0.37314788,-0.32817474,0.059783995,-3.078346,0.6249348,-0.00069569796,-0.018497113,0.0004961008,0.00019829617,-0.007650672,0.0015782701,-0.0021015673,0.44778267,-1.4701105,2.0091183,-2.107704,-1.5705994,2.4227602,-0.021923225,0.027081288,-0.029681982,-0.0021585156,0.0061328583,-0.019811774,-0.15322891,0.0,-9.461885,0.7665104,47.705692,-0.7288816,-2.2615528,-3.3634562,-0.52598864,0.12813285,-0.19014347,27.0,28.1875,27.125,30.5625,32.25,32.9375
0.04205197,-0.31508523,0.044347864,-1.3742409,0.026950954,0.0122230705,-0.16755591,-0.3732064,-0.32816237,0.05979549,-3.07838,0.6249621,-0.00064676855,-0.020171562,0.00043496006,0.00056078675,-0.008333562,0.0030809308,-0.0022120983,0.44769815,-1.4700739,2.0090573,-2.1077278,-1.5705875,2.4226885,-0.02329882,0.02863784,-0.03202526,-0.0030211727,0.006091656,-0.021074552,-0.095768064,-0.019153614,-9.385271,0.7530795,47.72629,-0.71524763,-2.2455156,-3.3409033,-0.5092035,0.12897146,-0.20437895,27.0,28.1875,27.125,30.5625,32.25,32.9375
0.044052567,-0.56152314,-0.27232832,-1.3668991,0.004960493,0.00084211497,-0.17681977,-0.37322763,-0.32816845,0.05978975,-3.0783925,0.6250029,-0.00066821696,-0.02142583,0.00030049664,0.0010460643,-0.009459594,0.0044264896,-0.002345461,0.4476738,-1.4700259,2.0090206,-2.1077406,-1.5705632,2.422688,-0.024473784,0.029285477,-0.03369524,-0.003700159,0.0065187784,-0.022115719,-0.076614454,0.038307227,-9.500193,0.7642693,47.716442,-0.69407284,-2.2491813,-3.399852,-0.490587,0.12255769,-0.17443635,27.0,28.1875,27.125,30.5625,32.25,32.9375
0.04605242,-0.22922517,-0.87262714,-1.2502373,-0.022186674,0.021171449,-0.17157765,-0.37329692,-0.32816964,0.05981034,-3.0784104,0.62498647,-0.00054496777,-0.022235561,0.0005087829,0.0013557852,-0.009442364,0.004695279,-0.0021460548,0.44763756,-1.4699658,2.0089128,-2.107764,-1.5705994,2.4226394,-0.025507748,0.029851612,-0.035185266,-0.0030113105,0.006386549,-0.023347586,-0.038307227,0.15322891,-9.423578,0.7172743,47.754055,-0.6498365,-2.1330605,-3.3241096,-0.48779675,0.1278901,-0.17737076,27.0,28.1875,27.125,30.5625,32.25,32.9375
0.048052557,-0.30368537,-1.1702542,-1.4538419,-0.033874903,0.018871296,-0.15426709,-0.37329522,-0.32814962,0.059770245,-3.0783594,0.6250144,-0.00073036423,-0.022693152,0.0009881329,0.0011249018,-0.008472613,0.0037887625,-0.0011085852,0.44757718,-1.4698817,2.0089014,-2.1077158,-1.5705637,2.422603,-0.0264957,0.031050913,-0.03622065,-0.0019354551,0.0059012943,-0.025372276,0.0,0.19153613,-9.404425,0.7732232,47.737934,-0.67411053,-2.126079,-3.3992548,-0.4822446,0.13447219,-0.16897722,27.0,28.1875,27.125,30.5625,32.25,32.9375
0.050051637,-0.363871,-1.3216213,-1.486363,-0.029262664,0.018512284,-0.1496264,-0.37336695,-0.32815436,0.05978114,-3.0783825,0.6250371,-0.00064366864,-0.0235754,0.001188494,0.0015449664,-0.008278401,0.004503864,0.00013335882,0.44752893,-1.4697976,2.0087922,-2.1077511,-1.5705756,2.422566,-0.02733993,0.031487323,-0.037797753,-0.0013537986,0.0054154205,-0.027456265,-0.019153614,0.21068975,-9.500193,0.7486078,47.744205,-0.6753123,-2.0087929,-3.4020784,-0.5182272,0.13158634,-0.16349888,27.0,28.1875,27.125,30.5625,32.25,32.9375
0.052052487,-0.9215496,-1.9000716,-1.6058911,-0.018878011,-0.005273698,-0.14172956,-0.37339538,-0.3281488,0.059780642,-3.0783963,0.62504023,-0.00070741755,-0.024607338,0.0013838423,0.0015064001,-0.008119161,0.004395631,0.0007567904,0.44746843,-1.4697491,2.008732,-2.1077158,-1.5705398,2.4225056,-0.028573759,0.033154607,-0.039613046,-0.0010376957,0.0053142705,-0.02931219,0.038307227,0.24899697,-9.615114,0.7351769,47.729877,-0.64278454,-2.0446823,-3.3735838,-0.5162047,0.15579134,-0.14814964,27.0,28.1875,27.125,30.5625,32.25,32.9375
0.054051775,-0.6191269,-1.5148357,-1.6543559,-0.034269795,0.0057506096,-0.14118946,-0.37346062,-0.3281333,0.059797477,-3.078414,0.6250434,-0.00060913066,-0.025236502,0.0013548593,0.0014504119,-0.008386547,0.0040903096,0.001476773,0.44739613,-1.4697129,2.0086591,-2.1077397,-1.5705637,2.4224331,-0.029337874,0.034389827,-0.04088619,-0.0008419091,0.0056867055,-0.03079581,0.05746084,0.3256114,-9.557653,0.70608455,47.71465,-0.64006686,-2.0312195,-3.4211216,-0.5146564,0.14137352,-0.13628933,27.0,28.1875,27.125,30.5625,32.25,32.9375
0.056051843,-1.2661374,-2.0712962,-1.6516418,-0.027229713,-0.006394345,-0.12943704,-0.37353757,-0.3281472,0.05981145,-3.0784652,0.62507117,-0.0005576856,-0.026411243,0.001107493,0.0022205955,-0.009679909,0.00545252,0.0023184416,0.44733587,-1.4696168,2.008527,-2.1077635,-1.5705394,2.4223838,-0.030321185,0.034613885,-0.042901475,-0.0008393436,0.0062607178,-0.03262033,0.038307227,0.3256114,-9.519346,0.73069996,47.682407,-0.65043664,-1.9940205,-3.4405336,-0.52338076,0.1446529,-0.11027701,27.0,28.1875,27.125,30.5625,32.25,32.9375
0.05805281,-0.82868916,-1.59668,-1.5547405,-0.0468991,0.015353016,-0.14220586,-0.37355933,-0.3281386,0.059791636,-3.078461,0.62509006,-0.00065183564,-0.027235828,0.0011274125,0.0024382926,-0.009915833,0.0058955443,0.0024682025,0.44727564,-1.4695445,2.0084903,-2.1077511,-1.5705036,2.4223359,-0.031115673,0.035428185,-0.044321533,-0.00073357765,0.006277541,-0.03356397,-0.19153614,0.4405331,-9.557653,0.7284641,47.73256,-0.6775154,-1.951343,-3.4586773,-0.5275137,0.14435166,-0.11464095,27.0,28.1875,27.125,30.5625,32.25,32.9375
0.06005179,-1.1378808,-1.8683602,-1.4921371,-0.04843429,0.018000342,-0.13821165,-0.3736224,-0.32814127,0.059814017,-3.0784898,0.62500054,-0.0005696992,-0.028457934,0.001159663,0.002660079,-0.010008708,0.0065019173,0.0020031368,0.44723922,-1.4694843,2.0083702,-2.1077392,-1.570527,2.42224,-0.032158576,0.036900338,-0.046467926,-0.0006461432,0.006096374,-0.034139667,-0.15322891,0.36391866,-9.730036,0.7732232,47.71286,-0.68543154,-1.918695,-3.4594216,-0.5207186,0.16017525,-0.09339751,27.0,28.1875,27.125,30.5625,32.25,32.9375
0.06205192,-1.4660002,-1.6648595,-1.3886907,-0.054388545,0.021027563,-0.13171856,-0.37371615,-0.32813975,0.059837732,-3.0785234,0.62510145,-0.00049185264,-0.02904036,0.000838113,0.0024263419,-0.010317995,0.005913296,0.00407778,0.4471432,-1.4693999,2.0082257,-2.1077507,-1.570515,2.4222028,-0.03243471,0.03884757,-0.048088204,-0.0005770064,0.0066289725,-0.03648975,-0.1340753,0.30645782,-9.634268,0.8023209,47.72719,-0.69820446,-1.8583658,-3.4360805,-0.52190167,0.14375451,-0.07901867,27.0,28.1875,27.125,30.5625,32.25,32.9375
0.064052336,-1.2205116,-1.3114381,-1.3236954,-0.047150213,0.033344604,-0.13660598,-0.3737402,-0.3281407,0.05982465,-3.078532,0.62500787,-0.0005763803,-0.029774446,0.00055968284,0.0021745164,-0.011465481,0.004891161,0.003951815,0.44710663,-1.4693152,2.0081546,-2.1077154,-1.5704907,2.4221067,-0.03357135,0.04083821,-0.049713247,-0.0005212263,0.008100397,-0.03750231,-0.21068975,0.3256114,-9.519346,0.7486078,47.677036,-0.67066574,-1.9392266,-3.4766974,-0.5206567,0.13046315,-0.06285425,27.0,28.1875,27.125,30.5625,32.25,32.9375
0.066051856,-1.657821,-1.2397497,-1.3062825,-0.031793326,0.026781254,-0.13072735,-0.37382784,-0.32813418,0.059850745,-3.0785613,0.6250722,-0.000459933,-0.030371396,8.731948e-05,0.002048878,-0.011822247,0.004630657,0.0029439454,0.44702289,-1.4692549,2.008034,-2.1077392,-1.5705026,2.4220595,-0.03351144,0.042729516,-0.051497582,-0.0005488374,0.008535202,-0.036433276,-0.28730422,0.30645782,-9.5385,0.80456203,47.71554,-0.6707125,-1.9016862,-3.4630442,-0.5331943,0.12059407,-0.07422768,27.0,28.1875,27.125,30.5625,32.25,32.9375
0.06805202,-1.4161696,-1.0617145,-1.270405,-0.017943837,0.030986045,-0.14024855,-0.37385023,-0.32816014,0.05983769,-3.0786433,0.62501323,-0.0005673519,-0.031531572,-0.00012368493,0.0025565627,-0.012436021,0.005744296,0.0014094891,0.4469865,-1.4691706,2.007974,-2.1077507,-1.5704068,2.4219759,-0.034209426,0.043629244,-0.053649552,-0.0005626508,0.008602881,-0.035595614,-0.19153613,0.2681506,-9.461885,0.7866488,47.719128,-0.74901843,-1.8801181,-3.397704,-0.5289839,0.1277752,-0.08096561,27.0,28.1875,27.125,30.5625,32.25,32.9375
0.07005196,-1.510852,-1.082719,-1.0429301,-0.0016596214,0.03433012,-0.13603655,-0.3739419,-0.32816616,0.05985557,-3.0786731,0.62505645,-0.00049145415,-0.03273532,-0.0003398139,0.002542681,-0.012983306,0.0056017153,0.0019093197,0.4469143,-1.469062,2.0078166,-2.107763,-1.5704063,2.421927,-0.035260256,0.045899052,-0.056140214,-0.00045092878,0.00915546,-0.03714493,-0.2681506,0.17238252,-9.404425,0.7329411,47.716442,-0.73201704,-1.8793555,-3.3858213,-0.5238508,0.10426062,-0.07889417,27.0,28.1875,27.125,30.5625,32.25,32.9375
0.07205177,-1.924641,-1.3282657,-1.0851928,0.008290029,0.027742298,-0.12844948,-0.37402597,-0.32816187,0.059891313,-3.0787177,0.6251236,-0.00037351606,-0.03306449,-0.0003317147,0.00239106,-0.013475422,0.005141911,0.0017631615,0.44683,-1.4690257,2.0076973,-2.1077745,-1.5704063,2.421879,-0.03600108,0.046656534,-0.05660392,-0.0005441674,0.009801024,-0.0377394,-0.28730422,0.095768064,-9.385271,0.77545905,47.71554,-0.7443745,-1.9078525,-3.4221578,-0.52817667,0.10323371,-0.07297161,27.0,28.1875,27.125,30.5625,32.25,32.9375
0.07405221,-1.6553304,-0.5738287,-0.95189166,-0.01031092,0.039003555,-0.13635202,-0.3740698,-0.32818562,0.0598879,3.0787678,-0.62499833,0.0004623626,-0.035868153,-0.0012294184,0.0037371926,-0.0153508345,0.009574723,0.0023930855,0.44676965,-1.4689294,2.0075996,-2.1077754,-1.57031,2.421734,-0.03668817,0.048319887,-0.061061755,-0.002552344,0.009563545,-0.03905249,-0.2681506,0.17238252,-9.289502,0.7463667,47.71286,-0.74318373,-1.8323646,-3.4304585,-0.5162663,0.10397878,-0.06324727,27.0,28.1875,27.125,30.5625,32.25,32.9375
0.076052025,-0.922151,-0.54362184,-1.0552433,-0.010768183,0.05289158,-0.13781519,-0.37415612,-0.3281394,0.05988013,-3.0787258,0.62506664,-0.00041269665,-0.03630528,-0.0012627942,0.0023822002,-0.014325631,0.007407975,0.0023158067,0.44666165,-1.4688083,2.007479,-2.1077516,-1.5703944,2.4216743,-0.037019197,0.052352834,-0.06230204,-0.0029502278,0.009571973,-0.039305,-0.30645782,0.19153613,-9.289502,0.7329411,47.691364,-0.83356786,-1.9296529,-3.2612176,-0.49510306,0.095014215,-0.077893704,27.0,28.1875,27.125,30.5625,32.25,32.9375
0.07805195,-1.3718553,-0.95825636,-1.0374839,0.0043982915,0.040288493,-0.13490164,-0.3742095,-0.328148,0.0598755,-3.078737,0.62510943,-0.00043608947,-0.03734934,-0.00048374673,0.0033168045,-0.0148587525,0.00889612,-0.0019108097,0.44661298,-1.468701,2.0073717,-2.1077516,-1.5703701,2.421651,-0.0393112,0.050841264,-0.06291544,-0.0023959584,0.009411097,-0.037370164,-0.30645782,0.05746084,-9.346964,0.7642693,47.672558,-0.7854275,-1.8715217,-3.4423337,-0.50188017,0.09455029,-0.09171629,27.0,28.1875,27.125,30.5625,32.25,32.9375
0.08005198,-1.0900795,-0.8188912,-0.91846085,0.011134795,0.043206304,-0.13328278,-0.37430486,-0.32815757,0.059901558,3.0787344,-0.6250898,0.0003387531,-0.03847012,-0.00067770213,0.0036326586,-0.014564585,0.009543144,-0.0017043526,0.44652873,-1.4686165,2.0072272,-2.1077874,-1.5703467,2.4215548,-0.039582305,0.052512556,-0.065608196,-0.001827315,0.008866651,-0.037844248,-0.24899697,0.076614454,-9.270349,0.784413,47.66808,-0.80405754,-1.7843935,-3.392595,-0.49944144,0.1130497,-0.10995555,27.0,28.1875,27.125,30.5625,32.25,32.9375
0.08205239,-1.5153682,-0.61677,-0.88707346,0.006518781,0.029271247,-0.1354944,-0.37437323,-0.32816777,0.059882864,3.0787158,-0.6250468,0.0004414419,-0.040087264,-0.0017128804,0.004492933,-0.015612111,0.011151025,7.841606e-05,0.44644496,-1.4684482,2.0070822,-2.107775,-1.5702862,2.4214466,-0.039256208,0.054587238,-0.06995321,-0.0014570516,0.009108523,-0.039298847,-0.26815057,0.11492168,-9.32781,0.6926589,47.699425,-0.78464526,-1.8446687,-3.19758,-0.5058418,0.11066574,-0.115786895,27.0,28.1875,27.125,30.5625,32.25,32.9375
0.084052026,-1.5367675,-0.5444515,-0.87873346,0.0007258613,0.03488436,-0.12801173,-0.37444505,-0.32814455,0.059877902,3.0786939,-0.625159,0.0004438303,-0.039366502,-0.0004115132,0.0016456804,-0.012864262,0.0054967543,-0.001376624,0.4463363,-1.468351,2.0069869,-2.107775,-1.5702862,2.4214108,-0.041017797,0.05886308,-0.068187684,-0.0012107238,0.009076609,-0.03960582,-0.40222588,0.21068975,-9.32781,0.78217715,47.721813,-0.841411,-1.9169447,-3.476379,-0.49690768,0.10431303,-0.115412675,27.0,28.1875,27.125,30.5625,32.25,32.9375
0.08605193,-1.6321037,-0.98071015,-0.8593737,-0.007396175,0.043030936,-0.1332666,-0.37453985,-0.32817277,0.059916068,3.078633,-0.62507004,0.0003449233,-0.04181908,-0.000758046,0.0042464575,-0.015044364,0.010706454,-0.002539268,0.4462877,-1.4682558,2.0067947,-2.107775,-1.5702628,2.4213145,-0.04237955,0.056928243,-0.072065696,-0.0010358295,0.008791064,-0.039801665,-0.4213795,0.15322891,-9.3661175,0.7709874,47.739727,-0.82692564,-1.8508434,-3.2492156,-0.4858628,0.095757686,-0.13169256,27.0,28.1875,27.125,30.5625,32.25,32.9375
0.08805202,-1.0952628,-0.99230105,-1.032265,-0.021215467,0.05422032,-0.13766775,-0.37461835,-0.32817626,0.059924457,3.078612,-0.62508535,0.00034045754,-0.043550357,-0.00027353418,0.0039930055,-0.014746993,0.010417938,-0.004345714,0.4462151,-1.468135,2.0066373,-2.1077511,-1.5702509,2.4212542,-0.0447457,0.059801355,-0.074679025,-0.0009052092,0.008643702,-0.04035907,-0.40222588,0.21068975,-9.3661175,0.7597976,47.668976,-0.69592506,-1.7803757,-3.2840688,-0.5015499,0.10054031,-0.14552048,27.0,28.1875,27.125,30.5625,32.25,32.9375
0.09005189,-1.6182762,-1.12558,-1.1692806,-0.024760636,0.04130413,-0.13128954,-0.3746999,-0.32817072,0.059919592,3.078616,-0.62502915,0.00032662202,-0.04399039,-0.000174857,0.0030478975,-0.014592987,0.008326948,-0.004925817,0.4461306,-1.4680021,2.0065053,-2.1077635,-1.5702504,2.4211342,-0.045833796,0.06267637,-0.075704396,-0.0008039191,0.009406806,-0.040867116,-0.40222588,0.22984336,-9.346964,0.7418897,47.71286,-0.70122445,-1.8790854,-3.1871674,-0.50740457,0.0923236,-0.16606376,27.0,28.1875,27.125,30.5625,32.25,32.9375
0.09205178,-1.7113235,-1.4929305,-1.1136314,-0.026037402,0.03976966,-0.12835157,-0.37477311,-0.32815316,0.0599175,3.078606,-0.62506455,0.0003541617,-0.04462608,-0.0008203873,0.0032967655,-0.014581134,0.00906493,-0.0035166165,0.44602302,-1.4678938,2.0063856,-2.1077397,-1.570238,2.42105,-0.044959757,0.06411711,-0.077883795,-0.000723048,0.009074247,-0.041400395,-0.38307226,0.2681506,-9.3661175,0.8179876,47.709274,-0.7394681,-1.838386,-3.2179468,-0.505522,0.08494878,-0.19090298,27.0,28.1875,27.125,30.5625,32.25,32.9375
0.094052024,-1.1796768,-1.1620022,-1.1581144,-0.032848552,0.04622112,-0.13812016,-0.37490314,-0.3281492,0.059937824,3.078572,-0.6251155,0.00024249498,-0.045396227,-0.000464206,0.002986778,-0.013933504,0.008724438,-0.0042312276,0.44591472,-1.4677374,2.0061696,-2.1077507,-1.5702628,2.420978,-0.046012454,0.065768175,-0.079012774,-0.00065697916,0.0086390255,-0.04173631,-0.3256114,0.28730422,-9.3661175,0.784413,47.71554,-0.8187134,-1.9330525,-3.12719,-0.50449955,0.10054225,-0.19256163,27.0,28.1875,27.125,30.5625,32.25,32.9375
0.0960518,-0.8838904,-1.3776975,-1.3311288,-0.026055748,0.05299826,-0.13981882,-0.37496862,-0.32816157,0.059927564,3.0785153,-0.6251053,0.00031254836,-0.04553926,0.000549168,0.0016344204,-0.012911056,0.005983852,-0.0058675013,0.44582978,-1.4676051,2.0060503,-2.107763,-1.5701903,2.420894,-0.048209485,0.06794262,-0.0783256,-0.00060198794,0.008900988,-0.04229756,-0.2681506,0.3256114,-9.442732,0.7150385,47.70838,-0.7254503,-1.8350725,-3.2455292,-0.5040934,0.10184485,-0.23767021,27.0,28.1875,27.125,30.5625,32.25,32.9375
0.098052554,-1.1128868,-1.4318093,-1.2069,-0.03664048,0.038482703,-0.13233016,-0.37507522,-0.32816368,0.05993574,3.0784924,-0.62508076,0.00022543926,-0.04801128,-0.00024495655,0.0030106113,-0.01475374,0.008750164,-0.004992631,0.44574544,-1.4674609,2.005881,-2.1077988,-1.5702022,2.4207973,-0.049248777,0.06959183,-0.083312556,-0.00055550254,0.009364097,-0.04420865,-0.22984336,0.34476504,-9.346964,0.78217715,47.73077,-0.7284967,-1.9312085,-3.2571716,-0.51135826,0.088627905,-0.21461847,27.0,28.1875,27.125,30.5625,32.25,32.9375
0.1000524,-1.287363,-1.6324307,-1.0308753,-0.023022728,0.025862262,-0.12936746,-0.37518778,-0.32815608,0.05995165,3.0784338,-0.625202,0.00021914093,-0.04763341,0.0002603289,0.0016687762,-0.013655422,0.0060718334,-0.003666268,0.44561338,-1.4673163,2.0056775,-2.107763,-1.5701784,2.4207485,-0.049950704,0.071630366,-0.08249834,-0.0005156837,0.009532302,-0.046237152,-0.21068975,0.2681506,-9.308656,0.77545905,47.709274,-0.8301672,-1.9268436,-3.2317915,-0.50218534,0.09329997,-0.22370765,27.0,28.1875,27.125,30.5625,32.25,32.9375
0.10205225,-1.0520756,-0.9489306,-1.2989192,-0.029246897,0.020414868,-0.13434401,-0.37531495,-0.32816195,0.059988193,3.078358,-0.62518716,0.00012250828,-0.04924812,-0.00062536966,0.0024645668,-0.014964768,0.007649029,-0.0044969,0.44549322,-1.467196,2.0054615,-2.107763,-1.5701541,2.4206288,-0.050062567,0.07346605,-0.08635573,-0.00048119607,0.010031785,-0.045515567,-0.15322891,0.28730422,-9.32781,0.7709874,47.705692,-0.8190757,-1.9660375,-3.2298584,-0.4945072,0.10416451,-0.24977875,27.0,28.1875,27.125,30.5625,32.25,32.9375
0.10405255,-0.61777145,-1.0994948,-0.9835135,-0.022986444,0.03102737,-0.13672353,-0.37536418,-0.3281666,0.05994888,3.0783944,-0.62507874,0.00024741972,-0.050008934,-0.00068002066,0.0022657432,-0.015342098,0.0071461415,-0.0049320217,0.44543293,-1.4670157,2.0053532,-2.107763,-1.5701178,2.4204962,-0.05100999,0.07519587,-0.08782399,-0.00045103402,0.010583484,-0.04602824,-0.038307227,0.24899697,-9.32781,0.77545905,47.698532,-0.8161866,-1.9676466,-3.1671333,-0.50076044,0.093188085,-0.2883048,27.0,28.1875,27.125,30.5625,32.25,32.9375
0.10605261,-0.49802598,-0.72549736,-1.2135258,-0.01881398,0.0303319,-0.13787837,-0.37548855,-0.32814297,0.059951007,3.0783677,-0.6252075,0.00015295453,-0.051127546,-0.000663566,0.0024228864,-0.014905089,0.007920964,-0.003866449,0.44530088,-1.4668593,2.0051844,-2.1077988,-1.5701541,2.420448,-0.05153718,0.07676245,-0.08992523,-0.00042443458,0.009855121,-0.047618072,-0.038307227,0.28730422,-9.308657,0.69041777,47.698532,-0.83612895,-1.97647,-3.134088,-0.5062573,0.09655875,-0.2937321,27.0,28.1875,27.125,30.5625,32.25,32.9375
0.10805269,-0.5745875,-1.0881646,-1.0318877,-0.0112691065,0.02337495,-0.13841,-0.37557286,-0.32817975,0.059974,3.0783114,-0.6250986,0.00015156846,-0.051666025,-0.0011766372,0.002500776,-0.0154442955,0.008003343,-0.0014592472,0.4452529,-1.4667273,2.0049808,-2.1077745,-1.5700935,2.4203393,-0.051351562,0.078107774,-0.09159808,-0.0004007982,0.010306097,-0.049838595,0.0,0.21068975,-9.289502,0.842603,47.723602,-0.93520176,-1.9223328,-3.12789,-0.49880522,0.11086556,-0.3002675,27.0,28.1875,27.125,30.5625,32.25,32.9375
0.11005261,-0.6614216,-1.0127712,-1.1810974,-0.015237722,0.019976983,-0.12985784,-0.37570202,-0.32816014,0.059976146,3.0782955,-0.6251549,0.00011109466,-0.053079598,-0.0008517777,0.0015893263,-0.015232612,0.0062396997,-0.003863845,0.44510803,-1.4665463,2.0047767,-2.1077745,-1.5701059,2.4202318,-0.053594936,0.08217183,-0.094001524,-0.00037965708,0.010872452,-0.04967581,-0.05746084,0.28730422,-9.32781,0.7709874,47.72719,-0.8962045,-1.9810455,-3.0722928,-0.49221665,0.102072194,-0.32787752,27.0,28.1875,27.125,30.5625,32.25,32.9375
0.11205246,-0.804504,-0.82018393,-1.0715116,-0.023634275,0.014916305,-0.13402595,-0.375815,-0.32817462,0.05999467,3.0782208,-0.62517846,9.534723e-05,-0.0532753,-0.0020276404,0.0029699153,-0.016247049,0.009101775,-0.0038682658,0.44500083,-1.466391,2.0045607,-2.107763,-1.5700577,2.4201488,-0.051330756,0.08075456,-0.0956196,-0.00036063345,0.010555818,-0.0474056,-0.05746084,0.24899697,-9.423578,0.7978386,47.705692,-0.9987697,-2.005521,-3.0943186,-0.509086,0.12069769,-0.3729363,27.0,28.1875,27.125,30.5625,32.25,32.9375
0.114051886,-0.7767117,-0.7734722,-1.1249485,-0.033515375,0.018004697,-0.1352126,-0.3759356,-0.32819185,0.06001611,3.0781739,-0.6251093,2.5884792e-06,-0.05361131,-0.0017253188,0.0027421783,-0.016196238,0.008622021,-0.003187365,0.4449165,-1.4662349,2.0043452,-2.107787,-1.5700458,2.4200275,-0.052292388,0.08142397,-0.095849626,-0.00034342715,0.010721775,-0.049047235,0.0,0.22984336,-9.308657,0.8873621,47.72271,-1.0806732,-1.9507468,-3.2053127,-0.48789495,0.09784433,-0.41373587,27.0,28.1875,27.125,30.5625,32.25,32.9375
0.11605178,-1.0693994,-0.966167,-1.0335073,-0.027889442,0.014591538,-0.13607118,-0.3760183,-0.32817823,0.059996206,3.0781832,-0.62512916,6.176848e-05,-0.054456662,-0.0015992906,0.0010846219,-0.014260262,0.005964215,-0.0014960013,0.4448084,-1.4660653,2.0042012,-2.1077745,-1.5700339,2.4199307,-0.05286585,0.0869374,-0.09814143,-0.00032778792,0.010113388,-0.051309574,0.019153614,0.22984336,-9.404425,0.78217715,47.705692,-1.098341,-2.0842044,-3.0851104,-0.47063679,0.099658735,-0.42188072,27.0,28.1875,27.125,30.5625,32.25,32.9375
0.1180528,-0.6681133,-0.8923402,-1.0611991,-0.022628771,0.022971869,-0.13723934,-0.37614322,-0.32817137,0.060002353,3.0781405,-0.6251409,1.0492094e-05,-0.055432253,-0.000736136,0.001610722,-0.014868108,0.0068804557,-0.0020805686,0.44467536,-1.465898,2.0040085,-2.1077988,-1.5700225,2.4198105,-0.05544337,0.08596116,-0.098294646,-0.0002845592,0.010272556,-0.05330231,-0.11492168,0.22984336,-9.3661175,0.7709874,47.7254,-1.0331528,-1.9613152,-3.2579012,-0.47421902,0.10489518,-0.44286793,27.0,28.1875,27.125,30.5625,32.25,32.9375
0.12005268,-1.0911359,-1.1300125,-1.1921198,-0.013626891,0.009130452,-0.13368577,-0.37622157,-0.32819265,0.059994042,3.0781019,-0.6250928,7.061531e-05,-0.055062097,-0.0011178671,0.0003244952,-0.013698314,0.0045368206,0.00094247586,0.4446039,-1.4657292,2.0038416,-2.1077988,-1.5699619,2.419714,-0.054349806,0.08916017,-0.09889051,-0.00026354232,0.010224739,-0.05523094,-0.05746084,0.19153613,-9.32781,0.8291774,47.72808,-1.1423328,-2.0676055,-3.2693024,-0.4753632,0.10589809,-0.4411193,27.0,28.1875,27.125,30.625,32.25,32.9375
0.12205246,-1.515611,-1.2954007,-1.0324897,-0.00088521134,-0.002345406,-0.11795436,-0.37637758,-0.32820964,0.060021583,3.0780132,-0.6251314,-2.0701431e-07,-0.056664523,-0.00087918097,0.00066934223,-0.013703902,0.0055948677,0.0027378222,0.4444713,-1.465525,2.0035536,-2.1077988,-1.5699261,2.419617,-0.055907357,0.09066452,-0.10135669,-0.00025238577,0.009777051,-0.05858088,0.019153614,0.19153613,-9.270349,0.7284641,47.7245,-1.2222965,-2.0937176,-3.270877,-0.47604164,0.10668638,-0.44019324,27.0,28.1875,27.125,30.625,32.25,32.9375
0.1240519,-0.5890751,-0.51897603,-0.95728475,-0.0074803783,0.020652082,-0.13615187,-0.3764973,-0.32820496,0.06003982,3.077967,-0.6251194,-3.6688703e-05,-0.057381954,-0.0005776644,0.00021082108,-0.013432245,0.004784117,0.005216367,0.44433883,-1.4653807,2.00335,-2.107787,-1.5699023,2.419483,-0.057165425,0.092554234,-0.10240272,-0.00024262631,0.009884125,-0.062316254,0.0,0.22984336,-9.270349,0.7083204,47.687782,-1.160255,-2.026877,-3.2865102,-0.46648365,0.107446484,-0.43458197,27.0,28.1875,27.125,30.625,32.25,32.9375
0.12605178,-0.79877573,-0.4709004,-1.070846,-0.0019341846,0.018782092,-0.13325869,-0.37660736,-0.32818934,0.06003223,3.077987,-0.6250644,-4.898759e-05,-0.058305454,-0.00063902675,0.0006450174,-0.014061007,0.005652253,0.008712346,0.44421867,-1.4652009,2.0031693,-2.107787,-1.5699142,2.419326,-0.057988826,0.093025774,-0.10393496,-0.0002336245,0.010078938,-0.06663488,-0.11492168,0.22984336,-9.32781,0.7597976,47.693153,-1.163484,-1.997813,-3.18809,-0.47597632,0.10568377,-0.40487677,27.0,28.1875,27.125,30.625,32.25,32.9375
0.12805282,-0.5711257,-0.7396893,-1.0295758,-0.009649437,0.03317814,-0.14411932,-0.37670293,-0.3281966,0.060021892,3.0779746,-0.62502134,2.2825882e-06,-0.058788043,-0.00024061612,0.00034807937,-0.013613447,0.005134452,0.01203582,0.44412228,-1.4650089,2.0029786,-2.1077745,-1.5698785,2.4192045,-0.0590276,0.094085716,-0.10447357,-8.824822e-05,0.009898694,-0.07099669,-0.05746084,0.095768064,-9.346964,0.7911258,47.694946,-1.1795392,-1.9841397,-3.3563719,-0.4666959,0.10977533,-0.36740655,27.0,28.1875,27.125,30.625,32.25,32.9375
0.13005227,-1.2044036,-0.5459398,-0.90709776,-0.022646891,0.024524314,-0.1327076,-0.37683824,-0.32820565,0.0600398,3.0779667,-0.62492234,-8.4831416e-05,-0.060216676,-4.5694876e-05,0.0006006949,-0.013994833,0.0057443124,0.014771589,0.44402573,-1.4648168,2.0027258,-2.1077745,-1.5698904,2.4190474,-0.060707938,0.09551116,-0.106648915,-5.0278468e-05,0.0099842725,-0.07541082,-0.095768064,0.17238252,-9.270349,0.7620334,47.685097,-1.1616783,-1.9552456,-3.2288494,-0.47303104,0.1244462,-0.3383692,27.0,28.1875,27.125,30.625,32.25,32.9375
0.13205226,-1.040476,-0.68540317,-1.0010861,-0.025240114,0.043522786,-0.13534337,-0.37697682,-0.3282126,0.060047284,3.077897,-0.62492466,-9.818396e-05,-0.060568187,-9.485077e-05,0.0003651717,-0.014356836,0.005114157,0.017964223,0.44388157,-1.4646126,2.0024865,-2.107787,-1.5698417,2.4189136,-0.06130799,0.09664409,-0.1073805,-3.2428423e-05,0.010587705,-0.07920301,-0.17238252,0.21068975,-9.270349,0.83365434,47.70032,-1.1964453,-1.9982488,-3.35481,-0.46078742,0.10159924,-0.28937685,27.0,28.1875,27.125,30.625,32.25,32.9375
0.13405181,-1.3692607,-0.6833917,-1.0046676,-0.028311515,0.042986516,-0.13519184,-0.3770886,-0.32820588,0.060045734,3.07791,-0.6248494,-7.22673e-05,-0.06205386,8.90788e-05,0.0017707869,-0.0154761635,0.007997693,0.020175751,0.44376102,-1.4644215,2.002271,-2.1077507,-1.5698303,2.4187446,-0.062804684,0.095324226,-0.109168194,-4.0791047e-06,0.010359344,-0.08291037,-0.1340753,0.21068975,-9.32781,0.83365434,47.716442,-1.222461,-1.8106556,-3.424109,-0.46017885,0.1234087,-0.22051814,27.0,28.1875,27.125,30.625,32.25,32.9375
0.1360519,-1.6743208,-1.0722005,-1.0898674,-0.0079872385,0.033342496,-0.13399912,-0.37719637,-0.32818478,0.060009778,3.0779328,-0.6248344,1.3392447e-06,-0.06298752,0.0002913525,-0.00017794891,-0.014286355,0.004336241,0.020660752,0.4436165,-1.4641916,2.0021026,-2.107763,-1.5698179,2.418588,-0.064328514,0.1013847,-0.11141255,-2.663364e-07,0.010850437,-0.08491794,-0.21068975,0.095768064,-9.385271,0.8157518,47.717335,-1.1163013,-1.9992253,-3.4405565,-0.45208,0.11606095,-0.19431086,27.0,28.1875,27.125,30.625,32.25,32.9375
0.13805182,-1.8714516,-0.7489754,-1.1633734,-0.0026633001,0.024676913,-0.12893967,-0.3773408,-0.3282007,0.060048535,3.077842,-0.624719,-0.000105774474,-0.06310409,0.00043973807,0.0006607091,-0.015292223,0.005753459,0.02111752,0.44348446,-1.4640487,2.0018618,-2.107787,-1.5697697,2.4183955,-0.0648886,0.09919416,-0.11092876,-1.7389862e-08,0.011164221,-0.0859344,-0.38307226,0.095768064,-9.32781,0.77545905,47.694946,-1.2008791,-1.7883912,-3.4590123,-0.44262144,0.11157541,-0.1611578,27.0,28.1875,27.125,30.625,32.25,32.9375
0.14005186,-1.8097805,-0.84722346,-1.2766938,0.003861195,0.034193598,-0.1281101,-0.37744108,-0.3282164,0.060031366,3.077862,-0.62455165,-3.9975e-05,-0.06582547,-6.145005e-06,0.0011823899,-0.015901335,0.00724913,0.018830929,0.44339988,-1.4638199,2.0016458,-2.1077745,-1.569734,2.418204,-0.06640001,0.102988064,-0.11633121,-1.1354339e-09,0.011059596,-0.085155696,-0.34476504,0.15322891,-9.442732,0.800085,47.699425,-1.2849084,-1.8618908,-3.4216452,-0.42622876,0.12045775,-0.1489373,27.0,28.1875,27.125,30.625,32.25,32.9375
0.14205165,-1.9124312,-1.052622,-1.1705279,0.0073135886,0.037237234,-0.12824254,-0.3775914,-0.32821324,0.060046718,3.077818,-0.6245263,-7.625509e-05,-0.06635732,0.0008802969,0.00061491114,-0.015702365,0.0060389955,0.014401656,0.44324303,-1.463616,2.001383,-2.107763,-1.5697097,2.4180372,-0.06873153,0.10396169,-0.11612538,-7.413572e-11,0.011403988,-0.08305772,-0.49799395,0.21068975,-9.461885,0.8717007,47.711063,-1.2358029,-1.8302505,-3.4862368,-0.44104403,0.12215979,-0.14400294,27.0,28.1875,27.125,30.625,32.25,32.9375
0.14405201,-1.6153041,-1.0785213,-1.3816509,-0.0034247236,0.047333695,-0.12932315,-0.37772948,-0.3282129,0.060059316,3.0777829,-0.62450135,-0.00012594588,-0.067994006,0.0006464611,0.0012609919,-0.016300015,0.0075779567,0.012638226,0.44311073,-1.463424,2.0011423,-2.107763,-1.5696977,2.417894,-0.069644846,0.105374254,-0.11918223,-4.840532e-12,0.011282616,-0.08220499,-0.5554548,0.17238252,-9.461885,0.87617236,47.74868,-1.1951978,-1.7698104,-3.3741515,-0.42812517,0.11588566,-0.14092253,27.0,28.1875,27.125,30.625,32.25,32.9375
0.14605196,-1.88188,-1.0337722,-1.3068283,-0.022204585,0.056535255,-0.1261443,-0.37788415,-0.32819256,0.06005846,3.0777564,-0.62449914,-0.00011802704,-0.06913029,0.00096693257,0.001393494,-0.016010676,0.0076152617,0.0056686094,0.44291833,-1.4631959,2.0008895,-2.1077502,-1.5696739,2.4177036,-0.07103224,0.10681445,-0.12126643,0.00073478156,0.0110019725,-0.07662124,-0.5554548,0.19153613,-9.385271,0.84708,47.758533,-1.1998042,-1.5995353,-3.3412511,-0.43602043,0.13556865,-0.18513346,27.0,28.1875,27.125,30.625,32.25,32.9375
0.14805196,-2.1414475,-1.4939606,-1.4225651,-0.024511982,0.060401037,-0.13503622,-0.37799537,-0.32818133,0.060052175,3.0777707,-0.62446564,-0.00010188134,-0.07028613,0.0011596197,0.0012181458,-0.015730642,0.0070867995,0.0018242806,0.44279787,-1.4630034,2.000686,-2.1077263,-1.5696739,2.4175606,-0.0723782,0.109132566,-0.12357978,0.0013268569,0.010970673,-0.07412148,-0.63206923,0.17238252,-9.519346,0.7933669,47.71465,-1.1729538,-1.6036696,-3.306548,-0.43896523,0.1363114,-0.25519344,27.0,28.1875,27.125,30.625,32.25,32.9375
0.15005188,-2.4699762,-1.6103956,-1.4820269,-0.03060158,0.055097643,-0.1297337,-0.3781639,-0.32818913,0.060067907,3.0777228,-0.62443703,-0.00017811137,-0.0710374,0.0015229512,0.0003252625,-0.014575858,0.0052511133,0.00066496443,0.4426535,-1.4627627,2.000387,-2.1077383,-1.5696615,2.4174047,-0.07352159,0.1124044,-0.12531503,0.0019471421,0.010718272,-0.07410332,-0.47884035,0.22984336,-9.595961,0.78888994,47.723602,-1.128944,-1.768218,-3.3736897,-0.44638255,0.1359743,-0.25235516,27.0,28.1875,27.125,30.625,32.25,32.9375
0.15205185,-2.5168939,-1.3272833,-1.3863051,-0.04249363,0.05601174,-0.12538135,-0.3782979,-0.32819328,0.06004582,3.0776694,-0.62446624,-0.00014842408,-0.07176858,0.001130866,0.0007861577,-0.016039059,0.0058479407,-0.002083583,0.44250914,-1.462511,2.0001705,-2.1077864,-1.5696133,2.4172854,-0.07412105,0.11276736,-0.12678379,0.0018864259,0.0117825,-0.07195394,-0.51714754,0.34476504,-9.557653,0.7866488,47.71554,-1.165273,-1.6308199,-3.3614278,-0.45511132,0.15005341,-0.29398957,27.0,28.1875,27.125,30.625,32.25,32.9375
0.15405212,-2.4905014,-1.2620449,-1.4255521,-0.038921446,0.04943711,-0.13353579,-0.37844926,-0.32818973,0.060074747,3.0776057,-0.6245116,-0.00019810551,-0.07382312,0.0025503405,-0.0008099748,-0.014771691,0.0033572398,-0.0045147557,0.44235173,-1.4623293,1.9998955,-2.1077502,-1.56959,2.4171646,-0.0785196,0.11799162,-0.12883405,0.0015116269,0.011705786,-0.073918514,-0.47884035,0.2681506,-9.5385,0.784413,47.70211,-1.1244782,-1.9037509,-3.3386528,-0.43765742,0.15435633,-0.3126998,27.0,28.1875,27.125,30.625,32.25,32.9375
0.15605186,-1.9328865,-1.3707914,-1.5132169,-0.023911923,0.054954614,-0.12972109,-0.37859866,-0.32818663,0.060077872,3.0775785,-0.6245042,-0.00019222386,-0.07440865,0.0016603498,0.00094302045,-0.016323922,0.007081479,-0.0015090287,0.4421963,-1.4620908,1.9996194,-2.1077263,-1.5695657,2.4170082,-0.07720872,0.11571425,-0.13029099,0.0012216633,0.011515177,-0.07561259,-0.4213795,0.22984336,-9.557653,0.7866488,47.711063,-1.0542612,-1.7575693,-3.332737,-0.43128073,0.16784307,-0.3048492,27.0,28.1875,27.125,30.625,32.25,32.9375
0.15805213,-2.1203427,-1.3517457,-1.162404,-0.019361177,0.037849892,-0.133809,-0.37874815,-0.3281744,0.060053427,3.0775964,-0.624489,-0.00015943403,-0.075134344,0.0017843383,-0.0005544248,-0.016168308,0.004086512,-0.002932362,0.4420398,-1.4618015,1.9993557,-2.1077263,-1.5695652,2.41684,-0.07881415,0.12018642,-0.13179247,0.0010226191,0.012652369,-0.07579412,-0.4213795,0.19153613,-9.576807,0.8627467,47.68062,-1.1243211,-1.8788905,-3.3641186,-0.42573458,0.14996506,-0.3214694,27.0,28.1875,27.125,30.625,32.25,32.9375
0.16005199,-1.2025921,-0.32460794,-0.95418656,-0.038248844,0.05285263,-0.14297672,-0.37891766,-0.32818148,0.060063712,3.0775473,-0.62442356,-0.00025541722,-0.078768805,0.002881376,0.0008708463,-0.017384913,0.0073717134,-0.007452962,0.44189394,-1.4615619,1.9990782,-2.107774,-1.5695533,2.4166598,-0.08385083,0.12099719,-0.13594547,0.00087934895,0.012346511,-0.07630645,-0.4213795,0.21068975,-9.442732,0.85155696,47.679718,-0.92169464,-1.7727544,-3.2298503,-0.4212094,0.16277295,-0.36626476,27.0,28.1875,27.125,30.625,32.25,32.9375
0.16205192,-1.4771001,-0.5876389,-1.0672803,-0.022203512,0.035037607,-0.13385966,-0.3790595,-0.32817703,0.06007017,3.0774918,-0.62446845,-0.00022235926,-0.077556334,0.0021931364,-0.00018052755,-0.017319342,0.0049625486,-0.0044402205,0.44172668,-1.4613458,1.9988164,-2.1077387,-1.5695046,2.4165277,-0.082100786,0.12243299,-0.13514394,0.00085157936,0.013323104,-0.07756983,-0.3256114,0.13407528,-9.385271,0.7978386,47.707485,-1.0158095,-1.7978339,-3.3624203,-0.40406835,0.17309143,-0.34801,27.0,28.1875,27.125,30.625,32.25,32.9375
0.16405177,-1.6979965,-0.7883539,-0.9014642,-0.004816302,0.021469546,-0.12966517,-0.3792314,-0.32817897,0.06008899,3.077455,-0.62442386,-0.0002854665,-0.07986431,0.0031074863,-0.00023212045,-0.016566051,0.005608012,-0.0075219455,0.4415696,-1.4611053,1.9985045,-2.1077263,-1.5694932,2.4163477,-0.085174665,0.1251959,-0.13809368,0.0007832831,0.01236619,-0.07755865,-0.22984336,0.095768064,-9.346964,0.8627467,47.672558,-0.97538054,-1.7650802,-3.2168157,-0.40047246,0.18518996,-0.4015532,27.0,28.1875,27.125,30.625,32.25,32.9375
0.1660516,-1.2666771,-0.0146920625,-0.8426413,-0.013128498,0.026328571,-0.14065456,-0.37939516,-0.32816032,0.060073532,3.0774093,-0.62447,-0.0002653867,-0.08121596,0.0031697033,-0.00028923736,-0.017042441,0.0056010904,-0.003584126,0.4413651,-1.4608412,1.9982532,-2.1077502,-1.5694574,2.416178,-0.08673662,0.1273505,-0.14036031,0.00070777506,0.012803754,-0.0830569,-0.22984336,0.13407528,-9.346964,0.76874626,47.737934,-0.8857869,-1.9345908,-3.3232996,-0.39761746,0.17437474,-0.37972468,27.0,28.1875,27.125,30.625,32.25,32.9375
0.16805257,-1.3831235,-0.4123466,-0.8639946,0.007573434,0.017344186,-0.13381827,-0.37958336,-0.32816648,0.060092997,3.0773134,-0.6244687,-0.00036580887,-0.081798315,0.0031073075,-0.0013261158,-0.016707707,0.0037550314,-0.0017402115,0.4411847,-1.4606003,1.9979533,-2.1077988,-1.5694207,2.4160092,-0.08741849,0.13081835,-0.14180493,0.00050322636,0.013299775,-0.08558012,-0.19153613,0.05746084,-9.308656,0.7866488,47.698532,-0.8922075,-1.9516473,-3.2721004,-0.39294887,0.20640045,-0.32976192,27.0,28.1875,27.125,30.625,32.25,32.9375
0.17005256,-1.3051158,-0.32163194,-0.8730989,0.0028047627,0.026328566,-0.13237168,-0.37974668,-0.32813647,0.060078107,3.0773325,-0.624491,-0.00034745227,-0.08452727,0.0037985137,8.485697e-05,-0.018394584,0.0065157404,-0.001531764,0.44099158,-1.4603249,1.9976772,-2.1077745,-1.5694326,2.4158278,-0.091312155,0.13072605,-0.1449794,0.0005582617,0.013644758,-0.08968095,-0.30645782,0.15322891,-9.136273,0.78217715,47.70032,-0.78043765,-1.8744652,-3.137895,-0.36890462,0.21407476,-0.31591043,27.0,28.1875,27.125,30.625,32.25,32.9375
0.17205237,-1.4290996,-0.6113663,-0.70501137,0.0021642793,0.033332705,-0.14071706,-0.37990654,-0.3281486,0.060086813,3.0772812,-0.62441957,-0.00029325002,-0.08464067,0.0026713691,-0.00027039222,-0.018395059,0.0054325713,0.0055404664,0.44082397,-1.4600604,1.9973534,-2.1077263,-1.5693606,2.4156222,-0.08957463,0.13359159,-0.14752392,0.0012300342,0.014112615,-0.09501402,-0.3256114,0.1340753,-9.136273,0.83365434,47.684196,-0.7916217,-2.0926428,-3.2780182,-0.37404168,0.20296365,-0.26680994,27.0,28.1875,27.125,30.625,32.25,32.9375
0.17405227,-1.6416037,-0.87287176,-0.97011805,0.0063441936,0.028294679,-0.13098086,-0.38007274,-0.328146,0.06009515,3.0772316,-0.6243489,-0.00036003755,-0.08484803,0.003797584,-0.0012667341,-0.017565023,0.0029701919,0.00825512,0.44065538,-1.4598323,1.9970902,-2.1077626,-1.5693363,2.415416,-0.09202385,0.13505033,-0.14703411,0.0018724849,0.014429645,-0.100177296,-0.24899697,0.095768064,-9.308657,0.8247004,47.687782,-0.8117671,-1.963481,-3.3714986,-0.36587507,0.1998789,-0.18580088,27.0,28.1875,27.125,30.625,32.25,32.9375
0.17605212,-1.809246,-0.9920661,-0.78950876,-0.007485548,0.033962645,-0.12092026,-0.38025782,-0.32814348,0.060103558,3.0772023,-0.62428397,-0.00035366867,-0.08484209,0.0043243626,-0.0018158662,-0.01640373,0.00061633246,0.0119060995,0.4404629,-1.4595442,1.9967436,-2.1077254,-1.569301,2.415187,-0.092923105,0.1365438,-0.14793652,0.0039178925,0.014395031,-0.10472711,-0.24899697,0.13407528,-9.32781,0.7530795,47.68599,-0.6014327,-1.9120224,-3.331647,-0.3805344,0.19485936,-0.12003051,27.0,28.1875,27.125,30.625,32.25,32.9375
0.17805207,-1.4725921,-0.589621,-0.68933266,-0.020003567,0.04212858,-0.13303195,-0.38042057,-0.32811823,0.060076855,3.077205,-0.62430245,-0.0003383425,-0.085416414,0.0037257336,-0.0018001244,-0.017207636,0.00033012073,0.013988268,0.44027123,-1.4592564,1.9964913,-2.1077492,-1.5693005,2.4150066,-0.09283271,0.13822292,-0.14992143,0.004142269,0.0152430935,-0.106718026,-0.30645782,0.17238252,-9.155427,0.7777002,47.70211,-0.80705154,-1.936899,-3.3209262,-0.39630508,0.21670006,-0.08526304,27.0,28.1875,27.125,30.625,32.25,32.9375
0.18005212,-1.8400263,-0.7668631,-0.796221,-0.019343637,0.03503532,-0.12889591,-0.38059187,-0.3281009,0.06008519,3.0771627,-0.6243139,-0.00029372878,-0.086380124,0.0033525587,-0.0012088405,-0.018114239,0.0020563079,0.012889308,0.44005495,-1.4590046,1.9961799,-2.10769,-1.5692524,2.414803,-0.09298628,0.13854456,-0.15150887,0.0034671503,0.015323611,-0.10577159,-0.38307226,0.24899697,-9.155427,0.8247004,47.695843,-0.8489725,-1.8228681,-3.35041,-0.38754863,0.21756135,-0.03868158,27.0,28.1875,27.125,30.625,32.25,32.9375
0.18205188,-1.5477164,-0.84180087,-0.7609393,-0.015690885,0.04166184,-0.13175969,-0.38079336,-0.3281023,0.0600991,3.0771117,-0.6242471,-0.000361458,-0.08762202,0.002911321,-0.00071738765,-0.018624887,0.0036558765,0.010088171,0.439863,-1.4587168,1.9958318,-2.107702,-1.569228,2.414576,-0.093054205,0.13980724,-0.15396225,0.0029959506,0.015104211,-0.103035584,-0.2681506,0.24899697,-9.136273,0.8157518,47.689575,-0.85208297,-1.842447,-3.30409,-0.35580677,0.22649011,-0.06457866,27.0,28.1875,27.125,30.625,32.25,32.9375
0.1840519,-1.4139282,-0.70754486,-0.87036467,-0.007608195,0.029679809,-0.127236,-0.38096362,-0.3280909,0.06007869,3.0771132,-0.6242292,-0.0003338857,-0.0883186,0.0027021582,-0.00072744355,-0.01871574,0.0042083017,0.006828043,0.43968314,-1.4584049,1.9955329,-2.107702,-1.5692161,2.414385,-0.09312001,0.14107558,-0.15527424,0.002501447,0.014944027,-0.099840425,-0.21068975,0.2681506,-9.193734,0.86945957,47.686886,-0.8715726,-1.8648496,-3.4102943,-0.35896215,0.23022589,-0.0956086,27.0,28.1875,27.125,30.625,32.25,32.9375
0.18605214,-1.0485007,-0.41100952,-0.95375377,-0.0059414105,0.022505587,-0.12967901,-0.3811234,-0.3280893,0.060062993,3.0770862,-0.6241494,-0.00032793128,-0.08845242,0.0025791507,-0.0021173572,-0.01803606,0.0016085287,0.002797207,0.43951502,-1.458128,1.9952701,-2.1077383,-1.5691804,2.4141707,-0.09328723,0.1447938,-0.1562243,0.002374352,0.015432078,-0.095975496,-0.17238252,0.21068975,-9.193734,0.83365434,47.711063,-0.9664632,-1.9651892,-3.4060683,-0.35142767,0.2540011,-0.11347605,27.0,28.1875,27.125,30.625,32.25,32.9375
0.18805225,-1.0838118,-0.8380269,-1.0190916,-0.008534788,0.0104144905,-0.12858048,-0.38132474,-0.32808587,0.06007495,3.0770428,-0.6241619,-0.00037987006,-0.09046725,0.001909056,0.0008438239,-0.020628545,0.0071824263,-0.0009052685,0.43932286,-1.4578297,1.9949092,-2.1077259,-1.5691684,2.4139922,-0.09373263,0.14181568,-0.15983951,0.002820287,0.015403217,-0.09271626,-0.21068975,0.38307226,-9.212888,0.83589023,47.672558,-1.0508438,-1.6864152,-3.256156,-0.36499286,0.25396562,-0.15640302,27.0,28.1875,27.125,30.625,32.25,32.9375
0.19005226,-1.1778617,-0.91797054,-1.3438243,-0.013136751,-0.010428512,-0.12504582,-0.3815046,-0.32808328,0.060085464,3.0769634,-0.6242043,-0.00036574152,-0.09074526,0.002008733,0.00068646215,-0.020480635,0.0058761723,-0.004456877,0.4391188,-1.4575657,1.9945868,-2.1077015,-1.5691079,2.4138248,-0.094387844,0.1430248,-0.16116834,0.004188381,0.01582728,-0.089818895,-0.076614454,0.3256114,-9.3661175,0.82022345,47.703903,-1.0478177,-1.8347313,-3.481942,-0.35845977,0.26261628,-0.21550857,27.0,28.1875,27.125,30.625,32.25,32.9375
0.19205211,-1.0377651,-1.2717475,-1.4470419,-0.021545727,-0.01781601,-0.12610884,-0.38166183,-0.3280648,0.060059257,3.0769868,-0.6241516,-0.00030886164,-0.09137423,0.0029161614,-0.00030676325,-0.018989263,0.0036040498,-0.0057955766,0.438938,-1.4572654,1.9943107,-2.1076891,-1.5690964,2.4136083,-0.09632599,0.1457412,-0.1621793,0.0051797205,0.015442984,-0.09041822,0.11492168,0.2873042,-9.423578,0.8403672,47.696735,-0.9723097,-1.7084982,-3.3677778,-0.36005402,0.27570808,-0.2409271,27.0,28.1875,27.125,30.625,32.25,32.9375
0.19405197,-0.5478021,-1.7460353,-1.441771,-0.024630139,-0.009184725,-0.12431794,-0.38188073,-0.3280505,0.060080588,3.076915,-0.6242362,-0.00038632558,-0.09237092,0.0026999095,-0.00030148058,-0.019745711,0.003343387,-0.009730154,0.43870983,-1.4569775,1.9939398,-2.1076772,-1.5690836,2.4134424,-0.09726315,0.14761269,-0.16435689,0.005398021,0.016239207,-0.08741838,0.076614454,0.24899697,-9.3661175,0.8537928,47.71554,-1.0120859,-1.7349311,-3.3993444,-0.36574566,0.28599912,-0.2968049,27.0,28.1875,27.125,30.625,32.25,32.9375
0.19605182,-0.3593401,-1.2741803,-1.5410571,-0.027723627,-0.011499218,-0.12633702,-0.3820586,-0.3280378,0.060055956,3.076875,-0.624323,-0.00033797437,-0.09370447,0.0023330136,0.00074309245,-0.020842744,0.0056112916,-0.009261685,0.43850565,-1.456654,1.9936398,-2.1076891,-1.5690478,2.4132977,-0.09771042,0.14764382,-0.1668056,0.005304282,0.016266618,-0.088332996,0.11492168,0.22984336,-9.404425,0.8493211,47.72629,-0.98554516,-1.636388,-3.3909533,-0.36830738,0.29462743,-0.34102255,27.0,28.1875,27.125,30.625,32.25,32.9375
0.19805273,-0.47992864,-1.0557272,-1.6377666,-0.028980255,-0.00552769,-0.1296842,-0.38224077,-0.32803574,0.06005826,3.07686,-0.62426424,-0.00032875472,-0.09340941,0.0027371396,-0.00094119593,-0.02052161,0.0021759507,-0.012536826,0.43832517,-1.4563534,1.9932927,-2.1076534,-1.5690235,2.4130826,-0.098926626,0.1504337,-0.16601442,0.004967925,0.017435381,-0.086274,0.13407528,0.24899697,-9.5385,0.83589023,47.691364,-0.9985993,-1.7432551,-3.4699085,-0.35530326,0.29511625,-0.3473891,27.0,28.1875,27.125,30.625,32.25,32.9375
0.2000517,-0.67181504,-1.1275077,-1.7564639,-0.026773624,-0.003356254,-0.13035165,-0.3824018,-0.3280497,0.06004876,3.0767586,-0.6243402,-0.00025045924,-0.09457572,0.0023726458,-0.0017348909,-0.021069068,0.000253073,-0.014719133,0.43814486,-1.4560641,1.9929932,-2.1076534,-1.5689267,2.4129627,-0.10009084,0.1547003,-0.16903941,0.005240515,0.018742427,-0.0852536,0.15322891,0.28730422,-9.634268,0.83589023,47.684196,-1.0628033,-1.799777,-3.4162073,-0.36568403,0.30762914,-0.4465082,27.0,28.1875,27.125,30.625,32.25,32.9375
0.20205235,-0.5042092,-1.152847,-2.0211084,-0.0338023,0.006510387,-0.13364583,-0.38262787,-0.32803392,0.060063507,3.0767593,-0.62430036,-0.00036019244,-0.0950702,0.0016486213,-0.0013002418,-0.02166348,0.00076238986,-0.011498925,0.43794104,-1.4557408,1.9925975,-2.107641,-1.5689629,2.4127343,-0.09932712,0.15561315,-0.17122425,0.0058026845,0.019071916,-0.08770784,0.13407528,0.3256114,-9.730036,0.84484416,47.686886,-1.0066065,-1.7914538,-3.442543,-0.37675843,0.29499716,-0.47802305,27.0,28.1875,27.125,30.625,32.25,32.9375
0.20405231,-1.0606467,-1.6395868,-2.0790331,-0.050877128,0.0090633,-0.124066666,-0.38278478,-0.32801124,0.060042936,3.0767236,-0.6243677,-0.00021543309,-0.095409006,0.0017744021,-0.0026269252,-0.02097965,-0.0021249515,-0.009133373,0.43771294,-1.4554521,1.9923099,-2.107581,-1.5688909,2.4125528,-0.100203164,0.15937248,-0.17251173,0.006249739,0.019676024,-0.09094955,0.038307227,0.36391866,-9.634268,0.84484416,47.689575,-1.1932404,-1.9146233,-3.4792156,-0.3752862,0.29794642,-0.47595283,27.0,28.1875,27.125,30.625,32.25,32.9375
0.20605244,-0.8222809,-1.8173891,-1.9112935,-0.054966148,0.031895023,-0.1321823,-0.38301006,-0.32804433,0.06007788,3.076627,-0.6243251,-0.0003042071,-0.096358836,0.0019260973,-0.0028966616,-0.020809116,-0.0030049493,-0.0022787144,0.43754432,-1.4551278,1.991867,-2.107569,-1.5688423,2.4123702,-0.10140841,0.16164583,-0.17464021,0.0069949105,0.019914515,-0.099006124,-0.038307227,0.4213795,-9.730036,0.7978386,47.729877,-1.0071551,-1.9768784,-3.4622679,-0.3752933,0.30137628,-0.4108668,27.0,28.1875,27.125,30.625,32.25,32.9375
0.20805253,-1.3668494,-1.6876526,-1.817185,-0.05492358,0.02169828,-0.13119377,-0.38317624,-0.32802558,0.060050964,3.0766277,-0.6242846,-0.00022592684,-0.097038716,0.001959356,-0.0027551528,-0.020724108,-0.0027319754,0.0014747108,0.43734017,-1.4548162,1.9915794,-2.107557,-1.568807,2.4121408,-0.10187861,0.16253062,-0.17607823,0.007352541,0.019723464,-0.10322973,-0.038307227,0.38307226,-9.80665,0.84484416,47.70659,-1.1009126,-1.9506981,-3.522924,-0.39172697,0.31235293,-0.39478487,27.0,28.1875,27.125,30.625,32.25,32.9375
0.21005246,-1.0740638,-1.2146752,-1.770952,-0.06631761,0.039751906,-0.13598473,-0.38340124,-0.32802176,0.06008182,3.0765617,-0.6242462,-0.00037663587,-0.09859512,0.001908113,-0.0025514883,-0.022000073,-0.0019297495,0.010030394,0.4371356,-1.4545403,1.9912075,-2.107581,-1.5688065,2.411921,-0.10363276,0.16418195,-0.17825657,0.0066316472,0.020563502,-0.11353556,-0.038307227,0.3256114,-9.672575,0.82022345,47.716442,-1.1245545,-1.9702473,-3.464882,-0.38882017,0.30980173,-0.2989794,27.0,28.1875,27.125,30.625,32.25,32.9375
0.2120522,-1.7266004,-1.9390213,-1.5833786,-0.048886467,0.03350836,-0.12543519,-0.38357595,-0.32802445,0.060051672,3.0765336,-0.62418175,-0.00023874447,-0.10109724,0.000991305,-0.000531503,-0.02529838,0.0024584718,0.012557908,0.43693134,-1.4541808,1.9908713,-2.1075575,-1.5687221,2.4116802,-0.104797915,0.16390485,-0.18241152,0.005708559,0.021685908,-0.117226705,-0.17238252,0.30645782,-9.634268,0.8717007,47.709274,-1.1967703,-1.8446101,-3.372949,-0.38285008,0.30203354,-0.25933245,27.0,28.1875,27.125,30.625,32.25,32.9375
0.21405225,-1.552609,-1.3184131,-1.6116931,-0.034206085,0.037969712,-0.12900428,-0.3837853,-0.32803282,0.06006235,3.0765069,-0.6240582,-0.00024819624,-0.10178425,0.00014963117,-0.0004138472,-0.026402552,0.0027636276,0.01707406,0.43673924,-1.4538445,1.9904646,-2.1075218,-1.5686854,2.4114146,-0.10434819,0.16561894,-0.18457407,0.0054264106,0.022564992,-0.12129087,-0.30645782,0.3256114,-9.615114,0.9164598,47.72719,-1.1196233,-1.9856832,-3.4695048,-0.37224144,0.29709047,-0.19420236,27.0,28.1875,27.125,30.625,32.25,32.9375
0.21605214,-1.7965658,-0.79113483,-1.5701056,-0.026173802,0.036438905,-0.12821169,-0.3839866,-0.32802817,0.060051378,3.0764673,-0.6239928,-0.00023150089,-0.102337524,0.0010718389,-0.0019845683,-0.02514969,-0.00019502145,0.016234908,0.4365228,-1.453508,1.9901179,-2.1075337,-1.5686377,2.4111626,-0.106555894,0.16915704,-0.184998,0.005536114,0.0226876,-0.12265828,-0.30645782,0.3256114,-9.481039,0.81351066,47.694946,-1.2130846,-1.9279605,-3.3859615,-0.37616706,0.30014533,-0.16851324,27.0,28.1875,27.125,30.625,32.25,32.9375
0.21805239,-1.8910829,-0.9867773,-1.428358,-0.013628928,0.04439937,-0.12318373,-0.3841943,-0.3280354,0.060056917,3.0763812,-0.62397563,-0.00022619826,-0.10284862,0.0009345035,-0.0016405593,-0.02551581,0.00078749325,0.015057793,0.43630683,-1.4531848,1.9897455,-2.1075337,-1.5685657,2.410947,-0.10661729,0.16922715,-0.18585786,0.0052926037,0.02260821,-0.121541046,-0.4405331,0.22984336,-9.404425,0.8291774,47.72092,-1.1024967,-1.8329997,-3.457498,-0.38071793,0.3093302,-0.15457097,27.0,28.1875,27.125,30.625,32.25,32.9375
0.22005226,-1.4860288,-0.71369684,-1.071305,-0.015660524,0.07529531,-0.12454313,-0.38440645,-0.32805732,0.060054056,3.0763173,-0.6238891,-0.00020326393,-0.10513998,0.00077246246,-0.0005228785,-0.027048448,0.0031681573,0.009420636,0.43611407,-1.4528131,1.9893383,-2.1075337,-1.5684932,2.4107087,-0.10848883,0.17029296,-0.18963967,0.0052075502,0.02298363,-0.11777238,-0.57460845,0.11492168,-9.385271,0.90750587,47.711063,-1.2530534,-1.822349,-3.5234613,-0.3664328,0.29493812,-0.1828238,27.0,28.1875,27.125,30.625,32.25,32.9375
0.2220522,-2.3176265,-0.48211342,-0.9152421,-0.018044258,0.0718556,-0.12047774,-0.3846091,-0.32802284,0.06005141,3.076314,-0.623874,-0.00021601141,-0.1056017,0.0019181052,-0.001823773,-0.026037598,0.00067288324,0.0018699128,0.4358732,-1.452513,1.9890045,-2.1075099,-1.5684932,2.410459,-0.11103216,0.17267503,-0.18937632,0.005245767,0.023117553,-0.11276461,-0.6512228,0.076614454,-9.289502,0.842603,47.72002,-1.076396,-1.6995015,-3.5818954,-0.36810187,0.28512847,-0.2187809,27.0,28.1875,27.125,30.625,32.25,32.9375
0.2240522,-1.838869,-0.024314662,-0.7314182,-0.0104588745,0.08762779,-0.1279009,-0.38483584,-0.3280341,0.060080487,3.076191,-0.6239078,-0.00029870644,-0.10748883,0.0018638797,0.00025691156,-0.027909473,0.004870421,-0.0023341759,0.4356569,-1.4522145,1.9886082,-2.1075218,-1.5684336,2.4102798,-0.112442255,0.17066334,-0.19193447,0.005226383,0.02304748,-0.10996713,-0.61291564,0.076614454,-9.232041,0.8627467,47.668976,-1.0428146,-1.5962508,-3.5021858,-0.35455808,0.30684018,-0.2699835,27.0,28.1875,27.125,30.625,32.25,32.9375
0.22605188,-1.9531257,0.1314796,-0.8276459,0.01594186,0.07339063,-0.12937137,-0.38505876,-0.32802397,0.060073745,3.0761397,-0.6239179,-0.0002417304,-0.109109856,0.00221251,0.0008000826,-0.028682211,0.0055693625,-0.0052631153,0.43540403,-1.4518427,1.988201,-2.1074855,-1.5683736,2.41004,-0.1146806,0.17164667,-0.19446972,0.0058282465,0.023451978,-0.109275155,-0.6703765,-0.038307227,-9.232041,0.8627467,47.64927,-0.8867823,-1.6020501,-3.4539623,-0.35974956,0.29462746,-0.3105507,27.0,28.1875,27.125,30.625,32.25,32.9375
0.22805199,-1.251841,0.997069,-0.80114865,0.019142177,0.07783807,-0.13908094,-0.385244,-0.3280286,0.060053058,3.0761096,-0.62389356,-0.00015489735,-0.1103849,0.0025306055,0.0006750517,-0.028754333,0.0057432274,-0.006956786,0.43521136,-1.4514827,1.9878415,-2.1074617,-1.5683135,2.409836,-0.11629963,0.17347316,-0.1962218,0.0055768313,0.023440193,-0.109199904,-0.7086837,-0.21068975,-9.251195,0.800085,47.672558,-0.92005503,-1.5613338,-3.4155507,-0.344329,0.28703505,-0.3298034,27.0,28.1875,27.125,30.625,32.25,32.9375
0.23005186,-1.8676348,0.44481915,-0.95941645,0.049602512,0.055264745,-0.12297111,-0.38549018,-0.32803378,0.060071453,3.0759816,-0.6239066,-0.0002248828,-0.11205737,0.0023203169,0.0013613809,-0.030038422,0.0074164355,-0.009569751,0.43495914,-1.4511467,1.9874333,-2.107498,-1.5682415,2.4096086,-0.11757488,0.174542,-0.19894436,0.0051812003,0.02390659,-0.10785782,-0.45968673,-0.15322891,-9.232041,0.83589023,47.694946,-0.8703918,-1.496505,-3.4208846,-0.33636385,0.2639326,-0.37524,27.0,28.1875,27.125,30.625,32.25,32.9375
0.23205261,-1.5312747,0.4166145,-1.2064267,0.051762555,0.05850309,-0.123825215,-0.38571098,-0.3280142,0.06006794,3.0759606,-0.62393963,-0.00025372746,-0.11322174,0.0023836887,0.0014918357,-0.030068923,0.008154355,-0.008221065,0.434731,-1.4507989,1.9870504,-2.1074855,-1.5682415,2.409404,-0.118433714,0.17599629,-0.20088011,0.004992205,0.023629911,-0.110063724,-0.45968673,-0.19153613,-9.251195,0.85155696,47.70032,-0.8850907,-1.5263855,-3.3051968,-0.3203627,0.28656876,-0.39317966,27.0,28.1875,27.125,30.625,32.25,32.9375
0.23405172,-1.7385665,0.46492866,-1.0320055,0.026287092,0.06146253,-0.133094,-0.38595828,-0.3280001,0.060093027,3.0758972,-0.6239268,-0.00029593933,-0.113629974,0.002906515,0.0006142012,-0.028159445,0.0062274337,-0.0086598955,0.4344665,-1.4504626,1.986607,-2.1074378,-1.5682057,2.4091399,-0.11905638,0.17879713,-0.20233534,0.006212297,0.022720752,-0.110245824,-0.51714754,-0.076614454,-9.251195,0.83589023,47.679718,-0.9049427,-1.533215,-3.2615066,-0.33346322,0.3167407,-0.42249835,27.0,28.1875,27.125,30.625,32.25,32.9375
0.23605263,-1.3974477,0.13015594,-1.1912026,0.0032622989,0.07799282,-0.13803689,-0.38615754,-0.3279834,0.06006945,3.0758412,-0.6239497,-0.00021068021,-0.11409838,0.0028116808,-0.00016337604,-0.02711854,0.0040691,-0.0017439727,0.43421462,-1.4501141,1.9862717,-2.107437,-1.5681332,2.4089096,-0.11918772,0.18222123,-0.20476909,0.007648854,0.022699017,-0.11729208,-0.47884032,-0.076614454,-9.308657,0.83589023,47.71554,-0.96421015,-1.6152134,-3.3122406,-0.3515814,0.30034268,-0.3641103,27.0,28.1875,27.125,30.625,32.25,32.9375
0.2380527,-1.51834,-0.5334614,-1.1852236,-0.004696266,0.07179652,-0.12921193,-0.38639995,-0.327995,0.060082328,3.0757782,-0.6238765,-0.00021295114,-0.11570388,0.0027909107,-0.00024324711,-0.027026493,0.0033828095,0.002368776,0.4339862,-1.449729,1.985804,-2.1074002,-1.5680732,2.4086437,-0.12059088,0.18554102,-0.20864338,0.008889984,0.022918394,-0.12280467,-0.28730422,0.11492168,-9.423578,0.8940802,47.716442,-1.0452753,-1.8625551,-3.2764232,-0.35687786,0.3077826,-0.33624658,27.0,28.1875,27.125,30.625,32.25,32.9375
0.24005269,-1.646373,-1.276556,-1.5107849,-0.017482469,0.055182073,-0.12722461,-0.3866346,-0.32797977,0.060064,3.075756,-0.6238664,-0.0002313657,-0.115479134,0.0017405986,-0.00083747937,-0.026831847,0.0021186587,0.011196082,0.4337469,-1.4493334,1.9854096,-2.1074245,-1.5680612,2.4084013,-0.11860481,0.18816632,-0.21036817,0.009241173,0.0232902,-0.1296441,-0.24899697,0.2681506,-9.461885,0.86498255,47.69763,-0.9773878,-1.7591515,-3.2583451,-0.35778838,0.30506688,-0.24206212,27.0,28.1875,27.125,30.625,32.25,32.9375
0.24205239,-1.4209722,-2.2092373,-1.7381502,-0.03440649,0.048477557,-0.11476421,-0.38685158,-0.32794636,0.060058568,3.0757926,-0.62383443,-0.00019942131,-0.11811374,0.0034356911,-6.0871407e-05,-0.02714002,0.0043105036,0.013477167,0.43350518,-1.4489741,1.9850014,-2.107341,-1.5680732,2.4081352,-0.123513475,0.1881632,-0.21213071,0.008912627,0.022657564,-0.1368341,-0.30645782,0.3256114,-9.385271,0.94331104,47.728977,-1.0220218,-1.7782481,-3.1419578,-0.35803604,0.3184919,-0.17076121,27.0,28.1875,27.125,30.625,32.25,32.9375
0.24405229,-0.7438819,-2.147695,-1.8038708,-0.058387987,0.040567823,-0.12657966,-0.38708812,-0.32792726,0.060045812,3.075769,-0.6238089,-0.00016528691,-0.117721006,0.0029315837,-0.0005888329,-0.026044486,0.003179747,0.01512908,0.433242,-1.4485784,1.9845828,-2.1073167,-1.5680379,2.4078593,-0.12179986,0.18991765,-0.2131268,0.009653127,0.022141159,-0.13677223,-0.22984336,0.40222588,-9.519346,0.8851263,47.737038,-1.0192153,-1.6258252,-3.2723222,-0.36890125,0.3364846,-0.12099457,27.0,28.1875,27.125,30.625,32.25,32.9375
0.24605218,-0.705878,-2.4846966,-1.7867743,-0.06687202,0.023340661,-0.121014126,-0.38734117,-0.32794118,0.060066152,3.0756452,-0.6238039,-0.00023434493,-0.118078716,0.0034172442,-0.00077419606,-0.025910588,0.0033040761,0.013763064,0.43300158,-1.4482191,1.9841403,-2.107341,-1.5679659,2.4076319,-0.122801185,0.19009885,-0.21285528,0.009158701,0.021984072,-0.13640547,-0.13407528,0.5554548,-9.500193,0.9030289,47.7451,-1.0068715,-1.7601267,-3.4936607,-0.37607008,0.36022156,-0.10075109,27.0,28.1875,27.125,30.625,32.25,32.9375
0.24805303,-0.6091805,-2.6261542,-1.6575536,-0.07279743,0.031290952,-0.11941496,-0.38757762,-0.32793894,0.06006837,3.0756118,-0.623703,-0.00021900465,-0.11871499,0.0026794085,-0.0011698792,-0.02704214,0.0025171402,0.009853207,0.43276158,-1.4478347,1.9836973,-2.1073053,-1.5679177,2.4073334,-0.122781545,0.19271956,-0.21486227,0.008781531,0.023334265,-0.13247314,-0.15322891,0.5746084,-9.442732,0.8784135,47.72719,-1.0273175,-1.7531672,-3.4612246,-0.35661876,0.366932,-0.1458612,27.0,28.1875,27.125,30.625,32.25,32.9375
0.25005236,-0.69241637,-2.3016672,-1.6589674,-0.057601266,0.013003632,-0.12093787,-0.38783327,-0.32790488,0.06006374,3.0755982,-0.6237038,-0.00027374318,-0.118487574,0.002220105,-0.0021988878,-0.028116295,-4.487102e-05,0.004870145,0.4324851,-1.4474506,1.9832782,-2.1073053,-1.5679282,2.4070594,-0.12298626,0.19507283,-0.21516843,0.008595555,0.025380366,-0.12769213,-0.095768064,0.59376204,-9.308657,0.8672237,47.694946,-1.0044541,-1.7083699,-3.633113,-0.3675629,0.3456303,-0.18558365,27.0,28.1875,27.125,30.625,32.25,32.9375
0.2520526,-0.34016943,-1.8360975,-1.6611632,-0.052778896,0.0035964663,-0.117153704,-0.38808843,-0.32792804,0.060091715,3.0755024,-0.62368685,-0.0003213106,-0.12035595,0.002531642,-0.002391049,-0.029767763,-0.00021559393,-0.0027728197,0.43226853,-1.4470664,1.982776,-2.107269,-1.5678681,2.4068449,-0.12610692,0.19753061,-0.21736187,0.007789821,0.026947735,-0.123164944,0.076614454,0.5554548,-9.423578,0.92093146,47.734352,-1.1230842,-1.7286837,-3.6280456,-0.3528429,0.3226283,-0.24214059,27.0,28.1875,27.125,30.625,32.25,32.9375
0.25405192,0.056985937,-1.4572216,-1.3999723,-0.05434119,0.006622599,-0.13196303,-0.38831973,-0.32791904,0.060062416,3.0754006,-0.6237437,-0.00022151263,-0.1207399,0.0012684959,-0.0025176383,-0.030996274,-2.7658143e-05,-0.004662055,0.43198097,-1.4466584,1.9823922,-2.1072938,-1.5677594,2.406606,-0.12467382,0.19965921,-0.2193398,0.0069623874,0.027974695,-0.119840376,0.05746084,0.45968673,-9.308657,0.9030289,47.70032,-1.1292841,-1.8001378,-3.583434,-0.3342619,0.32302064,-0.29715776,27.0,28.1875,27.125,30.625,32.25,32.9375
0.256052,0.11506791,-1.5222962,-1.5231653,-0.035238918,-0.005343647,-0.12399997,-0.38856614,-0.32791457,0.06006243,3.0753546,-0.6237354,-0.00019163011,-0.12235043,0.0003559226,-0.0020147366,-0.033899404,0.0007121438,-0.008301665,0.43172872,-1.4462506,1.9819244,-2.1072457,-1.5677108,2.4063547,-0.12579753,0.20163251,-0.22264306,0.0064030685,0.030292502,-0.11732026,0.019153614,0.47884035,-9.232041,0.83813137,47.701214,-1.0877454,-1.7927074,-3.5434017,-0.31996074,0.29587802,-0.3518077,27.0,28.1875,27.125,30.625,32.25,32.9375
0.25805226,0.2678988,-0.8744197,-1.5083449,-0.043860983,0.0012855575,-0.12238588,-0.38884866,-0.32793707,0.06008514,3.075216,-0.62371004,-0.0003319571,-0.12379679,0.00063228345,-0.0011548707,-0.035197094,0.0018262313,-0.012773489,0.43148807,-1.445855,1.9814461,-2.1073177,-1.5676507,2.4061162,-0.12791342,0.20160824,-0.22479577,0.007030355,0.03101815,-0.11495817,0.05746084,0.36391866,-9.32781,0.8985519,47.737934,-1.0366372,-1.8127236,-3.5006583,-0.32825407,0.27410898,-0.40636522,27.0,28.1875,27.125,30.625,32.25,32.9375
0.2600522,-0.40613616,-1.3899816,-1.4877964,-0.027587648,-0.015731521,-0.12437859,-0.38906017,-0.32792458,0.060048867,3.0751748,-0.6237978,-0.00018966565,-0.12517767,0.0003413039,-0.00041401005,-0.03567974,0.003395885,-0.014169834,0.43123594,-1.4454352,1.9810504,-2.107282,-1.5675787,2.4059243,-0.12831049,0.20259856,-0.22776303,0.0073936633,0.0307898,-0.113959454,0.1340753,0.34476504,-9.32781,0.8717007,47.73525,-1.068471,-1.778938,-3.5326009,-0.31997573,0.25753745,-0.48216993,27.0,28.1875,27.125,30.625,32.25,32.9375
0.262052,-0.15468994,-1.1544247,-1.3989675,-0.039794516,0.0034029004,-0.12940569,-0.38930306,-0.3279155,0.060035795,3.075149,-0.6237524,-0.000104067716,-0.12659584,0.00039171634,5.6183868e-05,-0.035803273,0.0041601267,-0.012461382,0.43097153,-1.4450039,1.9805831,-2.1072214,-1.5675191,2.405635,-0.12937537,0.20402788,-0.23070428,0.0081838835,0.030586569,-0.11673231,0.0,0.34476504,-9.193734,0.9298854,47.728977,-1.0425438,-1.7971272,-3.5444086,-0.3034259,0.25910056,-0.5142759,27.0,28.1875,27.125,30.625,32.25,32.9375
0.26405215,-0.24852876,-0.95805866,-1.1671185,-0.036237594,0.023029894,-0.13783142,-0.38955793,-0.32790792,0.060019832,3.0750694,-0.6238675,-9.048215e-05,-0.12882204,-0.00022113032,0.0014398523,-0.038431548,0.0064027957,-0.0069573727,0.43070686,-1.4445726,1.9801387,-2.1072333,-1.56747,2.4054527,-0.13100284,0.20494103,-0.23504348,0.008505466,0.032054342,-0.12385959,0.038307227,0.28730422,-9.097966,0.93436235,47.716442,-0.98456943,-1.5602906,-3.2279549,-0.30762887,0.2503133,-0.5099561,27.0,28.1875,27.125,30.625,32.25,32.9375
0.266052,-0.5272943,-0.65768886,-1.6313624,-0.0040469114,0.016771575,-0.13054936,-0.38983053,-0.3279234,0.060068022,3.0749617,-0.6237829,-0.00016000555,-0.13015637,-0.00085120305,0.0024546941,-0.04113493,0.007198345,-0.0002091447,0.43045446,-1.4442127,1.9796113,-2.1071732,-1.5673975,2.4051616,-0.13228418,0.20543233,-0.23815884,0.009313304,0.034212664,-0.13188231,0.019153614,0.24899697,-9.32781,0.8247004,47.72629,-0.9854256,-1.6354023,-3.1267629,-0.31486988,0.20950016,-0.40791142,27.0,28.1875,27.125,30.625,32.25,32.9375
0.26805177,-0.67785096,-0.52321476,-1.8111147,0.0003440428,0.026767235,-0.1307802,-0.39007404,-0.3279252,0.06004673,3.0748842,-0.6237612,-4.371514e-05,-0.1303567,-0.0007410302,0.002405178,-0.042059496,0.00667416,0.010462295,0.43017828,-1.4437696,1.9791573,-2.1071494,-1.5672892,2.404882,-0.13326247,0.20558088,-0.23833567,0.009490557,0.0353046,-0.14353171,0.019153614,0.24899697,-9.461885,0.9231726,47.679718,-0.999364,-1.5993192,-3.2283783,-0.31615776,0.1655637,-0.3265022,27.0,28.1875,27.125,30.625,32.25,32.9375
0.27005246,-1.6522249,-1.1094713,-1.6431556,-0.0030161683,0.034921892,-0.12544478,-0.3903385,-0.3279215,0.060050607,3.0748239,-0.62368786,-7.4461e-05,-0.13057005,-0.0005121558,0.00048117925,-0.03988724,0.0028898534,0.01643101,0.4299142,-1.4433607,1.9786896,-2.107149,-1.5672415,2.40458,-0.13350846,0.21078923,-0.24007821,0.010408407,0.03493563,-0.14974347,-0.17238252,0.19153613,-9.461885,0.88289046,47.693153,-1.0353167,-1.647007,-3.360402,-0.3000351,0.1511622,-0.24087486,27.0,28.1875,27.125,30.625,32.25,32.9375
0.27205223,-1.9104934,-0.8545256,-1.5448664,-0.025762172,0.06579517,-0.12485953,-0.39058986,-0.32791564,0.06004032,3.074742,-0.6236702,1.2936027e-06,-0.13044213,7.647798e-05,-0.0015075885,-0.037840214,-0.0011208844,0.019901205,0.4296258,-1.4429402,1.9782356,-2.107125,-1.5671457,2.4042914,-0.13425496,0.21500424,-0.2405308,0.011184546,0.03476343,-0.15395957,-0.38307226,0.11492168,-9.461885,0.8605109,47.705692,-0.9887151,-1.7604918,-3.4468255,-0.3138859,0.129933,-0.17125627,27.0,28.1875,27.125,30.625,32.25,32.9375
0.27405244,-2.5885696,-1.2161696,-1.5158832,-0.020168716,0.07988978,-0.11413996,-0.39085463,-0.32791418,0.060047198,3.0747144,-0.62358695,5.7607e-06,-0.13075623,0.0011193948,-0.0025643196,-0.03717287,-0.0033872046,0.01789417,0.42937332,-1.4425085,1.9777211,-2.107065,-1.567109,2.4039907,-0.13655837,0.2167325,-0.24021688,0.011495136,0.035109375,-0.154255,-0.49799395,0.05746084,-9.557653,0.9791215,47.70838,-1.0500497,-1.8443751,-3.5550656,-0.3208058,0.10636312,-0.12906554,27.0,28.1875,27.125,30.625,32.25,32.9375
0.27605236,-2.543718,-0.7996947,-1.2765259,-0.014656551,0.08459608,-0.12070021,-0.39110237,-0.32792,0.060005903,3.0746622,-0.6235239,0.00012475824,-0.1309844,3.7247297e-05,-0.0028509514,-0.0372173,-0.0037272924,0.011073818,0.42911,-1.4420166,1.9772657,-2.107077,-1.5670131,2.4036949,-0.13474348,0.21924104,-0.24249437,0.011547759,0.035264354,-0.14561905,-0.57460845,0.038307227,-9.423578,0.8717007,47.683304,-1.0740689,-1.8281049,-3.6571875,-0.3156957,0.08461748,-0.180255,27.0,28.1875,27.125,30.625,32.25,32.9375
0.2780524,-1.2497741,-0.1806774,-1.3125788,-0.0007603135,0.10477235,-0.13066302,-0.39135623,-0.32793397,0.06001859,3.0745623,-0.6234503,0.0001372532,-0.1333186,0.00012242055,-0.0013440382,-0.038720053,0.00017423974,0.0034578592,0.42885706,-1.4416213,1.976787,-2.1070526,-1.5669178,2.403409,-0.1365892,0.21887678,-0.24539971,0.010647075,0.034997184,-0.1398455,-0.78529817,-0.019153614,-9.3661175,0.8985519,47.691364,-1.0841277,-1.8604598,-3.6357121,-0.3201772,0.075367324,-0.24039146,27.0,28.1875,27.125,30.625,32.25,32.9375
0.2800525,-1.5818584,0.25081715,-1.3702897,0.008859478,0.07880327,-0.11925802,-0.3916263,-0.32793468,0.06001439,3.0744863,-0.62341666,0.00015640345,-0.1354932,-0.0006054624,5.2372987e-05,-0.040432405,0.004206661,0.00014864917,0.42858124,-1.4411777,1.9762954,-2.1070416,-1.5668453,2.4031222,-0.1368823,0.21942963,-0.2489971,0.009321438,0.034869872,-0.13682616,-0.78529817,0.11492168,-9.308656,0.9365982,47.683304,-1.1029658,-1.8001122,-3.5229836,-0.29607436,0.047375,-0.32278514,27.0,28.1875,27.125,30.625,32.25,32.9375
0.2820523,-1.4541721,-0.04663547,-1.3668934,0.013507707,0.07341204,-0.12792623,-0.39190027,-0.32793176,0.059995808,3.0744188,-0.6234027,0.00016621775,-0.13660307,0.0003743667,-0.0008988841,-0.03843937,0.0037916815,-0.0014192663,0.42830443,-1.4407098,1.9758171,-2.107066,-1.5667862,2.4028456,-0.13842764,0.22223213,-0.24993297,0.008683822,0.033236027,-0.13680346,-0.5554548,0.076614454,-9.32781,0.83813137,47.71286,-0.91749763,-1.8468988,-3.5820484,-0.29494727,0.036504846,-0.3304829,27.0,28.1875,27.125,30.625,32.25,32.9375
0.2840522,-1.857023,-0.3964965,-1.1413392,0.0044288845,0.0617401,-0.12087193,-0.39218423,-0.3279119,0.06000812,3.0743937,-0.6234186,0.00011957726,-0.13931105,0.0018392126,-9.1337795e-05,-0.037633605,0.0058501614,-0.005441973,0.42802745,-1.4402786,1.9752897,-2.1070054,-1.5667866,2.4025822,-0.14224857,0.2232265,-0.25315183,0.009384271,0.03165286,-0.13660091,-0.7086837,0.095768064,-9.32781,0.8985519,47.717335,-1.0314336,-1.6812502,-3.4807835,-0.28909034,0.026776187,-0.3396981,27.0,28.1875,27.125,30.625,32.25,32.9375
0.28605202,-2.220831,-0.6732119,-1.1393812,-0.011367818,0.065933146,-0.12620924,-0.3924388,-0.3278963,0.059973378,3.0743506,-0.6234265,0.0002548902,-0.14002906,0.0011587979,0.00069679716,-0.037055686,0.007836793,-0.0027903826,0.42772815,-1.4397994,1.9748214,-2.1069696,-1.5667032,2.4022934,-0.14058469,0.22383802,-0.25587806,0.009960824,0.030300755,-0.13759053,-0.8236054,0.1340753,-9.270349,0.8605109,47.752266,-1.0614002,-1.6105177,-3.4063044,-0.29411352,0.048588417,-0.35899663,27.0,28.1875,27.125,30.625,32.25,32.9375
0.28805166,-1.928758,-1.0537022,-1.3938333,-0.022831118,0.09102731,-0.120892316,-0.39271867,-0.32790497,0.05998378,3.07424,-0.6234208,0.00024438906,-0.14113036,0.0010249168,0.00028265564,-0.03643699,0.007573897,0.0009806545,0.42745188,-1.4393667,1.9743079,-2.1069577,-1.5666188,2.402028,-0.14085197,0.22692582,-0.25852174,0.010050128,0.029867657,-0.14162575,-0.6895301,0.2873042,-9.576807,0.85826975,47.686886,-1.0465298,-1.7072216,-3.4012117,-0.28222603,0.036301106,-0.36382195,27.0,28.1875,27.125,30.625,32.25,32.9375
0.29005253,-2.3733091,-1.5025357,-1.4078567,-0.023683734,0.10095664,-0.12166586,-0.3930284,-0.3278943,0.059982155,3.0741668,-0.6234404,0.00022474091,-0.1425666,0.0013720143,0.00091558066,-0.03612378,0.008962295,0.00646955,0.4271395,-1.4388754,1.9737552,-2.1069453,-1.5665716,2.4017377,-0.14200851,0.2276704,-0.26107934,0.010775111,0.029035408,-0.14826985,-0.6512229,0.28730422,-9.461885,0.8717007,47.689575,-1.0854353,-1.755775,-3.3720121,-0.3030113,0.028926753,-0.29528955,27.0,28.1875,27.125,30.625,32.25,32.9375
0.29205224,-2.3941188,-1.306593,-1.1838595,-0.03924585,0.12077218,-0.12480316,-0.39328557,-0.32789004,0.059953686,3.074127,-0.6233897,0.0003733159,-0.14339358,0.0013188254,0.0013730137,-0.035858944,0.010403043,0.014304869,0.42685187,-1.4383843,1.9732531,-2.1068857,-1.5664762,2.4014237,-0.1419383,0.22811176,-0.26274925,0.010859347,0.028214568,-0.15603682,-0.6895301,0.24899697,-9.32781,0.9365982,47.699425,-1.1277734,-1.5965416,-3.3605075,-0.2981613,0.040200993,-0.22826195,27.0,28.1875,27.125,30.625,32.25,32.9375
0.29405212,-2.3078115,-0.83084404,-1.2225008,-0.034071825,0.10891365,-0.13241534,-0.39359027,-0.32787067,0.059959892,3.0740979,-0.6233417,0.0003249361,-0.14407475,0.0022915439,0.00084696984,-0.03427236,0.009608363,0.0194829,0.42655113,-1.4379162,1.9727029,-2.1068494,-1.5664638,2.401097,-0.1434469,0.22964562,-0.263537,0.011535195,0.02713141,-0.16272339,-0.59376204,0.2681506,-9.32781,0.87393653,47.72002,-1.1327112,-1.6667113,-3.4408293,-0.29774797,0.059225146,-0.10081501,27.0,28.1875,27.125,30.625,32.25,32.9375
0.29605192,-1.7733535,-0.93046606,-1.5501815,-0.012059213,0.090941444,-0.11769799,-0.39388534,-0.32788542,0.059968498,3.073987,-0.6232608,0.0002787141,-0.14600612,0.0022444832,0.0014755664,-0.034062304,0.012493181,0.021752506,0.42627499,-1.4374611,1.9721755,-2.1068733,-1.5663804,2.400785,-0.14394984,0.23111497,-0.2664981,0.010525005,0.02576831,-0.16549353,-0.4213795,0.2681506,-9.3661175,0.9097417,47.737934,-1.1300809,-1.7230489,-3.4569778,-0.2881769,0.05545014,-0.038754277,27.0,28.1875,27.125,30.625,32.25,32.9375
0.2980525,-1.2747374,-0.8615929,-1.4165301,-0.019204741,0.066478446,-0.11914402,-0.3941454,-0.327878,0.059950653,3.0740132,-0.62315303,0.00031923826,-0.1468743,0.002852028,0.00087988126,-0.0330942,0.013026771,0.016412824,0.42603496,-1.4369811,1.971661,-2.1068141,-1.5663689,2.4004745,-0.14494276,0.23270786,-0.2667071,0.009049293,0.024652189,-0.16114841,-0.26815057,0.24899697,-9.404425,0.9164598,47.723602,-1.1299888,-1.8083904,-3.524012,-0.2810509,0.069378525,-0.063339755,27.0,28.1875,27.125,30.625,32.25,32.9375
0.30005243,-1.048023,-1.0485324,-1.4328822,-0.019515224,0.031351764,-0.11095179,-0.39448538,-0.32784775,0.059951946,3.0739515,-0.6231256,0.00020858375,-0.14832759,0.0037545199,-0.00014407617,-0.031966385,0.011900147,0.008557345,0.4256858,-1.4364885,1.9711102,-2.1068504,-1.566357,2.4001167,-0.14729054,0.2362921,-0.26844192,0.0086811725,0.024093797,-0.15563788,-0.17238252,0.21068975,-9.3661175,0.8717007,47.72808,-1.0915841,-1.8299258,-3.4918847,-0.25269592,0.0925079,-0.11049648,27.0,28.1875,27.125,30.625,32.25,32.9375
0.30205244,0.0799103,-0.54849356,-1.4043152,-0.01707909,0.020304332,-0.1227722,-0.39480883,-0.32784083,0.059956245,3.0738404,-0.6231823,0.00015741333,-0.14874199,0.0033180846,-0.000358186,-0.03089644,0.0123144705,0.003000065,0.42536253,-1.435997,1.970548,-2.1068623,-1.5662974,2.3998435,-0.14592366,0.23822594,-0.27022862,0.008589905,0.02294408,-0.14871246,-0.05746084,0.21068975,-9.346964,0.94331104,47.711964,-1.1569571,-1.8900187,-3.5906405,-0.2360858,0.1158566,-0.1889891,27.0,28.1875,27.125,30.625,32.25,32.9375
0.3040525,0.2529975,-0.4690196,-1.2055289,-0.01922819,0.003052422,-0.123551905,-0.39509487,-0.3278202,0.05990636,3.073844,-0.6231889,0.00026403676,-0.15187259,0.0037105135,0.00036836247,-0.031454314,0.014893021,-0.0075920555,0.4250613,-1.4354334,1.9700197,-2.1068385,-1.5662616,2.3995461,-0.14873616,0.24082108,-0.27481204,0.007979932,0.022353385,-0.1409323,0.11492168,0.22984336,-9.308657,0.9321212,47.711964,-0.90671504,-1.8486625,-3.441169,-0.22114073,0.13799293,-0.28678393,27.0,28.1875,27.125,30.625,32.25,32.9375
0.3060525,0.4373982,-0.71509707,-1.4391551,-0.006590068,-0.016112532,-0.117407516,-0.39540562,-0.32780045,0.05992107,3.073765,-0.62323225,0.00018041012,-0.15293339,0.0041493354,-0.0002287528,-0.03159539,0.013381639,-0.012601364,0.4247488,-1.4349893,1.9694813,-2.1068265,-1.5662373,2.3992712,-0.15077136,0.24348597,-0.27667782,0.0084946565,0.023112817,-0.13795416,0.11492168,0.17238252,-9.232041,0.84708,47.71554,-0.92100084,-1.975249,-3.3705218,-0.21354319,0.14894797,-0.3460375,27.0,28.1875,27.125,30.625,32.25,32.9375
0.30805245,0.7692419,-0.09261614,-1.2605548,-0.017748121,-0.0027857511,-0.13192031,-0.39570722,-0.32781273,0.059909284,3.0736532,-0.6232695,0.00024946066,-0.15425764,0.004209772,0.00047676466,-0.032838188,0.01346904,-0.018371124,0.42444816,-1.4344617,1.9689063,-2.1068022,-1.5661291,2.3990085,-0.15254703,0.2442778,-0.27967063,0.010104463,0.02420518,-0.1339568,0.13407528,0.21068975,-9.346964,0.9231726,47.694946,-0.8558075,-1.9547293,-3.3511467,-0.20899731,0.13575992,-0.4595737,27.0,28.1875,27.125,30.625,32.25,32.9375
0.31005228,0.30384392,-0.9728716,-1.5798776,-0.005770238,-0.012869749,-0.12470288,-0.39600456,-0.32780164,0.05991526,3.073616,-0.62326175,0.00019956224,-0.1552107,0.005114088,-0.00012389207,-0.031871032,0.01206556,-0.019284118,0.42417154,-1.4339939,1.9683551,-2.1067655,-1.5661172,2.3987322,-0.15466702,0.24649338,-0.2811306,0.01104094,0.023917386,-0.13516253,0.21068975,0.2873042,-9.308656,0.91198283,47.721813,-0.89785224,-2.081561,-3.2700715,-0.20387515,0.16809839,-0.49212772,27.0,28.1875,27.125,30.625,32.25,32.9375
0.31205204,0.03548557,-1.3413477,-1.8474854,-0.024940394,-0.008190927,-0.12445066,-0.396331,-0.3277958,0.059921272,3.0735133,-0.62331086,0.00016341504,-0.15397206,0.0038549998,-0.00048203478,-0.031188725,0.011004328,-0.008616439,0.42384902,-1.4334906,1.967769,-2.1067536,-1.5660571,2.398454,-0.15106282,0.24743766,-0.28171334,0.011975933,0.023772169,-0.14222477,0.19153614,0.3256114,-9.595961,0.90527004,47.698532,-1.027877,-1.9814116,-3.4948487,-0.20353165,0.17300406,-0.47013956,27.0,28.1875,27.125,30.625,32.25,32.9375
0.3140518,-0.11981311,-1.7249224,-1.5245453,-0.06762539,0.017152324,-0.119413,-0.39660797,-0.32774946,0.05989975,3.0735652,-0.6232959,0.00020390813,-0.15453759,0.0039571663,-0.0009260722,-0.0306242,0.009253536,0.0011943677,0.4235486,-1.4330105,1.967255,-2.1066692,-1.5660809,2.3981378,-0.15173425,0.24994251,-0.28404245,0.013678638,0.024007963,-0.15270698,-0.019153614,0.34476504,-9.481039,0.9545008,47.70838,-1.0187984,-2.0597177,-3.4698696,-0.21447727,0.20868655,-0.38893247,27.0,28.1875,27.125,30.625,32.25,32.9375
0.31605193,-0.69448894,-1.8941727,-1.6039526,-0.07550406,0.02953952,-0.121930666,-0.39691213,-0.32778627,0.05988984,3.0734751,-0.62317574,0.0002826863,-0.15577029,0.004214847,0.00017264517,-0.032238018,0.010777662,0.010406657,0.42328423,-1.4324478,1.9666322,-2.106633,-1.5659608,2.3978102,-0.15365714,0.24900268,-0.28577188,0.014368659,0.024894832,-0.16384012,0.11492168,0.22984336,-9.461885,0.90527004,47.68599,-0.9878011,-1.948533,-3.4726927,-0.22390738,0.20932293,-0.29235375,27.0,28.1875,27.125,30.625,32.25,32.9375
0.31805182,-0.6614723,-1.5317007,-1.9843103,-0.059109606,0.03718354,-0.12252568,-0.39725018,-0.32778877,0.05991593,3.0733812,-0.62309563,0.0001466773,-0.15620868,0.0037444648,0.0007455363,-0.034789983,0.010980756,0.017437773,0.42298365,-1.431969,1.9660329,-2.1066444,-1.565924,2.3974721,-0.15448889,0.24862878,-0.28680748,0.014587498,0.027190745,-0.17169566,0.076614454,0.2681506,-9.691729,0.92764956,47.70659,-0.9612349,-1.8756258,-3.4071949,-0.23150226,0.20200378,-0.18095677,27.0,28.1875,27.125,30.625,32.25,32.9375
0.32005247,-1.0097687,-1.8024826,-1.8494465,-0.04560536,0.04002362,-0.11057993,-0.39757374,-0.32774705,0.059900973,3.0733192,-0.62315863,0.00020262487,-0.15738411,0.004108526,0.00021669055,-0.034754474,0.010245818,0.018048225,0.42259914,-1.4314528,1.9654707,-2.1065962,-1.565864,2.3971353,-0.1561365,0.25126362,-0.28870425,0.0145648895,0.027471773,-0.17395227,-0.095768064,0.36391866,-9.653421,0.8605109,47.698532,-0.91807365,-1.8615594,-3.5251727,-0.217318,0.19294548,-0.13786288,27.0,28.1875,27.125,30.625,32.25,32.9375
0.32205233,-1.0348063,-1.1219007,-1.5674105,-0.03878942,0.05167267,-0.119729266,-0.39786223,-0.3277677,0.059912913,3.073248,-0.62305224,0.00016366923,-0.15864876,0.004929578,0.00015613207,-0.0330006,0.01167114,0.011710962,0.42235902,-1.4309856,1.9649085,-2.1065733,-1.5658048,2.3968382,-0.1571192,0.25247955,-0.28993016,0.013993111,0.025284173,-0.16859911,-0.17238252,0.22984336,-9.576807,0.8851263,47.70838,-0.9397431,-1.9206176,-3.5856502,-0.20440766,0.20623755,-0.16727965,27.0,28.1875,27.125,30.625,32.25,32.9375
0.32405195,-0.98312443,-0.079515554,-1.6369624,-0.025777256,0.068286054,-0.12540936,-0.3981833,-0.32775307,0.05990242,3.0732126,-0.6229916,0.00019113984,-0.16042438,0.004380652,0.0010190995,-0.03512134,0.013338699,0.0024431788,0.4220346,-1.4304459,1.9643091,-2.1065252,-1.5657567,2.3964808,-0.15821373,0.2536737,-0.29332995,0.0137812765,0.026510488,-0.16042152,-0.24899697,0.22984336,-9.595961,0.9298854,47.684196,-0.88493645,-1.82126,-3.531148,-0.19007528,0.23809266,-0.23623264,27.0,28.1875,27.125,30.625,32.25,32.9375
0.32605174,-1.633419,-0.24865928,-1.4861842,-0.015261484,0.061123047,-0.115543574,-0.39850652,-0.327729,0.05986825,3.0731168,-0.6231647,0.0002593548,-0.16022907,0.0036103672,3.5083136e-05,-0.03643617,0.011045393,-0.00043841475,0.421675,-1.4298823,1.9637474,-2.1065252,-1.5656832,2.396242,-0.15785481,0.2562541,-0.29408008,0.013503077,0.028644852,-0.15717655,-0.22984336,0.21068975,-9.5385,0.93436235,47.687782,-0.9580962,-1.9388502,-3.52226,-0.18918774,0.22714707,-0.31921455,27.0,28.1875,27.125,30.625,32.25,32.9375
0.3280525,-1.5391035,-0.4444178,-1.179545,-0.010975241,0.06583706,-0.12448631,-0.39883655,-0.32774603,0.05990904,3.0730062,-0.6230652,0.00017032879,-0.16144958,0.0030879646,0.00046109583,-0.03663583,0.012580105,-0.0007997852,0.42138702,-1.4294144,1.9631122,-2.1064775,-1.5656122,2.3959064,-0.15745993,0.25787348,-0.29695272,0.013291616,0.0282159,-0.15641634,-0.30645782,0.15322891,-9.557653,0.8940802,47.657326,-1.0156113,-1.9057198,-3.5652575,-0.17198229,0.22178105,-0.32478684,27.0,28.1875,27.125,30.625,32.25,32.9375
0.3300522,-1.2352879,0.07791159,-1.2880203,-0.01960374,0.07673266,-0.12932596,-0.3991427,-0.32773706,0.059894286,3.0729718,-0.6230005,0.00019989973,-0.16254552,0.0034316853,-0.0005704017,-0.03600064,0.010550361,-0.0016333323,0.42108604,-1.4288863,1.9625376,-2.1064413,-1.5655636,2.3955698,-0.1590002,0.26185694,-0.29938945,0.013875846,0.028473834,-0.15712088,-0.4405331,0.21068975,-9.423578,0.94331104,47.685097,-0.9073049,-2.0050821,-3.5363274,-0.15454492,0.24424262,-0.36989927,27.0,28.1875,27.125,30.625,32.25,32.9375
0.3320521,-1.3554779,-0.030331971,-1.1407925,-0.015524344,0.061209653,-0.13000768,-0.39949235,-0.32775247,0.059931926,3.0728524,-0.6229165,6.944056e-05,-0.16348076,0.0027195436,-0.00041641356,-0.03666288,0.010867181,-0.00046181108,0.4207867,-1.4283943,1.9618901,-2.1064298,-1.5655035,2.3952339,-0.15861775,0.26396373,-0.30231568,0.014155943,0.028975865,-0.15790345,-0.34476507,0.13407528,-9.5385,0.91198283,47.67793,-1.0609318,-2.1006637,-3.5396228,-0.14339478,0.25251812,-0.39384198,27.0,28.1875,27.125,30.625,32.25,32.9375
0.334052,-1.1710073,-0.11939111,-1.1697558,-0.020711746,0.061631516,-0.13447852,-0.39981604,-0.32775325,0.059916254,3.0727823,-0.622899,0.00010522621,-0.16368774,0.0030397808,-0.00051113905,-0.036276743,0.010472012,0.005126091,0.42047453,-1.4278313,1.9612802,-2.106405,-1.5654315,2.39492,-0.15909773,0.26438165,-0.3028805,0.014873791,0.028818155,-0.16397136,-0.22984336,0.15322891,-9.3661175,0.92764956,47.691364,-1.1076066,-2.031044,-3.5127163,-0.14026313,0.25458843,-0.3459086,27.0,28.1875,27.125,30.625,32.25,32.9375
0.3360517,-1.1674652,-0.62468785,-1.0270774,-0.021689825,0.06761374,-0.12166695,-0.40014765,-0.32774034,0.05991247,3.0726945,-0.6228735,6.660085e-05,-0.16440876,0.0022112902,2.4489087e-05,-0.03612303,0.012112547,0.016420152,0.42013928,-1.4273157,1.9607052,-2.106417,-1.5653719,2.3945806,-0.15750496,0.26554537,-0.30560076,0.015068342,0.028058732,-0.17367138,-0.40222588,0.19153613,-9.404425,0.8918391,47.72719,-1.2616978,-1.9170086,-3.4761784,-0.13560857,0.27441064,-0.24454021,27.0,28.1875,27.125,30.625,32.25,32.9375
0.33805165,-1.0274119,-0.18367639,-1.162507,-0.033383746,0.06364896,-0.12695377,-0.40045238,-0.3277213,0.05990844,3.072704,-0.62275743,0.000101634854,-0.16552669,0.0029125686,0.00061530754,-0.036610804,0.012816072,0.022748342,0.41983816,-1.4268007,1.9601063,-2.106321,-1.5653476,2.394206,-0.15966636,0.2652837,-0.30697417,0.015918951,0.028253155,-0.1821609,-0.4213795,0.21068975,-9.442732,0.9254084,47.709274,-1.1140199,-1.9928098,-3.468812,-0.13856727,0.28954583,-0.14012867,27.0,28.1875,27.125,30.625,32.25,32.9375
0.3400524,-1.5133557,-1.0332215,-1.0126481,-0.03393507,0.05473089,-0.1287794,-0.40082112,-0.32773694,0.0599328,3.0725954,-0.622658,-1.3536641e-05,-0.16800861,0.0032869258,0.0027783876,-0.03867504,0.016600404,0.02240511,0.419525,-1.4262501,1.9594239,-2.106321,-1.5652875,2.3938453,-0.16243854,0.26381356,-0.31054047,0.016689956,0.028632443,-0.18458436,-0.34476507,0.076614454,-9.481039,0.91421866,47.694946,-0.991162,-1.7218946,-3.5249515,-0.13310349,0.3222935,-0.06606884,27.0,28.1875,27.125,30.625,32.25,32.9375
0.34205225,-0.93007296,-0.4909283,-0.7615288,-0.047552373,0.068594866,-0.13456753,-0.40116248,-0.3277258,0.059938986,3.0725138,-0.6225851,-2.5590403e-05,-0.16837446,0.0023481937,0.0030927067,-0.040254537,0.01684536,0.019377904,0.4191777,-1.4257228,1.9588012,-2.1062849,-1.565215,2.3934634,-0.16170897,0.26469186,-0.31240913,0.016812013,0.029978767,-0.18082194,-0.49799395,0.11492168,-9.308657,0.8985519,47.686886,-1.1928874,-1.6419626,-3.537986,-0.12724638,0.3173586,-0.07042167,27.0,28.1875,27.125,30.625,32.25,32.9375
0.344052,-1.515912,-0.2698025,-1.2584034,-0.013164728,0.03765039,-0.120417684,-0.40148276,-0.32771167,0.05992187,3.0724888,-0.6225248,-7.998105e-06,-0.1690642,0.0018363624,0.0032609468,-0.041426238,0.016771264,0.012328561,0.41886613,-1.4251715,1.9582037,-2.106249,-1.5651788,2.3931177,-0.1618672,0.26600307,-0.31450075,0.017158233,0.03106054,-0.17392695,-0.45968673,0.076614454,-9.32781,0.97240865,47.72719,-1.2628238,-1.5945816,-3.4637313,-0.12170354,0.30624026,-0.14338948,27.0,28.1875,27.125,30.625,32.25,32.9375
0.3460521,-0.5138617,0.23576133,-0.96981364,-0.011516664,0.05271938,-0.13565432,-0.40183577,-0.32770514,0.059921134,3.0723886,-0.62254745,-1.8251454e-05,-0.16866888,0.0024178107,0.001679973,-0.040055063,0.01366706,0.002407066,0.41851848,-1.4246073,1.9575566,-2.1062243,-1.5651063,2.3927975,-0.16240786,0.2685124,-0.31397423,0.017487904,0.03105541,-0.16454451,-0.2681506,0.15322891,-9.346964,0.9410752,47.7254,-1.3116875,-1.6528974,-3.5102768,-0.12580666,0.32379222,-0.24760476,27.0,28.1875,27.125,30.625,32.25,32.9375
0.3480519,-0.59005183,0.053862084,-0.8332502,-0.014303242,0.044922214,-0.12866342,-0.4021978,-0.3277063,0.059959322,3.0722563,-0.62261856,-0.00014336263,-0.16986144,0.002850469,0.0014800411,-0.040713895,0.013016709,-0.0048371386,0.41819397,-1.4241037,1.9568871,-2.106189,-1.5650586,2.392535,-0.16454245,0.27031973,-0.31576887,0.017788483,0.03192833,-0.15942776,-0.24899697,0.15322891,-9.3661175,1.0328293,47.691364,-1.2177651,-1.7539145,-3.6931703,-0.10359272,0.33023214,-0.30438998,27.0,28.1875,27.125,30.625,32.25,32.9375
0.3500517,-0.11294782,0.3575814,-0.92493516,-0.011162236,0.044152662,-0.14017183,-0.40251425,-0.32768294,0.05993161,3.0721974,-0.6226472,-6.2721294e-05,-0.17175436,0.0030539082,0.0005393432,-0.040763,0.01139998,-0.011323575,0.41784632,-1.4235516,1.9563121,-2.1061528,-1.5649861,2.392213,-0.1667169,0.27532008,-0.31951815,0.017991155,0.032611795,-0.1551121,-0.22984336,0.24899697,-9.385271,0.9186956,47.707485,-1.1927304,-1.9083489,-3.6435118,-0.09688409,0.33762985,-0.40363014,27.0,28.1875,27.125,30.625,32.25,32.9375
0.3520525,-0.427908,-0.2369832,-1.0977674,-0.011203025,0.031472854,-0.12771463,-0.40287235,-0.32771465,0.059962362,3.072053,-0.62255967,-0.00018451408,-0.17434447,0.003676701,0.00054436474,-0.04136934,0.011258582,-0.015779369,0.41755763,-1.4230218,1.9556402,-2.1061647,-1.5649017,2.3918889,-0.17017817,0.27883872,-0.3238381,0.018690526,0.03324301,-0.15410873,-0.22984336,0.1340753,-9.289502,1.0328293,47.675243,-1.0924413,-1.9897985,-3.5151482,-0.083798625,0.34643525,-0.46785688,27.0,28.1875,27.125,30.625,32.25,32.9375
0.35405236,-1.1220018,-0.5210288,-1.2158554,-0.012738953,0.011692026,-0.123751424,-0.40321952,-0.32768935,0.0599669,3.071947,-0.6226678,-0.00013808989,-0.17461115,0.0032791772,0.0016765298,-0.042219665,0.012464148,-0.011160739,0.4171745,-1.4224823,1.9549946,-2.1060803,-1.5648173,2.3915873,-0.16967018,0.27760684,-0.32549018,0.02017635,0.033562735,-0.15821797,-0.038307227,0.17238252,-9.32781,0.9701675,47.698532,-1.2058383,-1.9486535,-3.510944,-0.07023919,0.34968993,-0.4909778,27.0,28.1875,27.125,30.625,32.25,32.9375
0.3560521,-0.7616275,-0.7353945,-1.4509885,-0.011388256,0.0043658307,-0.13232486,-0.40357208,-0.32767108,0.059956808,3.0719497,-0.6226038,-0.0001944961,-0.17557791,0.0035980758,0.0009317938,-0.041288536,0.010896671,-0.0009910349,0.4168627,-1.4218929,1.9543356,-2.106044,-1.5648297,2.3912356,-0.17074458,0.28097382,-0.32804447,0.021248277,0.033404887,-0.16946049,0.05746084,0.21068975,-9.423578,0.86945957,47.74868,-0.98724437,-1.8883305,-3.4067633,-0.07648747,0.3514472,-0.38831237,27.0,28.1875,27.125,30.625,32.25,32.9375
0.35805178,-0.8496389,-1.2547466,-1.0735139,-0.030376522,0.02350289,-0.13509981,-0.4039233,-0.32766598,0.059970785,3.0718112,-0.6225861,-0.00017760761,-0.17744952,0.0034107068,0.0023821755,-0.04298275,0.013329014,0.01043548,0.41649073,-1.421364,1.9536885,-2.105996,-1.5647095,2.3908708,-0.17212184,0.2809804,-0.33167815,0.02207185,0.034041334,-0.1822593,-0.076614454,0.3256114,-9.385271,0.900793,47.728977,-0.9798981,-1.9164083,-3.4116569,-0.08918151,0.3635338,-0.27019793,27.0,28.1875,27.125,30.625,32.25,32.9375
0.3600517,-0.86578137,-1.240328,-1.3379697,-0.04771559,0.038635682,-0.1385193,-0.40423957,-0.32766125,0.05996013,3.071783,-0.6225005,-8.030351e-05,-0.17789066,0.0035458147,0.0022449617,-0.043881536,0.011946324,0.016050562,0.4161789,-1.4207994,1.9530424,-2.1058877,-1.5646371,2.3905094,-0.17345455,0.28206787,-0.33303618,0.023304123,0.03545636,-0.18920399,-0.1340753,0.40222588,-9.3661175,0.9791215,47.72092,-0.99441576,-1.6611168,-3.433064,-0.09089366,0.3639053,-0.1719361,27.0,28.1875,27.125,30.625,32.25,32.9375
0.36205152,-1.0859044,-1.4326023,-1.3956159,-0.056680046,0.04137656,-0.13368078,-0.40464565,-0.3276369,0.05999048,3.071667,-0.62251496,-0.00022807653,-0.1771482,0.005421884,0.0006662238,-0.043005448,0.0077522066,0.013347523,0.41578257,-1.4202464,1.9523376,-2.1058748,-1.5646008,2.3901377,-0.17663749,0.28245667,-0.3302661,0.024356421,0.03639697,-0.18967819,-0.095768064,0.45968673,-9.576807,0.92764956,47.704796,-0.9709846,-1.7495685,-3.5724459,-0.11207567,0.36987472,-0.13382532,27.0,28.1875,27.125,30.625,32.25,32.9375
0.36405233,-1.7877269,-2.0062966,-1.5309242,-0.062423855,0.028950542,-0.11890853,-0.4049535,-0.32762384,0.059970874,3.071622,-0.62245005,-9.435553e-05,-0.17689846,0.0045159305,0.0014085724,-0.04396105,0.008820076,0.008556336,0.4154478,-1.4196943,1.9517287,-2.1057794,-1.5645045,2.3897684,-0.1748692,0.28152165,-0.33112764,0.02477922,0.03681126,-0.18311895,-0.2681506,0.49799395,-9.519346,1.0015011,47.711964,-1.0383258,-1.4961401,-3.8269353,-0.096290275,0.37165585,-0.17932817,27.0,28.1875,27.125,30.625,32.25,32.9375
0.36605212,-0.86049813,-1.7814786,-1.5037224,-0.07355636,0.04904989,-0.13587467,-0.40531284,-0.32765114,0.05998509,3.071532,-0.6222804,-0.00016773514,-0.1780663,0.003964425,0.0018789549,-0.045529556,0.009585931,0.0013848256,0.41516048,-1.4191173,1.951033,-2.1057675,-1.564432,2.3893871,-0.17533368,0.28280333,-0.333825,0.024839848,0.03792851,-0.17640342,-0.2681506,0.4213795,-9.481039,0.9858343,47.66808,-0.97332203,-1.5350748,-3.85783,-0.113633014,0.36757404,-0.27543804,27.0,28.1875,27.125,30.625,32.25,32.9375
0.3680518,-0.9708018,-1.2939196,-1.6312325,-0.065288536,0.041717272,-0.13526577,-0.405696,-0.3276528,0.060018167,3.07137,-0.62228525,-0.0002892273,-0.1795729,0.0038482773,0.0003384231,-0.046285294,0.0069765397,-0.0027006965,0.41480026,-1.4185876,1.9503511,-2.105768,-1.5643476,2.3890514,-0.17725268,0.28854036,-0.33688483,0.024254814,0.039690226,-0.17422344,-0.22984336,0.3256114,-9.481039,0.9365982,47.731667,-0.9200705,-1.5689758,-3.6615887,-0.09134031,0.35879374,-0.33633047,27.0,28.1875,27.125,30.625,32.25,32.9375
0.37005177,-1.6181262,-1.3349761,-1.6527659,-0.036559984,0.026901737,-0.12321717,-0.4060708,-0.32763597,0.060041282,3.0712664,-0.6223408,-0.00032507433,-0.18058701,0.0032745693,-0.0002593195,-0.048044913,0.005586758,-0.0067179757,0.41442862,-1.4180332,1.949644,-2.105684,-1.5642866,2.3887284,-0.17820533,0.2918893,-0.33944973,0.024032488,0.04186111,-0.17114753,-0.21068975,0.4405331,-9.5385,1.0194036,47.694946,-0.9625269,-1.7116804,-3.715107,-0.092454754,0.32410437,-0.3783647,27.0,28.1875,27.125,30.625,32.25,32.9375
0.37205252,-1.3311782,-1.1506917,-1.5465589,-0.038181186,0.02928934,-0.13577148,-0.40640524,-0.32762524,0.060018845,3.0712163,-0.62229013,-0.00026006092,-0.1823978,0.0013836389,0.00086918095,-0.05146442,0.0074448274,-0.0049309204,0.41409352,-1.4174439,1.9490083,-2.105636,-1.5642141,2.3883684,-0.17756484,0.29414272,-0.34475398,0.024031593,0.044245653,-0.17228393,-0.114921674,0.36391866,-9.576807,0.9254084,47.71465,-0.994472,-1.8187846,-3.5777931,-0.080271415,0.29438055,-0.3900756,27.0,28.1875,27.125,30.625,32.25,32.9375
0.37405246,-1.4370152,-1.6103696,-1.4153019,-0.039483413,0.038131252,-0.13032897,-0.4068074,-0.3276332,0.06005284,3.0710618,-0.6223091,-0.00032723465,-0.18291387,-0.0004553781,0.0017011284,-0.05333237,0.008927101,0.0034363654,0.41372308,-1.416855,1.9482421,-2.1055768,-1.5641178,2.3880303,-0.17516038,0.29525682,-0.34812725,0.024250276,0.045412574,-0.17823659,-0.13407528,0.2681506,-9.461885,0.9567419,47.694054,-1.1122724,-1.776176,-3.4151366,-0.077431254,0.28041068,-0.3545154,27.0,28.1875,27.125,30.625,32.25,32.9375
0.3760522,-1.0679871,-1.4842392,-1.4279399,-0.028187448,0.039100587,-0.14115489,-0.4071702,-0.32764304,0.06004797,3.070969,-0.6221678,-0.00032950472,-0.18253048,-0.0012088873,0.00051216735,-0.053962655,0.0061563607,0.0144751705,0.4133877,-1.4162536,1.9475602,-2.1055639,-1.564021,2.387619,-0.1744093,0.29825807,-0.34910414,0.024604276,0.047173813,-0.1885152,-0.2873042,0.4405331,-9.404425,0.90527004,47.696735,-1.2757214,-1.8498826,-3.545612,-0.06374921,0.23264493,-0.2810362,27.0,28.1875,27.125,30.625,32.25,32.9375
