Tylouw/Master_Thesis_Code/training_data/batch_1/big_rod_t0.2/sample_1_session_1.csv
timestamp[s],tcp_force_x[N],tcp_force_y[N],tcp_force_z[N],tcp_force_rx[Nm?],tcp_force_ry[Nm?],tcp_force_rz[Nm?],tcp_pose_x[m],tcp_pose_y[m],tcp_pose_z[m],tcp_pose_rx[rot_vec_x],tcp_pose_ry[rot_vec_y],tcp_pose_rz[rot_vec_z],tcp_velo_x[m/s],tcp_velo_y[m/s],tcp_velo_z[m/s],tcp_velo_rx[rot_vec_x/s],tcp_velo_ry[rot_vec_y/s],tcp_velo_rz[rot_vec_z/s],q1[rad],q2[rad],q3[rad],q4[rad],q5[rad],q6[rad],qd1[rad/s],qd2[rad/s],qd3[rad/s],qd4[rad/s],qd5[rad/s],qd6[rad/s],tool_acc_x,tool_acc_y,tool_acc_z,current_of_whole_robot[A],voltage_of_whole_robot[V],current_J1[A],current_J2[A],current_J3[A],current_J4[A],current_J5[A],current_J6[A],temp_J1[C],temp_J2[C],temp_J3[C],temp_J4[C],temp_J5[C],temp_J6[C]
9.370269e-07,0.70434827,0.3905013,0.9066422,-0.044904407,0.045706395,-0.0118675055,-0.372888,-0.32823685,0.05995084,-3.0785015,0.6248701,-0.0003044522,0.003395549,0.0016306664,-0.0045226654,0.0045741485,-0.009879544,5.780475e-06,0.4481623,-1.4708489,2.0095375,-2.1076672,-1.5706376,2.4230795,-9.626195e-05,0.0040312563,0.005678878,0.0011751576,0.0001731444,-0.00010547936,0.038307227,0.11492168,-9.059659,0.7642693,47.690468,-0.21626998,-2.8680649,-2.569593,-0.5071543,0.14864016,-0.14048395,26.0625,26.8125,26.0625,28.9375,29.9375,30.375
0.002054952,0.43064559,0.7290225,0.7939131,-0.036497537,0.028444147,-0.0077239373,-0.37289697,-0.32821772,0.05993866,-3.0784695,0.62488323,-0.00033299706,-0.0004310636,-0.00021971135,-0.002965126,-0.0010051174,0.0016683209,9.854317e-06,0.44812617,-1.4708252,2.0095375,-2.107659,-1.5706495,2.4230556,-9.4576084e-05,0.003858104,0.005040275,-0.010838106,0.00016907843,-0.00010395634,0.019153614,0.17238252,-8.887277,0.7530795,47.65106,-0.2788337,-2.793559,-2.3918486,-0.44849658,0.14765981,-0.14643979,26.0625,26.8125,26.0625,28.9375,29.9375,30.375
0.004054704,0.42700446,1.1175691,0.68634224,-0.024544798,0.021140754,-0.004263986,-0.37290537,-0.32824096,0.05996397,-3.0785453,0.6248408,-0.00019672528,-0.0011372239,-0.0005606967,-0.002477979,-0.0020622285,0.003864968,1.0699365e-05,0.4481623,-1.4708731,2.0095484,-2.107731,-1.5706495,2.4230556,-9.294837e-05,0.0035177933,0.004697571,-0.012592863,0.00016519899,-0.00010247678,0.05746084,0.076614454,-8.868123,0.80456203,47.684196,-0.26644593,-3.0616093,-2.5678217,-0.37260124,0.15497322,-0.14895979,26.0625,26.8125,26.0625,28.9375,29.9375,30.375
0.006054062,0.8068781,1.5232196,0.60164475,-0.014231098,0.013968029,-0.014027893,-0.3728858,-0.32821414,0.05991726,-3.078446,0.6248778,-0.00025787676,-0.0004737289,-0.00023914779,-0.0019623553,-0.0009907426,0.0016627986,1.0215995e-05,0.4481623,-1.4708257,2.0096085,-2.107753,-1.5706977,2.4230914,-9.137534e-05,0.0026337374,0.003436206,-0.007998445,0.00016149347,-0.00010116903,0.019153614,0.11492168,-8.829816,0.74413085,47.658226,-0.23568341,-2.933721,-2.5451248,-0.3975498,0.15066311,-0.14622125,26.0625,26.8125,26.0625,28.9375,29.9375,30.375
0.008053773,1.4110446,1.9510384,0.33529973,0.013017907,0.0020595628,-0.01457534,-0.37289807,-0.3281966,0.059911747,-3.078429,0.62487495,-0.00026233337,0.00028148483,0.00012675325,-0.0016377869,0.00013469809,-0.0006520333,2.401603e-05,0.44812617,-1.470814,2.009608,-2.1077516,-1.5707096,2.4230556,-8.985499e-05,0.0018504389,0.0025921306,-0.0037971523,0.00015795039,-0.00011430332,0.05746084,0.0,-8.983045,0.78888994,47.642998,-0.20930205,-2.8981717,-2.4563377,-0.43074143,0.15213422,-0.15384012,26.0625,26.8125,26.0625,28.9375,29.9375,30.375
0.010053669,0.9058555,2.0691648,-0.14764687,0.02468098,-0.01510941,-0.017310219,-0.3728779,-0.32819754,0.059884306,-3.0783992,0.6248878,-0.0003484907,0.0004648993,0.00022100372,-0.001455966,0.0005628045,-0.0015286648,1.3818669e-05,0.4481382,-1.4707781,2.0096314,-2.1077511,-1.5706977,2.4230795,-9.808078e-05,0.0017224594,0.0019076179,-0.0020090828,0.00015455962,-0.00011247204,-0.019153614,0.019153614,-9.251195,0.7620334,47.650166,-0.59069324,-2.2846925,-3.1450253,-0.47528166,0.13104552,-0.22528109,26.0625,26.8125,26.0625,28.9375,29.9375,30.375
0.012053847,1.0803807,1.5094297,-0.095340125,0.003994341,0.017826756,-0.02411077,-0.37287587,-0.32820958,0.059892442,-3.0784364,0.62487644,-0.00037175827,0.0006274999,0.00033513375,-0.005206418,0.004110032,-0.0089052105,-1.4679378e-06,0.44813818,-1.4707866,2.0096195,-2.1077397,-1.5706614,2.4230676,-0.00016938853,0.011103364,7.241454e-05,-0.001369655,0.00015131147,-0.0001660788,0.1340753,0.05746084,-9.404425,0.80456203,47.691364,-0.72225416,-2.4136534,-3.270822,-0.46409985,0.13033651,-0.25159693,26.0625,26.8125,26.0625,28.9375,29.9375,30.375
0.014053815,0.0260313,0.4360476,-0.4759098,-0.01875648,0.019482972,-0.008428576,-0.37287158,-0.32819736,0.059875138,-3.0783808,0.6248062,-0.00045021702,-0.0065783816,0.0010536128,-0.003056969,0.0018638348,-0.0042863027,-0.00058788445,0.44813552,-1.4707369,2.0095909,-2.1076796,-1.5706857,2.4230282,-0.00808164,0.016625429,-0.011008223,-0.0009484939,0.00014819701,-0.007484504,-0.076614454,0.15322891,-9.557653,0.7642693,47.691364,-0.48336288,-2.7507992,-2.8524284,-0.45566,0.1361506,-0.25465992,26.0625,26.8125,26.0625,28.9375,29.9375,30.375
0.016053978,-0.5222747,0.032412414,-0.64143586,-0.055020552,0.05166958,-0.022336066,-0.37288412,-0.32820573,0.059882224,-3.0784245,0.6247933,-0.0004305499,-0.0060412283,0.001296622,-0.003601567,0.002529622,-0.0056628804,0.0041745864,0.4481234,-1.4707367,2.00958,-2.107703,-1.5706614,2.4230025,-0.0080476655,0.016950225,-0.010208034,-0.00054489647,0.00014520802,-0.012213538,-0.2681506,0.34476504,-9.576807,0.7396539,47.698532,-0.39243615,-2.6360955,-3.169159,-0.46944937,0.121301524,-0.19777814,26.0625,26.8125,26.0625,28.9375,29.9375,30.375
0.018054083,-1.2810035,-0.6940409,-0.57476485,-0.08729432,0.084122114,-0.027544264,-0.3728799,-0.3281781,0.059844185,-3.0783288,0.62479144,-0.00053096656,-0.0050384104,0.0013946821,-0.0042471774,0.003520134,-0.007713424,0.0073760888,0.44809973,-1.4706646,2.00958,-2.1076672,-1.5706977,2.4229898,-0.0073178993,0.017265065,-0.009317814,0.00052638375,0.00014233719,-0.014686089,-0.4213795,0.45968673,-9.749189,0.66803825,47.687782,-0.57370687,-2.3357959,-3.4566865,-0.46352237,0.1321685,-0.18474746,26.0625,26.8125,26.0625,28.9375,29.9375,30.375
0.020053895,-1.2263066,-0.6749389,-0.4371707,-0.115598336,0.12498263,-0.054577805,-0.372854,-0.32818925,0.059818737,-3.0783095,0.62474835,-0.0007129212,-0.0059772804,0.0010312983,-0.004106539,0.0037898163,-0.008282866,0.009354197,0.44811162,-1.4706041,2.009555,-2.1075943,-1.5706495,2.4229772,-0.007489496,0.019637724,-0.01259266,0.002059031,0.00013957774,-0.016833913,-0.5554548,0.40222588,-9.825804,0.7866488,47.696735,-0.6522472,-2.391306,-3.4608104,-0.47390777,0.12562579,-0.18149954,26.0625,26.8125,26.0625,28.9375,29.9375,30.375
0.022053743,-1.9982607,-0.8913431,-0.68280536,-0.08798591,0.10967554,-0.054243326,-0.37287423,-0.3281987,0.059821296,-3.078331,0.624753,-0.00066768785,-0.007269945,0.0012620122,-0.004201058,0.003870639,-0.008455112,0.009241087,0.44811094,-1.4705793,2.0095303,-2.1076305,-1.5706495,2.4229767,-0.009099401,0.021769552,-0.014768424,0.0022930154,0.00013692332,-0.01832912,-0.59376204,0.36391866,-9.940725,0.7597976,47.664497,-0.69227874,-2.4170642,-3.3502693,-0.49037832,0.10461633,-0.17843023,26.0625,26.8125,26.0625,28.9375,29.9375,30.375
0.024053387,-0.8861957,-0.2212782,-0.7280313,-0.07180404,0.116101585,-0.08768041,-0.37290907,-0.32819632,0.059835058,-3.0783532,0.62471914,-0.0006369235,-0.008763487,0.0011850052,-0.0033371295,0.002862849,-0.006364982,0.008163251,0.44807476,-1.4705553,2.0094697,-2.1076186,-1.5706495,2.4229167,-0.010311203,0.021959808,-0.016864432,0.0018783548,0.00013436806,-0.018461665,-0.57460845,0.49799395,-9.825804,0.8090337,47.707485,-0.7878679,-2.3626788,-3.4543486,-0.46798182,0.103207536,-0.1769645,26.0625,26.8125,26.0625,28.9375,29.9375,30.375
0.026053961,-1.0345641,-0.0931229,-0.62134814,-0.05380524,0.08292008,-0.107201375,-0.3729186,-0.3281941,0.059819147,-3.078336,0.6247363,-0.0006649048,-0.0103451535,0.001733372,-0.0023684627,0.0017554668,-0.004065143,0.0058364086,0.44806185,-1.4705077,2.0094569,-2.107631,-1.5706495,2.4229167,-0.012779137,0.02106995,-0.017987307,0.001338518,0.00013190637,-0.018602064,-0.63206923,0.4405331,-9.710882,0.7038487,47.68062,-0.7484193,-2.2611005,-3.4470758,-0.47060823,0.11098695,-0.20079765,26.0625,26.8125,26.0625,28.9375,29.9375,30.375
0.028053837,-0.46588403,0.23323478,-0.40018165,-0.04617291,0.076106295,-0.12134567,-0.37292233,-0.32818955,0.059803795,-3.078326,0.6246377,-0.00072610856,-0.011371405,0.0013163803,-0.0023329838,0.0015432477,-0.003634615,0.0066850856,0.44804984,-1.4704589,2.009433,-2.1076071,-1.5706495,2.4228444,-0.012928465,0.023160238,-0.020304935,0.0010857505,0.00012953329,-0.019598274,-0.6512228,0.30645782,-9.615114,0.7597976,47.684196,-0.85595596,-2.256741,-3.4308972,-0.44791633,0.096409306,-0.18713607,26.0625,26.8125,26.0625,28.9375,29.9375,30.375
0.030053565,-1.1403897,0.34732872,-0.43580258,-0.037760213,0.06298713,-0.14116742,-0.37297136,-0.32816365,0.0597945,-3.0782766,0.6247244,-0.00066562794,-0.013055429,0.0014529959,-0.0022506197,0.0013205452,-0.0031462118,0.005317207,0.44798917,-1.4703982,2.0093958,-2.1076424,-1.5706977,2.4228442,-0.014705725,0.025454797,-0.022975719,0.00092434965,0.00011239583,-0.020005602,-0.7086837,0.19153613,-9.615114,0.7777002,47.7245,-0.8230195,-2.3190165,-3.41868,-0.43527776,0.0781727,-0.17564727,26.0625,26.8125,26.0625,28.9375,29.9375,30.375
0.03205328,-0.62957203,0.5404117,-0.33342385,-0.024973145,0.077501476,-0.1502536,-0.37302306,-0.3281825,0.05980609,-3.0783405,0.6247389,-0.0006248043,-0.014462568,0.0013544142,-0.0017693482,0.0007779695,-0.0020186238,0.0033049062,0.44795293,-1.470338,2.0093114,-2.1076787,-1.5706614,2.422809,-0.01579692,0.026670635,-0.025406996,0.0008893376,0.000109474015,-0.019082822,-0.63206923,0.22984336,-9.557653,0.73741806,47.68599,-0.7766993,-2.2494595,-3.483132,-0.43763748,0.07617147,-0.19539794,26.0625,26.8125,26.0625,28.9375,29.9375,30.375
0.034054253,-0.73260057,0.84194607,-0.07986009,-0.009702522,0.07837043,-0.16348365,-0.37304112,-0.3281931,0.05981445,-3.0783813,0.62467146,-0.0006321753,-0.016185185,0.0013312831,-0.0010792824,1.8566347e-05,-0.0004459644,0.0009404013,0.44794032,-1.4703135,2.0092628,-2.1076667,-1.5706376,2.422749,-0.017318863,0.027747968,-0.028154936,0.0008141071,0.00010754203,-0.018238412,-0.45968673,0.11492168,-9.5385,0.7732232,47.686886,-0.74517596,-2.2489579,-3.37808,-0.42555022,0.067809284,-0.19830433,26.0625,26.8125,26.0625,28.9375,29.9375,30.375
0.036054004,-0.19965102,1.3088804,0.18290019,0.0042537176,0.081602275,-0.18618283,-0.37308073,-0.32820806,0.059816346,-3.078391,0.6246155,-0.00060490676,-0.017200641,0.00078686996,-0.00020286292,-0.00094198936,0.0015457886,0.001383978,0.44794038,-1.4702296,2.0091665,-2.1076672,-1.5706495,2.422713,-0.017216142,0.027869394,-0.030244676,0.0005708851,0.00010573296,-0.018577922,-0.3256114,0.019153614,-9.461885,0.7642693,47.695843,-0.8004145,-2.233153,-3.365672,-0.40793955,0.07522571,-0.19331443,26.0625,26.8125,26.0625,28.9375,29.9375,30.375
0.038053572,0.06750966,1.619758,0.039314892,0.021559883,0.06781117,-0.20783104,-0.37310225,-0.32820565,0.059797823,-3.078383,0.624691,-0.0006834458,-0.018375112,0.00069231563,0.00012798893,-0.0012845338,0.0023152544,0.0012038855,0.447892,-1.4701575,2.0091298,-2.1076672,-1.5706137,2.4227128,-0.01808516,0.029122537,-0.032392778,0.0006246344,7.582046e-05,-0.01926532,-0.24899697,-0.15322891,-9.519346,0.7284641,47.677036,-0.7876617,-2.1350248,-3.3928514,-0.39452794,0.06965064,-0.19386968,26.0625,26.8125,26.0625,28.9375,29.9375,30.375
0.04005424,0.4520575,1.7499297,-0.040538333,0.022176377,0.047021605,-0.2113022,-0.37315804,-0.3281831,0.05981029,-3.0783358,0.6246617,-0.0005739556,-0.019440202,0.00069438637,8.312689e-05,-0.0011413359,0.0020744503,0.00072768744,0.44785574,-1.4701087,2.009045,-2.1076548,-1.5706977,2.4226644,-0.019037398,0.03120168,-0.034684565,0.0011147428,4.754603e-05,-0.019739741,-0.095768064,-0.15322891,-9.442732,0.7620334,47.694946,-0.7691953,-2.2023742,-3.3317559,-0.3694838,0.057225935,-0.17592517,26.0625,26.8125,26.0625,28.9375,29.9375,30.375
0.04205335,0.13591135,1.4296223,-0.06799488,0.024627661,0.013457553,-0.21932638,-0.37320623,-0.3281854,0.059808705,-3.0783658,0.62474525,-0.0006042443,-0.019892411,0.00070810516,7.142168e-05,-0.00091717025,0.0016602804,0.0006329589,0.4477836,-1.4700365,2.008972,-2.1076667,-1.5706495,2.4226406,-0.01945518,0.032266323,-0.035990946,0.0018278753,2.3876262e-05,-0.020062007,-0.076614454,-0.1340753,-9.385271,0.68146914,47.689575,-0.789999,-2.160729,-3.3719926,-0.36812246,0.043431614,-0.18590823,26.0625,26.8125,26.0625,28.9375,29.9375,30.375
0.04405337,0.35502285,0.5499268,-0.08583112,0.0148666315,0.009785261,-0.2375977,-0.37324014,-0.3281782,0.0597944,-3.078338,0.62475884,-0.00062429986,-0.020830888,0.00092840206,0.00061598705,-0.0009724049,0.0018218076,0.00035600632,0.4477472,-1.4699523,2.0089123,-2.1076663,-1.5706614,2.4226162,-0.02070563,0.032738857,-0.038094364,0.0032889366,1.5589493e-06,-0.021034557,-0.11492168,-0.095768064,-9.5385,0.75084364,47.696735,-0.7641653,-2.0717716,-3.358121,-0.36831236,0.03793021,-0.19177529,26.0625,26.8125,26.0625,28.9375,29.9375,30.375
0.046054225,0.30409276,0.6444024,-0.022979487,-0.009202268,0.0087279305,-0.25127292,-0.37326038,-0.32817718,0.05978296,-3.0783286,0.624757,-0.00070615514,-0.02184449,0.0010812306,0.0010472653,-0.0012344279,0.0023610124,0.00044409462,0.4477107,-1.4698805,2.0088513,-2.10763,-1.5706376,2.4225798,-0.021911787,0.033337902,-0.03987649,0.0038728644,1.0178825e-07,-0.022327814,-0.05746084,0.019153614,-9.5385,0.784413,47.655537,-0.7775424,-2.1184032,-3.3200607,-0.3566357,0.036848396,-0.18541507,26.0625,26.8125,26.0625,28.9375,29.9375,30.375
0.0480539,0.77099395,0.40388379,-0.06590891,-0.02844227,0.033309285,-0.26160312,-0.37334895,-0.32816422,0.0598102,-3.0783153,0.6248113,-0.0005850991,-0.02267237,0.0011624243,0.0012921466,-0.0007082468,0.0028597396,0.00091161043,0.4476387,-1.4698082,2.0087068,-2.1076176,-1.5706862,2.4225435,-0.022343306,0.034338046,-0.041667785,0.004443435,-0.00069162186,-0.023224354,0.076614454,0.076614454,-9.5385,0.7866488,47.65912,-0.7704496,-2.030075,-3.3917756,-0.3457126,0.03645125,-0.17316768,26.0625,26.8125,26.0625,28.9375,29.9375,30.375
0.050053727,-0.06144188,-0.53434145,-0.22818875,-0.026834192,0.025268598,-0.19917339,-0.37336197,-0.32816595,0.059805576,-3.0783062,0.62473214,-0.00060420745,-0.0235822,0.0016250634,0.0012806503,0.0009824961,0.0029016507,0.0024178145,0.44763848,-1.4697598,2.0086586,-2.1075933,-1.5706986,2.4224951,-0.022993695,0.035949748,-0.043657396,0.0055202506,-0.002237631,-0.025376556,0.038307227,0.22984336,-9.461885,0.7709874,47.66987,-0.7725339,-2.0057898,-3.4824314,-0.34065306,0.051401824,-0.1576403,26.0625,26.8125,26.0625,28.9375,29.9375,30.375
0.05205364,-0.10475347,-0.5206035,-0.30330148,-0.034255613,0.0220162,-0.19692786,-0.373382,-0.32813743,0.05977331,-3.0782607,0.62470216,-0.0007105986,-0.023953862,0.0015230716,0.0015555121,0.00067634985,0.0024763455,0.0039584697,0.44756627,-1.4696757,2.0086348,-2.107569,-1.5706981,2.42241,-0.023446217,0.036441337,-0.045105804,0.0067258207,-0.0017813201,-0.027369957,-0.076614454,0.40222588,-9.519346,0.7709874,47.651955,-0.7476819,-1.9238534,-3.4183521,-0.35479188,0.03103938,-0.14686128,26.0625,26.8125,26.0625,28.9375,29.9375,30.375
0.054053266,0.7847987,-0.19062755,-0.37396035,-0.0492632,0.03515996,-0.19764663,-0.37346923,-0.3281667,0.059816495,-3.078336,0.6247356,-0.00054458814,-0.024828594,0.0014419507,0.0020085478,4.035128e-05,0.002909167,0.0047492655,0.447542,-1.4696155,2.008478,-2.1076052,-1.5706981,2.4223971,-0.024344817,0.037012536,-0.046900243,0.007281889,-0.0013950979,-0.029059382,-0.038307227,0.38307226,-9.615114,0.7866488,47.682407,-0.7441354,-1.9485116,-3.4666595,-0.36610407,0.02264808,-0.12885147,26.0625,26.8125,26.0625,28.9375,29.9375,30.375
0.05605396,0.20113234,-0.7437111,-0.35720003,-0.042366862,0.017957268,-0.1897366,-0.373535,-0.32815996,0.059833545,-3.0783534,0.6247588,-0.00050045387,-0.02581397,0.0014613891,0.001840341,3.7517097e-05,0.0025925015,0.004551659,0.44746956,-1.469555,2.0083697,-2.1075928,-1.5706981,2.422337,-0.025364423,0.039062917,-0.048797283,0.007412069,-0.0012584821,-0.029880287,-0.076614454,0.40222588,-9.557653,0.7329411,47.666286,-0.7791194,-1.840642,-3.5115604,-0.3522283,0.03041226,-0.115494855,26.0625,26.8125,26.0625,28.9375,29.9375,30.375
0.05805349,0.055353135,-0.6486808,-0.2843404,-0.04815339,0.018814797,-0.18785273,-0.37354898,-0.3281712,0.059811447,-3.078363,0.6247225,-0.0006214981,-0.026517354,0.0014998945,0.0015645511,0.0003106302,0.0016594937,0.0040481,0.4474453,-1.4694583,2.0083086,-2.1075685,-1.57065,2.422289,-0.026178893,0.041128673,-0.050594952,0.00810412,-0.0011052007,-0.030190248,-0.019153614,0.47884035,-9.5385,0.8314132,47.66808,-0.76080155,-1.872844,-3.4756818,-0.35506937,0.0064979685,-0.11233993,26.0625,26.8125,26.0625,28.9375,29.9375,30.375
0.06005419,0.35939237,-0.45251966,-0.100632615,-0.05658397,0.03351787,-0.19358361,-0.37361005,-0.32815775,0.059812468,-3.0783188,0.6246743,-0.0006062143,-0.02692556,0.0014344505,0.0015540149,0.00044857513,0.00077284506,0.0050186072,0.4473971,-1.4693502,2.0081766,-2.1075203,-1.5706981,2.4222164,-0.026596848,0.042408295,-0.052264515,0.009350431,-0.0008482323,-0.031578396,0.0,0.49799395,-9.595961,0.7978386,47.68062,-0.7794299,-1.8060453,-3.5173385,-0.35339856,-0.012833625,-0.10898802,26.0625,26.8125,26.0625,28.9375,29.9375,30.375
0.062053915,0.06445055,-0.42299718,-0.18999593,-0.05227938,0.04164428,-0.18523367,-0.37367916,-0.32817218,0.059836682,-3.0783818,0.6247254,-0.0005524649,-0.02777258,0.001442701,0.0012259543,0.0009093187,-0.00020824997,0.005984598,0.44733694,-1.4692893,2.0080569,-2.1075323,-1.5706619,2.4221802,-0.02738165,0.044946443,-0.05447437,0.010106805,-0.0008409393,-0.033327762,0.038307227,0.4213795,-9.481039,0.784413,47.698532,-0.8500903,-1.8688958,-3.5310287,-0.35515606,0.0033166492,-0.08282374,26.0625,26.8125,26.0625,28.9375,29.9375,30.375
0.064053655,-0.085429765,-0.16905107,-0.07298227,-0.046411466,0.047341898,-0.1909034,-0.3737379,-0.32813212,0.05980766,-3.0782864,0.62478375,-0.00059743,-0.028858852,0.0010742138,0.0018851883,0.0003533421,0.0009506574,0.0054236054,0.44724086,-1.4691573,2.007973,-2.107508,-1.5707101,2.4221327,-0.02766488,0.045762297,-0.056979813,0.0105094295,-0.00084754,-0.03304843,-0.038307227,0.38307226,-9.385271,0.784413,47.687782,-0.7964077,-1.781718,-3.5386086,-0.36168563,0.0035503127,-0.08895907,26.0625,26.8125,26.0625,28.9375,29.9375,30.375
0.06605354,-0.16283584,0.03132651,0.10156141,-0.039062813,0.0446904,-0.19381668,-0.37380964,-0.32815176,0.05984035,-3.0783339,0.62467843,-0.00048329987,-0.030159697,0.0007655685,0.0021302998,-0.000112328584,0.0018159942,0.0038558014,0.44722876,-1.4690847,2.0078156,-2.1074965,-1.5707339,2.422049,-0.028290424,0.047580987,-0.059471548,0.010200122,-0.0008049299,-0.032104455,-0.11492168,0.3256114,-9.3661175,0.7351769,47.68062,-0.78990895,-1.8611506,-3.4482903,-0.3571533,-0.021132646,-0.10889554,26.0625,26.8125,26.0625,28.9375,29.9375,30.375
0.0680535,0.056428496,0.2875809,0.19587086,-0.033043064,0.053013217,-0.19557169,-0.37386897,-0.32815704,0.059855454,-3.0783627,0.6247027,-0.00047695794,-0.030662665,0.0006289251,0.0016071902,0.00036537077,0.001346423,0.0047744615,0.44716865,-1.4690123,2.007696,-2.1074727,-1.5707101,2.4220004,-0.028329134,0.049781635,-0.060589395,0.009748653,-0.0010356719,-0.033060238,-0.095768064,0.36391866,-9.3661175,0.7709874,47.681515,-0.8591479,-1.8417573,-3.5396738,-0.3354419,-0.028310634,-0.11208053,26.0625,26.8125,26.0625,28.9375,29.9375,30.375
0.07005409,-0.80777454,0.05086318,0.27543077,-0.019686172,0.028818475,-0.18273196,-0.3739312,-0.3281721,0.05987232,-3.0784094,0.6246349,-0.00044174644,-0.03318656,-7.9235106e-05,0.0032875245,-0.0012346274,0.0050030835,0.005422254,0.44713235,-1.468928,2.007562,-2.1074603,-1.5706981,2.421916,-0.029182479,0.050687183,-0.06542754,0.009692873,-0.0011839028,-0.03455808,-0.21068975,0.24899697,-9.3661175,0.8291774,47.678825,-0.86486834,-1.8056605,-3.388811,-0.3398829,-0.049834754,-0.08720809,26.0625,26.8125,26.0625,28.9375,29.9375,30.375
0.07205374,-0.34547368,0.53013146,0.3861346,-0.017152358,0.04055833,-0.18288778,-0.3740009,-0.3281653,0.059876498,-3.0784247,0.6246375,-0.00044135042,-0.032782562,0.0005808246,0.0012502862,0.0014394497,0.00079196325,0.0052295304,0.44704825,-1.4688308,2.0074427,-2.1074479,-1.5706862,2.4218316,-0.029653125,0.05473753,-0.06541467,0.0105853565,-0.0017720351,-0.034834497,-0.28730422,0.24899697,-9.308656,0.800085,47.685097,-0.84289974,-1.899551,-3.3896656,-0.33147782,-0.03871897,-0.09419157,26.0625,26.8125,26.0625,28.9375,29.9375,30.375
0.074053384,0.0113495365,0.7837033,0.40128487,-0.010495627,0.050241325,-0.18192892,-0.37405705,-0.3281863,0.059890393,-3.0784616,0.6246446,-0.0004584625,-0.03358797,0.0001775874,0.0022015027,0.00051141426,0.0029677404,0.0066035497,0.44701222,-1.4687352,2.0072978,-2.1074126,-1.57065,2.4217954,-0.029546978,0.054113332,-0.066844106,0.010277254,-0.0018795625,-0.036101352,-0.36391866,0.21068975,-9.308657,0.8493211,47.701214,-0.97030616,-1.8034804,-3.4497385,-0.33140355,-0.07073067,-0.08702982,26.0625,26.8125,26.0625,28.9375,29.9375,30.375
0.07605423,-0.073887475,1.0354161,0.43020463,-0.0139639685,0.056608085,-0.18609037,-0.3741345,-0.32816997,0.059895203,-3.0784218,0.6246366,-0.00038682044,-0.03654379,-0.00056434155,0.003954703,-0.0011682657,0.006569117,0.0055976384,0.4469519,-1.4686269,2.0071647,-2.1073997,-1.5707101,2.4217353,-0.030790169,0.055715557,-0.072690405,0.0105455965,-0.0019327853,-0.0363349,-0.28730422,0.15322891,-9.32781,0.82694155,47.687782,-0.9493985,-1.7379212,-3.3799071,-0.3368463,-0.052055333,-0.0987422,26.0625,26.8125,26.0625,28.9375,29.9375,30.375
0.0780542,-0.44972938,0.7427819,0.3113928,-0.0023848752,0.04941852,-0.1875593,-0.37421575,-0.32817927,0.059899077,-3.0784647,0.62458915,-0.00038232637,-0.036426082,-0.00017712588,0.0027573914,-0.00029763125,0.0042677918,0.0034774307,0.44687954,-1.4684943,2.0070102,-2.1073997,-1.5706862,2.421628,-0.031546026,0.05792125,-0.07235644,0.0104577495,-0.001721034,-0.034970835,-0.2681506,0.17238252,-9.346964,0.8023209,47.685097,-0.9794948,-1.7040308,-3.2359629,-0.31913042,-0.07495782,-0.105216116,26.0625,26.8125,26.0625,28.9375,29.9375,30.375
0.08005375,-0.54464084,0.70863426,0.42429638,-0.009514562,0.049161885,-0.18742791,-0.3742728,-0.32817477,0.059889577,-3.0784268,0.6245232,-0.00039387462,-0.037665207,-0.0006309939,0.0019411477,0.00017571962,0.0029538008,0.0034565455,0.44684353,-1.4683608,2.0068772,-2.107364,-1.570722,2.4215558,-0.031903766,0.06264648,-0.07568364,0.010447384,-0.0015884697,-0.035305165,-0.4213795,0.19153613,-9.32781,0.78217715,47.709274,-0.9778265,-1.9231172,-3.3666525,-0.32234436,-0.08462925,-0.1364219,26.0625,26.8125,26.0625,28.9375,29.9375,30.375
0.082053795,-0.53747433,0.5819124,0.43520406,-0.016959183,0.055860855,-0.18838793,-0.37433192,-0.32819244,0.059918277,-3.0784614,0.62453026,-0.0003831584,-0.039468687,-0.0010078615,0.004444657,-0.0020292278,0.007477394,0.004122546,0.446807,-1.4682899,2.0067198,-2.1073043,-1.5706981,2.4215193,-0.032841,0.06005001,-0.0787066,0.011034947,-0.0015593304,-0.03690729,-0.40222588,0.1340753,-9.289502,0.7665104,47.667187,-0.95539606,-1.701345,-3.3075457,-0.31716648,-0.09315053,-0.1402985,26.0625,26.8125,26.0625,28.9375,29.9375,30.375
0.084053546,-0.5227191,0.60189825,0.26885834,-0.023400998,0.057770826,-0.19437867,-0.37447774,-0.32818165,0.059943523,-3.0784938,0.6245747,-0.00026834643,-0.040387955,-0.0010746004,0.0035386225,-0.0009096931,0.006253569,0.004563269,0.446663,-1.4681327,2.006492,-2.1073163,-1.5707105,2.421399,-0.033206515,0.063997544,-0.080950774,0.010919873,-0.0020415683,-0.037710793,-0.40222588,0.21068975,-9.289502,0.7709874,47.674347,-0.9571712,-1.7526424,-3.2390275,-0.32870692,-0.09873229,-0.13464496,26.0625,26.8125,26.0625,28.9375,29.9375,30.375
0.08605404,-0.6338951,0.5471457,0.22010072,-0.022463148,0.054963306,-0.1844027,-0.3745192,-0.32817557,0.059923362,-3.0784297,0.6245622,-0.0003100525,-0.041276857,-0.00017938662,0.0028305945,0.00076734903,0.00522718,0.0030252254,0.44663846,-1.468,2.0063841,-2.1072805,-1.5707468,2.421375,-0.034964085,0.06630915,-0.081956446,0.011266432,-0.0031143548,-0.037927315,-0.3256114,0.1340753,-9.3661175,0.8179876,47.650166,-0.92405355,-1.8211329,-3.2699332,-0.33795434,-0.10251886,-0.15344417,26.0625,26.8125,26.0625,28.9375,29.9375,30.375
0.08805349,-0.4230543,0.42112288,0.24366799,-0.031218555,0.0722269,-0.19005863,-0.37459737,-0.3281963,0.059927788,-3.0784771,0.6245333,-0.00038143262,-0.042907152,-2.9264296e-05,0.0031160794,0.0015970295,0.0062460154,0.0021862332,0.44656616,-1.4678437,2.006191,-2.1072323,-1.5706872,2.4212787,-0.035904907,0.06844658,-0.0850659,0.011684191,-0.0043085134,-0.038024783,-0.3256114,0.24899697,-9.32781,0.74413085,47.679718,-0.95154613,-1.8296347,-3.0644817,-0.32289922,-0.090329915,-0.17762405,26.0625,26.8125,26.0625,28.9375,29.9375,30.375
0.09005394,-1.4472321,-0.17054547,0.014238442,-0.020250738,0.047573026,-0.17605138,-0.3746801,-0.32818058,0.059915256,-3.0784314,0.6245621,-0.0004324386,-0.042448763,0.0005311117,0.0019895402,0.002753114,0.0036446573,0.002626597,0.44646978,-1.4676754,2.0060236,-2.1071837,-1.5706991,2.4212062,-0.03658629,0.069959454,-0.084283866,0.012233479,-0.004227103,-0.039146885,-0.40222588,0.22984336,-9.346964,0.7866488,47.67614,-0.92401075,-1.8837707,-3.3174644,-0.3304194,-0.11505976,-0.1798583,26.0625,26.8125,26.0625,28.9375,29.9375,30.375
0.09205346,-0.8613728,-0.026446939,0.083081305,-0.036573328,0.061593167,-0.17901938,-0.37477392,-0.3282045,0.05994444,-3.0785003,0.6244219,-0.00028930037,-0.044542763,-0.00046178928,0.0030754637,0.0017164297,0.0062335087,0.003440134,0.44644588,-1.4675668,2.005843,-2.107208,-1.5707229,2.4210863,-0.036481258,0.07206525,-0.0890725,0.012133119,-0.0044166367,-0.03985225,-0.4405331,0.24899697,-9.3661175,0.78217715,47.670765,-1.023581,-1.8031964,-3.250718,-0.31949598,-0.110533535,-0.20478293,26.0625,26.8125,26.0625,28.9375,29.9375,30.375
0.09405401,-0.928812,-0.039126776,0.13783556,-0.04192952,0.06135298,-0.17768283,-0.37485316,-0.3281845,0.059938293,-3.0784392,0.6244677,-0.00030084635,-0.045051888,0.0010874494,0.0018326254,0.0039292593,0.0047343113,0.0018237929,0.44636104,-1.4674226,2.0056875,-2.1071603,-1.5707592,2.421038,-0.03892723,0.073880546,-0.08812727,0.011683018,-0.005765904,-0.04067933,-0.40222588,0.2681506,-9.3661175,0.72622824,47.694054,-0.92298466,-1.9370675,-3.298427,-0.32994965,-0.09088403,-0.22158277,26.0625,26.8125,26.0625,28.9375,29.9375,30.375
0.09605367,-0.8267089,-0.45793772,-0.030519191,-0.021489494,0.05416058,-0.17896357,-0.37496147,-0.32819805,0.059954334,-3.078503,0.62448096,-0.00025863393,-0.04748461,0.0010636871,0.0023810472,0.0042927586,0.0070030093,0.0014555913,0.44626465,-1.4672779,2.0054944,-2.1071727,-1.5707239,2.4209418,-0.04017979,0.07657175,-0.092251375,0.011231753,-0.0070803734,-0.041558634,-0.28730422,0.24899697,-9.404425,0.8403672,47.675243,-0.9367377,-1.808234,-3.2036753,-0.31954792,-0.09070827,-0.23232594,26.0625,26.8125,26.0625,28.9375,29.9375,30.375
0.098053105,-0.32921025,0.35160935,0.18466276,-0.03425721,0.04582432,-0.17791313,-0.37508285,-0.32818332,0.059975624,-3.0784934,0.6245372,-0.0001912446,-0.04916072,0.0017455957,0.0025286234,0.005205686,0.0078756185,7.6887605e-05,0.44614398,-1.4671334,2.0052783,-2.1071365,-1.5707487,2.4208577,-0.04214419,0.0782699,-0.09450497,0.011396268,-0.008283074,-0.04214088,-0.30645782,0.24899697,-9.385271,0.800085,47.661808,-0.78704965,-1.9358225,-3.2344232,-0.3011762,-0.07371387,-0.252345,26.0625,26.8125,26.0625,28.9375,29.9375,30.375
0.10005384,-0.14853698,0.47397944,0.33573726,-0.027968438,0.04660322,-0.19111133,-0.3751937,-0.32818305,0.059969213,-3.0784998,0.62447965,-0.0001398396,-0.05035847,0.002034741,0.0026037826,0.0056808265,0.008689122,0.0017619826,0.44605967,-1.4669414,2.0050871,-2.1071603,-1.570773,2.4207368,-0.043224826,0.07966016,-0.096161164,0.011133694,-0.00906628,-0.04490416,-0.2681506,0.3256114,-9.346964,0.7777002,47.678825,-0.8420232,-1.8584096,-3.1655207,-0.29184073,-0.045422614,-0.2514676,26.0625,26.8125,26.0625,28.9375,29.9375,30.375
0.10205374,0.1928496,0.9157218,0.13570988,-0.027474796,0.052726123,-0.18479925,-0.37526947,-0.32817912,0.05997518,-3.0784636,0.6244512,-0.00016287804,-0.050831337,0.0017852446,0.002353376,0.0073607876,0.008792317,0.0035073736,0.44600016,-1.4667969,2.0048954,-2.1070764,-1.5707973,2.4206643,-0.042118404,0.08188403,-0.09813213,0.011516222,-0.010631295,-0.04553857,-0.26815057,0.28730422,-9.346964,0.8493211,47.651955,-0.8664583,-1.894937,-3.1972837,-0.27224854,-0.03655613,-0.24819937,26.0625,26.8125,26.0625,28.9375,29.9375,30.375
0.10405329,-0.12582603,0.26194587,-0.028868636,-0.010922953,0.044887643,-0.17805716,-0.37537557,-0.32818088,0.05997668,-3.0784614,0.62445235,-0.00013648494,-0.052073494,0.0020760654,0.0023793092,0.007469883,0.008646536,0.0009446634,0.4459156,-1.4666166,2.004691,-2.1070645,-1.5708092,2.4205809,-0.043745186,0.08368292,-0.10031333,0.012076107,-0.010668941,-0.04460132,-0.22984336,0.24899697,-9.385271,0.7978386,47.670765,-0.93489647,-1.8447939,-3.1958928,-0.27832466,-0.028457327,-0.29381853,26.0625,26.8125,26.0625,28.9375,29.9375,30.375
0.10605358,-0.18645744,0.01972564,0.20452307,-0.012588427,0.03551792,-0.18507445,-0.3754775,-0.32817644,0.05997275,-3.0784395,0.6244675,-0.00011518847,-0.052586123,0.00185543,0.0019173344,0.0062889205,0.006603099,0.0011431616,0.44583097,-1.466436,2.0044982,-2.107052,-1.5708326,2.4205086,-0.04509243,0.08592105,-0.10188364,0.012733323,-0.008724244,-0.046149503,-0.095768064,0.24899697,-9.270349,0.8291774,47.672558,-0.76510936,-1.9594259,-3.153911,-0.26976407,-0.031855375,-0.31246468,26.0625,26.8125,26.0625,28.9375,29.9375,30.375
0.108053416,-0.02994432,-0.2270547,0.13837397,-0.015882779,0.028444625,-0.17999545,-0.37558588,-0.32815817,0.059972618,-3.0784297,0.62448406,-0.00012938057,-0.053323954,0.0017070392,0.00286912,0.005196907,0.007541146,0.001052172,0.44569883,-1.4662687,2.004306,-2.1070163,-1.5708326,2.4203882,-0.045850478,0.08527783,-0.10361011,0.013782431,-0.008144886,-0.04681693,-0.15322891,0.19153613,-9.308656,0.7911258,47.606277,-0.85827386,-1.8107352,-3.1992784,-0.2737846,-0.05353547,-0.32121903,26.0625,26.8125,26.0625,28.9375,29.9375,30.375
0.110053495,-0.022546424,0.521522,0.3191098,-0.044291873,0.02405753,-0.18356785,-0.3756937,-0.32818675,0.05998708,-3.0784488,0.6244487,-7.6387354e-05,-0.053348996,0.0014371641,0.0006153013,0.0064329426,0.002914849,0.0032254935,0.4456628,-1.4660747,2.0040538,-2.106992,-1.570844,2.420328,-0.045949586,0.0913237,-0.10516756,0.013996518,-0.0072677704,-0.049089413,-0.21068975,0.2681506,-9.32781,0.8314132,47.65106,-0.90657157,-2.0106854,-3.1671314,-0.26740056,-0.049260642,-0.3353312,26.0625,26.8125,26.0625,28.9375,29.9375,30.375
0.11205405,-0.4454179,0.068091355,0.2005626,-0.036898766,0.018937627,-0.17160225,-0.37582722,-0.328189,0.06000516,-3.078471,0.624474,9.074956e-06,-0.053925887,0.0011820041,0.0016202006,0.0048064636,0.0046692453,0.0011626414,0.44555455,-1.4658958,2.0038154,-2.106992,-1.570856,2.4202328,-0.046450045,0.08989515,-0.105878904,0.013848985,-0.006554705,-0.04752848,-0.15322891,0.22984336,-9.346964,0.83589023,47.683304,-0.8708253,-1.8776734,-3.2818537,-0.26029932,-0.061615355,-0.36864814,26.0625,26.8125,26.0625,28.9375,29.9375,30.375
0.11405361,-0.71938753,-0.14078388,0.14049427,-0.018945409,0.014014086,-0.16542439,-0.37590426,-0.328164,0.059980325,-3.0784085,0.62447983,-8.587861e-05,-0.054772794,0.0010764955,0.0005906536,0.0051640775,0.0027590708,-0.0008939807,0.44544628,-1.4657145,2.003659,-2.1069324,-1.5708679,2.4201362,-0.047334865,0.09390619,-0.10793635,0.013770644,-0.006062351,-0.046355173,-0.076614454,0.15322891,-9.270349,0.8179876,47.686886,-0.953587,-1.9522246,-3.3378096,-0.23561645,-0.07635099,-0.42455715,26.0625,26.8125,26.0625,28.9375,29.9375,30.375
0.11605427,-0.087377384,0.47256264,0.17983034,-0.01442006,0.029220564,-0.17733446,-0.37605223,-0.3281712,0.060009073,-3.078455,0.62450695,1.91567e-05,-0.05514526,0.0009162498,0.000261505,0.0056381635,0.0021814087,0.0018505955,0.44532636,-1.4655341,2.0033944,-2.1069324,-1.5708679,2.4200275,-0.047227226,0.09570404,-0.10922864,0.013989652,-0.0062403525,-0.048991363,-0.1340753,0.21068975,-9.212888,0.78888994,47.67345,-0.9469665,-2.042383,-3.3067884,-0.22883546,-0.0819812,-0.43696073,26.0625,26.8125,26.0625,28.9375,29.9375,30.375
0.11805371,-0.1623686,0.85810965,0.3232746,-0.007834952,0.026440227,-0.17721173,-0.37615344,-0.32817516,0.060007263,-3.0784557,0.6244674,2.9474024e-06,-0.056444157,7.565281e-05,0.0010995016,0.0046115024,0.0042229462,0.0045109848,0.44524252,-1.4653422,2.0031788,-2.1068962,-1.5708679,2.419919,-0.04683177,0.09677268,-0.112273246,0.0136795305,-0.0062014596,-0.051254272,-0.05746084,0.22984336,-9.308657,0.7978386,47.686886,-0.9732326,-1.945688,-3.199873,-0.23065922,-0.084053524,-0.4435131,26.0625,26.8125,26.0625,28.9375,29.9375,30.375
0.1200542,0.16979244,0.9402587,0.1501735,-0.0064839656,0.030777672,-0.18738674,-0.37626246,-0.3281951,0.060014665,-3.0784729,0.6244138,1.4799303e-05,-0.05649781,0.0014434442,5.825191e-05,0.006399729,0.001669301,0.0037594903,0.44518164,-1.465138,2.0029285,-2.10686,-1.5708679,2.4198227,-0.04908321,0.09808697,-0.111603655,0.014771426,-0.0067116152,-0.052753936,-0.11492168,0.17238252,-9.289502,0.7933669,47.67166,-0.98839486,-1.9969314,-3.4872828,-0.21294859,-0.10167244,-0.46229225,26.0625,26.8125,26.0625,28.9375,29.9375,30.375
0.12205378,-0.21887489,0.29520002,0.09332505,-0.0025955036,0.015153684,-0.17608301,-0.37637466,-0.32818913,0.060013257,-3.0784686,0.62444943,-1.0499201e-05,-0.0575771,0.0010976407,0.00019434947,0.0067176786,0.0022187245,0.0065225414,0.44506168,-1.4649456,2.0027115,-2.1068242,-1.5708565,2.4197257,-0.049029578,0.10020697,-0.11432602,0.015015607,-0.0072418256,-0.055460528,0.0,0.19153613,-9.32781,0.78217715,47.61613,-0.9937196,-1.8872182,-3.3002229,-0.21943134,-0.08100031,-0.47144693,26.0625,26.8125,26.0625,28.9375,29.9375,30.375
0.12405323,0.40480736,0.6404418,0.14120111,-0.031195266,0.02874688,-0.183185,-0.3764921,-0.328186,0.060013533,-3.078437,0.62440115,6.099127e-05,-0.05733576,0.00040698616,-0.0002226792,0.0079572005,0.0016446934,0.012143145,0.44499055,-1.4647415,2.0024831,-2.1068118,-1.5709165,2.4196286,-0.04691495,0.10218254,-0.11566075,0.015424398,-0.008115743,-0.058964144,-0.076614454,0.24899697,-9.251195,0.8179876,47.66539,-1.1817474,-1.941455,-3.4420333,-0.20984212,-0.069857225,-0.47415072,26.0625,26.8125,26.0625,28.9375,29.9375,30.375
0.12605399,0.08396571,0.04419798,0.32345152,-0.027138479,0.03070272,-0.1772701,-0.37660477,-0.32820973,0.060017224,-3.078482,0.6243126,5.3555043e-05,-0.05882241,0.0011625435,0.00083104457,0.00799217,0.004094687,0.0133198695,0.44491783,-1.4645262,2.0022318,-2.106788,-1.5708932,2.419495,-0.048913863,0.101148054,-0.11699529,0.015600566,-0.009204393,-0.062137492,-0.076614454,0.22984336,-9.251195,0.8537928,47.655537,-1.1720709,-1.8143401,-3.47652,-0.19115746,-0.074614875,-0.45540345,26.0625,26.8125,26.0625,28.9375,29.9375,30.375
0.12805325,-0.4867731,-0.15718149,0.10563621,-0.017694268,0.0107039055,-0.17102347,-0.37671718,-0.32818678,0.06002744,-3.0784404,0.62430173,5.6910816e-05,-0.06016655,0.00055831927,0.0012482032,0.007793066,0.004482343,0.017727744,0.4447978,-1.4643576,2.0020034,-2.106704,-1.5709289,2.4193738,-0.048974246,0.10359619,-0.12089828,0.016614677,-0.009200092,-0.06660318,-0.038307227,0.21068975,-9.346964,0.80679786,47.664497,-1.2216147,-1.80544,-3.478591,-0.18016316,-0.03808797,-0.42598784,26.0625,26.8125,26.0625,28.9375,29.9375,30.375
0.1300539,-0.052106462,0.17550954,0.15299168,-0.012867276,0.02086423,-0.18207297,-0.3768577,-0.32818562,0.060024638,-3.0784645,0.6242474,0.00011159788,-0.06009049,0.001673241,0.00020165095,0.008507408,0.0021634344,0.020168409,0.44467697,-1.4641298,2.001764,-2.1067278,-1.5709404,2.4192162,-0.051209025,0.10450751,-0.11956249,0.016763184,-0.008842907,-0.071280286,-0.05746084,0.11492168,-9.308657,0.80679786,47.666286,-1.1470389,-1.8559874,-3.5967193,-0.16636992,-0.053905405,-0.39547196,26.0625,26.8125,26.0625,28.9375,29.9375,30.375
0.1320537,-0.17731595,0.3685302,0.06605527,-0.012748749,0.019069657,-0.17891903,-0.37697768,-0.3281771,0.06001908,-3.0784369,0.6241813,9.006297e-05,-0.062060278,9.044292e-05,0.0013445251,0.007642508,0.0051091593,0.026134215,0.44456953,-1.4639012,2.0015109,-2.1066682,-1.5709647,2.4190712,-0.04965736,0.10713175,-0.12506275,0.016605057,-0.009344854,-0.07568961,-0.05746084,0.24899697,-9.270349,0.8851263,47.687782,-1.3055549,-1.7710841,-3.3190863,-0.16602503,-0.05130962,-0.3391105,26.0625,26.8125,26.0625,28.9375,29.9375,30.375
0.1340533,-0.23391627,0.58747375,-0.011880773,-0.015577679,0.026618704,-0.17989023,-0.3770895,-0.32818764,0.06002587,-3.0784647,0.62399286,0.00010024125,-0.06316331,0.00063475827,0.0009711865,0.008489789,0.0042757806,0.027907759,0.4444971,-1.4636966,2.0012586,-2.1066196,-1.5709771,2.4188778,-0.051373035,0.109461,-0.12695234,0.01728044,-0.00975483,-0.079176866,-0.076614454,0.30645782,-9.385271,0.85826975,47.681515,-1.2995076,-1.886206,-3.4385738,-0.15620732,-0.05548443,-0.2932549,26.0625,26.8125,26.0625,28.9375,29.9375,30.375
0.13605414,-0.8345796,-0.18611097,-0.35075447,-0.008840882,0.013999494,-0.16330749,-0.37720212,-0.3281775,0.060020678,-3.0784352,0.6238892,8.810253e-05,-0.0638671,0.00054513925,0.0014462179,0.007702456,0.0038402474,0.030267578,0.44440073,-1.463481,2.0010188,-2.1065595,-1.5710124,2.4187207,-0.0524179,0.11004468,-0.12906787,0.018858455,-0.00886148,-0.082581945,-0.05746084,0.2681506,-9.481039,0.7486078,47.637623,-1.255544,-1.8105309,-3.4508073,-0.15288751,-0.07108553,-0.24202138,26.0625,26.8125,26.0625,28.9375,29.9375,30.375
0.13805366,-0.5127345,-0.11561525,-0.37668034,-0.033729028,0.023414651,-0.16587196,-0.3773104,-0.32817388,0.05999131,-3.0784307,0.62382996,-9.708074e-06,-0.064944446,0.0003030091,0.0018800225,0.007265083,0.004058229,0.031260997,0.44428056,-1.4632288,2.0008023,-2.1065357,-1.5709885,2.4185643,-0.053105365,0.111425444,-0.13184397,0.019868111,-0.008569385,-0.084261335,-0.11492168,0.24899697,-9.576807,0.82022345,47.67345,-1.2924612,-1.7055876,-3.3626475,-0.15183419,-0.07658323,-0.21939635,26.0625,26.8125,26.0625,28.9375,29.9375,30.375
0.14005382,-0.5936579,-0.58009005,-0.32549602,-0.051427934,0.030814473,-0.18147227,-0.37747324,-0.32817224,0.060020026,-3.0784502,0.623738,5.4364747e-05,-0.066047184,0.0008456545,0.0018825807,0.0076097357,0.0040905415,0.030588286,0.4441478,-1.4630007,2.000468,-2.1064627,-1.5710129,2.418372,-0.054860428,0.11266187,-0.13331942,0.020223591,-0.008894306,-0.08534248,-0.21068975,0.28730422,-9.634268,0.8179876,47.68599,-1.2737498,-1.758745,-3.3939934,-0.15696387,-0.06325179,-0.16680956,26.0625,26.8125,26.0625,28.9375,29.9375,30.375
0.14205419,-1.1189059,-0.75407565,-0.49073017,-0.055630177,0.034105778,-0.17421474,-0.37761196,-0.32817444,0.060043383,-3.0784907,0.62365097,9.991899e-05,-0.06706244,0.0009535093,0.0015551669,0.007888433,0.003613457,0.028878901,0.4440275,-1.4628086,2.0001915,-2.106415,-1.5710129,2.4181924,-0.055913948,0.11504029,-0.13523622,0.020312006,-0.008941543,-0.08468543,-0.3256114,0.28730422,-9.691729,0.86498255,47.64837,-1.3162341,-1.655313,-3.4362519,-0.15186164,-0.06488471,-0.17683744,26.0625,26.8125,26.0625,28.9375,29.9375,30.375
0.14405401,-1.2090771,-0.89775753,-0.4395453,-0.044603117,0.045484394,-0.17125301,-0.37773308,-0.32815513,0.060021933,-3.078446,0.6235475,5.8846545e-05,-0.06833259,0.0011508369,0.0017603977,0.00811412,0.004214076,0.025989337,0.44390714,-1.4625562,1.9999512,-2.1063673,-1.5710491,2.4180133,-0.05707999,0.11651375,-0.13742231,0.020577677,-0.009411825,-0.082959145,-0.30645782,0.34476504,-9.653421,0.7978386,47.670765,-1.3232015,-1.7384036,-3.388002,-0.15827891,-0.06502021,-0.17887321,26.0625,26.8125,26.0625,28.9375,29.9375,30.375
0.1460535,-0.79902244,-0.508056,-0.3159292,-0.046219278,0.06980685,-0.1791075,-0.3778567,-0.32818025,0.06002995,-3.0784729,0.623459,4.3137006e-05,-0.06903046,0.0011937979,9.372488e-05,0.009542016,0.0012852008,0.022727625,0.44383493,-1.4623147,1.9996523,-2.1063073,-1.5710367,2.4178827,-0.057742175,0.12179675,-0.13947408,0.02060657,-0.009447306,-0.08035756,-0.45968673,0.28730422,-9.634268,0.84708,47.66987,-1.2804102,-1.760312,-3.413684,-0.14156765,-0.058163043,-0.15935746,26.0625,26.8125,26.0625,28.9375,29.9375,30.375
0.14805335,-0.959107,0.5617558,0.0472119,-0.050566476,0.071496606,-0.18772261,-0.37800154,-0.32816365,0.060024463,-3.0784442,0.6233981,0.000115035924,-0.07023202,0.0012181597,0.0016476641,0.007838561,0.004259966,0.015947143,0.44371453,-1.4620758,1.999401,-2.1063073,-1.5710968,2.4177282,-0.059007984,0.119733036,-0.14076652,0.020541064,-0.009186249,-0.074843094,-0.49799395,0.2681506,-9.634268,0.7978386,47.668976,-1.303375,-1.7102365,-3.4777508,-0.119943574,-0.06417449,-0.23752499,26.0625,26.8125,26.0625,28.9375,29.9375,30.375
0.15005393,-1.5917515,0.020357879,-0.1791169,-0.02769988,0.052554075,-0.17225677,-0.37815854,-0.32815295,0.060034852,-3.0784364,0.6233782,0.00015287433,-0.07212766,0.00062523404,0.0015176038,0.007541946,0.004452229,0.013375238,0.4435703,-1.461835,1.9991001,-2.1062596,-1.5711211,2.4175727,-0.059683442,0.12389511,-0.14505593,0.020364875,-0.009008775,-0.07294393,-0.4405331,0.24899697,-9.634268,0.86945957,47.634937,-1.2491846,-1.8248713,-3.357331,-0.12673157,-0.06850748,-0.27654627,26.0625,26.8125,26.0625,28.9375,29.9375,30.375
0.15205336,-1.0546815,0.41923752,-0.19052753,-0.021080332,0.06490056,-0.18465163,-0.37830445,-0.32817385,0.060053132,-3.0784993,0.62331456,0.0001889107,-0.072482646,0.00069226674,0.0010505229,0.007209385,0.0035610052,0.011788112,0.44346213,-1.4616067,1.9988006,-2.1062362,-1.5710963,2.417417,-0.060556605,0.12528759,-0.14548323,0.020060848,-0.00832383,-0.07223111,-0.45968673,0.17238252,-9.519346,0.85155696,47.63046,-1.3503783,-1.6072388,-3.483063,-0.11274945,-0.060782097,-0.27445188,26.0625,26.8125,26.0625,28.9375,29.9375,30.375
0.15405314,-0.8443657,0.74085814,-0.07436992,-0.014293299,0.05871641,-0.18358348,-0.3784704,-0.3281886,0.06007263,-3.0785198,0.6233205,0.00023318412,-0.073588125,0.00095747085,0.00045880635,0.008111387,0.0025902141,0.009181943,0.44334158,-1.4613423,1.9984525,-2.106188,-1.5710968,2.4172978,-0.06173945,0.12842324,-0.14770666,0.020413788,-0.008723229,-0.070805766,-0.49799395,0.11492168,-9.500193,0.8291774,47.672558,-1.2614639,-1.6730027,-3.4322715,-0.08850103,-0.062240757,-0.3189631,26.0625,26.8125,26.0625,28.9375,29.9375,30.375
0.15605374,-0.3299788,1.1308762,0.14908834,-0.016695486,0.06744905,-0.18452373,-0.37862352,-0.32817605,0.06006401,-3.0785048,0.62329656,0.00025340487,-0.07456119,0.0011207996,-8.345036e-05,0.00843718,0.0011851192,0.00960791,0.44319728,-1.4610778,1.9981769,-2.1061757,-1.5711206,2.4171407,-0.06308517,0.13136065,-0.14989579,0.021069542,-0.008418869,-0.07257648,-0.47884035,0.15322891,-9.500193,0.7665104,47.627773,-1.3284483,-1.753089,-3.3688943,-0.06861296,-0.07997022,-0.3373999,26.0625,26.8125,26.0625,28.9375,29.9375,30.375
0.1580535,-0.85635334,1.027516,0.21862903,-0.017030917,0.055730533,-0.18183641,-0.3787914,-0.32818973,0.060091503,-3.078546,0.62320876,0.00036325553,-0.075634055,0.000951911,0.00022570234,0.008749695,0.0013995082,0.010667069,0.4430892,-1.4608375,1.9978427,-2.1061513,-1.5711449,2.4169729,-0.06344408,0.13311791,-0.15283224,0.022186903,-0.008792304,-0.07399291,-0.4213795,0.11492168,-9.3661175,0.76874626,47.658226,-1.283541,-1.8095641,-3.3757925,-0.07164422,-0.07252383,-0.33698285,26.0625,26.8125,26.0625,28.9375,29.9375,30.375
0.16005409,-0.83027714,1.1631932,0.19206612,-0.004893455,0.04613595,-0.18174225,-0.37893718,-0.32818854,0.060083743,-3.078539,0.6231694,0.0003306143,-0.07570189,0.0020043794,-0.001863341,0.011891895,-0.0028426438,0.009504305,0.4429567,-1.4605603,1.9975427,-2.1061032,-1.5711449,2.416817,-0.064753965,0.13766636,-0.15338609,0.023374343,-0.009813758,-0.07413746,-0.45968673,0.15322891,-9.3661175,0.75084364,47.655537,-1.2555208,-1.9826355,-3.3115525,-0.079489246,-0.072565705,-0.36086178,26.0625,26.8125,26.0625,28.9375,29.9375,30.375
0.16205338,-0.41082838,0.98997736,0.30739233,-0.003638751,0.05736785,-0.18415971,-0.37907475,-0.32816616,0.060097694,-3.078503,0.6231231,0.00036112606,-0.07736182,0.0018761817,-0.0006725621,0.010791372,-0.0008727578,0.008755763,0.44282416,-1.460357,1.9972667,-2.1060193,-1.5711926,2.4166603,-0.06605875,0.13782907,-0.15647157,0.02404001,-0.009670482,-0.07469226,-0.4213795,0.21068975,-9.270349,0.842603,47.67793,-1.2256553,-1.7570227,-3.2670422,-0.056415603,-0.05492332,-0.36914417,26.0625,26.8125,26.0625,28.9375,29.9375,30.375
0.16405398,-0.6776783,0.6996188,0.41851753,-0.010349568,0.04833832,-0.1832428,-0.37926394,-0.32818747,0.060107205,-3.078528,0.6230899,0.00043084435,-0.077953115,0.002444646,-0.0011000368,0.011643866,-0.001972109,0.008721214,0.44270378,-1.4600328,1.9968833,-2.1060064,-1.5712055,2.4165163,-0.06740851,0.13942634,-0.15747812,0.024806017,-0.009967673,-0.0760069,-0.36391866,0.17238252,-9.232041,0.7911258,47.6636,-1.2595116,-1.9048461,-3.438117,-0.045438692,-0.065665364,-0.3691383,26.0625,26.8125,26.0625,28.9375,29.9375,30.375
0.1660541,-0.96206266,0.65824026,0.45072603,-0.02057072,0.034843683,-0.17520994,-0.37942752,-0.32818404,0.060132135,-3.0785398,0.6230923,0.0004861137,-0.07896442,0.002604844,-0.0009799845,0.012041585,-0.001910175,0.0077507375,0.44255957,-1.4598047,1.99656,-2.1059468,-1.5712174,2.4163723,-0.0683109,0.14094101,-0.1596316,0.025558358,-0.0103547545,-0.07593733,-0.3256114,0.19153613,-9.155427,0.800085,47.684196,-1.2019968,-1.791296,-3.4544787,-0.059151586,-0.041027695,-0.4117571,26.0625,26.8125,26.0625,28.9375,29.9375,30.375
0.16805445,-0.5648618,0.52059114,0.5633137,-0.02076263,0.038071875,-0.18154454,-0.37959495,-0.3281738,0.060124915,-3.0785022,0.6231014,0.0005032303,-0.080482334,0.0029045355,-0.00075084344,0.011575332,-0.0017991841,0.010905603,0.44241485,-1.4595048,1.9962362,-2.1059105,-1.5712527,2.4162383,-0.070428506,0.1425823,-0.16214259,0.026118912,-0.009987671,-0.081208795,-0.36391866,0.19153613,-9.021352,0.8605109,47.664497,-1.2568418,-1.8342638,-3.4083638,-0.040559076,-0.06138409,-0.39465183,26.0625,26.8125,26.0625,28.9375,29.9375,30.375
0.17005427,-0.003013201,0.7140252,0.72054327,-0.01831872,0.045821387,-0.1887778,-0.37976533,-0.32816884,0.060107343,-3.0785017,0.6230808,0.00046177756,-0.08219992,0.0029339776,-8.1545535e-05,0.010924526,-0.00057620095,0.012059572,0.44224623,-1.4591807,1.995912,-2.1058867,-1.5712413,2.416057,-0.072005026,0.14382349,-0.16519102,0.026539505,-0.00993193,-0.08393739,-0.21068975,0.1340753,-9.040505,0.8247004,47.675243,-1.006911,-1.7698665,-3.3106008,-0.026417594,-0.055986103,-0.3514753,26.0625,26.8125,26.0625,28.9375,29.9375,30.375
0.17205417,-0.26476622,0.75689286,0.6544104,-0.011476843,0.029120162,-0.1799685,-0.37994668,-0.32816306,0.060127866,-3.0784945,0.62301975,0.00057746784,-0.08241065,0.0027966308,-0.00035939604,0.011313355,-0.0011066152,0.016187668,0.4421143,-1.4589168,1.9955643,-2.1058505,-1.5713013,2.4158883,-0.0718134,0.14517382,-0.16614044,0.026775517,-0.010055088,-0.08787352,-0.21068975,0.17238252,-8.983045,0.88960326,47.691364,-1.2500772,-1.7591753,-3.383234,-0.024801163,-0.051120434,-0.34987074,26.0625,26.8125,26.0625,28.9375,29.9375,30.375
0.17405371,0.11196156,0.7445763,0.44942638,0.0019354704,0.028931836,-0.18091865,-0.3800721,-0.32816058,0.060110096,-3.0785153,0.62290674,0.00041304913,-0.08395842,0.0032774562,-0.00020120866,0.01063662,-0.0010638942,0.019026976,0.4419575,-1.4586408,1.9952773,-2.1057546,-1.5712408,2.4156585,-0.07443666,0.14663205,-0.16822577,0.027072404,-0.009474925,-0.093334936,-0.22984336,0.17238252,-9.155427,0.90527004,47.701214,-1.0866629,-1.7019744,-3.387144,-0.017206764,-0.060786307,-0.28930837,26.0625,26.8125,26.0625,28.9375,29.9375,30.375
0.17605358,-0.24487443,0.6926267,0.32864204,0.0040265894,0.016853508,-0.18384382,-0.38025162,-0.3281705,0.060101926,-3.0784976,0.62280434,0.00045837724,-0.08577324,0.003658076,0.0005979969,0.010126173,7.672966e-05,0.022033453,0.4418486,-1.4582933,1.9949054,-2.1057308,-1.571289,2.4154882,-0.07669596,0.14743327,-0.17120199,0.027988754,-0.009507119,-0.09859918,-0.11492168,0.17238252,-9.097966,0.9097417,47.67345,-0.9079598,-1.6319022,-3.332273,-0.011415658,-0.054774843,-0.22659534,26.0625,26.8125,26.0625,28.9375,29.9375,30.375
0.1780539,-0.102548055,0.4350397,0.33106944,0.00095025863,0.01890687,-0.1796764,-0.3804275,-0.32813635,0.06010604,-3.0784512,0.622716,0.00048203053,-0.086156435,0.0033320137,0.00049599883,0.010826517,-0.0005002287,0.027031947,0.44166893,-1.4580168,1.9945701,-2.1056464,-1.571349,2.4152596,-0.07611958,0.14929597,-0.17331393,0.02904923,-0.00990003,-0.10301925,-0.11492168,0.17238252,-9.078813,0.842603,47.66987,-1.1028116,-1.7429755,-3.440456,-0.005935205,-0.030772977,-0.16304214,26.0625,26.8125,26.0625,28.9375,29.9375,30.375
0.18005367,-0.187018,0.28232387,0.33920172,-0.010089495,0.030140733,-0.17406529,-0.38060474,-0.3281345,0.060105577,-3.0784566,0.6226977,0.00045269204,-0.086756535,0.004120031,-0.00049100345,0.011652296,-0.0031889698,0.026978202,0.4415001,-1.4577045,1.9942111,-2.1055858,-1.5713371,2.4150789,-0.07834116,0.15202461,-0.17438039,0.030167315,-0.009500288,-0.10518699,-0.2681506,0.13407528,-9.078813,0.8157518,47.658226,-0.9476309,-1.676138,-3.4238005,-0.0016687415,-0.058238048,-0.101139605,26.0625,26.8125,26.0625,28.9375,29.9375,30.375
0.18205337,-0.8493647,0.1624378,0.08277975,-0.0045540715,0.008468362,-0.16705994,-0.38075376,-0.3281109,0.060087282,-3.0784216,0.6225755,0.00035904374,-0.08799137,0.0042108917,0.00070328364,0.010636708,-0.0013753015,0.025036007,0.4413318,-1.4574052,1.9938992,-2.1054904,-1.571349,2.414839,-0.07964862,0.15122613,-0.17645445,0.030963458,-0.009369162,-0.10455095,-0.19153613,0.22984336,-9.193734,0.88960326,47.67345,-0.95462084,-1.5727482,-3.3671274,-0.009808289,-0.054159656,-0.08368337,26.0625,26.8125,26.0625,28.9375,29.9375,30.375
0.1840541,-0.1357758,0.6173679,-0.21840894,-0.009748504,0.029889861,-0.16458093,-0.38094905,-0.32812002,0.060116008,-3.0784473,0.6224867,0.00046712783,-0.089535885,0.0039684703,0.0011847204,0.010350551,-0.00089573924,0.021965941,0.44119948,-1.4571174,1.993503,-2.1054418,-1.5713848,2.4146483,-0.080554865,0.15331751,-0.18015927,0.032017846,-0.009314639,-0.1023857,-0.17238252,0.21068975,-9.289502,0.88960326,47.701214,-0.9407459,-1.5761681,-3.3627045,-0.0319881,-0.038427204,-0.07625332,26.0625,26.8125,26.0625,28.9375,29.9375,30.375
0.18605407,-0.43124667,0.18511848,-0.28720513,0.00052973867,0.029536828,-0.17506966,-0.3811058,-0.32811898,0.06009617,-3.0784416,0.6223936,0.00035120832,-0.090098314,0.0053996625,0.00030177922,0.010669413,-0.003772143,0.014466425,0.4410423,-1.4567814,1.9931563,-2.105358,-1.5713605,2.414434,-0.08429841,0.15474452,-0.18004467,0.03321436,-0.008379225,-0.098631,-0.30645782,0.11492168,-9.308657,0.8090337,47.64389,-0.8284273,-1.4775579,-3.4888802,-0.027243212,-0.074381605,-0.09963526,26.0625,26.8125,26.0625,28.9375,29.9375,30.375
0.18805368,-0.6129755,0.40961978,-0.34950972,-0.0045166686,0.03074075,-0.1713022,-0.38129315,-0.3280988,0.060095105,-3.078409,0.622367,0.00036603803,-0.08964668,0.0046488573,-0.0006879005,0.012077916,-0.0061024316,0.012903634,0.440863,-1.4564682,1.9927973,-2.1052973,-1.5713967,2.4142425,-0.08226215,0.15804921,-0.18174545,0.03431814,-0.008661411,-0.09503021,-0.30645782,0.19153613,-9.385271,0.8403672,47.690468,-0.8181409,-1.7548225,-3.515709,-0.03056274,-0.06590928,-0.13280232,26.0625,26.8125,26.0625,28.9375,29.9375,30.375
0.19005337,-0.098047905,0.729711,-0.4398011,-0.026396282,0.061515603,-0.17807116,-0.3814436,-0.32807982,0.060062032,-3.078338,0.6223562,0.0002132444,-0.090172976,0.005360853,-0.0021451074,0.014191238,-0.009344165,0.008344024,0.4406944,-1.45612,1.9924616,-2.105189,-1.5713967,2.4140763,-0.08364903,0.16218594,-0.18335329,0.035626065,-0.009202262,-0.09185427,-0.30645782,0.19153613,-9.461885,0.8560339,47.70032,-0.8785717,-1.5608962,-3.494576,-0.06597999,-0.05263987,-0.17089427,26.0625,26.8125,26.0625,28.9375,29.9375,30.375
0.19205403,-1.0473665,-0.16790439,-0.62223595,-0.022075742,0.053697143,-0.16120228,-0.38166714,-0.32807565,0.060106482,-3.0783691,0.62234604,0.0003662435,-0.092221305,0.0062653916,-0.0013544627,0.013553124,-0.008838175,0.0019083038,0.4405131,-1.4558442,1.9920424,-2.105141,-1.571433,2.413885,-0.087326445,0.16287535,-0.18632601,0.03717588,-0.008836482,-0.0890962,-0.3256114,0.21068975,-9.634268,0.91421866,47.664497,-0.6099351,-1.708477,-3.467369,-0.09292854,-0.088297,-0.21996239,26.0625,26.8125,26.0625,28.9375,29.9375,30.375
0.1940534,-0.8315437,-0.46607348,-0.6375791,-0.025409734,0.0598654,-0.17079477,-0.38183329,-0.32805198,0.060080007,-3.0782907,0.6223664,0.00021123212,-0.09115403,0.0054763253,-0.0030755375,0.0155378375,-0.012769519,0.004311324,0.44032213,-1.4554833,1.9916719,-2.1050088,-1.571433,2.413717,-0.0847785,0.16708563,-0.18740985,0.03845077,-0.008969134,-0.08894911,-0.4213795,0.22984336,-9.672575,0.8112748,47.68062,-0.83101046,-1.8009719,-3.5068173,-0.10381676,-0.07629521,-0.26925194,26.0625,26.8125,26.0625,28.9375,29.9375,30.375
0.19605368,-1.4002498,-0.44343996,-0.61236423,-0.036488716,0.05152029,-0.17399716,-0.3820154,-0.32805455,0.060085136,-3.0782628,0.6222857,0.0002119363,-0.0919973,0.005496935,-0.0035033824,0.016336503,-0.01444406,0.0014465962,0.44018984,-1.4551469,1.9912642,-2.104912,-1.5714687,2.4135382,-0.085505456,0.17018509,-0.19030449,0.040098965,-0.008984106,-0.08680948,-0.3256114,0.17238252,-9.615114,0.86498255,47.68062,-0.766266,-1.8941824,-3.4667785,-0.14418626,-0.07278276,-0.2986723,26.0625,26.8125,26.0625,28.9375,29.9375,30.375
0.19805376,-0.8965421,-0.09099912,-0.51008654,-0.043116655,0.055722352,-0.1721373,-0.38219896,-0.3280191,0.060077306,-3.0782108,0.6222556,0.00018537005,-0.093674,0.0047081513,-0.0025738643,0.015694126,-0.012315385,0.0006635843,0.439986,-1.4548348,1.9909161,-2.1048286,-1.571505,2.4133224,-0.08523411,0.17185217,-0.1943849,0.040310152,-0.009325409,-0.08575158,-0.36391866,0.19153613,-9.672575,0.8985519,47.670765,-0.84163725,-1.9648423,-3.5105448,-0.15590277,-0.045283277,-0.34425983,26.0625,26.8125,26.0625,28.9375,29.9375,30.375
0.20005347,-0.36853048,-0.0685587,-0.5304507,-0.022783972,0.054120865,-0.1716848,-0.38238814,-0.3280058,0.060055558,-3.0781791,0.622305,0.0001382097,-0.09408946,0.004055163,-0.0029568987,0.014977374,-0.011801937,0.0018978078,0.43979427,-1.4544748,1.9905576,-2.1047933,-1.571505,2.4131658,-0.084608115,0.17352825,-0.19501801,0.038493667,-0.008907931,-0.08635935,-0.2873042,0.30645782,-9.653421,0.9254084,47.657326,-0.9184841,-1.8983381,-3.5157413,-0.16365835,-0.09430581,-0.3531974,26.0625,26.8125,26.0625,28.9375,29.9375,30.375
0.2020541,-0.38669074,-0.19194265,-0.47440147,-0.022355381,0.04369043,-0.1730185,-0.38258898,-0.3280151,0.0600625,-3.078172,0.62224793,0.00016008319,-0.09506297,0.0037905478,-0.0020348202,0.014915105,-0.01005523,-0.00069416343,0.43965033,-1.4541156,1.9901255,-2.1047208,-1.5715288,2.4129875,-0.08445852,0.17360453,-0.1974426,0.03923688,-0.009599289,-0.08361528,-0.21068975,0.36391866,-9.615114,0.83589023,47.64927,-1.0370673,-1.8890754,-3.3815813,-0.16676852,-0.07231301,-0.44369113,26.0625,26.8125,26.0625,28.9375,29.9375,30.375
0.2040539,-0.2889212,-0.17216454,-0.6233881,-0.025683615,0.0375393,-0.16656265,-0.3827624,-0.32799628,0.060060415,-3.0781388,0.62225926,0.00012588553,-0.09517015,0.0034639274,-0.002146933,0.0153275505,-0.010322274,0.0014550365,0.4394705,-1.4538156,1.9897774,-2.1046374,-1.5715407,2.4128191,-0.08371512,0.17473438,-0.19859107,0.039669596,-0.00986706,-0.08501956,-0.15322891,0.3256114,-9.481039,0.8985519,47.67166,-1.1074929,-1.8997533,-3.5107753,-0.18763688,-0.074052334,-0.47967976,26.0625,26.8125,26.0625,28.9375,29.9375,30.375
0.20605358,-0.1069926,-0.3025593,-0.50993556,-0.02869848,0.02941558,-0.16864973,-0.38298294,-0.32799304,0.060064957,-3.078108,0.62221205,0.00016698004,-0.09649069,0.0033010705,-0.0019932697,0.01534483,-0.011070624,0.0033693253,0.43930233,-1.4534312,1.9893225,-2.1045644,-1.5715889,2.4126258,-0.084711954,0.17742467,-0.20241411,0.04147726,-0.009573229,-0.0879293,-0.076614454,0.36391866,-9.481039,0.82694155,47.64658,-1.0827887,-2.0276368,-3.5327315,-0.18733326,-0.068426915,-0.48244965,26.0625,26.8125,26.0625,28.9375,29.9375,30.375
0.20805317,0.38101578,-0.35705876,-0.44465262,-0.04140469,0.02986621,-0.17287695,-0.38317323,-0.32797965,0.06006085,-3.0780454,0.6221952,0.00012326846,-0.096659616,0.0038915833,-0.0026635842,0.017153053,-0.01298086,0.0096821645,0.43913412,-1.4530712,1.9889039,-2.1044447,-1.5716251,2.4124553,-0.08534701,0.17935306,-0.20344938,0.043072738,-0.010409398,-0.09487445,0.0,0.3256114,-9.519346,0.9254084,47.658226,-1.1564242,-1.8570541,-3.6179852,-0.24260607,-0.056649387,-0.4717179,26.0625,26.8125,26.0625,28.9375,29.9375,30.375
0.21005395,0.31485114,-0.3635188,-0.1761719,-0.04672662,0.02173223,-0.17594434,-0.38335136,-0.32795596,0.060041603,-3.0780199,0.622169,8.996396e-05,-0.098299414,0.0038909847,-0.0021865417,0.016017148,-0.010558998,0.0128432885,0.43894166,-1.4527478,1.9885796,-2.104409,-1.5716375,2.41225,-0.08671728,0.18002413,-0.20491485,0.041184176,-0.010428228,-0.099404134,0.019153614,0.28730422,-9.423578,0.86945957,47.640312,-1.1187562,-1.8411958,-3.4972777,-0.24892163,-0.071139514,-0.43018073,26.0625,26.8125,26.0625,28.9375,29.9375,30.375
0.21205401,0.39680612,-0.37710735,-0.010673306,-0.03965668,0.019258723,-0.17012697,-0.3835609,-0.32796496,0.060074087,-3.0780416,0.6219559,0.00013647483,-0.09934001,0.0033588079,-0.0018596358,0.01460939,-0.009662886,0.021194257,0.4387977,-1.4524118,1.9881009,-2.1042778,-1.5716728,2.4119706,-0.08717222,0.18120171,-0.20688991,0.04055433,-0.009547865,-0.10821077,0.05746084,0.3256114,-9.32781,0.8672237,47.664497,-1.1205664,-1.8350002,-3.5201247,-0.23549345,-0.074359536,-0.3794842,26.0625,26.8125,26.0625,28.9375,29.9375,30.375
0.21405378,0.3232708,-0.12286811,-0.15817222,-0.02447776,0.010655483,-0.17651975,-0.3837867,-0.3279681,0.06008774,-3.0780778,0.62188494,0.00017928318,-0.100462526,0.0033396645,-0.0012245402,0.0146529535,-0.009243286,0.025818098,0.43860525,-1.4520519,1.9876574,-2.1042292,-1.5716728,2.4117296,-0.08790598,0.1821925,-0.20988289,0.04218822,-0.009771019,-0.113566935,0.038307227,0.28730422,-9.32781,0.83813137,47.64389,-1.0654535,-1.6287057,-3.4404924,-0.2502923,-0.058136184,-0.2806003,26.0625,26.8125,26.0625,28.9375,29.9375,30.375
0.21605334,0.14117709,0.49021628,0.11118807,-0.018204035,0.0036018915,-0.16790684,-0.38398397,-0.3279556,0.060059406,-3.078032,0.6218728,0.00014114544,-0.10227087,0.002661282,0.00029743474,0.0128283,-0.0063880193,0.029249925,0.43842506,-1.4516567,1.9872736,-2.104193,-1.5716971,2.411548,-0.08845184,0.18230164,-0.21361727,0.042443175,-0.009349436,-0.1175432,0.019153614,0.2681506,-9.270349,0.8873621,47.652847,-1.1285297,-1.6012304,-3.3848758,-0.28616625,-0.07311553,-0.22725365,26.0625,26.8125,26.0625,28.9375,29.9375,30.375
0.2180532,0.8651386,0.7962679,-0.1154942,-0.008268855,0.0151824765,-0.16668639,-0.38415787,-0.32793903,0.060017683,-3.0779812,0.62178373,-3.7689882e-05,-0.10342415,0.0018524581,0.0003458734,0.011859352,-0.006166329,0.032282345,0.43823314,-1.4512488,1.9868897,-2.1040857,-1.5716842,2.411307,-0.08840684,0.18494508,-0.21671064,0.042274937,-0.0085933665,-0.12052913,0.076614454,0.24899697,-9.193734,0.87617236,47.642998,-1.1602933,-1.5788801,-3.4401484,-0.2815789,-0.09026241,-0.18695755,26.0625,26.8125,26.0625,28.9375,29.9375,30.375
0.22005427,0.72621864,0.74815595,-0.26281703,0.00092816935,0.010759093,-0.17488015,-0.38440838,-0.3279551,0.060079575,-3.0780466,0.6216645,0.00017324388,-0.10605247,0.0030414283,0.0011951467,0.011839151,-0.0036940991,0.028380517,0.43807584,-1.4509374,1.9863871,-2.1040266,-1.5717329,2.4110675,-0.09216378,0.18554215,-0.21931964,0.042036362,-0.009615571,-0.12038161,0.076614454,0.22984336,-9.308656,0.85826975,47.66539,-1.0386236,-1.526016,-3.4285827,-0.30459946,-0.08307544,-0.18324172,26.0625,26.8125,26.0625,28.9375,29.9375,30.375
0.2220542,0.39706358,0.5104235,-0.2962549,-0.0120038185,0.015420258,-0.16753523,-0.38458735,-0.3279581,0.060056753,-3.0780609,0.6214752,5.8284953e-05,-0.10570142,0.0016527892,0.00068146066,0.011703108,-0.0039885035,0.02828738,0.43790874,-1.450553,1.9859914,-2.1039426,-1.571709,2.4107807,-0.08938052,0.18775019,-0.22048849,0.041210014,-0.009379745,-0.117503986,0.038307227,0.21068975,-9.385271,0.86498255,47.666286,-1.2280265,-1.574586,-3.3129077,-0.30619603,-0.08507754,-0.18451622,26.0625,26.8125,26.0625,28.9375,29.9375,30.375
0.22405387,0.2647825,-0.16081199,-0.09675978,-0.017310621,0.032278307,-0.16452567,-0.3848142,-0.32793972,0.060084213,-3.0780385,0.62149394,8.041013e-05,-0.1079825,0.0023931938,0.00037125061,0.011737295,-0.0037661684,0.020200746,0.437692,-1.4502165,1.9855231,-2.1038115,-1.5717329,2.4105787,-0.09258843,0.19097285,-0.22329897,0.040612552,-0.00951015,-0.11262287,-0.095768064,0.22984336,-9.3661175,0.84708,47.666286,-1.2987592,-1.5996966,-3.2793074,-0.2944645,-0.103797,-0.24146104,26.0625,26.8125,26.0625,28.9375,29.9375,30.375
0.22605373,-0.32722032,0.09234428,-0.5004143,-0.03417957,0.03799158,-0.16320878,-0.38502097,-0.32794908,0.06007291,-3.0779998,0.6214862,2.6014512e-05,-0.1088691,0.0010798927,-0.00072287285,0.012315147,-0.0052041053,0.017987614,0.4375364,-1.449795,1.9850563,-2.1037152,-1.5717448,2.4104235,-0.09091726,0.19680084,-0.22732128,0.040355917,-0.009437222,-0.10873519,-0.24899697,0.28730422,-9.442732,0.8985519,47.666286,-1.1254573,-1.788105,-3.1904445,-0.30513763,-0.09065904,-0.28667003,26.0625,26.8125,26.0625,28.9375,29.9375,30.375
0.22805364,-0.50472754,-0.35858172,-0.5053918,-0.0418281,0.057040952,-0.1706473,-0.3851923,-0.32791507,0.060035925,-3.0778997,0.6213909,-9.587027e-05,-0.10927211,0.001862263,-0.0015569347,0.013716649,-0.0064314776,0.01542891,0.43735588,-1.4494113,1.9846853,-2.103596,-1.5717934,2.4101965,-0.09215414,0.19859001,-0.22750306,0.04045155,-0.010201988,-0.107410036,-0.22984336,0.3256114,-9.576807,0.9254084,47.686886,-1.2245036,-1.7900182,-3.301209,-0.33029976,-0.09450024,-0.32640725,26.0625,26.8125,26.0625,28.9375,29.9375,30.375
0.23005374,-0.7434807,-0.9702044,-0.45597798,-0.056312837,0.08027138,-0.16206059,-0.38541374,-0.32792878,0.06003259,-3.0779335,0.62118644,-0.000115857525,-0.109608084,0.002278311,-0.001441338,0.013042902,-0.005648186,0.014558865,0.43718752,-1.4489921,1.984208,-2.1035235,-1.571793,2.4098966,-0.09333076,0.19777147,-0.22671206,0.03948134,-0.009927645,-0.10771765,-0.28730422,0.30645782,-9.5385,0.91198283,47.686886,-1.2448479,-1.7477503,-3.475678,-0.32242107,-0.103983596,-0.337971,26.0625,26.8125,26.0625,28.9375,29.9375,30.375
0.23205335,-0.5410087,-1.0323386,-0.4373997,-0.05451211,0.08869244,-0.17260292,-0.3856427,-0.3279243,0.06004617,-3.0779374,0.62122494,-0.00012582901,-0.11099083,0.0019356861,-0.00082189334,0.0118001755,-0.0033175896,0.013767714,0.43697152,-1.4486207,1.9837402,-2.103429,-1.571781,2.4097044,-0.09391025,0.19832197,-0.22849633,0.038076703,-0.009796941,-0.107505046,-0.34476504,0.34476504,-9.653421,0.8806493,47.72002,-1.2893106,-1.707546,-3.5004754,-0.3192019,-0.099425726,-0.35741937,26.0625,26.8125,26.0625,28.9375,29.9375,30.375
0.23405394,-1.25076,-0.91814554,-0.65907407,-0.04694949,0.065559246,-0.15441832,-0.38584304,-0.3279448,0.06002556,-3.0779433,0.62116957,-0.00017050069,-0.111524805,0.0023534775,-0.0012847236,0.011767268,-0.0034146912,0.012342973,0.4368268,-1.4482012,1.9833101,-2.1033928,-1.5717691,2.4095247,-0.09513008,0.19926783,-0.22834098,0.037049595,-0.009731818,-0.1072999,-0.57460845,0.38307226,-9.595961,0.9612189,47.69763,-1.1048615,-1.7557957,-3.6957417,-0.29468036,-0.11505864,-0.39085376,26.0625,26.8125,26.0625,28.9375,29.9375,30.375
0.23605347,-1.0751987,-0.6867275,-0.3969003,-0.054141507,0.07420718,-0.16012603,-0.38608527,-0.32792327,0.06003194,-3.0779095,0.6211613,-0.00015317132,-0.11221584,0.0010950621,-0.0013510421,0.010767009,-0.0023391957,0.013891428,0.4365996,-1.4478052,1.9828309,-2.103298,-1.5718049,2.409297,-0.09361326,0.20153372,-0.23044254,0.0354802,-0.009291415,-0.10733079,-0.5554548,0.34476504,-9.481039,0.88289046,47.701214,-1.349135,-1.7125429,-3.7439883,-0.27506176,-0.12599975,-0.40493518,26.0625,26.8125,26.0625,28.9375,29.9375,30.375
0.23805426,-1.1082473,-0.41884172,-0.39851776,-0.035295796,0.07071446,-0.16189818,-0.38633984,-0.32792753,0.060053464,-3.077919,0.6211046,-3.3803324e-05,-0.11612087,0.0022141398,-0.0005397113,0.009245109,0.0007530839,0.01357507,0.43641746,-1.447409,1.9823278,-2.1032512,-1.5718526,2.4090786,-0.09904166,0.20359999,-0.23431155,0.033823714,-0.009231127,-0.11244085,-0.5554548,0.24899697,-9.423578,0.8717007,47.672558,-1.0491256,-1.6748669,-3.749805,-0.24866268,-0.13048199,-0.4175042,26.0625,26.8125,26.0625,28.9375,29.9375,30.375
0.24005395,-0.80689955,-0.26609638,-0.41347423,-0.015959786,0.072520755,-0.16933466,-0.3865457,-0.32791865,0.060036633,-3.0779018,0.6210212,-0.00013756898,-0.11680992,0.001100573,-0.00083392,0.009182014,0.001949011,0.020174198,0.43621433,-1.4470007,1.9818848,-2.103144,-1.5718411,2.4088259,-0.09719456,0.20628081,-0.23630947,0.032025393,-0.009701536,-0.11718923,-0.63206923,0.2681506,-9.442732,0.9254084,47.67793,-1.2858267,-1.6631393,-3.642951,-0.23806727,-0.13002981,-0.36917856,26.0625,26.8125,26.0625,28.9375,29.9375,30.375
0.24205329,-0.90338373,0.6614521,-0.016095975,-0.030335806,0.08710068,-0.17250331,-0.38679186,-0.32791087,0.060029414,-3.077908,0.6209224,-7.4616626e-05,-0.1188466,0.0011586885,-0.00066449225,0.008418918,0.002910837,0.025166143,0.43600968,-1.4465808,1.9814285,-2.103132,-1.5718769,2.408559,-0.099169284,0.20877668,-0.23944652,0.0314563,-0.009428847,-0.124154754,-0.6512229,0.24899697,-9.461885,0.9097417,47.64479,-1.2227904,-1.6880772,-3.6274605,-0.19810459,-0.1449121,-0.29477993,26.0625,26.8125,26.0625,28.9375,29.9375,30.375
0.24405418,-1.6991165,0.023980692,-0.30266234,-0.0047258046,0.07655564,-0.16056328,-0.3870169,-0.32793403,0.060048006,-3.0779533,0.62087184,-6.8482026e-05,-0.12148565,0.001400255,0.0003578308,0.0074534174,0.00493947,0.027990947,0.4358409,-1.446197,1.9809369,-2.103048,-1.5718526,2.4083533,-0.10183478,0.21037328,-0.24375683,0.03191789,-0.009420996,-0.12964296,-0.61291564,0.22984336,-9.385271,0.89631605,47.664497,-1.1087279,-1.6468096,-3.484189,-0.17222361,-0.13048679,-0.224011,26.0625,26.8125,26.0625,28.9375,29.9375,30.375
0.24605407,-0.7863774,1.0063926,-0.25501066,-0.015319553,0.0952623,-0.16876501,-0.3872925,-0.32792875,0.06005656,-3.077988,0.6207604,-1.283123e-05,-0.12303038,0.0016159225,0.0010446042,0.0074439524,0.006602281,0.032500397,0.43560052,-1.4457536,1.9804095,-2.103,-1.5718654,2.4080393,-0.1030111,0.21111672,-0.24631777,0.032215297,-0.010119479,-0.13532612,-0.5363012,0.15322891,-9.423578,0.9612189,47.658226,-1.0447562,-1.6172686,-3.48941,-0.14610179,-0.1578486,-0.14239147,26.0625,26.8125,26.0625,28.9375,29.9375,30.375
0.2480538,-0.5937046,0.8603265,0.17010824,-0.0117152985,0.09904874,-0.17028534,-0.38756067,-0.32791382,0.060050845,-3.0779514,0.6206767,9.341212e-05,-0.1254667,0.0014322964,0.0019208489,0.005925532,0.008594168,0.031874932,0.43539566,-1.4452978,1.9799064,-2.102976,-1.5719489,2.4077873,-0.105041765,0.21296506,-0.25044647,0.032032188,-0.009589676,-0.13673046,-0.61291564,0.038307227,-9.3661175,0.86945957,47.66808,-0.90932995,-1.5610776,-3.2701273,-0.11529583,-0.17292035,-0.14342195,26.0625,26.8125,26.0625,28.9375,29.9375,30.375
0.2500535,-1.3605906,0.94759953,-0.038197305,0.00971501,0.063792184,-0.1584399,-0.38781685,-0.32792115,0.060075328,-3.078015,0.62055737,0.00014149644,-0.12679228,0.0018812127,0.0027048972,0.0060569528,0.009393258,0.026874514,0.4351794,-1.4449024,1.9793905,-2.1029036,-1.571937,2.4074888,-0.106627785,0.21331075,-0.2530762,0.033653162,-0.010036905,-0.13331454,-0.7086837,0.05746084,-9.385271,0.84708,47.67166,-0.9126462,-1.5980372,-3.2359042,-0.088965125,-0.1615569,-0.12950036,26.0625,26.8125,26.0625,28.9375,29.9375,30.375
0.252054,-0.7035275,1.0677772,-0.18195418,0.015334582,0.070431285,-0.1521063,-0.38804436,-0.3279128,0.060055412,-3.077989,0.62049675,9.1606125e-05,-0.12685908,0.0024555356,0.0016190882,0.007891448,0.0069464375,0.021898262,0.4349752,-1.4444616,1.9789251,-2.1028316,-1.5719494,2.4072504,-0.10724423,0.21588711,-0.25384068,0.034838185,-0.01066948,-0.12895238,-0.6895301,0.19153613,-9.3661175,0.8717007,47.66271,-0.9131044,-1.5289102,-3.3131537,-0.07635973,-0.16284236,-0.16615918,26.0625,26.8125,26.0625,28.9375,29.9375,30.375
0.25405386,-0.69061726,0.55351067,-0.15152751,0.011627494,0.07363453,-0.16020557,-0.3882823,-0.32790068,0.060042717,-3.0779638,0.62047595,2.734806e-05,-0.1264518,0.003032018,0.0011727036,0.008601032,0.004691629,0.016409276,0.43474698,-1.4440185,1.9784349,-2.1027348,-1.5719494,2.4070127,-0.108069725,0.21623994,-0.25373688,0.036728647,-0.010359958,-0.12428979,-0.61291564,0.038307227,-9.404425,0.947788,47.672558,-0.85717845,-1.4232547,-3.3739853,-0.07672592,-0.16764665,-0.22195509,26.0625,26.8125,26.0625,28.9375,29.9375,30.375
0.25605398,-0.7281449,0.32635844,-0.14247479,-0.0012087071,0.075328946,-0.15959775,-0.38853973,-0.32787818,0.06003296,-3.0779235,0.620411,8.520721e-06,-0.12609604,0.003742442,9.32364e-05,0.011252336,0.0009026988,0.0114588775,0.43450692,-1.4435589,1.9779195,-2.1026385,-1.5719856,2.4067376,-0.10844668,0.21882556,-0.25499764,0.03995945,-0.011165371,-0.11971379,-0.4213795,0.05746084,-9.3661175,0.87617236,47.68599,-0.94172895,-1.4501014,-3.455188,-0.08124008,-0.16409242,-0.27168518,26.0625,26.8125,26.0625,28.9375,29.9375,30.375
0.2580538,-0.42558444,0.5242036,0.12637657,-0.014324753,0.07745637,-0.161065,-0.38881814,-0.32788724,0.060062926,-3.0779495,0.62041813,0.00018926439,-0.126643,0.0035288876,-0.0009619787,0.012310153,-0.00053644105,0.0088378005,0.43431485,-1.4431533,1.9773926,-2.102626,-1.5720333,2.406547,-0.10820463,0.2225826,-0.25685024,0.039803516,-0.011508819,-0.116849594,-0.45968673,0.038307227,-9.289502,0.86498255,47.65106,-0.9222455,-1.6810442,-3.5629368,-0.068205826,-0.16633016,-0.3396871,26.0625,26.8125,26.0625,28.9375,29.9375,30.375
0.26005366,-0.27208784,0.6083896,0.17417794,-0.012648431,0.07044408,-0.16670723,-0.38907793,-0.3278833,0.06005621,-3.077928,0.62039465,0.00019422655,-0.12724064,0.0027467613,-0.0018797566,0.01229397,-0.0011821878,0.0073131495,0.4340992,-1.4426849,1.9768656,-2.102555,-1.5720571,2.4063199,-0.10736795,0.22627054,-0.25870863,0.03855048,-0.011229898,-0.11448712,-0.26815057,0.05746084,-9.232041,0.8873621,47.66539,-0.9651003,-1.6653473,-3.5750751,-0.052987803,-0.18828276,-0.38700584,26.0625,26.8125,26.0625,28.9375,29.9375,30.375
0.26205334,0.22317128,0.59828794,-0.1613643,0.0026497634,0.052331533,-0.16392198,-0.38932642,-0.32787046,0.06004497,-3.077879,0.6204066,0.00012761772,-0.12995334,0.003853882,-0.00112117,0.012772846,-0.00016510239,0.0014754912,0.43386984,-1.4422172,1.9763383,-2.1024344,-1.57207,2.4061046,-0.1110734,0.22815111,-0.2630561,0.040298413,-0.012103616,-0.11235005,-0.11492168,0.076614454,-9.404425,0.93436235,47.701214,-0.8672541,-1.7681293,-3.5534987,-0.021554817,-0.17164719,-0.43918532,26.0625,26.8125,26.0625,28.9375,29.9375,30.375
0.26405355,0.5954646,0.97999203,0.010412335,0.0030155072,0.0208097,-0.15812898,-0.38955966,-0.32785228,0.059999187,-3.0778234,0.6202775,7.9752936e-05,-0.12962414,0.0025416806,-0.0009649001,0.012659078,-0.0003050678,0.0038274827,0.43366688,-1.4417259,1.9758824,-2.1023982,-1.5721177,2.4058285,-0.10838377,0.22932015,-0.26503783,0.041182697,-0.011952655,-0.11201113,-0.019153614,0.17238252,-9.2703495,0.95226496,47.66808,-1.0455995,-1.7579603,-3.5437627,-0.027570717,-0.16920826,-0.49308687,26.0625,26.8125,26.0625,28.9375,29.9375,30.375
0.2660531,0.82937104,0.1757966,-0.07359976,0.005393217,-0.010021597,-0.14685892,-0.38984528,-0.32783717,0.060018137,-3.0777917,0.62036747,0.00017735038,-0.13238873,0.003850072,-0.00095723587,0.013371486,-3.6088957e-05,0.002604252,0.4334254,-1.4412895,1.9753321,-2.1023266,-1.5721663,2.4056475,-0.11256069,0.232416,-0.26879153,0.041885603,-0.012718271,-0.114961274,0.0,0.2681506,-9.059659,0.8560339,47.667187,-0.7426417,-1.901211,-3.56489,0.0128333755,-0.18205985,-0.5279084,26.0625,26.8125,26.0625,28.9375,29.9375,30.375
0.268054,1.1048483,0.12739643,-0.2179497,-0.00883732,-0.02437099,-0.1643484,-0.39009574,-0.32784152,0.060023073,-3.0778136,0.62028915,0.00015403901,-0.13344103,0.0028622106,0.0005796205,0.012275446,0.0026310692,0.011676617,0.43320993,-1.44085,1.9748043,-2.1022303,-1.5721539,2.4053807,-0.11145284,0.23205036,-0.27219278,0.042758405,-0.012858906,-0.12292399,0.038307227,0.49799395,-9.059659,0.94331104,47.666286,-0.9415375,-1.8509923,-3.36489,0.027722333,-0.15444195,-0.50192213,26.0625,26.8125,26.0625,28.9375,29.9375,30.375
0.27005365,0.8259066,-0.67858493,-0.3093033,-0.018583918,-0.018166553,-0.15546155,-0.3903728,-0.3278125,0.060017593,-3.0777075,0.62024355,0.00016479685,-0.13418682,0.0027154293,0.0017475858,0.012211799,0.0034723992,0.0198028,0.432982,-1.4403473,1.9742182,-2.1020858,-1.5722502,2.4051383,-0.111512825,0.23165074,-0.2750888,0.045236487,-0.013171859,-0.13110794,0.05746084,0.53630114,-9.155427,0.9567419,47.689575,-0.9953471,-1.65058,-3.4632263,0.019198133,-0.14754857,-0.4284882,26.0625,26.8125,26.0625,28.9375,29.9375,30.375
0.27205336,0.3727341,-1.366805,-0.24753244,-0.05014577,0.005619261,-0.1542036,-0.3906442,-0.32778507,0.060009718,-3.0776575,0.62022567,0.00017671999,-0.13378812,0.002486966,0.0014935879,0.013052665,0.0010899559,0.03165414,0.43273035,-1.4398797,1.9736904,-2.102001,-1.5722984,2.4048822,-0.11079116,0.23305613,-0.27683654,0.04806491,-0.012949713,-0.14223763,-0.019153614,0.5554548,-9.289502,0.86945957,47.7451,-1.0792785,-1.6382484,-3.396721,0.015844334,-0.16666472,-0.3224892,26.0625,26.8125,26.0625,28.9375,29.9375,30.375
0.27405414,0.088764414,-1.4955772,-0.22442394,-0.08095092,0.03370982,-0.16014467,-0.390892,-0.3277746,0.05999849,-3.0776374,0.6201231,5.3953718e-05,-0.13377133,0.0023064844,0.0006470982,0.013580215,-0.0026851336,0.037293117,0.43249014,-1.4393997,1.9731396,-2.101844,-1.5722855,2.4045808,-0.111059606,0.23632489,-0.27934298,0.050936114,-0.011865774,-0.14814591,0.0,0.51714754,-9.251195,0.8806493,47.69763,-0.981658,-1.6139843,-3.376501,-0.01672218,-0.18041554,-0.2622277,26.0625,26.8125,26.0625,28.9375,29.9375,30.375
0.27605402,-0.08264673,-1.5632296,-0.3406384,-0.080780804,0.050792806,-0.16333508,-0.39116564,-0.32780403,0.06000743,-3.0776892,0.61990076,6.482389e-05,-0.13420995,0.0027130495,0.0007394454,0.0143017415,-0.00410716,0.040223025,0.4323099,-1.4388962,1.9725298,-2.1017478,-1.5722855,2.4042556,-0.11204517,0.23732057,-0.28138813,0.053570744,-0.011928239,-0.15206094,-0.038307227,0.63206923,-9.32781,0.91198283,47.670765,-1.1664627,-1.652797,-3.462801,-0.05630941,-0.17683294,-0.18508503,26.0625,26.8125,26.0625,28.9375,29.9375,30.375
0.2780539,-0.36502087,-1.3040885,-0.11340172,-0.085839815,0.064133056,-0.15478739,-0.3913987,-0.3277843,0.059976336,-3.077626,0.61981064,-7.796993e-05,-0.13360365,0.0025049024,0.0006173545,0.0138035985,-0.0061811893,0.039751448,0.43208194,-1.438405,1.9720143,-2.1016033,-1.5722975,2.4039798,-0.11190776,0.2374601,-0.2818252,0.05553516,-0.010623531,-0.15145463,-0.076614454,0.57460845,-9.385271,0.8717007,47.655537,-1.0717919,-1.5907196,-3.4882717,-0.083901584,-0.19783512,-0.16899802,26.0625,26.8125,26.0625,28.9375,29.9375,30.375
0.28005356,-0.1500372,-1.1313055,-0.24199145,-0.052886248,0.053672563,-0.15186466,-0.39168334,-0.32778603,0.059981216,-3.0776434,0.6196862,-1.3785282e-06,-0.1339811,0.0027945656,0.00010415871,0.0147609515,-0.008085038,0.030568425,0.43186557,-1.4379253,1.9714512,-2.101555,-1.5723337,2.403684,-0.11262066,0.23964064,-0.2836161,0.05728294,-0.010682195,-0.14298403,0.019153614,0.45968673,-9.289503,0.8918391,47.672558,-1.1336637,-1.5664772,-3.5264876,-0.11190335,-0.19735695,-0.22105315,26.0625,26.8125,26.0625,28.9375,29.9375,30.375
0.2820533,0.1558347,0.06099224,-0.28265846,-0.029391905,0.02801911,-0.14838476,-0.39198104,-0.32779357,0.059997864,-3.0776606,0.61963487,9.36031e-06,-0.13522626,0.00331646,0.000154537,0.015042187,-0.008116756,0.023320293,0.43162522,-1.4374217,1.9708174,-2.101435,-1.5723337,2.4034097,-0.11437122,0.24114321,-0.28571054,0.058029577,-0.010922026,-0.13748495,-0.05746084,0.36391866,-9.346964,0.9097417,47.67345,-1.1367425,-1.6843084,-3.540858,-0.12255222,-0.20912951,-0.27563173,26.0625,26.8125,26.0625,28.9375,29.9375,30.375
0.28405392,0.65631616,0.65045804,-0.066513166,-0.013404833,0.018894391,-0.15669966,-0.39223728,-0.327778,0.059953928,-3.077616,0.6195302,-0.000103250604,-0.13553697,0.0032297617,-0.00041291583,0.014689571,-0.009701514,0.020171696,0.43138507,-1.4368819,1.9702896,-2.1013515,-1.5723447,2.4031103,-0.11501001,0.24312577,-0.2868865,0.05851221,-0.009953522,-0.13497631,0.038307227,0.24899697,-9.251195,0.89631605,47.689575,-1.0685649,-1.6435032,-3.5811691,-0.12300216,-0.22227952,-0.34043044,26.0625,26.8125,26.0625,28.9375,29.9375,30.375
0.2860534,1.319267,1.3213995,-0.25608912,0.013663735,0.008222779,-0.16441618,-0.39251077,-0.3277697,0.0599561,-3.077607,0.61945134,-0.00012660578,-0.13714643,0.0029257962,-0.00070198404,0.015139668,-0.010354167,0.019377565,0.43114474,-1.4364014,1.9697145,-2.1012309,-1.572357,2.4028223,-0.1156166,0.24725927,-0.2912291,0.05949942,-0.01010364,-0.1347856,0.11492168,0.05746084,-9.251195,0.88960326,47.67345,-1.1035848,-1.7905803,-3.4994497,-0.13233171,-0.23499066,-0.36609137,26.0625,26.8125,26.0625,28.9375,29.9375,30.375
0.2880538,1.3799975,1.6449119,-0.37482953,0.026678855,-0.00082008797,-0.15922673,-0.39277846,-0.32775447,0.059938807,-3.077538,0.61947596,-0.00020034412,-0.13801411,0.0031266606,-0.0014422042,0.016402919,-0.012286837,0.01852217,0.4309047,-1.4358853,1.9691409,-2.1010988,-1.5723814,2.4026067,-0.11638372,0.25085837,-0.29406822,0.061019145,-0.010460526,-0.13469405,-0.019153614,0.076614454,-9.232041,0.92093146,47.70211,-1.0951755,-1.7947085,-3.410584,-0.16729608,-0.22198975,-0.38437498,26.0625,26.8125,26.0625,28.9375,29.9375,30.375
0.29005328,0.8639263,0.8554174,-0.30056727,0.03792756,0.009737962,-0.14903449,-0.39306936,-0.32778245,0.05996148,-3.0775695,0.6193282,-0.0001369637,-0.13937338,0.0032956037,-0.0013359892,0.01684288,-0.012822626,0.017889172,0.4307242,-1.4353809,1.9684943,-2.1009905,-1.5724052,2.4023304,-0.117628,0.25328162,-0.29756534,0.062758274,-0.01063972,-0.13530359,-0.095768064,0.038307227,-9.193734,0.95226496,47.672558,-1.0625641,-1.8524637,-3.467227,-0.19118279,-0.2511619,-0.40365246,26.0625,26.8125,26.0625,28.9375,29.9375,30.375
0.29205397,0.67456347,1.2020885,-0.50207996,0.01595553,0.031404976,-0.16404314,-0.39330864,-0.3277469,0.059929702,-3.0774648,0.6192865,-0.00031280055,-0.14005502,0.0041423584,-0.0011293574,0.017878404,-0.013114685,0.019824881,0.4304717,-1.4348779,1.9679545,-2.1007984,-1.57243,2.4020655,-0.11909996,0.25355294,-0.29884985,0.06446002,-0.011488999,-0.13870695,-0.05746084,0.17238252,-9.3661175,0.8985519,47.672558,-1.0442791,-1.9534512,-3.441235,-0.20021519,-0.25069565,-0.39994425,26.0625,26.8125,26.0625,28.9375,29.9375,30.375
0.29405373,-0.28694016,0.087852515,-0.30832988,-0.010760447,0.05237652,-0.15471396,-0.39360195,-0.32773027,0.059925992,-3.0774295,0.61921746,-0.00035815744,-0.1397324,0.00488339,-0.0021696468,0.01954322,-0.017790848,0.025496261,0.43020734,-1.4343503,1.9673332,-2.1006534,-1.5724534,2.401763,-0.12034204,0.2560789,-0.30033574,0.068343915,-0.0110698175,-0.1456211,-0.17238252,0.076614454,-9.423578,0.8918391,47.67793,-1.0098184,-1.9703023,-3.4954941,-0.26608285,-0.25855923,-0.33808845,26.0625,26.8125,26.0625,28.9375,29.9375,30.375
0.29605323,-0.8389156,-0.0791788,-0.19253951,-0.05174574,0.076073416,-0.16293775,-0.39389104,-0.32773137,0.059928752,-3.0774188,0.61907524,-0.00038158998,-0.14135726,0.003724464,-0.0015284799,0.018333348,-0.014200542,0.03470301,0.42997965,-1.4338225,1.9666971,-2.1005108,-1.5724772,2.4014482,-0.11919541,0.25765824,-0.30313557,0.065777175,-0.0115027465,-0.15367751,-0.19153613,0.038307227,-9.32781,0.9186956,47.653748,-1.0215998,-1.9893606,-3.4751635,-0.28961483,-0.26889804,-0.26029098,26.0625,26.8125,26.0625,28.9375,29.9375,30.375
0.29805338,-0.87123,-0.02552318,-0.23579814,-0.044164356,0.09500045,-0.15784185,-0.39413515,-0.32771266,0.059881568,-3.0773528,0.61894405,-0.0005795616,-0.14373724,0.0041617746,-0.00056877546,0.017342404,-0.010968965,0.039378427,0.42973858,-1.4332714,1.9661459,-2.1003559,-1.5724777,2.401134,-0.121580936,0.25807428,-0.30565006,0.06451088,-0.011998382,-0.16073373,-0.24899697,0.019153614,-9.519346,0.89631605,47.66987,-0.9299372,-1.9279108,-3.4315891,-0.30808532,-0.27383214,-0.14865421,26.0625,26.8125,26.0625,28.9375,29.9375,30.375
0.30005416,-1.151408,0.24481475,-0.328187,-0.038942747,0.10209555,-0.15425353,-0.39442357,-0.32773095,0.059903447,-3.0773883,0.61879385,-0.0005419804,-0.14319684,0.0037324615,-0.0007378009,0.017307878,-0.011571602,0.043694183,0.42953533,-1.4327803,1.9655122,-2.1002362,-1.5724891,2.400833,-0.120406516,0.2582403,-0.3056525,0.06486987,-0.01172079,-0.16387656,-0.47884035,0.05746084,-9.615114,0.92764956,47.687782,-1.1533782,-1.9338489,-3.574082,-0.3280999,-0.29021782,-0.098771945,26.0625,26.8125,26.0625,28.9375,29.9375,30.375
0.30205378,-0.7857696,0.13345279,-0.67689115,-0.021027962,0.1181413,-0.15653174,-0.3947094,-0.3277141,0.059897438,-3.0773666,0.61863905,-0.00062372204,-0.14514957,0.0035693957,-0.00058733433,0.016050367,-0.008039951,0.037996475,0.42927095,-1.4322528,1.9648904,-2.1000698,-1.572502,2.400475,-0.121409394,0.25960442,-0.3067695,0.06089357,-0.01206654,-0.15917836,-0.59376204,0.1340753,-9.672575,0.900793,47.629562,-0.986349,-1.7349148,-3.6043162,-0.30951554,-0.300955,-0.108783945,26.0625,26.8125,26.0625,28.9375,29.9375,30.375
0.30405346,-1.589292,0.517342,-0.56998533,-0.018348966,0.10386361,-0.1473562,-0.39498994,-0.3277149,0.05987957,-3.0773387,0.6185594,-0.00068901066,-0.14788198,0.0020961685,0.0010141847,0.012711406,-0.0013053018,0.033265468,0.42904305,-1.4317018,1.9642795,-2.0999515,-1.5725139,2.4002013,-0.121040724,0.26002967,-0.3099836,0.05617394,-0.011852257,-0.15407626,-0.6703765,0.05746084,-9.710882,0.9612189,47.681515,-1.1875273,-1.6743217,-3.6227214,-0.2643808,-0.32363802,-0.13836144,26.0625,26.8125,26.0625,28.9375,29.9375,30.375
0.3060541,-1.0317612,0.48472944,-0.54255676,-0.0148601355,0.117405236,-0.15568429,-0.39531672,-0.32770622,0.05989503,-3.077351,0.6184322,-0.00056087493,-0.14979702,0.0025513158,0.00039436133,0.0128848655,-7.8724035e-05,0.024122067,0.4287905,-1.4311861,1.9636458,-2.0998924,-1.572574,2.3998682,-0.122929655,0.26306614,-0.31157234,0.05368775,-0.012508066,-0.14681871,-0.7661445,0.095768064,-9.691729,0.91198283,47.67166,-1.076741,-1.7190394,-3.6331816,-0.2465323,-0.30824876,-0.22952068,26.0625,26.8125,26.0625,28.9375,29.9375,30.375
0.30805397,-0.9202096,0.508781,-0.6448674,-0.016699618,0.11021987,-0.15434282,-0.39560452,-0.3276944,0.05986676,-3.0773032,0.6184647,-0.00065288186,-0.1521866,0.0028836068,0.0012536428,0.0118506765,0.0033988105,0.015436687,0.42852604,-1.4306222,1.9630464,-2.099786,-1.572574,2.3996305,-0.12508789,0.26367345,-0.31396163,0.051888797,-0.013020858,-0.14028752,-0.7469909,0.11492168,-9.710882,0.92093146,47.64837,-1.0870811,-1.7164577,-3.6927164,-0.20655584,-0.31633914,-0.29900792,26.0625,26.8125,26.0625,28.9375,29.9375,30.375
0.31005406,-0.33411282,0.61852336,-0.52487886,-0.035781376,0.121095955,-0.1666339,-0.3959273,-0.32768783,0.05988807,-3.0772936,0.6184247,-0.00056569494,-0.15341836,0.0026570188,0.0006472147,0.01192025,0.0035634886,0.012967889,0.42827353,-1.4301063,1.9623874,-2.0996783,-1.5726222,2.3993547,-0.1254913,0.26692066,-0.31611204,0.05066611,-0.013151584,-0.13822056,-0.7661445,0.19153613,-9.691729,0.93436235,47.650166,-0.99087465,-1.8397675,-3.6430078,-0.17563349,-0.34333977,-0.38231772,26.0625,26.8125,26.0625,28.9375,29.9375,30.375
0.3120539,-0.43513322,0.44649202,-0.5413722,-0.04534773,0.10612451,-0.16700038,-0.39624,-0.32767394,0.059877224,-3.0772448,0.6183814,-0.000595828,-0.15567324,0.0039486825,0.00040035212,0.01258224,0.0044722874,0.004346824,0.4280085,-1.4295306,1.9617285,-2.0995467,-1.5726584,2.3990693,-0.12897272,0.26920405,-0.31809387,0.049818587,-0.014134384,-0.13307567,-0.6512228,0.21068975,-9.653421,1.0126908,47.667187,-0.9189627,-1.7364334,-3.615361,-0.15080252,-0.31818438,-0.46662128,26.0625,26.8125,26.0625,28.9375,29.9375,30.375
0.31405324,-0.79660845,-0.16605176,-0.6440965,-0.034455467,0.09713492,-0.1517586,-0.39655527,-0.3276705,0.05987568,-3.0772388,0.61835855,-0.00058952085,-0.15681304,0.0028589694,0.00060769246,0.012464002,0.0055458,0.0061074393,0.42774525,-1.4289786,1.9610828,-2.0994508,-1.5726708,2.398793,-0.12757313,0.2719931,-0.32186958,0.04977493,-0.014481735,-0.1334334,-0.5554548,0.30645782,-9.691729,0.90750587,47.675243,-0.9497515,-1.9302638,-3.6805925,-0.12049071,-0.3316195,-0.52969396,26.0625,26.8125,26.0625,28.9375,29.9375,30.375
0.31605408,-0.724561,-0.32255635,-0.6804064,-0.03811229,0.0964237,-0.15322,-0.39686486,-0.32767287,0.059881978,-3.0772378,0.6183354,-0.00054179016,-0.15693489,0.0029454373,-0.0012016265,0.014212095,0.0025553775,0.012380561,0.42750502,-1.4284502,1.9604486,-2.099367,-1.5726947,2.3985388,-0.1274674,0.27650705,-0.3230115,0.049830988,-0.014844191,-0.1395989,-0.49799395,0.24899697,-9.576807,0.87393653,47.64389,-0.99773836,-1.904155,-3.685062,-0.10124387,-0.33252946,-0.5072472,26.0625,26.8125,26.0625,28.9375,29.9375,30.375
0.3180537,-0.8687388,-0.3893492,-0.6791735,-0.044722818,0.0880934,-0.14963676,-0.39720154,-0.32765675,0.059896875,-3.0772295,0.6183078,-0.00047913968,-0.15870208,0.0027308417,0.00046789375,0.012552988,0.005373353,0.02096742,0.42721674,-1.4279114,1.9597772,-2.0992591,-1.5727309,2.3982348,-0.1286147,0.27581346,-0.32635352,0.050583556,-0.014523591,-0.14933345,-0.4213795,0.24899697,-9.672575,0.9365982,47.640312,-0.9938489,-2.0212743,-3.6338623,-0.081831396,-0.35232797,-0.44060296,26.0625,26.8125,26.0625,28.9375,29.9375,30.375
0.3200534,-0.03271522,0.046481162,-0.187017,-0.06946555,0.09733268,-0.16951394,-0.39751747,-0.32766384,0.059908543,-3.0772738,0.6181957,-0.00043743625,-0.16000871,0.002335383,0.0009765577,0.012564819,0.0066978494,0.032078255,0.42696488,-1.4273839,1.9591311,-2.0991752,-1.5727309,2.3979077,-0.12846933,0.27743322,-0.32958508,0.050970078,-0.015104597,-0.160296,-0.28730422,0.24899697,-9.5385,0.94331104,47.65912,-0.97306657,-1.8826067,-3.5153134,-0.053017974,-0.33843625,-0.33427423,26.0625,26.8125,26.0625,28.9375,29.9375,30.375
0.322054,0.42485544,0.028696885,-0.25336298,-0.05279493,0.083960555,-0.1665716,-0.39785495,-0.3276547,0.059890486,-3.0772312,0.6180096,-0.0004197441,-0.16095793,0.0024907894,0.0014885231,0.012310209,0.007713251,0.039491612,0.42671248,-1.4267486,1.9584249,-2.099068,-1.5728029,2.397545,-0.12926498,0.27764896,-0.3312586,0.051365852,-0.015317218,-0.16850337,-0.26815057,0.2681506,-9.461885,0.92764956,47.688675,-1.0056081,-1.9439441,-3.6265523,-0.04039918,-0.3593971,-0.23747852,26.0625,26.8125,26.0625,28.9375,29.9375,30.375
0.32405403,0.8003921,0.35434237,-0.4674393,-0.027743816,0.04976548,-0.15774417,-0.39820433,-0.32762235,0.05991542,-3.0772254,0.61800534,-0.000277553,-0.1617206,0.002257578,0.0029007436,0.011689373,0.009087768,0.043086004,0.42640048,-1.4262457,1.9577783,-2.0989945,-1.572863,2.3972316,-0.1293172,0.27665776,-0.33398548,0.05355303,-0.015315679,-0.1721506,-0.076614454,0.2681506,-9.481039,0.88960326,47.694946,-0.96624327,-1.6946661,-3.58384,-0.01805246,-0.35012674,-0.1870428,26.0625,26.8125,26.0625,28.9375,29.9375,30.375
0.32605347,0.8917785,0.50640345,-0.41924793,-0.027301032,0.022190215,-0.15390384,-0.39851314,-0.3276217,0.059896696,-3.0772102,0.61781484,-0.00026876535,-0.1609892,0.0033301294,0.001325982,0.014049992,0.0052021593,0.036939923,0.42617226,-1.4256582,1.9571327,-2.0989106,-1.5729107,2.3968868,-0.13018776,0.27861023,-0.3331556,0.055287465,-0.015846925,-0.16687372,-0.019153614,0.24899697,-9.346964,0.95002913,47.678825,-0.9791287,-1.6742342,-3.6516218,-0.023058169,-0.34741828,-0.18451002,26.0625,26.8125,26.0625,28.9375,29.9375,30.375
0.32805386,1.0765138,0.46706897,-0.17939696,-0.021662682,0.007909247,-0.14264074,-0.3988695,-0.3276334,0.05992908,-3.0772567,0.6177696,-0.00019379011,-0.16280548,0.0022988766,0.0023638927,0.012353824,0.008204349,0.030493643,0.4258963,-1.425095,1.9563893,-2.0987914,-1.5729107,2.3965771,-0.12986962,0.27991357,-0.33695224,0.054356594,-0.015530842,-0.1601093,0.0,0.19153613,-9.385271,1.0283576,47.677036,-0.9879834,-1.6737357,-3.6186295,0.017209457,-0.35935605,-0.22784725,26.0625,26.8125,26.0625,28.9375,29.9375,30.375
0.33005345,1.1565765,0.41942474,-0.11881116,-0.01174116,-0.0039229696,-0.14734477,-0.39920232,-0.32762071,0.059934016,-3.0772562,0.617696,-0.00013247805,-0.16571203,0.0023842088,0.004631911,0.010940766,0.012359823,0.0237674,0.42561966,-1.4245439,1.9557303,-2.098707,-1.5729474,2.396255,-0.13201727,0.27952984,-0.34211293,0.05553542,-0.015955418,-0.1555277,0.038307227,0.076614454,-9.32781,0.93436235,47.67166,-0.95316786,-1.7864842,-3.5908468,0.03129006,-0.36218923,-0.32477596,26.0625,26.8125,26.0625,28.9375,29.9375,30.375
0.33205414,1.347952,0.74814385,-0.24015936,-0.0058335857,-0.0009732898,-0.15300973,-0.39955717,-0.32761443,0.05995183,-3.0772636,0.61775285,-6.6247565e-05,-0.16521224,0.0020271437,0.0027645181,0.012732528,0.00652215,0.023858912,0.42532024,-1.4239792,1.9550232,-2.0986102,-1.5729588,2.3959906,-0.13130361,0.2849842,-0.34500957,0.059027087,-0.015166919,-0.15490752,0.17238252,0.11492168,-9.385271,0.9925471,47.684196,-1.0463543,-1.7404554,-3.4904928,0.054618813,-0.3714283,-0.35268402,26.0625,26.8125,26.0625,28.9375,29.9375,30.375
0.33405387,1.4680196,0.87818325,-0.3568888,-0.000994022,0.0064751524,-0.15823881,-0.39988604,-0.32759765,0.05996115,-3.0772336,0.61765236,-1.6669948e-05,-0.16637474,0.0030391929,0.0017686003,0.014365487,0.0037065935,0.02165019,0.42505518,-1.4234269,1.9543413,-2.098478,-1.5730189,2.395667,-0.13375396,0.2888218,-0.34774262,0.061148662,-0.01549522,-0.15514685,0.22984336,0.11492168,-9.385271,0.9768804,47.70032,-0.8473284,-1.8565587,-3.3939962,0.05040373,-0.37711966,-0.37861004,26.0625,26.8125,26.0625,28.9375,29.9375,30.375
0.33605358,0.90981615,0.7627959,-0.055457003,-0.008617711,0.014030406,-0.16023067,-0.40019745,-0.3276122,0.059970677,-3.077258,0.61758095,-3.2527725e-05,-0.16797052,0.0027729415,0.0028117585,0.013136362,0.005207817,0.019659843,0.42481497,-1.4228745,1.9536585,-2.098346,-1.5730065,2.3953795,-0.1347736,0.28949243,-0.35126695,0.0621271,-0.014998688,-0.15417638,0.095768064,0.21068975,-9.289503,0.92764956,47.685097,-0.94246966,-1.975815,-3.4309664,0.0692521,-0.40087837,-0.4067729,26.0625,26.8125,26.0625,28.9375,29.9375,30.375
0.33805314,0.35073036,0.24112548,-0.16199556,-0.0016148421,0.026100995,-0.15086713,-0.40055218,-0.32761997,0.059983112,-3.0772908,0.61748725,5.7318983e-05,-0.1674468,0.0038649302,0.0019744544,0.015295872,0.0006564639,0.025170717,0.42455053,-1.4222857,1.9529403,-2.0982716,-1.5730308,2.395053,-0.13611217,0.29105216,-0.35231596,0.06662965,-0.015087025,-0.16102687,0.05746084,0.2681506,-9.270349,0.95897776,47.672558,-0.86080396,-1.8475056,-3.4322777,0.040789902,-0.37513465,-0.3641556,26.0625,26.8125,26.0625,28.9375,29.9375,30.375
0.3400541,0.48516208,0.55585897,-0.4476617,-0.014446669,0.026979983,-0.15882099,-0.40086222,-0.3276036,0.059970442,-3.0772364,0.617316,-4.0987175e-05,-0.16435768,0.0048156013,-0.0007784673,0.0189232,-0.008475585,0.034332804,0.42428696,-1.4216845,1.9522356,-2.098067,-1.5730666,2.3946898,-0.1354265,0.29345396,-0.35010615,0.07180186,-0.014649734,-0.16950536,0.17238252,0.4213795,-9.289503,0.8873621,47.687782,-0.92338645,-1.9321864,-3.5863523,0.003739127,-0.4096904,-0.29022214,26.0625,26.8125,26.0625,28.9375,29.9375,30.375
0.3420541,-0.17640959,-0.24935435,-0.3858658,-0.03537595,0.017302161,-0.15037705,-0.40119067,-0.32757503,0.059987325,-3.0772107,0.61724776,-3.0877058e-05,-0.16382809,0.0052868226,-0.00078960886,0.021385819,-0.011116865,0.044160187,0.42398685,-1.4211553,1.9515532,-2.0978973,-1.5731033,2.3943508,-0.1349297,0.29410535,-0.35202354,0.07645923,-0.015825542,-0.17883204,-0.019153614,0.4213795,-9.461885,0.947788,47.687782,-0.91298664,-1.732974,-3.7356305,-0.04929147,-0.40496993,-0.15758601,26.0625,26.8125,26.0625,28.9375,29.9375,30.375
0.34405395,-0.16437986,-0.9431757,0.22052921,-0.056762207,0.029995868,-0.15589981,-0.40151706,-0.32756796,0.05998936,-3.0771794,0.61697084,4.278152e-06,-0.16424978,0.0063216994,-8.347507e-05,0.02223373,-0.012099114,0.04694222,0.42375836,-1.4205627,1.9508351,-2.097741,-1.5731872,2.3939538,-0.13677238,0.29326245,-0.3536753,0.080169186,-0.016207987,-0.18345544,-0.19153613,0.4213795,-9.193734,0.98807013,47.658226,-1.0001776,-1.7962601,-3.779133,-0.09876967,-0.41040802,-0.07910244,26.0625,26.8125,26.0625,28.9375,29.9375,30.375
0.3460533,0.35553247,-0.30721554,-0.12612571,-0.06375742,0.038257156,-0.16032223,-0.40185037,-0.32756805,0.059990335,-3.0771892,0.6168573,-2.8627348e-05,-0.16445372,0.005671447,0.00062307034,0.023342209,-0.012453499,0.04639865,0.42348316,-1.4199663,1.950117,-2.0975955,-1.5731872,2.393607,-0.13504353,0.2942889,-0.35742256,0.08367365,-0.017078668,-0.18117872,-0.2681506,0.38307226,-9.212888,0.9768804,47.65912,-1.1141948,-1.5276732,-3.7687144,-0.15099248,-0.38862324,-0.051589303,26.0625,26.8125,26.0625,28.9375,29.9375,30.375
0.34805343,0.33222413,-0.23599781,-0.24098869,-0.054698676,0.047064684,-0.15501131,-0.40217152,-0.32755756,0.059997156,-3.077152,0.61670107,-4.9232982e-05,-0.16598204,0.0059380685,0.0019990623,0.023231326,-0.011609051,0.037245538,0.42323053,-1.4193898,1.9493974,-2.0974033,-1.5732359,2.393262,-0.1364842,0.2944293,-0.36162266,0.08692634,-0.017325412,-0.17346346,-0.2681506,0.34476504,-9.385271,0.9791215,47.672558,-1.0229464,-1.4353206,-3.6738591,-0.22398207,-0.41111028,-0.11243196,26.0625,26.8125,26.0625,28.9375,29.9375,30.375
0.35005337,-0.20344028,0.5575491,0.011360594,-0.05246307,0.02820098,-0.15867996,-0.4025306,-0.32756433,0.060028434,-3.0771952,0.6166003,2.5693509e-05,-0.16752285,0.005610785,0.0023433752,0.023003472,-0.01195832,0.02761968,0.42295426,-1.4188198,1.9486426,-2.0972712,-1.5732473,2.3929176,-0.13723436,0.29726368,-0.36628473,0.08899477,-0.01695951,-0.16458783,-0.17238252,0.2681506,-9.442732,0.947788,47.667187,-0.99140406,-1.5872427,-3.4811964,-0.27008438,-0.40316123,-0.20488063,26.0625,26.8125,26.0625,28.9375,29.9375,30.375
0.35205334,0.00019614342,0.5815785,-0.005178547,-0.029880539,0.030378295,-0.15772627,-0.40284467,-0.32755008,0.060006686,-3.077125,0.6165878,-0.00010153754,-0.16867617,0.0065236627,0.00025234962,0.025587084,-0.015355557,0.0209184,0.4226778,-1.4181976,1.9479355,-2.0970795,-1.5732597,2.3926427,-0.13905971,0.3032895,-0.3687189,0.08957138,-0.017939787,-0.15970504,-0.26815057,0.22984336,-9.481039,0.8873621,47.6636,-0.955075,-1.6459882,-3.37345,-0.31175435,-0.39798898,-0.2896601,26.0625,26.8125,26.0625,28.9375,29.9375,30.375
0.35405505,0.30549297,1.0480188,0.23525785,-0.024009364,0.06035472,-0.1700935,-0.4031853,-0.32756138,0.06002823,-3.0771334,0.61649716,-9.661906e-05,-0.1692715,0.0063546235,-0.00037802136,0.024530847,-0.015175933,0.014725785,0.42242554,-1.4176087,1.9471701,-2.0969007,-1.5732712,2.3923333,-0.13966246,0.3048964,-0.3688143,0.08746868,-0.01705071,-0.15411785,-0.63206923,0.19153613,-9.404425,0.9567419,47.661808,-0.88394666,-1.7296365,-3.4542122,-0.33109158,-0.42739743,-0.38010913,26.0625,26.8125,26.0625,28.9375,29.9375,30.375
0.35605386,-0.47816044,0.5020873,-0.21965681,-0.0055686575,0.067196704,-0.16752528,-0.40354508,-0.32755053,0.060056645,-3.0771205,0.6163793,-1.6467073e-05,-0.17111227,0.006236768,-0.0005381959,0.0238222,-0.013003219,0.011176625,0.4221494,-1.4170313,1.9464048,-2.0967343,-1.5733317,2.3919857,-0.14063294,0.30725646,-0.37069702,0.08471338,-0.017303227,-0.15153724,-0.36391866,0.22984336,-9.442732,0.97464454,47.66987,-0.95337504,-1.6427383,-3.6030712,-0.33503228,-0.4316922,-0.45854425,26.0625,26.8125,26.0625,28.9375,29.9375,30.375
0.35805362,-0.68010116,0.24542502,0.092622615,-0.022300478,0.08813045,-0.17094825,-0.40387246,-0.32755062,0.060064398,-3.0771127,0.6163955,-6.321448e-05,-0.17208444,0.005947757,-0.0009896078,0.023566602,-0.011824382,0.0132401055,0.42187327,-1.4164544,1.9456867,-2.096567,-1.5733198,2.391721,-0.14057413,0.30933607,-0.37170935,0.08245898,-0.017574131,-0.15353966,-0.17238252,0.1340753,-9.423578,0.9791215,47.64389,-0.9477745,-1.7963681,-3.6402502,-0.3042894,-0.4315893,-0.50632507,26.0,26.8125,26.0625,28.9375,29.9375,30.375
0.36005336,-1.2545706,-0.28634775,0.7057699,-0.0546221,0.09886672,-0.17307693,-0.40421554,-0.32750332,0.06004424,-3.0769982,0.6163091,-0.00012574231,-0.17470407,0.005866768,-0.00046996074,0.02145195,-0.007494781,0.022043822,0.42156044,-1.4158169,1.9449548,-2.0963657,-1.5734037,2.3913693,-0.14246738,0.31056938,-0.37353146,0.07818385,-0.017475206,-0.16423379,-0.47884032,0.15322891,-9.193734,0.9791215,47.651955,-0.88786286,-1.6864772,-3.6830387,-0.29589987,-0.43418732,-0.44768268,26.0,26.8125,26.0625,28.9375,29.9375,30.375
0.36205342,-1.092116,0.2617798,0.71718174,-0.05519799,0.10664877,-0.17143786,-0.40458995,-0.32750773,0.060067903,-3.077024,0.61617076,-3.76745e-05,-0.17814586,0.0044799806,0.0012741475,0.01954767,0.0013256399,0.035238143,0.42128533,-1.4152042,1.944167,-2.096236,-1.57344,2.391005,-0.14136326,0.31158066,-0.37752134,0.072297126,-0.019388214,-0.17631538,-0.5554548,0.15322891,-9.097966,1.0149267,47.664497,-1.0640217,-1.5965362,-3.644248,-0.23753494,-0.43843845,-0.35146463,26.0,26.8125,26.0625,28.9375,29.9375,30.375
0.3640536,-1.1316314,0.73377764,0.30305135,-0.019750837,0.08575468,-0.17389815,-0.40491885,-0.3275038,0.060051657,-3.07703,0.61603296,-8.8115754e-05,-0.18029314,0.0037128762,0.0018201147,0.019537777,0.004561494,0.044154774,0.42100957,-1.4145906,1.9434713,-2.0961163,-1.5734404,2.390643,-0.14069706,0.31427783,-0.38171387,0.07081189,-0.020739855,-0.18455803,-0.2873042,0.076614454,-9.3661175,0.9388393,47.687782,-1.0840137,-1.674025,-3.50898,-0.18367061,-0.40709183,-0.22615668,26.0,26.8125,26.0625,28.9375,29.9375,30.375
0.36605707,-0.8472097,0.7729016,0.23414317,-0.0020700986,0.06179261,-0.16746317,-0.4053143,-0.32750157,0.060083278,-3.0770488,0.61593866,6.8491965e-05,-0.18245663,0.0032339324,0.0021791132,0.018646562,0.008099329,0.047338583,0.4207213,-1.4139773,1.9426693,-2.0960095,-1.5735005,2.3902938,-0.14100175,0.3163516,-0.38442358,0.067830324,-0.02137703,-0.1880443,-0.34476504,0.13407528,-9.423578,0.94331104,47.679718,-1.1004199,-1.5643392,-3.4978366,-0.14823909,-0.40924776,-0.1423131,26.0,26.8125,26.0625,28.9375,29.9375,30.375
0.36808905,-0.48363137,0.85214114,0.24859312,-0.014208755,0.06645872,-0.16047591,-0.40566117,-0.32750532,0.06008012,-3.0770745,0.6157745,4.80645e-05,-0.18387228,0.0027561267,0.0021225093,0.01734224,0.010169624,0.04265457,0.4204452,-1.4133519,1.9419268,-2.0958788,-1.5735005,2.3899124,-0.14134176,0.31813964,-0.38593012,0.06513233,-0.021034844,-0.18370013,-0.842759,0.28730422,-9.32781,1.0149267,47.687782,-1.1891016,-1.6319038,-3.5837235,-0.085231595,-0.41201487,-0.15774173,26.0,26.8125,26.0625,28.9375,29.9375,30.375
0.3700596,-0.792539,0.64952517,0.09047047,-0.030044721,0.060429797,-0.16273232,-0.40601784,-0.32749927,0.06009918,-3.0770261,0.615613,0.00013019647,-0.18296292,0.0026451484,0.0014978086,0.019176394,0.008615803,0.037057765,0.42020586,-1.4127398,1.9411377,-2.095699,-1.5735973,2.3895788,-0.13958453,0.3189817,-0.3859574,0.066487715,-0.022057736,-0.17634298,-0.6703765,0.30645782,-9.32781,0.9992599,47.684196,-1.1914762,-1.3749471,-3.6117635,-0.07122577,-0.38996676,-0.2289409,26.0,26.8125,26.0625,28.9375,29.9375,30.375
0.37205845,-0.8802609,-0.045196548,-0.12695694,-0.05784294,0.08072871,-0.16825889,-0.40638936,-0.32746947,0.060089163,-3.0769691,0.61554754,0.00010366938,-0.18476202,0.0037855178,0.0020167553,0.020408753,0.00921203,0.0293679,0.41988063,-1.4120781,1.94036,-2.0955303,-1.5736455,2.3892205,-0.14204155,0.32013714,-0.38911438,0.06845293,-0.023426963,-0.17110324,-0.7278373,0.34476504,-9.500193,1.048496,47.698532,-1.0889615,-1.506988,-3.7293286,-0.052326247,-0.36769083,-0.30534196,26.0,26.8125,26.0625,28.9375,29.9375,30.375
