Tylouw/Master_Thesis_Code/training_data/batch_1/big_rod_t0.2/sample_98_session_4.csv
timestamp[s],tcp_force_x[N],tcp_force_y[N],tcp_force_z[N],tcp_force_rx[Nm?],tcp_force_ry[Nm?],tcp_force_rz[Nm?],tcp_pose_x[m],tcp_pose_y[m],tcp_pose_z[m],tcp_pose_rx[rot_vec_x],tcp_pose_ry[rot_vec_y],tcp_pose_rz[rot_vec_z],tcp_velo_x[m/s],tcp_velo_y[m/s],tcp_velo_z[m/s],tcp_velo_rx[rot_vec_x/s],tcp_velo_ry[rot_vec_y/s],tcp_velo_rz[rot_vec_z/s],q1[rad],q2[rad],q3[rad],q4[rad],q5[rad],q6[rad],qd1[rad/s],qd2[rad/s],qd3[rad/s],qd4[rad/s],qd5[rad/s],qd6[rad/s],tool_acc_x,tool_acc_y,tool_acc_z,current_of_whole_robot[A],voltage_of_whole_robot[V],current_J1[A],current_J2[A],current_J3[A],current_J4[A],current_J5[A],current_J6[A],temp_J1[C],temp_J2[C],temp_J3[C],temp_J4[C],temp_J5[C],temp_J6[C]
8.0198515e-07,-0.18223204,-0.41958752,0.3894479,-0.024680475,0.024969596,-0.022408143,-0.37288898,-0.32820538,0.059938952,-3.0784757,0.62496126,-0.00031880927,0.0032552555,0.0015758319,-0.0045592724,0.004910652,-0.010452999,-2.562244e-06,0.4481022,-1.4708728,2.009596,-2.1076906,-1.5706376,2.4230795,-8.4342195e-05,0.0048108962,0.0047148154,0.002022423,0.000117546646,-8.466425e-05,0.038307227,0.22984336,-8.90643,0.7620334,47.74868,-0.21553224,-2.929833,-2.4749627,-0.49988437,0.06457641,-0.1229924,27.25,28.375,27.4375,31.0,32.75,33.4375
0.002052146,-0.4065537,-0.66011196,0.1998366,-0.005388959,0.009852266,-0.025602033,-0.37287995,-0.32821795,0.059927225,-3.0784602,0.624881,-0.00032128702,-0.00058972405,-0.00028369203,-0.002985225,-0.00069056835,0.0011381888,1.9380807e-06,0.44815025,-1.4708369,2.0095847,-2.1076949,-1.5706614,2.4230795,-8.27905e-05,0.0046326206,0.004047082,-0.010005162,0.00011504235,-8.368026e-05,0.038307227,0.21068975,-8.983045,0.73741806,47.71286,-0.18031532,-2.843524,-2.256158,-0.46495515,0.051641516,-0.11734083,27.25,28.375,27.4375,31.0,32.75,33.4375
0.004052687,-0.31155688,-0.44895566,-0.04504141,0.0011220549,0.009185059,-0.019190103,-0.37289327,-0.32821807,0.05993901,-3.0785248,0.624894,-0.00027807438,-0.0016173224,-0.0007803615,-0.002509084,-0.0024528229,0.0047908304,-1.5486026e-05,0.44811413,-1.470873,2.0096085,-2.1077445,-1.5706257,2.4230433,-8.129493e-05,0.0041476516,0.004378228,-0.013906857,0.00011264246,-6.387105e-05,-0.019153614,0.17238252,-8.944737,0.7172743,47.71823,-0.17460716,-2.9990993,-2.594068,-0.3649138,0.05927135,-0.12866724,27.25,28.375,27.4375,31.0,32.75,33.4375
0.006052711,-0.26839116,-0.1820595,-0.06286769,0.011334247,-0.010594706,-0.022335703,-0.37289298,-0.3282091,0.059907835,-3.078485,0.624809,-0.0002378469,-0.000574329,-0.00027557043,-0.00215491,-0.0010617124,0.001925346,-1.8754916e-05,0.4481382,-1.4708256,2.0096438,-2.1078136,-1.5706857,2.4230194,-7.985242e-05,0.0029736932,0.0037049279,-0.0088743,0.00011034066,-6.042781e-05,-0.038307227,0.1340753,-9.002198,0.7553206,47.72719,-0.15356037,-3.0553882,-2.5599947,-0.38065088,0.054331653,-0.12089876,27.25,28.375,27.4375,31.0,32.75,33.4375
0.008052807,0.34826902,0.20693186,-0.3439507,0.0456151,-0.025210023,-0.020984184,-0.37287748,-0.32819757,0.059889153,-3.0784488,0.62489843,-0.00033753758,0.00025580396,0.00012613741,-0.0017929098,0.00019026245,-0.0006539756,-1.9267292e-05,0.44811413,-1.470814,2.009668,-2.1077883,-1.5706614,2.4230556,-7.846018e-05,0.0021285124,0.002732566,-0.0041896417,0.000108131164,-5.9460494e-05,0.05746084,0.19153613,-9.002198,0.7172743,47.72719,-0.20316815,-2.9756198,-2.5304148,-0.41794822,0.06539636,-0.11334082,27.25,28.375,27.4375,31.0,32.75,33.4375
0.010052556,0.5022852,1.1128179,-0.67298806,0.050595667,-0.030851953,-0.027525762,-0.37287667,-0.32821,0.059893228,-3.0784566,0.62486136,-0.00033686374,0.00032084846,0.00016307096,-0.0013788788,0.00040584904,-0.0010923354,-2.892561e-05,0.4481382,-1.4708021,2.0096428,-2.1077754,-1.5706614,2.4230556,-8.7266584e-05,0.0016958497,0.001844908,-0.002380828,0.00010600834,-5.8674206e-05,-0.019153614,0.15322891,-9.193734,0.6926589,47.694054,-0.47680596,-2.263688,-3.161678,-0.44474667,0.04389274,-0.16098094,27.25,28.375,27.4375,31.0,32.75,33.4375
0.012052373,0.15452838,0.43041468,-0.91006875,0.03690044,-0.021426184,-0.026618399,-0.37288073,-0.3282184,0.05989838,-3.0784762,0.62486494,-0.0003889608,0.0003669038,0.0002801425,-0.004448209,0.003386254,-0.0072572837,-0.0001749038,0.4481261,-1.4707876,2.009607,-2.1077397,-1.5706257,2.4230433,-0.00025975224,0.009578867,6.7216875e-05,-0.0016385273,8.89104e-05,-8.304756e-05,0.019153614,0.05746084,-9.346964,0.69937176,47.734352,-0.61741316,-2.288793,-3.346424,-0.43434244,0.03214994,-0.21690631,27.25,28.375,27.4375,31.0,32.75,33.4375
0.014052539,-0.46316627,-0.2756041,-1.0087665,0.0037588337,-0.00020535092,-0.030462928,-0.37287363,-0.32818156,0.05986492,-3.0783634,0.6248816,-0.0004235485,-0.005919306,-2.01271e-05,-0.0032658998,0.002080508,-0.0045911917,-0.0010393271,0.44811204,-1.4707485,2.009638,-2.1077273,-1.5706977,2.423054,-0.005420171,0.017632483,-0.011629687,-0.0009646786,8.515109e-05,-0.004370928,-0.019153614,0.17238252,-9.5385,0.7530795,47.72092,-0.49443254,-2.8221526,-2.9758668,-0.44587934,0.045861218,-0.2352624,27.25,28.375,27.4375,31.0,32.75,33.4375
0.016052254,-1.3252716,-0.98324466,-1.1634084,-0.037121803,0.029198335,-0.0343398,-0.37286738,-0.3281976,0.05985926,-3.0783813,0.62482446,-0.00050495943,-0.006117174,0.0013242876,-0.003972573,0.003082371,-0.006637276,0.0028139474,0.4481233,-1.4707125,2.0096033,-2.107691,-1.5706614,2.4230273,-0.008118458,0.018210934,-0.010855119,-4.0366325e-05,6.8936715e-05,-0.010923109,-0.24899697,0.28730422,-9.634268,0.6859408,47.71017,-0.3025195,-2.696824,-3.1369975,-0.4328103,0.042325232,-0.17222747,27.25,28.375,27.4375,31.0,32.75,33.4375
0.018051803,-1.5384809,-1.8100808,-1.2015406,-0.07549819,0.077788256,-0.03563491,-0.3728683,-0.3281962,0.059852358,-3.0783684,0.62478244,-0.0005792082,-0.00447363,0.001514307,-0.0046946276,0.0046822485,-0.009940973,0.0044590794,0.44811168,-1.4706767,2.0095685,-2.107642,-1.5706495,2.422991,-0.006978016,0.018197032,-0.009779854,0.0025690321,6.567007e-05,-0.011429216,-0.47884035,0.34476504,-9.80665,0.72622824,47.70659,-0.42328277,-2.3677561,-3.4967103,-0.43629992,0.021514531,-0.15491217,27.25,28.375,27.4375,31.0,32.75,33.4375
0.020052582,-1.8797302,-2.2716093,-0.9157648,-0.08828578,0.10598581,-0.05154756,-0.37288913,-0.32819998,0.059854317,-3.078372,0.6248411,-0.00054811966,-0.00536014,0.0010250667,-0.0042074663,0.0048431912,-0.010279155,0.004756526,0.44809982,-1.470652,2.0095422,-2.1076653,-1.5706495,2.4230154,-0.006865235,0.020057457,-0.013432488,0.0047357427,6.4364656e-05,-0.011612026,-0.47884035,0.40222588,-9.825804,0.75755644,47.72719,-0.6137329,-2.4495869,-3.4966516,-0.47026202,0.008410948,-0.173864,27.25,28.375,27.4375,31.0,32.75,33.4375
0.022052424,-2.416161,-1.948163,-1.2448243,-0.0664907,0.09301299,-0.05538008,-0.37287894,-0.32817146,0.059805077,-3.0782773,0.6248594,-0.00070184417,-0.006623977,0.00093124126,-0.00441342,0.0047957967,-0.010166029,0.005138414,0.4480635,-1.4705672,2.0095541,-2.10763,-1.5706614,2.4230025,-0.007830743,0.022603307,-0.015650151,0.0042847637,4.9488255e-05,-0.01295753,-0.57460845,0.4405331,-9.768343,0.7172743,47.72271,-0.65873086,-2.456711,-3.4217687,-0.47479516,0.0025493081,-0.18093525,27.25,28.375,27.4375,31.0,32.75,33.4375
0.024052195,-2.0329256,-1.4881499,-1.3268518,-0.044997286,0.08029391,-0.072664954,-0.3729189,-0.32819268,0.059827637,-3.0783465,0.624836,-0.00063361047,-0.008539537,0.0012112887,-0.0036550707,0.003651049,-0.007611306,0.003894154,0.44805083,-1.4705433,2.0094817,-2.1076543,-1.5706376,2.4229665,-0.010044536,0.022854406,-0.017360438,0.00294595,-3.1940493e-05,-0.013925428,-0.61291564,0.47884035,-9.787497,0.7396539,47.705692,-0.65295887,-2.3823862,-3.4920506,-0.45952028,-0.005011986,-0.19912462,27.25,28.375,27.4375,31.0,32.75,33.4375
0.026052484,-2.0527298,-1.2972838,-1.046639,-0.032587666,0.04834148,-0.07833251,-0.37291846,-0.3281922,0.05979886,-3.0783155,0.6248106,-0.0007070963,-0.009936495,0.0012852333,-0.002612243,0.0023815802,-0.004929599,0.0037801974,0.44805035,-1.4704716,2.0094693,-2.1076548,-1.5706376,2.422954,-0.011437924,0.022029322,-0.018654477,0.002098035,-5.5856348e-05,-0.015203913,-0.5363012,0.3256114,-9.691729,0.73069996,47.696735,-0.67453825,-2.2955236,-3.4781215,-0.42994785,-0.0016361731,-0.20320645,27.25,28.375,27.4375,31.0,32.75,33.4375
0.028052421,-1.539568,-0.7403121,-1.0320649,-0.028856298,0.039172307,-0.10458592,-0.3729348,-0.32820007,0.0597854,-3.078309,0.62476975,-0.00073703926,-0.011378722,0.000837708,-0.0020970108,0.0016577151,-0.0033943455,0.00432294,0.4480502,-1.4703991,2.0094206,-2.1076548,-1.5706376,2.4229293,-0.011895333,0.02353312,-0.021378474,0.0016208699,-7.643668e-05,-0.016202006,-0.7278373,0.34476504,-9.730036,0.7172743,47.688675,-0.74126685,-2.3169756,-3.4966493,-0.4239722,-0.027178094,-0.2073336,27.25,28.375,27.4375,31.0,32.75,33.4375
0.030052193,-1.4258809,-0.5326129,-0.9533542,-0.014390792,0.05262034,-0.11219925,-0.37297964,-0.3282172,0.059813272,-3.0783846,0.62474793,-0.0006553781,-0.013151362,0.0010176167,-0.0020176433,0.0013447374,-0.002700253,0.0034505476,0.44802544,-1.4703864,2.0093482,-2.1076787,-1.5706137,2.4228814,-0.013829863,0.025787804,-0.023928463,0.0011553637,-0.00010086588,-0.017262071,-0.7086837,0.22984336,-9.730036,0.779936,47.690468,-0.72242665,-2.4446871,-3.4522607,-0.41357827,-0.0418518,-0.20662063,27.25,28.375,27.4375,31.0,32.75,33.4375
0.032052025,-1.5530039,-0.47279677,-0.9142782,-0.0005855685,0.059585277,-0.12779275,-0.37301636,-0.32817268,0.059798297,-3.0782878,0.62474704,-0.00063420384,-0.0146927405,0.0009937384,-0.0015090967,0.0011517898,-0.0012677948,0.003263899,0.44796515,-1.4703262,2.009311,-2.1076548,-1.5706977,2.422833,-0.01487912,0.027104855,-0.026517529,0.0010527023,-0.00055467425,-0.01812192,-0.47884035,0.1340753,-9.730036,0.7284641,47.703007,-0.7668917,-2.3468306,-3.473871,-0.37791058,-0.048113964,-0.18512905,27.25,28.375,27.4375,31.0,32.75,33.4375
0.034052,-1.4477879,0.15070389,-0.7737402,0.011092077,0.06714679,-0.14987691,-0.3730503,-0.32818013,0.059795268,-3.0783002,0.6247317,-0.0006456335,-0.016329719,0.0015083788,-0.0007763296,0.0014136229,-0.00020931607,0.0012595013,0.44794047,-1.470254,2.0092385,-2.1076543,-1.5706862,2.4227972,-0.016862465,0.027829994,-0.029265605,0.0022377055,-0.0012522875,-0.018097974,-0.4405331,0.05746084,-9.576807,0.73741806,47.716442,-0.67925155,-2.3477037,-3.3986201,-0.37196034,-0.05431298,-0.18040217,27.25,28.375,27.4375,31.0,32.75,33.4375
0.036052164,-1.1003073,0.62586886,-0.6205527,0.024598382,0.05730933,-0.17130934,-0.37309107,-0.3282021,0.059808914,-3.0783367,0.62475836,-0.00062299473,-0.016829165,0.0018012506,-0.00030775933,0.0029792024,-0.00011287186,0.00093205384,0.44792846,-1.470194,2.0091412,-2.1076534,-1.5706624,2.4227972,-0.01688313,0.028268445,-0.031329356,0.00445983,-0.0027036935,-0.017787555,-0.51714754,-0.019153614,-9.557653,0.779936,47.74331,-0.7020007,-2.269205,-3.380413,-0.39866984,-0.03492979,-0.17395976,27.25,28.375,27.4375,31.0,32.75,33.4375
0.038052127,-0.79930824,0.61815375,-0.6953251,0.041807685,0.04420802,-0.17354092,-0.37312272,-0.3281748,0.05979514,-3.0783186,0.6248323,-0.00069141167,-0.01769496,0.0016543552,-0.00020274032,0.002673721,-0.0002816725,-0.00023401772,0.44783217,-1.4701456,2.009117,-2.107641,-1.5706385,2.4227493,-0.01762593,0.02980135,-0.033375036,0.004991463,-0.0023588787,-0.017363606,-0.30645782,-0.076614454,-9.5385,0.75755644,47.737038,-0.6852451,-2.230106,-3.4366765,-0.39617783,-0.044791542,-0.19558936,27.25,28.375,27.4375,31.0,32.75,33.4375
0.04005192,-0.71547574,0.4192264,-0.7735459,0.045641255,0.027666757,-0.18113725,-0.3731491,-0.32818335,0.05976763,-3.0782752,0.62482363,-0.0007540743,-0.018972753,0.001296493,-0.0001743604,0.001898087,0.00029304327,-0.0008588838,0.44783193,-1.470013,2.009032,-2.10763,-1.57065,2.4227493,-0.018415159,0.031935062,-0.03561477,0.0042417604,-0.0019161742,-0.017526902,-0.19153613,-0.17238252,-9.423578,0.7150385,47.70659,-0.67607164,-2.2635846,-3.3735454,-0.37402567,-0.05379072,-0.20346469,27.25,28.375,27.4375,31.0,32.75,33.4375
0.042051777,-0.9816556,-0.108830385,-0.7970269,0.040342484,0.0022536898,-0.18307537,-0.3731947,-0.32819057,0.05978137,-3.0783024,0.62484777,-0.00072029367,-0.01994863,0.0008149849,0.00027955216,0.0011853179,0.0015717797,0.00013370984,0.44779596,-1.4699649,2.0089476,-2.10763,-1.5706381,2.422725,-0.018451542,0.032882053,-0.03759999,0.0038184181,-0.0018325989,-0.018554665,-0.19153613,-0.21068975,-9.442732,0.77545905,47.716442,-0.68048847,-2.2346697,-3.3478224,-0.3384478,-0.060495093,-0.18875842,27.25,28.375,27.4375,31.0,32.75,33.4375
0.044052564,-0.88069975,-0.15578225,-0.64240354,0.020329328,-0.0043416354,-0.19289337,-0.3732441,-0.32816693,0.059774183,-3.0782547,0.62483793,-0.00066404534,-0.021264868,0.0009374419,0.0010084418,0.0009259488,0.002644658,-0.00015861163,0.44774753,-1.4698927,2.0088875,-2.107641,-1.5706986,2.4226766,-0.019717013,0.033420935,-0.04005621,0.0046557984,-0.0020672237,-0.019526003,-0.1340753,0.0,-9.519346,0.7911258,47.734352,-0.69014335,-2.1408916,-3.4382734,-0.32170898,-0.09006463,-0.1922468,27.25,28.375,27.4375,31.0,32.75,33.4375
0.04605185,-0.24457768,-0.71966296,-0.92059624,0.019919839,0.018497305,-0.19440019,-0.37326485,-0.32817477,0.0597776,-3.0782661,0.62489825,-0.0007403301,-0.021671858,0.001763737,0.000764647,0.0031927559,0.0011852977,-0.0005206385,0.4477111,-1.4698443,2.0088155,-2.1075928,-1.5706509,2.4226763,-0.020684727,0.034833543,-0.041605115,0.00709479,-0.0034774486,-0.020128142,-0.05746084,0.076614454,-9.5385,0.80679786,47.739727,-0.67067844,-2.099314,-3.4005318,-0.329853,-0.072042726,-0.18052301,27.25,28.375,27.4375,31.0,32.75,33.4375
0.048052683,-0.102325276,-0.545336,-0.9424121,0.005623839,0.022449505,-0.20089889,-0.37331218,-0.32815048,0.05976804,-3.078205,0.6248855,-0.00071334274,-0.022041552,0.0021615284,0.0010421864,0.0046062297,0.00013133057,0.00026996798,0.44766304,-1.4697603,2.008742,-2.1075795,-1.570711,2.4226282,-0.021213192,0.035587,-0.04374355,0.010043024,-0.0042947205,-0.021444807,-0.019153614,0.1340753,-9.500193,0.7016076,47.74331,-0.66736573,-2.0695832,-3.4684331,-0.36418504,-0.08658578,-0.17201507,27.25,28.375,27.4375,31.0,32.75,33.4375
0.05005194,-0.34881467,-0.78292733,-0.9995445,-0.0007994316,0.014046857,-0.17872119,-0.37339097,-0.3281606,0.05981619,-3.0782585,0.6248189,-0.00057127915,-0.022954023,0.0021981527,0.0011223932,0.0044644102,0.0004893235,0.0013356222,0.4476266,-1.4697237,2.0085862,-2.1075556,-1.5707349,2.4225435,-0.022087215,0.03679139,-0.045226023,0.009936002,-0.0043244455,-0.023383722,0.0,0.24899697,-9.423578,0.80456203,47.751366,-0.58508146,-2.0882628,-3.4230962,-0.36531436,-0.06759861,-0.15966177,27.25,28.375,27.4375,31.0,32.75,33.4375
0.05205174,-0.14483285,-1.2730318,-1.2068149,-0.010152312,0.013974146,-0.176284,-0.37341654,-0.32814953,0.059800457,-3.0782454,0.6248356,-0.0006535093,-0.024171975,0.0020258047,0.0018187931,0.0034998357,0.0016508375,0.0018678973,0.44756633,-1.4696519,2.008538,-2.1075318,-1.570711,2.4224954,-0.02311116,0.03730572,-0.04744488,0.010174662,-0.003963967,-0.024939178,-0.076614454,0.3256114,-9.576807,0.7866488,47.71554,-0.5617222,-2.008286,-3.4929078,-0.35532254,-0.10130922,-0.14642847,27.25,28.375,27.4375,31.0,32.75,33.4375
0.054052506,-0.109364815,-1.6447899,-1.1287,-0.022136075,0.011432002,-0.17940952,-0.37345853,-0.328174,0.059808653,-3.0782666,0.6247814,-0.00066425826,-0.024762308,0.002297693,0.00132972,0.0044302936,0.00024031002,0.0019615553,0.44756606,-1.4695554,2.008405,-2.107496,-1.5706991,2.4224586,-0.024002042,0.039603025,-0.049079884,0.011187574,-0.004194162,-0.025922185,-0.019153614,0.40222588,-9.615114,0.72622824,47.701214,-0.57869345,-1.9059753,-3.4859781,-0.37321395,-0.092101544,-0.13288252,27.25,28.375,27.4375,31.0,32.75,33.4375
0.05605181,-0.20624685,-1.7793716,-1.1278445,-0.03254948,0.009964092,-0.17983843,-0.37350088,-0.32815602,0.05981292,-3.0782435,0.62485397,-0.00068164483,-0.02574686,0.0022407102,0.0016367992,0.004569022,0.00062107417,0.0023078746,0.44749376,-1.4695067,2.0083334,-2.1074593,-1.5706991,2.4224346,-0.024586739,0.040886506,-0.051357098,0.011898647,-0.00448833,-0.026851153,-0.019153614,0.34476504,-9.557653,0.7530795,47.711063,-0.6291903,-1.8762808,-3.4524584,-0.38044634,-0.099699646,-0.14297408,27.25,28.375,27.4375,31.0,32.75,33.4375
0.058051772,-0.5454038,-1.9665004,-1.224713,-0.039778322,0.01651784,-0.16362488,-0.37356484,-0.32812694,0.059817955,-3.0782044,0.6248063,-0.000624866,-0.026414378,0.0023490335,0.0016034448,0.0053320765,0.00016331737,0.0030931742,0.4474216,-1.4694345,2.0082371,-2.107435,-1.5707592,2.4223378,-0.025059218,0.04246654,-0.05326108,0.012964954,-0.004980819,-0.028106794,-0.05746084,0.36391866,-9.557653,0.8247004,47.713753,-0.5932453,-1.8786731,-3.4857326,-0.36925936,-0.09698715,-0.1252976,27.25,28.375,27.4375,31.0,32.75,33.4375
0.06005187,-0.8083867,-1.9000759,-1.0884957,-0.03336613,0.020126496,-0.16432466,-0.37362105,-0.32814133,0.059817,-3.0782087,0.62478715,-0.0006245775,-0.027165098,0.002240134,0.001309256,0.005563012,-0.000144798,0.0035211933,0.44739753,-1.4693139,2.008104,-2.107423,-1.5707592,2.4223013,-0.025480006,0.044568114,-0.054873798,0.012853754,-0.0050600283,-0.028954111,-0.11492168,0.47884035,-9.481039,0.7911258,47.71465,-0.6532699,-1.8985858,-3.525256,-0.3792821,-0.088789865,-0.102742374,27.25,28.375,27.4375,31.0,32.75,33.4375
0.062051684,-0.53235334,-1.4553411,-0.90554476,-0.034054156,0.038725846,-0.1764189,-0.37366286,-0.32816154,0.059833147,-3.078255,0.6247776,-0.0006280793,-0.028611664,0.0019232511,0.0016887204,0.0050797816,0.0010623076,0.0037037707,0.4473733,-1.4692535,2.0079954,-2.1073992,-1.5707234,2.4222653,-0.026132392,0.046313703,-0.05758891,0.012526989,-0.005152957,-0.029787008,-0.05746084,0.4405331,-9.442732,0.8179876,47.73077,-0.6480043,-1.9050567,-3.4862032,-0.37410703,-0.09367545,-0.109606266,27.25,28.375,27.4375,31.0,32.75,33.4375
0.064052455,-0.99442524,-1.5512992,-0.8228072,-0.0205826,0.03065152,-0.16710182,-0.3737654,-0.32815754,0.059850957,-3.0782537,0.6247955,-0.0005609506,-0.03018266,0.0013796324,0.0022456537,0.0041116676,0.0029517345,0.0052603167,0.4472891,-1.4691211,2.0078037,-2.1073754,-1.5707477,2.4221926,-0.026560811,0.04787168,-0.060379263,0.011635291,-0.005105544,-0.03177009,-0.095768064,0.4405331,-9.461885,0.7665104,47.71554,-0.6138154,-1.8448465,-3.4702866,-0.372111,-0.115359336,-0.09965509,27.25,28.375,27.4375,31.0,32.75,33.4375
0.06605258,-0.9782726,-1.1380628,-0.8268745,-0.022972725,0.031069865,-0.17741221,-0.37379974,-0.3281462,0.059841856,-3.078229,0.6247522,-0.00056619965,-0.031277694,0.0015070235,0.0018435738,0.0050705043,0.0037774444,0.005519145,0.44725305,-1.4690485,2.0077422,-2.107364,-1.570772,2.4221327,-0.026960706,0.050169908,-0.06168333,0.0103146285,-0.0063340664,-0.03242457,-0.1340753,0.40222588,-9.385271,0.75084364,47.713753,-0.60755116,-1.9151083,-3.462481,-0.3533342,-0.12181143,-0.07143308,27.25,28.375,27.4375,31.0,32.75,33.4375
0.06805235,-0.6604765,-0.41542706,-0.55072016,-0.031667545,0.041662224,-0.17495058,-0.3738523,-0.32813945,0.059845056,-3.0782292,0.6247144,-0.00058098836,-0.03313007,0.0011493759,0.0030377915,0.0049234014,0.006711873,0.0047828844,0.4471929,-1.4689645,2.0076344,-2.1073282,-1.5707725,2.422049,-0.027190395,0.050977625,-0.06534661,0.010464579,-0.007477801,-0.031913213,-0.34476504,0.36391866,-9.3661175,0.73069996,47.71823,-0.6244868,-1.8106747,-3.487592,-0.36424637,-0.11196433,-0.069158316,27.25,28.375,27.4375,31.0,32.75,33.4375
0.07005219,-1.0923297,-1.0192502,-0.521564,-0.008567147,0.031409964,-0.16580333,-0.37394378,-0.32814944,0.059861906,-3.0782425,0.62473637,-0.00048338633,-0.03431585,0.001001021,0.0025751588,0.00548792,0.006439564,0.0036999802,0.44714475,-1.4688435,2.0074656,-2.1073406,-1.5707964,2.422013,-0.027714781,0.05425195,-0.067816496,0.010150244,-0.007872585,-0.03135225,-0.19153613,0.36391866,-9.308657,0.73069996,47.709274,-0.6782502,-1.8261092,-3.3185654,-0.34330565,-0.096104465,-0.09087177,27.25,28.375,27.4375,31.0,32.75,33.4375
0.07205195,-0.838832,-0.45576784,-0.3721043,-0.014315534,0.039249383,-0.17474276,-0.3739972,-0.3281411,0.059851546,-3.0782156,0.62476903,-0.00055635674,-0.034609642,0.001211841,0.0018029799,0.0060581295,0.004623183,0.004284025,0.4470725,-1.4687228,2.007346,-2.1072924,-1.5707844,2.4219646,-0.028553572,0.05652867,-0.06865559,0.010595456,-0.0076044733,-0.032774553,-0.2681506,0.28730422,-9.251195,0.76874626,47.70838,-0.6568198,-1.9598273,-3.5253859,-0.34851187,-0.11252674,-0.08841657,27.25,28.375,27.4375,31.0,32.75,33.4375
0.07405169,-1.1389872,-0.33902004,-0.3863021,-0.010044989,0.033473555,-0.16549833,-0.3741139,-0.3281633,0.059900437,-3.078302,0.6247286,-0.00033693158,-0.036465656,0.00046534307,0.0040091644,0.004072613,0.008982914,0.004320901,0.44702452,-1.4686395,2.0071533,-2.1073406,-1.5708083,2.4218807,-0.028758217,0.055151727,-0.0722438,0.010770118,-0.0077007986,-0.033015218,-0.3256114,0.22984336,-9.232041,0.800085,47.701214,-0.7068046,-1.6697865,-3.4437692,-0.33721823,-0.11753234,-0.072436914,27.25,28.375,27.4375,31.0,32.75,33.4375
0.076052025,-0.7742255,-0.31848145,-0.47821257,-0.0024765155,0.0435689,-0.17453386,-0.3741501,-0.32817423,0.059898168,-3.078303,0.6246516,-0.0003667034,-0.03822907,7.8562e-05,0.0044696196,0.003914087,0.010341855,0.004151427,0.44701213,-1.4685429,2.007044,-2.1073043,-1.5708083,2.4218202,-0.029322289,0.05752038,-0.07590788,0.010773022,-0.008153961,-0.033406183,-0.34476504,0.22984336,-9.251196,0.8314132,47.723602,-0.70750093,-1.7685719,-3.195851,-0.33241194,-0.109782286,-0.071152024,27.25,28.375,27.4375,31.0,32.75,33.4375
0.078051805,-0.90463936,-0.30873564,-0.27179536,0.006583189,0.044222936,-0.17259964,-0.37423748,-0.3281415,0.059893373,-3.0782504,0.62464046,-0.00035395235,-0.037988983,0.00049176975,0.002419463,0.005916949,0.006003616,0.0047842823,0.44690397,-1.4684095,2.0069,-2.1072676,-1.5708565,2.421712,-0.029919652,0.06201213,-0.07630695,0.011454966,-0.008085256,-0.034635592,-0.34476504,0.21068975,-9.308656,0.800085,47.694054,-0.68253934,-1.9223902,-3.4736538,-0.3324812,-0.12206794,-0.07506077,27.25,28.375,27.4375,31.0,32.75,33.4375
0.08005161,-1.2812114,-0.22310175,-0.35907188,0.0029275233,0.037105795,-0.16424884,-0.37429947,-0.32815,0.059886307,-3.0782204,0.6246925,-0.00042371266,-0.039895598,1.8942605e-05,0.0042276876,0.0048498833,0.009779034,0.003995335,0.44685593,-1.468254,2.0067317,-2.107208,-1.570845,2.4217002,-0.030293772,0.061494347,-0.07996354,0.01176612,-0.008762748,-0.034217004,-0.34476504,0.13407528,-9.346964,0.75084364,47.678825,-0.7501811,-1.8819155,-3.260346,-0.33208042,-0.123936206,-0.07859462,27.25,28.375,27.4375,31.0,32.75,33.4375
0.082051925,-1.1961037,-0.29375893,-0.4544462,0.003150239,0.038798526,-0.16548431,-0.37439433,-0.3281722,0.059917223,-3.0782936,0.62461233,-0.00027794202,-0.0412718,-0.00018985574,0.004592866,0.0048751957,0.010077756,0.0020761543,0.44681972,-1.4681576,2.006563,-2.1072433,-1.5708569,2.4216049,-0.031038327,0.063600406,-0.083354354,0.012792663,-0.008915021,-0.033040978,-0.4596867,0.17238252,-9.3661175,0.76874626,47.672558,-0.7551701,-1.6870995,-3.252705,-0.32644254,-0.13084829,-0.08955929,27.25,28.375,27.4375,31.0,32.75,33.4375
0.08405177,-1.0155702,0.32366884,-0.3185812,-0.012841677,0.04029003,-0.17681131,-0.37446168,-0.32815355,0.059905864,-3.0782423,0.6247161,-0.00034034566,-0.04157673,7.800434e-05,0.0032957855,0.006572141,0.007930943,0.0020665908,0.44672358,-1.4680245,2.0064318,-2.1071956,-1.5708569,2.42158,-0.031400174,0.06714831,-0.08430653,0.012867403,-0.0095210085,-0.033390515,-0.47884035,0.21068975,-9.32781,0.7665104,47.686886,-0.761788,-1.8676088,-3.2597742,-0.3200532,-0.12939139,-0.13261189,27.25,28.375,27.4375,31.0,32.75,33.4375
0.08605181,-0.05016278,-0.3370666,-0.5121631,-0.0086671,0.06576103,-0.18786663,-0.37453833,-0.3281669,0.059919212,-3.0782309,0.62469465,-0.00034218078,-0.04374129,-0.00031509987,0.0043357667,0.0056388355,0.009946294,0.0025905303,0.44668722,-1.4678802,2.0062263,-2.107124,-1.5708688,2.421532,-0.032589436,0.068823345,-0.08864088,0.013304731,-0.009559194,-0.035100844,-0.34476504,0.24899697,-9.404425,0.800085,47.71823,-0.7755126,-1.8243952,-3.086153,-0.31901124,-0.116917446,-0.12144779,27.25,28.375,27.4375,31.0,32.75,33.4375
0.08805247,-1.1273088,-0.41243494,-0.50566846,-0.01677776,0.047653437,-0.16803025,-0.37463638,-0.32816026,0.059928596,-3.0782433,0.6246402,-0.00027601726,-0.043107253,0.0010928652,0.0025155102,0.0084331,0.0057405657,0.0015311145,0.44660264,-1.4677477,2.006059,-2.1071236,-1.5708936,2.421412,-0.034177624,0.071092986,-0.08728578,0.014680735,-0.010255446,-0.03562943,-0.36391866,0.28730422,-9.442732,0.7665104,47.737038,-0.70484924,-1.9013534,-3.292226,-0.30918753,-0.1146891,-0.110914156,27.25,28.375,27.4375,31.0,32.75,33.4375
0.09005219,-0.7606772,-0.17850767,-0.357387,-0.03439282,0.057502948,-0.17516181,-0.37473226,-0.32815957,0.059929766,-3.078233,0.6245994,-0.0002524563,-0.045296464,0.00030630568,0.0036699835,0.007387522,0.009087215,0.0013276159,0.4465306,-1.4675795,2.0058658,-2.1070998,-1.5709175,2.421316,-0.034325134,0.07261794,-0.09142515,0.013825417,-0.010768158,-0.03556951,-0.45968673,0.24899697,-9.423578,0.76874626,47.705692,-0.73956627,-1.8383553,-3.243526,-0.31705105,-0.11610346,-0.137692,27.25,28.375,27.4375,31.0,32.75,33.4375
0.09205185,-0.9530676,-0.86165553,-0.32084012,-0.025347557,0.056132033,-0.17431273,-0.37481546,-0.32816985,0.059938945,-3.0782394,0.62465775,-0.0002780278,-0.04467007,0.0008884309,0.0019771284,0.009413115,0.005579117,0.0013916143,0.44645846,-1.4674349,2.0056746,-2.1070511,-1.5708936,2.4212794,-0.03463296,0.07534158,-0.09068079,0.01439733,-0.011077538,-0.035940897,-0.4213795,0.21068975,-9.481039,0.7777002,47.698532,-0.746001,-1.9569107,-3.224789,-0.31803158,-0.10368683,-0.16253243,27.25,28.375,27.4375,31.0,32.75,33.4375
0.09405165,-0.6920857,-0.9245913,-0.53950626,-0.016137717,0.05465557,-0.17028031,-0.37491873,-0.32817027,0.059947953,-3.0782163,0.62469137,-0.00018722062,-0.04661064,0.00042098833,0.0030481154,0.0091106435,0.008067678,0.0017512834,0.44639832,-1.4672785,2.005482,-2.1070511,-1.5709418,2.4212434,-0.03495413,0.076765455,-0.09478111,0.0146987345,-0.011886051,-0.036618017,-0.24899697,0.22984336,-9.461885,0.73741806,47.692257,-0.8303764,-1.8663895,-3.232533,-0.2918824,-0.09747613,-0.15726086,27.25,28.375,27.4375,31.0,32.75,33.4375
0.09605164,-0.9927891,-0.72971445,-0.6074138,-0.010847412,0.0359153,-0.16614246,-0.37501675,-0.32817024,0.059952907,-3.0782094,0.6246331,-0.00016424118,-0.048030805,0.0010720784,0.0029408475,0.009486197,0.007608713,-0.00021344409,0.44632563,-1.4671103,2.0052774,-2.1070154,-1.5709656,2.4211354,-0.037351366,0.078756824,-0.09689784,0.015398821,-0.01202955,-0.03704891,-0.17238252,0.2681506,-9.442732,0.7978386,47.754055,-0.6946501,-1.930105,-3.2033324,-0.2931335,-0.11450184,-0.18591797,27.25,28.375,27.4375,31.0,32.75,33.4375
0.09805248,-0.52234447,-0.40469894,-0.51041186,-0.0134745985,0.030476479,-0.17723595,-0.37511867,-0.32816365,0.05996721,-3.0782025,0.6246507,-0.00013974006,-0.0488041,0.0010968375,0.0024969722,0.009834212,0.00700362,1.2284882e-05,0.44622943,-1.4669657,2.0050747,-2.1069677,-1.570978,2.4210513,-0.03804564,0.08107979,-0.09842343,0.015295666,-0.012085601,-0.037967652,-0.19153613,0.22984336,-9.3661175,0.7732232,47.73614,-0.70490074,-1.8489411,-3.211654,-0.2964285,-0.11555202,-0.19396982,27.25,28.375,27.4375,31.0,32.75,33.4375
0.10005224,-0.58419615,-0.56253505,-0.5269853,-0.010762075,0.018670067,-0.16574378,-0.37523955,-0.32815534,0.059969313,-3.0781593,0.62469965,-5.336832e-05,-0.050381258,0.0011977645,0.002401559,0.009601122,0.007326685,-0.0011407422,0.44614476,-1.4667734,2.0048583,-2.1069677,-1.5710377,2.4210029,-0.03968991,0.08355295,-0.10083712,0.014840425,-0.01202001,-0.03845739,-0.19153614,0.2681506,-9.308656,0.78217715,47.729877,-0.6442744,-1.9597807,-3.1110723,-0.2670964,-0.10037549,-0.21943367,27.25,28.375,27.4375,31.0,32.75,33.4375
0.10205219,-0.8291059,-1.0486244,-0.7480646,0.0014239528,0.01958792,-0.15264139,-0.37531695,-0.32818195,0.05997053,-3.0781975,0.6246117,-7.478963e-05,-0.051074754,0.00140715,0.0024301591,0.009863277,0.0074043144,-0.0016252304,0.44610858,-1.4666054,2.0046651,-2.1069438,-1.5710138,2.420907,-0.040516134,0.08448071,-0.10200141,0.015121348,-0.012291861,-0.038797896,-0.19153613,0.28730422,-9.346964,0.7463667,47.74241,-0.6379199,-1.8052913,-3.1746488,-0.25266826,-0.09127784,-0.2203481,27.25,28.375,27.4375,31.0,32.75,33.4375
0.1040519,-0.8102242,-1.2722664,-0.48179814,-0.0028056335,0.026982728,-0.16324449,-0.37542582,-0.32815734,0.05997883,-3.0781324,0.6246348,-1.0195278e-05,-0.051312573,0.001108041,0.0017415058,0.011810014,0.005727596,0.0008793409,0.4460129,-1.4664483,2.004462,-2.1068947,-1.5710863,2.4208343,-0.03945863,0.08786407,-0.10449159,0.016579578,-0.013327372,-0.04024138,-0.24899697,0.30645782,-9.3661175,0.78888994,47.71465,-0.7337272,-2.1451316,-3.1882977,-0.24965955,-0.078642875,-0.23323452,27.25,28.375,27.4375,31.0,32.75,33.4375
0.10605217,-0.09666669,-0.46779382,-0.48157975,-0.029298257,0.04902219,-0.17338507,-0.37550312,-0.32816467,0.059970703,-3.0781388,0.62455875,-9.157362e-05,-0.05212981,0.0009972594,0.0030341356,0.010698845,0.0075104795,0.0025036403,0.4459407,-1.4662691,2.0042698,-2.1068351,-1.5710624,2.420714,-0.040129993,0.08645744,-0.106141515,0.017546289,-0.013098143,-0.04253643,-0.1340753,0.28730422,-9.404425,0.8224646,47.72719,-0.733817,-1.8258382,-3.2445657,-0.23467672,-0.105392486,-0.23246053,27.25,28.375,27.4375,31.0,32.75,33.4375
0.108051896,-0.9553556,-0.65586835,-0.57990086,-0.02421283,0.02073035,-0.16763139,-0.3756292,-0.32815874,0.059983667,-3.078122,0.6246905,-1.0625571e-05,-0.052780204,0.0019729321,0.0004018474,0.01323849,0.0023736886,0.0003913527,0.44583187,-1.4660991,2.0040529,-2.1068351,-1.5710863,2.4206896,-0.042480234,0.09300215,-0.10743878,0.018026384,-0.01317406,-0.042773213,-0.095768064,0.2681506,-9.385271,0.8224646,47.73077,-0.6277501,-2.0411868,-3.2676463,-0.2603329,-0.08756456,-0.24360338,27.25,28.375,27.4375,31.0,32.75,33.4375
0.110052526,-0.53317255,-0.6700199,-0.40637887,-0.030157354,0.026434658,-0.16880657,-0.3757313,-0.32816508,0.05999726,-3.0780904,0.6245491,8.326755e-05,-0.053707954,0.0013577265,0.0019869492,0.010823702,0.005438262,-0.00076731836,0.4458078,-1.4659204,2.003814,-2.106787,-1.5711697,2.4205816,-0.042727914,0.09102701,-0.10880379,0.017553903,-0.012319838,-0.04186341,-0.076614454,0.30645782,-9.3661175,0.7642693,47.750473,-0.6854787,-1.8433365,-3.2937863,-0.23108013,-0.08565596,-0.27516037,27.25,28.375,27.4375,31.0,32.75,33.4375
0.11205228,-0.33030167,-0.8860336,-0.45371795,-0.024584219,0.029208284,-0.17089176,-0.375862,-0.32817057,0.060016785,-3.0781257,0.6246322,9.377956e-05,-0.05474854,0.0009988166,0.00132192,0.01119794,0.005061112,0.00094294024,0.4456757,-1.4657393,2.0035617,-2.1067522,-1.5711335,2.420497,-0.042851303,0.094602406,-0.11104341,0.016719209,-0.01250078,-0.043695074,-0.038307227,0.19153613,-9.346964,0.80456203,47.74868,-0.73000526,-1.9680357,-3.322162,-0.20805457,-0.085621834,-0.29449138,27.25,28.375,27.4375,31.0,32.75,33.4375
0.114052325,-0.6892402,-0.73116624,-0.5374426,-0.0029681309,0.011628213,-0.16242772,-0.37594202,-0.32815546,0.059982643,-3.0780494,0.6246558,1.0400585e-05,-0.055473965,0.00079715176,0.0011716213,0.010921502,0.0044470495,0.0010622409,0.4455915,-1.465523,2.0033934,-2.1067154,-1.5711578,2.4204373,-0.04345677,0.09652211,-0.112923436,0.017110113,-0.011993854,-0.044418514,-0.095768064,0.17238252,-9.346964,0.8179876,47.752266,-0.6918669,-2.0277152,-3.3923616,-0.19262698,-0.09020983,-0.31464565,27.25,28.375,27.4375,31.0,32.75,33.4375
0.11605273,-0.32365772,-0.1854686,-0.34137496,0.0010737847,0.01724551,-0.16541728,-0.37609714,-0.32815298,0.060008556,-3.0780473,0.6245954,0.00016703532,-0.05578376,0.000886211,0.0006351554,0.01160312,0.0035012031,0.0027652394,0.44549555,-1.4653188,2.0031064,-2.1067035,-1.5712298,2.4203043,-0.043743286,0.09835894,-0.11377073,0.017262846,-0.012200551,-0.046407785,-0.1340753,0.19153613,-9.289502,0.6926589,47.694946,-0.74975365,-1.9558823,-3.2767406,-0.17271501,-0.08779051,-0.30286604,27.25,28.375,27.4375,31.0,32.75,33.4375
0.1180526,-0.2851052,-0.03287349,-0.504912,0.0071222405,0.015892953,-0.16293812,-0.37618446,-0.3281523,0.060004074,-3.0780377,0.624595,8.4490785e-05,-0.057027735,0.00046357475,0.0013311721,0.010978723,0.0048781843,0.0013085507,0.4453994,-1.4651388,2.0029018,-2.1066315,-1.571206,2.4202092,-0.044031423,0.09935824,-0.11654432,0.017526396,-0.012237459,-0.0452369,-0.076614454,0.17238252,-9.212888,0.7777002,47.71286,-0.73553705,-1.9696859,-3.412364,-0.14908114,-0.072077565,-0.35530826,27.25,28.375,27.4375,31.0,32.75,33.4375
0.12005318,-0.15465926,0.4720537,-0.3899231,-0.0013040729,0.020419078,-0.1739758,-0.3763264,-0.32816914,0.06003715,-3.0780616,0.62462,0.00023550949,-0.05665106,0.00076638407,0.00023779662,0.01188025,0.0016170368,-0.0005150986,0.4453272,-1.4649584,2.0026271,-2.106631,-1.5712417,2.4201498,-0.04464529,0.10154178,-0.11677663,0.018902848,-0.01163902,-0.044029307,-0.17238252,0.22984336,-9.251195,0.7933669,47.71286,-0.77516896,-1.9094317,-3.4666429,-0.1584727,-0.09932685,-0.4092635,27.25,28.375,27.4375,31.0,32.75,33.4375
0.122053795,-0.25186947,-0.2724686,-0.40725133,0.0054094265,0.026321901,-0.16568734,-0.37643117,-0.3281749,0.060037773,-3.0780594,0.6245589,0.00020487454,-0.05675415,0.00039031976,-5.3846576e-05,0.01296037,0.00052240165,0.0026886095,0.44524354,-1.4647541,2.0023868,-2.106571,-1.5712417,2.4200284,-0.043677468,0.103636,-0.11873751,0.020221883,-0.012145803,-0.0462629,-0.095768064,0.21068975,-9.251195,0.7933669,47.71465,-0.91945755,-1.9136667,-3.42239,-0.14615798,-0.08923327,-0.4165812,27.25,28.375,27.4375,31.0,32.75,33.4375
0.124053665,-0.34840003,-0.09523702,-0.37628064,-0.012972148,0.028164262,-0.17676191,-0.3765612,-0.32816193,0.060034554,-3.078008,0.624587,0.00023534293,-0.058112048,0.00091453793,0.0009786028,0.011745979,0.0021126259,0.0021281587,0.4451346,-1.4645269,2.0021355,-2.1065352,-1.5712899,2.4199438,-0.04613318,0.10259838,-0.12007525,0.020632647,-0.011738227,-0.048158325,0.0,0.1340753,-9.346964,0.7665104,47.703903,-0.8149829,-1.8272622,-3.499381,-0.14493798,-0.07881115,-0.41952533,27.25,28.375,27.4375,31.0,32.75,33.4375
0.12605444,-0.43397677,-0.23549351,-0.5289755,-0.009051371,0.02200089,-0.16856532,-0.37665015,-0.32814938,0.060012754,-3.0779533,0.62455535,0.00014085216,-0.05916972,0.00010410868,0.0010954265,0.011747538,0.0023917414,0.004587998,0.445039,-1.4643103,2.00193,-2.1064622,-1.5713018,2.4198356,-0.045462884,0.105388954,-0.12353716,0.021050138,-0.011871413,-0.04994431,-0.076614454,0.19153613,-9.32781,0.88289046,47.694946,-0.82262737,-1.7961044,-3.3277934,-0.13171218,-0.0964315,-0.44612366,27.25,28.375,27.4375,31.0,32.75,33.4375
0.12805338,-0.8014679,-0.63369024,-0.4494148,-0.0017485971,0.009391702,-0.1600837,-0.3767827,-0.32815352,0.060037732,-3.0779603,0.6245737,0.00022375843,-0.059536237,-0.0013422472,0.0018883632,0.010576373,0.0035595866,0.00838787,0.4449436,-1.4641304,2.0016663,-2.106427,-1.5713257,2.419751,-0.04343595,0.10614069,-0.12630425,0.021501582,-0.011320397,-0.051717296,-0.038307227,0.21068975,-9.308656,0.82694155,47.686886,-1.1470877,-1.8384564,-3.5544794,-0.12262015,-0.11449914,-0.4602269,27.25,28.375,27.4375,31.0,32.75,33.4375
0.13005371,-0.44988292,-0.60738426,-0.51975054,0.002646657,0.01805631,-0.17243233,-0.37688327,-0.3281737,0.060029898,-3.0779715,0.62438345,0.0002288404,-0.06036986,-0.000658365,0.0011166749,0.011163159,0.0016803698,0.009368434,0.4449069,-1.4639019,2.0014265,-2.1064022,-1.5713495,2.4195943,-0.04563926,0.10866447,-0.12747969,0.022096794,-0.011044607,-0.054900676,-0.05746084,0.24899697,-9.289503,0.84708,47.686886,-1.0284274,-1.7657278,-3.4057415,-0.12887184,-0.107908785,-0.45274684,27.25,28.375,27.4375,31.0,32.75,33.4375
0.13205346,-0.031384706,-0.2834885,-0.56679183,-0.001242276,0.025487937,-0.17348929,-0.37701157,-0.32816273,0.06002361,-3.077918,0.6244463,0.00020629127,-0.061855584,-0.0013332537,0.0014241312,0.011046948,0.0024320162,0.013055047,0.444787,-1.4636613,2.0011618,-2.1063426,-1.5713733,2.4195206,-0.045535047,0.11147992,-0.1314007,0.022469029,-0.011274668,-0.058479648,-0.05746084,0.24899697,-9.3661175,0.800085,47.68599,-1.0786328,-1.9204192,-3.3501503,-0.11651806,-0.09828489,-0.42535275,27.25,28.375,27.4375,31.0,32.75,33.4375
0.13405272,-0.3687235,-0.29846203,-0.8446582,-0.009177127,0.016881224,-0.17245635,-0.37713233,-0.32816252,0.060033526,-3.0779226,0.62438875,0.00019052817,-0.06304283,-0.0008536037,0.0018943981,0.01057931,0.0020595712,0.014070294,0.4446781,-1.4634575,2.0008976,-2.10627,-1.5713733,2.4193754,-0.047866307,0.112160794,-0.1336354,0.024151795,-0.010695854,-0.06182626,-0.095768064,0.2681506,-9.423578,0.8403672,47.679718,-0.97372127,-1.8061049,-3.335727,-0.09195496,-0.08589777,-0.42585665,27.25,28.375,27.4375,31.0,32.75,33.4375
0.1360518,-0.7260852,-0.4959671,-0.7874884,-0.029897239,0.018882774,-0.17109646,-0.37726778,-0.32816347,0.060040638,-3.0779095,0.6243443,0.00023969931,-0.06301964,-0.0013938885,0.0019897278,0.011494653,0.0014971341,0.019408727,0.44458285,-1.4632295,2.0006216,-2.1062338,-1.5714101,2.4192543,-0.046419445,0.11345958,-0.13568746,0.025801923,-0.011282321,-0.065715924,-0.21068975,0.30645782,-9.500193,0.8537928,47.713753,-1.1143353,-1.7671709,-3.3506236,-0.11379053,-0.07935895,-0.40223077,27.25,28.375,27.4375,31.0,32.75,33.4375
0.13805173,-1.3269486,-1.1674433,-0.8964422,-0.03584638,0.021383025,-0.17049858,-0.37738952,-0.32815537,0.060039565,-3.0778632,0.62425584,0.00026313853,-0.063783444,-0.0011115094,0.002170344,0.012276698,0.0010730801,0.022677269,0.4444984,-1.4630015,2.0003583,-2.1061728,-1.5714697,2.4191208,-0.04725883,0.11464844,-0.13781391,0.027451843,-0.011810874,-0.0698216,-0.19153613,0.38307226,-9.500193,0.83813137,47.71554,-1.140551,-1.7143674,-3.3676226,-0.11207098,-0.09085047,-0.33502734,27.25,28.375,27.4375,31.0,32.75,33.4375
0.14005183,-1.002206,-1.3481514,-1.1451288,-0.042631473,0.034624778,-0.16826019,-0.37753627,-0.32817632,0.060060438,-3.0779023,0.6241272,0.00031897458,-0.064889304,-0.00087846635,0.0017794468,0.012350058,-0.00036152842,0.024565643,0.44441387,-1.462761,2.000034,-2.106125,-1.5714816,2.4189513,-0.049033374,0.11740809,-0.14021048,0.02840829,-0.0112628145,-0.073484495,-0.19153613,0.38307226,-9.500193,0.80679786,47.70032,-1.1343383,-1.6952963,-3.3498955,-0.109944835,-0.10155867,-0.30739698,27.25,28.375,27.4375,31.0,32.75,33.4375
0.14205194,-1.2978122,-1.566787,-1.0778848,-0.0550181,0.0384703,-0.16832016,-0.37766168,-0.32816145,0.06004688,-3.0778575,0.6241162,0.0002539345,-0.06581128,-0.00093048566,0.0022812071,0.012314159,0.00045560894,0.027878324,0.44428185,-1.4625092,1.9997705,-2.1060526,-1.571494,2.4188182,-0.049516357,0.11804794,-0.14223847,0.029038357,-0.01159172,-0.07727777,-0.21068975,0.45968673,-9.576807,0.8224646,47.711063,-1.108972,-1.6984997,-3.41016,-0.12436545,-0.10239373,-0.26518714,27.25,28.375,27.4375,31.0,32.75,33.4375
0.14405195,-1.3405857,-1.8476712,-1.0116861,-0.056652244,0.03938907,-0.16768768,-0.37778303,-0.3281533,0.06005137,-3.0778499,0.62401825,0.00025763785,-0.066328526,-0.0008323822,0.000113563096,0.014009206,-0.003376517,0.029167907,0.44417349,-1.4623033,1.9995192,-2.105993,-1.5715173,2.41865,-0.050217904,0.12411654,-0.14396302,0.028877594,-0.011482328,-0.079266995,-0.3256114,0.45968673,-9.576807,0.75755644,47.723602,-1.1281718,-1.8710153,-3.4274611,-0.116400644,-0.12861301,-0.21056636,27.25,28.375,27.4375,31.0,32.75,33.4375
0.14605175,-1.4223849,-1.2823597,-1.0505679,-0.059333988,0.032057423,-0.17031592,-0.3779336,-0.3281781,0.060075093,-3.0778854,0.6239678,0.00027759842,-0.0680994,-0.0011833585,0.0018666863,0.012270585,7.504557e-06,0.02924469,0.44407716,-1.4620522,1.9991711,-2.105921,-1.5715059,2.4185178,-0.051194843,0.12314583,-0.1469778,0.029058756,-0.011371645,-0.08031973,-0.3256114,0.4213795,-9.595961,0.8784135,47.729877,-1.1165056,-1.581955,-3.3982253,-0.10073747,-0.11784829,-0.19241041,27.25,28.375,27.4375,31.0,32.75,33.4375
0.1480525,-1.1579266,-1.4383419,-1.0714787,-0.030356381,0.036145423,-0.1691497,-0.3780603,-0.3281892,0.060070902,-3.0778847,0.6237758,0.00032072884,-0.0682248,-0.00018628793,-0.00023993406,0.014528425,-0.0038292375,0.027504584,0.44401664,-1.4617991,1.9988955,-2.1058972,-1.5715541,2.4183378,-0.052890934,0.12733099,-0.14682876,0.029156132,-0.011762284,-0.08027444,-0.30645782,0.38307226,-9.500193,0.7933669,47.741516,-1.1113769,-1.8692102,-3.4223092,-0.10439144,-0.100798756,-0.15503989,27.25,28.375,27.4375,31.0,32.75,33.4375
0.15005234,-0.56977135,-0.66212183,-0.76666707,-0.025506124,0.048677392,-0.18042362,-0.37821755,-0.3281876,0.060089026,-3.0779068,0.62370414,0.00033366,-0.06957966,-0.00078757846,-0.0003843009,0.0140194455,-0.003816753,0.026146853,0.4438725,-1.4615586,1.9985718,-2.1058252,-1.5715536,2.4181464,-0.053249903,0.13056877,-0.1500504,0.028907979,-0.011315404,-0.0792743,-0.30645782,0.28730422,-9.423578,0.84708,47.729877,-1.035436,-1.7864013,-3.3014555,-0.082586735,-0.10801752,-0.14473468,27.25,28.375,27.4375,31.0,32.75,33.4375
0.15205213,-1.0098522,-0.39252576,-0.7614942,-0.015701713,0.03593175,-0.16573772,-0.37833473,-0.32821584,0.060080975,-3.0779178,0.6235925,0.0002773712,-0.070652865,-0.00068992923,-2.573252e-05,0.013911859,-0.002733832,0.023116285,0.44381228,-1.461283,1.9982718,-2.1057656,-1.5715417,2.4180152,-0.054121174,0.13128111,-0.15166734,0.028792247,-0.011689163,-0.07711283,-0.38307226,0.30645782,-9.3661175,0.82022345,47.705692,-1.1755967,-1.7658217,-3.340976,-0.08542226,-0.12938893,-0.16535088,27.25,28.375,27.4375,31.0,32.75,33.4375
0.15405232,-0.92018324,-0.21693744,-0.4452174,-0.0074905166,0.038792983,-0.17519301,-0.37849745,-0.3281968,0.06007559,-3.0778682,0.6235461,0.00034283614,-0.072089806,-0.00042650205,-0.000559718,0.013602252,-0.0036936442,0.018785425,0.4436794,-1.4610063,1.9979728,-2.1057417,-1.5716137,2.41786,-0.056328736,0.13438763,-0.15387614,0.028621312,-0.011002687,-0.074989155,-0.4405331,0.15322891,-9.346964,0.8247004,47.721813,-1.204907,-1.811594,-3.3266673,-0.055378355,-0.13469993,-0.15889956,27.25,28.375,27.4375,31.0,32.75,33.4375
0.15605211,-1.1845853,-0.32455558,-0.39761806,0.0008280457,0.033798695,-0.16342573,-0.3786459,-0.32820585,0.060083546,-3.077874,0.62347347,0.000352723,-0.07348383,-0.0006330817,0.00013822898,0.0130503895,-0.0026326482,0.0126431,0.4435712,-1.4607425,1.9976491,-2.1056817,-1.5716251,2.417706,-0.05718683,0.13549441,-0.1568983,0.029345224,-0.010962505,-0.06970334,-0.4405331,0.095768064,-9.308656,0.82022345,47.70659,-1.1011086,-1.7131009,-3.2227268,-0.052187324,-0.13624018,-0.21330857,27.25,28.375,27.4375,31.0,32.75,33.4375
0.15805213,-1.5158917,-0.11751728,-0.29981014,0.0025254015,0.030195,-0.16804741,-0.37880695,-0.328216,0.06010781,-3.0779033,0.62348044,0.00038532258,-0.075145744,-0.000502073,0.000104208135,0.014163436,-0.002722341,0.009593929,0.44343877,-1.4605017,1.9973134,-2.1056216,-1.5716141,2.4175744,-0.058232434,0.13876331,-0.16072275,0.030464416,-0.011932642,-0.06769586,-0.4405331,0.1340753,-9.346964,0.8179876,47.71017,-1.1940957,-1.9379117,-3.3538585,-0.045733072,-0.12356552,-0.26315323,27.25,28.375,27.4375,31.0,32.75,33.4375
0.16005197,-0.96875197,0.054226473,-0.10140029,-0.00049823895,0.050107088,-0.1781622,-0.37896907,-0.32821423,0.06010997,-3.0778751,0.6233786,0.00043953268,-0.07465931,9.9506746e-05,-0.002277158,0.01642747,-0.007829433,0.009134295,0.44333062,-1.4602126,1.9969777,-2.105574,-1.5716738,2.4174066,-0.058991726,0.14341426,-0.16064805,0.031317186,-0.011786178,-0.06799542,-0.36391866,0.095768064,-9.289502,0.8314132,47.729877,-1.1156915,-1.8666582,-3.3190298,-0.048898242,-0.14731394,-0.25147858,27.25,28.375,27.4375,31.0,32.75,33.4375
0.162052,-1.443589,0.097305246,-0.09009105,0.0011674293,0.050258905,-0.17154153,-0.37912938,-0.32822007,0.060132075,-3.0778825,0.62338126,0.00045429572,-0.07597548,0.00023713327,-0.0010982066,0.016258517,-0.0056812176,0.006284481,0.44319832,-1.4599613,1.9966296,-2.1054895,-1.5716738,2.4172752,-0.05987005,0.14291449,-0.16302676,0.032186124,-0.012557926,-0.06602156,-0.40222588,0.076614454,-9.212888,0.7978386,47.733456,-1.1476679,-1.8685355,-3.3747153,-0.036388192,-0.15133578,-0.31069827,27.25,28.375,27.4375,31.0,32.75,33.4375
0.16405177,-1.1605992,0.21705371,-0.028221304,0.006446419,0.051789157,-0.17872258,-0.37926966,-0.32822484,0.06010642,-3.077834,0.62338984,0.00038743787,-0.07691822,0.00023800258,-0.0009947697,0.016408937,-0.0057811867,0.0071123377,0.44308996,-1.4596374,1.9963187,-2.1054409,-1.5716857,2.4171786,-0.06061502,0.14452301,-0.16526778,0.032969896,-0.01266023,-0.06759217,-0.4405331,0.095768064,-9.155427,0.84484416,47.716442,-1.1441879,-1.8271661,-3.383554,-0.031797007,-0.15797043,-0.316348,27.25,28.375,27.4375,31.0,32.75,33.4375
0.16605198,-1.0958579,0.1460879,-0.073356576,0.012762236,0.05221585,-0.1758093,-0.37942097,-0.32822597,0.060118053,-3.0778072,0.6232302,0.00045444694,-0.078315146,0.0002948847,-0.0007617817,0.016586449,-0.005742218,0.0075843437,0.44300565,-1.4593731,1.995983,-2.1053689,-1.5717582,2.4169984,-0.061816428,0.14661922,-0.16840328,0.03404278,-0.012843557,-0.06926343,-0.30645782,0.076614454,-9.059659,0.800085,47.701214,-1.0934423,-1.879199,-3.297095,-0.03741686,-0.16599643,-0.3052292,27.25,28.375,27.4375,31.0,32.75,33.4375
0.1680521,-0.72372425,0.25517797,0.096270025,0.019888451,0.047741238,-0.17614464,-0.37958512,-0.3282206,0.060108196,-3.0777755,0.6232823,0.00040913094,-0.07902243,0.00063965947,-0.00053737126,0.016699363,-0.005867378,0.0063319807,0.4428492,-1.4590616,1.9956468,-2.1053088,-1.5717582,2.4168787,-0.06301494,0.14714314,-0.16976984,0.035045225,-0.012896944,-0.0692085,-0.24899697,0.05746084,-9.040505,0.78888994,47.70211,-1.0927303,-1.7664974,-3.3300898,-0.036733214,-0.17273694,-0.3280465,27.25,28.375,27.4375,31.0,32.75,33.4375
0.17005202,-1.2643961,0.33342838,-0.08810782,0.029012505,0.019730257,-0.17426512,-0.3797532,-0.32823005,0.06011373,-3.0777788,0.623264,0.0004066762,-0.07965305,0.0010900055,-0.0010049577,0.017836664,-0.007183305,0.004614116,0.44271702,-1.4587615,1.9952878,-2.1052487,-1.5717582,2.416735,-0.06406767,0.1492618,-0.17134728,0.036181163,-0.013362999,-0.068541534,-0.28730422,0.05746084,-9.040505,0.8784135,47.72629,-1.1473526,-1.7458189,-3.3684,-0.025460783,-0.16715987,-0.35882187,27.25,28.375,27.4375,31.0,32.75,33.4375
0.17205241,-0.54007834,0.4869752,-0.18987298,0.02151864,0.02221733,-0.17326702,-0.37990797,-0.32820904,0.06011756,-3.0777159,0.62326795,0.0004049146,-0.08152794,0.0011878157,-0.00035093806,0.018315399,-0.006375109,0.0064292657,0.44257253,-1.458497,1.994964,-2.105152,-1.5718068,2.4166012,-0.06535349,0.15136671,-0.17557767,0.037775062,-0.014153691,-0.071638085,-0.28730422,0.1340753,-9.059659,0.8784135,47.72092,-1.0841635,-1.7488184,-3.3854423,-0.033849295,-0.16609114,-0.35930705,27.25,28.375,27.4375,31.0,32.75,33.4375
0.17405224,-0.8246171,0.11356385,-0.29700196,0.024043715,0.01772785,-0.16741854,-0.38006157,-0.32819644,0.060094725,-3.077615,0.62322956,0.0003371136,-0.08130201,0.0016655275,-0.0016267935,0.02021064,-0.009809747,0.0048670922,0.44245246,-1.4581487,1.9946054,-2.1050432,-1.5718669,2.4164703,-0.06584542,0.15428929,-0.17634481,0.03953139,-0.014401423,-0.07056558,-0.4213795,0.13407528,-9.097966,0.80456203,47.699425,-1.1052973,-1.8740857,-3.4056573,-0.0603461,-0.15773484,-0.37627104,27.25,28.375,27.4375,31.0,32.75,33.4375
0.1760522,-0.752188,-0.2706469,-0.31377617,0.012543227,0.024553906,-0.1722974,-0.38022465,-0.328192,0.060099628,-3.0776,0.6231884,0.0003188941,-0.0829504,0.0032980933,0.00015083303,0.02037407,-0.008248077,0.0031140288,0.442307,-1.4578624,1.9942573,-2.1049588,-1.5718788,2.4163013,-0.06976323,0.15173729,-0.17836162,0.042755976,-0.015220321,-0.07272837,-0.24899697,0.076614454,-9.174581,0.83589023,47.670765,-0.89524883,-1.594969,-3.4107294,-0.09417612,-0.17397521,-0.3958054,27.25,28.375,27.4375,31.0,32.75,33.4375
0.17805213,-1.2610497,-0.10688835,-0.3398419,0.00074990944,0.010545547,-0.17145832,-0.38038054,-0.3281982,0.060077313,-3.0775573,0.6231742,0.00025441713,-0.082585394,0.002290633,0.00012551397,0.020696718,-0.009336462,0.011914761,0.44218782,-1.4575148,1.9939092,-2.1048987,-1.5718907,2.416179,-0.067635514,0.153268,-0.18042664,0.04439981,-0.015058565,-0.07939998,-0.28730422,-0.038307227,-9.136273,0.84708,47.683304,-1.0689626,-1.6144831,-3.3368218,-0.11897507,-0.18889502,-0.37004858,27.25,28.375,27.4375,31.0,32.75,33.4375
0.18005185,-1.0660167,-0.20404412,-0.53534657,0.00046479426,0.025332281,-0.17994218,-0.38056096,-0.32819143,0.06010567,-3.0775452,0.62317264,0.00028951053,-0.084884726,0.0024050304,0.0005166961,0.019663274,-0.008411467,0.010060936,0.44203082,-1.4572499,1.9935259,-2.104791,-1.5719146,2.4160228,-0.07020058,0.15573558,-0.18407573,0.044296082,-0.014530595,-0.080110155,-0.1340753,0.076614454,-9.308657,0.7933669,47.695843,-1.0046668,-1.6109567,-3.2780814,-0.13177475,-0.17150432,-0.34634674,27.25,28.375,27.4375,31.0,32.75,33.4375
0.18205257,-0.8959775,-0.44594,-0.78000766,0.0071522403,0.027676143,-0.16865493,-0.38071656,-0.32815728,0.060069814,-3.0774302,0.6230719,0.00023051498,-0.0857124,0.004277946,-0.00026727843,0.02092452,-0.01168801,0.010122529,0.44188538,-1.4569019,1.9932026,-2.104706,-1.571999,2.4158294,-0.0745531,0.15740494,-0.18475081,0.046786837,-0.014280402,-0.08452342,-0.095768064,0.1340753,-9.346964,0.7777002,47.67166,-0.79581,-1.6216681,-3.4256876,-0.1587384,-0.17991132,-0.31448317,27.25,28.375,27.4375,31.0,32.75,33.4375
0.18405242,-0.5029811,-0.25909904,-0.93155503,-0.0002879165,0.030342966,-0.17982778,-0.38090646,-0.3281625,0.06007723,-3.0774264,0.62302834,0.0001711135,-0.08483505,0.0034664792,-0.0015208551,0.022947734,-0.014559914,0.017759832,0.44171846,-1.4565536,1.9927715,-2.104586,-1.571987,2.415636,-0.07180868,0.16090608,-0.18611832,0.048108228,-0.014892711,-0.089413404,-0.17238252,0.22984336,-9.404425,0.78888994,47.717335,-0.91546905,-1.494416,-3.3418741,-0.20265603,-0.18815792,-0.26105455,27.25,28.375,27.4375,31.0,32.75,33.4375
0.18605173,-0.70637405,-0.6810418,-1.0622362,-0.0007995672,0.023442091,-0.17598177,-0.38105863,-0.32814214,0.06007341,-3.077363,0.62291706,0.00014968748,-0.085521355,0.0043924884,-0.00095369836,0.023487138,-0.015715746,0.020027256,0.4415857,-1.4562662,1.9924363,-2.1044767,-1.5720471,2.4154422,-0.07410153,0.16071568,-0.18800956,0.051451206,-0.014895965,-0.0939727,-0.2681506,0.22984336,-9.461885,0.9186956,47.751366,-0.9217047,-1.5445116,-3.4520526,-0.26284313,-0.19296646,-0.20323637,27.25,28.375,27.4375,31.0,32.75,33.4375
0.18805246,-0.7681876,-0.51811117,-1.1157451,-0.016677896,0.029418165,-0.17463028,-0.38125542,-0.32814118,0.060083907,-3.0773513,0.6228948,0.00014432278,-0.08757855,0.004344702,-0.0011954638,0.02324301,-0.014192856,0.02234237,0.44141707,-1.4559295,1.9920167,-2.1043818,-1.5720586,2.4152615,-0.0754856,0.16390887,-0.19057117,0.049330946,-0.0153451655,-0.09766816,-0.17238252,0.21068975,-9.519346,0.7463667,47.71823,-0.7936109,-1.7524734,-3.3705812,-0.26731858,-0.19551708,-0.12359302,27.25,28.375,27.4375,31.0,32.75,33.4375
0.19005229,-1.1619803,-1.0782186,-1.3341751,-0.020958511,0.028970245,-0.17078869,-0.3814062,-0.32812667,0.060080353,-3.0773087,0.6227499,5.9024227e-05,-0.0881312,0.004557755,-0.0026401847,0.024383703,-0.016532212,0.023675466,0.4412729,-1.4556289,1.9916581,-2.1042383,-1.5720834,2.4150326,-0.07630051,0.16799723,-0.1917867,0.04905289,-0.015394744,-0.09981342,-0.11492168,0.21068975,-9.730036,0.7911258,47.70032,-0.7253447,-1.7448757,-3.5013242,-0.2721306,-0.18684462,-0.084269844,27.25,28.375,27.4375,31.0,32.75,33.4375
0.19205226,-1.3143622,-1.2293113,-1.2520331,-0.04301702,0.040582605,-0.1692,-0.38160294,-0.32809997,0.060081985,-3.077257,0.6227395,7.0957845e-05,-0.08874356,0.004593809,-0.0032837607,0.025379263,-0.018673955,0.022399144,0.44108084,-1.455304,1.9912742,-2.1041539,-1.572131,2.414841,-0.07686257,0.17125462,-0.19436602,0.05073014,-0.015388949,-0.09909735,-0.2681506,0.28730422,-9.710882,0.8403672,47.709274,-0.81239295,-1.8437109,-3.4674568,-0.3073297,-0.19105431,-0.070030466,27.25,28.375,27.4375,31.0,32.75,33.4375
0.194052,-1.7542351,-1.2654965,-1.0763307,-0.04353862,0.036968943,-0.1669899,-0.38176692,-0.32807824,0.060057793,-3.0771575,0.6226654,-8.969656e-06,-0.09182773,0.0054833577,-0.0025684854,0.025220418,-0.01691733,0.01608921,0.4409353,-1.4549441,1.9909023,-2.1040342,-1.5721911,2.4146621,-0.08078376,0.17350507,-0.19864783,0.051103234,-0.016015038,-0.09670268,-0.34476504,0.30645782,-9.672575,0.8537928,47.721813,-0.62296194,-1.8451192,-3.4184673,-0.3320594,-0.20728563,-0.075097,27.25,28.375,27.4375,31.0,32.75,33.4375
0.19605196,-0.9471935,-0.87140167,-1.2663178,-0.021969417,0.046921987,-0.17936248,-0.38193324,-0.32809332,0.06006841,-3.0771742,0.622516,-4.019549e-05,-0.09201186,0.003993867,-0.0026684685,0.024123846,-0.016464949,0.015012534,0.4408159,-1.454632,1.9905065,-2.103927,-1.5721906,2.4144475,-0.07866263,0.17551784,-0.20046602,0.050032303,-0.015224007,-0.09350512,-0.3256114,0.34476504,-9.653421,0.8940802,47.778233,-0.8063518,-1.9486864,-3.4569292,-0.36009628,-0.21992515,-0.08785258,27.25,28.375,27.4375,31.0,32.75,33.4375
0.19805175,-0.8561785,-1.03473,-1.1559441,-0.013717179,0.04425559,-0.17247137,-0.38213426,-0.32808113,0.060040686,-3.0770953,0.6225012,-8.533619e-05,-0.09324554,0.0044021863,-0.002932393,0.023499502,-0.015019078,0.00970186,0.44064754,-1.4542125,1.9900874,-2.1038563,-1.5722388,2.4142804,-0.08041498,0.17649229,-0.20042616,0.047443304,-0.015287978,-0.08994488,-0.4405331,0.38307226,-9.576807,0.71951014,47.752266,-0.7357539,-1.8214189,-3.4642043,-0.35180604,-0.21810299,-0.118097275,27.25,28.375,27.4375,31.0,32.75,33.4375
0.20005246,-1.4409009,-1.3667086,-1.0437672,-0.03113426,0.043802526,-0.16778736,-0.38230193,-0.32806173,0.06003572,-3.0770302,0.6224711,-0.00017178972,-0.09447809,0.004066204,-0.003228884,0.022122772,-0.014337274,0.005754863,0.4404792,-1.4538879,1.989705,-2.1037128,-1.5722626,2.4141018,-0.08145716,0.17864658,-0.20173165,0.045387786,-0.014348414,-0.08703997,-0.36391866,0.40222588,-9.500193,0.7709874,47.739727,-0.541627,-2.006205,-3.5294907,-0.35201618,-0.2279073,-0.15271693,27.25,28.375,27.4375,31.0,32.75,33.4375
0.20205244,-1.2729032,-1.4689227,-1.1811435,-0.04042207,0.054940283,-0.16684668,-0.38251567,-0.3280773,0.06005886,-3.0770338,0.62247175,-0.000103008424,-0.096060365,0.0031703776,-0.0029851943,0.022270491,-0.011974566,0.004457122,0.4403356,-1.4535401,1.9892486,-2.1036417,-1.572287,2.4139585,-0.080368325,0.18143399,-0.20511597,0.04391462,-0.015496398,-0.08464802,-0.38307226,0.34476504,-9.634268,0.8023209,47.71554,-0.79368544,-1.850369,-3.4526238,-0.35490772,-0.22484387,-0.20218095,27.25,28.375,27.4375,31.0,32.75,33.4375
0.20405237,-1.8015387,-1.7170935,-1.1299602,-0.0475784,0.057810776,-0.16215008,-0.38271153,-0.32806885,0.06005337,-3.0769994,0.6224845,-0.00013823883,-0.09800702,0.0029128855,-0.001747989,0.020849122,-0.008338428,0.0013397288,0.4401554,-1.4531806,1.9888419,-2.1035583,-1.5722994,2.413791,-0.08136438,0.18135543,-0.20762827,0.04261132,-0.015771884,-0.0825237,-0.4405331,0.30645782,-9.519346,0.8493211,47.711063,-0.75248075,-1.8582604,-3.508866,-0.33564234,-0.23650771,-0.24471164,27.25,28.375,27.4375,31.0,32.75,33.4375
0.20605226,-1.8213592,-1.6107833,-0.89425415,-0.048071224,0.06541506,-0.17019852,-0.382904,-0.32805267,0.060048718,-3.0769494,0.62243515,-0.00013949549,-0.09893732,0.0025162443,-0.0016313316,0.020628575,-0.006878448,0.0022379304,0.43998733,-1.452833,1.9884466,-2.1034749,-1.572347,2.4135988,-0.081102975,0.1826736,-0.20914489,0.04138888,-0.016206872,-0.08315742,-0.36391866,0.3256114,-9.5385,0.82022345,47.739727,-0.7677848,-1.7599046,-3.53726,-0.31990874,-0.24153599,-0.25877383,27.25,28.375,27.4375,31.0,32.75,33.4375
0.20805186,-1.3920952,-0.7914709,-0.7712046,-0.0364978,0.059027433,-0.16791548,-0.38311294,-0.32803586,0.06004898,-3.0768893,0.62240434,-8.974329e-05,-0.09960285,0.001301736,-0.0016425181,0.019303745,-0.0060210912,0.0006011164,0.43981996,-1.4524727,1.9880284,-2.1034038,-1.572419,2.4134202,-0.07992826,0.1847167,-0.21114315,0.039997924,-0.0153801115,-0.080346435,-0.3256114,0.2681506,-9.346964,0.8918391,47.698532,-0.8481599,-1.8335793,-3.5182433,-0.31074652,-0.24933822,-0.30724,27.25,28.375,27.4375,31.0,32.75,33.4375
0.21005167,-0.5529569,-0.9434823,-0.8025453,-0.0026967672,0.060699016,-0.17122512,-0.38332078,-0.32804167,0.060032886,-3.076879,0.6224785,-0.00011400739,-0.101995796,0.0005122187,-0.00017609338,0.017439608,-0.0013393767,0.0016810945,0.43963978,-1.4520776,1.9876198,-2.103381,-1.5724071,2.4132879,-0.08029033,0.18524468,-0.21470752,0.038001224,-0.015703399,-0.08178494,-0.19153613,0.2681506,-9.32781,0.8806493,47.72808,-0.92566276,-1.5500873,-3.5025702,-0.28551602,-0.24961376,-0.34860712,27.25,28.375,27.4375,31.0,32.75,33.4375
0.21205235,-0.8334243,-0.00018685874,-0.7363234,0.00021661281,0.029437087,-0.16906404,-0.38352138,-0.32805052,0.060049128,-3.0768583,0.6224175,-0.00012117333,-0.10391441,-0.00045569328,0.0013732965,0.015543861,0.0032376086,-0.00014884482,0.4394958,-1.4517181,1.987152,-2.1032498,-1.5724314,2.4131088,-0.07996307,0.18514104,-0.21780732,0.036256865,-0.015945753,-0.07962463,-0.1340753,0.2873042,-9.270349,0.88289046,47.72092,-1.0155281,-1.6000453,-3.4184055,-0.255948,-0.27830786,-0.374825,27.25,28.375,27.4375,31.0,32.75,33.4375
0.21405219,-0.5371963,-0.24219126,-0.9186478,0.01686272,0.017927116,-0.16526425,-0.38374102,-0.328051,0.060064968,-3.0768232,0.6224492,6.563247e-06,-0.10649079,-0.0009864124,0.0024160587,0.014199498,0.0069599324,-0.0020125501,0.4393515,-1.45137,1.9867195,-2.103214,-1.5725034,2.4129891,-0.0809346,0.18681645,-0.22174121,0.034569915,-0.01632,-0.07872937,-0.038307227,0.3256114,-9.404425,0.8873621,47.711964,-0.95993716,-1.586267,-3.2823129,-0.21302429,-0.27237082,-0.44689915,27.25,28.375,27.4375,31.0,32.75,33.4375
0.21605226,0.19470176,-0.40346265,-1.1190234,0.018965,0.021691235,-0.17414989,-0.38394254,-0.32803854,0.06003865,-3.0767758,0.62238,-9.095321e-05,-0.10713376,-0.0010938074,0.0020648183,0.014651854,0.006902466,0.00043925652,0.43915945,-1.4509503,1.9862899,-2.1031187,-1.5725158,2.4127603,-0.08097176,0.18877836,-0.22312248,0.03422621,-0.016719291,-0.081214756,-0.038307227,0.24899697,-9.404425,0.8627467,47.696735,-1.0404282,-1.577094,-3.2719448,-0.17117266,-0.2804549,-0.462735,27.25,28.375,27.4375,31.0,32.75,33.4375
0.2180524,0.41354847,-0.5856759,-1.157303,0.0019109992,0.022530118,-0.17341466,-0.3841773,-0.32805043,0.06005225,-3.0767784,0.6223782,6.86891e-05,-0.10788954,-0.0010731077,0.0023248417,0.015089833,0.0060984306,0.0022948496,0.43901536,-1.4505785,1.9858464,-2.10313,-1.5725759,2.412615,-0.08157745,0.19027139,-0.22596139,0.036474094,-0.016771765,-0.083676174,0.05746084,0.19153613,-9.3661175,0.83589023,47.694946,-1.045842,-1.5273839,-3.3598819,-0.16932555,-0.28940192,-0.48016554,27.25,28.375,27.4375,31.0,32.75,33.4375
0.22005215,0.10500447,-0.9240793,-1.0756907,-0.014264971,0.015286553,-0.17420141,-0.38441,-0.32804832,0.06006989,-3.0767426,0.62234676,0.00013709463,-0.108666055,-0.0005371575,0.0012194958,0.017472181,0.004026108,0.009412039,0.43884718,-1.4501938,1.9853548,-2.1030338,-1.572636,2.4124322,-0.08233205,0.1942239,-0.2281626,0.037591543,-0.018060647,-0.091543,0.0,0.19153613,-9.3661175,0.8806493,47.70659,-0.99336773,-1.6188486,-3.319326,-0.16218972,-0.28836748,-0.44748998,27.25,28.375,27.4375,31.0,32.75,33.4375
0.22205207,0.24251598,-1.2130975,-1.3559662,-0.018563721,0.026159422,-0.17688948,-0.38460886,-0.32802787,0.060065024,-3.0767019,0.6223185,6.93157e-05,-0.10955622,-0.00042368652,-0.00063148193,0.018495062,0.0007317473,0.011530662,0.4386428,-1.4498328,1.9849356,-2.102914,-1.5726479,2.4122157,-0.08356349,0.19995423,-0.230361,0.03746321,-0.01760401,-0.09489131,-0.038307227,0.2873042,-9.461885,0.84708,47.716442,-1.0306027,-1.7630919,-3.192256,-0.124214344,-0.3010413,-0.40518075,27.25,28.375,27.4375,31.0,32.75,33.4375
0.22405192,-0.70313585,-1.482507,-1.2634819,-0.03518659,0.01819184,-0.17101286,-0.38482505,-0.3280438,0.060072646,-3.0767138,0.6221614,8.78861e-05,-0.109520555,-0.00012719123,-0.0012370311,0.019726755,-0.0017858776,0.019193511,0.43849865,-1.4494367,1.9844564,-2.1028292,-1.5726718,2.4119723,-0.083984375,0.20189103,-0.23171148,0.039657664,-0.017661529,-0.10297453,0.019153614,0.30645782,-9.576807,0.83813137,47.694946,-1.0556406,-1.7577577,-3.2579699,-0.13359433,-0.29671884,-0.3668232,27.25,28.375,27.4375,31.0,32.75,33.4375
0.22605202,-0.2927977,-1.7460015,-0.9251305,-0.051697295,0.0490186,-0.17595728,-0.3850351,-0.3280586,0.06005273,-3.0767004,0.62208,2.476861e-05,-0.11025545,0.00026768688,-0.00064969953,0.020105587,-0.0008212418,0.023508735,0.4383424,-1.4489936,1.9839906,-2.1027572,-1.5726722,2.4117672,-0.08478619,0.20153676,-0.23294072,0.040517822,-0.018429285,-0.108088166,0.019153614,0.51714754,-9.461885,0.85826975,47.682407,-1.0422585,-1.7901739,-3.4608665,-0.11713438,-0.3092998,-0.27323726,27.25,28.375,27.4375,31.0,32.75,33.4375
0.22805183,-1.2037762,-1.8694661,-1.3058777,-0.038651325,0.01805372,-0.16147573,-0.38527167,-0.3280495,0.060066443,-3.0766783,0.62203443,8.217692e-05,-0.10999834,0.0005374941,-0.000946433,0.020355994,-0.002851213,0.02684643,0.43815023,-1.4486101,1.9835113,-2.1026728,-1.5727199,2.4115498,-0.085409515,0.2020976,-0.23336928,0.04231062,-0.01779831,-0.1120516,-0.019153614,0.45968673,-9.404425,0.9321212,47.689575,-1.141553,-1.7179339,-3.5597787,-0.12276459,-0.3025977,-0.24251318,27.25,28.375,27.4375,31.0,32.75,33.4375
0.23005256,-0.89098644,-1.6838014,-1.4593204,-0.03177016,0.011538177,-0.15522867,-0.38548836,-0.3280569,0.060081683,-3.0766675,0.62181956,0.0001879954,-0.11033062,0.00062175957,-0.0009813244,0.02088985,-0.0038290047,0.02874811,0.43803012,-1.4482384,1.9830445,-2.1026003,-1.5728039,2.4112973,-0.08575308,0.20325921,-0.23501842,0.04389388,-0.017869165,-0.11429651,-0.076614454,0.4213795,-9.519346,0.8537928,47.695843,-0.95327336,-1.7668217,-3.6110497,-0.110743985,-0.32265428,-0.19693103,27.25,28.375,27.4375,31.0,32.75,33.4375
0.23205237,-0.36166766,-1.5697415,-0.9408098,-0.042040147,0.017135568,-0.1689556,-0.3857175,-0.3280443,0.060075004,-3.0766385,0.6217743,0.00013687059,-0.11129564,-0.00015427565,-0.0012322264,0.020362725,-0.0026369712,0.029648466,0.43781444,-1.4478184,1.9825658,-2.1024935,-1.5728158,2.4110575,-0.085055836,0.20567067,-0.23677732,0.041932948,-0.017913897,-0.11449697,-0.11492168,0.34476504,-9.3661175,0.85826975,47.664497,-1.1635172,-1.7991676,-3.6079035,-0.084966116,-0.34389848,-0.16695955,27.25,28.375,27.4375,31.0,32.75,33.4375
0.23405224,-0.7336463,-1.5185262,-0.9879653,-0.027184082,0.007517475,-0.15559456,-0.38592803,-0.32804543,0.060065057,-3.076606,0.621752,0.00015311602,-0.11340927,0.0012691055,-0.0014624408,0.020651383,-0.0033683223,0.022475215,0.43765676,-1.4474221,1.9821342,-2.1024454,-1.572852,2.4108903,-0.08950213,0.20800094,-0.23911583,0.04272527,-0.017867513,-0.111768626,-0.095768064,0.3256114,-9.3661175,0.9030289,47.68599,-1.0175637,-1.7083418,-3.5690904,-0.0648151,-0.34813088,-0.1435804,27.25,28.375,27.4375,31.0,32.75,33.4375
0.23605227,-0.35343787,-0.83534855,-0.93661404,-0.015685843,0.009478273,-0.15979281,-0.38617924,-0.32803938,0.060060814,-3.076545,0.62170166,0.00016031279,-0.113679394,-0.0002844786,-0.001254804,0.021237575,-0.0032860544,0.021051073,0.43746614,-1.4469539,1.9815954,-2.1023371,-1.5729121,2.4106765,-0.08641147,0.21072248,-0.2430435,0.04410804,-0.018437767,-0.10724933,-0.17238252,0.3256114,-9.423578,0.8985519,47.711063,-1.2347368,-1.6895769,-3.484523,-0.040384825,-0.33137733,-0.21259536,27.25,28.375,27.4375,31.0,32.75,33.4375
0.23805234,-0.660935,-0.7543502,-0.7930969,-0.011611616,0.01379869,-0.15853111,-0.38639316,-0.32805768,0.060078993,-3.0765574,0.62163085,0.0001847567,-0.11449253,0.0001832972,-0.0015088611,0.021427637,-0.0046073003,0.014956529,0.43732136,-1.4465823,1.9811157,-2.1022408,-1.572924,2.4104862,-0.088183284,0.21245986,-0.2447714,0.045381013,-0.01804473,-0.10292725,-0.17238252,0.3256114,-9.270349,0.8627467,47.694946,-1.1341357,-1.7433465,-3.5564451,-0.040357463,-0.3639309,-0.25425997,27.25,28.375,27.4375,31.0,32.75,33.4375
0.24005225,-1.2851747,-0.4846933,-0.69424796,-0.0060940105,0.009919751,-0.17265156,-0.38664106,-0.32806614,0.060093194,-3.0765727,0.6216159,0.00023845615,-0.11666961,-2.7838405e-05,-0.0005258988,0.020493211,-0.0027363019,0.011507886,0.43712893,-1.4461744,1.9806126,-2.1021807,-1.5729359,2.4102829,-0.089643836,0.21405624,-0.24902152,0.045944158,-0.017993892,-0.100937665,-0.22984336,0.22984336,-9.270349,0.9097417,47.667187,-1.1371524,-1.6881523,-3.49774,-0.035273552,-0.37066972,-0.29902583,27.25,28.375,27.4375,31.0,32.75,33.4375
0.24205227,-1.0164274,-0.6256993,-0.8063173,0.013983672,0.029316107,-0.1589784,-0.38684306,-0.32806388,0.06006898,-3.0765042,0.62152404,0.0001506392,-0.118879385,-0.0003797973,0.0008627128,0.02024589,-0.00026057675,0.010712168,0.43697286,-1.445731,1.9801439,-2.10206,-1.5729722,2.4100785,-0.09029377,0.2153979,-0.2541111,0.04734145,-0.018836387,-0.10078507,-0.2681506,0.21068975,-9.251195,0.9298854,47.691364,-1.1771075,-1.578772,-3.3397803,-0.016998759,-0.40811756,-0.3293113,27.25,28.375,27.4375,31.0,32.75,33.4375
0.24405225,-1.3547307,-0.23336935,-0.64442986,0.01901064,0.035676833,-0.16549705,-0.38711673,-0.3280565,0.060090207,-3.076458,0.6215726,0.00026153988,-0.1200208,-0.0010711262,0.0019956515,0.019750966,0.0009136082,0.011250765,0.43676886,-1.4452995,1.9795927,-2.1019762,-1.5730442,2.4099112,-0.0898898,0.21620357,-0.25813475,0.049275078,-0.018887235,-0.100918554,-0.45968673,0.15322891,-9.251195,0.83365434,47.707485,-1.0506269,-1.5251625,-3.2032409,-0.0060836608,-0.402112,-0.34252778,27.25,28.375,27.4375,31.0,32.75,33.4375
0.2460522,-1.7507305,-0.44621748,-0.6198416,0.038723644,0.038911387,-0.15490727,-0.38734275,-0.3280743,0.0600909,-3.0764575,0.62141776,0.00022369991,-0.11956835,-0.0010792556,0.001668331,0.020673845,-0.00087568327,0.01094746,0.4366131,-1.4448558,1.9790663,-2.101856,-1.5730561,2.4096591,-0.089359924,0.21704899,-0.25885105,0.051156078,-0.018967742,-0.10008454,-0.47884035,0.15322891,-9.232041,0.9388393,47.717335,-1.2934968,-1.5057054,-3.277866,-0.0032775295,-0.40191013,-0.35613644,27.25,28.375,27.4375,31.0,32.75,33.4375
0.24805206,-1.4307854,0.2982028,-0.61864316,0.018817855,0.064060494,-0.16905455,-0.38756445,-0.32806468,0.06007855,-3.0763881,0.6214055,0.00013636753,-0.12159292,0.0010069759,0.0013410856,0.022323417,-0.0028018383,0.00796338,0.43641913,-1.4444119,1.9785637,-2.101711,-1.5730809,2.4094667,-0.09443548,0.21949486,-0.26154438,0.0538377,-0.019662354,-0.10217115,-0.53630114,0.17238252,-9.174581,0.8784135,47.701214,-1.0151603,-1.5212094,-3.3068798,-0.017341726,-0.4170894,-0.37634018,27.25,28.375,27.4375,31.0,32.75,33.4375
0.25005198,-2.052155,-0.52245456,-0.72613996,0.021090442,0.05821812,-0.16039562,-0.3878073,-0.3280625,0.06006802,-3.0763614,0.621321,0.00013652755,-0.11962822,0.0011092003,-1.549626e-05,0.024642207,-0.0077491477,0.008845781,0.43622798,-1.4439565,1.9780601,-2.101638,-1.5731167,2.4092267,-0.09283976,0.22089684,-0.2608751,0.057224862,-0.019668069,-0.10145849,-0.49799395,0.095768064,-9.232041,0.8784135,47.686886,-1.2198255,-1.4382627,-3.3214831,-0.061410293,-0.4417522,-0.41692367,27.25,28.375,27.4375,31.0,32.75,33.4375
0.25205174,-1.8316394,-0.4858489,-0.43716508,0.01575652,0.06679823,-0.16466837,-0.3880406,-0.32805258,0.06005664,-3.076282,0.62128186,0.00011133727,-0.119589075,0.0025200688,-0.00084238546,0.027396914,-0.011096584,0.014048416,0.43604732,-1.4435005,1.977547,-2.1015174,-1.5731772,2.409032,-0.09460966,0.22249298,-0.26162004,0.0605476,-0.02076766,-0.10842652,-0.51714754,-0.05746084,-9.270349,0.9567419,47.703007,-1.1265316,-1.4923899,-3.5462265,-0.090593755,-0.4304305,-0.41703612,27.25,28.375,27.4375,31.0,32.75,33.4375
0.25405264,-0.9589854,0.2645359,-0.4559529,0.023602787,0.07122411,-0.17457502,-0.38829532,-0.32806754,0.06008585,-3.076313,0.62123024,0.0001517985,-0.120244585,0.0039981767,-0.002447235,0.03084339,-0.014661971,0.014978694,0.43585452,-1.4430918,1.9769963,-2.1014087,-1.5731777,2.4088035,-0.09675066,0.22662035,-0.26313296,0.06261429,-0.022391362,-0.11149234,-0.53630114,-0.05746084,-9.289502,0.9097417,47.693153,-0.9966326,-1.6310623,-3.5427096,-0.117612906,-0.41810423,-0.37325138,27.25,28.375,27.4375,31.0,32.75,33.4375
0.25605237,-0.71978027,0.9538333,-0.4549304,0.039488856,0.0601761,-0.17634222,-0.3885083,-0.32803303,0.06005027,-3.076175,0.62114054,4.619644e-05,-0.12145291,0.0048758835,-0.003205931,0.033015747,-0.01656576,0.019805918,0.43566215,-1.4426236,1.9765166,-2.1012523,-1.5732621,2.4085732,-0.09855042,0.23019707,-0.26592606,0.064446345,-0.023593346,-0.1181106,-0.4405331,-0.17238252,-9.174581,0.92093146,47.717335,-0.96175516,-1.7797086,-3.4614706,-0.14492586,-0.42759687,-0.3011269,27.25,28.375,27.4375,31.0,32.75,33.4375
0.25805232,-0.37834588,0.7385924,-0.5222259,0.063476935,0.03732695,-0.17316647,-0.38876137,-0.32803652,0.060046714,-3.07616,0.62109697,2.4683151e-05,-0.12292197,0.00554054,-0.0028673036,0.03366758,-0.016330186,0.022890886,0.43545747,-1.442156,1.9759773,-2.1011565,-1.573274,2.4083436,-0.10048976,0.23151113,-0.26859733,0.0658479,-0.024305018,-0.12313079,-0.24899697,-0.095768064,-9.174581,0.88960326,47.72808,-0.8501479,-1.7048228,-3.5620055,-0.17293596,-0.4268698,-0.20205998,27.25,28.375,27.4375,31.0,32.75,33.4375
0.26005203,-0.43945423,0.70678574,-0.57843786,0.064622305,0.014388197,-0.16676174,-0.38903925,-0.3280254,0.060060427,-3.0761342,0.6209927,5.1447652e-05,-0.12450072,0.0058164974,-0.0020922772,0.03385238,-0.015329191,0.027085125,0.4352289,-1.4416885,1.9753903,-2.101024,-1.5733227,2.4080536,-0.101861894,0.23248601,-0.2719036,0.06732513,-0.024917673,-0.12869339,-0.2681506,0.038307227,-9.136273,0.9231726,47.719128,-0.8376097,-1.7776182,-3.434595,-0.19166212,-0.41499776,-0.12304013,27.25,28.375,27.4375,31.0,32.75,33.4375
0.26205182,-0.31423187,0.46694243,-0.44038674,0.03650018,0.023309048,-0.16796432,-0.38925824,-0.3279916,0.060020477,-3.075978,0.6208261,-6.135933e-05,-0.12617655,0.0057349927,-0.0012244114,0.03370964,-0.013744117,0.02674982,0.4350488,-1.441185,1.9748749,-2.1008441,-1.5734309,2.40779,-0.10270642,0.23362803,-0.2754939,0.06825824,-0.025489612,-0.12919475,-0.30645782,0.095768064,-9.155427,0.85155696,47.699425,-0.80620044,-1.8038836,-3.3816738,-0.21442017,-0.39979792,-0.13586526,27.25,28.375,27.4375,31.0,32.75,33.4375
0.26405185,-0.8304488,-0.36835358,-0.7417516,0.018257488,0.016431283,-0.16307895,-0.38950026,-0.3279789,0.060016863,-3.0759244,0.6207791,-0.00013234213,-0.12657851,0.006441993,-0.0013549306,0.03584421,-0.015388828,0.022958186,0.4348325,-1.4407296,1.9743351,-2.1006873,-1.5734552,2.4075515,-0.10344484,0.23511992,-0.2776684,0.0713367,-0.026738677,-0.12613457,-0.4213795,0.13407528,-9.078813,0.83365434,47.707485,-0.75868684,-1.7990998,-3.3000784,-0.2606573,-0.40878046,-0.10872304,27.25,28.375,27.4375,31.0,32.75,33.4375
0.26605177,-1.2537581,-1.1581069,-0.7178135,-0.0141435815,0.04202848,-0.16527878,-0.38974738,-0.32795367,0.060010545,-3.075824,0.62068313,-0.00016279012,-0.1282631,0.0061291438,-0.001065832,0.036956444,-0.013485004,0.019357178,0.43462855,-1.4402614,1.9737848,-2.1005204,-1.5735396,2.407301,-0.10303099,0.23777391,-0.28136867,0.071127266,-0.02856492,-0.122108296,-0.47884035,0.28730422,-9.097966,0.8627467,47.699425,-0.83084214,-1.5632267,-3.3268661,-0.31316248,-0.3743339,-0.16049416,27.25,28.375,27.4375,31.0,32.75,33.4375
0.26805258,-1.7653843,-2.1610065,-0.6928669,-0.047659352,0.06728846,-0.15910152,-0.38997915,-0.32793403,0.05997516,-3.0757165,0.62058604,-0.00030373127,-0.12935342,0.0058730054,-0.0012857544,0.037332613,-0.012528962,0.015218444,0.43442464,-1.4397452,1.9732465,-2.1003525,-1.5735883,2.4070506,-0.10291187,0.24007782,-0.28333727,0.07008718,-0.029328184,-0.11784187,-0.5746084,0.4213795,-9.174581,0.91421866,47.698532,-0.8196645,-1.6164954,-3.299441,-0.3168701,-0.36188895,-0.18763769,27.25,28.375,27.4375,31.0,32.75,33.4375
0.27005243,-2.21073,-2.4673128,-0.97363484,-0.061838113,0.08238447,-0.16292152,-0.39027295,-0.32790664,0.059994787,-3.075624,0.62058777,-0.00024687103,-0.13029735,0.0061899177,-0.0010685382,0.03766857,-0.011997748,0.009938547,0.43418446,-1.4392658,1.9726237,-2.1001852,-1.5736841,2.4068239,-0.10385549,0.24090576,-0.28497896,0.07055774,-0.029857451,-0.11350212,-0.57460845,0.4213795,-9.32781,0.8784135,47.7254,-0.9300395,-1.6400862,-3.517949,-0.33101547,-0.32910064,-0.23451936,27.25,28.375,27.4375,31.0,32.75,33.4375
0.27205235,-2.3214247,-2.3142397,-1.1355196,-0.054048836,0.082817405,-0.15986136,-0.39051846,-0.32790837,0.059970394,-3.0755615,0.62055737,-0.00032972748,-0.13265386,0.00557085,-0.0003692962,0.036575064,-0.007750346,0.006438297,0.43399242,-1.4387506,1.972072,-2.100067,-1.5737084,2.4066212,-0.104117855,0.24265054,-0.2879695,0.067494944,-0.030670946,-0.11025617,-0.53630114,0.53630114,-9.481039,0.90527004,47.664497,-0.9607818,-1.6719489,-3.4871209,-0.34753245,-0.33048886,-0.2968521,27.25,28.375,27.4375,31.0,32.75,33.4375
0.27405247,-2.0777903,-2.3568013,-1.0880607,-0.05327234,0.089507654,-0.15587468,-0.39079404,-0.32787693,0.059975177,-3.0754366,0.6205509,-0.00027958766,-0.13360366,0.004575992,-8.756298e-05,0.03488952,-0.0034990541,0.0050236355,0.43377683,-1.4382713,1.971486,-2.099913,-1.5738286,2.406418,-0.102827966,0.24279284,-0.28776744,0.0625748,-0.030942185,-0.10754829,-0.36391866,0.4405331,-9.32781,0.9254084,47.672558,-0.95879567,-1.6228924,-3.588757,-0.28882805,-0.31416804,-0.35422382,27.25,28.375,27.4375,31.0,32.75,33.4375
0.27605242,-1.3286725,-1.8476362,-1.2067232,-0.043623645,0.06433322,-0.16189046,-0.39105025,-0.32786164,0.059948616,-3.0753644,0.6205381,-0.00031353734,-0.13603558,0.0046378705,2.86566e-05,0.032870807,-0.0009869729,0.000736445,0.43356007,-1.4377677,1.97096,-2.0998304,-1.5738763,2.406203,-0.10543255,0.24482217,-0.2897126,0.05935415,-0.030183041,-0.10586515,-0.22984336,0.45968673,-9.404425,0.9030289,47.65912,-0.9571862,-1.5731132,-3.6284046,-0.2587099,-0.30194604,-0.4280647,27.25,28.375,27.4375,31.0,32.75,33.4375
0.27805248,-0.9393351,-1.2465473,-1.2763875,-0.03658698,0.040865052,-0.16930822,-0.39135113,-0.32785892,0.059957158,-3.0753157,0.6205281,-0.00023356393,-0.1373297,0.0035810687,-0.00077174476,0.032317474,0.000111660425,-2.7239708e-05,0.4333443,-1.437251,1.9703358,-2.099735,-1.5739483,2.4059877,-0.10451601,0.24895054,-0.29195097,0.05622643,-0.030151622,-0.10418314,-0.2681506,0.40222588,-9.557653,0.9254084,47.68062,-0.8814389,-1.7342739,-3.7244396,-0.21898498,-0.28542098,-0.48655015,27.25,28.375,27.4375,31.0,32.75,33.4375
0.28005242,-0.22361593,-0.9356141,-1.1181828,-0.029070953,0.045649238,-0.1633312,-0.39161116,-0.32785156,0.059931707,-3.0752401,0.6204923,-0.000282237,-0.14021929,0.0035183541,-5.023978e-05,0.031965923,0.004317189,4.8056805e-05,0.43313983,-1.4367232,1.9697741,-2.0996287,-1.5739969,2.405771,-0.10581055,0.2511089,-0.2955998,0.053741876,-0.03162533,-0.10554207,-0.22984336,0.38307226,-9.461885,0.9298854,47.696735,-0.93922055,-1.6858054,-3.6041327,-0.1506252,-0.25208792,-0.51838046,27.25,28.375,27.4375,31.0,32.75,33.4375
0.28205246,-0.07079359,-0.7983352,-1.3143456,-0.009709098,0.03635463,-0.17187329,-0.3919022,-0.32785875,0.059928168,-3.0752037,0.6204436,-0.0002546615,-0.14227672,0.0032088822,0.0005953451,0.031635944,0.0073438114,0.0035388935,0.43293574,-1.4361838,1.9691514,-2.0995333,-1.5740455,2.4055417,-0.10624475,0.2528112,-0.2988109,0.052343585,-0.032619722,-0.109460585,-0.15322891,0.2681506,-9.5385,0.9388393,47.64837,-0.9413643,-1.8776565,-3.4791837,-0.104270995,-0.24722537,-0.51787,27.25,28.375,27.4375,31.0,32.75,33.4375
0.28405225,-0.3798686,-1.0926613,-1.4996821,0.008606696,0.02725346,-0.16528437,-0.3921939,-0.32783833,0.059920866,-3.0751355,0.62042385,-0.00022083301,-0.14396569,0.0026718492,0.0012764798,0.030524718,0.0084722275,0.012497162,0.4326957,-1.4356674,1.968563,-2.0994375,-1.5741171,2.4052985,-0.10691842,0.254682,-0.30272326,0.05284347,-0.03212222,-0.11909202,-0.095768064,0.30645782,-9.595961,0.87393653,47.691364,-1.0497488,-1.985032,-3.5582144,-0.09775829,-0.23427176,-0.45391846,27.25,28.375,27.4375,31.0,32.75,33.4375
0.28605232,-0.54050046,-0.9315361,-1.6514665,-0.0027441308,0.021553528,-0.16240562,-0.39248097,-0.327846,0.059927724,-3.0751007,0.6203544,-0.00016842743,-0.1437057,0.002053281,0.00075433,0.030795746,0.0068644616,0.020377036,0.43250382,-1.4351522,1.9679402,-2.0993292,-1.5741771,2.4050682,-0.105728246,0.25663868,-0.3040748,0.053773057,-0.031714823,-0.12578298,0.0,0.30645782,-9.595961,0.9947882,47.692257,-0.97772276,-1.9820747,-3.491581,-0.06230053,-0.20626482,-0.39652622,27.25,28.375,27.4375,31.0,32.75,33.4375
0.2880521,-0.5377037,-1.7820612,-1.5952239,-0.0065151877,0.022363419,-0.16006665,-0.3927575,-0.32783106,0.05989818,-3.0750103,0.6202535,-0.00021444146,-0.144362,0.0030349293,-0.00031056802,0.0323312,0.004012213,0.028574072,0.43228745,-1.4345881,1.9673427,-2.0992086,-1.5742491,2.404801,-0.1078302,0.25964803,-0.30554953,0.055419054,-0.031955346,-0.13607775,0.038307227,0.3256114,-9.710882,0.87393653,47.698532,-1.0917776,-1.9949778,-3.6037643,-0.054089077,-0.17762485,-0.28416216,27.25,28.375,27.4375,31.0,32.75,33.4375
0.2900521,-0.30455205,-1.2201519,-1.4513023,-0.045605786,0.023599008,-0.16326489,-0.39305356,-0.32784268,0.059912145,-3.0749898,0.6201101,-0.00016189579,-0.14483,0.0021534672,-9.1105074e-05,0.033076733,0.0040513715,0.036109805,0.43209594,-1.4340605,1.9666837,-2.0990765,-1.5743097,2.404523,-0.10604008,0.2617545,-0.3088992,0.056906022,-0.032671005,-0.14181885,0.0,0.2681506,-9.595961,0.85826975,47.657326,-1.022596,-2.0634623,-3.596594,-0.057257768,-0.17341319,-0.21885091,27.25,28.375,27.4375,31.0,32.75,33.4375
0.29205194,0.24122876,-1.49288,-1.5754491,-0.03569072,0.013926729,-0.16653934,-0.39337286,-0.32783693,0.059921015,-3.0749435,0.61996573,-8.868245e-06,-0.1452637,0.0027122325,-0.00066787226,0.0339213,0.0016718373,0.036727432,0.43189138,-1.433521,1.9660367,-2.0990045,-1.5744289,2.4042346,-0.107474186,0.26387084,-0.31056747,0.058940593,-0.032443717,-0.14387232,0.019153614,0.2681506,-9.615114,0.9254084,47.678825,-1.0969807,-2.036425,-3.4813318,-0.016970169,-0.1463755,-0.16554117,27.25,28.375,27.4375,31.0,32.75,33.4375
0.2940518,0.051650275,-1.3806692,-1.6325178,-0.025532626,-0.0019812225,-0.1576385,-0.3936258,-0.32782128,0.059890825,-3.0748723,0.619894,-0.00013034203,-0.14525537,0.0036878635,-0.0016101414,0.035388775,-0.0017237165,0.034076624,0.4316629,-1.4329934,1.9654754,-2.0988595,-1.5744528,2.403971,-0.10920404,0.2658097,-0.31130052,0.061425626,-0.032368097,-0.14294827,0.0,0.2681506,-9.5385,0.86945957,47.72002,-0.9881296,-1.9574866,-3.6059809,-0.044376016,-0.11893405,-0.14290804,27.25,28.375,27.4375,31.0,32.75,33.4375
0.29605916,0.17648108,-0.72417814,-1.7920303,-0.02107958,0.0028115814,-0.15963146,-0.393935,-0.32781023,0.059882976,-3.0748215,0.6198506,-0.00013366273,-0.14682628,0.0030413195,-0.0004998194,0.03299088,0.0014503837,0.025008982,0.4314108,-1.4324299,1.9648279,-2.0987403,-1.5745004,2.4036987,-0.109795295,0.26564476,-0.31344813,0.059867766,-0.031509437,-0.13447338,0.019153614,0.095768064,-9.710882,0.900793,47.74062,-1.0602057,-2.0145488,-3.6075742,0.0023176025,-0.11373557,-0.19208524,27.25,28.375,27.4375,31.0,32.75,33.4375
0.29805753,-0.09938181,-0.6966007,-1.6464688,-0.012234399,9.4681585e-05,-0.15527384,-0.39425737,-0.32782695,0.05991876,-3.0748458,0.61974245,2.6257496e-05,-0.14740436,0.0025442604,0.0002724202,0.031615403,0.0022475924,0.019652294,0.43120682,-1.431927,1.964157,-2.098657,-1.5745605,2.4034245,-0.10987438,0.2654608,-0.31530356,0.06061146,-0.030571362,-0.12920198,-0.05746084,0.19153613,-9.653421,0.90750587,47.72808,-1.0787274,-1.8721211,-3.5322032,0.015026232,-0.1074705,-0.25131103,27.25,28.375,27.4375,31.0,32.75,33.4375
0.30005682,-0.6377302,-0.7809587,-1.3322313,-0.0045988774,0.007994576,-0.15396945,-0.39453584,-0.32780764,0.059893187,-3.0747576,0.6197252,-4.3147877e-05,-0.14828199,0.002418853,0.0012662503,0.031590987,0.0019035664,0.01690015,0.43096644,-1.4313751,1.9635595,-2.0985234,-1.5746087,2.4031851,-0.11038135,0.26604775,-0.31919992,0.06421849,-0.030412981,-0.12695381,-0.05746084,-0.019153614,-9.557653,0.93436235,47.695843,-1.0362867,-1.8957794,-3.6165385,0.015137713,-0.11910802,-0.31578928,27.25,28.375,27.4375,31.0,32.75,33.4375
0.30205584,-0.26346406,-0.33179873,-1.4157029,0.0086250845,0.032622006,-0.1578468,-0.39486918,-0.32780537,0.059917912,-3.074735,0.6196626,6.5895445e-05,-0.14946942,0.0023717633,0.0009908014,0.03034291,0.00067069137,0.014524968,0.43072605,-1.4308361,1.9628643,-2.0984037,-1.5746797,2.402909,-0.11225461,0.26859626,-0.3217268,0.0647761,-0.02876498,-0.126459,-0.11492168,0.019153614,-9.5385,0.93436235,47.693153,-1.0532973,-1.9490224,-3.5708952,0.01470268,-0.10314931,-0.3270227,27.25,28.375,27.4375,31.0,32.75,33.4375
0.30405593,-0.94850665,-0.43504494,-1.4685017,0.022573434,0.026407499,-0.15651836,-0.39510438,-0.32782248,0.05988696,-3.074695,0.6195398,-7.5519914e-05,-0.14957382,0.0024198655,0.0005351808,0.030035486,-0.0019599553,0.013264332,0.43055764,-1.4302967,1.9622902,-2.0982597,-1.5746793,2.4026694,-0.11323278,0.27034885,-0.32328063,0.066831276,-0.027401334,-0.12617925,-0.05746084,0.019153614,-9.595961,0.9231726,47.70032,-1.0550737,-1.811079,-3.58353,0.026331969,-0.12165183,-0.3428806,27.25,28.375,27.4375,31.0,32.75,33.4375
0.30605674,-0.6978061,-0.10290019,-1.2487787,0.00684495,0.04404661,-0.16066341,-0.39544046,-0.3277928,0.059892133,-3.0746007,0.6195774,-8.4524645e-06,-0.15063865,0.0023721273,0.0010308954,0.030108055,-0.0035914937,0.012169903,0.43028143,-1.4297327,1.9616078,-2.0981266,-1.5747751,2.4024293,-0.114310786,0.27242497,-0.32781047,0.070776686,-0.026793195,-0.12616372,-0.21068975,0.0,-9.442732,0.91198283,47.689575,-0.94833446,-1.924092,-3.5654426,0.0027138903,-0.102984235,-0.381269,27.25,28.375,27.4375,31.0,32.75,33.4375
0.3080568,-0.5309009,-0.09726766,-1.1767243,0.014402065,0.041688662,-0.16202462,-0.39575687,-0.32780784,0.05991461,-3.0745857,0.61957306,4.935165e-05,-0.14994964,0.0030901933,-0.0003702701,0.032098193,-0.009475292,0.01327706,0.43006504,-1.4291928,1.9609126,-2.0979927,-1.5748113,2.4022126,-0.1153446,0.2754827,-0.3292412,0.07530601,-0.026148928,-0.12830824,-0.40222588,0.05746084,-9.423578,0.9164598,47.694054,-0.8814752,-1.8813844,-3.4966054,-0.024075903,-0.12674099,-0.4055614,27.25,28.375,27.4375,31.0,32.75,33.4375
0.3100577,-0.45769495,0.27500045,-1.2696196,0.005446117,0.051621854,-0.16724692,-0.39603755,-0.3277805,0.059892815,-3.0744863,0.6194163,-4.2736145e-05,-0.15048838,0.0042079934,-0.0002994609,0.03286385,-0.01252968,0.01649199,0.4298242,-1.4286292,1.9602784,-2.0978,-1.5748824,2.4018872,-0.11808166,0.27641407,-0.33162734,0.07981384,-0.025606703,-0.1342596,-0.5554548,0.095768064,-9.461885,0.89631605,47.689575,-0.93768466,-2.0835342,-3.6138334,-0.07631883,-0.120086886,-0.35202128,27.25,28.375,27.4375,31.0,32.75,33.4375
0.31205794,-0.59451425,-0.0935798,-1.2399176,0.0065085827,0.061179172,-0.16532466,-0.39636424,-0.3277705,0.05990504,-3.074431,0.6193782,4.377e-05,-0.1484606,0.0031933768,-0.001616252,0.034854,-0.018115288,0.027424907,0.42958528,-1.4280779,1.959596,-2.097678,-1.5749668,2.401632,-0.11471915,0.27938598,-0.33312792,0.08419747,-0.025111437,-0.14183265,-0.3256114,-0.095768064,-9.5385,0.8940802,47.682407,-1.0653484,-1.9480071,-3.5560713,-0.13085689,-0.13207792,-0.27820447,27.25,28.375,27.4375,31.0,32.75,33.4375
0.31405756,-1.3984581,-0.6081775,-0.8867717,0.0050424095,0.05203437,-0.16007471,-0.39667347,-0.32780084,0.059934605,-3.0744836,0.6191554,5.4927794e-05,-0.15015255,0.004486419,-8.631198e-05,0.03472705,-0.017993202,0.032113515,0.42937988,-1.4275386,1.9588765,-2.0975091,-1.5749668,2.401281,-0.11841,0.2783889,-0.3365999,0.08846109,-0.025075583,-0.15021223,-0.4405331,0.019153614,-9.3661175,0.8940802,47.698532,-0.9037596,-1.9918008,-3.5138884,-0.18187109,-0.13364768,-0.1868279,27.25,28.375,27.4375,31.0,32.75,33.4375
0.3160605,-1.4477836,-0.67471325,-0.70293605,0.0031160344,0.054319322,-0.15092278,-0.3969629,-0.32777354,0.059912562,-3.0743546,0.61912704,-1.104248e-05,-0.14945622,0.003481335,-0.00054748286,0.035879806,-0.020757787,0.036683083,0.42914087,-1.4269633,1.9582313,-2.0973284,-1.5750507,2.4010415,-0.115922764,0.28095242,-0.33931664,0.091580115,-0.025002986,-0.15229142,-0.5554548,0.11492168,-9.270349,0.95226496,47.687782,-1.009955,-1.7746019,-3.48763,-0.22805032,-0.13845481,-0.10389851,27.25,28.375,27.4375,31.0,32.75,33.4375
0.31805545,-0.75907344,-0.20543702,-0.87382454,0.014121198,0.056752667,-0.1658892,-0.39727715,-0.32776082,0.059906743,-3.074305,0.6190205,-7.16104e-05,-0.14941436,0.004236981,5.8928992e-05,0.035902254,-0.02099587,0.03638581,0.42887652,-1.4263768,1.9575361,-2.0971487,-1.5750865,2.4007175,-0.11717573,0.27913976,-0.3392304,0.09351627,-0.024942748,-0.15324673,-0.49799395,0.1340753,-9.346964,0.92764956,47.709274,-1.0318656,-1.7256393,-3.5434697,-0.28426102,-0.13396254,-0.05923888,27.25,28.375,27.4375,31.0,32.75,33.4375
0.32005468,-1.0257329,-0.07766778,-0.76071346,0.0058078654,0.0402725,-0.16419321,-0.39757946,-0.32774508,0.05992806,-3.0742326,0.6189309,-4.3747987e-05,-0.15087855,0.004246212,0.00064803386,0.03534027,-0.019397385,0.030831067,0.4286483,-1.4258614,1.9568542,-2.0969455,-1.5751704,2.400443,-0.118201904,0.28000018,-0.34166658,0.093407735,-0.025099736,-0.14871538,-0.19153613,0.019153614,-9.423578,0.9634547,47.69763,-0.99361837,-1.550356,-3.6959906,-0.3349766,-0.16382477,-0.08858313,27.25,28.375,27.4375,31.0,32.75,33.4375
0.3220542,-0.7071226,-0.60800016,-0.40156266,0.00090623286,0.039644226,-0.15725964,-0.39789125,-0.3277499,0.05992753,-3.074206,0.6187761,-7.490488e-05,-0.15506831,0.0047450745,0.002053451,0.03326659,-0.014288216,0.02124883,0.42841876,-1.4252739,1.956148,-2.0967786,-1.5752066,2.4001207,-0.12233938,0.28164932,-0.34636617,0.09096457,-0.025347857,-0.14326535,-0.3256114,0.038307227,-9.212888,0.9679317,47.691364,-0.81760967,-1.5454855,-3.5548284,-0.32607293,-0.13858879,-0.13352774,27.25,28.375,27.4375,31.0,32.75,33.4375
0.32409912,-0.34052482,-0.25298712,-0.58264977,0.0023752113,0.03703711,-0.15058164,-0.39820522,-0.32774606,0.05995069,-3.07417,0.6187317,-4.6489426e-05,-0.15668291,0.002656342,0.002237653,0.031393163,-0.010394991,0.017841456,0.42817965,-1.4247454,1.9554523,-2.0966012,-1.5752548,2.399859,-0.1198126,0.28473756,-0.34948465,0.08668998,-0.025264315,-0.13732867,-0.40222588,-0.076614454,-9.11712,0.9925471,47.685097,-0.92390484,-1.5625427,-3.3871346,-0.28889817,-0.1446444,-0.20096229,27.25,28.375,27.4375,31.0,32.75,33.4375
0.32610267,-0.43976554,0.06759906,-0.8084806,0.011336644,0.02581977,-0.15508091,-0.39852533,-0.32775036,0.059961125,-3.0741332,0.61865354,-3.652727e-05,-0.16014618,0.0030509832,0.0030585222,0.028975176,-0.006591184,0.0070698615,0.4279502,-1.42417,1.9547342,-2.0964344,-1.5753025,2.399586,-0.12370555,0.2864746,-0.35287008,0.08389227,-0.024641646,-0.1304502,-0.21068975,-0.038307227,-9.270349,0.9164598,47.672558,-0.7130233,-1.6845465,-3.4176302,-0.2826646,-0.14778346,-0.28824547,27.25,28.375,27.4375,31.0,32.75,33.4375
0.32810256,-0.45747986,0.2720361,-1.0275851,0.005871097,0.030374372,-0.1586407,-0.39882308,-0.327728,0.059927292,-3.0740225,0.6186094,-0.00013585144,-0.16223824,0.0012735452,0.0022327164,0.026955277,-0.003109797,0.006703418,0.42769885,-1.4235575,1.9540752,-2.096269,-1.5753621,2.3993218,-0.12232438,0.29134834,-0.3552435,0.077379785,-0.024281723,-0.12869865,-0.1340753,-0.038307227,-9.385271,0.96569055,47.65912,-0.8369509,-1.7985227,-3.3894835,-0.20307916,-0.16904558,-0.35683036,27.25,28.375,27.4375,31.0,32.75,33.4375
0.33010176,-0.933346,-0.6907382,-0.9685834,-0.00078130036,0.047775567,-0.15809149,-0.39917096,-0.32772553,0.05996271,-3.074004,0.6186479,-3.4540448e-05,-0.1633275,0.0008528741,0.0018938475,0.027230823,-0.002301907,0.0018305819,0.427435,-1.4230168,1.9533442,-2.0961258,-1.5754107,2.3990848,-0.12195159,0.29407954,-0.35748526,0.076284476,-0.024854034,-0.12344978,-0.30645782,0.114921674,-9.423578,0.8627467,47.64479,-0.8967352,-1.8705614,-3.3166964,-0.17002814,-0.15363137,-0.41412747,27.25,28.375,27.4375,31.0,32.75,33.4375
0.33209845,-1.1638695,-0.8688122,-0.91350454,-0.034985516,0.08267033,-0.16120197,-0.39948937,-0.32771835,0.059958298,-3.0739176,0.6186473,-6.2822786e-05,-0.16406824,0.0010280253,0.0020884548,0.026839014,-0.0006252845,0.0015311692,0.42719486,-1.4224164,1.952628,-2.0959466,-1.5754708,2.398856,-0.12252441,0.29396412,-0.3576395,0.074852824,-0.025207821,-0.12371992,-0.4405331,0.2681506,-9.289502,0.947788,47.64389,-0.9094498,-1.7377849,-3.5005014,-0.16871014,-0.16496918,-0.4986713,27.25,28.375,27.4375,31.0,32.75,33.4375
0.3340986,-1.7742788,-1.6643015,-1.3823684,-0.03731472,0.08182251,-0.16082717,-0.39979944,-0.32772028,0.05996284,-3.0738826,0.61861676,-9.218943e-05,-0.164162,0.0010594561,0.00037768602,0.028223775,-0.0023654655,0.0075032525,0.42695504,-1.4218508,1.9519333,-2.0957797,-1.5754946,2.398602,-0.122158416,0.29764044,-0.3577586,0.07341908,-0.02577902,-0.12932171,-0.26815057,0.4213795,-9.500193,1.0037369,47.683304,-0.9560152,-1.8529226,-3.6706119,-0.09864064,-0.15877135,-0.49935162,27.25,28.375,27.4375,31.0,32.75,33.4375
0.33610028,-1.4803014,-2.058047,-1.4606357,-0.061313774,0.094185635,-0.16263093,-0.4001558,-0.32769987,0.059969537,-3.0738113,0.618558,1.3592676e-05,-0.1641809,0.0015510938,5.0038918e-05,0.028919894,-0.003553944,0.01586274,0.42669073,-1.42125,1.9512037,-2.095659,-1.5756024,2.3983107,-0.12280734,0.29821256,-0.35806343,0.0744571,-0.025954222,-0.13833,-0.19153613,0.45968673,-9.672575,1.0149267,47.71554,-0.98286974,-1.7484103,-3.8559923,-0.101800725,-0.17213185,-0.44097796,27.25,28.375,27.4375,31.0,32.75,33.4375
0.33809856,-1.1779522,-2.2798634,-1.1621177,-0.075777166,0.08471636,-0.16219471,-0.40048027,-0.3277054,0.059974212,-3.0737853,0.6184894,-4.2404874e-05,-0.16547976,0.0011522418,0.00043418686,0.028735666,-0.0024988824,0.025847517,0.42643887,-1.4206487,1.9504617,-2.0954678,-1.5756153,2.3980198,-0.12281477,0.3000021,-0.36121985,0.07473044,-0.02627645,-0.14831804,-0.21068975,0.53630114,-9.519346,0.9612189,47.71286,-0.93148303,-1.7185545,-3.8289337,-0.10903618,-0.17026222,-0.3453305,27.25,28.375,27.4375,31.0,32.75,33.4375
0.3401011,-0.45955887,-1.6301183,-1.4263403,-0.07731741,0.057101414,-0.16424513,-0.4008062,-0.32768172,0.059974436,-3.0737088,0.61837214,-5.0408503e-06,-0.16727832,0.0007812601,0.0024238122,0.027417088,0.0017566842,0.034084383,0.42618677,-1.4200733,1.9497675,-2.0953119,-1.5757111,2.3977048,-0.123103,0.29865676,-0.36440074,0.07477498,-0.02688238,-0.1568383,-0.30645782,0.49799395,-9.634268,0.91198283,47.691364,-1.0396662,-1.5882616,-3.7574282,-0.07165641,-0.16647081,-0.2208556,27.25,28.375,27.4375,31.0,32.75,33.4375
0.3420978,0.2970885,-1.8700994,-1.6136774,-0.056013238,0.046936553,-0.1559717,-0.40115428,-0.32768935,0.059972327,-3.073714,0.6181602,5.752708e-06,-0.16992779,0.00017731605,0.0041677672,0.026774002,0.005882562,0.03725935,0.42593482,-1.4194357,1.9490122,-2.0951798,-1.5757474,2.3973203,-0.12331494,0.29979283,-0.3699508,0.075140886,-0.028029894,-0.16021653,-0.2681506,0.40222588,-9.710882,0.9254084,47.687782,-1.0217745,-1.477241,-3.6412516,-0.05213487,-0.16727646,-0.17134386,27.25,28.375,27.4375,31.0,32.75,33.4375
0.3440579,-0.18955803,-1.8125253,-1.6234837,-0.043257475,0.012397555,-0.15401736,-0.40150407,-0.32768896,0.06000054,-3.0736682,0.61813253,0.00014885297,-0.17179665,0.0007447039,0.0028267826,0.028032256,0.0038928124,0.03445994,0.42570612,-1.418869,1.9482688,-2.0950487,-1.5758437,2.3970807,-0.12554586,0.30540648,-0.37353864,0.07542966,-0.02835319,-0.15964545,-0.095768064,0.36391866,-9.768343,1.0082139,47.713753,-0.9644252,-1.5507221,-3.4669428,-0.026386067,-0.15198737,-0.12902303,27.25,28.375,27.4375,31.0,32.75,33.4375
0.3460527,-0.051334627,-1.329343,-1.8618505,-0.036367584,-0.001107813,-0.14125921,-0.40184435,-0.32767785,0.059996516,-3.0736454,0.61803305,0.00011371544,-0.17008655,-0.000107681604,0.0014111091,0.028971123,-0.001736778,0.03178531,0.42541888,-1.4182562,1.9475397,-2.0948913,-1.575867,2.3967347,-0.12338966,0.30841026,-0.3747729,0.07918408,-0.026870143,-0.1548211,-0.11492168,0.36391866,-9.80665,0.98807013,47.729877,-1.0665883,-1.8217614,-3.5236568,-0.021240454,-0.16606352,-0.15983567,27.25,28.375,27.4375,31.0,32.75,33.4375
0.34805265,-0.5062448,-1.8815418,-1.6021433,-0.025622385,0.0060002645,-0.14215854,-0.40220118,-0.3276971,0.060022198,-3.073648,0.6179633,0.00021104135,-0.1709935,0.0014359367,0.0001752679,0.029294847,-0.0057251053,0.020137386,0.4251891,-1.4176545,1.946761,-2.0947592,-1.5759147,2.3964615,-0.12768805,0.31134462,-0.37594873,0.08121313,-0.02548713,-0.14747946,-0.22984336,0.3256114,-9.730036,0.92093146,47.698532,-0.8439464,-1.8312755,-3.631586,-0.05376964,-0.19133669,-0.27269632,27.25,28.375,27.4375,31.0,32.75,33.4375
0.35005164,0.10882486,-1.1277912,-1.0969398,-0.047096208,0.043502644,-0.16826619,-0.4025584,-0.32768217,0.06002011,-3.0735781,0.6180444,0.00018657454,-0.16989625,0.0016492455,-0.00093667756,0.031355124,-0.01072802,0.018190462,0.4248896,-1.4170169,1.9459957,-2.0945895,-1.5759505,2.396222,-0.12713006,0.31368563,-0.3772679,0.08559899,-0.025296858,-0.14497465,0.0,0.2681506,-9.576807,0.9925471,47.67793,-0.96575886,-1.8546277,-3.740463,-0.054132845,-0.20621508,-0.3189532,27.25,28.375,27.4375,31.0,32.75,33.4375
0.35205248,-0.5940817,-1.1376503,-1.0014096,-0.01303726,0.022587795,-0.15668152,-0.40287188,-0.32768828,0.060013514,-3.0735435,0.61782634,0.0001437984,-0.16888279,0.0034885898,-0.0017416694,0.035630584,-0.017938824,0.015714504,0.424673,-1.4164039,1.9452657,-2.0944068,-1.5759991,2.3958743,-0.12890181,0.31535748,-0.3795319,0.09451811,-0.026217684,-0.14426464,-0.019153614,0.22984336,-9.5385,0.98135734,47.685097,-0.8475876,-1.8782914,-3.7991517,-0.14015572,-0.20809501,-0.3243934,27.25,28.375,27.4375,31.0,32.75,33.4375
0.3540519,0.19158554,0.4088377,-0.54702425,-0.0035781178,0.016160402,-0.16633329,-0.4032572,-0.32769457,0.060053293,-3.0735388,0.6178632,0.00027097,-0.16903356,0.0032128969,-0.0019231611,0.035970874,-0.019555055,0.016895484,0.42439714,-1.4158025,1.9444512,-2.0942624,-1.5760468,2.3956225,-0.12859116,0.31714162,-0.38181782,0.09661325,-0.025864303,-0.14513798,-0.095768064,0.13407528,-9.385271,0.94331104,47.689575,-0.8586949,-1.8265389,-3.7841225,-0.17948194,-0.21531466,-0.36431625,27.25,28.375,27.4375,31.0,32.75,33.4375
0.35605222,0.81937206,0.6026637,-0.57533526,0.03562633,-0.0063801357,-0.17308445,-0.40358356,-0.3277133,0.060059447,-3.0735178,0.6177053,0.00028050435,-0.17179942,0.0027208317,0.00030840427,0.034237146,-0.016365992,0.014460083,0.42419267,-1.4151896,1.943695,-2.094095,-1.5760945,2.3953226,-0.13000663,0.3176867,-0.3882381,0.09886134,-0.025611905,-0.14411636,0.095768064,0.076614454,-9.289502,1.0149267,47.694054,-0.8885893,-1.7623687,-3.591916,-0.20969707,-0.23170021,-0.3868528,27.25,28.375,27.4375,31.0,32.75,33.4375
0.35805205,1.0334234,1.2442358,-0.61569095,0.04838785,-0.026842564,-0.17322226,-0.40393093,-0.3277028,0.060074855,-3.0734334,0.61766243,0.00030242885,-0.17180763,0.0010022322,0.0010276594,0.03420309,-0.015767517,0.024600044,0.42394194,-1.4145768,1.9429063,-2.0938785,-1.5761789,2.3950565,-0.1265903,0.31894428,-0.3919149,0.1006665,-0.025869247,-0.15083657,0.038307227,0.076614454,-9.193734,0.9858343,47.707485,-1.0460685,-1.6935843,-3.4706688,-0.2345061,-0.2658399,-0.34061822,27.25,28.375,27.4375,31.0,32.75,33.4375
0.3600521,0.67968947,0.5092705,-0.48168784,0.04861042,-0.029304586,-0.16796748,-0.40429404,-0.3277154,0.060084213,-3.07342,0.61757815,0.00032956398,-0.17293549,0.0016854673,0.0004968419,0.036284596,-0.016610673,0.031652134,0.4236896,-1.4139273,1.9421023,-2.093722,-1.5762156,2.3947537,-0.12757458,0.32185507,-0.3945249,0.10193938,-0.027460478,-0.15886368,-0.076614454,0.038307227,-9.270349,0.93436235,47.71286,-0.9593451,-1.6526545,-3.382644,-0.25798312,-0.2427283,-0.26990622,27.25,28.375,27.4375,31.0,32.75,33.4375
0.3620521,0.49348304,-0.14882629,-0.06681188,0.01564263,0.015647681,-0.17527725,-0.4046468,-0.32770985,0.0600914,-3.0734158,0.6174186,0.00024382751,-0.1739441,0.0017291055,0.00046345525,0.036023695,-0.016594248,0.039568014,0.42338938,-1.41329,1.9413007,-2.0934947,-1.5762151,2.3943548,-0.12842952,0.32349214,-0.39657873,0.102176644,-0.027285915,-0.16763313,-0.1340753,0.095768064,-9.11712,0.9410752,47.694946,-1.1098232,-1.64712,-3.399104,-0.26182923,-0.2621476,-0.17276204,27.25,28.375,27.4375,31.0,32.75,33.4375
0.3640519,-0.36115837,-0.18820941,-0.10229126,-0.02563004,0.048327923,-0.17525728,-0.40497455,-0.32768944,0.060108487,-3.0733008,0.61727786,0.00025421823,-0.17461984,0.0022033225,-0.00021738216,0.0358603,-0.01725855,0.042262945,0.4231608,-1.4127007,1.940524,-2.093232,-1.5763353,2.3940537,-0.12994923,0.3251103,-0.39687264,0.10133962,-0.026902623,-0.17184788,-0.17238252,0.1340753,-9.11712,0.97240865,47.694946,-1.0546554,-1.528857,-3.537078,-0.2791334,-0.29101154,-0.07504985,27.25,28.375,27.4375,31.0,32.75,33.4375
0.3660522,-1.4977198,-1.2459136,-0.34830412,-0.03579451,0.06877948,-0.1725404,-0.40532342,-0.32768652,0.060099237,-3.0732641,0.61711705,0.00016330341,-0.17619255,0.0019515097,0.0005014503,0.03401717,-0.013962279,0.040035527,0.42288476,-1.4120284,1.939722,-2.0930173,-1.5763592,2.3936825,-0.13081601,0.3250751,-0.39812243,0.098858066,-0.026600746,-0.17048608,-0.24899697,0.21068975,-9.11712,0.9097417,47.686886,-1.028239,-1.5083952,-3.6495018,-0.27450985,-0.3011768,-0.057012435,27.25,28.375,27.4375,31.0,32.75,33.4375
0.36805195,-1.773487,-1.7049564,-0.15643838,-0.050791174,0.09770452,-0.17962271,-0.40567377,-0.32767978,0.060106672,-3.073203,0.61697435,0.00015987712,-0.17791827,0.0022239117,-0.0007575469,0.034676448,-0.012665713,0.032314185,0.42263222,-1.4113905,1.9389213,-2.0928032,-1.5764316,2.3933492,-0.13183896,0.32902694,-0.39912558,0.09502186,-0.02773344,-0.16377866,-0.36391866,0.24899697,-9.193734,0.9992599,47.67345,-0.94105923,-1.66612,-3.6720471,-0.23678942,-0.3131934,-0.08343363,27.25,28.375,27.4375,31.0,32.75,33.4375
0.37005225,-2.0665734,-1.8273551,0.028160198,-0.05851675,0.10574438,-0.16989934,-0.40603718,-0.32768947,0.06011189,-3.0731819,0.6169158,0.00014755661,-0.18210237,0.0013909207,0.00032223333,0.032486696,-0.0063590566,0.023706295,0.422368,-1.4107288,1.938106,-2.0926259,-1.576456,2.3930516,-0.13321055,0.3324359,-0.404738,0.09060892,-0.028325161,-0.15653478,-0.40222588,0.2681506,-9.078813,1.0417832,47.686886,-0.9475001,-1.5431178,-3.5791593,-0.18946332,-0.3072071,-0.14514601,27.25,28.375,27.4375,31.0,32.75,33.4375
0.3720525,-1.5363427,-1.0791104,-0.37450388,-0.034445602,0.09926087,-0.17263956,-0.40639544,-0.32767788,0.060103282,-3.0730848,0.61689925,0.00018385281,-0.18506913,0.00038412018,0.0017082654,0.029662242,-6.4856154e-05,0.017370045,0.4221159,-1.4100674,1.9373277,-2.0924718,-1.5765518,2.3928022,-0.1336514,0.33330762,-0.40813965,0.08625333,-0.028331343,-0.15063623,-0.45968673,0.3256114,-9.040505,0.92093146,47.69763,-0.93785363,-1.721834,-3.5536199,-0.12339876,-0.34029943,-0.268057,27.25,28.375,27.4375,31.0,32.75,33.4375
0.37405246,-0.91017246,-0.9013285,-0.5131303,-0.0052900678,0.07092453,-0.1749302,-0.40676877,-0.3276942,0.060118202,-3.0730712,0.6168408,0.00022010393,-0.18510623,0.00053152477,0.0006101516,0.031358976,-0.0018217555,0.012219041,0.42186385,-1.4094061,1.9364918,-2.092303,-1.576588,2.392516,-0.13326307,0.3360795,-0.40916157,0.086824946,-0.029140513,-0.14509206,-0.57460845,0.34476504,-9.174581,0.9835985,47.695843,-0.9601611,-1.658209,-3.5298316,-0.093591966,-0.33538955,-0.3266707,27.25,28.375,27.4375,31.0,32.75,33.4375
0.37605166,-0.70415205,-0.7153891,-0.25775784,-0.017484004,0.06654405,-0.17727447,-0.40711963,-0.32768452,0.06009511,-3.072992,0.6167703,0.0001746939,-0.18697701,0.001210206,0.00025151102,0.031611115,-2.339519e-05,0.00682724,0.42159885,-1.408721,1.9357156,-2.0921366,-1.5766481,2.3922176,-0.13522139,0.33815894,-0.4104313,0.08448591,-0.030115245,-0.14165005,-0.7278373,0.49799395,-9.136273,0.94331104,47.687782,-0.92428577,-1.5423157,-3.58886,-0.04930864,-0.33991516,-0.40771443,27.25,28.375,27.4375,31.0,32.75,33.4375
