Tylouw/Master_Thesis_Code/training_data/batch_1/big_rod_t0.2/sample_59_session_3.csv
timestamp[s],tcp_force_x[N],tcp_force_y[N],tcp_force_z[N],tcp_force_rx[Nm?],tcp_force_ry[Nm?],tcp_force_rz[Nm?],tcp_pose_x[m],tcp_pose_y[m],tcp_pose_z[m],tcp_pose_rx[rot_vec_x],tcp_pose_ry[rot_vec_y],tcp_pose_rz[rot_vec_z],tcp_velo_x[m/s],tcp_velo_y[m/s],tcp_velo_z[m/s],tcp_velo_rx[rot_vec_x/s],tcp_velo_ry[rot_vec_y/s],tcp_velo_rz[rot_vec_z/s],q1[rad],q2[rad],q3[rad],q4[rad],q5[rad],q6[rad],qd1[rad/s],qd2[rad/s],qd3[rad/s],qd4[rad/s],qd5[rad/s],qd6[rad/s],tool_acc_x,tool_acc_y,tool_acc_z,current_of_whole_robot[A],voltage_of_whole_robot[V],current_J1[A],current_J2[A],current_J3[A],current_J4[A],current_J5[A],current_J6[A],temp_J1[C],temp_J2[C],temp_J3[C],temp_J4[C],temp_J5[C],temp_J6[C]
1.0340009e-06,-0.46138558,-1.2165295,-0.25268105,-0.0338614,0.030490557,-0.0080777975,-0.37289172,-0.3282213,0.05993983,-3.078471,0.6248638,-0.00024365746,0.003166288,0.0015249258,-0.00460802,0.0043332963,-0.009296834,-8.377028e-05,0.4481623,-1.4708489,2.0095737,-2.1077154,-1.5706857,2.4230795,-8.070228e-05,0.0043411264,0.005770015,0.00014476862,0.00013560742,0.0,0.095768064,0.2681506,-8.90643,0.784413,47.733456,-0.17877594,-2.8863692,-2.42892,-0.49775034,0.15611908,-0.010119517,26.9375,28.125,27.0625,30.5,32.125,32.6875
0.002055323,-0.3925872,-1.1303332,-0.44968113,-0.02133232,0.025496675,-0.006275908,-0.3728968,-0.32823682,0.059955534,-3.0785193,0.6248546,-0.00024337735,0.00033798115,0.00015170319,-0.0034588617,8.68477e-05,-0.00054412364,-7.994164e-05,0.4481623,-1.4708611,2.009549,-2.1077063,-1.5706495,2.4230676,-7.968159e-05,0.0040735076,0.005534902,-0.009080935,0.00014862907,0.0,0.05746084,0.15322891,-8.848969,0.7150385,47.71823,-0.20204878,-2.732985,-2.4427488,-0.46524268,0.14633824,-0.00086861255,26.9375,28.125,27.0625,30.5,32.125,32.6875
0.004054638,-0.30029085,-0.90804356,-0.5491307,-0.010557787,0.016891459,-6.5669294e-05,-0.37286693,-0.328233,0.05992355,-3.0784984,0.62479234,-0.00034260988,-0.0010426092,-0.0005173418,-0.0026923835,-0.0017404056,0.0032312758,-7.7464814e-05,0.4481742,-1.4708371,2.009596,-2.1077073,-1.5706376,2.4230433,-7.868635e-05,0.0039961315,0.0045858817,-0.012248884,0.00015027019,0.0,0.15322891,0.19153613,-8.791509,0.7463667,47.705692,-0.18598342,-3.067408,-2.6183748,-0.36137778,0.15460731,0.00084869843,26.9375,28.125,27.0625,30.5,32.125,32.6875
0.006054338,-0.3745428,-0.8168362,-0.5724595,0.014251314,-0.002436931,-0.01348856,-0.372884,-0.32821354,0.059917677,-3.0784776,0.62486565,-0.000292624,-0.00068040285,-0.00034148502,-0.0018777977,-0.00090303575,0.0015123221,-7.6819684e-05,0.4481382,-1.4708375,2.0096204,-2.107753,-1.5706614,2.4230556,-7.771574e-05,0.0031422277,0.0025615317,-0.007458566,0.00014709997,0.0,0.05746084,0.15322891,-8.983045,0.7418897,47.728977,-0.2044802,-2.9386766,-2.5162263,-0.36800492,0.1599546,-0.0070108566,26.9375,28.125,27.0625,30.5,32.125,32.6875
0.008053929,0.5860626,0.39389306,-0.9287507,0.026713202,-0.003469732,-0.012519298,-0.37289286,-0.32821548,0.05990975,-3.0784564,0.62480295,-0.00029848426,-1.9706144e-05,-2.098915e-05,-0.0015137512,-2.585187e-05,-0.00028892382,-7.6701e-05,0.44815025,-1.4707899,2.0095837,-2.1077406,-1.5706857,2.4230313,-7.676877e-05,0.0022028484,0.0019444071,-0.0038985882,0.00014376511,0.0,0.019153614,0.095768064,-8.983045,0.7530795,47.749577,-0.1392163,-2.9928575,-2.4570673,-0.42889696,0.15007189,-0.0029043474,26.9375,28.125,27.0625,30.5,32.125,32.6875
0.010054854,0.3171168,0.4357775,-1.2316488,0.031989936,-0.0056275013,-0.010373086,-0.37289092,-0.32820812,0.059919234,-3.078466,0.62486315,-0.00025447327,3.7082384e-05,1.2313103e-05,-0.0011192977,9.290174e-05,-0.0005242134,-8.544832e-05,0.4481382,-1.470838,2.00962,-2.107764,-1.5706857,2.4230556,-8.541663e-05,0.0016836115,0.0012790345,-0.0024504527,0.00014055884,0.0,-0.019153614,0.038307227,-9.32781,0.71951014,47.752266,-0.567739,-2.251957,-3.1174185,-0.4382468,0.13266018,-0.041968912,26.9375,28.125,27.0625,30.5,32.125,32.6875
0.012054118,0.13815697,-0.31304798,-1.4147819,0.0054421495,0.010935066,-0.01328024,-0.37287992,-0.32822436,0.059904058,-3.078452,0.6248792,-0.00033907706,0.00017035536,0.00012610313,-0.0038885062,0.0031261533,-0.0068274583,-0.00018532804,0.44816226,-1.4707879,2.0095942,-2.1077392,-1.5706614,2.4230914,-0.00018167491,0.00910423,-0.0009136245,-0.0006832989,0.00013749149,5.596832e-06,0.05746084,0.019153614,-9.423578,0.78217715,47.74062,-0.63156974,-2.2098389,-3.2986317,-0.45018277,0.11215541,-0.10818493,26.9375,28.125,27.0625,30.5,32.125,32.6875
0.014054093,-0.48961505,-0.7953543,-1.4946457,-0.03763535,0.03702851,-0.018139403,-0.37288776,-0.32818842,0.05987735,-3.0783694,0.6248855,-0.0004099554,-0.005694242,0.0006362472,-0.0037925607,0.0027277807,-0.0060399743,-0.0064744814,0.448112,-1.4707366,2.0095909,-2.107703,-1.5706977,2.4230556,-0.006483321,0.01786722,-0.010798921,-0.000443333,0.0001345546,3.6543312e-07,0.019153614,0.19153613,-9.519346,0.7351769,47.701214,-0.42323983,-2.805671,-2.9921803,-0.42575145,0.117105074,-0.15225556,26.9375,28.125,27.0625,30.5,32.125,32.6875
0.016054103,-1.2808515,-1.9474586,-1.6932591,-0.057993665,0.059904963,-0.014252787,-0.3728694,-0.32819414,0.0598615,-3.0783513,0.62474304,-0.00047421906,-0.0056468486,0.0013350352,-0.0043480378,0.0033883485,-0.0074088317,-0.002097608,0.44814757,-1.4707004,2.0095794,-2.1076672,-1.5707096,2.4230046,-0.0077534323,0.01835463,-0.010146531,-6.43768e-05,0.00013179965,-0.00564705,-0.36391866,0.30645782,-9.653421,0.69041777,47.7254,-0.3030752,-2.6929948,-3.1680646,-0.4346631,0.11298822,-0.12628317,26.9375,28.125,27.0625,30.5,32.125,32.6875
0.018053478,-1.6613266,-2.0373836,-1.6355175,-0.09260619,0.100738764,-0.026410403,-0.37287396,-0.32819894,0.05985127,-3.0783648,0.6248799,-0.0005464347,-0.0056327446,0.0010620377,-0.004149741,0.0032662957,-0.0070244567,0.0020294206,0.44811168,-1.4706765,2.0095794,-2.1076791,-1.5706495,2.4230523,-0.0071864454,0.01825934,-0.010510678,-4.203345e-06,7.232435e-05,-0.009206789,-0.38307226,0.38307226,-9.730036,0.7284641,47.701214,-0.5189906,-2.4079835,-3.5563085,-0.4208668,0.0945563,-0.11809668,26.9375,28.125,27.0625,30.5,32.125,32.6875
0.020053778,-2.141743,-2.3172374,-1.5084186,-0.089531355,0.107634194,-0.032355808,-0.37287015,-0.3282036,0.059848074,-3.0783927,0.6248082,-0.00061255135,-0.0057883025,0.0011379662,-0.0042054662,0.0044557787,-0.00947914,0.0013081867,0.44809967,-1.4706639,2.009567,-2.1076539,-1.5706137,2.422992,-0.007468514,0.020101078,-0.013224373,0.0035958432,6.611563e-05,-0.008766752,-0.57460845,0.38307226,-9.825804,0.7978386,47.754055,-0.6447304,-2.4219456,-3.4901006,-0.4367063,0.077604875,-0.14504962,26.9375,28.125,27.0625,30.5,32.125,32.6875
0.022053512,-2.4593923,-2.4550426,-1.8875525,-0.057173632,0.09126284,-0.015509078,-0.37288684,-0.3281918,0.059830297,-3.078308,0.6247535,-0.00061974773,-0.0066807084,0.0014055886,-0.0045134714,0.005020468,-0.010653849,0.0002732023,0.448111,-1.470579,2.0095065,-2.1076176,-1.5706857,2.42298,-0.008784132,0.022423621,-0.015309895,0.0046615326,6.354901e-05,-0.009046078,-0.7469909,0.4213795,-9.691729,0.7105615,47.7451,-0.58596236,-2.4467947,-3.4618168,-0.4587072,0.08530423,-0.18950899,26.9375,28.125,27.0625,30.5,32.125,32.6875
0.024053656,-1.8430109,-1.643749,-1.6464934,-0.049288742,0.09668466,-0.043216027,-0.37291086,-0.3281908,0.05983107,-3.0783184,0.6248903,-0.00063682644,-0.008650995,0.0012083339,-0.0034534773,0.0034910731,-0.0074538686,1.7545151e-05,0.44806275,-1.4705553,2.0094817,-2.1076305,-1.5706495,2.4230158,-0.010193653,0.02264332,-0.017658986,0.0032444743,4.6327576e-05,-0.010198041,-0.63206923,0.36391866,-9.787497,0.7239871,47.716442,-0.63327456,-2.4080417,-3.4047449,-0.4408469,0.06919085,-0.19895488,26.9375,28.125,27.0625,30.5,32.125,32.6875
0.026053518,-0.8048677,-1.2276005,-1.7288933,-0.05892609,0.10767293,-0.06351754,-0.37292355,-0.32820323,0.05981075,-3.0783136,0.624773,-0.0006951854,-0.010407792,0.000856374,-0.0020465236,0.0016889258,-0.0036897983,0.0010987645,0.44807446,-1.4704597,2.0094206,-2.1076186,-1.5706495,2.422955,-0.011118938,0.021894138,-0.019764565,0.0019257544,3.069279e-05,-0.012202983,-0.51714754,0.3256114,-9.864111,0.7553206,47.74868,-0.586759,-2.2501326,-3.4963017,-0.43611002,0.060091123,-0.20511645,26.9375,28.125,27.0625,30.5,32.125,32.6875
0.02805352,-1.8127964,-2.0141308,-1.7382299,-0.04151918,0.07931378,-0.06519896,-0.37297106,-0.32821774,0.059829682,-3.0783558,0.6247604,-0.0006464976,-0.011376458,0.00050179363,-0.001980684,0.0014046467,-0.00305083,0.003341114,0.44805044,-1.4704111,2.0093238,-2.1076186,-1.5706376,2.4229178,-0.011315037,0.02362387,-0.02170238,0.001434705,3.867971e-06,-0.014639791,-0.59376204,0.30645782,-9.749189,0.78888994,47.711964,-0.732307,-2.2771916,-3.527781,-0.39003992,0.03770432,-0.19453907,26.9375,28.125,27.0625,30.5,32.125,32.6875
0.030054184,-1.9935921,-1.4474546,-1.565984,-0.035504423,0.073489666,-0.07261688,-0.37297818,-0.3282123,0.05981384,-3.0783436,0.62479734,-0.0006869582,-0.012944444,0.00083710614,-0.0021109944,0.0013879153,-0.0030220915,0.0024033396,0.4480256,-1.4703745,2.009323,-2.107631,-1.5706257,2.4229176,-0.013370926,0.025990698,-0.02397102,0.0013034146,2.5255088e-07,-0.015756123,-0.59376204,0.21068975,-9.768343,0.7777002,47.72271,-0.73548305,-2.325251,-3.4951215,-0.37696075,0.03178446,-0.19787169,26.9375,28.125,27.0625,30.5,32.125,32.6875
0.032053865,-1.8077338,-0.82674825,-1.4625044,-0.025380291,0.07295904,-0.09333333,-0.3730197,-0.32820874,0.059809722,-3.0783448,0.62481725,-0.00064571673,-0.014438476,0.00074046483,-0.001627121,0.0007841605,-0.0017786672,0.0018749082,0.44798923,-1.4703141,2.0092742,-2.1076667,-1.5706376,2.4228935,-0.0145473825,0.027272854,-0.026445568,0.0011132916,1.6489768e-08,-0.016402405,-0.47884035,0.1340753,-9.691729,0.7978386,47.73883,-0.71359193,-2.368917,-3.4291992,-0.36737016,0.017793227,-0.18752345,26.9375,28.125,27.0625,30.5,32.125,32.6875
0.03405364,-1.2247931,-0.78001535,-1.4347315,0.0076290225,0.07557256,-0.10864361,-0.3730616,-0.32820502,0.059807923,-3.0783257,0.6247561,-0.00058535574,-0.015759934,0.0011177964,-0.0010082136,0.0006443643,-0.0014920566,0.00012544102,0.44797662,-1.4702419,2.0092018,-2.1076782,-1.5706857,2.4228454,-0.016458299,0.027978215,-0.028986534,0.0026291984,1.076664e-09,-0.016562667,-0.36391866,-0.019153614,-9.5385,0.784413,47.741516,-0.7438426,-2.3186898,-3.3935657,-0.34404728,0.012826189,-0.18059283,26.9375,28.125,27.0625,30.5,32.125,32.6875
0.03605414,-1.2060918,-0.0006661715,-1.271149,0.01859464,0.049952976,-0.118963204,-0.37311205,-0.32818675,0.059802182,-3.0782723,0.6248995,-0.0006039062,-0.016315244,0.0010467275,-0.00040903015,0.0006384638,-0.0014830643,0.0006941189,0.4479044,-1.4701581,2.0091174,-2.1076539,-1.5706977,2.4228694,-0.016827188,0.028247539,-0.031069605,0.0044319136,7.029846e-11,-0.017499477,-0.36391866,0.0,-9.519346,0.73741806,47.74241,-0.65196395,-2.2266917,-3.4223127,-0.35729504,0.0038219993,-0.18823043,26.9375,28.125,27.0625,30.5,32.125,32.6875
0.038053952,-0.9632147,0.008709115,-1.4029235,0.02767521,0.03754756,-0.12807146,-0.37310866,-0.32821065,0.059801295,-3.0783455,0.6246833,-0.00063762366,-0.017830852,0.0011469553,7.309043e-05,0.0012826623,0.00016834922,0.00040607236,0.4479282,-1.4701337,2.0090926,-2.1076539,-1.5706619,2.422749,-0.017513877,0.02963299,-0.03370659,0.0044792052,-0.0013015714,-0.0178936,-0.21068975,-0.114921674,-9.461885,0.7016076,47.70032,-0.7035066,-2.158463,-3.393589,-0.34261084,0.0034271376,-0.21115309,26.9375,28.125,27.0625,30.5,32.125,32.6875
0.040053602,-0.66260517,-0.553516,-1.3578686,0.035729617,0.04276044,-0.15016285,-0.37315923,-0.32820958,0.059806153,-3.0783358,0.624874,-0.00067207456,-0.019212086,0.00091548596,0.00014262472,0.00097639003,0.00084427773,0.000120685094,0.44785592,-1.470061,2.0089962,-2.10763,-1.5706261,2.422797,-0.018316679,0.031862024,-0.036207106,0.0040093614,-0.0013249322,-0.018408976,-0.15322891,-0.19153613,-9.500193,0.7732232,47.72719,-0.6773077,-2.20934,-3.3666248,-0.3168097,-0.014252156,-0.19171874,26.9375,28.125,27.0625,30.5,32.125,32.6875
0.04205416,-1.1128286,-0.72325283,-1.2978553,0.0192435,0.027997894,-0.15487507,-0.37321058,-0.32818294,0.05979931,-3.07828,0.62486154,-0.00060391915,-0.019862989,0.0007116135,0.00044500388,0.0010119623,0.000694592,0.0012877812,0.44780782,-1.4699887,2.0089352,-2.107641,-1.5706981,2.4227483,-0.01854372,0.03298493,-0.038416926,0.0052448427,-0.0012949245,-0.019802041,-0.1340753,-0.095768064,-9.519346,0.8179876,47.737934,-0.69186807,-2.185909,-3.3720112,-0.31308085,-0.03762146,-0.19880635,26.9375,28.125,27.0625,30.5,32.125,32.6875
0.044053342,-0.6510111,-1.1233816,-1.3160847,0.013685011,0.027822593,-0.16799392,-0.37324873,-0.32818237,0.059810925,-3.0783072,0.624906,-0.0006247598,-0.020160053,0.0013158151,0.00040530143,0.001967152,-0.00081965426,0.0011365009,0.44774753,-1.4699526,2.0088632,-2.1076162,-1.5706619,2.4227123,-0.01980961,0.033724304,-0.03965909,0.007527358,-0.0014982997,-0.02091605,-0.15322891,-0.019153614,-9.404425,0.74413085,47.729877,-0.6419221,-2.087972,-3.4402323,-0.33154467,-0.031685837,-0.18987413,26.9375,28.125,27.0625,30.5,32.125,32.6875
0.046053983,-1.0088646,-1.0789324,-1.4737073,6.997468e-05,0.018261533,-0.17007779,-0.37326944,-0.32817268,0.05979917,-3.0782506,0.6248941,-0.00064933277,-0.021219954,0.0016080701,0.0006499359,0.003396176,-0.00040579532,0.0015864872,0.4477353,-1.4698802,2.0088027,-2.1075804,-1.5706986,2.4227,-0.020326339,0.035235755,-0.04216463,0.008771377,-0.002969788,-0.021878181,-0.019153614,0.038307227,-9.404425,0.7396539,47.7254,-0.639421,-2.0911598,-3.4268413,-0.33314532,-0.041913368,-0.19487013,26.9375,28.125,27.0625,30.5,32.125,32.6875
0.048053715,-0.16894579,-0.95778275,-1.5122352,-0.013987932,0.0315153,-0.16937426,-0.37331894,-0.32817084,0.05980041,-3.078283,0.6248425,-0.00060409564,-0.021854129,0.0018851426,0.0008229419,0.004313215,-0.00044197097,0.0026842738,0.44768712,-1.4698199,2.0087416,-2.1076157,-1.5706991,2.4226155,-0.020871049,0.036102872,-0.043785498,0.009957172,-0.0037818793,-0.023518322,0.076614454,0.19153613,-9.481039,0.7172743,47.701214,-0.6405022,-1.9801759,-3.3843937,-0.32980055,-0.03872684,-0.17819756,26.9375,28.125,27.0625,30.5,32.125,32.6875
0.050053984,-0.60672796,-1.37959,-1.5519265,-0.020015294,0.010291694,-0.1466379,-0.37335053,-0.32815614,0.059784427,-3.0782025,0.62486374,-0.0007281524,-0.022765987,0.0019265009,0.001226784,0.004094591,-0.00042744965,0.0038962539,0.44763878,-1.4696999,2.008622,-2.107508,-1.570711,2.4225907,-0.021900559,0.036984798,-0.045951843,0.011132288,-0.0035973105,-0.025758728,0.095768064,0.28730422,-9.404425,0.7777002,47.73256,-0.6338485,-2.0490549,-3.4557734,-0.34108284,-0.04221651,-0.15996286,26.9375,28.125,27.0625,30.5,32.125,32.6875
0.052053906,-0.5924713,-1.6419286,-1.6794132,-0.030060466,0.007210629,-0.14908615,-0.37342072,-0.32819006,0.059828836,-3.0782816,0.62487954,-0.00056289573,-0.023634057,0.0018997835,0.0014823066,0.003546255,-0.0003661654,0.0044008177,0.44763842,-1.4696637,2.0084884,-2.1075432,-1.5707105,2.4225903,-0.022952776,0.03792718,-0.04768728,0.01163077,-0.0031295964,-0.027315915,-0.019153614,0.36391866,-9.442732,0.75084364,47.707485,-0.56857646,-1.9593174,-3.5046482,-0.33288145,-0.04548651,-0.17074049,26.9375,28.125,27.0625,30.5,32.125,32.6875
0.054054674,-0.6361218,-2.0462804,-1.5234014,-0.04514073,0.013408714,-0.14359845,-0.37348098,-0.32815313,0.059813987,-3.0782316,0.6248491,-0.0006158349,-0.024150899,0.0017276377,0.0013618926,0.0035878173,-0.0011261128,0.005483121,0.44753033,-1.4695553,2.0083926,-2.1074955,-1.5707344,2.4224696,-0.02328826,0.039608397,-0.049436264,0.0123992935,-0.002842957,-0.028733045,0.0,0.34476504,-9.5385,0.78217715,47.71286,-0.6365983,-1.9266398,-3.5134454,-0.34498006,-0.07827437,-0.15281,26.9375,28.125,27.0625,30.5,32.125,32.6875
0.056053605,-0.56209093,-2.003437,-1.7216015,-0.0577276,0.026860926,-0.15236574,-0.37350082,-0.32815802,0.059821747,-3.0782187,0.62478817,-0.0006339438,-0.02511641,0.0017471899,0.0016986462,0.004041614,-0.0009515973,0.0066912654,0.44753015,-1.4695067,2.0083077,-2.107435,-1.5707473,2.4224331,-0.023871016,0.040929355,-0.051938917,0.013620998,-0.0033320477,-0.030521475,0.0,0.45968673,-9.519346,0.75755644,47.723602,-0.59663194,-1.8793032,-3.4461832,-0.3485846,-0.0841823,-0.13925296,26.9375,28.125,27.0625,30.5,32.125,32.6875
0.058053546,-1.19436,-2.7396836,-1.6871032,-0.042343028,0.033379532,-0.12944798,-0.3735671,-0.32816237,0.059823643,-3.078266,0.624816,-0.00065086386,-0.02628274,0.0022874002,0.001607462,0.0057623577,-0.00026613657,0.0075626294,0.4474458,-1.4694105,2.0082004,-2.107447,-1.5706996,2.4223602,-0.024686672,0.042704526,-0.053712595,0.013753569,-0.005184089,-0.032203317,-0.019153614,0.45968673,-9.557653,0.8247004,47.731667,-0.6332866,-1.859731,-3.5184932,-0.37362254,-0.08027502,-0.12135017,26.9375,28.125,27.0625,30.5,32.125,32.6875
0.060054123,-1.3964758,-2.5083725,-1.6505287,-0.044614106,0.040318556,-0.1376193,-0.3736026,-0.32814968,0.05981508,-3.0782206,0.6248452,-0.00070036226,-0.02721232,0.0021456261,0.0014101848,0.0063554198,0.00019232434,0.00809779,0.4473977,-1.4693258,2.008116,-2.1073987,-1.5707115,2.422336,-0.024761375,0.044857126,-0.05551108,0.013244601,-0.0059242235,-0.032809753,-0.11492168,0.4405331,-9.5385,0.7642693,47.73614,-0.6079346,-1.8589474,-3.5242,-0.37867057,-0.073803216,-0.10107752,26.9375,28.125,27.0625,30.5,32.125,32.6875
0.06205368,-1.777238,-2.1301565,-1.3591629,-0.043577336,0.036747463,-0.13300559,-0.37369466,-0.32813606,0.059828814,-3.0781908,0.62478125,-0.000599638,-0.028943911,0.0018966773,0.0016727808,0.005967402,0.0022895134,0.008425087,0.4473375,-1.4692055,2.0079472,-2.1073759,-1.570784,2.42224,-0.02547666,0.04679691,-0.057875115,0.011609205,-0.0064903153,-0.033849075,-0.05746084,0.38307226,-9.557653,0.76874626,47.713753,-0.5782919,-1.8532636,-3.571681,-0.35396427,-0.07987105,-0.105781645,26.9375,28.125,27.0625,30.5,32.125,32.6875
0.06405388,-1.2618356,-1.528564,-1.1852651,-0.04487674,0.05131658,-0.15028134,-0.37371528,-0.32817808,0.05983692,-3.0782728,0.6247386,-0.00063717645,-0.030737344,0.0018730006,0.0023315777,0.006373988,0.004808962,0.010032333,0.4473493,-1.4691452,2.0078623,-2.1073759,-1.5707124,2.4222147,-0.026068337,0.04812949,-0.06072053,0.011033717,-0.007954732,-0.036042955,-0.19153613,0.45968673,-9.595961,0.7530795,47.73077,-0.6464658,-1.7736127,-3.4414244,-0.34436095,-0.07028633,-0.07802574,26.9375,28.125,27.0625,30.5,32.125,32.6875
0.06605427,-1.2301371,-1.6939435,-1.271111,-0.030510414,0.046176925,-0.13660666,-0.37381685,-0.32814994,0.0598513,-3.078233,0.6247508,-0.00052543025,-0.03138303,0.0024964944,0.0016228034,0.008721445,0.004667012,0.009566727,0.44725323,-1.4690366,2.0077074,-2.107364,-1.5707849,2.4221315,-0.026427047,0.05033891,-0.061449833,0.010700934,-0.010010749,-0.03593114,-0.17238252,0.47884035,-9.500193,0.7150385,47.7245,-0.6680441,-1.8836322,-3.5182009,-0.34603417,-0.066650674,-0.06649345,26.9375,28.125,27.0625,30.5,32.125,32.6875
0.06805507,-1.2181063,-1.8699819,-1.2102284,-0.019382738,0.049474712,-0.13726164,-0.37385494,-0.3281596,0.059860308,-3.0782514,0.62467855,-0.0005478369,-0.034097888,0.0020380274,0.0035267775,0.008170216,0.009122233,0.008160949,0.44722906,-1.4689646,2.0075967,-2.1073163,-1.5707735,2.42206,-0.027051548,0.051000044,-0.06659877,0.010938873,-0.011450687,-0.03514363,-0.19153613,0.36391866,-9.385271,0.7284641,47.70211,-0.6724194,-1.7491189,-3.4672856,-0.33527067,-0.023407135,-0.07613474,26.9375,28.125,27.0625,30.5,32.125,32.6875
0.07005362,-1.213146,-1.2903994,-1.1039315,-0.0256053,0.049534295,-0.13860519,-0.37392414,-0.32814804,0.05985618,-3.0782409,0.6246189,-0.00050052867,-0.03427906,0.0022290656,0.002075286,0.009790451,0.0068448726,0.0077308994,0.44716898,-1.4688553,2.007489,-2.1073282,-1.5708097,2.4219642,-0.027247887,0.054680694,-0.067258015,0.010671363,-0.01192806,-0.034907993,-0.30645782,0.34476504,-9.385271,0.8784135,47.749577,-0.6732398,-1.9108055,-3.3841836,-0.31781533,-0.021803632,-0.10359563,26.9375,28.125,27.0625,30.5,32.125,32.6875
0.07205334,-0.8724243,-0.8391735,-0.98536164,-0.028089078,0.0628602,-0.14044866,-0.3740091,-0.32816356,0.05988606,-3.0782769,0.624625,-0.000426673,-0.03467822,0.002247262,0.0018159813,0.0096054515,0.005433312,0.008529439,0.44712073,-1.468759,2.0073092,-2.1073043,-1.5708092,2.4219153,-0.02816383,0.05624136,-0.06860562,0.011647248,-0.011150368,-0.036624014,-0.34476504,0.28730422,-9.385271,0.7463667,47.72629,-0.67305684,-1.8745067,-3.4984565,-0.32452992,-0.03510851,-0.07975501,26.9375,28.125,27.0625,30.5,32.125,32.6875
0.074053645,-1.3746085,-1.2642956,-0.9902751,-0.019942585,0.050119124,-0.1443319,-0.3740728,-0.32817337,0.05988385,-3.0782921,0.6245699,-0.0004527142,-0.0373044,0.00046318467,0.00451198,0.0052220877,0.010132538,0.008352214,0.44707257,-1.4686266,2.0071633,-2.10728,-1.5707964,2.421831,-0.028477678,0.05593153,-0.07445986,0.011671915,-0.0092422115,-0.03676101,-0.38307226,0.22984336,-9.270349,0.7083204,47.741516,-0.7210447,-1.7435795,-3.389155,-0.3237241,-0.05535024,-0.0738049,26.9375,28.125,27.0625,30.5,32.125,32.6875
0.076053455,-1.359164,-1.4522475,-1.0179099,-0.01406196,0.05172037,-0.13164507,-0.3741453,-0.32816982,0.059906524,-3.0782895,0.62451065,-0.00038912444,-0.03716571,0.0004011465,0.003527494,0.005719759,0.008154986,0.009375543,0.44702464,-1.4685428,2.0070083,-2.1072323,-1.5708326,2.4217465,-0.028504955,0.058196053,-0.074684784,0.011627122,-0.008836081,-0.03781216,-0.30645782,0.24899697,-9.289502,0.7486078,47.737038,-0.7993568,-1.670378,-3.2414174,-0.30202925,-0.0659919,-0.08123784,26.9375,28.125,27.0625,30.5,32.125,32.6875
0.078053325,-1.2921572,-1.1103648,-1.1320773,-0.015124522,0.051936716,-0.13515994,-0.3742307,-0.32817447,0.05989252,-3.0782797,0.6245479,-0.00036238795,-0.038617298,0.00034658084,0.0026253099,0.0068543977,0.006847983,0.008851109,0.44696423,-1.4683734,2.0068624,-2.107268,-1.570845,2.4217107,-0.02939877,0.06308204,-0.078023635,0.011749586,-0.009300587,-0.038178,-0.45968673,0.21068975,-9.251195,0.8157518,47.7245,-0.7271929,-1.932862,-3.41968,-0.30225322,-0.06651105,-0.0696239,26.9375,28.125,27.0625,30.5,32.125,32.6875
0.08005431,-1.3114434,-1.1862264,-1.3358377,-0.00734483,0.054646514,-0.14170027,-0.37431896,-0.32816154,0.05990906,-3.0782583,0.62464076,-0.0003370852,-0.040064942,8.179658e-05,0.0043523465,0.005451939,0.009524143,0.0062121213,0.44686797,-1.468266,2.0066955,-2.10722,-1.5708569,2.4216752,-0.030273236,0.061904427,-0.0809393,0.012822328,-0.0091943955,-0.036412574,-0.28730422,0.19153613,-9.346964,0.7642693,47.72808,-0.7617543,-1.7424977,-3.2638617,-0.30673653,-0.08452365,-0.10147971,26.9375,28.125,27.0625,30.5,32.125,32.6875
0.08205382,-1.3339771,-1.1246771,-1.3169875,-0.0069740233,0.054044668,-0.13490722,-0.3743968,-0.3281775,0.059922077,-3.0782843,0.6244919,-0.00028352393,-0.041418992,0.00017196518,0.0041313004,0.006748314,0.009908095,0.006347481,0.44684383,-1.4681332,2.0065143,-2.107196,-1.5708812,2.421555,-0.030758617,0.064811766,-0.08363687,0.012830006,-0.010534387,-0.03702884,-0.3256114,0.21068975,-9.308657,0.8112748,47.728977,-0.764719,-1.6997766,-3.213739,-0.3032057,-0.06965302,-0.10687025,26.9375,28.125,27.0625,30.5,32.125,32.6875
0.08405421,-1.3706902,-0.8701076,-1.3260753,-0.013668107,0.050976727,-0.13688731,-0.37449524,-0.3281757,0.059935506,-3.0782914,0.62451196,-0.00022948108,-0.041958667,0.00047987158,0.0033747004,0.008182294,0.008452736,0.007141686,0.44675955,-1.4680004,2.0063345,-2.1071832,-1.5708936,2.4214826,-0.03136633,0.06756521,-0.08507864,0.0134509355,-0.011199396,-0.038428728,-0.2681506,0.22984336,-9.270349,0.7642693,47.72719,-0.78704596,-1.7820995,-3.2904778,-0.3015268,-0.07778084,-0.11115355,26.9375,28.125,27.0625,30.5,32.125,32.6875
0.08605401,-1.6391739,-1.5888414,-1.4223286,-0.009610502,0.049119,-0.12274663,-0.3745416,-0.32817248,0.059913527,-3.0782468,0.6244072,-0.00036407652,-0.04294247,0.0002300248,0.0033592402,0.007936117,0.008192785,0.006787201,0.44671142,-1.4678321,2.0061781,-2.1070879,-1.5708936,2.4213748,-0.032003727,0.06968417,-0.08747728,0.013856895,-0.010873341,-0.038709488,-0.36391866,0.24899697,-9.404425,0.76874626,47.737038,-0.7280108,-1.8804529,-3.1072407,-0.27856123,-0.08658375,-0.12961471,26.9375,28.125,27.0625,30.5,32.125,32.6875
0.08805365,-1.6351918,-1.7686508,-1.3869092,-0.018848399,0.047215167,-0.13207178,-0.37463006,-0.32817215,0.05993354,-3.0782375,0.6244064,-0.00026009767,-0.042913657,0.0011032033,0.0023242417,0.009533982,0.005750808,0.0055541685,0.44666287,-1.4677237,2.0060103,-2.1070755,-1.5709413,2.421327,-0.033350993,0.07146755,-0.08727963,0.014767462,-0.011255173,-0.038823582,-0.28730422,0.30645782,-9.308656,0.8291774,47.729877,-0.73591197,-1.7600222,-3.287086,-0.28649864,-0.075617455,-0.121951014,26.9375,28.125,27.0625,30.5,32.125,32.6875
0.09005425,-1.4687897,-1.8280294,-1.4496912,-0.027904153,0.048927736,-0.12941195,-0.37473103,-0.3281586,0.059939165,-3.0782008,0.6243981,-0.00021361015,-0.04587093,0.00028544135,0.0040017427,0.008133636,0.009226897,0.0048921206,0.44657853,-1.4675672,2.0058172,-2.1070397,-1.5709895,2.4212425,-0.03431205,0.07346876,-0.093428425,0.015173029,-0.011505581,-0.039118268,-0.3256114,0.2681506,-9.3661175,0.8090337,47.74062,-0.6501611,-1.869559,-3.1258485,-0.27277017,-0.06927301,-0.1546213,26.9375,28.125,27.0625,30.5,32.125,32.6875
0.09205406,-1.473909,-1.684631,-1.352444,-0.03341596,0.051249273,-0.13531215,-0.374824,-0.32817352,0.059945095,-3.078251,0.62438947,-0.00017857317,-0.04519764,0.001490688,0.0022903173,0.011057685,0.0061165565,0.004602117,0.4465063,-1.467423,2.0056503,-2.1070635,-1.5709656,2.4211586,-0.03508425,0.075401306,-0.091744736,0.015629418,-0.012793345,-0.039599326,-0.34476504,0.22984336,-9.346964,0.8247004,47.72808,-0.6945143,-1.8207318,-3.3357,-0.2715575,-0.08199221,-0.16352801,26.9375,28.125,27.0625,30.5,32.125,32.6875
0.0940542,-1.3223029,-1.6286467,-1.4332019,-0.015439901,0.05504892,-0.13500698,-0.37492234,-0.32816526,0.05995546,-3.0781991,0.6243778,-0.00016299245,-0.04693045,0.0009427423,0.0026182474,0.011808966,0.007908716,0.0054982235,0.44643456,-1.4672543,2.0054219,-2.1069796,-1.5710143,2.4210863,-0.03462635,0.07834572,-0.09567733,0.015327678,-0.014254935,-0.040031463,-0.3256114,0.30645782,-9.32781,0.7396539,47.713753,-0.7369431,-1.8737175,-3.1745143,-0.273574,-0.053480044,-0.18319696,26.9375,28.125,27.0625,30.5,32.125,32.6875
0.096053995,-1.7899524,-1.5832763,-1.3892833,-0.007719457,0.039271325,-0.12724052,-0.37501603,-0.32815892,0.05995288,-3.0781884,0.62443376,-0.00016271167,-0.048525203,0.0011475288,0.0029415588,0.011402858,0.008706283,0.00442322,0.44633782,-1.4670979,2.005253,-2.1069677,-1.5710143,2.421026,-0.03645064,0.07984798,-0.09808508,0.015336654,-0.0142381545,-0.04077915,-0.2873042,0.28730422,-9.3661175,0.75084364,47.719128,-0.78037107,-1.8732955,-3.229659,-0.2670322,-0.044148095,-0.19242837,26.9375,28.125,27.0625,30.5,32.125,32.6875
0.098054,-0.8142006,-1.2786652,-1.3196324,-0.017015051,0.05297341,-0.13788009,-0.37512067,-0.32817507,0.059978135,-3.07821,0.62434214,-9.492044e-05,-0.04934349,0.0010017939,0.002917854,0.011021862,0.008871485,0.004250715,0.44628957,-1.4669417,2.0050123,-2.1069195,-1.5710381,2.420918,-0.037088268,0.08128597,-0.099560745,0.015058002,-0.013968142,-0.04124416,-0.1340753,0.24899697,-9.385271,0.7150385,47.694946,-0.69835204,-1.9505947,-3.2275558,-0.23607352,-0.035649076,-0.21432361,26.9375,28.125,27.0625,30.5,32.125,32.6875
0.10005372,-0.7413982,-1.2312603,-1.3244839,-0.02419564,0.039954714,-0.13304329,-0.37523612,-0.3281727,0.059997413,-3.078213,0.6243614,1.21162375e-05,-0.05038678,0.0012075558,0.0028147006,0.011106616,0.007644871,0.003833821,0.44620526,-1.4667974,2.0048091,-2.106919,-1.5710744,2.4208455,-0.03870903,0.08351117,-0.10211965,0.016529843,-0.013515163,-0.042448275,-0.15322891,0.3256114,-9.461885,0.81351066,47.686886,-0.7243298,-1.8813733,-3.168024,-0.2329719,-0.040945835,-0.23240198,26.9375,28.125,27.0625,30.5,32.125,32.6875
0.102053605,-1.1353128,-1.8184235,-1.264957,-0.019994771,0.021139562,-0.12495442,-0.37533388,-0.3281725,0.05999471,-3.0781846,0.6243362,4.638975e-06,-0.051233836,0.0018477914,0.002392492,0.012283383,0.0069003194,0.004701303,0.44613254,-1.4666053,2.0045931,-2.1068714,-1.5710982,2.4207609,-0.04016066,0.0854167,-0.10338757,0.017071037,-0.014258836,-0.044764783,-0.11492168,0.24899697,-9.404425,0.83589023,47.690468,-0.6057795,-1.8490841,-3.2189276,-0.2313278,-0.04081766,-0.22858943,26.9375,28.125,27.0625,30.5,32.125,32.6875
0.10405402,-0.7411175,-1.7720796,-1.4409543,-0.031122627,0.035577472,-0.127656,-0.3754224,-0.3281725,0.05998308,-3.078162,0.6242919,-2.815698e-05,-0.051713932,0.0015234262,0.0026589509,0.013191399,0.0072525023,0.0056994213,0.44606084,-1.4664127,2.0043995,-2.1068351,-1.5711106,2.4206645,-0.039316457,0.08663002,-0.10559281,0.018138843,-0.015233799,-0.044915143,-0.19153613,0.30645782,-9.3661175,0.800085,47.70659,-0.6370618,-2.0038247,-3.1808693,-0.23122008,-0.042684477,-0.23902342,26.9375,28.125,27.0625,30.5,32.125,32.6875
0.106053464,-0.8484209,-1.16554,-1.4654292,-0.051041808,0.038364183,-0.13643879,-0.37552446,-0.3281637,0.060000464,-3.0781093,0.6242624,4.0225208e-05,-0.052674312,0.001154494,0.0035026828,0.01228054,0.008878253,0.0045149988,0.44600102,-1.4662572,2.004172,-2.1067631,-1.5711831,2.4205933,-0.039558105,0.08662198,-0.107553296,0.018243806,-0.015116753,-0.043971498,-0.1340753,0.30645782,-9.404425,0.7911258,47.705692,-0.75544465,-1.8162566,-3.2104962,-0.22827661,-0.015432431,-0.27259696,26.9375,28.125,27.0625,30.5,32.125,32.6875
0.10805428,-1.2110769,-2.0026534,-1.6241839,-0.034118693,0.040257275,-0.12799768,-0.37564632,-0.32818615,0.060014397,-3.0781772,0.6242372,0.00010226601,-0.052758206,0.0015685603,0.00061127444,0.013611843,0.0029550586,0.004710094,0.4459163,-1.4660752,2.003945,-2.106787,-1.5711583,2.4204843,-0.04131081,0.09319841,-0.108175375,0.01820133,-0.013762248,-0.045921486,-0.11492168,0.34476504,-9.3661175,0.82022345,47.7254,-0.6892754,-2.0989761,-3.2872224,-0.21315679,-0.024462352,-0.292576,26.9375,28.125,27.0625,30.5,32.125,32.6875
0.11005373,-1.1862692,-1.7661517,-1.2528764,-0.028048167,0.040282913,-0.12995246,-0.37572268,-0.328178,0.060014047,-3.078143,0.62423015,2.84142e-05,-0.053508773,0.001508032,0.001229826,0.012912125,0.0038929454,0.0050633675,0.44583204,-1.4659196,2.003753,-2.1066916,-1.5711583,2.4204001,-0.042010486,0.09305403,-0.10952636,0.018546155,-0.013540896,-0.04697341,-0.11492168,0.28730422,-9.346964,0.73069996,47.71823,-0.6904871,-1.8803445,-3.3497257,-0.19562528,-0.0278013,-0.2998882,26.9375,28.125,27.0625,30.5,32.125,32.6875
0.11205335,-0.83795494,-1.3054644,-1.3682629,-0.026035128,0.036007497,-0.14429833,-0.3758596,-0.32816464,0.060013562,-3.0781198,0.62428224,6.506589e-05,-0.054568373,0.0011808539,0.0007740265,0.012901699,0.0033700294,0.006510569,0.44569984,-1.465703,2.0035126,-2.1066792,-1.5711826,2.4203036,-0.042486757,0.09623166,-0.11193053,0.018235032,-0.013312493,-0.048895504,-0.05746084,0.19153613,-9.308657,0.800085,47.713753,-0.7044134,-1.9608617,-3.2996273,-0.1763837,-0.036011033,-0.30105948,26.9375,28.125,27.0625,30.5,32.125,32.6875
0.11405399,-1.0979602,-1.4744184,-1.3910322,-0.010212169,0.010512767,-0.12140327,-0.37597433,-0.32815364,0.06001166,-3.0780816,0.62419933,0.0001069933,-0.056661922,0.0005878384,0.0020653403,0.011738534,0.0065483567,0.004118056,0.44561586,-1.465499,2.0032842,-2.1066434,-1.5712422,2.420173,-0.043024138,0.09713957,-0.11581915,0.017844995,-0.013641874,-0.047037076,-0.21068975,0.22984336,-9.232041,0.779936,47.716442,-0.73030496,-2.0240698,-3.3114772,-0.1538072,-0.026336132,-0.35112348,26.9375,28.125,27.0625,30.5,32.125,32.6875
0.11605386,-0.38707846,-0.814106,-1.2733041,-0.010489746,0.017882789,-0.13497764,-0.37607872,-0.3281549,0.060012966,-3.0780568,0.62423176,9.870065e-05,-0.055555534,0.0008810877,0.00026101808,0.013129652,0.002190711,0.0036994517,0.44553173,-1.4653063,2.0030577,-2.1065948,-1.5712537,2.4201124,-0.04298488,0.09971258,-0.114736885,0.018717896,-0.0130154565,-0.04658075,-0.22984336,0.21068975,-9.289502,0.8247004,47.728977,-0.7462137,-2.0289032,-3.372967,-0.14344224,-0.034718886,-0.41569984,26.9375,28.125,27.0625,30.5,32.125,32.6875
0.11805346,-0.84532803,-1.1668376,-1.2233171,0.0015932542,0.004928163,-0.12882817,-0.376205,-0.32815322,0.060026646,-3.0780635,0.6241552,0.00020606538,-0.057340574,0.0003788099,0.0018856328,0.012150859,0.004736813,0.005409458,0.44544756,-1.4651268,2.0028284,-2.1065943,-1.5713023,2.4199798,-0.043486334,0.09986538,-0.118949436,0.020054007,-0.013234068,-0.048790347,-0.11492168,0.21068975,-9.270349,0.80456203,47.723602,-0.7633673,-1.912718,-3.3465471,-0.12999508,-0.026822492,-0.42593744,26.9375,28.125,27.0625,30.5,32.125,32.6875
0.12005411,-0.9039636,-1.1065273,-1.2733239,-0.006345724,0.014124997,-0.12932543,-0.37630457,-0.32816494,0.060016405,-3.0780408,0.62411106,0.0001701356,-0.056862935,0.00018675734,0.0006604025,0.012386581,0.0019031921,0.007827337,0.44538742,-1.4648981,2.002589,-2.1065466,-1.5713137,2.4198952,-0.04336177,0.10231301,-0.11889722,0.020206116,-0.012228524,-0.051084857,-0.1340753,0.19153613,-9.289502,0.8314132,47.693153,-0.78429115,-1.9343402,-3.4180756,-0.12454857,-0.021227432,-0.42401493,26.9375,28.125,27.0625,30.5,32.125,32.6875
0.122053914,-0.90599626,-1.073053,-1.0927348,-0.014954328,0.035261463,-0.13833901,-0.37639445,-0.32816136,0.06000991,-3.0780153,0.6241044,8.324148e-05,-0.057367064,-0.00012207372,2.3953096e-05,0.012951182,0.0005516236,0.009928155,0.44529164,-1.4647056,2.0023725,-2.1064627,-1.5713018,2.4197986,-0.04326676,0.10535197,-0.12090641,0.02063697,-0.012163684,-0.053088557,-0.11492168,0.095768064,-9.270349,0.7978386,47.72271,-0.84058744,-1.9394733,-3.4097056,-0.10873862,-0.052516527,-0.4357968,26.9375,28.125,27.0625,30.5,32.125,32.6875
0.12405421,-1.39705,-1.5056062,-1.1908205,-0.010151032,0.035249364,-0.13255538,-0.37658182,-0.3281848,0.060059514,-3.0780826,0.6241171,0.00028726016,-0.058398567,-0.00040527782,0.0016662038,0.011490463,0.0027263223,0.011700849,0.44518328,-1.4644905,2.0020244,-2.1064746,-1.5713261,2.41969,-0.043896724,0.10379577,-0.12327833,0.021967454,-0.011777599,-0.055492967,-0.05746084,0.15322891,-9.193734,0.7978386,47.729877,-0.9233986,-1.783889,-3.5102725,-0.10227768,-0.053242482,-0.45763403,26.9375,28.125,27.0625,30.5,32.125,32.6875
0.12605391,-0.95160395,-1.0694289,-1.0400155,-0.012552559,0.043278143,-0.13617238,-0.3766489,-0.32816574,0.060027413,-3.0779908,0.62402004,0.00015127052,-0.057956632,0.00053504494,-0.00066720846,0.013729572,-0.0031164016,0.0132616,0.4451109,-1.4642737,2.0018342,-2.1063664,-1.5713614,2.4195688,-0.045580693,0.108270004,-0.1232914,0.023736503,-0.011288249,-0.058736905,-0.095768064,0.1340753,-9.270349,0.75084364,47.763012,-0.82974255,-1.7605017,-3.4757993,-0.099530794,-0.038383495,-0.44528013,26.9375,28.125,27.0625,30.5,32.125,32.6875
0.12805349,-0.82613593,-1.4593514,-1.2060063,0.0008686648,0.035443,-0.13605382,-0.37677664,-0.3281783,0.06003107,-3.078017,0.62396383,0.00021225605,-0.06008678,-0.0014543447,0.0026788902,0.011399824,0.0032167302,0.018645225,0.44502777,-1.4640583,2.001591,-2.1063783,-1.5713738,2.4194474,-0.043324538,0.10671784,-0.12950727,0.024783337,-0.01192244,-0.061860528,-0.095768064,0.24899697,-9.289502,0.87617236,47.745995,-0.9383482,-1.7160649,-3.375639,-0.09652505,-0.053916518,-0.42578462,26.9375,28.125,27.0625,30.5,32.125,32.6875
0.1300542,-0.7495953,-1.2674533,-1.3620292,0.005352899,0.024404353,-0.1343955,-0.37688118,-0.3281814,0.060037788,-3.0779994,0.62384224,0.0001868928,-0.06005974,-0.0010990829,0.0013814475,0.01282709,0.0003448298,0.022606231,0.4449555,-1.4638536,2.0013278,-2.106282,-1.5713977,2.4193017,-0.043913256,0.10975114,-0.1300671,0.025510352,-0.011978978,-0.06640913,-0.05746084,0.19153613,-9.270349,0.8179876,47.747787,-1.0521145,-1.741115,-3.4671235,-0.101031214,-0.06196215,-0.39585644,26.9375,28.125,27.0625,30.5,32.125,32.6875
0.13205408,-0.92408335,-1.0104765,-1.3832881,-0.0023374937,0.014225483,-0.14021523,-0.37704742,-0.3281818,0.060061485,-3.0780084,0.62388074,0.00028340617,-0.061441988,-0.0009813921,0.0013030868,0.013680419,0.00040684207,0.025944216,0.4448232,-1.4636252,2.001016,-2.1062577,-1.571422,2.4191926,-0.044810556,0.11242755,-0.13299032,0.026064318,-0.012779597,-0.07064165,-0.11492168,0.28730422,-9.346964,0.85826975,47.71554,-1.0172154,-1.8467675,-3.4312897,-0.08556618,-0.044302024,-0.3654862,26.9375,28.125,27.0625,30.5,32.125,32.6875
0.13405417,-0.8407585,-1.293109,-1.6337991,-0.018237997,0.023580927,-0.13509008,-0.37715253,-0.32816797,0.06006221,-3.0779715,0.6237369,0.00024051344,-0.062223576,-0.0008613538,0.0016863274,0.013470615,0.00037749097,0.029012324,0.44472685,-1.4634213,2.0007646,-2.1061494,-1.5714577,2.4190114,-0.04584931,0.11301992,-0.13480617,0.027215773,-0.012585755,-0.07474734,-0.076614454,0.34476504,-9.404425,0.84708,47.744205,-1.1308517,-1.7035807,-3.408186,-0.09157529,-0.06489821,-0.30630597,26.9375,28.125,27.0625,30.5,32.125,32.6875
0.13605377,-0.9474674,-1.6803296,-1.5552278,-0.04433241,0.03496232,-0.14060476,-0.3772465,-0.3281634,0.060034674,-3.077926,0.6235142,0.00018100352,-0.063086584,-0.0005333311,0.0018223305,0.014318965,9.6030555e-05,0.031718567,0.4446665,-1.4631693,2.0005357,-2.1060889,-1.5715064,2.418818,-0.0467836,0.11433242,-0.13691458,0.02862512,-0.013240581,-0.07838448,-0.095768064,0.36391866,-9.346964,0.7665104,47.729877,-1.0257444,-1.7321757,-3.3223617,-0.09286502,-0.059057042,-0.26850545,26.9375,28.125,27.0625,30.5,32.125,32.6875
0.13805339,-1.4057264,-2.3767557,-1.6072114,-0.056063227,0.043017637,-0.13015887,-0.3773705,-0.3281504,0.060035653,-3.0778835,0.62348455,0.00014269842,-0.06359975,-0.0011987714,0.0021819393,0.014501836,0.00038308185,0.035808172,0.44454682,-1.4629415,2.00026,-2.105993,-1.5715302,2.4186854,-0.045777015,0.115709364,-0.13952097,0.029668635,-0.013538785,-0.08146484,-0.28730422,0.38307226,-9.519346,0.784413,47.71554,-1.147184,-1.6524541,-3.3509011,-0.08685079,-0.053672865,-0.22981364,26.9375,28.125,27.0625,30.5,32.125,32.6875
0.14005432,-1.8126857,-2.1926074,-1.7108114,-0.069914855,0.042591356,-0.12912658,-0.37752634,-0.32818416,0.060073264,-3.0779507,0.62330586,0.00026792198,-0.06485611,-0.00084592606,0.0018659862,0.014760816,-0.00040853722,0.035576697,0.44448638,-1.4627126,1.9999131,-2.1059568,-1.5715545,2.4185052,-0.04761645,0.11824353,-0.14173464,0.030169416,-0.013430358,-0.083072625,-0.15322891,0.4405331,-9.519346,0.8157518,47.72092,-1.1553509,-1.663841,-3.3338604,-0.103775054,-0.070278436,-0.18034384,26.9375,28.125,27.0625,30.5,32.125,32.6875
0.1420539,-1.655685,-2.553825,-1.6204334,-0.058080427,0.05403117,-0.13362575,-0.37763798,-0.32817978,0.06004417,-3.0779092,0.62325805,0.00016202836,-0.06602444,-0.00086734426,0.0025053192,0.014153027,0.0007944218,0.03526655,0.44437796,-1.4624372,1.9996618,-2.1058972,-1.5715545,2.4183724,-0.048615318,0.11866075,-0.1437482,0.03041616,-0.013410629,-0.08375916,-0.17238252,0.38307226,-9.672575,0.80456203,47.684196,-1.0725459,-1.6244018,-3.3826551,-0.10101579,-0.048151497,-0.15065008,26.9375,28.125,27.0625,30.5,32.125,32.6875
0.14405416,-1.7573763,-2.4546986,-1.7604233,-0.05538302,0.037667032,-0.13975564,-0.3777745,-0.32818976,0.060058635,-3.077937,0.62311065,0.00018610757,-0.06626311,-0.00082536216,0.0009531413,0.015115586,-0.0023306306,0.033932798,0.44428182,-1.4622079,1.9993619,-2.1058376,-1.571566,2.418181,-0.049204864,0.12288052,-0.14492284,0.030603314,-0.012937758,-0.08301485,-0.22984336,0.38307226,-9.691729,0.784413,47.73525,-1.1395931,-1.901132,-3.3728535,-0.105700985,-0.060238034,-0.14521855,26.9375,28.125,27.0625,30.5,32.125,32.6875
0.1460534,-1.1771346,-2.2069654,-1.6121862,-0.049703397,0.044191632,-0.13578974,-0.3779297,-0.32817587,0.06007246,-3.077892,0.62314206,0.00023299549,-0.06854085,-0.0011552442,0.0021334756,0.0143102305,0.00039025018,0.030573003,0.44414943,-1.4619683,1.9990491,-2.1057656,-1.5716146,2.4180741,-0.050297476,0.12422372,-0.14915869,0.030691449,-0.013388088,-0.08074414,-0.21068975,0.40222588,-9.710882,0.8090337,47.719128,-1.2056326,-1.4993353,-3.2289457,-0.08739728,-0.07423325,-0.15257536,26.9375,28.125,27.0625,30.5,32.125,32.6875
0.14805415,-1.1718946,-1.6432129,-1.4935988,-0.038360603,0.042961057,-0.14688589,-0.37808365,-0.32817262,0.0600813,-3.0778892,0.62304664,0.00027769216,-0.068892345,-0.0011166455,0.0011608625,0.014419485,-0.0013670068,0.028351642,0.44402906,-1.4617157,1.9987386,-2.1057174,-1.5716499,2.4178948,-0.051097617,0.1268981,-0.14983171,0.030318737,-0.012733181,-0.07932357,-0.2681506,0.34476504,-9.595961,0.82694155,47.694946,-1.1190449,-1.6485476,-3.4231822,-0.07348939,-0.09005561,-0.14567462,26.9375,28.125,27.0625,30.5,32.125,32.6875
0.15005437,-1.2451172,-0.83827955,-1.4539686,-0.039123915,0.035355236,-0.14227141,-0.3782092,-0.32820258,0.06007685,-3.0779445,0.6228691,0.00025359995,-0.06959947,-0.0003934374,-0.0007225517,0.01654777,-0.0042850883,0.021534301,0.4439565,-1.4614505,1.9984502,-2.1056936,-1.5716261,2.4177046,-0.0526135,0.1317514,-0.15085208,0.030044429,-0.013401886,-0.07401932,-0.2681506,0.2681506,-9.500193,0.88960326,47.71554,-1.0755167,-1.7853236,-3.4080381,-0.045083523,-0.08585696,-0.22912799,26.9375,28.125,27.0625,30.5,32.125,32.6875
0.1520539,-1.6471949,-1.2118274,-1.3769447,-0.02285166,0.028426772,-0.13389938,-0.37835902,-0.32821015,0.06009476,-3.0779443,0.6228696,0.0003453702,-0.07070004,-0.0010699132,-0.00014498443,0.015398111,-0.003611732,0.019350786,0.44386053,-1.4612225,1.9981517,-2.1056697,-1.5716618,2.4176092,-0.052810743,0.13312748,-0.15384206,0.030552218,-0.012654442,-0.07203345,-0.24899697,0.24899697,-9.423578,0.7620334,47.692257,-1.1541268,-1.7317693,-3.3893828,-0.050573893,-0.09212821,-0.2490393,26.9375,28.125,27.0625,30.5,32.125,32.6875
0.15405431,-0.8561331,-0.9629238,-1.0294743,-0.0195925,0.055334095,-0.1468141,-0.37849385,-0.3281992,0.060085863,-3.0778654,0.6228153,0.00028693065,-0.07288631,-0.00090587424,0.0005288789,0.015863243,-0.0020174717,0.017928233,0.44375205,-1.4609343,1.997826,-2.1055496,-1.5717105,2.4174771,-0.0542957,0.1352842,-0.15797335,0.031285785,-0.0137731945,-0.07208996,-0.3256114,0.28730422,-9.346964,0.7284641,47.613445,-1.2133131,-1.8039879,-3.3253057,-0.05484377,-0.10076335,-0.24665143,26.9375,28.125,27.0625,30.5,32.125,32.6875
0.15605442,-1.1620818,-0.39719874,-1.1186025,-0.017393744,0.049111933,-0.1427612,-0.37864617,-0.32820547,0.060095813,-3.0778859,0.6226871,0.0003363447,-0.072483905,0.00017196067,-0.0019536666,0.017923566,-0.007418596,0.013826273,0.44364342,-1.4606813,1.9975151,-2.1055138,-1.5717343,2.4172862,-0.056233093,0.13954327,-0.1571961,0.032009907,-0.0133104,-0.06992672,-0.2681506,0.2681506,-9.289502,0.842603,47.674347,-1.141566,-1.7664924,-3.3820665,-0.046736628,-0.09951091,-0.3013632,26.9375,28.125,27.0625,30.5,32.125,32.6875
0.1580542,-1.4002156,-0.4274043,-1.0138711,-0.015525382,0.053806987,-0.13662694,-0.3787983,-0.32820112,0.06009926,-3.0778723,0.6226441,0.00028889815,-0.073713854,-5.795718e-05,-0.0009733879,0.017398138,-0.0057769176,0.014989813,0.44349927,-1.4604057,1.9971803,-2.1054175,-1.5717343,2.417117,-0.05670834,0.13977826,-0.15991385,0.032781392,-0.013550083,-0.07156317,-0.38307226,0.21068975,-9.289502,0.8179876,47.711063,-1.1502585,-1.8842268,-3.3285236,-0.046158787,-0.10121626,-0.30100814,26.9375,28.125,27.0625,30.5,32.125,32.6875
0.16005391,-1.5042548,-0.4127215,-0.634909,-0.018573841,0.05923472,-0.14724122,-0.37895826,-0.32821947,0.060124006,-3.0778828,0.6225885,0.00038035467,-0.074335925,0.0001964083,-0.0022024706,0.01891872,-0.008434958,0.015684256,0.4434149,-1.4601524,1.9968323,-2.1053689,-1.5717705,2.416997,-0.057555906,0.14394388,-0.16195247,0.033703007,-0.013784232,-0.07310379,-0.4213795,0.17238252,-9.270349,0.800085,47.72719,-1.1392623,-2.0120888,-3.413054,-0.040139582,-0.12549028,-0.30173764,26.9375,28.125,27.0625,30.5,32.125,32.6875
0.16205364,-1.6317023,-0.6383682,-0.8147262,-0.0076932455,0.060525905,-0.14153449,-0.37911722,-0.32822037,0.060118683,-3.077881,0.6225495,0.00039138296,-0.07537574,0.0004595446,-0.0018415871,0.019458031,-0.008063412,0.014958586,0.44328287,-1.459865,1.9965209,-2.105345,-1.571783,2.416841,-0.05850515,0.14494866,-0.16418698,0.034827854,-0.014435205,-0.07332493,-0.4213795,0.1340753,-9.136273,0.842603,47.73077,-1.1401619,-1.853893,-3.381721,-0.027465852,-0.12904081,-0.33282855,26.9375,28.125,27.0625,30.5,32.125,32.6875
0.1640545,-1.9838912,-0.3993218,-0.49329698,-0.008518325,0.055175833,-0.13332342,-0.37926543,-0.32823753,0.06012432,-3.077871,0.62247103,0.00039785478,-0.07628896,0.00068602094,-0.001519382,0.019447716,-0.008492202,0.013792356,0.44319823,-1.4595771,1.9961728,-2.105273,-1.5718063,2.416709,-0.059842203,0.14595507,-0.16645268,0.036466308,-0.014245413,-0.073495045,-0.4405331,0.22984336,-9.097966,0.88289046,47.701214,-1.1465763,-1.8187873,-3.3652482,-0.03577149,-0.12334393,-0.36176214,26.9375,28.125,27.0625,30.5,32.125,32.6875
0.16605419,-1.2931795,-0.22382236,-0.48370844,-0.0100016985,0.061910808,-0.14690308,-0.3794173,-0.3282221,0.060110368,-3.077795,0.62243444,0.00035062825,-0.07719267,0.0007991421,-0.0012654518,0.019919088,-0.008792062,0.015312121,0.44306615,-1.4592651,1.9958371,-2.1051762,-1.5718545,2.416564,-0.060620286,0.14735976,-0.16899873,0.038073394,-0.014553627,-0.07579002,-0.4405331,0.076614454,-9.212888,0.8806493,47.70659,-1.1262338,-1.8460472,-3.3656044,-0.03622183,-0.13396415,-0.3460812,26.9375,28.125,27.0625,30.5,32.125,32.6875
0.16805387,-0.9086876,-0.36532316,-0.4872075,0.0064125266,0.058589425,-0.14205687,-0.37957937,-0.32821983,0.06011274,-3.0777776,0.6222786,0.0004055255,-0.07822912,0.0011436844,-0.0009602908,0.020047614,-0.008505545,0.013147475,0.44295755,-1.4589772,1.9955019,-2.105128,-1.5719146,2.4163606,-0.061992012,0.14817019,-0.17081788,0.03887426,-0.014795894,-0.07499568,-0.38307226,0.019153614,-9.136273,0.8112748,47.716442,-1.112752,-1.7515262,-3.3818593,-0.06270801,-0.13932422,-0.4012972,26.9375,28.125,27.0625,30.5,32.125,32.6875
0.17005359,-1.0787015,-0.015909351,-0.67889553,0.00926321,0.040789038,-0.14572833,-0.37976456,-0.32824358,0.06016581,-3.0778186,0.62232363,0.00050813536,-0.07807534,0.0021769707,-0.0016203495,0.022438496,-0.011202734,0.016115611,0.44283712,-1.4587374,1.9950951,-2.1050432,-1.571915,2.4162633,-0.06307602,0.14945821,-0.17139088,0.041617025,-0.015793763,-0.07904721,-0.36391866,0.076614454,-9.11712,0.85155696,47.74062,-1.1371808,-1.7816895,-3.451184,-0.071172304,-0.14399387,-0.3929611,26.9375,28.125,27.0625,30.5,32.125,32.6875
0.17205353,-1.2123779,-0.36560446,-0.7921915,0.012798314,0.026150646,-0.14272295,-0.37992302,-0.32821602,0.060130015,-3.0777254,0.6221667,0.0004395525,-0.07908114,0.002344545,-0.0009942453,0.022862447,-0.011236534,0.019757876,0.44269308,-1.4583778,1.9947594,-2.1049588,-1.5719875,2.4160335,-0.06399118,0.15032604,-0.17436065,0.043917958,-0.01617824,-0.08360097,-0.28730422,0.1340753,-9.078813,0.8985519,47.72629,-1.0989484,-1.6849965,-3.3407185,-0.1007296,-0.13955401,-0.32314548,26.9375,28.125,27.125,30.4375,32.125,32.6875
0.17405352,-1.3867126,-0.6632925,-0.81636035,0.0055897897,0.02504398,-0.1321389,-0.38009506,-0.3281864,0.060133304,-3.0776784,0.6221947,0.00041535028,-0.08089806,0.002364293,-0.001048494,0.023404913,-0.01076818,0.02121434,0.4425006,-1.458101,1.9944233,-2.104863,-1.5720114,2.4158647,-0.06512858,0.15356642,-0.1778879,0.04400759,-0.016885234,-0.086190216,-0.24899697,0.05746084,-9.155427,0.8851263,47.73077,-1.0430562,-1.8674362,-3.3073046,-0.10021931,-0.1474023,-0.32620454,26.9375,28.125,27.125,30.4375,32.125,32.6875
0.17605413,-0.9927867,-0.7248217,-0.7162641,-0.00952311,0.03985131,-0.1428371,-0.3802312,-0.32818893,0.060102068,-3.077629,0.62206703,0.00028992037,-0.08150768,0.00257578,-0.001119112,0.023415014,-0.012592935,0.025132302,0.44239205,-1.4577532,1.9940871,-2.1047666,-1.5720233,2.415683,-0.06654101,0.15521498,-0.18010981,0.046220887,-0.016129063,-0.09151974,-0.30645782,0.11492168,-9.078813,0.8627467,47.716442,-1.0407202,-1.6072073,-3.3808727,-0.12919009,-0.17400196,-0.28505,26.9375,28.125,27.125,30.4375,32.125,32.6875
0.17805396,-1.5733367,-1.0678676,-1.0574174,-0.0027635263,0.02049545,-0.13513389,-0.38037017,-0.3282098,0.060094774,-3.0776317,0.62191117,0.00022884755,-0.08276301,0.0035413678,-0.0004250543,0.023649579,-0.01204465,0.027905498,0.44230726,-1.457442,1.9937395,-2.1046822,-1.5720233,2.4155009,-0.0691185,0.15488352,-0.18172958,0.04776939,-0.016586874,-0.096868195,-0.24899697,0.15322891,-9.11712,0.8112748,47.69763,-0.8936019,-1.5528741,-3.318657,-0.15847117,-0.1657052,-0.2097345,26.9375,28.125,27.125,30.4375,32.125,32.6875
0.18005386,-1.0718356,-0.8856457,-1.1351792,-0.00087525893,0.030812155,-0.13373423,-0.3805582,-0.32820085,0.060114987,-3.0776165,0.6218479,0.00023272207,-0.08167611,0.0031577093,-0.0011394072,0.02517492,-0.0158747,0.033501476,0.44213971,-1.4571416,1.9933323,-2.104561,-1.5720476,2.415296,-0.067567006,0.15688397,-0.1831612,0.05130289,-0.016330501,-0.100912966,-0.21068975,0.095768064,-9.212888,0.8627467,47.752266,-1.0213995,-1.5324783,-3.3847508,-0.21735469,-0.1557763,-0.16593261,26.9375,28.125,27.125,30.4375,32.125,32.6875
0.18205324,-0.78542,-0.3604831,-1.1131581,-0.007994699,0.037941735,-0.1479745,-0.38069323,-0.32816833,0.06006896,-3.077485,0.6217058,8.895229e-05,-0.08418191,0.0034962131,-0.00011927691,0.023975655,-0.013475804,0.033720363,0.4420069,-1.4567822,1.993009,-2.10443,-1.5721191,2.4150915,-0.07040616,0.15780349,-0.18650976,0.051036343,-0.016304005,-0.10396635,-0.24899697,0.076614454,-9.270349,0.8179876,47.70659,-1.0032045,-1.553638,-3.3473108,-0.24947233,-0.17803068,-0.10524285,26.9375,28.125,27.125,30.4375,32.125,32.6875
0.18405429,-0.88527054,-0.6288769,-1.4803206,-0.008496818,0.03287559,-0.14065789,-0.38087687,-0.3281477,0.060066406,-3.0774267,0.6216182,5.6798333e-05,-0.08632294,0.0045342245,-0.0014267666,0.025031382,-0.014243299,0.029833699,0.44183755,-1.4564449,1.9926132,-2.1043108,-1.5721673,2.4148753,-0.07376397,0.16250347,-0.18840261,0.04936999,-0.016947513,-0.10343263,-0.11492168,0.17238252,-9.404425,0.8537928,47.741516,-0.737865,-1.6691269,-3.3646927,-0.25036022,-0.20539564,-0.050670765,26.9375,28.125,27.125,30.4375,32.125,32.6875
0.18605354,-0.92874426,-1.2017133,-1.4754971,-0.024249973,0.045543626,-0.13387196,-0.38104513,-0.32814458,0.060083453,-3.0773969,0.6214389,0.00010750908,-0.08582651,0.0036320598,-0.0018581155,0.025987582,-0.016206702,0.029902382,0.44173053,-1.4561573,1.9922303,-2.1042025,-1.5722393,2.4146605,-0.071591616,0.1648536,-0.19050755,0.051303048,-0.016973998,-0.10132771,-0.17238252,0.19153613,-9.500193,0.88289046,47.716442,-0.9474349,-1.5360198,-3.4643385,-0.284613,-0.17914712,-0.05517163,26.9375,28.125,27.125,30.4375,32.125,32.6875
0.18805347,-1.1773503,-1.6089278,-1.4239768,-0.048908122,0.05523074,-0.14088981,-0.38123316,-0.32811746,0.06009143,-3.0773466,0.62139356,7.9089994e-05,-0.087045036,0.004733964,-0.0018451792,0.027354779,-0.016456328,0.024402456,0.4415378,-1.455845,1.991835,-2.1040704,-1.572276,2.414446,-0.07391328,0.16602196,-0.19218086,0.05262073,-0.018110003,-0.098144844,-0.24899697,0.24899697,-9.576807,0.784413,47.721813,-0.86801994,-1.6433246,-3.40306,-0.3105403,-0.18196437,-0.08806698,26.9375,28.125,27.125,30.4375,32.125,32.6875
0.19005409,-1.2763653,-1.6491797,-1.6813663,-0.056970216,0.055691045,-0.14246099,-0.38139513,-0.32812586,0.060070205,-3.077342,0.6212977,-3.7651153e-05,-0.08789571,0.0046670926,-0.0031122572,0.027452363,-0.018620824,0.0198481,0.44139323,-1.4554842,1.9914635,-2.1039865,-1.5722512,2.4142425,-0.07505304,0.17028576,-0.19396615,0.052143764,-0.017285056,-0.094729505,-0.30645782,0.28730422,-9.595961,0.86945957,47.686886,-0.8095628,-1.6951764,-3.464744,-0.33099902,-0.19161317,-0.11350432,26.9375,28.125,27.125,30.4375,32.125,32.6875
0.19205384,-1.4473094,-1.8120077,-1.7418083,-0.056966316,0.054822173,-0.14058201,-0.38155663,-0.32810584,0.0600837,-3.077264,0.62124646,-3.221971e-05,-0.08860565,0.0046988768,-0.004127004,0.027317531,-0.019784672,0.015459588,0.44126096,-1.4552078,1.991093,-2.1038435,-1.5723232,2.4140885,-0.07611029,0.17328228,-0.19473422,0.050904833,-0.01667443,-0.09139798,-0.24899697,0.28730422,-9.615114,0.94331104,47.699425,-0.7401556,-1.9274324,-3.5131888,-0.36107808,-0.22034448,-0.1540845,26.9375,28.125,27.125,30.4375,32.125,32.6875
0.19405377,-1.9744,-1.9502002,-1.6309165,-0.05282668,0.04470835,-0.12993895,-0.3817578,-0.32809174,0.060068462,-3.0772045,0.6212547,-5.792345e-05,-0.09056658,0.0039454848,-0.0035232154,0.026446823,-0.016382772,0.0126251355,0.44108105,-1.4548239,1.9906849,-2.1037724,-1.5723599,2.4139216,-0.07593527,0.17514265,-0.1977207,0.048584674,-0.01735645,-0.08838328,-0.24899697,0.2873042,-9.557653,0.83365434,47.703007,-0.81400573,-1.8326164,-3.386238,-0.3607516,-0.21825106,-0.19911467,26.9375,28.125,27.125,30.4375,32.125,32.6875
0.19605345,-1.5960066,-1.8229083,-1.7351748,-0.045257453,0.05823158,-0.13328835,-0.38193122,-0.32808772,0.060055472,-3.0771592,0.62117076,-0.0001276188,-0.093515046,0.004522947,-0.00313979,0.02520817,-0.013694678,0.007244591,0.44093567,-1.454464,1.99029,-2.1036656,-1.5723833,2.41373,-0.0795391,0.17717841,-0.200395,0.04626255,-0.017402068,-0.08660286,-0.4213795,0.2681506,-9.634268,0.8157518,47.686886,-0.61266524,-1.9014263,-3.4179688,-0.34412044,-0.22207779,-0.23621225,26.9375,28.125,27.125,30.4375,32.125,32.6875
0.19805425,-1.854347,-1.8892434,-1.7226765,-0.03771108,0.058954757,-0.121150345,-0.38211855,-0.32808873,0.06005394,-3.0771306,0.6211257,-0.00017505037,-0.09482783,0.003410975,-0.0020301342,0.023691688,-0.009591636,0.008322032,0.4407801,-1.4541047,1.9898695,-2.1035583,-1.5723957,2.4135501,-0.07831543,0.1771859,-0.20248859,0.043988835,-0.017798124,-0.08645299,-0.3256114,0.40222588,-9.519346,0.89631605,47.687782,-0.76737463,-1.7225806,-3.5476856,-0.3413686,-0.24637702,-0.26260522,26.9375,28.125,27.125,30.4375,32.125,32.6875
0.20005372,-2.1559792,-2.1747994,-1.8820677,-0.047313605,0.06551828,-0.1265455,-0.38231862,-0.32809094,0.06006812,-3.077133,0.6210899,-0.000123617,-0.09637,0.003601449,-0.0017961955,0.022329733,-0.007954891,0.0038955682,0.44062367,-1.4537808,1.9894632,-2.1034997,-1.57242,2.4133713,-0.080330886,0.17797054,-0.20354657,0.04219874,-0.017267972,-0.0840429,-0.4213795,0.34476504,-9.557653,0.8560339,47.71554,-0.67484856,-1.9328893,-3.592559,-0.30278674,-0.23910108,-0.3078856,26.9375,28.125,27.125,30.4375,32.125,32.6875
0.20205338,-2.2116942,-2.325359,-1.7378823,-0.058355268,0.07054136,-0.12857744,-0.3825077,-0.3280711,0.060067657,-3.07706,0.6210531,-0.00010427724,-0.09694479,0.0034463336,-0.0024481455,0.022781147,-0.008159296,0.006508761,0.44046745,-1.4534446,1.9890684,-2.1034038,-1.5724915,2.4132018,-0.08027642,0.18035045,-0.20452163,0.041158885,-0.017603286,-0.08659892,-0.38307226,0.34476504,-9.576807,0.78888994,47.694946,-0.5727295,-1.866081,-3.6986265,-0.3082577,-0.24245101,-0.3470087,26.9375,28.125,27.125,30.4375,32.125,32.6875
0.20405339,-2.3730412,-2.4030142,-1.4297161,-0.0556443,0.06380206,-0.12567593,-0.3827173,-0.32808256,0.06007715,-3.0770576,0.6210163,-9.456197e-05,-0.09841026,0.0027256869,-0.002489808,0.02298128,-0.0066667716,0.0030283502,0.44031197,-1.4530722,1.988613,-2.1033204,-1.5725039,2.413024,-0.07962604,0.18345994,-0.20767659,0.03994693,-0.018426364,-0.08246317,-0.49799395,0.30645782,-9.519346,0.88960326,47.694946,-0.7550578,-1.8563057,-3.697101,-0.2840656,-0.26858658,-0.41008866,26.9375,28.125,27.125,30.4375,32.125,32.6875
0.20605402,-1.7602702,-1.7421474,-1.196253,-0.056815,0.073343754,-0.13760054,-0.38291162,-0.32805616,0.060064744,-3.076976,0.6210754,-8.286339e-05,-0.1005644,0.0022126646,-0.0008986946,0.020624865,-0.0025863464,0.003057338,0.44013157,-1.4527248,1.9882411,-2.1032612,-1.572564,2.4128911,-0.080764845,0.18305726,-0.21062648,0.038592115,-0.018049974,-0.08362967,-0.40222588,0.22984336,-9.500193,0.8605109,47.70032,-0.71977496,-1.7680359,-3.628872,-0.26921716,-0.28127366,-0.44901747,26.9375,28.125,27.125,30.4375,32.125,32.6875
0.20805347,-1.6071843,-1.330366,-1.3851378,-0.028196277,0.06325359,-0.13100035,-0.3831159,-0.32804984,0.060040817,-3.0769243,0.6211207,-0.00017366344,-0.102400765,0.0012073215,4.421478e-05,0.018938757,0.0012890977,0.006195373,0.43993974,-1.4523052,1.9878095,-2.1031783,-1.572564,2.4127345,-0.08035348,0.18406186,-0.21342614,0.036154397,-0.018199053,-0.08635241,-0.3256114,0.19153613,-9.461885,0.8940802,47.729877,-0.8057716,-1.7488768,-3.6112723,-0.24142107,-0.27696648,-0.4542141,26.9375,28.125,27.125,30.4375,32.125,32.6875
0.21005343,-0.93163073,-0.37422723,-1.4785,-0.014772842,0.059843015,-0.13997298,-0.3833254,-0.32808676,0.060052563,-3.0769851,0.62095606,-8.71231e-05,-0.104022376,0.0002753388,0.0009281626,0.018289147,0.0044738688,0.011335378,0.43983203,-1.4519339,1.9873661,-2.1031668,-1.5725764,2.4125166,-0.079478666,0.18540479,-0.21674104,0.034959357,-0.018979399,-0.09061408,-0.19153613,0.21068975,-9.461885,0.87617236,47.72092,-0.8959545,-1.6768174,-3.5292678,-0.16173191,-0.2880191,-0.4723419,26.9375,28.125,27.125,30.4375,32.125,32.6875
0.21205403,-1.1543581,-0.45858034,-1.242774,0.0032038642,0.041798692,-0.1353764,-0.38353044,-0.3280572,0.060038127,-3.0768957,0.6209917,-0.00013559812,-0.104916036,-0.00023593957,0.0010495811,0.017818464,0.00433579,0.0176033,0.43962806,-1.4515499,1.9869465,-2.1030586,-1.5726236,2.4123466,-0.07956135,0.18742757,-0.21948494,0.035582237,-0.018517012,-0.09696325,-0.17238252,0.17238252,-9.385271,0.83813137,47.694054,-0.9379529,-1.5624454,-3.4978156,-0.1456064,-0.32360336,-0.41940874,26.9375,28.125,27.125,30.4375,32.125,32.6875
0.2140545,-0.75297695,-0.12027455,-1.4955411,0.0036642076,0.03752255,-0.1442015,-0.38376516,-0.32807344,0.060065426,-3.0769308,0.6208034,-1.7267927e-05,-0.10568161,-0.0005775891,0.0011230625,0.017927831,0.0046770964,0.023093957,0.4394841,-1.4511778,1.9864553,-2.1029985,-1.5726722,2.412081,-0.079372756,0.1890663,-0.22158815,0.035766777,-0.01876856,-0.102264404,-0.17238252,0.05746084,-9.385271,0.87617236,47.694946,-1.002136,-1.6418706,-3.4849086,-0.12635262,-0.31675386,-0.39005718,26.9375,28.125,27.125,30.4375,32.125,32.6875
0.2160541,-0.61006266,-0.47605425,-1.7449625,0.0052632857,0.028843004,-0.13638684,-0.3839696,-0.3280711,0.06006342,-3.076925,0.620739,3.867568e-06,-0.10695284,-0.00042977644,0.001410982,0.01820771,0.005625921,0.0312887,0.43931586,-1.450818,1.9860476,-2.1029508,-1.5726961,2.4118736,-0.08025391,0.19037451,-0.22380431,0.035912544,-0.019444874,-0.11133699,-0.095768064,0.076614454,-9.461885,0.8157518,47.705692,-0.9799458,-1.5133595,-3.4852927,-0.08772802,-0.314848,-0.29641786,26.9375,28.125,27.125,30.4375,32.125,32.6875
0.21805422,-0.8866757,-1.0426356,-1.729883,-0.007949517,0.019797828,-0.122289136,-0.38419414,-0.32805207,0.060058374,-3.0768607,0.62062824,7.649509e-05,-0.10784054,-0.0004254666,0.001576369,0.019647084,0.004419649,0.034944747,0.4391478,-1.4504218,1.9856032,-2.1028893,-1.5727929,2.411645,-0.080449045,0.19285293,-0.22773078,0.039044775,-0.020244155,-0.11518386,0.0,0.1340753,-9.481039,0.8918391,47.7245,-0.97445095,-1.5724635,-3.3830137,-0.07237281,-0.31193122,-0.25456223,26.9375,28.125,27.125,30.4375,32.125,32.6875
0.22005431,-0.59980506,-1.4691637,-1.67188,-0.026487438,0.023328444,-0.13624553,-0.38439712,-0.32806396,0.060052544,-3.0768626,0.62047315,1.2546808e-05,-0.10965363,-0.0006755295,0.0020329691,0.020323671,0.004639908,0.03757443,0.43899158,-1.4500138,1.9851364,-2.102781,-1.5727929,2.411392,-0.081036344,0.19597436,-0.23279609,0.041069258,-0.020968152,-0.11839495,0.019153614,0.24899697,-9.461885,0.84708,47.758533,-0.98070794,-1.6670649,-3.2844973,-0.08225452,-0.33848095,-0.2036855,26.9375,28.125,27.125,30.4375,32.125,32.6875
0.22205405,-0.72029763,-1.8131264,-2.085404,-0.030261552,0.014459741,-0.13109939,-0.38460422,-0.3280582,0.06007978,-3.0768595,0.6203374,4.232264e-05,-0.10947221,0.00013107754,0.00082957814,0.02275159,0.0008009152,0.037629645,0.43882334,-1.4496888,1.984681,-2.1026485,-1.5728291,2.4111397,-0.08193751,0.19880337,-0.23388347,0.0438267,-0.021533577,-0.11934929,0.019153614,0.34476504,-9.595961,0.88960326,47.759426,-0.9327666,-1.8695085,-3.3342338,-0.08294112,-0.32806164,-0.17467946,26.9375,28.125,27.125,30.4375,32.125,32.6875
0.22405483,-0.7786617,-2.2636006,-1.8108367,-0.04472323,0.022832569,-0.12891373,-0.38479015,-0.32805535,0.06003575,-3.0767791,0.62022585,-7.8375284e-05,-0.108594105,0.0010921432,-0.000922848,0.025098713,-0.0037725903,0.035359573,0.43867904,-1.4492329,1.9842509,-2.1025527,-1.5728654,2.4109364,-0.08277162,0.2011869,-0.2330549,0.04574876,-0.021723023,-0.11791088,-0.038307227,0.30645782,-9.710882,0.8940802,47.751366,-0.9960561,-1.8579729,-3.4547036,-0.09030227,-0.3383521,-0.16121742,26.9375,28.125,27.125,30.4375,32.125,32.6875
0.22605376,-0.7703946,-2.592226,-1.7687243,-0.057110284,0.03632065,-0.13042994,-0.38506302,-0.32805055,0.060071304,-3.076771,0.6201494,9.040888e-05,-0.11011681,0.000797136,-0.0007075592,0.024184022,-0.0017145511,0.03093073,0.43848693,-1.4488376,1.9837116,-2.1024816,-1.5729493,2.410698,-0.083454,0.20269634,-0.2348656,0.043793637,-0.02176471,-0.11416428,-0.05746084,0.38307226,-9.461885,0.842603,47.701214,-1.032218,-1.760879,-3.5089025,-0.05194523,-0.37052226,-0.17250133,26.9375,28.125,27.125,30.4375,32.125,32.6875
0.2280534,-0.3663196,-2.0464327,-1.5971094,-0.060294233,0.039052993,-0.13394643,-0.38524866,-0.32804757,0.060050845,-3.0767214,0.62002736,2.800022e-05,-0.1098301,0.0013493621,-0.002523609,0.026148884,-0.0059202993,0.025346298,0.4383426,-1.4484408,1.9832929,-2.1023848,-1.572985,2.410484,-0.08417847,0.20648164,-0.23531118,0.04510077,-0.021758327,-0.10930235,-0.019153614,0.40222588,-9.481039,0.8627467,47.70211,-1.0145682,-1.7706863,-3.6383398,-0.044941194,-0.34396923,-0.22967228,26.9375,28.125,27.125,30.4375,32.125,32.6875
0.2300539,-1.1152511,-2.368805,-1.7303823,-0.05120556,0.01768002,-0.12201306,-0.3854724,-0.32804948,0.060054466,-3.076708,0.6199485,5.9544356e-05,-0.11062095,0.0015026809,-0.0023978262,0.026671624,-0.006272198,0.02218194,0.43817446,-1.4480454,1.9828261,-2.1023128,-1.5730213,2.4102688,-0.08487369,0.20785388,-0.23752476,0.04648241,-0.022082418,-0.1068312,-0.076614454,0.45968673,-9.423578,0.90750587,47.705692,-1.1144646,-1.734397,-3.6614418,-0.031488605,-0.36312872,-0.2772054,26.9375,28.125,27.125,30.4375,32.125,32.6875
0.23205338,-0.58445144,-2.1523275,-1.6058661,-0.05117876,0.021774024,-0.12953919,-0.38569847,-0.32805657,0.060061425,-3.0766828,0.6198279,0.00011343786,-0.11282619,0.001141012,-0.0004961794,0.025816653,-0.0028367857,0.021232933,0.43803015,-1.4476377,1.982335,-2.1022284,-1.5730819,2.4100528,-0.08560742,0.20784031,-0.24222383,0.047714923,-0.022774743,-0.106611535,0.0,0.4405331,-9.3661175,0.8560339,47.70211,-0.91736877,-1.7646852,-3.663508,-0.044501185,-0.3678074,-0.31830102,26.9375,28.125,27.125,30.4375,32.125,32.6875
0.23405427,-0.9186796,-1.7980849,-1.5556508,-0.03975555,9.525432e-05,-0.12373709,-0.3859562,-0.3280599,0.060069017,-3.0766625,0.6198027,0.00011875643,-0.1124661,0.0005590044,-0.0011131114,0.026320484,-0.004467223,0.022790328,0.4378267,-1.447182,1.9817833,-2.1021206,-1.5731052,2.4098365,-0.084292084,0.20983306,-0.24330668,0.048486937,-0.022544814,-0.10685356,-0.076614454,0.47884035,-9.270349,0.8717007,47.71554,-1.158762,-1.6265887,-3.5678678,-0.02004789,-0.38429976,-0.351946,26.9375,28.125,27.125,30.4375,32.125,32.6875
0.23605411,-0.6367283,-1.4862514,-1.4583443,-0.042249423,0.01579847,-0.13127463,-0.38617754,-0.32806402,0.060073942,-3.0766647,0.6197301,0.0001524503,-0.11469962,0.0018614577,-0.0007786271,0.02614724,-0.004429381,0.016639525,0.4376569,-1.4467981,1.9813284,-2.10206,-1.573129,2.4096215,-0.08867402,0.21127512,-0.24603048,0.04965885,-0.022405436,-0.10508409,-0.22984336,0.38307226,-9.308657,0.91198283,47.699425,-0.99551487,-1.6977906,-3.585317,-0.012095575,-0.39030063,-0.37427497,26.9375,28.125,27.125,30.4375,32.125,32.6875
0.23805371,-0.86087215,-1.7720953,-1.319821,-0.028137252,0.028297182,-0.13071217,-0.38640124,-0.32806867,0.06007534,-3.076623,0.6196028,0.00013635423,-0.11468161,0.0002302514,-0.0007512431,0.026646942,-0.0048169964,0.021830656,0.4375023,-1.4463662,1.9808115,-2.101928,-1.5731772,2.409393,-0.08537747,0.21400765,-0.24954061,0.050987065,-0.02270911,-0.10697479,-0.1340753,0.3256114,-9.289502,0.83365434,47.70211,-1.120507,-1.743295,-3.456873,0.0033506004,-0.39370847,-0.36427584,26.9375,28.125,27.125,30.4375,32.125,32.6875
0.24005331,-1.314892,-1.20736,-1.202156,-0.03067566,0.034975257,-0.12796462,-0.386639,-0.3280722,0.060079597,-3.076578,0.6195936,0.00016397634,-0.11680752,0.0005304357,0.0006793522,0.026852278,-0.0025655737,0.019857295,0.4373338,-1.445935,1.980297,-2.1018317,-1.5732259,2.409225,-0.08695236,0.21448016,-0.25386035,0.052878138,-0.023856888,-0.10657042,-0.114921674,0.28730422,-9.193734,0.900793,47.711964,-1.150596,-1.661433,-3.3497822,-0.005412522,-0.4028669,-0.3972252,26.9375,28.125,27.125,30.4375,32.125,32.6875
0.242054,-1.2700837,-0.7540527,-1.0240391,-0.017544378,0.039575078,-0.13935907,-0.3868688,-0.32806545,0.060071643,-3.076559,0.6194898,0.00011095231,-0.118463434,0.00078524085,0.0013322117,0.027402688,-0.0023834417,0.025368052,0.43712935,-1.4455025,1.9798058,-2.1017234,-1.5732383,2.4089584,-0.08839086,0.21628875,-0.25801176,0.05526652,-0.02445736,-0.11351472,-0.24899697,0.24899697,-9.174581,0.88960326,47.709274,-1.136826,-1.741082,-3.2887917,-0.027813127,-0.41623667,-0.3620221,26.9375,28.125,27.125,30.4375,32.125,32.6875
0.24405392,-1.2874242,-0.63060665,-1.2316515,0.010256776,0.041724533,-0.13441421,-0.38709536,-0.3280488,0.06006317,-3.0764904,0.6193576,9.914439e-05,-0.11859572,0.0012526443,0.0014779754,0.028434487,-0.0042645736,0.028926272,0.43694907,-1.4450712,1.9793142,-2.1016018,-1.5733103,2.4087048,-0.089197926,0.21691936,-0.25990677,0.058648106,-0.024610477,-0.117877916,-0.22984336,0.28730422,-9.136273,0.8717007,47.709274,-1.1825974,-1.6779435,-3.235733,-0.048313767,-0.40639678,-0.3363055,26.9375,28.125,27.125,30.4375,32.125,32.6875
0.24605364,-0.8899724,0.07483787,-1.1024619,0.009345688,0.06238315,-0.13574873,-0.38732412,-0.32806337,0.060062177,-3.0764778,0.61917853,5.7145597e-05,-0.11820555,0.0018863356,0.0011091821,0.030160846,-0.007060394,0.035662297,0.4367928,-1.444616,1.9787759,-2.1014693,-1.5733341,2.4084387,-0.089697495,0.21776296,-0.2608598,0.061996076,-0.025009256,-0.12511131,-0.30645782,0.22984336,-9.289503,0.91198283,47.692257,-1.0456066,-1.4835184,-3.3778899,-0.08844097,-0.41413644,-0.2669273,26.9375,28.125,27.125,30.4375,32.125,32.6875
0.24805337,-1.2984772,-0.21211784,-0.941166,0.009675535,0.0662481,-0.13845949,-0.38755387,-0.32804203,0.060061704,-3.0763903,0.6191367,4.482965e-05,-0.117501654,0.0015306082,0.0012253529,0.03133529,-0.009118182,0.044069644,0.4366014,-1.4441962,1.9782733,-2.1013248,-1.5734061,2.4082327,-0.088215336,0.21833062,-0.2626531,0.06555062,-0.025224777,-0.13203424,-0.36391866,0.15322891,-9.232041,0.947788,47.716442,-1.2208862,-1.5132744,-3.4206886,-0.12789252,-0.42130217,-0.21116164,26.9375,28.125,27.125,30.4375,32.125,32.6875
0.2500541,-1.4811811,-0.052220356,-0.7239098,-0.0052143936,0.07655636,-0.1373796,-0.38779348,-0.32806027,0.06007282,-3.0764077,0.618912,4.82983e-05,-0.11858534,0.0045129904,0.0003942951,0.034389757,-0.01213798,0.040157273,0.43644336,-1.4437531,1.977723,-2.1012037,-1.5734309,2.4079325,-0.09360162,0.2195562,-0.2629038,0.06859782,-0.026718315,-0.1335031,-0.38307226,-0.019153614,-9.174581,0.88960326,47.71465,-1.0078214,-1.4368396,-3.4992151,-0.16786622,-0.42964453,-0.1385203,26.9375,28.125,27.125,30.4375,32.125,32.6875
0.2520541,-1.5362595,0.113832906,-0.76342255,0.0027405538,0.077663824,-0.13230698,-0.38802248,-0.32803842,0.06004941,-3.0763242,0.6187388,-1.0094635e-05,-0.117672645,0.004591895,-0.0020126917,0.038801696,-0.017328521,0.04355731,0.43625224,-1.4432839,1.9772199,-2.1010716,-1.5735034,2.4076443,-0.091681175,0.2251927,-0.26434886,0.07096278,-0.028542727,-0.13497253,-0.45968673,-0.15322891,-9.155427,0.8717007,47.686886,-1.1479044,-1.5585189,-3.5223265,-0.21654963,-0.4038952,-0.08723731,26.9375,28.125,27.125,30.4375,32.125,32.6875
0.25405407,-1.6319209,-0.038663078,-0.8571573,0.027084269,0.0692368,-0.1348485,-0.3882583,-0.32802308,0.0600522,-3.0762525,0.6186694,-3.2442917e-05,-0.11980739,0.005329001,-0.0022444718,0.040093143,-0.017406343,0.03663896,0.43605947,-1.4428515,1.9766926,-2.1009157,-1.5735639,2.4074178,-0.094057,0.22872908,-0.2680583,0.071756236,-0.029690856,-0.1304218,-0.40222588,-0.19153613,-9.078813,0.8784135,47.666286,-1.049504,-1.6495767,-3.527249,-0.23045567,-0.39190686,-0.097133175,26.9375,28.125,27.125,30.4375,32.125,32.6875
0.25605413,-1.320918,0.29347667,-0.79865706,0.035372544,0.07296208,-0.1288185,-0.3884924,-0.32802248,0.060039364,-3.0761726,0.61856043,-5.7902966e-05,-0.1206508,0.0061983345,-0.0030718893,0.04183316,-0.018656084,0.030548757,0.43590304,-1.4423714,1.9761528,-2.100784,-1.5736359,2.407204,-0.0956238,0.23130064,-0.26926836,0.072266266,-0.030745992,-0.12589154,-0.38307226,-0.17238252,-9.193734,0.8537928,47.666286,-0.94336665,-1.7516162,-3.4391565,-0.2596865,-0.39141518,-0.13277498,26.9375,28.125,27.125,30.4375,32.125,32.6875
0.25805357,-1.1823422,0.73376596,-0.9066978,0.03451662,0.056746554,-0.13182412,-0.38876355,-0.32800183,0.06005697,-3.0761309,0.6184963,-4.5844736e-05,-0.122470945,0.0065810215,-0.0027285602,0.042941358,-0.016966345,0.025161844,0.43566272,-1.4419279,1.9755787,-2.1006286,-1.573685,2.4069293,-0.09667175,0.23319931,-0.27229705,0.0723386,-0.03247144,-0.12154349,-0.40222588,-0.21068975,-9.289503,0.92764956,47.70032,-0.9774035,-1.7490368,-3.4842892,-0.30250263,-0.37748498,-0.2035402,26.9375,28.125,27.125,30.4375,32.125,32.6875
0.26005366,-1.041099,-0.018759148,-1.0322293,0.030100513,0.04939421,-0.12323687,-0.3889616,-0.3279728,0.05999563,-3.0759788,0.6183724,-0.00019546086,-0.12605716,0.007208526,-0.0023210468,0.043136906,-0.013224782,0.018308735,0.4354935,-1.4414239,1.9751228,-2.1004975,-1.5737695,2.4067025,-0.09968051,0.23640451,-0.27639276,0.06992258,-0.03425929,-0.117683165,-0.40222588,-0.038307227,-9.289502,0.9097417,47.701214,-0.9005327,-1.716764,-3.5471802,-0.29638273,-0.33830434,-0.27651256,26.9375,28.125,27.125,30.4375,32.125,32.6875
0.26205412,-1.3924873,-0.59430796,-1.2039542,0.00023281101,0.054542277,-0.13261716,-0.38922998,-0.3279599,0.0600246,-3.0759149,0.61834186,-0.00018670727,-0.12897995,0.0061866296,-0.00031894242,0.04073995,-0.008020397,0.014871111,0.43527746,-1.44098,1.974511,-2.1002939,-1.5738295,2.406476,-0.10020256,0.2370664,-0.28153628,0.06866987,-0.03429754,-0.11476325,-0.6512229,0.17238252,-9.174581,0.8985519,47.698532,-0.86298347,-1.7353148,-3.4506297,-0.27354413,-0.32463402,-0.3408888,26.9375,28.125,27.125,30.4375,32.125,32.6875
0.26405358,-1.3225253,-1.2442424,-1.1947786,-0.026152851,0.069780365,-0.13864061,-0.3894747,-0.32793164,0.059998605,-3.075783,0.6182385,-0.00022441013,-0.12940793,0.006919048,-0.00013440725,0.04151925,-0.008228073,0.011525519,0.4350851,-1.440477,1.9739722,-2.1001503,-1.5739373,2.4062364,-0.10142341,0.23692681,-0.2822087,0.06998944,-0.03492657,-0.11263247,-0.5554548,0.24899697,-9.289503,0.9254084,47.689575,-0.77835155,-1.6438123,-3.3306189,-0.31165805,-0.32703876,-0.40164405,26.9375,28.125,27.125,30.4375,32.125,32.6875
0.26605427,-2.134453,-2.1548219,-1.536774,-0.06409381,0.08341649,-0.12373032,-0.38971785,-0.32791284,0.059986636,-3.0756764,0.61823714,-0.00029020218,-0.13205646,0.006568099,0.0010719763,0.04048241,-0.0019004585,0.009460656,0.43488088,-1.4399973,1.9734219,-2.0999844,-1.5739983,2.4060454,-0.101817444,0.2372217,-0.28444675,0.06575549,-0.036677882,-0.11094892,-0.6703765,0.38307226,-9.461885,0.94331104,47.70211,-0.7816759,-1.6951103,-3.4551332,-0.2905349,-0.27977443,-0.4498975,26.9375,28.125,27.125,30.4375,32.125,32.6875
0.26805413,-2.9396636,-3.2698362,-1.6976451,-0.09079007,0.10617259,-0.12521292,-0.38996476,-0.32790038,0.05998016,-3.075598,0.61818075,-0.00035391483,-0.13258918,0.0066437284,0.00024634248,0.04121043,-0.0027709163,0.009814465,0.4346768,-1.4395179,1.9728588,-2.0998166,-1.5740465,2.4058166,-0.1021229,0.23982167,-0.2854802,0.06527135,-0.03699005,-0.111602955,-0.842759,0.51714754,-9.519346,0.8851263,47.68599,-0.79574883,-1.634577,-3.477489,-0.2903863,-0.24276131,-0.5075655,26.9375,28.125,27.125,30.4375,32.125,32.6875
0.27005386,-3.029501,-3.4814768,-1.6498309,-0.09997572,0.12560745,-0.13051468,-0.3902312,-0.32788014,0.05995591,-3.0754893,0.6180023,-0.0003115036,-0.13379149,0.006041747,-0.00022727312,0.04082958,-0.0017429113,0.013723952,0.434497,-1.4389898,1.972298,-2.0997221,-1.5741786,2.4055398,-0.10188688,0.24278823,-0.28735438,0.0630522,-0.037107572,-0.115272,-0.68953013,0.51714754,-9.576807,0.8605109,47.696735,-0.86308116,-1.6354214,-3.6283648,-0.28921026,-0.23845735,-0.5116898,26.9375,28.125,27.125,30.4375,32.125,32.6875
0.27205345,-3.4916856,-3.322916,-1.6599002,-0.10722258,0.13606957,-0.123569794,-0.39052093,-0.3278702,0.059965316,-3.075438,0.6180621,-0.00033468628,-0.13517305,0.0055569713,0.00022165469,0.039007135,0.0015166255,0.023461916,0.43424502,-1.4384867,1.9716743,-2.0995677,-1.5742024,2.405332,-0.102228425,0.24309038,-0.28808144,0.059704073,-0.036873106,-0.12535046,-0.7278373,0.57460845,-9.595961,0.8717007,47.68599,-0.9084675,-1.6432474,-3.6772242,-0.24063843,-0.21859124,-0.4441586,26.9375,28.125,27.125,30.4375,32.125,32.6875
0.27405345,-2.8221383,-3.045951,-1.9415654,-0.08562528,0.13286746,-0.12919046,-0.39078197,-0.32785815,0.059956253,-3.07539,0.6178935,-0.00028925395,-0.1366701,0.0041936957,0.00080208224,0.0363521,0.004832346,0.031458046,0.43405333,-1.4380074,1.971136,-2.0994852,-1.5742859,2.4050417,-0.10155844,0.24432452,-0.29016337,0.056379,-0.035898283,-0.13267837,-0.38307226,0.49799395,-9.653421,0.9186956,47.692257,-0.96305287,-1.5239581,-3.7228267,-0.203929,-0.19458935,-0.37153286,26.9375,28.125,27.125,30.4375,32.125,32.6875
0.27605426,-1.8719195,-2.1208806,-1.861127,-0.069491535,0.10916179,-0.13477315,-0.3910982,-0.3278427,0.05996661,-3.0753338,0.6178395,-0.00014775638,-0.13862322,0.0043691914,0.0006309539,0.03564994,0.0061651557,0.03921972,0.4338245,-1.437491,1.9705137,-2.0994136,-1.5743941,2.4047868,-0.10347616,0.24679634,-0.29223433,0.05441426,-0.035856545,-0.14235766,-0.36391866,0.40222588,-9.710882,0.86945957,47.68062,-0.8112453,-1.6201054,-3.794044,-0.15835494,-0.1740074,-0.27471647,26.9375,28.125,27.125,30.4375,32.125,32.6875
0.27805385,-1.1264662,-1.3873894,-1.6572089,-0.05259256,0.06967225,-0.1371325,-0.39137435,-0.3278524,0.059938975,-3.0753126,0.6177153,-0.00018660951,-0.141102,0.0029431733,0.0020791593,0.03369821,0.010388659,0.045341432,0.43362096,-1.4369277,1.9699248,-2.099342,-1.574418,2.4045088,-0.102853306,0.2485923,-0.2974204,0.053120382,-0.03589891,-0.14785175,-0.2681506,0.3256114,-9.461885,0.8806493,47.677036,-0.95083237,-1.7727861,-3.6083856,-0.117941886,-0.18969941,-0.19586496,26.9375,28.125,27.125,30.4375,32.125,32.6875
0.280054,-0.50851023,-1.2784511,-1.8340579,-0.01333744,0.034994654,-0.1271589,-0.39166218,-0.32782966,0.059939615,-3.0752463,0.61752987,-0.000121503974,-0.1431139,0.0038383738,0.0011756477,0.034241293,0.009748023,0.044315975,0.43340355,-1.4364237,1.9693273,-2.099223,-1.5745262,2.4041846,-0.10596085,0.25249016,-0.2996741,0.052254893,-0.036140643,-0.1499302,-0.076614454,0.24899697,-9.346964,0.9164598,47.71554,-0.70304745,-1.7217255,-3.5152135,-0.058145102,-0.16191363,-0.14789462,26.9375,28.125,27.125,30.4375,32.125,32.6875
0.28205368,0.30471158,-0.42188308,-2.1929944,0.00030701622,-0.0014112508,-0.12373187,-0.39195752,-0.32783085,0.059933074,-3.0752234,0.6173527,-5.9368347e-05,-0.14386353,0.0032964605,0.0009269563,0.034460437,0.009096488,0.04261505,0.43319967,-1.4358838,1.968716,-2.0991504,-1.5745977,2.4038734,-0.105553284,0.25530332,-0.3025878,0.053029295,-0.036065545,-0.14782049,-0.11492168,0.21068975,-9.385271,0.8873621,47.707485,-0.8757616,-1.7848848,-3.453025,-0.029860707,-0.124440834,-0.12011638,26.9375,28.125,27.125,30.4375,32.125,32.6875
0.28405347,0.49922636,-1.0534648,-1.7750212,0.0031651845,-0.00018157042,-0.12796937,-0.39226273,-0.32782117,0.059942484,-3.0751932,0.6173316,2.1368152e-05,-0.14394781,0.0029934228,-7.6414086e-05,0.035023592,0.005645665,0.035073876,0.43295985,-1.4353791,1.9681052,-2.0990665,-1.5746573,2.4036248,-0.10558808,0.25901031,-0.30509868,0.05521197,-0.035105243,-0.14031796,-0.076614454,0.19153613,-9.346964,0.9186956,47.71554,-0.8775357,-1.9815345,-3.5611987,-0.0022837692,-0.10748264,-0.21774107,26.9375,28.125,27.125,30.4375,32.125,32.6875
0.2860542,0.009583208,-1.4368207,-1.8884578,-0.012196558,-0.008657927,-0.12630814,-0.3925447,-0.32779834,0.059930272,-3.075102,0.61725676,1.7910732e-05,-0.1433958,0.0025774923,0.00010003769,0.035247885,0.0031309463,0.030242141,0.43273225,-1.4348518,1.9675068,-2.098933,-1.5747417,2.4033625,-0.10481414,0.25966847,-0.3072541,0.05908698,-0.03424403,-0.13471389,-0.05746084,0.24899697,-9.442732,0.94331104,47.71554,-0.9146193,-1.9666569,-3.5341246,-0.015335383,-0.10986847,-0.26350287,26.9375,28.125,27.125,30.4375,32.125,32.6875
0.28805432,-0.24972427,-1.8650097,-1.9068947,-0.02677082,0.0036593806,-0.12456519,-0.3928284,-0.3277956,0.059917856,-3.0750346,0.6171094,3.088101e-05,-0.1451028,0.0023514375,0.00029191276,0.033802517,0.0032868523,0.027000021,0.43253955,-1.4343001,1.966884,-2.0988133,-1.5748252,2.403087,-0.10656783,0.26205248,-0.31056815,0.05925392,-0.03300818,-0.13322769,0.114921674,0.21068975,-9.500193,0.8940802,47.691364,-0.8267157,-2.0598822,-3.5223026,0.018234381,-0.10973671,-0.3107831,26.9375,28.125,27.125,30.4375,32.125,32.6875
0.29005414,-0.33115506,-1.702498,-1.7437856,-0.046827428,0.00662545,-0.13239506,-0.3931094,-0.3277879,0.05989549,-3.0749485,0.6170125,-3.8735827e-05,-0.1449674,0.0010105924,0.0004372943,0.03290815,0.0018405538,0.02868431,0.43232438,-1.4337243,1.9662484,-2.0986574,-1.5748843,2.4028227,-0.10480926,0.26385626,-0.3135689,0.061369963,-0.031606734,-0.13315576,0.15322891,0.19153613,-9.5385,0.8873621,47.709274,-0.98847246,-2.0276186,-3.4530334,0.02130982,-0.10466225,-0.33985895,26.9375,28.125,27.125,30.4375,32.125,32.6875
0.29205388,-0.3452829,-1.6858988,-1.9095249,-0.05006697,0.0034668627,-0.11777292,-0.39342254,-0.32777867,0.059921194,-3.0749104,0.6169293,6.3920095e-05,-0.14455315,0.002008237,7.374006e-07,0.033443324,-0.0020922231,0.026392125,0.43209544,-1.4332213,1.9655899,-2.0985239,-1.5749682,2.4025471,-0.10693861,0.2642564,-0.31401142,0.06518622,-0.030437326,-0.13299988,0.15322891,0.30645782,-9.576807,0.96569055,47.692257,-0.82218885,-2.029192,-3.4656157,0.00015966129,-0.10003833,-0.3600836,26.9375,28.125,27.125,30.4375,32.125,32.6875
0.29405373,-0.21339196,-1.6807295,-1.8082734,-0.039988503,-0.00028450615,-0.12912735,-0.39371374,-0.3278161,0.05995149,-3.0749614,0.6167845,0.00010428603,-0.14476845,0.0012821725,-0.00011326942,0.032416657,-0.0031107897,0.02766032,0.4319157,-1.432718,1.9649204,-2.0983922,-1.5749677,2.4022708,-0.10657751,0.26586542,-0.31586835,0.06591535,-0.029082034,-0.13391347,0.17238253,0.21068975,-9.576807,0.99702406,47.709274,-1.0318302,-1.9201028,-3.5353289,0.024066323,-0.12617448,-0.36692324,26.9375,28.125,27.125,30.4375,32.125,32.6875
0.29605386,-0.31803855,-1.1951506,-1.866185,-0.035174634,-0.011504171,-0.12791763,-0.39398697,-0.32779732,0.05989842,-3.0748475,0.6166435,5.4477157e-05,-0.14595924,0.0012401849,0.00068340165,0.03145504,-0.0026555583,0.030505195,0.4317114,-1.4321188,1.9643439,-2.0983078,-1.5750636,2.4019935,-0.10783782,0.26635033,-0.31874296,0.067450024,-0.028432751,-0.13801785,0.17238252,0.13407528,-9.5385,0.88960326,47.701214,-0.96898735,-1.9211075,-3.5169654,0.050523385,-0.12272543,-0.36121488,26.9375,28.125,27.125,30.4375,32.125,32.6875
0.29805383,0.13274616,-1.1332312,-1.8794501,-0.023971982,-0.0062437314,-0.12747547,-0.39429882,-0.32778728,0.05992206,-3.0748315,0.6165591,0.00010664343,-0.14566357,0.0015804238,0.00057361927,0.032161213,-0.005457913,0.03741988,0.4314591,-1.4316156,1.9636863,-2.0981624,-1.5751113,2.401691,-0.108422875,0.26704472,-0.3202113,0.07101563,-0.027924089,-0.14552054,0.15322891,0.11492168,-9.576807,0.900793,47.66539,-0.94459397,-1.7653344,-3.4818702,0.019675858,-0.12376311,-0.29311806,26.9375,28.125,27.125,30.4375,32.125,32.6875
0.30005392,0.5083043,-0.7156561,-1.7942321,-0.010181915,0.001878614,-0.138146,-0.39458433,-0.327785,0.05989601,-3.0747538,0.61638546,8.741041e-05,-0.14530827,0.0016506781,-0.00028759762,0.033373527,-0.010338752,0.04469055,0.43126717,-1.4310274,1.9630517,-2.0980418,-1.5751952,2.401401,-0.108742364,0.2701221,-0.32289764,0.07550979,-0.027019864,-0.15311255,0.076614454,0.15322891,-9.557653,0.9925471,47.72808,-0.95976776,-1.8102651,-3.5946827,0.0064104986,-0.14003552,-0.20100336,26.9375,28.125,27.125,30.4375,32.125,32.6875
0.3020541,-0.094018474,-0.4752732,-1.7295321,-0.00517275,-0.0022392457,-0.12547511,-0.39487022,-0.32777783,0.059892364,-3.0747192,0.61631644,4.2783977e-05,-0.14514579,0.0020959028,0.00016811147,0.033846304,-0.012746497,0.049588278,0.43102676,-1.4305004,1.9624289,-2.0978963,-1.5752186,2.4011223,-0.1096662,0.26988742,-0.32482982,0.08002306,-0.026469938,-0.15893583,0.0,0.17238252,-9.442732,0.86498255,47.684196,-0.99650246,-1.8405583,-3.5793834,-0.042345386,-0.15066002,-0.09838607,26.9375,28.125,27.125,30.4375,32.125,32.6875
0.3040542,-0.38587773,-0.54798824,-1.6504295,-0.0018157681,0.01594525,-0.12717015,-0.39517805,-0.32778937,0.05991536,-3.0747275,0.61608726,5.4470886e-05,-0.14454752,0.0028404696,-0.0009493905,0.035894886,-0.018177288,0.051218033,0.4308105,-1.4299605,1.9617223,-2.0977151,-1.5752548,2.4007623,-0.11066984,0.27251762,-0.32647455,0.084802836,-0.026072681,-0.16157086,-0.095768064,0.05746084,-9.308657,0.90750587,47.694946,-0.90790427,-1.8122005,-3.5283628,-0.096396774,-0.16992158,-0.046820194,26.9375,28.125,27.125,30.4375,32.125,32.6875
0.30605397,-0.6012421,-0.59032816,-1.8773738,0.013065627,0.01907787,-0.11896478,-0.39546284,-0.32779258,0.059912432,-3.0746837,0.61592704,1.5831076e-05,-0.14493014,0.002871254,-0.00078722864,0.036403045,-0.021308757,0.045804095,0.43060628,-1.429409,1.9610642,-2.0975459,-1.5753025,2.400464,-0.11149948,0.2745712,-0.33044818,0.08978651,-0.025225354,-0.15698804,-0.1340753,0.21068975,-9.385271,0.947788,47.716442,-0.9254321,-1.8307793,-3.5905335,-0.15247115,-0.16389453,-0.06557588,26.9375,28.125,27.125,30.4375,32.125,32.6875
0.3080538,-1.0013171,-1.1332092,-1.8775344,0.012369713,0.037926342,-0.114068426,-0.3957498,-0.3277792,0.059923127,-3.074626,0.6157847,-1.2805288e-05,-0.14423229,0.0039780387,-0.0028514634,0.03947727,-0.02780869,0.03911499,0.43037787,-1.4288926,1.9604067,-2.0973413,-1.5753621,2.4001546,-0.11277717,0.27865717,-0.33141902,0.0938726,-0.025299134,-0.15157461,-0.21068975,0.24899697,-9.5385,0.92093146,47.73614,-0.8966344,-1.9135928,-3.5687075,-0.21752492,-0.19431998,-0.11788544,26.9375,28.125,27.125,30.4375,32.125,32.6875
0.31005338,-0.98147476,-1.3392434,-1.5030333,-0.018964672,0.06819267,-0.12818208,-0.39603797,-0.3277463,0.05991758,-3.0745165,0.61568826,-0.00012874095,-0.14609316,0.0038407047,-0.0017642261,0.039475124,-0.026888039,0.03137371,0.4301136,-1.4283407,1.9597348,-2.0970886,-1.5754226,2.3998446,-0.11372386,0.2803239,-0.33653823,0.09650625,-0.02569269,-0.14477259,-0.24899697,0.1340753,-9.404425,0.9231726,47.70211,-0.87683403,-2.1174273,-3.484363,-0.28637683,-0.19716787,-0.18774645,26.9375,28.125,27.125,30.4375,32.125,32.6875
0.31205386,-1.6449741,-1.3916334,-1.4152213,-0.032251976,0.07535799,-0.12594932,-0.3963319,-0.32776657,0.059912562,-3.074495,0.61557126,-0.0001974419,-0.14634413,0.0036122447,-0.0012848562,0.039864466,-0.025818631,0.025209494,0.42991006,-1.4277539,1.959041,-2.0969212,-1.5754346,2.3995712,-0.11289078,0.28017098,-0.33774337,0.09708474,-0.026485028,-0.1377694,-0.30645782,0.114921674,-9.346964,0.86945957,47.709274,-0.94201404,-1.9007411,-3.5492063,-0.33922988,-0.1913231,-0.25500917,26.9375,28.125,27.125,30.4375,32.125,32.6875
0.31405362,-1.9738107,-1.6063125,-1.2921188,-0.032101728,0.083409004,-0.12283314,-0.39666057,-0.3277524,0.059920028,-3.0744174,0.61549836,-0.00014132142,-0.14804499,0.0031243816,-0.00076057675,0.038607042,-0.022773346,0.022703987,0.42966974,-1.4271781,1.9583338,-2.0967667,-1.5755309,2.3992958,-0.11321881,0.28128856,-0.33984286,0.0947664,-0.026625147,-0.1355892,-0.5363012,0.15322891,-9.32781,0.9186956,47.68599,-0.83678156,-1.8736145,-3.5087955,-0.3504023,-0.19519338,-0.33631346,26.9375,28.125,27.125,30.4375,32.125,32.6875
0.3160543,-2.00171,-1.4653591,-1.2591715,-0.03258436,0.092981584,-0.11627144,-0.39693612,-0.32776174,0.059936326,-3.0743787,0.615378,-0.00018392708,-0.1508488,0.0023879139,0.0013975247,0.035335887,-0.015457689,0.016695887,0.42947772,-1.4266641,1.9576629,-2.0965526,-1.5755666,2.399034,-0.11407516,0.27982467,-0.34234017,0.09073055,-0.026707496,-0.13043387,-0.51714754,0.19153613,-9.3661175,0.9097417,47.677036,-1.0836422,-1.8015349,-3.5361555,-0.32741565,-0.2235139,-0.4157949,26.9375,28.125,27.125,30.4375,32.125,32.6875
0.3180541,-1.7204592,-1.4535167,-1.2842413,-0.030761525,0.10438331,-0.1283254,-0.3972065,-0.32775956,0.05988945,-3.074296,0.61530226,-0.00033253993,-0.15199143,0.002087209,0.0011247396,0.034026563,-0.012310103,0.016843528,0.4292615,-1.426053,1.9570421,-2.096411,-1.5755905,2.3987815,-0.11427784,0.28063425,-0.34170246,0.0858666,-0.026861692,-0.13077947,-0.49799395,0.095768064,-9.404425,0.9612189,47.73077,-0.9154886,-1.5397923,-3.5992649,-0.32674697,-0.21663384,-0.47866404,26.9375,28.125,27.125,30.4375,32.125,32.6875
0.32005382,-1.9635699,-0.9721106,-1.1908342,-0.036243275,0.09538731,-0.12609057,-0.39753202,-0.32775897,0.059912264,-3.0742598,0.6151942,-0.00026785425,-0.15531608,0.0006887042,0.0021903159,0.03131102,-0.004372351,0.023506181,0.42903373,-1.4255015,1.956324,-2.0962455,-1.575663,2.3984914,-0.11382001,0.2823716,-0.34464365,0.078679025,-0.027746957,-0.13697685,-0.61291564,0.038307227,-9.270349,0.8940802,47.72092,-1.043889,-1.5437236,-3.6520627,-0.2333779,-0.21619955,-0.47968528,26.9375,28.125,27.125,30.4375,32.125,32.6875
0.32205358,-1.4657245,-0.978449,-1.2196467,-0.024496404,0.096336246,-0.13050558,-0.3978479,-0.32775947,0.059929147,-3.0742304,0.6151252,-0.00026660014,-0.15921143,0.00057672575,0.0043436694,0.029798754,0.0018678847,0.031238282,0.42879298,-1.4249502,1.9556164,-2.0960662,-1.5756997,2.3982117,-0.11592426,0.2831175,-0.3502207,0.07714932,-0.02902734,-0.14680299,-0.4213795,0.038307227,-9.32781,0.9791215,47.716442,-0.9723947,-1.4869919,-3.522375,-0.18168153,-0.21440604,-0.4168589,26.9375,28.125,27.125,30.4375,32.125,32.6875
0.3240534,-1.0228059,-0.917583,-1.5412164,-0.02363548,0.087171406,-0.12980898,-0.3981926,-0.3277458,0.059942964,-3.0741823,0.6150146,-0.00016723096,-0.16133702,-0.00015705248,0.0038428758,0.028101724,0.0038764914,0.04124103,0.4285407,-1.4243743,1.9548987,-2.0959365,-1.575795,2.397897,-0.11665747,0.28690994,-0.3526635,0.073188424,-0.028375562,-0.15754083,-0.30645782,0.076614454,-9.346964,0.9791215,47.71465,-0.9765208,-1.4618156,-3.4664047,-0.15675008,-0.22892334,-0.30804488,26.9375,28.125,27.125,30.4375,32.125,32.6875
0.32605416,-1.4180626,-1.0843145,-1.6791034,-0.013692819,0.06647964,-0.11517274,-0.39850482,-0.32775113,0.0599412,-3.0741746,0.61483556,-0.00016880248,-0.16282323,-7.525629e-05,0.0031640946,0.0280208,0.0036284074,0.048239075,0.4283121,-1.4237977,1.9542149,-2.095805,-1.5758313,2.397558,-0.11801058,0.29032928,-0.35494375,0.07218549,-0.028244626,-0.16589068,-0.4213795,-0.019153614,-9.442732,0.9388393,47.686886,-0.76026815,-1.7199717,-3.4691944,-0.08333316,-0.24121208,-0.20371419,26.9375,28.125,27.125,30.4375,32.125,32.6875
0.32805365,-1.0054363,-0.924367,-1.8417298,-0.013113579,0.06394814,-0.12402137,-0.3988296,-0.32774922,0.05996224,-3.0741546,0.61475223,-0.00015581926,-0.16449764,0.00030126944,0.0020512606,0.029201968,0.0018487461,0.050089557,0.42806002,-1.4232454,1.9534954,-2.0956247,-1.5758675,2.3972569,-0.119728655,0.295451,-0.35851318,0.0727125,-0.028605295,-0.16945487,-0.47884035,0.15322891,-9.5385,0.8717007,47.71823,-0.92470014,-1.7949564,-3.4561586,-0.05632262,-0.25476274,-0.17112727,26.9375,28.125,27.125,30.4375,32.125,32.6875
0.33005413,-1.6095445,-1.2308402,-1.75598,-0.028554194,0.0703963,-0.116245635,-0.3991562,-0.3277246,0.05993969,-3.0740552,0.61456156,-0.00013199223,-0.16400954,0.0006286964,0.0014050265,0.0312941,0.00023020807,0.04657475,0.42782015,-1.42262,1.952803,-2.0954921,-1.5759882,2.3969111,-0.118988775,0.29657078,-0.35882735,0.07424821,-0.029831154,-0.165192,-0.5554548,0.11492168,-9.595961,0.98807013,47.704796,-0.9079281,-1.8189995,-3.4376974,-0.04884154,-0.25660968,-0.14080726,26.9375,28.125,27.125,30.4375,32.125,32.6875
0.33205387,-1.6611397,-1.4347107,-1.7930657,-0.03566118,0.08284741,-0.12528011,-0.39947948,-0.32772827,0.059952226,-3.0740256,0.61448276,-0.00013839254,-0.16308166,0.001526781,-0.0002027066,0.033148386,-0.0040266677,0.039073132,0.42757976,-1.4220428,1.9520739,-2.0953124,-1.5760239,2.3966258,-0.119781874,0.29844618,-0.35786211,0.07607357,-0.02972781,-0.158484,-0.45968673,0.24899697,-9.634268,0.8806493,47.68599,-0.9002255,-1.799332,-3.7747586,-0.058602817,-0.25971964,-0.1893808,26.9375,28.125,27.125,30.4375,32.125,32.6875
0.33405355,-1.5662994,-1.3271884,-1.8082728,-0.055982757,0.09225568,-0.13215739,-0.39981788,-0.32772186,0.05994903,-3.073956,0.61437386,-0.00011451121,-0.16280442,0.0015841436,-0.00044470903,0.033459313,-0.0058542136,0.03408108,0.42733982,-1.4214178,1.9513315,-2.095156,-1.5761079,2.3963273,-0.11983494,0.29916397,-0.35874826,0.07803948,-0.029241076,-0.15354674,-0.4405331,0.19153613,-9.710882,0.9612189,47.701214,-0.94137394,-1.8136058,-3.8084712,-0.054197647,-0.2714854,-0.2988215,26.9375,28.125,27.125,30.4375,32.125,32.6875
0.33605462,-1.994889,-2.2925484,-1.7780676,-0.05849034,0.08483442,-0.12223393,-0.40016752,-0.32771108,0.059969995,-3.0739167,0.61430836,-3.8512208e-05,-0.16443986,0.0015376626,0.00039420743,0.033680964,-0.004222515,0.03244557,0.42707556,-1.4208415,1.9505891,-2.0950005,-1.5761803,2.3960276,-0.12039647,0.30039167,-0.36247835,0.079139434,-0.030123342,-0.15246673,-0.38307226,0.2681506,-9.595961,0.9858343,47.694946,-0.92660964,-1.7234247,-3.8174539,-0.03398224,-0.28369683,-0.3174136,26.9375,28.125,27.125,30.4375,32.125,32.6875
0.33805344,-1.3216796,-1.7792295,-1.786384,-0.06522922,0.08550454,-0.12939383,-0.4004742,-0.32772028,0.059967652,-3.0738816,0.6141858,-7.539556e-05,-0.16482829,0.0014694096,0.001005006,0.03477685,-0.006196626,0.031654753,0.42685986,-1.4202521,1.9498814,-2.0948303,-1.5762161,2.3957403,-0.1203512,0.3017421,-0.36675167,0.0843069,-0.030309279,-0.1516271,-0.3256114,0.22984336,-9.672575,1.0328293,47.716442,-0.95758843,-1.661345,-3.751844,-0.06734548,-0.27687812,-0.35709387,26.9375,28.125,27.125,30.4375,32.125,32.6875
0.34005424,-0.82002836,-1.6752576,-2.0125747,-0.05293307,0.059605863,-0.12635332,-0.4008318,-0.32771546,0.059985057,-3.073838,0.61406153,-4.244594e-06,-0.16648157,0.0010336644,0.0025759302,0.03299953,-0.0036543414,0.030424241,0.4266074,-1.4196398,1.9491028,-2.094663,-1.5762995,2.3954163,-0.12114893,0.30137658,-0.37029046,0.08514199,-0.029752405,-0.1511963,-0.24899697,0.21068975,-9.691729,0.8940802,47.701214,-0.9729035,-1.6097744,-3.7103314,-0.07109878,-0.29914823,-0.3814773,26.9375,28.125,27.125,30.4375,32.125,32.6875
0.34205386,-0.7368321,-2.146472,-1.8863672,-0.03200014,0.030777395,-0.12239714,-0.40116596,-0.3277235,0.05999328,-3.073828,0.6139207,4.838018e-06,-0.16708754,0.0006564029,0.0030511986,0.03397113,-0.0066005597,0.036807626,0.42636752,-1.4190385,1.9483594,-2.094505,-1.5763358,2.39509,-0.121026844,0.30410096,-0.37603536,0.091197684,-0.029449286,-0.15745728,-0.13407528,0.17238252,-9.691729,0.9768804,47.677036,-0.9811716,-1.4739525,-3.4344678,-0.09901336,-0.31537318,-0.34467125,26.9375,28.125,27.125,30.4375,32.125,32.6875
0.34405336,0.34184435,-0.8784253,-1.9841254,-0.017820604,0.005298913,-0.13341697,-0.40150392,-0.32771814,0.059998877,-3.073786,0.6137541,9.633491e-05,-0.16663434,0.0020053321,0.00025037563,0.038787216,-0.0136998175,0.042863764,0.42613935,-1.4184476,1.9476422,-2.0943844,-1.5764321,2.3947637,-0.122011185,0.310159,-0.37761614,0.09511859,-0.030927163,-0.16448925,-0.038307227,0.24899697,-9.615114,0.98135734,47.698532,-0.9625982,-1.7493384,-3.5161936,-0.17115259,-0.31985074,-0.30445892,26.9375,28.125,27.125,30.4375,32.125,32.6875
0.34605405,0.44574213,-0.60863006,-2.004129,0.010290553,-0.00714602,-0.12622829,-0.4018389,-0.32770208,0.0599975,-3.0737286,0.6135818,2.3621787e-05,-0.16524008,0.002371469,-0.0013526507,0.04157639,-0.0186573,0.05359484,0.42586362,-1.4178221,1.9468764,-2.0941556,-1.5764807,2.3943882,-0.12102135,0.31263655,-0.3776843,0.09830496,-0.03147546,-0.17422554,0.019153614,0.21068975,-9.634268,0.90750587,47.685097,-0.95405686,-1.9396139,-3.6369143,-0.18987596,-0.32911587,-0.1947693,26.9375,28.125,27.125,30.4375,32.125,32.6875
0.34805378,-0.040281188,-0.34114462,-1.7782437,-0.0040144194,-0.007239588,-0.13435932,-0.40219218,-0.32771605,0.060022302,-3.073712,0.61344254,8.367372e-05,-0.16528931,0.0035239938,-0.0021254409,0.043090906,-0.021993477,0.057128336,0.42563498,-1.4172089,1.9460753,-2.0939748,-1.5765408,2.3940752,-0.12299509,0.3141975,-0.37854004,0.10121391,-0.031502187,-0.17973329,0.1340753,0.19153613,-9.595961,0.9365982,47.68062,-0.86741406,-1.829358,-3.618699,-0.22839782,-0.32718256,-0.07874193,26.9375,28.125,27.125,30.4375,32.125,32.6875
0.3500533,-0.4655711,-1.017845,-1.4354067,-0.018594842,0.008935626,-0.13112223,-0.40251833,-0.32767877,0.060010973,-3.0736032,0.61326545,2.568256e-05,-0.16498218,0.0036176143,-0.0038217653,0.044644304,-0.025904922,0.056431264,0.4253592,-1.4165944,1.9453448,-2.0937479,-1.5766367,2.3937032,-0.122883365,0.31812564,-0.3796566,0.10258518,-0.0313293,-0.17892161,0.21068975,0.1340753,-9.423578,1.0417832,47.66987,-1.0358986,-1.9810518,-3.7446842,-0.26353756,-0.348491,-0.061001174,26.9375,28.125,27.125,30.4375,32.125,32.6875
0.35205403,-0.6315486,-1.505227,-1.3578122,-0.026420131,0.013594357,-0.11948845,-0.4028678,-0.32768592,0.060048662,-3.0736153,0.6130246,3.80063e-05,-0.16810004,0.003503337,-0.0008370453,0.042153373,-0.02013913,0.04784937,0.42510623,-1.416007,1.9445299,-2.093508,-1.5766724,2.3932986,-0.12503658,0.31633514,-0.38474053,0.10320528,-0.03143267,-0.1724901,0.0,0.19153613,-9.308657,0.94331104,47.70211,-0.78976506,-1.8391054,-3.709323,-0.2937062,-0.36281863,-0.08713445,26.9375,28.125,27.125,30.4375,32.125,32.6875
0.3540539,-0.6352475,-1.7870805,-1.0313206,-0.041877158,0.03368594,-0.123311155,-0.40320233,-0.32767338,0.060041852,-3.0735266,0.6129905,2.234054e-05,-0.17123385,0.0033925723,0.00055751455,0.041565783,-0.015601408,0.03919191,0.42485383,-1.4153817,1.9437865,-2.0933287,-1.5767449,2.3930368,-0.1264168,0.317932,-0.38973114,0.102252185,-0.032768477,-0.16520056,-0.038307227,0.15322891,-9.232041,0.9545008,47.686886,-0.9463717,-1.7915866,-3.542567,-0.29520923,-0.36512917,-0.14480573,26.9375,28.125,27.125,30.4375,32.125,32.6875
0.35605377,-0.49614456,-1.8132454,-1.2224548,-0.04247301,0.03192975,-0.12959024,-0.40353134,-0.32766265,0.060042035,-3.0734558,0.61288244,-2.0591873e-05,-0.17398676,0.0030032743,0.0006058143,0.04079996,-0.012003719,0.033147365,0.42460155,-1.4147674,1.9430317,-2.0931146,-1.576805,2.3927267,-0.12732421,0.321325,-0.39311597,0.098667406,-0.033565603,-0.16005382,0.11492168,0.13407528,-9.270349,0.90527004,47.692257,-0.81059366,-1.7658193,-3.4655542,-0.28165308,-0.35691452,-0.27221823,26.9375,28.125,27.125,30.4375,32.125,32.6875
0.35805342,-0.95163435,-1.9412191,-1.5160052,-0.022368552,0.009945549,-0.11737877,-0.40389788,-0.32766965,0.06007656,-3.0734193,0.61274284,9.343757e-05,-0.1761637,0.0017608512,0.002387552,0.03868898,-0.004644651,0.02793406,0.42437416,-1.414156,1.9422067,-2.0929248,-1.5769013,2.3924172,-0.12601276,0.32045716,-0.3953735,0.09423981,-0.03466077,-0.15352193,0.1340753,0.2873042,-9.32781,0.9612189,47.72092,-0.94598657,-1.6269709,-3.443149,-0.2545786,-0.33942097,-0.35001183,26.9375,28.125,27.125,30.4375,32.125,32.6875
0.3600543,-1.1670123,-2.1793835,-1.3489918,-0.03478356,0.020909335,-0.12573509,-0.4042549,-0.32766664,0.06007263,-3.0733624,0.6126177,0.000106955034,-0.17820346,0.0017613508,0.0019807282,0.03866186,-0.0016852199,0.024197645,0.4241217,-1.4134946,1.9414171,-2.0927584,-1.5769743,2.3920944,-0.1267635,0.32320902,-0.39692572,0.09033581,-0.035864,-0.15052633,-0.076614454,0.36391866,-9.461885,0.9254084,47.703903,-0.8652299,-1.5172822,-3.4645386,-0.17351474,-0.3374327,-0.42779744,26.9375,28.125,27.125,30.4375,32.125,32.6875
0.36205402,-1.222327,-2.5721595,-1.4016703,-0.058182,0.05119422,-0.12812234,-0.4045914,-0.3276523,0.060069665,-3.0732982,0.61265975,4.6382924e-05,-0.17836185,0.0013766201,0.0018135639,0.03883364,0.00061542325,0.02585601,0.42383465,-1.4128817,1.9406751,-2.0925677,-1.5769986,2.3918424,-0.12531689,0.32329226,-0.39617255,0.08746238,-0.036987096,-0.15072945,-0.3256114,0.45968673,-9.289503,0.9701675,47.70211,-1.114065,-1.4319587,-3.6259346,-0.12074076,-0.35395557,-0.4831578,26.9375,28.125,27.125,30.4375,32.125,32.6875
0.36405382,-1.6934359,-2.6824143,-1.2569199,-0.079379626,0.0863218,-0.13667004,-0.40493834,-0.32767123,0.060084898,-3.07327,0.6124567,8.738698e-05,-0.17915209,0.0016658584,0.0009687737,0.040235173,0.00043369434,0.03282802,0.42363036,-1.4122441,1.9398626,-2.0923765,-1.5770711,2.3915153,-0.12554803,0.32598075,-0.39733338,0.086616635,-0.038232904,-0.15792409,-0.38307226,0.57460845,-9.32781,1.0395473,47.682407,-1.0121268,-1.449847,-3.8081408,-0.08345488,-0.33500016,-0.4873759,26.9375,28.125,27.125,30.4375,32.125,32.6875
0.36605346,-2.9969816,-3.0781884,-1.5055735,-0.07935922,0.08784024,-0.13228548,-0.40530923,-0.32766604,0.06010798,-3.0732265,0.6123074,0.00018053368,-0.179073,0.0024265777,-0.00017869823,0.042754676,-0.0032192548,0.0428611,0.42337826,-1.4116185,1.9390482,-2.0921957,-1.5771669,2.391176,-0.12615958,0.3289014,-0.3989213,0.08955867,-0.039076887,-0.16856407,-0.34476504,0.59376204,-9.404425,1.0328293,47.71554,-1.1662828,-1.4899517,-3.9059505,-0.113220006,-0.32947588,-0.3706593,26.9375,28.125,27.125,30.4375,32.125,32.6875
0.3680544,-2.792742,-2.8738096,-1.2824968,-0.0867978,0.10506581,-0.13770269,-0.40568167,-0.32766518,0.06009487,-3.0731807,0.6121194,0.00022142964,-0.18295603,0.0019582992,0.0016871719,0.04073877,0.0023987994,0.052670904,0.4231256,-1.4109212,1.9382447,-2.092065,-1.5772513,2.3908122,-0.12798229,0.33058438,-0.40496445,0.087869905,-0.039624944,-0.18018985,-0.24899697,0.4405331,-9.423578,0.95226496,47.734352,-1.0686023,-1.5993104,-3.7336798,-0.06865775,-0.33548975,-0.24044377,26.9375,28.125,27.125,30.4375,32.125,32.6875
0.37005416,-2.2643168,-2.1909463,-0.8813451,-0.068320826,0.09389561,-0.13880274,-0.4060807,-0.32766086,0.060125515,-3.0731602,0.61201715,0.0003201769,-0.18371442,0.0020746174,0.00074309687,0.04227468,-0.0007373089,0.057556305,0.42283735,-1.4102716,1.9373845,-2.0918844,-1.5773233,2.390463,-0.12854877,0.33500907,-0.40873492,0.09064615,-0.039763946,-0.18564075,-0.4405331,0.30645782,-9.251195,1.0082139,47.737934,-1.0332106,-1.6194232,-3.535359,-0.041945606,-0.32882726,-0.15488142,26.9375,28.125,27.125,30.4375,32.125,32.6875
0.37205434,-1.9733164,-1.4571667,-1.0575387,-0.022038652,0.055768047,-0.13198484,-0.40641594,-0.32767978,0.060098384,-3.073145,0.6117259,0.00025496542,-0.18580747,0.002729438,0.00053155347,0.043847207,0.0021854138,0.05525601,0.4226211,-1.4095737,1.9366058,-2.0917299,-1.5773605,2.3900673,-0.12959142,0.33733073,-0.4105796,0.08815194,-0.042418547,-0.18436289,-0.63206923,0.3256114,-9.232041,1.0149267,47.699425,-0.9576165,-1.7016773,-3.6138687,-0.0025990475,-0.2918024,-0.13557407,26.9375,28.125,27.125,30.4375,32.125,32.6875
0.37405494,-1.3134543,-1.0084636,-0.9424393,-0.00510476,0.05855847,-0.13557126,-0.4068279,-0.32768813,0.0601313,-3.073127,0.611572,0.00043463698,-0.18634348,0.003244645,0.0006490305,0.045328047,0.0026563827,0.048324578,0.42236906,-1.4089016,1.9357218,-2.0915854,-1.5774688,2.3897219,-0.12981895,0.33782,-0.41182965,0.08911165,-0.043924056,-0.17765258,-0.6895301,0.30645782,-9.232041,1.0663986,47.699425,-1.0036024,-1.603507,-3.5953069,0.038151376,-0.26878724,-0.19598448,26.9375,28.125,27.125,30.4375,32.125,32.6875
