Tylouw/Master_Thesis_Code/training_data/batch_1/big_rod_t0.2/sample_16_session_1.csv
timestamp[s],tcp_force_x[N],tcp_force_y[N],tcp_force_z[N],tcp_force_rx[Nm?],tcp_force_ry[Nm?],tcp_force_rz[Nm?],tcp_pose_x[m],tcp_pose_y[m],tcp_pose_z[m],tcp_pose_rx[rot_vec_x],tcp_pose_ry[rot_vec_y],tcp_pose_rz[rot_vec_z],tcp_velo_x[m/s],tcp_velo_y[m/s],tcp_velo_z[m/s],tcp_velo_rx[rot_vec_x/s],tcp_velo_ry[rot_vec_y/s],tcp_velo_rz[rot_vec_z/s],q1[rad],q2[rad],q3[rad],q4[rad],q5[rad],q6[rad],qd1[rad/s],qd2[rad/s],qd3[rad/s],qd4[rad/s],qd5[rad/s],qd6[rad/s],tool_acc_x,tool_acc_y,tool_acc_z,current_of_whole_robot[A],voltage_of_whole_robot[V],current_J1[A],current_J2[A],current_J3[A],current_J4[A],current_J5[A],current_J6[A],temp_J1[C],temp_J2[C],temp_J3[C],temp_J4[C],temp_J5[C],temp_J6[C]
5.220063e-07,-0.8990322,-1.0140632,-0.2554233,-0.034304988,0.018444534,-0.0002436621,-0.3728602,-0.3282127,0.05991266,-3.0784397,0.6248387,-0.0004111606,0.0024729702,0.0011728307,-0.0036657653,0.0036883054,-0.008102889,-9.38592e-05,0.44815025,-1.4708251,2.009596,-2.1076553,-1.5706495,2.4230556,-9.1533184e-05,0.004015815,0.00373906,0.0011452951,0.00019741371,-3e-45,0.13407528,0.21068975,-8.925584,0.73741806,47.70032,-0.19218972,-2.7439141,-2.4326928,-0.5192391,0.0954295,-0.06472084,26.1875,27.0625,26.1875,29.25,30.4375,30.875
0.002052591,-1.0586547,-1.0359178,-0.34296384,-0.020923797,0.009753555,0.0012220523,-0.37288198,-0.32821894,0.059924826,-3.0784721,0.62486434,-0.0003042353,-0.00086056173,-0.00043867418,-0.0028800133,-0.0008716467,0.001333758,-8.9006986e-05,0.44815025,-1.4708368,2.0095956,-2.1077197,-1.5706614,2.4230676,-9.038418e-05,0.0050340667,0.003358288,-0.009972799,0.00019214487,-0.0,0.076614454,0.21068975,-8.90643,0.6971306,47.701214,-0.22623147,-2.8580556,-2.3110554,-0.49254447,0.09877834,-0.068969145,26.1875,27.0625,26.1875,29.25,30.4375,30.875
0.004052384,-0.6845991,-0.7556139,-0.37259737,-0.027558623,0.026205786,-0.0054361178,-0.3728728,-0.3282231,0.059910655,-3.0784872,0.62484837,-0.00034225144,-0.0019266264,-0.0009664984,-0.0025198914,-0.0028432189,0.0053373184,-8.7077045e-05,0.44815025,-1.470825,2.009621,-2.1077445,-1.5706376,2.4230556,-8.926364e-05,0.0045707244,0.004129797,-0.014743585,0.00022509547,-0.0,0.038307227,0.21068975,-8.983045,0.800085,47.71554,-0.22730024,-3.1313481,-2.500974,-0.3497601,0.092169106,-0.044352643,26.1875,27.0625,26.1875,29.25,30.4375,30.875
0.00605219,-0.86581385,-0.8524959,-0.3476196,-0.01538206,0.0070775873,-0.001284898,-0.37285748,-0.32820678,0.059894074,-3.0784118,0.6248327,-0.00034543374,-0.0009191158,-0.0004772568,-0.0017465053,-0.0017423814,0.0030838381,-8.743248e-05,0.4481742,-1.4708138,2.0096433,-2.1077297,-1.5706977,2.4230795,-8.817054e-05,0.0025232919,0.0033943292,-0.009452717,0.00021975882,-0.0,-0.019153614,0.1340753,-9.002198,0.7284641,47.737934,-0.22856265,-3.0039136,-2.5292206,-0.3932347,0.10088183,-0.07474319,26.1875,27.0625,26.1875,29.25,30.4375,30.875
0.008052292,-0.06518583,-0.08479636,-0.5853865,0.01388072,-0.0059657665,0.0043428307,-0.3728992,-0.3282081,0.05989725,-3.0784564,0.62489986,-0.0003220478,-0.00027015962,-0.00016010062,-0.0010501597,-0.0007638444,0.0010901405,-8.71409e-05,0.44811413,-1.4707782,2.0096076,-2.107776,-1.5706614,2.4230556,-8.7103945e-05,0.001296152,0.002049785,-0.0046601556,0.0002098769,-0.0,0.019153614,0.05746084,-9.11712,0.7329411,47.737038,-0.21853712,-2.9314966,-2.4670267,-0.43116578,0.09330472,-0.061094485,26.1875,27.0625,26.1875,29.25,30.4375,30.875
0.010051676,0.41574532,0.93786263,-1.0511401,0.023978112,-0.010727794,-0.009153479,-0.37286928,-0.32822782,0.05990093,-3.07849,0.6247906,-0.00036053365,-0.0001270614,-8.8040004e-05,-0.00073812663,-0.00040722126,0.00037583028,-8.634147e-05,0.4481623,-1.4708023,2.00962,-2.1077516,-1.5706376,2.4230313,-8.619829e-05,0.0009947032,0.0012259465,-0.002736545,0.00020054543,-0.0,0.019153614,0.1340753,-9.174581,0.784413,47.71465,-0.548583,-2.251186,-3.0594873,-0.45276985,0.104929075,-0.1069019,26.1875,27.0625,26.1875,29.25,30.4375,30.875
0.01205253,0.14503182,0.42788032,-1.3131161,0.017609643,-0.006550008,-0.014315683,-0.37288982,-0.3281862,0.05988006,-3.0783787,0.62486416,-0.0003691653,-0.00029180726,-0.00014272743,-0.0038607076,0.0026176646,-0.005904574,-0.00013136174,0.4481141,-1.4707515,2.0096066,-2.1077273,-1.5707096,2.4230433,-0.00013386863,0.009649339,-0.0012982519,-0.0018960501,0.0001919893,-0.0,0.15322891,0.076614454,-9.423578,0.7217513,47.72808,-0.72001034,-2.436079,-3.2140236,-0.46152046,0.1040897,-0.14039531,26.1875,27.0625,26.1875,29.25,30.4375,30.875
0.014052522,-0.77580345,-0.8072209,-1.4297937,-0.009010718,0.003495712,-0.00074630417,-0.372856,-0.32821557,0.05986205,-3.078415,0.62477994,-0.00048634098,-0.005548736,0.0015693612,-0.003896815,0.002743719,-0.0061792494,-0.007976971,0.4481594,-1.470725,2.0096161,-2.1077154,-1.5706495,2.4230313,-0.00813887,0.016393853,-0.008870175,-0.00076648925,0.00018413151,-0.00015409445,0.0,0.15322891,-9.461885,0.69041777,47.737934,-0.36397743,-2.7819214,-3.0353932,-0.4664293,0.080674514,-0.17573053,26.1875,27.0625,26.1875,29.25,30.4375,30.875
0.016052628,-1.6794279,-1.9185163,-1.4719312,-0.043324158,0.033480823,-0.0064485697,-0.37287486,-0.3281796,0.05984916,-3.0783432,0.6248757,-0.00049788185,-0.0055391486,0.0019437057,-0.0040188823,0.0030474518,-0.0068018604,-0.0004331678,0.44809908,-1.4707011,2.0096166,-2.107703,-1.5706857,2.42304,-0.008828952,0.01637839,-0.008694634,-0.0002352885,0.00017689235,-0.008388238,-0.34476507,0.24899697,-9.730036,0.7351769,47.709274,-0.3401709,-2.694467,-3.1989903,-0.4623089,0.103985734,-0.13188282,26.1875,27.0625,26.1875,29.25,30.4375,30.875
0.018051598,-2.4606743,-2.6140037,-1.5660324,-0.07600214,0.075396545,-0.0016764358,-0.37286094,-0.3281966,0.059833307,-3.078357,0.6248208,-0.00061795034,-0.005207061,0.0019397573,-0.0046545314,0.0037084436,-0.008163251,0.0018149443,0.44811106,-1.4706528,2.0095918,-2.1076672,-1.5706376,2.4230158,-0.008515773,0.017550476,-0.008573117,-1.5362659e-05,0.00017020007,-0.010323121,-0.49799395,0.2681506,-9.653421,0.6948948,47.71554,-0.48997933,-2.452291,-3.4800782,-0.48162735,0.08607803,-0.118371144,26.1875,27.0625,26.1875,29.25,30.4375,30.875
0.02005259,-2.670504,-2.6246266,-1.691934,-0.08573173,0.105595835,-0.014641476,-0.37286532,-0.3281923,0.05983357,-3.0783608,0.6248032,-0.00061717257,-0.0065620914,0.001714905,-0.0039951266,0.003022615,-0.0067323656,-0.0005872405,0.44809896,-1.4706525,2.0095909,-2.1076672,-1.5706376,2.4229922,-0.00932254,0.0184334,-0.011056923,-1.0030718e-06,0.0001639972,-0.00872606,-0.38307226,0.3256114,-9.730036,0.80679786,47.71465,-0.6579146,-2.4257016,-3.503553,-0.47647297,0.08345157,-0.15052295,26.1875,27.0625,26.1875,29.25,30.4375,30.875
0.022052545,-3.1872692,-2.4155445,-1.592424,-0.065308146,0.08935331,-0.019419614,-0.37288952,-0.32818884,0.05982658,-3.0783129,0.62483233,-0.0006407839,-0.007868669,0.0014463364,-0.0037351043,0.0031584024,-0.007011991,-0.0018075039,0.44808653,-1.4705797,2.0095189,-2.107631,-1.5706614,2.4230042,-0.010004264,0.020952478,-0.014758031,0.0014917703,0.00015822978,-0.008185333,-0.57460845,0.3256114,-9.691729,0.6859408,47.68062,-0.64003515,-2.451141,-3.423332,-0.47431323,0.07679285,-0.18641587,26.1875,27.0625,26.1875,29.25,30.4375,30.875
0.024052324,-2.5593147,-1.8925377,-1.6581669,-0.030438999,0.07395726,-0.027187645,-0.3728991,-0.32819107,0.059812874,-3.0783184,0.62485284,-0.000652638,-0.0088783745,0.0021509214,-0.0035183867,0.0030547788,-0.0067883073,-0.002814647,0.44807395,-1.4705437,2.0095189,-2.1076667,-1.5706495,2.4230037,-0.012244574,0.021195818,-0.015603737,0.0018475817,0.00015285406,-0.009418047,-0.63206923,0.36391866,-9.730036,0.7866488,47.72002,-0.6475291,-2.4068449,-3.487853,-0.5003192,0.091394745,-0.19859564,26.1875,27.0625,26.1875,29.25,30.4375,30.875
0.026052143,-2.1340315,-1.4589404,-1.705562,-0.029703774,0.06758867,-0.0374234,-0.3729193,-0.32818168,0.059799157,-3.078309,0.62479264,-0.0006963766,-0.009923335,0.0017988372,-0.0025882774,0.001899484,-0.004388311,-0.0012477007,0.44803783,-1.470484,2.0094821,-2.1076548,-1.5706495,2.4229312,-0.012528694,0.020736817,-0.017064482,0.001103494,0.00014783206,-0.011268087,-0.6703765,0.3256114,-9.787497,0.73069996,47.675243,-0.7101926,-2.2655354,-3.5329854,-0.48677245,0.083541684,-0.20158875,26.1875,27.0625,26.1875,29.25,30.375,30.875
0.028052205,-1.9152131,-1.1397132,-1.3748441,-0.043932088,0.06800748,-0.054918617,-0.372953,-0.32818696,0.059811097,-3.0783212,0.62483335,-0.0006244326,-0.011758954,0.0018705331,-0.0019934673,0.0010898961,-0.0027095214,-0.0012591307,0.44802514,-1.4704596,2.0094335,-2.1076791,-1.5706614,2.4229424,-0.0143303545,0.02192315,-0.019617043,0.0006055186,0.00014312966,-0.013056432,-0.68953013,0.30645782,-9.710882,0.7933669,47.721813,-0.7407341,-2.3221562,-3.5133061,-0.46075547,0.08025593,-0.21122254,26.1875,27.0625,26.1875,29.25,30.375,30.875
0.03005189,-1.8225563,-0.9730813,-1.1162165,-0.05273091,0.0798187,-0.07266909,-0.37297535,-0.32818928,0.059796788,-3.078323,0.62490994,-0.00071371894,-0.012884581,0.0018830324,-0.0021846707,0.0011371911,-0.0028121907,-0.0006402149,0.44797686,-1.470387,2.009384,-2.1076672,-1.5706137,2.4229417,-0.015375152,0.024182964,-0.021628466,0.000470614,0.00013871686,-0.014718537,-0.7469909,0.24899697,-9.615114,0.7866488,47.701214,-0.7448238,-2.3152049,-3.4895682,-0.4488954,0.058864817,-0.19410816,26.1875,27.0625,26.1875,29.25,30.375,30.875
0.03205192,-2.515307,-1.0841103,-1.0430348,-0.03400756,0.0733375,-0.07596677,-0.3730055,-0.3281672,0.059783537,-3.0782712,0.62490004,-0.000699102,-0.014485964,0.002161509,-0.0018611577,0.0007676078,-0.0020483604,-0.0009022508,0.44794014,-1.4703267,2.0093482,-2.1076672,-1.5706614,2.4229054,-0.017352635,0.02560828,-0.023945067,0.0005124051,0.00013456825,-0.016432377,-0.5554548,0.11492168,-9.634268,0.779936,47.698532,-0.740487,-2.3644938,-3.4609015,-0.45534164,0.069902286,-0.19716999,26.1875,27.0625,26.1875,29.25,30.375,30.875
0.03405197,-1.7590842,-0.29836732,-1.0221323,-0.016063025,0.08208967,-0.104598284,-0.37304187,-0.32818058,0.059789795,-3.0783195,0.62487096,-0.00067512994,-0.015698595,0.0016199416,-0.001220468,-2.037607e-05,-0.00041294115,-0.0003505576,0.44791603,-1.4702783,2.0092862,-2.107691,-1.5706376,2.422857,-0.017433386,0.0266174,-0.026450006,0.00019319361,0.00013066102,-0.017063051,-0.4213795,0.076614454,-9.557653,0.7284641,47.701214,-0.74130785,-2.2719884,-3.4472609,-0.43522996,0.08187406,-0.18271762,26.1875,27.0625,26.1875,29.25,30.375,30.875
0.03605185,-2.0926628,-0.15689999,-1.2477629,0.014081839,0.06335468,-0.109377004,-0.3730732,-0.32819983,0.05979925,-3.0783536,0.62485933,-0.00064217206,-0.017117662,0.0014272404,-0.0002188722,-0.001001456,0.0016270026,-0.0010431824,0.44791564,-1.4702303,2.0092146,-2.107703,-1.5706257,2.4228451,-0.018357966,0.026705364,-0.028857397,0.00024920658,0.00012697364,-0.017293554,-0.34476507,-0.05746084,-9.519346,0.7530795,47.687782,-0.7155397,-2.1887028,-3.424201,-0.43549657,0.071435615,-0.17847514,26.1875,27.0625,26.1875,29.25,30.375,30.875
0.03805179,-1.4676266,-0.256943,-1.1615092,0.0316766,0.054192122,-0.12489986,-0.3730982,-0.3281798,0.05977761,-3.0782979,0.62481076,-0.00068310596,-0.018024575,0.001458911,-0.0002363111,-0.0010561248,0.0017397973,-0.0026076713,0.4478794,-1.4701462,2.0091665,-2.1076791,-1.5706614,2.4227858,-0.01923954,0.028182888,-0.030435225,0.00022367091,0.00012348921,-0.016609455,-0.30645782,-0.038307227,-9.5385,0.7933669,47.692257,-0.6820294,-2.1654832,-3.4206514,-0.412329,0.068483256,-0.18307701,26.1875,27.0625,26.1875,29.25,30.375,30.875
0.040051665,-1.4006491,-0.04049709,-1.1073418,0.022419125,0.030043738,-0.13941583,-0.37313622,-0.3281578,0.059757497,-3.0782492,0.6249547,-0.0007534908,-0.018961566,0.0012366974,-0.0003850834,-0.0010134127,0.0016465408,-0.0029655085,0.44779533,-1.4700614,2.009117,-2.1076672,-1.5706495,2.4227977,-0.01966976,0.030411767,-0.032536894,0.00019922934,0.000120190765,-0.01668022,-0.24899697,-0.1340753,-9.481039,0.7396539,47.701214,-0.75663614,-2.2005153,-3.437499,-0.40677005,0.063830085,-0.18409525,26.1875,27.0625,26.1875,29.25,30.375,30.875
0.042052593,-0.93335027,-0.5848922,-1.1606809,0.022512794,0.021914294,-0.14241049,-0.37321743,-0.32819265,0.059819724,-3.078382,0.62494326,-0.000551358,-0.020431789,0.0012082754,0.00019610974,-0.0016374027,0.0029474907,-0.003741719,0.44777086,-1.4700612,2.0089848,-2.1077154,-1.5706257,2.4227493,-0.020947076,0.031385798,-0.034933563,0.00017936609,0.00011706382,-0.017179698,-0.21068975,-0.038307227,-9.481039,0.7486078,47.687782,-0.6545675,-2.2422085,-3.4125278,-0.40905085,0.06902461,-0.19846418,26.1875,27.0625,26.1875,29.25,30.375,30.875
0.044052195,-0.9657181,-0.83754545,-1.1652735,-0.0013377068,0.015419386,-0.13664484,-0.37325117,-0.3281682,0.059793733,-3.0783057,0.625043,-0.0006036214,-0.021768183,0.0012519535,0.00087191886,-0.0022998818,0.0043207114,-0.0038922913,0.44771034,-1.4699651,2.0089362,-2.107703,-1.5706495,2.4227607,-0.022239428,0.031840876,-0.037007194,0.0002726992,0.000114095434,-0.018320197,-0.038307227,0.076614454,-9.461885,0.75084364,47.679718,-0.64250803,-2.1382499,-3.3735483,-0.3891348,0.06613408,-0.18670303,26.1875,27.0625,26.1875,29.25,30.375,30.875
0.04605216,-0.93464273,-1.3438853,-1.2949721,-0.015021937,0.012970259,-0.13538311,-0.37330207,-0.3281545,0.05979928,-3.078302,0.62506175,-0.00060400227,-0.02231631,0.0013524188,0.0008196973,-0.0021248984,0.0040033585,-0.0034761738,0.44763824,-1.4699048,2.0088518,-2.1076787,-1.5706495,2.422701,-0.022907987,0.03292995,-0.038188037,0.00072623184,9.194806e-05,-0.019404085,0.038307227,0.1340753,-9.423578,0.71951014,47.70211,-0.72216886,-2.1412547,-3.4455209,-0.35939127,0.069674194,-0.17339368,26.1875,27.0625,26.1875,29.25,30.375,30.875
0.048052207,-0.5509055,-1.1142871,-1.1720625,-0.02985578,0.018948657,-0.12607723,-0.37332037,-0.32815897,0.059774328,-3.078303,0.62500405,-0.00068769354,-0.022750739,0.0016732923,0.0013260357,-0.0017677969,0.0032714321,-0.003093894,0.4476138,-1.469809,2.0088036,-2.1076777,-1.5706257,2.4226403,-0.023901422,0.033000678,-0.040017143,0.0032993122,8.706223e-05,-0.02077945,-0.038307227,0.2681506,-9.481039,0.7709874,47.719128,-0.65545195,-2.0750315,-3.4263003,-0.38327515,0.054878674,-0.18524304,26.1875,27.0625,26.1875,29.25,30.375,30.875
0.050051864,-0.27686393,-1.1801044,-1.2355324,-0.028253574,0.02704047,-0.13020688,-0.3733755,-0.32815316,0.059785683,-3.0782537,0.6250322,-0.00058985665,-0.023421895,0.0017993312,0.0013859691,-0.0013562763,0.002417539,-0.0031069408,0.44760147,-1.4697367,2.0086954,-2.1076653,-1.5706977,2.422652,-0.024745155,0.034455597,-0.04211677,0.0048902594,8.4836574e-05,-0.021609113,0.076614454,0.24899697,-9.557653,0.7620334,47.64837,-0.6597858,-2.0296845,-3.5068705,-0.3960744,0.063088745,-0.15890293,26.1875,27.0625,26.1875,29.25,30.375,30.875
0.05205269,-0.8428735,-1.4616483,-1.2718346,-0.030818868,0.013596601,-0.12709734,-0.37341163,-0.3281388,0.059786465,-3.0782752,0.6251137,-0.0006072792,-0.024172207,0.0018280081,0.00116449,-0.0012478135,0.0021887473,-0.0028184836,0.44751713,-1.4697123,2.0086696,-2.1076777,-1.5706614,2.4226158,-0.025476137,0.03616395,-0.0434595,0.0047784825,8.287216e-05,-0.02262744,0.0,0.3256114,-9.557653,0.784413,47.683304,-0.5744725,-2.0022411,-3.4630609,-0.3846156,0.06165533,-0.16254964,26.1875,27.0625,26.1875,29.25,30.375,30.875
0.054052122,-0.7727052,-2.1275702,-1.2514782,-0.039395627,0.020600403,-0.11375186,-0.37347266,-0.3281295,0.05980582,-3.0782752,0.6250367,-0.00054506614,-0.025719307,0.0017840518,0.0018832957,-0.0022695593,0.00434853,-0.0029291506,0.44746873,-1.469652,2.008551,-2.1076415,-1.5706977,2.4225194,-0.02678102,0.036556862,-0.045333587,0.0038694465,6.341569e-05,-0.023820167,0.019153614,0.3256114,-9.576807,0.78888994,47.694946,-0.62908006,-2.0105753,-3.5172355,-0.37473756,0.06790964,-0.1576422,26.1875,27.0625,26.1875,29.25,30.375,30.875
0.056051936,-1.0453699,-2.1925416,-1.317842,-0.05150774,0.020506801,-0.121232636,-0.37354064,-0.32812178,0.059795123,-3.0782275,0.6251417,-0.00053715036,-0.026712198,0.001720406,0.002076068,-0.0026346804,0.0051069935,-0.0023904443,0.4474085,-1.4695199,2.0084302,-2.1076415,-1.5707215,2.422531,-0.027555423,0.03762741,-0.04686981,0.0034925267,5.9591584e-05,-0.02513208,-0.05746084,0.40222588,-9.595961,0.7351769,47.71465,-0.609631,-1.9544749,-3.5576184,-0.35885385,0.055041693,-0.13661483,26.1875,27.0625,26.1875,29.25,30.375,30.875
0.05805202,-0.90710104,-2.2141035,-1.3583908,-0.055461247,0.027203057,-0.11939537,-0.37358856,-0.32813454,0.059806988,-3.078289,0.6251541,-0.0005641174,-0.027453404,0.0017389026,0.0017874932,-0.002068912,0.003926992,-0.002114218,0.44734827,-1.4694593,2.008334,-2.10763,-1.5706614,2.4224706,-0.028258732,0.04004756,-0.04912965,0.004642217,5.81498e-05,-0.026110215,-0.076614454,0.49799395,-9.615114,0.80456203,47.691364,-0.5642954,-1.9287286,-3.4766717,-0.36603555,0.067924365,-0.12319165,26.1875,27.0625,26.1875,29.25,30.375,30.875
0.060052034,-1.2429161,-1.7640834,-1.1794473,-0.056540996,0.015638035,-0.11658613,-0.37363547,-0.3281291,0.059819274,-3.0782988,0.6250782,-0.0005128356,-0.028090715,0.0017984385,0.001913548,-0.0018218751,0.0034126767,-0.0016996741,0.4473119,-1.4694109,2.0082495,-2.1076167,-1.5706857,2.4223857,-0.028945418,0.041235432,-0.051013436,0.00590788,5.691363e-05,-0.0272105,-0.1340753,0.36391866,-9.615114,0.75084364,47.70211,-0.61514354,-1.8576581,-3.506842,-0.3741757,0.062211182,-0.111729994,26.1875,27.0625,26.1875,29.25,30.375,30.875
0.062052183,-0.74280554,-1.844188,-1.3494737,-0.03946239,0.031946804,-0.1135882,-0.3736755,-0.32811427,0.059805233,-3.0782661,0.62507135,-0.0005202475,-0.028618187,0.0018011181,0.0016367327,-0.0012964829,0.002313887,-0.0009253849,0.44726378,-1.4693264,2.008189,-2.1076167,-1.5707096,2.4223375,-0.029426098,0.043237276,-0.052811746,0.006921395,5.573801e-05,-0.028464379,-0.17238252,0.36391866,-9.615114,0.7239871,47.67345,-0.6095009,-1.9008102,-3.519906,-0.3897819,0.05266785,-0.09715939,26.1875,27.0625,26.1875,29.25,30.375,30.875
0.06405256,-1.005809,-1.2863694,-1.2823673,-0.039577167,0.03664151,-0.12088585,-0.3737498,-0.32812917,0.059826925,-3.078322,0.6251401,-0.000504789,-0.029666675,0.0014347739,0.0018260528,-0.0017404907,0.0032324938,-0.0005452948,0.44719172,-1.4692421,2.008044,-2.1076052,-1.5706614,2.4223013,-0.029681513,0.044767678,-0.05480212,0.006362379,5.461058e-05,-0.02909829,-0.1340753,0.30645782,-9.481039,0.7463667,47.67345,-0.6498089,-1.9181954,-3.5330372,-0.37653,0.051961992,-0.09214193,26.1875,27.0625,26.1875,29.25,30.375,30.875
0.06605234,-1.4362295,-1.7751583,-1.2621908,-0.020373194,0.039126195,-0.11555032,-0.37381804,-0.3281238,0.0598246,-3.0782926,0.62524915,-0.000519905,-0.031140007,0.0010747882,0.002092709,-0.0023192365,0.004424515,-0.0005237393,0.44711962,-1.4691215,2.0079114,-2.1075814,-1.5706614,2.422301,-0.030335039,0.046742488,-0.05743563,0.005695919,5.3527867e-05,-0.029771298,-0.17238252,0.3256114,-9.404425,0.683705,47.723602,-0.68415487,-1.8804456,-3.5273027,-0.35181934,0.046539865,-0.10212049,26.1875,27.0625,26.1875,29.25,30.375,30.875
0.06805227,-1.7765329,-1.4626045,-1.135193,-0.023009552,0.03463907,-0.112426504,-0.373878,-0.3281377,0.059843265,-3.0783348,0.62516123,-0.0005021029,-0.03225065,0.00098343,0.0022514346,-0.0024822762,0.004757385,0.00018948513,0.4470832,-1.4690372,2.007768,-2.1075456,-1.5706495,2.4222045,-0.031165505,0.048384037,-0.059652865,0.0059011113,5.248723e-05,-0.031313468,-0.21068975,0.24899697,-9.404425,0.779936,47.733456,-0.67244655,-1.9137166,-3.479527,-0.3433051,0.05214046,-0.07392544,26.1875,27.0625,26.1875,29.25,30.375,30.875
0.07005221,-1.4495649,-1.3824129,-0.94661814,-0.019083794,0.044287667,-0.12159657,-0.3739366,-0.32811686,0.05982366,-3.0782866,0.62513274,-0.00048694466,-0.03259995,0.00072642555,0.0024989094,-0.0024427292,0.004673508,0.0002801822,0.44702342,-1.468917,2.0076835,-2.107557,-1.5706977,2.4221332,-0.030993488,0.049109306,-0.061240498,0.0068547325,5.1486444e-05,-0.031231375,-0.21068975,0.24899697,-9.404425,0.7709874,47.723602,-0.72433275,-1.8156316,-3.51828,-0.34517884,0.047106884,-0.076668486,26.1875,27.0625,26.1875,29.25,30.375,30.875
0.07205209,-1.8736824,-1.3238705,-0.9151794,-0.006967212,0.030369708,-0.10236641,-0.3740039,-0.32812998,0.05984126,-3.0783267,0.6250841,-0.00042622924,-0.03441066,0.0002681669,0.0027648658,-0.0026261134,0.005045083,-0.0009982059,0.446987,-1.4688323,2.00755,-2.107557,-1.5706977,2.4220614,-0.031769667,0.052359313,-0.06557782,0.0075278166,5.052291e-05,-0.03072626,-0.2681506,0.21068975,-9.423578,0.7978386,47.74868,-0.73262095,-1.8731842,-3.3695192,-0.3529104,0.03321124,-0.05877865,26.1875,27.0625,26.1875,29.25,30.375,30.875
0.07405255,-1.3276206,-0.86657447,-0.8736103,-0.010802079,0.042878028,-0.12217676,-0.37409046,-0.32813153,0.05985181,-3.0783591,0.62522507,-0.0004286567,-0.034113184,0.0008540921,0.0014466108,-0.0013920459,0.002480323,-0.002193957,0.4468788,-1.4687237,2.0074065,-2.107557,-1.5706495,2.4220371,-0.032590263,0.054389507,-0.06480045,0.0075680264,4.95949e-05,-0.030351266,-0.34476504,0.24899697,-9.3661175,0.6926589,47.734352,-0.75288606,-1.9746531,-3.4945447,-0.33446565,0.05242164,-0.075704604,26.1875,27.0625,26.1875,29.25,30.375,30.875
0.07605238,-1.9646026,-1.0746689,-0.8727966,-0.003450822,0.025235672,-0.11313896,-0.37418455,-0.32813853,0.0598879,-3.078402,0.62523425,-0.00033808607,-0.035551686,0.00040067168,0.0032472261,-0.0031211,0.0060840785,-0.0018294256,0.44680664,-1.4686403,2.0072267,-2.1075332,-1.5706495,2.4219654,-0.033030193,0.052829426,-0.067211926,0.0075424085,4.8700353e-05,-0.031154534,-0.36391866,0.19153613,-9.404425,0.73741806,47.716442,-0.74743766,-1.6898304,-3.5089428,-0.33173394,0.037955776,-0.077168964,26.1875,27.0625,26.1875,29.25,30.375,30.875
0.07805215,-1.8352578,-0.9113216,-0.815652,-0.007983589,0.035627317,-0.105459444,-0.37425676,-0.32813486,0.05989455,-3.0784204,0.6252189,-0.00030775898,-0.038271286,-0.00030697827,0.0045388355,-0.004159614,0.008231909,-0.0023478582,0.44673428,-1.4685435,2.007105,-2.1075327,-1.5706495,2.4218812,-0.034157272,0.05551224,-0.07337521,0.008637098,4.7837457e-05,-0.031759404,-0.36391866,0.21068975,-9.346964,0.76874626,47.734352,-0.7616419,-1.778445,-3.3320704,-0.3549174,0.04230048,-0.07887396,26.1875,27.0625,26.1875,29.25,30.375,30.875
0.08005218,-1.4547377,-0.6541022,-0.77381796,-0.0065779174,0.036507487,-0.11965538,-0.37432408,-0.32816097,0.059905227,-3.078486,0.62517405,-0.0002868236,-0.0367949,0.00055970484,0.0014183137,-0.0010266358,0.0018706083,-0.0023475392,0.44669807,-1.4684342,2.006963,-2.1075442,-1.5706137,2.4218087,-0.03439626,0.059978824,-0.071250446,0.009137671,-2.2414926e-05,-0.0319993,-0.36391866,0.24899697,-9.289502,0.800085,47.72002,-0.80110216,-1.9163451,-3.4152765,-0.32383102,0.033870157,-0.07599527,26.1875,27.0625,26.1875,29.25,30.375,30.875
0.0820519,-1.7984052,-0.6624252,-0.7883611,-0.01880797,0.03862995,-0.1043513,-0.37437084,-0.32814285,0.059882514,-3.078409,0.62517667,-0.00038086151,-0.039339453,0.00015834018,0.0034824742,-0.0029513729,0.005911127,-0.0024418938,0.4466377,-1.4682906,2.006841,-2.1074727,-1.5706376,2.4217598,-0.035925448,0.05962925,-0.07567452,0.009434925,-4.386577e-05,-0.033431616,-0.4213795,0.24899697,-9.32781,0.78217715,47.713753,-0.7664636,-1.8663164,-3.3584654,-0.3303351,0.020045105,-0.05925236,26.1875,27.0625,26.1875,29.25,30.375,30.875
0.08405218,-1.5531284,-0.86704326,-0.822111,-0.025294133,0.046881232,-0.114264205,-0.3744621,-0.32814193,0.05990747,-3.078437,0.6251837,-0.00032156467,-0.0401934,0.00030555238,0.0039298004,-0.0029517987,0.005915337,-0.0038939323,0.4465533,-1.4681946,2.0066726,-2.1074479,-1.5706376,2.4216764,-0.036963616,0.060297597,-0.07776239,0.0108505385,-4.4223918e-05,-0.03301682,-0.38307226,0.24899697,-9.308656,0.7486078,47.705692,-0.7427355,-1.694824,-3.3412056,-0.35178912,0.019133978,-0.06722274,26.1875,27.0625,26.1875,29.25,30.375,30.875
0.086052105,-1.8103353,-0.83222795,-0.8419696,-0.029151503,0.03564918,-0.10714546,-0.37454537,-0.32812825,0.05990229,-3.078376,0.6251728,-0.00029467331,-0.041134402,0.0004112992,0.0031348397,-0.0022002994,0.0043812385,-0.0060604177,0.4464928,-1.4680377,2.0065038,-2.107412,-1.5706977,2.421617,-0.03799387,0.06384411,-0.0799208,0.011168957,-6.3438725e-05,-0.031878818,-0.3256114,0.24899697,-9.270349,0.7463667,47.687782,-0.72739416,-1.8503082,-3.2664025,-0.34520087,0.020599907,-0.089582615,26.1875,27.0625,26.1875,29.25,30.375,30.875
0.08805211,-2.5336082,-1.8680842,-1.121678,-0.012254893,0.023542706,-0.092916764,-0.37463355,-0.3281308,0.05991662,-3.0784154,0.625276,-0.00029810498,-0.04204188,-0.00041199801,0.0032412063,-0.002632757,0.005272686,-0.005335962,0.44638517,-1.4679291,2.0063488,-2.1073997,-1.5706495,2.4215689,-0.03725719,0.0659554,-0.08233557,0.0104831895,-6.327457e-05,-0.03186464,-0.34476507,0.22984336,-9.3661175,0.7933669,47.71554,-0.8499627,-1.8527257,-3.3508956,-0.34409708,0.026975464,-0.105363145,26.1875,27.0625,26.1875,29.25,30.375,30.875
0.09005217,-1.6606988,-1.3016251,-0.95611405,-0.035090756,0.049513984,-0.1103609,-0.37471557,-0.32813162,0.059919357,-3.0784404,0.62530065,-0.0003310894,-0.04314288,0.00029221651,0.0028855917,-0.0021238222,0.004243667,-0.006127957,0.4462883,-1.4677967,2.0061915,-2.1073759,-1.5706137,2.4214842,-0.039552342,0.06795506,-0.083887525,0.011184445,-7.983612e-05,-0.033366747,-0.2681506,0.2873042,-9.404425,0.7530795,47.677036,-0.752666,-1.8755975,-3.1681938,-0.34683847,0.024586353,-0.1037572,26.1875,27.0625,26.1875,29.25,30.375,30.875
0.09205236,-1.0879188,-1.1901206,-1.0375401,-0.04423419,0.05557291,-0.12913454,-0.3748078,-0.32812017,0.05992595,-3.0783892,0.62525254,-0.0002377456,-0.043284588,0.0008329826,0.002105634,-0.0012889528,0.0025030677,-0.0068713715,0.44624,-1.4676523,2.0060122,-2.107352,-1.5706977,2.4214127,-0.040686235,0.069556735,-0.08396171,0.011584565,-8.052674e-05,-0.033757064,-0.28730422,0.24899697,-9.461885,0.7665104,47.70211,-0.7843982,-1.8296742,-3.2998495,-0.34306917,0.017841315,-0.11126517,26.1875,27.0625,26.1875,29.25,30.375,30.875
0.09405198,-2.0624092,-2.1212442,-1.0898292,-0.033892695,0.032242697,-0.09920485,-0.3748928,-0.32814404,0.059932493,-3.0784204,0.62537545,-0.0002803688,-0.046257988,0.0004137653,0.0032886697,-0.0025221936,0.0050948304,-0.008518617,0.4461673,-1.4674959,2.0058196,-2.1073277,-1.5706376,2.4214127,-0.042564515,0.07210379,-0.08951682,0.011724477,-9.733918e-05,-0.033984426,-0.28730422,0.2873042,-9.385271,0.7866488,47.677036,-0.65048647,-1.9192063,-3.1565933,-0.34398037,0.010963514,-0.11832137,26.1875,27.0625,26.1875,29.25,30.375,30.875
0.09605192,-1.9359915,-1.7612678,-1.006579,-0.04213568,0.03323638,-0.10135587,-0.37496558,-0.32814065,0.05992067,-3.0784435,0.625226,-0.0002961109,-0.045671254,0.0012851264,0.0019089091,-0.0009290508,0.0026352936,-0.00916006,0.44609502,-1.4673516,2.005688,-2.1073282,-1.5706376,2.4212444,-0.043407533,0.073383674,-0.08773781,0.011573126,-0.00047007212,-0.034186162,-0.38307226,0.30645782,-9.32781,0.71951014,47.682407,-0.70392597,-1.8281732,-3.3627062,-0.36175555,0.009233436,-0.13503614,26.1875,27.0625,26.1875,29.25,30.375,30.875
0.0980525,-1.683647,-1.769044,-1.2278651,-0.02766947,0.029656196,-0.10682615,-0.37506533,-0.32813787,0.0599301,-3.0784256,0.6253166,-0.00029586212,-0.047159236,-1.1186595e-05,0.0024643075,-0.0017378852,0.0045140698,-0.0074290293,0.44599962,-1.467195,2.0054834,-2.1072805,-1.5706376,2.421208,-0.042244863,0.07602187,-0.091777354,0.010930803,-0.0005607342,-0.03475138,-0.28730422,0.28730422,-9.461885,0.73741806,47.667187,-0.7877417,-1.9749408,-3.2484877,-0.34463644,0.01797729,-0.1511729,26.1875,27.0625,26.1875,29.25,30.375,30.875
0.10005274,-1.9863065,-1.5572269,-0.85560787,-0.028001891,0.023013253,-0.10310166,-0.37518317,-0.32812804,0.05994312,-3.0784135,0.6253923,-0.00022858861,-0.048268944,0.0004944028,0.0023761413,-0.0017300375,0.00439244,-0.009167759,0.44589078,-1.4670389,2.0052788,-2.107268,-1.5706614,2.421148,-0.044208687,0.07736352,-0.09307896,0.011002833,-0.0005162582,-0.034975637,-0.21068975,0.28730422,-9.385271,0.7553206,47.66808,-0.6969832,-1.8835032,-3.2194219,-0.35477632,0.0022807098,-0.17159754,26.1875,27.0625,26.1875,29.25,30.375,30.875
0.102052115,-1.2531974,-0.92730075,-0.8939768,-0.03399441,0.03546691,-0.11673438,-0.37527406,-0.32814187,0.059955,-3.07845,0.6253811,-0.00022188303,-0.049740117,0.0002953076,0.0025508564,-0.0023369852,0.0055457666,-0.009808098,0.44581842,-1.4668943,2.0050871,-2.1072447,-1.5706376,2.4210641,-0.04518037,0.07921843,-0.09532262,0.010089875,-0.0004717121,-0.035305206,-0.17238252,0.30645782,-9.404425,0.7105615,47.70659,-0.6830995,-1.984712,-3.1643548,-0.33532077,0.017131045,-0.17543846,26.1875,27.0625,26.1875,29.25,30.375,30.875
0.10405193,-1.5471572,-1.6317568,-1.0237188,-0.018785324,0.017179403,-0.11120897,-0.37537378,-0.32813,0.059954487,-3.0784097,0.6254493,-0.00021450312,-0.051275283,-2.2561995e-05,0.0031084365,-0.003327685,0.0075146714,-0.010032984,0.4457222,-1.4667264,2.0048954,-2.107209,-1.5706614,2.4210157,-0.045979556,0.080327004,-0.09759595,0.00904991,-0.00043381774,-0.035877775,-0.21068975,0.24899697,-9.3661175,0.7418897,47.73077,-0.716112,-1.8638697,-3.1994495,-0.30310598,-0.0022849399,-0.19163507,26.1875,27.0625,26.1875,29.25,30.375,30.875
0.106052436,-1.2932355,-1.6382371,-0.9932252,-0.021803541,0.022181079,-0.09949529,-0.37548906,-0.3281212,0.059966937,-3.078395,0.62548435,-0.00013644644,-0.051335573,0.0002047371,0.0014045141,-0.0016392829,0.004021441,-0.009641421,0.44562602,-1.4665693,2.0046914,-2.107197,-1.5706977,2.4209435,-0.046434347,0.084648035,-0.09858341,0.009594755,-0.00045069325,-0.03672303,-0.1340753,0.22984336,-9.251195,0.800085,47.71823,-0.7471488,-1.9768016,-3.2198591,-0.3197464,0.015492367,-0.20047653,26.1875,27.0625,26.1875,29.25,30.375,30.875
0.108052455,-1.7170173,-1.4535171,-0.948376,-0.025598617,0.011218548,-0.104945995,-0.3755965,-0.32814083,0.059979048,-3.078428,0.62543327,-9.143667e-05,-0.052659944,-0.00022566605,0.003087061,-0.0032235214,0.007294324,-0.009455638,0.44556585,-1.4663901,2.0044634,-2.1071846,-1.5706977,2.4208474,-0.046815746,0.08322381,-0.10091202,0.009711327,-0.00043485512,-0.03728917,-0.1340753,0.30645782,-9.385271,0.8224646,47.728977,-0.7855338,-1.8793101,-3.186884,-0.31391865,0.008167979,-0.22986083,26.1875,27.0625,26.1875,29.25,30.375,30.875
0.110052355,-1.7101134,-1.4196956,-1.0243164,-0.023030212,0.017293973,-0.1067163,-0.37568912,-0.3281322,0.05996336,-3.0784183,0.6255656,-0.00018278928,-0.05323328,2.6267713e-05,0.0023992609,-0.0026998734,0.0061275787,-0.008277678,0.44543362,-1.4662095,2.004295,-2.1071608,-1.5706495,2.420799,-0.047805484,0.08550489,-0.10184734,0.0096454695,-0.0004076987,-0.039456,-0.1340753,0.24899697,-9.346964,0.76874626,47.701214,-0.78004086,-1.8132977,-3.2903683,-0.31098753,-0.0074026845,-0.23604357,26.1875,27.0625,26.1875,29.25,30.375,30.875
0.11205228,-1.3642421,-1.5422109,-1.0065613,-0.022635695,0.028708583,-0.118862934,-0.37582952,-0.32813543,0.05999206,-3.0784283,0.6256243,-4.49373e-05,-0.053563803,-4.7896065e-05,0.0010312265,-0.0013392543,0.0032224504,-0.0068514072,0.44533747,-1.4660401,2.0040429,-2.1071608,-1.5706857,2.4207385,-0.047963057,0.08990269,-0.103725284,0.0103317,-0.00038297017,-0.041038334,-0.11492168,0.15322891,-9.423578,0.7933669,47.672558,-0.8359101,-2.1204796,-3.2423987,-0.31314123,0.009641545,-0.23572138,26.1875,27.0625,26.1875,29.25,30.375,30.875
0.11405177,-1.462233,-1.4313868,-0.8283154,-0.023941265,0.030155567,-0.10313085,-0.3759208,-0.32815626,0.059987575,-3.0784705,0.625517,-6.8088615e-05,-0.05360195,-0.00045483193,0.0012387629,-0.0016054657,0.0038379491,-0.0066271136,0.44527778,-1.4658488,2.0038397,-2.1071494,-1.5706614,2.4206066,-0.047202848,0.08992079,-0.10418559,0.010104939,-0.00040901927,-0.040502075,-0.15322891,0.095768064,-9.32781,0.79560274,47.686886,-0.87115586,-1.8734939,-3.2938566,-0.30472356,-0.012178466,-0.2444683,26.1875,27.0625,26.1875,29.25,30.375,30.875
0.11605173,-1.4869696,-1.3176699,-0.89690274,-0.017248327,0.020861482,-0.104850836,-0.37603623,-0.32815588,0.059998013,-3.078491,0.6255802,-6.3215484e-05,-0.054902114,0.00011028465,0.0009056513,-0.0012846409,0.0031171632,-0.008941066,0.44515693,-1.4656802,2.0036247,-2.107125,-1.5706376,2.4205227,-0.049425732,0.092234,-0.10606635,0.010462076,-0.00038998752,-0.040409703,-0.076614454,0.15322891,-9.289502,0.83589023,47.694946,-0.88808954,-1.97704,-3.3429968,-0.2924372,-0.00736219,-0.28514603,26.1875,27.0625,26.1875,29.25,30.375,30.875
0.118051685,-1.1406859,-0.9827369,-0.85246664,-0.015229811,0.015881442,-0.102842286,-0.37613365,-0.32814515,0.059996787,-3.0784779,0.6255764,-9.2220165e-05,-0.055434383,-0.00023530627,0.0009344554,-0.0014281584,0.003362383,-0.007038617,0.44504908,-1.4655119,2.003431,-2.107077,-1.5706376,2.4204142,-0.04925317,0.093479514,-0.10749712,0.010363918,-0.00037013693,-0.042138577,-0.05746084,0.19153613,-9.289502,0.8023209,47.737934,-0.8559449,-1.9921019,-3.317943,-0.28606594,-0.0050062425,-0.2754958,26.1875,27.0625,26.1875,29.25,30.375,30.875
0.12005174,-1.4231579,-1.0282394,-0.96327513,-0.006496632,-0.0020012925,-0.10486704,-0.3762713,-0.3281562,0.060031407,-3.078507,0.62567616,3.8080623e-05,-0.055969805,-0.0016993482,0.001208624,-0.001822366,0.0041415324,-0.0042604534,0.44495383,-1.4653554,2.0031793,-2.107077,-1.5706495,2.4203777,-0.04698402,0.09575687,-0.110647894,0.010363742,-0.0003520463,-0.042645466,-0.095768064,0.22984336,-9.251195,0.779936,47.71554,-1.0652821,-2.0098782,-3.2637777,-0.27361333,-7.4813375e-05,-0.31437165,26.1875,27.0625,26.1875,29.25,30.375,30.875
0.12205173,-0.957042,-0.7287576,-0.86681265,-0.009270173,0.0105605135,-0.10510482,-0.37640855,-0.32815114,0.060025405,-3.078478,0.6257087,8.5839194e-05,-0.05610813,-0.0006489157,0.00033607482,-0.0010229347,0.00243321,-0.0048478115,0.44484523,-1.4651157,2.002929,-2.1070774,-1.5706857,2.4202933,-0.049065534,0.09667232,-0.10968015,0.010364783,-0.00033563166,-0.044140127,-0.05746084,0.24899697,-9.251195,0.7911258,47.729877,-1.0362762,-1.9662712,-3.4965446,-0.2647057,-0.0049502356,-0.3030553,26.1875,27.0625,26.1875,29.25,30.375,30.875
0.124052145,-0.79161596,-0.7220548,-0.809459,-0.015659,0.015447273,-0.108546056,-0.37649006,-0.32817334,0.060039632,-3.0785253,0.6257198,2.9293762e-05,-0.05732458,-0.0009938792,0.00096411345,-0.0013062271,0.0029589362,-0.0067660236,0.44477296,-1.4649714,2.0027235,-2.1070168,-1.5706257,2.420222,-0.04951604,0.09812425,-0.11303037,0.011669317,-0.00030996226,-0.042670656,-0.076614454,0.15322891,-9.270349,0.7396539,47.73883,-1.1552478,-1.9533758,-3.3165271,-0.28278583,-0.028404694,-0.34904844,26.1875,27.0625,26.1875,29.25,30.375,30.875
0.12605177,-0.9673152,-0.728721,-0.7462363,-0.026618985,0.012327925,-0.11399433,-0.37660566,-0.3281623,0.06000819,-3.0784774,0.62574893,4.6327896e-06,-0.057834573,-0.00023143958,-0.0006340207,0.0002603527,-0.00019142781,-0.009488578,0.44466433,-1.4647185,2.0025194,-2.1070282,-1.5706495,2.420138,-0.051343087,0.10206156,-0.1138182,0.012037046,-0.00037106551,-0.04177411,-0.076614454,0.17238252,-9.346964,0.6926589,47.72092,-1.0398675,-1.9945327,-3.4624224,-0.25400007,-0.034683667,-0.38299203,26.1875,27.0625,26.1875,29.25,30.375,30.875
0.12805186,-1.3096524,-1.2896733,-0.88155514,-0.025264237,0.013715315,-0.10472031,-0.37671942,-0.32815954,0.060006306,-3.078464,0.62578297,-9.723303e-06,-0.058235392,-0.0009822458,0.001081222,-0.0012026955,0.002982668,-0.006193107,0.44455683,-1.4645157,2.002292,-2.1069925,-1.5706495,2.4200535,-0.05024285,0.09957413,-0.1150839,0.012295294,-0.00041811346,-0.04396903,-0.095768064,0.19153613,-9.251195,0.75755644,47.716442,-1.1285077,-1.8625561,-3.5440454,-0.26791328,-0.029122142,-0.4024374,26.1875,27.0625,26.1875,29.25,30.375,30.875
0.13005239,-1.4101883,-1.6137867,-0.814994,-0.017450606,0.014535963,-0.10140789,-0.37682456,-0.32815182,0.059988573,-3.0784388,0.62579626,-5.5796503e-05,-0.060316052,-0.00083547184,0.0011322448,-0.0008654393,0.0035321098,-0.00602941,0.44444814,-1.4642992,2.0020883,-2.1069686,-1.57065,2.4199564,-0.05199729,0.10280941,-0.11882584,0.012452592,-0.00096799654,-0.045883644,-0.1340753,0.24899697,-9.251195,0.82022345,47.72092,-1.1634367,-1.730401,-3.4958866,-0.26385722,-0.021337176,-0.4184239,26.1875,27.0625,26.1875,29.25,30.375,30.875
0.1320524,-1.153702,-1.3289107,-1.0078058,-0.016511275,0.019310819,-0.107683845,-0.37696823,-0.3281586,0.060020883,-3.0784504,0.62583715,1.49597445e-05,-0.06010989,-1.6165546e-05,0.0007775177,-0.00020151668,0.002501763,-0.0052326676,0.44433975,-1.4641075,2.0017893,-2.106909,-1.5706619,2.4198723,-0.05321916,0.10243274,-0.11772879,0.012947557,-0.0011187146,-0.047902953,-0.05746084,0.24899697,-9.251195,0.7978386,47.716442,-1.1213863,-1.7987833,-3.5409417,-0.24183121,-0.013762353,-0.42225307,26.1875,27.0625,26.1875,29.25,30.375,30.875
0.13405205,-1.4893496,-1.1600345,-1.2093866,-0.021356056,0.0082026,-0.10892459,-0.3770712,-0.32816064,0.06000919,-3.0784333,0.6257559,8.445727e-06,-0.062304277,-0.0007824015,0.0017774103,-0.0012221186,0.004218886,-0.0040802397,0.44426742,-1.4638913,2.001572,-2.1068847,-1.5706862,2.4197516,-0.053854045,0.1048784,-0.12290905,0.013690922,-0.0009456823,-0.049687345,-0.11492168,0.22984336,-9.232041,0.8224646,47.693153,-1.1324034,-1.7476988,-3.3720803,-0.24206313,-0.024459545,-0.4362294,26.1875,27.0625,26.1875,29.25,30.375,30.875
0.1360523,-1.3266009,-1.4455847,-1.1405547,-0.014000626,0.016103085,-0.110080205,-0.37721112,-0.32816574,0.06002145,-3.0784621,0.62578046,1.3169787e-05,-0.06286636,-0.0004893744,0.00082426844,-0.0005232849,0.0024227332,-0.002695468,0.444135,-1.4636744,2.0012963,-2.1068485,-1.5706619,2.419631,-0.054974608,0.107787,-0.123974845,0.01377057,-0.00080560223,-0.052191906,-0.21068975,0.28730422,-9.308657,0.75755644,47.65912,-1.1322643,-1.8710704,-3.5148206,-0.24529919,-0.0272948,-0.43839335,26.1875,27.0625,26.1875,29.25,30.375,30.875
0.13805233,-1.688136,-1.465204,-1.3740844,-0.009841359,0.019360652,-0.10449877,-0.37732276,-0.3281465,0.060007565,-3.0784059,0.6258242,-2.2692233e-05,-0.064559594,-0.0006398702,0.0020441108,-0.0016591075,0.0045481706,-0.00083110965,0.4440148,-1.4634588,2.0010793,-2.1068008,-1.5706857,2.4195454,-0.05625795,0.107908465,-0.12705044,0.0143152485,-0.00070081785,-0.05533812,-0.2681506,0.28730422,-9.423578,0.80679786,47.684196,-1.1239408,-1.7934828,-3.3981247,-0.25402203,-0.044701062,-0.40400183,26.1875,27.0625,26.1875,29.25,30.375,30.875
0.1400522,-2.1397648,-1.6259584,-1.5929922,-0.023720512,0.028620215,-0.101983234,-0.37744862,-0.32814234,0.0600218,-3.0784233,0.62580824,6.6327107e-06,-0.06551558,-0.00072211295,0.0020977694,-0.0018426297,0.004963276,0.0009108601,0.4438945,-1.4632785,2.0008395,-2.1067646,-1.5706862,2.419413,-0.056925386,0.10936833,-0.1287554,0.014106246,-0.00071588083,-0.057746273,-0.22984336,0.2681506,-9.500193,0.83813137,47.69763,-1.1372064,-1.7166276,-3.3578205,-0.21846697,-0.028628055,-0.40706438,26.1875,27.0625,26.1875,29.25,30.375,30.875
0.14205225,-2.3115664,-1.8163759,-1.2555083,-0.043408927,0.043820374,-0.109124355,-0.3775892,-0.32815632,0.060017623,-3.078425,0.62571007,2.8625136e-05,-0.06645996,-0.00069771276,0.002480791,-0.0019891504,0.0051086913,0.004111491,0.44381025,-1.4630028,2.000539,-2.1067402,-1.5707096,2.4192677,-0.057837974,0.11033843,-0.1309728,0.015156932,-0.0006483566,-0.06185851,-0.3256114,0.2681506,-9.5385,0.80679786,47.66808,-1.2031269,-1.7458336,-3.3542356,-0.2529711,-0.0394302,-0.37250274,26.1875,27.0625,26.1875,29.25,30.375,30.875
0.1440517,-1.9537259,-2.2236283,-1.4432509,-0.045936204,0.06448181,-0.1154775,-0.37771615,-0.32815483,0.060029294,-3.0784426,0.6257509,1.8179466e-05,-0.06733377,-0.00025549816,0.0016747994,-0.0012414802,0.0035600015,0.0065073725,0.4436777,-1.4628102,2.0002887,-2.1066926,-1.5706857,2.4191585,-0.059412703,0.11328118,-0.13245577,0.015417672,-0.0006605062,-0.06582789,-0.3256114,0.30645782,-9.634268,0.7777002,47.65912,-1.1400938,-1.6510639,-3.4130373,-0.2515146,-0.045556203,-0.3364905,26.1875,27.0625,26.1875,29.25,30.375,30.875
0.14605187,-2.7236185,-2.39624,-1.5465666,-0.041665986,0.05566462,-0.10714916,-0.37785777,-0.3281519,0.060030635,-3.0784433,0.6257493,1.7895154e-05,-0.06858574,-0.00056771986,0.001984197,-0.0016954575,0.0043943957,0.009183061,0.44354534,-1.4625701,2.0000122,-2.1066563,-1.5706857,2.4190252,-0.059950955,0.114959896,-0.13503328,0.015367277,-0.00061398686,-0.06904018,-0.49799395,0.36391866,-9.672575,0.7911258,47.716442,-1.1913179,-1.7028112,-3.4037652,-0.24506687,-0.062006824,-0.30040014,26.1875,27.0625,26.1875,29.25,30.375,30.875
0.1480521,-3.264163,-2.2697608,-1.5460374,-0.039805956,0.04701085,-0.10412171,-0.37798735,-0.3281581,0.06004133,-3.078452,0.62569207,4.177977e-05,-0.069559,-0.0003275857,0.0005199001,-0.0006716253,0.0021256532,0.010785703,0.4434489,-1.462353,1.9997371,-2.1066086,-1.5706977,2.4188921,-0.06127755,0.11969,-0.13682547,0.014916448,-0.00056933775,-0.071967624,-0.38307226,0.2681506,-9.595961,0.82022345,47.71286,-1.2274437,-1.5381403,-3.4196446,-0.23596096,-0.062380075,-0.25775588,26.1875,27.0625,26.1875,29.25,30.375,30.875
0.1500521,-2.1738544,-1.7803414,-1.4104431,-0.034714837,0.06658163,-0.11598102,-0.37815458,-0.3281501,0.060051233,-3.0784755,0.6256773,0.00011299425,-0.071057506,-6.861816e-05,0.0011052231,-0.0015758164,0.0037228488,0.011536028,0.44329232,-1.4621131,1.9994496,-2.106609,-1.5707096,2.4187236,-0.06315188,0.120037,-0.13845035,0.014361868,-0.00043865416,-0.07459141,-0.4213795,0.19153613,-9.595961,0.82022345,47.679718,-1.1525899,-1.6904569,-3.4262514,-0.23499426,-0.058071487,-0.2232202,26.1875,27.0625,26.1875,29.25,30.375,30.875
0.1520522,-2.2401838,-1.8593415,-1.40121,-0.0251135,0.052843213,-0.11120938,-0.3782922,-0.32816643,0.060046885,-3.0785055,0.62562567,8.930516e-05,-0.073052965,-4.542634e-05,0.00015199628,-0.00096488127,0.0024494145,0.010795015,0.4431837,-1.4618477,1.9991606,-2.1065853,-1.5706857,2.418579,-0.0649418,0.12557368,-0.14237098,0.014159878,-0.00045296934,-0.07563715,-0.5746084,0.21068975,-9.634268,0.7709874,47.679718,-1.119425,-1.8651053,-3.38975,-0.2049326,-0.072468184,-0.18405366,26.1875,27.0625,26.1875,29.25,30.375,30.875
0.15405305,-1.8770034,-1.3317428,-1.190426,-0.027589297,0.05623177,-0.10828559,-0.37841794,-0.32817104,0.060038626,-3.0785403,0.6255171,5.0561943e-05,-0.07289119,0.00040326957,0.00016023511,-0.0010500768,0.002587732,0.010920101,0.44306356,-1.4616085,1.9989098,-2.1065614,-1.5706614,2.418387,-0.06561784,0.12450847,-0.14117494,0.013869238,-0.00043409635,-0.07643914,-0.59376204,0.19153613,-9.461885,0.8537928,47.682407,-1.1535671,-1.7159929,-3.435431,-0.19272669,-0.06653666,-0.14460036,26.1875,27.0625,26.1875,29.25,30.375,30.875
0.15605232,-2.0696957,-0.84393513,-1.0995612,-0.01838962,0.051061887,-0.11093672,-0.3785915,-0.32818314,0.06007865,-3.0786204,0.62555414,0.00013530362,-0.0745536,0.00026159073,0.00023748954,-0.0012124579,0.0029943404,0.008935387,0.44290712,-1.461404,1.9985865,-2.1065376,-1.5706257,2.4182436,-0.06677978,0.12727591,-0.1444527,0.013945521,-0.00046080683,-0.0756141,-0.45968673,0.19153613,-9.3661175,0.80679786,47.709274,-1.1180863,-1.7109697,-3.334584,-0.18251696,-0.06318158,-0.14220907,26.1875,27.0625,26.1875,29.25,30.375,30.875
0.15805224,-1.8947235,-0.8750026,-1.1078322,-0.008081039,0.05155344,-0.112436466,-0.3787695,-0.32816508,0.06008278,-3.0785916,0.6255494,0.00026091142,-0.07574633,0.00031122964,0.00040551825,-0.0014243675,0.0033844768,0.006198392,0.44276282,-1.4611398,1.9982876,-2.106549,-1.5706977,2.4181004,-0.06791452,0.12879728,-0.1465905,0.0141134085,-0.00043681692,-0.07401054,-0.38307226,0.17238252,-9.3661175,0.84484416,47.719128,-1.1644132,-1.7902205,-3.3702748,-0.15642336,-0.08864145,-0.13666393,26.1875,27.0625,26.1875,29.25,30.375,30.875
0.16005215,-1.6984497,-0.76183283,-0.73791695,-0.0072323126,0.047329634,-0.11030764,-0.37892872,-0.32817024,0.06008381,-3.0786033,0.625533,0.00027650886,-0.077010155,0.0004120218,0.00025424125,-0.0012548051,0.0030813375,0.003991171,0.44263032,-1.4608637,1.9979743,-2.1065247,-1.5706977,2.4179564,-0.06917617,0.13126025,-0.14909022,0.014496983,-0.00046331645,-0.07306328,-0.4213795,0.114921674,-9.346964,0.7620334,47.69763,-1.1129502,-1.7097957,-3.2774186,-0.12553287,-0.08419057,-0.14249068,26.1875,27.0625,26.1875,29.25,30.375,30.875
0.16205211,-1.710381,-0.5794392,-0.63590944,-0.0023398066,0.038169157,-0.11580199,-0.3790819,-0.32819852,0.060100242,-3.0786588,0.6255466,0.0002996405,-0.078178175,-4.827186e-05,-0.0003493023,-0.0008062772,0.002072808,2.0987768e-06,0.44252214,-1.4606104,1.997651,-2.1065009,-1.5706614,2.4178498,-0.0693407,0.13543516,-0.15241817,0.014756563,-0.000440085,-0.06923634,-0.38307226,0.15322891,-9.289502,0.7396539,47.661808,-1.155032,-1.8796513,-3.2148342,-0.1253842,-0.09265041,-0.15453154,26.1875,27.0625,26.1875,29.25,30.375,30.875
0.16405173,-1.5890857,-0.38187593,-0.71069735,-0.011143227,0.03223805,-0.10972127,-0.37923545,-0.3282003,0.06010335,-3.0786803,0.6255174,0.00033013674,-0.08091001,0.0010414855,0.0008419671,-0.0018038538,0.0044441624,-0.008268096,0.4423886,-1.460359,1.997363,-2.106489,-1.5706614,2.4176955,-0.0736906,0.13549288,-0.15530078,0.015012299,-0.0005579255,-0.06531437,-0.40222588,0.15322891,-9.270349,0.7866488,47.66091,-1.0722202,-1.8130225,-3.3378587,-0.12042087,-0.09336507,-0.2149877,26.1875,27.0625,26.1875,29.25,30.375,30.875
0.16605167,-2.0024009,-0.91959774,-0.7801611,-0.0032174222,0.026205277,-0.1015205,-0.3794007,-0.32818305,0.060094763,-3.0786467,0.625606,0.00029645927,-0.07949793,0.00098334,-0.0010646607,0.0002735088,5.7203775e-05,-0.008179513,0.44220915,-1.4600704,1.9970521,-2.1064403,-1.5706614,2.4175758,-0.0722852,0.13850652,-0.15455964,0.016111627,-0.0005551126,-0.06399787,-0.30645782,0.1340753,-9.174581,0.8179876,47.684196,-1.0783324,-1.9982924,-3.3568745,-0.10993616,-0.1014587,-0.26973838,26.1875,27.0625,26.1875,29.25,30.375,30.875
0.16805173,-1.6629001,-1.3525009,-0.7331039,-0.004812821,0.040579792,-0.10954535,-0.37957233,-0.32818118,0.06011766,-3.0786498,0.6256647,0.00032586636,-0.08030314,0.0013471006,-0.0010733908,0.0006459125,-0.00065278955,-0.009046129,0.44205278,-1.4598186,1.9967045,-2.1063683,-1.5706614,2.417456,-0.07361629,0.1398608,-0.15635599,0.017354807,-0.0005874145,-0.06446148,-0.2681506,0.05746084,-9.193734,0.82694155,47.755844,-1.2026381,-1.8732853,-3.4179857,-0.100648396,-0.09993057,-0.25315464,26.1875,27.0625,26.1875,29.25,30.375,30.875
0.17005184,-1.8320295,-1.0384679,-0.7824624,-0.015702514,0.038108665,-0.10804692,-0.37974313,-0.32817155,0.060121242,-3.0786462,0.6256483,0.00040545402,-0.08240969,0.0026702376,-0.0008337116,0.0004599415,-0.0001962614,-0.015346053,0.4419071,-1.4595547,1.996404,-2.1063683,-1.5706977,2.4173007,-0.07789641,0.14094616,-0.15820333,0.017622672,-0.0006160581,-0.06244057,-0.34476504,0.15322891,-9.136273,0.80456203,47.741516,-0.9313719,-1.793155,-3.400435,-0.1120453,-0.105064906,-0.29693308,26.1875,27.0625,26.1875,29.25,30.375,30.875
0.17205183,-1.9138356,-1.1294525,-0.5781072,-0.009363714,0.031939767,-0.11031785,-0.37992716,-0.3281805,0.060120564,3.0786095,-0.62573373,-0.00038795,-0.08270275,0.0015890277,-0.00043106065,0.00026759156,0.00018276254,-0.011749096,0.44172785,-1.4592428,1.9960574,-2.1063564,-1.5706495,2.4171796,-0.076097146,0.14230923,-0.16088127,0.0185154,-0.0006061608,-0.064236864,-0.3256114,0.15322891,-9.002198,0.81351066,47.70211,-0.99916697,-1.8560555,-3.3686566,-0.10101369,-0.12314151,-0.30604663,26.1875,27.0625,26.1875,29.25,30.375,30.875
0.1740521,-1.9244221,-1.3630668,-0.55624443,-0.0035839144,0.021365302,-0.1018056,-0.3800958,-0.32817867,0.060138255,3.0786335,-0.62573946,-0.00046179612,-0.08377738,0.0023976525,-0.00041508634,0.0005727369,4.731325e-05,-0.012716368,0.44160712,-1.4589788,1.9957107,-2.1062963,-1.5706981,2.4170597,-0.07837399,0.14314272,-0.16199894,0.019049909,-0.00082354614,-0.06554563,-0.30645782,0.17238252,-9.059659,0.7642693,47.739727,-1.0060977,-1.730185,-3.3924375,-0.09054788,-0.117852196,-0.30299023,26.1875,27.0625,26.1875,29.25,30.375,30.875
0.17605206,-1.8074348,-1.1490551,-0.6248772,-0.0062279827,0.01793874,-0.11035101,-0.3802397,-0.32815692,0.060099084,-3.078612,0.6258511,0.00032152497,-0.08495757,0.0027182074,-0.0004460987,0.0007042069,-0.000121623685,-0.013877226,0.44141442,-1.4586669,1.9954466,-2.10626,-1.5706619,2.4169395,-0.07993754,0.14489914,-0.16402885,0.019534748,-0.00087897555,-0.06594696,-0.28730422,0.19153613,-9.040505,0.800085,47.71465,-0.86003155,-1.7513819,-3.393611,-0.07623772,-0.10427347,-0.31603384,26.1875,27.0625,26.1875,29.25,30.375,30.875
0.17805248,-0.7545492,-0.4751339,-0.6291693,-0.0073931394,0.032857455,-0.11415807,-0.38042167,-0.32813817,0.060094357,-3.0785763,0.6258248,0.00039287916,-0.085493356,0.003180234,-0.00037394764,0.0010863412,-0.0009142567,-0.015615878,0.44125813,-1.4583672,1.9951223,-2.1062477,-1.570722,2.4167717,-0.08122384,0.1455707,-0.16532233,0.021032687,-0.00088469253,-0.065494254,-0.24899697,0.21068975,-9.097966,0.7866488,47.71823,-0.9050685,-1.7534666,-3.4281287,-0.08038466,-0.12701428,-0.34112394,26.1875,27.0625,26.1875,29.25,30.375,30.875
0.18005227,-1.169369,-0.7265412,-0.6142425,-0.008180637,0.024983533,-0.1148898,-0.38063806,-0.32815313,0.060142316,3.0785785,-0.62593883,-0.0004872764,-0.08586987,0.003216311,-0.001033897,0.0020690514,-0.0025927434,-0.014350761,0.4410781,-1.4580907,1.9946922,-2.1061876,-1.5706981,2.4166627,-0.08145667,0.14823236,-0.16702417,0.022012096,-0.0010519187,-0.06699103,-0.34476504,0.24899697,-9.193734,0.7911258,47.737038,-0.9066056,-1.8399968,-3.3737755,-0.071177274,-0.10721403,-0.35689604,26.1875,27.0625,26.1875,29.25,30.375,30.875
0.18205225,-1.486096,-0.5080078,-0.58722144,-0.028259568,0.027251147,-0.11041882,-0.3807848,-0.32815146,0.060115654,3.0785918,-0.6259438,-0.00036135459,-0.08796938,0.0043288195,-0.00091036316,0.002075487,-0.0027225183,-0.017325938,0.4409206,-1.4577669,1.9943804,-2.106127,-1.5706619,2.4165068,-0.08537343,0.15012342,-0.16964546,0.022864508,-0.0010112197,-0.067931116,-0.24899697,0.19153613,-9.136273,0.7911258,47.74331,-0.5973575,-1.6287785,-3.3643317,-0.07571532,-0.1404583,-0.3405617,26.1875,27.0625,26.1875,29.25,30.375,30.875
0.18405187,-1.6462151,-0.80049545,-0.77294505,-0.0126191005,0.027297974,-0.11383617,-0.38093504,-0.32813305,0.06009204,-3.078573,0.625978,0.00028771456,-0.088784486,0.003506623,0.0003474527,0.00095328107,-0.0005802563,-0.016500618,0.4407531,-1.4574676,1.9940914,-2.1060793,-1.5706619,2.4163632,-0.08457894,0.1496882,-0.1722215,0.023459053,-0.00091886276,-0.06796085,-0.22984336,0.21068975,-9.155427,0.8179876,47.723602,-0.82705,-1.545057,-3.3611329,-0.08495349,-0.13851523,-0.3740826,26.1875,27.0625,26.1875,29.25,30.375,30.875
0.18605223,-1.9238195,-1.0602047,-1.0082462,-0.008924913,0.027888093,-0.10496635,-0.3811427,-0.32812142,0.0601108,-3.0785353,0.6260467,0.00042636506,-0.09049753,0.004773804,0.00017728822,0.0012356329,-0.001213336,-0.016468799,0.4405957,-1.457167,1.9937094,-2.1060545,-1.5707339,2.4162538,-0.08841256,0.15141334,-0.17394575,0.024145437,-0.00090193446,-0.071825385,-0.1340753,0.21068975,-9.3661175,0.8717007,47.709274,-0.67656094,-1.6424487,-3.3701844,-0.07739565,-0.12510793,-0.37018734,26.1875,27.0625,26.1875,29.25,30.375,30.875
0.18805248,-1.5529121,-0.7281041,-0.94239163,-0.01780507,0.03938827,-0.11767969,-0.38131422,-0.32810667,0.060102485,-3.0785346,0.6260998,0.00035165067,-0.09011998,0.003728621,9.586934e-06,0.001429571,-0.0016368637,-0.009396558,0.44039252,-1.4568675,1.9933823,-2.105995,-1.5706981,2.416084,-0.08607887,0.15283187,-0.17526378,0.024512429,-0.00090072147,-0.07656312,-0.19153613,0.19153613,-9.404425,0.8157518,47.7254,-0.6956386,-1.6453414,-3.3488178,-0.08131254,-0.14574854,-0.33012867,26.1875,27.0625,26.1875,29.25,30.375,30.875
0.19005255,-1.5316695,-0.87845105,-1.2397223,-0.00303789,0.03225683,-0.11612498,-0.38149756,-0.32809696,0.06011285,-3.0785215,0.62611556,0.00032961994,-0.091136225,0.003735835,-0.0012762737,0.0025275827,-0.004161982,-0.008832218,0.44021225,-1.4565662,1.9930023,-2.105899,-1.5706981,2.4159155,-0.08699019,0.1579024,-0.17811528,0.025045084,-0.0008243844,-0.07803667,-0.15322891,0.24899697,-9.442732,0.7978386,47.703903,-0.8338164,-1.58747,-3.4169602,-0.08379514,-0.14152068,-0.33680362,26.1875,27.0625,26.1875,29.25,30.375,30.875
0.19205242,-1.9368441,-1.0972124,-1.3605626,-0.013064546,0.0285364,-0.109460965,-0.38166407,-0.32808578,0.060083065,-3.0784812,0.6261432,0.00025661106,-0.0921107,0.0033194472,0.0003516066,0.001101771,-0.0011389962,-0.0044102706,0.44004422,-1.4562198,1.9926776,-2.1058633,-1.5706981,2.41577,-0.08701964,0.1561218,-0.17998822,0.025355523,-0.0008303878,-0.08248742,-0.28730422,0.24899697,-9.461885,0.83589023,47.71465,-0.7642088,-1.5436466,-3.4475615,-0.074518874,-0.16856423,-0.28652555,26.1875,27.0625,26.1875,29.25,30.375,30.875
0.19405234,-1.8464346,-1.4840088,-1.5675434,-0.018786294,0.032994315,-0.112784564,-0.38186052,-0.32807586,0.06008784,-3.0784595,0.62617445,0.00022309057,-0.09240992,0.0032607531,-0.0006030433,0.0021979038,-0.0032277703,-1.3783396e-05,0.43985218,-1.4558831,1.9922708,-2.105767,-1.5706981,2.4156005,-0.08704669,0.15940756,-0.18167618,0.02611405,-0.00093686755,-0.086909615,-0.30645782,0.17238252,-9.557653,0.82022345,47.695843,-0.7947529,-1.6507711,-3.4761248,-0.088964224,-0.15989855,-0.20418517,26.1875,27.0625,26.1875,29.25,30.375,30.875
0.19605233,-1.3889197,-1.7787414,-1.6544591,-0.029078241,0.047454424,-0.12054575,-0.38204253,-0.32806355,0.060085442,-3.078466,0.62607646,0.00025651453,-0.09286387,0.0030651386,-0.0017202916,0.003685729,-0.0050887726,0.0045159133,0.43968454,-1.455582,1.9919361,-2.1057427,-1.570722,2.4153712,-0.08666057,0.1634452,-0.18372636,0.026443003,-0.0014942581,-0.091050796,-0.28730422,0.22984336,-9.749189,0.88960326,47.672558,-0.9105208,-1.7933873,-3.466731,-0.09217785,-0.15289176,-0.16182625,26.1875,27.0625,26.1875,29.25,30.375,30.875
0.19805227,-1.6759616,-2.1873758,-1.6662475,-0.04460226,0.045039456,-0.10627546,-0.3822181,-0.32804587,0.060087353,-3.0784328,0.6260869,0.00022215297,-0.093271546,0.0027544806,-0.0026380997,0.0046181343,-0.0066484762,0.008030479,0.43950477,-1.4552816,1.9915761,-2.1056473,-1.5707339,2.4152024,-0.08626531,0.16694011,-0.18559879,0.02662756,-0.0016822809,-0.094168305,-0.19153613,0.24899697,-9.691729,0.7329411,47.69763,-0.9568486,-1.8277718,-3.5411801,-0.09752441,-0.1460896,-0.10470827,26.1875,27.0625,26.1875,29.25,30.375,30.875
0.20005214,-1.5518672,-2.0905147,-1.4443256,-0.051245768,0.036801483,-0.10519399,-0.38242245,-0.3280542,0.060080037,-3.0784767,0.62603784,0.00022889228,-0.09442913,0.0028418829,-0.002788145,0.0051954626,-0.0060727396,0.008371684,0.43932447,-1.4549217,1.9911927,-2.1056473,-1.5707105,2.4149861,-0.08687302,0.1690235,-0.18753397,0.0262085,-0.0024539765,-0.095114745,-0.15322891,0.28730422,-9.615114,0.7530795,47.691364,-1.0293031,-1.9486132,-3.4743934,-0.08699772,-0.14968204,-0.08250438,26.1875,27.0625,26.1875,29.25,30.375,30.875
0.20205243,-1.3152676,-1.9259197,-1.6492074,-0.049888868,0.023113878,-0.113814294,-0.3826126,-0.32804087,0.060068525,-3.078427,0.62606704,0.00023190652,-0.096515164,0.0021933953,-0.0017604743,0.004249015,-0.0033881734,0.0068205534,0.43915632,-1.4545738,1.9908212,-2.1055996,-1.5707468,2.4148428,-0.08724913,0.17067893,-0.19171317,0.025897602,-0.0027520284,-0.093936644,-0.038307227,0.3256114,-9.634268,0.79560274,47.679718,-1.0186577,-1.8881638,-3.2862902,-0.074105784,-0.14845574,-0.044360526,26.1875,27.0625,26.1875,29.25,30.375,30.875
0.20405206,-0.80524236,-2.0338228,-1.5581963,-0.04650224,0.014149599,-0.111502066,-0.38277867,-0.32802698,0.060060535,-3.0783954,0.6259853,0.00019332861,-0.09781917,0.0021262113,-0.0013853981,0.0039545945,-0.002337743,0.003402767,0.43900016,-1.4542615,1.9904732,-2.1055157,-1.5707706,2.41464,-0.08809446,0.17197193,-0.19405463,0.02586881,-0.0029423062,-0.09136234,-0.076614454,0.47884035,-9.634268,0.8493211,47.686886,-1.066391,-1.9302722,-3.3906364,-0.07542524,-0.15916437,-0.04655207,26.1875,27.0625,26.1875,29.25,30.375,30.875
0.20605212,-1.0378233,-2.3811016,-1.6404687,-0.03970685,0.00052204286,-0.10504804,-0.38300228,-0.32805288,0.06009965,-3.078482,0.62592924,0.00031524102,-0.09810096,0.0028649548,-0.0024913244,0.0057087694,-0.004223187,-0.0010245661,0.43884367,-1.4539492,1.9900306,-2.1054919,-1.5707587,2.4144378,-0.08913509,0.1744208,-0.19437353,0.02619528,-0.0037203098,-0.0879745,-0.038307227,0.4213795,-9.634268,0.7777002,47.72271,-1.0835935,-1.9851968,-3.389747,-0.07110477,-0.13747045,-0.073332906,26.1875,27.0625,26.1875,29.25,30.375,30.875
0.20805219,-1.4439251,-2.6915157,-1.7901458,-0.02483838,-0.01432224,-0.09606568,-0.38320333,-0.3280314,0.06008056,-3.0784237,0.626072,0.0002544473,-0.0992493,0.0033644089,-0.0026867066,0.006729224,-0.0039542564,-0.005487615,0.43862727,-1.4535774,1.9896468,-2.1054318,-1.5707592,2.414318,-0.09030908,0.17626517,-0.19604649,0.026217574,-0.004767659,-0.08468267,-0.095768064,0.4213795,-9.576807,0.8717007,47.73883,-1.0342017,-1.7868153,-3.4471235,-0.064304635,-0.12228669,-0.10611595,26.1875,27.0625,26.1875,29.25,30.375,30.875
0.21005236,-1.0305847,-1.9179972,-1.37787,-0.05014538,0.011361898,-0.11113063,-0.38340342,-0.32803112,0.060083613,-3.0784142,0.6260715,0.00026486767,-0.10057115,0.0034646797,-0.0016728723,0.0071294163,-0.00175239,-0.008904251,0.4384592,-1.4532304,1.9892396,-2.1053712,-1.5707716,2.4141512,-0.09072731,0.17628305,-0.19861089,0.026944075,-0.0060698823,-0.08168126,-0.019153614,0.4405331,-9.5385,0.779936,47.716442,-1.0709174,-1.8072485,-3.4100466,-0.061721236,-0.12686434,-0.13900697,26.1875,27.0625,26.1875,29.25,30.375,30.875
0.21205238,-1.3607622,-2.1279807,-1.2729625,-0.046153408,0.01818126,-0.10769354,-0.38362312,-0.32801697,0.06009691,-3.0783901,0.6261629,0.00031551564,-0.101437874,0.0034133687,-0.0015146919,0.0074093244,-0.001371777,-0.011818278,0.43825623,-1.4528943,1.9888214,-2.1053116,-1.5707959,2.4140086,-0.09104629,0.17762934,-0.20063062,0.027390739,-0.006487431,-0.07908465,0.0,0.34476504,-9.442732,0.86945957,47.67166,-1.0166456,-1.7988794,-3.492528,-0.057510525,-0.09346869,-0.1882081,26.1875,27.0625,26.1875,29.25,30.375,30.875
0.21405186,-1.2744559,-1.7659137,-1.1929598,-0.03217507,0.023186851,-0.109612614,-0.38378957,-0.32801524,0.060070794,-3.0783858,0.62608755,0.00024348407,-0.10270727,0.0051675355,-0.0022568828,0.010326743,-0.002424008,-0.016910652,0.43809935,-1.4525464,1.9884852,-2.1052754,-1.5707844,2.4138055,-0.0938993,0.17992748,-0.20179416,0.028455116,-0.008687589,-0.07684115,0.05746084,0.30645782,-9.3661175,0.8537928,47.698532,-1.0468743,-1.7440524,-3.4954782,-0.06541991,-0.0927274,-0.23181538,26.1875,27.0625,26.1875,29.25,30.375,30.875
0.216052,-1.3837806,-1.4203396,-1.0022875,-0.016791629,0.019304477,-0.10230326,-0.38400072,-0.328024,0.060073,-3.0784037,0.6261476,0.00021088528,-0.10323495,0.0037553355,-0.00016447566,0.009217039,0.0016573606,-0.01274403,0.437907,-1.4521755,1.9880532,-2.1052153,-1.5707492,2.4136486,-0.09118269,0.17791237,-0.20453702,0.029049786,-0.00941899,-0.07828917,-0.076614454,0.30645782,-9.32781,0.8806493,47.686886,-1.1762483,-1.5739365,-3.5166783,-0.06336825,-0.033299547,-0.24006894,26.1875,27.0625,26.1875,29.25,30.375,30.875
0.2180521,-1.1000556,-0.97452617,-0.957367,-0.00479104,0.012916458,-0.11178409,-0.3842393,-0.32801577,0.060090825,-3.0783973,0.6262069,0.00034454372,-0.10520502,0.004249476,0.0004417881,0.008142311,0.002322571,-0.01858011,0.43771416,-1.4518279,1.9876221,-2.1052034,-1.5707964,2.4134939,-0.09421241,0.17907554,-0.20743231,0.029716697,-0.00872734,-0.07548294,-0.019153614,0.2681506,-9.174581,0.8940802,47.7451,-1.1795695,-1.6215189,-3.4121933,-0.06737292,-0.01936939,-0.27913934,26.1875,27.0625,26.1875,29.25,30.375,30.875
0.22005208,-1.1499822,-0.71539694,-0.8121137,0.012750037,0.009282595,-0.10828409,-0.3844305,-0.32799423,0.060064096,-3.0783296,0.6262311,0.00027380922,-0.105845235,0.0027868082,0.0008067212,0.005632045,0.002265005,-0.018133644,0.4375223,-1.451444,1.9872388,-2.105131,-1.5708197,2.413326,-0.0935162,0.18085393,-0.21034288,0.029825892,-0.006440897,-0.07523415,-0.076614454,0.21068975,-9.097966,0.84484416,47.687782,-1.1011878,-1.523569,-3.3709621,-0.06262083,-0.049257055,-0.3348875,26.1875,27.0625,26.1875,29.25,30.375,30.875
0.22205195,-1.4115195,-0.7891551,-1.0858239,0.02329872,-0.008480901,-0.101909906,-0.38463268,-0.32801917,0.060083266,-3.078377,0.6262568,0.00028430688,-0.10705882,0.001973353,0.0015682281,0.0036187628,0.002166752,-0.01698441,0.4373673,-1.4511079,1.9868063,-2.1050708,-1.570783,2.4131813,-0.09424398,0.18237488,-0.21419767,0.031390682,-0.0045774253,-0.077112176,-0.095768064,0.11492168,-9.212888,0.8537928,47.689575,-1.2358084,-1.5337914,-3.3781593,-0.059432134,-0.05234271,-0.3302136,26.1875,27.0625,26.1875,29.25,30.375,30.875
0.22405231,-1.1526772,-0.702075,-1.1689882,0.008396319,0.005111544,-0.097329296,-0.38485312,-0.327998,0.06008023,-3.0783143,0.62636197,0.000258487,-0.10731047,0.0020836177,0.001708249,0.0029584016,0.00018934638,-0.021976616,0.43715087,-1.4507244,1.9863633,-2.104974,-1.5708064,2.4130387,-0.09554863,0.1830861,-0.21596272,0.033949513,-0.0031427932,-0.07342624,-0.15322891,0.114921674,-9.308657,0.842603,47.664497,-1.2124355,-1.4725965,-3.4652786,-0.10856035,-0.07657685,-0.41454178,26.1875,27.0625,26.1875,29.25,30.375,30.875
0.22605187,-0.9297005,-0.53136903,-1.0385281,-0.013071107,0.026935995,-0.11145845,-0.38504082,-0.3279827,0.060069107,-3.0782745,0.62641084,0.00019457568,-0.107403226,0.002548912,6.3534084e-05,0.0042761033,-0.0041532484,-0.02178488,0.43695843,-1.4503758,1.9859804,-2.1048896,-1.5708064,2.412882,-0.096856356,0.18723424,-0.2172651,0.03559277,-0.0025019743,-0.074925676,-0.22984336,0.05746084,-9.308657,0.84708,47.68599,-1.2318022,-1.5035752,-3.380706,-0.12738886,-0.06587847,-0.4389395,26.1875,27.0625,26.1875,29.25,30.375,30.875
0.22805184,-1.994951,-1.4236075,-1.2405919,0.002337576,0.026495773,-0.09673806,-0.38527605,-0.3279914,0.060085095,-3.0782714,0.62648827,0.00024896825,-0.10871139,0.001983407,0.00042201104,0.0033114005,-0.0037490774,-0.019431567,0.43677685,-1.449992,1.9855016,-2.10483,-1.5708178,2.4127495,-0.09733948,0.18930624,-0.22057158,0.03604845,-0.001803242,-0.07776132,-0.28730422,0.038307227,-9.3661175,0.82694155,47.696735,-1.0727652,-1.6010988,-3.2596674,-0.14381307,-0.09629515,-0.43953502,26.1875,27.0625,26.1875,29.25,30.375,30.875
0.23005177,-2.2551043,-1.4402632,-1.1810122,-0.0070024454,0.05279237,-0.105744794,-0.38549158,-0.32799867,0.060107272,-3.0782669,0.62646246,0.00025947441,-0.10926991,0.0013126289,0.0006216861,0.0035064225,-0.004665768,-0.015418326,0.4366106,-1.4496316,1.985021,-2.1047094,-1.5708302,2.412568,-0.096654005,0.19152021,-0.2240652,0.03823844,-0.0015956496,-0.08108779,-0.40222588,0.13407528,-9.385271,0.91198283,47.68062,-1.328673,-1.7608229,-3.1465793,-0.16233718,-0.087685585,-0.4652862,26.1875,27.0625,26.1875,29.25,30.375,30.875
0.2320517,-2.331684,-1.075636,-1.054357,-0.033996537,0.071616694,-0.11730858,-0.3857033,-0.32798517,0.0600998,-3.078268,0.6265381,0.00016477682,-0.11008847,0.003327633,-0.0009038097,0.005072121,-0.008311435,-0.012684359,0.43636906,-1.4492592,1.9846028,-2.104625,-1.5707821,2.4123738,-0.10110218,0.1942762,-0.22397813,0.03936275,-0.0014758925,-0.08827009,-0.47884035,0.24899697,-9.32781,0.9231726,47.719128,-1.0627921,-1.8024151,-3.2145882,-0.20744759,-0.086889654,-0.40320492,26.1875,27.0625,26.1875,29.25,30.375,30.875
0.2340522,-2.3253229,-1.1640418,-0.9871022,-0.041513454,0.07890881,-0.11406157,-0.38588,-0.3279693,0.060068,-3.0781937,0.6264822,4.7827296e-05,-0.109156854,0.0032591806,-0.0015852776,0.005870913,-0.010622996,-0.008544615,0.43620154,-1.4488637,1.984209,-2.1045167,-1.5708059,2.4121811,-0.10026759,0.19502619,-0.2236348,0.04069807,-0.0012313263,-0.09157604,-0.5363012,0.22984336,-9.32781,0.87393653,47.701214,-1.1994462,-1.732732,-3.449556,-0.22771716,-0.12051736,-0.39543918,26.1875,27.0625,26.1875,29.25,30.375,30.875
0.23605202,-2.5988705,-1.5818256,-1.2196445,-0.034869507,0.06382178,-0.10312899,-0.38611507,-0.32793897,0.060058966,-3.0781322,0.62648314,4.504221e-05,-0.110086106,0.004155381,-0.002978888,0.0073501444,-0.013783818,-0.0019086739,0.4359727,-1.4484555,1.983754,-2.1044328,-1.5708541,2.411961,-0.102647156,0.1992081,-0.225452,0.041816004,-0.0012466434,-0.100590244,-0.51714754,0.17238252,-9.385271,0.7978386,47.67345,-1.1667035,-1.6871893,-3.5116699,-0.2638548,-0.09299369,-0.32660177,26.1875,27.0625,26.1875,29.25,30.375,30.875
0.23805195,-2.7045727,-1.778292,-1.1483595,-0.028881637,0.06573175,-0.09611241,-0.38636366,-0.32796013,0.060088646,-3.0782046,0.6264793,0.00012905682,-0.11120717,0.004695604,-0.0031108365,0.0069304192,-0.012917314,-0.0011878964,0.43577993,-1.4480836,1.9832624,-2.104398,-1.5708302,2.411757,-0.10454894,0.19998443,-0.2257645,0.04039101,-0.0012306164,-0.10321243,-0.61291564,0.2681506,-9.423578,0.87617236,47.70659,-1.0500537,-1.5836152,-3.5540187,-0.28581756,-0.10259813,-0.251226,26.1875,27.0625,26.1875,29.25,30.375,30.875
0.24005191,-2.6593282,-1.6851935,-1.1755464,-0.023264129,0.05900955,-0.10101738,-0.3865944,-0.32795602,0.06008797,-3.0782113,0.626498,0.00011575465,-0.11315171,0.0046418705,-0.0023390497,0.0055763633,-0.009620035,0.00071681687,0.4355636,-1.4476882,1.982808,-2.1043384,-1.5708178,2.4115517,-0.105937295,0.20041014,-0.2275899,0.038230926,-0.0014066475,-0.10650377,-0.61291564,0.2681506,-9.423578,0.91198283,47.660015,-1.0723369,-1.6252964,-3.6733289,-0.28516424,-0.10702653,-0.20442235,26.1875,27.0625,26.1875,29.25,30.375,30.875
0.24205197,-2.0631092,-1.4661801,-1.0625324,-0.014650373,0.07098951,-0.10551893,-0.38682634,-0.32795188,0.060101625,-3.0782163,0.6265569,0.00011731274,-0.11527455,0.004936568,-0.002034415,0.00513338,-0.008752761,0.0005190815,0.43534672,-1.447316,1.9823412,-2.1042545,-1.5708059,2.4113712,-0.10825846,0.20272377,-0.23096825,0.038322948,-0.0013792511,-0.1086252,-0.61291564,0.17238252,-9.3661175,0.85826975,47.666286,-0.955244,-1.6272649,-3.636928,-0.29939157,-0.100930735,-0.15552244,26.1875,27.0625,26.1875,29.25,30.375,30.875
0.24405183,-2.0558496,-1.144976,-0.86361945,-0.012621706,0.06697754,-0.11229138,-0.38705492,-0.32794434,0.06008206,-3.0782025,0.62644,6.814411e-05,-0.11624559,0.0052049365,-0.0022071805,0.005229249,-0.009077182,-0.0014705656,0.4351424,-1.4468727,1.9818734,-2.104183,-1.5708178,2.411096,-0.10954146,0.20444603,-0.23265523,0.0386209,-0.0013394858,-0.10791761,-0.6512228,0.21068975,-9.251195,0.8717007,47.677036,-0.90391517,-1.6099156,-3.5975168,-0.30396375,-0.11545524,-0.14334407,26.1875,27.0625,26.1875,29.25,30.375,30.875
0.24605192,-2.5210843,-0.995251,-0.9799989,-0.0039971545,0.050508864,-0.1086248,-0.38729486,-0.3279311,0.060070097,-3.078189,0.62651557,3.8224087e-05,-0.117909014,0.0051073586,-0.0022596964,0.0049399547,-0.00823056,-0.0051124394,0.43490204,-1.4464518,1.9814185,-2.1041348,-1.5708059,2.410905,-0.11064084,0.20708103,-0.23538898,0.037832122,-0.0014451729,-0.10537298,-0.61291564,0.22984336,-9.193734,0.90527004,47.672558,-0.8734443,-1.6924744,-3.5238461,-0.32287967,-0.1262582,-0.14259367,26.1875,27.0625,26.1875,29.25,30.375,30.875
0.2480519,-2.5419025,-1.3981013,-1.1134255,0.0008607924,0.048938088,-0.09293882,-0.3875289,-0.32790223,0.060058612,-3.0781286,0.6265438,-1.3489299e-05,-0.11995946,0.004303138,-0.0013766922,0.003641325,-0.0057275733,-0.009415657,0.43466207,-1.446032,1.9809502,-2.104028,-1.5708302,2.4106905,-0.11090815,0.20904306,-0.23954916,0.037211165,-0.0013392566,-0.1013346,-0.51714754,0.17238252,-9.251195,0.85155696,47.675243,-0.87122023,-1.6353259,-3.4749064,-0.32360822,-0.10782199,-0.1820851,26.1875,27.0625,26.1875,29.25,30.375,30.875
0.25005206,-2.2166803,-0.95300215,-0.80159044,-0.01960776,0.051166046,-0.103789605,-0.38776192,-0.3279218,0.060078293,-3.0781722,0.6265383,8.063742e-06,-0.121767096,0.0036684806,-0.001008197,0.0028797141,-0.004162582,-0.014489409,0.43448052,-1.4456478,1.9804581,-2.103956,-1.5708059,2.4105003,-0.11123113,0.21164489,-0.24323612,0.036559585,-0.0013133662,-0.0965815,-0.51714754,0.15322891,-9.308656,0.8672237,47.652847,-0.90207493,-1.7199552,-3.4314623,-0.31720424,-0.1232564,-0.23108953,26.1875,27.0625,26.1875,29.25,30.375,30.875
0.252052,-2.0229018,-0.9595981,-0.8503686,-0.019726662,0.055211287,-0.10856728,-0.38800794,-0.3279077,0.06005873,-3.0781412,0.6265882,-3.756232e-05,-0.12310393,0.0033755843,-0.0004617614,0.0022026938,-0.0023418912,-0.017183142,0.43424177,-1.4451928,1.9799794,-2.1038969,-1.5708059,2.410297,-0.111641556,0.21261089,-0.2455215,0.03594344,-0.0014756724,-0.094296515,-0.47884035,0.17238252,-9.212888,0.8403672,47.678825,-0.90767646,-1.6060219,-3.260415,-0.31526354,-0.12706369,-0.27686802,26.1875,27.0625,26.1875,29.25,30.375,30.875
0.25405234,-2.2164624,-1.3322477,-1.2088978,0.005272095,0.03462049,-0.09328393,-0.38827983,-0.32790416,0.06008895,-3.078128,0.62672126,8.483974e-05,-0.12489559,0.0029800497,0.0012341986,0.0006873258,0.0016503123,-0.017703721,0.4340244,-1.4447973,1.979453,-2.1038368,-1.5708421,2.4101646,-0.112154864,0.2116972,-0.24833392,0.035407793,-0.0017809077,-0.094287515,-0.40222588,0.15322891,-9.308656,0.87617236,47.693153,-1.068969,-1.5596575,-3.1813667,-0.31540042,-0.11816433,-0.30476698,26.1875,27.0625,26.1875,29.25,30.375,30.875
0.25605223,-1.4229959,-1.2435951,-1.3794445,-0.0047307704,0.04577811,-0.10745245,-0.3885361,-0.3278807,0.060081676,-3.0781145,0.6266805,3.7666836e-05,-0.12500656,0.0027682795,7.373553e-05,0.0018985987,4.0676427e-05,-0.016546465,0.43376023,-1.4443531,1.9789494,-2.1037405,-1.5708426,2.409877,-0.11147509,0.21497877,-0.24939324,0.03515631,-0.0022096566,-0.094763264,-0.24899697,0.2681506,-9.346964,0.8784135,47.70838,-0.9411666,-1.616498,-3.3512084,-0.30948088,-0.12232384,-0.31242728,26.1875,27.0625,26.1875,29.25,30.375,30.875
0.25805187,-1.4435492,-1.8511078,-1.3109468,-0.02173232,0.0362255,-0.097093746,-0.38877,-0.3278755,0.060043354,-3.0780718,0.6268242,-5.6835404e-05,-0.12630439,0.004145369,-0.00013977168,0.0024219519,0.00030348284,-0.019765332,0.4335328,-1.4438742,1.9784917,-2.1037056,-1.5708183,2.409745,-0.114650935,0.2156094,-0.24961579,0.034733735,-0.0028019901,-0.09471901,-0.095768064,0.22984336,-9.385271,0.9298854,47.71554,-0.983051,-1.5146949,-3.2612998,-0.31607962,-0.11713301,-0.3097738,26.1875,27.0625,26.1875,29.25,30.375,30.875
0.26005176,-1.138921,-1.4716277,-1.2681637,-0.05347021,0.025872147,-0.10510269,-0.38898823,-0.32784924,0.06002185,-3.0779903,0.62677044,-0.00012518241,-0.12585379,0.0037830465,-0.0010742339,0.003386177,-0.00095505844,-0.019133847,0.43332812,-1.4434423,1.9780287,-2.1035855,-1.5708665,2.4095175,-0.11327653,0.21756284,-0.24968202,0.03439017,-0.0031579644,-0.09397497,-0.095768064,0.24899697,-9.346964,0.90527004,47.684196,-0.9605494,-1.5544192,-3.3690314,-0.30161542,-0.10911314,-0.36756754,26.1875,27.0625,26.1875,29.25,30.375,30.875
0.26205167,-1.3038883,-1.9365824,-1.2215482,-0.053316724,0.016891291,-0.094659805,-0.38927907,-0.32784227,0.060045537,-3.0779853,0.6268626,-3.1037407e-06,-0.12722205,0.004131188,-0.0020333088,0.0046205977,-0.0016154157,-0.018734684,0.43308887,-1.4430099,1.9774779,-2.1035378,-1.5709027,2.4093368,-0.11443236,0.22153501,-0.25189114,0.03374314,-0.0040018507,-0.09552695,-0.019153614,0.30645782,-9.423578,0.8784135,47.696735,-0.968444,-1.6902469,-3.5018108,-0.300695,-0.09071858,-0.37287635,26.1875,27.0625,26.1875,29.25,30.375,30.875
0.26405182,-1.5639913,-2.0362308,-1.3008772,-0.044636037,0.009027519,-0.09929106,-0.38954297,-0.32784072,0.060037207,-3.0779822,0.62705594,-2.4761886e-05,-0.1275969,0.004151433,-0.0033814497,0.00549104,-0.0031584632,-0.018599464,0.4328355,-1.4425532,1.9769758,-2.1035025,-1.570867,2.4092047,-0.11459046,0.22499946,-0.25256413,0.032720603,-0.004148627,-0.095819116,0.095768064,0.30645782,-9.423578,0.8873621,47.69763,-0.9961015,-1.824012,-3.6161556,-0.28262955,-0.10301172,-0.3962212,26.1875,27.0625,26.1875,29.25,30.375,30.875
0.2660518,-0.3778014,-1.0513664,-1.2737185,-0.03436446,0.022433957,-0.10501146,-0.38976178,-0.3278207,0.05999548,-3.0779085,0.6270185,-0.00016540439,-0.13014938,0.004454771,-0.002626095,0.004332496,-0.0005152921,-0.013709068,0.43261835,-1.442074,1.976508,-2.1033947,-1.5708789,2.408974,-0.11719823,0.22636081,-0.25566447,0.031570274,-0.004229565,-0.103314705,0.095768064,0.3256114,-9.32781,0.8784135,47.716442,-0.89305925,-1.8253905,-3.5842786,-0.26735863,-0.08302673,-0.34037894,26.1875,27.0625,26.1875,29.25,30.375,30.875
0.26805174,-0.23510344,-1.1979734,-1.4395797,-0.017929126,0.008822427,-0.11035713,-0.39002407,-0.32782057,0.059999414,-3.0779388,0.62698025,-0.00012110142,-0.13040559,0.0025868032,-0.0018630449,0.0027515825,0.0017322804,-0.0075383266,0.432393,-1.441642,1.9760054,-2.10336,-1.5708789,2.4087212,-0.11419303,0.22689863,-0.25787258,0.03053388,-0.003740987,-0.106479965,0.11492168,0.3256114,-9.346964,0.9410752,47.72002,-1.1365877,-1.8462582,-3.6335192,-0.24231894,-0.082597755,-0.31570548,26.1875,27.0625,26.1875,29.25,30.375,30.875
0.27005237,-0.67884105,-1.7055937,-1.1710063,-0.028029738,-0.0049690134,-0.09737037,-0.39031047,-0.32778847,0.060004726,-3.0778868,0.62717897,-8.474024e-05,-0.13295197,0.0032171,-0.0010948791,0.0016845246,0.003620216,-0.0047833794,0.432104,-1.4411981,1.9754776,-2.103288,-1.5709027,2.4085631,-0.11753022,0.22815363,-0.26109156,0.030330542,-0.003570569,-0.11257069,0.11492168,0.40222588,-9.289503,0.8985519,47.729877,-0.92267376,-1.880877,-3.5284653,-0.23454942,-0.09215339,-0.26865882,26.1875,27.0625,26.1875,29.25,30.375,30.875
0.27205232,-0.6710688,-1.7959957,-1.2892092,-0.041579638,-0.0076839547,-0.09630414,-0.39057556,-0.32779717,0.059996426,-3.0778737,0.6270191,-5.561103e-05,-0.13424173,0.0017375641,-0.0001573913,0.0007447428,0.0060324045,0.0016444321,0.43192458,-1.4406954,1.9749144,-2.103216,-1.5709509,2.408286,-0.115701295,0.22988102,-0.26525468,0.030175194,-0.0037385526,-0.11716694,0.05746084,0.4213795,-9.308656,0.95002913,47.716442,-1.15848,-1.8173549,-3.5828214,-0.2160913,-0.056688238,-0.19565648,26.1875,27.0625,26.1875,29.25,30.375,30.875
0.27405208,-0.66682523,-2.7333558,-1.4908302,-0.03098754,0.0074358676,-0.09825061,-0.39082664,-0.32779533,0.060005397,-3.077916,0.6270087,-6.900987e-05,-0.13536234,0.0019338591,-0.00027155058,0.0010820816,0.005852547,0.004502777,0.43168274,-1.4402876,1.9744185,-2.1031444,-1.5709151,2.4080327,-0.116763115,0.2319464,-0.26752454,0.03068719,-0.003971478,-0.121085525,-0.038307227,0.45968673,-9.346964,0.8493211,47.691364,-1.1399492,-1.7017121,-3.406655,-0.19800569,-0.08013422,-0.114504024,26.1875,27.0625,26.1875,29.25,30.375,30.875
0.27605212,-1.1473558,-2.826435,-1.3700256,-0.06736456,0.02165876,-0.09726862,-0.39110872,-0.32779467,0.060001172,-3.0779266,0.6270276,-7.461907e-05,-0.1368515,0.0019853495,0.00026760277,0.0011708246,0.0064613745,0.003699251,0.43143213,-1.4397959,1.9738606,-2.1030838,-1.5709027,2.4077928,-0.11779309,0.23355436,-0.2709821,0.032022756,-0.004309285,-0.12130985,-0.17238252,0.7278373,-9.385271,0.8560339,47.704796,-1.1161287,-1.7251625,-3.4259386,-0.17924106,-0.04107093,-0.12499736,26.1875,27.0625,26.1875,29.25,30.375,30.875
0.2780521,-1.6587152,-2.93693,-1.3682173,-0.077825464,0.03993966,-0.10204861,-0.39136863,-0.3277803,0.05996663,-3.0778785,0.62703866,-0.00014071549,-0.13783808,0.0018013192,0.00034199434,0.0009369761,0.006186032,0.00058805424,0.43119174,-1.43928,1.9733447,-2.1030233,-1.5709151,2.4075658,-0.11839916,0.2354896,-0.2736508,0.032906033,-0.0039906614,-0.11880378,-0.15322891,0.61291564,-9.346964,0.86945957,47.71554,-1.1110182,-1.8507011,-3.4652462,-0.18033591,-0.06340281,-0.08958579,26.1875,27.0625,26.1875,29.25,30.375,30.875
0.28005204,-2.034747,-2.384976,-1.3130953,-0.081432104,0.05570889,-0.10837606,-0.39162144,-0.32777813,0.059955217,-3.0778537,0.6270738,-0.00021460745,-0.13835855,0.0016777036,0.0007754207,-0.00033100802,0.00693559,-0.0033541166,0.43096343,-1.4388009,1.9728063,-2.102916,-1.5709022,2.407363,-0.11905786,0.23516162,-0.27433553,0.032706954,-0.0031569086,-0.11552157,-0.34476507,0.61291564,-9.423578,0.94331104,47.71017,-1.1406126,-1.795171,-3.4217854,-0.16893603,-0.06864785,-0.13138399,26.1875,27.0625,26.1875,29.25,30.375,30.875
0.28205207,-2.986748,-2.7541153,-1.220517,-0.062063515,0.066228256,-0.0954691,-0.39191464,-0.32780942,0.059982575,-3.0779312,0.6269771,-9.646629e-05,-0.13976619,0.0015976105,0.0019173829,-0.0018561169,0.008477349,-0.008970494,0.430771,-1.4383334,1.9722084,-2.1028798,-1.5709022,2.4071007,-0.12049263,0.2349344,-0.27698568,0.03354484,-0.0024052993,-0.111340664,-0.47884035,0.5363012,-9.385271,0.92093146,47.72002,-1.0938348,-1.6211287,-3.5401468,-0.14559707,-0.07833107,-0.16873501,26.1875,27.0625,26.1875,29.25,30.375,30.875
0.28405246,-2.2089953,-2.1160557,-1.4767494,-0.03783663,0.07889384,-0.1016878,-0.39218098,-0.32780892,0.059972886,-3.0779257,0.62693954,-0.0001284869,-0.14013115,0.001954376,0.0009230401,-0.0014976783,0.0062691765,-0.013989922,0.4305428,-1.4378421,1.9716572,-2.1027958,-1.5709018,2.40685,-0.12174219,0.23750405,-0.27781573,0.033960313,-0.0018097764,-0.10757132,-0.34476504,0.3256114,-9.404425,0.89631605,47.686886,-1.1535649,-1.5936908,-3.5911107,-0.15169519,-0.082603425,-0.19987196,26.1875,27.0625,26.1875,29.25,30.375,30.875
0.28605247,-2.1972547,-1.282662,-1.3653344,-0.017134368,0.06000113,-0.0964262,-0.39246136,-0.3278071,0.05996037,-3.0779066,0.6270364,-0.00013005173,-0.14135723,0.0020891887,0.00071960344,-0.0018725832,0.0063532535,-0.018474571,0.43030077,-1.4373382,1.9711064,-2.1027486,-1.5709018,2.4066713,-0.12311544,0.23953795,-0.2796659,0.033543486,-0.0015065682,-0.10445934,-0.36391866,0.11492168,-9.346964,0.89631605,47.67793,-1.0690889,-1.7298748,-3.654599,-0.1099343,-0.09206177,-0.26115856,26.1875,27.0625,26.1875,29.25,30.375,30.875
0.28805235,-1.9145486,-0.81089145,-0.99757034,-0.0045536184,0.061053775,-0.106901124,-0.3927734,-0.32779095,0.05995722,-3.0778804,0.6271841,-9.215536e-05,-0.1421387,0.002114149,0.00026687398,-0.0014848262,0.0051990133,-0.02088718,0.43001392,-1.4368225,1.9705204,-2.1027,-1.5709141,2.4064803,-0.12377852,0.24216631,-0.2819024,0.03436112,-0.0013761278,-0.10270893,-0.51714754,0.0,-9.346964,0.87617236,47.672558,-1.0824915,-1.7667284,-3.6368086,-0.08266054,-0.097925335,-0.3139884,26.1875,27.0625,26.1875,29.25,30.375,30.875
0.29005218,-1.5249664,0.21798101,-1.1616832,0.011769853,0.052948564,-0.10730126,-0.39305723,-0.3277921,0.05995643,-3.0778978,0.6272685,-8.601076e-05,-0.14470641,0.0023346173,0.0009737617,-0.0023673614,0.006796019,-0.025629476,0.4297593,-1.4363419,1.9699682,-2.1026518,-1.5708903,2.4062765,-0.12632665,0.24435149,-0.2861558,0.03461238,-0.0012434734,-0.10051274,-0.47884035,-0.095768064,-9.32781,0.9321212,47.670765,-0.9130623,-1.7932811,-3.604514,-0.07966857,-0.10124798,-0.36228794,26.1875,27.0625,26.1875,29.25,30.375,30.875
0.2920521,-1.4777764,0.7837469,-1.1913745,0.03693526,0.038472027,-0.10285658,-0.3933109,-0.32778898,0.05992979,-3.0778725,0.6273175,-0.00018563033,-0.14496484,0.0008758492,9.8965225e-05,-0.0023433783,0.0062028877,-0.02526536,0.4295223,-1.435838,1.9694408,-2.1025684,-1.570866,2.4060736,-0.1238962,0.24835779,-0.28856295,0.033564676,-0.0010295244,-0.09844486,-0.40222588,-0.1340753,-9.289502,0.91421866,47.66987,-1.1442661,-1.8629667,-3.4342618,-0.038012695,-0.09054926,-0.4243796,26.1875,27.0625,26.1875,29.25,30.375,30.875
0.29405177,-1.4397815,0.39136997,-1.1126068,0.04545242,0.050398447,-0.102852285,-0.39364886,-0.3277945,0.059943356,-3.0778742,0.62741524,-4.8443784e-05,-0.14648697,0.0012489296,0.00052002457,-0.00246653,0.0066275857,-0.0276304,0.4292694,-1.4352982,1.9687942,-2.1025445,-1.5709018,2.405882,-0.12569533,0.2497089,-0.29142383,0.034633897,-0.001088072,-0.09787775,-0.5363012,-0.21068975,-9.270349,0.8806493,47.68599,-1.0432954,-1.9544797,-3.4597137,-0.035434876,-0.1172306,-0.47308654,26.1875,27.0625,26.1875,29.25,30.375,30.875
0.29605192,-1.5246158,0.13869,-1.2806172,0.038251426,0.04781992,-0.11259679,-0.39390582,-0.32777134,0.059924122,-3.0778284,0.6275188,-0.00016637369,-0.14585936,0.0015238306,8.773732e-05,-0.0010707341,0.0038955552,-0.0246247,0.42899364,-1.4348187,1.9682683,-2.1024234,-1.5708779,2.4056768,-0.12546103,0.2506099,-0.29225072,0.037626795,-0.0012223095,-0.10064916,-0.4405331,-0.21068975,-9.289502,0.9186956,47.705692,-1.1360729,-1.9679133,-3.3647392,-0.03007494,-0.1140627,-0.50013,26.1875,27.0625,26.1875,29.25,30.375,30.875
0.2980523,-1.727383,-0.1116336,-1.2544137,0.010565916,0.05687609,-0.10694537,-0.39419502,-0.32778013,0.05990997,-3.0778189,0.6274959,-0.00019938198,-0.14677896,0.002225259,-0.00043221144,0.000105280975,0.0018392833,-0.02202277,0.42876503,-1.4342672,1.9676574,-2.102339,-1.5708779,2.4054356,-0.12726274,0.25330094,-0.29472724,0.039770797,-0.0014407203,-0.10505142,-0.4405331,-0.1340753,-9.385271,0.8627467,47.709274,-1.1180888,-1.9799423,-3.4856246,-0.03286114,-0.13039768,-0.4870153,26.1875,27.0625,26.1875,29.25,30.375,30.875
0.30005217,-2.0046518,-1.0445424,-1.2368851,-0.008890236,0.056748185,-0.10889017,-0.39448896,-0.32776478,0.059911847,-3.0777583,0.62761265,-0.00018356764,-0.14778306,0.0034051698,-0.0005956672,0.0011068551,0.0002962982,-0.015215319,0.42851216,-1.4337634,1.9670581,-2.1022303,-1.5709141,2.4052637,-0.12997006,0.25469008,-0.29656142,0.04202941,-0.0017140692,-0.11456525,-0.36391866,-0.1340753,-9.519346,0.83813137,47.70659,-1.0301753,-1.980814,-3.4408274,-0.044618078,-0.107511565,-0.41107205,26.1875,27.0625,26.1875,29.25,30.375,30.875
0.30205244,-1.8924943,-1.1631608,-1.217459,-0.03100177,0.06057975,-0.10472367,-0.39479575,-0.32774046,0.05993152,-3.0777395,0.6276802,-0.00013226508,-0.14815988,0.002942323,0.0003555433,0.0009339078,0.0016256475,-0.0060613267,0.4282245,-1.4332967,1.9664601,-2.1021225,-1.5709385,2.405021,-0.12904166,0.25415346,-0.29851466,0.043233674,-0.0021105963,-0.12278974,-0.3256114,0.038307227,-9.519346,0.9097417,47.691364,-0.9949188,-1.8738992,-3.445221,-0.051162682,-0.113415256,-0.36220902,26.1875,27.0625,26.1875,29.25,30.375,30.875
0.3040518,-2.2029228,-1.0830573,-1.4028376,-0.03115644,0.050163854,-0.10419314,-0.3951057,-0.3277447,0.059924573,-3.077758,0.6276253,-0.000120151584,-0.15067899,0.004517074,0.0009223566,0.0013408705,0.002718439,-0.0030467228,0.42797083,-1.4327456,1.9658378,-2.102062,-1.5709385,2.404731,-0.13337365,0.25523677,-0.3013919,0.044202436,-0.0029394515,-0.13013369,-0.5363012,0.1340753,-9.500193,0.842603,47.664497,-0.87860227,-1.879765,-3.5397394,-0.050349206,-0.10057905,-0.24833614,26.1875,27.0625,26.1875,29.25,30.375,30.875
0.30605224,-1.5220368,-1.1365532,-1.6751958,-0.018029617,0.06582153,-0.11307306,-0.39540455,-0.32775158,0.059923377,-3.0777593,0.6276594,-0.000106155,-0.15001382,0.004061092,0.00063071103,0.0021161374,0.0016036961,0.0031165357,0.42773163,-1.4322182,1.9652265,-2.10199,-1.5709385,2.4045134,-0.13169147,0.255957,-0.30193216,0.04535725,-0.0031805716,-0.13461451,-0.4405331,0.15322891,-9.557653,0.90527004,47.67793,-1.0301313,-1.7006729,-3.5486524,-0.0501219,-0.104784496,-0.17910455,26.1875,27.0625,26.1875,29.25,30.375,30.875
0.30805206,-1.3268205,-1.03781,-1.5836757,-0.011237707,0.06624594,-0.10311504,-0.39569807,-0.32770315,0.059885655,-3.077686,0.6276628,-0.0002627275,-0.15019052,0.00402417,0.0006171677,0.0021336747,0.001251608,0.0044098347,0.4273958,-1.4316548,1.964641,-2.1018455,-1.5709385,2.4041893,-0.13170144,0.25653777,-0.3028491,0.046019524,-0.0030680157,-0.1359175,-0.30645782,0.15322891,-9.595961,0.88960326,47.699425,-0.97430986,-1.740738,-3.6235294,-0.038534634,-0.12256734,-0.13701141,26.1875,27.0625,26.1875,29.25,30.375,30.875
0.310052,-1.7616665,-0.9790498,-1.4371558,-0.009571868,0.05214967,-0.09880736,-0.3960313,-0.32771164,0.059922777,-3.0777342,0.62771225,-0.00014295336,-0.15163992,0.0040570097,0.0006568562,0.0021992745,0.0007619172,0.0015803338,0.4271313,-1.4311632,1.963982,-2.1017735,-1.5709385,2.40395,-0.13293505,0.25925705,-0.30645186,0.047375377,-0.002915951,-0.13432044,-0.3256114,0.19153613,-9.481039,0.8806493,47.699425,-1.0094907,-1.7004454,-3.7073767,-0.040203303,-0.107131094,-0.124680474,26.1875,27.0625,26.1875,29.25,30.375,30.875
0.3120519,-1.0430634,-1.1989517,-1.5310105,0.0020175443,0.05736555,-0.10411982,-0.39631912,-0.32769763,0.059899252,-3.0776942,0.62770927,-0.00016853234,-0.15162706,0.004026181,0.0006872361,0.0027824154,-0.00034068458,-0.007103589,0.42687944,-1.4306235,1.9634069,-2.1017015,-1.5709623,2.4037018,-0.13269141,0.25999987,-0.30795476,0.04938051,-0.002990319,-0.12539247,-0.36391866,0.2681506,-9.481039,0.90527004,47.687782,-1.0391105,-1.8011594,-3.6419797,-0.062423635,-0.10985449,-0.19025578,26.1875,27.0625,26.1875,29.25,30.375,30.875
0.31405237,-1.0670729,-1.1474674,-1.6784792,-0.009034476,0.050923333,-0.10220712,-0.3966222,-0.32769847,0.059912518,-3.0776854,0.6277477,-0.0001721158,-0.15270677,0.0045696595,5.6557386e-05,0.004233309,-0.0022643758,-0.01277828,0.426627,-1.4301077,1.9627608,-2.101569,-1.5709628,2.4034748,-0.13411526,0.26341727,-0.31096256,0.051325522,-0.00351614,-0.121139236,-0.30645782,0.22984336,-9.385271,0.9298854,47.701214,-1.043356,-1.7864391,-3.6237555,-0.05667988,-0.11407083,-0.24137974,26.1875,27.0625,26.1875,29.25,30.375,30.875
0.31605184,-1.1305577,-1.2692572,-1.598351,-0.011253744,0.025488462,-0.09371213,-0.39693487,-0.32766905,0.059903912,-3.077644,0.6278181,-0.00016747092,-0.15306617,0.0045553837,-2.842971e-05,0.0053547574,-0.0035655578,-0.016153298,0.42632708,-1.4295796,1.9621614,-2.1014845,-1.5709871,2.4032245,-0.13393006,0.26526374,-0.31353942,0.053703867,-0.0040005217,-0.117577225,-0.076614454,0.21068975,-9.404425,0.8806493,47.696735,-1.0836849,-1.8864837,-3.6364198,-0.10526414,-0.09435066,-0.29897413,26.1875,27.0625,26.1875,29.25,30.375,30.875
0.318052,-0.08809085,-1.2157851,-1.5692724,-0.024876775,0.03048203,-0.10626682,-0.39721888,-0.32766786,0.05988061,-3.0775878,0.6278437,-0.00027881304,-0.15391317,0.004720383,-0.00044689604,0.006952329,-0.0053029316,-0.016905677,0.42608705,-1.4290037,1.9615272,-2.1013396,-1.5709871,2.403008,-0.13432597,0.2685108,-0.3169715,0.05613341,-0.0047503915,-0.11721748,-0.15322891,0.2681506,-9.404425,0.94331104,47.707485,-1.086427,-1.8500878,-3.614052,-0.12580378,-0.09334153,-0.31864023,26.1875,27.0625,26.1875,29.25,30.375,30.875
0.32005185,-0.6014206,-1.6191363,-1.4300748,-0.025853697,0.0095654875,-0.10090181,-0.3975752,-0.3276622,0.059922367,-3.0776153,0.6279071,-0.00016385099,-0.15441641,0.0050695203,-0.0012956227,0.008830998,-0.0074734446,-0.016912043,0.42578688,-1.4284878,1.9608206,-2.1012313,-1.5709995,2.4027443,-0.13470049,0.27178434,-0.319293,0.05793427,-0.005558548,-0.11758345,-0.19153613,0.3256114,-9.404425,0.9254084,47.694054,-1.1432866,-1.9614332,-3.4746013,-0.16612461,-0.077980965,-0.34889093,26.1875,27.0625,26.1875,29.25,30.375,30.875
0.32205164,-0.48516673,-1.5046985,-1.6242694,-0.034195203,0.0052333614,-0.10313281,-0.3978444,-0.32763964,0.059880354,-3.0775304,0.6279698,-0.00031836441,-0.15539607,0.005296454,-0.0005531799,0.009225821,-0.0066304742,-0.017681198,0.42552102,-1.4279243,1.9602455,-2.1010988,-1.571,2.4025288,-0.13533114,0.2720156,-0.32177365,0.059580278,-0.006284715,-0.11744217,0.038307227,0.36391866,-9.404425,0.9388393,47.71554,-1.0626435,-1.9690884,-3.5372276,-0.20150411,-0.040582784,-0.35296032,26.1875,27.0625,26.1875,29.25,30.375,30.875
0.32405218,-0.83358264,-2.3823645,-1.4889514,-0.05020963,0.007945449,-0.09581448,-0.39819404,-0.32762682,0.059921592,-3.0775354,0.6280648,-0.00020748764,-0.15668434,0.0069628144,-0.0007647167,0.009389269,-0.008113397,-0.020407468,0.42522117,-1.427421,1.9595512,-2.100979,-1.5710233,2.402288,-0.13959487,0.27292356,-0.3227996,0.061109897,-0.005815935,-0.118980914,0.15322891,0.47884035,-9.500193,0.91198283,47.686886,-1.02719,-1.8947121,-3.5163145,-0.2278399,-0.0395429,-0.37527046,26.1875,27.0625,26.1875,29.25,30.375,30.875
0.32605216,-0.442375,-2.0955346,-1.1753844,-0.07432768,0.02383755,-0.106694356,-0.39852133,-0.3276104,0.059907295,-3.077492,0.62810856,-0.00021909752,-0.15707465,0.00566386,-0.00030615687,0.008709704,-0.006931137,-0.0139154345,0.4249342,-1.4268335,1.9588932,-2.1008828,-1.5710477,2.4020343,-0.13747418,0.27409843,-0.32533792,0.06110943,-0.005698227,-0.1233512,0.076614454,0.34476504,-9.251195,0.8537928,47.67345,-1.0601892,-1.8589523,-3.4464543,-0.24764155,-0.04947915,-0.3695093,26.1875,27.0625,26.1875,29.25,30.375,30.875
0.3280522,-0.40769184,-1.7622759,-1.382481,-0.06329519,0.028552426,-0.103071205,-0.3988233,-0.32759222,0.05991933,-3.0774713,0.62810194,-0.00023866803,-0.15911065,0.0060071526,0.0017183978,0.0061503514,-0.0039937636,-0.010732567,0.42465708,-1.4263312,1.958258,-2.1007273,-1.5710591,2.401756,-0.14037049,0.2722097,-0.32816517,0.062084924,-0.0045890408,-0.12943181,0.038307227,0.28730422,-9.289503,0.9545008,47.70659,-0.94142914,-1.7234831,-3.4482121,-0.27110884,-0.050080836,-0.2843865,26.1875,27.0625,26.1875,29.25,30.375,30.875
0.33005244,-0.7231711,-1.8195937,-1.3676015,-0.03783897,0.016787954,-0.10224453,-0.39911613,-0.32760006,0.05989674,-3.0774798,0.6281193,-0.0004091366,-0.15905707,0.0057573915,0.0013046553,0.0056719375,-0.004767784,-0.0034909213,0.42438096,-1.4257445,1.9576086,-2.1005838,-1.5709871,2.40149,-0.14020558,0.27318293,-0.3284379,0.061895728,-0.0038519094,-0.13650972,0.076614454,0.2681506,-9.308656,0.83813137,47.701214,-0.88979065,-1.5450747,-3.4606795,-0.322142,-0.055379502,-0.22271192,26.1875,27.0625,26.1875,29.25,30.375,30.875
0.33205244,-0.62222856,-1.2356031,-1.1621046,-0.026974764,0.016852487,-0.1042616,-0.39946428,-0.32758808,0.05990822,-3.0774674,0.6280936,-0.00025869807,-0.16084151,0.005467834,0.0011928214,0.0036682363,-0.002377108,0.0019007978,0.42411643,-1.4251926,1.9569424,-2.100537,-1.5710586,2.4012115,-0.14154676,0.2749906,-0.32953882,0.058169007,-0.0030166958,-0.14324328,0.1340753,0.17238252,-9.385271,0.9186956,47.716442,-0.8847997,-1.6008618,-3.6609025,-0.27515638,-0.048403516,-0.12969504,26.1875,27.0625,26.1875,29.25,30.375,30.875
0.33405176,-0.73753726,-1.1281492,-1.0924572,-0.022888327,0.009060895,-0.102455586,-0.3997945,-0.32759818,0.059935044,-3.0775154,0.62816024,-0.00026074372,-0.16256098,0.0035992996,0.0019642026,0.0017579932,0.0007279963,0.004151064,0.4238296,-1.4246634,1.9562477,-2.100406,-1.5710105,2.4009604,-0.13970251,0.2775405,-0.3339485,0.056417357,-0.0025624232,-0.14364764,-0.019153614,0.11492168,-9.346964,0.9164598,47.691364,-1.1295867,-1.6240025,-3.6708343,-0.29045466,-0.054756094,-0.07993235,26.1875,27.0625,26.1875,29.25,30.375,30.875
0.3360526,-1.3285809,-1.0309284,-1.1084691,-0.02334546,0.007784677,-0.09364631,-0.40010685,-0.3275851,0.059927586,-3.077463,0.6280915,-0.00027774286,-0.16382925,0.002724576,0.0027335172,0.0005093482,0.0017732134,0.0025394976,0.42357776,-1.4240891,1.9555768,-2.1002624,-1.5710582,2.400673,-0.13946824,0.2790637,-0.3377873,0.05725803,-0.0018658821,-0.14180143,-0.17238252,0.095768064,-9.308657,0.95226496,47.705692,-1.0893483,-1.7082659,-3.4468536,-0.28056443,-0.059094932,-0.062244967,26.1875,27.0625,26.1875,29.25,30.375,30.875
0.33805177,-0.9403545,-0.5289115,-1.553537,-0.001462871,0.025756875,-0.0948664,-0.40044972,-0.32758194,0.059940513,-3.0775113,0.6281058,-0.0002691337,-0.16559374,0.0029797282,0.0014817964,0.0005170295,0.0014638797,-0.0037879522,0.4232647,-1.4235363,1.9548944,-2.100167,-1.5710219,2.400363,-0.14130206,0.28358436,-0.33970955,0.054951195,-0.0017478133,-0.1373063,-0.05746084,0.095768064,-9.346964,0.95226496,47.70032,-1.0640973,-1.8270301,-3.4446213,-0.27637023,-0.050004102,-0.09292449,26.1875,27.0625,26.1875,29.25,30.375,30.875
0.3400517,-1.4151802,-1.273409,-1.4576374,0.005796963,0.036052015,-0.0927949,-0.40079153,-0.3275837,0.059964128,-3.0775223,0.62812877,-0.00017419233,-0.16743875,0.0024462035,0.0011264217,-0.00049224036,0.0033245583,-0.009424553,0.42300102,-1.4229945,1.9542001,-2.1000726,-1.5710462,2.4001126,-0.14179832,0.28681532,-0.34204933,0.051947273,-0.0015927562,-0.13216442,-0.15322891,0.13407528,-9.500193,0.94331104,47.701214,-1.0331955,-1.9974674,-3.4324856,-0.24455446,-0.060198925,-0.13093412,26.1875,27.0625,26.1875,29.25,30.375,30.875
0.34205163,-1.2429942,-1.3262242,-1.1539663,-0.032320816,0.066016436,-0.09548687,-0.40111387,-0.3275758,0.059978314,-3.077507,0.62822646,-0.00020103216,-0.1696969,0.0024447266,0.002512353,-0.0020428833,0.006378489,-0.017145853,0.42271242,-1.4224551,1.9535159,-2.0999167,-1.5710338,2.3998873,-0.14359897,0.28701305,-0.34556386,0.05184629,-0.0014371164,-0.1262426,-0.2681506,0.21068975,-9.442732,0.8940802,47.701214,-1.0601068,-1.8243341,-3.4061108,-0.2456823,-0.0774277,-0.2159633,26.1875,27.0625,26.1875,29.25,30.375,30.875
0.34405395,-1.881253,-1.4130075,-1.439716,-0.044263,0.06888875,-0.091836974,-0.40141588,-0.32756078,0.059939716,-3.0774562,0.62825793,-0.00029929573,-0.16949242,0.002977232,0.00086350186,-0.00075183914,0.0036353397,-0.0230438,0.42243582,-1.4218534,1.9528946,-2.0998209,-1.5710338,2.3996372,-0.1442125,0.28980398,-0.34510455,0.051629756,-0.0014945532,-0.120958075,-0.61291564,0.22984336,-9.481039,0.8918391,47.67166,-0.98340815,-1.8630413,-3.4081526,-0.2025204,-0.091765165,-0.26677525,26.1875,27.0625,26.1875,29.25,30.375,30.875
0.3460523,-2.3478332,-2.0319536,-1.6366979,-0.044394124,0.0888276,-0.08956909,-0.40175563,-0.3275761,0.05996811,-3.0775044,0.62822944,-0.00021244568,-0.16969314,0.0036095402,0.00022173094,-0.00023172532,0.0031651664,-0.026123954,0.4221837,-1.4213128,1.9521898,-2.099726,-1.5710338,2.3993616,-0.14519328,0.2905332,-0.34445062,0.050890446,-0.0017664597,-0.11885868,-0.61291564,0.28730422,-9.519346,1.0552088,47.667187,-0.99657285,-1.7871084,-3.7604709,-0.20526098,-0.08172068,-0.3378505,26.1875,27.0625,26.1875,29.25,30.375,30.875
0.3480524,-2.7065074,-2.2048428,-1.6727961,-0.05547738,0.0926982,-0.09687551,-0.4020957,-0.3275584,0.05996184,-3.0774488,0.62839407,-0.00026284924,-0.17028406,0.003483658,-8.124722e-06,-0.00025999566,0.003622583,-0.030228766,0.42187157,-1.4207118,1.9514836,-2.0995824,-1.5710338,2.3991597,-0.14517146,0.29186183,-0.34543648,0.050120957,-0.0019335154,-0.11473119,-0.51714754,0.24899697,-9.634268,0.9410752,47.713753,-1.0462542,-1.7289525,-3.8762321,-0.18590066,-0.07703005,-0.40620798,26.1875,27.0625,26.1875,29.25,30.375,30.875
0.35005245,-2.4930687,-1.8469253,-1.4172966,-0.07081357,0.105421096,-0.10641362,-0.40244764,-0.32756332,0.05997372,-3.0774357,0.6284291,-0.0002129547,-0.17288527,0.0037833175,0.0016825501,-0.0019468314,0.00838236,-0.03303885,0.4216072,-1.4201113,1.9507421,-2.0994637,-1.5710586,2.3989193,-0.14741714,0.29100817,-0.3481523,0.048655897,-0.002347819,-0.11416492,-0.63206923,0.2681506,-9.557653,0.9254084,47.664497,-1.011625,-1.6635299,-3.8341765,-0.15140545,-0.090480015,-0.45817044,26.1875,27.0625,26.1875,29.25,30.375,30.875
0.35205236,-2.560099,-1.9455557,-1.5187286,-0.05635757,0.100772224,-0.09657035,-0.4027794,-0.32753348,0.059966903,-3.0773957,0.6285328,-0.00019251618,-0.17396194,0.0024929985,0.0025965434,-0.003160379,0.010861193,-0.028346054,0.42129594,-1.419559,1.950106,-2.0993798,-1.5710825,2.3986783,-0.14584245,0.29198515,-0.35139936,0.048162725,-0.0022612272,-0.117281705,-0.80445176,0.24899697,-9.653421,0.9791215,47.6636,-1.1862152,-1.5859201,-3.7576602,-0.13099892,-0.06761109,-0.4979273,26.1875,27.0625,26.1875,29.25,30.375,30.875
0.35405192,-2.2067893,-1.7489899,-1.8702371,-0.032200698,0.092304684,-0.10384561,-0.4031227,-0.3275603,0.059975103,-3.0774472,0.62857693,-0.00019686576,-0.17521642,0.0019957833,0.0023240398,-0.0033068943,0.010981846,-0.021117408,0.42103192,-1.4189574,1.949376,-2.099284,-1.5710343,2.3984356,-0.14585385,0.295153,-0.35452542,0.047953,-0.0021807079,-0.124520294,-0.6703765,0.2681506,-9.825804,0.9365982,47.68599,-1.1132872,-1.455611,-3.7569427,-0.110483155,-0.09033796,-0.45152646,26.1875,27.0625,26.1875,29.25,30.375,30.875
0.35605186,-2.175416,-1.6684887,-1.9611512,-0.030624915,0.08057603,-0.09922853,-0.40350184,-0.32753953,0.059997417,-3.0774589,0.62872887,-0.00011022189,-0.17751299,0.0018233578,0.0023742674,-0.003742541,0.011474341,-0.013680328,0.42068335,-1.4183912,1.9486569,-2.0992005,-1.5710338,2.3981807,-0.1473526,0.29901308,-0.3592828,0.048218075,-0.00198477,-0.13345413,-0.36391866,0.15322891,-9.768343,0.9835985,47.707485,-1.1476755,-1.7804432,-3.500734,-0.092493735,-0.08837259,-0.3901064,26.1875,27.0625,26.1875,29.25,30.375,30.875
0.35805184,-2.0070927,-1.4412293,-1.5850466,-0.029256374,0.075218745,-0.09264483,-0.4038791,-0.3275443,0.060025565,-3.077477,0.628747,3.140509e-05,-0.17897327,0.001806459,0.0020736647,-0.0033940384,0.011013161,-0.005228966,0.4204071,-1.4178017,1.9478973,-2.099116,-1.5710706,2.397914,-0.14825721,0.30236942,-0.3627656,0.048898958,-0.0021087984,-0.14280833,-0.49799395,0.22984336,-9.691729,0.90750587,47.691364,-1.1647891,-1.7848644,-3.4430606,-0.07990451,-0.09137481,-0.28944796,26.1875,27.0625,26.1875,29.25,30.375,30.875
0.36005166,-1.3932481,-1.0474977,-1.6672597,-0.016803226,0.08049833,-0.09951857,-0.40423343,-0.32755798,0.06003911,-3.0775344,0.6286963,3.086879e-05,-0.17842609,0.0022085584,0.0010589898,-0.0018766572,0.0087597,0.0017428743,0.420119,-1.4172006,1.9471492,-2.098996,-1.5710343,2.3975873,-0.14806674,0.3038096,-0.36249173,0.04986509,-0.002567161,-0.14958945,-0.61291564,0.30645782,-9.634268,0.94331104,47.691364,-1.2861834,-1.8496575,-3.569567,-0.054373525,-0.07781154,-0.19042897,26.1875,27.0625,26.1875,29.25,30.375,30.875
0.36205178,-1.7247283,-1.1105429,-1.7814484,-0.0050710053,0.06626952,-0.1019149,-0.40457383,-0.3275493,0.060021695,-3.0775204,0.62865746,4.528779e-05,-0.17816372,0.002738097,-0.00018648381,0.00055043935,0.0049785688,0.0031717417,0.41984105,-1.416586,1.9464668,-2.098923,-1.5710586,2.3972874,-0.1482141,0.3069191,-0.36405393,0.052757688,-0.003237797,-0.15116417,-0.36391866,0.1340753,-9.595961,0.9298854,47.701214,-1.0839556,-1.7722561,-3.6561246,-0.050659616,-0.08752552,-0.13718265,26.1875,27.0625,26.1875,29.25,30.375,30.875
0.36405173,-1.3729755,-1.1887933,-1.1695055,-0.034628183,0.06824259,-0.097147636,-0.40497082,-0.3275519,0.060070593,-3.0775714,0.62874526,0.00022196432,-0.18011782,0.0037817163,0.00025499208,-0.00017110222,0.006580397,-0.003491511,0.41952989,-1.4160223,1.9456886,-2.0988395,-1.5710706,2.3970249,-0.15151455,0.30733106,-0.3655393,0.05207334,-0.0032145462,-0.1478013,-0.40222588,0.1340753,-9.519346,0.9634547,47.686886,-0.9982607,-1.8194126,-3.76374,-0.035193995,-0.08557053,-0.14032348,26.1875,27.0625,26.1875,29.25,30.375,30.875
0.36605248,-0.8565775,-1.5014406,-0.89716023,-0.042223774,0.074127704,-0.10458062,-0.40533394,-0.32751715,0.060056455,-3.0775123,0.62883073,0.00022505899,-0.18068558,0.0034281693,0.00039652578,-4.283291e-05,0.006949393,-0.0077744666,0.41919434,-1.4153969,1.9449776,-2.0987318,-1.5711063,2.3967507,-0.15097156,0.3085761,-0.36759442,0.05259594,-0.0034856552,-0.14297417,-0.5554548,0.1340753,-9.193734,0.9612189,47.71465,-1.1604918,-1.7534606,-3.7725773,0.0015136856,-0.060625322,-0.18287742,26.1875,27.0625,26.1875,29.25,30.375,30.875
0.3680524,-0.81995416,-1.0717218,-0.98904663,-0.028639957,0.05140526,-0.09163344,-0.40569022,-0.3275114,0.060059316,-3.0775352,0.6288388,0.0002739221,-0.1819404,0.0028079746,4.4981673e-05,5.137566e-05,0.0063614193,-0.014177121,0.41889426,-1.4148064,1.9442757,-2.0986598,-1.5711063,2.3964531,-0.15078706,0.31244975,-0.3715743,0.05327961,-0.0033312864,-0.13638538,-0.22984336,0.1340753,-9.270349,0.97240865,47.69763,-1.173767,-1.7424941,-3.7373962,0.039619043,-0.080287956,-0.2730291,26.1875,27.0625,26.1875,29.25,30.375,30.875
0.3700517,-0.5146585,-0.47367316,-0.98096704,-0.016645467,0.030032955,-0.10453293,-0.40607077,-0.32751012,0.060080644,-3.077544,0.6289366,0.00033259875,-0.18377827,0.0021329825,0.0024762873,-0.0012345654,0.0092693055,-0.016193207,0.41858292,-1.414195,1.9434961,-2.0985386,-1.5711063,2.396202,-0.15085961,0.31172946,-0.37719068,0.056437057,-0.0033348869,-0.13444039,-0.05746084,0.05746084,-9.174581,0.95897776,47.703903,-1.2306724,-1.7031463,-3.5449214,0.043930195,-0.08982517,-0.3106043,26.1875,27.0625,26.1875,29.25,30.375,30.875
0.37205255,-0.32165483,-0.65299314,-0.6067423,-0.003545222,0.015662612,-0.09658342,-0.40646484,-0.32754937,0.060118146,-3.0776334,0.629011,0.0004901718,-0.18552715,0.0020927219,0.0026777033,-0.0015665715,0.010364905,-0.017948927,0.4183193,-1.4135818,1.9426941,-2.098491,-1.571083,2.395974,-0.15193242,0.31400087,-0.38039678,0.056239184,-0.0034627614,-0.13375627,-0.038307227,0.13407528,-9.021352,1.0283576,47.686886,-1.2828077,-1.6040816,-3.4579377,0.059484914,-0.082180135,-0.32037246,26.1875,27.0625,26.1875,29.25,30.375,30.875
