Tylouw/Master_Thesis_Code/training_data/batch_1/big_rod_t0.2/sample_13_session_1.csv
timestamp[s],tcp_force_x[N],tcp_force_y[N],tcp_force_z[N],tcp_force_rx[Nm?],tcp_force_ry[Nm?],tcp_force_rz[Nm?],tcp_pose_x[m],tcp_pose_y[m],tcp_pose_z[m],tcp_pose_rx[rot_vec_x],tcp_pose_ry[rot_vec_y],tcp_pose_rz[rot_vec_z],tcp_velo_x[m/s],tcp_velo_y[m/s],tcp_velo_z[m/s],tcp_velo_rx[rot_vec_x/s],tcp_velo_ry[rot_vec_y/s],tcp_velo_rz[rot_vec_z/s],q1[rad],q2[rad],q3[rad],q4[rad],q5[rad],q6[rad],qd1[rad/s],qd2[rad/s],qd3[rad/s],qd4[rad/s],qd5[rad/s],qd6[rad/s],tool_acc_x,tool_acc_y,tool_acc_z,current_of_whole_robot[A],voltage_of_whole_robot[V],current_J1[A],current_J2[A],current_J3[A],current_J4[A],current_J5[A],current_J6[A],temp_J1[C],temp_J2[C],temp_J3[C],temp_J4[C],temp_J5[C],temp_J6[C]
6.95989e-07,0.18568803,-0.727372,-0.27604342,-0.042345073,0.048350167,-0.021106943,-0.37290338,-0.32823148,0.059961203,-3.078519,0.6249314,-0.00024314929,0.0025264774,0.0011559444,-0.003567298,0.0033655579,-0.0073968205,-2.5451966e-06,0.44813824,-1.4708732,2.0095484,-2.107703,-1.5706376,2.4230914,0.0,0.0033603916,0.0044121924,0.00035145317,0.0001818788,-0.0,0.11492168,0.17238252,-9.002198,0.7105615,47.73077,-0.16805483,-2.823039,-2.4665556,-0.5235746,0.09844862,-0.09012689,26.1875,27.0,26.1875,29.1875,30.3125,30.75
0.0020530801,0.17637275,-0.24373418,-0.31454998,-0.04519524,0.046513133,-0.024533153,-0.37288448,-0.32820526,0.059929572,-3.0784657,0.62494004,-0.00031688376,-0.00036952802,-0.00024291177,-0.0026242745,-0.0012393713,0.0021381576,2.0970127e-07,0.44811416,-1.4708614,2.009609,-2.1077073,-1.5706495,2.4230795,0.0,0.0030207504,0.0051255734,-0.010611005,0.00017739763,-0.0,0.019153614,0.21068975,-9.021352,0.7172743,47.73614,-0.1447582,-2.6969547,-2.4132128,-0.47409433,0.09372022,-0.08413763,26.1875,27.0,26.1875,29.1875,30.3125,30.75
0.004052538,-0.20354737,-0.5032041,-0.5400087,-0.024448484,0.029902551,-0.012043642,-0.37287965,-0.32819408,0.059916977,-3.0783982,0.6249258,-0.00030343575,-0.0014703573,-0.0007739135,-0.0022404022,-0.0027637274,0.0052995514,6.950679e-06,0.44813824,-1.4708374,2.009609,-2.1076963,-1.5707096,2.4231033,0.0,0.0031612965,0.004864956,-0.014000642,0.0001731314,-5.558109e-06,0.0,0.19153613,-8.90643,0.7284641,47.73077,-0.20233227,-2.9836516,-2.570805,-0.37020952,0.099614546,-0.08020906,26.1875,27.0,26.1875,29.1875,30.3125,30.75
0.006052644,0.44223303,-0.27879328,-0.62160766,-0.0062643704,0.02108306,-0.012614292,-0.37290442,-0.32822108,0.0599188,-3.0784848,0.62480867,-0.00023854456,-0.0008092601,-0.00045416952,-0.0017929402,-0.0014576507,0.0026021092,1.1888218e-06,0.44815028,-1.4708017,2.0095842,-2.1077774,-1.5706857,2.4230313,0.0,0.0026978333,0.0031710356,-0.008846258,0.00017286472,-3.629048e-07,0.019153614,0.19153613,-8.944737,0.75084364,47.70659,-0.17068604,-3.011391,-2.5355985,-0.39032757,0.10028424,-0.094974,26.1875,27.0,26.1875,29.1875,30.3125,30.75
0.0080519095,-0.027723983,0.2933919,-1.0601015,0.02910672,-0.020160215,-0.0029437686,-0.3728892,-0.32821825,0.05991887,-3.078464,0.6249586,-0.00034407922,-0.00012186047,-0.00011981133,-0.0013688712,-0.00037129162,0.00037133228,8.404001e-08,0.4481262,-1.470814,2.0095837,-2.1077168,-1.5706376,2.4231033,0.0,0.0018933344,0.0020825907,-0.004472077,0.00016800805,-2.3695092e-08,-0.05746084,0.19153613,-9.040505,0.800085,47.73525,-0.1418713,-2.9718714,-2.4979687,-0.4378382,0.08876833,-0.076299176,26.1875,27.0,26.1875,29.1875,30.3125,30.75
0.0100520775,0.71662325,1.0771328,-1.2112454,0.026867775,-0.007809184,-0.01571741,-0.37286928,-0.3282257,0.059912924,-3.0784945,0.624888,-0.0003421943,0.00015311067,3.93949e-05,-0.0011834875,0.00021364637,-0.00082345423,-4.5539153e-05,0.44815028,-1.470838,2.0096314,-2.1077511,-1.5706257,2.4230795,-4.536445e-05,0.0017120942,0.0013424875,-0.0022204574,0.00016206125,-1.54712e-09,-0.038307227,0.17238252,-9.174581,0.7284641,47.723602,-0.5330774,-2.3121223,-2.9891932,-0.48560634,0.09386328,-0.15062581,26.1875,27.0,26.1875,29.1875,30.3125,30.75
0.01205209,0.831775,0.0017572545,-1.4664705,0.01269453,0.0187514,-0.01647448,-0.37287354,-0.32820636,0.059886206,-3.0784397,0.62483835,-0.00041171227,-4.692472e-05,3.1149411e-06,-0.0034442858,0.0023680967,-0.0052986164,-0.00013643185,0.44812614,-1.4707761,2.0096195,-2.1077273,-1.5706495,2.4230313,-0.00016007143,0.008065991,-0.0005599734,-0.0017051133,0.00015643351,-2.1814665e-05,0.019153614,0.13407528,-9.32781,0.7530795,47.71286,-0.69653594,-2.2408395,-3.207098,-0.477219,0.09878614,-0.18326545,26.1875,27.0,26.1875,29.1875,30.3125,30.75
0.014052021,-0.47683597,-0.84788513,-1.4261308,-0.028996196,0.029884258,-0.022610672,-0.37288177,-0.3281873,0.059874468,-3.078375,0.6248434,-0.0003848767,-0.0053381273,0.0013159441,-0.0038059675,0.0025154278,-0.0056375475,-1.6269352e-05,0.44812348,-1.470749,2.0096166,-2.1077273,-1.5707096,2.4230402,-0.007447401,0.015953813,-0.008470703,-0.0013144222,0.000151178,-0.007423405,-0.1340753,0.11492168,-9.576807,0.78217715,47.701214,-0.41867152,-2.7943187,-3.0104918,-0.48081887,0.096663505,-0.18752211,26.1875,27.0,26.1875,29.1875,30.3125,30.75
0.016051788,-0.9869896,-1.266469,-1.7589061,-0.068905294,0.06474904,-0.03070035,-0.37288794,-0.3281926,0.05985408,-3.0783894,0.62494105,-0.0004718449,-0.006149295,0.0017604678,-0.0036199843,0.0024434328,-0.005486384,0.0041620773,0.4480871,-1.470701,2.0096161,-2.1077511,-1.5706495,2.4230628,-0.009018346,0.016337512,-0.009406031,-0.0009305883,0.00014626347,-0.013172182,-0.2873042,0.15322891,-9.653421,0.784413,47.686886,-0.35229415,-2.6974847,-3.0085115,-0.48408538,0.099544905,-0.10670663,26.1875,27.0,26.1875,29.1875,30.3125,30.75
0.018052574,-1.657722,-2.3310094,-1.8768789,-0.08082195,0.09878974,-0.025013862,-0.37286124,-0.32819042,0.059839614,-3.078368,0.6248028,-0.0006028021,-0.0053309756,0.0019760504,-0.0038830438,0.0028904995,-0.0063975006,0.0030339933,0.44809917,-1.4706773,2.0096042,-2.1076672,-1.5706376,2.4229913,-0.008675923,0.0155373905,-0.008023994,-0.00049727707,0.00014165879,-0.011702767,-0.38307226,0.30645782,-9.80665,0.7978386,47.70032,-0.46838015,-2.4452689,-3.3946607,-0.4936571,0.10100492,-0.12995814,26.1875,27.0,26.1875,29.1875,30.3125,30.75
0.020052597,-1.6958847,-1.9569649,-1.6884423,-0.09484854,0.1277165,-0.040489573,-0.37289646,-0.32818195,0.059857883,-3.0783956,0.6248475,-0.0005287996,-0.0062071593,0.0018798531,-0.004161288,0.0032899692,-0.007283568,0.0014777301,0.44805118,-1.4706883,2.00958,-2.107691,-1.5706376,2.4229677,-0.009308038,0.018148307,-0.010423351,0.00026287563,0.00016295239,-0.010777019,-0.45968673,0.36391866,-9.864111,0.800085,47.70032,-0.66231227,-2.3877606,-3.5008988,-0.50676984,0.11110467,-0.17098905,26.1875,27.0,26.1875,29.1875,30.3125,30.75
0.022051759,-1.6846491,-1.7848015,-1.5889834,-0.070188455,0.12054354,-0.055973876,-0.37289226,-0.32819003,0.059844352,-3.0783596,0.6248212,-0.0005505237,-0.008186773,0.0019927698,-0.0038251446,0.0028712805,-0.0064754696,0.00022352584,0.44808632,-1.4706395,2.0095546,-2.1076791,-1.5706614,2.422991,-0.011337563,0.020425173,-0.013716233,0.00036871314,0.00018293296,-0.011550077,-0.59376204,0.3256114,-9.825804,0.73069996,47.652847,-0.664323,-2.4656706,-3.3845577,-0.50294495,0.10107422,-0.19911897,26.1875,27.0,26.1875,29.1875,30.3125,30.75
0.02405169,-1.7300584,-1.4022279,-1.9733676,-0.044421986,0.09405155,-0.05902638,-0.3729021,-0.3281863,0.059805322,-3.0783513,0.6248381,-0.0006849323,-0.009248303,0.0019908587,-0.0032949895,0.0021252763,-0.0052947425,0.0017571934,0.448038,-1.4705437,2.0095417,-2.107691,-1.5706137,2.4229543,-0.012404177,0.020715019,-0.0152091505,0.00018414654,0.00033743304,-0.014149702,-0.7086837,0.38307226,-9.653421,0.7597976,47.66987,-0.67051005,-2.3790498,-3.4454203,-0.5131675,0.101652354,-0.20572151,26.1875,27.0,26.1875,29.1875,30.3125,30.75
0.02605224,-1.6032377,-1.2526857,-1.8074287,-0.032625597,0.07781541,-0.07200705,-0.37294203,-0.3281861,0.05982838,-3.078349,0.6248175,-0.0006049555,-0.010529589,0.001977936,-0.0022697826,0.00081117306,-0.0032429046,0.0024429576,0.4480255,-1.4705199,2.0094573,-2.1076672,-1.5706495,2.4229293,-0.013741347,0.020105673,-0.016854778,1.869163e-05,0.00062840123,-0.016172284,-0.7086837,0.36391866,-9.691729,0.6725152,47.67345,-0.7369344,-2.3358142,-3.4389482,-0.51231563,0.11670156,-0.20939928,26.1875,27.0,26.1875,29.1875,30.3125,30.75
0.02805238,-1.464542,-1.3251226,-1.8235854,-0.028232181,0.07523834,-0.08919244,-0.37294626,-0.32819468,0.059803367,-3.0783787,0.6247471,-0.0006699249,-0.011720035,0.0017080802,-0.0021286178,-0.0009063069,-0.0035196894,0.0028432165,0.44801286,-1.4704593,2.0094564,-2.107703,-1.5706128,2.422869,-0.015443514,0.021769777,-0.01900153,1.2204298e-06,0.0022899748,-0.018276637,-0.7278373,0.28730422,-9.615114,0.69041777,47.682407,-0.7247964,-2.3086987,-3.4759433,-0.5052916,0.097196385,-0.19657224,26.1875,27.0,26.1875,29.1875,30.3125,30.75
0.030052483,-1.4085782,-0.79808974,-1.5801277,-0.036193006,0.078968704,-0.111070566,-0.3729735,-0.32817364,0.05978178,-3.078306,0.62482864,-0.0007220662,-0.012586186,0.0016830143,-0.0021096293,-0.001384393,-0.0035574448,0.002367044,0.4479646,-1.4703753,2.0094082,-2.1076791,-1.5706366,2.422881,-0.01648384,0.02309645,-0.020502102,7.968534e-08,0.0027324546,-0.01884077,-0.7278373,0.19153613,-9.749189,0.7329411,47.672558,-0.7639571,-2.2847204,-3.4436574,-0.5094055,0.09841074,-0.18085209,26.1875,27.0,26.1875,29.1875,30.3125,30.75
0.032054503,-1.3253989,-0.992398,-1.4310225,-0.018978348,0.09084743,-0.12177478,-0.37300295,-0.3281966,0.05980514,-3.0784066,0.624792,-0.00068932405,-0.014020257,0.0015242008,-0.0016193814,-0.0018861493,-0.0024041815,0.0012876237,0.44794026,-1.4703748,2.0093596,-2.107703,-1.5705765,2.4228208,-0.017454218,0.024445968,-0.023106955,5.202883e-09,0.0026810523,-0.018729644,-0.57460845,0.11492168,-9.672575,0.78217715,47.71286,-0.7225385,-2.3025904,-3.4011636,-0.506271,0.07333492,-0.17351107,26.1875,27.0,26.1875,29.1875,30.3125,30.75
0.034051776,-1.4311414,-0.8025976,-1.3079304,0.001553909,0.09619334,-0.13310835,-0.37305543,-0.32819387,0.059808806,-3.0784025,0.62479234,-0.0006350882,-0.015339177,0.0013853335,-0.001079375,-0.0023725918,-0.0011525507,1.5879752e-05,0.44790387,-1.4703026,2.0092747,-2.1077154,-1.5706009,2.4227853,-0.018317923,0.025461469,-0.025461214,3.3971112e-10,0.002573123,-0.018319745,-0.5363012,-0.038307227,-9.576807,0.7866488,47.71465,-0.73230624,-2.2497091,-3.3670397,-0.4900512,0.095618464,-0.1874041,26.1875,27.0,26.1875,29.1875,30.3125,30.75
0.036052067,-0.7279071,0.22763745,-1.1572878,0.0036064521,0.10169518,-0.1578399,-0.373087,-0.32819632,0.05982053,-3.0783944,0.62486714,-0.00062062946,-0.016624412,0.00110515,-0.00014811996,-0.0033983309,0.00073850737,-0.0006347544,0.44787973,-1.4702665,2.0092027,-2.107691,-1.5706009,2.422809,-0.019026766,0.025592053,-0.027740847,2.218071e-11,0.0026741058,-0.018376742,-0.4405331,-0.11492168,-9.519346,0.78888994,47.729877,-0.7659289,-2.2657526,-3.3548036,-0.5036354,0.08497496,-0.19655657,26.1875,27.0,26.1875,29.1875,30.3125,30.75
0.038052063,-0.6634942,-0.1477832,-1.3199353,0.030750964,0.0805972,-0.14950274,-0.3731181,-0.32818568,0.05980013,-3.0783799,0.624903,-0.00063599343,-0.017614841,0.0011290234,9.949701e-05,-0.0037903239,0.0012834668,-0.000872558,0.44783136,-1.4701942,2.0091784,-2.1077268,-1.5706009,2.4227848,-0.02004762,0.026533639,-0.029343743,1.4482419e-12,0.0027874976,-0.01915895,-0.24899697,-0.095768064,-9.519346,0.7978386,47.723602,-0.6949239,-2.1810114,-3.3596919,-0.49115676,0.082130484,-0.20743544,26.1875,27.0,26.1875,29.1875,30.3125,30.75
0.040052023,-0.44843718,0.11240937,-1.4458494,0.023402795,0.051018413,-0.15142098,-0.37315416,-0.3281777,0.059792414,-3.0783975,0.6249256,-0.0006854385,-0.018749744,0.0010583976,0.00023214745,-0.0043889456,0.0015013707,-0.00086890557,0.44775897,-1.4701338,2.0091298,-2.1077268,-1.5705646,2.4227242,-0.021242796,0.028080199,-0.031346656,9.455985e-14,0.0032277869,-0.020357275,-0.19153613,-0.1340753,-9.442732,0.7530795,47.70032,-0.7447394,-2.1660736,-3.329854,-0.48126066,0.0680044,-0.19631723,26.1875,27.0,26.1875,29.1875,30.3125,30.75
0.04205196,-0.31729755,-0.2790565,-1.4538234,0.019160366,0.023741398,-0.12761676,-0.37320402,-0.32817608,0.05980453,-3.0783846,0.6249226,-0.0006204606,-0.019583734,0.0007336699,0.00025486684,-0.005287622,0.0012994297,-0.00017923971,0.4477348,-1.4700733,2.009033,-2.1077154,-1.5706004,2.4227,-0.021993931,0.029693063,-0.03317055,6.1740833e-15,0.004121215,-0.021798471,-0.1340753,-0.095768064,-9.385271,0.784413,47.687782,-0.6744566,-2.220823,-3.31945,-0.49190977,0.059828717,-0.18954907,26.1875,27.0,26.1875,29.1875,30.3125,30.75
0.04405187,0.2853243,-0.25097978,-1.4431059,-0.0045106146,0.030996263,-0.1407119,-0.3732198,-0.32817075,0.059798893,-3.078382,0.62482584,-0.00066585443,-0.020469163,0.00080701493,0.0005489094,-0.0055447263,0.0019922997,0.00027206587,0.4477104,-1.4700252,2.0089848,-2.1076791,-1.5706004,2.4226155,-0.022886682,0.030307755,-0.03452089,4.0312355e-16,0.0040486543,-0.023141623,-0.076614454,-0.019153614,-9.423578,0.67475104,47.65912,-0.64234054,-2.1884785,-3.3142781,-0.4696407,0.075400926,-0.17072566,26.1875,27.0,26.1875,29.1875,30.3125,30.75
0.04605229,0.09536454,-0.8008094,-1.4575636,-0.015521283,0.036960486,-0.13691406,-0.37327912,-0.32817355,0.05980435,-3.0784063,0.6248493,-0.0006061728,-0.021745073,0.0010847882,0.00091015623,-0.005380244,0.0030917134,0.0005409779,0.44766203,-1.469953,2.0089014,-2.1077154,-1.5706009,2.4225788,-0.024139998,0.031204194,-0.036334902,2.6321086e-17,0.0034210929,-0.024661161,-0.038307227,0.076614454,-9.423578,0.800085,47.678825,-0.6295917,-2.097248,-3.3799696,-0.4808632,0.06289467,-0.15561129,26.1875,27.0,26.1875,29.1875,30.3125,30.75
0.048052397,-0.74461794,-1.5569597,-1.4477998,-0.024400022,0.029846555,-0.1236783,-0.37332836,-0.3281461,0.059813168,-3.0783951,0.6249438,-0.0005899985,-0.022948992,0.0011375535,0.0012177133,-0.0056076203,0.00400836,0.0001134482,0.44756567,-1.4699289,2.0088518,-2.107703,-1.5706009,2.4225428,-0.025196563,0.032303013,-0.038213946,-0.0001435567,0.0032255354,-0.025288416,-0.019153614,0.24899697,-9.442732,0.6769922,47.70032,-0.6782204,-2.0909603,-3.3742952,-0.47409463,0.05712211,-0.15070438,26.1875,27.0,26.1875,29.1875,30.3125,30.75
0.050051883,-0.679267,-1.4391218,-1.433065,-0.033900063,0.036459163,-0.11836413,-0.37336847,-0.3281526,0.059809614,-3.0783992,0.6249254,-0.00059008494,-0.023718774,0.0012771548,0.0012197758,-0.005775505,0.0040241904,0.0004575151,0.44754136,-1.4698445,2.0087674,-2.107703,-1.5706009,2.4225066,-0.02625196,0.033345103,-0.039371565,-0.00011551134,0.0033670329,-0.02668732,0.019153614,0.2681506,-9.442732,0.80456203,47.71286,-0.6392205,-1.9709072,-3.4178987,-0.46915683,0.07235445,-0.14921822,26.1875,27.0,26.1875,29.1875,30.3125,30.75
0.05205201,-0.53130704,-1.6997929,-1.472465,-0.037045483,0.037706025,-0.13599263,-0.373429,-0.32814986,0.059813283,-3.078392,0.6249619,-0.0005914777,-0.024822686,0.0013112136,0.0012466116,-0.006199355,0.004033406,0.00074137765,0.44748086,-1.469748,2.0086477,-2.1076791,-1.5706004,2.4224699,-0.027567703,0.03498889,-0.0412502,-7.364583e-05,0.0037407614,-0.028286314,0.019153614,0.30645782,-9.576807,0.7866488,47.717335,-0.6411486,-1.9992099,-3.4302988,-0.45782733,0.06159749,-0.12790018,26.1875,27.0,26.1875,29.1875,30.3125,30.75
0.054051965,0.49145186,-1.7386726,-1.5077125,-0.045344222,0.045466125,-0.12918803,-0.37347087,-0.3281575,0.05981026,-3.078453,0.6249152,-0.00058145996,-0.025743201,0.0013936376,0.0016575706,-0.0065355105,0.0049045538,0.0014130353,0.44743264,-1.4696879,2.0085995,-2.1077268,-1.5705642,2.4223847,-0.02850312,0.035382416,-0.042641997,-4.8085467e-06,0.0036646216,-0.029892232,-0.038307227,0.40222588,-9.519346,0.76874626,47.71554,-0.6326861,-1.950461,-3.4226189,-0.46256968,0.059188843,-0.12221061,26.1875,27.0,26.1875,29.1875,30.3125,30.75
0.056052446,-0.35763758,-1.5491333,-1.4904249,-0.056134507,0.016140496,-0.12264376,-0.37352142,-0.32814306,0.05980377,-3.0784066,0.6249252,-0.0005766062,-0.02689114,0.0012166133,0.0024266636,-0.0071214796,0.006604087,0.0017067064,0.44738436,-1.4695921,2.0085037,-2.107703,-1.5706009,2.4223487,-0.02906507,0.035612073,-0.044662144,-3.1396374e-07,0.0034525949,-0.030746281,-0.038307227,0.4405331,-9.576807,0.7978386,47.703007,-0.5865077,-1.9139228,-3.4387255,-0.44886446,0.06340357,-0.116637364,26.1875,27.0,26.1875,29.1875,30.3125,30.75
0.05805264,-0.25209054,-1.8202846,-1.5778633,-0.054890018,0.024616782,-0.12660086,-0.37356573,-0.32814324,0.059813883,-3.0784247,0.62489057,-0.0005866737,-0.027661448,0.00144774,0.0019750355,-0.006494686,0.0059918766,0.0016257387,0.44733602,-1.4695315,2.008406,-2.1076672,-1.5705885,2.4222765,-0.029990744,0.037749525,-0.045975212,-2.0499588e-08,0.0031495437,-0.031589255,-0.095768064,0.47884035,-9.672575,0.78217715,47.692257,-0.6614375,-1.8381809,-3.4763548,-0.44318092,0.07163698,-0.105481185,26.1875,27.0,26.1875,29.1875,30.3125,30.75
0.060051627,-0.5102335,-1.6762403,-1.6674438,-0.057541016,0.032070138,-0.1212636,-0.37364897,-0.32814056,0.059839185,-3.0784605,0.6249163,-0.00047204096,-0.028675344,0.001343442,0.0019218804,-0.006300343,0.006169883,0.0025175035,0.4472638,-1.4694709,2.0082867,-2.107691,-1.5706009,2.422216,-0.030536698,0.03975263,-0.048054148,-1.3384766e-09,0.0028954702,-0.03302467,-0.05746084,0.40222588,-9.615114,0.7709874,47.705692,-0.6440478,-1.901365,-3.484046,-0.44819316,0.08147165,-0.085762754,26.1875,27.0,26.1875,29.1875,30.3125,30.75
0.062052563,-0.879029,-2.2405915,-1.5602306,-0.04192465,0.043498706,-0.12058367,-0.3736837,-0.32813627,0.059824463,-3.0784776,0.6249202,-0.0005614811,-0.029376514,0.0011861926,0.0020242145,-0.006765689,0.006325768,0.003702861,0.44719157,-1.4693866,2.0082252,-2.1076791,-1.5705527,2.422144,-0.03110846,0.04080475,-0.049447585,-8.739296e-11,0.003243291,-0.034781575,-0.095768064,0.4213795,-9.576807,0.7530795,47.699425,-0.6493044,-1.8147737,-3.5164614,-0.4334468,0.08225821,-0.060457096,26.1875,27.0,26.1875,29.1875,30.3125,30.75
0.06405256,-1.1029052,-1.9049151,-1.5086894,-0.040443197,0.047789477,-0.1158489,-0.37375957,-0.3281368,0.059857547,-3.078511,0.62492687,-0.00046137764,-0.030067626,0.0009377759,0.0016717594,-0.0067869467,0.0053148433,0.0030256887,0.44713145,-1.4693378,2.008093,-2.1076672,-1.5705642,2.4220839,-0.03157185,0.04329989,-0.051480792,0.00043859435,0.0036993416,-0.03456694,-0.17238252,0.34476504,-9.615114,0.800085,47.692257,-0.6436506,-1.8731883,-3.520142,-0.42381525,0.0538245,-0.08644153,26.1875,27.0,26.1875,29.1875,30.3125,30.75
0.06605203,-0.5537169,-1.1201726,-1.3947679,-0.037325136,0.059299126,-0.13036466,-0.3738331,-0.32814488,0.059845954,-3.0785587,0.62495685,-0.00047848807,-0.031153617,0.0008482885,0.0021394286,-0.0071826396,0.0057272147,0.0011597236,0.44704723,-1.4692056,2.0079854,-2.107715,-1.570516,2.4220123,-0.03250072,0.04434748,-0.05389782,0.0012664899,0.0038764395,-0.033628732,-0.1340753,0.28730422,-9.442732,0.77545905,47.72092,-0.63195044,-1.8715631,-3.4101443,-0.4244596,0.07041642,-0.08611794,26.1875,27.0,26.1875,29.1875,30.3125,30.75
0.0680522,-0.87539446,-0.84317213,-1.2271792,-0.021677688,0.05130596,-0.123711854,-0.37388358,-0.3281394,0.05984054,-3.0785458,0.62493527,-0.00048300246,-0.032280196,0.000404171,0.0023690483,-0.007475645,0.0064232782,0.0013982033,0.44699916,-1.4691092,2.007889,-2.1077025,-1.5705279,2.4219525,-0.032655112,0.046242073,-0.05649828,0.0012179653,0.0038339675,-0.034019712,-0.15322891,0.21068975,-9.461885,0.7709874,47.70211,-0.6696053,-1.8616297,-3.4569721,-0.43191543,0.05215325,-0.09116404,26.1875,27.0,26.1875,29.1875,30.3125,30.75
0.07005235,-0.68171644,-0.74443376,-1.1684349,-0.010401699,0.054176107,-0.13155587,-0.37396717,-0.32814783,0.05987088,-3.0786169,0.6249875,-0.00041077926,-0.033061426,0.00043456323,0.0021765535,-0.007837863,0.006254098,0.0015677009,0.44691497,-1.4690489,2.007756,-2.107715,-1.5704921,2.421892,-0.03368207,0.04773288,-0.05760843,0.0008334611,0.0042337724,-0.03521555,-0.17238252,0.19153613,-9.442732,0.7463667,47.696735,-0.7181991,-1.8530556,-3.4351025,-0.42375067,0.057165198,-0.07597111,26.1875,27.0,26.1875,29.1875,30.3125,30.75
0.07205233,-0.68036276,-0.9860359,-1.1186787,-0.006101902,0.059284754,-0.11677536,-0.374017,-0.32815465,0.05986796,-3.0786226,0.6249492,-0.00038465258,-0.034698874,-4.2309202e-05,0.0030283101,-0.0087879235,0.008395181,0.001884646,0.44689062,-1.4689525,2.0076597,-2.1077268,-1.5705041,2.421843,-0.03421529,0.048805807,-0.060661454,0.00047211885,0.00415832,-0.03606344,-0.22984336,0.22984336,-9.404425,0.7642693,47.723602,-0.7661449,-1.8213968,-3.458015,-0.40232223,0.04945463,-0.08307638,26.1875,27.0,26.1875,29.1875,30.3125,30.75
0.0740525,-1.2198051,-0.88491696,-1.1314818,-0.006459356,0.04883187,-0.11836214,-0.37409773,-0.32813793,0.059886884,-3.0786147,0.62486976,-0.00030880995,-0.03616866,-0.0004549489,0.0029057688,-0.008691975,0.008459498,0.0033903709,0.4468186,-1.4688675,2.0075147,-2.107691,-1.5705522,2.4217227,-0.034684245,0.052172508,-0.06409349,0.0005198349,0.004037969,-0.038035247,-0.3256114,0.19153613,-9.308656,0.779936,47.65464,-0.77726686,-1.823936,-3.2838311,-0.38488597,0.060417883,-0.08369709,26.1875,27.0,26.1875,29.1875,30.3125,30.75
0.07605227,-1.0997059,-0.90944684,-1.0974978,-0.0068511623,0.057297803,-0.12230825,-0.37416667,-0.32816067,0.059897415,-3.0786743,0.6249218,-0.00032311102,-0.03597637,0.0002244657,0.0019876389,-0.007346309,0.0067493715,0.0023295055,0.44675815,-1.4687594,2.0073717,-2.1076906,-1.5704921,2.4216871,-0.035459984,0.05337613,-0.06335947,0.0007101013,0.003567266,-0.03774949,-0.38307226,0.095768064,-9.32781,0.78217715,47.679718,-0.7554922,-1.9367784,-3.421723,-0.3934211,0.07963855,-0.06554946,26.1875,27.0,26.1875,29.1875,30.3125,30.75
0.07805238,-1.3887296,-0.547082,-1.0285934,-0.011221913,0.047570605,-0.11883522,-0.37422422,-0.3281564,0.059883077,-3.0786636,0.62494,-0.00033820592,-0.037207797,-0.00016739283,0.0033025255,-0.008907877,0.008949691,-0.00038503975,0.44669792,-1.4686397,2.0072758,-2.1077025,-1.5704921,2.4216397,-0.036138833,0.05270366,-0.065727934,0.0010905878,0.004021567,-0.03571344,-0.24899697,0.21068975,-9.3661175,0.779936,47.658226,-0.8042401,-1.7175714,-3.4705563,-0.37392747,0.06683886,-0.10582383,26.1875,27.0,26.1875,29.1875,30.3125,30.75
0.08005241,-1.0662854,-0.5240381,-1.0530888,-0.008401905,0.053933818,-0.12837179,-0.3743314,-0.3281396,0.05990598,-3.0786793,0.6250011,-0.00025038072,-0.039794445,-0.00033731817,0.0046678437,-0.009581208,0.0101759685,-0.0017722752,0.4465773,-1.4685433,2.007117,-2.1077015,-1.5705041,2.4215553,-0.0381994,0.054811172,-0.07175263,0.003610772,0.004095695,-0.036383465,-0.34476504,0.11492168,-9.308656,0.7463667,47.66539,-0.7837932,-1.8030226,-3.1839519,-0.39117467,0.072861195,-0.12122516,26.1875,27.0,26.1875,29.1875,30.3125,30.75
0.08205621,-1.1537275,-0.44564086,-1.0817213,-0.004982141,0.050896984,-0.121683784,-0.37439808,-0.3281484,0.05989709,-3.0787044,0.62492883,-0.0002923748,-0.038282037,0.00058794225,0.0014170798,-0.006432824,0.0039103013,-0.0005769415,0.44651723,-1.4683979,2.006975,-2.1076896,-1.5704802,2.421447,-0.03847526,0.059263453,-0.06920532,0.0036237459,0.0039670304,-0.037855342,-0.38307226,0.1340753,-9.289502,0.7709874,47.63225,-0.799984,-1.8552537,-3.383093,-0.39622808,0.052885152,-0.11773157,26.1875,27.0,26.1875,29.1875,30.3125,30.75
0.08405261,-1.1598849,-0.6263572,-1.064111,-0.01810904,0.060026526,-0.11882922,-0.37446153,-0.32814714,0.059905756,-3.0787134,0.6248915,-0.000289935,-0.040434543,-0.0005147331,0.0035711091,-0.00850983,0.008641814,6.184394e-05,0.4464574,-1.4683022,2.006842,-2.1076543,-1.5704802,2.4213629,-0.03822288,0.05881045,-0.07357112,0.0032789146,0.003787841,-0.03823882,-0.2681506,0.15322891,-9.3661175,0.73741806,47.66808,-0.75928473,-1.9227055,-3.2994204,-0.38461688,0.07904853,-0.119705476,26.1875,27.0,26.1875,29.1875,30.3125,30.75
0.086051844,-1.3229334,-1.0554757,-1.0573672,-0.018506095,0.05991653,-0.12200602,-0.37455648,-0.32815456,0.059914093,-3.0787446,0.6249566,-0.00029488606,-0.041863292,-0.00036061858,0.0038928902,-0.008932714,0.009770021,-0.0014371601,0.44636083,-1.4681582,2.0066617,-2.107642,-1.570444,2.421303,-0.03971845,0.05995013,-0.07546846,0.0028385136,0.0036792425,-0.038233697,-0.38307226,0.15322891,-9.3661175,0.7486078,47.73077,-0.85229313,-1.6086953,-3.2308846,-0.3608337,0.062449172,-0.1335471,26.1875,27.0,26.1875,29.1875,30.3125,30.75
0.08805194,-1.0336883,-1.3627409,-1.3454722,-0.023350911,0.06558577,-0.12355404,-0.37462428,-0.32815924,0.05991945,-3.0787473,0.6249188,-0.0002435293,-0.043007854,-0.00010423521,0.00335005,-0.008400411,0.008615424,-0.0022962706,0.4463243,-1.4680492,2.0065296,-2.107642,-1.5704678,2.4212427,-0.04123997,0.06302078,-0.07770574,0.0032756138,0.0036949508,-0.03889437,-0.4213795,0.17238252,-9.308656,0.7486078,47.71286,-0.77088904,-1.8969945,-3.2637496,-0.35460645,0.0656068,-0.15746263,26.1875,27.0,26.1875,29.1875,30.3125,30.75
0.090052076,-0.88980263,-1.6696136,-1.4120569,-0.022810869,0.061296463,-0.115059756,-0.37474757,-0.32816276,0.05995015,-3.078787,0.6249274,-0.00012794523,-0.043973707,0.00044063144,0.0031374793,-0.00792302,0.007554812,-0.0036405602,0.44622773,-1.4679168,2.0063136,-2.1076415,-1.5704802,2.4211466,-0.043141175,0.064840645,-0.07948176,0.0043943655,0.0037250868,-0.039450023,-0.36391866,0.2681506,-9.385271,0.7777002,47.65912,-0.78818434,-1.837229,-3.2547631,-0.35899097,0.072172426,-0.16308892,26.1875,27.0,26.1875,29.1875,30.3125,30.75
0.09205196,-0.9507894,-1.6994379,-1.4596448,-0.026774772,0.056648426,-0.11278719,-0.3748104,-0.3281546,0.059933282,-3.0787947,0.6249299,-0.00020607284,-0.044936873,0.000815055,0.002880132,-0.0075428914,0.006659148,-0.0043269456,0.44613102,-1.4677844,2.006204,-2.1076295,-1.570444,2.4210505,-0.044731993,0.06685631,-0.08129254,0.0051632235,0.0037660352,-0.040353496,-0.34476504,0.24899697,-9.385271,0.80679786,47.71554,-0.65891147,-1.8843831,-3.0886679,-0.37622556,0.08331155,-0.18646559,26.1875,27.0,26.1875,29.1875,30.3125,30.75
0.09405198,-0.6764552,-1.2267015,-1.2574512,-0.040796805,0.062021803,-0.12096736,-0.37491396,-0.32814273,0.059942376,-3.078787,0.6250228,-0.00015195647,-0.044100035,0.00088248437,0.0017277681,-0.0063947137,0.0042456575,-0.00309771,0.44602352,-1.467652,2.0060375,-2.1076295,-1.5704564,2.4210021,-0.044094604,0.068412334,-0.08042873,0.0054160026,0.0037760418,-0.04094559,-0.21068975,0.3256114,-9.404425,0.7665104,47.699425,-0.7707548,-1.8306526,-3.2732663,-0.38678664,0.085671216,-0.19714084,26.1875,27.0,26.1875,29.1875,30.3125,30.75
0.09605237,-1.0101353,-1.4217834,-1.3342438,-0.044214364,0.058228176,-0.11793092,-0.375006,-0.32816586,0.059955202,3.0787196,-0.6250093,0.00012159756,-0.046216093,-0.00010432534,0.00265648,-0.007842809,0.0061911247,-0.0031262876,0.44595113,-1.4675194,2.0058677,-2.1076534,-1.5704082,2.42093,-0.044452775,0.07086656,-0.085264884,0.005418778,0.004236105,-0.041272394,-0.30645782,0.2681506,-9.423578,0.8605109,47.72719,-0.8275744,-1.9279447,-3.2511072,-0.3654731,0.070456915,-0.21876058,26.1875,27.0,26.1875,29.1875,30.3125,30.75
0.098052695,-1.274556,-1.6010145,-1.4067103,-0.0358487,0.0484707,-0.11641445,-0.37508592,-0.3281354,0.059941825,-3.0787983,0.62496865,-0.00015302756,-0.04660101,0.0012396952,0.0015614782,-0.006716726,0.0040534693,-0.004279309,0.44585422,-1.4673631,2.0057127,-2.1075933,-1.5704564,2.4207978,-0.04724692,0.0723935,-0.08446647,0.0055065933,0.004142018,-0.042913917,-0.3256114,0.28730422,-9.423578,0.73069996,47.734352,-0.71312827,-1.8512266,-3.1452913,-0.36440167,0.075759575,-0.23865041,26.1875,27.0,26.1875,29.1875,30.3125,30.75
0.10005273,-0.524313,-1.3209846,-1.3874744,-0.02839482,0.05694731,-0.12241275,-0.37521613,-0.328145,0.059966333,3.0787017,-0.6250629,0.00010915079,-0.048290465,0.0007489326,0.0019228817,-0.0073286807,0.0050757574,-0.0023174728,0.44572207,-1.4672066,2.0054843,-2.1075933,-1.5704082,2.4207368,-0.04790347,0.07488574,-0.088018,0.005382184,0.004249558,-0.04552965,-0.19153613,0.36391866,-9.481039,0.78888994,47.71554,-0.7414721,-1.9353878,-3.25706,-0.37768847,0.062776834,-0.23454814,26.1875,27.0,26.1875,29.1875,30.3125,30.75
0.102051765,-0.9269287,-1.288527,-1.154098,-0.02063143,0.036849283,-0.120676234,-0.37531763,-0.32813835,0.05997436,3.0786934,-0.6250797,6.848788e-05,-0.04914864,0.00056380173,0.0021980978,-0.007659697,0.0054926067,-0.002993663,0.44562596,-1.4670624,2.0053046,-2.1075814,-1.5704201,2.4206524,-0.048394218,0.075969934,-0.08991977,0.0056803958,0.004367029,-0.045343086,-0.095768064,0.2681506,-9.346964,0.7709874,47.701214,-0.7893527,-1.9688429,-3.1703634,-0.36457747,0.089995526,-0.24018724,26.1875,27.0,26.1875,29.1875,30.3125,30.75
0.10405173,-0.2009846,-0.8983759,-1.12602,-0.02353108,0.044452667,-0.118343845,-0.37540266,-0.32815588,0.059975162,3.0786848,-0.6250213,9.149342e-05,-0.050122336,-1.6263552e-05,0.002142464,-0.00870037,0.005001762,-0.0038595248,0.44556564,-1.4668939,2.005112,-2.1075575,-1.5703958,2.4205568,-0.04894624,0.07838686,-0.092499405,0.005834748,0.0055130143,-0.04502907,-0.17238252,0.24899697,-9.251195,0.80456203,47.701214,-0.78348553,-1.9211413,-3.1152725,-0.36247396,0.0699579,-0.27293074,26.1875,27.0,26.1875,29.1875,30.3125,30.75
0.10605164,-0.22219418,-0.5358736,-1.0731076,-0.025067704,0.034848563,-0.12209627,-0.37553823,-0.32814422,0.060002834,3.0786378,-0.6251064,-6.131663e-05,-0.050820768,-0.00016968948,0.002104761,-0.008772411,0.0049746,-0.0025247613,0.44544557,-1.4667615,2.0049083,-2.1075814,-1.5704316,2.420496,-0.049320854,0.07987516,-0.09407928,0.0059187426,0.0055920267,-0.046736907,-0.17238252,0.2681506,-9.3661175,0.7463667,47.70838,-0.79399717,-1.9179876,-3.164247,-0.36444208,0.05697821,-0.29451835,26.1875,27.0,26.1875,29.1875,30.3125,30.75
0.10805291,-0.56393665,-1.056439,-1.2865906,-0.01578937,0.035022553,-0.11590214,-0.3756086,-0.32814845,0.05996494,3.078655,-0.6250331,0.00010063929,-0.05150481,-0.0003152447,0.0016217076,-0.008580732,0.003962939,-0.0014691405,0.44534943,-1.4665451,2.0047514,-2.1075575,-1.5703715,2.420352,-0.049824584,0.082463585,-0.09588926,0.0061385217,0.0058484143,-0.048295714,-0.1340753,0.19153613,-9.32781,0.7642693,47.686886,-0.8733405,-1.9235795,-3.119758,-0.344873,0.07278771,-0.32659578,26.1875,27.0,26.1875,29.1875,30.3125,30.75
0.110052206,-0.36635673,-0.980679,-1.2507265,-0.023329124,0.03779807,-0.11733979,-0.37567613,-0.3281427,0.0599635,3.0786798,-0.6250181,0.000145986,-0.05222867,-0.0010204349,0.0025694666,-0.009523356,0.0059782476,0.0002939996,0.4452777,-1.4664133,2.004596,-2.107498,-1.5703715,2.4202678,-0.04912689,0.08223029,-0.09779527,0.006053699,0.00582564,-0.049360245,-0.076614454,0.2681506,-9.289503,0.78217715,47.701214,-0.8659762,-2.030032,-3.108676,-0.34711564,0.06148515,-0.31716138,26.1875,27.0,26.1875,29.1875,30.3125,30.75
0.11205217,-0.7868318,-1.2896948,-1.0643971,-0.021957966,0.03279342,-0.1171206,-0.3758111,-0.3281368,0.059976917,3.078639,-0.62507033,8.557347e-05,-0.05361317,-0.0003340408,0.0032023916,-0.009926472,0.007129963,-0.004411415,0.4451449,-1.4662337,2.0043676,-2.1074975,-1.5703715,2.420173,-0.05154858,0.08207445,-0.09915726,0.006359439,0.0056949095,-0.047075395,-0.15322891,0.21068975,-9.308656,0.77545905,47.723602,-0.94057167,-1.8392289,-3.149905,-0.3503096,0.07631989,-0.36898613,26.1875,27.0,26.1875,29.1875,30.3125,30.75
0.114052355,-0.6868852,-1.3660488,-1.3055197,-0.021749407,0.037558053,-0.11009802,-0.37591788,-0.32816702,0.0599907,3.0785825,-0.62498045,5.9468097e-05,-0.053335603,-0.0002105982,0.00078517286,-0.007513369,0.0020103005,-0.003604806,0.44507283,-1.4660639,2.0041516,-2.107509,-1.5703233,2.420052,-0.05153631,0.0879495,-0.10031796,0.0073076505,0.005724258,-0.04786813,-0.019153614,0.2681506,-9.346964,0.80456203,47.707485,-0.83118767,-2.117176,-3.1967983,-0.3624558,0.06725162,-0.42330426,26.1875,27.0,26.1875,29.1875,30.3125,30.75
0.116051726,-0.4959733,-0.9958735,-1.1585251,-0.030706707,0.035624556,-0.1244806,-0.37607762,-0.3281652,0.060031816,3.0785012,-0.6251142,-0.00011207893,-0.053006787,-0.001568428,0.001776484,-0.009289537,0.0032931136,0.0013255979,0.44494164,-1.4659088,2.0038893,-2.1075208,-1.5703472,2.4200149,-0.04938066,0.08678781,-0.1013926,0.007617904,0.0067807487,-0.050643194,0.076614454,0.24899697,-9.481039,0.7329411,47.679718,-1.1254499,-1.861412,-3.1991467,-0.35497934,0.05695359,-0.43525526,26.1875,27.0,26.1875,29.1875,30.3125,30.75
0.11805182,-0.5132045,-1.1635108,-1.0066001,-0.029413464,0.029091518,-0.11761371,-0.37617615,-0.3281719,0.060030438,3.0784705,-0.6251081,-5.0563427e-05,-0.053465582,-0.00076851295,5.3700736e-05,-0.0077643488,0.00024608456,0.0016162763,0.444833,-1.4657277,2.0036848,-2.107485,-1.570299,2.4199064,-0.05123145,0.09068513,-0.10171688,0.007455589,0.0067146346,-0.052783843,-0.019153614,0.15322891,-9.32781,0.86945957,47.689575,-1.0118284,-2.0401144,-3.257472,-0.35285378,0.058219634,-0.43278128,26.1875,27.0,26.1875,29.1875,30.3125,30.75
0.12005201,-0.009221817,-0.99143773,-1.276235,-0.020840274,0.03024339,-0.12321293,-0.37629136,-0.3281586,0.060015727,3.0785298,-0.6250425,-8.118871e-05,-0.054888394,-0.0009518518,0.00046051719,-0.008449471,0.0014711291,0.0025164604,0.44473675,-1.4655113,2.0034802,-2.107485,-1.5703472,2.419762,-0.052206717,0.092058256,-0.104088664,0.007051759,0.006800196,-0.05465779,-0.038307227,0.17238252,-9.270349,0.8157518,47.675243,-1.1151773,-1.9663899,-3.250949,-0.35312796,0.052657846,-0.450643,26.1875,27.0,26.1875,29.1875,30.3125,30.75
0.122051895,-0.2922817,-0.73128355,-1.1512154,-0.016750885,0.023517856,-0.12045584,-0.37636936,-0.32816806,0.060005717,3.0785217,-0.6249635,-5.3320523e-06,-0.056653667,-0.0008802682,0.00088404596,-0.0084203435,0.0027207576,0.004106956,0.44465217,-1.4653431,2.0033123,-2.1074612,-1.5702995,2.419629,-0.053528473,0.09391866,-0.10714287,0.007135879,0.0062296474,-0.057567425,-0.038307227,0.21068975,-9.193734,0.8157518,47.67166,-1.0362017,-2.0058997,-3.2648911,-0.3347199,0.057246037,-0.4477579,26.1875,27.0,26.1875,29.1875,30.3125,30.75
0.12405639,-0.49840215,-0.7911236,-1.1280397,-0.0115171615,0.017118452,-0.122068405,-0.37651742,-0.32816488,0.060041983,3.0784605,-0.624986,-0.0001499696,-0.055224452,-0.0009981063,4.0380667e-07,-0.0076116137,0.00022606093,0.009272639,0.44452074,-1.4651992,2.0030735,-2.1074731,-1.570311,2.4195197,-0.052237142,0.09425494,-0.105685845,0.007942338,0.0065852376,-0.061442602,-0.038307227,0.2681506,-9.308656,0.83589023,47.701214,-1.1712704,-1.9542366,-3.2976544,-0.3422523,0.052315563,-0.42835003,26.1875,27.0,26.1875,29.1875,30.3125,30.75
0.12605196,-0.51138467,-0.9591539,-1.1629179,-0.01002264,0.024926161,-0.11976057,-0.37659648,-0.32815975,0.060013913,3.0784953,-0.624934,-3.7542308e-05,-0.05725181,-0.0010516008,0.00052109116,-0.008607603,0.0010677648,0.01090314,0.44442397,-1.4649949,2.0029042,-2.107437,-1.5702871,2.4193861,-0.054297682,0.096368365,-0.10929818,0.008254171,0.007112317,-0.06513245,-0.076614454,0.21068975,-9.289502,0.8291774,47.66091,-1.1796126,-2.0179818,-3.3702755,-0.3531899,0.06097488,-0.42947242,26.1875,27.0,26.1875,29.1875,30.3125,30.75
0.12805213,-0.39618275,-0.5294944,-1.1348509,-0.02473365,0.029146776,-0.124477856,-0.37673283,-0.32815456,0.060022894,3.0784853,-0.62491137,-6.608938e-05,-0.0574277,-0.00056408206,-0.00022788231,-0.007999945,-0.00037455797,0.01418198,0.4442917,-1.4647909,2.0026534,-2.107413,-1.5702871,2.4192412,-0.055393815,0.09784297,-0.10923259,0.008279199,0.0071868813,-0.069507204,0.0,0.17238252,-9.289502,0.8605109,47.67614,-1.1424743,-1.8588696,-3.3915489,-0.33978605,0.0373271,-0.38813567,26.1875,27.0,26.1875,29.1875,30.3125,30.75
0.13005166,-0.7511892,-1.3464702,-1.2791663,-0.018171256,0.030004356,-0.11920086,-0.37685823,-0.32816544,0.060032226,3.0784564,-0.6248837,-7.30346e-05,-0.05849132,-0.00035196455,0.0006282607,-0.008463919,0.0013163375,0.017637441,0.44418335,-1.4645873,2.002402,-2.1073892,-1.5702633,2.4191194,-0.056514464,0.09728701,-0.11065908,0.0085402215,0.0068798987,-0.074082136,-0.019153614,0.24899697,-9.3661175,0.8314132,47.68062,-1.1927538,-1.9609535,-3.3875432,-0.33921352,0.049876712,-0.3416736,26.1875,27.0,26.1875,29.1875,30.3125,30.75
0.13205162,-0.7693764,-1.0961756,-1.1454723,-0.03248518,0.034615632,-0.12705646,-0.37697524,-0.32817006,0.0600485,3.0784657,-0.6247296,-0.000117178446,-0.058882196,-5.884792e-05,0.0002699472,-0.008390952,0.0002669116,0.020405537,0.44408694,-1.4644191,2.0021737,-2.1073644,-1.5702633,2.4189258,-0.057654582,0.09850334,-0.111283615,0.008927724,0.0072686276,-0.07799015,-0.076614454,0.24899697,-9.289502,0.8717007,47.687782,-1.1643162,-1.7738256,-3.4748926,-0.33701828,0.042383187,-0.28386214,26.1875,27.0,26.1875,29.1875,30.3125,30.75
0.1340526,-0.52846265,-1.1870733,-1.2632319,-0.01712157,0.04728912,-0.123761244,-0.3770763,-0.32816947,0.06002536,3.0784779,-0.62471217,-3.3736807e-05,-0.06099926,-0.0001804533,0.0005805352,-0.00898012,0.0009327856,0.022317931,0.44397837,-1.4641905,2.001969,-2.107341,-1.5702385,2.418805,-0.059464194,0.10141267,-0.11527966,0.00916301,0.007504282,-0.0817101,-0.095768064,0.2681506,-9.346964,0.779936,47.68062,-1.1218507,-1.9490223,-3.332069,-0.3424911,0.033859402,-0.24053392,26.1875,27.0,26.1875,29.1875,30.3125,30.75
0.13605194,-0.5674938,-0.7252739,-1.2880006,-0.017123444,0.05241619,-0.12367559,-0.37719744,-0.32817173,0.06001752,3.0784934,-0.6245807,5.3558297e-06,-0.060751658,0.00021288637,-0.00037672126,-0.008132312,-0.0006780403,0.023855424,0.44385812,-1.4639627,2.0017302,-2.1073167,-1.5702151,2.4186008,-0.05990491,0.102746606,-0.11451865,0.008890615,0.007431258,-0.08368853,-0.17238252,0.1340753,-9.346964,0.8605109,47.71554,-1.1670496,-1.8073838,-3.5685744,-0.3444099,0.05322449,-0.19874318,26.1875,27.0,26.1875,29.1875,30.3125,30.75
0.13805206,-1.321459,-0.80326873,-1.3216738,-0.007974523,0.03912884,-0.11944986,-0.37732556,-0.32817537,0.060019277,3.07845,-0.62457156,8.512084e-06,-0.062890865,-4.1904197e-05,0.0005378395,-0.009125222,0.0012524464,0.023732556,0.44372565,-1.4637583,2.0015008,-2.1073167,-1.5701789,2.4184682,-0.06135981,0.10436054,-0.11844847,0.009041005,0.007494023,-0.08501798,-0.19153613,0.15322891,-9.442732,0.85155696,47.711964,-1.1438307,-1.8313599,-3.3090348,-0.3398344,0.047723077,-0.1807289,26.1875,27.0,26.1875,29.1875,30.3125,30.75
0.14005223,-1.2599221,-0.8782835,-1.5039912,-0.0029139253,0.050275773,-0.118765734,-0.3774603,-0.32816708,0.060029063,3.0784485,-0.62445647,-9.959206e-06,-0.06424941,-0.00025560352,0.0007301015,-0.009639415,0.0017530143,0.02222325,0.44358137,-1.4635658,2.0012605,-2.107293,-1.570167,2.4182525,-0.062313616,0.106357954,-0.12111045,0.009033833,0.00774054,-0.08446076,-0.36391866,0.11492168,-9.404425,0.87393653,47.678825,-1.2237396,-1.7905793,-3.4237967,-0.3330324,0.03867986,-0.15590473,26.1875,27.0,26.1875,29.1875,30.3125,30.75
0.14205217,-1.5276427,-1.1292492,-1.5782104,-0.0068755616,0.056667972,-0.11456068,-0.3775926,-0.3281725,0.06004082,3.0784483,-0.6244189,-2.4851042e-05,-0.065325335,-0.00019692608,0.0010803301,-0.010228054,0.0017798364,0.01936154,0.44347298,-1.46335,2.0009844,-2.1072447,-1.570167,2.4181209,-0.063708745,0.10741622,-0.12329648,0.009883301,0.008259228,-0.08299354,-0.49799395,0.22984336,-9.442732,0.85826975,47.694946,-1.23299,-1.7794294,-3.43625,-0.3408727,0.025301721,-0.15276816,26.1875,27.0,26.1875,29.1875,30.3125,30.75
0.14405201,-1.820693,-1.4201736,-1.6609641,-0.01736813,0.06600019,-0.114731565,-0.37768587,-0.32816994,0.060000706,3.0784895,-0.6242754,0.00012709398,-0.066811465,0.00020931331,0.0017464737,-0.010608183,0.0027121226,0.017131755,0.44335216,-1.4630982,2.0007927,-2.1072204,-1.5701188,2.4179053,-0.065730214,0.10792885,-0.1255943,0.010668482,0.008193223,-0.08278469,-0.5363012,0.2681506,-9.500193,0.7732232,47.67793,-1.2156386,-1.7326574,-3.3311455,-0.35045224,0.023932766,-0.14133774,26.1875,27.0,26.1875,29.1875,30.3125,30.75
0.14605266,-1.5697665,-1.0737252,-1.5652535,-0.044814464,0.08330173,-0.114595205,-0.37784463,-0.32816228,0.060032822,3.0784712,-0.62425566,-1.1247734e-05,-0.06771728,0.0005304699,0.0014886637,-0.010498749,0.0025926272,0.010011433,0.4432198,-1.462918,2.0005176,-2.107209,-1.5701545,2.4177632,-0.06707849,0.1094727,-0.12664925,0.0103306845,0.008148785,-0.077011,-0.5746084,0.24899697,-9.634268,0.842603,47.711063,-1.1918901,-1.599581,-3.38685,-0.36117348,0.034742173,-0.18701306,26.1875,27.0,26.1875,29.1875,30.3125,30.75
0.14805189,-2.1642234,-1.6843674,-1.6489736,-0.043758422,0.07561219,-0.11662683,-0.3779541,-0.32816565,0.060006153,3.078441,-0.6242712,9.163694e-05,-0.06865328,0.00045108979,0.0011357873,-0.010140734,0.0020803888,0.0056650206,0.44308773,-1.4626776,2.000313,-2.1072085,-1.5700945,2.4176447,-0.0676655,0.112078734,-0.12877753,0.010473751,0.0080378875,-0.0732502,-0.53630114,0.24899697,-9.672575,0.8179876,47.733456,-1.1998967,-1.681822,-3.3953495,-0.3582955,0.022547971,-0.23467624,26.1875,27.0,26.1875,29.1875,30.3125,30.75
0.15005179,-1.9016114,-1.4333546,-1.5980368,-0.05205606,0.091935396,-0.12716384,-0.37812588,-0.3281596,0.060055654,3.0784192,-0.6242472,5.521167e-06,-0.070260264,0.0006028421,0.0017904058,-0.010683386,0.0035364127,0.0052401787,0.44293115,-1.4624858,1.999966,-2.1071126,-1.5701069,2.4174762,-0.069256775,0.112911716,-0.13123366,0.01055019,0.007904764,-0.0744145,-0.6512228,0.24899697,-9.5385,0.8179876,47.694946,-1.224681,-1.5242326,-3.3321128,-0.37230656,0.024529686,-0.26051688,26.1875,27.0,26.1875,29.1875,30.3125,30.75
0.15205167,-2.319556,-1.6407853,-1.718604,-0.033158932,0.07856092,-0.11186018,-0.37828162,-0.3281741,0.06007247,3.0783532,-0.62419826,-0.000116409086,-0.07162791,0.0006683108,0.00046322044,-0.009779704,0.0022536446,0.0015137602,0.44281077,-1.4622802,1.9997143,-2.1071732,-1.5700945,2.4173338,-0.07038943,0.11792427,-0.1334742,0.009326217,0.007638112,-0.07181722,-0.59376204,0.30645782,-9.653421,0.83365434,47.69763,-1.1923215,-1.7791878,-3.4117906,-0.37073803,0.024196958,-0.29398006,26.1875,27.0,26.125,29.1875,30.3125,30.75
0.15405174,-2.118718,-1.4820291,-1.7230517,-0.026527613,0.07584957,-0.11345,-0.37840772,-0.32815692,0.060051713,3.0783713,-0.6242201,2.3508905e-05,-0.07234011,0.001020389,3.515024e-05,-0.009328357,0.0018149232,0.0014348854,0.44264227,-1.4620163,1.999451,-2.1070893,-1.5700592,2.4171767,-0.07149676,0.119600415,-0.13432354,0.009094356,0.007411127,-0.07284531,-0.5363012,0.36391866,-9.730036,0.80456203,47.701214,-1.1354505,-1.7161696,-3.3725395,-0.340438,0.04083677,-0.30528793,26.1875,27.0,26.125,29.1875,30.3125,30.75
0.1560526,-1.9142077,-1.541473,-1.4869817,-0.025648745,0.071417786,-0.11090296,-0.37857562,-0.32816446,0.060048506,3.078332,-0.6242112,-2.7140248e-05,-0.0744696,0.00029614533,0.001197766,-0.011284758,0.00436847,0.0020217646,0.4424981,-1.4617401,1.9991616,-2.107126,-1.5700468,2.4170322,-0.07245297,0.120886266,-0.13834496,0.008684958,0.008081208,-0.07438617,-0.51714754,0.3256114,-9.595961,0.81351066,47.690468,-1.175816,-1.8325001,-3.3547676,-0.34190542,0.029065771,-0.3013056,26.1875,27.0,26.125,29.1875,30.3125,30.75
0.1580526,-1.2714189,-0.97293144,-1.4317329,-0.025728889,0.06952973,-0.12513025,-0.3787123,-0.32815647,0.060054287,3.0783367,-0.62413746,-1.4209032e-05,-0.07535686,0.0017688472,-7.621655e-05,-0.0106021175,0.0025537303,-0.0010603038,0.4423529,-1.4615239,1.9988984,-2.1070783,-1.5700344,2.4168406,-0.0760692,0.123010695,-0.13758378,0.007733475,0.008241954,-0.074920416,-0.51714754,0.2873042,-9.481039,0.8179876,47.679718,-1.1262978,-1.7499442,-3.36027,-0.34527007,0.0126717575,-0.30890176,26.1875,27.0,26.125,29.1875,30.3125,30.75
0.16005236,-1.5825748,-0.84548986,-1.246079,-0.018217828,0.048859082,-0.11921913,-0.37887847,-0.32815635,0.060068905,3.0783136,-0.6241713,-0.00011116463,-0.07695571,0.0010189844,0.00077779347,-0.0105877835,0.0052347085,-0.0007739544,0.44222108,-1.4612838,1.9985994,-2.1070783,-1.5700592,2.416733,-0.07527304,0.12461687,-0.14126635,0.0073961886,0.0070781414,-0.0744065,-0.4213795,0.2681506,-9.442732,0.8157518,47.679718,-0.97606343,-1.7524831,-3.2883353,-0.31054017,0.031632133,-0.35503322,26.1875,27.0,26.125,29.1875,30.3125,30.75
0.16205241,-1.5189784,-0.72628874,-1.0754135,-0.01970391,0.046460103,-0.1173617,-0.37906212,-0.32817543,0.060081646,3.078204,-0.624185,-0.00017198933,-0.07760777,0.0016039382,-0.00022022183,-0.009104995,0.0032508876,0.0006449447,0.44205275,-1.4610192,1.9982885,-2.107126,-1.5699991,2.4165874,-0.07657644,0.12772946,-0.14260644,0.008060086,0.006595168,-0.077126674,-0.3256114,0.24899697,-9.385271,0.8157518,47.684196,-1.127847,-1.8077176,-3.3506472,-0.3152819,0.04308205,-0.3560384,26.1875,27.0,26.125,29.1875,30.3125,30.75
0.16405238,-1.4182271,-0.7978478,-1.1585666,-0.014007739,0.043118425,-0.11182445,-0.37920395,-0.32815853,0.060082242,3.0782132,-0.62417185,-0.00015712429,-0.080285564,0.002705154,0.0008556177,-0.010871316,0.005271965,-0.005700891,0.44189486,-1.4607915,1.9980243,-2.1070778,-1.5699991,2.4164202,-0.0814632,0.12765788,-0.14498805,0.007928679,0.0073215417,-0.07566702,-0.24899697,0.17238252,-9.385271,0.7933669,47.694946,-1.0037717,-1.7396607,-3.294884,-0.30833173,0.031378318,-0.38704103,26.1875,27.0,26.125,29.1875,30.3125,30.75
0.16605258,-1.3873384,-1.0264981,-1.0737035,0.0023638993,0.031597488,-0.120832905,-0.37938708,-0.3281651,0.060100015,3.0781555,-0.6241765,-0.00020880543,-0.081028804,0.0010549173,0.00019883145,-0.011129909,0.0043564932,-0.000595936,0.4417278,-1.460526,1.9976872,-2.107066,-1.5699748,2.4162636,-0.07941543,0.13262069,-0.14894085,0.007638296,0.007945442,-0.07872125,-0.2681506,0.13407528,-9.32781,0.8493211,47.698532,-0.98228467,-1.9659729,-3.1581106,-0.2928399,0.01669112,-0.3837694,26.1875,27.0,26.125,29.1875,30.3125,30.75
0.16805255,-0.94272196,-0.79740614,-1.05828,-0.0061815223,0.038965534,-0.1180628,-0.37952894,-0.3281703,0.060099524,3.0781457,-0.6241322,-0.00018273856,-0.081912264,0.0021343664,-0.0010878298,-0.0097426055,0.0020715187,0.0033200001,0.44159496,-1.460274,1.9974011,-2.1070297,-1.5699505,2.4161046,-0.081995316,0.13586292,-0.14964499,0.007766689,0.007671268,-0.08521603,-0.19153613,0.1340753,-9.289502,0.90750587,47.709274,-0.95671684,-1.8260026,-3.3818164,-0.29705173,0.04122036,-0.33041042,26.1875,27.0,26.125,29.1875,30.3125,30.75
0.17005245,-0.9917808,-0.7117794,-0.9084055,-0.008255267,0.042779446,-0.12566105,-0.37970555,-0.328132,0.06009428,3.0781257,-0.6242629,-0.00016810435,-0.0824457,0.0026641604,-0.00082459603,-0.010110553,0.0021180543,0.0030800083,0.44136643,-1.4600103,1.9971131,-2.106994,-1.5699505,2.4159603,-0.08361464,0.135487,-0.14998421,0.008284089,0.007985694,-0.08659582,-0.17238252,0.15322891,-9.212888,0.80456203,47.70211,-0.87874746,-1.879842,-3.3067122,-0.28876564,0.040697247,-0.32735258,26.1875,27.0,26.125,29.1875,30.3125,30.75
0.17205235,-1.3561019,-1.2582266,-0.97500503,-0.0013499202,0.033051666,-0.12632807,-0.3798708,-0.3281289,0.060091257,3.078152,-0.62411255,-0.0002079919,-0.08300783,0.00296493,-0.0014491561,-0.0098727215,0.00039222414,0.0071268342,0.4412221,-1.459734,1.9968141,-2.106994,-1.5699629,2.415719,-0.08498524,0.13772245,-0.15121652,0.008944407,0.008512559,-0.092012726,-0.24899697,0.076614454,-9.251195,0.83589023,47.694946,-0.82586193,-1.9343207,-3.323878,-0.28438646,0.0345541,-0.29058224,26.1875,27.0,26.125,29.1875,30.3125,30.75
0.17405234,-1.1808401,-0.9803262,-0.86176246,-0.017801672,0.043012895,-0.122944,-0.38006836,-0.32813483,0.060121395,3.0780804,-0.6240761,-0.00030544735,-0.08489164,0.0033414566,-0.001112378,-0.010013332,0.0018280094,0.010495683,0.44104144,-1.459482,1.996466,-2.106994,-1.5699385,2.415525,-0.08698321,0.13931069,-0.15366758,0.0084576,0.008033777,-0.09737664,-0.2681506,0.076614454,-9.155427,0.800085,47.679718,-0.8908284,-1.8596789,-3.3502169,-0.26297128,0.037273236,-0.23355755,26.1875,27.0,26.125,29.1875,30.3125,30.75
0.17605226,-1.314647,-1.1876671,-0.8341416,-0.0129425535,0.048049062,-0.117384985,-0.38022032,-0.3281254,0.060089245,3.078126,-0.62404454,-0.00025602677,-0.08558618,0.0032457605,-0.00068882067,-0.0097954115,0.0024374924,0.015564418,0.4408972,-1.4591581,1.996178,-2.1069815,-1.5699509,2.4153554,-0.087069824,0.13993418,-0.15555808,0.0092710955,0.0075738276,-0.10253112,-0.22984336,0.17238252,-9.040505,0.7933669,47.682407,-0.7373306,-1.8289298,-3.3329315,-0.25618947,0.04664855,-0.1565934,26.1875,27.0,26.125,29.1875,30.3125,30.75
0.17805232,-1.454244,-1.0209866,-0.9780951,-0.0044784253,0.03982056,-0.11480456,-0.38038546,-0.32813117,0.060099952,3.0780604,-0.62395316,-0.00020642027,-0.08666114,0.0030125426,-0.00011309207,-0.010780981,0.0033112813,0.017798489,0.440705,-1.4589064,1.9958667,-2.1069458,-1.5698665,2.4151146,-0.0878829,0.14060216,-0.15771477,0.009559446,0.008094204,-0.10557732,-0.2681506,0.21068975,-9.11712,0.7978386,47.672558,-0.7885504,-1.7057326,-3.3035998,-0.26962507,0.048968114,-0.09108286,26.1875,27.0,26.125,29.1875,30.3125,30.75
0.18005222,-0.84659326,-0.59128886,-0.87807816,-0.008933831,0.046382587,-0.123596355,-0.38056964,-0.3280997,0.060079906,3.0780857,-0.62396044,-0.00021379883,-0.08853676,0.004372603,-0.00047353416,-0.011212395,0.0024283433,0.01368198,0.44049934,-1.4585944,1.9955667,-2.1069458,-1.5698909,2.4149106,-0.09253644,0.14252807,-0.15907794,0.009608195,0.008858732,-0.1061141,-0.19153613,0.19153613,-9.136273,0.8403672,47.675243,-0.5664583,-1.7760515,-3.3355706,-0.25777438,0.030082844,-0.05809602,26.1875,27.0,26.125,29.1875,30.3125,30.75
0.18205215,-0.72162044,-0.28024808,-1.1508098,-0.010466547,0.043685313,-0.12404175,-0.38076162,-0.3280992,0.06009769,3.078063,-0.62391675,-0.00024594046,-0.08813111,0.0033827901,-0.00021015303,-0.011234084,0.0030588876,0.014629687,0.44032037,-1.4583068,1.9951962,-2.1068976,-1.5698789,2.4147074,-0.09010999,0.14268541,-0.15991831,0.009714462,0.008611936,-0.104634464,-0.24899697,0.17238252,-9.136273,0.80456203,47.684196,-0.8002876,-1.6663778,-3.3804789,-0.26010743,0.04248106,-0.052861094,26.1875,27.0,26.125,29.1875,30.3125,30.75
0.18405218,-0.7514373,-0.7804625,-1.1385251,-0.0012696303,0.043318402,-0.11972188,-0.3809364,-0.32808542,0.060105596,3.0780559,-0.62384075,-0.00029139727,-0.08973724,0.003512728,0.0003179978,-0.011196705,0.003982142,0.009846876,0.44013995,-1.4580547,1.9948958,-2.1068857,-1.5698789,2.4144807,-0.091432676,0.14421317,-0.16303064,0.010480641,0.0081825135,-0.10117196,-0.28730422,0.17238252,-9.174581,0.83589023,47.707485,-0.75695896,-1.8010643,-3.302215,-0.27161178,0.038784783,-0.07382102,26.1875,27.0,26.125,29.1875,30.3125,30.75
0.18605241,-1.3171431,-1.0010256,-1.2238102,-0.0050790594,0.03404636,-0.110950544,-0.3811234,-0.32808197,0.060107186,3.0780003,-0.6238122,-0.00029029752,-0.09072818,0.002698025,0.000118033175,-0.011828137,0.0037004019,0.006348021,0.43993595,-1.4577663,1.9945725,-2.1068861,-1.5698308,2.414266,-0.091191225,0.14730006,-0.16600794,0.010358576,0.008869613,-0.09742972,-0.24899697,0.15322891,-9.232041,0.8627467,47.719128,-0.8778956,-1.6254082,-3.4030066,-0.2519759,0.048784614,-0.10535185,26.1875,27.0,26.125,29.1875,30.3125,30.75
0.18805245,-1.006494,-0.66394955,-1.2731459,-0.018312886,0.0422558,-0.108197525,-0.38131508,-0.32804632,0.060076743,3.0780513,-0.6239006,-0.00027297647,-0.09048354,0.0025619927,8.1000995e-05,-0.011453088,0.003317751,0.0035384065,0.43973222,-1.4574069,1.9942378,-2.1068614,-1.5698789,2.4141114,-0.09054231,0.1474709,-0.16630934,0.01099066,0.008688359,-0.09397157,-0.22984336,0.17238252,-9.251195,0.76874626,47.71554,-0.8930137,-1.5702573,-3.334698,-0.24564329,0.04955458,-0.14142558,26.1875,27.0,26.125,29.1875,30.3125,30.75
0.19005212,-0.67096883,-1.0865304,-1.3907313,-0.016409624,0.050930016,-0.11667556,-0.3814883,-0.328062,0.060098723,3.077982,-0.62386876,-0.00030177983,-0.091009445,0.0024228862,-3.5361572e-05,-0.010980865,0.0027913651,0.00051358686,0.43957624,-1.4571546,1.9939021,-2.106837,-1.5698308,2.4139445,-0.09056147,0.14920162,-0.16818802,0.011820515,0.008487371,-0.09096422,-0.095768064,0.1340753,-9.289502,0.7709874,47.699425,-0.97278917,-1.6132665,-3.3909094,-0.25220522,0.05043201,-0.17635126,26.1875,27.0,26.125,29.1875,30.3125,30.75
0.1920521,-0.97952354,-1.5510834,-1.5570551,-0.008026636,0.03041116,-0.10666851,-0.38166547,-0.32804948,0.060079418,3.0780091,-0.6238357,-0.00025802228,-0.092607155,0.0014859093,0.00088670274,-0.012293547,0.0053575756,-0.0007793497,0.4393965,-1.4568187,1.9935654,-2.1068017,-1.5698308,2.4137409,-0.09022713,0.15047684,-0.17158991,0.011066494,0.008571675,-0.089335054,-0.038307227,0.19153613,-9.346964,0.7866488,47.716442,-1.0250087,-1.668108,-3.3571477,-0.24646258,0.0654425,-0.23894621,26.1875,27.0,26.125,29.1875,30.3125,30.75
0.194052,-0.891911,-1.021772,-1.6990218,-0.022878565,0.018787364,-0.118768685,-0.38185236,-0.3280346,0.060073815,3.0779781,-0.6238888,-0.00020455051,-0.09185798,0.0024147956,-0.0016056461,-0.009811302,0.00013670886,-0.0025512225,0.43917996,-1.4565057,1.9932197,-2.1067536,-1.569795,2.4135616,-0.0912229,0.15448219,-0.17054696,0.011803733,0.00854899,-0.08855933,-0.05746084,0.2681506,-9.461885,0.90750587,47.703903,-1.0077729,-1.7418115,-3.5302196,-0.22958907,0.06524414,-0.24411376,26.1875,27.0,26.125,29.1875,30.3125,30.75
0.19605187,-0.5556084,-1.4041437,-1.9240946,-0.027194653,0.017227795,-0.114088945,-0.38206264,-0.32804826,0.060099483,3.0779114,-0.62383825,-0.0003295379,-0.093498126,0.002126656,-0.00039898226,-0.011174074,0.0028753465,-0.0059266887,0.43901178,-1.4562187,1.9928478,-2.1067774,-1.5697826,2.4133706,-0.09211652,0.15438844,-0.17316718,0.01146003,0.008620402,-0.086075135,-0.019153614,0.28730422,-9.557653,0.85155696,47.696735,-1.0511043,-1.556808,-3.4095068,-0.23348996,0.063890986,-0.32385904,26.1875,27.0,26.125,29.1875,30.3125,30.75
0.19805181,-0.2607245,-1.7988601,-1.9946239,-0.035923716,0.014611305,-0.116168745,-0.3822078,-0.3280265,0.06005984,3.077986,-0.6237938,-0.00019249735,-0.09475514,0.0022460015,-0.0006490053,-0.010967462,0.0025051837,-0.004946629,0.4388433,-1.4558822,1.9925483,-2.106706,-1.5697826,2.413165,-0.09337104,0.15699475,-0.17559916,0.011711946,0.008579485,-0.088309,0.038307227,0.38307226,-9.653421,0.80456203,47.716442,-0.998927,-1.8086774,-3.423911,-0.22020456,0.08235674,-0.34532243,26.1875,27.0,26.125,29.1875,30.3125,30.75
0.20005171,-0.36913842,-1.7854234,-2.1664522,-0.052416097,0.01286221,-0.117971934,-0.38241473,-0.32802325,0.060085226,3.0779104,-0.62385863,-0.00025756558,-0.095385954,0.0024181143,-0.0016686724,-0.010001736,0.0004540034,-0.0099249575,0.43863922,-1.4556053,1.9921769,-2.106681,-1.5697588,2.4130113,-0.09418127,0.16053209,-0.17734648,0.012189802,0.008577963,-0.08413897,0.0,0.30645782,-9.653421,0.7866488,47.71554,-1.0323589,-1.7539108,-3.4309459,-0.24443518,0.08135297,-0.408769,26.1875,27.0,26.125,29.1875,30.3125,30.75
0.20205258,-0.2981826,-2.0299833,-1.9338899,-0.06555619,0.034608174,-0.12236578,-0.38259506,-0.3280203,0.060076203,3.0778985,-0.6238553,-0.00021955078,-0.095956236,0.0024783353,-0.0027010664,-0.008962749,-0.0011266988,-0.008989055,0.43845913,-1.4552808,1.9918288,-2.1066453,-1.5697349,2.4128308,-0.094556734,0.16396199,-0.17883117,0.012122556,0.0083058,-0.08544896,-0.019153614,0.36391866,-9.749189,0.7911258,47.72808,-1.0643716,-1.9798312,-3.4370615,-0.21964726,0.1046675,-0.46880776,26.1875,27.0,26.125,29.1875,30.3125,30.75
0.20405245,-0.9288446,-2.5327346,-2.0632153,-0.06281221,0.03538098,-0.11303305,-0.3827806,-0.32801342,0.06006625,3.0779338,-0.6237639,-0.00021384431,-0.09691713,0.002294872,-0.0027264103,-0.009304659,-0.0015035081,-0.0067792414,0.43829075,-1.4549447,1.9914697,-2.1066096,-1.5697464,2.4126012,-0.095314704,0.16597903,-0.18119264,0.012664257,0.008773101,-0.08841578,0.038307227,0.38307226,-9.615114,0.83365434,47.707485,-1.0476031,-1.9043298,-3.4139504,-0.23670122,0.10434296,-0.47063833,26.1875,27.0,26.125,29.1875,30.3125,30.75
0.20605247,-0.6652596,-2.174399,-2.2231648,-0.05159021,0.040136572,-0.116077244,-0.38298175,-0.32802838,0.06007403,3.0778353,-0.6238383,-0.00025772233,-0.09818274,0.0028908222,-0.0028116321,-0.010006695,-0.0016978431,-0.0032966991,0.4381098,-1.4546329,1.9911107,-2.1066334,-1.5696982,2.4124794,-0.09795436,0.16721049,-0.18238007,0.012506877,0.009500168,-0.094537035,-0.038307227,0.4405331,-9.710882,0.84484416,47.70032,-1.0796367,-2.0222893,-3.4386978,-0.22489025,0.09343468,-0.4509369,26.1875,27.0,26.125,29.1875,30.3125,30.75
0.20805228,-0.28754696,-1.5449122,-1.9474192,-0.05201506,0.037602104,-0.12692913,-0.38317952,-0.32801044,0.06005669,3.0778549,-0.62379944,-0.00020082241,-0.098514155,0.0011335411,-0.0022592205,-0.011572244,-0.0004008556,0.004074004,0.4378948,-1.4542731,1.9907392,-2.1065857,-1.5696863,2.412238,-0.095485434,0.168454,-0.18497461,0.0120238075,0.010362422,-0.09943807,-0.038307227,0.4405331,-9.557653,0.800085,47.723602,-1.1166683,-1.8324082,-3.373834,-0.2013605,0.08412549,-0.42456326,26.1875,27.0,26.125,29.1875,30.3125,30.75
0.21005218,-0.13458928,-1.3484331,-1.7201477,-0.04769814,0.04107497,-0.12843013,-0.3834044,-0.328004,0.060092814,3.0777895,-0.6237834,-0.000310105,-0.101161204,0.0019426715,-0.0021817144,-0.011700714,0.000434396,0.008097916,0.43767762,-1.4539964,1.9903435,-2.1065624,-1.5696744,2.4120193,-0.099084385,0.1713608,-0.1883557,0.011698136,0.010134065,-0.10705747,-0.05746084,0.45968673,-9.500193,0.86498255,47.723602,-1.2031076,-2.00032,-3.2677858,-0.18575123,0.109134376,-0.38956535,26.1875,27.0,26.125,29.1875,30.3125,30.75
0.21205209,-0.8363347,-1.5068878,-1.8672241,-0.028467858,0.032044973,-0.11915489,-0.3835888,-0.3280097,0.060060747,3.077817,-0.62368846,-0.000227478,-0.10094305,0.0010857666,-0.0021318388,-0.01201523,0.0007344205,0.01617003,0.43751028,-1.4536012,1.9899715,-2.1065385,-1.56965,2.4117894,-0.09734455,0.17193252,-0.18912688,0.011502094,0.01029087,-0.113389894,-0.095768064,0.45968673,-9.461885,0.779936,47.701214,-1.1419458,-1.7588036,-3.4216192,-0.17568198,0.113058686,-0.28308004,26.1875,27.0,26.125,29.1875,30.3125,30.75
0.21405202,-1.1657052,-1.3042108,-1.7871414,-0.03546443,0.037601285,-0.11229119,-0.3837922,-0.3280128,0.06007307,3.0777884,-0.62356526,-0.00030455546,-0.10208482,0.0014438126,-0.0014873281,-0.012517406,0.0015488954,0.019541916,0.43732962,-1.4533017,1.9896125,-2.1065495,-1.5696377,2.4115357,-0.099023536,0.17198062,-0.19087747,0.012261617,0.0104124425,-0.118439436,-0.15322891,0.34476507,-9.5385,0.7866488,47.686886,-1.1782962,-1.807111,-3.4971027,-0.18138373,0.099959075,-0.22923306,26.1875,27.0,26.125,29.1875,30.3125,30.75
0.21605204,-1.3456142,-1.4648412,-1.4886925,-0.040557735,0.05054187,-0.11430677,-0.38399512,-0.3280088,0.060077116,3.0777693,-0.62354124,-0.0002287667,-0.10322532,0.0017686673,-0.0015203704,-0.012178973,0.0017582221,0.021231018,0.4371131,-1.4529536,1.9891938,-2.1064541,-1.5695904,2.4113069,-0.10028819,0.17360164,-0.19270347,0.012432455,0.01001478,-0.121392116,-0.19153613,0.30645782,-9.481039,0.8314132,47.72719,-1.1284531,-1.883059,-3.3462412,-0.16443232,0.10566303,-0.17991732,26.1875,27.0,26.125,29.1875,30.3125,30.75
0.21805215,-1.4539921,-1.1295455,-1.2418704,-0.03931012,0.054212365,-0.11409215,-0.3841966,-0.32800257,0.060068067,3.0777676,-0.6234844,-0.0002835699,-0.10447295,0.0020347612,-0.0009077325,-0.013159912,0.0022982587,0.019529188,0.43693256,-1.4526182,1.9888462,-2.1064775,-1.5696014,2.4110913,-0.10224746,0.17392892,-0.19469984,0.013195609,0.010678259,-0.121648714,-0.21068975,0.17238252,-9.461885,0.81351066,47.689575,-1.1699436,-1.7058177,-3.401491,-0.16658115,0.09137383,-0.1570392,26.1875,27.0,26.125,29.1875,30.3125,30.75
0.22005214,-1.4771171,-1.0626652,-1.1640958,-0.009712473,0.057715196,-0.10389433,-0.38441965,-0.3280277,0.06008374,3.07771,-0.62331975,-0.0003462224,-0.105321474,0.0011755329,0.00030386524,-0.014167221,0.0052187396,0.017823953,0.43675286,-1.4522712,1.9884266,-2.10649,-1.5695542,2.4108164,-0.101105586,0.17337373,-0.19682014,0.012804812,0.010359011,-0.11879949,-0.34476504,0.076614454,-9.289502,0.800085,47.69763,-1.1908494,-1.6509575,-3.4730651,-0.16478409,0.105672956,-0.17654857,26.1875,27.0,26.125,29.1875,30.3125,30.75
0.22205204,-1.1065317,-0.19850242,-1.3003628,0.0028047613,0.06381071,-0.115239404,-0.38464195,-0.3280286,0.060093895,3.0776627,-0.62329483,-0.00035631048,-0.107340224,0.0020007503,0.00063484727,-0.014707794,0.006141416,0.0097745005,0.43653592,-1.4519233,1.9880074,-2.1064541,-1.5695175,2.4105902,-0.104384445,0.17460944,-0.19897957,0.012665321,0.010455353,-0.11402727,-0.49799395,0.095768064,-9.289502,0.8179876,47.67345,-1.2192277,-1.6353288,-3.446415,-0.12593547,0.10895975,-0.20462877,26.1875,27.0,26.125,29.1875,30.3125,30.75
0.22405204,-1.2746367,0.43406257,-0.93189275,0.013141937,0.058647312,-0.12289475,-0.38486084,-0.3280087,0.060062528,3.077669,-0.6233365,-0.0003246552,-0.108299986,0.0011633334,0.00087699,-0.015781248,0.006359005,0.0053350385,0.436308,-1.4515151,1.987624,-2.1064541,-1.5695175,2.4103878,-0.10416739,0.17667241,-0.20196313,0.012929635,0.011325588,-0.10936962,-0.38307226,-0.019153614,-9.232041,0.8157518,47.683304,-1.1519134,-1.5315232,-3.466984,-0.11415494,0.11103208,-0.28620577,26.1875,27.0,26.125,29.1875,30.3125,30.75
0.22605203,-0.98768145,0.5001832,-1.145141,0.02597693,0.06752166,-0.118486546,-0.38505024,-0.3280089,0.06006842,3.077661,-0.62324023,-0.00031711033,-0.110209435,0.0016025153,0.0016557054,-0.015738368,0.008100375,0.0022614324,0.43612728,-1.4512036,1.9872521,-2.1064055,-1.5694937,2.4101481,-0.10606104,0.17758471,-0.20492865,0.013428953,0.01054819,-0.108187646,-0.51714754,-0.038307227,-9.174581,0.85155696,47.717335,-1.1800269,-1.5181857,-3.4237175,-0.10346564,0.10303484,-0.30613738,26.1875,27.0,26.125,29.1875,30.3125,30.75
0.22805203,-1.6451341,0.38821673,-1.3841844,0.03659275,0.05658741,-0.114331506,-0.38527548,-0.3280149,0.060094446,3.0775805,-0.62326366,-0.0003476222,-0.11202754,0.0019894408,0.0026155114,-0.016381608,0.009461938,0.00028256502,0.4359105,-1.4508799,1.9868206,-2.1063573,-1.569446,2.4099565,-0.10828734,0.17806482,-0.20795165,0.014473809,0.010562014,-0.1084331,-0.4405331,-0.15322891,-9.251195,0.8090337,47.70659,-1.0467035,-1.473747,-3.4115906,-0.1167209,0.11638982,-0.34272507,26.1875,27.0,26.125,29.1875,30.3125,30.75
0.23005202,-1.6392393,0.13522178,-1.3417848,0.03473494,0.069068015,-0.11281908,-0.38551372,-0.3279887,0.060084224,3.0775564,-0.62337345,-0.00031738423,-0.11247297,0.0024234366,0.0015208228,-0.015252902,0.006763548,-0.0005861685,0.43564624,-1.4504834,1.9863905,-2.1063092,-1.5694336,2.409764,-0.10946786,0.18135083,-0.20944187,0.015604908,0.010679635,-0.108744174,-0.49799395,-0.15322891,-9.442732,0.800085,47.701214,-1.0706501,-1.4350971,-3.4253268,-0.107266985,0.088774264,-0.35506913,26.1875,27.0,26.125,29.1875,30.3125,30.75
0.2320519,-1.7346131,-0.058957614,-1.3049699,0.009636315,0.07861698,-0.11555734,-0.38573134,-0.3280081,0.060090788,3.077492,-0.6233036,-0.00032152756,-0.11338464,0.0037484923,0.00022295385,-0.013284959,0.00400561,-0.0033473852,0.4354533,-1.450123,1.9859704,-2.1062973,-1.569374,2.409536,-0.112231456,0.18476845,-0.21059819,0.016685195,0.010066233,-0.10874508,-0.61291564,-0.076614454,-9.500193,0.7486078,47.707485,-0.945222,-1.6207674,-3.364598,-0.11089761,0.106548116,-0.39253002,26.1875,27.0,26.125,29.1875,30.3125,30.75
0.23405169,-1.6570116,-0.63632756,-1.4082861,-0.0019244135,0.0899213,-0.11939068,-0.38598195,-0.32799163,0.06011551,3.077489,-0.62330407,-0.0004535475,-0.11441545,0.004046286,-0.0010069465,-0.011766817,0.0011152405,-0.0045990194,0.43523693,-1.4497733,1.985515,-2.1062605,-1.5694221,2.4093206,-0.113492005,0.18970628,-0.21368268,0.018090501,0.009914386,-0.10875126,-0.61291564,0.0,-9.461885,0.84484416,47.703903,-0.91355145,-1.8391321,-3.272815,-0.115488514,0.10967714,-0.3878566,26.1875,27.0,26.125,29.1875,30.3125,30.75
0.23605192,-2.1999934,-0.9010246,-1.3274511,-0.022124788,0.0827642,-0.12092125,-0.3861701,-0.32795206,0.060056727,3.0775397,-0.6233502,-0.00026433406,-0.11649326,0.0039942903,-0.0001463941,-0.01219625,0.0023954995,-0.0019768141,0.43498433,-1.4493537,1.9851669,-2.1062,-1.5693983,2.4090905,-0.11500842,0.19154872,-0.21806324,0.01929722,0.009749197,-0.112888865,-0.6895301,0.17238252,-9.519346,0.7486078,47.681515,-0.8843579,-1.777602,-3.2516046,-0.12453082,0.110043794,-0.41208977,26.1875,27.0,26.125,29.1875,30.3125,30.75
0.23805238,-1.8697604,-1.1241411,-1.6189637,-0.030557144,0.09608968,-0.12785695,-0.38638672,-0.32794547,0.0600566,3.0775278,-0.6233455,-0.00022676583,-0.11683997,0.004624717,1.0464298e-06,-0.011275317,0.0026294903,0.0021224662,0.4347683,-1.4489827,1.9847363,-2.1061285,-1.5693744,2.4088733,-0.115776904,0.19133638,-0.21840067,0.020036722,0.008821617,-0.11775655,-0.6703765,0.22984336,-9.500193,0.84708,47.711964,-0.82173574,-1.7231778,-3.3765788,-0.1338836,0.15748584,-0.37243015,26.1875,27.0,26.125,29.1875,30.3125,30.75
0.24005234,-1.6197053,-1.3814296,-1.6793959,-0.042844743,0.09649501,-0.11748686,-0.3866421,-0.32793748,0.06009153,3.0774684,-0.6232911,-0.00030779146,-0.116247766,0.0048276135,-0.0006552226,-0.011199552,0.0007793075,0.008576003,0.43451598,-1.4486471,1.9842705,-2.1060803,-1.5693501,2.4085948,-0.11602616,0.19175991,-0.21753031,0.020463664,0.0095536,-0.12445956,-0.57460845,0.19153613,-9.519346,0.8291774,47.70211,-0.9094479,-1.553448,-3.395165,-0.13203314,0.15021053,-0.30794036,26.1875,27.0,26.125,29.1875,30.3125,30.75
0.2420523,-1.7272661,-1.6778423,-1.5779864,-0.051715627,0.0916003,-0.1130274,-0.3868799,-0.32791722,0.060069263,3.0774992,-0.62323576,-0.0003286084,-0.11659626,0.0043954607,-0.0006677799,-0.011667215,0.0010721128,0.014875763,0.43428823,-1.4482275,1.9838523,-2.1060808,-1.569374,2.408329,-0.11564049,0.19271787,-0.21856293,0.02008119,0.009859307,-0.13037312,-0.63206923,0.24899697,-9.519346,0.83589023,47.717335,-0.9350703,-1.7329129,-3.5271654,-0.13648105,0.1493509,-0.2311556,26.1875,27.0,26.125,29.1875,30.3125,30.75
0.24405225,-1.6917914,-1.6060147,-1.6094911,-0.04828021,0.08536038,-0.121687025,-0.38711816,-0.3279207,0.060065366,3.07746,-0.6231469,-0.0002871996,-0.11712639,0.0042432807,-0.0014944989,-0.011210694,0.00078694394,0.020740332,0.4340486,-1.4478197,1.9833969,-2.106045,-1.5693139,2.408039,-0.11553186,0.19530128,-0.21932893,0.018733054,0.009569744,-0.13612787,-0.5554548,0.34476504,-9.442732,0.9254084,47.717335,-1.0769384,-1.6748269,-3.5820498,-0.12896334,0.17007592,-0.14427276,26.1875,27.0,26.125,29.1875,30.3125,30.75
0.24605219,-1.22679,-1.926332,-1.7430964,-0.032360807,0.07229774,-0.113391094,-0.38738084,-0.32790264,0.06009064,3.0774605,-0.6230898,-0.00043598792,-0.11777435,0.004472049,-0.0022342592,-0.011020747,-0.00025335953,0.020919092,0.43381998,-1.4474593,1.9829305,-2.1060212,-1.569362,2.4077752,-0.11660296,0.19763806,-0.22022189,0.018309323,0.009845731,-0.1373762,-0.2873042,0.2681506,-9.442732,0.8224646,47.74062,-0.8925074,-1.6143308,-3.6154623,-0.11417553,0.17304045,-0.14055331,26.1875,27.0,26.125,29.1875,30.3125,30.75
0.2480522,-0.8690314,-1.672179,-1.6844053,-0.039991,0.054338686,-0.110242166,-0.3875925,-0.32789722,0.06006991,3.0774317,-0.6230482,-0.00032191732,-0.11926308,0.005063094,-0.002725565,-0.010609047,-0.00046269604,0.015906865,0.4335794,-1.4470628,1.9825233,-2.1059735,-1.56929,2.4075124,-0.118695974,0.20029952,-0.22204676,0.017845469,0.009547534,-0.1344559,-0.19153613,0.28730422,-9.442732,0.8291774,47.737038,-1.0189426,-1.6934875,-3.589086,-0.109556556,0.1890288,-0.11734405,26.1875,27.0,26.125,29.1875,30.3125,30.75
0.25005206,-0.5367799,-1.9774448,-1.4926014,-0.028101614,0.03193381,-0.110974744,-0.38786075,-0.3278775,0.060076464,3.0773969,-0.6230622,-0.00035590385,-0.12102197,0.004319947,-0.0019554067,-0.011191957,0.0016312968,0.012203021,0.43330342,-1.4466552,1.9820436,-2.1059372,-1.5692781,2.40725,-0.11849355,0.20230743,-0.22611468,0.01776096,0.00918956,-0.13054681,-0.17238252,0.2681506,-9.385271,0.83589023,47.71017,-0.958135,-1.6688316,-3.5096724,-0.09804581,0.19907436,-0.13434587,26.1875,27.0,26.125,29.1875,30.3125,30.75
0.2520519,0.050902955,-1.4362339,-1.52404,-0.033923432,0.026210304,-0.108109236,-0.38813093,-0.32786283,0.060096808,3.0773966,-0.6230065,-0.00050620455,-0.12228165,0.004226791,-0.0018046012,-0.01140349,0.0021582562,0.006901459,0.4330752,-1.4462708,1.9815639,-2.1059253,-1.5693263,2.4069874,-0.11928785,0.2041469,-0.22861242,0.017842684,0.00916165,-0.1260373,-0.21068975,0.36391866,-9.308657,0.88289046,47.674347,-0.9700118,-1.7756362,-3.5267057,-0.073928565,0.20615336,-0.18335596,26.1875,27.0,26.125,29.1875,30.3125,30.75
0.2540518,0.06838808,-1.0001091,-1.4906907,-0.03603758,0.022478139,-0.122154854,-0.38838163,-0.32786483,0.060077187,3.0773437,-0.623018,-0.000450715,-0.12306554,0.0036308228,-0.0006817717,-0.01323175,0.0035622895,0.0023098057,0.43282315,-1.445816,1.9810966,-2.1059134,-1.5692662,2.4067495,-0.11945978,0.20354411,-0.2307526,0.018544752,0.010225367,-0.12161704,-0.019153614,0.36391866,-9.232041,0.8717007,47.716442,-0.9556674,-1.6553309,-3.476694,-0.072528735,0.20386565,-0.23568943,26.1875,27.0,26.125,29.1875,30.3125,30.75
0.25605178,0.4799787,-1.2795794,-1.3039284,-0.031036135,0.032773364,-0.115012094,-0.38860694,-0.32786742,0.060083028,3.0772994,-0.6229549,-0.0004086728,-0.124915764,0.0041096844,7.0669186e-05,-0.014208259,0.004332981,-0.0032077404,0.43259394,-1.4454446,1.9806532,-2.1058528,-1.5692056,2.4064867,-0.12221104,0.20435306,-0.23368298,0.01956118,0.010784569,-0.11884941,0.17238252,0.30645782,-9.308657,0.91198283,47.65106,-0.8918472,-1.6711222,-3.4725432,-0.058632858,0.20825027,-0.30903515,26.1875,27.0,26.125,29.1875,30.3125,30.75
0.2580528,-0.2952662,-1.0841528,-1.297792,-0.027644163,0.012357052,-0.108517885,-0.3888679,-0.32786196,0.060071554,3.0772648,-0.623061,-0.00046590873,-0.12651032,0.0015927765,0.0018400722,-0.016031334,0.007509347,-0.002267741,0.43236727,-1.4450006,1.9801844,-2.1058648,-1.5692176,2.406331,-0.119037285,0.20636113,-0.24028078,0.02049999,0.011100474,-0.1166118,0.095768064,0.2681506,-9.193734,0.7777002,47.696735,-1.1610954,-1.7122812,-3.285007,-0.062137373,0.21695969,-0.36036077,26.1875,27.0,26.125,29.1875,30.3125,30.75
0.26005253,0.24713449,-1.0612113,-1.249789,-0.021346254,0.023856452,-0.11754869,-0.38912746,-0.32785866,0.060064964,3.0772324,-0.6230385,-0.00044581547,-0.12849139,0.0019315602,0.0023907134,-0.017154647,0.008345285,-0.0075105703,0.43211418,-1.4445567,1.9796933,-2.1058285,-1.5691813,2.4060683,-0.12169538,0.20777993,-0.24330351,0.020875614,0.011765934,-0.11402544,0.05746084,0.34476504,-9.212888,0.8224646,47.679718,-0.85582936,-1.6698589,-3.16352,-0.060065262,0.22954406,-0.41348332,26.1875,27.0,26.125,29.1875,30.3125,30.75
0.26205266,0.20485006,-1.3614186,-1.6841952,-0.010075154,0.018754082,-0.11058932,-0.389348,-0.32783577,0.060034554,3.0772684,-0.6230247,-0.00034298172,-0.12805885,0.0017958692,0.0018834155,-0.016915776,0.0069040004,-0.0071649794,0.43187463,-1.4441252,1.9792622,-2.1057565,-1.5691694,2.4058158,-0.121231645,0.20865454,-0.24334434,0.021453558,0.012148571,-0.11390839,0.05746084,0.4405331,-9.232041,0.8157518,47.698532,-1.1594931,-1.5759406,-3.23172,-0.05357174,0.21549243,-0.48846188,26.1875,27.0,26.125,29.1875,30.3125,30.75
0.26405254,-0.17353149,-1.4309083,-1.7563384,-0.020371823,0.015275019,-0.11329262,-0.38963422,-0.32782975,0.060078945,3.0772097,-0.623012,-0.00043712038,-0.12917995,0.0022181356,0.0026815736,-0.01782513,0.0075862873,-0.006232412,0.4316099,-1.4437429,1.9787124,-2.1056726,-1.569157,2.405551,-0.12322107,0.20830092,-0.24509989,0.022569515,0.012704911,-0.116828986,0.1340753,0.40222588,-9.404425,0.8851263,47.711063,-1.0463398,-1.4609754,-3.2116575,-0.059608147,0.22126478,-0.48965544,26.1875,27.0,26.125,29.1875,30.3125,30.75
0.2660519,-0.51808894,-1.8486216,-1.7428561,-0.035322215,0.017511997,-0.1136665,-0.38987362,-0.32782778,0.060072772,3.0771604,-0.62303543,-0.0004025198,-0.1293044,0.0029534178,2.0541172e-05,-0.015154308,0.0022826176,0.0016503815,0.43136966,-1.4433329,1.978258,-2.105636,-1.5691093,2.4053319,-0.124459304,0.21444997,-0.24621521,0.023493102,0.01251291,-0.12594876,0.13407528,0.3256114,-9.32781,0.9791215,47.70032,-1.0556155,-1.6086133,-3.4064014,-0.078476235,0.24021098,-0.46744752,26.1875,27.0,26.125,29.1875,30.3125,30.75
0.2680519,-0.48216388,-2.037469,-1.5365561,-0.048167605,0.028445404,-0.109623656,-0.39014944,-0.32780612,0.060066897,3.0771322,-0.6231021,-0.00043188935,-0.12878624,0.0036050628,-0.0023052052,-0.013073699,-0.0024000502,0.007984786,0.4310935,-1.4428885,1.9777669,-2.1056125,-1.5691093,2.4051013,-0.12516013,0.2186362,-0.24582057,0.02404951,0.012596572,-0.13298361,0.05746084,0.19153613,-9.308656,0.8224646,47.694054,-1.0482454,-1.8002881,-3.4589953,-0.06092789,0.25191897,-0.40242183,26.1875,27.0,26.125,29.1875,30.3125,30.75
0.27005193,0.0015060842,-1.7173659,-1.3903689,-0.048461553,0.048273712,-0.11785186,-0.3903897,-0.3278088,0.060050275,3.0771217,-0.6230176,-0.00032878242,-0.12938556,0.0036617,-0.0027903104,-0.013020968,-0.0033523706,0.018001158,0.43085337,-1.4424325,1.9772762,-2.1055405,-1.5690492,2.40481,-0.1259096,0.22071238,-0.24718623,0.024252554,0.012954405,-0.14374918,0.15322891,0.2681506,-9.32781,0.8560339,47.72002,-1.1137142,-1.8470368,-3.4816422,-0.062946685,0.24468336,-0.27930024,26.1875,27.0,26.125,29.1875,30.3125,30.75
0.2720518,-0.50888765,-1.0914714,-1.3089993,-0.027989684,0.03335631,-0.114997454,-0.39063245,-0.32780826,0.06002728,3.077151,-0.62296313,-0.00025550456,-0.13085608,0.0036787654,-0.0023851017,-0.014061235,-0.002340971,0.022586703,0.43063667,-1.4419528,1.9767731,-2.1054685,-1.5690368,2.4045558,-0.12743826,0.221858,-0.2494506,0.024030242,0.01347365,-0.14986287,0.057460837,0.24899697,-9.3661175,0.81351066,47.67345,-0.9835775,-1.8278548,-3.5885077,-0.06796703,0.2517696,-0.21031192,26.1875,27.0,26.125,29.1875,30.3125,30.75
0.27405176,-0.28439566,-0.61450505,-1.5718534,-0.011790119,0.030397106,-0.11464897,-0.39090723,-0.3278029,0.06003027,3.0771434,-0.62276864,-0.0003211288,-0.13254656,0.003184064,-0.0014285035,-0.015741197,-0.0002982011,0.024814196,0.43038437,-1.4415218,1.9762815,-2.1054685,-1.5690249,2.4041834,-0.12830067,0.22269866,-0.25262272,0.023812015,0.014155031,-0.15295035,-0.05746084,0.2681506,-9.3661175,0.90527004,47.672558,-0.98928726,-1.753583,-3.4948597,-0.046731934,0.2447336,-0.15165064,26.1875,27.0,26.125,29.1875,30.3125,30.75
0.27605173,-0.32771486,-0.4606313,-1.2306705,-0.01477106,0.035922177,-0.12599537,-0.39116412,-0.32778716,0.06002268,3.0771346,-0.6227103,-0.00029735838,-0.1337067,0.0033716527,-0.0015495421,-0.01628909,-0.000770311,0.021860123,0.43011993,-1.44109,1.9758023,-2.1054204,-1.5690001,2.403884,-0.12997654,0.2246222,-0.25467798,0.024147596,0.014845976,-0.1516711,-0.21068975,0.2681506,-9.174581,0.8873621,47.6421,-0.9904274,-1.7585711,-3.6003609,-0.04560004,0.25067234,-0.11616943,26.1875,27.0,26.125,29.1875,30.3125,30.75
0.27805197,-0.7016082,-0.8186449,-1.1649742,-0.014211721,0.04059446,-0.11062333,-0.3914308,-0.32778627,0.060015842,3.077083,-0.6227055,-0.00021443167,-0.13593903,0.003123766,-5.2229003e-05,-0.017818308,0.002017694,0.012485129,0.42984363,-1.4406224,1.9752754,-2.1053483,-1.5689281,2.4036114,-0.13143511,0.22506995,-0.25882387,0.024675539,0.015055401,-0.14375293,-0.4405331,0.28730422,-9.193734,0.900793,47.651955,-1.063515,-1.7917027,-3.5318468,-0.034647174,0.24267691,-0.20018443,26.1875,27.0,26.125,29.1875,30.3125,30.75
0.28005216,-1.1894913,-0.6691746,-1.3567,-0.013191931,0.046342812,-0.10772735,-0.39168715,-0.3277748,0.05999923,3.077097,-0.62270975,-0.00018162941,-0.135537,0.002044913,-0.00070349954,-0.017244646,-0.00010732272,0.009028896,0.42960423,-1.4401542,1.9747723,-2.1052878,-1.5689281,2.4033732,-0.12922902,0.22800949,-0.26108626,0.026162447,0.015408365,-0.13808993,-0.7086837,0.2681506,-9.289502,0.8985519,47.655537,-1.0366417,-1.6616113,-3.3935184,-0.04225614,0.24252337,-0.27067477,26.1875,27.0,26.125,29.1875,30.3125,30.75
0.28205204,-1.3144164,-0.9796116,-1.3290123,-0.03260989,0.09065589,-0.11791209,-0.39196396,-0.3277694,0.06000317,3.0770516,-0.62270266,-0.00015032332,-0.13709384,0.0027681496,-0.00012093162,-0.016781464,3.299461e-05,0.0048069386,0.42932725,-1.4396983,1.9742335,-2.1052153,-1.56888,2.4030979,-0.1314429,0.22907823,-0.26420653,0.028288675,0.014927604,-0.13608052,-0.63206923,0.36391866,-9.270349,0.85826975,47.657326,-1.0448834,-1.72697,-3.4662344,-0.08277977,0.24861047,-0.31185812,26.1875,27.0,26.125,29.1875,30.3125,30.75
0.2840518,-2.256854,-1.6419464,-1.4868733,-0.036582787,0.10546099,-0.10399238,-0.39221346,-0.3277697,0.059988275,3.0770786,-0.6226102,-6.819132e-05,-0.13671997,0.0018503915,-7.3944175e-05,-0.016918695,-0.0011857963,0.0065362076,0.4291001,-1.4392191,1.9737056,-2.1051195,-1.5688561,2.4028099,-0.12974031,0.2302146,-0.26611733,0.030118916,0.015554685,-0.13610746,-0.7086837,0.30645782,-9.346964,0.8940802,47.650166,-1.1483119,-1.7364304,-3.3692408,-0.10148497,0.23868635,-0.3329364,26.1875,27.0,26.125,29.1875,30.3125,30.75
0.28605196,-2.4245737,-1.4601705,-1.3260032,-0.040253736,0.12467468,-0.11037894,-0.3924762,-0.32777056,0.05997703,3.0770187,-0.6225993,2.6306438e-05,-0.1378843,0.0024928106,0.00032014633,-0.01688279,-0.0007382676,0.00448611,0.42882347,-1.4387519,1.9731911,-2.105059,-1.5687722,2.4025342,-0.13164203,0.23064353,-0.2678057,0.031002741,0.015333905,-0.13595873,-0.80445176,0.24899697,-9.308657,0.9254084,47.660015,-1.1658816,-1.703804,-3.4316318,-0.1126175,0.2541926,-0.35206357,26.1875,27.0,26.125,29.1875,30.3125,30.75
0.2880497,-2.173289,-1.0375924,-1.413437,-0.03688463,0.13910998,-0.119023114,-0.39277887,-0.3277448,0.059989084,3.0770087,-0.6226732,-2.3874587e-05,-0.13896608,0.0026491042,0.0009758799,-0.018215252,6.4183114e-05,0.004084701,0.42853484,-1.4382843,1.972617,-2.104975,-1.5687956,2.4022934,-0.13329168,0.23057477,-0.26941904,0.03140176,0.016216356,-0.13720624,-0.842759,0.21068975,-9.423578,0.91421866,47.69763,-1.1774403,-1.6050682,-3.4560332,-0.1356738,0.24352095,-0.35819083,26.1875,27.0,26.125,29.1875,30.3125,30.75
0.29009596,-2.10042,-1.0110133,-1.480995,-0.019600222,0.12719178,-0.11036235,-0.39306015,-0.32773677,0.059979092,3.076981,-0.6226277,-4.7179333e-06,-0.13992763,0.0030735778,0.0001282371,-0.017444491,-0.0014842241,0.0071494393,0.42825833,-1.4378041,1.9720901,-2.1049392,-1.5687598,2.4019923,-0.13472538,0.23379508,-0.27131787,0.03182692,0.016164612,-0.14170334,-0.6895301,0.19153613,-9.3661175,0.9298854,47.672558,-1.0382433,-1.6078085,-3.4191513,-0.16084321,0.23112732,-0.35098875,26.1875,27.0,26.125,29.1875,30.3125,30.75
0.29210111,-1.2974703,-0.37461478,-1.432388,-0.01797847,0.120594546,-0.11800518,-0.39333457,-0.327734,0.059951123,3.0769513,-0.6225991,8.263393e-05,-0.14094415,0.0045299833,-0.0012064417,-0.016747119,-0.0032406342,0.011202097,0.42798153,-1.4372884,1.9715642,-2.104904,-1.5686997,2.4017017,-0.13820133,0.23630169,-0.2710055,0.030922377,0.016265457,-0.14923222,-0.59376204,0.076614454,-9.442732,0.9186956,47.657326,-1.0353087,-1.6780403,-3.5972233,-0.17486459,0.23971663,-0.28076646,26.1875,27.0,26.125,29.1875,30.3125,30.75
0.2940961,-1.3645582,-0.3500546,-1.4068664,-0.0019435576,0.09493199,-0.11578793,-0.39361918,-0.32771677,0.059938397,3.0769584,-0.6224993,0.00011889413,-0.14200538,0.003475751,-0.00090052036,-0.017032096,-0.0009395522,0.020926435,0.42769396,-1.4367967,1.9710244,-2.1048443,-1.5686764,2.4013512,-0.13657145,0.23818573,-0.27360803,0.02945516,0.015571115,-0.15732503,-0.63206923,0.019153614,-9.461885,0.8985519,47.658226,-1.0703877,-1.6711395,-3.5970235,-0.15664567,0.23279525,-0.18791819,26.1875,27.0,26.125,29.1875,30.3125,30.75
0.29610696,-1.0550123,0.09454864,-1.3855604,0.005148369,0.0834917,-0.118631236,-0.393905,-0.3276937,0.05993067,3.0769687,-0.62249863,0.00011016913,-0.14303645,0.0035449194,-0.0013769701,-0.016465854,-0.001152839,0.024946056,0.42741802,-1.4363165,1.970486,-2.1047843,-1.5686883,2.401074,-0.13716085,0.24087845,-0.27561513,0.029211285,0.015146625,-0.16193272,-0.4213795,-0.038307227,-9.423578,0.84484416,47.713753,-1.0221131,-1.8050567,-3.59511,-0.13099433,0.24703327,-0.09703019,26.1875,27.0,26.125,29.1875,30.3125,30.75
0.29810032,-0.37069255,0.5369165,-1.2165163,0.010048729,0.07810787,-0.120682485,-0.39419276,-0.32772052,0.059926067,3.076945,-0.6222823,0.00016194659,-0.14467297,0.0036685013,-0.0013977105,-0.01568227,-0.0015050111,0.024897628,0.42717737,-1.4357884,1.9698862,-2.1047242,-1.5686163,2.4007015,-0.13826661,0.24409927,-0.2796721,0.030712279,0.014578612,-0.16298777,-0.3256114,-0.11492168,-9.423578,0.85826975,47.70838,-1.0983514,-1.8754354,-3.4693,-0.16318771,0.27034205,-0.0546479,26.1875,27.0,26.125,29.1875,30.3125,30.75
0.3000532,-0.9042215,-0.037969723,-1.385644,0.027630078,0.04602003,-0.098094314,-0.39451703,-0.3276907,0.05992471,3.0769105,-0.62229663,0.000128399,-0.1456002,0.0032957976,-0.0010792945,-0.016133413,-0.0006255804,0.020886557,0.42684156,-1.435285,1.9693121,-2.1046884,-1.5686044,2.4003794,-0.13823682,0.24530889,-0.28188807,0.030730307,0.014622422,-0.15894532,-0.30645782,-0.038307227,-9.32781,0.8717007,47.692257,-1.1346987,-1.9065216,-3.4086251,-0.1788207,0.2837239,-0.08331858,26.1875,27.0,26.125,29.1875,30.3125,30.75
0.30205205,0.07028793,0.23791969,-1.4876658,0.02162738,0.04505086,-0.111374445,-0.39478728,-0.32768568,0.05991599,3.076916,-0.6222054,0.00016644792,-0.14681555,0.0033689006,-0.0006610047,-0.016527796,-2.3517689e-05,0.013896081,0.42658925,-1.4348049,1.9687728,-2.1046164,-1.5685805,2.4000697,-0.13933145,0.24637417,-0.28430632,0.031367518,0.014720276,-0.15304862,-0.19153613,0.038307227,-9.32781,0.95226496,47.69763,-1.0690262,-1.9590328,-3.3529391,-0.18356377,0.27434587,-0.12362253,26.1875,27.0,26.125,29.1875,30.3125,30.75
0.30405214,-0.24250066,-0.4785962,-1.6597723,0.006360947,0.02520393,-0.104696885,-0.3950695,-0.32767096,0.059912127,3.076924,-0.622171,0.00016912787,-0.14635153,0.0038060418,-0.0018590998,-0.014537527,-0.003899634,0.00839254,0.42632526,-1.4343256,1.9682225,-2.104543,-1.568581,2.3997836,-0.1394774,0.24908145,-0.28536132,0.034061532,0.014509236,-0.14769089,-0.1340753,0.17238252,-9.308657,0.8717007,47.713753,-1.0955441,-2.0288174,-3.4649038,-0.21367317,0.2847993,-0.20449415,26.1875,27.0,26.125,29.1875,30.3125,30.75
0.30605236,0.35801733,-1.2111453,-1.630566,-0.028080903,0.030786062,-0.1101223,-0.39539197,-0.32764614,0.05991541,3.0768874,-0.622265,0.00016689378,-0.14707892,0.004158144,-0.0013563976,-0.014325203,-0.003934564,-0.00079274835,0.42600074,-1.4338099,1.9676121,-2.104459,-1.5685686,2.3995228,-0.1404572,0.24933115,-0.28733376,0.035894748,0.014321698,-0.13948481,-0.1340753,0.17238252,-9.32781,0.88960326,47.70659,-1.0892525,-1.9506812,-3.524825,-0.22229704,0.3113383,-0.29989728,26.1875,27.0,26.125,29.1875,30.3125,30.75
0.30805174,-0.24317785,-2.3565717,-1.6718577,-0.042274673,0.019494064,-0.10039402,-0.39568368,-0.32763737,0.059904438,3.0768821,-0.62222683,0.00020472932,-0.14859734,0.0047628395,-0.001109327,-0.014481485,-0.0028309042,-0.0057699643,0.42572433,-1.4332948,1.9670376,-2.104387,-1.5685447,2.3992236,-0.14248976,0.2502593,-0.28899583,0.035561647,0.0139988335,-0.13653947,-0.038307227,0.2681506,-9.461885,0.8112748,47.70659,-1.1055167,-1.9810963,-3.4904082,-0.25214398,0.31740776,-0.34926593,26.1875,27.0,26.125,29.1875,30.3125,30.75
0.31005263,-0.042952247,-2.1346939,-1.7263954,-0.07013913,0.03611151,-0.108454116,-0.3959808,-0.32760552,0.059890997,3.076904,-0.62227,0.00023971614,-0.14905113,0.003976998,-0.00040806903,-0.015248421,-0.0010838076,-0.0073193386,0.4254247,-1.4327797,1.966463,-2.1042912,-1.5685567,2.3989484,-0.14126335,0.25021288,-0.29061157,0.03531321,0.013964767,-0.13376357,-0.038307227,0.2681506,-9.519346,0.9254084,47.705692,-1.1296741,-1.9560144,-3.4606857,-0.26645586,0.3352799,-0.45141324,26.1875,27.0,26.125,29.1875,30.3125,30.75
0.31205243,0.12440293,-1.7399186,-1.7926189,-0.07439552,0.039624043,-0.11741295,-0.39628854,-0.32759017,0.059896763,3.0768476,-0.6223756,0.00023237556,-0.15088594,0.0050486075,-0.00034701562,-0.01606503,-0.0017965023,-0.009717585,0.42512307,-1.4322886,1.9658769,-2.1042197,-1.5685323,2.3987203,-0.14529423,0.2518209,-0.29292208,0.036335457,0.015006777,-0.1353951,0.038307227,0.36391866,-9.519346,0.88289046,47.71554,-0.8943936,-1.8598442,-3.6080825,-0.31037804,0.33841056,-0.4901424,26.1875,27.0,26.125,29.1875,30.3125,30.75
0.31405234,0.021742037,-1.5345802,-1.683107,-0.069460176,0.050084528,-0.11844559,-0.39657232,-0.32758647,0.05987842,3.07683,-0.6223674,0.00032322138,-0.151492,0.004686567,0.00050713186,-0.01782185,-0.0006088489,-0.0026961379,0.42484722,-1.4317613,1.9653019,-2.1041358,-1.5684837,2.3984418,-0.14572446,0.2510735,-0.29420754,0.036584713,0.016121496,-0.14284736,0.095768064,0.4213795,-9.634268,0.90750587,47.694054,-1.0128744,-1.7633929,-3.5698066,-0.32576162,0.3221623,-0.474434,26.1875,27.0,26.125,29.1875,30.3125,30.75
0.31605235,-0.17284928,-1.5534215,-1.6247842,-0.06153827,0.0599866,-0.10983234,-0.39687702,-0.32759133,0.05987649,3.0768046,-0.6222604,0.00035322554,-0.15283161,0.005105396,-0.00030473547,-0.01830412,-0.001382335,0.0058230786,0.42457047,-1.4312333,1.964691,-2.1040637,-1.568436,2.3981018,-0.14796565,0.25406083,-0.29563186,0.035559777,0.016891193,-0.15360665,0.11492168,0.45968673,-9.5385,0.9791215,47.686886,-0.8546615,-1.7555637,-3.6410081,-0.32531446,0.30975118,-0.39974028,26.1875,27.0,26.125,29.1875,30.3125,30.75
0.31805238,-0.38684452,-1.4141966,-1.7107302,-0.05167617,0.055802662,-0.10910981,-0.39718425,-0.32758272,0.059862766,3.0767646,-0.6222455,0.00042602074,-0.1536364,0.004119753,-0.00048249398,-0.019583894,-0.0008371357,0.01712357,0.42425877,-1.4306934,1.9640936,-2.1039927,-1.5683755,2.3977861,-0.14729495,0.2564021,-0.29773024,0.034328174,0.017838908,-0.1642355,0.15322891,0.4213795,-9.653421,0.9164598,47.693153,-1.0112652,-1.7864202,-3.6594038,-0.33734137,0.3242138,-0.27785468,26.1875,27.0,26.125,29.1875,30.3125,30.75
0.32005233,-0.7109425,-1.5836636,-1.7675831,-0.043637685,0.040175434,-0.10071949,-0.39751944,-0.32756075,0.059864648,3.0767462,-0.6222378,0.00035369062,-0.15469857,0.0030421482,-0.00019689342,-0.020353325,0.0008168994,0.02500862,0.42394704,-1.4301659,1.9634823,-2.103957,-1.5683874,2.3974724,-0.1460657,0.25843614,-0.3005983,0.03335654,0.017870216,-0.17088877,0.1340753,0.38307226,-9.634268,0.8560339,47.686886,-1.0059818,-1.8572667,-3.651911,-0.35257506,0.3190667,-0.16367769,26.1875,27.0,26.125,29.1875,30.3125,30.75
0.32205248,0.00474745,-1.3783245,-1.628244,-0.05026648,0.05318246,-0.11213906,-0.39781582,-0.32758304,0.05987446,3.0767088,-0.6220187,0.00037393812,-0.15659004,0.0033809147,-0.00029385244,-0.021143805,0.0016210503,0.024173206,0.4236942,-1.4296615,1.962871,-2.103886,-1.5683154,2.3970878,-0.14837143,0.26073173,-0.3028608,0.032284435,0.018263148,-0.17235707,-0.019153614,0.3256114,-9.5385,0.9254084,47.723602,-0.92965466,-1.8378904,-3.5614595,-0.33290505,0.3244924,-0.13224639,26.1875,27.0,26.125,29.1875,30.3125,30.75
0.3240516,-0.33898205,-1.2197639,-1.4758132,-0.054106582,0.04374919,-0.10436714,-0.39813754,-0.32756755,0.059867326,3.0766783,-0.6220345,0.00038184543,-0.15700157,0.0028544562,-0.0006734666,-0.02111504,0.00151373,0.020235363,0.4233828,-1.4291217,1.9622601,-2.1038258,-1.5682915,2.3967905,-0.14759791,0.26280013,-0.30437654,0.03184063,0.018275272,-0.16764462,-0.05746084,0.30645782,-9.5385,0.83589023,47.67793,-1.1203804,-1.9519124,-3.5901349,-0.34083122,0.31471336,-0.15863287,26.1875,27.0,26.125,29.1875,30.3125,30.75
0.32605246,0.5499033,-0.876944,-1.6102222,-0.051777024,0.06647209,-0.12409815,-0.39845353,-0.3275681,0.059872564,3.076619,-0.6219698,0.00039051587,-0.15905118,0.0030858752,-0.00027163696,-0.02152614,0.0029728569,0.009833553,0.42308226,-1.4286063,1.9616488,-2.1037662,-1.5682315,2.3964574,-0.14940937,0.26474434,-0.30757546,0.03159245,0.018040616,-0.1590519,0.0,0.40222588,-9.5385,0.9791215,47.687782,-1.0379522,-2.0369859,-3.7292328,-0.3424706,0.32594714,-0.25450224,26.1875,27.0,26.125,29.1875,30.3125,30.75
0.3280525,-0.10915018,-0.66868705,-1.7068812,-0.047941167,0.042512782,-0.11229171,-0.39877614,-0.32755476,0.0598749,3.0766058,-0.62191045,0.0003733081,-0.1609155,0.0028021762,0.00012462758,-0.02278438,0.004374829,0.005534814,0.42278183,-1.4280787,1.961027,-2.1036947,-1.5682186,2.396122,-0.15064318,0.26679567,-0.31080288,0.030972142,0.01860709,-0.1559848,-0.076614454,0.34476504,-9.557653,0.9298854,47.690468,-1.0244489,-2.0170488,-3.5190473,-0.32060814,0.32348007,-0.32938468,26.1875,27.0,26.125,29.1875,30.3125,30.75
0.3300524,-1.1192814,-1.4892014,-1.4530642,-0.049961627,0.035818193,-0.10719562,-0.39909536,-0.32757378,0.0598797,3.0765164,-0.62191266,0.0003773951,-0.16219787,0.0026375689,0.0009081796,-0.024023993,0.006230537,0.0034169676,0.42250553,-1.4275395,1.9603919,-2.103647,-1.5681471,2.3958588,-0.15148635,0.26695347,-0.3128334,0.03065613,0.01898089,-0.15470846,-0.17238252,0.3256114,-9.615114,0.9567419,47.672558,-0.89099944,-1.9593071,-3.5783067,-0.31524038,0.33037937,-0.3499513,26.1875,27.0,26.125,29.1875,30.3125,30.75
0.3320522,-1.7488189,-1.80928,-1.4424086,-0.054094728,0.05324819,-0.10293773,-0.39941293,-0.3275447,0.059860796,3.0765495,-0.62188065,0.00037203528,-0.16404672,0.0026289693,0.0013880009,-0.024677731,0.0077771572,0.0029894286,0.42220506,-1.4269879,1.9597934,-2.103587,-1.5681709,2.3955345,-0.15281193,0.26865977,-0.3159529,0.030395253,0.018939978,-0.15560517,-0.3256114,0.30645782,-9.461885,0.90750587,47.642998,-0.99815965,-1.9400157,-3.5252824,-0.31036052,0.3222544,-0.36647296,26.1875,27.0,26.125,29.1875,30.3125,30.75
0.33405215,-0.805053,-1.2676176,-1.4113909,-0.046042975,0.075708576,-0.11504805,-0.39975494,-0.32756084,0.059884682,3.0764642,-0.6218622,0.00037710884,-0.16514374,0.0022618787,0.0027075922,-0.026643246,0.010402954,0.003889993,0.421905,-1.4264371,1.9590873,-2.1034791,-1.5680989,2.395234,-0.15334456,0.2674596,-0.31767493,0.030135164,0.019668162,-0.15703708,-0.24899697,0.21068975,-9.461885,0.8717007,47.666286,-1.0022488,-1.7442985,-3.4998698,-0.29910204,0.3097907,-0.3915723,26.1875,27.0,26.125,29.1875,30.3125,30.75
0.33609277,-1.0918547,-0.72431415,-1.4015853,-0.043523487,0.085951276,-0.12266728,-0.40007427,-0.3275704,0.05989595,3.0763683,-0.62176245,0.000355933,-0.16638952,0.0026938997,0.0029804162,-0.027185682,0.011220496,0.00874103,0.4216043,-1.4259382,1.9584879,-2.1034553,-1.568015,2.3948836,-0.1551119,0.2681344,-0.31916243,0.030015789,0.019853504,-0.16365343,-0.2873042,0.11492168,-9.5385,1.005978,47.682407,-1.0193384,-1.6589229,-3.546132,-0.29860008,0.31842873,-0.3404671,26.1875,27.0,26.125,29.1875,30.3125,30.75
0.33805817,-1.0332968,-0.4265985,-1.2931826,-0.025750097,0.091005296,-0.12273029,-0.4004021,-0.32755247,0.059891365,3.0763626,-0.6217541,0.00037406344,-0.16672428,0.0011311481,0.0030610855,-0.027766507,0.012336943,0.02146926,0.42129344,-1.425382,1.9578427,-2.1033604,-1.568003,2.3945687,-0.15242353,0.27017447,-0.32163182,0.029222956,0.019941129,-0.17369208,-0.36391866,0.05746084,-9.442732,0.8918391,47.694946,-1.169168,-1.6511459,-3.649807,-0.29779625,0.30831283,-0.23910202,26.1875,27.0,26.125,29.1875,30.3125,30.75
0.34005824,-0.4296604,0.29802272,-1.294896,-0.01643383,0.10197555,-0.13052937,-0.4007544,-0.32757714,0.0599082,3.0762534,-0.62155366,0.00028177135,-0.16674863,0.0012323118,0.0019467047,-0.027629694,0.010990491,0.029281486,0.42099354,-1.4248432,1.9571956,-2.1033847,-1.5679187,2.394158,-0.15275243,0.27222797,-0.3213272,0.028190807,0.02040828,-0.18183053,-0.34476504,0.11492168,-9.423578,0.9791215,47.68062,-1.084073,-1.5820814,-3.6630974,-0.26201418,0.30487534,-0.121387616,26.1875,27.0,26.125,29.1875,30.3125,30.75
0.34205765,-0.6014935,-0.13167845,-1.2924262,0.0066248123,0.09553202,-0.112418495,-0.40108374,-0.3275416,0.05989989,3.0762932,-0.6215424,0.00026762133,-0.16785984,0.0012348869,0.001117588,-0.027691878,0.010103934,0.030517273,0.42068094,-1.4242903,1.9565619,-2.103289,-1.5679544,2.3938336,-0.15377523,0.27566344,-0.32335618,0.027572809,0.020828964,-0.18408798,-0.40222588,-0.095768064,-9.423578,0.9612189,47.688675,-1.1735203,-1.7039435,-3.6771395,-0.2328018,0.2972685,-0.06516421,26.1875,27.0,26.125,29.1875,30.3125,30.75
0.3440582,-1.0388387,0.14793628,-1.3579081,0.0075798985,0.07392424,-0.11400197,-0.40143517,-0.32756945,0.059939604,3.0761483,-0.6214392,0.00017163213,-0.16970767,0.00078024814,0.0014716173,-0.028498387,0.011835521,0.025501179,0.42038086,-1.4237864,1.955891,-2.1032655,-1.5678586,2.393488,-0.15431139,0.27803373,-0.32680893,0.026757022,0.020873504,-0.17960316,-0.45968673,-0.019153614,-9.385271,0.91198283,47.72002,-1.1480869,-1.8644857,-3.5074716,-0.2171581,0.29203042,-0.06892288,26.1875,27.0,26.125,29.1875,30.3125,30.75
0.3460537,-0.76583034,0.3116701,-1.2373517,0.004843617,0.06662784,-0.12063813,-0.40177038,-0.32756642,0.059924237,3.076124,-0.62132275,0.00020184569,-0.17140108,0.0007413166,0.00093505427,-0.028745338,0.010716074,0.016807988,0.42006868,-1.4231982,1.9552435,-2.103217,-1.5678099,2.3931065,-0.15588742,0.28218746,-0.33061033,0.027319293,0.021544324,-0.17248344,-0.36391866,0.019153614,-9.481039,0.9254084,47.723602,-1.3159595,-1.8303216,-3.5952783,-0.19670422,0.26549667,-0.14314587,26.1875,27.0,26.125,29.1875,30.3125,30.75
0.34805256,-0.539896,0.20127454,-1.2551856,-0.005556999,0.07135546,-0.11977802,-0.40209293,-0.32753167,0.059896573,3.0761817,-0.6213391,0.0002689227,-0.17210272,0.000108956876,0.0019092241,-0.029185494,0.011941658,0.008905822,0.4197567,-1.422601,1.9545969,-2.1030972,-1.5678343,2.3927977,-0.15506043,0.28236085,-0.33351713,0.028733145,0.021422826,-0.16375494,-0.47884035,0.0,-9.461885,0.9791215,47.721813,-1.1938461,-1.9154843,-3.3999295,-0.18943886,0.28622836,-0.24446994,26.1875,27.0,26.125,29.1875,30.3125,30.75
0.35005274,-0.96128136,-0.33308688,-1.4924226,-0.0063163606,0.057682477,-0.11572847,-0.4024367,-0.32755283,0.059909765,3.0760322,-0.6213697,0.00025351302,-0.17336889,0.0008409045,0.0015599268,-0.028467897,0.011369293,0.0016637373,0.41944405,-1.4220562,1.9539388,-2.103073,-1.5677265,2.3925235,-0.15697627,0.28457934,-0.3355437,0.029367007,0.021009251,-0.15842612,-0.45968673,0.1340753,-9.442732,0.9679317,47.719128,-1.1198276,-1.879903,-3.4747114,-0.20051885,0.27569064,-0.3132515,26.1875,27.0,26.125,29.1875,30.3125,30.75
0.35205182,-0.55855083,-0.3330328,-1.3473046,-0.035971608,0.084889114,-0.12775114,-0.40278885,-0.32755077,0.059947062,3.076011,-0.6212911,0.00011047466,-0.17506419,0.00052224845,0.00254002,-0.029332252,0.013691077,-0.0031214843,0.41916782,-1.4215394,1.9532436,-2.102989,-1.5677503,2.3922014,-0.15750803,0.28538764,-0.33884174,0.029374849,0.020859368,-0.15416932,-0.4405331,0.17238252,-9.385271,0.9030289,47.64389,-1.2127082,-1.8440955,-3.446886,-0.16828832,0.28284878,-0.40079287,26.1875,27.0,26.125,29.1875,30.3125,30.75
0.35405216,-1.0897952,-1.6387262,-1.5510938,-0.044829194,0.090114325,-0.1247936,-0.40314874,-0.32755607,0.059957735,3.0759442,-0.6212379,0.00010872861,-0.17434704,0.000622679,0.0024390642,-0.029871536,0.012859188,-0.0039911936,0.41884434,-1.4209508,1.9525269,-2.102905,-1.5676898,2.3918536,-0.15745975,0.2843172,-0.3376366,0.029791426,0.021706667,-0.15325123,-0.45968673,0.2681506,-9.519346,0.98135734,47.658226,-1.2444558,-1.7507753,-3.5505404,-0.14616597,0.24868515,-0.47144362,26.1875,27.0,26.125,29.1875,30.3125,30.75
0.3560524,-1.4626125,-2.1368546,-1.5791907,-0.06133242,0.08506246,-0.12242294,-0.40349263,-0.32753846,0.05995789,3.0758781,-0.62131643,9.8621036e-05,-0.17283645,0.0016775955,0.0004228521,-0.027244212,0.0071238144,-0.0005392459,0.41850874,-1.4203982,1.9518803,-2.102844,-1.567654,2.3915758,-0.15793549,0.28647426,-0.33630526,0.032636024,0.021667283,-0.15717949,-0.24899697,0.3256114,-9.615114,0.94331104,47.66539,-1.296331,-1.6231847,-3.7239628,-0.14457266,0.25337633,-0.48789138,26.1875,27.0,26.125,29.1875,30.3125,30.75
0.3580524,-1.2234937,-2.0973942,-1.5282177,-0.06515292,0.07656317,-0.123551205,-0.40386248,-0.3275579,0.05998818,3.0757697,-0.621249,3.0303909e-05,-0.17463535,0.0021133772,0.0020249346,-0.028067488,0.009844209,0.008715374,0.41819662,-1.4198338,1.9511513,-2.1027834,-1.5675825,2.3912358,-0.15979533,0.28545395,-0.33920336,0.033787318,0.021356612,-0.16829138,-0.28730422,0.3256114,-9.5385,0.91198283,47.68062,-1.276236,-1.5653085,-3.8082933,-0.1678941,0.25388345,-0.39652282,26.1875,27.0,26.125,29.1875,30.3125,30.75
0.36005244,-0.31945884,-1.1836915,-1.3425951,-0.079710856,0.0734797,-0.13878062,-0.4042137,-0.32753894,0.05997869,3.0757382,-0.62119645,6.3930297e-06,-0.17714907,0.0022560086,0.0033094464,-0.02919232,0.012878652,0.019454218,0.41786075,-1.4192569,1.9505042,-2.1027486,-1.5675582,2.3908715,-0.16179386,0.2862537,-0.34321108,0.03381666,0.021184968,-0.18102652,-0.21068975,0.34476504,-9.576807,0.9612189,47.70211,-1.1394268,-1.5026929,-3.6672323,-0.1388467,0.26084664,-0.2759353,26.1875,27.0,26.125,29.1875,30.3125,30.75
0.36205262,-0.35410988,-1.0628957,-1.7906373,-0.060769875,0.03541746,-0.12270161,-0.40457895,-0.32752794,0.05998484,3.0757248,-0.6210766,-3.981075e-05,-0.17897445,0.0032861663,0.002372091,-0.02888925,0.010828252,0.022861097,0.417536,-1.418667,1.9497975,-2.1026762,-1.5675458,2.390474,-0.16532564,0.29030982,-0.34606934,0.034644593,0.021766035,-0.18796238,-0.095768064,0.40222588,-9.576807,0.9791215,47.72002,-1.0794857,-1.5736377,-3.669858,-0.14184974,0.23646146,-0.2020466,26.1875,27.0,26.125,29.1875,30.3125,30.75
0.36405313,-0.103166655,-1.5131929,-1.7176458,-0.042860847,0.026979474,-0.12659179,-0.404943,-0.32752335,0.060010687,3.075662,-0.6210421,-5.940986e-05,-0.17962216,0.002307031,0.0014236297,-0.028959962,0.009239483,0.02427441,0.41720128,-1.4181045,1.9490665,-2.1025565,-1.5674976,2.3901262,-0.16433808,0.2948074,-0.34923932,0.03475618,0.022485126,-0.18838468,-0.1340753,0.34476504,-9.672575,0.9612189,47.72002,-1.1782612,-1.7295346,-3.5329685,-0.13010345,0.22797477,-0.1466533,26.1875,27.0,26.125,29.1875,30.3125,30.75
0.36605233,-0.03971085,-1.5380883,-1.4563327,-0.058598313,0.032491244,-0.12138456,-0.40530816,-0.32750517,0.060024213,3.0755713,-0.62104577,-0.00012242504,-0.18281972,0.0014071299,0.0026163822,-0.031608555,0.012951232,0.016669767,0.41684133,-1.4175632,1.9484066,-2.1025207,-1.5674495,2.3897805,-0.1656728,0.29747447,-0.3548037,0.033181474,0.023396516,-0.18210904,-0.22984336,0.34476504,-9.672575,0.9679317,47.694054,-1.0437393,-1.7026491,-3.4267573,-0.08707945,0.20498821,-0.19139463,26.1875,27.0,26.125,29.1875,30.3125,30.75
0.36805254,-0.63473433,-1.6290087,-1.2651627,-0.047664937,0.03364208,-0.12522918,-0.40568674,-0.32751495,0.06003475,3.075515,-0.6210181,-0.00015621586,-0.18333837,0.0019821948,0.0023613172,-0.031509977,0.01226266,0.009307067,0.41652936,-1.4169344,1.9476417,-2.1024363,-1.5674132,2.389459,-0.16705313,0.298287,-0.35544035,0.033669483,0.023587322,-0.17612538,-0.19153613,0.40222588,-9.519346,0.9947882,47.686886,-0.9601201,-1.8307432,-3.3884044,-0.057590432,0.18521062,-0.28505757,26.1875,27.0,26.125,29.1875,30.3125,30.75
0.37005237,-0.47703883,-1.1158735,-1.5583215,-0.041930445,0.05255132,-0.12845725,-0.40605247,-0.32753393,0.060052197,3.0754576,-0.6208144,-0.00020575618,-0.18316658,0.0029665527,0.0010106992,-0.029247986,0.008419715,0.0059099277,0.4162295,-1.416345,1.9469117,-2.1023762,-1.5673531,2.3890395,-0.16818252,0.3010216,-0.35623997,0.03617626,0.023091892,-0.17385632,-0.19153613,0.40222588,-9.5385,0.9298854,47.67345,-0.9956976,-1.6869376,-3.5609803,-0.063604526,0.18040535,-0.34190586,26.1875,27.0,26.125,29.1875,30.3125,30.75
0.37205163,-0.6878343,-1.3202084,-1.2805594,-0.04317927,0.06805348,-0.12394272,-0.4064405,-0.3275313,0.060085963,3.0753095,-0.6208433,-0.0002857434,-0.18402132,0.0037797317,0.00091518403,-0.029451288,0.0073257973,5.6433222e-05,0.41585764,-1.4157959,1.9461931,-2.102328,-1.5672692,2.388705,-0.1705368,0.30197495,-0.3575646,0.03747548,0.023739018,-0.17035346,-0.095768064,0.40222588,-9.5385,1.0283576,47.67793,-1.0441854,-1.7785077,-3.534625,-0.051190622,0.16922666,-0.3816699,26.1875,27.0,26.125,29.1875,30.3125,30.75
0.37405258,-1.0311712,-0.9476446,-0.814675,-0.06429328,0.06235142,-0.12712592,-0.40676498,-0.32751927,0.0600487,3.0753214,-0.620843,-0.00019250358,-0.18341987,0.0032246755,0.00045228418,-0.02936452,0.0058191926,0.0026669914,0.4155586,-1.415167,1.945536,-2.1022437,-1.5672449,2.3884046,-0.16920462,0.3030504,-0.35813805,0.038400814,0.024267849,-0.17163275,-0.17238252,0.22984336,-9.3661175,0.9791215,47.658226,-0.9622941,-1.6367152,-3.7193272,-0.07582274,0.1561982,-0.39349496,26.1875,27.0,26.125,29.1875,30.3125,30.75
