Tylouw/Master_Thesis_Code/training_data/batch_1/big_rod_t0.2/sample_36_session_1.csv
timestamp[s],tcp_force_x[N],tcp_force_y[N],tcp_force_z[N],tcp_force_rx[Nm?],tcp_force_ry[Nm?],tcp_force_rz[Nm?],tcp_pose_x[m],tcp_pose_y[m],tcp_pose_z[m],tcp_pose_rx[rot_vec_x],tcp_pose_ry[rot_vec_y],tcp_pose_rz[rot_vec_z],tcp_velo_x[m/s],tcp_velo_y[m/s],tcp_velo_z[m/s],tcp_velo_rx[rot_vec_x/s],tcp_velo_ry[rot_vec_y/s],tcp_velo_rz[rot_vec_z/s],q1[rad],q2[rad],q3[rad],q4[rad],q5[rad],q6[rad],qd1[rad/s],qd2[rad/s],qd3[rad/s],qd4[rad/s],qd5[rad/s],qd6[rad/s],tool_acc_x,tool_acc_y,tool_acc_z,current_of_whole_robot[A],voltage_of_whole_robot[V],current_J1[A],current_J2[A],current_J3[A],current_J4[A],current_J5[A],current_J6[A],temp_J1[C],temp_J2[C],temp_J3[C],temp_J4[C],temp_J5[C],temp_J6[C]
6.8498775e-07,-0.6404457,-0.5626121,0.16245341,-0.019158065,0.015659241,-0.0201134,-0.37292936,-0.3282139,0.05996279,-3.078499,0.6249085,-0.00016830137,0.0028315035,0.0013874007,-0.003964907,0.004046266,-0.008686479,-6.0944178e-05,0.44811413,-1.4708611,2.009537,-2.1077268,-1.5706857,2.4230556,-0.00012250639,0.003877831,0.0045796763,0.0011239686,0.00012903988,-6.4257925e-05,0.038307227,0.22984336,-8.925584,0.77545905,47.682407,-0.17533457,-2.9084373,-2.4555597,-0.5105314,0.12945554,-0.11485453,26.4375,27.3125,26.4375,29.5625,30.875,31.375
0.00205219,-0.8063603,-0.5189826,0.27124977,-0.010798568,0.0069625904,-0.012383738,-0.37287924,-0.32819176,0.05992129,-3.0784068,0.6249278,-0.00031625098,-0.000104154155,-3.252246e-05,-0.003169414,-0.00044450062,0.0006061383,-5.6876732e-05,0.44812617,-1.470849,2.009609,-2.1076834,-1.5706977,2.4230914,-0.00012045679,0.003994321,0.0051392135,-0.009872897,0.0001264498,-6.33533e-05,0.038307227,0.19153613,-8.925584,0.72622824,47.699425,-0.14260645,-2.8107948,-2.3649518,-0.46332175,0.1307916,-0.12056133,26.4375,27.3125,26.4375,29.5625,30.875,31.375
0.004052726,0.099447675,-0.33448634,0.13919929,0.0019519783,0.021072552,-0.021615496,-0.3728905,-0.32821456,0.059927654,-3.0784922,0.6248879,-0.00028507024,-0.0017607476,-0.0008338913,-0.002186932,-0.0027891935,0.0054631964,-5.4075e-05,0.44812617,-1.4708492,2.0096085,-2.1077445,-1.5706495,2.4230556,-0.00011847476,0.0036028626,0.004256471,-0.013992074,0.00012396186,-6.247378e-05,0.019153614,0.1340753,-8.90643,0.70608455,47.71554,-0.1675335,-3.0043104,-2.5311887,-0.3628062,0.13433108,-0.104668856,26.4375,27.3125,26.4375,29.5625,30.875,31.375
0.006051757,0.0038976625,0.35795566,0.09330869,0.010155802,-0.0029866633,-0.021605765,-0.37287632,-0.32822052,0.059906423,-3.078477,0.6248462,-0.00033295245,-0.0008466309,-0.00039758897,-0.0016683666,-0.0014432006,0.0026538747,-5.4097993e-05,0.44815025,-1.4708138,2.0096204,-2.1077535,-1.5706495,2.4230556,-0.00011655698,0.0024934222,0.0030429,-0.0085539855,0.0001377802,-6.1618295e-05,-0.019153614,0.095768064,-8.983045,0.7150385,47.689575,-0.18099077,-2.9428039,-2.4742742,-0.3839237,0.15094483,-0.11565827,26.4375,27.3125,26.4375,29.5625,30.875,31.375
0.008051818,0.32506993,0.7569359,-0.42564678,0.044370778,-0.029086065,-0.012594553,-0.3729089,-0.32822102,0.05992381,-3.0784686,0.624825,-0.00020287647,1.8278883e-05,2.0420333e-05,-0.001427626,-9.8978555e-05,-0.000118669705,-5.398951e-05,0.4481623,-1.470802,2.0095727,-2.107776,-1.5707096,2.4230556,-0.00011470008,0.0018507142,0.0021395253,-0.003926686,0.00013623081,-6.0785947e-05,-0.019153614,0.11492168,-9.059659,0.75755644,47.696735,-0.13053888,-2.9214654,-2.4697022,-0.41191033,0.13305706,-0.10137602,26.4375,27.3125,26.4375,29.5625,30.875,31.375
0.010051913,0.2722126,1.004305,-0.89376986,0.053050812,-0.03256405,-0.012554858,-0.3728895,-0.3282162,0.059908543,-3.078445,0.6249163,-0.00033800674,0.0002541287,0.00013452458,-0.0011442517,0.0002956398,-0.0009266504,-4.4453922e-05,0.4481382,-1.4707903,2.0095837,-2.1077273,-1.5706614,2.4230914,-0.00011298788,0.0014203656,0.0015160877,-0.0019737019,0.00013376871,-6.88853e-05,-0.038307227,0.11492168,-9.270349,0.78217715,47.70211,-0.58411735,-2.298125,-3.0991266,-0.46469116,0.13385707,-0.17914546,26.4375,27.3125,26.4375,29.5625,30.875,31.375
0.012052174,0.37233725,0.47186732,-0.7642487,0.022868712,-0.0070663635,-0.028487474,-0.37286177,-0.3282068,0.059888557,-3.0784304,0.62477845,-0.00036124038,0.00041226493,0.0002455696,-0.0044337944,0.003434693,-0.007454517,-8.819229e-05,0.44816226,-1.4707993,2.0096424,-2.1077397,-1.5706857,2.4230313,-0.00018225866,0.009642953,-0.00010600824,-0.0013308062,0.00013133316,-9.2324626e-05,0.095768064,0.038307227,-9.500193,0.7284641,47.685097,-0.680903,-2.3120017,-3.2592716,-0.4580211,0.11398047,-0.21069165,26.4375,27.3125,26.4375,29.5625,30.875,31.375
0.014052162,-0.5725981,-0.4407827,-1.0357491,-0.014780895,0.009079347,-0.024059778,-0.37288332,-0.32820126,0.05987744,-3.0784209,0.6248733,-0.0004665499,-0.0057122842,0.0009945869,-0.0034476134,0.0022635893,-0.005065033,-0.0018750444,0.44809955,-1.4707371,2.0095913,-2.1077034,-1.5706376,2.423029,-0.00716851,0.016253022,-0.009687655,-0.0010208804,0.00012898105,-0.0052850046,-0.038307227,-0.019153614,-9.653421,0.7284641,47.682407,-0.34872675,-2.7621915,-2.9287667,-0.46365753,0.13331494,-0.20552221,26.4375,27.3125,26.4375,29.5625,30.875,31.375
0.016052293,-1.7438684,-1.3278402,-1.2399503,-0.03821399,0.025652865,-0.014691337,-0.37286976,-0.32820725,0.059864752,-3.078411,0.624811,-0.0005120242,-0.0060179452,0.0017974165,-0.003706666,0.002619395,-0.005804694,0.0032266045,0.44812313,-1.4707131,2.0095913,-2.107691,-1.5706376,2.4230149,-0.0089555625,0.016386408,-0.009310762,-0.000711279,0.00012671093,-0.012174005,-0.22984336,0.114921674,-9.749189,0.7732232,47.71465,-0.3857249,-2.6411564,-3.111947,-0.47495162,0.12844059,-0.15044515,26.4375,27.3125,26.4375,29.5625,30.875,31.375
0.018051887,-1.9038672,-1.7786673,-1.1576208,-0.060034342,0.07036378,-0.028029567,-0.37287104,-0.3281735,0.059847593,-3.078301,0.62474895,-0.0005120683,-0.0053609265,0.0016416492,-0.0039089127,0.0029227424,-0.006429731,0.005333129,0.4481234,-1.4706773,2.0095804,-2.107643,-1.5707334,2.4229906,-0.008063216,0.016163526,-0.008664209,-0.0004416307,0.00012451947,-0.013388692,-0.38307226,0.3256114,-9.921572,0.7642693,47.68599,-0.57197404,-2.4310937,-3.4989505,-0.4653126,0.12028877,-0.15404907,26.4375,27.3125,26.4375,29.5625,30.875,31.375
0.020051863,-2.3014877,-1.6993229,-1.0252272,-0.07025792,0.088232785,-0.044111494,-0.37285218,-0.32819447,0.05983124,-3.0783417,0.62477666,-0.0006359075,-0.006550084,0.0013549618,-0.0040096752,0.0031729443,-0.006958391,0.0051748534,0.4481231,-1.4706522,2.0095904,-2.107643,-1.5706495,2.4230022,-0.00860744,0.019149099,-0.011898264,0.0003927889,0.00012240258,-0.013772469,-0.49799395,0.4405331,-9.80665,0.8112748,47.698532,-0.6006769,-2.3935637,-3.5102673,-0.48318893,0.13018532,-0.17785588,26.4375,27.3125,26.4375,29.5625,30.875,31.375
0.02205192,-1.9142059,-1.2926016,-1.1226944,-0.04993137,0.08818574,-0.061993137,-0.37289774,-0.3281929,0.059827525,-3.0783286,0.62479365,-0.00062517676,-0.008101679,0.0014297066,-0.0035795213,0.0027038732,-0.005992292,0.004559847,0.44808665,-1.470568,2.0095065,-2.107643,-1.5706614,2.4229782,-0.010158858,0.020522786,-0.014406919,0.00045350858,0.000120569995,-0.014707171,-0.49799395,0.4213795,-9.787497,0.7083204,47.664497,-0.7513733,-2.4335723,-3.3707883,-0.48153412,0.13124885,-0.18935639,26.4375,27.3125,26.4375,29.5625,30.875,31.375
0.024052326,-1.8730432,-1.0558174,-1.1691487,-0.024909856,0.06468586,-0.07180789,-0.37289068,-0.3281891,0.0598025,-3.0783226,0.6247156,-0.00066917535,-0.009481141,0.0017783261,-0.003125144,0.002201815,-0.0049762195,0.0039055077,0.44808596,-1.470532,2.0095298,-2.1076672,-1.5706614,2.4229295,-0.012075523,0.02110944,-0.01608274,0.000409172,0.00012786119,-0.015968405,-0.5363012,0.34476504,-9.710882,0.7463667,47.622402,-0.7750118,-2.4095562,-3.423676,-0.47653675,0.119764075,-0.18788671,26.4375,27.3125,26.4375,29.5625,30.875,31.375
0.026052337,-1.2651995,-0.6810073,-1.182704,-0.020590741,0.06291033,-0.0944799,-0.37295172,-0.32818836,0.0598498,-3.0783527,0.6247024,-0.00048918277,-0.010335787,0.0019158385,-0.00263702,0.0017069468,-0.0039430014,0.003825801,0.44806165,-1.4705439,2.0094345,-2.1076672,-1.5707096,2.4228933,-0.013108166,0.021056918,-0.017135391,0.00036778153,0.0001250093,-0.016920684,-0.61291564,0.38307226,-9.787497,0.7866488,47.670765,-0.77404845,-2.394465,-3.5086067,-0.47365662,0.1291603,-0.19755548,26.4375,27.3125,26.4375,29.5625,30.875,31.375
0.028052585,-1.4663752,-0.90208477,-1.1439493,-0.01888484,0.05836275,-0.10143726,-0.37294075,-0.32819173,0.059813138,-3.0783668,0.62472504,-0.0007004062,-0.01203976,0.0020023414,-0.00218407,0.0011659152,-0.0028564497,0.0032771137,0.44801298,-1.4704714,2.0094335,-2.107643,-1.5706137,2.4228568,-0.014827793,0.022563227,-0.01981981,0.0003336747,0.00013362424,-0.018089795,-0.63206923,0.3256114,-9.749189,0.7396539,47.629562,-0.7251822,-2.2868128,-3.4534433,-0.46046582,0.13605532,-0.19195372,26.4375,27.3125,26.4375,29.5625,30.875,31.375
0.030052695,-1.8278086,-0.5928503,-0.9061995,-0.021614192,0.06071298,-0.117849484,-0.3729748,-0.32818884,0.05980827,-3.0783393,0.62475836,-0.00064962474,-0.013165998,0.0019353447,-0.0021077218,0.0009961369,-0.00253151,0.0028089753,0.44800076,-1.470411,2.009384,-2.1076672,-1.5706495,2.422869,-0.01573188,0.024302645,-0.021898048,0.0003053431,0.00014136026,-0.018524228,-0.7469909,0.21068975,-9.653421,0.800085,47.658226,-0.803094,-2.2483163,-3.443554,-0.46422535,0.12068797,-0.18813552,26.4375,27.3125,26.4375,29.5625,30.875,31.375
0.032051634,-1.6646408,-0.7838357,-0.78653353,-0.0068180533,0.076282375,-0.13063806,-0.37302083,-0.3281789,0.059815478,-3.0783315,0.62483424,-0.0006347554,-0.014551981,0.0021488147,-0.0016806939,0.0005257506,-0.0015551043,0.0009598734,0.4479402,-1.4703629,2.009312,-2.1076553,-1.5706495,2.4228568,-0.017390424,0.025176626,-0.02383189,0.00028144897,0.00013846948,-0.018332357,-0.61291564,0.076614454,-9.576807,0.6926589,47.67345,-0.7799783,-2.2884552,-3.4459524,-0.46215338,0.12505718,-0.18741207,26.4375,27.3125,26.4375,29.5625,30.875,31.375
0.034052752,-1.6084756,-0.21785791,-0.79404944,0.0070498227,0.08109608,-0.15311183,-0.37304875,-0.32819462,0.05979733,-3.078373,0.6247661,-0.0006414751,-0.015440187,0.0017836436,-0.0012670025,5.249698e-05,-0.0006103206,0.0010447435,0.44792813,-1.4702785,2.0092747,-2.1077154,-1.5706257,2.422797,-0.01751991,0.026099343,-0.025790362,0.00026102472,0.00015173838,-0.018545413,-0.5363012,0.038307227,-9.5385,0.87617236,47.668976,-0.80591214,-2.2684865,-3.447877,-0.4512113,0.14194584,-0.18992315,26.4375,27.3125,26.4375,29.5625,30.875,31.375
0.03605161,-1.1368651,0.19869079,-0.6573115,0.029446166,0.075970896,-0.15908498,-0.37307778,-0.32818517,0.059798896,-3.0783694,0.62484306,-0.0006788896,-0.01688401,0.0016281687,-0.0003790118,-0.0008561963,0.0012647397,0.00019928352,0.44786775,-1.4702425,2.009226,-2.107691,-1.5706018,2.422785,-0.018539805,0.026431754,-0.02818832,0.00024336691,0.00015334149,-0.018718358,-0.4213795,-0.019153614,-9.461885,0.779936,47.625084,-0.7610717,-2.2375731,-3.3497262,-0.43856013,0.13604836,-0.18094152,26.4375,27.3125,26.4375,29.5625,30.875,31.375
0.03805248,-0.72476435,0.658907,-0.8023763,0.04232612,0.05610884,-0.16804299,-0.3730992,-0.32817838,0.059786152,-3.078354,0.6248011,-0.00069690245,-0.018073097,0.0015456051,0.0003289214,-0.0015941592,0.0027543455,-0.00017772123,0.44784352,-1.4701824,2.0091894,-2.107691,-1.5706137,2.4227366,-0.01947521,0.026695067,-0.03009881,0.00022794833,0.00016865316,-0.019275606,-0.36391866,-0.076614454,-9.404425,0.78888994,47.658226,-0.75434744,-2.137918,-3.343136,-0.44546193,0.123540565,-0.18925261,26.4375,27.3125,26.4375,29.5625,30.875,31.375
0.040052723,-0.37048674,0.3766946,-0.8927132,0.0488276,0.03874797,-0.16179521,-0.37315452,-0.32819012,0.059792437,-3.0783572,0.62476295,-0.0006446624,-0.019124266,0.0012870455,0.00041718694,-0.001769249,0.0031104612,0.00039879934,0.44783136,-1.4700861,2.0090692,-2.107691,-1.5706376,2.4227004,-0.019942742,0.02856494,-0.032352507,0.00021436818,0.00016732176,-0.020318003,-0.24899697,-0.13407528,-9.442732,0.7866488,47.68599,-0.75230813,-2.1359117,-3.3857675,-0.4262062,0.11369164,-0.18220088,26.4375,27.3125,26.4375,29.5625,30.875,31.375
0.042051744,0.021385014,0.42352885,-0.9076803,0.034574427,0.029312452,-0.16247018,-0.37321743,-0.32819265,0.05981104,-3.0784087,0.6248118,-0.0005518601,-0.020434523,0.0013187391,0.00035237198,-0.0018048948,0.0031850263,-8.393738e-05,0.44777086,-1.4700494,2.0089972,-2.1077392,-1.5706257,2.422664,-0.021188416,0.030834107,-0.03469209,0.00020231525,0.0001636869,-0.021079153,-0.15322891,0.0,-9.519346,0.70608455,47.716442,-0.72524154,-2.2159152,-3.3298798,-0.41748142,0.122303605,-0.18382068,26.4375,27.3125,26.4375,29.5625,30.875,31.375
0.04405245,0.30729598,0.011815714,-0.8412088,0.009909383,0.025666911,-0.15873717,-0.37324464,-0.32817122,0.05980135,-3.0783448,0.62478006,-0.0005382498,-0.021652121,0.0014282203,0.0008097453,-0.0022852677,0.0041817175,-0.00015068264,0.4477465,-1.4699893,2.008948,-2.1077154,-1.5706857,2.422628,-0.02249762,0.031520177,-0.03649863,0.00021489723,0.00016005909,-0.022320427,-0.11492168,-0.019153614,-9.5385,0.78217715,47.711964,-0.6993689,-2.1327324,-3.3286338,-0.4036299,0.1364319,-0.17012072,26.4375,27.3125,26.4375,29.5625,30.875,31.375
0.046052232,-0.3687341,-0.8225496,-0.8672985,0.0038479627,0.015644256,-0.1449133,-0.3732924,-0.3281753,0.059796065,-3.0783625,0.624802,-0.0005883716,-0.022373762,0.001480194,0.0008193466,-0.0023069605,0.004227274,0.0005361207,0.44768614,-1.4698931,2.0088518,-2.107703,-1.5706495,2.422579,-0.023245528,0.032653954,-0.037793387,0.00032605318,0.00015657871,-0.023754217,-0.11492168,0.076614454,-9.481039,0.7396539,47.666286,-0.7292664,-2.0802736,-3.3693008,-0.38368717,0.115487024,-0.15903687,26.4375,27.3125,26.4375,29.5625,30.875,31.375
0.048052292,-0.71622527,-1.2802385,-0.9742594,0.0015567562,0.01067089,-0.1474369,-0.3733319,-0.32815593,0.05981454,-3.0783691,0.62484205,-0.0005584193,-0.02340486,0.001534945,0.0011116649,-0.0025929962,0.0048233,0.00090695155,0.4476138,-1.4698927,2.0088036,-2.1076791,-1.5706495,2.422531,-0.024279984,0.03358594,-0.039515898,0.00045529671,0.00015324607,-0.02515835,-0.038307227,0.17238252,-9.442732,0.7642693,47.71823,-0.6907941,-2.034502,-3.3666267,-0.3931527,0.11923465,-0.16096033,26.4375,27.3125,26.4375,29.5625,30.875,31.375
0.05005197,-0.26490724,-1.2474309,-1.1178854,-0.0022578759,0.018730422,-0.13879575,-0.3733821,-0.32816523,0.059811752,-3.0783927,0.62480783,-0.000556132,-0.023674237,0.001815735,0.0013638324,-0.0017937176,0.0031711818,0.0016701033,0.44757754,-1.4697965,2.0087068,-2.1076896,-1.5706376,2.4224703,-0.025047693,0.034374148,-0.041699566,0.0036861815,0.00015005228,-0.026688725,-0.038307227,0.24899697,-9.5385,0.7284641,47.693153,-0.6958904,-1.9718595,-3.4025235,-0.40308005,0.124129504,-0.1364812,26.4375,27.3125,26.4375,29.5625,30.875,31.375
0.052051987,0.34905273,-0.78125685,-1.039203,-0.016128896,0.030721169,-0.15751675,-0.37343064,-0.3281652,0.059824932,-3.0783968,0.62484694,-0.00050118484,-0.024264274,0.0018191076,0.0012157076,-0.001664486,0.0029049586,0.002154614,0.44754142,-1.469748,2.0086234,-2.1076896,-1.5706495,2.4224582,-0.025585353,0.035768878,-0.042919986,0.0038073582,0.00014698862,-0.02770997,0.038307227,0.2681506,-9.595961,0.7866488,47.65464,-0.6696421,-2.000833,-3.3986259,-0.4183281,0.11514886,-0.1268389,26.4375,27.3125,26.4375,29.5625,30.875,31.375
0.05405265,-0.38415146,-1.2872037,-1.0754457,-0.018882187,0.012940816,-0.14587486,-0.3734876,-0.32814986,0.059824903,-3.0783896,0.62480605,-0.00050244457,-0.025675796,0.0017703323,0.0019207603,-0.0025542094,0.0047513,0.0027464302,0.44746888,-1.4696642,2.008526,-2.1076663,-1.5706614,2.4223611,-0.026768666,0.036149133,-0.044840634,0.0032976423,0.00014404795,-0.029483741,0.038307227,0.38307226,-9.672575,0.83589023,47.71554,-0.6744306,-1.9816704,-3.470917,-0.40335554,0.14200231,-0.11173322,26.4375,27.3125,26.4375,29.5625,30.875,31.375
0.056052517,-0.8871395,-1.7841592,-1.2279376,-0.024865443,0.0038829844,-0.12994654,-0.37353548,-0.32812822,0.059819195,-3.0783563,0.6248953,-0.0005336009,-0.026758816,0.0017310526,0.0017883957,-0.0027832135,0.005221129,0.0030997272,0.44738463,-1.4695917,2.008454,-2.107642,-1.5706614,2.4223368,-0.027672203,0.037962414,-0.04633946,0.0024603626,0.0001412224,-0.03073915,0.019153614,0.51714754,-9.634268,0.7239871,47.634937,-0.6841632,-1.9024477,-3.4560163,-0.36384305,0.12316254,-0.10781959,26.4375,27.3125,26.4375,29.5625,30.875,31.375
0.058052544,-0.39677736,-1.514004,-1.0972855,-0.043476228,0.02024881,-0.14799759,-0.37360018,-0.32813805,0.059828356,-3.0784054,0.62484807,-0.00048508702,-0.027984302,0.0015297675,0.0021357816,-0.0032758785,0.006245858,0.0027403254,0.44733632,-1.4695072,2.0083458,-2.1076663,-1.5706495,2.422253,-0.028399788,0.039267924,-0.048510194,0.002188918,0.00013850573,-0.03110574,0.019153614,0.40222588,-9.595961,0.78888994,47.698532,-0.6378414,-1.8989661,-3.4780777,-0.37361756,0.14396319,-0.11180332,26.4375,27.3125,26.4375,29.5625,30.875,31.375
0.060052756,-0.7973577,-1.7884516,-1.2153201,-0.03713554,0.016015187,-0.13655773,-0.3736639,-0.32811955,0.059854474,-3.0783894,0.62484354,-0.00039455472,-0.0287364,0.0014135533,0.002203946,-0.0032283643,0.006147796,0.0043184343,0.4472762,-1.4694711,2.008238,-2.1076305,-1.5706977,2.422192,-0.028857796,0.040730294,-0.050393496,0.0027169567,0.00013589175,-0.033140644,0.05746084,0.45968673,-9.672575,0.7396539,47.698532,-0.65820706,-1.8837429,-3.5029893,-0.36571756,0.14115053,-0.08261855,26.4375,27.3125,26.4375,29.5625,30.875,31.375
0.062051684,-0.6931216,-1.4364384,-1.0220267,-0.030490197,0.026083864,-0.13902126,-0.37368318,-0.32814398,0.05984245,-3.0784218,0.62481207,-0.0004984827,-0.028979901,0.0016351524,0.0014780986,-0.001951182,0.0034886939,0.0047091395,0.44726396,-1.4693743,2.0081537,-2.1076057,-1.5706376,2.422156,-0.029493615,0.043523792,-0.052263618,0.0047453726,0.00013337439,-0.03416621,-0.019153614,0.4213795,-9.634268,0.8157518,47.678825,-0.680467,-1.8761384,-3.5039449,-0.35915548,0.13330397,-0.06365856,26.4375,27.3125,26.4375,29.5625,30.875,31.375
0.06405207,-0.97069824,-0.8729318,-0.8648292,-0.019724365,0.02464314,-0.13567233,-0.37375975,-0.32814473,0.059851326,-3.0784411,0.6248163,-0.0004270913,-0.029673047,0.0015463706,0.0017499353,-0.002010346,0.0036179393,0.0035211882,0.44720384,-1.469278,2.008033,-2.1076295,-1.5706495,2.4220963,-0.029947821,0.044421017,-0.05404531,0.0054874467,0.0001309485,-0.03343147,-0.076614454,0.38307226,-9.557653,0.7284641,47.70211,-0.67421484,-1.9003576,-3.4990234,-0.38088423,0.14795285,-0.078918576,26.4375,27.3125,26.4375,29.5625,30.875,31.375
0.06605256,-0.6588667,-0.8468299,-0.7582025,-0.005815051,0.033367112,-0.13531826,-0.37380362,-0.3281425,0.059833355,-3.0784316,0.6248145,-0.0005098292,-0.03123127,0.0012336237,0.0022363034,-0.002702689,0.0050486205,0.002342144,0.4471436,-1.4691577,2.0079367,-2.1076057,-1.5706257,2.4220362,-0.030767923,0.04602149,-0.056831785,0.0050849207,0.00012860943,-0.033070505,-0.11492168,0.38307226,-9.3661175,0.87617236,47.71554,-0.7080786,-1.854794,-3.449236,-0.36675996,0.14937848,-0.06840377,26.4375,27.3125,26.4375,29.5625,30.875,31.375
0.06805255,-0.84924996,-0.67794096,-0.62838143,-0.0026076455,0.034469873,-0.14126958,-0.3738984,-0.32813904,0.059862994,-3.07848,0.6247859,-0.00039326205,-0.032365624,0.0011248958,0.0020610825,-0.0027546047,0.0051567764,0.0024491025,0.44705924,-1.4690851,2.0077918,-2.1076176,-1.5706376,2.421928,-0.031582803,0.04832753,-0.058878794,0.0047054407,0.00012635249,-0.033990633,-0.17238252,0.28730422,-9.346964,0.77545905,47.70032,-0.7020166,-1.8888475,-3.4147124,-0.34704816,0.13340579,-0.08815488,26.4375,27.3125,26.4375,29.5625,30.875,31.375
0.0700526,-1.304762,-0.5888698,-0.49506176,-0.0032478736,0.026417254,-0.14081411,-0.37395585,-0.32813707,0.059868738,-3.0784745,0.62480366,-0.0003663297,-0.032931097,0.0007733997,0.0023147871,-0.0030806405,0.0058349436,0.0035591782,0.44701138,-1.4690009,2.0076835,-2.1076062,-1.5706495,2.421892,-0.031428494,0.049066715,-0.060248073,0.0045825504,0.00012434211,-0.034945432,-0.26815057,0.30645782,-9.385271,0.8090337,47.701214,-0.7486769,-1.8515506,-3.510281,-0.34920913,0.13006468,-0.064874694,26.4375,27.3125,26.4375,29.5625,30.875,31.375
0.07205246,-1.2137686,-0.65389633,-0.5159294,0.004444005,0.033165265,-0.1380987,-0.3740172,-0.32813457,0.059857044,-3.0784683,0.62476337,-0.00039629132,-0.03511579,0.00035433093,0.0033976492,-0.004121361,0.007865421,0.0031807162,0.446951,-1.4688685,2.007562,-2.1075933,-1.5706495,2.4218073,-0.0326511,0.050705362,-0.064646445,0.0050611445,0.00017618967,-0.035786945,-0.17238252,0.21068975,-9.3661175,0.7486078,47.678825,-0.7773626,-1.8432806,-3.3296556,-0.33139944,0.13460176,-0.068974346,26.4375,27.3125,26.4375,29.5625,30.875,31.375
0.074052095,-0.7597278,-0.2879613,-0.4895232,0.001165928,0.042953994,-0.14178129,-0.3741065,-0.3281392,0.059884068,-3.0785065,0.6247897,-0.00030897878,-0.03445953,0.0010399445,0.00118495,-0.001729986,0.0028958612,0.00423174,0.4468787,-1.4687835,2.0074065,-2.1075928,-1.5706495,2.4217467,-0.03333549,0.054726392,-0.06424403,0.0061524967,0.00017311652,-0.037522268,-0.24899697,0.19153613,-9.289502,0.7396539,47.677036,-0.80778474,-1.942817,-3.3233013,-0.33189884,0.13184667,-0.06657343,26.4375,27.3125,26.4375,29.5625,30.875,31.375
0.07605213,-1.0133052,-0.464262,-0.4488331,0.013333796,0.033141423,-0.13510405,-0.37418675,-0.32815242,0.059896506,-3.0785706,0.6247651,-0.000282366,-0.0355597,0.000651391,0.002839036,-0.003143403,0.005785623,0.0032949338,0.44680658,-1.4686762,2.007263,-2.1076052,-1.5706137,2.4216511,-0.03360882,0.053128418,-0.06641067,0.006701661,0.00019806264,-0.036857963,-0.28730422,0.11492168,-9.212888,0.7418897,47.64121,-0.8539343,-1.8496543,-3.4035163,-0.33841613,0.14627203,-0.08425304,26.4375,27.3125,26.4375,29.5625,30.875,31.375
0.078052215,-1.5128125,-0.16310565,-0.46077365,0.015440812,0.022011118,-0.1272209,-0.3742581,-0.32816544,0.05990447,-3.0785985,0.62479144,-0.00024662583,-0.03817543,-0.00019363374,0.0043343655,-0.0044855014,0.008542327,0.0010687074,0.44675827,-1.4685677,2.007128,-2.1076167,-1.5706018,2.4216158,-0.03439214,0.05516381,-0.072248146,0.0074383114,0.00020880061,-0.03541149,-0.26815057,0.15322891,-9.193734,0.78217715,47.66987,-0.8267025,-1.7461191,-3.2292418,-0.33670527,0.1250334,-0.10338251,26.4375,27.3125,26.4375,29.5625,30.875,31.375
0.08005223,-1.1301619,-0.24764307,-0.48692548,0.020489182,0.02780458,-0.1324371,-0.3743374,-0.32813743,0.059893478,-3.0785255,0.6247952,-0.00023887776,-0.037359063,0.00049857725,0.0023601707,-0.0024518084,0.0042853765,0.0014820233,0.44667405,-1.468423,2.006986,-2.1075804,-1.5706614,2.4215434,-0.034950703,0.05810255,-0.071105115,0.00807208,0.00021650622,-0.036383808,-0.34476507,0.11492168,-9.232041,0.7553206,47.682407,-0.9183687,-1.80506,-3.3292887,-0.34613317,0.14567617,-0.11403657,26.4375,27.3125,26.4375,29.5625,30.875,31.375
0.08205249,-1.0766724,-0.085573405,-0.49927175,0.00939995,0.03447611,-0.13936205,-0.3743876,-0.3281338,0.059890863,-3.0785358,0.6247205,-0.00028046657,-0.039257564,0.00057364616,0.0023883549,-0.0025512076,0.00445524,0.00087327306,0.44661364,-1.468326,2.0068772,-2.1075447,-1.5706495,2.421435,-0.03681136,0.06113579,-0.07456055,0.008298392,0.00022498023,-0.03763327,-0.34476504,0.095768064,-9.32781,0.80679786,47.696735,-0.7482017,-1.9013146,-3.2771955,-0.33221644,0.14567907,-0.09847793,26.4375,27.3125,26.4375,29.5625,30.875,31.375
0.0840521,-1.3438481,-0.57042354,-0.44417512,0.007653289,0.03208522,-0.13173315,-0.37448636,-0.32816008,0.05993019,-3.0786161,0.62473726,-0.00023497865,-0.04054338,0.00025255934,0.004398232,-0.0040702526,0.0076127225,0.0004894171,0.4465413,-1.468219,2.0066612,-2.1075084,-1.5706018,2.421363,-0.037363082,0.05912184,-0.077228256,0.009477964,0.00023159798,-0.03780022,-0.38307226,0.15322891,-9.232041,0.83589023,47.699425,-0.7883466,-1.7194923,-3.2588542,-0.32835177,0.122822665,-0.10952023,26.4375,27.3125,26.4375,29.5625,30.875,31.375
0.08605223,-1.5325521,-1.0363196,-0.5312391,0.010262395,0.028051084,-0.12761793,-0.37455055,-0.32814193,0.05991669,-3.0785575,0.62472504,-0.00023606351,-0.041044552,-2.4008912e-05,0.0034155273,-0.0030576698,0.0055022235,0.0007346669,0.44648126,-1.4680859,2.00654,-2.1074836,-1.5706495,2.421303,-0.037288174,0.06310596,-0.079508424,0.010113071,0.00022525713,-0.03796877,-0.3256114,0.17238252,-9.289502,0.8023209,47.681515,-0.84072024,-1.785778,-3.1417115,-0.3535184,0.14258839,-0.13417937,26.4375,27.3125,26.4375,29.5625,30.875,31.375
0.08805232,-1.3391517,-0.4472058,-0.43367025,-0.008962803,0.03478141,-0.13514964,-0.3746356,-0.3281575,0.059927102,-3.0786183,0.6246023,-0.00025711668,-0.041356876,0.00019973986,0.0027363303,-0.002338938,0.004015361,0.00054016284,0.44640929,-1.4679415,2.0063493,-2.1074479,-1.5706137,2.4211469,-0.0379765,0.06519046,-0.080344036,0.010517011,0.0002187289,-0.038461886,-0.2873042,0.17238252,-9.289502,0.842603,47.670765,-0.9068224,-1.8835542,-3.2053897,-0.3489316,0.13861829,-0.15564659,26.4375,27.3125,26.4375,29.5625,30.875,31.375
0.090052314,-1.3015854,-0.72947806,-0.55971307,-0.015130097,0.041047256,-0.13532779,-0.37472677,-0.3281563,0.05993794,-3.0786064,0.6247735,-0.0002112766,-0.04287221,0.0005218594,0.0027490903,-0.002636549,0.0041265218,-0.0010491266,0.44632447,-1.467821,2.006192,-2.1074479,-1.5706137,2.4211705,-0.040087365,0.06714324,-0.082528114,0.0105187725,0.0004362498,-0.038982235,-0.28730422,0.2681506,-9.346964,0.88289046,47.694054,-0.8285267,-1.8129706,-3.099846,-0.35639745,0.14019385,-0.16999552,26.4375,27.3125,26.4375,29.5625,30.875,31.375
0.09205227,-0.8687795,-1.0041978,-0.5161545,-0.01746788,0.044016317,-0.14071485,-0.3747984,-0.32813936,0.059921775,-3.078557,0.62472576,-0.00023905525,-0.04290336,0.0011539164,0.0017160855,-0.0016608178,0.0021415385,-0.0016917837,0.44625202,-1.4676646,2.006049,-2.107412,-1.5706495,2.4210746,-0.04127681,0.06892017,-0.08213393,0.0105580315,0.00041196428,-0.03952899,-0.2681506,0.22984336,-9.3661175,0.7777002,47.71286,-0.814942,-1.8754697,-3.3432534,-0.35072598,0.14427161,-0.18572077,26.4375,27.3125,26.4375,29.5625,30.875,31.375
0.09405189,-1.6434431,-1.2342424,-0.60035336,-0.022225726,0.022468004,-0.13651907,-0.3749263,-0.32813028,0.059949894,-3.078593,0.6248107,-0.000131654,-0.046012547,0.000947324,0.0029217433,-0.0030976469,0.005204641,-0.0032663264,0.44611928,-1.4675442,2.0058548,-2.1074245,-1.5706495,2.4209905,-0.04365843,0.0710577,-0.087137185,0.010040597,0.00037832395,-0.04033253,-0.36391866,0.28730422,-9.346964,0.78217715,47.694054,-0.72817135,-1.7927299,-3.2670827,-0.3461647,0.13770622,-0.20915869,26.4375,27.3125,26.4375,29.5625,30.875,31.375
0.096051924,-1.0543163,-0.9443444,-0.75763816,-0.021339402,0.036780093,-0.13487366,-0.37496063,-0.3281341,0.05992026,-3.0785813,0.62471193,-0.00028996498,-0.045152646,0.0012589273,0.0016647994,-0.0017461795,0.0024451541,-0.0022824868,0.44607115,-1.4673879,2.005737,-2.107364,-1.5706137,2.4208822,-0.043441195,0.07257621,-0.0860434,0.010502334,0.00034902382,-0.041099686,-0.3256114,0.3256114,-9.308656,0.75755644,47.664497,-0.73546225,-1.9271015,-3.2372668,-0.34661826,0.16576448,-0.22218587,26.4375,27.3125,26.4375,29.5625,30.875,31.375
0.09805216,-1.2135737,-1.2137103,-0.7780477,-0.002604795,0.031157773,-0.13886847,-0.37510586,-0.32814008,0.05997292,-3.0786176,0.62479466,-9.008604e-05,-0.046637762,0.00043775918,0.002051489,-0.0023558675,0.0036992328,-0.00065618387,0.44597527,-1.4672674,2.0054839,-2.107364,-1.5706495,2.4208336,-0.043228712,0.07507882,-0.08961536,0.010175656,0.00035531455,-0.042510875,-0.19153613,0.24899697,-9.3661175,0.7978386,47.678825,-0.7998495,-1.8515909,-3.2555285,-0.33955717,0.13872162,-0.22965135,26.4375,27.3125,26.4375,29.5625,30.875,31.375
0.10005207,-0.8051072,-0.6931549,-0.6355189,-0.013680809,0.03374389,-0.14351493,-0.37519592,-0.32812986,0.05994985,-3.0785882,0.62480754,-0.00017648283,-0.04820002,0.00082633196,0.0019524151,-0.0024754435,0.0039197765,-0.00029491546,0.4458666,-1.4670628,2.0053036,-2.1073287,-1.5706376,2.4207368,-0.045357566,0.07718944,-0.09165166,0.0098510375,0.0003603745,-0.044999424,-0.22984336,0.2681506,-9.3661175,0.7463667,47.694946,-0.83245313,-1.9202274,-3.141653,-0.33690146,0.13876376,-0.23180416,26.4375,27.3125,26.4375,29.5625,30.875,31.375
0.102051824,-1.0248555,-0.920416,-0.7428189,-0.0075191734,0.019349134,-0.1330134,-0.37530035,-0.32814598,0.05998032,-3.078656,0.6247441,-9.704136e-05,-0.049375992,0.00072309095,0.0023429582,-0.0027269407,0.0044930233,-0.0006828961,0.44579446,-1.4669424,2.0050986,-2.1073167,-1.5706257,2.4206166,-0.046196938,0.07851296,-0.09413273,0.010383534,0.00033958902,-0.045449246,-0.22984336,0.22984336,-9.385271,0.8023209,47.71554,-0.75048906,-1.9124782,-3.1983101,-0.34537947,0.1525966,-0.24303617,26.4375,27.3125,26.4375,29.5625,30.875,31.375
0.104052246,-0.87376094,-0.98849,-0.95009893,-0.00605966,0.013871453,-0.13031521,-0.37539405,-0.3281248,0.05997522,-3.0786085,0.62481225,-0.000104282415,-0.05015744,0.00056090544,0.00215822,-0.0027036462,0.004420629,-0.0019971312,0.44568616,-1.4667863,2.0049303,-2.107281,-1.5706495,2.420557,-0.046587165,0.080412306,-0.09576833,0.010194241,0.00034553529,-0.044523958,-0.15322891,0.22984336,-9.442732,0.8090337,47.72629,-0.8024714,-2.0043986,-3.1694126,-0.32174483,0.15171093,-0.29660964,26.4375,27.3125,26.4375,29.5625,30.875,31.375
0.1060518,-0.6187265,-0.8775987,-0.7730745,-0.009791944,0.024703605,-0.13500799,-0.37552294,-0.32813764,0.060000632,-3.0786767,0.62482536,-2.3150045e-05,-0.051143765,0.0005420031,0.002048189,-0.0027802743,0.0045697475,-0.0009085552,0.4455778,-1.4666301,2.0047028,-2.107293,-1.5706257,2.4204483,-0.047424864,0.08220999,-0.09743917,0.009900716,0.00035025016,-0.04644888,-0.1340753,0.30645782,-9.346964,0.7597976,47.71286,-0.71136284,-1.816535,-3.1470826,-0.31784385,0.15628433,-0.2920196,26.4375,27.3125,26.4375,29.5625,30.875,31.375
0.10805181,-1.3256828,-0.95835745,-0.8053124,-0.0102692135,0.013498253,-0.13154824,-0.37559542,-0.32815772,0.05998684,-3.078697,0.6247328,-5.2095376e-05,-0.05167986,0.0002315904,0.0017281071,-0.002293707,0.0035286262,0.00038504016,0.44554192,-1.4664494,2.0045354,-2.1072924,-1.5706137,2.4203522,-0.04732202,0.084713615,-0.09967849,0.010786021,0.0003565083,-0.047638208,-0.1340753,0.28730422,-9.308657,0.7620334,47.707485,-0.8485337,-2.0896242,-3.1127195,-0.32812673,0.1475878,-0.30813873,26.4375,27.3125,26.4375,29.5625,30.875,31.375
0.110051826,-1.3050096,-1.1426592,-0.6298774,-0.0028362242,0.018949958,-0.13016424,-0.3757053,-0.32812512,0.059982847,-3.0786362,0.62479687,-8.824249e-05,-0.052142683,0.0003606874,0.0024264643,-0.0028945107,0.0047728284,0.0013365264,0.44539776,-1.4662702,2.0043309,-2.1072204,-1.5706376,2.420256,-0.047962386,0.08358587,-0.10008672,0.010939089,0.00036026814,-0.0492301,-0.1340753,0.22984336,-9.385271,0.7530795,47.705692,-0.7807112,-1.7635474,-3.223957,-0.3312999,0.14830846,-0.31650567,26.4375,27.3125,26.4375,29.5625,30.875,31.375
0.11205188,-1.097577,-0.8937553,-0.5430992,-0.011110259,0.021998279,-0.140646,-0.3758412,-0.32814348,0.060006514,-3.0786903,0.6248288,3.003462e-06,-0.053000335,0.00023191416,0.00026744689,-0.0013062783,0.0014073255,-0.0015020253,0.44530156,-1.4660882,2.004079,-2.1072328,-1.5706257,2.420173,-0.0484868,0.09033825,-0.102433234,0.01025549,0.00037475963,-0.04691333,-0.11492168,0.21068975,-9.346964,0.80679786,47.666286,-0.83389467,-2.0594149,-3.1369781,-0.33384287,0.17029938,-0.35750294,26.4375,27.3125,26.4375,29.5625,30.875,31.375
0.11405244,-1.1074435,-0.9297329,-0.6585021,-0.011494465,0.019495983,-0.12992842,-0.37590525,-0.3281318,0.059988644,-3.0786748,0.6247861,-0.000109242974,-0.053402215,-6.488709e-05,0.0015968677,-0.0026695635,0.0040786765,-0.0009576875,0.44520578,-1.4659334,2.003936,-2.1071732,-1.5706018,2.4200525,-0.04832792,0.08794159,-0.10280034,0.010022092,0.00045020392,-0.047299065,-0.1340753,0.24899697,-9.32781,0.8403672,47.683304,-0.95706797,-1.8531437,-3.236405,-0.3191017,0.15710247,-0.40666103,26.4375,27.3125,26.4375,29.5625,30.875,31.375
0.11605374,-0.61346024,-0.6836099,-0.47439772,-0.013801715,0.021190487,-0.13703263,-0.37603492,-0.32813814,0.060000997,-3.078683,0.6248446,-3.8362014e-05,-0.054705404,0.00046848756,0.00076362817,-0.0021654386,0.0029363418,-0.00055546215,0.44510886,-1.4657406,2.0036952,-2.1071732,-1.5706137,2.4199913,-0.05050565,0.0912384,-0.10444652,0.009618685,0.00048507808,-0.04987748,-0.095768064,0.15322891,-9.3661175,0.8090337,47.64479,-0.89162135,-1.9594616,-3.2922828,-0.31963345,0.16224581,-0.4213448,26.4375,27.3125,26.4375,29.5625,30.875,31.375
0.11805177,-0.6989618,-0.8422239,-0.6447587,0.0025063192,0.012345939,-0.13733137,-0.3761733,-0.32813045,0.060018558,-3.0786853,0.6248236,7.9887235e-05,-0.05460212,-0.0008933459,0.00067062903,-0.0028568218,0.0031843863,0.004150159,0.44500163,-1.4655601,2.0034564,-2.1071737,-1.570661,2.4198709,-0.048187613,0.09284367,-0.105851784,0.008892714,0.0010009351,-0.052264564,-0.11492168,0.19153613,-9.32781,0.7642693,47.701214,-0.9786328,-1.9615375,-3.2870626,-0.30243397,0.15968853,-0.44532484,26.4375,27.3125,26.4375,29.5625,30.875,31.375
0.120052494,-0.49166,-0.4145931,-0.70149237,0.0042617666,0.006294563,-0.13792783,-0.37626404,-0.32813781,0.05999905,-3.0786903,0.6248238,2.645277e-05,-0.056482937,-0.0016376897,0.0012488448,-0.0037789275,0.0045742085,0.0054336465,0.4449176,-1.4653556,2.0032756,-2.1071732,-1.5706371,2.4197865,-0.048621282,0.09545917,-0.11006503,0.008839419,0.0012249863,-0.053979214,-0.1340753,0.17238252,-9.32781,0.81351066,47.691364,-1.173262,-2.042469,-3.210333,-0.2884512,0.15466073,-0.45228896,26.4375,27.3125,26.4375,29.5625,30.875,31.375
0.122052595,-0.20995885,-0.18776485,-0.5922236,0.0086227935,0.015698297,-0.1426003,-0.37638274,-0.32813698,0.060012516,-3.0786943,0.62484306,4.2078722e-05,-0.055878747,-0.0006870866,-1.3895855e-06,-0.0025573263,0.0020266748,0.00686339,0.44480917,-1.4651757,2.0030358,-2.107126,-1.5706371,2.4196897,-0.04983768,0.0962955,-0.10815694,0.008920153,0.0012238082,-0.05662639,-0.038307227,0.21068975,-9.308656,0.83589023,47.71554,-1.1101674,-1.9634812,-3.3912165,-0.2826771,0.1675694,-0.43831772,26.4375,27.3125,26.4375,29.5625,30.875,31.375
0.12405191,-0.6646553,-0.06848853,-0.52358526,0.0072123124,0.004541855,-0.14088471,-0.3765071,-0.32813445,0.06001007,-3.0786998,0.62484217,8.267547e-05,-0.058495592,-0.0010215443,0.0013134917,-0.0039420486,0.0049739857,0.009170374,0.44470057,-1.4649715,2.0028188,-2.107137,-1.570649,2.41958,-0.051524416,0.09770019,-0.11271226,0.008813496,0.0011975543,-0.06061715,-0.019153614,0.095768064,-9.289503,0.8224646,47.693153,-1.1000032,-1.9622262,-3.3311117,-0.27542192,0.14708592,-0.43918473,26.4375,27.3125,26.4375,29.5625,30.875,31.375
0.12605183,-0.17352337,-0.041737836,-0.46358538,-0.0073026167,0.014754903,-0.14697623,-0.37660423,-0.32815132,0.06001785,-3.0787451,0.62471455,5.8981634e-05,-0.05770647,-0.00083002716,0.00027593903,-0.00263148,0.0022417258,0.012974227,0.4446287,-1.4647917,2.0025918,-2.1070893,-1.5706252,2.4194229,-0.051155552,0.099201545,-0.11225117,0.009882587,0.0011933054,-0.06405251,0.019153614,0.076614454,-9.212888,0.7911258,47.689575,-1.1319045,-1.8823535,-3.363566,-0.27080065,0.16594602,-0.42689514,26.4375,27.3125,26.4375,29.5625,30.875,31.375
0.12805189,-0.61632675,-0.6143713,-0.5330386,-0.004234762,0.010820903,-0.13981366,-0.37671137,-0.32814512,0.059995834,-3.078732,0.6246703,1.2576654e-05,-0.05815724,-0.0009879888,0.0007719563,-0.0028462785,0.0027515097,0.017369978,0.4445207,-1.4645638,2.0023882,-2.107077,-1.5706252,2.419289,-0.051225077,0.099248156,-0.11364172,0.010673717,0.0011645169,-0.06851723,-0.05746084,0.21068975,-9.212888,0.8090337,47.645687,-1.2514225,-1.9668062,-3.4604645,-0.29145867,0.1797356,-0.38436982,26.4375,27.3125,26.4375,29.5625,30.875,31.375
0.13005228,-1.0414482,-0.7120445,-0.55862457,-0.0033202567,0.00018975486,-0.13823597,-0.3768571,-0.32815492,0.060031354,-3.078816,0.62462825,0.0001345765,-0.059194732,-0.00043174552,0.00075764075,-0.0027029463,0.0025589478,0.020305783,0.4444001,-1.4644077,2.0021374,-2.1070888,-1.5706133,2.4191318,-0.053145085,0.100385204,-0.114975855,0.011106995,0.0011239564,-0.07337205,0.076614454,0.15322891,-9.308656,0.7732232,47.679718,-1.219465,-1.7904456,-3.4697602,-0.27940577,0.17531207,-0.3485828,26.4375,27.3125,26.4375,29.5625,30.875,31.375
0.13205226,-0.7945336,-0.7309552,-0.6072759,0.0027683496,0.011176766,-0.1314375,-0.3769983,-0.32815847,0.060050335,-3.0788531,0.62455684,0.00017953917,-0.060031246,-0.00035469138,0.0002957108,-0.0022142788,0.0014310924,0.0231311,0.44427988,-1.4642031,2.00186,-2.107052,-1.5706133,2.4189625,-0.05404536,0.10305776,-0.11702231,0.011708984,0.0011678389,-0.07709625,0.019153614,0.19153613,-9.3661175,0.83589023,47.692257,-1.2354547,-1.9344318,-3.402197,-0.2707231,0.16231269,-0.289608,26.4375,27.3125,26.4375,29.5625,30.875,31.375
0.13405173,-0.8467476,-1.0171736,-0.70958567,0.0056906636,0.0077222725,-0.13422385,-0.37706155,-0.32817605,0.06001849,-3.0788596,0.6243833,2.5077672e-05,-0.061953533,-0.00081901957,0.001323024,-0.0032724473,0.003550999,0.026308587,0.44423154,-1.4639751,2.0016677,-2.1069925,-1.570577,2.4188051,-0.054908916,0.10433737,-0.12085259,0.011893268,0.0011971549,-0.0811351,-0.05746084,0.22984336,-9.3661175,0.8403672,47.71017,-1.2214782,-1.7795515,-3.482645,-0.27178302,0.16408849,-0.25881994,26.4375,27.3125,26.4375,29.5625,30.875,31.375
0.13605171,-0.6795698,-0.29647905,-0.63925433,-0.0101037305,0.020548938,-0.14433664,-0.37720475,-0.32814386,0.060026865,-3.078829,0.62437624,8.466077e-05,-0.062491864,-0.0004519139,0.00060342345,-0.0026353498,0.002241213,0.027709816,0.4440752,-1.4637829,2.0014284,-2.1069567,-1.5706252,2.4186485,-0.056042526,0.10654185,-0.12167075,0.011959541,0.0011845947,-0.08366914,-0.114921674,0.17238252,-9.346964,0.7284641,47.68062,-1.1928923,-1.8337866,-3.4672518,-0.273767,0.16297053,-0.22541283,26.4375,27.3125,26.4375,29.5625,30.875,31.375
0.13805182,-1.2815984,-0.8147349,-0.97674006,0.0072595244,0.010291742,-0.13298516,-0.37733328,-0.32814524,0.060017865,-3.0788646,0.62428796,8.817974e-05,-0.0643669,-0.0005168211,0.0013290059,-0.0037651747,0.0037784607,0.027193636,0.44395438,-1.4635549,2.0012,-2.1069686,-1.5706133,2.4184682,-0.05781462,0.10777067,-0.12469464,0.011880913,0.0015394042,-0.084923625,-0.22984336,0.2681506,-9.461885,0.779936,47.664497,-1.1766503,-1.7869291,-3.4182706,-0.25934702,0.15702868,-0.1878647,26.4375,27.3125,26.4375,29.5625,30.875,31.375
0.1400518,-0.9947235,-0.7735695,-0.98853177,-0.012848523,0.035450686,-0.13861156,-0.37748036,-0.32816005,0.0600453,-3.0789104,0.6241621,0.00015934453,-0.06512742,-0.0006492748,0.0013272682,-0.003954495,0.0035376067,0.026870606,0.44385824,-1.4633387,2.0008876,-2.1069205,-1.5706252,2.418288,-0.058407903,0.109326854,-0.12652293,0.012287409,0.0018154164,-0.085193045,-0.2681506,0.36391866,-9.442732,0.8806493,47.71554,-1.1867043,-1.7428035,-3.3869317,-0.26707518,0.162438,-0.15574576,26.4375,27.3125,26.4375,29.5625,30.875,31.375
0.1420518,-1.7957184,-1.1287696,-0.98535436,-0.024828838,0.033842362,-0.13205911,-0.37757078,-0.3281478,0.060024686,-3.078898,0.62410295,4.5108558e-05,-0.066599585,-0.0007575829,0.0021911045,-0.0048693065,0.004586003,0.024396056,0.4437378,-1.4631348,2.000696,-2.1068604,-1.5706009,2.4181323,-0.059748072,0.11004955,-0.12953979,0.013243066,0.0021817267,-0.08405778,-0.40222588,0.36391866,-9.5385,0.78888994,47.72719,-1.216651,-1.8013331,-3.3646293,-0.27276564,0.15347049,-0.1386525,26.4375,27.3125,26.4375,29.5625,30.875,31.375
0.14405243,-1.7530353,-1.472446,-1.1221303,-0.027757287,0.051539943,-0.13254693,-0.3776915,-0.32814363,0.060003873,-3.0788827,0.6240244,-8.348683e-05,-0.06703639,-0.0006243102,0.0019335651,-0.0049160053,0.0038691396,0.02254023,0.44360545,-1.4628589,2.0004199,-2.1067765,-1.5705765,2.417953,-0.060591668,0.11125304,-0.130366,0.013494441,0.0025242679,-0.083045736,-0.49799395,0.3256114,-9.576807,0.80456203,47.709274,-1.2541882,-1.6908314,-3.3816223,-0.26037344,0.14167947,-0.14246318,26.4375,27.3125,26.4375,29.5625,30.875,31.375
0.1460518,-2.3294852,-1.7247666,-1.2689986,-0.024688706,0.051872544,-0.13023953,-0.37784812,-0.32815436,0.060038254,-3.0789528,0.6240031,4.9661347e-05,-0.068211816,-0.00068743253,0.0018003231,-0.0047935224,0.0031460952,0.016507143,0.44348526,-1.4626783,2.0001442,-2.106788,-1.5705765,2.417811,-0.061633196,0.11395579,-0.13327146,0.014402713,0.002729279,-0.07805238,-0.47884032,0.2681506,-9.576807,0.7642693,47.717335,-1.2550774,-1.7703528,-3.3722186,-0.27291033,0.14053562,-0.16481511,26.4375,27.3125,26.4375,29.5625,30.875,31.375
0.14805171,-2.0676978,-1.350417,-1.1452236,-0.029191544,0.063092254,-0.14063671,-0.3779788,-0.32814157,0.06003174,-3.0789335,0.6239452,1.5990421e-05,-0.06963777,-0.00017592199,0.0015964125,-0.005019294,0.0035935703,0.010191443,0.44335237,-1.4624382,1.9998807,-2.1067288,-1.5705885,2.4176445,-0.06383952,0.11564427,-0.13446966,0.013411116,0.0027344816,-0.07394192,-0.5363012,0.3256114,-9.634268,0.8537928,47.723602,-1.2334226,-1.4610815,-3.3796015,-0.26700875,0.12986618,-0.20971686,26.4375,27.3125,26.4375,29.5625,30.875,31.375
0.1500525,-1.8273859,-1.0346327,-0.9595291,-0.027417878,0.06665041,-0.14281166,-0.37814644,-0.3281596,0.06004675,-3.0790088,0.6238833,8.088128e-05,-0.07052963,-0.00015965124,0.0004659132,-0.0046496848,0.0016826136,0.009542491,0.44322008,-1.462185,1.9995693,-2.1067407,-1.5705646,2.4174643,-0.06496061,0.119688995,-0.13630247,0.013084447,0.0032213489,-0.07441283,-0.63206923,0.2873042,-9.576807,0.8291774,47.693153,-1.1718341,-1.7581553,-3.335837,-0.2625438,0.118463024,-0.2476909,26.4375,27.3125,26.4375,29.5625,30.875,31.375
0.15205245,-1.7371122,-0.79565746,-0.94894075,-0.032886542,0.0566542,-0.14689639,-0.37827614,-0.32814896,0.060044948,-3.078987,0.6239005,0.00010327132,-0.07137584,-0.00032411117,-0.000452165,-0.00476994,0.000703406,0.006305455,0.44309986,-1.4619687,1.999329,-2.1067173,-1.570588,2.4173577,-0.065733686,0.12301725,-0.1376373,0.01192108,0.0037447019,-0.07194805,-0.5554548,0.2681506,-9.634268,0.800085,47.68599,-1.242823,-1.7328715,-3.4336443,-0.2595269,0.13289861,-0.2841311,26.4375,27.3125,26.4375,29.5625,30.875,31.375
0.15405203,-1.9557219,-0.8896576,-0.91219145,-0.022350226,0.05090626,-0.13525029,-0.37843412,-0.32816863,0.0600565,3.079018,-0.6238481,-0.00012513515,-0.0732789,-0.00068039226,0.00072954415,-0.006240291,0.0033393137,0.0057148268,0.4429794,-1.4617051,1.9990057,-2.1066935,-1.5705642,2.4172008,-0.06686245,0.12349727,-0.14083943,0.011632971,0.0039387387,-0.072484374,-0.6512228,0.22984336,-9.500193,0.86945957,47.694054,-1.259035,-1.776255,-3.292925,-0.22760984,0.11757639,-0.32053244,26.4375,27.3125,26.4375,29.5625,30.875,31.375
0.15605196,-1.752197,-0.8496021,-0.8398156,-0.0039698635,0.042151887,-0.13406046,-0.37857705,-0.32816392,0.060059212,3.0789936,-0.6238819,-0.0001288267,-0.075336516,-0.00096210546,0.0012016774,-0.0072275414,0.0047272453,0.0057470957,0.44283488,-1.4614766,1.9987415,-2.1066701,-1.5705522,2.4170806,-0.068333335,0.1258432,-0.14444646,0.011217396,0.0042292248,-0.07398536,-0.45968673,0.17238252,-9.385271,0.8560339,47.683304,-1.2270682,-1.7689693,-3.4035976,-0.21323058,0.11138656,-0.29877198,26.4375,27.3125,26.4375,29.5625,30.875,31.375
0.15805206,-1.3123372,-0.42091534,-0.7249299,0.0062130396,0.0448446,-0.13960604,-0.3787711,-0.3281515,0.060080405,3.0789313,-0.6238889,-0.00022096199,-0.075832635,-0.00048317423,0.0005347486,-0.006648311,0.0036157086,0.005343293,0.4426305,-1.4612365,1.9984301,-2.1066816,-1.5705403,2.4168887,-0.069594935,0.12762944,-0.14490613,0.011145317,0.0041885064,-0.07484225,-0.38307226,0.2681506,-9.3661175,0.8157518,47.70838,-1.1976886,-1.7157307,-3.3675027,-0.20678554,0.09585737,-0.3074183,26.4375,27.3125,26.4375,29.5625,30.875,31.375
0.16005217,-1.3134086,-0.21322879,-0.5010885,0.004214437,0.041330036,-0.14093438,-0.37889534,-0.32818303,0.060065404,3.0789547,-0.6237597,-0.00019286484,-0.077168025,-0.000462679,0.00032459327,-0.006323686,0.0034387033,0.003428179,0.44257012,-1.4609478,1.9981426,-2.1066701,-1.5705279,2.416745,-0.07064954,0.13041736,-0.14758898,0.011341268,0.0039649643,-0.07397964,-0.4213795,0.21068975,-9.308656,0.78888994,47.70838,-1.177407,-1.8199301,-3.3863692,-0.17759278,0.09086933,-0.33759862,26.4375,27.3125,26.4375,29.5625,30.875,31.375
0.16205211,-1.0217271,0.2781611,-0.4693639,0.006365133,0.04413807,-0.1432081,-0.37908137,-0.32818776,0.060100712,3.0788949,-0.62376523,-0.0003128274,-0.07934723,-0.00013598113,0.00049658533,-0.006234505,0.0042369245,0.0038375629,0.44241342,-1.4607195,1.9978064,-2.1066577,-1.5705284,2.4165995,-0.07287507,0.13318792,-0.15108566,0.011386387,0.0035439036,-0.076611266,-0.3256114,0.15322891,-9.232041,0.8493211,47.721813,-1.2320924,-1.7378527,-3.342237,-0.17387287,0.08722954,-0.36268973,26.4375,27.3125,26.4375,29.5625,30.875,31.375
0.16405217,-1.3564899,0.008778185,-0.5009721,0.023709645,0.027926482,-0.12917675,-0.37926662,-0.32819223,0.060119145,3.078864,-0.6237038,-0.0004001484,-0.07894667,0.0010994604,-0.0005294057,-0.0046658325,0.0016817491,0.0010178147,0.4422567,-1.4604557,1.9974722,-2.1066573,-1.5705284,2.4164085,-0.07456978,0.13381211,-0.14967738,0.012336401,0.0032308674,-0.075486675,-0.30645782,0.0,-9.232041,0.7732232,47.73256,-0.92476547,-1.854444,-3.3653502,-0.15711349,0.08731538,-0.38042426,26.4375,27.3125,26.4375,29.5625,30.875,31.375
0.16605209,-1.1413592,0.20961072,-0.5082804,0.010409647,0.032094676,-0.14421399,-0.37940332,-0.32818484,0.06010078,3.0788765,-0.6237428,-0.00032613525,-0.07947327,0.0005935064,-0.0022086434,-0.0027627214,-0.0014638357,0.003746741,0.44211307,-1.4601777,1.9971956,-2.106609,-1.5705165,2.416288,-0.07380547,0.13994373,-0.15280516,0.012992784,0.002848677,-0.077448465,-0.34476504,0.019153614,-9.232041,0.8537928,47.70032,-1.1621099,-2.0606182,-3.2315555,-0.15689415,0.07002913,-0.40005618,26.4375,27.3125,26.4375,29.5625,30.875,31.375
0.16805197,-1.1688312,-0.026431633,-0.26968312,0.011888345,0.029291682,-0.1446773,-0.37957296,-0.3281815,0.06011106,3.07887,-0.6237001,-0.00035542838,-0.08129726,0.0018950438,-0.0011912913,-0.002932878,-0.00013603973,0.007001789,0.44195583,-1.4599148,1.9968728,-2.1065729,-1.5705165,2.416105,-0.07753636,0.13915873,-0.1545994,0.014301142,0.0024375606,-0.08443338,-0.22984336,0.05746084,-9.232041,0.8493211,47.694946,-1.0814571,-1.8642248,-3.3592083,-0.13906813,0.083632395,-0.3449782,26.4375,27.3125,26.4375,29.5625,30.875,31.375
0.170052,-1.1000807,-0.3176844,-0.20980752,0.015672917,0.029347958,-0.12996235,-0.3797532,-0.32818574,0.060121443,3.0788546,-0.62371635,-0.00041167342,-0.08185624,0.0019200029,-0.0012164372,-0.0026231941,-0.00015433885,0.007950732,0.44181162,-1.4596269,1.9965247,-2.1065485,-1.5705289,2.4159732,-0.0778541,0.14027758,-0.15589313,0.014625356,0.002167002,-0.08569891,-0.2873042,0.095768064,-9.11712,0.80456203,47.70211,-0.88366175,-1.8903747,-3.3445706,-0.14620912,0.0818658,-0.3382017,26.4375,27.3125,26.4375,29.5625,30.875,31.375
0.17205194,-0.826281,-0.54691404,-0.1951403,0.011455546,0.037782654,-0.14292559,-0.3799067,-0.32817525,0.060103092,3.0788376,-0.62369025,-0.00036189772,-0.08315546,0.0017791177,-0.00080426177,-0.0027281505,0.0006908251,0.0124007445,0.44163156,-1.459351,1.996261,-2.1065485,-1.5704931,2.415779,-0.07851978,0.14179677,-0.15865768,0.015066499,0.0018964647,-0.09081268,-0.22984336,0.15322891,-9.040505,0.7978386,47.66539,-1.0553415,-1.8558692,-3.2997432,-0.12555301,0.071403086,-0.3009702,26.4375,27.3125,26.4375,29.5625,30.875,31.375
0.1740521,-0.47997254,-0.013196237,0.03718186,-0.0004388838,0.04566979,-0.15455219,-0.38011,-0.3281642,0.060126655,3.0788696,-0.62357956,-0.00046735478,-0.08506748,0.002459176,-9.206535e-05,-0.003046424,0.0021879678,0.015173985,0.44146258,-1.4590633,1.9958776,-2.1065009,-1.5705413,2.4155374,-0.081199355,0.14237072,-0.16103326,0.015375789,0.00154684,-0.09626374,-0.22984336,0.15322891,-9.021352,0.9164598,47.64927,-0.9408593,-1.8254886,-3.2784324,-0.11803,0.09484306,-0.23947614,26.4375,27.3125,26.4375,29.5625,30.875,31.375
0.1760521,-1.2736732,-0.20230018,-0.31517655,0.015262304,0.016978944,-0.13612643,-0.3802715,-0.32814223,0.06010055,3.0788925,-0.623563,-0.00048801876,-0.08556296,0.003026077,-0.0005872176,-0.0021237382,0.0011814452,0.018856313,0.44129416,-1.4587752,1.9956263,-2.1065366,-1.5705651,2.415356,-0.082381845,0.14389111,-0.16173537,0.015861055,0.0011442445,-0.101127684,-0.2681506,0.11492168,-9.078813,0.83365434,47.62419,-0.9300139,-1.744827,-3.3624065,-0.11169696,0.10409266,-0.16779602,26.4375,27.3125,26.4375,29.5625,30.875,31.375
0.17805202,-0.95201266,-0.088844895,-0.2714915,0.022511821,0.026278257,-0.14106224,-0.38042074,-0.32814044,0.060095787,3.0788877,-0.6235029,-0.00039563744,-0.086097196,0.0030530253,-0.0007880668,-0.0017833326,0.0006590177,0.022304045,0.44112608,-1.4584994,1.995315,-2.1064641,-1.570517,2.4151511,-0.08280183,0.14543827,-0.16313793,0.016339745,0.001055392,-0.1049945,-0.22984336,0.1340753,-9.136273,0.8291774,47.698532,-0.931883,-1.775553,-3.429542,-0.09180065,0.09631441,-0.117329925,26.4375,27.3125,26.4375,29.5625,30.875,31.375
0.18005198,-0.8387601,-0.19993949,-0.27892455,0.015883982,0.02691721,-0.14516345,-0.3805952,-0.32815382,0.060100995,3.0788872,-0.62340796,-0.0003719986,-0.08864346,0.004403068,-0.0012630499,-0.0011357645,-0.00065641303,0.018405298,0.44098026,-1.4581866,1.9949425,-2.106404,-1.5704931,2.4149463,-0.087509215,0.1493483,-0.16668096,0.017441629,0.0010265715,-0.105800845,-0.3256114,0.17238252,-9.155427,0.89631605,47.692257,-0.7256829,-1.6759844,-3.301117,-0.09206881,0.09601642,-0.06735016,26.4375,27.3125,26.4375,29.5625,30.875,31.375
0.18205187,-1.087839,-0.5847554,-0.48046398,0.01805916,0.022496207,-0.13837492,-0.38078538,-0.32813948,0.060106117,3.078863,-0.6234029,-0.00039148598,-0.08826765,0.003585189,0.0005473761,-0.002473883,0.0021964412,0.019118797,0.44077697,-1.4579005,1.9946083,-2.1063807,-1.5704812,2.4147432,-0.0855898,0.1456991,-0.16700813,0.018268473,0.0010229824,-0.1045956,-0.40222588,0.24899697,-9.289502,0.9567419,47.72092,-0.8239027,-1.6460302,-3.5069122,-0.10222033,0.10348934,-0.03832193,26.4375,27.3125,26.4375,29.5625,30.875,31.375
0.18405207,-0.47931474,-0.28934753,-0.5367022,0.005846532,0.038644824,-0.13965058,-0.3809457,-0.32812518,0.060112253,3.0789316,-0.6232465,-0.00040796524,-0.08983717,0.0044385875,0.00029689498,-0.0021317974,0.0013278803,0.013508461,0.4406322,-1.4576359,1.994284,-2.1063077,-1.570517,2.4144924,-0.088563085,0.14802998,-0.1692483,0.019105507,0.0010793004,-0.101957284,-0.24899697,0.24899697,-9.308657,0.7911258,47.73077,-0.7636517,-1.7078483,-3.4453135,-0.08742078,0.091045685,-0.053027138,26.4375,27.3125,26.4375,29.5625,30.875,31.375
0.18605252,-1.180512,-0.5043227,-0.3350023,-0.0019231118,0.028205568,-0.13691658,-0.38115385,-0.32812324,0.0601202,3.0788727,-0.6233324,-0.0004287859,-0.08982287,0.0041299774,-0.00033385507,-0.0011865752,-0.00061287347,0.010433202,0.44042838,-1.4573117,1.9939007,-2.1062834,-1.5704931,2.4143498,-0.08789784,0.15059066,-0.17100054,0.020458316,0.001053584,-0.098215766,-0.30645782,0.17238252,-9.308657,0.7709874,47.687782,-0.7016744,-1.6692157,-3.392043,-0.095083654,0.09222743,-0.102140054,26.4375,27.3125,26.4375,29.5625,30.875,31.375
0.1880525,-0.960123,-0.7427588,-0.69761604,0.005238838,0.036713634,-0.13791977,-0.38132033,-0.3280992,0.060110804,3.078901,-0.6233014,-0.0003822126,-0.09115347,0.003794955,0.00036803738,-0.0016340491,0.00044494722,0.0062939385,0.44023624,-1.4570237,1.9935888,-2.1062229,-1.5704931,2.414135,-0.08836064,0.15183759,-0.17422168,0.021285225,0.000997752,-0.09453755,-0.34476504,0.17238252,-9.289503,0.8247004,47.694054,-0.8216078,-1.5837015,-3.4497604,-0.10874221,0.112881586,-0.1322141,26.4375,27.3125,26.4375,29.5625,30.875,31.375
0.19005255,-0.48751622,-0.42692816,-0.90819633,0.0059844106,0.045250833,-0.14450216,-0.38146937,-0.32807544,0.060066894,3.0789802,-0.6232812,-0.00025711863,-0.09080159,0.0041466383,-0.0002856842,-0.0009031159,-0.00096283876,0.0026269206,0.44006816,-1.456676,1.9932898,-2.1061637,-1.570505,2.4139445,-0.088611774,0.15250914,-0.17358549,0.021561807,0.0009273399,-0.09112213,-0.3256114,0.17238252,-9.404425,0.8179876,47.668976,-0.79348934,-1.5733304,-3.49939,-0.10516231,0.089272514,-0.18320066,26.4375,27.3125,26.4375,29.5625,30.875,31.375
0.19205248,-0.79357815,-0.46620104,-1.0937839,0.0063341404,0.03841947,-0.14039981,-0.3816821,-0.32808608,0.060099028,3.0789344,-0.62321544,-0.0003770933,-0.091799036,0.0038380718,-0.00017519626,-0.00094591087,-0.00082755444,5.9541337e-05,0.4399,-1.456388,1.9928936,-2.1061513,-1.570505,2.4137414,-0.08884865,0.15450081,-0.17620225,0.022046525,0.00091184233,-0.08878993,-0.24899697,0.19153613,-9.576807,0.82022345,47.68599,-0.8470371,-1.6384193,-3.4768314,-0.09913653,0.08702493,-0.21722639,26.4375,27.3125,26.4375,29.5625,30.875,31.375
0.19405253,-0.8722972,-0.83102363,-1.2328216,-0.0012774724,0.030142376,-0.14085355,-0.3818532,-0.3280708,0.0600797,3.078956,-0.62329507,-0.0002983133,-0.09228636,0.0032019108,-0.0013262902,2.1688595e-05,-0.002894339,0.0010210434,0.43972042,-1.4560508,1.9925469,-2.1060798,-1.570505,2.413609,-0.08804039,0.15917099,-0.17886882,0.022325272,0.0009054698,-0.08894114,-0.19153613,0.22984336,-9.519346,0.8112748,47.683304,-0.9286749,-1.7780349,-3.3709044,-0.09095626,0.089919455,-0.24428773,26.4375,27.3125,26.4375,29.5625,30.875,31.375
0.1960525,-1.02906,-1.1277921,-1.351941,-0.011412219,0.024528064,-0.12836415,-0.38203493,-0.32805812,0.06007833,3.0789564,-0.62331593,-0.00025528405,-0.0928555,0.0030359463,-0.00146825,0.00033561556,-0.003308051,-0.0019967393,0.43952847,-1.4557388,1.9921869,-2.1060069,-1.5704931,2.4134302,-0.08810145,0.16093282,-0.18067552,0.022879733,0.00079138606,-0.08598324,-0.1340753,0.2681506,-9.634268,0.8291774,47.68062,-0.979236,-1.7122386,-3.4838862,-0.109489195,0.10046445,-0.32273144,26.4375,27.3125,26.4375,29.5625,30.875,31.375
0.19805248,-1.084327,-1.5532558,-1.5330348,-0.025521388,0.018768474,-0.13147175,-0.3822421,-0.32805085,0.06006744,3.0789406,-0.62327236,-0.00027289745,-0.09327291,0.0030558065,-0.002715201,0.0014325564,-0.0055377586,4.867202e-05,0.4393243,-1.4553903,1.9918274,-2.1060193,-1.5704812,2.413201,-0.0884151,0.16475417,-0.18215561,0.023024624,0.00074608455,-0.08834094,-0.1340753,0.36391866,-9.672575,0.86498255,47.682407,-1.0300933,-1.8973047,-3.430418,-0.10549876,0.11103168,-0.3423832,26.4375,27.3125,26.4375,29.5625,30.875,31.375
0.20005286,-0.86467993,-1.8871185,-1.372559,-0.03553267,0.019473635,-0.12708564,-0.3824232,-0.3280399,0.060064852,3.0789785,-0.62330204,-0.000274586,-0.09451109,0.0026197666,-0.002755527,0.0012790181,-0.005152611,-0.0039955187,0.43916818,-1.455066,1.9914564,-2.1059477,-1.570517,2.413059,-0.088619694,0.16738929,-0.18499573,0.022812834,0.00071075116,-0.08449934,-0.019153614,0.36391866,-9.595961,0.842603,47.72092,-1.0751135,-1.9443667,-3.4682102,-0.10680509,0.10436197,-0.396944,26.4375,27.3125,26.4375,29.5625,30.875,31.375
0.20205183,-0.20916224,-1.3579173,-1.2967262,-0.043628313,0.022015559,-0.14269094,-0.38261053,-0.32802925,0.06006807,3.078977,-0.6233022,-0.00024608438,-0.09487628,0.003164191,-0.0033509599,0.001979391,-0.0064863795,-0.005246133,0.43897572,-1.4547538,1.9910854,-2.1058753,-1.5705055,2.412867,-0.08984945,0.16890667,-0.18547769,0.023283858,0.00064149837,-0.08447812,0.038307227,0.34476504,-9.5385,0.8560339,47.71465,-1.0526026,-1.9621701,-3.5086582,-0.10482758,0.12161377,-0.4579591,26.4375,27.3125,26.4375,29.5625,30.875,31.375
0.20405188,-0.3519737,-1.2407819,-1.1641346,-0.035098623,0.0052097314,-0.1420597,-0.38282827,-0.32805258,0.060088646,3.0789218,-0.6232691,-0.00034091558,-0.09649643,0.0028846012,-0.0027515735,0.0011887521,-0.0048310696,-0.0032086878,0.43881962,-1.4544184,1.9906653,-2.1058753,-1.5704936,2.4126976,-0.0907007,0.17028987,-0.18836829,0.02295818,0.0006539766,-0.08736495,0.11492168,0.38307226,-9.615114,0.800085,47.709274,-1.0205786,-1.8644214,-3.3776994,-0.10018872,0.12207395,-0.46696824,26.4375,27.3125,26.4375,29.5625,30.875,31.375
0.20605192,-0.19371668,-1.1513247,-1.0809534,-0.03186809,0.0061268876,-0.13909416,-0.38301054,-0.32802027,0.06008707,3.0789647,-0.6233334,-0.00028659278,-0.098095156,0.002905641,-0.0021300185,0.000502157,-0.0032506736,0.00021513931,0.4386151,-1.4541066,1.9902948,-2.105756,-1.5705174,2.412528,-0.09204444,0.17124458,-0.19086143,0.022772724,0.00059352117,-0.09213098,0.0,0.45968673,-9.5385,0.8627467,47.685097,-1.0236877,-1.8978484,-3.3411288,-0.074892044,0.12411907,-0.4683631,26.4375,27.3125,26.4375,29.5625,30.875,31.375
0.20805185,-0.5800642,-1.5521061,-1.3002888,-0.020801723,0.0006792156,-0.13570012,-0.38321784,-0.32802358,0.06008169,3.0789247,-0.62332195,-0.00030944363,-0.099178985,0.0024790885,-0.0011920723,-0.00056530524,-0.0010054362,0.0063715195,0.43842316,-1.4537592,1.9899234,-2.1057684,-1.5704936,2.4123342,-0.09214543,0.17108785,-0.19280313,0.022387812,0.0006063379,-0.09838729,0.0,0.45968673,-9.442732,0.9164598,47.713753,-1.1107962,-1.791929,-3.4995124,-0.06484994,0.112064645,-0.4246695,26.4375,27.3125,26.4375,29.5625,30.875,31.375
0.21005176,-0.4092557,-1.5870866,-1.1382878,-0.03163479,0.018480362,-0.1349279,-0.38342115,-0.32801223,0.060084913,3.0789344,-0.6233205,-0.00031840024,-0.099337906,0.002258913,-0.0019261062,2.4334928e-05,-0.0025068778,0.012703098,0.43823117,-1.453423,1.9895281,-2.1057084,-1.570505,2.4121404,-0.09188186,0.17359696,-0.19405097,0.022735279,0.0007091098,-0.10445453,0.076614454,0.4405331,-9.519346,0.9612189,47.686886,-1.0792483,-1.9894242,-3.4877863,-0.064380236,0.12671405,-0.38094598,26.4375,27.3125,26.4375,29.5625,30.875,31.375
0.21205187,-0.708758,-1.3951836,-1.0237051,-0.042147737,0.015040364,-0.1365256,-0.38363105,-0.32801384,0.060082402,3.078961,-0.62318796,-0.00031687884,-0.10058146,0.0033883404,-0.0027187532,0.00029368393,-0.004603913,0.017668603,0.43804994,-1.453051,1.9891084,-2.1056602,-1.570505,2.4118733,-0.09543717,0.17618662,-0.19534692,0.023453118,0.0013554331,-0.1129753,0.095768064,0.36391866,-9.500193,0.7866488,47.705692,-1.0318398,-1.8852624,-3.4965305,-0.06122245,0.11248678,-0.27999005,26.4375,27.3125,26.4375,29.5625,30.875,31.375
0.21405196,-0.70480907,-1.6506435,-0.64723915,-0.041883845,0.017215816,-0.1356019,-0.3838192,-0.3279954,0.060060944,3.0790424,-0.6230857,-0.00031591745,-0.10076257,0.0019841962,-0.0016474859,-0.0007525551,-0.0029849396,0.02493501,0.4378827,-1.4526914,1.9887489,-2.105624,-1.5705532,2.4116323,-0.093098596,0.17602262,-0.19784829,0.024202585,0.0016092298,-0.117902435,0.076614454,0.3256114,-9.385271,0.8873621,47.7254,-1.1403475,-1.8269334,-3.4182878,-0.06256364,0.11921182,-0.24384445,26.4375,27.3125,26.4375,29.5625,30.875,31.375
0.21605176,-0.89575994,-1.0798439,-0.6605352,-0.026555732,0.017587926,-0.13059074,-0.38402116,-0.32801047,0.060075168,3.0789924,-0.62295914,-0.00034443653,-0.10309999,0.0027814882,-0.00090946554,-0.0015903198,-0.0013078802,0.025029255,0.43770167,-1.4523795,1.988366,-2.105612,-1.570505,2.4113789,-0.09659238,0.1768473,-0.200499,0.024160644,0.0016589782,-0.121488914,-0.038307227,0.30645782,-9.32781,0.8314132,47.67345,-1.1707106,-1.7751656,-3.448873,-0.04876001,0.11265884,-0.18098113,26.4375,27.3125,26.4375,29.5625,30.875,31.375
0.21805178,-0.33438158,-0.31998476,-0.6211315,-0.0042706067,0.029972356,-0.14253911,-0.3842025,-0.32802752,0.06007178,3.0789847,-0.6228218,-0.00025784946,-0.10325858,0.0014553443,-0.0007074969,-0.0020270846,-0.0005292153,0.027977386,0.43753448,-1.4520313,1.9879693,-2.10554,-1.570445,2.411127,-0.094247475,0.17830922,-0.20259215,0.023909058,0.001716797,-0.122090906,-0.076614454,0.17238252,-9.385271,0.88289046,47.711964,-1.0962722,-1.7562681,-3.5227141,-0.0358843,0.121691585,-0.14308193,26.4375,27.3125,26.4375,29.5625,30.875,31.375
0.22005181,-0.72564137,0.0071854074,-0.6774425,0.02259745,0.0109740915,-0.13621871,-0.38444045,-0.32804015,0.06008514,3.0789614,-0.6226649,-0.00033870968,-0.10544585,0.0011201603,0.00055540213,-0.0036354964,0.0022760592,0.024401972,0.43734184,-1.4516604,1.9875253,-2.1055405,-1.570433,2.4108398,-0.095640846,0.17903583,-0.20630041,0.023668984,0.0019854696,-0.119906925,-0.05746084,0.05746084,-9.270349,0.9410752,47.717335,-1.1668173,-1.5351974,-3.432642,-0.033420842,0.112297826,-0.1377802,26.4375,27.3125,26.4375,29.5625,30.875,31.375
0.22205172,-0.72634566,0.5701133,-0.51930517,0.026013013,0.010016516,-0.14054672,-0.38464355,-0.32801712,0.060075086,3.0789933,-0.6227133,-0.00031318623,-0.10749538,0.0011729406,0.0012937438,-0.004443624,0.0037663293,0.0181291,0.43713728,-1.4513006,1.9871305,-2.105468,-1.5704569,2.4106617,-0.0975196,0.18056649,-0.20982799,0.023970619,0.0020746863,-0.11551098,-0.21068975,0.11492168,-9.174581,0.75755644,47.695843,-1.2027799,-1.5380199,-3.355091,-0.022535374,0.0950875,-0.17498961,26.4375,27.3125,26.4375,29.5625,30.875,31.375
0.2240518,-0.553492,0.06384439,-0.8489076,0.046795156,0.008396463,-0.12417246,-0.38486144,-0.32802257,0.060065642,3.079025,-0.62258786,-0.0002977282,-0.108441964,0.0010024452,0.0018633541,-0.0053095696,0.00403059,0.0121485125,0.43695703,-1.450893,1.9866866,-2.1054199,-1.5704569,2.4103994,-0.09840287,0.18124461,-0.21220855,0.025064822,0.0027428681,-0.11041347,-0.22984336,0.095768064,-9.193734,0.8605109,47.698532,-1.1680055,-1.4807141,-3.2949696,-0.018897718,0.113032684,-0.23335391,26.4375,27.3125,26.4375,29.5625,30.875,31.375
0.22605182,-0.8523035,0.3480893,-0.67497236,0.029757414,0.016756818,-0.13554937,-0.385058,-0.32802248,0.060073636,3.0790017,-0.62262213,-0.0002975181,-0.10849293,0.0010886344,0.0013983909,-0.0043409765,0.002259324,0.009772818,0.436777,-1.4505688,1.9862927,-2.1053598,-1.5704445,2.410244,-0.09845756,0.1830364,-0.21356001,0.026641428,0.0026165443,-0.10809178,-0.38307226,0.17238252,-9.32781,0.87617236,47.66539,-1.1433632,-1.5048183,-3.31712,-0.01573925,0.09117986,-0.28630412,26.4375,27.3125,26.4375,29.5625,30.875,31.375
0.22805257,-0.9434199,-0.14198662,-0.7076291,0.018301368,0.038563915,-0.1287529,-0.38526276,-0.3280152,0.0600778,3.0789874,-0.62261945,-0.00023227542,-0.10901122,0.0012706042,0.00031659947,-0.0027164835,-0.0009331672,0.009138288,0.4365611,-1.4502203,1.9858721,-2.105263,-1.5704087,2.4100285,-0.099092275,0.1872312,-0.21631889,0.028790489,0.00249141,-0.108090356,-0.36391866,-0.038307227,-9.404425,0.8112748,47.67166,-1.3295052,-1.6121974,-3.3427083,-0.049769156,0.11340152,-0.31972042,26.4375,27.3125,26.4375,29.5625,30.875,31.375
0.23005256,-1.2290473,0.11742428,-0.8692706,0.006359782,0.05405691,-0.13464013,-0.3854971,-0.32799962,0.06008691,3.0790117,-0.62256795,-0.00026464477,-0.10981113,0.0024447727,-0.0015661725,-0.00041771453,-0.005592778,0.0063576084,0.43634373,-1.4498469,1.9854177,-2.1051905,-1.5704325,2.4097762,-0.10181426,0.19243807,-0.21835354,0.030811347,0.002378507,-0.10803021,-0.38307226,0.038307227,-9.461885,0.88960326,47.6636,-1.0142088,-1.7355096,-3.2812424,-0.057922833,0.097862154,-0.3480321,26.4375,27.3125,26.4375,29.5625,30.875,31.375
0.23205297,-1.7757986,-0.32794482,-0.8662343,0.0029733342,0.064089596,-0.13848862,-0.38569131,-0.32799596,0.06005897,3.0790415,-0.6225364,-0.00015093552,-0.11051068,0.0025260402,-0.0015761472,8.432527e-05,-0.0064024013,0.0050560813,0.43615186,-1.4494393,1.98501,-2.1051185,-1.5704087,2.4095612,-0.1024231,0.19413672,-0.22065897,0.032367565,0.00225521,-0.107336536,-0.5363012,0.11492168,-9.461885,0.8806493,47.67345,-1.2012814,-1.7032776,-3.2358785,-0.074215084,0.10897618,-0.37866342,26.4375,27.3125,26.4375,29.5625,30.875,31.375
0.23405188,-1.620215,-0.6523319,-0.7753678,-0.010316744,0.09651325,-0.13653989,-0.3859319,-0.327979,0.0600676,3.0790336,-0.62257266,-0.00015022486,-0.1115318,0.003240947,-0.0012040295,-0.00020054038,-0.006057893,0.004652542,0.435911,-1.4490559,1.9845427,-2.1050346,-1.5704087,2.4093442,-0.104622245,0.19411696,-0.22170351,0.032999866,0.00236613,-0.109132014,-0.51714754,0.22984336,-9.404425,0.8851263,47.694054,-1.0826237,-1.6343888,-3.2651162,-0.10956506,0.08772622,-0.36880106,26.4375,27.3125,26.4375,29.5625,30.875,31.375
0.23605181,-2.2590964,-0.82297206,-0.9578752,-0.00674691,0.08408415,-0.12662996,-0.38617602,-0.32798126,0.060097456,3.0790124,-0.622529,-0.0002735726,-0.11128401,0.003661028,-0.0014068941,0.0003320911,-0.007870596,0.0051655713,0.43571877,-1.4487083,1.9840773,-2.1049974,-1.5704325,2.4091277,-0.1052994,0.19438358,-0.2220442,0.034939185,0.0026601192,-0.11032274,-0.5554548,0.19153613,-9.500193,0.82022345,47.66271,-1.0622556,-1.7279673,-3.4875321,-0.13372308,0.095151156,-0.41076928,26.4375,27.3125,26.4375,29.5625,30.875,31.375
0.23805176,-1.8120295,-0.3725114,-0.77659875,-0.021396792,0.08066665,-0.15056203,-0.386358,-0.32798186,0.060059305,3.0790725,-0.6224429,-8.801793e-05,-0.11218839,0.0047117695,-0.0017027984,0.0010040472,-0.009056761,0.008620871,0.43553787,-1.4482765,1.9836572,-2.1048892,-1.5703968,2.4088857,-0.1078829,0.19561677,-0.22309689,0.036123563,0.0025383004,-0.116361395,-0.6512229,0.21068975,-9.576807,0.9231726,47.657326,-1.0575813,-1.762894,-3.5607467,-0.17231718,0.09692566,-0.36246115,26.4375,27.3125,26.4375,29.5625,30.875,31.375
0.2400519,-1.5817784,-0.4876715,-0.5991952,-0.031918954,0.07868294,-0.14282258,-0.38658097,-0.32796305,0.0600534,3.079127,-0.6223551,-0.000104000894,-0.11376455,0.0051869,-0.0022264677,0.00084740634,-0.008911373,0.012017677,0.43533313,-1.4478927,1.9832281,-2.1048305,-1.5704325,2.4086196,-0.1100998,0.1982361,-0.22460012,0.03480652,0.0026104066,-0.121973805,-0.63206923,0.21068975,-9.423578,0.900793,47.66539,-0.8879566,-1.7584317,-3.6353068,-0.17470215,0.09349881,-0.3369778,26.4375,27.3125,26.4375,29.5625,30.875,31.375
0.24205181,-1.5553316,-0.6204679,-0.7071381,-0.017071504,0.07192096,-0.13836938,-0.38683906,-0.32794964,0.0600695,3.0790687,-0.6224361,-0.00012744985,-0.11560908,0.005026561,-0.0016829089,0.00020455105,-0.006349743,0.018055355,0.43506894,-1.447509,1.9827484,-2.104771,-1.5704092,2.4084136,-0.11097085,0.1995904,-0.22710326,0.03336798,0.002108663,-0.12888001,-0.61291564,0.2681506,-9.423578,0.92093146,47.70032,-0.907346,-1.6530068,-3.636518,-0.16279158,0.0799837,-0.25806123,26.4375,27.3125,26.4375,29.5625,30.875,31.375
0.24405184,-0.8772747,-0.32289785,-0.8379295,-0.007976087,0.073846355,-0.14323977,-0.3870655,-0.32793874,0.060065866,3.0790987,-0.6222852,-0.00012666042,-0.1171172,0.0050269277,-0.0014752705,0.00040525867,-0.0064545223,0.023635494,0.4348524,-1.4471251,1.9823159,-2.1047223,-1.5704092,2.4080994,-0.11209973,0.20210306,-0.23076876,0.03470253,0.0019660585,-0.13558692,-0.4405331,0.19153613,-9.3661175,0.8627467,47.696735,-0.8284315,-1.665461,-3.643659,-0.182567,0.09421699,-0.18202358,26.4375,27.3125,26.4375,29.5625,30.875,31.375
0.24605174,-0.72405356,-0.039856587,-0.6663802,0.0008327587,0.060783695,-0.13366453,-0.3872916,-0.32794735,0.060052644,3.0790946,-0.62222713,-6.1385166e-05,-0.11739384,0.0049920185,-0.002133428,0.0008306126,-0.007519752,0.023252372,0.43464845,-1.4466932,1.9818491,-2.1046631,-1.5703729,2.40786,-0.11222809,0.20417106,-0.23165525,0.034671582,0.0020222093,-0.13533163,-0.4405331,0.19153613,-9.308657,0.8493211,47.655537,-0.8821552,-1.6959584,-3.5147529,-0.18751398,0.09626283,-0.14193687,26.4375,27.3125,26.4375,29.5625,30.875,31.375
0.24805164,-1.361583,-0.46044335,-0.8351942,0.015315952,0.043166332,-0.12875889,-0.38756612,-0.327933,0.06007567,3.0791109,-0.62215406,-0.00015232313,-0.11830972,0.0047893072,-0.002031741,0.00097552116,-0.007801532,0.022496346,0.4344084,-1.4462849,1.9813226,-2.1045907,-1.5704092,2.4075727,-0.11253863,0.20614928,-0.2344379,0.03578838,0.002010285,-0.13488464,-0.51714754,0.22984336,-9.289502,0.8806493,47.64837,-0.87565935,-1.7521427,-3.5718641,-0.20413333,0.09128153,-0.10527927,26.4375,27.3125,26.4375,29.5625,30.875,31.375
0.2500526,-0.9174581,-0.20250393,-0.71739376,0.007803057,0.05112089,-0.1388191,-0.38777074,-0.3279033,0.06005379,3.0791557,-0.6221648,-1.9278272e-05,-0.1196422,0.004225188,-0.00067818526,-0.00013500858,-0.00637799,0.018277302,0.43416825,-1.4458894,1.9809021,-2.10447,-1.5703968,2.4073339,-0.11281984,0.20645213,-0.23838104,0.037670337,0.0023995617,-0.13094594,-0.4405331,0.15322891,-9.232041,0.91421866,47.679718,-0.95756423,-1.7077911,-3.4694986,-0.23143074,0.088124886,-0.13657579,26.4375,27.3125,26.4375,29.5625,30.875,31.375
0.2520526,-0.70466995,-0.340337,-0.71265155,0.0053964206,0.046253268,-0.13173568,-0.3880682,-0.3279034,0.060088962,3.079114,-0.6221025,-0.00019355108,-0.122366786,0.004662682,0.0004037297,-0.0014012121,-0.0036114727,0.010914275,0.43392727,-1.4454819,1.9803623,-2.1044586,-1.5704206,2.4070597,-0.11586489,0.20739938,-0.24188618,0.03718287,0.002389952,-0.12662564,-0.19153613,0.17238252,-9.289503,0.89631605,47.707485,-0.9018112,-1.6704674,-3.311334,-0.24215347,0.09133554,-0.18444508,26.4375,27.3125,26.4375,29.5625,30.875,31.375
0.25405255,-1.2472745,-1.1124206,-0.7656175,0.011965117,0.021707593,-0.12609929,-0.38828552,-0.3279059,0.06006297,3.0791109,-0.6221019,-7.032476e-05,-0.12273798,0.0026408618,0.0009991031,-0.0023889807,-0.001711919,0.0100660585,0.43371245,-1.4450382,1.9799079,-2.1043866,-1.5703725,2.406845,-0.112415336,0.20899631,-0.24498266,0.03654933,0.0024706675,-0.12232622,-0.11492168,0.1340753,-9.232041,0.8627467,47.71554,-1.0505569,-1.6344564,-3.276802,-0.25477436,0.09291678,-0.2433224,26.4375,27.3125,26.4375,29.5625,30.875,31.375
0.25605255,0.14869356,-0.599582,-0.7673946,-0.00095842127,0.030064357,-0.13631308,-0.38851976,-0.32786047,0.06002298,3.0792072,-0.6221448,2.2904318e-05,-0.12548904,0.0043042717,0.0014638567,-0.0023727184,-0.00081864715,0.0018045085,0.43345857,-1.4445707,1.979453,-2.1042902,-1.5704211,2.4066062,-0.11749423,0.2103672,-0.247831,0.037218854,0.0020623745,-0.11914186,-0.15322891,0.30645782,-9.308656,0.89631605,47.67345,-0.8300328,-1.5801997,-3.1462228,-0.263487,0.09933266,-0.2911362,26.4375,27.3125,26.4375,29.5625,30.875,31.375
0.25805184,0.16043194,-0.40949774,-0.99376553,-0.012205973,0.023371596,-0.14025165,-0.38878253,-0.32785574,0.060036965,3.0791674,-0.6221352,6.4157354e-07,-0.124704376,0.0036757016,0.00072816625,-0.0014407387,-0.0023611595,0.0014763463,0.4332077,-1.4441625,1.9789494,-2.1042306,-1.5703973,2.4063547,-0.11542571,0.21199805,-0.24817538,0.03772753,0.0018684043,-0.116744705,-0.19153613,0.36391866,-9.289502,0.86498255,47.70838,-0.9886299,-1.6611137,-3.3304415,-0.29218337,0.099500254,-0.35188228,26.4375,27.3125,26.4375,29.5625,30.875,31.375
0.2600519,-0.31442946,-1.0073053,-1.0531533,-0.024920974,0.024140742,-0.14272633,-0.38901594,-0.3278498,0.06002297,3.0792212,-0.62209064,6.570101e-05,-0.12494891,0.0038669114,0.0010683166,-0.0015361463,-0.0017603568,-0.0011815276,0.43300357,-1.4437081,1.9784468,-2.1041229,-1.5704092,2.4061162,-0.115785114,0.2114026,-0.24843952,0.03800118,0.0016955007,-0.11444632,-0.076614454,0.38307226,-9.308657,0.7978386,47.687782,-0.9988271,-1.4574056,-3.2834501,-0.31591505,0.09169481,-0.40356657,26.4375,27.3125,26.4375,29.5625,30.875,31.375
0.26205185,-0.35539266,-1.6314852,-0.8680882,-0.028253524,0.031227332,-0.13299932,-0.38927823,-0.32783973,0.060047112,3.079199,-0.62208676,5.1154046e-05,-0.124890484,0.003921352,-0.0017398307,0.0009278655,-0.006663565,-0.0023150756,0.43275157,-1.4433107,1.9779209,-2.104015,-1.5703973,2.405865,-0.11561591,0.21815944,-0.24967514,0.037966937,0.0015141456,-0.11314171,-0.11492168,0.38307226,-9.3661175,0.9164598,47.681515,-1.0667435,-1.6218123,-3.4324245,-0.33160925,0.11051045,-0.47606534,26.4375,27.3125,26.4375,29.5625,30.875,31.375
0.26405266,-0.7329457,-1.838479,-0.94051784,-0.025845926,0.029668365,-0.12957138,-0.3895314,-0.32782108,0.06003927,3.0792162,-0.62214625,1.996151e-05,-0.12583448,0.004011103,-0.0027704088,0.0013283096,-0.0076458505,-0.0010339245,0.43252316,-1.4428781,1.9774421,-2.103968,-1.570433,2.4056718,-0.11652385,0.22165163,-0.25110114,0.036957055,0.0015554857,-0.11532948,0.076614454,0.36391866,-9.404425,0.9030289,47.689575,-0.8539474,-1.7757204,-3.5936275,-0.34447765,0.10288826,-0.50841504,26.4375,27.3125,26.4375,29.5625,30.875,31.375
0.26605177,-0.48631698,-1.161539,-0.9747972,-0.03355211,0.023841897,-0.13827392,-0.38978276,-0.32781225,0.06001243,3.0792136,-0.62210315,0.00012653264,-0.12628052,0.0040790914,-0.0036411516,0.0014492542,-0.008492133,0.004787994,0.4322593,-1.4423981,1.9769505,-2.1039083,-1.5703849,2.4053817,-0.117082044,0.22391912,-0.2515286,0.03594261,0.0017895501,-0.1217094,0.21068975,0.36391866,-9.385271,0.8291774,47.686886,-1.1470253,-1.8464234,-3.482795,-0.3296345,0.113256454,-0.5201855,26.4375,27.3125,26.4375,29.5625,30.875,31.375
0.2680518,0.31406876,-0.949332,-0.9853405,-0.023943556,0.020544264,-0.13748105,-0.39003667,-0.32783493,0.06002377,3.0792181,-0.62202096,7.1023394e-05,-0.1281304,0.0030355963,-0.002999839,9.6389216e-05,-0.005958996,0.0137556195,0.43209144,-1.4419543,1.9764122,-2.1038492,-1.5703973,2.4051623,-0.11675812,0.22614874,-0.25529343,0.03461083,0.0019495963,-0.13035077,0.3256114,0.30645782,-9.442732,0.8717007,47.705692,-0.98387027,-1.9078996,-3.694057,-0.33978063,0.10463989,-0.42449027,26.4375,27.3125,26.4375,29.5625,30.875,31.375
0.27005175,-0.24435037,-1.5068959,-1.0911217,-0.010671189,-0.016905168,-0.13114256,-0.39029187,-0.3278103,0.059987463,3.0792599,-0.6219851,0.0001470748,-0.13022448,0.0025108624,-0.0019943174,-0.0018266941,-0.0031647314,0.024437426,0.43182695,-1.4414628,1.9759315,-2.103801,-1.5703968,2.4048705,-0.11784461,0.22722217,-0.25867146,0.03357359,0.002507948,-0.14211799,0.15322891,0.40222588,-9.385271,0.86945957,47.693153,-1.1857846,-1.730422,-3.6296341,-0.32589436,0.09662999,-0.3339063,26.4375,27.3125,26.4375,29.5625,30.875,31.375
0.27205184,0.06493161,-1.3425303,-0.93161905,-0.020349747,-0.013329796,-0.13527977,-0.39053035,-0.32777983,0.05996108,3.0793111,-0.62195414,0.00021244312,-0.13239093,0.0023089189,-0.0011026525,-0.002882792,-0.00040231153,0.029706161,0.4315744,-1.4410192,1.9754766,-2.10373,-1.5704087,2.4045925,-0.119082354,0.22847854,-0.26202807,0.03272392,0.0022931325,-0.1486223,0.095768064,0.4405331,-9.346964,0.8403672,47.687782,-1.0586379,-1.7601935,-3.466091,-0.2870772,0.1108505,-0.23973249,26.4375,27.3125,26.4375,29.5625,30.875,31.375
0.27405173,-0.3406407,-1.4995086,-1.0698555,-0.017409366,-0.018024087,-0.12920609,-0.3908274,-0.3277874,0.059980977,3.0792806,-0.62184995,0.000106657724,-0.1344521,0.0017851614,0.0005570514,-0.004473627,0.0033485454,0.033411123,0.43133432,-1.440564,1.9749135,-2.1037061,-1.5704087,2.4042916,-0.11968239,0.22835392,-0.2657259,0.03247592,0.0021743877,-0.15292513,-0.038307227,0.51714754,-9.251195,0.90750587,47.666286,-1.0852766,-1.7126102,-3.3823397,-0.29265428,0.104983546,-0.17105049,26.4375,27.3125,26.4375,29.5625,30.875,31.375
0.2760518,-0.20111378,-1.617546,-1.1677562,-0.030278247,0.006395264,-0.12317548,-0.39106712,-0.32778546,0.059971813,3.0793316,-0.62176335,0.00021129426,-0.13515523,0.0021417227,-0.00026165615,-0.0038061058,0.0018423962,0.03264829,0.43111792,-1.4400955,1.9743742,-2.103562,-1.5703968,2.404015,-0.12084882,0.23110116,-0.26711583,0.03276844,0.0021848145,-0.15332803,-0.1340753,0.61291564,-9.3661175,0.8560339,47.66808,-1.0528415,-1.7731171,-3.319109,-0.30257112,0.12259739,-0.14571935,26.4375,27.3125,26.4375,29.5625,30.875,31.375
0.278052,-0.962147,-1.9207094,-1.1091883,-0.056746762,0.033460982,-0.12734771,-0.39133435,-0.3277704,0.059955925,3.0793698,-0.6216623,0.00028442158,-0.1369146,0.001675783,0.00079040875,-0.0049428926,0.0041182954,0.023452025,0.4308538,-1.4396042,1.9738353,-2.1034667,-1.5703844,2.4036834,-0.12142171,0.23200993,-0.27068093,0.03288297,0.0022540048,-0.14470309,-0.30645782,0.49799395,-9.423578,0.95002913,47.688675,-1.1467217,-1.7662321,-3.4324336,-0.30137295,0.104448885,-0.18552172,26.4375,27.3125,26.4375,29.5625,30.875,31.375
0.28005216,-1.8744893,-2.0327175,-1.0579023,-0.05459464,0.052001804,-0.12440356,-0.3916019,-0.3277724,0.05996283,3.079377,-0.62157017,0.00022999056,-0.13777903,0.0015847175,0.0005487125,-0.0053734663,0.0032444326,0.016977783,0.43063745,-1.4391605,1.9733084,-2.103418,-1.5703968,2.403409,-0.12238385,0.23419908,-0.27282068,0.033443134,0.0030132455,-0.13919093,-0.34476504,0.47884035,-9.442732,0.9298854,47.70211,-1.0959744,-1.822167,-3.385892,-0.30399933,0.11451897,-0.2510601,26.4375,27.3125,26.4375,29.5625,30.875,31.375
0.2820523,-1.5798019,-1.6431178,-1.0440176,-0.0547845,0.08154357,-0.1295937,-0.39185458,-0.3277828,0.059934266,3.0793862,-0.6215355,0.00036736453,-0.1386159,0.0015568924,0.0012599266,-0.0067490614,0.0046895472,0.012786659,0.43040916,-1.4386336,1.9727582,-2.1033227,-1.5703481,2.4031582,-0.12335404,0.23356096,-0.2737821,0.03316007,0.0036491775,-0.13597102,-0.47884035,0.51714754,-9.519346,0.90527004,47.66271,-1.057865,-1.745579,-3.4181094,-0.29414487,0.09125823,-0.29919565,26.4375,27.3125,26.4375,29.5625,30.875,31.375
0.2840523,-2.1282136,-1.5798995,-0.9837797,-0.045824002,0.08890271,-0.13135344,-0.39215583,-0.327761,0.059944652,3.0793414,-0.6215462,0.00034481092,-0.14042807,0.001485847,0.0018629023,-0.0083574345,0.0068343394,0.011147706,0.43009657,-1.4381783,1.9722074,-2.1032636,-1.5703238,2.4028583,-0.12500112,0.23444858,-0.27596048,0.031833433,0.0042161276,-0.13597853,-0.61291564,0.38307226,-9.404425,0.8985519,47.694946,-1.0206432,-1.5534905,-3.5035753,-0.2818258,0.09470568,-0.3288458,26.4375,27.3125,26.4375,29.5625,30.875,31.375
0.28605223,-1.9063587,-1.1528885,-1.0761741,-0.020773357,0.09404995,-0.1291046,-0.39245567,-0.32777548,0.059950083,3.079314,-0.6215025,0.00027141027,-0.1412255,0.001970322,0.00054733583,-0.007789966,0.0059033227,0.009436937,0.42986822,-1.4376742,1.9716209,-2.1032398,-1.5703238,2.4026065,-0.12636903,0.23752186,-0.27611318,0.029997269,0.0040938584,-0.13563453,-0.5746084,0.21068975,-9.423578,0.8717007,47.64389,-1.108812,-1.6430403,-3.5789278,-0.2469365,0.07755294,-0.35867906,26.4375,27.3125,26.4375,29.5625,30.875,31.375
0.28805214,-2.2041848,-0.3646121,-0.9827486,0.003702575,0.08504273,-0.124441855,-0.3927328,-0.32776675,0.05994035,3.0793288,-0.6214653,0.00028974545,-0.14180101,0.0009388928,-0.00036326563,-0.0075227465,0.005754014,0.011740618,0.42961663,-1.4371817,1.9710711,-2.1031687,-1.5703238,2.4023302,-0.12471958,0.24141975,-0.27818295,0.028418332,0.003905239,-0.13628672,-0.7278373,0.095768064,-9.481039,0.91198283,47.65912,-1.0802904,-1.7449961,-3.620685,-0.23585995,0.09515719,-0.3698933,26.4375,27.3125,26.4375,29.5625,30.875,31.375
0.2900521,-1.3521999,0.47971413,-0.8537739,0.013938072,0.103506014,-0.1409623,-0.3930094,-0.3277976,0.05994433,3.0792677,-0.621414,0.00030065185,-0.1436548,0.0020307517,-2.1865077e-05,-0.008164124,0.0065541803,0.011747992,0.4293994,-1.4366906,1.9704965,-2.103121,-1.5702642,2.4020889,-0.12834747,0.24201238,-0.27974084,0.028398495,0.0041584154,-0.13992156,-0.61291564,-0.038307227,-9.385271,0.93436235,47.66271,-1.0905646,-1.7652509,-3.6883347,-0.20150697,0.07515338,-0.37411773,26.4375,27.3125,26.4375,29.5625,30.875,31.375
0.29205206,-0.9998166,0.96256614,-0.99838346,0.0380867,0.09185992,-0.14300703,-0.3933023,-0.32776594,0.059919287,3.079326,-0.6214199,0.0003020069,-0.14503653,0.00025354192,0.0007341616,-0.009270227,0.00865628,0.020566294,0.42912415,-1.4361622,1.9699434,-2.103061,-1.5703119,2.4018104,-0.12620243,0.24465376,-0.28452393,0.02816459,0.0042760954,-0.14659244,-0.47884035,-0.17238252,-9.442732,0.9634547,47.668976,-1.1089278,-1.8690808,-3.5198205,-0.19235718,0.082812496,-0.30906522,26.4375,27.3125,26.4375,29.5625,30.875,31.375
0.29405224,-1.7081624,0.5821719,-0.97420967,0.058839392,0.04899002,-0.123648845,-0.39357954,-0.32778412,0.059919108,3.0792773,-0.6213107,0.0003144422,-0.14705583,0.00022142689,0.0013077552,-0.010372273,0.010865308,0.027257161,0.42888358,-1.4356822,1.9693931,-2.1030252,-1.5702523,2.401508,-0.12778383,0.24605523,-0.2872803,0.027064683,0.004358929,-0.15486303,-0.49799395,-0.17238252,-9.442732,0.8940802,47.68062,-1.1920787,-1.9903765,-3.469264,-0.16707726,0.04835621,-0.2278271,26.4375,27.3125,26.4375,29.5625,30.875,31.375
0.29605266,-1.0467285,0.682112,-0.82671356,0.05351548,0.04805127,-0.13531916,-0.3939264,-0.32777622,0.05993952,3.079265,-0.62112993,0.00018258275,-0.14853162,0.00018263345,0.0013981551,-0.010583816,0.012055543,0.03376706,0.42858338,-1.4351672,1.968759,-2.1030018,-1.5702642,2.401097,-0.12861928,0.2479883,-0.28961784,0.02630186,0.004069583,-0.16220614,-0.49799395,-0.15322891,-9.423578,0.8537928,47.664497,-1.1122382,-1.9317725,-3.4021068,-0.10999207,0.05934489,-0.10400471,26.4375,27.3125,26.4375,29.5625,30.875,31.375
0.29805207,-0.5631836,0.14248912,-1.2059087,0.036859173,0.04482461,-0.13134661,-0.39419693,-0.32776093,0.059919026,3.079316,-0.6210827,0.00020764243,-0.14921588,0.0017663836,0.0005387935,-0.008375251,0.009440367,0.034209866,0.42834252,-1.4346637,1.9682196,-2.1029294,-1.5702885,2.4008207,-0.1313814,0.25011474,-0.29069024,0.028545715,0.0031474563,-0.16540979,-0.40222588,-0.19153613,-9.500193,0.90750587,47.675243,-0.9199126,-1.9172776,-3.428541,-0.09045577,0.05831979,-0.068409525,26.4375,27.3125,26.4375,29.5625,30.875,31.375
0.3000523,-0.9678438,-0.044729866,-1.2224331,0.01198706,0.030265134,-0.1287512,-0.39448464,-0.32775566,0.05991024,3.0793242,-0.620972,0.00027632914,-0.14917146,0.0026464704,-0.00026441037,-0.0058679716,0.0057458356,0.028554248,0.42806643,-1.4341476,1.9676336,-2.102832,-1.5702528,2.4004748,-0.13233948,0.25253633,-0.29260814,0.032452267,0.002403504,-0.160711,-0.40222588,-0.095768064,-9.442732,0.8605109,47.687782,-1.0144057,-1.9908857,-3.5020442,-0.11421722,0.06555133,-0.060250625,26.4375,27.3125,26.4375,29.5625,30.875,31.375
0.30205247,-0.61667925,-0.61105716,-1.1665978,-0.0046690963,0.04186877,-0.13356861,-0.3947874,-0.3277553,0.059908208,3.0793326,-0.6209193,0.00020967168,-0.14970201,0.0026703977,-0.0002801737,-0.0050572837,0.005013688,0.023249563,0.42782626,-1.4336318,1.9670461,-2.1027958,-1.5702771,2.400201,-0.13242133,0.25413716,-0.2948922,0.03413493,0.0019757703,-0.15548669,-0.4405331,0.019153614,-9.5385,0.90750587,47.678825,-0.9735762,-2.0112786,-3.4690351,-0.11045204,0.07703699,-0.11510673,26.4375,27.3125,26.4375,29.5625,30.875,31.375
0.3040523,-0.9984979,-0.84121597,-1.1737552,-0.012556142,0.048623897,-0.124100655,-0.3951083,-0.3277479,0.059922118,3.0793316,-0.6208654,0.00015569251,-0.14994188,0.0029856705,-0.00027917238,-0.0040712627,0.0037631448,0.01550412,0.42755014,-1.4331169,1.966412,-2.102711,-1.570289,2.3998919,-0.13281703,0.2551014,-0.29664147,0.03646497,0.0016050736,-0.1481361,-0.34476504,0.076614454,-9.5385,0.91198283,47.701214,-1.0153726,-1.9217274,-3.4662519,-0.11266738,0.050894164,-0.1969041,26.4375,27.3125,26.4375,29.5625,30.875,31.375
0.30605224,-1.1315907,-0.74593186,-1.2569976,-0.007028762,0.05487795,-0.12188599,-0.3954137,-0.32772893,0.05991072,3.0793617,-0.6208169,0.00013788819,-0.15090036,0.0033098508,-0.00011361114,-0.0035269745,0.003502132,0.007874851,0.42727384,-1.4325893,1.9658264,-2.1026504,-1.5703129,2.399582,-0.13382582,0.25646397,-0.29903167,0.037952535,0.0012165118,-0.14151424,-0.4405331,0.13407528,-9.576807,0.88289046,47.678825,-1.0686369,-1.8402668,-3.553976,-0.11683993,0.08208865,-0.26173526,26.4375,27.3125,26.4375,29.5625,30.875,31.375
0.30805227,-0.64234805,-0.45154285,-1.2967975,-0.0066377455,0.06999288,-0.12958357,-0.39572048,-0.32771873,0.05991752,3.0793061,-0.62086374,0.00013843123,-0.1517758,0.0028983045,0.0009087057,-0.0048904778,0.006332486,0.0055980925,0.42697382,-1.4320983,1.965238,-2.1025794,-1.5702771,2.3993185,-0.13370524,0.25546214,-0.30011156,0.036898095,0.0012854896,-0.13911662,-0.40222588,0.15322891,-9.615114,0.9254084,47.694946,-1.0779302,-1.7803087,-3.5739818,-0.09469556,0.10661951,-0.335176,26.4375,27.3125,26.4375,29.5625,30.875,31.375
0.31005216,-0.99505365,-1.0881109,-1.2777476,-0.0066853794,0.05955116,-0.11685348,-0.3960291,-0.32770514,0.059919924,3.0793,-0.6208663,0.00019412053,-0.15255989,0.0027350558,0.0002982189,-0.005324175,0.005548299,-0.00083363015,0.42667377,-1.4315706,1.9646043,-2.1024477,-1.5702528,2.3990211,-0.13438484,0.2580688,-0.30168694,0.036400765,0.0019984897,-0.13336447,-0.22984336,0.22984336,-9.557653,0.8179876,47.67614,-1.084785,-1.7179718,-3.580494,-0.06949504,0.06969705,-0.43041217,26.4375,27.3125,26.4375,29.5625,30.875,31.375
0.3120519,-0.5505474,-0.89352494,-1.2128617,-0.01538877,0.05520111,-0.1275683,-0.39632282,-0.3277089,0.059905052,3.079329,-0.62083286,0.00014902235,-0.15357855,0.0022567692,0.0010535982,-0.0064424905,0.0056883805,-0.001469137,0.42645755,-1.4310311,1.9640177,-2.102411,-1.5702885,2.3987808,-0.13486502,0.25905123,-0.30507293,0.038206596,0.002958424,-0.13320921,-0.15322891,0.2681506,-9.481039,0.8873621,47.65106,-1.0758448,-1.8233796,-3.6481795,-0.057284094,0.09102367,-0.4847682,26.4375,27.3125,26.4375,29.5625,30.875,31.375
0.3140518,-0.11513674,-0.7776758,-1.2134621,-0.011226106,0.036356527,-0.13519649,-0.39663157,-0.3277036,0.059904072,3.0793226,-0.6208482,0.00017706316,-0.15445903,0.0023880461,0.0013879535,-0.0065246867,0.0063642273,0.0037801925,0.42618123,-1.430492,1.9633836,-2.1023033,-1.5702766,2.3985152,-0.1355648,0.25966096,-0.30676067,0.038640555,0.002752146,-0.13915752,-0.095768064,0.30645782,-9.5385,0.9545008,47.699425,-1.066204,-1.7475566,-3.598981,-0.057374883,0.075322315,-0.5033611,26.4375,27.3125,26.4375,29.5625,30.875,31.375
0.31605178,-0.21516214,-0.5984367,-1.0167025,-0.016054237,0.018530555,-0.12390423,-0.39693806,-0.3276974,0.05990022,3.0793111,-0.6207805,0.0001584463,-0.15475251,0.0020703033,0.0004495632,-0.0053103874,0.0046131318,0.014714334,0.42590553,-1.4299757,1.9627951,-2.102255,-1.5702647,2.398199,-0.1348416,0.26317263,-0.30889782,0.039369833,0.0023735848,-0.14936668,-0.038307227,0.24899697,-9.500193,0.8940802,47.68599,-1.0907109,-1.8216506,-3.5760865,-0.049693417,0.06695543,-0.43637702,26.4375,27.3125,26.4375,29.5625,30.875,31.375
0.31805173,0.33716887,-0.4826001,-1.0163779,-0.017443797,0.022148289,-0.13212444,-0.39726797,-0.327677,0.05990767,3.0793014,-0.62083155,0.00016098749,-0.15612583,0.0028509954,0.00012112933,-0.0048008603,0.004331037,0.023318216,0.4255926,-1.4294362,1.962138,-2.102136,-1.5702652,2.3979197,-0.1370341,0.26525304,-0.31068665,0.03955136,0.0020253947,-0.16016169,0.15322891,0.2681506,-9.404425,0.83365434,47.72002,-1.0117054,-1.8322473,-3.6259675,-0.040539697,0.0857213,-0.33198577,26.4375,27.3125,26.4375,29.5625,30.875,31.375
0.3200526,-0.04180276,-0.9513837,-1.0037582,-0.009316949,0.008061948,-0.12151745,-0.3975734,-0.3276787,0.05990832,3.0793188,-0.6206382,0.0001180566,-0.15777634,0.0031898122,-0.00027870137,-0.0038386863,0.0034732006,0.030685037,0.42534053,-1.4289199,1.9615387,-2.1020873,-1.5702652,2.397545,-0.1385549,0.2689832,-0.3144118,0.040730424,0.0015058182,-0.1690466,0.15322891,0.38307226,-9.385271,0.9365982,47.711063,-1.1556916,-1.9164276,-3.598209,-0.016377823,0.090441056,-0.2081216,26.4375,27.3125,26.4375,29.5625,30.875,31.375
0.32205245,0.2630947,-1.206905,-1.0682367,-0.0055079493,0.015025982,-0.1258496,-0.39791587,-0.32767132,0.059925634,3.0793324,-0.62054145,1.2681292e-05,-0.1582874,0.0031705727,-0.0005128569,-0.003426816,0.002643015,0.034653727,0.42506456,-1.42838,1.9608687,-2.1020148,-1.5703009,2.3972075,-0.13877729,0.27078533,-0.31629077,0.041729465,0.0014830254,-0.17323683,0.019153614,0.40222588,-9.3661175,0.86498255,47.694946,-0.99692345,-2.0467267,-3.5014024,-0.020006306,0.09736568,-0.16535029,26.4375,27.3125,26.4375,29.5625,30.875,31.375
0.32405236,-0.29074103,-0.99629843,-0.96541566,-0.028535498,0.0064368714,-0.13285734,-0.39827135,-0.32766184,0.05994762,3.0792682,-0.6205335,-2.8872722e-05,-0.15931232,0.0036902789,2.4775398e-05,-0.0037278277,0.0025402461,0.027448593,0.42472774,-1.4278407,1.9601859,-2.1019304,-1.5702652,2.3968742,-0.1406186,0.27110484,-0.31842822,0.04352114,0.0018091951,-0.16787288,0.019153614,0.40222588,-9.404425,0.9455522,47.686886,-0.9878911,-1.9361076,-3.5694537,-0.028087098,0.10554042,-0.16925895,26.4375,27.3125,26.4375,29.5625,30.875,31.375
0.3260524,-0.02447942,-2.1747992,-0.7860767,-0.034654092,0.025115285,-0.12433195,-0.39857003,-0.3276669,0.059938926,3.0793316,-0.62043524,-2.7310674e-05,-0.15983394,0.004107116,4.0210427e-05,-0.0035144098,0.0011354036,0.019337913,0.42451125,-1.4272773,1.9595398,-2.1018217,-1.5703005,2.3965888,-0.14192969,0.27213326,-0.32027587,0.045699798,0.0021891673,-0.16107346,0.0,0.40222588,-9.461885,0.9791215,47.68062,-0.9192999,-1.8694382,-3.464592,-0.024850603,0.08510139,-0.23152812,26.4375,27.3125,26.4375,29.5625,30.875,31.375
0.32805288,-0.025582455,-1.616974,-0.7083567,-0.046078745,0.01943009,-0.12254653,-0.39886904,-0.3276601,0.059927274,3.0793033,-0.6204317,7.469065e-05,-0.16094367,0.0039141024,0.0014812893,-0.004898241,0.0022868118,0.01399597,0.42421106,-1.4267387,1.9589285,-2.101713,-1.5702404,2.3962903,-0.14285319,0.2714387,-0.32342488,0.04793068,0.0029687288,-0.15665537,-0.038307227,0.3256114,-9.346964,0.98135734,47.692257,-1.0163087,-1.8299948,-3.502163,-0.032402888,0.101954326,-0.2967261,26.4375,27.3125,26.4375,29.5625,30.875,31.375
0.33005178,0.40164137,-0.777191,-0.6882285,-0.02773432,0.01085458,-0.1358152,-0.3991937,-0.32765493,0.059932835,3.0793025,-0.6203143,5.78862e-05,-0.16026175,0.0025703805,0.0024232354,-0.004856331,0.0025619606,0.016168946,0.42392415,-1.4262,1.9582828,-2.1016285,-1.5702285,2.3959305,-0.13958469,0.27088982,-0.3256747,0.050499022,0.002822772,-0.15555939,-0.038307227,0.34476504,-9.289503,0.9612189,47.703007,-1.1632583,-1.5887474,-3.5566115,-0.03889617,0.10588817,-0.33788103,26.4375,27.3125,26.4375,29.5625,30.875,31.375
0.33205184,0.35849133,-0.33094305,-0.5080374,-0.020555347,0.019487336,-0.13879396,-0.3995369,-0.32764405,0.059937935,3.0792973,-0.6203336,-7.3630054e-06,-0.16051209,0.0034879749,0.0019311912,-0.0037595069,0.0004669462,0.014566928,0.42363533,-1.4256364,1.9576124,-2.101556,-1.5702528,2.395655,-0.14122328,0.27207568,-0.3265023,0.05249931,0.0026934624,-0.15559584,-0.076614454,0.24899697,-9.289502,0.99702406,47.694054,-0.9735807,-1.6083944,-3.5537372,-0.082477495,0.10109228,-0.39069676,26.4375,27.3125,26.4375,29.5625,30.875,31.375
0.33405182,0.14418632,-0.19641507,-0.64605886,0.0007890387,0.026063599,-0.1351902,-0.39984947,-0.32767174,0.05994344,3.0792646,-0.6201921,-5.789415e-06,-0.16032892,0.00412119,0.00095918117,-0.0023221462,-0.0023417796,0.012768767,0.42339545,-1.4250851,1.9569548,-2.101484,-1.5702046,2.3953311,-0.14198719,0.2739809,-0.32699403,0.054245703,0.0025453467,-0.15456145,0.038307227,0.21068975,-9.155427,0.9254084,47.703007,-1.1715823,-1.5695481,-3.6512012,-0.101849176,0.09141968,-0.41096628,26.4375,27.3125,26.4375,29.5625,30.875,31.375
0.33605182,-0.14739136,0.2236641,-0.71354926,0.02085371,0.014818731,-0.13566488,-0.40016046,-0.32765004,0.059934005,3.0792906,-0.62017494,0.00010911002,-0.1616315,0.0041988413,0.0021510331,-0.003495768,-0.0012711964,0.017898358,0.42308292,-1.4245217,1.9562954,-2.1013157,-1.5701808,2.395005,-0.14344957,0.27369007,-0.32993615,0.056025926,0.003163488,-0.16115363,0.0,0.1340753,-9.193734,0.9164598,47.68062,-1.08139,-1.6774577,-3.637475,-0.13112992,0.091711156,-0.37575948,26.4375,27.3125,26.4375,29.5625,30.875,31.375
0.338052,0.31191814,0.68339115,-0.69318914,0.028912019,0.025722632,-0.1431409,-0.40051714,-0.32762977,0.059956525,3.0792558,-0.6201816,1.0060682e-05,-0.16344804,0.0039874404,0.0012104702,-0.0031386882,-0.0038411352,0.025663195,0.42275852,-1.4239933,1.9556245,-2.1012433,-1.5701922,2.3946896,-0.14487174,0.27974692,-0.33523026,0.05775405,0.0038987617,-0.17033832,0.038307227,0.13407528,-9.251195,0.94331104,47.687782,-1.0574406,-1.7301321,-3.4788485,-0.15376681,0.093210146,-0.2862533,26.4375,27.3125,26.4375,29.5625,30.875,31.375
0.34005198,-0.24456118,0.46256447,-0.61284655,0.04027204,0.011230863,-0.14060552,-0.40080205,-0.32761428,0.059933733,3.0793843,-0.6200099,0.00011772268,-0.1639906,0.004186817,-7.376363e-05,-0.0022411593,-0.007114307,0.034318693,0.42251807,-1.4234165,1.9549769,-2.101063,-1.570228,2.3943262,-0.14587723,0.2839351,-0.33757645,0.05926238,0.004403238,-0.17999917,-0.019153614,-0.05746084,-9.423578,0.9410752,47.66539,-0.9918939,-1.8459578,-3.5164542,-0.17846233,0.07911996,-0.16233447,26.4375,27.3125,26.4375,29.5625,30.875,31.375
0.34205198,-0.5033579,0.5082091,-0.5805526,0.030300038,0.028343016,-0.13528985,-0.40116554,-0.32761163,0.059976954,3.0793426,-0.61992383,2.6081043e-05,-0.16558494,0.0042848093,0.0010486034,-0.0028018176,-0.0053099594,0.03734141,0.42220566,-1.4228882,1.9542474,-2.1009429,-1.5702161,2.3939657,-0.14705065,0.28415033,-0.34077996,0.06038137,0.0041848067,-0.1841936,-0.21068975,-0.1340753,-9.3661175,0.9545008,47.71286,-0.9926162,-2.0468075,-3.3416367,-0.20935158,0.07837005,-0.09079674,26.4375,27.3125,26.4375,29.5625,30.875,31.375
0.34405196,-0.73069066,0.50241584,-0.84904265,0.03694127,0.04225373,-0.13346444,-0.40147588,-0.32762408,0.059977926,3.0793455,-0.6197143,7.33603e-05,-0.16686112,0.0038957633,0.0012714798,-0.00320264,-0.005013595,0.034737714,0.42194167,-1.4223353,1.9535888,-2.100835,-1.5701684,2.393571,-0.14739417,0.28638938,-0.34415856,0.061094783,0.004421397,-0.18193215,-0.30645782,-0.038307227,-9.346964,0.8873621,47.67166,-0.99860024,-1.8015039,-3.3951,-0.24618682,0.07705255,-0.07517299,26.4375,27.3125,26.4375,29.5625,30.875,31.375
0.34605247,-0.8822099,0.25355786,-0.7464454,0.016816242,0.06524039,-0.13509442,-0.40179732,-0.32758927,0.059949897,3.0794365,-0.6197179,0.0002095451,-0.16654575,0.0051948032,-0.00030757382,-0.0012161493,-0.009802905,0.024739334,0.42162907,-1.4217097,1.9528936,-2.1006424,-1.5701922,2.3932495,-0.14941983,0.28902236,-0.34435815,0.063837856,0.004550199,-0.17396054,-0.51714754,0.11492168,-9.404425,0.88960326,47.64658,-1.0421681,-1.9299933,-3.4294147,-0.29311058,0.056313522,-0.11056312,26.4375,27.3125,26.4375,29.5625,30.875,31.375
0.34805265,-1.566046,-0.82434696,-0.7314871,-0.009233713,0.08242663,-0.13432227,-0.40210328,-0.3275851,0.05996227,3.0794291,-0.619624,0.00022007171,-0.16505936,0.0042308625,-0.0011975059,-0.0007586468,-0.009994576,0.019025136,0.4213545,-1.421205,1.9522613,-2.1005242,-1.5701684,2.3929176,-0.14607258,0.28924605,-0.34227678,0.061897796,0.004209037,-0.16489953,-0.51714754,0.19153613,-9.385271,0.9164598,47.660015,-1.1986775,-1.7653875,-3.5825639,-0.3037634,0.056301534,-0.21099597,26.4375,27.3125,26.4375,29.5625,30.875,31.375
0.35005167,-1.7136002,-1.4111843,-0.77747387,-0.023955831,0.09323126,-0.13414568,-0.4024411,-0.32757437,0.059970807,3.0794313,-0.61958814,0.0002775129,-0.16659981,0.0045494763,-0.0006936943,-0.0013676655,-0.008027769,0.013122231,0.42104182,-1.420628,1.9515432,-2.1003563,-1.570144,2.3925827,-0.14757627,0.28974682,-0.3439625,0.06104337,0.003947592,-0.16049935,-0.49799395,0.19153613,-9.442732,0.9768804,47.666286,-1.0559776,-1.7751877,-3.8165522,-0.31615424,0.073629364,-0.28660458,26.4375,27.3125,26.4375,29.5625,30.875,31.375
0.3520517,-1.8314124,-1.3164692,-0.93691677,-0.04159811,0.0982008,-0.13655326,-0.402768,-0.32756552,0.05997089,3.079444,-0.61957467,0.0002688191,-0.16771711,0.004741237,0.0003023278,-0.0018392998,-0.0059457663,0.007208068,0.42076555,-1.4200644,1.9508733,-2.1002486,-1.5701565,2.3922968,-0.14840537,0.2890503,-0.34566215,0.061345167,0.0035219316,-0.15541339,-0.61291564,0.1340753,-9.595961,1.0149267,47.709274,-1.139295,-1.5898783,-3.8292532,-0.32982498,0.054557554,-0.38596293,26.4375,27.3125,26.4375,29.5625,30.875,31.375
0.35405168,-1.850074,-1.6421387,-1.0179944,-0.04772471,0.090881616,-0.13967456,-0.40310827,-0.3275665,0.059965145,3.0794246,-0.6195908,0.00033428645,-0.17023113,0.0039837267,0.0015586918,-0.003630296,-0.0012139311,0.004552524,0.42046538,-1.4194511,1.9501542,-2.100118,-1.5701207,2.3920095,-0.14871135,0.29008773,-0.3493394,0.058941208,0.0032063788,-0.15306143,-0.63206923,0.24899697,-9.557653,0.96569055,47.694054,-1.2433271,-1.5198112,-3.763141,-0.367203,0.06525871,-0.46214956,26.4375,27.3125,26.4375,29.5625,30.875,31.375
0.35605258,-1.9998447,-1.2914279,-1.1755481,-0.0325756,0.070753545,-0.13330966,-0.4034384,-0.327557,0.059947394,3.0794528,-0.619517,0.00036639872,-0.17277658,0.0023770358,0.0010901445,-0.0052844007,0.0031484924,0.008075364,0.4201779,-1.4188489,1.9494833,-2.100025,-1.5701207,2.3916728,-0.14752117,0.2948216,-0.35242772,0.052641444,0.0029122827,-0.1553907,-0.49799395,0.24899697,-9.634268,0.9791215,47.67345,-1.2471299,-1.5526657,-3.7601738,-0.31530374,0.07250049,-0.48879623,26.4375,27.3125,26.4375,29.5625,30.875,31.375
0.35805166,-1.4495065,-1.3586606,-1.4749814,-0.024971826,0.06666555,-0.14722458,-0.4038064,-0.32755873,0.059980556,3.0794013,-0.61942434,0.0002837931,-0.17682746,0.0022478013,0.0025494122,-0.0074715465,0.008054665,0.016001008,0.41986457,-1.4182959,1.9487518,-2.099929,-1.5700964,2.3913085,-0.15040559,0.29717818,-0.35816148,0.050657727,0.0029084971,-0.16619733,-0.38307226,0.2681506,-9.825804,1.048496,47.68062,-1.1251265,-1.7462505,-3.5205555,-0.26283583,0.07149044,-0.43665767,26.4375,27.3125,26.4375,29.5625,30.875,31.375
0.36005282,-1.1594929,-1.0061383,-0.90946954,-0.04671826,0.072934315,-0.15408795,-0.404157,-0.32754663,0.059984203,3.0794423,-0.61934984,0.00021282125,-0.17930038,0.0031907845,0.0020792529,-0.008155421,0.009070613,0.024548022,0.41958743,-1.4177064,1.9480456,-2.0998342,-1.5701445,2.3909802,-0.15409634,0.3000747,-0.36007813,0.048469648,0.0031184854,-0.1784339,-0.38307226,0.2681506,-9.787497,0.9231726,47.690468,-1.0955924,-1.7793727,-3.4657817,-0.24622825,0.072347835,-0.3430156,26.4375,27.3125,26.4375,29.5625,30.875,31.375
0.36205167,-1.8076198,-1.6571804,-1.1422157,-0.03633596,0.06324252,-0.1444063,-0.4045202,-0.32753417,0.059998732,3.079445,-0.61924905,0.00014603538,-0.17880268,0.00238802,0.00079669314,-0.007582077,0.007880351,0.034156755,0.4192764,-1.4171289,1.947328,-2.0997384,-1.5701565,2.3906064,-0.15203081,0.30280358,-0.3601389,0.047124982,0.0030891648,-0.18597661,-0.57460845,0.51714754,-9.653421,0.96569055,47.689575,-1.1860287,-1.7918777,-3.601768,-0.2164751,0.06723863,-0.23332565,26.4375,27.3125,26.4375,29.5625,30.875,31.375
0.3640519,-1.2690915,-1.6492618,-1.3852521,-0.029772198,0.08929724,-0.14565097,-0.4049053,-0.32754534,0.06003051,3.0793812,-0.6191576,0.00010106157,-0.17953195,0.0021045988,0.0012097004,-0.008193023,0.009423442,0.037186764,0.4189524,-1.4165275,1.9465379,-2.0996196,-1.5701088,2.3902338,-0.15187424,0.30305833,-0.3613967,0.046481878,0.0030323446,-0.18884942,-0.4405331,0.40222588,-9.787497,0.9679317,47.68599,-1.2478939,-1.8588924,-3.6982641,-0.19343309,0.07299081,-0.16624264,26.4375,27.3125,26.4375,29.5625,30.875,31.375
0.36605206,-1.4776584,-1.9492606,-1.056316,-0.046702154,0.08118758,-0.1438079,-0.40524328,-0.32752764,0.06001327,3.0794127,-0.619089,0.000109952045,-0.18021497,0.0019422522,0.00046949013,-0.008271179,0.008624869,0.03166207,0.41865307,-1.4159267,1.9458679,-2.0995357,-1.5701207,2.389888,-0.15221208,0.30579582,-0.36290312,0.04594368,0.003423173,-0.18366222,-0.34476504,0.36391866,-9.768343,0.9254084,47.658226,-1.3076124,-1.8030488,-3.813552,-0.17370275,0.075410075,-0.17706564,26.4375,27.3125,26.4375,29.5625,30.875,31.375
0.36805212,-1.5794207,-1.8537937,-0.57591534,-0.057837244,0.05888658,-0.13596569,-0.40564197,-0.3275191,0.060052413,3.0793574,-0.619004,-0.00010781734,-0.18156755,0.0023275295,0.0006205473,-0.008434481,0.009722908,0.023875065,0.41832915,-1.4153739,1.9451379,-2.0995123,-1.5701445,2.3895185,-0.15363024,0.3069173,-0.3645736,0.045418125,0.0031506086,-0.17729187,-0.34476507,0.36391866,-9.500193,1.0596858,47.678825,-1.3130484,-1.6088483,-3.76471,-0.13516411,0.07223016,-0.2578125,26.4375,27.3125,26.4375,29.5625,30.875,31.375
0.3700521,-0.64346915,-1.1238766,-0.7225037,-0.04673957,0.043044165,-0.14589444,-0.40599918,-0.3275285,0.060038555,3.079357,-0.61894876,-6.517395e-05,-0.1838217,0.0024373538,0.0005458932,-0.008789908,0.010774434,0.017227883,0.41804102,-1.4147112,1.944383,-2.0994046,-1.5701207,2.3891964,-0.15540023,0.3102198,-0.36822215,0.044662416,0.0030375624,-0.17241265,-0.26815057,0.3256114,-9.3661175,0.99031126,47.691364,-1.1940081,-1.7428775,-3.6130996,-0.08765869,0.083031,-0.33112592,26.4375,27.3125,26.4375,29.5625,30.8125,31.375
