Tylouw/Master_Thesis_Code/training_data/batch_1/big_rod_t0.2/sample_91_session_4.csv
timestamp[s],tcp_force_x[N],tcp_force_y[N],tcp_force_z[N],tcp_force_rx[Nm?],tcp_force_ry[Nm?],tcp_force_rz[Nm?],tcp_pose_x[m],tcp_pose_y[m],tcp_pose_z[m],tcp_pose_rx[rot_vec_x],tcp_pose_ry[rot_vec_y],tcp_pose_rz[rot_vec_z],tcp_velo_x[m/s],tcp_velo_y[m/s],tcp_velo_z[m/s],tcp_velo_rx[rot_vec_x/s],tcp_velo_ry[rot_vec_y/s],tcp_velo_rz[rot_vec_z/s],q1[rad],q2[rad],q3[rad],q4[rad],q5[rad],q6[rad],qd1[rad/s],qd2[rad/s],qd3[rad/s],qd4[rad/s],qd5[rad/s],qd6[rad/s],tool_acc_x,tool_acc_y,tool_acc_z,current_of_whole_robot[A],voltage_of_whole_robot[V],current_J1[A],current_J2[A],current_J3[A],current_J4[A],current_J5[A],current_J6[A],temp_J1[C],temp_J2[C],temp_J3[C],temp_J4[C],temp_J5[C],temp_J6[C]
6.7899236e-07,-0.09772878,-1.3124237,-0.13614766,-0.037843935,0.035788655,-0.017710568,-0.37287688,-0.3282165,0.059923,-3.0784583,0.6248806,-0.00032557166,0.0025948307,0.0012570373,-0.0040430245,0.0040779174,-0.008717417,-8.4212035e-05,0.44815025,-1.4708368,2.009596,-2.107703,-1.5706614,2.4230795,-8.204745e-05,0.0046219756,0.0039633918,0.0010377702,0.00011278124,-0.0,0.038307227,0.15322891,-8.887277,0.7284641,47.72002,-0.15928073,-2.904786,-2.420893,-0.50095505,0.12708966,-0.08877762,27.25,28.3125,27.375,30.9375,32.625,33.3125
0.0020529921,-0.085806414,-1.0716884,-0.13032888,-0.03159907,0.035017338,-0.005872556,-0.37286904,-0.32819754,0.059921697,-3.078431,0.6248561,-0.00032783853,-0.00031724866,-0.0001510573,-0.0033792057,-0.0003234573,0.00038866448,-8.024493e-05,0.4481382,-1.4708607,2.009621,-2.1076834,-1.5706857,2.4230556,-8.1045044e-05,0.0049758437,0.0045846016,-0.010051293,0.00011002368,-0.0,0.038307227,0.19153613,-8.983045,0.69041777,47.71465,-0.20796308,-2.877974,-2.4197578,-0.47426713,0.14333731,-0.07062384,27.25,28.3125,27.375,30.9375,32.625,33.3125
0.0040520392,0.40777573,-0.7681599,0.013761866,-0.03237391,0.046059366,-0.018394658,-0.37287292,-0.32821244,0.059905723,-3.0784671,0.62486356,-0.00034551148,-0.0016838087,-0.00081705337,-0.0023580452,-0.0025770161,0.0050239116,-7.806599e-05,0.4481382,-1.4708252,2.0096323,-2.107744,-1.5706495,2.4230556,-8.001642e-05,0.003960087,0.004218382,-0.013823357,0.00012332216,-0.0,0.05746084,0.095768064,-9.021352,0.679228,47.694946,-0.20796451,-3.0914285,-2.6690516,-0.3438518,0.13096315,-0.08083464,27.25,28.3125,27.375,30.9375,32.625,33.3125
0.006052172,0.10042967,-0.4922106,-0.15160611,-0.013904614,0.02199578,-0.015085561,-0.3729003,-0.32823002,0.059929106,-3.0785143,0.62489223,-0.0002692394,-0.0009704705,-0.00047312627,-0.0015230511,-0.0014607672,0.0027181807,-7.791599e-05,0.4481382,-1.4708257,2.0095842,-2.1077654,-1.5706376,2.4230676,-7.901293e-05,0.0025940503,0.0025174364,-0.008194663,0.00012551023,-0.0,0.0,0.076614454,-9.021352,0.7351769,47.711964,-0.13360478,-3.0354154,-2.496371,-0.37992626,0.13298374,-0.07343292,27.25,28.3125,27.375,30.9375,32.625,33.3125
0.008052141,0.75794065,0.5630417,-0.6747761,0.009843753,0.0035646607,-0.01358829,-0.37289336,-0.32821807,0.059908587,-3.0784702,0.6249023,-0.00029284114,-0.00012841068,-6.529731e-05,-0.0011845358,-0.00020771332,0.0001373694,-7.789187e-05,0.4481382,-1.4708021,2.0096076,-2.1077754,-1.5706614,2.4230795,-7.803423e-05,0.0017512606,0.0016115628,-0.0035770768,0.00012298186,-0.0,-0.038307227,0.11492168,-9.040505,0.7732232,47.71465,-0.1487903,-2.909566,-2.4675846,-0.4411565,0.13513097,-0.07751815,27.25,28.3125,27.375,30.9375,32.625,33.3125
0.01005184,1.0029535,0.5918024,-1.1161097,0.031712722,0.0010832172,-0.006933486,-0.37287906,-0.32821116,0.059888717,-3.078453,0.6248797,-0.00033687675,5.7396283e-05,2.5007594e-05,-0.0010218957,0.00018331243,-0.00066404964,-7.709176e-05,0.4481382,-1.4707901,2.0096428,-2.1077874,-1.5706614,2.4230676,-7.707953e-05,0.0016009149,0.0010339116,-0.0019573572,0.00012026434,-0.0,-0.05746084,0.095768064,-9.212888,0.7351769,47.689575,-0.5391432,-2.3383114,-3.182365,-0.45774275,0.11326246,-0.1381216,27.25,28.3125,27.375,30.9375,32.625,33.3125
0.012052204,0.59286666,0.20255631,-1.2217348,-0.0049084835,0.011907854,-0.019148929,-0.372866,-0.32822412,0.059887145,-3.078454,0.62489897,-0.00041963873,-3.3986178e-06,4.6638954e-05,-0.003936039,0.0029576565,-0.0064349095,-0.00015419791,0.44815022,-1.4707751,2.009619,-2.1077397,-1.5706257,2.4230914,-0.00017700977,0.009343378,-0.0009150216,-0.0013477758,0.00011764568,-2.0600379e-05,0.17238252,0.038307227,-9.404425,0.82022345,47.751366,-0.60214996,-2.4442735,-3.292272,-0.4377364,0.12599733,-0.18481821,27.25,28.3125,27.375,30.9375,32.625,33.3125
0.014052166,-0.4783681,-1.0354173,-1.2995753,-0.032951113,0.0269504,-0.009743734,-0.3728616,-0.32819933,0.059865143,-3.078397,0.6248293,-0.0005019042,-0.005093333,0.0013032497,-0.0042467406,0.0031082495,-0.006762268,-0.0018634254,0.44812375,-1.470737,2.0096166,-2.1076915,-1.5706495,2.4230287,-0.007170854,0.016895875,-0.008597166,-0.00085858087,0.000105699706,-0.005299528,0.038307227,0.13407528,-9.442732,0.69937176,47.73256,-0.39943182,-2.8953767,-3.1047728,-0.43063498,0.109976575,-0.18360496,27.25,28.3125,27.375,30.9375,32.625,33.3125
0.01605179,-1.2305381,-1.8751427,-1.4072462,-0.05962208,0.05164834,-0.011570592,-0.37284428,-0.3282099,0.059852585,-3.078391,0.6247492,-0.0005469726,-0.0057203304,0.0015690856,-0.0040570158,0.0031870536,-0.0069098794,0.0034502845,0.4481594,-1.4707128,2.0096161,-2.1076791,-1.5706495,2.423015,-0.008234978,0.017426003,-0.0098066935,-1.28905e-05,9.458134e-05,-0.011676783,-0.24899697,0.24899697,-9.672575,0.72622824,47.74331,-0.2927126,-2.71211,-3.1784883,-0.4464516,0.11206485,-0.11641057,27.25,28.3125,27.375,30.9375,32.625,33.3125
0.018052028,-1.0868546,-1.5057245,-1.3381958,-0.10355535,0.10511422,-0.0387952,-0.37284952,-0.32818705,0.0598329,-3.0783403,0.6248159,-0.0006225538,-0.0053621987,0.0012946267,-0.0041286764,0.0034879956,-0.0075301216,0.004089304,0.44811156,-1.4706768,2.0096161,-2.1076548,-1.5706495,2.4230154,-0.0073911706,0.017727736,-0.010137327,0.0007054453,9.2064925e-05,-0.011471962,-0.36391866,0.3256114,-9.749189,0.76874626,47.72002,-0.50838,-2.476438,-3.462105,-0.46865207,0.11073534,-0.13116193,27.25,28.3125,27.375,30.9375,32.625,33.3125
0.0200518,-1.774196,-2.2058907,-1.47456,-0.086753175,0.10779607,-0.031988114,-0.37286025,-0.32819185,0.05981755,-3.078328,0.6246983,-0.0006023113,-0.005638718,0.0014472004,-0.004181278,0.004284791,-0.009179139,0.002908423,0.44813538,-1.4706162,2.0095904,-2.1076782,-1.5706857,2.4229674,-0.007929964,0.019127253,-0.012098515,0.0030982515,9.01819e-05,-0.010829178,-0.53630114,0.40222588,-9.730036,0.6926589,47.72002,-0.5670182,-2.4250517,-3.559207,-0.47919118,0.09864393,-0.17668535,27.25,28.3125,27.375,30.9375,32.625,33.3125
0.022051899,-1.6042125,-1.8389429,-1.3964583,-0.07308299,0.11037211,-0.04955693,-0.37288454,-0.32817823,0.059816428,-3.0783012,0.6248658,-0.00068167195,-0.0076364307,0.001221402,-0.0038569141,0.0037186688,-0.008019869,0.002010633,0.44806305,-1.4705795,2.0095417,-2.1076305,-1.5706495,2.423003,-0.009323267,0.021749971,-0.01563362,0.0027208733,8.840763e-05,-0.011322038,-0.51714754,0.49799395,-9.710882,0.7911258,47.73256,-0.58757687,-2.496033,-3.4412901,-0.45913488,0.08566205,-0.19651024,27.25,28.3125,27.375,30.9375,32.625,33.3125
0.024051718,-1.2876022,-1.5310707,-1.4359283,-0.060289696,0.104914665,-0.060605574,-0.37289473,-0.3281957,0.05980656,-3.0783453,0.62475973,-0.0006362324,-0.008697119,0.0011287301,-0.003395699,0.0029581755,-0.0064454563,0.0029886046,0.44808662,-1.4705435,2.0095413,-2.1077025,-1.5706495,2.4229548,-0.010113194,0.022086088,-0.016866544,0.0018689648,8.670406e-05,-0.013088885,-0.53630114,0.4213795,-9.768343,0.77545905,47.739727,-0.6665808,-2.4024317,-3.4894142,-0.45656952,0.088616915,-0.21227571,27.25,28.3125,27.375,30.9375,32.625,33.3125
0.026052726,-1.4627872,-1.5992041,-1.4179664,-0.055729,0.08462637,-0.07326303,-0.37291804,-0.32818764,0.059794944,-3.0783176,0.6247528,-0.0006955094,-0.010326023,0.001401742,-0.0023446472,0.0017729544,-0.0039915447,0.0030354764,0.44805017,-1.4704719,2.0094812,-2.1076667,-1.5706495,2.4229176,-0.012106533,0.021487217,-0.01851133,0.0013871888,8.5065105e-05,-0.015128065,-0.6512229,0.36391866,-9.691729,0.6948948,47.71554,-0.70664567,-2.328743,-3.5023398,-0.45063475,0.073120445,-0.21952695,27.25,28.3125,27.375,30.9375,32.625,33.3125
0.028052531,-1.1606294,-1.5050095,-1.3188524,-0.054958384,0.08243012,-0.092476085,-0.37296516,-0.3281976,0.059818678,-3.0783432,0.62477636,-0.0006346328,-0.011598357,0.000880402,-0.00183515,0.0011191933,-0.0026101596,0.004896364,0.448026,-1.4704353,2.009384,-2.1076548,-1.5706495,2.422905,-0.012272366,0.02291597,-0.02118295,0.0011015707,6.897657e-05,-0.017152833,-0.68953013,0.34476504,-9.730036,0.8090337,47.71554,-0.7234265,-2.2484138,-3.4827995,-0.42738214,0.077477485,-0.18998155,27.25,28.3125,27.375,30.9375,32.625,33.3125
0.030052142,-1.516897,-1.3790711,-1.3159592,-0.048558645,0.074666515,-0.10091666,-0.3729913,-0.32821625,0.05982569,-3.0783823,0.62472796,-0.0005756698,-0.013205771,0.0012582558,-0.0018575077,0.001042015,-0.0024242739,0.0033603068,0.4480373,-1.4703987,2.0093358,-2.1076906,-1.5706495,2.4228811,-0.014435855,0.02504497,-0.023455082,0.0010436914,5.354973e-05,-0.01777851,-0.7661445,0.17238252,-9.595961,0.7150385,47.71554,-0.73020566,-2.391992,-3.4551406,-0.41680366,0.06831361,-0.18819617,27.25,28.3125,27.375,30.9375,32.625,33.3125
0.03205205,-1.2567809,-1.0298216,-0.9905824,-0.035247315,0.084739946,-0.11855662,-0.37301534,-0.32818943,0.059811097,-3.078343,0.6247778,-0.0006347864,-0.014370796,0.0011676416,-0.0015018214,0.00064077834,-0.0015901924,0.0023575819,0.44796497,-1.4703505,2.009311,-2.1076667,-1.5706495,2.422845,-0.01532104,0.026188957,-0.025527578,0.0010466679,4.858519e-05,-0.01765954,-0.61291564,0.15322891,-9.615114,0.7418897,47.71554,-0.7632468,-2.3344445,-3.4603605,-0.39887756,0.04987993,-0.17930278,27.25,28.3125,27.375,30.9375,32.625,33.3125
0.034052353,-0.89473826,-0.16777976,-0.96319336,-0.022283714,0.08958019,-0.13515697,-0.37305218,-0.32817048,0.059801243,-3.078287,0.6247867,-0.0006200275,-0.015870502,0.0013018185,-0.0011124458,0.0001344217,-0.000546368,0.0006086534,0.44792837,-1.470278,2.0092514,-2.1076548,-1.5706977,2.422821,-0.016935978,0.027385706,-0.027691098,0.0008524683,4.746962e-05,-0.017524006,-0.34476504,0.019153614,-9.576807,0.7329411,47.723602,-0.6862067,-2.3598013,-3.4604006,-0.39380535,0.057074346,-0.20341963,27.25,28.3125,27.375,30.9375,32.625,33.3125
0.03605181,-0.9464726,0.07078671,-0.9276744,-0.0006259823,0.067581385,-0.14214188,-0.37307158,-0.32818013,0.05979565,-3.0783122,0.624811,-0.00065333967,-0.017002648,0.0009042856,-0.0002200973,-0.0004115934,0.00082209805,0.00102541,0.44790426,-1.47023,2.0092142,-2.1076667,-1.5706614,2.422809,-0.017146237,0.027923614,-0.030515397,0.0016698327,-5.7559017e-05,-0.018149262,-0.3256114,-0.038307227,-9.576807,0.7642693,47.686886,-0.6948215,-2.2393851,-3.438405,-0.3821177,0.049575157,-0.19514963,27.25,28.3125,27.375,30.9375,32.625,33.3125
0.03805275,-0.66324496,0.23762484,-0.96478814,0.01796806,0.059512027,-0.16350044,-0.37313512,-0.3282279,0.059809145,-3.0784118,0.62469673,-0.0006232164,-0.017979326,0.00082161865,0.00014935611,-0.00058183994,0.0012383517,0.0010330846,0.44790396,-1.4701099,2.0090568,-2.10769,-1.5706137,2.4227247,-0.017857257,0.028994448,-0.032690585,0.0023261597,-8.6818276e-05,-0.018866625,-0.24899697,-0.05746084,-9.481039,0.7866488,47.69763,-0.6623571,-2.2082806,-3.3807468,-0.36530572,0.04730256,-0.20335242,27.25,28.3125,27.375,30.9375,32.625,33.3125
0.04005246,-0.5139316,0.28335726,-1.066775,0.019686263,0.04385362,-0.17873439,-0.3731691,-0.32820582,0.05980206,-3.0783584,0.6247818,-0.00060365145,-0.019336078,0.0007373674,0.00028843025,-0.00059201155,0.0013367673,0.000729875,0.4478557,-1.4700612,2.0090196,-2.10769,-1.5706495,2.4227364,-0.018905729,0.031249098,-0.035617046,0.002904211,-0.00012574914,-0.019609865,-0.1340753,0.05746084,-9.442732,0.68146914,47.72808,-0.71086824,-2.2472606,-3.3691769,-0.35481784,0.03425049,-0.20268369,27.25,28.3125,27.375,30.9375,32.625,33.3125
0.042052336,-0.20342174,-0.483024,-0.9062872,0.021130187,0.040592317,-0.18367653,-0.37319738,-0.32818758,0.05979438,-3.0783145,0.6248496,-0.0006649155,-0.019970266,0.00060749147,0.00038999494,-0.0007031979,0.0016407069,0.0012409865,0.44779566,-1.4700009,2.00896,-2.107642,-1.5706495,2.4227242,-0.019212238,0.032232057,-0.03693311,0.0029152068,-0.00016128566,-0.020426467,-0.19153613,0.05746084,-9.461885,0.72622824,47.65912,-0.7275282,-2.2862394,-3.3573394,-0.34636015,0.025698707,-0.1852004,27.25,28.3125,27.375,30.9375,32.625,33.3125
0.044052046,-0.6480627,-0.8969324,-1.0367835,-0.0014598874,0.023992285,-0.19451602,-0.37324274,-0.32818332,0.059807107,-3.078316,0.62477267,-0.00059880514,-0.02120396,0.00097501214,0.0010164824,-0.00034537676,0.0031480961,0.0013606728,0.44777125,-1.469953,2.0088756,-2.1076305,-1.5706862,2.4226518,-0.020359974,0.03246659,-0.03870484,0.00325109,-0.0011396899,-0.021690855,-0.11492168,0.038307227,-9.423578,0.7553206,47.66808,-0.6790241,-2.1581683,-3.395178,-0.3478312,0.016991945,-0.1945803,27.25,28.3125,27.375,30.9375,32.625,33.3125
0.04605248,0.32404718,-0.8442083,-1.1334794,-0.024799911,0.04344275,-0.20585103,-0.37329143,-0.3281747,0.05980879,-3.0783224,0.6248509,-0.0005541927,-0.02224007,0.0011631104,0.0012974325,-0.00022522666,0.0031696274,0.0015496113,0.44771078,-1.4699048,2.008827,-2.1076658,-1.5706862,2.4226394,-0.021571452,0.033650383,-0.04088441,0.0042795893,-0.0012594609,-0.023089876,-0.076614454,0.019153614,-9.5385,0.76874626,47.709274,-0.64248097,-2.1305983,-3.400698,-0.32813963,0.03407431,-0.19207951,27.25,28.3125,27.375,30.9375,32.625,33.3125
0.048052326,0.002053799,-1.2984116,-1.3773195,-0.029890317,0.03425507,-0.18670413,-0.3733053,-0.32818386,0.05979142,-3.0783377,0.62483454,-0.00068606884,-0.022815712,0.0013168239,0.0014540063,0.00057516823,0.0026364792,0.0028295869,0.44767463,-1.4698204,2.008766,-2.1076295,-1.5706261,2.422591,-0.022048471,0.03479512,-0.04288815,0.0059685847,-0.0017530133,-0.024844876,-0.019153614,0.114921674,-9.519346,0.7866488,47.757637,-0.7191371,-2.0627947,-3.3647623,-0.3316259,0.011021718,-0.1727328,27.25,28.3125,27.375,30.9375,32.625,33.3125
0.05005255,0.119262286,-1.2933214,-1.26458,-0.035124984,0.023872562,-0.16892128,-0.373371,-0.3281683,0.0598005,-3.0782936,0.6248435,-0.00061664236,-0.023225302,0.0014994678,0.0011318784,0.0012689645,0.00081880705,0.0041056364,0.4476263,-1.469736,2.0086467,-2.1076047,-1.5706862,2.422554,-0.02287021,0.036771357,-0.04473333,0.0077738888,-0.0015924965,-0.026942136,-0.05746084,0.1340753,-9.500193,0.8157518,47.737934,-0.66185987,-2.0624344,-3.4520745,-0.34676456,0.011861297,-0.15745121,27.25,28.3125,27.375,30.9375,32.625,33.3125
0.05205253,0.26306444,-1.3352091,-1.312088,-0.035737745,0.028607609,-0.17592445,-0.37340108,-0.3281509,0.05979055,-3.0782723,0.6248392,-0.00066146377,-0.024101803,0.001407175,0.0016255911,0.0005587153,0.0017740112,0.00474846,0.44756618,-1.4696759,2.008598,-2.1075804,-1.5706862,2.422494,-0.02364034,0.03704348,-0.04616398,0.0077627744,-0.0013705387,-0.028354608,-0.019153614,0.30645782,-9.5385,0.7486078,47.71465,-0.66160023,-2.0124817,-3.5012918,-0.3604514,0.0070862216,-0.14945976,27.25,28.3125,27.375,30.9375,32.625,33.3125
0.05405252,0.33544466,-1.380518,-1.4687008,-0.04318499,0.037912905,-0.17528331,-0.37347758,-0.32815567,0.059807595,-3.0782773,0.62482023,-0.00056704035,-0.025112268,0.0013563526,0.0020445962,5.322838e-05,0.0024606711,0.005138455,0.44752982,-1.4695799,2.0084536,-2.1075804,-1.570722,2.4224453,-0.02456378,0.037793495,-0.048009884,0.008018981,-0.0012146925,-0.029667292,-0.038307227,0.34476504,-9.481039,0.7284641,47.71554,-0.5810287,-1.9589875,-3.4840438,-0.3516481,-0.0011592269,-0.13070591,27.25,28.3125,27.375,30.9375,32.625,33.3125
0.0560518,-0.14952634,-1.600731,-1.4046363,-0.052439705,0.031379405,-0.16297168,-0.3735032,-0.32815093,0.059793252,-3.0782864,0.62476397,-0.00063413783,-0.025923355,0.0013534816,0.0020419923,5.0468596e-05,0.0017668379,0.005446918,0.44748145,-1.4695073,2.008404,-2.107568,-1.5706981,2.4223607,-0.025495635,0.039519757,-0.05013557,0.009042069,-0.0009159223,-0.03090696,-0.05746084,0.4213795,-9.481039,0.6948948,47.707485,-0.6535223,-1.8645723,-3.4775848,-0.35378712,0.0027613498,-0.12202062,27.25,28.3125,27.375,30.9375,32.625,33.3125
0.058052596,0.20933828,-1.2919365,-1.3386047,-0.07520609,0.053405277,-0.17211802,-0.37355185,-0.3281659,0.05980797,-3.0783203,0.6247125,-0.0006180743,-0.026662992,0.0014366799,0.0022054743,0.00024841234,0.0013074565,0.0056211357,0.44745725,-1.469435,2.0082853,-2.1075437,-1.5706862,2.4223,-0.02633391,0.04075251,-0.05216154,0.010335188,-0.000896896,-0.03191849,-0.019153614,0.38307226,-9.557653,0.78217715,47.71465,-0.5832968,-1.9521482,-3.4612904,-0.3567858,-0.013010139,-0.109810844,27.25,28.3125,27.375,30.9375,32.625,33.3125
0.06005228,-0.4747914,-2.1083248,-1.2663071,-0.05872435,0.04172791,-0.16577692,-0.37361768,-0.328166,0.059815936,-3.0783412,0.62475526,-0.00065264193,-0.027204918,0.0013259355,0.0016447929,0.0008659089,-4.8702426e-05,0.006725586,0.44737312,-1.4693383,2.0081527,-2.107508,-1.57065,2.42224,-0.026631052,0.043487936,-0.054024275,0.010953119,-0.0008702905,-0.033318777,-0.076614454,0.4405331,-9.519346,0.7463667,47.71465,-0.6623324,-1.8853488,-3.478568,-0.35777223,-0.024243474,-0.10344516,27.25,28.3125,27.375,30.9375,32.625,33.3125
0.062052317,-0.5769878,-2.2361062,-1.29281,-0.04776052,0.042462617,-0.16120279,-0.3736844,-0.328151,0.05984068,-3.0783343,0.6247333,-0.0005201548,-0.02815496,0.001210006,0.0018534497,0.0006713005,0.00041933038,0.008002894,0.44732496,-1.4693018,2.008056,-2.107508,-1.5707101,2.4221792,-0.027251165,0.044747844,-0.055915497,0.01107596,-0.000900095,-0.035214897,-0.038307227,0.4213795,-9.5385,0.7597976,47.71554,-0.66771305,-1.926081,-3.5100746,-0.36158493,-0.03895513,-0.07062054,27.25,28.3125,27.375,30.9375,32.625,33.3125
0.06405199,-1.0288342,-1.8872306,-1.1807877,-0.0433244,0.039934315,-0.15886079,-0.373769,-0.32816842,0.05986507,-3.0783887,0.6247067,-0.00048336908,-0.029191868,0.0009970415,0.0020969785,0.0008422354,0.00084881956,0.0076080854,0.44726476,-1.4691937,2.0078757,-2.1074836,-1.5706862,2.4220955,-0.027554112,0.046437565,-0.05845713,0.011616608,-0.0012424052,-0.035120774,-0.076614454,0.4405331,-9.500193,0.7978386,47.73256,-0.6780492,-1.8769864,-3.4785032,-0.36055574,-0.043202855,-0.067620754,27.25,28.3125,27.375,30.9375,32.625,33.3125
0.066051826,-0.28400943,-1.5137174,-1.0723217,-0.035449937,0.057246853,-0.16439323,-0.37378702,-0.32814077,0.05983723,-3.0783138,0.6246345,-0.0005416859,-0.030808777,0.00078064663,0.0023240568,0.00052010146,0.0024374886,0.005716346,0.44722864,-1.469109,2.0078385,-2.1074483,-1.5707339,2.422024,-0.028338723,0.048429113,-0.060917497,0.010513687,-0.0016489477,-0.0340106,-0.19153613,0.4405331,-9.481039,0.7150385,47.698532,-0.67201465,-1.8585663,-3.4791858,-0.35746682,-0.06736627,-0.08175965,27.25,28.3125,27.375,30.9375,32.625,33.3125
0.068052545,-0.56095093,-1.2937076,-0.9563002,-0.03063577,0.056191273,-0.15925825,-0.37385076,-0.32815245,0.05984048,-3.0783553,0.62468165,-0.0005317685,-0.031387307,0.0006859784,0.0022540665,0.0007798184,0.0024914776,0.0057044015,0.44716847,-1.4690127,2.0077307,-2.1074722,-1.5706981,2.421988,-0.028504707,0.049764097,-0.062239844,0.010566711,-0.0019079341,-0.034163192,-0.21068975,0.40222588,-9.423578,0.78217715,47.71286,-0.6805956,-1.921072,-3.5278072,-0.35036856,-0.05205318,-0.09534229,27.25,28.3125,27.375,30.9375,32.625,33.3125
0.070052266,-0.5462807,-1.1708387,-1.0177456,-0.03312638,0.052394472,-0.1616276,-0.373949,-0.32814857,0.05987201,-3.0783532,0.624661,-0.0004522566,-0.033570103,-1.0708021e-05,0.0034598524,-0.00059380283,0.004825228,0.0066789435,0.44709623,-1.4689044,2.0075257,-2.107412,-1.5707339,2.4219034,-0.029317075,0.05138104,-0.066852495,0.010861628,-0.0016869976,-0.0359477,-0.22984336,0.36391866,-9.461885,0.72622824,47.709274,-0.70292205,-1.8007014,-3.3689585,-0.36012095,-0.07946654,-0.08291207,27.25,28.3125,27.375,30.9375,32.625,33.3125
0.07205217,-0.27032116,-1.1809691,-1.0060118,-0.027327651,0.062509015,-0.15983266,-0.37399352,-0.32815728,0.05984379,-3.0783322,0.6246178,-0.00051369646,-0.033391282,0.00026315224,0.0014331106,0.00080395566,0.001403275,0.0065391604,0.44707206,-1.4687473,2.007418,-2.1074126,-1.5707339,2.421855,-0.029814376,0.05548392,-0.066560715,0.010156001,-0.0014708175,-0.036304913,-0.28730422,0.2681506,-9.404425,0.83589023,47.72002,-0.7635453,-1.8913674,-3.4827604,-0.34730828,-0.069273494,-0.07710418,27.25,28.3125,27.375,30.9375,32.625,33.3125
0.074051954,-0.9109902,-1.1121058,-0.8375815,-0.028569305,0.057129323,-0.15284625,-0.3740601,-0.32816818,0.059862863,-3.0783799,0.6246464,-0.0005292722,-0.034623336,-0.00019442542,0.0031348031,-0.0010110458,0.004651807,0.0073632393,0.44699994,-1.468664,2.0072744,-2.1073763,-1.5706862,2.4217947,-0.03021697,0.053821668,-0.06864846,0.010192677,-0.0012424584,-0.037531123,-0.2681506,0.19153613,-9.308657,0.80679786,47.71554,-0.74728906,-1.8266596,-3.4304261,-0.3308618,-0.09704468,-0.07573876,27.25,28.3125,27.375,30.9375,32.625,33.3125
0.076052256,-0.8106988,-0.69502544,-0.64614934,-0.032767687,0.06547939,-0.16942126,-0.3741123,-0.32815492,0.059854593,-3.078357,0.624623,-0.0005863751,-0.03770283,-0.0011907442,0.004965108,-0.0027206903,0.008499711,0.006618899,0.4469276,-1.4685556,2.0071633,-2.1073282,-1.5706862,2.4217107,-0.03103923,0.055801053,-0.07508175,0.01043811,-0.0013782983,-0.037604637,-0.36391866,0.17238252,-9.3661175,0.7978386,47.70032,-0.74467885,-1.6634319,-3.2738118,-0.33635098,-0.09324182,-0.092183076,27.25,28.3125,27.375,30.9375,32.625,33.3125
0.07805204,-0.86926883,-1.0025402,-0.8075217,-0.016595116,0.06443473,-0.16168286,-0.37419146,-0.32816517,0.059867833,-3.078369,0.6245689,-0.00052211096,-0.036741387,-7.772614e-05,0.0025863505,0.00040107753,0.004106238,0.004490912,0.44689146,-1.4684347,2.0069973,-2.1073163,-1.5707105,2.4216394,-0.03163854,0.058920383,-0.07311319,0.010663992,-0.0022876773,-0.03607491,-0.40222588,0.15322891,-9.385271,0.77545905,47.709274,-0.7771356,-1.7739717,-3.335455,-0.32606086,-0.12566613,-0.098234504,27.25,28.3125,27.375,30.9375,32.625,33.3125
0.08005173,-0.39390707,-0.7573094,-0.6993335,-0.021924363,0.08296658,-0.164506,-0.37428692,-0.32815766,0.059892945,-3.0783753,0.6245887,-0.0004382051,-0.03876469,-0.00052038155,0.002884863,0.0012285662,0.0052834353,0.0048505794,0.44680727,-1.4683375,2.0068276,-2.1072924,-1.5707349,2.421567,-0.031778704,0.062558986,-0.077904046,0.011115546,-0.0035499353,-0.036569048,-0.36391866,0.15322891,-9.404425,0.7105615,47.686886,-0.7958169,-1.8545963,-3.3323638,-0.33350343,-0.10547398,-0.116772264,27.25,28.3125,27.375,30.9375,32.625,33.3125
0.08205212,-0.6546356,-1.1590729,-0.9739438,-0.013544881,0.07531647,-0.15325283,-0.37437817,-0.3281846,0.059906505,-3.0784314,0.6245229,-0.00041464195,-0.040657118,-0.0005978548,0.0050556352,-0.00028468555,0.010350374,0.0055608847,0.446759,-1.4681827,2.0066235,-2.1072805,-1.570711,2.4214706,-0.032774717,0.060162753,-0.08011538,0.010503057,-0.004379706,-0.038272783,-0.3256114,0.19153613,-9.308657,0.76874626,47.68062,-0.74366134,-1.7389946,-3.2776222,-0.31965268,-0.10223967,-0.11115593,27.25,28.3125,27.375,30.9375,32.625,33.3125
0.084051915,-0.35101712,-0.9963141,-0.95289886,-0.023676485,0.07418042,-0.15851933,-0.37444454,-0.3281759,0.059897847,-3.0784128,0.62444216,-0.0004231494,-0.04096111,-0.0004900284,0.0036038253,0.001633446,0.0077191503,0.005817885,0.4466989,-1.4680494,2.0064914,-2.1072567,-1.5707353,2.4213626,-0.032844715,0.06446971,-0.08162121,0.010904487,-0.0049758093,-0.038597047,-0.49799395,0.22984336,-9.232041,0.8403672,47.690468,-0.77107084,-1.734623,-3.2448573,-0.3148618,-0.116187036,-0.12159076,27.25,28.3125,27.375,30.9375,32.625,33.3125
0.0860522,-1.1091657,-0.74287564,-0.9749686,-0.037270796,0.057372704,-0.15952589,-0.37454545,-0.32817486,0.059926357,-3.0784242,0.6244449,-0.00027280368,-0.042805657,0.0002770775,0.0038791767,0.003157608,0.008706926,0.0038492004,0.4466384,-1.467953,2.0063226,-2.1072676,-1.570784,2.4213026,-0.03472729,0.06637223,-0.084524535,0.011677123,-0.0067778956,-0.038506143,-0.49799395,0.1340753,-9.32781,0.82694155,47.69763,-0.77266705,-1.8815119,-3.2262921,-0.33030844,-0.105543554,-0.12833875,27.25,28.3125,27.375,30.9375,32.625,33.3125
0.08805202,-1.0810063,-1.3882893,-1.0633109,-0.029806249,0.064298436,-0.15886691,-0.3746139,-0.32818195,0.059921112,-3.0784295,0.6244844,-0.00033734785,-0.04321746,0.0014596333,0.0027365112,0.0062875557,0.0079126125,0.0031551567,0.44656616,-1.4678085,2.0061677,-2.1072323,-1.5707492,2.4212544,-0.035634894,0.06852927,-0.08419165,0.011265124,-0.009258711,-0.038714528,-0.30645782,0.21068975,-9.442732,0.8247004,47.694946,-0.76220137,-1.7804186,-3.1740355,-0.32976627,-0.058920227,-0.15587573,27.25,28.3125,27.375,30.9375,32.625,33.3125
0.09005176,-0.98584956,-1.1824695,-0.93212765,-0.03656218,0.07935524,-0.15873305,-0.3747099,-0.32818523,0.05993323,-3.078434,0.6244853,-0.00029662176,-0.043824263,0.002496051,0.0019930927,0.009735217,0.007358713,0.0033095863,0.44649377,-1.467664,2.0059755,-2.107208,-1.5707616,2.4211822,-0.03618003,0.07074964,-0.085091904,0.011942383,-0.012128681,-0.039408196,-0.34476504,0.24899697,-9.423578,0.7486078,47.694946,-0.7510712,-1.8892363,-3.37341,-0.31081417,-0.043206766,-0.17817679,27.25,28.3125,27.375,30.9375,32.625,33.3125
0.092052616,-1.0915545,-1.1761204,-1.013897,-0.039955873,0.087570556,-0.15626344,-0.3748139,-0.3281711,0.059944455,-3.0784094,0.62449884,-0.00024640773,-0.046291932,0.0016975054,0.0035514936,0.009375933,0.0109111015,0.0038997657,0.44639787,-1.4675196,2.0057828,-2.1071723,-1.5707983,2.421098,-0.036076896,0.07245109,-0.09066013,0.012451437,-0.013348381,-0.039889682,-0.34476507,0.28730422,-9.346964,0.7217513,47.684196,-0.8575988,-1.8474967,-3.1249504,-0.32183808,0.0019429713,-0.18553829,27.25,28.3125,27.375,30.9375,32.625,33.3125
0.09405245,-0.78638905,-1.2230668,-0.76044726,-0.03414814,0.08290691,-0.15608929,-0.37491935,-0.32818347,0.05996676,-3.0784452,0.6244682,-0.00018818307,-0.046268083,0.0022921385,0.0020276636,0.0097480565,0.00763363,0.0029823002,0.44632533,-1.4673752,2.0055673,-2.1071484,-1.5707978,2.421002,-0.037890412,0.07515513,-0.090122014,0.012321239,-0.012266499,-0.040788226,-0.34476504,0.28730422,-9.308657,0.7709874,47.666286,-0.7033243,-1.8384995,-3.3619413,-0.33013323,-0.009805752,-0.21199103,27.25,28.3125,27.375,30.9375,32.625,33.3125
0.09605203,-0.5937322,-1.1926323,-0.9695339,-0.03184302,0.06175154,-0.15750758,-0.3749851,-0.32817027,0.059955645,-3.0784006,0.6244014,-0.00021531942,-0.048072007,0.0012409184,0.002918539,0.0066037416,0.008580957,0.0026288202,0.4462649,-1.4672306,2.0054228,-2.1071002,-1.5708331,2.4209056,-0.039172873,0.076915205,-0.09411347,0.012329798,-0.009849611,-0.04171855,-0.2681506,0.21068975,-9.404425,0.84484416,47.705692,-0.8056748,-1.9648142,-3.1780262,-0.30447346,-0.026403094,-0.20971568,27.25,28.3125,27.375,30.9375,32.625,33.3125
0.09805186,-0.22245377,-1.4469587,-1.0819744,-0.03415663,0.040055294,-0.15709226,-0.37508187,-0.32818484,0.059964895,-3.0784342,0.6243511,-0.00017001206,-0.04916871,0.0009561016,0.002984088,0.004824095,0.00822224,0.0017872024,0.44620433,-1.4670743,2.0052297,-2.1071002,-1.5708326,2.4208095,-0.040804457,0.07855349,-0.09604121,0.012167706,-0.008092323,-0.042510703,-0.24899697,0.24899697,-9.385271,0.8224646,47.74241,-0.6826179,-1.8652594,-3.2227335,-0.3000437,-0.060782358,-0.23336628,27.25,28.3125,27.375,30.9375,32.625,33.3125
0.100051716,0.42339647,-1.0456451,-0.95268756,-0.049256276,0.042585354,-0.16231087,-0.37516606,-0.32816997,0.059942015,-3.078371,0.6244336,-0.00023561793,-0.049716175,0.00097604876,0.0023199306,0.0048083034,0.0066899927,0.0034189124,0.446108,-1.466882,2.0050623,-2.1070645,-1.570844,2.4207728,-0.041776568,0.08103486,-0.09729832,0.0123144025,-0.007422527,-0.04511425,-0.30645782,0.21068975,-9.385271,0.800085,47.72271,-0.7000579,-1.8842273,-3.1522615,-0.30087453,-0.06915151,-0.24123195,27.25,28.3125,27.375,30.9375,32.625,33.3125
0.10205264,-0.047879335,-0.98041874,-0.84787464,-0.04299514,0.031651154,-0.16143943,-0.3752978,-0.32818252,0.05997751,-3.0784397,0.624388,-0.00011597643,-0.050427593,-0.00020110785,0.0027573174,0.0035812515,0.0072583808,0.004948174,0.44601244,-1.4667375,2.004822,-2.1070645,-1.570844,2.4206402,-0.04077481,0.08269899,-0.100182675,0.012488576,-0.0065619024,-0.045642126,-0.24899697,0.22984336,-9.32781,0.79560274,47.698532,-0.7363952,-1.854742,-3.146087,-0.2985815,-0.056001563,-0.26129282,27.25,28.3125,27.375,30.9375,32.625,33.3125
0.104052454,-0.7064822,-1.7685604,-0.98009443,-0.023497224,0.033992182,-0.15580924,-0.37539497,-0.32818216,0.05998165,-3.078409,0.62444043,-9.603935e-05,-0.05070537,0.00017985674,0.0014332867,0.004995479,0.004416513,0.0030035665,0.44594008,-1.4665687,2.0046184,-2.1070278,-1.5708679,2.4206047,-0.04169503,0.08624628,-0.10121656,0.013148101,-0.0066121854,-0.044616677,-0.15322891,0.2681506,-9.385271,0.78217715,47.698532,-0.8008201,-1.9052551,-3.2567468,-0.2780743,-0.079227164,-0.27529377,27.25,28.3125,27.375,30.9375,32.625,33.3125
0.10605186,0.074731335,-0.52012527,-0.7742081,-0.046180222,0.07055407,-0.16959113,-0.3755002,-0.32817474,0.059984103,-3.0784042,0.62436277,-4.5376077e-05,-0.052459996,0.0007878053,0.0027754924,0.0047075325,0.006745054,0.0024927764,0.4458552,-1.4664012,2.0044258,-2.1070163,-1.5709037,2.4204721,-0.043898165,0.08543038,-0.10363871,0.014160979,-0.007359167,-0.046306785,-0.11492168,0.21068975,-9.3661175,0.75755644,47.70032,-0.65941,-1.966321,-3.1923828,-0.2746374,-0.069018215,-0.30334127,27.25,28.3125,27.375,30.9375,32.625,33.3125
0.10805172,-0.7731296,-1.7449181,-0.8933142,-0.023445982,0.05451938,-0.1454201,-0.37563205,-0.32818046,0.060003325,-3.0784178,0.62440306,-1.4476836e-06,-0.053106096,0.00072411494,0.0028820706,0.00504697,0.0067807264,0.003383141,0.4457472,-1.4662093,2.004162,-2.1069796,-1.5709041,2.4203877,-0.044124693,0.08664629,-0.10538351,0.014803982,-0.0076813414,-0.04742236,-0.038307227,0.24899697,-9.404425,0.82694155,47.71554,-0.7622452,-1.824426,-3.2326684,-0.2931841,-0.05513484,-0.31490165,27.25,28.3125,27.375,30.9375,32.625,33.3125
0.11005257,-0.26069546,-1.1170071,-0.7217112,-0.040221263,0.057075266,-0.15780787,-0.3757198,-0.3281691,0.060001295,-3.0783918,0.6243585,-1.0226049e-05,-0.053222388,0.00095969974,0.00078369473,0.007066511,0.0033593848,0.00516674,0.4456631,-1.4660516,2.0039823,-2.1069324,-1.5709285,2.4202793,-0.04442351,0.091684274,-0.10603828,0.014377103,-0.00803273,-0.049502674,-0.1340753,0.2681506,-9.32781,0.7665104,47.71554,-0.7267861,-2.0812945,-3.263821,-0.26681697,-0.06418413,-0.32254595,27.25,28.3125,27.375,30.9375,32.625,33.3125
0.11205259,-0.4573683,-1.1843688,-0.8051117,-0.046219736,0.04305641,-0.15507688,-0.3758323,-0.32816333,0.060008764,-3.0783722,0.6244336,4.2261367e-05,-0.054210357,0.0011246997,0.0013664893,0.0073082005,0.004860099,0.0024682274,0.44556686,-1.4658841,2.0037777,-2.1069195,-1.5709523,2.4202325,-0.045021653,0.091819234,-0.107570566,0.0145265255,-0.008898696,-0.047400117,-0.095768064,0.21068975,-9.308656,0.78217715,47.684196,-0.7619364,-1.8699217,-3.299792,-0.25404578,-0.058987305,-0.35505375,27.25,28.3125,27.375,30.9375,32.625,33.3125
0.11405186,-0.6842678,-0.9188544,-0.6239021,-0.034010008,0.024853276,-0.15908405,-0.37594295,-0.32818234,0.06000348,-3.07839,0.6243206,1.5712997e-07,-0.05505361,0.0011825539,0.0010659908,0.008438507,0.0048128273,0.0019714888,0.4454949,-1.4656435,2.003514,-2.1068718,-1.5709409,2.420088,-0.04519772,0.09410994,-0.109455384,0.014654051,-0.00990302,-0.047076035,-0.15322891,0.15322891,-9.289502,0.83589023,47.72002,-0.7889663,-1.9272256,-3.317327,-0.2522214,-0.017307993,-0.39916065,27.25,28.3125,27.375,30.9375,32.625,33.3125
0.11605185,-0.094204046,-0.64861584,-0.6310103,-0.02277639,0.033238303,-0.16491169,-0.37609717,-0.32819873,0.06005184,-3.0784566,0.62442875,0.00017999491,-0.056502145,0.0006424058,0.0017868753,0.007385948,0.005990349,0.0038838054,0.44538662,-1.4654994,2.00325,-2.1068957,-1.5709409,2.420039,-0.04576604,0.09551727,-0.112755045,0.015026605,-0.009460181,-0.049556788,-0.15322891,0.1340753,-9.346964,0.77545905,47.74241,-0.8536923,-2.0063324,-3.36984,-0.2514565,-0.035518914,-0.42162204,27.25,28.3125,27.375,30.9375,32.625,33.3125
0.11805174,-0.55363655,-0.5267479,-0.5035657,-0.011816796,0.02724415,-0.15285777,-0.37617558,-0.32817227,0.06002231,-3.0783975,0.6243199,0.000107619,-0.055903938,0.00062543014,0.00036640392,0.008077386,0.0032201759,0.006217743,0.4452907,-1.4653068,2.0030944,-2.106848,-1.5709771,2.4198828,-0.045564014,0.09792322,-0.11211093,0.014768703,-0.008894796,-0.051688842,-0.11492168,0.095768064,-9.32781,0.8291774,47.72719,-0.7945936,-1.9435406,-3.3095026,-0.22925058,-0.01952165,-0.43585655,27.25,28.3125,27.375,30.9375,32.625,33.3125
0.120052435,-0.07600151,-0.031700935,-0.53569216,-0.017841656,0.04489757,-0.16814938,-0.3762858,-0.32819986,0.060028225,-3.0784411,0.6243274,0.000104276645,-0.05805954,6.9587245e-06,0.0018863546,0.0070072617,0.0066543855,0.007863159,0.4452187,-1.465103,2.0028536,-2.106836,-1.5709409,2.41981,-0.045977116,0.098599404,-0.11636161,0.014785191,-0.009416193,-0.053744126,-0.11492168,0.15322891,-9.270349,0.78888994,47.71554,-0.93263376,-1.9223564,-3.3418756,-0.2029436,-0.023281537,-0.43630046,27.25,28.3125,27.375,30.9375,32.625,33.3125
0.12205232,0.14485654,0.08533861,-0.42213005,-0.026129708,0.06251293,-0.17235313,-0.3764241,-0.3281867,0.06003551,-3.0784125,0.6242632,0.0001747571,-0.058096997,0.0009826444,0.0005585721,0.008162253,0.0036571508,0.008110063,0.44510993,-1.4648868,2.0025904,-2.1068003,-1.5710009,2.419665,-0.047986478,0.10078653,-0.115868,0.015300746,-0.009165528,-0.05600106,-0.076614454,0.11492168,-9.346964,0.77545905,47.723602,-0.84760535,-1.9756212,-3.4101005,-0.20156515,-0.028103173,-0.4537558,27.25,28.3125,27.375,30.9375,32.625,33.3125
0.124052055,-0.49811766,-0.89504105,-0.6767651,-0.020413466,0.04810677,-0.15450975,-0.37652555,-0.3281955,0.06004486,-3.078433,0.6242446,0.00017559947,-0.057477813,-2.9784496e-05,-0.00038788537,0.0090394765,0.0010400745,0.014201992,0.4450268,-1.4647179,2.0023744,-2.1067636,-1.5709885,2.4195678,-0.045744132,0.10404934,-0.11758504,0.01649173,-0.008831917,-0.059850145,-0.05746084,0.15322891,-9.289502,0.8023209,47.723602,-0.9839803,-2.0244596,-3.4713073,-0.20119491,-0.05098251,-0.4429587,27.25,28.3125,27.375,30.9375,32.625,33.3125
0.12605228,-0.38794717,-0.769953,-0.5953604,-0.031503845,0.03922016,-0.16567959,-0.37663233,-0.32817206,0.06002201,-3.078359,0.6241698,0.000116195966,-0.058212403,-0.00039790108,0.0008016851,0.007583399,0.0030176044,0.017095942,0.4449188,-1.464479,2.002147,-2.106692,-1.5710362,2.4194229,-0.046001893,0.102793224,-0.11900909,0.016753176,-0.0083773555,-0.06300142,-0.019153614,0.17238252,-9.270349,0.7777002,47.687782,-1.1697865,-1.7725205,-3.4855523,-0.1979765,-0.041811243,-0.43755174,27.25,28.3125,27.375,30.9375,32.625,33.3125
0.12805212,-0.29614654,-0.83703125,-0.732943,-0.03218034,0.03464299,-0.16445728,-0.3767263,-0.32818025,0.06001628,-3.0783687,0.62403524,0.00011325995,-0.059148256,-3.5248187e-05,-0.00023722922,0.009040869,0.0012051286,0.020569699,0.44485822,-1.464286,2.001942,-2.1066682,-1.5710491,2.4192772,-0.04714558,0.106689066,-0.12103311,0.017142838,-0.008918636,-0.06761614,-0.038307227,0.19153613,-9.289502,0.7709874,47.70032,-1.0691862,-1.8656814,-3.4104586,-0.1717377,-0.051497776,-0.4009184,27.25,28.3125,27.375,30.9375,32.625,33.3125
0.13005225,-0.1778009,-1.1763681,-0.9001053,-0.018165074,0.019702904,-0.15494412,-0.37689704,-0.32817867,0.060040552,-3.0783973,0.62407815,0.00018771511,-0.06136659,-0.00019163056,0.0019370682,0.0075663636,0.0052512763,0.023514831,0.4447018,-1.4640589,2.00163,-2.1066434,-1.5710491,2.4191442,-0.04853529,0.10546496,-0.12486122,0.017905997,-0.009332034,-0.07194902,0.0,0.21068975,-9.385271,0.7978386,47.71823,-1.1141318,-1.7822782,-3.4901905,-0.1586265,-0.028192181,-0.35637313,27.25,28.3125,27.375,30.9375,32.625,33.3125
0.13205226,-0.27972412,-1.1958756,-0.87160903,-0.02438931,0.017794449,-0.1496276,-0.3769925,-0.32817098,0.060031787,-3.078376,0.6239751,0.0001630051,-0.061690245,0.000208214,0.0008496949,0.009192955,0.003035446,0.027230466,0.44461757,-1.463866,2.0014265,-2.1065953,-1.5710729,2.4189985,-0.049209483,0.10855827,-0.12596296,0.018611433,-0.009851993,-0.07633669,0.019153614,0.19153613,-9.289503,0.7978386,47.701214,-1.0622736,-1.8222227,-3.422247,-0.17397171,-0.026258782,-0.32058203,27.25,28.3125,27.375,30.9375,32.625,33.3125
0.13405204,-0.4884337,-1.003712,-0.917839,-0.032189474,0.01887285,-0.16378398,-0.37710786,-0.3281924,0.06002623,-3.0784023,0.62382287,0.00012124926,-0.062134482,-0.0005143297,0.0009309485,0.009515823,0.0028904208,0.032589693,0.44454598,-1.4636139,2.00115,-2.106547,-1.571061,2.4188287,-0.048080236,0.110519834,-0.12854235,0.019497856,-0.010087818,-0.0805645,-0.1340753,0.28730422,-9.346964,0.7978386,47.701214,-1.2106934,-1.8837833,-3.3415532,-0.16879597,-0.032321554,-0.26064795,27.25,28.3125,27.375,30.9375,32.625,33.3125
0.1360519,-0.18547888,-1.5581003,-1.2281995,-0.030149102,0.03863454,-0.16163532,-0.37723494,-0.32818455,0.060044724,-3.0784132,0.6236524,0.0001962719,-0.064210616,-0.0004918252,0.0020626727,0.008120291,0.004891556,0.03294777,0.4444492,-1.463434,2.0008981,-2.1064994,-1.5711087,2.4186244,-0.050228916,0.11110349,-0.1318741,0.019831544,-0.009693502,-0.083070286,-0.076614454,0.34476504,-9.385271,0.800085,47.694946,-1.1759745,-1.7501462,-3.32476,-0.15832984,-0.035190873,-0.21719569,27.25,28.3125,27.375,30.9375,32.625,33.3125
0.13805178,-0.794941,-1.687894,-1.2813909,-0.05171358,0.044432785,-0.15669562,-0.37736627,-0.3282047,0.060052004,-3.0784323,0.62361777,0.00015714623,-0.06496484,-0.0002756935,0.0019253877,0.008307479,0.004377245,0.033364795,0.44435287,-1.4631819,2.0005867,-2.1064274,-1.5710849,2.4185042,-0.051319633,0.112582244,-0.13334033,0.02036394,-0.009644773,-0.084577106,-0.11492168,0.34476504,-9.423578,0.82022345,47.71286,-1.118355,-1.7641027,-3.3915415,-0.15683824,-0.013064763,-0.17942533,27.25,28.3125,27.375,30.9375,32.625,33.3125
0.14005238,-0.7613964,-1.8957361,-1.341345,-0.07282717,0.058362663,-0.1566259,-0.377486,-0.3281957,0.060045052,-3.0784369,0.62346405,0.0001638025,-0.06592953,-0.00025419745,0.0023208829,0.008311446,0.0047081104,0.032810792,0.44424462,-1.462966,2.0003588,-2.106403,-1.5711087,2.4182997,-0.05210191,0.113561,-0.13556655,0.02131177,-0.009794204,-0.08480386,-0.17238252,0.38307226,-9.576807,0.800085,47.69763,-1.1460922,-1.7175628,-3.3382063,-0.15881664,-0.033538837,-0.150333,27.25,28.3125,27.375,30.9375,32.625,33.3125
0.14205226,-0.6044654,-2.0892386,-1.4183018,-0.074929915,0.067418076,-0.16317095,-0.37763265,-0.3281781,0.060057458,-3.0783849,0.62349296,0.00019272573,-0.06675266,-0.00028699802,0.0015362168,0.00850984,0.002545964,0.030476233,0.4441122,-1.462737,2.0000584,-2.1063192,-1.5711564,2.4181921,-0.053254116,0.11713868,-0.13793124,0.022129215,-0.009048125,-0.083621055,-0.24899697,0.45968673,-9.634268,0.87393653,47.66987,-1.1278541,-1.7154639,-3.3201847,-0.15576273,-0.020662883,-0.14530747,27.25,28.3125,27.375,30.9375,32.625,33.3125
0.14405209,-0.916477,-1.986671,-1.4229668,-0.065270245,0.068595074,-0.15811265,-0.37777132,-0.32819307,0.06006518,-3.0784366,0.62331325,0.00022255728,-0.06787886,-0.0003224674,0.0023179452,0.0076095695,0.0037090115,0.027874086,0.4440159,-1.4624976,1.999771,-2.1062953,-1.5711564,2.4179773,-0.054381054,0.11720975,-0.13994195,0.022630854,-0.008735567,-0.08214563,-0.21068975,0.4405331,-9.595961,0.80456203,47.72719,-1.0960232,-1.7246969,-3.3654685,-0.16125618,-0.023934364,-0.1711042,27.25,28.3125,27.375,30.9375,32.625,33.3125
0.1460525,-1.0668597,-1.5140705,-1.4028324,-0.06350134,0.0693757,-0.15998793,-0.37792566,-0.32817903,0.06005246,-3.0783908,0.62326705,0.00023380811,-0.068418354,-6.950308e-05,0.0005502837,0.009271323,0.0007770685,0.023638254,0.44388366,-1.462208,1.999472,-2.106259,-1.5712045,2.4178224,-0.055144873,0.12213805,-0.14132859,0.022448866,-0.008981596,-0.07867137,-0.28730422,0.34476504,-9.710882,0.800085,47.711063,-1.2339274,-1.9669135,-3.3771448,-0.15879604,-0.03745796,-0.14865126,27.25,28.3125,27.375,30.9375,32.625,33.3125
0.14805225,-0.99964917,-1.3305596,-1.2824591,-0.057191975,0.06935616,-0.15700096,-0.37802568,-0.32820076,0.060064223,-3.0784166,0.6231411,0.0002345844,-0.07043184,1.2085746e-05,0.0018620288,0.007876199,0.0037968713,0.017341143,0.44383493,-1.462017,1.9992203,-2.106199,-1.571205,2.417692,-0.057053056,0.12183199,-0.14392023,0.022022983,-0.009023544,-0.07428084,-0.2681506,0.2681506,-9.710882,0.8224646,47.73525,-1.1467906,-1.5347891,-3.4781017,-0.13041404,-0.025190603,-0.2166558,27.25,28.3125,27.375,30.9375,32.625,33.3125
0.15005206,-1.0173279,-1.0515522,-1.1290658,-0.05407033,0.06927158,-0.16309363,-0.37818012,-0.32819766,0.06006242,-3.078438,0.62310797,0.0002616707,-0.07052043,0.0007864277,-7.694756e-05,0.009309209,-8.364352e-05,0.01507416,0.44369054,-1.461764,1.9989446,-2.106199,-1.5712045,2.4175243,-0.058799855,0.12573947,-0.14386222,0.02217525,-0.008649706,-0.073761046,-0.38307226,0.2681506,-9.576807,0.7732232,47.739727,-1.1316003,-1.816011,-3.3861442,-0.13023798,-0.024486218,-0.25996616,27.25,28.3125,27.375,30.9375,32.625,33.3125
0.15205196,-0.9544583,-1.0598475,-1.1546388,-0.035115775,0.06541799,-0.15496618,-0.3783313,-0.32819718,0.06006949,-3.0784204,0.62306696,0.0002695813,-0.07231523,0.00017810705,0.00026572376,0.009040081,0.001146012,0.01322761,0.44357035,-1.4614996,1.9986199,-2.1061275,-1.5712284,2.417381,-0.059041288,0.12866831,-0.14788671,0.022044208,-0.008944034,-0.07215253,-0.36391866,0.24899697,-9.481039,0.779936,47.70211,-1.1300939,-1.7959406,-3.329043,-0.11808656,-0.042700645,-0.27028528,27.25,28.3125,27.375,30.9375,32.625,33.3125
0.15405245,-1.0983833,-0.8034616,-1.0897353,-0.0315366,0.06962191,-0.16146894,-0.3784983,-0.32821685,0.06009706,-3.0784824,0.6230218,0.00034613718,-0.073197186,0.00052991876,-9.083349e-05,0.010156741,0.0009671613,0.011274473,0.44345003,-1.4612594,1.9982857,-2.1061037,-1.571217,2.417225,-0.059829447,0.13071273,-0.14938103,0.022138763,-0.009873941,-0.07098548,-0.34476504,0.15322891,-9.442732,0.842603,47.71554,-1.1655381,-1.7696981,-3.4458027,-0.09812056,-0.030145902,-0.30575314,27.25,28.3125,27.375,30.9375,32.625,33.3125
0.15605249,-1.2601035,-0.5112046,-0.7893086,-0.029319007,0.0666844,-0.15767609,-0.37862962,-0.32822186,0.06009545,-3.0784729,0.6230004,0.00031530394,-0.07425511,0.0002977915,0.00016816343,0.009186557,0.0005962426,0.012014923,0.44334158,-1.4610072,1.9979967,-2.106043,-1.5712165,2.4171045,-0.06100465,0.13230869,-0.15198088,0.023055525,-0.008844471,-0.07290125,-0.24899697,0.19153613,-9.404425,0.7777002,47.68599,-1.1390555,-1.8555034,-3.3396583,-0.093988806,-0.026234651,-0.3261621,27.25,28.3125,27.375,30.9375,32.625,33.3125
0.15805234,-0.7602072,-0.24120563,-0.77586937,-0.025055736,0.07313657,-0.16323741,-0.37881455,-0.32820737,0.06011628,-3.0784726,0.6229998,0.00040634186,-0.0754433,0.00029286498,4.728825e-05,0.009441453,-0.00030726558,0.012102551,0.44317335,-1.4607549,1.9976615,-2.1060064,-1.5712522,2.4169362,-0.062121496,0.13506712,-0.15507339,0.024309697,-0.00868852,-0.07410458,-0.40222588,0.1340753,-9.232041,0.8672237,47.721813,-1.1407545,-1.7382184,-3.2050483,-0.09392946,-0.039629012,-0.30776247,27.25,28.3125,27.375,30.9375,32.625,33.3125
0.16005208,-0.6342026,-0.1902053,-0.754911,-0.017067077,0.065787405,-0.16145529,-0.37895933,-0.32821646,0.060111497,-3.0784729,0.62290347,0.00042919978,-0.0765804,7.9035235e-05,0.00011557552,0.009793246,-0.00053019583,0.011706383,0.44307733,-1.4604782,1.9973611,-2.105983,-1.5712765,2.4167802,-0.06255682,0.13752991,-0.15822858,0.025352543,-0.0089155175,-0.074141495,-0.47884035,0.1340753,-9.385271,0.7732232,47.723602,-1.1654469,-1.9017215,-3.3757849,-0.09733676,-0.054167904,-0.35340774,27.25,28.3125,27.375,30.9375,32.625,33.3125
0.16205221,-0.70502454,-0.20623662,-0.61816275,-0.017184934,0.060793698,-0.16076836,-0.37911674,-0.3282251,0.060110126,-3.0784712,0.6228446,0.00046168466,-0.07609831,0.0010065498,-0.002343926,0.012133367,-0.0055541256,0.012154942,0.44296888,-1.4601897,1.9970392,-2.1059582,-1.5713004,2.4166355,-0.06385648,0.1417955,-0.15747288,0.025869168,-0.008873886,-0.07588985,-0.40222588,0.17238252,-9.32781,0.800085,47.73614,-1.1771338,-1.8978682,-3.3695922,-0.070840076,-0.033512093,-0.36243957,27.25,28.3125,27.375,30.9375,32.625,33.3125
0.16405278,-0.7647359,-0.33453012,-0.5317297,-0.019127307,0.059402607,-0.15705253,-0.37929013,-0.32820243,0.060129046,-3.0784562,0.6228616,0.0005016802,-0.07740311,0.0012241642,-0.001240174,0.012004162,-0.0033303807,0.010990176,0.44278848,-1.4599502,1.9967145,-2.1058867,-1.5713252,2.416468,-0.06481957,0.14124452,-0.15955092,0.026433354,-0.009713849,-0.07568599,-0.24899697,0.1340753,-9.32781,0.7709874,47.749577,-1.1691461,-1.8883154,-3.3782744,-0.06312778,-0.043174483,-0.35172564,27.25,28.3125,27.375,30.9375,32.625,33.3125
0.16605256,-0.7727143,-0.7257445,-0.3979827,-0.018803492,0.06002797,-0.1637074,-0.3794263,-0.3282071,0.06011582,-3.0784273,0.6227982,0.00047799133,-0.0784535,0.0016681941,-0.0010793995,0.0128220795,-0.0031466591,0.010920324,0.44269207,-1.4596623,1.996415,-2.1058385,-1.5713495,2.4163358,-0.06600311,0.14246176,-0.16151829,0.027367197,-0.010537527,-0.07679693,-0.3256114,0.15322891,-9.232041,0.7486078,47.741516,-1.1399776,-1.8233011,-3.3568068,-0.06097853,-0.03372334,-0.39769217,27.25,28.3125,27.375,30.9375,32.625,33.3125
0.1680522,-1.047624,-0.698366,-0.42097586,-0.027758362,0.05806364,-0.15683807,-0.37960425,-0.32821706,0.060114603,-3.0784194,0.6227543,0.00047161413,-0.07977149,0.0014893177,-0.0010578947,0.012522363,-0.0031391338,0.0162054,0.4425597,-1.4593259,1.9960316,-2.1057785,-1.571361,2.4161773,-0.06697794,0.14486347,-0.16433603,0.027639741,-0.010278962,-0.08305531,-0.36391866,0.076614454,-9.078813,0.78888994,47.72002,-1.114846,-1.8585025,-3.37117,-0.055761926,-0.031744584,-0.3636768,27.25,28.3125,27.375,30.9375,32.625,33.3125
0.170052,-0.9011499,-0.49130613,-0.20163988,-0.024662552,0.057954524,-0.1572531,-0.3797615,-0.32821018,0.060120225,-3.078428,0.6226981,0.0004972353,-0.080838434,0.002076973,-0.0006802819,0.012561305,-0.0026458453,0.016159954,0.44241512,-1.4590744,1.9957317,-2.1057417,-1.5713733,2.4159968,-0.06881849,0.14514063,-0.1656894,0.028283784,-0.01052742,-0.08484953,-0.36391866,0.1340753,-9.078813,0.91198283,47.71286,-1.1927385,-1.73331,-3.339673,-0.04105828,-0.026972339,-0.32418537,27.25,28.3125,27.375,30.9375,32.625,33.3125
0.17205186,-1.0052762,-0.327882,-0.3575297,-0.016620943,0.047162756,-0.16030665,-0.3799353,-0.32820067,0.060128115,-3.0784318,0.6226208,0.00053242216,-0.08214095,0.0024129145,-0.0005047491,0.012286639,-0.0027552848,0.018604802,0.4422583,-1.4587984,1.995397,-2.105694,-1.5713967,2.4157915,-0.070756145,0.14660782,-0.16792464,0.029024825,-0.010236691,-0.08923141,-0.40222588,0.22984336,-8.90643,0.8717007,47.70032,-0.9211362,-1.7624636,-3.3736038,-0.037142742,-0.038330976,-0.32322985,27.25,28.3125,27.375,30.9375,32.625,33.3125
0.17405167,-0.6359562,-0.03776009,-0.46611217,-0.017143633,0.051143214,-0.16200681,-0.3800784,-0.32820895,0.060118537,-3.0784228,0.6224605,0.00050917803,-0.08260007,0.0015296468,-0.00049746374,0.011774555,-0.003392416,0.025267737,0.44216266,-1.458498,1.9950722,-2.1056335,-1.571421,2.4155972,-0.069973566,0.1487855,-0.17058732,0.02985562,-0.009510521,-0.095111094,-0.3256114,0.11492168,-9.002198,0.83589023,47.728977,-1.1067828,-1.6502311,-3.4751382,-0.026297772,-0.03546434,-0.24098234,27.25,28.3125,27.375,30.9375,32.625,33.3125
0.17605184,-1.0121897,-0.7935914,-0.71980387,0.0011032489,0.040917765,-0.1510729,-0.38027143,-0.32820836,0.060121786,-3.078415,0.62239957,0.0005282643,-0.08302783,0.0028191833,-0.0023721359,0.014012367,-0.007480191,0.027310748,0.4420058,-1.4581614,1.9946779,-2.105574,-1.5714449,2.4154036,-0.07252888,0.15285845,-0.17110692,0.030947587,-0.009786025,-0.09970837,-0.30645782,0.17238252,-9.097966,0.83589023,47.729877,-1.0692793,-1.7458766,-3.3884153,-0.029808983,-0.054012746,-0.19778818,27.25,28.3125,27.375,30.9375,32.625,33.3125
0.1780518,-0.6830643,-0.7208002,-0.79696935,-0.010652671,0.05241242,-0.1539656,-0.38044202,-0.32820958,0.060136613,-3.0784469,0.62236655,0.00054854515,-0.085574076,0.0033973407,0.0005865948,0.012157566,-0.0017530845,0.029121608,0.4418488,-1.4578991,1.9943422,-2.1055257,-1.5714334,2.4152222,-0.07529835,0.149171,-0.17396006,0.031516355,-0.010563704,-0.1042868,-0.24899697,0.15322891,-9.193734,0.78888994,47.703903,-0.85354805,-1.5766041,-3.3025126,-0.028571622,-0.04087414,-0.1348938,27.25,28.3125,27.375,30.9375,32.625,33.3125
0.18005249,-0.89646393,-0.9021314,-0.9145771,-0.014799999,0.04540566,-0.15829636,-0.38057372,-0.3281784,0.060097,-3.0783489,0.62219113,0.00039610473,-0.085950464,0.002374095,0.0009590085,0.011438697,-0.0016780479,0.0319908,0.44170526,-1.4575633,1.9940304,-2.1053936,-1.5714806,2.4149818,-0.07409009,0.15053143,-0.1765666,0.03237724,-0.009967407,-0.10594583,-0.24899697,0.19153613,-9.232041,0.8247004,47.72002,-0.9911701,-1.6464425,-3.398725,-0.045491014,-0.07112917,-0.07453589,27.25,28.3125,27.375,30.9375,32.625,33.3125
0.1820525,-0.7478035,-0.8322159,-0.76516736,-0.027332947,0.052006096,-0.16007392,-0.38079098,-0.3281629,0.06012504,-3.0783715,0.622159,0.00049225014,-0.08756697,0.0035181802,0.00011351036,0.012730992,-0.0033915022,0.027889358,0.4415002,-1.4572748,1.993635,-2.1053455,-1.5715054,2.4147542,-0.07730845,0.15408303,-0.17878708,0.03314537,-0.010401443,-0.10506101,-0.30645782,0.17238252,-9.270349,0.82022345,47.71823,-0.91942894,-1.5576658,-3.3401573,-0.05271215,-0.042522583,-0.061872132,27.25,28.3125,27.375,30.9375,32.625,33.3125
0.1840523,-0.91226286,-1.082155,-1.0868331,-0.018008877,0.041836005,-0.15315354,-0.38095897,-0.32816586,0.060111795,-3.078379,0.62212443,0.0003951094,-0.087575294,0.0040033087,-0.00042465958,0.013542467,-0.005317849,0.024338027,0.44133204,-1.4569387,1.993276,-2.1052735,-1.5714687,2.4145637,-0.07822969,0.15529738,-0.17926069,0.03449739,-0.010315881,-0.10243056,-0.30645782,0.15322891,-9.289502,0.8090337,47.72002,-0.8703006,-1.6271033,-3.409546,-0.053422794,-0.040996533,-0.06307973,27.25,28.3125,27.375,30.9375,32.625,33.3125
0.18605272,-0.3805235,-0.6357184,-1.1177398,-0.018418087,0.048935395,-0.16085283,-0.38111693,-0.32815713,0.060102455,-3.0783134,0.62197876,0.00038653178,-0.088582665,0.003724519,-0.00013386404,0.01330529,-0.0058460822,0.019825457,0.4412238,-1.4566149,1.992916,-2.1051772,-1.5715407,2.4143732,-0.07885498,0.15722364,-0.18249576,0.036176518,-0.009884489,-0.098541886,-0.21068975,0.22984336,-9.481039,0.8403672,47.71823,-0.8100536,-1.4470556,-3.3963804,-0.08605279,-0.04961358,-0.07557039,27.25,28.3125,27.375,30.9375,32.625,33.3125
0.1880525,-0.7563002,-0.95723504,-1.4783425,-0.020070655,0.040463295,-0.1489425,-0.38130188,-0.32813275,0.060097083,-3.0782795,0.621975,0.0003784517,-0.09018915,0.0045108194,0.00048828067,0.013790359,-0.004769412,0.013792214,0.4410311,-1.4563031,1.9925684,-2.105117,-1.5715655,2.4141827,-0.081083804,0.15776573,-0.18479475,0.03716981,-0.010788133,-0.09473444,-0.24899697,0.2681506,-9.5385,0.84708,47.701214,-0.8300631,-1.6068897,-3.4046512,-0.08923222,-0.05840182,-0.13659076,27.25,28.3125,27.375,30.9375,32.625,33.3125
0.19005223,-0.6841012,-1.3469057,-1.5510606,-0.031591922,0.050651215,-0.15612209,-0.38146922,-0.32812867,0.060118824,-3.0782757,0.6219565,0.00035956944,-0.09021413,0.0042039263,-0.00061591045,0.014490369,-0.008139785,0.010857625,0.440875,-1.4560382,1.9921969,-2.1049964,-1.571565,2.4140158,-0.08102706,0.16154535,-0.18688104,0.038821924,-0.009985143,-0.09174325,-0.34476504,0.19153614,-9.557653,0.800085,47.675243,-0.71700025,-1.6406505,-3.4253435,-0.106605224,-0.042308968,-0.1745776,27.25,28.3125,27.375,30.9375,32.625,33.3125
0.19205222,-0.98560417,-1.1079199,-1.5521492,-0.043630216,0.05295141,-0.15847509,-0.38166422,-0.3281288,0.060118385,-3.078264,0.6218402,0.00034765428,-0.08974612,0.0048792646,-0.002397241,0.016634118,-0.01344787,0.0065401564,0.44071862,-1.4556775,1.9917778,-2.1049116,-1.5715889,2.4137886,-0.08203997,0.16536587,-0.18772706,0.041561477,-0.009658129,-0.088438824,-0.2681506,0.11492168,-9.710882,0.8291774,47.691364,-0.69110036,-1.7110615,-3.4269156,-0.15296149,-0.083179384,-0.22246537,27.25,28.3125,27.375,30.9375,32.625,33.3125
0.19405216,-1.1397378,-1.7477453,-1.6648808,-0.04613119,0.06557808,-0.15200903,-0.3818343,-0.32810974,0.060111195,-3.0781875,0.6219027,0.00027909107,-0.092287384,0.0062138382,-0.0029411933,0.017560264,-0.013804221,0.0034405405,0.44054922,-1.4553529,1.9914063,-2.1047924,-1.5716137,2.4136682,-0.08625151,0.16907887,-0.19063817,0.041474473,-0.010360625,-0.08954645,-0.2681506,0.1340753,-9.749189,0.83813137,47.687782,-0.5819423,-1.778204,-3.5146275,-0.18370657,-0.060595624,-0.25161394,27.25,28.3125,27.375,30.9375,32.625,33.3125
0.19605233,-1.2425077,-1.5360591,-1.5342431,-0.056387097,0.07372656,-0.14986345,-0.38202417,-0.3280998,0.060090594,-3.0781677,0.6218799,0.00025688435,-0.091311775,0.005057111,-0.0038858585,0.018448045,-0.01512473,0.003688852,0.44037047,-1.4549928,1.9910477,-2.1047685,-1.5716251,2.413478,-0.08302161,0.1713346,-0.19095889,0.041113816,-0.010606388,-0.086563565,-0.24899697,0.11492168,-9.768343,0.88289046,47.695843,-0.74284774,-1.9758015,-3.4940777,-0.1788908,-0.061186202,-0.29795662,27.25,28.3125,27.375,30.9375,32.625,33.3125
0.1980522,-0.97903854,-1.597632,-1.5357642,-0.036600742,0.07519513,-0.14946732,-0.38221675,-0.32809183,0.060103286,-3.0781562,0.6218389,0.00027782723,-0.09258136,0.0050599794,-0.003755692,0.01815315,-0.015224723,0.0035010297,0.44020185,-1.4546806,1.9906524,-2.1046846,-1.5716494,2.4132855,-0.08429541,0.17329903,-0.19364868,0.041797902,-0.010305551,-0.0876486,-0.2681506,0.21068975,-9.615114,0.8403672,47.71554,-0.73206806,-1.8473098,-3.4098587,-0.2086192,-0.08104907,-0.34244177,27.25,28.3125,27.375,30.9375,32.625,33.3125
0.20005181,-0.9764096,-0.85316885,-1.5548475,-0.03574683,0.062574364,-0.15874343,-0.38238645,-0.32808656,0.06007862,-3.078128,0.6218142,0.00017587084,-0.09369449,0.0043396926,-0.0031577,0.017826516,-0.013800299,0.0023131564,0.4400342,-1.4543208,1.9902924,-2.104613,-1.5716375,2.4131062,-0.0836703,0.17475843,-0.19675007,0.04201463,-0.010631585,-0.08583237,-0.24899697,0.28730422,-9.576807,0.85155696,47.7245,-0.78347963,-1.9046323,-3.3977747,-0.23335266,-0.06884256,-0.37205708,27.25,28.3125,27.375,30.9375,32.625,33.3125
0.202054,-0.3237788,-0.66076195,-1.2249826,-0.037649993,0.06782882,-0.15904929,-0.38258636,-0.32807195,0.060087632,-3.0780783,0.62184244,0.00017564023,-0.09365018,0.0039015107,-0.004213688,0.018449282,-0.01750751,0.0012273784,0.43985426,-1.4539841,1.9898723,-2.1045039,-1.5716728,2.4129505,-0.08343686,0.17866203,-0.19923106,0.044204555,-0.009621721,-0.08451374,-0.3256114,0.3256114,-9.442732,0.800085,47.68599,-0.7859378,-1.8179648,-3.492867,-0.25125644,-0.07197085,-0.4483086,27.25,28.3125,27.375,30.9375,32.625,33.3125
0.20405316,-0.16618687,-0.97777337,-1.2597464,-0.037180543,0.060251907,-0.16674542,-0.3827772,-0.32805702,0.060071416,-3.0780256,0.6218294,0.00012280702,-0.09450299,0.0034265064,-0.0034903744,0.017758423,-0.0151194995,0.0043313703,0.43967444,-1.4536129,1.9894775,-2.104421,-1.5716971,2.4127696,-0.08297741,0.1785476,-0.20060003,0.043227755,-0.010029488,-0.087155916,-0.24899697,0.30645782,-9.500193,0.8247004,47.698532,-0.8858476,-1.7836257,-3.507546,-0.27110374,-0.068913355,-0.45792437,27.25,28.3125,27.375,30.9375,32.625,33.3125
0.20605199,-0.4021166,-1.2557626,-1.1540788,-0.055735942,0.05713766,-0.15549324,-0.38299504,-0.32805696,0.0600944,-3.0780413,0.62171406,0.00020034958,-0.09561436,0.003153534,-0.0030340592,0.017518122,-0.012659289,0.007711827,0.4395066,-1.4532773,1.989035,-2.1043494,-1.5717334,2.412528,-0.08283003,0.17909564,-0.20196627,0.04171179,-0.01086806,-0.09038637,-0.19153613,0.30645782,-9.500193,0.88960326,47.709274,-0.9772436,-1.7416308,-3.521223,-0.25928453,-0.08109683,-0.47253305,27.25,28.3125,27.375,30.9375,32.625,33.3125
0.20805205,0.15953794,-1.5261164,-1.0419891,-0.06492849,0.071364336,-0.15803143,-0.38317204,-0.3280503,0.06006694,-3.0779972,0.6216817,9.342911e-05,-0.096898474,0.0028962963,-0.002461655,0.017237412,-0.012018023,0.015040904,0.43933833,-1.4528934,1.9886512,-2.1042655,-1.5717334,2.4123454,-0.08340261,0.18055752,-0.20521608,0.04278898,-0.010908467,-0.098285384,-0.05746084,0.30645782,-9.3661175,0.95897776,47.737038,-1.0084594,-1.893043,-3.5338178,-0.27930948,-0.06968348,-0.41782618,27.25,28.3125,27.375,30.9375,32.625,33.3125
0.21005212,-0.37515587,-1.2472001,-1.0056907,-0.06035034,0.04139989,-0.15925805,-0.38334292,-0.32805592,0.0600551,-3.0779867,0.6215048,2.6922784e-05,-0.09750094,0.0029642745,-0.0025871482,0.017852504,-0.012829884,0.018320214,0.43920633,-1.4525336,1.9882554,-2.1041687,-1.5717453,2.4121046,-0.08386248,0.18229671,-0.20721158,0.044035472,-0.0111330515,-0.10202243,-0.038307227,0.3256114,-9.289502,0.8224646,47.701214,-1.0446231,-1.7061594,-3.527075,-0.28931507,-0.060056552,-0.40099263,27.25,28.3125,27.375,30.9375,32.625,33.3125
0.21205182,-0.21556106,-1.586064,-1.3013364,-0.030217014,0.026644018,-0.1433995,-0.38355255,-0.32804507,0.060069617,-3.0779815,0.6214598,9.027067e-05,-0.09925505,0.0026223704,-0.0010680177,0.016169345,-0.009499469,0.027265519,0.43902603,-1.4522105,1.9878486,-2.104109,-1.5717815,2.4118972,-0.08476802,0.18166226,-0.2099553,0.04366553,-0.0110412,-0.111872345,0.05746084,0.24899697,-9.251195,0.8940802,47.71465,-1.0144656,-1.6426144,-3.4674096,-0.3294506,-0.060842738,-0.31971657,27.25,28.3125,27.375,30.9375,32.625,33.3125
0.21405175,0.1020266,-1.0359912,-0.9725065,-0.020205729,0.010686331,-0.14495094,-0.38375077,-0.3280374,0.06006303,-3.0779538,0.6214139,4.2725085e-05,-0.101679035,0.0019784307,0.00020076171,0.014054172,-0.00570027,0.030004993,0.43884557,-1.4518387,1.9874276,-2.1040142,-1.5717934,2.411692,-0.08582476,0.18258137,-0.21357542,0.04201969,-0.01076353,-0.115666255,0.095768064,0.21068975,-9.289502,0.83589023,47.72808,-1.0135392,-1.5814719,-3.4372277,-0.31824535,-0.09122914,-0.26281574,27.25,28.3125,27.375,30.9375,32.625,33.3125
0.21605161,1.1010456,-0.2838529,-1.0430151,-0.028936367,0.026280934,-0.16935664,-0.38396922,-0.32804382,0.06006069,-3.0779488,0.6212569,5.8285117e-05,-0.102863386,0.0021242965,-0.000247154,0.014196238,-0.0049475315,0.033106633,0.43868938,-1.4514306,1.9869617,-2.103943,-1.5718292,2.4114387,-0.086766705,0.18474092,-0.21463466,0.04028908,-0.011225063,-0.11970738,-0.019153614,0.22984336,-9.232041,0.88960326,47.695843,-1.0434091,-1.5905676,-3.3576746,-0.2985736,-0.058958657,-0.19383854,27.25,28.3125,27.375,30.9375,32.625,33.3125
0.21805249,0.20366535,-0.7875078,-1.1242551,-0.018594978,0.0033418036,-0.15574534,-0.38419786,-0.32803753,0.060083337,-3.077959,0.6211242,0.0001480223,-0.104077496,0.0016456052,0.0002614144,0.012925816,-0.0037414674,0.033923563,0.4385092,-1.4510831,1.9865059,-2.103871,-1.5718774,2.4111748,-0.087298006,0.18582961,-0.21698916,0.03991183,-0.010591545,-0.12105606,0.076614454,0.24899697,-9.270349,0.8605109,47.711063,-1.0468042,-1.549242,-3.377736,-0.30339825,-0.098964304,-0.15899889,27.25,28.3125,27.375,30.9375,32.625,33.3125
0.22005227,0.39115727,-0.8471146,-1.4109352,-0.032952726,0.019290334,-0.15030198,-0.38438553,-0.32803333,0.06008673,-3.077955,0.62108487,8.960323e-05,-0.1053291,0.001574733,0.00080353377,0.012665943,-0.002316574,0.03263622,0.43832892,-1.4507475,1.9860991,-2.1037633,-1.5718654,2.4109707,-0.08794967,0.18666874,-0.2192253,0.039910268,-0.010971282,-0.12041783,0.15322891,0.30645782,-9.32781,0.9097417,47.72719,-1.0493885,-1.4113568,-3.4684536,-0.30991593,-0.09289641,-0.14615092,27.25,28.3125,27.375,30.9375,32.625,33.3125
0.2220521,0.4167373,-0.92800355,-1.4025968,-0.052915297,0.03622424,-0.15492985,-0.38460034,-0.3280096,0.060073577,-3.0778944,0.62099844,8.347403e-05,-0.10700797,0.0012752404,0.00041451774,0.012685678,-0.0029029483,0.027841898,0.43813664,-1.4503509,1.9856676,-2.10368,-1.5719255,2.4107325,-0.08894561,0.19083378,-0.22311331,0.04016788,-0.010751774,-0.116616845,0.076614454,0.3256114,-9.404425,0.9835985,47.693153,-1.0946107,-1.5253932,-3.3388681,-0.30718696,-0.08734971,-0.17462862,27.25,28.3125,27.375,30.9375,32.625,33.3125
0.2240522,-0.62251735,-1.7249019,-1.6108466,-0.058915865,0.027833974,-0.15147421,-0.38477927,-0.3280231,0.06005689,-3.077907,0.6208304,-5.8665006e-05,-0.107996434,0.00039478528,8.847061e-05,0.012522943,-0.003451266,0.023594154,0.43798086,-1.4499542,1.9852356,-2.1035597,-1.5718893,2.4104705,-0.08836627,0.19447573,-0.22656159,0.040409606,-0.010384838,-0.11178748,-0.05746084,0.2681506,-9.500193,0.9231726,47.686886,-0.9384406,-1.5814481,-3.319147,-0.30592975,-0.074324906,-0.22259307,27.25,28.3125,27.375,30.9375,32.625,33.3125
0.22605246,-0.87715614,-2.2879872,-1.6347828,-0.06534045,0.04227631,-0.14879337,-0.38500103,-0.32799843,0.060075153,-3.0778332,0.6207582,4.0533163e-05,-0.10896232,-0.00015671708,0.00047465818,0.012008955,-0.0017258349,0.021122687,0.437813,-1.4496067,1.9847811,-2.103452,-1.5719975,2.4102674,-0.08794456,0.19549221,-0.22843108,0.039473504,-0.010655486,-0.10889233,-0.1340753,0.30645782,-9.634268,0.83365434,47.70211,-1.2006574,-1.7902201,-3.3737888,-0.31722322,-0.10921234,-0.2918502,27.25,28.3125,27.375,30.9375,32.625,33.3125
0.22805235,-1.0917352,-2.4436986,-1.5380908,-0.079502925,0.06980137,-0.1556256,-0.3852053,-0.3280012,0.060045436,-3.0778215,0.6207974,-9.7009965e-05,-0.10954936,0.0019408752,-0.0015313055,0.014382534,-0.005014137,0.016640738,0.43760753,-1.4491744,1.9843501,-2.103381,-1.5719494,2.410088,-0.091768645,0.19852228,-0.22725537,0.03925896,-0.011418463,-0.108232014,-0.19153613,0.34476504,-9.691729,0.84484416,47.694054,-0.9237838,-1.8243055,-3.4743822,-0.32753792,-0.09683678,-0.32483363,27.25,28.3125,27.375,30.9375,32.625,33.3125
0.23005229,-1.3304368,-2.360711,-1.432249,-0.079950236,0.07385088,-0.15291291,-0.38545722,-0.3280192,0.060086887,-3.077856,0.62068677,5.1523708e-05,-0.109695084,0.00037442212,-0.0012690632,0.0127157075,-0.003990669,0.018585365,0.43745244,-1.4488024,1.9838232,-2.1033094,-1.571997,2.40986,-0.08963881,0.19959554,-0.22887747,0.038164195,-0.010340592,-0.10804926,-0.21068975,0.47884035,-9.672575,0.82694155,47.689575,-1.1729176,-1.7487259,-3.5808578,-0.30502847,-0.10681546,-0.33381635,27.25,28.3125,27.375,30.9375,32.625,33.3125
0.23205215,-0.7952678,-1.8617482,-1.4618548,-0.07396141,0.08060144,-0.15788063,-0.38562807,-0.32800865,0.060044967,-3.0778077,0.6205621,-0.00010250691,-0.1105771,0.0008954961,-0.0025649942,0.013402708,-0.0047424613,0.015985794,0.437284,-1.448394,1.9834408,-2.103214,-1.5719975,2.40962,-0.09110282,0.2026897,-0.22899133,0.03615704,-0.010662803,-0.10691073,-0.28730422,0.38307226,-9.653421,0.9186956,47.70838,-1.1006474,-1.7885506,-3.6453402,-0.2929313,-0.108051136,-0.3506549,27.25,28.3125,27.375,30.9375,32.625,33.3125
0.234052,-1.2203857,-1.9411098,-1.3052956,-0.0711006,0.07344979,-0.14883526,-0.3858598,-0.32800558,0.06003808,-3.0777833,0.6205562,-9.681296e-05,-0.11187918,0.00088361447,-0.0029892433,0.012768491,-0.004030596,0.016941113,0.43709162,-1.447974,1.9829735,-2.103155,-1.5720209,2.4094274,-0.09231541,0.20494907,-0.23017466,0.034159116,-0.010402385,-0.10907787,-0.38307226,0.40222588,-9.5385,0.8672237,47.693153,-1.1095166,-1.7512132,-3.6940231,-0.2462607,-0.13277172,-0.36920625,27.25,28.3125,27.375,30.9375,32.625,33.3125
0.23605193,-1.1797885,-1.5073919,-1.2351465,-0.06448001,0.068431266,-0.1528121,-0.38610396,-0.32801858,0.060052745,-3.0778027,0.62052315,-4.1745305e-05,-0.11359043,0.0012173081,-0.002028211,0.011462284,-0.0021481488,0.014071171,0.43691075,-1.4475669,1.9824709,-2.1030953,-1.5720328,2.4092238,-0.09460187,0.2047876,-0.23227458,0.03415866,-0.0100170225,-0.108494796,-0.40222588,0.38307226,-9.481039,0.87617236,47.694946,-1.1340997,-1.7104294,-3.6946921,-0.21789259,-0.13748045,-0.402359,27.25,28.3125,27.375,30.9375,32.625,33.3125
0.23805176,-0.74294084,-1.065895,-1.3061788,-0.051387154,0.07392267,-0.16376641,-0.3863159,-0.32802984,0.060047083,-3.0778198,0.6205014,-7.9795245e-05,-0.11469525,-0.000117135845,-0.0018581812,0.011578886,-0.00048763465,0.023271302,0.43673143,-1.4471709,1.9820269,-2.1030357,-1.5720094,2.409029,-0.09247541,0.20777568,-0.23589763,0.03333191,-0.01084529,-0.11556368,-0.40222588,0.30645782,-9.557653,0.8784135,47.694946,-1.1676762,-1.7327048,-3.6531477,-0.19470999,-0.13948497,-0.38137287,27.25,28.3125,27.375,30.9375,32.625,33.3125
0.24005245,-1.2080669,-1.2087411,-1.1780456,-0.032129902,0.07384545,-0.15559357,-0.3865743,-0.3280451,0.060082477,-3.0778644,0.62025917,6.71164e-05,-0.11752157,0.00024850588,-0.0010113157,0.010283944,0.0026178414,0.025022658,0.4365746,-1.4467751,1.9814867,-2.1029642,-1.5720695,2.4087157,-0.09543547,0.20911542,-0.23906058,0.03177832,-0.010992677,-0.12027337,-0.51714754,0.22984336,-9.500193,0.8918391,47.67166,-1.2193911,-1.67327,-3.7315316,-0.17611682,-0.14378284,-0.34749043,27.25,28.3125,27.375,30.9375,32.625,33.3125
0.24205244,-1.2470106,-0.78407866,-1.2139046,-0.0363006,0.0883873,-0.15969893,-0.38681033,-0.32803714,0.060062077,-3.077868,0.62025535,3.723567e-05,-0.11937223,-0.00045010855,-0.00012976308,0.009334417,0.0051299124,0.032766614,0.43634638,-1.4463432,1.9810442,-2.1029403,-1.5720571,2.408485,-0.09552026,0.2106997,-0.2428245,0.0312682,-0.011213566,-0.12809916,-0.5363012,0.22984336,-9.423578,0.8672237,47.672558,-1.0451055,-1.7392547,-3.5575948,-0.13498624,-0.174521,-0.2724187,27.25,28.3125,27.375,30.9375,32.625,33.3125
0.24405226,-1.4592173,-0.8070967,-1.0772548,-0.025711277,0.10117967,-0.156284,-0.3870472,-0.32803583,0.06005227,-3.077858,0.62013435,2.6355112e-05,-0.120385155,-1.4341098e-05,0.00018499678,0.010001921,0.004423728,0.038127284,0.4361542,-1.4458995,1.980553,-2.1028674,-1.5720814,2.4082189,-0.09691594,0.21201186,-0.24565664,0.033696063,-0.011531381,-0.13485345,-0.47884035,0.13407528,-9.32781,0.90750587,47.682407,-1.1754962,-1.6711075,-3.5989943,-0.12015826,-0.16451786,-0.16569498,27.25,28.3125,27.375,30.9375,32.625,33.3125
0.2460523,-1.0616266,-0.48893288,-0.97093195,-0.012135723,0.10367355,-0.15323626,-0.38728896,-0.32804304,0.060067497,-3.0778978,0.6199515,9.28869e-05,-0.12294769,-0.0003428299,0.0020246925,0.007664431,0.0070020487,0.036885366,0.43597338,-1.4455037,1.9800609,-2.1028073,-1.5721053,2.4079192,-0.09913003,0.21242242,-0.2507058,0.035000127,-0.010505386,-0.13582632,-0.51714754,0.0,-9.270349,0.8717007,47.70211,-1.0904192,-1.733048,-3.2839074,-0.11523435,-0.17364874,-0.09626448,27.25,28.3125,27.375,30.9375,32.625,33.3125
0.24805202,-0.9586017,-0.08358178,-0.9728709,0.0015162455,0.102917545,-0.15798415,-0.3875392,-0.32804352,0.06004223,-3.077904,0.6198174,4.5875953e-05,-0.12416401,-0.00031903936,0.0024583652,0.008132689,0.0072312295,0.037194327,0.4357571,-1.4450125,1.9795569,-2.1027586,-1.5721053,2.4076188,-0.099788785,0.21404414,-0.25399345,0.03665435,-0.011035209,-0.13679087,-0.61291564,0.0,-9.193734,0.8605109,47.70032,-1.0954069,-1.7518592,-3.2238712,-0.09998298,-0.19925301,-0.07929498,27.25,28.3125,27.375,30.9375,32.625,33.3125
0.2500517,-0.9321608,0.2817866,-1.1414826,0.011787009,0.088442914,-0.14906555,-0.38779756,-0.32803416,0.060065597,-3.0778959,0.6197425,9.155729e-05,-0.12447438,0.0012222542,0.001694391,0.010465423,0.004404319,0.029840978,0.43554017,-1.444605,1.979019,-2.1026385,-1.572142,2.4073565,-0.10221245,0.21558747,-0.2546656,0.039334316,-0.011945382,-0.13185918,-0.7469909,0.17238252,-9.251195,0.8784135,47.7254,-0.9286715,-1.4792858,-3.3469844,-0.09057173,-0.18313134,-0.12523305,27.25,28.3125,27.375,30.9375,32.625,33.3125
0.2520525,-1.542321,-0.005543431,-1.0438479,0.004015429,0.08040716,-0.14873773,-0.38806516,-0.32803416,0.060078397,-3.0779052,0.6196711,0.00023575607,-0.1258771,0.001602926,0.0022906568,0.010296085,0.0059514293,0.023822896,0.43534786,-1.4441851,1.978516,-2.1026266,-1.5722016,2.4071188,-0.10371562,0.21594307,-0.25651962,0.03935779,-0.012434318,-0.12734303,-0.61291564,0.05746084,-9.289502,0.84484416,47.70659,-0.88899946,-1.6255153,-3.3197184,-0.0807656,-0.18128112,-0.16221337,27.25,28.3125,27.375,30.9375,32.625,33.3125
0.25405225,-1.4781371,-0.6509736,-0.94842494,-0.009396442,0.087529376,-0.14451855,-0.38827422,-0.32802123,0.060035616,-3.0778437,0.619584,6.8605026e-05,-0.12594122,0.0027801385,0.001580855,0.011782052,0.005146079,0.017973755,0.43514326,-1.4437065,1.9780496,-2.1025074,-1.5722021,2.406868,-0.10519126,0.21624522,-0.25529617,0.039197378,-0.01345163,-0.12296603,-0.49799395,0.019153614,-9.3661175,0.8672237,47.689575,-0.83601165,-1.4307027,-3.3775315,-0.04183335,-0.18219882,-0.23137999,27.25,28.3125,27.375,30.9375,32.625,33.3125
0.25605196,-1.0260448,-0.3439363,-0.94435036,-0.029706663,0.09564312,-0.15177329,-0.38854665,-0.32802063,0.060062516,-3.0778658,0.61959106,0.00014789202,-0.12601164,0.0033413733,-0.00091586856,0.014187135,-0.0011661394,0.012764803,0.43491486,-1.4432969,1.9775113,-2.1024334,-1.5722145,2.4066415,-0.10651732,0.22267497,-0.25744492,0.041654617,-0.012961352,-0.11908371,-0.57460845,0.019153614,-9.346964,0.8717007,47.73525,-0.7638346,-1.5736669,-3.5844378,-0.045965508,-0.20404923,-0.28292334,27.25,28.3125,27.375,30.9375,32.625,33.3125
0.2580521,-1.2138906,-0.6507339,-1.0273468,-0.016498607,0.07933765,-0.15032034,-0.3888115,-0.32798243,0.06006428,-3.0777876,0.6196143,0.00018067681,-0.12608147,0.0037040978,-0.0022224498,0.016055757,-0.0041976455,0.00974086,0.43466282,-1.4428645,1.9769973,-2.1023262,-1.572286,2.4064143,-0.10687281,0.22614308,-0.25875252,0.043025207,-0.013381158,-0.11641311,-0.51714754,0.019153614,-9.289503,0.9612189,47.74062,-0.7944703,-1.733046,-3.5883205,-0.029123437,-0.2044884,-0.32608324,27.25,28.3125,27.375,30.9375,32.625,33.3125
0.2600519,-0.45117366,-0.42196536,-0.8774415,0.0020909128,0.068030745,-0.1571291,-0.38908488,-0.32800198,0.060086787,-3.077821,0.61958385,0.000265625,-0.12732935,0.0030450723,-0.001977341,0.015405176,-0.003995153,0.0077605313,0.43447083,-1.4424206,1.9764332,-2.1022656,-1.5722979,2.4061995,-0.10697386,0.228617,-0.26233855,0.043677486,-0.012875578,-0.11453392,-0.2873042,-0.038307227,-9.232041,0.8537928,47.72271,-0.81730986,-1.7373646,-3.5428932,-0.037555803,-0.19837719,-0.39256755,27.25,28.3125,27.375,30.9375,32.625,33.3125
0.26205164,0.32934186,-0.022623667,-0.81348515,0.008177755,0.068181634,-0.1504951,-0.3893194,-0.32797736,0.06003852,-3.07771,0.6195808,0.0001565529,-0.1284369,0.0029517096,-0.0019194206,0.01614484,-0.003195401,0.005920409,0.4342549,-1.4419048,1.975942,-2.1021698,-1.5723461,2.405996,-0.106991306,0.2305719,-0.26480177,0.043770395,-0.013902029,-0.11270561,-0.17238252,-0.019153614,-9.212888,0.87617236,47.71286,-0.9029815,-1.8124297,-3.7206762,-0.019491818,-0.20258868,-0.46142197,27.25,28.3125,27.375,30.9375,32.625,33.3125
0.26405242,0.17607675,-0.3889334,-0.8965864,0.012383231,0.041700106,-0.15586008,-0.38957044,-0.32797772,0.06004342,-3.0777225,0.6195231,0.00015565398,-0.1297796,0.0019715927,-0.0015011729,0.015935687,-0.0024764873,0.00799332,0.43403924,-1.4414729,1.9754261,-2.1020863,-1.5723461,2.4057431,-0.106166445,0.23341312,-0.2692444,0.04462706,-0.014025714,-0.1139509,-0.21068975,0.1340753,-9.193734,0.9545008,47.687782,-0.96507335,-1.6824117,-3.5705092,0.00052691065,-0.22526228,-0.50264937,27.25,28.3125,27.375,30.9375,32.625,33.3125
0.26605216,0.11085748,-1.1629268,-0.9701544,-0.0038333994,0.031028172,-0.14688885,-0.3898306,-0.32796007,0.060021836,-3.0776477,0.6194684,0.00013290772,-0.13159437,0.0020375694,-0.00045311823,0.015832048,-0.001305487,0.010469801,0.43382266,-1.4409691,1.9748868,-2.1019895,-1.5724066,2.4055023,-0.107479356,0.23455359,-0.27348852,0.046609454,-0.01444213,-0.11773657,-0.19153613,0.2681506,-9.136273,0.86945957,47.687782,-0.7275276,-1.7369201,-3.381463,0.0008780637,-0.20523605,-0.53033394,27.25,28.3125,27.375,30.9375,32.625,33.3125
0.2680518,0.40933987,-1.3810809,-1.1608981,-0.031290904,0.0274363,-0.16017789,-0.3900778,-0.32795402,0.060037263,-3.0776303,0.61943823,0.00011192452,-0.13183913,0.0019945526,0.00042547937,0.015662301,-0.0012472133,0.020732746,0.4336067,-1.4405502,1.974347,-2.1018445,-1.5724186,2.40527,-0.10759063,0.2338105,-0.27530304,0.04901895,-0.014328688,-0.12811069,-0.11492168,0.47884035,-9.193734,0.8940802,47.71017,-1.016226,-1.6115913,-3.359064,0.0011154775,-0.19956723,-0.43219423,27.25,28.3125,27.375,30.9375,32.625,33.3125
0.27005255,0.105285406,-2.4984124,-1.2870117,-0.06519625,0.017612929,-0.1500386,-0.39035657,-0.32792115,0.060012214,-3.077543,0.61935854,8.280768e-05,-0.13274342,0.0028063743,0.0006163057,0.017369468,-0.002725594,0.029168436,0.43335405,-1.4400218,1.9737848,-2.1017363,-1.5724906,2.4049792,-0.10912973,0.23533934,-0.27839363,0.052611012,-0.015280577,-0.13808097,-0.019153614,0.57460845,-9.32781,0.83589023,47.711063,-0.7523786,-1.7517898,-3.4620295,-0.029595051,-0.18820813,-0.36739457,27.25,28.3125,27.375,30.9375,32.625,33.3125
0.27205235,-0.33028454,-2.9809988,-1.0804129,-0.10953412,0.02897128,-0.15238349,-0.39059708,-0.327927,0.05999534,-3.077516,0.6192135,2.6128904e-05,-0.13255605,0.002720479,0.00046346284,0.018325865,-0.005483078,0.037933122,0.43317422,-1.4395307,1.9732455,-2.1016266,-1.5725149,2.4047127,-0.10890353,0.23697479,-0.28083387,0.056296602,-0.015010223,-0.14661886,-0.076614454,0.5554548,-9.308657,0.87617236,47.744205,-0.92366874,-1.706161,-3.3858032,-0.066626415,-0.2220401,-0.24896654,27.25,28.3125,27.375,30.9375,32.625,33.3125
0.27405232,-0.37501237,-2.9936938,-1.2149163,-0.10803153,0.039666977,-0.15497732,-0.39086643,-0.32790482,0.059996165,-3.077494,0.6191292,-2.7989137e-05,-0.13204353,0.003396796,-0.0009638118,0.020888899,-0.010129877,0.042323515,0.43291017,-1.4390626,1.9726833,-2.1014826,-1.5725268,2.4043992,-0.10934718,0.24013342,-0.28197116,0.059555177,-0.015400146,-0.1514509,-0.11492168,0.6703765,-9.32781,0.91198283,47.7245,-0.99344236,-1.7372315,-3.4866245,-0.12498148,-0.21041538,-0.18320373,27.25,28.3125,27.375,30.9375,32.625,33.3125
0.27605203,-0.8037841,-2.8681736,-1.2084864,-0.09366061,0.052313745,-0.13222638,-0.39111337,-0.32792878,0.059985995,-3.0775087,0.6188813,-0.00010648483,-0.13275525,0.0029533908,0.0001611888,0.019222818,-0.009737713,0.042187136,0.4327422,-1.438548,1.9720963,-2.10135,-1.5725263,2.404075,-0.10993068,0.23968345,-0.28462052,0.061591838,-0.014065984,-0.15190047,-0.11492168,0.68953013,-9.32781,0.86945957,47.729877,-1.0298114,-1.6632311,-3.536222,-0.15269902,-0.22108863,-0.14748088,27.25,28.3125,27.375,30.9375,32.625,33.3125
0.27805173,-0.6436491,-1.9876481,-0.9465705,-0.073889494,0.0602303,-0.14605387,-0.3913828,-0.3279173,0.059978895,-3.0774736,0.6188,-0.00012164825,-0.13191608,0.0027081738,-0.00046846367,0.01965532,-0.01213327,0.038393877,0.4325142,-1.4380565,1.9715337,-2.1012418,-1.5725626,2.403801,-0.10906413,0.24067111,-0.28474438,0.06308293,-0.013453709,-0.14724235,-0.019153614,0.59376204,-9.3661175,0.8537928,47.69763,-0.9672668,-1.5463376,-3.541645,-0.19212107,-0.22859648,-0.15092261,27.25,28.3125,27.375,30.9375,32.625,33.3125
0.28005248,0.5353436,-1.0419366,-1.1156642,-0.045963775,0.07234956,-0.16327488,-0.391687,-0.327911,0.05999333,-3.0774963,0.61871135,-8.508521e-05,-0.13308217,0.0028116188,-0.000988355,0.019354386,-0.01340754,0.032010578,0.4322499,-1.4375641,1.9709233,-2.101146,-1.572574,2.4034789,-0.110667095,0.24370371,-0.2871923,0.06353101,-0.012645438,-0.14246328,-0.038307227,0.45968673,-9.270349,0.8605109,47.687782,-1.0779135,-1.7006445,-3.6081414,-0.2097322,-0.24189161,-0.20744549,27.25,28.3125,27.375,30.9375,32.625,33.3125
0.28205228,0.24812631,-0.4430224,-0.81733567,-0.043788042,0.049935043,-0.14512761,-0.39191666,-0.32789853,0.059941966,-3.0773923,0.61863506,-0.000276264,-0.13409293,0.0019661137,-0.00048907835,0.018876668,-0.0119681135,0.026968557,0.43204623,-1.4370123,1.9703826,-2.10099,-1.5725979,2.4032412,-0.10976072,0.24521396,-0.29015717,0.06348546,-0.01283872,-0.13651063,-0.05746084,0.30645782,-9.174581,0.87617236,47.704796,-1.0385568,-1.7813115,-3.60217,-0.22427249,-0.26161322,-0.28846,27.25,28.3125,27.375,30.9375,32.625,33.3125
0.28405216,0.28122926,-0.9036484,-1.0793074,-0.007024157,0.024357917,-0.14605086,-0.3921929,-0.32789415,0.05994477,-3.0773566,0.61853194,-0.00023926576,-0.13574052,0.001950173,-0.00057729636,0.018779706,-0.01166631,0.024790999,0.4318417,-1.4365207,1.9697965,-2.1008823,-1.572658,2.4029772,-0.111006066,0.24806283,-0.29327464,0.06343095,-0.012887902,-0.13557623,0.095768064,0.24899697,-9.078813,0.90750587,47.71554,-1.1079209,-1.8724293,-3.4082732,-0.24310237,-0.26701593,-0.32012278,27.25,28.3125,27.375,30.9375,32.625,33.3125
0.28605196,0.9474247,-0.07213272,-1.1328574,0.007379503,0.005833026,-0.14918698,-0.3924904,-0.32791248,0.059961513,-3.0773625,0.61847585,-0.00019073799,-0.13739714,0.0020798922,-0.00052571186,0.018780693,-0.011638539,0.023047466,0.43163723,-1.4360046,1.9691509,-2.100775,-1.5726818,2.4027374,-0.11253771,0.250697,-0.29665247,0.06414476,-0.01290647,-0.13536279,0.17238252,0.15322891,-9.232041,0.7978386,47.679718,-1.0036786,-1.868403,-3.3919177,-0.23984346,-0.27894175,-0.348074,27.25,28.3125,27.375,30.9375,32.625,33.3125
0.2880518,1.2814115,0.0791914,-1.0054688,0.0029363555,0.0042599994,-0.15737419,-0.3927546,-0.32790658,0.059942298,-3.077337,0.6183747,-0.00025833104,-0.13861196,0.0021696782,-0.0006847886,0.01980968,-0.011866829,0.022785489,0.43140924,-1.4354889,1.9685873,-2.1006663,-1.5726942,2.4024498,-0.113071755,0.2534392,-0.29973048,0.065116435,-0.013763076,-0.13562974,0.095768064,0.05746084,-9.289502,0.8806493,47.709274,-1.0157641,-1.8245077,-3.3621178,-0.2934819,-0.28025237,-0.37514436,27.25,28.3125,27.375,30.9375,32.625,33.3125
0.2900517,0.7711434,-0.43571636,-1.5158303,-0.0028272257,-0.00032483463,-0.14886531,-0.3930283,-0.32789817,0.05993004,-3.077292,0.61826766,-0.0003697458,-0.14020656,0.0017878815,-0.0007046928,0.0190007,-0.009559004,0.024967974,0.4311688,-1.4349493,1.9679645,-2.100488,-1.5727066,2.4021487,-0.113446206,0.2554396,-0.30146033,0.06240197,-0.0140248975,-0.13818298,0.05746084,0.095768064,-9.270349,0.9835985,47.704796,-1.0802841,-1.9776022,-3.424388,-0.2658335,-0.30238858,-0.3858535,27.25,28.3125,27.375,30.9375,32.625,33.3125
0.2920525,0.4624244,-0.57973564,-1.3028266,-0.035071187,0.03597544,-0.15677786,-0.39325836,-0.32786998,0.059888355,-3.0771906,0.61810786,-0.0005266678,-0.14081602,0.0021761295,-0.0016213852,0.019950392,-0.010429966,0.029778272,0.43095276,-1.4344332,1.9674381,-2.10032,-1.5727547,2.4018462,-0.11423075,0.25791952,-0.30215102,0.061781175,-0.014563438,-0.1437732,0.0,0.076614454,-9.270349,0.83589023,47.67614,-1.0341464,-2.037319,-3.43186,-0.26149833,-0.30123895,-0.33239233,27.25,28.3125,27.375,30.9375,32.625,33.3125
0.29405236,-0.40772036,-0.9844292,-1.284487,-0.05250537,0.057976253,-0.16014925,-0.3935447,-0.32788262,0.059891213,-3.077198,0.6180484,-0.0005732459,-0.1414855,0.0025238232,-0.001549408,0.02025493,-0.011991048,0.03684323,0.43072435,-1.4339056,1.9668044,-2.100188,-1.5727423,2.40158,-0.1155548,0.25932458,-0.3046238,0.064373925,-0.014212598,-0.15216242,-0.038307227,0.11492168,-9.404425,0.8985519,47.672558,-1.042503,-2.0763876,-3.4455004,-0.29909885,-0.29527482,-0.2613419,27.25,28.3125,27.375,30.9375,32.625,33.3125
0.29605222,-0.90601766,-1.6055082,-1.4644681,-0.049070038,0.07506774,-0.15393668,-0.3938294,-0.3278857,0.059895612,-3.077201,0.61785084,-0.00052575266,-0.14433648,0.0020984835,-0.0002593689,0.01821722,-0.0069434005,0.043968517,0.43052006,-1.4334023,1.9662031,-2.1000936,-1.572791,2.4012525,-0.11689546,0.26012644,-0.30793878,0.06142192,-0.014501904,-0.16062522,0.0,0.095768064,-9.5385,0.90750587,47.71017,-1.0040278,-1.9866586,-3.4362786,-0.2930021,-0.3122028,-0.15113702,27.25,28.3125,27.375,30.9375,32.625,33.3125
0.2980524,-1.5291189,-1.8926328,-1.6204141,-0.061495733,0.08726794,-0.14342183,-0.39412943,-0.3278694,0.059891615,-3.0771642,0.6177666,-0.00061164115,-0.14472619,0.0025484755,-0.0005040757,0.017710485,-0.0059819953,0.045690138,0.43024334,-1.432851,1.965547,-2.0999143,-1.5728029,2.4009283,-0.11794627,0.25984362,-0.3067363,0.059405286,-0.014466117,-0.16339727,-0.22984336,0.21068975,-9.634268,0.86945957,47.737934,-0.9400977,-2.0809877,-3.5008717,-0.2704947,-0.32757598,-0.100250766,27.25,28.3125,27.375,30.9375,32.625,33.3125
0.3000522,-1.1813446,-1.595392,-1.6847678,-0.06628698,0.11423949,-0.14934784,-0.39441043,-0.32785782,0.059862543,-3.077126,0.61766326,-0.0007090563,-0.14565454,0.0020039652,-0.00012459613,0.017018428,-0.0039143297,0.044611413,0.42999172,-1.432288,1.9649485,-2.099795,-1.5728148,2.4006174,-0.117450885,0.26055744,-0.308241,0.058027476,-0.0147189405,-0.16182016,-0.49799395,0.2681506,-9.710882,0.93436235,47.71823,-1.0025446,-1.9031267,-3.6300416,-0.27414745,-0.33388895,-0.051644705,27.25,28.3125,27.375,30.9375,32.625,33.3125
0.302052,-1.715411,-1.7786595,-1.9443364,-0.053597797,0.1128849,-0.1432675,-0.39470378,-0.32788804,0.059895772,-3.0771782,0.61740947,-0.00061387086,-0.1490206,0.002131939,0.0015106888,0.014655302,0.0016623952,0.037322134,0.4298224,-1.4317971,1.9642891,-2.0996768,-1.5728511,2.4002833,-0.120310664,0.26064688,-0.31156707,0.055212546,-0.014892537,-0.15738867,-0.6895301,0.2681506,-9.883265,0.8940802,47.70838,-0.8787644,-1.7830939,-3.6733706,-0.24999657,-0.33724707,-0.090890855,27.25,28.3125,27.375,30.9375,32.625,33.3125
0.3040516,-1.9310135,-1.4960269,-1.9125772,-0.055659425,0.11909795,-0.1457022,-0.39499867,-0.3278593,0.05986278,-3.0771103,0.6174351,-0.00068745564,-0.14896831,0.00060721225,0.0009158594,0.014301052,0.0026594,0.03332479,0.4295358,-1.4312335,1.9637035,-2.0995815,-1.5728749,2.4000218,-0.11728138,0.26296458,-0.31240362,0.05268629,-0.0149907665,-0.15035956,-0.7469909,0.11492168,-9.80665,0.9410752,47.694946,-1.0836141,-1.7458901,-3.6171904,-0.20750901,-0.36636284,-0.1446914,27.25,28.3125,27.375,30.9375,32.625,33.3125
0.30605242,-1.6443539,-1.035125,-1.6520178,-0.053079095,0.12949699,-0.14157747,-0.39529437,-0.32786658,0.059863865,-3.077131,0.6172901,-0.00067795947,-0.15154321,0.0007866918,0.0011400492,0.013164822,0.0051387823,0.025070151,0.42930698,-1.4307058,1.9630808,-2.099487,-1.5728868,2.3997002,-0.119664975,0.26534,-0.31523162,0.050420184,-0.01498881,-0.14448649,-0.7086837,0.15322891,-9.749189,0.9388393,47.751366,-0.9637753,-1.760775,-3.70079,-0.16683647,-0.379158,-0.22518754,27.25,28.3125,27.375,30.9375,32.625,33.3125
0.30805218,-1.3311448,-0.42106837,-1.6695268,-0.04767531,0.14197983,-0.15407608,-0.39561507,-0.32785985,0.059864543,-3.0771112,0.6172305,-0.0006213575,-0.15236749,9.762076e-05,0.0010550958,0.0132464385,0.005690499,0.020680273,0.42905536,-1.4301536,1.9624332,-2.0994031,-1.572935,2.3994143,-0.11877537,0.26769495,-0.31779087,0.05015987,-0.015285709,-0.13920464,-0.7661445,0.24899697,-9.749189,0.8806493,47.744205,-1.1262149,-1.8618383,-3.6660757,-0.12703452,-0.3811078,-0.326648,27.25,28.3125,27.375,30.9375,32.625,33.3125
0.31005234,-1.5157336,-0.87559843,-1.8596,-0.017452035,0.1257356,-0.14176726,-0.39589155,-0.32785374,0.05984564,-3.077064,0.6171862,-0.0006807879,-0.15368794,0.000972554,0.00046177898,0.014101558,0.005138857,0.0137673775,0.4288265,-1.4296138,1.9618362,-2.0992835,-1.5729588,2.3991642,-0.12101353,0.2701221,-0.31931958,0.050125297,-0.015835715,-0.13452603,-0.7661445,0.076614454,-9.768343,0.86945957,47.744205,-1.0383682,-1.8785504,-3.6346803,-0.101273715,-0.37152213,-0.4072665,27.25,28.3125,27.375,30.9375,32.625,33.3125
0.3120522,-1.371346,-1.0436828,-1.9639779,-0.016690793,0.1160481,-0.14645325,-0.3962606,-0.32785976,0.059894476,-3.0771012,0.61721176,-0.0004983507,-0.1554141,0.0010298567,0.00061133533,0.014392079,0.0055287806,0.01146893,0.4285506,-1.4290856,1.9611052,-2.0991995,-1.5729955,2.3989,-0.12215042,0.2728401,-0.32306123,0.050910436,-0.016250158,-0.13336295,-0.6703765,0.15322891,-9.902418,0.90750587,47.737038,-1.003041,-1.9575632,-3.671709,-0.07466394,-0.4071827,-0.48408908,27.25,28.3125,27.375,30.9375,32.625,33.3125
0.31405213,-1.7804815,-1.4389888,-1.8579543,-0.027233914,0.1011885,-0.14527838,-0.39658263,-0.32786557,0.059901264,-3.0771065,0.6170958,-0.000412341,-0.1563107,0.0020492987,-0.00038248586,0.016526816,0.003720684,0.013962499,0.42832163,-1.4285342,1.9604462,-2.0991266,-1.5730437,2.3985984,-0.123858206,0.2759296,-0.32467613,0.05195154,-0.01744665,-0.13755983,-0.63206923,0.17238252,-9.825804,0.8985519,47.7254,-0.8091079,-1.9407934,-3.5514345,-0.064024925,-0.40857935,-0.48553702,27.25,28.3125,27.375,30.9375,32.625,33.3125
0.31605184,-0.64372444,-1.1934656,-1.8180286,-0.039770097,0.11753849,-0.14680919,-0.3968885,-0.32787275,0.05989992,-3.0770998,0.6170321,-0.0003943033,-0.1584047,0.0022969001,0.00047954405,0.016423706,0.004918549,0.021070112,0.4280931,-1.4279821,1.9597996,-2.0990307,-1.5730675,2.3983314,-0.1256618,0.27754006,-0.3289695,0.053474482,-0.017875627,-0.14646773,-0.45968673,0.15322891,-9.730036,0.90750587,47.72271,-0.97234833,-2.128327,-3.6183805,-0.034348704,-0.40437695,-0.43867812,27.25,28.3125,27.375,30.9375,32.625,33.3125
0.31805173,-0.90159744,-1.55869,-1.4665142,-0.047500044,0.09824655,-0.14983106,-0.39721522,-0.32786974,0.0598976,-3.0770934,0.616966,-0.00037500437,-0.15867925,0.00269167,0.0007180236,0.018213717,0.0037415319,0.03202387,0.42782936,-1.4274073,1.9591287,-2.098934,-1.5730923,2.3980277,-0.12571508,0.27842513,-0.33143267,0.056834973,-0.019037485,-0.15747029,-0.30645782,0.15322891,-9.634268,0.90750587,47.71554,-0.90002215,-1.8787296,-3.512917,-0.06827822,-0.37814736,-0.35030484,27.25,28.3125,27.375,30.9375,32.625,33.3125
0.32005256,-1.0330282,-1.4082135,-1.4633021,-0.03995615,0.08177033,-0.13916199,-0.3975359,-0.3278595,0.05989459,-3.07709,0.61680627,-0.00035927843,-0.1605358,0.0022770097,0.0015214231,0.01700103,0.0070990836,0.040981162,0.42756492,-1.426844,1.9584702,-2.0988271,-1.5731281,2.3976643,-0.12616405,0.27922416,-0.33389083,0.05490304,-0.01935879,-0.16687381,-0.3256114,0.13407528,-9.500193,1.0194036,47.71286,-0.9271383,-1.9590013,-3.5497282,-0.008081359,-0.4003641,-0.24408473,27.25,28.3125,27.375,30.9375,32.625,33.3125
0.32205257,-0.11958586,-0.40521795,-1.302466,-0.025248421,0.07325396,-0.14766155,-0.3978962,-0.32783273,0.05990972,-3.0770495,0.61675835,-0.0002127959,-0.16154115,0.002062267,0.0029807587,0.015840447,0.009591328,0.044661365,0.42727685,-1.4262816,1.957776,-2.0987427,-1.5732244,2.397352,-0.12647082,0.27782735,-0.33593383,0.055562016,-0.019338725,-0.17086148,-0.3256114,0.019153614,-9.500193,0.88960326,47.7451,-0.99688256,-1.7535398,-3.5585754,0.014881737,-0.39729017,-0.1595574,27.25,28.3125,27.375,30.9375,32.625,33.3125
0.32405245,0.5417274,-0.19773175,-1.0864986,-0.016399445,0.070124224,-0.15112007,-0.39817417,-0.32783753,0.059886087,-3.0770328,0.61654437,-0.0003125244,-0.1612784,0.0028798506,0.0021249529,0.017302243,0.007308685,0.042026583,0.42706057,-1.4257063,1.9571418,-2.0985987,-1.5732363,2.3970046,-0.12736735,0.2789381,-0.33569577,0.056896493,-0.019730622,-0.16912074,-0.28730422,-0.05746084,-9.461885,0.98807013,47.711063,-0.9295101,-1.6564093,-3.6099453,0.044398367,-0.3823845,-0.13419424,27.25,28.3125,27.375,30.9375,32.625,33.3125
0.32605246,0.71861184,0.12842412,-0.8830313,-0.014786966,0.05571029,-0.1452427,-0.39856282,-0.32783386,0.05994662,-3.0770946,0.61650157,-7.4322765e-05,-0.16199008,0.0030023302,0.0027057843,0.018737573,0.007138166,0.036122788,0.42676064,-1.4251906,1.9563988,-2.0985258,-1.573285,2.3966706,-0.12723932,0.27997983,-0.33903304,0.059948362,-0.020928878,-0.1630868,-0.11492168,-0.038307227,-9.270349,0.9030289,47.716442,-0.9766884,-1.7054456,-3.6076298,0.05068296,-0.3837317,-0.17650494,27.25,28.3125,27.375,30.9375,32.625,33.3125
0.32805255,0.2976117,-0.046412684,-1.0440558,0.007048097,0.018939119,-0.14371455,-0.39887854,-0.327834,0.05992793,-3.0770602,0.61638373,-0.0001066169,-0.16458404,0.0023938394,0.0038208726,0.017283557,0.010336163,0.028939767,0.4265204,-1.4245787,1.9557165,-2.098406,-1.5733207,2.3963616,-0.12815423,0.28192893,-0.34381837,0.059278212,-0.020935606,-0.15681516,-0.11492168,0.038307227,-9.251195,0.95897776,47.723602,-0.97220147,-1.6618748,-3.628147,0.069085285,-0.3851878,-0.2839241,27.25,28.3125,27.375,30.9375,32.625,33.3125
0.33005235,1.1064489,0.35667968,-1.0514711,-0.003426619,0.021400757,-0.15634656,-0.39922115,-0.32782888,0.059957974,-3.0770645,0.6163452,1.0415808e-05,-0.16467628,0.0022731351,0.0030869786,0.018620132,0.006676254,0.02763554,0.42625654,-1.4240508,1.9550208,-2.0982974,-1.5733689,2.3960736,-0.1280663,0.285446,-0.3471226,0.06294054,-0.020625444,-0.15542413,0.095768064,0.038307227,-9.270349,0.9231726,47.682407,-0.9848216,-1.8153254,-3.4527407,0.07286982,-0.37849337,-0.3159502,27.25,28.3125,27.375,30.9375,32.625,33.3125
0.3320522,1.1302963,-0.22044851,-1.2196573,0.011708249,0.00032807098,-0.14561799,-0.39951915,-0.3278074,0.059930578,-3.0770085,0.61625856,-5.4357977e-05,-0.16445507,0.0031010436,0.0017454108,0.02173982,0.0014089894,0.025214747,0.42599225,-1.4234749,1.9543985,-2.0981762,-1.5734047,2.3957627,-0.12882248,0.28928486,-0.3496806,0.06774184,-0.021292908,-0.15375504,0.22984336,-0.038307227,-9.289502,0.8627467,47.692257,-1.0075667,-1.8980888,-3.4210858,0.04732365,-0.37511456,-0.36216974,27.25,28.3125,27.375,30.9375,32.625,33.3125
0.33405206,0.67738336,-0.20297067,-1.0173359,-0.0132701835,-0.0039001065,-0.15261999,-0.39986604,-0.32780793,0.059946764,-3.0769966,0.6161976,-1.35763075e-05,-0.16551621,0.0038116197,0.0027026753,0.022910645,0.00036418418,0.023869751,0.42572793,-1.4228858,1.9536556,-2.0980303,-1.5734409,2.3954623,-0.13043614,0.28987223,-0.35382783,0.072727576,-0.021926625,-0.15402082,0.1340753,0.095768064,-9.212888,0.9254084,47.70211,-1.0013063,-2.047312,-3.4089515,0.01183244,-0.3749305,-0.38525,27.25,28.3125,27.375,30.9375,32.625,33.3125
0.3360518,0.34446248,-1.1046526,-1.1091464,-0.01383692,0.0011884952,-0.13922969,-0.40020975,-0.32778758,0.05996,-3.07696,0.6161079,6.0800518e-05,-0.16380338,0.004005386,0.0014346302,0.026368126,-0.0049067256,0.03189821,0.4254524,-1.4223214,1.9529504,-2.0978973,-1.5735139,2.3951359,-0.12858285,0.292057,-0.35467598,0.07758775,-0.022905013,-0.1601933,0.13407528,0.22984336,-9.251195,0.90527004,47.693153,-1.0102236,-1.7898622,-3.399622,-0.033249617,-0.36513075,-0.37328178,27.25,28.3125,27.375,30.9375,32.625,33.3125
0.33805174,0.33275554,-1.1059954,-1.317563,-0.0313987,0.011848429,-0.15298642,-0.40053064,-0.3277647,0.059964463,-3.0768936,0.61590135,5.096048e-05,-0.16239113,0.007445453,-0.0012276922,0.031293474,-0.013833277,0.03391311,0.4251986,-1.4217441,1.9522337,-2.0976918,-1.5735978,2.394762,-0.13300261,0.29415768,-0.3524601,0.08339949,-0.023719529,-0.16662584,0.11492168,0.34476504,-9.385271,0.92093146,47.658226,-0.81549656,-1.8965343,-3.58146,-0.107185826,-0.3212521,-0.32061732,27.25,28.3125,27.375,30.9375,32.625,33.3125
0.34005266,0.15771547,-1.4202322,-1.0728086,-0.05674887,0.03048823,-0.16658783,-0.40085253,-0.32774094,0.059961542,-3.0768418,0.61582655,-3.0188272e-07,-0.16122152,0.0072337766,-0.0012557387,0.032559354,-0.01720235,0.045085344,0.42491147,-1.4211673,1.9515394,-2.0975106,-1.5736336,2.3944352,-0.13163392,0.2945116,-0.35404047,0.08817456,-0.02351571,-0.17642914,0.076614454,0.36391866,-9.346964,1.0395473,47.66987,-0.92741233,-1.7461495,-3.763709,-0.18378294,-0.32876995,-0.20303248,27.25,28.3125,27.375,30.9375,32.625,33.3125
0.3420527,-0.12063611,-1.95535,-1.0653144,-0.065359615,0.040359672,-0.1538417,-0.401162,-0.32772166,0.059960376,-3.0767722,0.61567444,-5.8016525e-05,-0.16209383,0.0081124315,-0.0007732675,0.033301275,-0.018140668,0.049573466,0.42465878,-1.42059,1.9508327,-2.0972946,-1.5736936,2.3940969,-0.13360667,0.29490766,-0.35646793,0.091331735,-0.023840355,-0.18288654,-0.019153614,0.4213795,-9.270349,0.96569055,47.658226,-0.87292373,-1.7140499,-3.7507176,-0.23566212,-0.32825762,-0.09503664,27.25,28.3125,27.375,30.9375,32.625,33.3125
0.34405246,0.43037394,-1.6922965,-1.2246668,-0.06929484,0.04872175,-0.15740667,-0.40149474,-0.32774344,0.0600081,-3.0768416,0.6154187,9.35632e-06,-0.16317645,0.007666517,0.00062716653,0.032996632,-0.016089065,0.050083272,0.4244309,-1.4200622,1.9500784,-2.0971143,-1.573706,2.3937008,-0.13318215,0.29461807,-0.359862,0.09301493,-0.024409728,-0.18296981,-0.019153614,0.4405331,-9.308657,0.9634547,47.66539,-0.8454817,-1.5440447,-3.7063353,-0.30291426,-0.31437457,-0.06602373,27.25,28.3125,27.375,30.9375,32.625,33.3125
0.34605163,0.25437146,-1.7329171,-1.1874104,-0.070105635,0.039054703,-0.15411913,-0.40183288,-0.32770586,0.059973445,-3.0767467,0.6153853,-0.00011623785,-0.16554411,0.007656473,0.0017331606,0.031877242,-0.013219704,0.042315938,0.42410636,-1.4194016,1.9493603,-2.0969346,-1.5737423,2.393368,-0.13483737,0.2956396,-0.3636821,0.092743516,-0.024596473,-0.17685232,-0.21068975,0.38307226,-9.423578,0.97464454,47.694054,-0.88472223,-1.4665213,-3.6497426,-0.3436795,-0.29008916,-0.0776652,27.25,28.3125,27.375,30.9375,32.625,33.3125
0.34805247,-0.13656864,-1.6240652,-1.0180044,-0.08104594,0.03047098,-0.1524476,-0.40217617,-0.32770061,0.060019203,-3.0767298,0.61522937,1.8563704e-06,-0.1671965,0.0053587467,0.00205934,0.030580599,-0.009616377,0.037696004,0.42386758,-1.418871,1.9486045,-2.0967438,-1.5738262,2.3930345,-0.1316936,0.29927132,-0.36803454,0.0896523,-0.024895191,-0.16908532,-0.1340753,0.30645782,-9.3661175,0.9768804,47.711964,-1.092765,-1.5157323,-3.402688,-0.3533563,-0.2882754,-0.15757295,27.25,28.3125,27.375,30.9375,32.625,33.3125
0.35005242,-0.12602368,-1.65896,-1.2456768,-0.07035819,0.045275934,-0.15385059,-0.40250877,-0.32769975,0.060006123,-3.0767107,0.615191,-6.1884944e-05,-0.16979451,0.004562087,0.0015619169,0.028341383,-0.007058656,0.0312812,0.42359117,-1.4182458,1.9478854,-2.0966027,-1.5738257,2.392737,-0.13286518,0.30354163,-0.3709293,0.08503166,-0.023923803,-0.16384204,-0.19153614,0.30645782,-9.442732,0.9164598,47.693153,-0.9827051,-1.6044142,-3.3739643,-0.32600075,-0.27867746,-0.26911786,27.25,28.3125,27.375,30.9375,32.625,33.3125
0.35205236,-0.4765205,-1.2488474,-1.2717555,-0.06511134,0.061429016,-0.15232566,-0.40282226,-0.32769316,0.06001784,-3.076641,0.61500674,-6.922069e-05,-0.17053615,0.0043898774,0.0004389967,0.027361304,-0.0070173023,0.02373134,0.423375,-1.4176682,1.9471449,-2.0963757,-1.5739096,2.392415,-0.13359393,0.30612564,-0.3707716,0.08185036,-0.023052244,-0.15702225,-0.3256114,0.3256114,-9.461885,0.97464454,47.70659,-1.084545,-1.8043385,-3.5185585,-0.31402975,-0.26614708,-0.3515116,27.25,28.3125,27.375,30.9375,32.625,33.3125
0.35405236,-1.2608773,-1.6225325,-1.2776577,-0.064907946,0.07999086,-0.15381639,-0.40315196,-0.32769704,0.060001194,-3.076632,0.61494946,-0.00011855756,-0.17320144,0.0038200424,0.00035709815,0.02503182,-0.0022568,0.019013293,0.42311049,-1.417043,1.9464387,-2.0962584,-1.5739096,2.3921163,-0.13469708,0.3086163,-0.37218606,0.075482704,-0.02290223,-0.15340523,-0.1340753,0.3256114,-9.481039,0.99031126,47.683304,-1.0210571,-1.6408691,-3.6275454,-0.2406571,-0.26630124,-0.44115064,27.25,28.3125,27.375,30.9375,32.625,33.3125
0.35605204,-1.5800071,-1.9366307,-1.066474,-0.068500414,0.09485338,-0.15613827,-0.40355116,-0.3276844,0.06005801,-3.0766463,0.6149139,5.2792104e-05,-0.17446505,0.004342956,-5.2535866e-05,0.025105964,-0.0010051805,0.017987175,0.42279807,-1.4164777,1.9456247,-2.0961034,-1.5739697,2.3917804,-0.13612735,0.31011662,-0.37264085,0.073311105,-0.023479894,-0.15380883,-0.17238252,0.2681506,-9.519346,0.95897776,47.695843,-0.9953797,-1.8413396,-3.678011,-0.21070307,-0.256407,-0.4886762,27.25,28.3125,27.375,30.9375,32.625,33.3125
0.3580519,-1.5610034,-1.9525379,-0.81507695,-0.08998065,0.10873747,-0.1587546,-0.40389305,-0.32767877,0.060065232,-3.0766075,0.61482286,8.701084e-05,-0.17587036,0.0042952853,-5.207234e-05,0.024250805,0.0005057957,0.026304774,0.42254576,-1.4158767,1.9448828,-2.0959485,-1.5740298,2.3914766,-0.13712132,0.31161603,-0.37413728,0.07153239,-0.023354024,-0.16311978,-0.51714754,0.30645782,-9.3661175,0.9701675,47.71017,-1.023331,-1.6526327,-3.7174802,-0.2082117,-0.25701645,-0.46687126,27.25,28.3125,27.375,30.9375,32.625,33.3125
0.36005163,-1.0777073,-1.3243737,-0.7504709,-0.079967976,0.10969092,-0.16930825,-0.4042269,-0.32767814,0.06006644,-3.0766065,0.6146831,0.00011624554,-0.17909375,0.0033941865,0.0011549384,0.021599604,0.006284947,0.035206847,0.42229372,-1.4152875,1.9441761,-2.0958307,-1.5740656,2.3911378,-0.13798104,0.313301,-0.3780656,0.067372724,-0.023348073,-0.17287917,-0.40222588,0.3256114,-9.308657,0.90750587,47.713753,-1.0093262,-1.6414084,-3.706793,-0.12070434,-0.2511027,-0.37123892,27.25,28.3125,27.375,30.9375,32.625,33.3125
0.36205265,-1.0391462,-1.0018115,-1.2223189,-0.042089287,0.07866954,-0.17161988,-0.40460062,-0.32769474,0.06006668,-3.0766323,0.6145852,0.00012348432,-0.1810416,0.002901201,0.0021672763,0.020676862,0.008649101,0.04612551,0.42201743,-1.4146143,1.943374,-2.09571,-1.5740656,2.3907976,-0.13840511,0.31467435,-0.38219836,0.06755306,-0.023509478,-0.18421985,-0.28730422,0.2681506,-9.5385,0.9567419,47.701214,-0.9505931,-1.7348421,-3.6138656,-0.092137955,-0.21861967,-0.23986664,27.25,28.3125,27.375,30.9375,32.625,33.3125
0.36405247,-0.7095618,-0.6571864,-1.0260564,-0.0394498,0.071573675,-0.17230311,-0.40497708,-0.32768926,0.06008734,-3.0766416,0.61433405,0.00025754838,-0.18274377,0.0022616184,0.0024289654,0.020560857,0.01016431,0.05166864,0.42175373,-1.4140007,1.9425939,-2.0955908,-1.57415,2.3903763,-0.1381316,0.31751218,-0.38616332,0.067212395,-0.024036944,-0.18948667,-0.6512228,0.2681506,-9.595961,0.94331104,47.705692,-1.0437899,-1.63953,-3.5845199,-0.04874088,-0.21739505,-0.15757155,27.25,28.3125,27.375,30.9375,32.625,33.3125
0.36605242,-0.57527405,-0.90410507,-0.8108207,-0.03842085,0.08780946,-0.165421,-0.40531102,-0.32766613,0.06007357,-3.0765843,0.61415136,0.00021239315,-0.18311709,0.0023717596,0.0020382532,0.021643601,0.009338453,0.049437713,0.42147744,-1.4133756,1.9418653,-2.0954115,-1.57421,2.3899937,-0.13805042,0.3193512,-0.38779488,0.06819472,-0.024697006,-0.18716976,-0.8236054,0.24899697,-9.404425,0.97240865,47.66808,-1.0012755,-1.6295851,-3.559647,-0.027697798,-0.19354865,-0.13892424,27.25,28.3125,27.375,30.9375,32.625,33.3125
0.36805212,-1.3139031,-0.67660284,-0.8918496,-0.030135108,0.07767821,-0.1569231,-0.40569878,-0.3276905,0.06010842,-3.0766578,0.6139794,0.0003230573,-0.18400897,0.0036083069,0.0017312822,0.022481414,0.0076870397,0.03899329,0.4212125,-1.4127507,1.9410385,-2.0952904,-1.574222,2.3896124,-0.14079961,0.32068473,-0.38926932,0.07020496,-0.024752235,-0.17947608,-0.7852981,0.2681506,-9.3661175,1.0216395,47.699425,-1.0576555,-1.4703293,-3.6636631,-0.0243393,-0.19284365,-0.21454778,27.25,28.3125,27.375,30.9375,32.625,33.3125
0.37005192,-1.396172,-1.1190968,-0.9842861,-0.033944193,0.097946465,-0.16055812,-0.4060515,-0.32765687,0.06008183,-3.076554,0.61384386,0.0002941072,-0.18268357,0.0025886896,0.0007389372,0.02319708,0.004495299,0.035500113,0.42092556,-1.4120772,1.9402851,-2.095122,-1.5743178,2.3892546,-0.13812971,0.32283708,-0.390117,0.072102465,-0.024100533,-0.17331342,-0.842759,0.28730422,-9.404425,1.0194036,47.687782,-1.142177,-1.5505465,-3.7390525,-0.00840969,-0.19176015,-0.30011174,27.25,28.3125,27.375,30.9375,32.625,33.3125
0.37205166,-1.7003748,-1.4170158,-0.7574382,-0.053774804,0.11867607,-0.16431269,-0.40645716,-0.32767186,0.06013101,-3.0765986,0.61383474,0.000445555,-0.18266413,0.0030405396,-0.0005649572,0.024586843,0.0009124583,0.032366198,0.42063752,-1.4114636,1.9394354,-2.09499,-1.5743417,2.3889556,-0.13888466,0.32605428,-0.39148048,0.074084334,-0.023882644,-0.17093734,-0.7469909,0.24899697,-9.3661175,1.0171678,47.73614,-1.1405108,-1.5889788,-3.7769146,-0.004587125,-0.18708281,-0.33543855,27.25,28.3125,27.375,30.9375,32.625,33.3125
0.37405246,-1.3490583,-1.3387196,-0.5762072,-0.06717379,0.1280472,-0.16437995,-0.40683916,-0.32766518,0.06012381,-3.0765615,0.61371166,0.0005010138,-0.18315649,0.003930275,-0.001440138,0.02727484,-0.004153383,0.030942224,0.42036083,-1.4107778,1.9386333,-2.0948684,-1.5744137,2.3886073,-0.1404696,0.33018622,-0.39578724,0.07996337,-0.024268925,-0.17109554,-0.5554548,0.114921674,-9.308657,1.0328293,47.711964,-1.1275015,-1.6503448,-3.797541,-0.038906407,-0.17706843,-0.37921315,27.25,28.3125,27.375,30.9375,32.625,33.3125
