Tylouw/Master_Thesis_Code/training_data/batch_1/big_rod_t0.2/sample_6_session_1.csv
timestamp[s],tcp_force_x[N],tcp_force_y[N],tcp_force_z[N],tcp_force_rx[Nm?],tcp_force_ry[Nm?],tcp_force_rz[Nm?],tcp_pose_x[m],tcp_pose_y[m],tcp_pose_z[m],tcp_pose_rx[rot_vec_x],tcp_pose_ry[rot_vec_y],tcp_pose_rz[rot_vec_z],tcp_velo_x[m/s],tcp_velo_y[m/s],tcp_velo_z[m/s],tcp_velo_rx[rot_vec_x/s],tcp_velo_ry[rot_vec_y/s],tcp_velo_rz[rot_vec_z/s],q1[rad],q2[rad],q3[rad],q4[rad],q5[rad],q6[rad],qd1[rad/s],qd2[rad/s],qd3[rad/s],qd4[rad/s],qd5[rad/s],qd6[rad/s],tool_acc_x,tool_acc_y,tool_acc_z,current_of_whole_robot[A],voltage_of_whole_robot[V],current_J1[A],current_J2[A],current_J3[A],current_J4[A],current_J5[A],current_J6[A],temp_J1[C],temp_J2[C],temp_J3[C],temp_J4[C],temp_J5[C],temp_J6[C]
5.249749e-07,-0.2689518,-0.7276498,0.3719983,-0.01251535,0.016237833,-0.022176722,-0.37290564,-0.3282045,0.05994763,-3.0784762,0.62486464,-0.00020179119,0.0024473628,0.0012063739,-0.0038274287,0.0037840388,-0.008034982,-8.9050745e-06,0.44812617,-1.4708729,2.0095847,-2.1077268,-1.5706977,2.4230433,-9.9180266e-05,0.0042352993,0.003976923,0.00066863094,8.0888996e-05,-9.233586e-05,0.019153614,0.24899697,-8.90643,0.7329411,47.713753,-0.22796339,-2.8801298,-2.4711027,-0.50740594,0.18639632,-0.124202445,26.125,26.9375,26.0625,29.0625,30.125,30.5625
0.002053008,-0.09660615,-0.35238242,0.34402305,-0.0054584895,0.019631805,-0.028643705,-0.37289903,-0.32821414,0.05994197,-3.0784585,0.62482244,-0.0002551146,-0.0012052795,-0.0005608291,-0.0027187762,-0.0015604498,0.0030192295,-4.6720156e-06,0.44815025,-1.4708369,2.0095484,-2.107684,-1.5706977,2.4230433,-9.739445e-05,0.004553521,0.0039573065,-0.011908376,7.94602e-05,-9.1002126e-05,0.0,0.17238252,-8.887277,0.679228,47.696735,-0.21244498,-2.7955651,-2.2795606,-0.4694426,0.17902672,-0.1319917,26.125,26.9375,26.0625,29.0625,30.125,30.5625
0.004052481,0.12426539,0.058252256,0.3860021,-0.009759991,0.027369265,-0.02748203,-0.37288547,-0.32821426,0.059917174,-3.0784614,0.62484246,-0.00033487048,-0.0017574684,-0.00082818436,-0.0023739284,-0.0024896055,0.0049458286,-3.7742814e-06,0.4481382,-1.4708132,2.0095847,-2.1077077,-1.5706614,2.4230433,-9.566916e-05,0.0041990913,0.003964348,-0.013699933,7.808168e-05,-8.970634e-05,0.038307227,0.21068975,-8.925584,0.800085,47.71017,-0.20103818,-3.0546458,-2.52574,-0.35116917,0.17925176,-0.12299876,26.125,26.9375,26.0625,29.0625,30.125,30.5625
0.006052451,-0.09962115,-0.21858872,0.09688199,0.01494329,0.0066101276,-0.0149029335,-0.37287745,-0.32821894,0.059916705,-3.0784862,0.6248865,-0.0003287236,-0.00065344543,-0.00029405658,-0.0017944417,-0.0012248729,0.0023429806,-4.8674437e-06,0.4481382,-1.4708377,2.0096204,-2.107742,-1.5706376,2.4230676,-9.400372e-05,0.0024011792,0.0034103547,-0.008454183,7.6750126e-05,-8.8446846e-05,0.019153614,0.1340753,-8.887277,0.75755644,47.731667,-0.16541803,-2.9702725,-2.5073276,-0.3894571,0.16573828,-0.11392465,26.125,26.9375,26.0625,29.0625,30.125,30.5625
0.008052391,0.6150281,0.6453702,-0.22891709,0.037300665,-0.008582218,-0.02911945,-0.37287802,-0.32820642,0.059898306,-3.078438,0.6249727,-0.00039055402,-7.392746e-05,-1.8733008e-05,-0.0013391327,-0.00035065616,0.0005126629,-5.182644e-06,0.44811413,-1.4708021,2.0096204,-2.1077282,-1.5706376,2.4231033,-9.239523e-05,0.0015620495,0.0024020695,-0.0045784293,8.858137e-05,-8.722238e-05,0.05746084,-0.019153614,-9.002198,0.75084364,47.705692,-0.19930023,-2.9333107,-2.5080404,-0.43578786,0.17619091,-0.132535,26.125,26.9375,26.0625,29.0625,30.125,30.5625
0.010052379,0.7844691,1.4687297,-0.52672696,0.041692685,-0.013248491,-0.033589046,-0.37287483,-0.3282006,0.059885163,-3.0784373,0.62489605,-0.0003929209,9.239308e-05,6.595777e-05,-0.0011665624,8.547704e-05,-0.0003895829,-8.824733e-06,0.44811413,-1.4707901,2.0096428,-2.1077516,-1.5706495,2.4230556,-0.000100806596,0.0015055272,0.0016567115,-0.0027744237,8.893317e-05,-9.208729e-05,0.038307227,0.11492168,-9.212888,0.68818194,47.71286,-0.5686428,-2.2914023,-3.056938,-0.46661496,0.16180453,-0.18964481,26.125,26.9375,26.0625,29.0625,30.125,30.5625
0.012052343,1.0314087,0.9519018,-0.52470195,0.02791091,0.012683066,-0.043873396,-0.37286562,-0.3281961,0.05986192,-3.0784116,0.62487113,-0.00045550874,6.5544955e-05,0.0001754039,-0.0034254,0.002363732,-0.0051290346,-0.00022095516,0.44811404,-1.4707526,2.0096548,-2.1077511,-1.5706495,2.4230433,-0.0003346648,0.0075048404,6.132652e-05,-0.001919754,8.7608605e-05,-0.00011215596,0.019153614,0.15322891,-9.32781,0.69937176,47.670765,-0.7134398,-2.1449544,-3.2212286,-0.46179533,0.15027456,-0.24160519,26.125,26.9375,26.0625,29.0625,30.125,30.5625
0.014052507,-0.31289718,-0.13255788,-0.8642014,0.0013168966,0.0067351414,-0.0279161,-0.37286192,-0.3282015,0.059853226,-3.0783699,0.6248437,-0.00052037084,-0.0056273835,0.0013630436,-0.004242963,0.002894077,-0.0062787584,-0.0012323301,0.44813558,-1.4707007,2.0096042,-2.1076915,-1.5706614,2.423053,-0.0077565573,0.017418835,-0.00904109,-0.0014663697,8.6217544e-05,-0.0065157614,-0.076614454,0.19153613,-9.481039,0.74413085,47.691364,-0.44838697,-2.8788173,-2.965322,-0.46019226,0.16421711,-0.23005113,26.125,26.9375,26.0625,29.0625,30.125,30.5625
0.016052563,-0.8599102,-0.63084334,-0.90002984,-0.040363576,0.03946134,-0.037842803,-0.3728571,-0.32819882,0.05986017,-3.0784016,0.62486756,-0.00053887506,-0.006053122,0.0023575546,-0.0041799466,0.003076292,-0.0066556674,0.0015519902,0.44811076,-1.470737,2.009628,-2.1076915,-1.5706257,2.423039,-0.010013205,0.01680102,-0.0086560445,-0.0008153245,8.48631e-05,-0.0115572475,-0.30645782,0.24899697,-9.634268,0.6926589,47.651955,-0.34717482,-2.7467647,-3.1768448,-0.46370178,0.1662448,-0.19602725,26.125,26.9375,26.0625,29.0625,30.125,30.5625
0.018052323,-1.5187565,-1.3800156,-0.82038647,-0.07252562,0.08884202,-0.050210465,-0.37286785,-0.32819793,0.059833746,-3.0783494,0.6247975,-0.0005810947,-0.0047088377,0.002041908,-0.0045418353,0.0037017479,-0.007947289,0.0048901737,0.4481234,-1.4706413,2.0095809,-2.1076791,-1.5706614,2.4230146,-0.008194707,0.01627853,-0.00741821,-9.62267e-05,8.355012e-05,-0.013077978,-0.4405331,0.3256114,-9.768343,0.7396539,47.67614,-0.5742002,-2.4158564,-3.4564755,-0.48298544,0.18297753,-0.19214901,26.125,26.9375,26.0625,29.0625,30.125,30.5625
0.020052077,-2.2217827,-1.8495548,-0.8790741,-0.06852833,0.10045094,-0.052326575,-0.372886,-0.3282088,0.05984958,-3.0784047,0.62473124,-0.0005583688,-0.0059170774,0.0015911176,-0.0043280935,0.0034251795,-0.0073837447,0.006288298,0.4481112,-1.4706404,2.0095437,-2.1076791,-1.5706376,2.422954,-0.008446882,0.01841139,-0.010268654,-6.2829154e-06,8.2277016e-05,-0.014726245,-0.45968673,0.3256114,-9.825804,0.69041777,47.6636,-0.7308724,-2.4417164,-3.5595877,-0.48898062,0.17197889,-0.20668396,26.125,26.9375,26.0625,29.0625,30.125,30.5625
0.022052042,-1.5127097,-1.0962571,-0.6999391,-0.046700493,0.10973451,-0.07902225,-0.37287882,-0.3281859,0.05983088,-3.0783615,0.62476057,-0.0006334412,-0.008448641,0.001629853,-0.0037035134,0.0026924734,-0.0058814813,0.005094845,0.4480746,-1.4706277,2.009567,-2.1076553,-1.5706376,2.4229412,-0.0108248,0.020931542,-0.014466234,-4.1022952e-07,8.1042315e-05,-0.01590779,-0.61291564,0.4405331,-9.768343,0.7732232,47.709274,-0.6844974,-2.4329853,-3.418012,-0.4870227,0.17709431,-0.19387683,26.125,26.9375,26.0625,29.0625,30.125,30.5625
0.024052503,-1.7345966,-0.512593,-1.0101494,-0.020536508,0.06909766,-0.091588944,-0.3729057,-0.32818583,0.059804603,-3.07834,0.62479526,-0.00066332414,-0.009092323,0.0022223864,-0.0035803479,0.002799945,-0.006133141,0.0044094366,0.44804996,-1.4705318,2.0095303,-2.1076906,-1.5706376,2.422941,-0.012532036,0.021138871,-0.015148424,0.00074765715,9.226937e-05,-0.016929425,-0.6895301,0.4213795,-9.672575,0.7105615,47.657326,-0.7188357,-2.4079967,-3.4358654,-0.5025035,0.17334238,-0.22199553,26.125,26.9375,26.0625,29.0625,30.125,30.5625
0.02605252,-1.5219282,-0.59385794,-0.915092,-0.008575176,0.053987123,-0.10885159,-0.37292534,-0.32819307,0.059821945,-3.0783725,0.6247253,-0.000657662,-0.010469788,0.0020744668,-0.0022505668,0.00138201,-0.0032199472,0.0044322424,0.44803762,-1.4705203,2.0094697,-2.1076553,-1.5706257,2.422881,-0.013513159,0.020068422,-0.016937207,0.0003670242,0.00010313734,-0.01793236,-0.7278373,0.30645782,-9.749189,0.7396539,47.66091,-0.7752294,-2.3173928,-3.424789,-0.49592882,0.1848031,-0.21728432,26.125,26.9375,26.0625,29.0625,30.125,30.5625
0.028052466,-1.177917,-0.44476628,-0.68061024,-0.023507204,0.061763313,-0.13101463,-0.37294674,-0.32817742,0.059800263,-3.0783052,0.6247313,-0.0006986392,-0.011857521,0.0024215314,-0.0024218275,0.0013214591,-0.0031685338,0.00393656,0.4480129,-1.4704355,2.009421,-2.1076314,-1.5706614,2.4228685,-0.015446666,0.022129327,-0.01872858,2.3964058e-05,0.00012873403,-0.019368744,-0.68953013,0.13407528,-9.730036,0.8403672,47.691364,-0.7979946,-2.2718742,-3.4743958,-0.4791046,0.16844906,-0.19784324,26.125,26.9375,26.0625,29.0625,30.125,30.5625
0.0300523,-0.83579344,-0.4575542,-0.4898175,-0.028257994,0.080734506,-0.1446728,-0.372973,-0.32819209,0.05980803,-3.078356,0.62472254,-0.00066166476,-0.013072164,0.0025497656,-0.0025320647,0.0012944874,-0.0032184809,0.0028205463,0.44800046,-1.470411,2.0093844,-2.1076672,-1.5706376,2.4228442,-0.016821962,0.024202151,-0.020745395,1.5646817e-06,0.0001710729,-0.019626562,-0.6703765,0.11492168,-9.672575,0.7665104,47.685097,-0.7247148,-2.3022964,-3.4449196,-0.4899081,0.17942235,-0.19219635,26.125,26.9375,26.0625,29.0625,30.125,30.5625
0.032052264,-1.2432213,-0.418679,-0.650878,-0.01763589,0.08620075,-0.15675202,-0.37301427,-0.32816082,0.059791252,-3.078327,0.6247951,-0.00069113955,-0.014414716,0.0023712611,-0.002102789,0.00076459657,-0.0022310985,0.00094803073,0.44790402,-1.4703507,2.0093596,-2.1076791,-1.5706376,2.4227967,-0.017736165,0.025567135,-0.0232284,1.0216254e-07,0.00021564569,-0.018666642,-0.7278373,0.1340753,-9.730036,0.800085,47.695843,-0.70029783,-2.2918913,-3.4270763,-0.47175467,0.18458974,-0.19848785,26.125,26.9375,26.0625,29.0625,30.125,30.5625
0.034051772,-1.1119341,0.14455914,-0.47866562,-0.00025698662,0.0880382,-0.17093945,-0.37304005,-0.32818198,0.059785675,-3.0783722,0.6247086,-0.00069867924,-0.015487337,0.0018271811,-0.0014426776,-0.0008155356,-0.0012383674,-0.0002320137,0.44790387,-1.4702785,2.0092986,-2.107703,-1.5706133,2.422737,-0.018358655,0.026248453,-0.025491804,6.6704833e-09,0.0012057789,-0.01810971,-0.51714754,-0.019153614,-9.442732,0.7284641,47.701214,-0.7680373,-2.3119583,-3.3836923,-0.46733215,0.17165259,-0.2094275,26.125,26.9375,26.0625,29.0625,30.125,30.5625
0.036051627,-1.0450059,0.8635784,-0.44038823,0.022469303,0.07452024,-0.17773922,-0.37308118,-0.32816344,0.059787605,-3.0783257,0.6247948,-0.0006648902,-0.016615922,0.0013917933,-0.00042857594,-0.0022155468,0.0006490297,-1.0833122e-05,0.44785577,-1.4702307,2.009239,-2.107691,-1.570649,2.4227486,-0.018861786,0.026071468,-0.027624601,4.3553489e-10,0.0016453927,-0.0188337,-0.36391866,-0.076614454,-9.461885,0.7083204,47.690468,-0.7487433,-2.2517173,-3.4202304,-0.47024015,0.17524855,-0.19628763,26.125,26.9375,26.0625,29.0625,30.125,30.5625
0.038052544,-0.8324948,0.72877616,-0.607149,0.047278628,0.05734314,-0.1798813,-0.3731457,-0.32819045,0.059819728,-3.0784135,0.6247554,-0.0005667659,-0.017785149,0.0011891532,-4.788839e-06,-0.0032732524,0.0013274563,-0.00027014682,0.44783136,-1.4701824,2.0091178,-2.1077154,-1.5706247,2.4226885,-0.019986004,0.027084269,-0.029708896,2.8437313e-11,0.0023020112,-0.019698357,-0.24899697,-0.21068975,-9.519346,0.7329411,47.65464,-0.74425924,-2.1669147,-3.4166732,-0.4557787,0.15343617,-0.1960555,26.125,26.9375,26.0625,29.0625,30.125,30.5625
0.04005231,0.25695854,1.0552549,-0.5334703,0.042358685,0.050710585,-0.18252076,-0.37315568,-0.32816726,0.05979109,-3.0783517,0.62478095,-0.0006184952,-0.018915117,0.001299126,7.510803e-05,-0.0030196882,0.0018262091,-0.00047628125,0.44779512,-1.4701221,2.0091174,-2.1077154,-1.570649,2.422676,-0.020915546,0.028663682,-0.031626977,1.8567532e-12,0.0018519104,-0.020419572,-0.17238252,-0.13407528,-9.519346,0.7620334,47.668976,-0.76015174,-2.1452963,-3.4160905,-0.45406765,0.16902609,-0.19624762,26.125,26.9375,26.0625,29.0625,30.125,30.5625
0.042052235,-0.013019619,0.06135779,-0.5628638,0.049580086,0.023658976,-0.15521728,-0.37322524,-0.3281518,0.05978818,-3.0783346,0.62485397,-0.0005929257,-0.019902987,0.0012570667,-7.139026e-05,-0.0027666353,0.0018054729,0.00020394627,0.44771084,-1.4700254,2.0090206,-2.1077268,-1.570661,2.4226396,-0.021579642,0.030763043,-0.03359758,1.2123272e-13,0.0016282854,-0.021761904,-0.19153613,0.05746084,-9.481039,0.8537928,47.686886,-0.73522544,-2.2171607,-3.3477235,-0.45521462,0.16440846,-0.18632603,26.125,26.9375,26.0625,29.0625,30.125,30.5625
0.044052392,-0.052850913,0.36211526,-0.47960284,0.006729708,0.019842485,-0.16984357,-0.37326002,-0.328162,0.059809618,-3.078374,0.6248431,-0.0005180706,-0.020768331,0.001407612,0.00023668415,-0.002832466,0.0026101966,0.00063506106,0.44769844,-1.4700134,2.008961,-2.1077392,-1.570661,2.4226155,-0.02245049,0.031240549,-0.03482813,7.9156305e-15,0.0013373063,-0.023062373,-0.15322891,0.038307227,-9.500193,0.66132545,47.677036,-0.7064871,-2.1852632,-3.3664985,-0.4338503,0.17769979,-0.17513895,26.125,26.9375,26.0625,29.0625,30.125,30.5625
0.046052534,0.00965649,-0.6830766,-0.63370013,-0.0034214652,0.023162426,-0.1478069,-0.37330592,-0.32813716,0.059804607,-3.0783615,0.62487924,-0.0005596234,-0.022208635,0.0016816003,0.000699766,-0.003144206,0.00373189,0.0003061776,0.44760185,-1.4699531,2.008901,-2.1077154,-1.570649,2.422543,-0.02412856,0.032075804,-0.036808528,5.1683415e-16,0.0011277026,-0.024409851,-0.05746084,0.05746084,-9.423578,0.7530795,47.71465,-0.6800578,-2.0761456,-3.4143796,-0.43053347,0.17298184,-0.18070745,26.125,26.9375,26.0625,29.0625,30.125,30.5625
0.048052475,0.0009340348,-0.7659262,-0.6169166,-0.016830413,0.026624892,-0.1615123,-0.37334967,-0.32814544,0.05979505,-3.078355,0.6248777,-0.00057405414,-0.023273073,0.0017100003,0.00094246306,-0.0032999825,0.004399783,0.00035750584,0.4475776,-1.4698449,2.008804,-2.1077154,-1.570649,2.4225187,-0.025043195,0.033194065,-0.038595866,3.3745578e-17,0.0009745793,-0.025374275,0.038307227,0.19153613,-9.404425,0.69937176,47.694946,-0.68548477,-2.0924132,-3.4761977,-0.41102427,0.18408471,-0.16190815,26.125,26.9375,26.0625,29.0625,30.125,30.5625
0.050051697,-0.2022075,-0.82783335,-0.5604907,-0.021017896,0.025859019,-0.15752584,-0.37336385,-0.32810962,0.059762504,-3.078278,0.6249189,-0.00068236486,-0.024060598,0.0017965474,0.0011068627,-0.0033970037,0.0048582777,0.0008989755,0.44750538,-1.4697727,2.0087912,-2.1076791,-1.570661,2.422482,-0.025840629,0.033966776,-0.039823923,2.2033453e-18,0.00085812114,-0.026712172,-0.019153614,0.3256114,-9.481039,0.7463667,47.68062,-0.6729629,-2.0091047,-3.4337728,-0.42113745,0.19003454,-0.15025616,26.125,26.9375,26.0625,29.0625,30.125,30.5625
0.05205254,-0.28593892,-0.92224234,-0.5713553,-0.017332636,0.018701062,-0.15369548,-0.37340346,-0.32815194,0.059795,-3.0783901,0.6248463,-0.00060822046,-0.025248539,0.0017892204,0.0015267214,-0.0036515524,0.005908035,0.0012534474,0.44751698,-1.4697484,2.0086954,-2.107703,-1.5706137,2.422434,-0.026750257,0.034905463,-0.041817207,1.438627e-19,0.0006308725,-0.027974384,0.019153614,0.34476504,-9.500193,0.72622824,47.666286,-0.6810597,-2.0438569,-3.5067787,-0.41632074,0.20591518,-0.14729619,26.125,26.9375,26.0625,29.0625,30.125,30.5625
0.05405193,0.29670635,-1.027585,-0.7757539,-0.017885122,0.023484714,-0.14895965,-0.3734554,-0.3281407,0.059794225,-3.0783813,0.62480456,-0.00061251904,-0.02582939,0.002152652,0.0016345178,-0.0034305665,0.0055337898,0.0014622166,0.44745672,-1.4696645,2.0085995,-2.1076787,-1.5706257,2.422349,-0.027930986,0.035481464,-0.042918045,0.0009575405,0.00059267273,-0.02936335,0.0,0.4405331,-9.5385,0.7732232,47.672558,-0.6825352,-2.004795,-3.4890418,-0.40499395,0.19426218,-0.13524267,26.125,26.9375,26.0625,29.0625,30.125,30.5625
0.05605197,0.13743545,-0.9665172,-0.773685,-0.030117342,0.019847719,-0.16089581,-0.37353024,-0.32811713,0.059808724,-3.0783553,0.62487525,-0.00057502754,-0.02665321,0.0020758344,0.0018332064,-0.003285279,0.005034025,0.0021191314,0.44736055,-1.4695921,2.0084784,-2.107642,-1.5706495,2.4223003,-0.028585326,0.037056394,-0.04543734,0.0024142214,0.00067607185,-0.03067344,-0.019153614,0.45968673,-9.557653,0.7396539,47.70032,-0.7046218,-1.9125452,-3.5413885,-0.41662133,0.22291574,-0.10197689,26.125,26.9375,26.0625,29.0625,30.125,30.5625
0.05805187,-0.71430916,-1.4802947,-0.8355144,-0.032506667,0.0049226037,-0.14036833,-0.3735864,-0.3281187,0.05981326,-3.0783699,0.6249167,-0.0005303028,-0.027358176,0.0019141295,0.0018162273,-0.003835775,0.0048790127,0.002822941,0.44731215,-1.4695196,2.008394,-2.1076663,-1.570649,2.422276,-0.02929698,0.038381588,-0.046853825,0.0024049932,0.001237083,-0.032088947,0.0,0.4405331,-9.634268,0.800085,47.70032,-0.66663027,-1.9242411,-3.4878964,-0.43700802,0.19464508,-0.11229734,26.125,26.9375,26.0625,29.0625,30.125,30.5625
0.060051784,-0.68875533,-1.5623692,-0.8297947,-0.044966497,0.02207304,-0.14620292,-0.37362173,-0.32811877,0.059794426,-3.078393,0.6248247,-0.00058350316,-0.028372036,0.0016422815,0.001949524,-0.0044567687,0.0053721447,0.0042289095,0.447264,-1.4694234,2.0083344,-2.1076787,-1.5706252,2.4221675,-0.029933587,0.039891593,-0.048745647,0.0020729662,0.001577326,-0.034130782,-0.13407528,0.36391866,-9.576807,0.80456203,47.693153,-0.6565219,-1.8991833,-3.56048,-0.4087357,0.20648396,-0.09826734,26.125,26.9375,26.0625,29.0625,30.125,30.5625
0.06205258,-0.50099564,-1.4209076,-0.50807667,-0.045948483,0.038216222,-0.1495522,-0.3737062,-0.3281213,0.059825875,-3.078422,0.6248691,-0.0005080509,-0.029175851,0.0012221441,0.0015459755,-0.005359064,0.0044193296,0.0035684763,0.44719172,-1.4693507,2.008177,-2.1076548,-1.5706247,2.4221194,-0.030695207,0.042501774,-0.050629314,0.0018111077,0.0028008583,-0.034232665,0.0,0.38307226,-9.481039,0.7530795,47.679718,-0.6736306,-1.8974082,-3.528603,-0.4067101,0.18078627,-0.080029815,26.125,26.9375,26.0625,29.0625,30.125,30.5625
0.06405174,-0.4742723,-0.95808524,-0.48032945,-0.036078226,0.045842476,-0.15367033,-0.3737604,-0.3281092,0.05982494,-3.0784073,0.62490535,-0.00052361045,-0.030053595,0.0008268443,0.0018454121,-0.006199499,0.0051776604,0.0026116034,0.4471197,-1.4692664,2.0080812,-2.107631,-1.5706247,2.422072,-0.031031378,0.043530002,-0.052372575,0.0014777243,0.0032266912,-0.033611543,-0.038307227,0.40222588,-9.442732,0.7597976,47.68599,-0.7575738,-1.9853871,-3.5729027,-0.391145,0.19807062,-0.08951342,26.125,26.9375,26.0625,29.0625,30.125,30.5625
0.066052236,-0.31254706,-0.6679362,-0.42138815,-0.011264642,0.047088254,-0.1512582,-0.37382504,-0.32812962,0.05983935,-3.0784688,0.6248799,-0.00047180746,-0.031305138,0.00070420705,0.0022703437,-0.0065943487,0.00617524,0.0017013624,0.44708326,-1.4691821,2.007961,-2.1076548,-1.5706009,2.4220119,-0.031878237,0.04471233,-0.05465552,0.0015093156,0.0031489683,-0.033546284,-0.24899697,0.38307226,-9.461885,0.74413085,47.68062,-0.69139314,-1.8965487,-3.5459263,-0.37513492,0.17385651,-0.10365781,26.125,26.9375,26.0625,29.0625,30.125,30.5625
0.06805217,-0.72013676,-0.15388955,-0.35251772,0.0051211137,0.03596473,-0.15225288,-0.37389266,-0.32810915,0.05983531,-3.0784547,0.6248571,-0.0004500091,-0.0323185,0.000265927,0.0024493933,-0.0070459,0.0061771935,0.0029431272,0.44699922,-1.4690857,2.0078642,-2.1076543,-1.5706242,2.4219155,-0.0322393,0.046709698,-0.05738603,0.0020433688,0.0035507195,-0.0351481,-0.1340753,0.28730422,-9.442732,0.7038487,47.64927,-0.6994636,-1.9269835,-3.4858403,-0.366569,0.18533629,-0.08866282,26.125,26.9375,26.0625,29.0625,30.125,30.5625
0.07005214,-0.4016278,-0.07003949,-0.40490845,0.0067547522,0.041498832,-0.15259247,-0.37396058,-0.32813135,0.05984332,-3.078509,0.62482893,-0.00041359765,-0.03250021,0.00019646384,0.002054665,-0.0069198855,0.004960038,0.0034906128,0.44696313,-1.4689772,2.0077322,-2.1076782,-1.5706004,2.421855,-0.032547683,0.048255306,-0.058302596,0.0025657937,0.0039640483,-0.036003944,-0.22984336,0.28730422,-9.3661175,0.7709874,47.71286,-0.69770527,-1.8961916,-3.489473,-0.3636663,0.17018957,-0.09239212,26.125,26.9375,26.0625,29.0625,30.125,30.5625
0.07205214,-0.3055298,0.11728745,-0.26235268,-0.0026290964,0.052573718,-0.15015359,-0.3740008,-0.32813817,0.05983807,-3.0785205,0.62477356,-0.00050803146,-0.03416053,-0.00023175574,0.0029201112,-0.0077216504,0.0062718214,0.0037752888,0.44691494,-1.468869,2.0076115,-2.107618,-1.5705642,2.4217708,-0.03334424,0.0497098,-0.06206844,0.0033485903,0.004112075,-0.03708341,-0.2873042,0.24899697,-9.289502,0.7709874,47.6636,-0.7686794,-1.8547844,-3.4353342,-0.3505872,0.16809532,-0.08929896,26.125,26.9375,26.0625,29.0625,30.125,30.5625
0.07405224,-0.35255796,0.36082903,0.031780157,-0.014277924,0.055006348,-0.15455425,-0.37407583,-0.3281445,0.059867095,-3.078562,0.62474316,-0.00040608278,-0.035069227,-0.00046319255,0.002149722,-0.00710706,0.0050616683,0.004115062,0.4468668,-1.4688079,2.007478,-2.107618,-1.5705761,2.4216986,-0.033705406,0.053480253,-0.06443612,0.003302575,0.0040785247,-0.03778197,-0.34476504,0.15322891,-9.308657,0.7665104,47.685097,-0.78450716,-1.9370633,-3.3373396,-0.3571666,0.1516565,-0.09841263,26.125,26.9375,26.0625,29.0625,30.125,30.5625
0.0760523,-0.4217298,0.053030726,-0.09330239,-0.012725788,0.05335112,-0.15625782,-0.37417862,-0.32814488,0.059872832,-3.0785842,0.6248063,-0.00030480925,-0.035547625,-0.00028437926,0.002874538,-0.008083399,0.006156374,0.0017268682,0.4467824,-1.4686764,2.007334,-2.1076777,-1.570588,2.421651,-0.03474033,0.05216302,-0.06469454,0.0034676755,0.004489647,-0.036429252,-0.3256114,0.15322891,-9.346964,0.68818194,47.692257,-0.8623659,-1.9044878,-3.4324708,-0.35246533,0.1498443,-0.10221592,26.125,26.9375,26.0625,29.0625,30.125,30.5625
0.07805216,-0.88191366,-0.19706874,0.05922817,-0.0018633249,0.040728386,-0.14863576,-0.37423155,-0.32813865,0.059864357,-3.078587,0.6248265,-0.0003854489,-0.036714584,-0.00075480953,0.003335913,-0.008868487,0.0065563964,0.0008312027,0.44669816,-1.4685682,2.0072262,-2.1076415,-1.5705518,2.421579,-0.035265163,0.053777203,-0.06768623,0.0041450756,0.005019633,-0.036057714,-0.22984336,0.17238252,-9.270349,0.8537928,47.668976,-0.9002996,-1.7169635,-3.4456048,-0.33380565,0.15265708,-0.13553992,26.125,26.9375,26.0625,29.0625,30.125,30.5625
0.08005208,-0.73272634,0.10202741,0.0984285,0.0049983393,0.04086781,-0.15562853,-0.37432235,-0.3281481,0.059894994,-3.0786572,0.62482125,-0.00027709216,-0.038869385,-0.0008311817,0.004258111,-0.009459189,0.007906312,0.00084222906,0.44662556,-1.4684957,2.0070817,-2.1076653,-1.5705398,2.4214942,-0.037027333,0.055559788,-0.072004355,0.0052089244,0.004966312,-0.037827797,-0.2681506,0.11492168,-9.289502,0.7732232,47.685097,-0.75528514,-1.7738864,-3.1790714,-0.36004406,0.14486614,-0.13531363,26.125,26.9375,26.0625,29.0625,30.125,30.5625
0.082052335,-0.23552127,0.7104547,0.010280568,0.006646744,0.05650992,-0.15940504,-0.37440524,-0.32815394,0.059907436,-3.078668,0.62488174,-0.00026146095,-0.038116883,5.883908e-05,0.0015997817,-0.0066976314,0.0026186318,0.0005405738,0.44655335,-1.4683745,2.0069144,-2.107641,-1.5705279,2.4214585,-0.03787328,0.05999661,-0.07088659,0.005617673,0.004763886,-0.038371734,-0.26815057,0.076614454,-9.270349,0.7329411,47.691364,-0.79269016,-1.9030714,-3.5141716,-0.3534639,0.13326377,-0.13355623,26.125,26.9375,26.0625,29.0625,30.125,30.5625
0.08405253,-0.80164135,0.47746432,0.036071356,0.0033861992,0.04590256,-0.15550378,-0.3744938,-0.3281537,0.059911083,-3.0786743,0.6248447,-0.0002328193,-0.04040942,-0.00038741506,0.004172458,-0.008643622,0.007806468,0.00021622317,0.44648105,-1.4682313,2.006746,-2.1076295,-1.5705403,2.4213624,-0.038765457,0.058083147,-0.07474646,0.0058730934,0.004272208,-0.038936768,-0.30645782,0.15322891,-9.251195,0.83365434,47.691364,-0.8341409,-1.8227158,-3.2633102,-0.34897155,0.13788563,-0.15071967,26.125,26.9375,26.0625,29.0625,30.125,30.5625
0.086052716,-0.43284148,0.4365614,0.004551627,-0.0035775444,0.060073733,-0.15455334,-0.37453854,-0.3281394,0.05989942,-3.0786471,0.6248582,-0.0003460907,-0.04103312,-0.000818986,0.0036009157,-0.0075321794,0.0067085624,0.0008057125,0.44639716,-1.4681222,2.0066364,-2.107557,-1.570516,2.4212904,-0.038152512,0.061563738,-0.0774214,0.0065408344,0.0037376066,-0.038910747,-0.22984336,0.076614454,-9.289503,0.83365434,47.713753,-0.87044597,-1.765065,-3.2759957,-0.3545617,0.1408127,-0.16820468,26.125,26.9375,26.0625,29.0625,30.125,30.5625
0.08805267,-0.66442174,0.10483503,-0.2605658,-0.007693752,0.05093952,-0.1496122,-0.374658,-0.32813868,0.059911307,-3.078668,0.62482387,-0.00022341944,-0.041960664,4.337967e-05,0.0028005207,-0.006406315,0.0049597775,-0.0008525564,0.44631252,-1.4679656,2.0064452,-2.1075928,-1.5705527,2.421182,-0.04042317,0.06420237,-0.07864429,0.0071883756,0.0034791443,-0.0395215,-0.3256114,0.21068975,-9.3661175,0.76874626,47.684196,-0.84993625,-1.8968476,-3.288597,-0.36379164,0.14866185,-0.1918743,26.125,26.9375,26.0625,29.0625,30.125,30.5625
0.09005254,-1.0570827,-1.0088235,-0.35060942,-0.0074984934,0.040792078,-0.14302874,-0.3747332,-0.3281365,0.059928987,-3.0786836,0.62478906,-0.00020789982,-0.043417774,-9.854158e-06,0.003371262,-0.0067951703,0.0054979115,-0.0013678776,0.44624004,-1.4678694,2.0062878,-2.1075447,-1.5705522,2.4210858,-0.041708965,0.065653704,-0.08179167,0.008230999,0.0035942458,-0.040290333,-0.30645782,0.22984336,-9.32781,0.8179876,47.685097,-0.7904479,-1.8586161,-3.2548478,-0.35888776,0.1607372,-0.19421932,26.125,26.9375,26.0625,29.0625,30.125,30.5625
0.09205219,-0.7138917,-0.9181913,-0.26162937,-0.024858873,0.04829098,-0.15019,-0.37480935,-0.3281259,0.05990506,-3.0786476,0.6248979,-0.00026679938,-0.043334793,0.0012130197,0.0019239411,-0.005012003,0.0024772487,-0.0026468325,0.44614342,-1.4677011,2.0061576,-2.1075447,-1.5705408,2.4210618,-0.043713637,0.06769805,-0.08085012,0.008741427,0.0032912048,-0.04101608,-0.3256114,0.30645782,-9.404425,0.7463667,47.67793,-0.717353,-1.8848412,-3.1914701,-0.3796184,0.13986227,-0.20394427,26.125,26.9375,26.0625,29.0625,30.125,30.5625
0.09405222,-0.7046379,-1.1531142,-0.3668636,-0.027419314,0.050473593,-0.14428662,-0.3748935,-0.32813454,0.059909508,-3.0787163,0.6247775,-0.00027223764,-0.043823037,0.001550011,0.0013647194,-0.004128624,0.0017502898,-0.002461217,0.44605905,-1.4675686,2.0060017,-2.1075447,-1.5705045,2.4208937,-0.04444867,0.06949125,-0.08153286,0.008671435,0.002807393,-0.041935146,-0.34476504,0.30645782,-9.481039,0.78217715,47.72271,-0.70022297,-1.908967,-3.3627691,-0.36859417,0.16106422,-0.23162144,26.125,26.9375,26.0625,29.0625,30.125,30.5625
0.09605223,-1.469557,-1.1547776,-0.28322306,-0.02270352,0.039059762,-0.1412705,-0.37498945,-0.32814053,0.059925307,-3.0787191,0.62485355,-0.0002665316,-0.046203896,3.4541255e-05,0.002870328,-0.0055044815,0.005623512,-0.001108981,0.44597542,-1.4674242,2.0057957,-2.107497,-1.5704926,2.4208572,-0.043444358,0.07161743,-0.087209105,0.008136006,0.0023655288,-0.04227845,-0.28730422,0.2681506,-9.404425,0.7284641,47.71554,-0.7786175,-1.8344903,-3.1998715,-0.35626036,0.15003186,-0.24413386,26.125,26.9375,26.0625,29.0625,30.125,30.5625
0.09805222,-0.2775398,-0.4294586,-0.21120459,-0.02301605,0.0630625,-0.15302841,-0.37507346,-0.32810172,0.059927583,-3.0786743,0.6249402,-0.00026048924,-0.046120603,0.0011444293,0.0014702656,-0.0042521153,0.0028550157,-0.0002093579,0.44584283,-1.4673276,2.005676,-2.1074607,-1.5705165,2.4207845,-0.04548257,0.07343254,-0.08600854,0.0081573315,0.0024318197,-0.045216873,-0.3256114,0.28730422,-9.346964,0.80679786,47.694054,-0.7714592,-1.897605,-3.3222992,-0.36565405,0.15752634,-0.2506765,26.125,26.9375,26.0625,29.0625,30.125,30.5625
0.10005206,-0.5504246,-0.014010861,-0.21642153,-0.015257591,0.042496823,-0.14787008,-0.37517515,-0.3281121,0.05992603,-3.078704,0.62486845,-0.00023073057,-0.048123058,0.0007774629,0.00203462,-0.0052162763,0.0042517665,-0.00012927668,0.44577032,-1.4671471,2.0054839,-2.1074731,-1.5705165,2.4206636,-0.04676443,0.07568402,-0.089748785,0.007969393,0.0026923292,-0.046576586,-0.2873042,0.30645782,-9.3661175,0.7597976,47.67166,-0.75995886,-1.8793213,-3.2087278,-0.34314933,0.15215352,-0.24775648,26.125,26.9375,26.0625,29.0625,30.125,30.5625
0.102051936,-0.025491834,-0.27043644,-0.25600392,-0.011615267,0.041525256,-0.15989672,-0.37529406,-0.32812017,0.059965268,-3.0787442,0.6248775,-0.00011502115,-0.049020916,0.00039821715,0.0023082783,-0.0062808786,0.0050761383,-0.0017848486,0.44568616,-1.4670271,2.0052564,-2.1074493,-1.5705284,2.4205801,-0.047254838,0.07663447,-0.09128897,0.007353896,0.003297424,-0.045410927,-0.17238252,0.36391866,-9.308656,0.76874626,47.705692,-0.7763704,-1.9548146,-3.208462,-0.35791785,0.16107795,-0.30054146,26.125,26.9375,26.0625,29.0625,30.125,30.5625
0.10405283,0.048319977,-0.30242848,-0.314686,-0.010714296,0.032030836,-0.14670385,-0.37536687,-0.32812113,0.059936296,-3.0787375,0.62481767,-0.00018574046,-0.05028701,0.00023175203,0.0023173732,-0.006549653,0.00531695,-0.0014989695,0.44561407,-1.466835,2.0051115,-2.1074493,-1.5705165,2.4204717,-0.04816271,0.07885423,-0.09374551,0.0072578485,0.0034289206,-0.046603244,-0.076614454,0.22984336,-9.270349,0.78217715,47.686886,-0.77734244,-1.9363627,-3.1586049,-0.35059303,0.14314951,-0.32202506,26.125,26.9375,26.0625,29.0625,30.125,30.5625
0.10605241,-0.43657532,-0.38772646,-0.27676925,-0.0091852695,0.017829776,-0.15104134,-0.37549403,-0.32813326,0.059973035,-3.0787945,0.6248483,-0.00012009195,-0.051178135,-7.735493e-07,0.002691596,-0.0066213445,0.0060874084,-0.00070776773,0.44550595,-1.4666907,2.0048602,-2.107413,-1.5704926,2.4203756,-0.04832994,0.079894304,-0.09583098,0.0075796004,0.003161946,-0.047559734,-0.19153613,0.28730422,-9.346964,0.75084364,47.734352,-0.8275356,-1.9092487,-3.1955652,-0.33807027,0.15954229,-0.31833664,26.125,26.9375,26.0625,29.0625,30.125,30.5625
0.10805261,-0.28271997,-0.530288,-0.051794555,-0.012017853,0.028698593,-0.14839418,-0.37560022,-0.32813308,0.05997006,-3.0787828,0.6249414,-0.00010609795,-0.051326767,0.00019948102,0.00070196454,-0.0048371996,0.0023341835,0.0010537314,0.44540977,-1.466509,2.004667,-2.107413,-1.5704926,2.420339,-0.048829656,0.08494566,-0.09688177,0.0077351048,0.0031681699,-0.049819577,-0.17238252,0.24899697,-9.346964,0.7911258,47.679718,-0.83594024,-2.104132,-3.186141,-0.34673715,0.1559185,-0.33684707,26.125,26.9375,26.0625,29.0625,30.125,30.5625
0.110052265,-0.62669176,-0.37992957,-0.14598434,-0.017207831,0.026128743,-0.14940223,-0.3757043,-0.32813826,0.059979424,-3.0788162,0.6248914,-5.998991e-05,-0.052614126,-0.0002573097,0.002980108,-0.0069293245,0.0064509725,-0.0007482053,0.4453256,-1.4663544,2.0044754,-2.107413,-1.5704926,2.4202197,-0.049190752,0.08211118,-0.09909113,0.00816233,0.0032814522,-0.048378084,-0.1340753,0.2681506,-9.270349,0.7642693,47.71554,-0.8646642,-1.8728476,-3.1427984,-0.3360085,0.1564438,-0.36919448,26.125,26.9375,26.0625,29.0625,30.125,30.5625
0.11205238,-0.41589692,-0.509655,-0.24695621,-0.012394041,0.036451306,-0.14758307,-0.37580848,-0.3281375,0.0599833,3.0787797,-0.62494063,9.726154e-05,-0.052468333,-0.00039530522,0.0014630452,-0.0059846328,0.0029533312,-0.001595727,0.44520578,-1.4661855,2.0042722,-2.1073768,-1.5704564,2.4201353,-0.049224887,0.086058214,-0.10012216,0.008809631,0.0039353375,-0.047564667,-0.05746084,0.19153614,-9.308657,0.7016076,47.71286,-1.0102473,-1.9109956,-3.2500305,-0.3442292,0.14774615,-0.4345153,26.125,26.9375,26.0625,29.0625,30.125,30.5625
0.11405233,-0.13120164,-0.44713283,-0.32680354,-0.015946027,0.039776754,-0.15284216,-0.3759313,-0.32815784,0.059987128,3.0787416,-0.6248375,7.259027e-05,-0.05342168,0.00030109222,0.0013946256,-0.0058546667,0.0020818303,-0.0011777104,0.44510877,-1.4659811,2.0040438,-2.1074002,-1.5704201,2.4199789,-0.05154426,0.08719793,-0.101479664,0.009871433,0.004195583,-0.050301608,-0.095768064,0.11492168,-9.32781,0.7463667,47.687782,-0.8795624,-2.0715308,-3.2373962,-0.36100876,0.16013682,-0.43450737,26.125,26.9375,26.0625,29.0625,30.125,30.5625
0.11605228,-0.4067933,-0.5222866,-0.21797113,-0.0059604226,0.028629225,-0.14907178,-0.37603027,-0.3281375,0.059993654,3.0787897,-0.62486356,5.817733e-05,-0.05284685,-0.00065551064,0.00036148494,-0.0054901843,0.0006725866,0.0033179533,0.44501355,-1.4658247,2.0038402,-2.1073287,-1.5704678,2.419894,-0.04940398,0.08981433,-0.10181147,0.009012881,0.004469749,-0.052656673,-0.05746084,0.24899697,-9.308656,0.7530795,47.68599,-1.0201392,-2.0321467,-3.3294234,-0.34666038,0.138879,-0.44970143,26.125,26.9375,26.0625,29.0625,30.125,30.5625
0.118052036,-0.56013936,-0.45147783,-0.37842458,-0.0031904366,0.018210612,-0.14346988,-0.3761728,-0.32813102,0.060019463,3.078738,-0.62490976,-5.9709582e-05,-0.05400069,-0.0008028983,0.00040902136,-0.0054391026,0.0012945094,0.00483938,0.44488144,-1.4656683,2.0036118,-2.1073415,-1.5704802,2.4197974,-0.049930945,0.09173658,-0.103985436,0.008726387,0.0041557336,-0.054702606,0.019153614,0.22984336,-9.308657,0.75084364,47.650166,-1.1251916,-2.0222607,-3.2885878,-0.34274483,0.15280555,-0.44905847,26.125,26.9375,26.0625,29.0625,30.125,30.5625
0.12005193,0.13595384,0.25063717,-0.038407125,-0.011462522,0.029298969,-0.1510115,-0.37627465,-0.32814354,0.060012296,3.078766,-0.62485695,-5.400993e-05,-0.05452062,-0.0005028623,0.000107672706,-0.0050419564,0.00091606216,0.006374983,0.4448212,-1.4654524,2.0033848,-2.1073172,-1.5704921,2.4197009,-0.050812896,0.09292659,-0.104614355,0.008678205,0.003958256,-0.057119407,0.0,0.2681506,-9.385271,0.8627467,47.701214,-1.0908604,-2.0540109,-3.3360724,-0.3269279,0.15628174,-0.45009524,26.125,26.9375,26.0625,29.0625,30.125,30.5625
0.12205193,-0.11611205,-0.15777521,-0.2195935,0.0052520377,0.016702808,-0.1522269,-0.3763508,-0.32812858,0.059978038,3.0788057,-0.62480503,9.9188685e-05,-0.05699233,-0.0005823166,0.001299787,-0.0062535857,0.0034671994,0.00816842,0.44470045,-1.4652485,2.0032275,-2.107269,-1.5704564,2.4195428,-0.05285747,0.09410639,-0.108679004,0.008741658,0.0039408808,-0.06095524,-0.076614454,0.24899697,-9.385271,0.8090337,47.694946,-1.0885701,-2.0132525,-3.1863265,-0.30855247,0.1541519,-0.45640188,26.125,26.9375,26.0625,29.0625,30.125,30.5625
0.12405202,-0.30070055,0.07702854,-0.32893217,0.0011720768,0.009709755,-0.15208124,-0.37649396,-0.3281613,0.060015034,3.0787177,-0.6247471,-3.977607e-05,-0.05571193,-0.0003641628,-0.000254149,-0.004645849,-0.00010215425,0.012267044,0.4446166,-1.4650799,2.0029652,-2.1073048,-1.5704321,2.419434,-0.052159075,0.09590333,-0.107277624,0.009458987,0.004037977,-0.06435587,-0.05746084,0.17238252,-9.3661175,0.83365434,47.686886,-1.0733275,-2.0110028,-3.4474592,-0.32839298,0.15809707,-0.4479825,26.125,26.9375,26.0625,29.0625,30.125,30.5625
0.1260521,-0.42945668,-0.17105213,-0.25372168,-0.0029201882,0.009683805,-0.15311264,-0.3765731,-0.32814825,0.059981715,3.0787425,-0.6247301,9.954424e-05,-0.057445336,-0.001232241,0.0008287623,-0.006533,0.0016768826,0.016256023,0.44449654,-1.4648758,2.0028083,-2.1072686,-1.5703958,2.4193003,-0.052696552,0.09719067,-0.11126045,0.009736887,0.00496383,-0.068881586,-0.05746084,0.24899697,-9.32781,0.8224646,47.716442,-1.2269495,-1.9136428,-3.279624,-0.33189553,0.1577254,-0.421148,26.125,26.9375,26.0625,29.0625,30.125,30.5625
0.12805195,-0.69987094,-0.3158198,-0.35051215,-0.012604316,0.015009823,-0.14486605,-0.3766986,-0.32814837,0.060003676,3.0787625,-0.62465596,4.864246e-05,-0.05749851,-0.00045634565,-0.0009679203,-0.0053357426,-0.0019083996,0.019198015,0.44439995,-1.4646951,2.002545,-2.107209,-1.5704197,2.4191551,-0.054490164,0.10061388,-0.110935375,0.009738047,0.0054270816,-0.07361743,-0.076614454,0.19153613,-9.32781,0.8873621,47.686886,-1.1750485,-2.005996,-3.4697237,-0.30936074,0.14393583,-0.3922308,26.125,26.9375,26.0625,29.0625,30.125,30.5625
0.13005224,-0.7039341,-0.31965175,-0.36795014,-0.013118392,0.016998837,-0.15160787,-0.3768575,-0.3281451,0.06001773,3.0787425,-0.62463075,-6.507517e-05,-0.058886968,-0.00020764626,0.0005383008,-0.006002968,0.0010637885,0.022280548,0.44426745,-1.4644802,2.0022814,-2.1072328,-1.570444,2.4190097,-0.055719677,0.09904661,-0.112779215,0.010180464,0.004755065,-0.0779275,-0.076614454,0.19153613,-9.404425,0.78217715,47.70032,-1.1745002,-1.8652315,-3.52876,-0.32658726,0.14630839,-0.3206589,26.125,26.9375,26.0625,29.0625,30.125,30.5625
0.1320522,0.033648472,-0.36549756,-0.23889498,-0.014817605,0.042281333,-0.16004482,-0.37697032,-0.3281672,0.060022656,3.078684,-0.6244819,-5.6980334e-05,-0.05986099,5.2274107e-05,-6.1149185e-05,-0.005151891,-0.00021769322,0.025273196,0.44415903,-1.4642996,2.0020764,-2.1072567,-1.570372,2.4188159,-0.056913342,0.10209007,-0.1149237,0.010811922,0.0045388583,-0.082111776,-0.05746084,0.114921674,-9.385271,0.7642693,47.685097,-1.1723638,-1.8457575,-3.4882834,-0.3235035,0.14846987,-0.2655798,26.125,26.9375,26.0625,29.0625,30.125,30.5625
0.13405225,-1.2114604,-0.8901751,-0.4899081,0.002563469,0.012817101,-0.14544614,-0.37705818,-0.3281602,0.060005352,3.0787716,-0.6243448,3.467095e-05,-0.06065495,-1.6181584e-05,0.00037900519,-0.0058603375,0.0011090745,0.027029436,0.44407502,-1.4640838,2.001859,-2.1071732,-1.5703839,2.4186354,-0.057520237,0.10209458,-0.115818545,0.010199347,0.004598904,-0.08447471,-0.17238252,0.13407528,-9.423578,0.7933669,47.688675,-1.1828256,-1.8823724,-3.493876,-0.31649673,0.15854232,-0.22703132,26.125,26.9375,26.0625,29.0625,30.125,30.5625
0.13605218,-0.5427462,0.024118468,-0.53403133,-0.00866201,0.03416795,-0.15284581,-0.37719205,-0.3281473,0.059994705,3.0787828,-0.6242897,3.7055204e-05,-0.063174404,-0.00064598524,0.0017870354,-0.007528503,0.0036905615,0.027474506,0.4439304,-1.4638556,2.0016315,-2.1071727,-1.5703834,2.4184551,-0.058833934,0.10369924,-0.1209453,0.010673319,0.004987352,-0.08623095,-0.22984336,0.19153613,-9.423578,0.85826975,47.682407,-1.1428574,-1.8367,-3.462026,-0.3138243,0.14264175,-0.1790835,26.125,26.9375,26.0625,29.0625,30.125,30.5625
0.13805209,-0.7233494,-0.53859437,-0.80559546,0.007045733,0.03377474,-0.15068597,-0.37732533,-0.3281555,0.060018912,3.0787442,-0.62424314,2.0959005e-06,-0.062922694,-0.00014099032,0.00044971678,-0.006499899,0.0007607109,0.0266248,0.44381016,-1.4636753,2.0013688,-2.1071365,-1.5703596,2.4183109,-0.059753433,0.10603007,-0.120555416,0.011041809,0.00532285,-0.08630097,-0.17238252,0.19153613,-9.385271,0.8806493,47.68599,-1.2380509,-1.8420634,-3.530702,-0.3145698,0.13627516,-0.14933902,26.125,26.9375,26.0625,29.0625,30.125,30.5625
0.14005199,-0.50350803,-0.18157017,-0.7455489,-0.0065759965,0.0415491,-0.14994374,-0.37745085,-0.32814056,0.060010802,3.0787537,-0.6241699,5.490039e-05,-0.06481948,-0.00047411717,0.0014034971,-0.008288956,0.0029816895,0.023610717,0.4436536,-1.4634593,2.0011408,-2.1071007,-1.5703357,2.4181075,-0.061238855,0.10681497,-0.123484865,0.010412759,0.0059760385,-0.084771365,-0.22984336,0.22984336,-9.423578,0.8224646,47.693153,-1.1755178,-1.8548377,-3.420648,-0.3208944,0.12586483,-0.16169025,26.125,26.9375,26.0625,29.0625,30.125,30.5625
0.14205186,-1.2408993,-0.57491827,-0.7441917,-0.010709077,0.040621005,-0.14595556,-0.3775483,-0.32813162,0.05998973,3.0788229,-0.62408817,0.00013258214,-0.06633662,-0.0007926675,0.0023189157,-0.008809472,0.0048284833,0.022190565,0.4435575,-1.4632313,2.0009239,-2.1070411,-1.5703477,2.4179518,-0.06175615,0.107677706,-0.12665294,0.010827294,0.0056424094,-0.083866626,-0.38307226,0.22984336,-9.481039,0.8090337,47.675243,-1.2835565,-1.7678342,-3.3344946,-0.31792873,0.12626603,-0.1454227,26.125,26.9375,26.0625,29.0625,30.125,30.5625
0.14405207,-1.4907416,-0.8107207,-0.75965685,-0.016635453,0.05431375,-0.14741936,-0.37768778,-0.32816195,0.060014307,3.078801,-0.6239145,8.029459e-05,-0.06770502,-0.00045418215,0.0026352548,-0.009240301,0.0055824933,0.015520319,0.44347292,-1.4630156,2.000624,-2.1070173,-1.5703233,2.4177618,-0.0636322,0.10860958,-0.12842132,0.010799253,0.0057095266,-0.079071045,-0.45968673,0.2681506,-9.500193,0.8023209,47.716442,-1.3103573,-1.73127,-3.4019341,-0.32539985,0.1268693,-0.16710392,26.125,26.9375,26.0625,29.0625,30.125,30.5625
0.14605218,-1.4558688,-1.0999591,-0.8860994,-0.01490274,0.066092335,-0.14927787,-0.3778396,-0.32813147,0.06001674,3.0788078,-0.6239957,3.460203e-05,-0.06906953,-8.741105e-05,0.0022771712,-0.0086695375,0.0053724,0.010069159,0.44330436,-1.462799,2.0003736,-2.106993,-1.5703596,2.4176433,-0.06521718,0.11125778,-0.1305222,0.010685628,0.0052812053,-0.0752026,-0.4213795,0.28730422,-9.576807,0.800085,47.71554,-1.194161,-1.6367694,-3.355299,-0.34162652,0.11620806,-0.22759274,26.125,26.9375,26.0625,29.0625,30.125,30.5625
0.14805208,-1.45393,-0.42129034,-0.5739853,-0.038795345,0.074983396,-0.15548548,-0.37798116,-0.3281478,0.06001476,3.0787475,-0.6239643,8.740696e-05,-0.07019186,6.033693e-05,0.0022374939,-0.008948886,0.0051433695,0.009099736,0.44315982,-1.462547,2.000097,-2.106981,-1.5702876,2.417487,-0.06669799,0.113030195,-0.13247877,0.010962009,0.005630447,-0.07571311,-0.47884035,0.30645782,-9.595961,0.8314132,47.694054,-1.1528461,-1.734658,-3.3571537,-0.34170812,0.13367507,-0.25133884,26.125,26.9375,26.0625,29.0625,30.125,30.5625
0.150052,-1.7224526,-0.85756993,-0.4982974,-0.0294478,0.0752023,-0.14809573,-0.37810823,-0.32813144,0.06001956,3.0787938,-0.62391883,7.0876675e-05,-0.071173176,5.010777e-05,0.0009896519,-0.008189182,0.0035002667,0.0054372405,0.4430396,-1.4623417,1.9998459,-2.1069214,-1.5703233,2.4173326,-0.067537986,0.11747699,-0.13438919,0.010233185,0.0056424714,-0.07288873,-0.6512228,0.2681506,-9.653421,0.779936,47.68599,-1.1868978,-1.7265692,-3.3267446,-0.32733703,0.11674097,-0.27849168,26.125,26.9375,26.0625,29.0625,30.125,30.5625
0.15205194,-2.0738041,-1.2437817,-0.85267234,-0.011167828,0.06759713,-0.14336623,-0.3782689,-0.32815674,0.060052577,3.0786767,-0.6239131,1.727009e-05,-0.07244727,0.00020342998,0.002215626,-0.009216041,0.0065691676,0.005093577,0.44289523,-1.4621387,1.9995459,-2.1069214,-1.5702518,2.4171996,-0.06866501,0.11603865,-0.13547313,0.009550305,0.0052593313,-0.07367052,-0.6895301,0.28730422,-9.576807,0.7978386,47.672558,-1.2232373,-1.7990254,-3.3583775,-0.3205377,0.11804709,-0.30436006,26.125,26.9375,26.0625,29.0625,30.125,30.5625
0.1540521,-1.0470366,-0.2958368,-0.69921416,-0.019698577,0.08476676,-0.15581131,-0.37839946,-0.32815468,0.06004788,3.0786786,-0.6238366,-9.582438e-06,-0.07280568,0.0010023658,-0.00035017144,-0.0066535072,0.0021129025,0.0049189767,0.4427747,-1.461921,1.999319,-2.1069338,-1.5702518,2.4170313,-0.070179656,0.12195725,-0.13613206,0.009417606,0.0048545357,-0.07500864,-0.61291564,0.2681506,-9.557653,0.80679786,47.684196,-1.1199938,-1.6054902,-3.4466367,-0.31135452,0.11394839,-0.3250862,26.125,26.9375,26.0625,29.0625,30.125,30.5625
0.15606341,-1.4275217,-0.73837054,-0.44145396,-0.007022534,0.06647488,-0.14237413,-0.378579,-0.3281675,0.060073063,3.0786245,-0.62382656,-9.205094e-05,-0.07466106,0.0008069762,0.0003377515,-0.0073135374,0.0042448044,0.0044856532,0.44263035,-1.4616688,1.9989799,-2.106922,-1.5702399,2.4168878,-0.071215235,0.123346366,-0.13913684,0.008827108,0.0045365486,-0.07560809,-0.49799395,0.24899697,-9.461885,0.779936,47.678825,-1.1839756,-1.7455025,-3.2845492,-0.29971313,0.12246452,-0.3263799,26.125,26.9375,26.0625,29.0625,30.125,30.5625
0.1580522,-1.3025299,-0.4514082,-0.34897918,-0.010002476,0.05763775,-0.1507201,-0.3787399,-0.3281628,0.060062926,3.0786529,-0.62377495,-0.00017966023,-0.07650045,0.0002058664,0.0011186174,-0.008126464,0.006424594,0.0034341977,0.44251022,-1.4613929,1.9987062,-2.1069582,-1.5702881,2.416732,-0.071560115,0.12510425,-0.1428086,0.0084206,0.00433219,-0.074898675,-0.61291564,0.17238252,-9.404425,0.87617236,47.66987,-1.151972,-1.8458381,-3.3473005,-0.28621334,0.12207812,-0.35602582,26.125,26.9375,26.0625,29.0625,30.125,30.5625
0.16005215,-1.6545324,-0.39668378,-0.33365643,-0.0035573945,0.036780264,-0.14305943,-0.37889647,-0.32816413,0.060093123,3.0785866,-0.6237994,-0.00017847714,-0.07793801,0.0017771481,0.00044789555,-0.0077181486,0.0052029574,0.0018111198,0.44234076,-1.4611886,1.9983948,-2.1068866,-1.5702399,2.4165864,-0.0758408,0.12686191,-0.14322735,0.008365136,0.004490238,-0.07755583,-0.5746084,0.1340753,-9.423578,0.83365434,47.68599,-1.0247214,-1.7389126,-3.3411427,-0.27299625,0.14274876,-0.3592477,26.125,26.9375,26.0625,29.0625,30.125,30.5625
0.16205259,-0.87865245,-0.14445627,-0.21238972,-0.0075066695,0.04856832,-0.15202759,-0.37905815,-0.328141,0.06007854,3.0786037,-0.62380254,-0.00017215754,-0.07835651,0.0006421061,0.0003421168,-0.00803561,0.005110634,0.0027725634,0.44216144,-1.4609121,1.9981197,-2.1068742,-1.5702518,2.416407,-0.07426735,0.12935826,-0.14578135,0.008369027,0.0048113945,-0.076942444,-0.36391866,0.21068975,-9.308656,0.8179876,47.684196,-1.1168547,-1.8294597,-3.3500848,-0.26676124,0.10688105,-0.37097007,26.125,26.9375,26.0625,29.0625,30.125,30.5625
0.16405188,-0.7224043,0.012366311,0.0096903015,-0.004787743,0.046012923,-0.15807556,-0.37923694,-0.32814467,0.060104363,3.078509,-0.62391704,-0.00025359122,-0.08049414,0.00059000077,0.00014773292,-0.008330085,0.005050583,0.0036352414,0.4419927,-1.4606832,1.9978074,-2.1068742,-1.5702275,2.416322,-0.07622416,0.13333234,-0.14974137,0.008285839,0.005103595,-0.07975896,-0.36391866,0.11492168,-9.289503,0.83589023,47.694054,-1.1403791,-1.7705891,-3.323636,-0.252805,0.12435347,-0.39193624,26.125,26.9375,26.0625,29.0625,30.125,30.5625
0.16605185,-1.169423,-0.11604427,-0.17544271,0.008595848,0.030883813,-0.14978786,-0.37936616,-0.32814544,0.0600617,3.07858,-0.6237376,-0.00015034885,-0.08120812,0.002812177,-0.00015780624,-0.007683233,0.003938996,0.0055388934,0.44187102,-1.46036,1.9975446,-2.1068618,-1.5702156,2.4160795,-0.080901034,0.13240722,-0.14821745,0.008972584,0.0049964935,-0.086341046,-0.2681506,0.15322891,-9.193734,0.8247004,47.71286,-0.92592824,-1.8543892,-3.3371782,-0.23404646,0.12011444,-0.34916863,26.125,26.9375,26.0625,29.0625,30.125,30.5625
0.16805173,-0.8460245,0.16949786,-0.09099751,0.009229695,0.036902227,-0.15196684,-0.3795699,-0.32814875,0.060104012,3.0785124,-0.62372184,-0.00032528033,-0.081263095,0.0017451764,-0.00127152,-0.0063721472,0.0015348636,0.009245305,0.44170395,-1.4601306,1.9971966,-2.1068738,-1.5702275,2.4159114,-0.07881014,0.13723826,-0.1512591,0.00991797,0.0048478167,-0.08795357,-0.28730422,0.11492168,-9.270349,0.7418897,47.698532,-1.0539234,-2.052591,-3.2161994,-0.23290783,0.12801208,-0.34618282,26.125,26.9375,26.0625,29.0625,30.125,30.5625
0.17005178,-1.0629488,0.23410621,0.013721859,0.0046877475,0.02737612,-0.15257569,-0.379728,-0.32816342,0.06012471,3.078465,-0.62365323,-0.0003254043,-0.08289665,0.0026486712,-0.0009653474,-0.0068310397,0.001805514,0.011253917,0.4415587,-1.4598912,1.9968733,-2.106826,-1.5701798,2.4157295,-0.082107574,0.13801172,-0.15295964,0.010410004,0.005151037,-0.09325883,-0.19153613,0.076614454,-9.193734,0.842603,47.679718,-0.91625786,-1.8995924,-3.3329062,-0.23996875,0.12329979,-0.30511,26.125,26.9375,26.0625,29.0625,30.125,30.5625
0.17205162,-0.29197586,0.19418,0.338865,-0.0031964076,0.04686302,-0.16062005,-0.37992075,-0.32814148,0.06012248,3.0784578,-0.6236298,-0.00037971349,-0.083700545,0.0025948551,-0.0007348175,-0.0077497764,0.0018953492,0.015339106,0.44135445,-1.4596034,1.9965624,-2.1068375,-1.5701917,2.4155118,-0.08320042,0.13876879,-0.15441489,0.01063343,0.005947776,-0.0984366,-0.19153613,0.1340753,-9.136273,0.75084364,47.694054,-0.9617652,-1.8731332,-3.3283691,-0.21884197,0.11081286,-0.2270074,26.125,26.9375,26.0625,29.0625,30.125,30.5625
0.1740526,-1.3483493,-0.17935243,0.10908685,0.0030487103,0.017775917,-0.14400886,-0.3800799,-0.32814634,0.060114335,3.078473,-0.6235149,-0.00039479168,-0.08495752,0.0025866467,-0.00038566,-0.008097044,0.0024591559,0.018715397,0.44122213,-1.4593154,1.996262,-2.1068375,-1.5701917,2.415306,-0.0843077,0.14011559,-0.15684123,0.011056997,0.006021206,-0.10291876,-0.2681506,0.21068975,-9.002198,0.79560274,47.66808,-0.85563135,-1.9030952,-3.3369493,-0.20251583,0.12674029,-0.1636248,26.125,26.9375,26.0625,29.0625,30.125,30.5625
0.1760525,-0.64102167,0.15698406,0.32025537,-0.0012234575,0.031531323,-0.1459716,-0.380263,-0.32813865,0.060116507,3.0784538,-0.6235111,-0.00037204474,-0.08680557,0.0030741575,0.00016400353,-0.008548676,0.0036768876,0.01943776,0.44102925,-1.4590156,1.9959139,-2.1067894,-1.5701679,2.4151134,-0.08672567,0.1411544,-0.15932654,0.011214771,0.005907725,-0.106057525,-0.22984336,0.13407528,-9.078813,0.7172743,47.675243,-0.81290054,-1.8148792,-3.2864172,-0.20494814,0.119489804,-0.09719562,26.125,26.9375,26.0625,29.0625,30.125,30.5625
0.17805243,-0.5665463,0.28787908,0.26428384,0.004455449,0.034858268,-0.15553498,-0.38042766,-0.3281227,0.060105283,3.078493,-0.62340254,-0.000366165,-0.08675672,0.0029980198,-0.00024695264,-0.0075867865,0.002398811,0.020241635,0.4408614,-1.4587276,1.9956149,-2.106765,-1.5701798,2.4148731,-0.08627638,0.14272307,-0.16041131,0.012298328,0.00558327,-0.106411405,-0.30645782,0.076614454,-9.059659,0.78217715,47.67614,-0.7406095,-1.819791,-3.3423533,-0.20657678,0.10854772,-0.07043514,26.125,26.9375,26.0625,29.0625,30.125,30.5625
0.1800523,-0.61744535,0.559479,0.036965076,0.018538933,0.029188057,-0.1476368,-0.38059434,-0.32809868,0.060087115,3.0785286,-0.6233356,-0.000319655,-0.087904215,0.0032969036,-0.00023741089,-0.007883002,0.0027805972,0.01701558,0.44066882,-1.4584277,1.9953159,-2.1067293,-1.5701798,2.4146345,-0.08786443,0.14397743,-0.16178457,0.011945809,0.0056808703,-0.1047727,-0.36391866,0.15322891,-9.136273,0.800085,47.694946,-0.8068093,-1.816017,-3.364221,-0.1758076,0.12206796,-0.067994386,26.125,26.9375,26.0625,29.0625,30.125,30.5625
0.18205228,-0.56983185,0.12646577,0.011189583,0.026948102,0.032294612,-0.14950083,-0.38076028,-0.32812342,0.0601015,3.0784948,-0.62319815,-0.0003179456,-0.09043342,0.003968161,-0.0004355741,-0.008463013,0.0021619198,0.009768497,0.4405353,-1.4581507,1.9949678,-2.1066935,-1.5701312,2.4144197,-0.09183293,0.14767511,-0.16555725,0.01233488,0.0064648176,-0.10149208,-0.26815057,0.17238252,-9.136273,0.8247004,47.689575,-0.5852787,-1.856947,-3.339005,-0.17513368,0.11277427,-0.09637802,26.125,26.9375,26.0625,29.0625,30.125,30.5625
0.18405233,-0.65233517,0.035930365,-0.12852167,0.016029552,0.035552237,-0.15234327,-0.38094342,-0.328123,0.0601024,3.0784538,-0.62322813,-0.0003259749,-0.08946595,0.0030613097,0.0008243422,-0.009639485,0.0038798086,0.00867365,0.44035646,-1.4578526,1.9946321,-2.1066806,-1.5701073,2.414265,-0.08945386,0.14442724,-0.16503423,0.013005247,0.0068008746,-0.0980194,-0.2681506,0.15322891,-9.155427,0.7933669,47.70838,-0.87179375,-1.6859099,-3.4979627,-0.17166933,0.10541913,-0.12864529,26.125,26.9375,26.0625,29.0625,30.125,30.5625
0.18605237,-0.5276402,0.061202925,-0.3475083,0.008926937,0.033939257,-0.14778578,-0.38113314,-0.3280885,0.06009943,3.0784354,-0.6233046,-0.00029818472,-0.09062478,0.003388413,0.0011793794,-0.009111506,0.0041248677,0.0038061454,0.44011596,-1.4575648,1.9943088,-2.1066325,-1.570095,2.4140747,-0.090633854,0.14562845,-0.1675128,0.014289306,0.0062149363,-0.094330266,-0.34476504,0.15322891,-9.174581,0.8627467,47.71465,-0.7636433,-1.6571517,-3.3708389,-0.16663033,0.10603524,-0.1560806,26.125,26.9375,26.0625,29.0625,30.125,30.5625
0.18805225,-0.58598495,-0.078745075,-0.24266805,0.003143228,0.04501462,-0.15393016,-0.38131717,-0.32807043,0.06010233,3.078452,-0.62328887,-0.00033410708,-0.09081495,0.0033362017,0.00013134565,-0.0076056053,0.0019602326,0.0014603684,0.43993616,-1.4572762,1.9939736,-2.1065962,-1.5701197,2.4138832,-0.0903569,0.14905086,-0.16913436,0.015087697,0.005773478,-0.09170591,-0.2681506,0.13407528,-9.270349,0.95226496,47.687782,-0.8431195,-1.5856631,-3.4215655,-0.19288205,0.111365184,-0.20331559,26.125,26.9375,26.0625,29.0625,30.125,30.5625
0.19005182,-0.7594398,-0.09965507,-0.56053436,0.00053015,0.03297809,-0.14068419,-0.3815118,-0.32808146,0.06009776,3.0784225,-0.6232247,-0.00035598787,-0.09156635,0.0028851053,0.0002821335,-0.0071631707,0.0023405722,0.001073073,0.43976843,-1.4569402,1.9936141,-2.1066086,-1.5700954,2.4136794,-0.089747466,0.150869,-0.17167647,0.015660783,0.0052105924,-0.09070701,-0.22984336,0.11492168,-9.346964,0.82694155,47.64479,-0.8376134,-1.633583,-3.388712,-0.17123434,0.11889933,-0.25078636,26.125,26.9375,26.0625,29.0625,30.125,30.5625
0.19205183,-0.47235668,-0.090211116,-0.74823767,-0.0053221597,0.035503373,-0.14977881,-0.38169587,-0.32805696,0.060091853,3.0784411,-0.6233063,-0.0003462994,-0.0912204,0.0028610486,-0.00038873957,-0.0068140854,0.0010852326,0.00021986858,0.4395765,-1.4566286,1.9932679,-2.1065485,-1.5701197,2.4135363,-0.08948687,0.15191232,-0.17131712,0.015540312,0.0054273983,-0.08959364,-0.05746084,0.19153613,-9.385271,0.800085,47.672558,-0.94072485,-1.562793,-3.5024908,-0.16605742,0.11833118,-0.2780955,26.125,26.9375,26.0625,29.0625,30.125,30.5625
0.19405183,-0.279168,-0.729086,-0.9978194,-0.007988962,0.033737365,-0.1460433,-0.3818447,-0.32803324,0.060062382,3.0784667,-0.6232932,-0.00023258662,-0.09234495,0.0021233805,0.00041793936,-0.008314836,0.0023681931,-0.0018883714,0.43938437,-1.4563286,1.9929913,-2.1065004,-1.570095,2.413333,-0.08958894,0.15270987,-0.17414637,0.015772093,0.006227623,-0.08758704,-0.11492168,0.30645782,-9.500193,0.8179876,47.694946,-1.0353246,-1.6763294,-3.4180737,-0.14528823,0.12304212,-0.31863344,26.125,26.9375,26.0625,29.0625,30.125,30.5625
0.19605172,-0.612691,-0.86838937,-1.2218033,-0.026535956,0.015087179,-0.14622362,-0.38204345,-0.32804564,0.060082514,3.0784314,-0.62326515,-0.0002530409,-0.09337283,0.0020401555,-0.0010170583,-0.0073732072,-0.00033983606,-0.0012083534,0.43921623,-1.456015,1.9925832,-2.1064403,-1.5700711,2.413152,-0.09048371,0.158147,-0.17701125,0.01605414,0.006526234,-0.08915958,-0.076614454,0.38307226,-9.672575,0.85155696,47.674347,-1.0029358,-1.7591792,-3.4647598,-0.17268258,0.11227077,-0.35338214,26.125,26.9375,26.0625,29.0625,30.125,30.5625
0.19805166,-0.56143606,-1.5711257,-1.5363322,-0.027408246,0.005301482,-0.13232684,-0.3822004,-0.32802078,0.060055844,3.0784523,-0.6233305,-0.00015068156,-0.09401713,0.002598104,-0.0013317516,-0.0061785323,-0.0011745952,-0.005864031,0.43902394,-1.4557031,1.9922842,-2.1063807,-1.5700597,2.412998,-0.091547094,0.15974815,-0.17834678,0.01705524,0.005791445,-0.08556638,0.019153614,0.40222588,-9.787497,0.7665104,47.72002,-1.0593586,-1.8580083,-3.4711313,-0.16427398,0.13260427,-0.42652136,26.125,26.9375,26.0625,29.0625,30.125,30.5625
0.20005259,-0.104179665,-1.7479365,-1.4724565,-0.041482642,0.017404081,-0.14875636,-0.38241288,-0.32802865,0.0600679,3.0784228,-0.62328535,-0.00019774474,-0.09493348,0.0029661078,-0.0023843253,-0.0047226273,-0.002714914,-0.0055787778,0.43884352,-1.4553665,1.991877,-2.1063569,-1.5700477,2.4127934,-0.09253476,0.163509,-0.18019272,0.017158506,0.005129158,-0.0868369,-0.019153614,0.34476504,-9.80665,0.8873621,47.65106,-0.99800795,-1.8247414,-3.4324803,-0.16697982,0.13893045,-0.4575828,26.125,26.9375,26.0625,29.0625,30.125,30.5625
0.20205244,-0.51332945,-1.7776058,-1.307947,-0.048053615,0.012840996,-0.13734785,-0.3826133,-0.32798573,0.060056545,3.078459,-0.6233479,-0.00025342632,-0.096053146,0.002966723,-0.002607295,-0.0043830224,-0.002696461,-0.0033687549,0.43862733,-1.4550543,1.9915532,-2.106345,-1.5701078,2.412612,-0.09324551,0.16591121,-0.18238291,0.017072422,0.0048103756,-0.089755826,0.038307227,0.3256114,-9.844957,0.8537928,47.684196,-1.0080628,-2.0064852,-3.469796,-0.16147289,0.15959698,-0.47782725,26.125,26.9375,26.0625,29.0625,30.125,30.5625
0.2040523,-0.72981703,-1.6721017,-1.2113857,-0.038951904,0.013462656,-0.1467069,-0.38278955,-0.3279918,0.06006418,3.0783954,-0.6234083,-0.00016762808,-0.09673858,0.0027291374,-0.0028610483,-0.0048315157,-0.003026649,0.003083181,0.4384353,-1.454754,1.9911827,-2.106261,-1.5700353,2.4124658,-0.093709916,0.16776852,-0.18385321,0.01680303,0.005354988,-0.09667167,0.05746084,0.4405331,-9.825804,0.8403672,47.705692,-1.0661585,-1.953289,-3.4941344,-0.14059678,0.15917517,-0.45885575,26.125,26.9375,26.0625,29.0625,30.125,30.5625
0.20605223,0.019408492,-1.2822478,-1.2013834,-0.035677608,0.030727895,-0.15011019,-0.38299447,-0.32800663,0.060054146,3.0783863,-0.6232699,-0.00017987766,-0.09849166,0.0020751732,-0.0019406466,-0.006458242,-0.00087537034,0.007241393,0.4382668,-1.4543823,1.990795,-2.106273,-1.5700115,2.4122124,-0.09434158,0.16894151,-0.1872247,0.01636709,0.005911946,-0.101459846,0.0,0.38307226,-9.730036,0.8112748,47.71554,-1.0454121,-1.9616756,-3.297841,-0.147208,0.15134235,-0.4123671,26.125,26.9375,26.0625,29.0625,30.125,30.5625
0.20805216,-0.5191462,-0.9269765,-0.9759266,-0.03115448,0.0096050585,-0.14822406,-0.38321158,-0.3280165,0.060071297,3.078388,-0.6231492,-0.00028682343,-0.100532256,0.002397151,-0.0012478754,-0.007712028,0.00064648536,0.013860138,0.43811002,-1.4540467,1.9903797,-2.106261,-1.5700349,2.4119804,-0.0969975,0.16990288,-0.1898861,0.016158694,0.006408306,-0.11073295,0.095768064,0.4405331,-9.557653,0.8090337,47.693153,-1.078578,-1.9338669,-3.3453178,-0.12620793,0.14407447,-0.36691737,26.125,26.9375,26.0625,29.0625,30.125,30.5625
0.21005207,-0.026713096,-0.7226236,-0.93272406,-0.027607637,0.0134438835,-0.15075378,-0.38343608,-0.3279958,0.0600968,3.0783522,-0.6231573,-0.00038978353,-0.099819675,0.0012298085,-0.0008368491,-0.007793107,0.0014967496,0.02220582,0.4378832,-1.4537596,1.9899963,-2.1062372,-1.5700477,2.4117634,-0.093945175,0.16947098,-0.19043271,0.016336583,0.0061328756,-0.116025545,-0.038307227,0.45968673,-9.519346,0.8090337,47.70032,-1.1501526,-1.7709846,-3.4286618,-0.11791507,0.14813168,-0.29404676,26.125,26.9375,26.0625,29.0625,30.125,30.5625
0.21205202,-0.5812574,-0.64011365,-0.67800444,-0.039899025,0.01729993,-0.14961378,-0.3836067,-0.32800928,0.060077015,3.078358,-0.62300295,-0.00031312153,-0.100903474,0.0021705232,-0.0014856872,-0.007444246,-0.0001329058,0.023826597,0.43772617,-1.4534111,1.9896482,-2.1062133,-1.5699991,2.4115095,-0.09683732,0.17169781,-0.19161919,0.016927943,0.006507302,-0.12053818,-0.05746084,0.4405331,-9.576807,0.85155696,47.67793,-1.1645985,-1.9815221,-3.482267,-0.12758362,0.13812546,-0.22465748,26.125,26.9375,26.0625,29.0625,30.125,30.5625
0.21405187,-1.0848466,-1.2248243,-0.72874886,-0.031843938,0.021501137,-0.14788836,-0.38381743,-0.32799473,0.060073856,3.0783894,-0.62293124,-0.0003078445,-0.101682134,0.0011769913,-0.0014163197,-0.00838008,-0.00020942051,0.027324665,0.43752238,-1.4530512,1.989241,-2.1061532,-1.570011,2.4112573,-0.09618815,0.17409694,-0.19455676,0.01713756,0.0073824837,-0.12338604,-0.05746084,0.30645782,-9.519346,0.8157518,47.688675,-1.1105878,-1.8220425,-3.435133,-0.11372639,0.14606282,-0.17445076,26.125,26.9375,26.0625,29.0625,30.125,30.5625
0.21605188,-0.75992393,-0.78994906,-0.4527207,-0.03334838,0.042548887,-0.14702815,-0.38403124,-0.3280114,0.060093176,3.0783372,-0.62282544,-0.0003634774,-0.102854095,0.0009086732,-0.00039150057,-0.009856844,0.001249034,0.026406147,0.43734196,-1.4527278,1.9888338,-2.1061409,-1.5699748,2.4110177,-0.09712865,0.1739251,-0.19689193,0.01770127,0.0081082415,-0.123407036,-0.095768064,0.24899697,-9.442732,0.9164598,47.682407,-1.2640423,-1.7789588,-3.4841347,-0.11961676,0.15168872,-0.14944614,26.125,26.9375,26.0625,29.0625,30.125,30.5625
0.21805188,-0.71705306,-0.50427264,-0.21743321,-0.02227494,0.05009325,-0.14527085,-0.38423663,-0.32800028,0.060098037,3.078318,-0.62278533,-0.00035415735,-0.103730656,0.0016799585,-0.00072760996,-0.009347716,0.00066794886,0.02104897,0.43712544,-1.4524035,1.9884504,-2.1060927,-1.5699505,2.4107788,-0.0991119,0.17524414,-0.19770008,0.017936042,0.007891808,-0.12003238,-0.21068975,0.21068975,-9.3661175,0.8717007,47.694946,-1.1640341,-1.7799814,-3.5078268,-0.09651475,0.120897725,-0.14861469,26.125,26.9375,26.0625,29.0625,30.125,30.5625
0.22005169,-0.74628747,0.12645338,-0.2294953,-0.004958328,0.045116443,-0.14736527,-0.38445434,-0.32802066,0.06009397,3.0782647,-0.62270164,-0.0003413695,-0.10509793,0.0014197164,-0.0002797474,-0.0103192255,0.0019437904,0.014984497,0.43693322,-1.4520199,1.9880322,-2.1060927,-1.5698909,2.4105413,-0.09997273,0.17645507,-0.20003895,0.017501095,0.008227197,-0.11482724,-0.3256114,0.11492168,-9.251195,0.9186956,47.70032,-1.2286066,-1.7107513,-3.4600024,-0.08838044,0.12631844,-0.21589552,26.125,26.9375,26.0625,29.0625,30.125,30.5625
0.22205177,-1.0585014,0.05080867,-0.3189886,0.026742497,0.032836504,-0.14190514,-0.38466856,-0.32802263,0.060106993,3.0782645,-0.6226444,-0.00042576878,-0.106342144,0.00062168087,0.00088196906,-0.012028886,0.0041174083,0.011188592,0.43676525,-1.4516851,1.9876236,-2.1060688,-1.5699142,2.410338,-0.099926256,0.1765978,-0.20292091,0.017541671,0.008854473,-0.110983364,-0.2681506,0.05746084,-9.270349,0.800085,47.696735,-1.1461741,-1.5568058,-3.4324067,-0.08315487,0.11659199,-0.27210757,26.125,26.9375,26.0625,29.0625,30.125,30.5625
0.22405179,-0.6546492,0.7409182,-0.14776407,0.038614076,0.03701758,-0.15047453,-0.3848768,-0.32803416,0.060101286,3.0782235,-0.6226173,-0.00039495804,-0.10812114,0.0002442587,0.0014925665,-0.012807047,0.0056851017,0.009375182,0.43657315,-1.451313,1.9872164,-2.106045,-1.5698665,2.4101343,-0.10073002,0.17844209,-0.20641603,0.017449116,0.00889116,-0.109971516,-0.4213795,-0.05746084,-9.232041,0.8627467,47.71286,-1.3661672,-1.5297334,-3.3525922,-0.052127246,0.11374834,-0.30851668,26.125,26.9375,26.0625,29.0625,30.125,30.5625
0.22605172,-0.4961781,1.3135667,-0.19961064,0.041713823,0.0369046,-0.15202522,-0.3850624,-0.32801303,0.060082123,3.0782533,-0.62254834,-0.00029760075,-0.110424235,0.0008889801,0.0025763302,-0.01284451,0.007403651,0.007075235,0.4363561,-1.4509653,1.9868559,-2.105973,-1.5698427,2.4098706,-0.10339625,0.17931256,-0.21024501,0.018841762,0.008189789,-0.11033604,-0.36391866,-0.11492168,-9.251195,0.8537928,47.66987,-1.040118,-1.4471703,-3.3800702,-0.046370275,0.12070194,-0.33776808,26.125,26.9375,26.0625,29.0625,30.125,30.5625
0.22805245,-0.62155044,0.8266104,-0.24846524,0.04900957,0.049115136,-0.14377463,-0.38530603,-0.3280347,0.0601206,3.0781753,-0.62253207,-0.0004336247,-0.11022968,0.0011756441,0.0017502076,-0.011876428,0.004455102,0.0059943288,0.43617603,-1.4506292,1.98639,-2.1059601,-1.5698308,2.4096906,-0.10393583,0.18138242,-0.21116146,0.020771002,0.00857506,-0.10979378,-0.49799395,-0.11492168,-9.289502,0.842603,47.65106,-1.2434843,-1.5148253,-3.459981,-0.060272798,0.10635287,-0.35543638,26.125,26.9375,26.0625,29.0625,30.125,30.5625
0.23005235,-1.3491834,0.7146448,-0.15811598,0.03123844,0.053743236,-0.15002213,-0.3855149,-0.3280137,0.060105465,3.0781834,-0.6225539,-0.00037458062,-0.11095829,0.0025074407,0.00019180399,-0.009555618,0.001203325,0.004528491,0.43594718,-1.4502563,1.9859947,-2.1059,-1.5698189,2.4094746,-0.10647736,0.18518561,-0.21216796,0.021908807,0.007843667,-0.1108686,-0.5554548,-0.11492168,-9.308656,0.8537928,47.67345,-1.128122,-1.5299695,-3.3488095,-0.06276846,0.11042072,-0.39215696,26.125,26.9375,26.0625,29.0625,30.125,30.5625
0.23205216,-1.3475796,0.77443475,-0.23700939,0.013014034,0.07443009,-0.15635447,-0.3857311,-0.3279873,0.060097553,3.0782003,-0.62252015,-0.00029060544,-0.112515144,0.0029959462,-0.0008312803,-0.007893417,-0.0008175238,0.0020541467,0.43569455,-1.4498836,1.9855746,-2.1058037,-1.5697955,2.409199,-0.10821414,0.19015868,-0.21569824,0.02300615,0.0071798195,-0.11012864,-0.5554548,-0.038307227,-9.346964,0.8493211,47.684196,-0.9988606,-1.6306344,-3.3402438,-0.066006824,0.12617292,-0.41563952,26.125,26.9375,26.0625,29.0625,30.125,30.5625
0.23405203,-1.5910704,0.24757867,-0.31071484,0.012921682,0.07635809,-0.14894685,-0.38594756,-0.32797197,0.060081244,3.078207,-0.62251645,-0.00027639116,-0.11485287,0.003040609,0.0009931421,-0.009429343,0.0022984035,0.0075229555,0.43547785,-1.4495008,1.9851788,-2.10578,-1.5697955,2.4089794,-0.11029704,0.1897514,-0.21970274,0.023952026,0.007256736,-0.11767872,-0.63206923,0.076614454,-9.3661175,0.8291774,47.65912,-0.9878408,-1.617048,-3.2938366,-0.081866816,0.119884714,-0.38169348,26.125,26.9375,26.0625,29.0625,30.125,30.5625
0.23605195,-2.026014,-0.5959744,-0.45715684,-0.00446822,0.087615736,-0.14861594,-0.38619548,-0.32799086,0.06013243,3.0781636,-0.62237257,-0.00042456624,-0.11540551,0.0037423335,0.00016940269,-0.008822334,0.00056640373,0.009999392,0.4352972,-1.4491762,1.9846882,-2.1057317,-1.569795,2.4087148,-0.11212441,0.19181292,-0.22025144,0.024269737,0.007455016,-0.12198138,-0.6512229,0.17238252,-9.423578,0.9410752,47.67166,-0.9181019,-1.6749895,-3.2875428,-0.07886759,0.10632761,-0.33839536,26.125,26.9375,26.0625,29.0625,30.125,30.5625
0.23805188,-2.1531901,-0.553025,-0.30574667,-0.019620672,0.08654506,-0.1413335,-0.38641697,-0.32796055,0.06008899,3.078198,-0.6223561,-0.00029533295,-0.115266085,0.0048046373,-0.0004574593,-0.0074003884,-0.00071837456,0.016040646,0.43503284,-1.4487327,1.984281,-2.1056836,-1.5697712,2.408436,-0.11338485,0.19202009,-0.21926604,0.024855021,0.006707076,-0.12928405,-0.6703765,0.21068975,-9.404425,0.85155696,47.651955,-0.9065956,-1.5952339,-3.3769336,-0.08797078,0.12065898,-0.27466655,26.125,26.9375,26.0625,29.0625,30.125,30.5625
0.2400519,-1.9114524,-0.7037924,-0.7754667,-0.019919073,0.08535597,-0.14497785,-0.38662994,-0.32795003,0.06007564,3.0782318,-0.62230206,-0.00024578357,-0.115752466,0.0053006075,-0.0014103726,-0.00627371,-0.0023412814,0.02204142,0.4348286,-1.4483362,1.9838518,-2.105612,-1.5697712,2.408194,-0.11442168,0.1946087,-0.22010003,0.025055163,0.006368415,-0.13632102,-0.63206923,0.24899697,-9.404425,0.8806493,47.690468,-0.8731239,-1.7829869,-3.5062034,-0.081603765,0.14127196,-0.19005564,26.125,26.9375,26.0625,29.0625,30.125,30.5625
0.24205168,-1.7884806,-0.8867212,-0.50330377,-0.030563744,0.08453409,-0.1412886,-0.3868821,-0.3279575,0.0601084,3.078192,-0.62213916,-0.00030241854,-0.115757614,0.0053942585,-0.0025128294,-0.00522846,-0.0042934176,0.023538422,0.4346005,-1.4479762,1.9833606,-2.105552,-1.5697359,2.4078696,-0.11442953,0.1972695,-0.22064409,0.025157293,0.006252362,-0.13782482,-0.6703765,0.30645782,-9.404425,0.91421866,47.67345,-0.8841861,-1.6541505,-3.6298778,-0.08375043,0.1370642,-0.12960012,26.125,26.9375,26.0625,29.0625,30.125,30.5625
0.24405256,-1.6734859,-1.0699946,-0.44226,-0.021739053,0.075463966,-0.1450091,-0.3871085,-0.32792976,0.06009837,3.0782068,-0.62217987,-0.0002831926,-0.11630559,0.005114281,-0.002380038,-0.005497004,-0.0035184275,0.024861023,0.43436065,-1.4475929,1.982941,-2.1054924,-1.5697473,2.4076536,-0.11423866,0.19803023,-0.22176848,0.02470625,0.0061636395,-0.13895594,-0.6512229,0.22984336,-9.3661175,0.8537928,47.703903,-0.9394015,-1.5766945,-3.6051455,-0.08516832,0.14382431,-0.08898722,26.125,26.9375,26.0625,29.0625,30.125,30.5625
0.24605158,-0.7315424,-0.36324456,-0.53047687,-0.019122658,0.0782506,-0.14573663,-0.3873465,-0.3279159,0.060092535,3.0782404,-0.6221117,-0.0003031674,-0.11714742,0.004599091,-0.0027389543,-0.005935502,-0.003728288,0.020077538,0.43414485,-1.4471846,1.9824866,-2.1054447,-1.5697712,2.4073913,-0.114241704,0.2006581,-0.22383852,0.02414708,0.006639681,-0.13417429,-0.47884035,0.2681506,-9.3661175,0.7642693,47.68062,-0.96874905,-1.6339674,-3.6066031,-0.08649353,0.1399076,-0.13517183,26.125,26.9375,26.0625,29.0625,30.125,30.5625
0.24805254,-0.6492148,-0.42207316,-0.5366452,-0.011370643,0.065687075,-0.13825396,-0.38758996,-0.3279077,0.060078587,3.078188,-0.6221249,-0.00024645976,-0.12007707,0.005231179,-0.001965275,-0.007020229,-0.0017076631,0.01236756,0.4338794,-1.4467648,1.9820431,-2.1054208,-1.5697111,2.407141,-0.1179225,0.2024883,-0.22767416,0.023869256,0.0067619695,-0.1301429,-0.3256114,0.24899697,-9.346964,0.82694155,47.699425,-0.8214364,-1.6576388,-3.5063064,-0.064417996,0.14977285,-0.17229778,26.125,26.9375,26.0625,29.0625,30.125,30.5625
0.25005245,-0.46412838,-0.20579912,-0.55800694,-0.00841699,0.040562164,-0.14552975,-0.3878542,-0.3278933,0.060085133,3.078164,-0.62208194,-0.00028089678,-0.120460406,0.0036894588,-0.0019133851,-0.0069626886,-0.0009900009,0.010824944,0.43361658,-1.4463567,1.981563,-2.105385,-1.5696992,2.4068546,-0.115060665,0.20509803,-0.23076063,0.023719976,0.0064025526,-0.12573601,-0.24899697,0.22984336,-9.346964,0.8851263,47.670765,-1.0559978,-1.7160214,-3.5308156,-0.061421536,0.15651345,-0.21861899,26.125,26.9375,26.0625,29.0625,30.125,30.5625
0.2520523,-0.19559427,-0.1260573,-0.54900813,-0.012849129,0.025948774,-0.14536162,-0.3880951,-0.32788792,0.060080387,3.0782034,-0.6219979,-0.00032946398,-0.12266998,0.0048015583,-0.0015539315,-0.00715585,6.3247324e-05,0.0035935713,0.43342304,-1.4459373,1.9810957,-2.1053488,-1.5697359,2.406604,-0.11875321,0.20630519,-0.23302017,0.02373024,0.006129451,-0.1221957,-0.21068975,0.30645782,-9.346964,0.90527004,47.666286,-0.826982,-1.6885724,-3.5019221,-0.04184448,0.15487885,-0.28584474,26.125,26.9375,26.0625,29.0625,30.125,30.5625
0.25405213,0.28588915,-0.5044574,-0.7394803,-0.011592465,0.021127792,-0.14311016,-0.38833827,-0.32785884,0.0600795,3.0782,-0.622017,-0.0003257146,-0.123556316,0.004007968,-0.000911658,-0.007904765,0.00090498757,0.00092921685,0.43315932,-1.445553,1.9806532,-2.1052883,-1.5697354,2.406353,-0.11816053,0.20751995,-0.23610687,0.024521843,0.006448751,-0.11893735,-0.038307227,0.3256114,-9.3661175,0.80679786,47.69763,-0.939806,-1.7621353,-3.5006096,-0.036085017,0.17482987,-0.3454167,26.125,26.9375,26.0625,29.0625,30.125,30.5625
0.25605217,0.13061792,-0.4764228,-0.68824685,-0.017304212,0.011696587,-0.13813508,-0.38859499,-0.3278636,0.060073864,3.078118,-0.6221361,-0.00028586286,-0.12557381,0.0033670303,0.00011540838,-0.008990623,0.00253622,-0.0018143839,0.43290725,-1.4451092,1.9801606,-2.1052525,-1.5696753,2.4061859,-0.11880136,0.20947996,-0.24096085,0.025485562,0.0067426236,-0.116832145,-0.1340753,0.30645782,-9.308657,0.84484416,47.709274,-0.991982,-1.806813,-3.3099928,-0.053445548,0.17709756,-0.39921033,26.125,26.9375,26.0625,29.0625,30.125,30.5625
0.25805214,0.31489453,-0.50882334,-0.6607503,-0.0033909192,0.011932457,-0.13504471,-0.388851,-0.32786363,0.060073864,3.0781007,-0.6220966,-0.000304258,-0.12750159,0.0033106464,0.0015471223,-0.009887376,0.0046756533,-0.004997884,0.43267882,-1.4446784,1.979669,-2.1052158,-1.5696629,2.4059353,-0.12019578,0.2097424,-0.24493332,0.02687918,0.0066568675,-0.11504118,-0.1340753,0.3256114,-9.212888,0.8247004,47.684196,-1.0253911,-1.5780998,-3.1925468,-0.045689538,0.17177123,-0.47611135,26.125,26.9375,26.0625,29.0625,30.125,30.5625
0.26005208,0.04592749,-0.23991123,-0.8561401,0.0013966023,0.001901943,-0.14421572,-0.38910457,-0.32785207,0.060078967,3.0781128,-0.6220379,-0.00030162538,-0.12621371,0.002854727,0.00018369006,-0.008419829,0.0014574005,-0.0010045702,0.43243942,-1.4442579,1.9791664,-2.1051319,-1.5696629,2.405658,-0.11816202,0.21203452,-0.24470471,0.027898936,0.0066794576,-0.11700096,-0.038307227,0.4213795,-9.32781,0.95897776,47.696735,-1.0207102,-1.6593325,-3.2649298,-0.062524386,0.17553595,-0.5134727,26.125,26.9375,26.0625,29.0625,30.125,30.5625
0.26205197,0.22587188,-0.5772184,-0.7471866,-0.013904432,0.019635122,-0.14163713,-0.38935354,-0.32782215,0.06005956,3.0781226,-0.6221929,-0.00027703558,-0.12835321,0.00389133,0.0019026899,-0.010193758,0.0035680528,-7.2318608e-06,0.43218595,-1.4438155,1.9787005,-2.1050718,-1.5696868,2.4055004,-0.122287355,0.2103318,-0.24715538,0.029393684,0.007405698,-0.122123815,0.11492168,0.36391866,-9.404425,0.7866488,47.70211,-0.9586905,-1.6516294,-3.3280537,-0.080697656,0.1972188,-0.5127938,26.125,26.9375,26.0625,29.0625,30.125,30.5625
0.2640519,-0.09803854,-0.913099,-0.8397503,-0.036029976,0.01624181,-0.14634617,-0.3895998,-0.32782015,0.060069486,3.0781107,-0.6221061,-0.00024061225,-0.12645122,0.0034248962,-0.00070959306,-0.0075433613,-0.0031827171,0.011374254,0.43194702,-1.4434068,1.978197,-2.104975,-1.5696505,2.405209,-0.11998365,0.21528341,-0.24740739,0.03194749,0.007839469,-0.13120176,0.11492168,0.3256114,-9.346964,0.9186956,47.68062,-1.1129372,-1.5592307,-3.3696733,-0.09318909,0.17534855,-0.43533295,26.125,26.9375,26.0625,29.0625,30.125,30.5625
0.26605207,0.30626026,-0.83384305,-0.585018,-0.052005745,0.027604442,-0.14677928,-0.38985285,-0.32780504,0.060064442,3.0781217,-0.6220433,-0.00021210052,-0.1266234,0.0044311387,-0.002403411,-0.0051015653,-0.006968622,0.021973109,0.43169454,-1.4429743,1.9777063,-2.104903,-1.5696391,2.4049163,-0.1214749,0.2190756,-0.24822779,0.033453096,0.007215831,-0.1432911,0.17238252,0.2681506,-9.3661175,0.87617236,47.709274,-1.0554875,-1.7590947,-3.4534106,-0.11935408,0.19156238,-0.35219258,26.125,26.9375,26.0625,29.0625,30.125,30.5625
0.26805198,-0.043548368,-0.9717026,-0.58001864,-0.042348523,0.016332151,-0.14742476,-0.39010274,-0.3277907,0.0600525,3.0781412,-0.62194854,-0.00020941976,-0.12747882,0.004885878,-0.0035379052,-0.0042319866,-0.00835134,0.027209733,0.431454,-1.4425418,1.9772395,-2.1048667,-1.5696391,2.4046144,-0.12280638,0.22239602,-0.24931884,0.032852188,0.0070046643,-0.14985803,0.17238252,0.34476504,-9.289502,0.9858343,47.686886,-1.0449889,-1.8398616,-3.4832478,-0.15364023,0.21334618,-0.26399904,26.125,26.9375,26.0625,29.0625,30.125,30.5625
0.27005178,0.27679574,-0.7131844,-0.56738913,-0.015646625,0.0020213744,-0.14681482,-0.3903367,-0.32779744,0.06002411,3.0781543,-0.62181425,-7.6267366e-05,-0.12917423,0.0041014464,-0.0029179908,-0.0059666075,-0.0063408315,0.031609744,0.4312262,-1.4420624,1.9767493,-2.1047957,-1.5695785,2.4043014,-0.12318462,0.22408873,-0.25250098,0.0318031,0.00772418,-0.15463519,0.15322891,0.22984336,-9.270349,0.84708,47.6636,-1.0229435,-1.8990011,-3.5571427,-0.14564493,0.22438541,-0.16962463,26.125,26.9375,26.0625,29.0625,30.125,30.5625
0.27205166,0.87913173,-0.28470257,-0.34412464,-0.003296852,0.0033866458,-0.14597191,-0.39062756,-0.3277804,0.060035344,3.0781012,-0.621842,-0.00014108878,-0.12945753,0.003922879,-0.0024333715,-0.007640256,-0.006541705,0.031106494,0.4309379,-1.4416313,1.9762334,-2.1047714,-1.5695661,2.4040375,-0.12403743,0.22363353,-0.25337318,0.032612786,0.009337363,-0.1549853,0.11492168,0.28730422,-9.212888,0.8873621,47.701214,-1.0348823,-1.7866516,-3.445777,-0.15677449,0.2036184,-0.14421506,26.125,26.9375,26.0625,29.0625,30.125,30.5625
0.27405164,0.55274963,0.056305464,-0.2048108,-0.0013851931,-0.0043241545,-0.14275333,-0.39089113,-0.32777435,0.06001776,3.0781493,-0.6217226,-0.00012030894,-0.13132605,0.0041062506,-0.0018690004,-0.007985005,-0.0049466817,0.021700926,0.4307094,-1.4411397,1.9757069,-2.1047118,-1.569578,2.4037287,-0.12562019,0.22504823,-0.2563529,0.03257861,0.008967272,-0.14716086,0.076614454,0.30645782,-9.174581,0.86945957,47.66539,-0.9987916,-1.9150654,-3.5326338,-0.15400168,0.19095209,-0.16898672,26.125,26.9375,26.0625,29.0625,30.125,30.5625
0.27605253,0.45181262,0.1688767,-0.37863606,0.0038508163,0.00067310984,-0.14885727,-0.39116156,-0.32779053,0.060041286,3.078085,-0.62161654,-0.00014011253,-0.1328222,0.0038652103,-0.0013194487,-0.008146067,-0.003714115,0.015642771,0.4304692,-1.4407201,1.9751672,-2.1046512,-1.5695184,2.4034307,-0.12609439,0.22670579,-0.25967407,0.033061504,0.008596775,-0.14157443,-0.076614454,0.36391866,-9.251195,0.88960326,47.679718,-1.0093881,-1.7709837,-3.6039984,-0.16605163,0.19464312,-0.23111661,26.125,26.9375,26.0625,29.0625,30.125,30.5625
0.27805236,0.036765452,-0.44428405,-0.610959,0.0018823766,0.017309163,-0.14273791,-0.39139724,-0.32777774,0.060018912,3.078136,-0.621515,-9.343733e-06,-0.13445705,0.0038978246,-0.00043406943,-0.008767915,-0.0040721507,0.010422304,0.4302286,-1.4402525,1.9746646,-2.104531,-1.5694941,2.4031205,-0.12790278,0.22828288,-0.2642821,0.03615799,0.009293685,-0.13816176,-0.17238252,0.40222588,-9.193734,0.8985519,47.70659,-0.9629249,-1.6729841,-3.4712472,-0.21593827,0.1979259,-0.30873963,26.125,26.9375,26.0625,29.0625,30.125,30.5625
0.2800523,-0.80529344,-0.8277671,-0.3421403,-0.024419107,0.03786551,-0.13751197,-0.391648,-0.32777235,0.06001633,3.0781312,-0.62151146,4.4397577e-05,-0.13410747,0.0029046226,-0.0004962007,-0.008870175,-0.0054517398,0.012055076,0.4299893,-1.4398087,1.9741486,-2.1044343,-1.5694703,2.40288,-0.12610574,0.22980812,-0.26635674,0.037921894,0.009957715,-0.13799746,-0.4213795,0.34476504,-9.251195,0.8918391,47.701214,-1.0406203,-1.6299726,-3.4577236,-0.23102903,0.21310335,-0.32165354,26.125,26.9375,26.0625,29.0625,30.125,30.5625
0.28205222,-1.58886,-1.1961836,-0.44808343,-0.03990876,0.06473818,-0.1369453,-0.39190343,-0.32774875,0.05998056,3.0781891,-0.6214866,0.00012655236,-0.1355394,0.003552284,-0.00051723054,-0.008538457,-0.00473411,0.009668944,0.42973623,-1.439305,1.9736465,-2.1043627,-1.5694822,2.4026043,-0.12800078,0.23122884,-0.26794237,0.037575416,0.0093421405,-0.13750571,-0.6703765,0.3256114,-9.32781,0.88960326,47.678825,-0.85826874,-1.7031672,-3.4434848,-0.27021882,0.20808813,-0.35445732,26.125,26.9375,26.0625,29.0625,30.125,30.5625
0.2840519,-2.1038237,-1.1440712,-0.3287466,-0.050998516,0.10000353,-0.14506944,-0.39216864,-0.32772774,0.059953537,3.078198,-0.62150675,0.00025120398,-0.13623635,0.0032086216,-1.4096627e-05,-0.009550232,-0.0048139677,0.009485868,0.42944843,-1.4388015,1.9731191,-2.104267,-1.5694464,2.4023283,-0.12845768,0.23193559,-0.27029818,0.03888055,0.010283229,-0.13778017,-0.78529817,0.28730422,-9.3661175,0.8537928,47.716442,-1.1509861,-1.706207,-3.3954744,-0.2983338,0.18538707,-0.38532543,26.125,26.9375,26.0625,29.0625,30.125,30.5625
0.28605184,-2.6247494,-1.1192082,-0.34515226,-0.04889187,0.122610226,-0.14304247,-0.39243558,-0.32775098,0.05997096,3.078176,-0.62134534,0.00026641198,-0.13688849,0.002864865,0.00053447916,-0.009898038,-0.0037348433,0.01365437,0.4292328,-1.4383464,1.9725441,-2.1041706,-1.5693983,2.402015,-0.12818107,0.23225743,-0.27209815,0.03924683,0.010152932,-0.14167103,-0.80445176,0.3256114,-9.32781,0.8985519,47.65912,-1.1076151,-1.606118,-3.4309282,-0.32331175,0.17967144,-0.37514532,26.125,26.9375,26.0625,29.0625,30.125,30.5625
0.28805175,-2.5305815,-0.62421906,-0.4375354,-0.018461265,0.12780564,-0.1502934,-0.39270896,-0.3277442,0.059956823,3.0781407,-0.6213914,0.0003422796,-0.13765933,0.0032150703,-2.4465004e-05,-0.009553582,-0.0035732896,0.019611178,0.4289566,-1.4378548,1.9720057,-2.1040995,-1.5693501,2.4017723,-0.12910438,0.23392609,-0.27253422,0.038030285,0.009769693,-0.14855056,-0.7469909,0.30645782,-9.308656,1.0015011,47.678825,-1.2111514,-1.5957966,-3.4849694,-0.3440501,0.19671133,-0.33214962,26.125,26.9375,26.0625,29.0625,30.125,30.5625
0.29005155,-2.2727337,-0.15547958,-0.5431767,0.008623775,0.116332345,-0.14240037,-0.39301044,-0.32773504,0.059976853,3.0781345,-0.62129086,0.0002578839,-0.13877222,0.0030044704,-0.0004901621,-0.010636487,-0.003078453,0.02649591,0.42869177,-1.4373987,1.9714316,-2.10404,-1.5693616,2.4014459,-0.13004845,0.23614776,-0.27361244,0.035994437,0.010556049,-0.15637827,-0.6703765,0.21068975,-9.346964,0.8985519,47.66271,-1.1824193,-1.6715783,-3.5931387,-0.33475992,0.18912056,-0.24389654,26.125,26.9375,26.0625,29.0625,30.125,30.5625
0.29205245,-1.4681772,0.63085854,-0.37818894,0.012294439,0.114351265,-0.14157526,-0.393274,-0.32772297,0.05994497,3.0781639,-0.6211979,0.0003131671,-0.1417712,0.004253057,-0.00015945458,-0.0112175075,-0.00038131943,0.029072823,0.42843878,-1.4368955,1.9709285,-2.104005,-1.5693501,2.4011314,-0.13436785,0.23771355,-0.2757758,0.03391262,0.009953913,-0.16327286,-0.7086837,0.038307227,-9.385271,0.90750587,47.698532,-1.0438805,-1.6357272,-3.5680332,-0.33969083,0.18572229,-0.12911606,26.125,26.9375,26.0625,29.0625,30.125,30.5625
0.29405215,-1.1581286,0.8558716,-0.28265616,0.027411845,0.08535442,-0.14551716,-0.39356634,-0.32769665,0.0599115,3.078192,-0.6211626,0.00042377057,-0.14223981,0.0031009202,-0.00091298536,-0.010797634,5.2971372e-05,0.034528114,0.42812738,-1.436343,1.9703621,-2.1039217,-1.5693263,2.4007947,-0.13213079,0.24120727,-0.27772716,0.032162894,0.009375175,-0.16648957,-0.49799395,-0.095768064,-9.346964,0.9701675,47.695843,-1.1386901,-1.792407,-3.628799,-0.32320958,0.20052192,-0.083665386,26.125,26.9375,26.0625,29.0625,30.125,30.5625
0.29605216,-1.0629023,0.98067254,-0.68952596,0.036755092,0.05400051,-0.13380615,-0.3938732,-0.32770655,0.0599385,3.0781538,-0.6210431,0.00029293922,-0.1446046,0.0036486099,-0.0014459059,-0.0103788385,0.00037416865,0.027640678,0.42788658,-1.4358866,1.9697794,-2.1038983,-1.5693268,2.4004846,-0.13467184,0.2452969,-0.2810269,0.03125341,0.008866892,-0.16213948,-0.49799395,-0.05746084,-9.423578,0.88960326,47.703903,-0.9116917,-1.8823211,-3.4779868,-0.31413376,0.20378894,-0.084704205,26.125,26.9375,26.0625,29.0625,30.125,30.5625
0.29805237,-0.3614583,1.0151696,-0.37852848,0.028685452,0.056430988,-0.14173988,-0.3941494,-0.32768965,0.059906714,3.0781727,-0.620974,0.0004023345,-0.14660908,0.0032413173,-0.0005968956,-0.010859924,0.0031889137,0.022045732,0.4275985,-1.4353589,1.9692391,-2.1038263,-1.5692905,2.4001513,-0.13499054,0.24685252,-0.284707,0.030621689,0.008116395,-0.15686108,-0.47884035,-0.15322891,-9.32781,0.8314132,47.687782,-1.104413,-1.890934,-3.445466,-0.29909357,0.20201632,-0.13429247,26.125,26.9375,26.0625,29.0625,30.125,30.5625
0.30005231,-0.6956678,0.46049136,-0.773199,0.038538404,0.036585,-0.12824261,-0.39443973,-0.3276878,0.05991784,3.0781898,-0.62086535,0.00036144478,-0.14764363,0.0032155488,-0.00042324082,-0.011001549,0.0039364807,0.014820731,0.4273584,-1.4348793,1.9686521,-2.1037424,-1.5693029,2.3998415,-0.13556731,0.24810162,-0.2866071,0.030526057,0.007932249,-0.15021154,-0.38307226,-0.019153614,-9.461885,0.86945957,47.67345,-1.0774144,-1.9352605,-3.4447646,-0.28156015,0.21191671,-0.21398222,26.125,26.9375,26.0625,29.0625,30.125,30.5625
0.30205223,-0.2576512,0.35149586,-0.66004175,0.0047715306,0.065745756,-0.14402123,-0.39472443,-0.32769403,0.05989762,3.0781498,-0.6208032,0.00044635337,-0.14838344,0.0030299278,-0.000883847,-0.010912156,0.0028981224,0.0071461448,0.42708242,-1.4343514,1.9680904,-2.1036947,-1.5692304,2.399532,-0.1359381,0.25079075,-0.28884333,0.031057533,0.008272874,-0.14290695,-0.36391866,0.11492168,-9.423578,0.8224646,47.717335,-1.0619091,-1.9785485,-3.5037198,-0.2917762,0.23996782,-0.29542458,26.125,26.9375,26.0625,29.0625,30.125,30.5625
0.30405217,-0.68745863,-0.45228156,-0.7928698,-0.017266784,0.069829084,-0.13575105,-0.3950107,-0.32765344,0.059886664,3.078209,-0.62093145,0.00046827056,-0.14900477,0.003148997,-0.0005087115,-0.010860751,0.003668286,0.0040184935,0.42680627,-1.4338483,1.9675158,-2.1035626,-1.5692905,2.399329,-0.13630162,0.25092208,-0.2900617,0.03145652,0.007897247,-0.14014268,-0.38307226,0.1340753,-9.5385,0.8717007,47.698532,-1.1317947,-2.0175905,-3.509365,-0.31905475,0.23987156,-0.36452928,26.125,26.9375,26.0625,29.0625,30.125,30.5625
0.30605212,-0.8625756,-0.8304953,-0.955424,-0.04530848,0.06837575,-0.13556844,-0.39532366,-0.32764792,0.059889562,3.0781426,-0.62090176,0.00047786726,-0.15032968,0.0031907782,-0.00026324746,-0.011163679,0.0043142475,-0.0016183453,0.42649376,-1.4333448,1.9669284,-2.103515,-1.5692304,2.3990066,-0.13734575,0.25248176,-0.29256138,0.03168803,0.007905634,-0.13554847,-0.21068975,0.24899697,-9.5385,0.86945957,47.711964,-1.0763941,-1.9766686,-3.5022988,-0.3134312,0.26871705,-0.45525518,26.125,26.9375,26.0625,29.0625,30.125,30.5625
0.30805218,-0.4737434,-0.78322524,-0.9956821,-0.052114215,0.060870595,-0.13963445,-0.39564237,-0.32763264,0.0599005,3.0781612,-0.62086624,0.00037578924,-0.15222824,0.002936069,0.0011139549,-0.01257872,0.007489635,-0.0011121872,0.42622957,-1.4328407,1.9663185,-2.1034548,-1.5692786,2.3987184,-0.13831443,0.25240308,-0.29567474,0.031401586,0.0078832265,-0.13702154,-0.11492168,0.24899697,-9.557653,0.8403672,47.687782,-1.1185142,-2.0665414,-3.4671218,-0.31076932,0.25868595,-0.5079056,26.125,26.9375,26.0625,29.0625,30.125,30.5625
0.31005204,-0.20275405,-1.2065794,-1.2060812,-0.029614437,0.04379528,-0.13978375,-0.39595687,-0.32763666,0.059895918,3.0781088,-0.62085044,0.000389069,-0.15254337,0.0029613466,0.00054390915,-0.01244168,0.0071746632,0.0058586276,0.42594162,-1.4323019,1.9657077,-2.1034076,-1.5692304,2.3984275,-0.13848566,0.2538924,-0.29600787,0.030607667,0.007897588,-0.14416315,-0.019153614,0.24899697,-9.634268,0.90750587,47.68599,-1.1126462,-1.8532212,-3.5131354,-0.30400667,0.2534568,-0.4743619,26.125,26.9375,26.0625,29.0625,30.125,30.5625
0.31205192,0.12615088,-0.9075214,-1.2344562,-0.0325006,0.037837,-0.14095311,-0.39625362,-0.32761252,0.05987757,3.0781236,-0.620829,0.00044596638,-0.15380324,0.0031800168,0.0010619146,-0.014140024,0.009009618,0.0142412335,0.4256409,-1.431775,1.9651331,-2.1033242,-1.5692185,2.3981118,-0.1403103,0.25361946,-0.29668933,0.029205075,0.008686809,-0.15437104,-0.038307227,0.28730422,-9.710882,0.90527004,47.6636,-1.0662223,-1.7751637,-3.5909274,-0.2814257,0.26431507,-0.39938784,26.125,26.9375,26.0625,29.0625,30.125,30.5625
0.31405202,0.25946477,-0.58295506,-1.105306,-0.03521761,0.033674125,-0.1471098,-0.39657795,-0.32760793,0.059877146,3.078102,-0.6207796,0.00041325018,-0.15444277,0.0027072022,0.00082797627,-0.014226101,0.009393911,0.025405316,0.4253532,-1.4312354,1.9645113,-2.1032765,-1.5692066,2.3977964,-0.13978256,0.25555888,-0.29833382,0.028544208,0.008618029,-0.16500606,0.05746084,0.38307226,-9.710882,0.94331104,47.686886,-1.1635967,-1.7914839,-3.7204797,-0.24999435,0.2770763,-0.30763882,26.125,26.9375,26.0625,29.0625,30.125,30.5625
0.31605187,-0.04943228,-1.1030499,-1.247611,-0.031490523,0.028937832,-0.13920292,-0.39688146,-0.32760397,0.05988391,3.0780694,-0.6207316,0.0003905419,-0.15690395,0.002715959,0.0013971034,-0.015453946,0.01119084,0.03056963,0.42507637,-1.4307438,1.9639243,-2.103217,-1.5691823,2.397494,-0.14195915,0.25784174,-0.30222467,0.028024476,0.009000994,-0.17234476,0.076614454,0.40222588,-9.634268,0.90750587,47.70032,-0.94025654,-1.8764765,-3.6785228,-0.23263338,0.27226377,-0.19478203,26.125,26.9375,26.0625,29.0625,30.125,30.5625
0.31805164,-0.7252056,-1.4373734,-0.969567,-0.029274855,0.023134824,-0.12360103,-0.39720312,-0.32759523,0.059878334,3.078058,-0.62061316,0.0003833802,-0.15780799,0.0032376864,0.00077462423,-0.015823403,0.010309059,0.0306003,0.42477584,-1.430204,1.9633135,-2.1031692,-1.569158,2.3971214,-0.14397341,0.25975972,-0.3030015,0.027542071,0.009708637,-0.17438953,0.0,0.36391866,-9.595961,0.83365434,47.741516,-0.94435334,-1.8108678,-3.6469665,-0.21926367,0.2701158,-0.15386632,26.125,26.9375,26.0625,29.0625,30.125,30.5625
0.32005176,-0.48918903,-1.3670346,-1.1196929,-0.029392848,0.034971006,-0.12587304,-0.3975203,-0.32758406,0.059882347,3.078031,-0.62057376,0.0003750755,-0.15932158,0.00352926,0.00074036565,-0.0156122055,0.010309108,0.024876013,0.42447528,-1.4296882,1.9627022,-2.1030977,-1.5691341,2.3968,-0.14548707,0.26216,-0.30591372,0.028142905,0.0095169535,-0.17017709,-0.038307227,0.3256114,-9.634268,0.8717007,47.693153,-0.88662314,-1.9527688,-3.5700173,-0.2154828,0.28637964,-0.19189109,26.125,26.9375,26.0625,29.0625,30.125,30.5625
0.32205176,-0.30309045,-1.0912101,-1.0952048,-0.029694954,0.042003173,-0.13853215,-0.39783987,-0.32759365,0.059880484,3.0779986,-0.6205331,0.00035488085,-0.1608701,0.0036305867,0.000567219,-0.015502831,0.010144833,0.01536112,0.42421103,-1.429136,1.962068,-2.103049,-1.5691103,2.396515,-0.14678745,0.26509365,-0.3090873,0.028572397,0.009482322,-0.16196056,0.019153614,0.36391866,-9.615114,0.95897776,47.666286,-0.9419277,-1.8894846,-3.699736,-0.18316552,0.28048572,-0.26918423,26.125,26.9375,26.0625,29.0625,30.125,30.5625
0.32405248,0.5920457,-0.7251786,-0.8721205,-0.039415643,0.044467375,-0.1517248,-0.3981372,-0.3275745,0.05985738,3.0780475,-0.6204083,0.0003758796,-0.16056773,0.0017380645,0.0006052212,-0.01635021,0.010557959,0.016145209,0.4239362,-1.4285961,1.9614934,-2.1029894,-1.5691222,2.3961563,-0.14331837,0.26673388,-0.3110924,0.028206991,0.010077711,-0.15927517,0.038307227,0.34476504,-9.5385,0.88289046,47.709274,-1.0349927,-2.1253943,-3.5213852,-0.18949385,0.28417814,-0.3330695,26.125,26.9375,26.0625,29.0625,30.125,30.5625
0.32605192,0.46084496,-0.8653366,-0.61415654,-0.039885856,0.032212574,-0.14548811,-0.39852065,-0.3275605,0.059895787,3.0779612,-0.6204863,0.0001959571,-0.1620379,0.0020650327,0.00043799743,-0.016616847,0.011642286,0.013521566,0.42359975,-1.4280691,1.9607981,-2.1029541,-1.5691341,2.39588,-0.14483297,0.26850805,-0.31253204,0.02677528,0.009894256,-0.15816371,-0.076614454,0.34476504,-9.557653,0.92093146,47.71554,-0.96651745,-2.0044732,-3.5035715,-0.1321166,0.28537124,-0.35722178,26.125,26.9375,26.0625,29.0625,30.125,30.5625
0.3280521,-0.17756167,-1.0235301,-0.6090483,-0.046591364,0.02120322,-0.13405521,-0.39882833,-0.32755995,0.059907556,3.077918,-0.6203811,0.00019118979,-0.16372398,0.0016979622,0.0019121097,-0.018298158,0.013893637,0.013375558,0.42331156,-1.4275777,1.9601959,-2.1028821,-1.5690855,2.395532,-0.14580429,0.26841804,-0.3161396,0.02773943,0.010508649,-0.15898766,-0.076614454,0.36391866,-9.423578,0.86498255,47.65912,-1.063102,-2.0037556,-3.5469732,-0.12414968,0.28885448,-0.3620922,26.125,26.9375,26.0625,29.0625,30.125,30.5625
0.33005202,0.48173487,-0.8133242,-0.4368957,-0.053604323,0.04390574,-0.14738503,-0.3991648,-0.3275763,0.059916817,3.0778687,-0.6202937,0.00011419214,-0.16342594,0.0023147278,0.0010025796,-0.017227441,0.01010293,0.014859274,0.42304692,-1.4270262,1.9595412,-2.1028569,-1.5690616,2.3952193,-0.14691855,0.27036706,-0.3170813,0.03063692,0.011113445,-0.16158526,0.019153614,0.28730422,-9.32781,0.9321212,47.67166,-1.0329199,-1.8732642,-3.5391202,-0.11116512,0.28883737,-0.3883658,26.125,26.9375,26.0625,29.0625,30.125,30.5625
0.33205187,0.328774,-0.45718536,-0.47784173,-0.03534064,0.03532954,-0.157084,-0.3994798,-0.3275675,0.059895456,3.0778692,-0.6202127,0.00017907539,-0.16525145,0.0026866577,0.00274228,-0.017930841,0.013262059,0.019092163,0.4227465,-1.4264514,1.9589189,-2.1027844,-1.5690259,2.3948686,-0.14852157,0.2691088,-0.32000616,0.031671435,0.010461413,-0.16742043,0.019153614,0.24899697,-9.404425,0.97464454,47.658226,-1.03771,-1.7697793,-3.4831433,-0.09250082,0.285156,-0.35528427,26.125,26.9375,26.0625,29.0625,30.125,30.5625
0.33405182,0.072039776,-0.40014553,-0.34024683,-0.014898667,0.036471173,-0.1487448,-0.39982632,-0.32758182,0.059923388,3.0778282,-0.6200651,9.539923e-05,-0.16616212,0.0028210063,0.0034390201,-0.01871053,0.013396821,0.027209472,0.42247018,-1.4259124,1.9582247,-2.1027124,-1.5690016,2.3945057,-0.14979583,0.26927802,-0.3223159,0.03338921,0.011145547,-0.17681092,-0.15322891,0.24899697,-9.308657,0.87393653,47.66271,-0.99239016,-1.5981338,-3.511788,-0.08081811,0.29877055,-0.24968626,26.125,26.9375,26.0625,29.0625,30.125,30.5625
0.33605182,-0.09094226,0.7423845,-0.25587267,-0.0052477363,0.044207398,-0.15263246,-0.4001726,-0.32757422,0.059928488,3.0777972,-0.6199579,-1.4111534e-05,-0.16619334,0.0029284712,0.0029393279,-0.01893738,0.011021048,0.03474515,0.42216986,-1.4253731,1.9575981,-2.1027114,-1.5690011,2.3941429,-0.15063383,0.27084953,-0.32348675,0.03507559,0.012358125,-0.18518387,-0.19153613,0.095768064,-9.32781,0.92093146,47.66539,-0.9643844,-1.6291268,-3.4965105,-0.0994073,0.28175884,-0.11918901,26.125,26.9375,26.0625,29.0625,30.125,30.5625
0.33805177,0.05772307,1.2764895,-0.4418326,0.013074195,0.05172278,-0.15220815,-0.40047276,-0.32758436,0.05991342,3.0777965,-0.6197458,8.8960405e-05,-0.1662746,0.0028791337,0.0021618984,-0.018718284,0.009564148,0.036474675,0.42189378,-1.4248096,1.9569682,-2.102616,-1.5689291,2.3937347,-0.15071402,0.27284655,-0.3241597,0.03518905,0.0127550755,-0.18699382,-0.095768064,-0.038307227,-9.442732,0.98135734,47.67793,-0.9392359,-1.5336537,-3.667974,-0.09307994,0.27888656,-0.05700818,26.125,26.9375,26.0625,29.0625,30.125,30.5625
0.34005165,-0.4218245,0.77926236,-0.28467554,0.018679095,0.0578902,-0.14637776,-0.4008353,-0.32759205,0.0599486,3.0777194,-0.6196772,-3.8636368e-05,-0.16824114,0.0029185032,0.001800638,-0.019259274,0.009744609,0.029620621,0.4215931,-1.424281,1.9562739,-2.102568,-1.5689048,2.3934014,-0.15250722,0.27644512,-0.3274043,0.034447577,0.013186641,-0.18192956,-0.38307226,-0.11492168,-9.346964,0.9701675,47.66987,-0.9040895,-1.6857663,-3.613348,-0.03473791,0.26093236,-0.07952207,26.125,26.9375,26.0625,29.0625,30.125,30.5625
0.34205252,-0.43026248,1.1131744,-0.21328552,0.013955269,0.065041356,-0.14780787,-0.40118027,-0.32755923,0.05995027,3.0776923,-0.6197124,-1.5146801e-05,-0.16973746,0.0020466703,0.0023302673,-0.018938733,0.010440276,0.022595802,0.4212338,-1.423729,1.9556154,-2.1024601,-1.5688809,2.3930678,-0.15158312,0.27950495,-0.33262992,0.03610741,0.012598005,-0.17397809,-0.34476504,-0.095768064,-9.308657,0.8291774,47.666286,-1.1589457,-1.8146678,-3.4752645,-0.028411958,0.2637447,-0.16199541,26.125,26.9375,26.0625,29.0625,30.125,30.5625
0.3440516,-0.051166072,1.3319428,-0.51146525,0.027070656,0.07140766,-0.15380062,-0.40150875,-0.32756695,0.059958804,3.0776706,-0.6195975,-7.88449e-05,-0.16914792,0.0019903113,0.0007048923,-0.017083291,0.006025619,0.015090562,0.42097026,-1.4231887,1.9549679,-2.102411,-1.5688695,2.3927357,-0.15091297,0.28342652,-0.33406362,0.03839798,0.012714693,-0.16580144,-0.34476504,-0.19153613,-9.423578,0.91198283,47.678825,-1.1227465,-1.9102619,-3.4576626,-0.036886826,0.2632031,-0.27733886,26.125,26.9375,26.0625,29.0625,30.125,30.5625
0.34605175,-0.4457716,1.2395875,-0.14223227,0.016760971,0.068209685,-0.15684296,-0.40185776,-0.32757425,0.059968963,3.0775886,-0.6195838,-9.6781965e-05,-0.17041788,0.0018254576,0.0016936824,-0.017475836,0.007844137,0.008574323,0.4206579,-1.4226236,1.9542855,-2.102351,-1.5688094,2.3924255,-0.15122591,0.28367358,-0.33693835,0.039209865,0.012330881,-0.15959643,-0.36391866,-0.019153614,-9.385271,0.9231726,47.699425,-1.1388195,-1.8053923,-3.4577394,-0.022943487,0.26835454,-0.35571015,26.125,26.9375,26.0625,29.0625,30.125,30.5625
0.34805164,-0.32112938,0.969196,-0.31535915,0.02051193,0.06436247,-0.15479875,-0.40218392,-0.32754555,0.059969362,3.0776012,-0.61960715,-8.969811e-05,-0.1716467,0.0016244915,0.001955183,-0.017639847,0.007907371,0.0044454024,0.42034578,-1.4220825,1.9536389,-2.1022313,-1.5688213,2.3921268,-0.15177354,0.28572673,-0.3402953,0.040384434,0.012447579,-0.15601389,-0.38307226,0.095768064,-9.270349,0.9679317,47.696735,-1.2207376,-1.8461401,-3.4169302,-0.029397137,0.26615548,-0.4193443,26.125,26.9375,26.0625,29.0625,30.125,30.5625
0.35005245,-0.5099974,0.8209704,-0.43651357,0.015017141,0.056677315,-0.15672058,-0.4025118,-0.3275521,0.059952725,3.0776184,-0.6195139,-5.9624348e-05,-0.17190601,0.0026534095,0.0015995223,-0.016263045,0.00692445,0.0031876692,0.42008153,-1.4214699,1.952957,-2.1021469,-1.5688099,2.3918025,-0.15314323,0.28620175,-0.34045824,0.041540008,0.011595115,-0.15612638,-0.4213795,0.11492168,-9.404425,0.88960326,47.677036,-1.287001,-1.8498672,-3.4436636,-0.03728686,0.27408576,-0.4884582,26.125,26.9375,26.0625,29.0625,30.125,30.5625
0.35205227,-0.37276965,-0.004847189,-0.5683661,-0.010813476,0.07772162,-0.16568576,-0.40287107,-0.3275312,0.05998948,3.0775523,-0.61957246,-0.000108905115,-0.17010942,0.003054945,0.0008890735,-0.014521164,0.004271844,0.011987084,0.41973367,-1.4209535,1.9522523,-2.1020143,-1.5687855,2.3915,-0.15190548,0.28536835,-0.33848003,0.043551125,0.0111179175,-0.16368923,-0.38307226,0.22984336,-9.500193,0.92764956,47.678825,-1.2692455,-1.7172492,-3.680189,-0.038324878,0.2801093,-0.48105928,26.125,26.9375,26.0625,29.0625,30.125,30.5625
0.3540521,-1.1568089,-1.1826427,-0.6029326,-0.033206534,0.07214943,-0.16005637,-0.4031951,-0.32754642,0.05998798,3.0775752,-0.61936074,-8.47011e-05,-0.17114258,0.0039999536,0.00048677073,-0.013455409,0.002702205,0.020163592,0.41948098,-1.4203647,1.951557,-2.101906,-1.5687617,2.3911126,-0.15410344,0.287531,-0.3406256,0.0454291,0.010799966,-0.17406306,-0.2873042,0.28730422,-9.461885,0.9410752,47.693153,-1.153853,-1.6170875,-3.7709246,-0.04702054,0.29098156,-0.39521563,26.125,26.9375,26.0625,29.0625,30.125,30.5625
0.356052,-0.8998865,-1.031621,-0.6892114,-0.054984003,0.078095846,-0.16376278,-0.40351117,-0.3275339,0.05998475,3.077576,-0.61931527,-7.0084774e-05,-0.172185,0.004240541,0.0016825366,-0.01371738,0.004335272,0.030879056,0.4191927,-1.419824,1.9509233,-2.1018097,-1.5687503,2.3907962,-0.15496169,0.28668562,-0.34288317,0.046962228,0.010390817,-0.18563646,-0.53630114,0.3256114,-9.500193,1.0798295,47.694054,-1.309371,-1.5646019,-3.8045416,-0.082401924,0.30282903,-0.2587534,26.125,26.9375,26.0625,29.0625,30.125,30.5625
0.35805184,-0.5506983,-1.0501012,-0.58150935,-0.054736424,0.089429826,-0.16090542,-0.4038879,-0.32753327,0.060004197,3.0774958,-0.61921835,-0.00011960158,-0.17347276,0.003757635,0.0026516442,-0.014093149,0.005984071,0.036708836,0.41884524,-1.4192474,1.9502047,-2.1017497,-1.5686897,2.3903987,-0.15473709,0.2875523,-0.34649575,0.048076175,0.010084863,-0.1912395,-0.4213795,0.30645782,-9.595961,0.9097417,47.63673,-1.246707,-1.4344783,-3.692171,-0.085758165,0.32230583,-0.18384778,26.125,26.9375,26.0625,29.0625,30.125,30.5625
0.36005172,-0.380189,-0.6250118,-0.951599,-0.04377556,0.07215042,-0.15885821,-0.4042394,-0.32750612,0.060015317,3.0775113,-0.61914593,-0.00011549295,-0.17392373,0.0037202206,0.0010808336,-0.0133287925,0.0018435287,0.034192402,0.41850963,-1.4186813,1.9494976,-2.1016052,-1.5686897,2.3900163,-0.15548705,0.29264978,-0.3493228,0.049896307,0.011067713,-0.18947157,-0.24899697,0.21068975,-9.5385,0.9791215,47.678825,-1.3725505,-1.5570071,-3.6031098,-0.107578784,0.31305408,-0.16494527,26.125,26.9375,26.0625,29.0625,30.125,30.5625
0.36205167,-0.6622928,-0.7984307,-0.7671625,-0.025559679,0.0442549,-0.14700714,-0.4045894,-0.32748473,0.060008932,3.077572,-0.619066,-0.00011492116,-0.17674696,0.003533738,0.0015628815,-0.013630043,0.0025762818,0.025417022,0.41820934,-1.418067,1.9487776,-2.101473,-1.568726,2.389659,-0.1572368,0.29683274,-0.3557085,0.051290747,0.011021832,-0.18244307,-0.34476504,0.2873042,-9.5385,0.95226496,47.670765,-1.2911088,-1.664358,-3.5397272,-0.115338154,0.29793417,-0.216236,26.125,26.9375,26.0625,29.0625,30.125,30.5625
0.36405167,-0.22945371,-0.794651,-0.6960728,-0.01882856,0.030117648,-0.15416737,-0.4049543,-0.32749787,0.060026485,3.0774703,-0.61900973,-0.00019324422,-0.1777826,0.0038212955,0.0013064496,-0.014371166,0.0014896614,0.017107826,0.41789767,-1.4175018,1.9480838,-2.1014488,-1.5686654,2.3893254,-0.15913378,0.2988032,-0.35770258,0.052004885,0.012149017,-0.17602886,-0.22984336,0.38307226,-9.576807,0.9858343,47.67345,-1.200653,-1.7904472,-3.439857,-0.13944584,0.32014474,-0.30096555,26.125,26.9375,26.0625,29.0625,30.125,30.5625
0.3660526,-0.7333268,-0.62106276,-0.93490463,-0.014093613,0.011469418,-0.13687763,-0.4052954,-0.32746497,0.060016647,3.077513,-0.6189804,-0.00011318267,-0.17839913,0.005211572,0.0005022285,-0.012942097,-0.00066567725,0.01253193,0.41756147,-1.4169004,1.9473776,-2.101281,-1.5686659,2.3889658,-0.1616829,0.30054817,-0.35838115,0.05349016,0.011706966,-0.1740029,-0.22984336,0.38307226,-9.595961,0.9365982,47.668976,-1.1807382,-1.7435006,-3.4846919,-0.14261886,0.3123466,-0.35021466,26.125,26.9375,26.0625,29.0625,30.125,30.5625
0.3680525,0.3567253,-0.23699394,-0.7242829,-0.033146355,0.03246271,-0.16257727,-0.4056768,-0.32748345,0.06005747,3.0774357,-0.6189041,-0.00021361293,-0.17746335,0.00505567,-0.00065619475,-0.011205588,-0.0039626863,0.014264656,0.4172625,-1.4163237,1.9466003,-2.1011846,-1.5686296,2.3886294,-0.16030163,0.3028571,-0.35902306,0.05555271,0.01147891,-0.17435327,-0.11492168,0.38307226,-9.5385,1.0149267,47.69763,-1.2126731,-1.7297553,-3.6397858,-0.17052016,0.32102263,-0.40078294,26.125,26.9375,26.0625,29.0625,30.125,30.5625
0.37005237,-0.114504926,-1.222882,-0.3014967,-0.049161393,0.038863245,-0.1612892,-0.40605894,-0.32744864,0.06006398,3.0774229,-0.6189018,-0.00024060812,-0.178431,0.006051168,-0.00053583574,-0.011031572,-0.0046928395,0.012740205,0.41689017,-1.4157223,1.9458698,-2.1010764,-1.5686296,2.3882577,-0.16276968,0.3034559,-0.36053526,0.057210203,0.011621386,-0.17529649,-0.076614454,0.34476504,-9.481039,0.96569055,47.70211,-1.0290208,-1.765492,-3.646934,-0.21145669,0.32207525,-0.43734205,26.125,26.9375,26.0625,29.0625,30.125,30.5625
0.37205216,-0.72060174,-1.1887958,0.19934775,-0.057408407,0.039571323,-0.16127871,-0.40641454,-0.32745445,0.06007341,3.0773838,-0.61881167,-0.00026440737,-0.17991929,0.006618344,0.00018807634,-0.011006461,-0.003260106,0.018919727,0.41658992,-1.4151337,1.9451526,-2.100992,-1.5685934,2.3879066,-0.16443285,0.3037542,-0.3628721,0.05797694,0.011035955,-0.18313818,-0.076614454,0.30645782,-9.212888,0.9701675,47.701214,-1.0027333,-1.5591028,-3.695842,-0.24014232,0.3415957,-0.37070328,26.125,26.9375,26.0625,29.0625,30.125,30.5625
