Tylouw/Master_Thesis_Code/trial4/insertion_8_2026-01-23_13-51-17.csv
num_insertion,tcp_force_x[N],tcp_force_y[N],tcp_force_z[N],tcp_force_rx[Nm?],tcp_force_ry[Nm?],tcp_force_rz[Nm?],tcp_pose_x[m],tcp_pose_y[m],tcp_pose_z[m],tcp_pose_rx[rot_vec_x],tcp_pose_ry[rot_vec_y],tcp_pose_rz[rot_vec_z],tcp_velo_x[m/s],tcp_velo_y[m/s],tcp_velo_z[m/s],tcp_velo_rx[rot_vec_x/s],tcp_velo_ry[rot_vec_y/s],tcp_velo_rz[rot_vec_z/s],q1[rad],q2[rad],q3[rad],q4[rad],q5[rad],q6[rad],qd1[rad/s],qd2[rad/s],qd3[rad/s],qd4[rad/s],qd5[rad/s],qd6[rad/s],tool_acc_x,tool_acc_y,tool_acc_z,current_of_whole_robot[A],voltage_of_whole_robot[V],current_J1[A],current_J2[A],current_J3[A],current_J4[A],current_J5[A],current_J6[A],temp_J1[C],temp_J2[C],temp_J3[C],temp_J4[C],temp_J5[C],temp_J6[C]
1.0,0.10092269015177326,0.03346676630232891,-1.367545900121279,0.0004720447716277318,-0.04207253092150742,-0.08189710876921175,-0.5384524174500567,-0.32410455501027635,0.2599163394346261,-3.0785590126767195,0.6247220852972086,-0.0002858596029022255,0.0020037322179224234,-0.0009087412032430091,3.321085090971134e-05,-0.0014041044109278132,0.0044993737155733194,0.000533053386184445,0.3261665403842926,-1.1528978806785126,1.6640670935260218,-2.0801884136595667,-1.571357552205221,2.3011252880096436,0.0024706691037863493,-0.0030879201367497444,0.005918636918067932,-0.007542038336396217,-0.000115849485155195,0.0019348942441865802,0.7661445140838623,-0.38307225704193115,-9.366117477416992,0.7911257743835449,47.68598937988281,-0.11599627882242203,-4.379208564758301,-2.923339366912842,-0.4149094521999359,0.029875658452510834,-0.0038292957469820976,25.5625,26.4375,25.5,28.625,29.9375,30.5625
1.0,0.4036676724097665,0.344199059062143,-1.158960810956454,0.009647656514722675,-0.04755165765277053,-0.08482134796741787,-0.5384509304180493,-0.32411174721177155,0.25993753240759915,-3.0785752912107194,0.6247633345520485,-0.00022073517783833296,0.000880770752741506,-0.0011765908653309288,0.001056343555736572,-0.0021658522732120175,0.0067220514043292625,0.0007103546384497914,0.3261784017086029,-1.1529215437224885,1.6640546957599085,-2.080200334588522,-1.571357552205221,2.3011608123779297,0.002293873578310013,-0.0021609768737107515,0.002218274399638176,-0.007118255831301212,-0.00011401486699469388,0.0015807393938302994,0.5171475410461426,-0.2298433631658554,-9.193734169006348,0.7597975730895996,47.731666564941406,-0.16374218463897705,-4.445469856262207,-2.4355382919311523,-0.3951616585254669,0.01576770469546318,-0.013940224424004555,25.5625,26.4375,25.5,28.625,29.9375,30.5625
1.0,-0.6714925475008796,-0.18846275919209782,-1.5271943592792363,-0.024396156875377384,-0.01550817254593189,-0.07968607953984146,-0.5384254315014072,-0.32413806771573145,0.25996222870010643,-3.078592778363994,0.6246133908143925,-0.00014313135869343388,-3.666490765814204e-05,-0.0010880434118170316,0.0017778364675613378,-0.001889516397977761,0.005894667512250294,0.0007694906305848038,0.32623812556266785,-1.1529691976359864,1.6640647093402308,-2.080198904077047,-1.5713933149920862,2.3011248111724854,0.0016753100790083408,-0.001355145825073123,-0.001356684835627675,-0.00347690237686038,-0.00011051491310354322,0.0009042634046636522,0.038307227194309235,0.2106897532939911,-9.251194953918457,0.6881819367408752,47.651058197021484,-0.1907147616147995,-4.2013139724731445,-2.1688950061798096,-0.4672306180000305,0.029138175770640373,-0.021565983071923256,25.5625,26.4375,25.5,28.625,29.9375,30.5625
1.0,-1.6406616209704201,-2.002291374308638,-1.2417339150728595,-0.07727923635703535,0.05275539689262463,-0.08353681731795451,-0.5384378773381412,-0.32410832757097335,0.2599716514927012,-3.078624071157768,0.624696288027028,-0.00016468725846853336,0.00031025831566195116,-0.0007608563004320743,0.001044784821675458,-0.0011589331722947078,0.0037465040024664067,0.0006299950851573897,0.32617804408073425,-1.1529931289008637,1.6640766302691858,-2.080198904077047,-1.571345631276266,2.301112413406372,0.0013529376592487097,-0.0012872767401859164,2.3207710910355672e-05,-0.0026557433884590864,-0.00010884422226808965,0.0007218588725663722,-0.1149216741323471,0.2106897532939911,-9.327810287475586,0.7620334029197693,47.692256927490234,-0.18446138501167297,-4.044081211090088,-2.123112678527832,-0.5183005928993225,0.028523501008749008,-0.02153146266937256,25.5625,26.4375,25.5,28.625,29.9375,30.5625
1.0,-2.985745605028277,-3.471463273953246,-0.9862893007873849,-0.13081802585490623,0.10916744459633018,-0.0788565247398947,-0.5384306051530378,-0.3241319616378725,0.25997506519301394,-3.0785983267114867,0.6245758584329021,-0.0001484919674597646,0.002393304255638524,-0.00010305024533675579,-0.0024640196408629114,0.0015195512922539388,-0.004119876625546782,0.0007538318525355816,0.32622599601745605,-1.1529809695533295,1.6640437285052698,-2.0801621876158656,-1.5713933149920862,2.301088571548462,0.0014325391966849566,-0.0009661777294240892,0.007376828230917454,-0.0020205462351441383,-0.00010722313891164958,0.0006786558078601956,-0.325611412525177,0.28730422258377075,-9.385271072387695,0.7597975730895996,47.686885833740234,-0.1950819492340088,-4.076815128326416,-2.553093433380127,-0.5651929378509521,0.02916330099105835,-0.030094943940639496,25.5625,26.4375,25.5,28.625,29.9375,30.5625
1.0,-2.896786602059611,-3.362515465128607,-0.7362714878348818,-0.13764654138082058,0.13602720853441996,-0.08950406253845263,-0.5384196967941695,-0.32413483583531266,0.25997042112856095,-3.0785643857802034,0.6247229515761168,-0.0001205753073528738,0.0021810024193917813,-0.0003755174963476441,-0.002407703024071527,0.0011589465417120083,-0.0030707296073959516,0.0010915371428389191,0.32623815536499023,-1.1529928308776398,1.6640790144549769,-2.080198904077047,-1.5714057127581995,2.301196813583374,0.0017409130232408643,-0.00045076035894453526,0.006760521791875362,-0.003029040526598692,-0.0001056498585967347,0.0006489371880888939,-0.19153612852096558,0.28730422258377075,-9.28950309753418,0.7933669090270996,47.674346923828125,-0.1820201575756073,-3.9076757431030273,-2.616175413131714,-0.5850085020065308,0.01578657701611519,-0.005787670146673918,25.5625,26.4375,25.5,28.625,29.9375,30.5625
1.0,-2.265749502030049,-1.676711250789326,-0.6065209340267894,-0.09072606585131822,0.10259942056261181,-0.09322260370471042,-0.5384222150362825,-0.3241148658553242,0.25995623928421463,-3.078585789438449,0.6246697064476415,-0.00016841126604267716,0.00069733691514241,-0.0008168593203947666,-0.00048725884040493625,-0.001867331668272146,0.005800300192500154,0.0010564095998614157,0.3262021243572235,-1.1529928010753174,1.6641143004046839,-2.0802132091917933,-1.5713813940631312,2.3011248111724854,0.0016419922467321157,-0.00035031288280151784,0.0037261578254401684,-0.009468179196119308,-0.00010412210394861177,0.0005822801613248885,-0.28730419278144836,0.17238251864910126,-9.136273384094238,0.7329410910606384,47.73883056640625,-0.28504806756973267,-3.8736772537231445,-2.3506147861480713,-0.5750443935394287,0.0312964953482151,-0.022020401433110237,25.5625,26.4375,25.5,28.625,29.9375,30.5625
1.0,-0.969598841921698,-0.4460311618162702,-0.828324438266412,-0.019780133929123967,0.04452655046326684,-0.0867351943565808,-0.5384207153132722,-0.32413240017914013,0.2599551674378126,-3.0786306710019398,0.6246787255143023,-0.00011966648990668055,-0.00011104255364852705,-0.0011327047405368955,0.0005198653695559644,-0.003966582009395264,0.011951364524278077,0.0012483116863291756,0.3262260854244232,-1.1529807311347504,1.6641138235675257,-2.0802747211852015,-1.571357552205221,2.3011486530303955,0.0017042062245309353,-0.00029300423921085894,0.002589521463960409,-0.01488830428570509,-0.00010263781587127596,0.00045030968612991273,-0.26815059781074524,0.2106897532939911,-9.02135181427002,0.7508436441421509,47.71554183959961,-0.26933085918426514,-3.8189592361450195,-2.1273481845855713,-0.5195157527923584,0.032114483416080475,-0.022890035063028336,25.5625,26.4375,25.5,28.625,29.9375,30.5625
1.0,-0.07731514353977494,0.26616358055104833,-0.6886354233664921,0.008046092739751168,0.00924752365847854,-0.09382848724292511,-0.538413679938872,-0.32416240556976983,0.2599681326857965,-3.078679751080442,0.624611790813956,-6.324763293012403e-05,-0.0005362126356835393,-0.0011912922223207398,0.0008631378581121971,-0.004954588229936785,0.014840822377569335,0.0011642742489889214,0.3262740969657898,-1.1529806715301056,1.6640899817096155,-2.080299516717428,-1.571345631276266,2.3011486530303955,0.001571021624840796,-0.0001315160043304786,0.002233103383332491,-0.01774708926677704,-0.00010119516809936613,0.00040000054286792874,-0.2298433631658554,0.24899697303771973,-8.944737434387207,0.7105615139007568,47.7164421081543,-0.23920586705207825,-3.755066394805908,-2.078882932662964,-0.4929964542388916,0.02495497092604637,-0.018972095102071762,25.5625,26.4375,25.5,28.625,29.9375,30.5625
1.0,-0.2127443972892293,0.07769692074936399,-0.654599485730744,-0.014705151657397941,0.008953478561027996,-0.08260740828962124,-0.5384109014709286,-0.32416016839886436,0.2599526883953249,-3.078667734917613,0.6245903208752343,-6.936629503454191e-05,-0.00034453776982546733,-0.0010317035152324074,0.00032882562994542073,-0.004840617678602867,0.014500722461222698,0.0010518221557102112,0.326274037361145,-1.1529687207988282,1.6641138235675257,-2.0803238354124964,-1.571357552205221,2.3011367321014404,0.001425535068847239,-1.7644548506723368e-06,0.003495534649118781,-0.01878059096634388,-9.979266906157136e-05,0.00036669604014605284,-0.2298433631658554,0.15322890877723694,-8.944737434387207,0.7888899445533752,47.68419647216797,-0.23716768622398376,-3.752164363861084,-2.0423009395599365,-0.489809513092041,0.030692920088768005,-0.021869000047445297,25.5625,26.4375,25.5,28.625,29.9375,30.5625
1.0,-1.0117450474951013,-0.6562115785129601,-0.5479239016250544,-0.04675386321567917,0.01867621118736617,-0.08799261359623604,-0.5384178442438216,-0.32413009382885827,0.25994611876835605,-3.078645718319331,0.6246433921132256,-6.18296274111771e-05,-9.54550618031866e-06,-0.0008543988842220539,-0.00024017265854298986,-0.004329445793577254,0.012999126051887492,0.0009822474660231282,0.32622596621513367,-1.1529806417277833,1.6641505400287073,-2.0803472004332484,-1.571369473134176,2.3011245727539062,0.0013279968407005072,-2.3672413362874067e-08,0.004694240167737007,-0.018394825980067253,-9.842841973295435e-05,0.000339004211127758,-0.09576806426048279,-0.07661445438861847,-8.944737434387207,0.6971306204795837,47.71733474731445,-0.23886162042617798,-3.589909791946411,-2.0517020225524902,-0.5027987957000732,0.007641959935426712,-0.02203969471156597,25.5625,26.4375,25.5,28.625,29.9375,30.5625
1.0,-1.3065752787691705,-1.127295737683066,-0.18679177883830927,-0.04501328523774361,0.03717404205491821,-0.08434187376340409,-0.5384363142196126,-0.3241375941530948,0.259955623889004,-3.078688962597609,0.6246324530600805,8.966546893579273e-06,-0.00026546943085450935,-0.0008083844703368539,-0.0016818761914241059,-0.0034962897673598745,0.010534429093445041,0.0008013584731036416,0.3262259066104889,-1.1529559356025239,1.664102856312887,-2.080383440057272,-1.571357552205221,2.301112174987793,0.0011228584917262197,0.0023118765093386173,0.004674951545894146,-0.018085742369294167,-9.71010304056108e-05,0.00031523589859716594,0.038307227194309235,-0.17238251864910126,-8.96389102935791,0.7060845494270325,47.70927429199219,-0.26724720001220703,-3.661525249481201,-2.07985520362854,-0.509940505027771,0.02428552135825157,-0.026977743953466415,25.5625,26.4375,25.5,28.625,29.9375,30.5625
1.0,-0.684449353444684,-0.6908060390543265,-0.4816444625506512,-0.02352579149013198,0.04306768342488412,-0.08466482692258426,-0.5384410329430003,-0.3241391570886488,0.25992425213071424,-3.078677004979287,0.6246301282126462,-2.414808296218573e-05,-0.0007221740664278219,-0.0008144714246081421,-0.002494892420751728,-0.0032364479810074154,0.009754984324211841,0.0005917989879268044,0.3262258470058441,-1.1529072684100647,1.6641143004046839,-2.080419202844137,-1.571357552205221,2.301112174987793,0.0008925757720135152,0.004157216288149357,0.004037731327116489,-0.01847226545214653,-9.580890036886558e-05,0.0002945867890957743,0.09576806426048279,-0.3064578175544739,-8.868123054504395,0.7754590511322021,47.69584274291992,-0.22457438707351685,-3.696519613265991,-1.9663753509521484,-0.5205867290496826,0.009237297810614109,-0.03820908069610596,25.5625,26.4375,25.5,28.625,29.9375,30.5625
1.0,-0.17634632945918957,0.6794839891046275,-0.47916843694708217,-0.0003722340685016678,0.014798191861064071,-0.0980715579528956,-0.5384498855204946,-0.32414588412323275,0.25993681370969635,-3.0787415195584145,0.6246824339683702,6.243910970963373e-05,-0.0008634223449142827,-0.0007698780931940417,-0.0016483885253599975,-0.004116522456761926,0.012339531122844615,0.0004658453925035403,0.32622578740119934,-1.1529076558402558,1.664102856312887,-2.080492158929342,-1.5713217894183558,2.3011364936828613,0.0007493248558603227,0.0031409382354468107,0.0038869138807058334,-0.02003546431660652,-9.455076360609382e-05,0.00027647646493278444,0.19153612852096558,-0.3447650372982025,-9.002198219299316,0.7642692923545837,47.72629165649414,-0.17443999648094177,-3.6711997985839844,-1.8585333824157715,-0.5002016425132751,0.0291399247944355,-0.023898661136627197,25.5625,26.4375,25.5,28.625,29.9375,30.5625
1.0,0.06547473642482216,0.8146639352208781,-0.6341861641926629,0.028098475211505134,-0.016339656456823278,-0.09013457578566186,-0.53843818716413,-0.32413428260881005,0.25992173279109604,-3.078671737658132,0.6246875124779936,0.00010406811727822987,-0.0009262158198175074,-0.0005009524520240758,-0.0016255652550060532,-0.004382798279155245,0.013118409227748016,3.3774999744572317e-05,0.326225608587265,-1.15291981518779,1.6641619841205042,-2.0805279217162074,-1.5713933149920862,2.3011484146118164,0.0003016855916939676,0.0028619696386158466,0.0044797188602387905,-0.021172422915697098,-9.332513582194224e-05,0.0002604658657219261,0.17238251864910126,-0.2106897532939911,-8.944737434387207,0.7486078143119812,47.69673538208008,-0.24140387773513794,-3.4972410202026367,-1.877990961074829,-0.47197455167770386,0.015361947938799858,-0.025052212178707123,25.5625,26.4375,25.5,28.625,29.9375,30.5625
1.0,0.7724535156314877,1.0055422597955945,-0.7383685964922438,0.008793410635007881,-0.018885982373472103,-0.09347228654423967,-0.5384249405210182,-0.32414789193968635,0.2598941180992444,-3.0786868758705737,0.6246520546620742,5.056888680422655e-05,-0.0002519718022515227,-0.0002188274899385449,-0.0028398686255356872,-0.0033265387100869176,0.010013971161159048,-3.240505477791381e-05,0.3262496888637543,-1.1528957945159455,1.664199177418844,-2.0805636845030726,-1.571369473134176,2.3011484146118164,0.00022068156977184117,0.0030349434819072485,0.006814336869865656,-0.020400812849402428,-9.213101293426007e-05,0.00024620958720333874,0.15322890877723694,-0.15322890877723694,-8.925583839416504,0.7642692923545837,47.71375274658203,-0.20009885728359222,-3.5531411170959473,-1.9514000415802002,-0.4465726613998413,0.004473221022635698,-0.03147946298122406,25.5625,26.4375,25.5,28.625,29.9375,30.5625
1.0,0.08697957657038174,-0.20852455078637408,-0.8544555488929262,-0.014432383739126212,-0.02713662508581511,-0.08203225795401484,-0.5384407880408291,-0.3241545229625557,0.25992799009272605,-3.078740778516901,0.6246439912136005,0.0001512641730721684,-7.081385751229459e-05,-0.00014097061703496205,-0.004993158846997011,-0.0016677094800042782,0.0051266565666214505,-4.312571132228363e-05,0.3262496590614319,-1.152906910782196,1.664140526448385,-2.0805751285948695,-1.571357552205221,2.3011364936828613,0.0001960317458724603,0.0055739921517670155,0.007787606678903103,-0.018751977011561394,-9.096696885535493e-05,0.00023343291832134128,0.13407529890537262,-0.1149216815829277,-9.040505409240723,0.6971306204795837,47.694053649902344,-0.18247979879379272,-3.4917449951171875,-1.9490723609924316,-0.46078693866729736,0.004100754391402006,-0.023186296224594116,25.5625,26.4375,25.5,28.625,29.9375,30.5625
1.0,0.1243626284440143,-0.9676072773858824,-0.9301728812258283,-0.043548517059744274,0.00856273362466647,-0.0915725026055771,-0.538437816855411,-0.3241522579581014,0.2599051758621315,-3.0786930228800666,0.6246724536184362,7.758933298935672e-05,0.0003028320623849732,-1.1135465430062447e-06,-0.0068172518876173606,-0.00020082504377549933,0.0008085074890215619,-4.989687188786926e-05,0.3262496590614319,-1.1528823536685486,1.6641524473773401,-2.080550333062643,-1.571369473134176,2.3011603355407715,0.0001767629582900554,0.007264406885951757,0.009249758906662464,-0.017344042658805847,-8.984241867437959e-05,0.0002219166635768488,0.17238251864910126,0.019153613597154617,-9.136273384094238,0.7127973437309265,47.70748519897461,-0.26032042503356934,-3.6147210597991943,-1.921517014503479,-0.4931315779685974,0.010664368979632854,-0.02604493498802185,25.5625,26.4375,25.5,28.625,29.9375,30.5625
1.0,-1.064070292966815,-1.423002509061389,-1.1963065609773518,-0.05908522966216116,0.01461166137011884,-0.08385918588613013,-0.5384303439921853,-0.324128831651878,0.25986266933309266,-3.078684310441834,0.6247285143383968,1.0233839965472702e-05,0.0003650921257579227,8.589354616892074e-05,-0.007403778604629583,0.00035099102074233324,-0.000785120214737012,-0.00012930704568565274,0.32621362805366516,-1.1528700453094025,1.6642478148089808,-2.0806223354735316,-1.571345631276266,2.3011603355407715,7.696934335399419e-05,0.00788857601583004,0.009535489603877068,-0.016567496582865715,-9.931478416547179e-05,0.00020198947458993644,0.13407529890537262,0.09576806426048279,-9.327810287475586,0.7486078143119812,47.72270965576172,-0.24826186895370483,-3.535428047180176,-1.9444553852081299,-0.52679044008255,0.01989826187491417,-0.01699967496097088,25.5625,26.4375,25.5,28.625,29.9375,30.5625
1.0,-1.2545267951983898,-1.4847090373141874,-1.2386067721465206,-0.05284993429577719,0.012373434349563398,-0.07811585356792633,-0.5384148705151135,-0.3241443951296944,0.25982491833701493,-3.0786592694050374,0.6246856119105193,-4.72513927538879e-06,0.0006548947763924908,0.00023412116385984757,-0.007758188024848891,0.00046012378170587874,-0.00109698114639969,-0.0001967623775079505,0.3262495994567871,-1.1528341335109253,1.6642969290362757,-2.080682416955465,-1.571369473134176,2.3011727333068848,1.0326419896955485e-06,0.007644767872989178,0.010842639952898026,-0.0173004362732172,-0.00010152963659493253,0.00019331040675751865,0.15322890877723694,0.15322890877723694,-9.366117477416992,0.7486078143119812,47.72092056274414,-0.2082339972257614,-3.4919662475585938,-1.8678267002105713,-0.5184018611907959,0.01830720528960228,-0.034113332629203796,25.5625,26.4375,25.5,28.625,29.9375,30.5625
1.0,-0.5900298046626384,-1.344929323609564,-1.263965917731952,-0.06049147329098487,0.02099491004534546,-0.08860200700972762,-0.538409789396185,-0.3241503973432295,0.25981269117698763,-3.078671562903871,0.6245918145032078,-2.2579879481833743e-05,0.0006553710421437409,0.00023503831276969658,-0.009457128764518562,0.0010871343995394397,-0.002956992418877362,-0.00018990450919494604,0.3262615203857422,-1.1528214675239106,1.6643098036395472,-2.0806948147215785,-1.571369473134176,2.3011245727539062,1.3854209335306678e-08,0.009783811867237091,0.012021741829812527,-0.018655739724636078,-9.991767728934065e-05,0.00018534614355303347,0.15322890877723694,0.24899697303771973,-9.346963882446289,0.7866488099098206,47.75763702392578,-0.20672225952148438,-3.49751877784729,-1.9364311695098877,-0.5137940049171448,0.011949334293603897,-0.0296251829713583,25.5625,26.4375,25.5,28.625,29.9375,30.5625
1.0,-0.4781886009832632,-1.5845436963080397,-1.3559488865316822,-0.06509928383189506,0.018069441397814898,-0.08445495783435379,-0.5384306085795292,-0.3241341274903164,0.2598066574517204,-3.0786687090217386,0.624668062851751,1.047171402934063e-05,0.000413382562007322,0.00015423717055128067,-0.01066001744857849,0.0013192499045196942,-0.003611260258827932,-0.00018286960991961799,0.32622551918029785,-1.1527967613986512,1.6642974058734339,-2.08073153118276,-1.571369473134176,2.3011364936828613,1.8587190120378239e-10,0.011762866750359535,0.01236035954207182,-0.02027922309935093,-0.00011338544572936371,0.00017801308422349393,0.13407528400421143,0.3064578175544739,-9.308655738830566,0.6926589012145996,47.66718673706055,-0.2658349871635437,-3.528907299041748,-1.946242094039917,-0.516693115234375,0.02760036289691925,-0.035403355956077576,25.5625,26.4375,25.5,28.625,29.9375,30.5625
1.0,-0.6544697957581285,-1.765951870563844,-1.1802978542475224,-0.0807699913535785,0.01626619740009528,-0.08466381897782861,-0.5384055782582909,-0.32411911606799965,0.2597588166218236,-3.078643608281772,0.6246630019398479,-9.552842555311161e-05,0.0007067774987771573,0.00025393640016270366,-0.010231594339623028,0.0008312741460335951,-0.002174548646233453,-0.00017672167457041232,0.3262135982513428,-1.1527971190265198,1.6644170920001429,-2.0807796917357386,-1.571357552205221,2.3011245727539062,2.4937087984844286e-12,0.010495786555111408,0.013457016088068485,-0.021626127883791924,-0.00011236023419769481,0.00017123823636211455,0.13407529890537262,0.325611412525177,-9.366117477416992,0.7217512726783752,47.702110290527344,-0.21440279483795166,-3.472189426422119,-1.9395167827606201,-0.5140272974967957,0.003948752302676439,-0.040664128959178925,25.5625,26.4375,25.5,28.625,29.9375,30.5625
1.0,-0.7723803893178804,-1.8786120616921358,-1.182823800249939,-0.08685130538359773,0.015808069102158432,-0.08603888203079288,-0.5384321188255201,-0.3241152868395789,0.259745377882485,-3.078593828339574,0.6247294038488477,-4.165983173844842e-05,0.00035184052439807826,0.00013382698256532023,-0.010916311099367814,0.000857886696774566,-0.0022460662396301605,-0.00017067055637913,0.32620155811309814,-1.15273670971904,1.6643689314471644,-2.080803533593649,-1.5714057127581995,2.3011603355407715,3.345628692163517e-14,0.012066845782101154,0.013073691166937351,-0.022737564519047737,-0.00011822312080767006,0.0001649599871598184,0.17238251864910126,0.28730422258377075,-9.366117477416992,0.7374180555343628,47.70927429199219,-0.25727543234825134,-3.516188144683838,-1.9288924932479858,-0.5107470750808716,0.004555253311991692,-0.04062371328473091,25.5625,26.4375,25.5,28.625,29.9375,30.5625
1.0,-1.013174595411383,-1.6430107890881909,-1.1108700117479693,-0.08288203930712608,0.017393162465471332,-0.08388236004364041,-0.5384195179132303,-0.3241226066286532,0.2597301335187088,-3.0786345333777674,0.6247184902423418,-5.3109200759375564e-05,0.0003213288915040243,0.00012404349948503873,-0.011169883428699106,0.0006791393149440976,-0.0017078274555320826,-0.0001652656327255929,0.3262135982513428,-1.1527366203120728,1.6644170920001429,-2.080864568749899,-1.571369473134176,2.3011603355407715,4.488587464969332e-16,0.012376534752547741,0.01351542305201292,-0.02405610866844654,-0.00012354124919511378,0.00015912612434476614,0.17238251864910126,0.2106897532939911,-9.289502143859863,0.7777001857757568,47.69584274291992,-0.2417019009590149,-3.527731418609619,-1.9179964065551758,-0.49450400471687317,0.034666500985622406,-0.030079182237386703,25.5625,26.4375,25.5,28.625,29.9375,30.5625
1.0,-1.2379399162178077,-1.7875644187374462,-1.1126040863115605,-0.06461597255301785,0.014110202589954268,-0.08082435306944097,-0.5384249512634877,-0.32411538941917295,0.25969334658374776,-3.078621575727756,0.6246388381088884,-9.309676529417091e-05,-0.0001271682941738211,-2.8750884161921453e-05,-0.011445950105971792,0.000266152123212467,-0.00051021492968363,-0.00016044223546789543,0.32620155811309814,-1.1526883107474823,1.6644414106952112,-2.080900808373922,-1.5713813940631312,2.301100254058838,6.022013412138644e-18,0.013560408726334572,0.012911784462630749,-0.025903156027197838,-0.00012192886788398027,0.00015369003813248128,0.17238251864910126,0.26815059781074524,-9.232041358947754,0.7172743082046509,47.72987747192383,-0.24523386359214783,-3.522946834564209,-1.882054090499878,-0.4890475273132324,0.034058067947626114,-0.035951800644397736,25.5625,26.4375,25.5,28.625,29.9375,30.5625
1.0,-0.7850698430620137,-1.1593586379299372,-1.0412451161399738,-0.06637280179061573,0.01879539992754789,-0.08230703481079264,-0.5384126850306139,-0.32413332041520254,0.2596990508287247,-3.0786293462798127,0.6246407970933079,-3.4367454113471515e-05,-0.00013068102803318423,-3.016710228671937e-05,-0.011376489981921986,-0.00021471502797153325,0.0008950172989255496,-0.00015608216440071612,0.3262375593185425,-1.1527002912810822,1.6644533316241663,-2.0809370479979457,-1.5713933149920862,2.3011364936828613,8.079299225004166e-20,0.013354944996535778,0.013450759463012218,-0.027721896767616272,-0.00011992937652394176,0.0001486138062318787,0.26815059781074524,0.24899697303771973,-9.21288776397705,0.7329410910606384,47.699424743652344,-0.25148090720176697,-3.564335584640503,-1.8553473949432373,-0.4700913727283478,0.02142442762851715,-0.039373189210891724,25.5625,26.4375,25.5,28.625,29.9375,30.5625
1.0,0.1894353920888483,-1.2133404579928992,-1.1740574917720878,-0.04941647229797857,0.02551780143433988,-0.09646910105045932,-0.5384283384428349,-0.32410755458631474,0.2596682590895048,-3.0786183658535697,0.6246962994857153,-3.392587593110369e-05,-0.00020929513661783046,-5.712812684675864e-05,-0.011341385674499965,-0.0005330720747292045,0.0018223891526658203,-0.00015177515491523357,0.32618963718414307,-1.1526644390872498,1.6644895712481897,-2.0810095272459925,-1.5713933149920862,2.3011245727539062,1.0839411299553779e-21,0.013399573042988777,0.013567311689257622,-0.02886357717216015,-0.00011796641774708405,0.00014386257680598646,0.2106897532939911,0.2298433631658554,-9.232041358947754,0.6926589012145996,47.674346923828125,-0.27129340171813965,-3.442638635635376,-1.8579145669937134,-0.45417410135269165,0.014400399290025234,-0.028287429362535477,25.5625,26.4375,25.5,28.625,29.9375,30.5625
1.0,-0.4097063886905898,-1.0720472499390932,-1.0420784612753766,-0.05487385720888498,0.0012947815864496302,-0.08627019858216463,-0.5384274386568507,-0.3241136806140085,0.25966040587004435,-3.078620140532309,0.6246966593280708,9.445329179574458e-06,-0.0004205400544942364,-0.00012915474912813624,-0.011875819708451677,-0.0005908823030979135,0.0019780131018212613,-0.00014765200907161853,0.32620155811309814,-1.1526519817164917,1.6645010153399866,-2.0810581646361292,-1.5714057127581995,2.3011364936828613,1.4542455150244858e-23,0.014463535510003567,0.013578556478023529,-0.030104735866189003,-0.00011606499901972711,0.00013940507778897882,0.09576806426048279,0.24899697303771973,-9.251194953918457,0.6904177665710449,47.7218132019043,-0.2785018980503082,-3.5678577423095703,-1.785548210144043,-0.44625550508499146,0.0223640576004982,-0.02329372987151146,25.5625,26.4375,25.5,28.625,29.9375,30.5625
1.0,-0.49379925222717536,-0.9615159810562335,-0.9272794074030193,-0.061047966938566414,-0.003445518694841665,-0.0883462774758044,-0.5384304287314572,-0.3241197423337979,0.25961709945997,-3.078668346393234,0.624667623495899,-2.949374170175589e-05,-0.0003725371356482992,-0.00011298556779102202,-0.012020479175064368,-0.0007552217205924575,0.0024538639808704657,-0.0001438384693698371,0.32620155811309814,-1.152591959839203,1.66453725496401,-2.081154008904928,-1.571357552205221,2.301112174987793,1.9510559037756237e-25,0.014484019950032234,0.014118124730885029,-0.031168224290013313,-0.00011422359966672957,0.00013521603250410408,0.17238251864910126,0.15322890877723694,-9.21288776397705,0.7844129800796509,47.699424743652344,-0.3010488450527191,-3.473701000213623,-1.8737576007843018,-0.4383079409599304,0.030048198997974396,-0.04977928847074509,25.5625,26.4375,25.5,28.625,29.9375,30.5625
1.0,0.19247737932928982,-0.806218958913006,-0.9932850973373661,-0.0584031939146718,0.018067442732210025,-0.0927227347690225,-0.5384479453656099,-0.32409867323314134,0.2596030702151747,-3.078650275297383,0.6246633304832758,3.1749265488866674e-05,-0.00048796366908603376,-0.0001523426200411767,-0.012698060544827635,-0.0005563631008214299,0.0018571010948105415,-0.00013995944067976372,0.32616567611694336,-1.1525675815394898,1.664548699055807,-2.0812140903868617,-1.5713933149920862,2.3010759353637695,2.617590513465985e-27,0.01557665690779686,0.014273151755332947,-0.031786877661943436,-0.00011243986227782443,0.00013127113925293088,0.17238251864910126,0.2106897532939911,-9.232041358947754,0.6792280077934265,47.68419647216797,-0.252639502286911,-3.554347515106201,-1.8428854942321777,-0.4272876977920532,0.011042699217796326,-0.03782569617033005,25.5625,26.4375,25.5,28.625,29.9375,30.5625
1.0,-0.45349016092638883,-0.7964206031408178,-0.9518448577396423,-0.04695410029820349,0.011378787968943241,-0.08946747751344787,-0.5384235987876806,-0.3241304557946203,0.25957572764746784,-3.078647874901658,0.624664026190217,-1.149680889142155e-05,-0.00040132764544041004,-0.00012305126170004398,-0.012784305990680245,-0.0005459349416862637,0.0018212580003763666,-0.00013631518358621939,0.32622551918029785,-1.1525436502746125,1.6645854155169886,-2.081249853173727,-1.5713813940631312,2.3011364936828613,3.5118318413414904e-29,0.015493066050112247,0.01464086677879095,-0.032033711671829224,-0.00011071075277868658,0.00012754999625030905,0.2298433631658554,0.13407529890537262,-9.21288776397705,0.7508436441421509,47.6895751953125,-0.2984933853149414,-3.4706451892852783,-1.832663655281067,-0.4242253601551056,0.041133612394332886,-0.03329291194677353,25.5625,26.4375,25.5,28.625,29.9375,30.5625
1.0,-0.25096187904216993,-0.6916432166760136,-0.935040994884072,-0.04185605429516369,0.020553043184599627,-0.08407605319024042,-0.538429872947835,-0.32412735278492066,0.25954123978777743,-3.0786691869327503,0.624629453648425,-4.843971245145949e-05,-0.0003904972012453924,-0.00011951568784132255,-0.012923649862685472,-0.00046968697075424807,0.0015912781029792972,-0.00013277297248462635,0.3262135982513428,-1.152495638733246,1.6646102110492151,-2.0813094578185023,-1.571357552205221,2.301100254058838,4.7115703775873406e-31,0.01565452665090561,0.01473530475050211,-0.0320473350584507,-0.00010903424845309928,0.00012403397704474628,0.15322890877723694,0.05746084079146385,-9.117119789123535,0.7687462568283081,47.674346923828125,-0.3039788603782654,-3.525257110595703,-1.7834899425506592,-0.42572087049484253,0.025161392986774445,-0.04332251474261284,25.5625,26.4375,25.5,28.625,29.9375,30.5625
1.0,-0.7145460148071786,-0.3955012637797893,-0.9293135182947406,-0.03755925031746987,0.005112026522199947,-0.08420437211844287,-0.5384381752324964,-0.32411463315483807,0.2595381381751968,-3.07867099675672,0.6247454600898864,1.832882861649098e-05,-0.0002851946681358356,-8.368384495517247e-05,-0.013934861975251844,8.819988780221664e-05,-5.84697301848177e-05,-0.00012926167621968627,0.32618963718414307,-1.1524952811053772,1.6646330992328089,-2.081381937066549,-1.571357552205221,2.3011484146118164,6.32117238240488e-33,0.01675242744386196,0.015534195117652416,-0.03220260888338089,-0.00010740766447270289,0.00012070682714693248,0.09576806426048279,0.1149216815829277,-9.21288776397705,0.7956027388572693,47.6976318359375,-0.30452194809913635,-3.51358699798584,-1.8494327068328857,-0.42266592383384705,0.013672098517417908,-0.04162159934639931,25.5625,26.4375,25.5,28.625,29.9375,30.5625
1.0,-0.5205686730819535,-0.6648155258921036,-1.0283511248649886,-0.0325709130572877,0.004644293148105648,-0.08288584034282226,-0.538427134880037,-0.3241316477248544,0.2594984541186118,-3.078645864554658,0.624701916202533,2.7013511349213453e-06,-0.00026420112197046675,-7.67443079288166e-05,-0.014824598090742392,0.0006186728033330881,-0.001632488282871317,-0.00010013942327680401,0.3262135982513428,-1.1523869794658204,1.6647284666644495,-2.0815135441222132,-1.5713813940631312,2.3011245727539062,1.137788615318193e-36,0.017891626805067062,0.01594039984047413,-0.032087020576000214,-0.00010429606481920928,9.185059025185183e-05,0.09576806426048279,0.0,-9.193734169006348,0.6725152134895325,47.69673538208008,-0.2942800223827362,-3.5989322662353516,-1.8273565769195557,-0.4612466096878052,0.018092837184667587,-0.0344667062163353,25.5625,26.4375,25.5,28.625,29.9375,30.5625
1.0,-0.3203795258511385,-0.7592473024115689,-0.9983488241954854,-0.03472533148788648,0.012004038460087225,-0.08899820960020088,-0.5384240741966455,-0.3241371578762426,0.25943868157344685,-3.0786391547492857,0.624623950109448,-2.0110222153128286e-05,7.392243796041503e-05,3.8251221915316e-05,-0.015170006770028041,0.0009180341358582306,-0.0025135045930956366,-9.758236168856613e-05,0.3262375593185425,-1.15237511814151,1.6647289435016077,-2.0815488300719203,-1.5713933149920862,2.3011245727539062,1.5264886474395926e-38,0.017639564350247383,0.01705879531800747,-0.0320228673517704,-0.00010280672722728923,8.93861724762246e-05,0.019153613597154617,-0.038307227194309235,-9.232041358947754,0.7172743082046509,47.71375274658203,-0.3335958421230316,-3.5034313201904297,-1.8329687118530273,-0.4608977437019348,0.021716125309467316,-0.042387351393699646,25.5625,26.4375,25.5,28.625,29.9375,30.5625
1.0,-0.5390649024366917,-0.47726628186784803,-0.9531631844364262,-0.04270518256110489,0.01563272502654562,-0.09074298789067414,-0.5384273721443823,-0.32412648155348794,0.2594107667612601,-3.0786637414563414,0.6246865760852097,-3.3412800448242314e-05,0.00010652200793531395,4.92212966902776e-05,-0.015362123550289396,0.0010853341732754932,-0.00301037648873331,-9.528002644827702e-05,0.3262135982513428,-1.1523510080626984,1.6647775808917444,-2.081632753411764,-1.571357552205221,2.3011364936828613,2.047983692626077e-40,0.01784035749733448,0.017166780307888985,-0.03180737420916557,-0.00010135945194633678,8.720866026123986e-05,0.09576806426048279,0.05746084079146385,-9.21288776397705,0.6702793836593628,47.71375274658203,-0.28113630414009094,-3.569046974182129,-1.844430923461914,-0.4907762408256531,0.016203951090574265,-0.04671483114361763,25.5625,26.4375,25.5,28.625,29.9375,30.5625
1.0,-0.7607065317073257,-0.7120765071479314,-0.8640687093504156,-0.03887997456014192,0.020899266874971588,-0.08569984705753306,-0.5384289776141404,-0.32412576970275425,0.2593554879462614,-3.0786316789803623,0.6246410644507175,-0.00010565002555909607,0.0002823398031453146,0.00010903185413830293,-0.016123511381830057,0.0016193994934931334,-0.004586191402532544,-9.293509931098244e-05,0.3262135982513428,-1.152278946047165,1.6648133436786097,-2.0816804371275843,-1.571369473134176,2.301112174987793,2.7479462885409663e-42,0.01849198341369629,0.017929429188370705,-0.03155779466032982,-9.99524345388636e-05,8.514534420100972e-05,0.05746084079146385,0.05746084079146385,-9.232041358947754,0.7262282371520996,47.70927429199219,-0.33811625838279724,-3.4946537017822266,-1.8477624654769897,-0.5087192058563232,0.011926249600946903,-0.0368073396384716,25.5625,26.4375,25.5,28.625,29.9375,30.5625
1.0,-0.9340269848751667,-0.5169711839222383,-1.0838197504946583,-0.045937305387369336,0.026515128338383223,-0.08460565036098762,-0.5384255532325727,-0.3241348323915296,0.2593172882679548,-3.0786535917885813,0.6246073861902314,-0.00014052529885528713,0.00044160473093674495,0.00016310593225680436,-0.016109822861492255,0.001600516919831556,-0.0045324096498430685,-9.106353391337044e-05,0.32622551918029785,-1.1522310239127656,1.664849583302633,-2.081752916375631,-1.571345631276266,2.301100254058838,3.6433760072445244e-44,0.018127452582120895,0.01845528557896614,-0.031776122748851776,-9.858392149908468e-05,8.3177859778516e-05,0.038307227194309235,0.09576806426048279,-9.232041358947754,0.6210432648658752,47.70838165283203,-0.3019769787788391,-3.495027542114258,-1.850412368774414,-0.4991072416305542,0.03412974998354912,-0.037182219326496124,25.5625,26.4375,25.5,28.625,29.9375,30.5625
1.0,-1.506985033402203,-1.3961244364244538,-1.107255129351278,-0.02809657230261532,0.012776294290791964,-0.07890677465191555,-0.538432931144179,-0.3241246065121416,0.25929833406594116,-3.0786128720992556,0.6246571247746879,-7.295376139645622e-05,0.0003752757061812749,0.0001404680225552852,-0.016693368662023533,0.001740403249576058,-0.004953528348244707,-8.930666051535957e-05,0.3262135982513428,-1.1522067052176972,1.6648748556720179,-2.0818244419493617,-1.5713933149920862,2.3011245727539062,0.0,0.01898922398686409,0.018736962229013443,-0.03247583657503128,-9.725224663270637e-05,8.129942580126226e-05,0.09576806426048279,0.07661445438861847,-9.232041358947754,0.7239871025085449,47.7191276550293,-0.33210518956184387,-3.5433154106140137,-1.8514686822891235,-0.5297137498855591,0.027128731831908226,-0.033561136573553085,25.5625,26.4375,25.5,28.625,29.9375,30.5625
1.0,-1.3337621353561628,-1.3638757103373753,-1.1493401049315393,-0.03579345071740296,0.013922440091823862,-0.07663780374831636,-0.5384215446985233,-0.32413221042279744,0.2592692054409441,-3.0786236446675845,0.6246402844641199,-0.00016510128137773574,0.0005175462889188003,0.000188864548925759,-0.017340959321389307,0.0019303442848949593,-0.005518531326163483,-8.768495097581406e-05,0.32622551918029785,-1.152182624941208,1.664910141621725,-2.081836839715475,-1.571357552205221,2.3011245727539062,0.0,0.01948562264442444,0.019711809232831,-0.03335101529955864,-9.595612209523097e-05,7.950386498123407e-05,0.09576806426048279,0.07661445438861847,-9.289502143859863,0.7105615139007568,47.72897720336914,-0.33589908480644226,-3.468787908554077,-1.914196491241455,-0.5442723631858826,0.029395803809165955,-0.044564783573150635,25.5625,26.4375,25.5,28.625,29.9375,30.5625
1.0,-0.4015618817565716,-0.9999829338570412,-1.2264613177274077,-0.0434790761126171,0.030816625584979634,-0.08966699757105513,-0.5384210387841056,-0.3241152376029726,0.2592324952089102,-3.0786103354919905,0.6246561307568319,-0.0001548048699938539,0.0006987782963484921,0.0002503667567536845,-0.017048197655429274,0.0015695615254100149,-0.004458933590855985,-8.643640453881748e-05,0.32620155811309814,-1.152158961897232,1.6649821440326136,-2.081933160821432,-1.571369473134176,2.301112174987793,0.0,0.01865580305457115,0.020431984215974808,-0.03436071053147316,-9.469409269513562e-05,7.7785924077034e-05,0.038307227194309235,0.05746084079146385,-9.251194953918457,0.7530794739723206,47.733455657958984,-0.32427069544792175,-3.461878776550293,-1.8921340703964233,-0.5622773766517639,0.019418789073824883,-0.042402803897857666,25.5625,26.4375,25.5,28.625,29.9375,30.5625
1.0,-1.0517043891329552,-1.3606022902056913,-1.3699918821835906,-0.04222818094953095,0.014172096812560356,-0.08113683696780985,-0.5384194715271069,-0.32413149343660286,0.25919475789946117,-3.0786043278888156,0.6246746307647175,-0.00019828606607036225,0.0006216734626028869,0.0002240851289316114,-0.017578247500713927,0.0017536771731721137,-0.0050086168543651615,-8.480092072331633e-05,0.32622551918029785,-1.1520986717990418,1.6649945417987269,-2.0819808445372523,-1.571357552205221,2.3011484146118164,0.0,0.019492294639348984,0.02055542729794979,-0.034740954637527466,-9.346484148409218e-05,7.614075730089098e-05,-0.038307227194309235,0.07661445438861847,-9.289502143859863,0.7351769208908081,47.692256927490234,-0.3667495548725128,-3.470163583755493,-1.9029755592346191,-0.5786139369010925,0.02094374969601631,-0.029451187700033188,25.5625,26.4375,25.5,28.625,29.9375,30.5625
1.0,-0.9172725473182521,-1.1423019023141645,-1.1956171302683904,-0.047906106215097395,0.01535983886140175,-0.08272952611100469,-0.5383982457126728,-0.3241320708671964,0.2591431524958169,-3.07858531051391,0.6247095995215176,-0.00022989932228956872,0.0005085912062159556,0.00019157385255672794,-0.018161600832182167,0.001670888489069463,-0.0045985035547377534,-8.365912069334793e-05,0.3262375593185425,-1.1520744425109406,1.6651023069964808,-2.0820895634093226,-1.571357552205221,2.30118465423584,0.0,0.020378660410642624,0.021052030846476555,-0.036538731306791306,-0.00014962255954742432,7.45635770726949e-05,0.1149216815829277,0.019153613597154617,-9.27034854888916,0.7284641265869141,47.72718811035156,-0.3683093190193176,-3.4419233798980713,-1.9228761196136475,-0.5941439270973206,0.011661514639854431,-0.05293065309524536,25.5625,26.4375,25.5,28.625,29.9375,30.5625
1.0,-0.7663246820643668,-1.3858265775296577,-1.1953798094314039,-0.0436648998928216,0.019567565448877236,-0.08249338563791818,-0.5384231847931988,-0.3241225095137634,0.2591025045566027,-3.0785743614781746,0.624629576015574,-0.00022795341206807888,0.0006251638203632813,0.00023161550376142852,-0.018544912894357137,0.0014582157904380795,-0.003967393950150088,-8.277974739264605e-05,0.3262135982513428,-1.1519905191710968,1.665091339741842,-2.0821501217284144,-1.5713813940631312,2.301112174987793,0.0,0.020512789487838745,0.022165976464748383,-0.03845277801156044,-0.00015262863598763943,7.305042527150363e-05,0.13407529890537262,0.09576806426048279,-9.251194953918457,0.7351769208908081,47.745994567871094,-0.3647245466709137,-3.443486452102661,-1.9261056184768677,-0.5894774198532104,0.03028091974556446,-0.04272300377488136,25.5625,26.4375,25.5,28.625,29.9375,30.5625
1.0,-0.7906547558228534,-1.3492976280545619,-1.3096779700384573,-0.040916288771954044,0.014573139038158425,-0.07527225316682229,-0.5384131743463848,-0.32412929267629526,0.25907249260560833,-3.0785919533863177,0.6246142197493377,-0.0002642371918069911,0.0006157495151434875,0.00033408635734646664,-0.018875193252849608,0.001811668425638991,-0.005020626564471988,-0.00024453296672211577,0.3262254595756531,-1.151966319685318,1.6651390234576624,-2.0822092495360316,-1.571357552205221,2.301112174987793,-0.000163534379680641,0.020903151482343674,0.022222192957997322,-0.03778841719031334,-0.0001481323706684634,7.159763481467962e-05,0.17238251864910126,0.09576806426048279,-9.289502143859863,0.7060845494270325,47.7244987487793,-0.40075400471687317,-3.501028060913086,-1.8986153602600098,-0.6258652210235596,0.004979850724339485,-0.043923519551754,25.5625,26.4375,25.5,28.625,29.9375,30.5625
1.0,-0.612535277918296,-0.8606606228291307,-1.1297702001918222,-0.05335625777025289,0.013066782245171858,-0.08445666252507313,-0.5384125019320102,-0.3241343745571611,0.25907327445260375,-3.078595416715463,0.6246154773726033,-0.00018022933054079126,0.0007018857894649953,0.0003852429521952891,-0.01938204324237148,0.0023580285723770775,-0.006641175547961825,-0.0002769348736385553,0.3262374997138977,-1.1519661408713837,1.6651504675494593,-2.082268854180807,-1.5713813940631312,2.3011245727539062,-0.00019782087474595755,0.021432558074593544,0.02241012640297413,-0.03679559752345085,-0.00014344432565849274,7.020137854851782e-05,0.019153613597154617,0.1149216815829277,-9.21288776397705,0.6523714661598206,47.66718673706055,-0.35519659519195557,-3.3500969409942627,-1.898745059967041,-0.6619760394096375,0.011984951794147491,-0.047326795756816864,25.5625,26.4375,25.5,28.625,29.9375,30.5625
1.0,-0.7927122022225093,-1.128453176715022,-1.2653333982735138,-0.047145353822574634,0.007926729872746879,-0.08403639501104423,-0.5384287065151514,-0.3241062211623833,0.2590043228376434,-3.0785284957990684,0.6247169203825259,-0.00022724506747724292,0.00045509834379024386,0.00031722260464163063,-0.019392520706797523,0.0017397776573500516,-0.004845427032722772,-0.0003018679557767498,0.3261895477771759,-1.151882068519928,1.6652115027057093,-2.082365175286764,-1.5714057127581995,2.3011484146118164,-0.0002232265833299607,0.02180054597556591,0.02244243025779724,-0.039095085114240646,-0.0001390145334880799,6.88586151227355e-05,0.05746084079146385,0.13407529890537262,-9.27034854888916,0.7150384783744812,47.702110290527344,-0.3267090916633606,-3.377744674682617,-1.9057921171188354,-0.6557623147964478,0.018293196335434914,-0.0500560998916626,25.5625,26.4375,25.5,28.625,29.9375,30.5625
1.0,0.19467116097297768,-0.9765504011052061,-1.1509073173143471,-0.05483689381216536,0.03556648116856816,-0.09739135685655377,-0.5384160410898164,-0.3241289825608443,0.2589632429792342,-3.078577982902587,0.6246313811813173,-0.00025580052945942583,0.0004901912552976029,0.00033947221095736226,-0.019528799801430786,0.0015025915410952996,-0.004162562553989772,-0.00031755054084636996,0.3262254297733307,-1.1518341463855286,1.6652596632586878,-2.082461496392721,-1.571369473134176,2.3011245727539062,-0.0002397176722297445,0.021810520440340042,0.023038404062390327,-0.040423911064863205,-0.0001348486985079944,6.756627408321947e-05,0.07661445438861847,0.038307227194309235,-9.327810287475586,0.6926589012145996,47.68061828613281,-0.40338414907455444,-3.353477716445923,-1.8508392572402954,-0.6851499080657959,0.014920439571142197,-0.046953827142715454,25.5625,26.4375,25.5,28.625,29.9375,30.5625
1.0,-0.5392117799762843,-1.103745248986172,-1.1398340926241803,-0.057782093584897914,0.019168984315661743,-0.08483730530050655,-0.538418141883663,-0.3241153945975453,0.2589060143420985,-3.078540228052641,0.6247194747482321,-0.00034573111583114237,0.0006833349888638443,0.00040633849070766695,-0.020200995557075378,0.0016312630973886425,-0.004555997827670537,-0.0003188515537081479,0.326201468706131,-1.1517739456943055,1.6653192679034632,-2.082522054711813,-1.571357552205221,2.3011603355407715,-0.00024195409787353128,0.022211236879229546,0.024283748120069504,-0.041656069457530975,-0.00013092499284539372,6.632158329011872e-05,0.07661445438861847,0.17238251864910126,-9.232041358947754,0.6993717551231384,47.67524337768555,-0.33657610416412354,-3.431519031524658,-1.9430718421936035,-0.6905508637428284,0.011216947808861732,-0.04618755728006363,25.5625,26.4375,25.5,28.625,29.9375,30.5625
1.0,-0.4626910406881246,-0.7959878414611186,-1.008207524328232,-0.05638077321835744,0.016913063619110914,-0.09339426863028326,-0.5384145536504307,-0.32411809326418856,0.2588722496619885,-3.0785269013339915,0.6246595509334321,-0.00030184340318395274,0.0005807964071482505,0.0007469784864458929,-0.021105385430696812,0.0019970636321107,-0.005647733075445859,-0.0008889366583933703,0.3262133002281189,-1.1517377358726044,1.6653669516192835,-2.0826174221434535,-1.5713933149920862,2.3011364936828613,-0.0008212127140723169,0.023181995376944542,0.025135137140750885,-0.04232684522867203,-0.00012722313113044947,5.710812911274843e-05,0.1149216815829277,0.07661445438861847,-9.27034854888916,0.6859408020973206,47.702110290527344,-0.3466014266014099,-3.379185199737549,-1.9708306789398193,-0.7149614095687866,0.020715627819299698,-0.0504080206155777,25.5625,26.4375,25.5,28.625,29.9375,30.5625
1.0,-0.3989998422724468,-1.3084708521293436,-1.2185928284218783,-0.03403978655575732,0.002908571362461851,-0.08087722419853344,-0.5384203775927374,-0.3241172744845433,0.25880544050172216,-3.0785770405349595,0.6246502005420442,-0.00032389203316067315,0.00061102356298578,0.0007040533379491635,-0.021274849682376445,0.001908673504941116,-0.005411272622075056,-0.0007983057043061716,0.32620128989219666,-1.1516536933234711,1.6654394308673304,-2.082785745660299,-1.571345631276266,2.301112174987793,-0.0007402623305097222,0.023354947566986084,0.025446513667702675,-0.04306352138519287,-0.00012041420268360525,4.717121191788465e-05,0.07661445438861847,0.13407529890537262,-9.21288776397705,0.7105615139007568,47.72808074951172,-0.3934333920478821,-3.331981658935547,-1.9338383674621582,-0.7772263288497925,0.021223928779363632,-0.04126189649105072,25.5625,26.4375,25.5,28.625,29.9375,30.5625
1.0,-0.13364466572122552,-1.074773322103052,-1.1858649073025462,-0.042107636491022796,0.01490746916443421,-0.08518658209243754,-0.538405245332822,-0.3241329858319067,0.25872222803061,-3.0785063417836334,0.6246552306207079,-0.00043388049539449635,9.98628759908912e-05,0.0004718408291633183,-0.020753253313246404,0.0008266479104900154,-0.002248962879648184,-0.0007094636069405968,0.3262373208999634,-1.1515577894500275,1.6655109564410608,-2.082858224908346,-1.571369473134176,2.3011603355407715,-0.0006511359824799001,0.023633744567632675,0.024476731196045876,-0.045714836567640305,-0.00011727568198693916,4.6329583710758016e-05,0.17238251864910126,0.07661445438861847,-9.251194953918457,0.7239871025085449,47.71196365356445,-0.3939821720123291,-3.3290491104125977,-1.8950786590576172,-0.7781648635864258,0.012940758839249611,-0.05231897905468941,25.5625,26.4375,25.5,28.625,29.9375,30.5625
1.0,-0.6179112614085607,-1.287347084483983,-1.0164898732824823,-0.04988516542102194,0.0135051947487374,-0.08604608701078387,-0.5384090750369568,-0.3241212638630324,0.25871994414273136,-3.078575403858717,0.6246305593273485,-0.00033938172521909835,0.00018854961598270236,0.0004563284572486409,-0.021402179442734676,0.0008974395031263479,-0.0024711421181808284,-0.0006389184533071266,0.32621338963508606,-1.151569442158081,1.6655595938311976,-2.0829788647093714,-1.571345631276266,2.301112174987793,-0.0005810328293591738,0.0242666844278574,0.025356929749250412,-0.04699484258890152,-0.0001142968685599044,4.5545883040176705e-05,0.15322890877723694,0.09576806426048279,-9.27034854888916,0.6881819367408752,47.70927429199219,-0.3875633478164673,-3.3917527198791504,-1.86221182346344,-0.7925206422805786,0.00839543342590332,-0.0430750846862793,25.5625,26.4375,25.5,28.625,29.9375,30.5625
1.0,-0.8416982674736269,-1.585570090832483,-1.302906266818798,-0.04970112995152738,0.01143251399059067,-0.08064760040114452,-0.5384063687168279,-0.3240932457851938,0.258646519585677,-3.0784864259495186,0.6246700547363487,-0.0004418085552799513,0.0005583621197085098,0.0005454201008843925,-0.02262354646315631,0.0014206547719017495,-0.004021738234707136,-0.000581791582471867,0.3261774182319641,-1.1515093010715027,1.6656559149371546,-2.083038946191305,-1.5713813940631312,2.301112174987793,-0.0005245572538115084,0.025074509903788567,0.027242237702012062,-0.04805149510502815,-0.00011146558972541243,4.4790176616515964e-05,0.15322890877723694,0.1149216815829277,-9.366117477416992,0.7284641265869141,47.70121383666992,-0.40239816904067993,-3.407254695892334,-2.0759472846984863,-0.8166712522506714,0.015576655976474285,-0.05321720615029335,25.5625,26.4375,25.5,28.625,29.9375,30.5625
1.0,-1.082898559371169,-1.371630100362828,-1.2557246821366659,-0.05668926685130207,0.005676248404862753,-0.08309821589968985,-0.538395271945024,-0.32413086357919074,0.2586183507118104,-3.0785415551699677,0.6246242491899414,-0.00039563254054728855,0.0002916879930527997,0.0004243050638183957,-0.022910581604553597,0.0010765781920858736,-0.0030266298059929675,-0.0005352051686431293,0.32623738050460815,-1.151461051111557,1.6656797567950647,-2.083159109155172,-1.571357552205221,2.3011364936828613,-0.0004780951130669564,0.02593037113547325,0.027101710438728333,-0.04981973394751549,-0.00010877117165364325,4.405927029438317e-05,0.15322890877723694,0.17238251864910126,-9.327810287475586,0.6904177665710449,47.71375274658203,-0.4796144366264343,-3.381401777267456,-2.003830909729004,-0.8161608576774597,0.019664481282234192,-0.03471711277961731,25.5625,26.4375,25.5,28.625,29.9375,30.5625
1.0,-1.037952416362702,-1.3968496160109631,-1.0958318431188545,-0.049495044264118396,0.006252314212449775,-0.07782373435613045,-0.5384003724432301,-0.3241157944433659,0.25854458261213387,-3.078502297665997,0.6246157004225754,-0.0004671711877542226,-9.10940058983363e-06,0.0003419488419495646,-0.02329922935177011,0.0007471246962921474,-0.0020760681747868425,-0.0005663654710839103,0.32621341943740845,-1.151376650934555,1.6657512823687952,-2.0832554302611292,-1.571369473134176,2.301112174987793,-0.000509328325279057,0.026932304725050926,0.02702658250927925,-0.05175256356596947,-0.00010620384273352101,4.335184712545015e-05,0.17238251864910126,0.13407529890537262,-9.327810287475586,0.7127973437309265,47.68061828613281,-0.3893618583679199,-3.4176573753356934,-1.9708434343338013,-0.8376448154449463,0.024303320795297623,-0.03262396529316902,25.5625,26.4375,25.5,28.625,29.9375,30.5625
1.0,-0.5029854492838395,-1.0871746734468948,-1.0535033016100093,-0.05547243241400552,0.02536545091547669,-0.08918675875843812,-0.5383969788344971,-0.32410934159901156,0.2585014627660255,-3.078515303405421,0.6246575707656781,-0.00048505489885999816,-0.0001603807861872182,0.0002671288509559282,-0.02307484964074153,-0.0005915407856261649,0.0018438356927313886,-0.0005320656043344642,0.3262014091014862,-1.1513407689384003,1.665823761616842,-2.0833646259703578,-1.571345631276266,2.3011245727539062,-0.0004738054994959384,0.026663227006793022,0.027985747903585434,-0.05658483877778053,-0.00010375522106187418,4.2666746594477445e-05,0.15322890877723694,0.17238251864910126,-9.251194953918457,0.7597975730895996,47.703006744384766,-0.416540265083313,-3.420380115509033,-1.9168250560760498,-0.8185874223709106,0.0208648219704628,-0.0508139505982399,25.5625,26.4375,25.5,28.625,29.9375,30.5625
1.0,-0.9199469851662966,-1.4242896004949037,-1.0714922375476594,-0.05029045626159255,0.02764299351884828,-0.08670217141807719,-0.5384081096788527,-0.3241196661946395,0.2584640869295809,-3.0785238037780633,0.6246591827290049,-0.0004252427156815272,-0.0001848515121105641,0.00027740355295787026,-0.023531850710612957,-0.0010437419526204343,0.0031588322372379674,-0.0005613488558947194,0.32621341943740845,-1.151268796329834,1.6658356825457972,-2.0834857426085414,-1.571357552205221,2.3011364936828613,-0.0005027417209930718,0.02710835263133049,0.029060060158371925,-0.05949484929442406,-0.00010141672828467563,4.2002942791441455e-05,0.13407529890537262,0.19153612852096558,-9.21288776397705,0.6635612845420837,47.67792892456055,-0.40245819091796875,-3.358853340148926,-1.9722156524658203,-0.7798799872398376,0.035545092076063156,-0.05040185898542404,25.5625,26.4375,25.5,28.625,29.9375,30.5625
1.0,-0.6782911154209397,-1.156712004930485,-1.182749360804961,-0.06385967325195915,0.039382607366742615,-0.09581465706031658,-0.5384030866516101,-0.3241038579689189,0.25842302624386193,-3.078473141433824,0.6246489354882031,-0.0003773810205805011,-0.0003811395577647858,0.00018959870575944155,-0.023759602710211287,-0.0012863529939459402,0.0038587301571330153,-0.0005291041464099466,0.3262014091014862,-1.1512446266463776,1.665919605885641,-2.0835939846434535,-1.5714176336871546,2.3011245727539062,-0.00047070259461179376,0.027762411162257195,0.02896074578166008,-0.06079033762216568,-9.918129944708198e-05,4.1359580791322514e-05,0.1149216815829277,0.19153612852096558,-9.308655738830566,0.7306999564170837,47.69584274291992,-0.46112942695617676,-3.3538966178894043,-1.9852933883666992,-0.807933509349823,0.026119040325284004,-0.05578111857175827,25.5625,26.4375,25.5,28.625,29.9375,30.5625
1.0,-0.930963011471268,-1.3555446333678742,-1.090167945018755,-0.057505811579348046,0.03827328057760426,-0.08333071936535659,-0.5384179902056965,-0.32410874320555944,0.25839082932843815,-3.078565972495084,0.6246871602613497,-0.0003370535255913185,-0.0009351667190313243,-1.7981577293644135e-05,-0.023327669602771738,-0.002640102552289008,0.007820298884515752,-0.0005012295051895051,0.32618948817253113,-1.151184545164444,1.6659444014178675,-2.0837508640685023,-1.571345631276266,2.3011245727539062,-0.0004418266180437058,0.02811780385673046,0.028382988646626472,-0.06475446373224258,-9.704243711894378e-05,4.073559830430895e-05,0.038307227194309235,0.19153612852096558,-9.327810287475586,0.6993717551231384,47.694053649902344,-0.4151201844215393,-3.348970890045166,-1.948868751525879,-0.7692912817001343,0.015290983021259308,-0.053700245916843414,25.5625,26.4375,25.5,28.625,29.9375,30.5625
1.0,-1.0269971000270632,-1.3455820922174302,-1.180096605131745,-0.06413116290160421,0.04082316991227118,-0.09114389333892821,-0.5383889537298225,-0.32412212027482634,0.25827632689147567,-3.0784963522541564,0.6246728409226581,-0.0005288542670569266,-0.0014823460686035094,-0.00021929198568782873,-0.02280807948635846,-0.00453336399843484,0.0134194099198668,-0.00047747980452328377,0.3262253701686859,-1.1510766309550782,1.6660760084735315,-2.083849092523092,-1.571345631276266,2.3011603355407715,-0.0004162749391980469,0.028207313269376755,0.028455017134547234,-0.07082650065422058,-0.00011272516712779179,4.0130118577508256e-05,0.019153613597154617,0.15322890877723694,-9.423578262329102,0.7105615139007568,47.686885833740234,-0.45214956998825073,-3.333179473876953,-1.9002244472503662,-0.6917810440063477,0.00337436655536294,-0.03871902823448181,25.5625,26.4375,25.5,28.625,29.9375,30.5625
1.0,-1.1021440142369063,-1.6060633068223338,-1.147713445539358,-0.06253177919309721,0.0436770241195687,-0.0840342451264838,-0.5384013759076617,-0.32411080264620873,0.25826538004178456,-3.078562686166536,0.6246476362220932,-0.00036781759556814476,-0.001153230010591122,-0.00012194186900942658,-0.02395641149972958,-0.0037205374316116252,0.01102586735173625,-0.0004537458505619824,0.3262014091014862,-1.1510642927936097,1.66612416902651,-2.0840283832945765,-1.571345631276266,2.301112174987793,-0.00039352267049252987,0.029072264209389687,0.02978021837770939,-0.07048886269330978,-0.00011155308311572298,3.954240310122259e-05,0.019153613597154617,0.07661445438861847,-9.327810287475586,0.6904177665710449,47.70121383666992,-0.41580331325531006,-3.3326120376586914,-1.90281081199646,-0.696333110332489,0.01075071282684803,-0.05051101744174957,25.5625,26.4375,25.5,28.625,29.9375,30.5625
1.0,-1.320825992799228,-1.2758583979282818,-1.2168760046303984,-0.06330915583753817,0.037530230239033485,-0.08592695249064217,-0.5384174236456332,-0.3241125320271313,0.2582535381218283,-3.0785863877290014,0.6246524091561235,-0.00019180901466019304,-0.0015017558821273723,-0.0002840428309003409,-0.024706642516962224,-0.004251445054863074,0.012564491756966764,-0.0003875071957309848,0.3262014389038086,-1.1510277551463624,1.666135613118307,-2.0841852627196253,-1.5713813940631312,2.301112174987793,-0.00032668752828612924,0.030608830973505974,0.030138960108160973,-0.07401180267333984,-0.00010936926992144436,3.8971698813838884e-05,-0.07661445438861847,0.13407529890537262,-9.346963882446289,0.7306999564170837,47.730770111083984,-0.4773032069206238,-3.379645347595215,-1.8953279256820679,-0.6505684852600098,0.025604698807001114,-0.05389515310525894,25.5625,26.4375,25.5,28.625,29.9375,30.5625
1.0,-1.5088829519493876,-1.1697817372075985,-1.334906647933636,-0.0633737173909303,0.02873637321631952,-0.0881281629120851,-0.5384140315387795,-0.32411138583725774,0.25817948823134573,-3.078556730378885,0.6246463645078709,-0.00027381790635004724,-0.0020509658537472253,-0.0004989290445757949,-0.024818460705437532,-0.005183300717643243,0.015282713153468616,-0.00034550337203329164,0.326201468706131,-1.1509435635856171,1.6662080923663538,-2.0842815838255824,-1.5713813940631312,2.301112174987793,-0.000283942703390494,0.03171656280755997,0.029638517647981644,-0.0774926021695137,-0.00010720283898990601,3.841714351437986e-05,-0.019153613597154617,0.2106897532939911,-9.404424667358398,0.6993717551231384,47.711063385009766,-0.44749587774276733,-3.3511509895324707,-2.022308349609375,-0.589874804019928,0.025288162752985954,-0.04884221404790878,25.5625,26.4375,25.5,28.625,29.9375,30.5625
1.0,-1.5376030369466547,-1.18984912039647,-1.3297188337504855,-0.05505258203139618,0.027055968220428,-0.08230955774618967,-0.5384064424065329,-0.32412808805669024,0.258117609165308,-3.0786126367314526,0.6246194960514755,-0.0002528171153091508,-0.0020718233257201383,-0.0005175490365334795,-0.02389219772664,-0.006109131356342102,0.01799954314197646,-0.00032870891589793425,0.3262254297733307,-1.1508718591979523,1.6662920157061976,-2.0844737492003382,-1.571345631276266,2.301112174987793,-0.00026680680457502604,0.03045056201517582,0.02967338263988495,-0.07913172245025635,-0.00010511650907574221,3.787820241996087e-05,0.019153613597154617,0.07661445438861847,-9.423578262329102,0.6702793836593628,47.71017074584961,-0.49928927421569824,-3.3739500045776367,-1.9107531309127808,-0.5616973638534546,0.023339232429862022,-0.04796411842107773,25.5625,26.4375,25.5,28.625,29.9375,30.5625
1.0,-1.4503088550086805,-1.310217961032564,-1.2056318950385112,-0.04537489361090262,0.017216100568895054,-0.07748440111635484,-0.5384199793514776,-0.32412370351723807,0.2580592035978116,-3.0786233185023706,0.6246408377790039,-0.0001768332475247282,-0.002071448730583087,-0.0004959442477047986,-0.02400703675898101,-0.006247775628811193,0.01839986418779291,-0.0003618598998428874,0.3262135088443756,-1.1507879954627533,1.6663511435138147,-2.084665914575094,-1.571357552205221,2.301112174987793,-0.0003001669538207352,0.0305307786911726,0.0300150103867054,-0.07997721433639526,-0.00010310919606126845,3.735417340067215e-05,0.019153613597154617,0.1149216815829277,-9.366117477416992,0.6993717551231384,47.71196365356445,-0.4454687237739563,-3.2570831775665283,-1.8858821392059326,-0.517314612865448,0.016795562580227852,-0.04453811049461365,25.5625,26.4375,25.5,28.625,29.9375,30.5625
1.0,-0.7198800175722301,-1.0255282408886408,-1.0552211967427954,-0.04162690601713813,0.028852674145909345,-0.0887810632663688,-0.5384480636198131,-0.32410217306455147,0.25806186369895323,-3.0786692186197295,0.624746937820303,6.848227887531335e-07,-0.002032473393825048,-0.0004916758007535494,-0.02515163310657768,-0.005293393002231793,0.015585954397996992,-0.0003466198592042162,0.3261655867099762,-1.1507753890803833,1.6663625876056116,-2.08482088665151,-1.571357552205221,2.3011245727539062,-0.0002861910033971071,0.032053813338279724,0.030207015573978424,-0.07872090488672256,-0.00010117733472725376,3.6844416172243655e-05,0.038307227194309235,0.1149216815829277,-9.346963882446289,0.7217512726783752,47.68330383300781,-0.4703960418701172,-3.373569965362549,-1.9130351543426514,-0.511793315410614,0.00872043240815401,-0.051599398255348206,25.5625,26.4375,25.5,28.625,29.9375,30.5625
1.0,-0.30247109084311674,-0.861497973719324,-1.338977827541326,-0.027663030248379294,0.012002678130198122,-0.08924760962587683,-0.5384312199258783,-0.324111961595708,0.25790456569291337,-3.078651688764963,0.6247050982596726,-6.921338114820426e-05,-0.0014233054025022851,-0.00027440097739118356,-0.02650919108744224,-0.003043262544879419,0.00896709450788325,-0.0003291524563425146,0.3261895477771759,-1.1506072741797944,1.6665552298175257,-2.085130353967184,-1.571357552205221,2.3011245727539062,-0.00030190596589818597,0.03293904662132263,0.03081582300364971,-0.07322407513856888,-9.752267942531034e-05,6.078275418985868e-06,0.07661445438861847,0.05746084079146385,-9.327810287475586,0.7418897151947021,47.69584274291992,-0.5173226594924927,-3.4621474742889404,-1.8695597648620605,-0.5285998582839966,0.020820504054427147,-0.05205431208014488,25.5625,26.4375,25.5,28.625,29.9375,30.5625
1.0,0.2434459298148285,0.028645899045191353,-1.0490414014705207,-0.042227388404684034,0.015346401145615616,-0.0987402077323249,-0.5384427252357767,-0.3241248381612786,0.2578766881474873,-3.078708382498801,0.6246586809042044,1.7756994905831745e-05,-0.0014102608328644935,-0.00025336728045159256,-0.027448417691897764,-0.002138292668696309,0.006297596421535349,-0.00032568734604461003,0.3262014389038086,-1.1505468648723145,1.6665666739093226,-2.085273405114645,-1.571345631276266,2.301100254058838,-0.0003275852941442281,0.034240417182445526,0.03078399784862995,-0.0716749057173729,-9.579274046700448e-05,-2.2248457753448747e-05,-0.07661445438861847,0.019153613597154617,-9.27034854888916,0.7284641265869141,47.71554183959961,-0.5874587893486023,-3.4397072792053223,-1.866438388824463,-0.536396324634552,0.01613505557179451,-0.03818802535533905,25.5625,26.4375,25.5,28.625,29.9375,30.5625
1.0,-0.28553139496363555,-0.48633177520095205,-1.1063878656962407,-0.021752019024809718,0.0058586582444850885,-0.08711787427233388,-0.5384391829836592,-0.3241236251108521,0.2578280308171481,-3.0786983865891786,0.624733903119974,3.12421805768161e-05,-0.0011227386740792595,-0.00016379630129274294,-0.028506400387457186,-0.0011190704375637988,0.003296113825474004,-0.0003105853283725535,0.3262014389038086,-1.150498704319336,1.6666396299945276,-2.0854045353331507,-1.571345631276266,2.3011484146118164,-0.00031484238570556045,0.03514526039361954,0.03159770369529724,-0.07022364437580109,-9.412298823008314e-05,-2.379728903179057e-05,0.07661445438861847,-0.05746084079146385,-9.174580574035645,0.7351769208908081,47.70658874511719,-0.5417964458465576,-3.4519424438476562,-1.7874746322631836,-0.5763247013092041,0.01215238869190216,-0.05293721705675125,25.5625,26.4375,25.5,28.625,29.9375,30.5625
1.0,-0.477625023334395,-0.6198117653582018,-1.0774921719502775,-0.021561773567870895,0.00032682175348749953,-0.07821264562869824,-0.5384606674388305,-0.32410885905638875,0.25775350853236556,-3.078707165538465,0.6247742929110818,3.8005906344452654e-05,-0.0010151509509037995,-1.778790581223239e-05,-0.028674014105560492,-0.0008090545899906265,0.002382508914198553,-0.00047925185524002895,0.32616549730300903,-1.1503906709006806,1.6666987578021448,-2.085583826104635,-1.5713337103473108,2.3011364936828613,-0.00048361840890720487,0.03508342429995537,0.031902458518743515,-0.06950179487466812,-9.251052688341588e-05,-2.3605551177752204e-05,0.13407528400421143,-0.05746084079146385,-9.174580574035645,0.7060845494270325,47.69136428833008,-0.4876421093940735,-3.3791627883911133,-1.8495904207229614,-0.5755438208580017,0.007439407519996166,-0.042035430669784546,25.5625,26.4375,25.5,28.625,29.9375,30.5625
1.0,-0.2614130752697989,-0.48900265887910455,-1.0517042464652873,-0.027170330830129198,0.0033295056068867283,-0.09006805876711108,-0.5384695257400539,-0.3241081177032349,0.25771404284223987,-3.078698445713912,0.6247534008372493,0.00011475080424776304,-0.0007653963883096014,9.62991123913241e-05,-0.028482153851326457,-0.0006616552614036638,0.001950741846293296,-0.0005244418566249518,0.32616549730300903,-1.1503310364535828,1.6667349974261683,-2.085715433160299,-1.571369473134176,2.3011245727539062,-0.0005287386011332273,0.03433163836598396,0.03234158083796501,-0.06873290240764618,-9.09523296286352e-05,-2.3307720766752027e-05,0.2106897532939911,-0.07661445438861847,-9.232041358947754,0.6546126008033752,47.704795837402344,-0.5254833698272705,-3.3666858673095703,-1.7672830820083618,-0.5874249339103699,0.009143051691353321,-0.0612308531999588,25.5625,26.4375,25.5,28.625,29.9375,30.5625
1.0,-0.36153247692740936,-0.4044668520969102,-0.8609498364365765,-0.03140653468407645,0.002773722578752363,-0.09175533434938517,-0.5384507915921939,-0.3241262422324831,0.2576514906507278,-3.0786996250786975,0.6247344640298377,7.012160829308927e-05,-0.0006531978126305104,0.00015619157853006448,-0.03011925975763933,0.000496041731049756,-0.0014645099711551243,-0.0005573924130258536,0.32620134949684143,-1.1502703887275239,1.6668193976031702,-2.08583464244985,-1.571357552205221,2.3011484146118164,-0.0005621297750622034,0.03630099818110466,0.033121127635240555,-0.06787567585706711,-8.944579894887283e-05,-2.3010306904325262e-05,0.15322890877723694,-0.07661445438861847,-9.21288776397705,0.7038487195968628,47.694053649902344,-0.5485590696334839,-3.4391703605651855,-1.74373197555542,-0.614858865737915,0.011200225912034512,-0.06383700668811798,25.5625,26.4375,25.5,28.625,29.9375,30.5625
1.0,-0.37381029720966075,-0.27284407569892366,-0.9140386241387123,-0.030901892230007343,-0.003065920566179943,-0.08850330798245011,-0.538451884414777,-0.3241176232520051,0.25760543299950317,-3.0786836079357784,0.6247312235858805,6.291676855878342e-05,-0.0005154086104799745,0.00022108442643197472,-0.03074932653581764,0.0011832169747719506,-0.003489211832943107,-0.0005848934636264132,0.32618942856788635,-1.1502224069884797,1.6668785254107874,-2.0859295330443324,-1.571369473134176,2.3011364936828613,-0.0005899624666199088,0.03691251948475838,0.033423759043216705,-0.06665169447660446,-8.798836643109098e-05,-2.271990706503857e-05,0.15322890877723694,-0.019153613597154617,-9.155426979064941,0.6769921779632568,47.699424743652344,-0.5240770578384399,-3.421952724456787,-1.8416519165039062,-0.6451836824417114,0.019517671316862106,-0.0347352996468544,25.5625,26.4375,25.5,28.625,29.9375,30.5625
1.0,-0.31408815986588295,-0.8904465403403014,-0.9485356325836917,-0.018250390922366796,-0.002301272789361702,-0.08649473336771883,-0.538447944660962,-0.32411744008563514,0.2575024074632251,-3.0786517984570407,0.6247250170738103,-6.226285036265638e-05,-0.0003978560268723678,0.0004890598013762155,-0.030981720129478935,0.0017605897581683687,-0.0051866392188581675,-0.0009360889125903094,0.3261893093585968,-1.1501024526408692,1.6669748465167444,-2.0860606632628382,-1.571357552205221,2.3011364936828613,-0.0009415390086360276,0.036852799355983734,0.033675022423267365,-0.06505030393600464,-8.657760918140411e-05,-2.2436704966821708e-05,0.17238251864910126,-0.038307227194309235,-9.117119789123535,0.6971306204795837,47.704795837402344,-0.4704311490058899,-3.371940851211548,-1.8540431261062622,-0.67900151014328,-0.002565344562754035,-0.044850170612335205,25.5625,26.4375,25.5,28.625,29.9375,30.5625
1.0,0.07265032493027276,-0.5895294092626452,-0.9313331606954196,-0.032924738637647215,0.006978017359717856,-0.08987443462739808,-0.5384578683347201,-0.32409896289852624,0.2574410351414159,-3.0785941154091647,0.6247516301173061,-1.3523068903714034e-05,-0.0004864937101661986,0.00046490604307067085,-0.030833571622095893,0.0014879309464844418,-0.0043583975864616145,-0.000944485082033839,0.3261653482913971,-1.1500303608230134,1.667046372090475,-2.086205144921774,-1.5714176336871546,2.3011364936828613,-0.0009493534453213215,0.03679860383272171,0.03357986733317375,-0.06577286124229431,-9.57554584601894e-05,-2.216046596004162e-05,0.2106897532939911,0.0,-9.097966194152832,0.7441308498382568,47.68240737915039,-0.4556809365749359,-3.372284412384033,-1.7621830701828003,-0.7134909629821777,0.012140830978751183,-0.056403420865535736,25.5625,26.4375,25.5,28.625,29.9375,30.5625
1.0,-0.39808318290906264,-0.5681126435939705,-0.5783262654670633,-0.03890533466762099,-0.0008192060665211023,-0.0850916978703107,-0.5384576175907713,-0.32413751557715276,0.25741705320132124,-3.078708695197992,0.624679224913,2.5010852280699556e-05,-0.000211085306594157,0.0005542261707380855,-0.0317009500909844,0.0022588954613159567,-0.006618050567597574,-0.0009368971413296427,0.3262132704257965,-1.149970368748047,1.667046848927633,-2.0863362751402796,-1.571345631276266,2.3011245727539062,-0.0009420347632840276,0.03743220493197441,0.034469977021217346,-0.06490901112556458,-9.763013804331422e-05,-2.1890995412832126e-05,0.2106897532939911,0.05746084079146385,-9.097966194152832,0.6926589012145996,47.730770111083984,-0.5079120993614197,-3.4017281532287598,-1.7857613563537598,-0.743293285369873,0.010806352831423283,-0.051220670342445374,25.5625,26.4375,25.5,28.625,29.9375,30.5625
1.0,-0.430690886930668,-1.074386110669319,-0.8473793307671574,-0.03651683227157602,0.007057108207523807,-0.08106576370980674,-0.5384456289569326,-0.32411287605435307,0.25733060216207465,-3.078634700681698,0.6246826742044647,-2.0150668340633974e-05,-0.00012624490418825134,0.0005772433048469097,-0.03215090785104663,0.0026694145019113954,-0.007830177347981552,-0.0009279490424387116,0.3261893093585968,-1.1499101978591462,1.6671918074237269,-2.086480279962057,-1.5713933149920862,2.301112174987793,-0.0009331542532891035,0.037906140089035034,0.03470666706562042,-0.06433988362550735,-9.635616152081639e-05,-2.1627947717206553e-05,0.1149216815829277,0.09576806426048279,-9.059659004211426,0.6926589012145996,47.702110290527344,-0.5177912712097168,-3.369394302368164,-1.6949090957641602,-0.8009294867515564,0.017174704000353813,-0.05280635878443718,25.5625,26.4375,25.5,28.625,29.9375,30.5625
1.0,-0.43678813174508996,-0.9703710596226374,-0.6376277992516346,-0.051286118827589454,0.009091696661064533,-0.09398225571838886,-0.5384462352572522,-0.3241143436133495,0.2572734493397025,-3.0786156200972825,0.6247368883242957,-7.910376703521074e-05,-8.892985401052768e-05,0.0005794266019511128,-0.03256456568509735,0.002350660119056154,-0.0069027330594865315,-0.0009129223844305863,0.3261893391609192,-1.1498380464366456,1.6672399679767054,-2.0865642033019007,-1.5713813940631312,2.3011484146118164,-0.0009170801495201886,0.03824197128415108,0.03570221737027168,-0.06665195524692535,-9.491883247392252e-05,-2.137117371603381e-05,0.19153612852096558,0.2298433631658554,-9.040505409240723,0.6747510433197021,47.69853210449219,-0.5285292863845825,-3.384026527404785,-1.7408324480056763,-0.8182806968688965,0.013061275705695152,-0.053590886294841766,25.5625,26.4375,25.5,28.625,29.9375,30.5625
1.0,-0.6392726328540739,-1.4977660939867943,-0.8841828297187638,-0.05884413551058848,0.01816927924297999,-0.0809214690627164,-0.5384510624542898,-0.3241081444310686,0.25719398259714804,-3.078613552745784,0.6247176720357301,-9.559107947410777e-05,0.00012700964197330012,0.0006648791723316852,-0.03348797113977582,0.0020272875531160647,-0.005963870740747806,-0.000932835818707729,0.3261772692203522,-1.1497421127608796,1.6673248449908655,-2.0867330036559046,-1.5713813940631312,2.3011245727539062,-0.000935526448301971,0.03876523673534393,0.037915777415037155,-0.0703817680478096,-9.351091284770519e-05,-2.1120395103935152e-05,0.1149216815829277,0.15322890877723694,-9.059659004211426,0.7284641265869141,47.71017074584961,-0.5434585809707642,-3.3090085983276367,-1.6607780456542969,-0.7985020875930786,0.003197016892954707,-0.05982816964387894,25.5625,26.4375,25.5,28.625,29.9375,30.5625
1.0,-1.0467151381822837,-1.7402419873755124,-0.7947990811852765,-0.06460881484396494,0.01871784707913402,-0.08830659109792287,-0.5384466402693651,-0.3241066292772012,0.2571255593350656,-3.078605255747073,0.6246961686889403,-0.00012952981037100603,0.00023999279550633974,0.000707243381568505,-0.034793134941026434,0.002685643438051022,-0.007910523505566881,-0.0009388989081354853,0.3261772692203522,-1.1496695143035431,1.6674087683307093,-2.0868646107115687,-1.5713813940631312,2.301112174987793,-0.0009415034437552094,0.04023333638906479,0.038932666182518005,-0.07081179320812225,-9.214325109496713e-05,-2.08754663617583e-05,0.1149216815829277,0.17238251864910126,-9.040505409240723,0.7374180555343628,47.671661376953125,-0.6269632577896118,-3.4253857135772705,-1.7665083408355713,-0.8332154750823975,0.022115319967269897,-0.06046968325972557,25.5625,26.4375,25.5,28.625,29.9375,30.5625
1.0,-1.0131084764704958,-1.8741716329592029,-0.8072649350119031,-0.06877367656340533,0.02399557933017558,-0.08332672983899708,-0.5384413855809033,-0.32410483075646873,0.2570568009825587,-3.078581332387123,0.6247303320854583,-0.0001748568395309731,-0.0003713800708839261,0.0005045609776931277,-0.03390857851192621,0.0008997191815267882,-0.002644857013306626,-0.0009483338119008133,0.3261772692203522,-1.1495975714972992,1.6674922148333948,-2.0869866810240687,-1.5713813940631312,2.3011364936828613,-0.0009486869093962014,0.04004351794719696,0.03825327381491661,-0.07550285011529922,-0.00010044928058050573,-2.0636149201891385e-05,0.24899697303771973,0.2298433631658554,-9.002198219299316,0.6926589012145996,47.74061965942383,-0.5510202646255493,-3.360605001449585,-1.6619493961334229,-0.8179162740707397,0.017950143665075302,-0.05955349653959274,25.5625,26.4375,25.5,28.625,29.9375,30.5625
1.0,-1.1067789178365683,-1.6676457554742827,-0.817692631539714,-0.07105532364091831,0.02433786511855271,-0.08123714075150935,-0.5384547291294652,-0.3241003231976881,0.2570084898614875,-3.0785919877400967,0.6247518043186556,-9.876749267019271e-05,-0.0005490282079481702,0.000612091416536756,-0.034493283477100234,-4.2052214979396115e-06,5.8901729266723114e-06,-0.0012088748867027043,0.32616525888442993,-1.1495256882957001,1.6675398985492151,-2.0871554813780726,-1.5713933149920862,2.3011364936828613,-0.0012072041863575578,0.040694426745176315,0.03980796039104462,-0.08050907403230667,-0.00010209572064923123,-2.0402256268425845e-05,0.13407529890537262,0.2298433631658554,-9.078812599182129,0.6948947906494141,47.70927429199219,-0.476271390914917,-3.4080333709716797,-1.6857061386108398,-0.7818304300308228,0.0030051306821405888,-0.0621773935854435,25.5625,26.4375,25.5,28.625,29.9375,30.5625
1.0,-0.7099142470610174,-1.6163122571957294,-0.8754248367030943,-0.07228985117491987,0.030815317905118992,-0.08604615796343966,-0.5384525341293259,-0.3240995637577019,0.25692358354526185,-3.0785917760227575,0.6246937472309978,-0.0001311418000313061,-0.0011978622698493222,0.0003305558071816204,-0.03450923128134505,-0.0024170289579112615,0.007067841214195302,-0.0011197458145778328,0.3261772096157074,-1.1493574243834992,1.6676839033709925,-2.087505956689352,-1.5714057127581995,2.301112174987793,-0.0011140373535454273,0.04155633971095085,0.04074334725737572,-0.0897691398859024,-9.948536899173632e-05,-1.9949995476054028e-05,0.24899697303771973,0.28730422258377075,-9.155426979064941,0.7351769208908081,47.70121383666992,-0.5368801951408386,-3.4368443489074707,-1.708249568939209,-0.7161444425582886,0.009362493641674519,-0.05010414123535156,25.5625,26.4375,25.5,28.625,29.9375,30.5625
1.0,-0.7192780550727468,-1.8369171992541768,-0.9123769355171699,-0.06553218392659359,0.034407596609184014,-0.0879041391484748,-0.5384467914792908,-0.32411064103883325,0.2567807022195187,-3.0785780339852313,0.6246914877571791,-9.417473962225953e-05,-0.0019132898510629919,1.129704930832649e-05,-0.03649186121701657,-0.002879201884781052,0.008389984483344779,-0.0010218806094186058,0.3261893093585968,-1.1492601198009034,1.6678045431720179,-2.087675233880514,-1.5714176336871546,2.3011245727539062,-0.0009971116669476032,0.04540594667196274,0.041166555136442184,-0.09544249624013901,-9.813027281779796e-05,-2.5697149794723373e-06,0.19153612852096558,0.26815059781074524,-9.251195907592773,0.6702793836593628,47.70927429199219,-0.5469917058944702,-3.580754280090332,-1.682981252670288,-0.643195629119873,0.029976438730955124,-0.061158232390880585,25.5625,26.4375,25.5,28.625,29.9375,30.5625
1.0,-1.436228302431579,-1.6890944739935947,-0.9923580998424557,-0.06835589915113603,0.0203721462433268,-0.08509800907139571,-0.538449002486871,-0.3241189526773088,0.2567055400921524,-3.078647681843864,0.6247249571364629,-0.00011772415306300056,-0.002108627859386287,-0.00011679049043508343,-0.03581548553061492,-0.003699691500518944,0.010796373204680769,-0.0009304831565120283,0.3261893391609192,-1.1491644245437165,1.6678879896747034,-2.087879320184225,-1.571345631276266,2.3011364936828613,-0.0009025197941809893,0.044895756989717484,0.04069904610514641,-0.09700722247362137,-9.681094525149092e-05,-1.677840373304207e-07,0.15322890877723694,0.19153612852096558,-9.21288776397705,0.6702793836593628,47.733455657958984,-0.6022486090660095,-3.5563294887542725,-1.6529653072357178,-0.6078311204910278,0.02106429822742939,-0.04927961528301239,25.5625,26.4375,25.5,28.625,29.9375,30.5625
1.0,-0.5321344216757433,-1.1411119948334019,-0.8216765013526652,-0.07484515210661995,0.032457185207619546,-0.09321422565264406,-0.5384540034680201,-0.32411939489718977,0.2566389679142882,-3.078666395442894,0.6247097324147599,-4.012347219596271e-05,-0.0026019907441316944,-0.0002861120494411079,-0.03448074584539707,-0.0059604867581379084,0.017431384225785187,-0.0009315239591746818,0.3261893391609192,-1.1490807992270966,1.6679719130145472,-2.088097234765524,-1.571357552205221,2.3011245727539062,-0.0009008455090224743,0.04380428045988083,0.04048372060060501,-0.10271003097295761,-9.552652045385912e-05,-1.0955098161957721e-08,0.038307227194309235,0.2298433631658554,-9.21288776397705,0.7127973437309265,47.71375274658203,-0.5242516994476318,-3.4931464195251465,-1.5703444480895996,-0.5420235395431519,0.018429378047585487,-0.05602489039301872,25.5625,26.4375,25.5,28.625,29.9375,30.5625
1.0,-1.330433191560664,-1.524074379070455,-0.9850183287755754,-0.061561123098902014,0.015500144050331476,-0.08044769039195582,-0.5384642755312239,-0.324115086325583,0.25654974888349885,-3.0786461666719944,0.624744045743924,-7.600966701588253e-05,-0.0021787481799586004,-0.00022435370197302165,-0.03675041335416843,-0.0041043689496944105,0.011965932554382788,-0.0008030329422407517,0.32617732882499695,-1.1489600998214264,1.6680439154254358,-2.0882636509337367,-1.571357552205221,2.3011364936828613,-0.0007736716652289033,0.0461544394493103,0.04191292077302933,-0.10071735829114914,-9.427571785636246e-05,-7.152896053241875e-10,0.0,0.17238251864910126,-9.232041358947754,0.6769921779632568,47.737037658691406,-0.5827369689941406,-3.534456253051758,-1.6414552927017212,-0.5059645175933838,0.01735314354300499,-0.053326964378356934,25.5625,26.4375,25.5,28.625,29.9375,30.5625
1.0,-0.708392575463372,-1.0074248438338484,-0.928390267072649,-0.06512044792996213,0.021839526902009628,-0.09277730724002346,-0.5384729442925745,-0.32410904496320375,0.256499736589627,-3.078686795475388,0.6247325298525928,6.149174998188413e-05,-0.0019448133884040848,-0.00013571214704430465,-0.03693408101058003,-0.0035163556198790427,0.010238780582304742,-0.0008163616435961845,0.32616540789604187,-1.14890010774646,1.6681278387652796,-2.0885020695128382,-1.571369473134176,2.301112174987793,-0.0007876988383941352,0.0460236631333828,0.042120203375816345,-0.09896936267614365,-9.305717685492709e-05,-4.6703300948802706e-11,0.09576806426048279,0.17238251864910126,-9.21288776397705,0.6971306204795837,47.71375274658203,-0.565969705581665,-3.597989559173584,-1.6004502773284912,-0.5257084369659424,0.02236628159880638,-0.045659229159355164,25.5625,26.4375,25.5,28.625,29.9375,30.5625
1.0,-0.629682310335017,-0.6686373168792019,-0.895504211904453,-0.05545672907511386,0.014572892539458916,-0.09165562567439042,-0.5384816060482179,-0.3241119804605719,0.25641281741862737,-3.0786934065677793,0.6246957414463967,5.829920991011421e-05,-0.001830624954544815,-9.588633560667843e-05,-0.039169075364546974,-0.0014467918734239848,0.004134056050574202,-0.0008162109647051603,0.32616540789604187,-1.1487791997245331,1.6681998411761683,-2.0886928043761195,-1.571369473134176,2.301088333129883,-0.0007893630536273122,0.04897318780422211,0.04234513267874718,-0.09569783508777618,-8.909132884582505e-05,-3.0493919021823412e-12,0.09576806426048279,0.09576806426048279,-9.174580574035645,0.7060845494270325,47.71375274658203,-0.541404128074646,-3.7463924884796143,-1.6274501085281372,-0.5496305227279663,0.015156202018260956,-0.06001300737261772,25.5625,26.4375,25.5,28.625,29.9375,30.5625
1.0,-0.1614734673804812,-0.5180306873246747,-1.1420490013866305,-0.0389611989001171,0.011435410145046279,-0.09277290913350392,-0.5384711308050449,-0.3241121723734757,0.25632652950624896,-3.078696123691855,0.6247735919401469,-4.94972942120807e-06,-0.001306282218815825,4.217689903142952e-05,-0.038431856262306,-0.0008884124143900546,0.002503266975052606,-0.0007533330154987456,0.32616543769836426,-1.148695932035782,1.6683200041400355,-2.0888706646361292,-1.5713337103473108,2.3011364936828613,-0.0007276201504282653,0.04718184843659401,0.042387235909700394,-0.09222487360239029,-8.704700303496793e-05,-1.991034832664329e-13,0.019153613597154617,0.07661445438861847,-9.174580574035645,0.6702793836593628,47.72808074951172,-0.5851337909698486,-3.6057772636413574,-1.5992083549499512,-0.5704902410507202,0.010919620282948017,-0.05382759869098663,25.5625,26.4375,25.5,28.625,29.9375,30.5625
1.0,-0.19302943556346644,-0.0893304815062661,-0.8208500716588407,-0.03359513558594302,0.0035942911477118925,-0.09817187490653163,-0.5384869080191795,-0.3241034882711326,0.2562505421489859,-3.0786636592292456,0.624767109963678,9.079419207701423e-05,-0.0010661807108302591,6.354339938755262e-05,-0.03846027014402514,-0.00016207661205211004,0.00036935988159749286,-0.0006595274476173329,0.326153427362442,-1.1485882562449952,1.6683910528766077,-2.0890852413573207,-1.5713933149920862,2.3011245727539062,-0.0006348529132083058,0.04697040840983391,0.04213351011276245,-0.08950557559728622,-8.537459507351741e-05,-1.300003382259619e-14,0.1149216815829277,-0.019153613597154617,-9.155426979064941,0.6613254547119141,47.71375274658203,-0.6064630150794983,-3.502176284790039,-1.5084148645401,-0.6108681559562683,0.0035430078860372305,-0.04891010746359825,25.5625,26.4375,25.5,28.625,29.9375,30.5625
1.0,0.3043807675786128,0.265109676315653,-0.9316097618960862,-0.03129788997276863,0.004477937563342863,-0.09957621675775882,-0.5384784590476901,-0.3241211280875203,0.25617057198561677,-3.0787047306919453,0.6247372725510554,3.381661454745787e-05,-0.0010028126306176014,0.00010535649151714507,-0.04023028692575531,0.0013701352575937744,-0.004147257776010054,-0.0006893950688641646,0.32617735862731934,-1.1484913390925904,1.6684754530536097,-2.08925261119985,-1.571345631276266,2.3011245727539062,-0.0006659990758635104,0.04931848496198654,0.042392924427986145,-0.08734363317489624,-8.378366328543052e-05,-8.488093341633702e-16,0.1149216815829277,0.05746084079146385,-9.155426979064941,0.7553206086158752,47.734352111816406,-0.6394416093826294,-3.6618685722351074,-1.5189282894134521,-0.6460812091827393,0.002505340613424778,-0.06259161978960037,25.5625,26.4375,25.5,28.625,29.9375,30.5625
1.0,0.09325860459373472,-0.008264550490192993,-1.0438945189241253,-0.02183347378771906,0.003434089700118461,-0.09434960919002951,-0.5385108816497804,-0.32410637233312556,0.25610165665291484,-3.0787010336089757,0.6247742073797181,0.00011714224127516773,-0.0009217270211018356,0.00014959602549406006,-0.04092930821058624,0.002252326459965886,-0.006746795835056841,-0.000714180644879884,0.32614147663116455,-1.1483711463264008,1.6685102621661585,-2.0894552669920863,-1.571369473134176,2.301112174987793,-0.0006916967104189098,0.05019666254520416,0.04231692850589752,-0.08540066331624985,-8.225219789892435e-05,-5.542118045039166e-17,0.09576806426048279,-0.07661445438861847,-9.251194953918457,0.7239871025085449,47.71554183959961,-0.6138908267021179,-3.681060791015625,-1.5029754638671875,-0.6807878017425537,0.006233855150640011,-0.06314218789339066,25.5625,26.4375,25.5,28.625,29.9375,30.5625
1.0,-0.0931326390791581,-0.32998669100727235,-1.0514370377931472,-0.022913644302207666,0.0050001488810381915,-0.0830661320000242,-0.5384847948353805,-0.3241079717572868,0.25597481186395554,-3.0785784838352477,0.6247688914297269,-5.958319051486849e-05,-0.0006187462147255048,0.000265866998554628,-0.040746911565052904,0.002694350683593411,-0.008041893887969224,-0.0007341204625159053,0.32616543769836426,-1.1482514303973694,1.6686556974994105,-2.089562078515524,-1.5714176336871546,2.3011484146118164,-0.0007123262621462345,0.049452781677246094,0.04251205176115036,-0.08348345756530762,-8.077568782027811e-05,-3.618607468731626e-18,0.09576806426048279,-0.13407529890537262,-9.232041358947754,0.7060845494270325,47.70748519897461,-0.67657071352005,-3.6707425117492676,-1.4286603927612305,-0.7259456515312195,0.012473896145820618,-0.06000947952270508,25.5625,26.4375,25.5,28.625,29.9375,30.5625
1.0,-0.44889196093679695,-0.12537539104278347,-0.9894733111372991,-0.027476498662933932,0.0024936661117980884,-0.0917925889291412,-0.5384814504622323,-0.32411956945495735,0.2559052683099306,-3.0786458046502743,0.624705674554961,-6.664500082041537e-05,-0.00045675262707753665,0.00041917530072736465,-0.04158423582147188,0.0036528337479015756,-0.010863397883050258,-0.0008846145208757744,0.32617729902267456,-1.1481672686389466,1.6687396208392542,-2.0897532902159632,-1.571369473134176,2.301112174987793,-0.0008637173450551927,0.05025207996368408,0.04289587587118149,-0.08168672025203705,-7.935133908176795e-05,-2.3626917517656397e-19,0.15322890877723694,-0.09576806426048279,-9.193734169006348,0.7060845494270325,47.7244987487793,-0.6091939210891724,-3.707977533340454,-1.4308674335479736,-0.7913256883621216,0.014228947460651398,-0.058371879160404205,25.5625,26.4375,25.5,28.625,29.9375,30.5625
1.0,-0.3656794604146868,-0.24620452699311912,-1.0388722928820702,-0.022682065547182963,0.002711154683840502,-0.08879399730891274,-0.5384987786145092,-0.32412947269474257,0.25586375647417925,-3.078651670761571,0.6247647900995282,9.261122647261934e-05,-0.00016432561773170606,0.0005295531254872114,-0.042239247840194775,0.0039826832423008425,-0.011836925573795433,-0.0009014281262809802,0.3261893391609192,-1.1480833452991028,1.6687629858600062,-2.089956899682516,-1.5714057127581995,2.3011603355407715,-0.000880490115378052,0.050474561750888824,0.04418424144387245,-0.08216968178749084,-7.797633588779718e-05,-1.5426689010740953e-20,0.13407528400421143,-0.17238251864910126,-9.193734169006348,0.7642692923545837,47.731666564941406,-0.6154686808586121,-3.699495792388916,-1.509714961051941,-0.8153326511383057,0.0029718726873397827,-0.0626707524061203,25.5625,26.4375,25.5,28.625,29.9375,30.5625
1.0,-0.17432740221431847,-0.39114718272577986,-1.0304389132058742,-0.02799730737887414,0.01695323155145924,-0.09298613066056514,-0.5384864712680185,-0.3240967275326578,0.25576153544360203,-3.0785980047888595,0.6248307719693719,-8.982714770413949e-05,-0.00026548787004276615,0.0004968989534513143,-0.04223491501699033,0.003531029190567646,-0.010518949598043304,-0.0009051048051283775,0.3261414170265198,-1.1480113428882142,1.6689193884478968,-2.090065141717428,-1.5713813940631312,2.3011603355407715,-0.0008834893815219402,0.05058615654706955,0.044419657438993454,-0.08390990644693375,-7.664809527341276e-05,-1.0072526418321542e-21,0.13407529890537262,-0.13407529890537262,-9.308656692504883,0.7329410910606384,47.72987747192383,-0.6083327531814575,-3.662024974822998,-1.4529523849487305,-0.85249924659729,-0.006995314732193947,-0.05411877855658531,25.5625,26.4375,25.5,28.625,29.9375,30.5625
1.0,-0.8642179505935299,-0.7283566020608998,-0.9905971930587262,-0.03116092122719799,0.011543522781793037,-0.08596693714620263,-0.5384852012975189,-0.3241000316708469,0.2556627215511789,-3.078612886371121,0.6247957291833772,-0.00018164587569327131,-0.000528378453073424,0.0004086606197127728,-0.04229932016939913,0.00257579828214204,-0.007724097191435561,-0.0009086668245110131,0.3261414170265198,-1.147891328935959,1.6690147558795374,-2.090233942071432,-1.571345631276266,2.3011364936828613,-0.0008855793857946992,0.05099282041192055,0.04486444219946861,-0.08771494030952454,-7.536438351962715e-05,-6.576639965696397e-23,0.17238251864910126,-0.1149216815829277,-9.232041358947754,0.6658024191856384,47.70927429199219,-0.6881484389305115,-3.7168498039245605,-1.4735827445983887,-0.850568413734436,0.010625660419464111,-0.06638091802597046,25.5625,26.4375,25.5,28.625,29.9375,30.5625
1.0,-0.8196743473483112,-1.0422982072471703,-1.173166611826531,-0.039908365937948984,0.028912105438856098,-0.08566942307156186,-0.5384952191242001,-0.3241086844833164,0.2555933961782999,-3.0786128734521347,0.6247574943819816,-0.00012872897866765063,-0.000972681331973173,0.0003066951467931754,-0.04183976318037084,0.0001840130053713502,-0.0007143760104625987,-0.0009884150095357189,0.3261413872241974,-1.1476635795882721,1.6691468397723597,-2.0905963383116664,-1.571357552205221,2.301112174987793,-0.000961929268669337,0.05075106397271156,0.04605589807033539,-0.09607118368148804,-7.292184454854578e-05,-2.8037248093915686e-25,0.019153613597154617,0.05746084079146385,-9.327810287475586,0.7239871025085449,47.742408752441406,-0.6305482983589172,-3.620513916015625,-1.5208425521850586,-0.8027157783508301,0.018587831407785416,-0.054834045469760895,25.5625,26.4375,25.5,28.625,29.9375,30.5625
1.0,-1.4198868162394067,-1.5724338839403997,-1.3384246611111734,-0.0665859384142655,0.045300270655155184,-0.0868876297715134,-0.5384758882966778,-0.32409305555069207,0.2554031472800577,-3.07856391593853,0.6247469989605764,-0.0002276723302155694,-0.0012623929951792404,0.0002103121630849148,-0.04182652860336302,-0.0020399904506075237,0.005804712005570363,-0.0009954910794267155,0.3261413872241974,-1.1476037067225953,1.6693270842181605,-2.0907794437804164,-1.5713813940631312,2.301112174987793,-0.0009655469912104309,0.05078662559390068,0.047991905361413956,-0.10493076592683792,-7.175895007094368e-05,-1.8306318492510444e-26,0.05746084079146385,0.1149216815829277,-9.385271072387695,0.7642692923545837,47.69136428833008,-0.6572818756103516,-3.575124502182007,-1.4886493682861328,-0.7158905267715454,-0.0016431553522124887,-0.052674077451229095,25.5625,26.4375,25.5,28.625,29.9375,30.5625
1.0,-1.0073573292502265,-1.2246053731490483,-1.1659631571619853,-0.08918134678918047,0.06829593707075592,-0.10096491480666671,-0.5384896683675365,-0.32410421769383174,0.2553208747580267,-3.078557950968325,0.6247848291958922,-0.0001870489642145241,-0.0014104158523440564,0.00015955548694965407,-0.042130636121748735,-0.002837342466589887,0.008135838411938694,-0.0009964534082575367,0.32615330815315247,-1.1474714142135163,1.6693757216082972,-2.0909835300841273,-1.5713933149920862,2.3011484146118164,-0.0009650711435824633,0.051269106566905975,0.04888128489255905,-0.1087663471698761,-7.063263183226809e-05,-1.195271797643573e-27,0.019153613597154617,0.2298433631658554,-9.442731857299805,0.7239871025085449,47.70748519897461,-0.6250467300415039,-3.5500857830047607,-1.5760189294815063,-0.7031395435333252,-0.0017109641339629889,-0.0507359579205513,25.5625,26.4375,25.5,28.625,29.9375,30.5625
1.0,-0.9657963763053262,-1.676013799397582,-1.168754257081575,-0.09066242175663883,0.07457681384097004,-0.09069274302792284,-0.5384936572776058,-0.3241104888042055,0.25525523732621436,-3.0786398513251947,0.6247438036112698,-0.0001423662848818825,-0.0020889535555917295,0.00014433886000398509,-0.04200828191290084,-0.004143615346314865,0.011996114057838202,-0.0013289595908032267,0.3261531889438629,-1.1473874610713501,1.669459644948141,-2.091212411920065,-1.571345631276266,2.301112174987793,-0.0012957850703969598,0.05202477052807808,0.048577677458524704,-0.11329367756843567,-8.163177699316293e-05,-7.804270774386078e-29,-0.038307227194309235,0.2298433631658554,-9.366117477416992,0.7866488099098206,47.70748519897461,-0.6152236461639404,-3.587721586227417,-1.58491849899292,-0.6397300958633423,0.006368101574480534,-0.0634022057056427,25.5625,26.4375,25.5,28.625,29.9375,30.5625
1.0,-1.3014282710151108,-1.6650169966898947,-1.2474971438153564,-0.08678790282278381,0.055862589664390117,-0.09151067227905556,-0.5384893299586874,-0.3241012860508991,0.25514922558925857,-3.078634156957461,0.6247427057157232,-0.00015884149352572534,-0.0019771566601608412,0.0001444342157234825,-0.0427280082476269,-0.00461192515669853,0.013366773974165101,-0.0012715029753521028,0.3261412978172302,-1.1472791594317933,1.6696041266070765,-2.0914532146849574,-1.571345631276266,2.301100254058838,-0.0012370457407087088,0.052570853382349014,0.050301674753427505,-0.11701221019029617,-8.20606728666462e-05,-5.095631465390825e-30,-0.05746084079146385,0.24899697303771973,-9.404424667358398,0.7127973437309265,47.7244987487793,-0.6060440540313721,-3.626366138458252,-1.589022159576416,-0.5888019800186157,0.0020916417706757784,-0.04436838626861572,25.5625,26.4375,25.5,28.625,29.9375,30.5625
1.0,-1.0773767579169378,-1.732873252073913,-1.407225797190332,-0.07593064041406851,0.050380121424015656,-0.08792446285836358,-0.5384940860389883,-0.3241068592052344,0.2550789683327283,-3.07862547427226,0.6247218988626403,-8.224906925056262e-05,-0.001676151065891149,0.00034668263287568937,-0.043593298036770936,-0.0041879065000307615,0.01211536540296221,-0.0014254081960697919,0.3261531889438629,-1.1471832257560273,1.6696761290179651,-2.09165682415151,-1.5713813940631312,2.301100254058838,-0.0013909006956964731,0.05296166241168976,0.05187308415770531,-0.11765313893556595,-8.093969518085942e-05,-3.3270830053413972e-31,0.0,0.2298433631658554,-9.442731857299805,0.7463666796684265,47.774654388427734,-0.6160835027694702,-3.602504253387451,-1.648674726486206,-0.5609087347984314,-0.0022241338156163692,-0.06656919419765472,25.5625,26.4375,25.5,28.625,29.9375,30.5625
1.0,-0.9730866265872068,-1.749638393445362,-1.344592926632034,-0.0650303178159122,0.036270560335023835,-0.08939757423433033,-0.5384978264809412,-0.3240990931353154,0.25496620049350927,-3.0785999228934613,0.624794083520792,-7.490368802920589e-05,-0.0017390869690969842,0.0004050726640673894,-0.043624809855602485,-0.0036204556382759953,0.010481879943539682,-0.0015458513213848796,0.32614120841026306,-1.1470512014678498,1.6698077360736292,-2.091919084588522,-1.5713933149920862,2.3011364936828613,-0.0015122316544875503,0.053222883492708206,0.051071181893348694,-0.11538323014974594,-9.130719990935177e-05,-2.1723475027189673e-32,0.038307227194309235,0.26815059781074524,-9.461885452270508,0.7060845494270325,47.73524856567383,-0.5890035033226013,-3.5689830780029297,-1.6543781757354736,-0.5393717885017395,0.0014595891116186976,-0.04560359567403793,25.5625,26.4375,25.5,28.625,29.9375,30.5625
1.0,-0.7972988774377296,-1.0124611912764807,-1.2850130356272071,-0.06076742235588985,0.013133730288088386,-0.08787050460587911,-0.5385078047433426,-0.3240881782127875,0.25486026821774443,-3.078596070722056,0.6248318298310246,-0.00010302924256626031,-0.0012327032621793255,0.0005300013538280699,-0.04412673186087026,-0.002601980757294156,0.007496538332844901,-0.0014715272592065543,0.32611724734306335,-1.146919385795929,1.6699159781085413,-2.0921455822386683,-1.5713813940631312,2.3011364936828613,-0.0014389968710020185,0.05306475609540939,0.05186895653605461,-0.11286858469247818,-9.157645399682224e-05,-1.4183876668876584e-33,0.0,0.2298433631658554,-9.404424667358398,0.7239871025085449,47.743309020996094,-0.6890007257461548,-3.5671234130859375,-1.5992991924285889,-0.5834699273109436,-0.013154452666640282,-0.06217407435178757,25.5625,26.4375,25.5,28.625,29.9375,30.5625
1.0,-0.2722028429628376,-0.7052105590904174,-1.2886377313926662,-0.042046026623138034,0.0030658687143283476,-0.08349805108589078,-0.5385122332855585,-0.3240883696609477,0.25481024405206176,-3.0786361968206544,0.6248211228766327,3.3586446313913466e-05,-0.0005626793786940301,0.0009096413231054663,-0.044716238713282896,-0.0012223287240669537,0.0034488019975910888,-0.0017038168423477943,0.3261171579360962,-1.1468596917441864,1.6700003782855433,-2.0923835239806117,-1.5713933149920862,2.3011245727539062,-0.0016727893380448222,0.052528683096170425,0.05316644534468651,-0.10935360193252563,-9.036701521836221e-05,-9.261058774556466e-35,0.038307227194309235,0.19153612852096558,-9.308655738830566,0.7105615139007568,47.71733474731445,-0.6006873846054077,-3.4907145500183105,-1.6327176094055176,-0.6004409790039062,-0.00010277517139911652,-0.06196196377277374,25.5625,26.4375,25.5,28.625,29.9375,30.5625
1.0,-0.27396851429869185,-0.5737997250715325,-1.132771387707239,-0.02655831385990486,-0.01112247585331983,-0.08250411952843674,-0.5385117627791397,-0.3240996747248444,0.2546699852883201,-3.0786321043508065,0.6248395692157942,-8.008656910142003e-05,-1.449565604588556e-05,0.0011237259071226278,-0.047546121096732695,0.0009881082625815662,-0.00303179252613067,-0.0017428927816959853,0.32612907886505127,-1.1466788214496155,1.6701210180865687,-2.0926224193968714,-1.571357552205221,2.3011484146118164,-0.0017133424989879131,0.05527337267994881,0.05533970519900322,-0.10742433369159698,-9.854837117018178e-05,-6.046809234378636e-36,0.24899697303771973,0.09576806426048279,-9.366117477416992,0.7374180555343628,47.71375274658203,-0.588817834854126,-3.563088893890381,-1.754441261291504,-0.6449639797210693,0.0152415931224823,-0.05291341617703438,25.5625,26.4375,25.5,28.625,29.9375,30.5625
1.0,-0.19016788069291451,-0.2024670970465552,-0.8917258370818113,-0.021712388769219788,-0.018602081443077248,-0.08217334805805043,-0.5385335285648752,-0.3240799869010956,0.25463104011790594,-3.0786307949855822,0.6248778680408459,4.78198405133769e-05,-0.0004362591456714538,0.00113147093764834,-0.04530462795418769,2.061990101383357e-05,-0.00017137820533192667,-0.0019762049448030857,0.3260931074619293,-1.1466197234443207,1.6701677481280726,-2.092801710168356,-1.5713933149920862,2.3011364936828613,-0.0019466821104288101,0.053124744445085526,0.052883319556713104,-0.10583891719579697,-0.0001001907221507281,-3.948134433005463e-37,0.363918662071228,-0.05746084079146385,-9.28950309753418,0.6881819367408752,47.744205474853516,-0.5849186778068542,-3.4910712242126465,-1.6417629718780518,-0.663029670715332,0.003316908609122038,-0.057780638337135315,25.5625,26.4375,25.5,28.625,29.9375,30.5625
