Tylouw/Master_Thesis_Code/trial4/insertion_5_2026-01-23_13-50-44.csv
num_insertion,tcp_force_x[N],tcp_force_y[N],tcp_force_z[N],tcp_force_rx[Nm?],tcp_force_ry[Nm?],tcp_force_rz[Nm?],tcp_pose_x[m],tcp_pose_y[m],tcp_pose_z[m],tcp_pose_rx[rot_vec_x],tcp_pose_ry[rot_vec_y],tcp_pose_rz[rot_vec_z],tcp_velo_x[m/s],tcp_velo_y[m/s],tcp_velo_z[m/s],tcp_velo_rx[rot_vec_x/s],tcp_velo_ry[rot_vec_y/s],tcp_velo_rz[rot_vec_z/s],q1[rad],q2[rad],q3[rad],q4[rad],q5[rad],q6[rad],qd1[rad/s],qd2[rad/s],qd3[rad/s],qd4[rad/s],qd5[rad/s],qd6[rad/s],tool_acc_x,tool_acc_y,tool_acc_z,current_of_whole_robot[A],voltage_of_whole_robot[V],current_J1[A],current_J2[A],current_J3[A],current_J4[A],current_J5[A],current_J6[A],temp_J1[C],temp_J2[C],temp_J3[C],temp_J4[C],temp_J5[C],temp_J6[C]
1.0,0.3748396485302262,0.26166039986211614,-0.9032221320536736,-0.007424471023199361,-0.03532873966842817,-0.07354267172368056,-0.5389821597516204,-0.32478316723659073,0.2600219466600996,-3.0786699991946294,0.6249381325079291,0.00011169052037131011,0.0026579305649905094,-0.001566080563271299,-0.0006285677494361274,6.403132243647662e-05,0.00031438697968703093,0.0040138038950905544,0.3269336521625519,-1.151350812321045,1.6615169684039515,-2.079480310479635,-1.571357552205221,2.302013397216797,0.0038313118275254965,-0.00239001726731658,0.005514455493539572,-0.0034010440576821566,-0.00015738543879706413,-0.0001834480499383062,0.5937620401382446,-0.28730422258377075,-9.097966194152832,0.7553206086158752,47.68598937988281,-0.22284552454948425,-4.306205749511719,-2.7927143573760986,-0.348125696182251,0.010922763496637344,-0.33977559208869934,25.5625,26.375,25.5,28.5625,29.875,30.4375
1.0,-0.08798108288233683,-0.20297943916926686,-1.517690394439644,0.027709424107194583,-0.056995637143677585,-0.06972307583997933,-0.5389765154716821,-0.32478440924933893,0.2600049667571778,-3.078683298943307,0.6249423399139917,3.761130052987853e-05,0.0007798839778729718,-0.0005547619309819755,0.0005279028085747734,-0.0005786273922468442,0.002163975053706159,0.001384977626496571,0.32693275809288025,-1.1513386231711884,1.6615384260760706,-2.079480310479635,-1.5713217894183558,2.302013397216797,0.0012871563667431474,-0.0016083475202322006,0.0015291831223294139,-0.002155466005206108,-0.00014871593157295138,-9.856643009698018e-05,0.2106897532939911,-0.05746084079146385,-9.21288776397705,0.7956027388572693,47.71464920043945,-0.12663166224956512,-4.360628604888916,-2.4306774139404297,-0.3399559259414673,0.011232638731598854,-0.3488898277282715,25.5625,26.375,25.5,28.5625,29.875,30.4375
1.0,-0.7973007160790122,-0.9174686946233994,-1.445720022816425,-0.031615481808287216,-0.0014816963023342612,-0.0764625294543213,-0.5389744564175164,-0.3247733060201394,0.2600128939397626,-3.0786625533198655,0.6249384498081025,5.528142938431478e-05,0.000639970324369594,-0.00037902823898968357,0.00033217258771594827,-0.0002842613677750946,0.0012878188590047688,0.0010308905617656058,0.32692059874534607,-1.1513624352267762,1.6615508238421839,-2.079467912713522,-1.571345631276266,2.302001476287842,0.0009426431497558951,-0.0012381996493786573,0.0012747385771945119,-0.0013469047844409943,-0.00014472972543444484,-8.863894618116319e-05,-0.05746084079146385,0.09576806426048279,-9.232041358947754,0.8045620322227478,47.70390319824219,-0.14793851971626282,-3.939459800720215,-2.2364890575408936,-0.3799227774143219,0.002277056686580181,-0.35457736253738403,25.5625,26.375,25.5,28.5625,29.875,30.4375
1.0,-2.702846024228711,-2.423545575445888,-1.5392464479377996,-0.08355429354084828,0.06081226265437037,-0.0658086822369149,-0.5389639690747172,-0.3247826828149388,0.2600297251722637,-3.0786318631014495,0.6248939971280175,2.5170282488134743e-05,0.000572480327744887,-9.792374663926015e-05,-7.695562935329475e-05,7.351690017834031e-05,0.00022626334625234452,0.0005546470968948269,0.32694438099861145,-1.1513862770846863,1.6615269819842737,-2.079383989373678,-1.571369473134176,2.302001476287842,0.0004740971198771149,-0.0008498217212036252,0.0015593114076182246,-0.0008996413671411574,-0.00014095201913733035,-8.067044836934656e-05,-0.26815056800842285,0.24899697303771973,-9.461885452270508,0.7866488099098206,47.71375274658203,-0.10876660794019699,-3.9528303146362305,-2.1769278049468994,-0.4374368488788605,0.0066003273241221905,-0.3613184988498688,25.5625,26.375,25.5,28.5625,29.875,30.4375
1.0,-3.674183529946079,-3.3637202190795064,-1.1679210522981434,-0.1262103278114584,0.1166168817132852,-0.07136431565860187,-0.5389479322064229,-0.32477450090778565,0.25999892203378294,-3.078639381916745,0.6249337538029373,-8.212699004592897e-05,0.0023229070800511106,0.0004134155293980067,-0.0031180970420666776,0.002298168603876085,-0.006299794088535735,0.0007354346693073572,0.32693251967430115,-1.1513861280730744,1.6616018454181116,-2.0794078312315882,-1.5713217894183558,2.302013397216797,0.0006064309854991734,-0.00044079081271775067,0.007821783423423767,-0.0006763364654034376,-0.0001373660343233496,-0.00012832519132643938,-0.28730422258377075,0.24899697303771973,-9.461885452270508,0.7844129800796509,47.70658874511719,-0.13919086754322052,-3.8845372200012207,-2.4476418495178223,-0.4658971130847931,0.014112710021436214,-0.36869877576828003,25.5625,26.375,25.5,28.5625,29.875,30.4375
1.0,-3.767496774079143,-3.2458330332995216,-1.1153590037812247,-0.11758748529472729,0.11800736451838688,-0.06413811434018814,-0.5389458872187004,-0.32478188843502065,0.2599955608438983,-3.0785805612951416,0.6248831766783229,-4.149733990795736e-05,0.0024471824068422296,0.00039396091627757286,-0.0041510113782678975,0.0029571665435119904,-0.008246849648115388,0.0008881595749178253,0.32695651054382324,-1.1513736707023163,1.6615894476519983,-2.079395910302633,-1.5713933149920862,2.302013397216797,0.0007014060392975807,0.0007321835146285594,0.008475854992866516,-0.0004478551272768527,-0.00013395828136708587,-0.00018573271518107504,-0.2106897532939911,0.17238251864910126,-9.481039047241211,0.8157517910003662,47.70121383666992,-0.1713600605726242,-3.9244132041931152,-2.5439651012420654,-0.5156885981559753,-0.003377601969987154,-0.36927247047424316,25.5625,26.375,25.5,28.5625,29.875,30.4375
1.0,-2.2085832523944613,-1.551472846384176,-1.0024898290130229,-0.07321577341394628,0.08912056307972932,-0.07334547055723133,-0.5389429865842501,-0.32478480530071996,0.25999892826834503,-3.078654579371667,0.6248008927727086,-1.900670802776087e-06,0.0016259859134184489,-0.00033640780723172975,-0.0026722532297267032,0.0010898000898973217,-0.002792866035883978,0.0016386279739438775,0.32695674896240234,-1.151385710840561,1.661612335835592,-2.079456945458883,-1.571357552205221,2.301952838897705,0.0013933478621765971,0.0007864825311116874,0.005752135068178177,-0.003543247003108263,-0.00013071528519503772,-0.00024579258752055466,-0.28730422258377075,0.17238251864910126,-9.404424667358398,0.7105615139007568,47.71196365356445,-0.21639522910118103,-3.788806915283203,-2.3686182498931885,-0.5210248827934265,0.0013139389920979738,-0.3697972595691681,25.5625,26.375,25.5,28.5625,29.875,30.4375
1.0,-0.9356298265547691,-0.35399366398389387,-1.0485714047119061,-0.02075877970817081,0.037673218521073124,-0.07451962375823543,-0.5389518104378759,-0.32476972682425626,0.2599992523509622,-3.078613270733491,0.6249084742005485,2.102364141094885e-05,0.0006964157298810173,-0.0005967774419844572,-0.001466508151953007,-0.0015629087657015556,0.004960115002591334,0.002052509599006721,0.32693275809288025,-1.1513857704452057,1.661612335835592,-2.0794598064818324,-1.5713813940631312,2.3020012378692627,0.0013051214627921581,0.0006213244050741196,0.004864090587943792,-0.010684387758374214,-0.0001276258990401402,-0.0007509083370678127,-0.2298433631658554,0.15322890877723694,-9.21288776397705,0.7911257743835449,47.71017074584961,-0.19130839407444,-3.752645492553711,-2.265063524246216,-0.4927971065044403,0.013125760480761528,-0.36666232347488403,25.5625,26.375,25.5,28.5625,29.875,30.4375
1.0,0.12296697710250419,0.3269095079992208,-0.9891886840716169,0.0003677168153255715,0.014540612557185162,-0.08769397919292281,-0.5389431194726926,-0.3247860798991424,0.25998734719661676,-3.078663425080093,0.624879226507877,2.600742906510167e-05,0.0006591243079126032,-0.0005644102257728443,-0.0016159789837550229,-0.002338763016148712,0.007219629536163365,0.0038077666723235395,0.32695671916007996,-1.151373730306961,1.6616361776935022,-2.079520364800924,-1.571345631276266,2.3020005226135254,0.0012353110359981656,0.0006112214177846909,0.006012057885527611,-0.014211487956345081,-0.00012467893247958273,-0.0025772927328944206,-0.19153612852096558,0.13407529890537262,-9.251194953918457,0.7217512726783752,47.703006744384766,-0.18695500493049622,-3.697634696960449,-2.192514419555664,-0.4557555913925171,0.027314266189932823,-0.3587969243526459,25.5625,26.375,25.5,28.5625,29.875,30.4375
1.0,-0.7545867469913636,-0.08010366344120068,-0.883631338046231,-0.004982219956820023,-0.013033635957440021,-0.07169967395281321,-0.5389575893857925,-0.32478971089315173,0.26000079658058706,-3.0786782204248344,0.6248429938189856,8.257317374310134e-05,0.0007606230657879073,-0.0004135437028171568,-0.0019447351396122128,-0.0020549598835611586,0.006379775527582953,0.004369119953614702,0.3269566297531128,-1.1513617497733613,1.6615889708148401,-2.079519887963766,-1.571357552205221,2.301975965499878,0.0010560228256508708,0.0007222678395919502,0.006547309923917055,-0.013971429318189621,-0.00012186505045974627,-0.0033177733421325684,-0.15322890877723694,0.0,-9.174580574035645,0.7418897151947021,47.67792892456055,-0.2068140208721161,-3.5994815826416016,-2.2401158809661865,-0.46654754877090454,0.011706498451530933,-0.3531859517097473,25.5625,26.375,25.5,28.5625,29.875,30.4375
1.0,-0.7561668228436951,-0.18457051636870048,-0.6519649932368624,-0.0370582716548526,0.018231542298683616,-0.0709094390666967,-0.5389649110204592,-0.3247843614869534,0.2599683148093238,-3.0786489508865613,0.6248957536986215,3.3397196545282584e-05,0.0006190847060948294,-0.00037426405882257026,-0.0021797768780381535,-0.0018288684518511962,0.00570604920154783,0.0037740536121614286,0.3269445598125458,-1.1513136190227051,1.6616008917437952,-2.079543729821676,-1.571357552205221,2.3020005226135254,0.0009208478149957955,0.0012704485561698675,0.006202130112797022,-0.013463723473250866,-0.00011917546362383291,-0.0028576257172971964,-0.1149216815829277,-0.09576806426048279,-9.155426979064941,0.8157517910003662,47.693153381347656,-0.1997784674167633,-3.5783212184906006,-2.1822941303253174,-0.4869677424430847,-0.00954532902687788,-0.3526337146759033,25.5625,26.375,25.5,28.5625,29.875,30.4375
1.0,-1.2851198340633083,-0.8539217750699484,-0.697389338361545,-0.028411232792376756,0.02624814386290334,-0.07466349283599544,-0.5389493153279018,-0.3247712766145983,0.25998082168363795,-3.0786643528492386,0.6248794629606136,6.56146667430948e-05,0.000330384043448208,-0.00040491733349772756,-0.0036421881442765328,-0.0009352102247298769,0.0030655319299186597,0.0030406526758032775,0.3269326090812683,-1.1513725978187104,1.6616600195514124,-2.0795675716795863,-1.571357552205221,2.301976442337036,0.0008163584861904383,0.003763096872717142,0.00591177586466074,-0.012878288514912128,-0.00011660217569442466,-0.0022281166166067123,0.019153613597154617,-0.17238251864910126,-9.155426979064941,0.7709873914718628,47.699424743652344,-0.2110733687877655,-3.6174755096435547,-2.0346975326538086,-0.5176034569740295,-0.00821894034743309,-0.35733574628829956,25.5625,26.375,25.5,28.5625,29.875,30.4375
1.0,-0.8478485692052136,-0.2684341609947612,-0.6941814503542109,-0.028523073732062566,0.035731652680689376,-0.07889040222440859,-0.5389466174098019,-0.3247715836725752,0.25995752031281644,-3.0786472885533462,0.624953267645496,2.288305011088933e-05,0.0001439789763943226,-0.00041474213609561943,-0.0035581449247264526,-0.0011040312257333234,0.003550385871951247,0.002772817253645071,0.3269325792789459,-1.151348577146866,1.661684815083639,-2.0795918903746546,-1.571345631276266,2.3020246028900146,0.0007331809028983116,0.003967726603150368,0.0055078440345823765,-0.013192332349717617,-0.00011413743777666241,-0.002043596003204584,0.2106897532939911,-0.24899697303771973,-9.21288776397705,0.7911257743835449,47.679718017578125,-0.19401657581329346,-3.628242015838623,-1.9602806568145752,-0.515533447265625,-0.0017505520954728127,-0.3682107925415039,25.5625,26.375,25.5,28.5625,29.875,30.4375
1.0,-0.8496940166770444,0.0322849244146412,-0.6555279963302002,-0.01174040343513853,0.0045616904260682,-0.07207152939890889,-0.5389574798469926,-0.32478174718819713,0.25996110969584335,-3.078666371644818,0.6248999090999778,8.14865255522195e-05,0.00038984906717840146,-0.00023527893805578697,-0.0036870348529387223,-0.0010870858770051096,0.0034966942974045344,0.0025021967332874255,0.3269444406032562,-1.1513247650912781,1.6616490522967737,-2.079616209069723,-1.571357552205221,2.3020007610321045,0.0005857336800545454,0.003481778781861067,0.006599397864192724,-0.013741660863161087,-0.00011177477426826954,-0.0019206180004402995,0.24899697303771973,-0.17238251864910126,-9.21288776397705,0.6881819367408752,47.703006744384766,-0.17719528079032898,-3.4840078353881836,-1.9434800148010254,-0.5252674221992493,0.002345514018088579,-0.39691025018692017,25.5625,26.375,25.5,28.5625,29.875,30.4375
1.0,0.18036888579626825,0.3789960745657974,-0.7300544792871902,-0.0029554927672604155,-0.004953885974999204,-0.07942306284355043,-0.5389532525605508,-0.3247737891726013,0.259956061308954,-3.078682205867975,0.6249028386761167,8.769630077467701e-05,0.0008819200953502397,-6.354818678790735e-06,-0.004930369893504535,-0.00020301191726387476,0.0008912035778821533,0.003239011234014564,0.32692044973373413,-1.1513126653483887,1.6617086569415491,-2.0796638927855433,-1.5713337103473108,2.301976203918457,0.0004913622979074717,0.004026041366159916,0.008612403646111488,-0.013547609560191631,-0.00010733133240137249,-0.002751436550170183,0.13407529890537262,-0.019153613597154617,-9.136273384094238,0.7821771502494812,47.73883056640625,-0.17667055130004883,-3.3797597885131836,-2.030888557434082,-0.5323684215545654,-0.003755927784368396,-0.3837009072303772,25.5625,26.375,25.5,28.5625,29.875,30.4375
1.0,-0.1393114674817615,-0.24319203844139906,-0.9190676786201221,-0.030071902411032594,-0.027532254138508204,-0.07984072568461939,-0.5389538681504337,-0.32475715148963574,0.25989561073442907,-3.0786341101299755,0.6248722575301406,-1.853577988219736e-05,0.0009061487297175369,2.674668439919811e-05,-0.0065799639260919985,0.0008284419460625378,-0.0020992793093068977,0.0036431795604411365,0.32690849900245667,-1.15127585948024,1.6617453734027308,-2.0796877346434535,-1.571357552205221,2.3019516468048096,0.00045580457663163543,0.006135697476565838,0.009336418472230434,-0.013218034990131855,-0.00012161156337242573,-0.0031905921641737223,0.24899697303771973,0.019153613597154617,-9.251194953918457,0.8202234506607056,47.737037658691406,-0.21993690729141235,-3.4677228927612305,-1.9094274044036865,-0.5268370509147644,-0.005138808395713568,-0.37151408195495605,25.5625,26.375,25.5,28.5625,29.875,30.4375
1.0,-0.7243286148882038,-1.1439529861801152,-0.9764569788221908,-0.049928278365877425,-0.013919509371185811,-0.07199787725546647,-0.5389396394435704,-0.32476661471715257,0.25989299666081045,-3.078638142464807,0.6247964379729897,-1.1258075951931686e-05,0.001033659617787468,9.115184836951439e-05,-0.00747824736997727,0.0015765576978873867,-0.004272974405379964,0.0037060700381209063,0.32693246006965637,-1.1512875717929383,1.6617701689349573,-2.0796991787352503,-1.571369473134176,2.3019278049468994,0.0004250454076100141,0.0070790620520710945,0.00987212359905243,-0.012398316524922848,-0.00012882178998552263,-0.003283693687990308,0.2106897532939911,0.0,-9.346963882446289,0.7620334029197693,47.730770111083984,-0.19250574707984924,-3.4471611976623535,-2.0212783813476562,-0.5682957172393799,0.006659642793238163,-0.3618384897708893,25.5625,26.375,25.5,28.5625,29.875,30.4375
1.0,-1.3059948246628412,-1.6426532667067464,-1.0596383636813096,-0.06191453435524685,0.0022576550081781117,-0.07125385062322293,-0.5389313104432856,-0.3247780893863074,0.25988180081838563,-3.078622395999751,0.6247934054433506,-1.7306993535650496e-05,0.001154032667685674,0.00015030608008400267,-0.007502423823622768,0.0018147099186180402,-0.004950484656821437,0.003214975929391455,0.3269564211368561,-1.1512756508639832,1.6617816130267542,-2.0797110996642054,-1.5713813940631312,2.3019518852233887,0.0003981765767093748,0.006890309974551201,0.010017862543463707,-0.011637129820883274,-0.0001344797492492944,-0.0028191653545945883,0.26815059781074524,0.13407529890537262,-9.27034854888916,0.7060845494270325,47.72092056274414,-0.20507889986038208,-3.3855128288269043,-1.9974510669708252,-0.5812554359436035,0.01070153247565031,-0.37063172459602356,25.5625,26.375,25.5,28.5625,29.875,30.4375
1.0,-1.1780594473939745,-1.7511274183323762,-1.1500592720945304,-0.06471198432526715,0.020004398709504257,-0.06930883926754546,-0.5389439341342389,-0.3247536808321333,0.25986902702325376,-3.07862658358207,0.6248139843711858,-6.955386100351718e-05,0.0011880697513638341,0.0003188718845639477,-0.007912990572170524,0.002129542471228744,-0.0058629844366225115,0.002649969436225866,0.3269083797931671,-1.1512635213187714,1.6617935339557093,-2.079710622827047,-1.571357552205221,2.3019161224365234,0.00015725196863058954,0.007206504698842764,0.010460724122822285,-0.011430787853896618,-0.00013840296014677733,-0.002494894666597247,0.2106897532939911,0.2106897532939911,-9.308656692504883,0.7418897151947021,47.731666564941406,-0.18579985201358795,-3.3084568977355957,-1.8874306678771973,-0.6176830530166626,-0.0007001834455877542,-0.36325210332870483,25.5625,26.375,25.5,28.5625,29.875,30.4375
1.0,-1.056938213550855,-1.7217586933610645,-1.0472123439109522,-0.06460743771024362,0.014968062530363042,-0.07643366394155288,-0.53894110443895,-0.32473972146303254,0.25984234627690245,-3.0786060770981796,0.6249256639096132,-0.00013810994327711755,0.0013183218450735239,0.0003877293419558314,-0.009563390744580624,0.002880949803797985,-0.008082976997527776,0.0024346455235685544,0.32688453793525696,-1.1512507957271119,1.6618416945086878,-2.0797349415221156,-1.5713337103473108,2.301964521408081,0.00011966042075073346,0.009012928232550621,0.011882674880325794,-0.012315379455685616,-0.0001363338524242863,-0.0023170849308371544,0.19153612852096558,0.325611412525177,-9.27034854888916,0.7262282371520996,47.72808074951172,-0.1988566517829895,-3.3531689643859863,-1.9236550331115723,-0.6453770995140076,0.001212763017974794,-0.3667599558830261,25.5625,26.375,25.5,28.5625,29.875,30.4375
1.0,-0.6892914639949077,-1.5684860316329048,-0.9858322612027904,-0.06972279944279802,0.004859340765472175,-0.07468377924806277,-0.5389386165973233,-0.32476367954762286,0.2598405721732272,-3.078586758428278,0.6248251267965842,-5.741553040940795e-05,0.00123907923227634,0.0003655013170034875,-0.01006133553580037,0.002562444635376375,-0.0071668207872134845,0.0022959015787000618,0.3269323408603668,-1.151226745252945,1.6618178526507776,-2.079759737054342,-1.5713933149920862,2.3019521236419678,0.00011185654147993773,0.009667692705988884,0.012634520418941975,-0.014692029915750027,-0.00013245931768324226,-0.002186934230849147,0.15322890877723694,0.3064578175544739,-9.251194953918457,0.8000850081443787,47.73883056640625,-0.24442210793495178,-3.395948886871338,-1.9406057596206665,-0.6350194811820984,0.004749026149511337,-0.3778492212295532,25.5625,26.375,25.5,28.5625,29.875,30.4375
1.0,-0.4368943595339314,-1.625367205830222,-0.9527618769066158,-0.06784702241405614,0.005483274141906289,-0.0833121917179285,-0.5389429382886487,-0.3247508360569907,0.25984212133320994,-3.0786185908890014,0.624812737975784,-1.731839987207469e-05,0.0011478289680450697,0.00034077579866041024,-0.010456989849986387,0.002357115398921431,-0.0065084579209471515,0.0024354927092638612,0.3269083797931671,-1.1512385171702881,1.6618416945086878,-2.079808374444479,-1.5713813940631312,2.3019163608551025,0.000105307022749912,0.010255291126668453,0.013107302598655224,-0.016441771760582924,-0.000152686596265994,-0.0023336131125688553,0.15322890877723694,0.40222588181495667,-9.174580574035645,0.7463666796684265,47.73524856567383,-0.2256806641817093,-3.293520450592041,-1.929391622543335,-0.6375199556350708,0.0009129191748797894,-0.37719523906707764,25.5625,26.375,25.5,28.5625,29.875,30.4375
1.0,-0.5925853713826108,-1.5611582331201102,-0.9627823061630093,-0.07246697561065915,-0.0035636303466720087,-0.07613128778626332,-0.5389353124192202,-0.32475722372972077,0.25979858665194683,-3.078595029941948,0.6248266984001514,-0.00010926137588557714,0.0010070425961893408,0.00029829706208826925,-0.01109014921340344,0.002374603792888457,-0.0065187685768899285,0.002700415058872762,0.3269203007221222,-1.151190148001053,1.6618784109698694,-2.079832693139547,-1.571369473134176,2.3019399642944336,9.948580554919317e-05,0.01129085198044777,0.013395040296018124,-0.017749648541212082,-0.0001685479946900159,-0.002604656619951129,0.19153612852096558,0.3064578175544739,-9.232041358947754,0.7575564384460449,47.72808074951172,-0.2501761317253113,-3.377845048904419,-1.9445574283599854,-0.6272635459899902,0.011036429554224014,-0.371489942073822,25.5625,26.375,25.5,28.5625,29.875,30.4375
1.0,-1.2115665558349982,-1.9679138137782002,-0.8286520555200857,-0.06638310892881373,-0.012423009269368863,-0.07074590363295025,-0.5389283763823076,-0.3247471078442435,0.2597713463028409,-3.0785604993511386,0.6248777623102195,-0.0001729138359717448,0.001003719758157212,0.0003007308681693038,-0.011369612821760309,0.0021292402665621427,-0.005799407821024105,0.002852004354143326,0.3269083797931671,-1.1511780184558411,1.6619260946856897,-2.0798455677428187,-1.571369473134176,2.301964282989502,9.427465556655079e-05,0.011550148949027061,0.01404365710914135,-0.019417641684412956,-0.00016997603233903646,-0.002762013813480735,0.2106897532939911,0.3064578175544739,-9.193734169006348,0.6948947906494141,47.704795837402344,-0.18671515583992004,-3.3487653732299805,-1.9471029043197632,-0.6685625314712524,-0.0017101913690567017,-0.36825382709503174,25.5625,26.375,25.5,28.5625,29.875,30.4375
1.0,-0.7101845108692686,-1.4110125739421409,-0.7237680380122777,-0.0688734147971555,0.009679742583515366,-0.07518696076038571,-0.5389320502475622,-0.32475360671738407,0.25977850623560406,-3.0786022060382265,0.6247517203923305,-5.6404489538709744e-05,0.0005926009475924885,0.00016304207278591026,-0.010988420336068993,0.0013714832791014192,-0.0035954827706740898,0.0028159456166235042,0.3269203007221222,-1.1511779886535187,1.6619260946856897,-2.0799175701537074,-1.5713933149920862,2.3018922805786133,8.958250691648573e-05,0.011792837642133236,0.01324293203651905,-0.02119021862745285,-0.0001658906985539943,-0.0027314270846545696,0.2106897532939911,0.3064578175544739,-9.155426979064941,0.7620334029197693,47.7244987487793,-0.21685484051704407,-3.356686592102051,-1.9185755252838135,-0.6559001803398132,0.012615291401743889,-0.3531266450881958,25.5625,26.375,25.5,28.5625,29.875,30.4375
1.0,-0.8501871166988708,-1.2433226398890915,-0.8015467205814395,-0.0634529946657176,0.013598842565328336,-0.07288478021268546,-0.5389275763914038,-0.324753325107436,0.25974110450888643,-3.0785932618098615,0.6247881648010164,-9.782967453123869e-05,0.00036221523227066504,8.907883917361392e-05,-0.01141354863865342,0.0011123612580995874,-0.0027908141459073487,0.0027561135586705154,0.3269203007221222,-1.1511416000178833,1.66197377840151,-2.079978128472799,-1.5713813940631312,2.3019161224365234,8.533471554983407e-05,0.012707230634987354,0.013355824165046215,-0.02306266315281391,-0.00018320593517273664,-0.002676411997526884,0.26815059781074524,0.2298433631658554,-9.136273384094238,0.8000850081443787,47.72897720336914,-0.2222251147031784,-3.335451602935791,-1.8153188228607178,-0.6270502209663391,-0.00023006368428468704,-0.3648081421852112,25.5625,26.375,25.5,28.5625,29.875,30.4375
1.0,-0.9471899404428267,-1.3079234032387828,-0.8894971037921529,-0.05330405080404043,0.009124123300585749,-0.07485375053971935,-0.5389378186748398,-0.32474652037883717,0.2597214905725033,-3.078567084532716,0.6247827962731098,-9.419725292720855e-05,0.0002491361292442665,5.2656803024159536e-05,-0.011308636951402003,0.0007428936169036603,-0.0017198318575384537,0.00258640040206154,0.3269083797931671,-1.151105747824051,1.66197377840151,-2.0800024471678675,-1.5714057127581995,2.3019042015075684,8.147193148033693e-05,0.012728932313621044,0.013346555642783642,-0.024208050221204758,-0.00018003140576183796,-0.002511026803404093,0.19153612852096558,0.19153612852096558,-9.193734169006348,0.7396538853645325,47.7244987487793,-0.24419055879116058,-3.3092000484466553,-1.8464787006378174,-0.6572917699813843,-0.0016487136017531157,-0.34951314330101013,25.5625,26.375,25.5,28.5625,29.875,30.4375
1.0,-0.2360052160488723,-1.3203899713546126,-0.9131768212152697,-0.042848577205950075,0.015096982537008176,-0.07429725061881003,-0.5389192541333897,-0.3247439819586482,0.2596815651897753,-3.0785665362311483,0.6248213771537153,-0.00018784432096545422,4.6298855036967074e-05,-1.4594285266317558e-05,-0.012042743932673497,0.0007536271046122673,-0.001774545462441888,0.0024463117975790103,0.3269083797931671,-1.1510932308486481,1.6620577017413538,-2.0800510845580042,-1.571369473134176,2.3019282817840576,7.794411794748157e-05,0.014023554511368275,0.01352835912257433,-0.02562911994755268,-0.00017572930664755404,-0.0023748159874230623,0.05746084079146385,0.24899697303771973,-9.136273384094238,0.7127973437309265,47.685096740722656,-0.20492511987686157,-3.357090711593628,-1.7969248294830322,-0.6432825326919556,0.0016400963068008423,-0.3568955063819885,25.5625,26.375,25.5,28.5625,29.875,30.4375
1.0,-0.6059607411384971,-1.1981195407702177,-0.8599868093139076,-0.04378171686452051,0.006009879600127055,-0.0785036725606613,-0.5389180747157921,-0.3247618361920774,0.25964833881292837,-3.0785291825985457,0.624737065597067,-0.00018176725007154103,-3.285394781325173e-05,-3.994633554921158e-05,-0.011974334796669355,0.00033017946885831865,-0.0005483570770859921,0.00227057308721168,0.3269442617893219,-1.1510332983783265,1.6620577017413538,-2.0800873241820277,-1.5714176336871546,2.3019163608551025,7.470852870028466e-05,0.013999929651618004,0.0137418732047081,-0.027116326615214348,-0.0001715481048449874,-0.0022029017563909292,0.1149216815829277,0.24899697303771973,-9.002198219299316,0.7239871025085449,47.699424743652344,-0.2128491997718811,-3.2613706588745117,-1.8449890613555908,-0.6357287168502808,0.003531027352437377,-0.3594236373901367,25.5625,26.375,25.5,28.5625,29.875,30.4375
1.0,-1.1617282915470941,-0.9370164842431322,-0.9524384140045579,-0.04787666892782109,-0.005788246315578883,-0.0672222169575489,-0.5389198473937812,-0.32477406498930694,0.25964665732397857,-3.078598661062836,0.6246739237135284,-0.00014553799608900286,-0.0003487718540429875,-0.0001461073914409274,-0.01281209775626034,0.0004467736012900589,-0.0009138967203602985,0.0022202625775342936,0.32695630192756653,-1.1510207516006012,1.6620577017413538,-2.0801478825011195,-1.5713813940631312,2.301880121231079,7.173135236371309e-05,0.015688365325331688,0.013536740094423294,-0.028215937316417694,-0.0001675562234595418,-0.0021557817235589027,0.09576806426048279,0.19153612852096558,-9.097966194152832,0.7687462568283081,47.68867492675781,-0.27616405487060547,-3.430096387863159,-1.7716535329818726,-0.6477630138397217,0.005427026189863682,-0.34837907552719116,25.5625,26.375,25.5,28.5625,29.875,30.4375
1.0,-0.5691175842512856,-0.4113120616071573,-0.8937773091010258,-0.05754739607926393,0.02034999683348336,-0.08246396236339204,-0.5389240096147596,-0.3247573606319512,0.25961103507028654,-3.078539466563536,0.6247392198834163,-0.00019102721843860222,-0.00026770725497533246,-0.00011705409673404607,-0.01278192750332637,8.432039627292161e-05,0.0001362850196686732,0.002308530975321207,0.3269323408603668,-1.1509848994067688,1.6620939413653772,-2.080172201196188,-1.5714057127581995,2.3019044399261475,6.898231367813423e-05,0.015377584844827652,0.014240755699574947,-0.029720216989517212,-0.0001637452660361305,-0.0022473852150142193,0.1149216815829277,0.15322890877723694,-9.136273384094238,0.7441308498382568,47.71017074584961,-0.25332093238830566,-3.3699698448181152,-1.8313335180282593,-0.6482649445533752,0.00983409769833088,-0.35234004259109497,25.5625,26.375,25.5,28.5625,29.875,30.4375
1.0,-1.5182328975072288,-0.9546065993080641,-0.9702951280756095,-0.03971463090994533,0.014488515632663766,-0.06836916672125867,-0.5389183368286987,-0.32476571056765613,0.25953903700235736,-3.078553393393736,0.6246840681753666,-0.0002601067876018572,-0.0004980749295036839,-0.00019314328060231932,-0.013272282399086514,-0.0004705561085183167,0.0017302740536272749,0.002313455156605233,0.3269442617893219,-1.1509006482413788,1.6621668974505823,-2.0802928409972132,-1.5713813940631312,2.301880121231079,6.40711368760094e-05,0.016295626759529114,0.014784718863666058,-0.03286995366215706,-0.0001566212740726769,-0.0022583049722015858,0.019153613597154617,0.038307227194309235,-9.232041358947754,0.6926589012145996,47.687782287597656,-0.2402825653553009,-3.3068995475769043,-1.7791472673416138,-0.6246047019958496,0.020595010370016098,-0.3421734571456909,25.5625,26.375,25.5,28.5625,29.875,30.4375
1.0,-1.4413104509995662,-0.9722328798904947,-1.0348536761055864,-0.035528979820186254,0.016546267356082566,-0.07609336496606146,-0.5389389803591097,-0.32475968354488893,0.2595191459282942,-3.0786013164592494,0.6246749961130806,-0.000213446248764247,-0.0007434031971602647,-0.0002757404553735036,-0.013346080338104062,-0.0007896630428088707,0.0026503430737131453,0.0022449349775797967,0.3269203007221222,-1.1508523386767884,1.6621664206134241,-2.0803891621031703,-1.571357552205221,2.301844358444214,6.186879181768745e-05,0.016827678307890892,0.014482898637652397,-0.034073952585458755,-0.00015328665904235095,-0.0021924374159425497,0.05746084079146385,0.07661445438861847,-9.27034854888916,0.6881819367408752,47.68330383300781,-0.252406507730484,-3.4081244468688965,-1.7424594163894653,-0.6395761966705322,0.021032262593507767,-0.33824169635772705,25.5625,26.375,25.5,28.5625,29.875,30.4375
1.0,-0.9292576898358429,-0.8870431696740226,-1.1045377713007436,-0.039075291575892186,0.028265616657547572,-0.07653170516132123,-0.5389195842679076,-0.32475181034410183,0.2594853087394823,-3.078567472600235,0.6246681019077556,-0.0002690983715391221,-0.0007948162785696014,-0.0002921465476593644,-0.014236188381690598,-0.0008257806223524412,0.002736998024547804,0.0021560677060697853,0.3269203007221222,-1.1508519810489197,1.662250820790426,-2.080425878564352,-1.571369473134176,2.301844358444214,5.981302456348203e-05,0.01796124503016472,0.015407009981572628,-0.036225322633981705,-0.0001500910584582016,-0.002106220694258809,0.05746084079146385,0.07661445438861847,-9.27034854888916,0.7418897151947021,47.734352111816406,-0.22973260283470154,-3.3855535984039307,-1.7741491794586182,-0.6206101775169373,0.011058768257498741,-0.3482736647129059,25.5625,26.375,25.5,28.5625,29.875,30.4375
1.0,-0.9684325123921624,-0.9168120564507944,-1.2040287583676677,-0.04278742075421217,0.027186264801723557,-0.07637414289690025,-0.5389159178889025,-0.32476107017381783,0.25944865115845883,-3.0785235708299097,0.6246780194447025,-0.00022986951980788841,-0.000991426648235134,-0.0003583677450409737,-0.01394100081452305,-0.001402269493311757,0.0044148089309039434,0.0018977136640710953,0.3269442617893219,-1.1508040887168427,1.662286106740133,-2.0805098019041957,-1.5714176336871546,2.301880121231079,5.788933776784688e-05,0.017890354618430138,0.015168184414505959,-0.03768974170088768,-0.00014702617772854865,-0.0018504285253584385,0.038307227194309235,0.038307227194309235,-9.308655738830566,0.7486078143119812,47.70121383666992,-0.28691786527633667,-3.3674354553222656,-1.7278997898101807,-0.588412880897522,-0.005271402187645435,-0.34192711114883423,25.5625,26.375,25.5,28.5625,29.875,30.4375
1.0,-1.1721122645713864,-1.010340869182781,-1.0450073334834666,-0.04473188745037429,0.023361532988787157,-0.0769369418136912,-0.5389173226702639,-0.324774420745379,0.2594263343195125,-3.0785954639068356,0.6246547763405529,-0.00020324465080754793,-0.001058847659643593,-0.0003803744267315717,-0.014953678702458806,-0.0011752062037438881,0.0037310773046938064,0.0016658805944348252,0.32695630192756653,-1.1507676404765625,1.6623104254352015,-2.080618520776266,-1.571369473134176,2.301868438720703,5.608547508018091e-05,0.0192733034491539,0.01583687961101532,-0.039020836353302,-0.00014408392598852515,-0.0016206640284508467,-0.019153613597154617,0.019153613597154617,-9.346963882446289,0.7105615139007568,47.67255783081055,-0.2436010241508484,-3.441004514694214,-1.7846183776855469,-0.597900927066803,0.010985414497554302,-0.3404906690120697,25.5625,26.375,25.5,28.5625,29.875,30.4375
1.0,-1.149406262358295,-1.2527359055739091,-1.261293150498137,-0.038854664134219494,0.03158323110135991,-0.06911758968583764,-0.5389240527361742,-0.3247701383018703,0.2593832472572618,-3.0785799921981933,0.624690076508404,-0.000262612055504248,-0.0011029043118827287,-0.0003945300385887086,-0.015342769324154498,-0.0013828466102549584,0.004326159739133347,0.0013039579564556325,0.3269442617893219,-1.150707558994629,1.662335220967428,-2.0806666813292445,-1.571357552205221,2.301880359649658,5.43906498933211e-05,0.019764291122555733,0.016419077292084694,-0.04072420671582222,-0.0001412569108651951,-0.0012609920231625438,-0.05746084079146385,0.019153613597154617,-9.346963882446289,0.6837049722671509,47.692256927490234,-0.29921406507492065,-3.3687920570373535,-1.7564325332641602,-0.5660156011581421,0.011344383470714092,-0.3384815454483032,25.5625,26.375,25.5,28.5625,29.875,30.5
1.0,-1.834597891457534,-1.0085045149169412,-1.009837356685454,-0.04942636860774085,0.01691541046658812,-0.0743015614199095,-0.5389209127105785,-0.32477563480054183,0.2593527750203297,-3.078578084863097,0.6246512893578822,-0.00025154819908593294,-0.0012038675281440783,-0.0004282817017687073,-0.0150804505754806,-0.001883663867250959,0.005784496762054375,0.001184911309091491,0.32695630192756653,-1.150671587591507,1.662370506917135,-2.0807391605772914,-1.571369473134176,2.301868438720703,5.2795414376305416e-05,0.01954401098191738,0.016433771699666977,-0.04206055402755737,-0.00013853891869075596,-0.0011441238457337022,-0.05746084079146385,0.019153613597154617,-9.308656692504883,0.7217512726783752,47.72897720336914,-0.22301232814788818,-3.42521595954895,-1.731546401977539,-0.5639436841011047,0.015491021797060966,-0.3377745449542999,25.5625,26.375,25.5,28.5625,29.875,30.5
1.0,-1.4555626558239978,-1.1142811948463507,-1.1727259916069026,-0.04849940165857253,0.026162930477790832,-0.07151021398677354,-0.5389241757569462,-0.3247779960344601,0.2593356987458185,-3.0786025338068894,0.6246758177923308,-0.00021142798619323868,-0.0013362673496696783,-0.00047267735114040805,-0.015608877048220704,-0.0020426482131935325,0.006235190749834301,0.0010373640219590845,0.32695630192756653,-1.1506471794894715,1.6623943487750452,-2.0808240375914515,-1.571357552205221,2.3018805980682373,5.129083729116246e-05,0.02040134370326996,0.016827430576086044,-0.04378940165042877,-0.00013592344475910068,-0.0009986168006435037,-0.019153613597154617,0.05746084079146385,-9.385271072387695,0.8045620322227478,47.6895751953125,-0.33733105659484863,-3.404099464416504,-1.7371023893356323,-0.5680657029151917,0.019790152087807655,-0.33418333530426025,25.5625,26.375,25.5,28.5625,29.875,30.5
1.0,-1.4018411137559665,-0.9253246470671921,-1.194454050856568,-0.05394384218112676,0.026098493437992608,-0.0796393398619814,-0.5389336213914059,-0.3247889577924725,0.25928798131272923,-3.078613471643771,0.6246207596533099,-0.0002126833677462577,-0.0016086851690222256,-0.0005649031738862911,-0.016249123745052368,-0.0021539021538978316,0.006543001343407459,0.0009005440608627749,0.3269682228565216,-1.1505629283240815,1.6624067465411585,-2.0809198818602503,-1.571357552205221,2.301856756210327,4.986983913113363e-05,0.021707942709326744,0.01682695746421814,-0.0454227551817894,-0.00013340497389435768,-0.0008636834099888802,-0.07661445438861847,0.09576806426048279,-9.481039047241211,0.864982545375824,47.74509811401367,-0.30080467462539673,-3.498361587524414,-1.694582462310791,-0.5174880623817444,0.002976291114464402,-0.3350317180156708,25.5625,26.375,25.5,28.5625,29.875,30.5
1.0,-0.8570303611731789,-0.8670811272322152,-1.1402787182411769,-0.0580876818125082,0.03173063444097754,-0.07854086100035336,-0.5389250873526036,-0.32477577351239834,0.2592462292500407,-3.07856204561055,0.6246485289626944,-0.00025917948550227977,-0.001336769184189747,-0.0004610180146526889,-0.016900971338107234,-0.0019318507533980026,0.005883817961221123,0.0007788326381430364,0.32695627212524414,-1.1505389970592041,1.6624787489520472,-2.0809675655760707,-1.5713813940631312,2.3018686771392822,3.257634671172127e-05,0.02192382700741291,0.018206877633929253,-0.04632299393415451,-0.00013097815099172294,-0.0007594527560286224,0.0,0.0,-9.366117477416992,0.8090336918830872,47.743309020996094,-0.2778152823448181,-3.3928656578063965,-1.7989600896835327,-0.5246127247810364,0.006245400290936232,-0.35089462995529175,25.5625,26.375,25.5,28.5625,29.875,30.5
1.0,-1.032165662956693,-0.8076864568091008,-1.055709138524752,-0.0642552965666402,0.022727076118565403,-0.07449712111268483,-0.5389341423496865,-0.3247579697109115,0.2592285570152123,-3.078591257338908,0.6247313867742538,-0.00021240821688395877,-0.001556697399002731,-0.0005305576763328378,-0.01652011450651496,-0.0024153688135216,0.007293171137533512,0.0006877234616692247,0.3269202709197998,-1.1505269569209595,1.6625264326678675,-2.0810758076109828,-1.571357552205221,2.3018805980682373,2.3737353330943733e-05,0.02182464487850666,0.017677782103419304,-0.04718467965722084,-0.0001286380720557645,-0.0006776152295060456,0.05746084079146385,0.019153613597154617,-9.385271072387695,0.6948947906494141,47.71017074584961,-0.32416462898254395,-3.485028028488159,-1.6927917003631592,-0.49939048290252686,0.0016933729639276862,-0.34147173166275024,25.5625,26.375,25.5,28.5625,29.875,30.5
1.0,-1.178279570659788,-1.3342635649312797,-1.123328628660251,-0.0471320531136165,0.009694558963583852,-0.07490672151573742,-0.5389368626998354,-0.3247797829604777,0.2591898461154683,-3.0785946316710873,0.6246743657918997,-0.00016037283341287437,-0.0016438205713479918,-0.000560070819356294,-0.01687285510368146,-0.0024754791209545086,0.007456780502932077,0.0007018880377655764,0.32695627212524414,-1.150454656486847,1.6625378767596644,-2.081184049645895,-1.5713813940631312,2.3018805980682373,2.302297616552096e-05,0.022409562021493912,0.01787918619811535,-0.04814527556300163,-0.00012638006592169404,-0.0006927828653715551,0.07661445438861847,0.1149216815829277,-9.308656692504883,0.7463666796684265,47.69584274291992,-0.32511329650878906,-3.4438939094543457,-1.758009910583496,-0.47726091742515564,0.008068551309406757,-0.3359767198562622,25.5625,26.375,25.5,28.5625,29.875,30.5
1.0,-1.1293210423455233,-0.9007993651438893,-1.2368012099659536,-0.054153528017305004,0.0012056832871791892,-0.07135400082810349,-0.5389410009281433,-0.3247758669504622,0.2591512080358631,-3.078619435604246,0.6246223604307637,-0.00019741857806713546,-0.0013202517236016915,-0.0004493662605571196,-0.017786013646386843,-0.0017929127837287544,0.0054487230043800865,0.0006456235227069512,0.3269442319869995,-1.1504065853408356,1.662574593220846,-2.0812555752196253,-1.571357552205221,2.301832914352417,2.244728966616094e-05,0.022954780608415604,0.01911117509007454,-0.04780156910419464,-0.00012419991253409535,-0.0006367444875650108,0.038307227194309235,0.09576806426048279,-9.366117477416992,0.7508436441421509,47.69584274291992,-0.28742069005966187,-3.462388753890991,-1.7033302783966064,-0.48427814245224,0.00173704675398767,-0.3400570750236511,25.5625,26.375,25.5,28.5625,29.875,30.5
1.0,-0.8570047810606344,-0.8476792004827152,-1.2060157086639405,-0.05179194922363436,0.0031699688321144837,-0.0762875411466925,-0.5389576180382968,-0.3247569627019622,0.2590910015941833,-3.0785559551008856,0.6247632603779211,-0.0002527338544814,-0.0013980613221333891,-0.00047572987127050137,-0.01779151546350684,-0.001669833423448802,0.005081278515999109,0.0005938407774676778,0.3269083499908447,-1.1503226620009919,1.6626103560077112,-2.081327577630514,-1.571369473134176,2.3018929958343506,2.1901050786254928e-05,0.023169193416833878,0.01869177259504795,-0.047209080308675766,-0.00012209382839500904,-0.0005852809990756214,0.05746084079146385,0.09576806426048279,-9.423578262329102,0.7262282371520996,47.745994567871094,-0.3408874273300171,-3.415879964828491,-1.6044522523880005,-0.4865110516548157,0.01402423344552517,-0.32946935296058655,25.5625,26.375,25.5,28.5625,29.875,30.5
1.0,-0.457826938726806,-1.0363267081395113,-1.140603496078711,-0.04443762238965721,0.007760068330682261,-0.07175789529774802,-0.5389696106677219,-0.3247623032153707,0.25908319967157617,-3.0786420768809766,0.6247228093429957,-8.51245645916655e-05,-0.0014169735174041859,-0.00046861431496667493,-0.018546388766225334,-0.001180449589345428,0.003635464072201987,0.0005290681635834018,0.3269083499908447,-1.150298373108246,1.6626346747027796,-2.0815068684019984,-1.571357552205221,2.301856756210327,8.581544079788728e-07,0.02420799247920513,0.018890351057052612,-0.0469200573861599,-0.00012005780445178971,-0.0005412687896750867,0.15322890877723694,0.17238251864910126,-9.27034854888916,0.7351769208908081,47.725399017333984,-0.38006919622421265,-3.443070650100708,-1.6662261486053467,-0.49617260694503784,0.0037070056423544884,-0.3281906843185425,25.5625,26.375,25.5,28.5625,29.875,30.5
1.0,-0.025336047182252158,-0.5162244529324037,-1.0802696008573016,-0.052576339186370835,0.01141784158339407,-0.08651884501371254,-0.5389602792290211,-0.3247721800547458,0.2590306776295626,-3.0786014663885943,0.6246952214893804,-0.00013297720653722645,-0.0009592697775457277,-0.0003122373340904576,-0.019077334004772736,-0.00027120088775049647,0.000963404404235997,0.00045832238842242047,0.3269083499908447,-1.1502023500255127,1.6627309958087366,-2.081625600854391,-1.5713933149920862,2.3018686771392822,1.544647604267979e-10,0.024086177349090576,0.019806306809186935,-0.04489168897271156,-0.00011618315329542384,-0.00047048358828760684,0.2106897532939911,0.17238251864910126,-9.136273384094238,0.7374180555343628,47.71464920043945,-0.31807732582092285,-3.5316548347473145,-1.638992428779602,-0.5259342193603516,0.011663340032100677,-0.33647236227989197,25.5625,26.375,25.5,28.5625,29.875,30.5
1.0,-0.5969451147469373,-0.9426948936903441,-0.9417270599617338,-0.045567553188312404,-0.0044929283412962345,-0.07541641505354581,-0.5389641200645364,-0.3247566654143028,0.2589934796697174,-3.0785719060030665,0.6247276126534205,-0.00015666237789575734,-0.0008528999358653752,-0.0002761567425664462,-0.01904619716654959,-0.00012124877561225894,0.0005207480917779102,0.00036816963965281325,0.3269202709197998,-1.1501664084247132,1.6626947561847132,-2.0817452869811,-1.5713813940631312,2.3018929958343506,2.0723416472440137e-12,0.02386048249900341,0.019918112084269524,-0.04431041702628136,-0.00011433815961936489,-0.0003801373241003603,0.15322890877723694,0.17238251864910126,-9.193734169006348,0.7754590511322021,47.69853210449219,-0.31626617908477783,-3.584899425506592,-1.6531753540039062,-0.5538423657417297,0.005476245656609535,-0.3158617615699768,25.5625,26.375,25.5,28.5625,29.875,30.5
1.0,0.022650449471471934,-0.9402479337792018,-0.9206995800981863,-0.04379290082942803,0.0002688325272099598,-0.08074847925156103,-0.5389755855797946,-0.3247540698545886,0.25891429646261066,-3.0785913421450886,0.6247129502471062,-0.000151296223731365,-0.0006958731078090507,-0.0002226309198869435,-0.019892731868233295,0.00031427365577781427,-0.0007653707607061746,0.0002875349481377583,0.32689642906188965,-1.1500942570022126,1.6628029982196253,-2.0818168125548304,-1.5713813940631312,2.301845073699951,2.780310602243114e-14,0.024628091603517532,0.020844606682658195,-0.04464665427803993,-0.00011255078425165266,-0.0002994155802298337,0.2106897532939911,0.09576806426048279,-9.232041358947754,0.7732232213020325,47.7191276550293,-0.3338123559951782,-3.4355318546295166,-1.6100285053253174,-0.5452977418899536,0.007713605184108019,-0.3307478427886963,25.5625,26.375,25.5,28.5625,29.875,30.5
1.0,-0.04949897405432779,-0.5996968396571267,-0.8521797018137062,-0.04510009911788117,-0.0012121477043621244,-0.08630788557339061,-0.5389670613651663,-0.3247912970830778,0.2589175894700719,-3.078667662864399,0.6246326364056508,-3.05831683884675e-05,-0.0007434969648981452,-0.00023905723751394244,-0.02025438789905204,0.0005267079015562936,-0.0013962963413312894,0.0002655518609454242,0.32695627212524414,-1.150082067852356,1.6628029982196253,-2.0819250545897425,-1.571369473134176,2.301845073699951,3.7301414585036224e-16,0.02521068975329399,0.020830480381846428,-0.04454939439892769,-0.00011081852426286787,-0.0002773159940261394,0.26815056800842285,0.09576806426048279,-9.27034854888916,0.7150384783744812,47.71196365356445,-0.3437916934490204,-3.51058030128479,-1.6394362449645996,-0.5668797492980957,0.008558113127946854,-0.3209567666053772,25.5625,26.375,25.5,28.5625,29.875,30.5
1.0,-0.023291091935092184,-0.6612470982511227,-0.8604705470909227,-0.046219495242046243,0.0016483502717951105,-0.08372884158312155,-0.5389745271364207,-0.32477576366702643,0.25884779216276205,-3.0785877448948487,0.6247701754777882,-9.387154729178018e-05,-0.0007583599912113139,-0.0002442604545078376,-0.02045777595773032,0.0007350611191092432,-0.002013663015861983,0.00024943149024527205,0.32693231105804443,-1.1499981445125123,1.6628630797015589,-2.082008501092428,-1.5713933149920862,2.30191707611084,5.004460490328987e-18,0.02554289437830448,0.02073620818555355,-0.04413576051592827,-0.0001091387021006085,-0.00026098571834154427,0.26815059781074524,0.15322890877723694,-9.136273384094238,0.7150384783744812,47.69584274291992,-0.35642290115356445,-3.45841121673584,-1.5731825828552246,-0.5909405946731567,-0.00346108409576118,-0.32210931181907654,25.5625,26.375,25.5,28.5625,29.875,30.5
1.0,-0.4297553253538367,-0.6352814163587914,-0.7458555562152385,-0.04538878948549666,-0.0029685583958625732,-0.08117322051998638,-0.5389723136714711,-0.32475943205437685,0.25880067342762947,-3.0785737934201385,0.6247476863025017,-0.0001428833708941644,-0.0007196323720293134,-0.00023118087698711858,-0.020558907649195747,0.000271281158065492,-0.0006615959352740155,0.00023428540040411255,0.3269083499908447,-1.1499620539001008,1.662936035786764,-2.082081457177633,-1.5713933149920862,2.3018808364868164,6.714122926986064e-20,0.025453247129917145,0.021586012095212936,-0.04632531479001045,-0.00010750902583822608,-0.000246658077230677,0.2106897532939911,0.1149216815829277,-9.193734169006348,0.7418897151947021,47.685096740722656,-0.3473358750343323,-3.403383731842041,-1.6106172800064087,-0.5929486155509949,0.011867888271808624,-0.31974148750305176,25.5625,26.375,25.5,28.5625,29.875,30.5
1.0,-0.124798284945902,-0.5889362960368006,-0.7704594979648499,-0.04198279000826163,0.002326795269414367,-0.08229285064156329,-0.538963536168634,-0.3247757505413623,0.25875098503792254,-3.078610722615417,0.6246595804089773,-0.00020445165470508957,-0.0004657395171662736,-0.00014462194135080993,-0.02137782152463526,0.0008439058858166387,-0.002346492765535401,0.00022173243290630335,0.32693231105804443,-1.1499019426158448,1.6629837195025843,-2.0821649036803187,-1.571357552205221,2.301845073699951,9.00785247760238e-22,0.026013733819127083,0.022619785740971565,-0.046140022575855255,-0.0001059273854480125,-0.00023383514781016856,0.2298433631658554,0.0,-9.155426979064941,0.6948947906494141,47.69584274291992,-0.36091136932373047,-3.448310375213623,-1.5885298252105713,-0.6077569723129272,0.006927055772393942,-0.3163432478904724,25.5625,26.375,25.5,28.5625,29.875,30.5
1.0,-0.11551000004969394,-0.4548354091461425,-0.7930943528279277,-0.051481157619143195,0.006158831931862025,-0.08124785473691437,-0.5389815417920563,-0.3247625649161196,0.2586956161939231,-3.078561762401334,0.6247453223921553,-0.00017690066864835987,-0.00020540885510453278,-5.587480826082199e-05,-0.02197803076632648,0.0018786440518931444,-0.005382297456968948,0.00021131748400451614,0.3269083499908447,-1.1498179596713562,1.6630190054522913,-2.0822836361327113,-1.5713933149920862,2.3018808364868164,1.2085184984917615e-23,0.026434483006596565,0.022807404398918152,-0.04354109615087509,-0.00010439159086672589,-0.00022228083980735391,0.19153612852096558,0.1149216815829277,-9.155426979064941,0.7127973437309265,47.711063385009766,-0.34342485666275024,-3.406888246536255,-1.6002787351608276,-0.660493016242981,0.0014811145374551415,-0.32769566774368286,25.5625,26.375,25.5,28.5625,29.875,30.5
1.0,-0.17249372837950264,-0.25549540317720787,-0.6960766286194967,-0.057975438331487134,0.014442930392101122,-0.08549327920830016,-0.5389669733943969,-0.3247744117031934,0.2586797956755637,-3.0786105283233565,0.6246787029441768,-0.0001213074575474557,-0.0003501604557676561,-0.00010469747314424098,-0.02193733557532826,0.001574456219609859,-0.004476189021906489,0.00022114804991491804,0.32693231105804443,-1.1498178106597443,1.663079086934225,-2.0823918781676234,-1.5713813940631312,2.3018569946289062,1.6213816870200298e-25,0.026619283482432365,0.022690055891871452,-0.04456432908773422,-0.00010988568101311103,-0.00023250827507581562,0.13407529890537262,0.09576806426048279,-9.21288776397705,0.6971306204795837,47.6976318359375,-0.3515593111515045,-3.51059627532959,-1.5861177444458008,-0.6830805540084839,0.0031016513239592314,-0.3211333751678467,25.5625,26.375,25.5,28.5625,29.875,30.5
1.0,-0.7822975503133542,-0.6688793641548951,-0.814289311544371,-0.04837205030088887,0.0021273506008844707,-0.07561809490464969,-0.5389831185602478,-0.3247527956898698,0.258626642635202,-3.078562032981024,0.6246689793418204,-0.0001419325031394489,-0.0004920479135560939,-0.00015261361650231785,-0.022343445760190598,0.0015504955676313007,-0.004400061059451006,0.00022974141258758285,0.32689642906188965,-1.149745689039566,1.6631153265582483,-2.082463880578512,-1.5714176336871546,2.301821231842041,2.175290494308751e-27,0.027396367862820625,0.02273121476173401,-0.045462362468242645,-0.00011388870916562155,-0.00024133377883117646,0.038307227194309235,0.09576806426048279,-9.117119789123535,0.6993717551231384,47.661808013916016,-0.3942760229110718,-3.4181134700775146,-1.6014670133590698,-0.6981353759765625,0.009504685178399086,-0.329301118850708,25.5625,26.375,25.5,28.5625,29.875,30.5
1.0,-0.19178724476695874,-0.6166178810056093,-0.766137907635823,-0.05611497623697458,0.028047949242517554,-0.08469945290555285,-0.5389769340921814,-0.3247815517338943,0.25861388814999264,-3.0786677044987183,0.6246713920635881,-8.679775120915227e-05,-0.000282319360779494,-8.11957664395815e-05,-0.023198996626812993,0.0016270392657330153,-0.004635731092067642,0.00022008581237335963,0.32693231105804443,-1.1497213405421753,1.663140122090475,-2.0825959644713343,-1.571345631276266,2.301845073699951,2.9184296541311397e-29,0.027957182377576828,0.024318158626556396,-0.04736234247684479,-0.00011150955833727494,-0.00023221087758429348,0.07661445438861847,0.15322890877723694,-9.136273384094238,0.7239871025085449,47.66628646850586,-0.3835969567298889,-3.535832166671753,-1.6358230113983154,-0.7146186828613281,0.010553530417382717,-0.32075732946395874,25.5625,26.375,25.5,28.5625,29.875,30.5
1.0,-0.7633175270742825,-1.1748751218600344,-0.7881455428999539,-0.0458643093205425,0.022175220484401206,-0.07941647441738849,-0.5389808184574925,-0.32477129432889984,0.2585609233885869,-3.0786235258963797,0.6247007845227083,-7.657911532674192e-05,0.00024009373371878336,9.692163671614943e-05,-0.024297246001568993,0.0027281425772617825,-0.007869973036718074,0.00021139953312383043,0.3269202709197998,-1.1496612590602417,1.6632006804095667,-2.08270325283193,-1.5713813940631312,2.3018569946289062,3.9154454344957614e-31,0.028405314311385155,0.02586224302649498,-0.04593802988529205,-0.00010884118091780692,-0.00022271412308327854,0.15322890877723694,0.09576806426048279,-9.232041358947754,0.7441308498382568,47.742408752441406,-0.37036216259002686,-3.44925594329834,-1.6336027383804321,-0.736663818359375,0.0021217563189566135,-0.31852900981903076,25.5625,26.375,25.5,28.5625,29.875,30.5
1.0,-0.5751399454583721,-0.8094921439837396,-0.7389251045035286,-0.04414526579311853,0.02651841038636374,-0.0815120765291119,-0.5389964988083306,-0.3247508459422323,0.258499198430661,-3.078562143599755,0.6247455867339269,-0.00013913896669744838,0.0003165729050363182,0.00012279653568068443,-0.02477718777406441,0.0031414230089631466,-0.009092163689682579,0.00020290129961837036,0.32688450813293457,-1.1495771271041413,1.6632369200335901,-2.0827633343138636,-1.5714057127581995,2.3018569946289062,5.253069726105778e-33,0.028916936367750168,0.026120418682694435,-0.0454176664352417,-0.00010627253504935652,-0.00021389679750427604,0.1149216815829277,0.05746084079146385,-9.21288776397705,0.7508436441421509,47.692256927490234,-0.4167814552783966,-3.5218493938446045,-1.613868236541748,-0.7971515655517578,-0.004313742276281118,-0.33022940158843994,25.5625,26.375,25.5,28.5625,29.875,30.5
1.0,-0.8489881538154344,-0.6656229625429827,-0.8581818966129082,-0.04661157435247902,0.019746755991077215,-0.07862590599211987,-0.5389814146473264,-0.3247611868409891,0.25846554657232995,-3.078564344022705,0.6247078521992429,-0.00015368986002690257,-5.359574478660587e-05,-3.759721198923742e-06,-0.02463813948067655,0.0022092942498292325,-0.006374455659417947,0.0001935207224183187,0.3269083499908447,-1.1495530766299744,1.6632960478412073,-2.0828358135619105,-1.5714057127581995,2.3018569946289062,7.047663179002452e-35,0.029309377074241638,0.02596157230436802,-0.04852437600493431,-0.00010382074833614752,-0.00020574513473547995,0.09576806426048279,0.07661445438861847,-9.136273384094238,0.7351769208908081,47.70121383666992,-0.43687698245048523,-3.4567480087280273,-1.6029527187347412,-0.7817915678024292,0.006491277366876602,-0.32817012071609497,25.5625,26.375,25.5,28.5625,29.875,30.5
1.0,-0.6462795268486288,-0.5148905461874167,-0.6580135870995067,-0.05039014855240015,0.027281508358550168,-0.09004045477056585,-0.5389987959568245,-0.32476965906069616,0.25840605220735047,-3.078593149908747,0.6246755981577328,-0.0001715855253002207,-0.0002525068186983862,-7.199523792882323e-05,-0.02545270418786093,0.0016831720692633168,-0.004858362526285975,0.00017767322237317715,0.3269442319869995,-1.149432734852173,1.6634276548968714,-2.083076616326803,-1.571369473134176,2.301821231842041,1.2685544417082522e-38,0.03055822290480137,0.0269351527094841,-0.052351564168930054,-9.924136247718707e-05,-0.0001911749568535015,0.0,0.15322890877723694,-9.117119789123535,0.7172743082046509,47.70121383666992,-0.4196977913379669,-3.5129551887512207,-1.5636887550354004,-0.8237307071685791,-0.0009151548147201538,-0.32405605912208557,25.5625,26.375,25.5,28.5625,29.875,30.5
1.0,-0.8267009129028575,-0.9196726265204285,-0.6702872621223877,-0.05410286113730718,0.035210086316732704,-0.08475524363463509,-0.5389803659937105,-0.3247776730204217,0.25828758036989374,-3.078547806064618,0.6246662367135981,-0.000259699867455673,-8.64752389783031e-05,-1.543745934844964e-05,-0.02635833509999925,0.0017643794702592317,-0.005108887513192626,0.00017060896780148364,0.32693231105804443,-1.1493246418288727,1.6634519735919397,-2.083149572412008,-1.5713933149920862,2.3018569946289062,1.7019330368610633e-40,0.03127969801425934,0.028422582894563675,-0.05429714918136597,-9.709990990813822e-05,-0.00018463796004652977,-0.05746084079146385,0.038307227194309235,-9.174580574035645,0.7933669090270996,47.72092056274414,-0.48251575231552124,-3.422513484954834,-1.5717296600341797,-0.821403980255127,0.0066177621483802795,-0.3197636008262634,25.5625,26.375,25.5,28.5625,29.875,30.5
1.0,-1.3916442941536138,-0.999267455143986,-0.7111352364981713,-0.04968696864734157,0.021033422110373984,-0.07445051406645004,-0.5389930945394412,-0.3247689418065943,0.258253498810744,-3.078589063485503,0.624655820455513,-0.00023130427892944732,-0.0006617986074414416,-0.00021175741093823155,-0.02761317714790685,0.0018560017892644725,-0.005403831676970372,0.0001640992563196516,0.3269083499908447,-1.1492757362178345,1.6634882132159632,-2.0832697353758753,-1.571369473134176,2.301821231842041,2.282715198385127e-42,0.03402015194296837,0.027874039486050606,-0.05618032440543175,-9.504894114797935e-05,-0.00017853273311629891,-0.019153613597154617,0.05746084079146385,-9.136273384094238,0.7284641265869141,47.71733474731445,-0.40528249740600586,-3.6350817680358887,-1.6040055751800537,-0.8505110740661621,-0.0031231949105858803,-0.3332979679107666,25.5625,26.375,25.5,28.5625,29.875,30.5
1.0,-0.786828666080051,-0.7599885762970842,-0.7879333123425445,-0.05434799248386489,0.03219081739241161,-0.07966333057180043,-0.5389774189342317,-0.3247713280316678,0.2581738602955007,-3.0785606475602534,0.6246500905930505,-0.00030965943060633455,-0.0009926348024255451,-0.0003248972367627738,-0.027229964338945204,0.00021249312925038642,-0.0006000296932756416,0.0001561570435522635,0.3269202709197998,-1.1492037338069458,1.663595978413717,-2.0833918056883753,-1.571369473134176,2.301833152770996,3.0828566215145976e-44,0.033853866159915924,0.028487958014011383,-0.061705127358436584,-9.308273729402572e-05,-0.0001728181232465431,0.07661445438861847,0.07661445438861847,-9.059659004211426,0.7306999564170837,47.71733474731445,-0.42184293270111084,-3.5441040992736816,-1.4691357612609863,-0.822738766670227,0.0006631957949139178,-0.32053178548812866,25.5625,26.375,25.5,28.5625,29.875,30.5
1.0,-1.3571643596026195,-0.7877302521982489,-0.801775668694319,-0.04796086289369856,0.01804426692370444,-0.07916419713901869,-0.5389885555631493,-0.32477386934610303,0.2581201574684041,-3.0785658872653037,0.624632087596035,-0.00026907914091028944,-0.0003312834467869771,-9.934955306331148e-05,-0.027889548960317385,-4.4376306263277024e-05,0.00014961306672690595,0.00014965543897408682,0.3269202709197998,-1.1491199892810364,1.6636336485492151,-2.083536287347311,-1.5713813940631312,2.301821231842041,0.0,0.033119942992925644,0.03175964578986168,-0.06503532826900482,-9.119628521148115e-05,-0.00016745868197176605,-0.038307227194309235,0.019153613597154617,-9.174580574035645,0.7620334029197693,47.70838165283203,-0.47095173597335815,-3.590503454208374,-1.5595238208770752,-0.7695183753967285,-0.006288344971835613,-0.3117889165878296,25.5625,26.375,25.5,28.5625,29.875,30.5
1.0,-1.3407655979386954,-0.8693614026820378,-0.6890052831827638,-0.052268681180953847,0.021694792329727628,-0.07709169419991059,-0.5389836595363782,-0.32477469214010773,0.25806931128560917,-3.078587339548049,0.6246938972269327,-0.00025419940467007494,-0.0004253497591713983,-0.00013163392851867455,-0.027864693971079955,-0.0007401724845246872,0.00217964470500067,0.00014355807130616907,0.3269202709197998,-1.149072067146637,1.6637175718890589,-2.0836931667723597,-1.571357552205221,2.3018569946289062,0.0,0.03311324864625931,0.03232640027999878,-0.06774134933948517,-8.938484825193882e-05,-0.00016242095443885773,0.019153613597154617,0.019153613597154617,-9.193734169006348,0.7262282371520996,47.71017074584961,-0.43565040826797485,-3.507394313812256,-1.658342957496643,-0.7673550844192505,0.004715087357908487,-0.31194132566452026,25.5625,26.375,25.5,28.5625,29.875,30.5
1.0,-0.6761135420830301,-1.0342975443065217,-0.8200321172191837,-0.045812599110248806,0.03274317762521049,-0.07904900405873894,-0.5389875300916986,-0.3247813267763819,0.25800958919194233,-3.078568025781071,0.624689783752976,-0.00023370422528039457,-0.0012531047503555452,-0.0004142124630973631,-0.028102436550623555,-0.002292309895705172,0.006703257365976971,0.0001365497731617109,0.32693231105804443,-1.1489874881557007,1.6637652556048792,-2.0838266811766566,-1.5713813940631312,2.3018689155578613,0.0,0.03477282449603081,0.03191622346639633,-0.07377323508262634,-8.764387894188985e-05,-0.00015767817967571318,0.15322890877723694,0.07661445438861847,-9.251194953918457,0.7486078143119812,47.72270965576172,-0.4528009593486786,-3.573734998703003,-1.5516018867492676,-0.7360087633132935,-0.023275652900338173,-0.32368719577789307,25.5625,26.375,25.5,28.5625,29.875,30.5
1.0,-0.9135229907741524,-0.876910883310015,-0.8623492850963217,-0.050710892144304555,0.024651415154341327,-0.0717893795112452,-0.5389962003432462,-0.32478553095316864,0.2579798136217392,-3.078629107325526,0.6246258806100125,-0.00014463825618968952,-0.001502279160289864,-0.0004994188360926433,-0.027973505295003254,-0.0032933006940895925,0.00962572889732462,0.00013066045588498628,0.32693231105804443,-1.148939625625946,1.6638014952289026,-2.0839835606017054,-1.571369473134176,2.301821231842041,0.0,0.034896209836006165,0.03225565329194069,-0.07732519507408142,-8.596941188443452e-05,-0.00015320444072131068,0.07661445438861847,0.05746084079146385,-9.21288776397705,0.7777001857757568,47.703006744384766,-0.44276511669158936,-3.581221103668213,-1.5755283832550049,-0.6630922555923462,-0.0073525067418813705,-0.3087342083454132,25.5625,26.375,25.5,28.5625,29.875,30.5
1.0,-1.5589424260546052,-1.3526873106119988,-0.8707937416555107,-0.043618544330250884,0.008393900280330983,-0.06975710196006327,-0.5390038304077429,-0.32477901019348676,0.2579040982164831,-3.0785941251253433,0.6247146298815055,-0.0001529580886341077,-0.0013721454292577307,-0.0003275967550588425,-0.02956274080104346,-0.002698006972240535,0.007866603889356082,-6.970846548568142e-05,0.32692021131515503,-1.1488431853106995,1.6638739744769495,-2.084139486352438,-1.5713813940631312,2.3018689155578613,-0.00019597477512434125,0.036498840898275375,0.03395324572920799,-0.0787683054804802,-8.435781637672335e-05,-0.0001489774149376899,0.07661445438861847,0.038307227194309235,-9.27034854888916,0.6948947906494141,47.72002029418945,-0.48549532890319824,-3.5920872688293457,-1.623555064201355,-0.6384832262992859,0.006207649130374193,-0.3069497346878052,25.5625,26.375,25.5,28.5625,29.875,30.5
1.0,-1.1583412873650465,-1.0344606942741579,-0.9208237416203402,-0.05193754491736736,0.014868887074703976,-0.07149903466136806,-0.5389953528130667,-0.3247798583556719,0.2578309328484114,-3.0786150488594566,0.6246808042656734,-0.00022776799941852057,-0.0015812759553680722,-0.0004016532543835785,-0.029904434274569118,-0.003480033107210078,0.01014472811927562,-7.110218974343949e-05,0.32692021131515503,-1.1487709444812317,1.6639693419085901,-2.0842730007567347,-1.571345631276266,2.301845073699951,-0.00019198731752112508,0.03715145215392113,0.03467628359794617,-0.08255255967378616,-8.280544716399163e-05,-0.00014497734082397074,0.07661445438861847,0.038307227194309235,-9.21288776397705,0.7217512726783752,47.7191276550293,-0.43429678678512573,-3.7264981269836426,-1.611283540725708,-0.5805517435073853,-0.005223425105214119,-0.3051842451095581,25.5625,26.375,25.5,28.5625,29.875,30.5
1.0,-1.2590196765703792,-1.4864474894884538,-1.1225536066323765,-0.03937773954878612,0.008432344965902856,-0.0671270594822164,-0.5389836612610643,-0.3247864100202185,0.25777702913946254,-3.0786000169027754,0.6246393729435495,-0.0001415492453290882,-0.0017812528775275926,-0.00045235735919480727,-0.028721315122426684,-0.004677590874499761,0.01365275528439046,-0.00010351023222750138,0.32694414258003235,-1.1487232011607666,1.6640656630145472,-2.0844527683653773,-1.5713933149920862,2.301845073699951,-0.00021952726820018142,0.035871218889951706,0.03422841802239418,-0.0845312774181366,-8.130925561999902e-05,-0.00014118687249720097,0.05746084079146385,0.09576806426048279,-9.308655738830566,0.7172743082046509,47.660911560058594,-0.4648212194442749,-3.6907191276550293,-1.6685645580291748,-0.5522927641868591,-0.00044422573409974575,-0.3150710463523865,25.5625,26.375,25.5,28.5625,29.875,30.5
1.0,-0.7991329208983269,-1.266651984597984,-1.030165359142629,-0.04449656355230633,0.02096125212164933,-0.07292228736620322,-0.5390046807730428,-0.32478302593945557,0.25772997311896734,-3.0786480951038837,0.6247067825321029,-0.00012804483254792292,-0.0015003117373126311,-0.00036125087632882073,-0.029012751718757352,-0.0046553367008654,0.01358556593330767,-0.0001001865232528944,0.32692021131515503,-1.148639665251114,1.664088551198141,-2.084597250024313,-1.571345631276266,2.3018569946289062,-0.00021231462596915662,0.035618532449007034,0.03544427827000618,-0.08542367070913315,-7.986619311850518e-05,-0.00013758905697613955,0.07661445438861847,0.15322890877723694,-9.27034854888916,0.7374180555343628,47.73972702026367,-0.48467057943344116,-3.504457950592041,-1.6116032600402832,-0.5060508251190186,-0.005044184625148773,-0.30230292677879333,25.5625,26.375,25.5,28.5625,29.875,30.5
1.0,-0.48122840923640664,-1.0924339122360254,-1.018588198698306,-0.044338562865422954,0.01872067789676015,-0.08443984394115725,-0.5390056788607251,-0.32476408928108585,0.25763493969469836,-3.0785837385053325,0.6247701701931224,-0.00015305005436949662,-0.0014921546689962686,-0.0003440185643503303,-0.030886063694530976,-0.003258292494033168,0.00947523647546439,-0.00012460606912265812,0.3268963396549225,-1.1485426884940644,1.6642091909991663,-2.084775587121481,-1.5713813940631312,2.3018808364868164,-0.0002343297965126112,0.03816450387239456,0.03582729026675224,-0.08401139825582504,-7.847337838029489e-05,-0.00013417020090855658,0.17238251864910126,0.15322890877723694,-9.251194953918457,0.7486078143119812,47.70658874511719,-0.45162099599838257,-3.5999584197998047,-1.6135847568511963,-0.5122922658920288,0.0007581965764984488,-0.3026513457298279,25.5625,26.375,25.5,28.5625,29.875,30.5
1.0,-0.4331553566423177,-0.5443129323423996,-0.9420371671587179,-0.05030618415541611,0.011657088868090217,-0.08649723036436448,-0.5390064471945821,-0.3247928564331675,0.25758636980130684,-3.0786245850985665,0.6246445770974807,-3.768487641514897e-05,-0.0013127290329633813,-0.0002860681111224021,-0.031008103212440935,-0.0028003230089904,0.008130534525113737,-0.0001225760903345437,0.32694414258003235,-1.1484586757472535,1.6642454306231897,-2.0849667988219203,-1.5714057127581995,2.301845073699951,-0.00022960716160014272,0.03805392235517502,0.03593859449028969,-0.08259157836437225,-7.712843216722831e-05,-0.00013091717846691608,0.13407529890537262,0.15322890877723694,-9.327810287475586,0.7083203792572021,47.73793411254883,-0.4473048746585846,-3.737828254699707,-1.6987793445587158,-0.5030706524848938,-0.010932743549346924,-0.2959821820259094,25.5625,26.375,25.5,28.5625,29.875,30.5
1.0,-0.4144752883720991,-0.8769071851998474,-0.9019070062229546,-0.0397152845842061,0.004733779899859236,-0.08057837157644772,-0.5390155014652357,-0.32477391685537593,0.25750195792726427,-3.078615272822023,0.6246811848835649,-8.196504796933303e-05,-0.0006381112784256654,9.793111596879458e-05,-0.03261973830075326,-0.00014401058097333443,0.0003434399346580513,-0.0003624910985623532,0.326872318983078,-1.1483146411231537,1.664389435444967,-2.0852629146971644,-1.571357552205221,2.3018689155578613,-0.0004663313156925142,0.039045047014951706,0.03676825389266014,-0.07618466764688492,-7.45720972190611e-05,-0.00012486270861700177,0.13407529890537262,0.15322890877723694,-9.232041358947754,0.7038487195968628,47.70838165283203,-0.4693295657634735,-3.713644504547119,-1.614013671875,-0.5634437203407288,0.007801837287843227,-0.30294206738471985,25.5625,26.375,25.5,28.5625,29.875,30.5
1.0,-0.31510857969392403,-0.5836049657797101,-1.0600725036400398,-0.0362351558144681,-0.006187995815513737,-0.08122321444445287,-0.5390129966257247,-0.32477298544738853,0.257373762373141,-3.078602577210799,0.6247362000994198,-8.714115690125021e-05,-0.00029475118070097724,0.00024969780359719866,-0.0329616164219955,0.0004904426241562604,-0.0015156679885429223,-0.0004181374304337107,0.3269081711769104,-1.1482185882380982,1.6644976774798792,-2.0854302845396937,-1.5713933149920862,2.3018689155578613,-0.0005197837599553168,0.03884755074977875,0.037499431520700455,-0.07475396990776062,-7.335643749684095e-05,-0.00012204064114484936,0.13407528400421143,0.038307227194309235,-9.251194953918457,0.7060845494270325,47.730770111083984,-0.4600212574005127,-3.641413688659668,-1.6341848373413086,-0.5663265585899353,-0.009367888793349266,-0.30602365732192993,25.5625,26.375,25.5,28.5625,29.875,30.5
1.0,-0.4565846893321513,-0.9417311449354699,-0.843396403361732,-0.032198185734839416,-0.004424991150557463,-0.07979943867898007,-0.539007444513555,-0.32476581679265154,0.25730786998102523,-3.078618446645371,0.6247013682774667,-0.00013863576544546858,-0.00024049304695081326,0.00029386217041941506,-0.033781649419648306,0.0012184134531041813,-0.003657206492729326,-0.00045973783208786437,0.32689622044563293,-1.1481584471515198,1.6645930449115198,-2.0855618915953578,-1.571369473134176,2.301833152770996,-0.0005592916859313846,0.03986840322613716,0.03770499303936958,-0.07371849566698074,-7.217978418339044e-05,-0.00011934340000152588,0.2106897532939911,0.038307227194309235,-9.308656692504883,0.7441308498382568,47.71554183959961,-0.48618876934051514,-3.6927337646484375,-1.6501586437225342,-0.580776035785675,0.006157504394650459,-0.3094736933708191,25.5625,26.375,25.5,28.5625,29.875,30.5
1.0,-0.2938110295104662,-1.1121428395112942,-0.9531231494192912,-0.03542054705370319,0.003740201071682157,-0.07900139476700274,-0.5390219922777382,-0.32477602047769344,0.2572735956847956,-3.0786261346664396,0.6247411720959642,-2.357632612561804e-05,-9.79748263096049e-05,0.0003630234033342011,-0.0341709735173018,0.0015410996351104824,-0.004568403574482626,-0.0004918321874601776,0.326908141374588,-1.1480863851359864,1.664605442677633,-2.085717340508932,-1.5713933149920862,2.3018689155578613,-0.0005889935418963432,0.04008220508694649,0.038241516798734665,-0.07350222021341324,-8.33911108202301e-05,-0.0001167627633549273,0.13407529890537262,0.05746084079146385,-9.27034854888916,0.7239871025085449,47.72270965576172,-0.49801668524742126,-3.6084117889404297,-1.6047077178955078,-0.6104564070701599,0.0022418005391955376,-0.3049079179763794,25.5625,26.375,25.5,28.5625,29.875,30.5
1.0,-0.7916118752569876,-0.7593095121423756,-0.8378765254470933,-0.04252430416983525,-0.012169873955131728,-0.07626346291599881,-0.5390147664037163,-0.3247812893091848,0.2571878326406051,-3.0786157648997605,0.6247009127394144,-7.309841490881696e-05,0.0003308353303572153,0.0005228419836485541,-0.03483893970576337,0.0023371162445647896,-0.006897060073731208,-0.0005142593023555484,0.3269200623035431,-1.1479903918555756,1.664701286946432,-2.085872789422506,-1.5713933149920862,2.3018569946289062,-0.0006095957360230386,0.04014630988240242,0.039388492703437805,-0.07225234806537628,-8.380224608117715e-05,-0.00011429157166276127,0.24899697303771973,0.019153613597154617,-9.193734169006348,0.7105615139007568,47.681514739990234,-0.49445950984954834,-3.6703200340270996,-1.677309274673462,-0.629353404045105,0.01806274801492691,-0.2970835864543915,25.5625,26.375,25.5,28.5625,29.875,30.5
1.0,-0.15053069938432218,-0.41389595209419133,-0.9240893938882928,-0.04413280769034865,0.0013857360081266819,-0.08046725841555544,-0.5390256309626171,-0.3247694947142325,0.2571310441854336,-3.078617303621962,0.6247203975491891,-5.9231557559500674e-05,0.00043270475774137226,0.0005317456437747919,-0.03562804400568899,0.0030948459322141337,-0.009125557112831046,-0.00047623424700722085,0.32689622044563293,-1.147918240433075,1.6647618452655237,-2.086015840569967,-1.5713933149920862,2.301845073699951,-0.0005698629538528621,0.04109076410531998,0.03959047421813011,-0.07104498893022537,-8.263129711849615e-05,-0.00011192245437996462,0.24899697303771973,0.019153613597154617,-9.136273384094238,0.7150384783744812,47.68330383300781,-0.4807664155960083,-3.6485977172851562,-1.6486879587173462,-0.66391521692276,-0.0030005681328475475,-0.3206064701080322,25.5625,26.375,25.5,28.5625,29.875,30.5
1.0,-0.00674055028827511,-0.3346482564775348,-0.823773694464264,-0.04116882938366126,-0.002962993073504231,-0.08231880099787323,-0.5390029383827762,-0.32477844507700004,0.25704706293353063,-3.0786011467440173,0.6246981775880026,-0.0001512292514970919,0.0008619776604185545,0.0007750823765449858,-0.03561960815250362,0.0035706204078224343,-0.010514476195927984,-0.0006272383261518346,0.3269200026988983,-1.1478465062430878,1.664882008229391,-2.086146970788473,-1.5713813940631312,2.3018569946289062,-0.0007191485492512584,0.040187232196331024,0.0405074767768383,-0.06959031522274017,-8.13929655123502e-05,-0.00010964973625959828,0.2298433631658554,-0.019153613597154617,-9.21288776397705,0.7105615139007568,47.75226593017578,-0.5332707166671753,-3.688990592956543,-1.6790335178375244,-0.7042334079742432,0.003244155552238226,-0.3054419755935669,25.5625,26.375,25.5,28.5625,29.875,30.5
1.0,-0.24617134224172166,-0.3527144044191158,-0.7646633132529151,-0.033791208796045455,-0.017042457731563657,-0.08112016243962243,-0.5390166058376191,-0.324766372881205,0.25696752750892415,-3.0785662433561978,0.6247292720193974,-0.00019020301051752707,0.0007528939855129739,0.0007311355767407854,-0.03608247440554628,0.003420308516067993,-0.01008500098208925,-0.0006196923855987676,0.32689619064331055,-1.14773844302211,1.6649416128741663,-2.0862790546812953,-1.5713933149920862,2.3018569946289062,-0.0007089261198416352,0.04094429686665535,0.04085706174373627,-0.0711519718170166,-8.01848727860488e-05,-0.00010746766929514706,0.2106897532939911,0.019153613597154617,-9.193734169006348,0.7306999564170837,47.71375274658203,-0.4574646055698395,-3.6364331245422363,-1.7028652429580688,-0.7246881127357483,-0.007748546544462442,-0.31758439540863037,25.5625,26.375,25.5,28.5625,29.875,30.5
1.0,0.06126013087658977,-0.73897812236916,-0.7652868006287956,-0.02577046965415908,-0.007419695766603816,-0.08237563347888953,-0.5390134742712673,-0.32476399583360815,0.25691052094888456,-3.078549269592805,0.6247258446056486,-0.00019860622982279395,0.0012776207827278356,0.0008786202165021324,-0.036746097625071306,0.004465041910269177,-0.013145908389804999,-0.0005723100327087162,0.32689619064331055,-1.147678331737854,1.6650140921222132,-2.086398263970846,-1.5714057127581995,2.3018569946289062,-0.0006604661466553807,0.04090886190533638,0.041915323585271835,-0.06894051283597946,-7.901164644863456e-05,-0.00010537044727243483,0.3064578175544739,0.0,-9.193734169006348,0.7016075849533081,47.745994567871094,-0.530420184135437,-3.6161365509033203,-1.7439548969268799,-0.766423225402832,-0.001781803322955966,-0.29908686876296997,25.5625,26.375,25.5,28.5625,29.875,30.5
1.0,0.48701117102293967,-0.0048412821527392125,-0.7064636771924896,-0.04586205612847047,0.003315773906330508,-0.0889893238306802,-0.5390072357665817,-0.3247669246508686,0.25681322169629683,-3.0785547420280617,0.6247851695970098,-0.0003031259455052697,0.001424738787365088,0.0008832425362439541,-0.03708540119577355,0.004390223412914447,-0.012902031007773802,-0.000503164523444352,0.32689622044563293,-1.1475705069354554,1.6651223341571253,-2.0865656338133753,-1.571357552205221,2.3018932342529297,-0.000588907627388835,0.04103010147809982,0.04280751198530197,-0.07020889222621918,-8.75103214639239e-05,-0.00010335373372072354,0.2106897532939911,-0.038307227194309235,-9.136273384094238,0.7239871025085449,47.72629165649414,-0.4821619689464569,-3.66526198387146,-1.7188291549682617,-0.8032529354095459,-0.004860167857259512,-0.3034290075302124,25.5625,26.375,25.5,28.5625,29.875,30.5
1.0,-0.7099345327470545,-1.0115988055696112,-0.9291776569404676,-0.039510718437799124,-0.005376137988095959,-0.07503227637514846,-0.5390125509704078,-0.3247764802237434,0.25678510955240197,-3.0785945345941186,0.6247161290158444,-0.00023572220977352768,0.0011197088620260019,0.0007984726547855305,-0.03757557264771346,0.0035299873198102846,-0.010386462368352263,-0.0005359279377550916,0.326908141374588,-1.1475220781615754,1.6651461760150355,-2.0866877041258753,-1.571357552205221,2.3018569946289062,-0.0006181536591611803,0.04201638326048851,0.04353326931595802,-0.07457951456308365,-8.934131619753316e-05,-0.00010141263919649646,0.19153612852096558,0.07661445438861847,-9.21288776397705,0.7105615139007568,47.703006744384766,-0.5286385416984558,-3.6070029735565186,-1.8237334489822388,-0.7975407838821411,-0.007703222334384918,-0.3081974983215332,25.5625,26.375,25.5,28.5625,29.875,30.5
1.0,-1.0811730026837023,-1.2064466165866388,-0.7761649345574242,-0.058287326237319394,0.008718194198952513,-0.07380386360803981,-0.5389913190343032,-0.3247654509828537,0.2566809754957647,-3.0785125770731643,0.6246612515766871,-0.00037002289631644204,0.0010643155890623017,0.0007901996743510892,-0.03732159814687425,0.003323132846999702,-0.009782687383727276,-0.0005545535278793165,0.3269081115722656,-1.1474383932403107,1.6652901808368128,-2.0867954693236292,-1.5713933149920862,2.301833152770996,-0.0006347667658701539,0.04179014638066292,0.04332408681511879,-0.07478232681751251,-8.828985301079229e-05,-9.95431691990234e-05,0.26815059781074524,0.09576806426048279,-9.251194953918457,0.7821771502494812,47.73793411254883,-0.5222750902175903,-3.624546527862549,-1.7680526971817017,-0.8328449130058289,0.006625269539654255,-0.3037389814853668,25.5625,26.375,25.5,28.5625,29.875,30.5
1.0,-0.990060229539372,-1.550283406955045,-0.85667143759934,-0.06147075887468771,0.02603905896887399,-0.07156276186733675,-0.5390037573707623,-0.32476195677414815,0.2566043309262065,-3.0785088132047327,0.6246796183279334,-0.0003709672728821851,0.0012607487579232859,0.0008291307823654317,-0.03875388878876614,0.003272806793892498,-0.009650174057369341,-0.0005141333713164233,0.32689622044563293,-1.1473300916007538,1.6653512159930628,-2.086964269677633,-1.5713933149920862,2.301833152770996,-0.0005914475186727941,0.04307073727250099,0.04563594236969948,-0.07851643860340118,-8.708262612344697e-05,-9.774136560736224e-05,0.19153612852096558,0.1149216815829277,-9.251194953918457,0.7687462568283081,47.743309020996094,-0.49762415885925293,-3.583364486694336,-1.7872834205627441,-0.8252773284912109,-0.01477300189435482,-0.310722678899765,25.5625,26.375,25.5,28.5625,29.875,30.5
1.0,-0.9371294680760518,-1.3925897484209293,-0.9103504034614498,-0.07106178612421145,0.03783660571634179,-0.07877999234600316,-0.5390002337413786,-0.32476199550548696,0.2565377775471745,-3.078498946452277,0.6247541290895596,-0.0003947613221399731,0.001259111734387541,0.000818636279617861,-0.03850391237549452,0.0020571995848846026,-0.006092976395063785,-0.0005026164002918197,0.32689622044563293,-1.1472581189921875,1.6654346624957483,-2.087109228173727,-1.5713813940631312,2.3018808364868164,-0.0005763937369920313,0.042476002126932144,0.04690529406070709,-0.08295022696256638,-8.589617937104777e-05,-9.60037941695191e-05,0.17238251864910126,0.2298433631658554,-9.136273384094238,0.7441308498382568,47.754947662353516,-0.5149898529052734,-3.5965523719787598,-1.9233192205429077,-0.8048586845397949,-0.015616551041603088,-0.3200593590736389,25.5625,26.375,25.5,28.5625,29.875,30.5
1.0,-0.8041700822621032,-1.0905349025497888,-0.9278447992028498,-0.0841714962837048,0.050470058650979005,-0.0915004370499828,-0.5389909227222284,-0.32476782066124443,0.25643861263716355,-3.078507981213474,0.6246796026140332,-0.00044870212748630216,0.00018315345030651771,0.00041285665926466507,-0.037517378594110876,1.2391237391750499e-05,-8.227135504671655e-05,-0.00044547370654133834,0.3269081711769104,-1.147150145178177,1.6655529181109827,-2.0873028240599574,-1.571369473134176,2.301845073699951,-0.0005154012469574809,0.0431600883603096,0.04483821243047714,-0.08791621029376984,-9.604541264707223e-05,-9.432667138753459e-05,0.15322890877723694,0.2298433631658554,-9.289502143859863,0.7083203792572021,47.72987747192383,-0.5346636772155762,-3.5429439544677734,-1.7890020608901978,-0.778063178062439,-0.009246882051229477,-0.3089885413646698,25.5625,26.375,25.5,28.5625,29.875,30.5
1.0,-1.1314669836135005,-1.6157803303795415,-1.0446759845770186,-0.06651609729867848,0.039512713188687806,-0.07779444642864461,-0.5389797561896759,-0.3247745390759963,0.2563765584617749,-3.078482584661196,0.6246550672028206,-0.0003793321066865869,0.0004243471251683455,0.0004607676250610514,-0.03789776292046832,-0.0006862666339813734,0.0019608398369161317,-0.00039564448437123367,0.3269321620464325,-1.1470901829055329,1.6656511465655726,-2.0874840221800746,-1.5714176336871546,2.3018569946289062,-0.00046247075079008937,0.04294368997216225,0.0469188317656517,-0.09193970263004303,-9.550905087962747e-05,-9.270727605326101e-05,-0.019153613597154617,0.19153612852096558,-9.232041358947754,0.7083203792572021,47.69853210449219,-0.5610620975494385,-3.610649585723877,-1.8501832485198975,-0.7345482110977173,-0.021016070619225502,-0.30608803033828735,25.5625,26.375,25.5,28.5625,29.875,30.5
1.0,-1.030668796636549,-1.564073457335886,-1.0648157579573283,-0.06762137211925805,0.0421464379211724,-0.07978941040323657,-0.5389855101203378,-0.3247684552445353,0.2563033928418038,-3.0785564590501258,0.6246705893203335,-0.0004013508343294033,-5.4288411437361075e-06,0.00033969634751279654,-0.03801221127776136,-0.002196074895312655,0.006369885771386644,-0.00043905583829225375,0.3269081711769104,-1.147006170158722,1.6657465139972132,-2.08768953899526,-1.571345631276266,2.301833152770996,-0.00050198077224195,0.04358961433172226,0.04764643311500549,-0.09797360748052597,-9.430614591110498e-05,-9.114260319620371e-05,-0.019153613597154617,0.26815059781074524,-9.385271072387695,0.8202234506607056,47.72718811035156,-0.5517104268074036,-3.4804000854492188,-1.869667410850525,-0.65631103515625,-0.017378222197294235,-0.3152744174003601,25.5625,26.375,25.5,28.5625,29.875,30.5
1.0,-1.365509935177461,-1.3843306931359827,-1.1316591302726822,-0.07212071075568484,0.037397668564681893,-0.07575696149533583,-0.53897943713666,-0.3247703739612681,0.2561409429058287,-3.078545240427082,0.6246683788519747,-0.0003222930630046094,-0.0005998826822839325,8.593508835815721e-05,-0.03719173187358934,-0.004619117439818419,0.013453572052104412,-0.00036732201777882773,0.32692012190818787,-1.1468263429454346,1.6659625212298792,-2.0881229839720667,-1.5713813940631312,2.301845073699951,-0.0004241391143295914,0.04335165023803711,0.047799576073884964,-0.10537543147802353,-9.190197306452319e-05,-8.816646732157096e-05,-0.09576806426048279,0.2298433631658554,-9.423578262329102,0.7620334029197693,47.737037658691406,-0.5918030142784119,-3.4663162231445312,-1.9547806978225708,-0.5618747472763062,-0.009039640426635742,-0.29555803537368774,25.5625,26.375,25.5,28.5625,29.875,30.5
1.0,-0.8519253431672363,-1.2243371828883198,-1.1651694710403164,-0.06770546346048456,0.05166940975361739,-0.07853386935099808,-0.5389911366897961,-0.32476011474692695,0.25607680488120643,-3.0785471468689733,0.6247070695490914,-0.0003343716992602356,-0.0008229485793374631,-1.0224352286008249e-05,-0.03818508358262773,-0.0037717144205326224,0.010957557288980208,-0.00033702862158384414,0.3268962800502777,-1.146741585140564,1.6660221258746546,-2.0882655582823695,-1.571369473134176,2.301845073699951,-0.0003932442341465503,0.045263323932886124,0.04705656319856644,-0.10390815138816833,-9.07437497517094e-05,-8.674993296153843e-05,0.0,0.19153612852096558,-9.404424667358398,0.6926589012145996,47.71196365356445,-0.5115956664085388,-3.5926289558410645,-1.8036165237426758,-0.5593310594558716,-0.008923397399485111,-0.3037005662918091,25.5625,26.375,25.5,28.5625,29.875,30.5
1.0,-0.8286574821904723,-0.7002405185198857,-1.1462220051387533,-0.0650878194348826,0.033184350475898496,-0.08240817266650333,-0.5390050990063066,-0.3247349742925651,0.25597196463142535,-3.0785486105014472,0.624784323352701,-0.0003273411616554684,-6.408607027136452e-05,0.00026926234499305754,-0.03833506424980461,-0.003152067104580888,0.009151158888322845,-0.0003697117353171181,0.3268483579158783,-1.1466223460486908,1.6661532560931605,-2.0885282955565394,-1.571357552205221,2.301845073699951,-0.00042509951163083315,0.04395926743745804,0.048918526619672775,-0.10255634039640427,-8.96143465070054e-05,-8.537842222722247e-05,0.019153613597154617,0.19153612852096558,-9.366117477416992,0.6904177665710449,47.72808074951172,-0.5757524371147156,-3.4717626571655273,-1.9358164072036743,-0.5472620129585266,-0.004925296641886234,-0.3062591552734375,25.5625,26.375,25.5,28.5625,29.875,30.5
1.0,-0.4990867413078385,-0.7598397574323781,-1.231868933503195,-0.04264915802451002,0.023767375338897917,-0.07712438942532247,-0.5390025755519758,-0.32475499823360965,0.2559213640453962,-3.0785634092619847,0.6247869973244761,-0.0002134130287233396,0.00025845640578578427,0.00036300069894095284,-0.03733567767309736,-0.0029286294609111286,0.008506352971546057,-0.00034550022752282794,0.32688435912132263,-1.1465508800796052,1.6662142912494105,-2.0887309513487757,-1.5713813940631312,2.3018808364868164,-0.0004004143993370235,0.04217571020126343,0.04848570004105568,-0.09965755045413971,-8.851272286847234e-05,-8.404950494877994e-05,0.038307227194309235,0.09576806426048279,-9.366117477416992,0.7127973437309265,47.74509811401367,-0.6232235431671143,-3.339832305908203,-1.926141619682312,-0.5618883371353149,-0.0228592436760664,-0.29466742277145386,25.5625,26.375,25.5,28.5625,29.875,30.5
1.0,-0.5674745370371032,-0.8758246069301198,-1.1098769946928302,-0.016068979527666966,0.0015364365382911612,-0.06834022133333464,-0.5389846210186767,-0.32476434993966535,0.2558144479693204,-3.078540639924031,0.6247442253974015,-0.00029697063661629887,0.0004076732973959605,0.0004292787970250372,-0.03917917559586557,-0.001151620562071527,0.0032853541562602832,-0.0003686518892542847,0.3269082009792328,-1.1464421910098572,1.6663458983050745,-2.088909765283102,-1.5713813940631312,2.3018808364868164,-0.000423876044806093,0.04449889808893204,0.048778146505355835,-0.09675806015729904,-8.743779471842572e-05,-8.276132575701922e-05,0.1149216815829277,0.1149216815829277,-9.385271072387695,0.7374180555343628,47.72092056274414,-0.5781709551811218,-3.381798028945923,-1.873169183731079,-0.6090066432952881,-0.008793882094323635,-0.29989513754844666,25.5625,26.375,25.5,28.5625,29.875,30.5
1.0,0.07708955381677544,0.19646322224019416,-0.9165173619922644,-0.029370524571150622,-0.00041408302291636237,-0.08422173813900764,-0.5389800963029364,-0.32477304228102905,0.25573948322991885,-3.0785918921045132,0.6247166010988486,-0.0002517523024150906,0.0005287453352446051,0.0004589118437902315,-0.03986160861361282,-0.0001298539244117507,0.00028622244904883754,-0.00035082670288127797,0.32692012190818787,-1.1463580590537568,1.666452709828512,-2.0891481838622035,-1.571357552205221,2.3018689155578613,-0.0004059456696268171,0.04534198343753815,0.048585426062345505,-0.09424001723527908,-8.6388667114079e-05,-8.151217480190098e-05,0.07661445438861847,0.07661445438861847,-9.366117477416992,0.8224645853042603,47.7164421081543,-0.5763716697692871,-3.4038872718811035,-1.856598138809204,-0.6464102268218994,-0.012734003365039825,-0.2956375777721405,25.5625,26.375,25.5,28.5625,29.875,30.5
1.0,0.12798627074997904,0.1329432172124816,-0.9106865741284658,-0.018437915555369222,-0.003041475589276467,-0.08159938540118906,-0.5390017214479461,-0.324755924389675,0.2556912971429011,-3.0786028450044207,0.6247571028808477,-0.00016486121822174924,0.000574365995625184,0.0004628864531004392,-0.040644901677057074,0.0008571203101357285,-0.002613159646272747,-0.000333197747337429,0.32688435912132263,-1.1462855798057099,1.6665013472186487,-2.0893265209593714,-1.571369473134176,2.3018569946289062,-0.00038816218147985637,0.04645182937383652,0.048312924802303314,-0.09201459586620331,-8.536450332030654e-05,-8.029992022784427e-05,0.09576806426048279,-0.09576806426048279,-9.366117477416992,0.7709873914718628,47.69673538208008,-0.5948768854141235,-3.483381748199463,-1.8154551982879639,-0.6721328496932983,-0.02326248586177826,-0.28445398807525635,25.5625,26.375,25.5,28.5625,29.875,30.5
1.0,-0.00040460694239263795,0.39220644574588875,-1.1212555198165992,-0.02295238628923834,-0.0077185964130858965,-0.08618546324737594,-0.5389968444593327,-0.3247697397754241,0.2555974784025881,-3.0785923995353768,0.6247168334080335,-0.00021474446598566724,0.0008949708869708297,0.0005853468442727726,-0.04059146761590686,0.0015071449299495605,-0.0044839593707384886,-0.0003521750290123649,0.3269082009792328,-1.146165983085968,1.6665852705584925,-2.0894934139647425,-1.571369473134176,2.3018569946289062,-0.0004068980924785137,0.045869823545217514,0.04846174269914627,-0.08960091322660446,-9.400690760230646e-05,-7.912341243354604e-05,0.15322890877723694,-0.13407529890537262,-9.308655738830566,0.6702793836593628,47.70658874511719,-0.5873546600341797,-3.45147705078125,-1.749267816543579,-0.7104055881500244,-0.015097908675670624,-0.3009296655654907,25.5625,26.375,25.5,28.5625,29.875,30.5
1.0,0.15356217477216766,-0.0026130237347208943,-1.1177516416698814,-0.02140741480595182,0.0027805010216100916,-0.0815380067573892,-0.5389903975757383,-0.32475078673097474,0.2555205947673902,-3.078561288679208,0.6247869897876368,-0.00022256385091406886,0.0012828105261247337,0.000741129674446059,-0.040724968820526584,0.0022706373856827924,-0.006716751098687292,-0.00038859985184402034,0.32688435912132263,-1.1461061102202912,1.6667168776141565,-2.0896722278990687,-1.5713813940631312,2.3018808364868164,-0.0004431481647770852,0.045382194221019745,0.04890851303935051,-0.0872003361582756,-9.34600830078125e-05,-7.798073056619614e-05,0.26815059781074524,-0.1149216815829277,-9.27034854888916,0.7597975730895996,47.71196365356445,-0.5933216214179993,-3.3265345096588135,-1.7840533256530762,-0.7717186212539673,-0.028029315173625946,-0.27532750368118286,25.5625,26.375,25.5,28.5625,29.875,30.5
1.0,-0.530827728891216,0.1555068827719228,-1.1547141962455454,-0.032646315094587215,-0.009688950646864689,-0.0789671185013201,-0.5389902467698499,-0.3247403280210953,0.25542282474824285,-3.078512650450653,0.6247964573269145,-0.0002706692637933104,0.0013125228743266584,0.0007808945191765134,-0.0425106059760582,0.00352819248199801,-0.010420521844435607,-0.00043443447992596175,0.3268722891807556,-1.1459973913482209,1.6668251196490687,-2.089839597741598,-1.5714057127581995,2.3018808364868164,-0.000488723220769316,0.04774295166134834,0.0494430735707283,-0.08618421852588654,-9.164841321762651e-05,-7.687071774853393e-05,0.26815059781074524,-0.19153612852096558,-9.404424667358398,0.7620334029197693,47.71196365356445,-0.5987017750740051,-3.467503070831299,-1.771437168121338,-0.8149369359016418,-0.009651431813836098,-0.28262007236480713,25.5625,26.375,25.5,28.5625,29.875,30.5
1.0,-0.29219553176622065,-0.22950709811362857,-1.0258446728747657,-0.026099979588648244,0.004456835125678484,-0.07274454305496361,-0.5389885394518804,-0.3247344004520254,0.25531745502384146,-3.078490417791648,0.6248313619510696,-0.0003870401852316232,0.0011718037884963907,0.0010553374093360212,-0.04220425689493518,0.0031710449882717644,-0.009377883611394447,-0.0009325618078711414,0.3268601596355438,-1.1458778244308014,1.6669328848468226,-2.0899955234923304,-1.5713813940631312,2.3018932342529297,-0.0009853781666606665,0.04726296290755272,0.04959862679243088,-0.08696189522743225,-8.982485451269895e-05,-7.579172233818099e-05,0.26815059781074524,-0.09576806426048279,-9.366117477416992,0.7172743082046509,47.73524856567383,-0.5527719855308533,-3.399191379547119,-1.7375421524047852,-0.8460614681243896,-0.017442364245653152,-0.28939521312713623,25.5625,26.375,25.5,28.5625,29.875,30.5
1.0,-0.5160820504247465,-0.6858208435228105,-1.103643580015907,-0.03298837475246881,0.011239613145289888,-0.07101658054553205,-0.5389695223102309,-0.3247434691795309,0.25522704066786395,-3.078494029208267,0.6247547994075778,-0.0004190892683801662,0.001001269161344806,0.00110011723712286,-0.04190116665634203,0.0025370830409636815,-0.007525606993791766,-0.0010931665720292937,0.32688412070274353,-1.1457937520793458,1.6670644919024866,-2.0901876888670863,-1.5713813940631312,2.3018689155578613,-0.0011441479437053204,0.04701367765665054,0.0496661402285099,-0.08873789012432098,-8.806733967503533e-05,-7.474274752894416e-05,0.19153612852096558,-0.05746084079146385,-9.404424667358398,0.7486078143119812,47.7191276550293,-0.5599099397659302,-3.4064559936523438,-1.777243733406067,-0.8555811643600464,-0.02627825364470482,-0.29044634103775024,25.5625,26.375,25.5,28.5625,29.875,30.5
1.0,-0.7250928789915727,-0.9750150285215209,-1.0837655206795642,-0.04275844945331855,0.01536421469377958,-0.08067035101841585,-0.5389856076985039,-0.3247411271680134,0.25518380909021626,-3.078528355773372,0.624742948337456,-0.00033574022018276623,0.0005351336517605361,0.0009185981152297322,-0.04171056181677765,0.0008468637334146117,-0.0025413711440054484,-0.0010598439495350335,0.3268720805644989,-1.1457218390754242,1.66710073152651,-2.0903574428954066,-1.5713813940631312,2.301845073699951,-0.001107387593947351,0.047377731651067734,0.050098344683647156,-0.09479714184999466,-0.00010138812649529427,-7.372228719759732e-05,0.2298433631658554,0.038307227194309235,-9.404424667358398,0.7351769208908081,47.71733474731445,-0.5517552495002747,-3.296980381011963,-1.7543439865112305,-0.8262001276016235,-0.030978459864854813,-0.2975231111049652,25.5625,26.375,25.5,28.5625,29.875,30.5
1.0,-1.459924392935969,-1.57135719857536,-1.2352587142611349,-0.045270671424831474,0.019370707907903496,-0.06929607698798364,-0.5389748178546769,-0.32475427331371404,0.25509921230777494,-3.07853423032249,0.6247057904829211,-0.0003779286938687913,0.00023877000512194493,0.0007534483454906491,-0.04117698885974473,-0.00031235813009170867,0.0008530673371036873,-0.0009637320615758647,0.326896071434021,-1.1456258457950135,1.667197052632467,-2.0905257664122523,-1.571369473134176,2.301845073699951,-0.0010088843991979957,0.04716738313436508,0.04990457743406296,-0.09797994792461395,-0.00010155228665098548,-7.272942457348108e-05,0.07661445438861847,0.15322890877723694,-9.404424667358398,0.7217512726783752,47.72002029418945,-0.6055912971496582,-3.328526496887207,-1.7106473445892334,-0.8384019136428833,-0.02341049164533615,-0.29201462864875793,25.5625,26.375,25.5,28.5625,29.875,30.5
1.0,-0.6546629919453287,-1.7162606893346972,-1.1409384610099995,-0.06329053593466308,0.060793520335038216,-0.08601070722726792,-0.5389784176239367,-0.3247231003103253,0.2550075197504902,-3.0784855416462737,0.624810963355562,-0.0004134715688403932,0.00023784103559785155,0.0007517425838753386,-0.042027084042633354,-0.0021613631475350327,0.006253582483206521,-0.0009662568826964585,0.3268481492996216,-1.1455417436412354,1.6673296133624476,-2.0907093487181605,-1.5713813940631312,2.3018689155578613,-0.0010068765841424465,0.04769832268357277,0.05328088253736496,-0.10759546607732773,-9.981056064134464e-05,-7.176276267273352e-05,0.1149216815829277,0.2298433631658554,-9.346963882446289,0.7799360156059265,47.72270965576172,-0.5727572441101074,-3.322445869445801,-1.8741343021392822,-0.7869914770126343,-0.011698713526129723,-0.3104386329650879,25.5625,26.375,25.5,28.5625,29.875,30.5
1.0,-1.6497723621794964,-2.082614817230506,-1.2495435311109144,-0.07418640520598249,0.046462388157861634,-0.08195013223221412,-0.5389739730240211,-0.3247371406877078,0.25492099523023515,-3.0785186063668575,0.6246838493505997,-0.00039523708920294424,-0.00081760301899111,0.0003769953251320086,-0.040969678110847174,-0.0038819403391880058,0.011323138590879862,-0.000944429602907436,0.3268721103668213,-1.1454337698272248,1.66742450395693,-2.0909258327879847,-1.5713813940631312,2.301809310913086,-0.000982456374913454,0.04831000044941902,0.05081871896982193,-0.1110985279083252,-0.00011220349551877007,-7.08216757629998e-05,0.05746084079146385,0.24899697303771973,-9.385271072387695,0.7060845494270325,47.7164421081543,-0.5876570343971252,-3.218475103378296,-1.7964320182800293,-0.7362267374992371,-0.03639752045273781,-0.3154398798942566,25.5625,26.375,25.5,28.5625,29.875,30.5
1.0,-1.5077036720484176,-2.3346680080894417,-1.3171308799590618,-0.08220937984159873,0.05929249927185258,-0.07875994201040723,-0.5389504096146169,-0.32473437785963155,0.2548072359439909,-3.0784556104369276,0.6247090353280026,-0.0004725946478805346,-0.001238248455311003,0.00021765929308172665,-0.04050439633478545,-0.005515176235067051,0.016102037520577404,-0.000923292114778856,0.3268841803073883,-1.145337776546814,1.6675928274737757,-2.091118951837057,-1.5714057127581995,2.301845073699951,-0.0009582305210642517,0.04827706515789032,0.05098969489336014,-0.11628685146570206,-0.00011216507846256718,-6.990495603531599e-05,0.0,0.26815059781074524,-9.423578262329102,0.7195101380348206,47.71733474731445,-0.6015962362289429,-3.2195117473602295,-1.6904857158660889,-0.6823278665542603,-0.021007556468248367,-0.2886192798614502,25.5625,26.375,25.5,28.5625,29.875,30.5
1.0,-1.3910443449891434,-2.082465206681878,-1.2174639872824744,-0.09554659139896234,0.05768098199022183,-0.07354643131039348,-0.5389686664008783,-0.3247353338143661,0.25467108679898054,-3.0785474136096087,0.6247281465337466,-0.0002980788593448411,-0.001230637060702759,0.00017304922211319051,-0.043125666239215855,-0.0053218580946506125,0.015541957137738135,-0.0008516783322543196,0.32687216997146606,-1.145156816845276,1.6677611509906214,-2.091611524621481,-1.5713813940631312,2.301833152770996,-0.0008834177278913558,0.05148741230368614,0.05367376655340195,-0.12158874422311783,-0.00012190226698294282,-6.814071093685925e-05,-0.09576806426048279,0.38307225704193115,-9.423578262329102,0.7597975730895996,47.71017074584961,-0.5902582406997681,-3.16984224319458,-1.8277833461761475,-0.5909239649772644,-0.013099722564220428,-0.3028952181339264,25.5625,26.375,25.5,28.5625,29.875,30.5
1.0,-1.3984033291570552,-2.008839043610851,-1.2800645166000684,-0.08588766729279108,0.04438603905214879,-0.07434736656648598,-0.5389688281924914,-0.3247444308633055,0.2545840477867122,-3.0785853297217387,0.6247167583255081,-0.0002423706206245588,-0.0012629661466721739,0.00016980342374995773,-0.0433032370818088,-0.0048121718367398906,0.014046374179820556,-0.0008638376292461516,0.3268841803073883,-1.145048664217331,1.6678674856769007,-2.0918742618956507,-1.571369473134176,2.301833152770996,-0.0008954301010817289,0.05191497132182121,0.05309167131781578,-0.1198541596531868,-0.00012170051195425913,-6.729160668328404e-05,-0.1149216815829277,0.47884035110473633,-9.442731857299805,0.7284641265869141,47.71017074584961,-0.6081287264823914,-3.3312952518463135,-1.875800609588623,-0.5600572228431702,-0.028065089136362076,-0.29644912481307983,25.5625,26.375,25.5,28.5625,29.875,30.5
1.0,-1.2296813741961499,-1.447131972594938,-1.1433079566943212,-0.07607538884639131,0.02037313047885727,-0.08078532692568331,-0.5389834751785332,-0.3247287987610118,0.2545274089603664,-3.078575077171236,0.6247722013694997,-9.058024577226123e-05,-0.0012637987171701072,0.00024229517500093254,-0.04155783290050437,-0.004833812236059346,0.014598644283410282,-0.0009513274596585099,0.3268602192401886,-1.1449775260737916,1.6679509321795862,-2.0921126804747523,-1.5714176336871546,2.301845073699951,-0.0009831776842474937,0.049754031002521515,0.051391635090112686,-0.11652258783578873,-0.00027396995574235916,-6.646334804827347e-05,-0.17238251864910126,0.3064578175544739,-9.346963882446289,0.7150384783744812,47.71733474731445,-0.6069402098655701,-3.189157009124756,-1.6324234008789062,-0.6139227151870728,-0.0056024887599051,-0.3007150888442993,25.5625,26.375,25.5,28.5625,29.875,30.5
1.0,-0.42585440557775955,-1.1156827155971625,-1.0081693597429866,-0.04447435733558748,0.009712130842662536,-0.08995583986069725,-0.5389942392134922,-0.3247283960858997,0.2544282226451563,-3.078604823905453,0.624836051727755,-9.198591527790088e-05,-0.0010093770321429937,0.00045588136722604514,-0.043333797039697,-0.003080683068634,0.00954840916904088,-0.001140458621598763,0.3268481194972992,-1.144844875936844,1.6680477301227015,-2.0923625431456507,-1.5713813940631312,2.3018689155578613,-0.0011730337282642722,0.05164504423737526,0.052189599722623825,-0.11386571079492569,-0.0003044770855922252,-6.565530929947272e-05,-0.038307227194309235,0.3064578175544739,-9.346963882446289,0.6993717551231384,47.699424743652344,-0.5641883015632629,-3.1348419189453125,-1.6245014667510986,-0.6277036070823669,-0.021444670855998993,-0.29023128747940063,25.5625,26.375,25.5,28.5625,29.875,30.5
